20 Preset/Wedding Style New/【3】LUT video cho PR-AE-FCPX/Tone  (11).cube
# Created by Adobe Lightroom plugin Export LUT (1.24.0)
# www.johnrellis.com/lightroom/exportlut.htm
# Preset: 褐色婚礼-素材江湖01
# Color profile: C:\Program Files (x86)\Common Files\Adobe\Color\Profiles\Recommended\VideoHD.icc
LUT_3D_SIZE 32
DOMAIN_MIN 0.0 0.0 0.0
DOMAIN_MAX 1.0 1.0 1.0
0.025208 0.024170 0.028931
0.026184 0.025147 0.029908
0.030426 0.026886 0.030732
0.039979 0.030121 0.035737
0.059602 0.037812 0.041077
0.089143 0.045655 0.049470
0.106020 0.056519 0.058289
0.126406 0.067628 0.068818
0.152926 0.075105 0.077699
0.185000 0.081239 0.084627
0.223148 0.086000 0.090486
0.266728 0.090791 0.095674
0.315557 0.098817 0.102327
0.368017 0.111696 0.110262
0.422309 0.130556 0.119753
0.478004 0.153506 0.130770
0.534600 0.179355 0.143709
0.592554 0.206027 0.158602
0.650446 0.231632 0.175387
0.705348 0.256321 0.195163
0.757076 0.281102 0.217166
0.804440 0.307195 0.240665
0.846738 0.333898 0.264256
0.884062 0.362676 0.288945
0.917113 0.393683 0.314611
0.946014 0.427314 0.341711
0.970642 0.462898 0.370459
0.990723 0.499916 0.401343
1.000000 0.537438 0.434455
1.000000 0.574151 0.469398
1.000000 0.608881 0.505211
1.000000 0.641535 0.541833
0.025483 0.026368 0.029786
0.026184 0.025147 0.029908
0.031403 0.027863 0.031708
0.041260 0.031098 0.035584
0.061280 0.037568 0.042206
0.089601 0.046632 0.049287
0.106325 0.057496 0.059266
0.126894 0.067384 0.068818
0.152743 0.076326 0.078462
0.184878 0.082002 0.084535
0.222843 0.086915 0.090455
0.266178 0.091493 0.095613
0.314794 0.099275 0.102327
0.367193 0.112215 0.109957
0.421485 0.130770 0.119509
0.477089 0.154025 0.130556
0.533837 0.179446 0.143343
0.591363 0.206088 0.158145
0.649134 0.231937 0.175143
0.703944 0.256199 0.194766
0.755550 0.280858 0.216403
0.802213 0.306279 0.239658
0.844480 0.332647 0.262730
0.881773 0.361059 0.287175
0.914885 0.391913 0.312963
0.943908 0.424964 0.339666
0.968963 0.460273 0.368170
0.989380 0.497261 0.398840
1.000000 0.534874 0.432013
1.000000 0.571862 0.467048
1.000000 0.606806 0.503014
1.000000 0.639704 0.539635
0.029389 0.030274 0.033692
0.028656 0.031464 0.033539
0.032349 0.031006 0.034638
0.043793 0.035248 0.037232
0.067384 0.042481 0.042573
0.091768 0.051514 0.050782
0.108736 0.062165 0.059602
0.129213 0.071839 0.069123
0.155825 0.079988 0.078553
0.188022 0.084596 0.085328
0.225559 0.089601 0.090791
0.269139 0.094118 0.095827
0.317479 0.102785 0.102327
0.369512 0.116304 0.110079
0.423590 0.134768 0.119509
0.479011 0.157900 0.130404
0.535546 0.183322 0.143282
0.592737 0.209598 0.158267
0.650507 0.234867 0.175418
0.705257 0.258793 0.194827
0.756130 0.283177 0.216739
0.802640 0.308232 0.239567
0.844297 0.334417 0.262974
0.881559 0.362402 0.287114
0.914519 0.392767 0.312383
0.943450 0.425666 0.339239
0.968383 0.460945 0.367864
0.988861 0.497658 0.398505
1.000000 0.535058 0.431373
1.000000 0.571954 0.466407
1.000000 0.606775 0.502251
1.000000 0.639582 0.538872
0.033783 0.040711 0.041199
0.035065 0.041688 0.041047
0.039033 0.041230 0.041016
0.047639 0.041321 0.043091
0.074098 0.050507 0.046967
0.096468 0.062287 0.052430
0.113558 0.072480 0.061250
0.135042 0.080720 0.070588
0.162264 0.086488 0.079347
0.194522 0.090578 0.085817
0.232547 0.094972 0.090822
0.275608 0.100526 0.095949
0.324041 0.110048 0.102419
0.375616 0.124514 0.110414
0.429267 0.143435 0.119692
0.484108 0.166415 0.130770
0.539788 0.191257 0.143862
0.596735 0.216831 0.158785
0.653803 0.241459 0.175967
0.707698 0.264439 0.195254
0.757687 0.287877 0.216892
0.803250 0.312078 0.239628
0.844450 0.337774 0.262699
0.881376 0.365301 0.286839
0.914275 0.395544 0.312505
0.943450 0.428534 0.339574
0.968475 0.463783 0.368292
0.989014 0.500542 0.399329
1.000000 0.537713 0.432441
1.000000 0.574426 0.467506
1.000000 0.608759 0.502983
1.000000 0.641169 0.539544
0.041810 0.061830 0.051698
0.043793 0.061616 0.051698
0.048066 0.061158 0.050538
0.060243 0.061982 0.051331
0.075196 0.062379 0.056641
0.096742 0.074128 0.063233
0.120485 0.086030 0.065034
0.144167 0.091005 0.072724
0.172152 0.094820 0.080354
0.204776 0.099184 0.086275
0.242924 0.103944 0.091188
0.286076 0.111391 0.096468
0.334020 0.122133 0.102693
0.385412 0.137850 0.110872
0.438239 0.157351 0.120333
0.492653 0.180087 0.131258
0.548089 0.204257 0.144717
0.604730 0.228672 0.159823
0.661067 0.251957 0.177310
0.714046 0.273960 0.197086
0.762783 0.296635 0.219120
0.807156 0.320073 0.241306
0.847501 0.344976 0.264225
0.883848 0.372107 0.288579
0.916320 0.401923 0.314153
0.944915 0.434791 0.341466
0.969512 0.469490 0.370214
0.989563 0.505730 0.401129
1.000000 0.542504 0.434363
1.000000 0.578393 0.469184
1.000000 0.612177 0.504692
1.000000 0.643885 0.540826
0.052033 0.083803 0.065003
0.054017 0.083650 0.065003
0.057038 0.082734 0.063996
0.067262 0.082033 0.062837
0.085145 0.085389 0.065064
0.095338 0.086305 0.073426
0.117250 0.091768 0.080293
0.148714 0.100130 0.080720
0.186679 0.108370 0.081209
0.220584 0.112947 0.087068
0.258762 0.119356 0.091737
0.302129 0.128328 0.096498
0.349981 0.141146 0.103029
0.400641 0.157778 0.111147
0.452613 0.177432 0.121096
0.506706 0.199557 0.132357
0.561578 0.222751 0.145937
0.617548 0.245487 0.161685
0.672633 0.267033 0.180117
0.724147 0.288090 0.200412
0.771328 0.309514 0.222354
0.814298 0.332280 0.244846
0.867247 0.367041 0.276951
0.901335 0.395117 0.301915
0.931365 0.425544 0.328191
0.957397 0.458381 0.355901
0.979126 0.492683 0.385229
0.996551 0.527672 0.416449
1.000000 0.562829 0.449836
1.000000 0.596399 0.484169
1.000000 0.627924 0.518822
1.000000 0.657527 0.554040
0.064363 0.097444 0.079713
0.064363 0.097444 0.079713
0.067353 0.096956 0.079072
0.076356 0.095491 0.076661
0.088228 0.096712 0.076936
0.101228 0.100160 0.079622
0.114504 0.100923 0.087404
0.145174 0.108156 0.092226
0.185580 0.119112 0.091737
0.236423 0.132998 0.089754
0.284001 0.144320 0.090944
0.327977 0.155276 0.096498
0.375647 0.169558 0.103548
0.425360 0.186709 0.112001
0.476783 0.206332 0.122347
0.529381 0.226993 0.134524
0.583490 0.248295 0.149447
0.638361 0.268528 0.166262
0.691585 0.288060 0.185336
0.741970 0.308293 0.207126
0.787961 0.329595 0.230106
0.830655 0.352392 0.253300
0.868864 0.377691 0.277775
0.902953 0.405524 0.303441
0.933013 0.436042 0.330205
0.958648 0.468544 0.358404
0.979767 0.501823 0.387732
0.996674 0.536004 0.419196
1.000000 0.570092 0.452399
1.000000 0.602533 0.486336
1.000000 0.633021 0.520806
1.000000 0.661830 0.555688
0.073243 0.111116 0.088808
0.073945 0.110780 0.088838
0.077943 0.110048 0.088106
0.082887 0.108553 0.086397
0.088991 0.106538 0.083986
0.101808 0.111147 0.087160
0.120333 0.117311 0.089693
0.138521 0.117739 0.095216
0.177707 0.127474 0.102449
0.225742 0.142947 0.101930
0.283818 0.162325 0.099641
0.350378 0.186801 0.095277
0.399878 0.202823 0.101442
0.448371 0.219394 0.110689
0.498421 0.237461 0.122499
0.550103 0.256260 0.135836
0.603204 0.275120 0.151614
0.656550 0.292668 0.169497
0.707973 0.310674 0.190097
0.755093 0.328862 0.211978
0.798734 0.348608 0.234531
0.838926 0.370367 0.257908
0.875181 0.394537 0.282322
0.907774 0.421393 0.307836
0.936614 0.451057 0.334600
0.960998 0.482399 0.362921
0.981292 0.514641 0.392187
0.997375 0.547448 0.423621
1.000000 0.580102 0.456672
1.000000 0.611292 0.490425
1.000000 0.640650 0.524681
1.000000 0.668421 0.559380
0.081117 0.127016 0.095918
0.081575 0.126741 0.095979
0.083284 0.125887 0.095369
0.088746 0.124056 0.094087
0.092927 0.121035 0.091707
0.102754 0.121889 0.091737
0.119661 0.129274 0.094331
0.144991 0.138552 0.097780
0.168276 0.139437 0.104738
0.215915 0.152834 0.115480
0.271550 0.173678 0.115328
0.336156 0.199466 0.114137
0.407050 0.229374 0.110811
0.475837 0.258305 0.108827
0.525322 0.274205 0.122103
0.576043 0.290105 0.137636
0.628016 0.305638 0.154910
0.679377 0.321447 0.174807
0.726986 0.336889 0.196017
0.770962 0.353552 0.218265
0.811887 0.371954 0.240726
0.849668 0.392523 0.264103
0.883696 0.415656 0.288396
0.914336 0.441718 0.313970
0.941405 0.470192 0.340948
0.964385 0.500023 0.369146
0.983307 0.530907 0.398810
0.998383 0.562280 0.430335
1.000000 0.593286 0.463233
1.000000 0.622705 0.496620
1.000000 0.650690 0.530663
1.000000 0.677028 0.564843
0.087312 0.145357 0.103883
0.087953 0.145144 0.103578
0.089631 0.143954 0.102724
0.092836 0.141573 0.101381
0.097841 0.138064 0.099153
0.103212 0.133211 0.096223
0.119203 0.140749 0.098817
0.142458 0.151766 0.102205
0.173587 0.163790 0.107546
0.202762 0.167453 0.117464
0.259739 0.184726 0.132113
0.321569 0.210880 0.133455
0.390539 0.240909 0.133639
0.463844 0.273594 0.132204
0.542138 0.306279 0.130648
0.605921 0.327276 0.140597
0.656336 0.340398 0.160494
0.703883 0.353399 0.181552
0.747951 0.367285 0.203647
0.789059 0.382483 0.225986
0.827085 0.399542 0.248875
0.861540 0.418616 0.271824
0.892668 0.440314 0.295750
0.921019 0.464851 0.321233
0.946044 0.491341 0.347875
0.967346 0.519524 0.376043
0.984833 0.548821 0.406012
0.998962 0.578424 0.437568
1.000000 0.607538 0.470039
1.000000 0.635370 0.503563
1.000000 0.661769 0.537194
1.000000 0.686885 0.571252
0.091463 0.165866 0.112093
0.091615 0.165316 0.111879
0.093996 0.164309 0.111147
0.097017 0.161410 0.109529
0.101808 0.157565 0.107027
0.107393 0.152071 0.104128
0.118044 0.151919 0.102846
0.140139 0.163485 0.107057
0.170626 0.178836 0.112276
0.207095 0.193942 0.120333
0.243076 0.201114 0.133364
0.308385 0.222202 0.153323
0.375067 0.252293 0.155764
0.446693 0.284916 0.157839
0.523552 0.317510 0.160098
0.604639 0.348791 0.162692
0.683955 0.377630 0.167697
0.729091 0.389288 0.189639
0.769680 0.401129 0.212161
0.807523 0.414923 0.234867
0.842405 0.430549 0.257389
0.873747 0.448432 0.280644
0.902647 0.469001 0.305119
0.928740 0.491859 0.330541
0.951720 0.516777 0.357610
0.971160 0.543267 0.385992
0.987121 0.570611 0.416083
1.000000 0.598199 0.447639
1.000000 0.624964 0.479957
1.000000 0.650690 0.512810
1.000000 0.675227 0.546044
1.000000 0.698665 0.579644
0.096651 0.187686 0.121279
0.096986 0.187533 0.121035
0.098817 0.186069 0.120516
0.102296 0.183322 0.118563
0.106844 0.178805 0.116060
0.112276 0.172580 0.112306
0.118318 0.164706 0.107668
0.137270 0.174044 0.110719
0.165072 0.190188 0.116793
0.202823 0.209964 0.123903
0.244968 0.227726 0.134859
0.287846 0.239048 0.152102
0.368109 0.269444 0.181338
0.440284 0.303136 0.186526
0.517357 0.336187 0.192050
0.598291 0.368048 0.197879
0.677333 0.397498 0.204929
0.749172 0.425879 0.214481
0.804349 0.448676 0.229374
0.837766 0.461311 0.252506
0.868040 0.475807 0.275822
0.895659 0.492226 0.299321
0.920775 0.510887 0.324041
0.943236 0.532097 0.350103
0.962615 0.554711 0.377447
0.978790 0.578332 0.406134
0.992157 0.602441 0.435828
1.000000 0.626429 0.466590
1.000000 0.649744 0.497658
1.000000 0.672297 0.529442
1.000000 0.693996 0.561517
1.000000 0.715114 0.594018
0.101259 0.212009 0.131411
0.102022 0.211582 0.131258
0.104372 0.210086 0.130373
0.107088 0.206729 0.128389
0.111940 0.201724 0.125154
0.117220 0.194919 0.121340
0.123415 0.186007 0.116609
0.133577 0.182895 0.114168
0.159976 0.199619 0.120180
0.195315 0.220279 0.127901
0.240909 0.245762 0.137850
0.288945 0.266972 0.153323
0.339422 0.282780 0.175021
0.418860 0.311254 0.207279
0.496101 0.344854 0.216495
0.575067 0.377203 0.224125
0.653986 0.407813 0.232303
0.726070 0.436683 0.242130
0.790707 0.465827 0.253269
0.847532 0.496101 0.265537
0.880552 0.512902 0.286442
0.905638 0.527520 0.310643
0.928618 0.544305 0.335668
0.948913 0.563073 0.362005
0.966339 0.583459 0.389746
0.980957 0.604822 0.418616
0.993072 0.626703 0.448554
1.000000 0.648127 0.479011
1.000000 0.669123 0.509850
1.000000 0.689479 0.541039
1.000000 0.709346 0.572686
1.000000 0.728695 0.604639
0.106813 0.234562 0.141024
0.107240 0.234104 0.140688
0.109255 0.232578 0.139925
0.112154 0.228977 0.137606
0.116793 0.223697 0.134463
0.122133 0.216495 0.130129
0.127718 0.207187 0.125002
0.133089 0.195865 0.118746
0.152865 0.205051 0.121706
0.185214 0.225711 0.129519
0.227146 0.250858 0.139651
0.279759 0.280583 0.152193
0.331914 0.303868 0.172152
0.386908 0.322210 0.197910
0.470039 0.351720 0.233799
0.551751 0.385260 0.248203
0.629908 0.416876 0.257359
0.702083 0.446387 0.267643
0.767208 0.476143 0.279362
0.825467 0.506584 0.292058
0.875639 0.537346 0.306340
0.915587 0.565820 0.324498
0.936400 0.580560 0.350042
0.954406 0.597101 0.377173
0.969879 0.615015 0.405127
0.982910 0.633875 0.434363
0.993835 0.652705 0.463722
1.000000 0.671504 0.493690
1.000000 0.689967 0.523980
1.000000 0.708064 0.554589
1.000000 0.725826 0.585504
1.000000 0.743496 0.617090
0.111910 0.256657 0.150393
0.112520 0.256168 0.150118
0.114046 0.254551 0.149081
0.117311 0.250858 0.146914
0.121584 0.245304 0.143404
0.126436 0.237491 0.138979
0.131746 0.227787 0.133272
0.137179 0.216220 0.126802
0.144991 0.207736 0.121981
0.174594 0.228428 0.129793
0.213016 0.253361 0.139864
0.261662 0.282780 0.152499
0.320500 0.316106 0.168307
0.375341 0.339910 0.192416
0.434730 0.360113 0.221683
0.521324 0.390600 0.260868
0.606012 0.425086 0.280949
0.678370 0.455756 0.291966
0.743771 0.485817 0.303990
0.803128 0.516594 0.317418
0.854765 0.547539 0.332433
0.899901 0.579431 0.349645
0.937560 0.611963 0.369574
0.959136 0.632624 0.394659
0.972686 0.647761 0.423224
0.984314 0.663691 0.452003
0.994110 0.679774 0.480964
1.000000 0.695857 0.510430
1.000000 0.711879 0.540429
1.000000 0.727901 0.570367
1.000000 0.743832 0.601190
1.000000 0.759609 0.631922
0.117311 0.277256 0.159152
0.117678 0.276890 0.158846
0.118868 0.275090 0.157809
0.121798 0.271885 0.155795
0.125917 0.266209 0.152377
0.130770 0.258488 0.147677
0.135958 0.248600 0.141970
0.140841 0.236606 0.134920
0.145296 0.222293 0.127474
0.163699 0.228763 0.129000
0.198795 0.253483 0.138918
0.243473 0.282414 0.151278
0.298161 0.315190 0.166781
0.362402 0.350744 0.185702
0.418647 0.374426 0.213718
0.481666 0.396338 0.245640
0.570581 0.428107 0.287694
0.653590 0.463172 0.314183
0.719356 0.493996 0.327123
0.779477 0.525170 0.341253
0.833066 0.556756 0.357305
0.879911 0.588830 0.375525
0.919738 0.621332 0.396185
0.951476 0.653346 0.419135
0.974762 0.681392 0.444221
0.985107 0.694270 0.472633
0.993927 0.707485 0.500938
1.000000 0.720912 0.529778
1.000000 0.734432 0.558740
1.000000 0.748196 0.588220
1.000000 0.761929 0.617823
1.000000 0.775540 0.647333
0.123262 0.297063 0.167788
0.123873 0.296391 0.167453
0.124849 0.294865 0.166476
0.127077 0.291234 0.163882
0.130190 0.285863 0.160586
0.134890 0.278477 0.155978
0.139742 0.268345 0.150057
0.144259 0.256077 0.142916
0.148470 0.241672 0.134920
0.152041 0.226596 0.127077
0.184146 0.250828 0.136416
0.225040 0.279149 0.148440
0.275578 0.311437 0.163302
0.335149 0.346502 0.181796
0.401953 0.382818 0.204562
0.462226 0.408453 0.235477
0.528527 0.432197 0.270085
0.616693 0.464820 0.315007
0.695308 0.501518 0.349310
0.755856 0.533165 0.364385
0.810971 0.565332 0.381415
0.859403 0.597833 0.400855
0.901122 0.630304 0.422309
0.934997 0.661891 0.445472
0.961547 0.691615 0.469825
0.982086 0.718990 0.495521
0.993072 0.734859 0.522759
0.999512 0.745754 0.550652
1.000000 0.757015 0.578912
1.000000 0.768490 0.607416
1.000000 0.780179 0.636072
1.000000 0.791714 0.664179
0.129366 0.315862 0.175967
0.129854 0.315984 0.176089
0.132082 0.317235 0.176364
0.133974 0.313695 0.173892
0.136995 0.308110 0.170230
0.140322 0.300511 0.165408
0.144686 0.290623 0.159274
0.149050 0.277989 0.151858
0.152621 0.263340 0.143374
0.155367 0.246128 0.134096
0.170840 0.248142 0.133791
0.209018 0.276341 0.145357
0.256199 0.308446 0.160189
0.313024 0.343725 0.178225
0.377600 0.381384 0.200046
0.446876 0.418860 0.226627
0.510613 0.446479 0.260258
0.579278 0.471992 0.297917
0.661769 0.504631 0.347112
0.735805 0.543847 0.390112
0.791745 0.576532 0.408148
0.840879 0.608972 0.428534
0.883635 0.641016 0.450568
0.919188 0.671931 0.473487
0.947234 0.700649 0.497230
0.969085 0.727169 0.522118
0.985809 0.751095 0.547601
0.997345 0.770382 0.574121
1.000000 0.779171 0.601251
1.000000 0.788510 0.628382
1.000000 0.798032 0.655329
1.000000 0.807614 0.681910
0.136355 0.335485 0.184817
0.136629 0.335546 0.184787
0.137667 0.334173 0.183810
0.139528 0.330999 0.181613
0.141695 0.325994 0.178103
0.144717 0.318578 0.173220
0.148775 0.309056 0.167086
0.152193 0.296696 0.159304
0.155550 0.282017 0.150637
0.158389 0.265019 0.141360
0.159792 0.246098 0.131533
0.190768 0.269017 0.140536
0.234409 0.300481 0.154116
0.286625 0.334997 0.171328
0.347326 0.372229 0.192203
0.416083 0.412451 0.216831
0.487007 0.450752 0.246098
0.553582 0.480385 0.282475
0.621454 0.506798 0.323949
0.698024 0.540520 0.378302
0.768734 0.582574 0.429938
0.819425 0.615381 0.451179
0.863981 0.647242 0.473548
0.901518 0.677729 0.496468
0.931640 0.706416 0.520287
0.955138 0.732967 0.545129
0.973327 0.756771 0.570489
0.987121 0.778225 0.596490
0.997467 0.797330 0.623346
1.000000 0.807156 0.649226
1.000000 0.814786 0.674617
1.000000 0.822660 0.699672
0.142733 0.353216 0.192782
0.143130 0.353216 0.192782
0.143862 0.351629 0.191348
0.145754 0.349065 0.189609
0.147677 0.344060 0.185977
0.149966 0.337133 0.181247
0.152804 0.327581 0.174777
0.155673 0.315587 0.167178
0.158694 0.301457 0.158389
0.160861 0.284672 0.148592
0.162448 0.265782 0.138491
0.173800 0.261357 0.135164
0.213321 0.291997 0.147829
0.262119 0.326177 0.164126
0.319738 0.363104 0.184054
0.384283 0.402808 0.207584
0.457374 0.446021 0.234409
0.529442 0.485023 0.266789
0.596887 0.515740 0.306706
0.661646 0.542229 0.352514
0.732540 0.577783 0.413184
0.797696 0.620508 0.472480
0.843809 0.652338 0.495064
0.883543 0.682856 0.518364
0.915648 0.711543 0.542351
0.940887 0.738033 0.567102
0.960540 0.761898 0.592126
0.975525 0.783444 0.618189
0.986969 0.802396 0.644160
0.995636 0.819089 0.670100
1.000000 0.830900 0.694881
1.000000 0.837308 0.718441
0.149447 0.371313 0.200534
0.149630 0.371344 0.200626
0.150576 0.370062 0.199496
0.151247 0.367193 0.197330
0.153048 0.362493 0.193912
0.155276 0.355657 0.188998
0.157229 0.346593 0.182650
0.159670 0.335119 0.175021
0.161898 0.321202 0.166079
0.164187 0.304570 0.156039
0.165438 0.285679 0.145357
0.165255 0.264622 0.134493
0.193576 0.282628 0.140993
0.238773 0.316503 0.156039
0.293034 0.353246 0.175021
0.354589 0.392676 0.197635
0.423804 0.435492 0.223880
0.501183 0.482185 0.253147
0.573693 0.521752 0.289647
0.639399 0.552026 0.334356
0.700862 0.579248 0.384741
0.765835 0.616663 0.452766
0.825284 0.658717 0.518090
0.866850 0.689509 0.542107
0.900755 0.718502 0.566613
0.927459 0.745083 0.591547
0.948180 0.769131 0.617090
0.964202 0.790524 0.642756
0.976562 0.809262 0.668269
0.986084 0.825620 0.693111
0.993133 0.840085 0.717678
0.998230 0.852873 0.741482
0.156954 0.391760 0.209323
0.157076 0.391608 0.209110
0.157321 0.390356 0.208194
0.157961 0.387304 0.205875
0.159274 0.382483 0.202274
0.160708 0.375586 0.197391
0.162539 0.366705 0.190890
0.164401 0.355657 0.183291
0.165713 0.341833 0.173800
0.167361 0.325872 0.163607
0.168429 0.307469 0.152712
0.168582 0.286656 0.141115
0.174075 0.273533 0.133761
0.216495 0.307134 0.147768
0.267674 0.343633 0.165377
0.326909 0.382910 0.187167
0.393042 0.425360 0.212833
0.466438 0.471565 0.241367
0.546868 0.521141 0.273259
0.616785 0.558099 0.314916
0.679103 0.587457 0.364294
0.736751 0.615839 0.419959
0.794339 0.652369 0.492073
0.848234 0.692836 0.561364
0.884031 0.721767 0.585870
0.912535 0.748684 0.611048
0.934936 0.773037 0.636530
0.952300 0.794644 0.661891
0.965881 0.813443 0.686702
0.976318 0.829923 0.711238
0.984161 0.844419 0.735256
0.990021 0.857206 0.758236
0.162814 0.411627 0.217533
0.162936 0.411475 0.217319
0.163485 0.410040 0.216403
0.164004 0.407263 0.214054
0.164553 0.402441 0.210513
0.166323 0.395911 0.205570
0.168002 0.387274 0.199283
0.169070 0.376074 0.191135
0.170230 0.362829 0.181949
0.171420 0.347387 0.171511
0.172061 0.329320 0.160006
0.171756 0.308721 0.147799
0.170382 0.285863 0.135775
0.194461 0.296544 0.138949
0.242802 0.333013 0.155367
0.299474 0.372076 0.175906
0.363104 0.414374 0.200565
0.433051 0.460060 0.228519
0.510582 0.509728 0.259556
0.592493 0.559869 0.295476
0.657649 0.593347 0.342779
0.716732 0.622675 0.396460
0.769100 0.652186 0.460212
0.820462 0.686702 0.532677
0.867033 0.724269 0.603662
0.897093 0.751064 0.628473
0.921233 0.775845 0.653834
0.940124 0.797696 0.678828
0.955016 0.816831 0.703517
0.966491 0.833555 0.727596
0.975250 0.848295 0.751308
0.981842 0.861234 0.773831
0.168734 0.433997 0.226383
0.169039 0.433997 0.226383
0.169619 0.432685 0.225406
0.169741 0.429541 0.222995
0.170871 0.424720 0.219303
0.171847 0.418006 0.214359
0.173007 0.409400 0.207889
0.174350 0.398779 0.200046
0.175296 0.385412 0.190372
0.175967 0.370153 0.179782
0.176028 0.352544 0.167910
0.175753 0.332158 0.155306
0.174380 0.309850 0.142245
0.172793 0.286107 0.130129
0.218265 0.322179 0.144961
0.272313 0.360784 0.163943
0.333257 0.402441 0.187228
0.400519 0.447456 0.214389
0.474311 0.496407 0.244358
0.554009 0.547662 0.278508
0.635035 0.595972 0.319249
0.695399 0.626764 0.371771
0.750027 0.656306 0.431922
0.796902 0.685023 0.499092
0.842100 0.717372 0.570947
0.882231 0.754513 0.647028
0.907530 0.778470 0.670466
0.928038 0.800626 0.695186
0.944121 0.820005 0.719600
0.956634 0.837003 0.743465
0.966308 0.851957 0.766629
0.973632 0.865171 0.788754
0.172946 0.456794 0.235142
0.173007 0.456275 0.234653
0.173342 0.455146 0.233677
0.174319 0.452522 0.231754
0.175051 0.447944 0.228275
0.176516 0.441535 0.223331
0.177584 0.433234 0.217075
0.178958 0.422553 0.208896
0.180148 0.409644 0.199344
0.181338 0.394934 0.188815
0.181369 0.377661 0.176486
0.181003 0.358038 0.163455
0.179294 0.336309 0.149844
0.177066 0.311589 0.135866
0.195163 0.312596 0.134615
0.246677 0.351324 0.152255
0.306249 0.392737 0.174319
0.371160 0.437263 0.200320
0.442634 0.486000 0.229801
0.519890 0.537682 0.262669
0.600153 0.587335 0.301732
0.676661 0.631983 0.348394
0.733272 0.662165 0.406073
0.781552 0.690974 0.473426
0.823636 0.718624 0.541283
0.862028 0.748806 0.613184
0.894743 0.782712 0.687312
0.916136 0.804257 0.712490
0.933410 0.824033 0.736782
0.946929 0.841245 0.760372
0.957397 0.856413 0.783047
0.965484 0.868894 0.802792
0.176211 0.483284 0.244724
0.176242 0.483009 0.244419
0.176913 0.481605 0.243412
0.177584 0.478920 0.241245
0.178988 0.474342 0.237766
0.180209 0.468177 0.233036
0.181857 0.459693 0.226688
0.183627 0.449226 0.218723
0.185550 0.436988 0.209445
0.186679 0.422248 0.198367
0.187167 0.405097 0.186099
0.187076 0.386023 0.172457
0.185763 0.364782 0.158206
0.183444 0.340887 0.143435
0.180087 0.314366 0.128756
0.222049 0.342931 0.140536
0.280156 0.384070 0.160983
0.343816 0.428595 0.186160
0.412757 0.476570 0.214633
0.487800 0.528435 0.246403
0.566644 0.579156 0.283970
0.646174 0.626551 0.328435
0.717037 0.667933 0.380682
0.766720 0.696712 0.447730
0.810208 0.724208 0.515862
0.846830 0.750362 0.584131
0.877928 0.777920 0.655055
0.904570 0.807828 0.725124
0.922545 0.827024 0.751827
0.937133 0.844694 0.775326
0.948455 0.859312 0.795956
0.957366 0.871916 0.814969
0.177707 0.513237 0.255406
0.177859 0.512749 0.254978
0.178256 0.511437 0.253849
0.179355 0.508965 0.251926
0.180850 0.504540 0.248508
0.182589 0.498390 0.243626
0.185122 0.490639 0.237644
0.187869 0.480720 0.229892
0.190463 0.468727 0.220615
0.192905 0.454719 0.209842
0.194583 0.438514 0.197482
0.195743 0.420020 0.183749
0.195254 0.399145 0.168612
0.193912 0.376104 0.152804
0.190616 0.350774 0.136843
0.200778 0.340002 0.129213
0.258244 0.381292 0.148684
0.321660 0.425788 0.172854
0.389380 0.474067 0.201083
0.462806 0.526360 0.232425
0.540459 0.577905 0.269383
0.620020 0.625849 0.313115
0.696498 0.670863 0.363989
0.757351 0.707912 0.427649
0.801541 0.734951 0.496864
0.839292 0.760830 0.566247
0.868925 0.784817 0.635340
0.893095 0.808499 0.702693
0.913512 0.833371 0.766598
0.927916 0.849180 0.791531
0.940063 0.863737 0.811154
0.949676 0.876402 0.829282
0.179538 0.551507 0.269474
0.179568 0.551110 0.269169
0.179477 0.549828 0.267979
0.180453 0.547387 0.265965
0.182406 0.543023 0.262455
0.184390 0.536919 0.257389
0.187228 0.529076 0.251286
0.190616 0.519066 0.243290
0.194491 0.507164 0.234073
0.198276 0.492897 0.222995
0.201633 0.476509 0.210452
0.204013 0.458198 0.196414
0.205509 0.437201 0.180575
0.205264 0.414527 0.163943
