20 Preset/Wedding Style New/【3】LUT video cho PR-AE-FCPX/Tone  (5).cube
# Created by Adobe Lightroom plugin Export LUT (1.24.0)
# www.johnrellis.com/lightroom/exportlut.htm
# Preset: 褐色婚礼-素材江湖06
# Color profile: C:\Program Files (x86)\Common Files\Adobe\Color\Profiles\Recommended\VideoHD.icc
LUT_3D_SIZE 32
DOMAIN_MIN 0.0 0.0 0.0
DOMAIN_MAX 1.0 1.0 1.0
0.025208 0.024170 0.028931
0.026184 0.025147 0.029908
0.033387 0.027649 0.031708
0.045502 0.032837 0.036408
0.071473 0.040803 0.044953
0.094453 0.050629 0.053010
0.112490 0.062776 0.063783
0.135348 0.073060 0.072938
0.163760 0.080110 0.081544
0.197757 0.084871 0.087221
0.236454 0.088808 0.091798
0.279026 0.093477 0.096620
0.325017 0.101747 0.102449
0.373327 0.115023 0.109865
0.422126 0.133181 0.118502
0.470802 0.155093 0.128817
0.519860 0.178897 0.140200
0.569177 0.203525 0.153658
0.618402 0.227329 0.168399
0.667659 0.250401 0.185031
0.713832 0.271885 0.203128
0.765225 0.298436 0.227115
0.808652 0.324163 0.250401
0.847318 0.350530 0.273594
0.880858 0.377783 0.297185
0.910613 0.406470 0.321080
0.937224 0.437079 0.346288
0.960754 0.469581 0.372839
0.980926 0.503807 0.401770
0.997742 0.539422 0.433082
1.000000 0.575525 0.467201
1.000000 0.610742 0.503288
0.025177 0.026368 0.030915
0.027161 0.026123 0.030884
0.034363 0.028626 0.032685
0.047486 0.032624 0.036378
0.073457 0.040589 0.044953
0.094789 0.051606 0.053986
0.111910 0.062989 0.063783
0.134493 0.073518 0.072969
0.162814 0.080537 0.080842
0.195834 0.085237 0.087373
0.234195 0.089357 0.091463
0.275975 0.093874 0.096437
0.321416 0.101656 0.102083
0.369360 0.114626 0.109071
0.417884 0.132662 0.117617
0.466621 0.153964 0.127687
0.515496 0.178012 0.139284
0.564721 0.201999 0.152285
0.614008 0.226017 0.166873
0.663020 0.248539 0.183291
0.709255 0.270451 0.201480
0.759457 0.295598 0.223911
0.801999 0.320409 0.246433
0.840055 0.345800 0.269200
0.873991 0.372045 0.291905
0.903868 0.399664 0.315282
0.931029 0.429694 0.340154
0.955444 0.461921 0.366491
0.976684 0.496071 0.394965
0.994537 0.531701 0.426184
1.000000 0.568353 0.460365
1.000000 0.604303 0.496437
0.030610 0.033417 0.035492
0.030610 0.033417 0.035492
0.036591 0.032746 0.035462
0.050996 0.037720 0.039002
0.078370 0.046693 0.046296
0.097566 0.056275 0.054322
0.114504 0.068635 0.063966
0.137057 0.077729 0.073274
0.165011 0.083833 0.080934
0.197971 0.088594 0.086641
0.235569 0.092134 0.091402
0.276860 0.096925 0.095949
0.321996 0.104891 0.101595
0.369177 0.118013 0.108583
0.417517 0.135531 0.117189
0.465919 0.156710 0.127016
0.514611 0.180056 0.138277
0.563592 0.204044 0.151369
0.612573 0.227726 0.166140
0.661707 0.250034 0.182345
0.708919 0.271702 0.200565
0.757687 0.296605 0.223087
0.799619 0.320470 0.245182
0.837400 0.345190 0.267338
0.870970 0.370733 0.289708
0.900816 0.397894 0.313054
0.928191 0.427466 0.337316
0.952941 0.459358 0.363561
0.974548 0.493233 0.391913
0.992828 0.528954 0.422950
1.000000 0.565454 0.456947
1.000000 0.601526 0.493080
0.039216 0.047761 0.045777
0.039216 0.047761 0.045777
0.044465 0.048310 0.045594
0.055390 0.048157 0.046540
0.083253 0.055695 0.051667
0.101961 0.069215 0.056825
0.120150 0.079744 0.065278
0.143099 0.084932 0.074586
0.171328 0.090089 0.081544
0.204196 0.093568 0.087037
0.241428 0.097597 0.091463
0.282109 0.103243 0.095766
0.326757 0.111849 0.101167
0.373022 0.125399 0.108278
0.420081 0.142702 0.116518
0.467781 0.163729 0.126253
0.515435 0.185977 0.137453
0.563409 0.209293 0.150484
0.611719 0.231876 0.164981
0.659907 0.253666 0.180972
0.707515 0.274846 0.199374
0.754177 0.297978 0.220768
0.795224 0.320745 0.241978
0.832792 0.344793 0.264103
0.866972 0.370153 0.286900
0.898100 0.397436 0.310307
0.926452 0.427588 0.335424
0.951873 0.459815 0.362280
0.973999 0.494087 0.390967
0.992309 0.529747 0.422339
1.000000 0.565881 0.456031
1.000000 0.601160 0.491402
0.051148 0.072786 0.060182
0.051148 0.072786 0.060182
0.056703 0.073335 0.058900
0.068879 0.074159 0.059663
0.084474 0.071931 0.061860
0.101991 0.080751 0.067445
0.126314 0.089540 0.069245
0.152316 0.094514 0.075074
0.180789 0.097932 0.081727
0.213077 0.102327 0.086702
0.249516 0.106905 0.091005
0.289464 0.113741 0.094972
0.332708 0.123323 0.100435
0.378637 0.137392 0.107485
0.425177 0.154940 0.115663
0.472297 0.175235 0.125460
0.519921 0.196902 0.136904
0.567926 0.219303 0.149783
0.615961 0.240940 0.164645
0.663630 0.261448 0.181064
0.711757 0.282811 0.200229
0.756344 0.304265 0.221012
0.796139 0.326177 0.242283
0.833433 0.349432 0.263798
0.867308 0.374517 0.286687
0.898405 0.401587 0.310307
0.926543 0.431281 0.335454
0.951843 0.463081 0.362066
0.973602 0.496773 0.390814
0.991730 0.531792 0.421759
1.000000 0.567163 0.454994
1.000000 0.601801 0.490120
0.063874 0.091981 0.077089
0.063874 0.091981 0.077089
0.068879 0.091341 0.076081
0.078920 0.090944 0.073793
0.091585 0.092836 0.076020
0.101411 0.091585 0.079591
0.123384 0.095918 0.083986
0.155428 0.103395 0.082979
0.195743 0.112520 0.080507
0.228550 0.117311 0.085451
0.264408 0.122835 0.090150
0.304082 0.130678 0.094270
0.346715 0.141390 0.099733
0.391516 0.156161 0.106691
0.437171 0.173648 0.115145
0.483955 0.193271 0.125185
0.530785 0.213962 0.137118
0.578149 0.235019 0.150729
0.625757 0.254978 0.165713
0.672999 0.274357 0.182650
0.721218 0.295262 0.202823
0.764096 0.315770 0.223728
0.841184 0.362799 0.267979
0.875608 0.388983 0.292119
0.905882 0.416419 0.316350
0.932586 0.445624 0.341466
0.955932 0.475929 0.367437
0.975860 0.507225 0.394690
0.992309 0.539635 0.424201
1.000000 0.572259 0.455482
1.000000 0.603815 0.487953
1.000000 0.633845 0.521172
0.075929 0.108797 0.089601
0.076936 0.108431 0.089235
0.080537 0.107942 0.088869
0.087465 0.106600 0.087587
0.096529 0.107454 0.087037
0.111604 0.111025 0.088563
0.125643 0.109529 0.091798
0.156893 0.114260 0.094789
0.197086 0.124941 0.093690
0.245365 0.137881 0.090852
0.295659 0.151766 0.088197
0.336156 0.161196 0.092744
0.378576 0.173098 0.098909
0.422370 0.188296 0.107057
0.466651 0.205142 0.116274
0.511223 0.223270 0.127687
0.556939 0.241917 0.140505
0.603265 0.260319 0.155184
0.649928 0.278172 0.171420
0.700465 0.298131 0.191440
0.748623 0.319432 0.213993
0.792660 0.341527 0.237491
0.833219 0.365576 0.261753
0.869810 0.392035 0.287114
0.902037 0.420081 0.312749
0.929900 0.449317 0.338293
0.953552 0.479072 0.364477
0.973419 0.509636 0.391821
0.990021 0.540978 0.420691
1.000000 0.572412 0.451362
1.000000 0.603479 0.483589
1.000000 0.633021 0.516625
0.085054 0.125765 0.096895
0.085512 0.125490 0.096956
0.088289 0.124575 0.096345
0.092287 0.122957 0.095033
0.098848 0.120516 0.092958
0.113252 0.125216 0.094514
0.133944 0.131197 0.097017
0.152346 0.129488 0.101961
0.189517 0.135470 0.106691
0.235111 0.148257 0.103395
0.287907 0.165347 0.099947
0.346105 0.185977 0.094514
0.398047 0.204227 0.094728
0.439948 0.218143 0.103334
0.482795 0.233310 0.114229
0.526116 0.249088 0.125948
0.570611 0.265415 0.139834
0.615839 0.281285 0.154879
0.664210 0.298711 0.173190
0.712581 0.316869 0.193790
0.756527 0.335729 0.216068
0.797696 0.355871 0.238895
0.836057 0.378302 0.262394
0.871153 0.402899 0.287114
0.902464 0.429938 0.312444
0.929503 0.457740 0.337713
0.952758 0.486549 0.363928
0.972412 0.516014 0.391028
0.988830 0.546288 0.419898
1.000000 0.576928 0.450355
1.000000 0.607019 0.482338
1.000000 0.636042 0.515251
0.091585 0.145510 0.105837
0.091859 0.145296 0.105867
0.093965 0.144289 0.105043
0.098482 0.142275 0.103639
0.103944 0.139223 0.101320
0.115084 0.139925 0.100923
0.134554 0.146914 0.103212
0.161501 0.155581 0.106600
0.183261 0.154574 0.113771
0.226596 0.162722 0.122255
0.276951 0.178805 0.118196
0.333501 0.198672 0.113680
0.394293 0.223239 0.109468
0.456672 0.249821 0.103120
0.504143 0.266728 0.110811
0.546441 0.279850 0.124453
0.589715 0.293278 0.140047
0.636652 0.308476 0.157473
0.683742 0.323857 0.176852
0.727443 0.339483 0.197910
0.768185 0.356085 0.219272
0.806516 0.374762 0.241978
0.842679 0.395453 0.265049
0.875822 0.418860 0.289494
0.905577 0.444373 0.314427
0.931487 0.470954 0.339849
0.953918 0.498482 0.365698
0.972900 0.526757 0.392798
0.988800 0.555993 0.421759
1.000000 0.585168 0.451911
1.000000 0.614221 0.483833
1.000000 0.642054 0.516533
0.098054 0.167788 0.115541
0.097963 0.167453 0.115328
0.100649 0.166049 0.114382
0.104646 0.163668 0.112703
0.109621 0.160250 0.110536
0.117006 0.155123 0.107271
0.135225 0.162234 0.109834
0.160128 0.172091 0.113405
0.190738 0.182376 0.118502
0.217288 0.183108 0.128267
0.266148 0.194156 0.140963
0.320134 0.213382 0.137728
0.378851 0.235264 0.132448
0.440009 0.260960 0.128603
0.503899 0.287785 0.125368
0.570153 0.313512 0.122896
0.616510 0.326635 0.141299
0.662501 0.339696 0.160678
0.705348 0.352514 0.181674
0.745357 0.365942 0.203006
0.782620 0.380682 0.224155
0.817288 0.396826 0.245945
0.849607 0.415320 0.268315
0.879698 0.436255 0.291295
0.907073 0.459113 0.315343
0.931670 0.483558 0.339879
0.953307 0.509361 0.365606
0.971923 0.536553 0.392889
0.987762 0.564691 0.421698
1.000000 0.593378 0.452491
1.000000 0.621637 0.484657
1.000000 0.648890 0.517571
0.105287 0.190341 0.125978
0.105806 0.190036 0.125795
0.107668 0.188907 0.124941
0.111604 0.186282 0.123323
0.116945 0.182620 0.120485
0.123690 0.177279 0.117037
0.135897 0.177066 0.115877
0.159243 0.187503 0.119997
0.190066 0.200595 0.125338
0.224186 0.212619 0.132998
0.255253 0.215976 0.145510
0.309392 0.229984 0.163729
0.366003 0.252018 0.161440
0.426429 0.275700 0.157412
0.491341 0.301152 0.153170
0.559319 0.328130 0.153994
0.628840 0.353765 0.155764
0.687404 0.372930 0.165042
0.726131 0.383246 0.186496
0.762295 0.394293 0.207736
0.796353 0.407202 0.229129
0.828397 0.421790 0.250370
0.858518 0.438941 0.272618
0.886534 0.458259 0.295659
0.912352 0.479744 0.319707
0.935546 0.502800 0.344305
0.955932 0.527184 0.370306
0.973632 0.552819 0.397345
0.988525 0.579431 0.426398
1.000000 0.606622 0.457282
1.000000 0.633387 0.489418
1.000000 0.659083 0.521874
0.113741 0.215274 0.137942
0.114290 0.215000 0.137514
0.116243 0.213535 0.136690
0.119326 0.211124 0.134829
0.124331 0.207004 0.131868
0.131106 0.201144 0.128115
0.138033 0.193881 0.123384
0.158968 0.202365 0.126345
0.187808 0.216159 0.132143
0.223636 0.232609 0.139590
0.261631 0.246586 0.150454
0.298680 0.253971 0.166690
0.379675 0.288670 0.201480
0.444495 0.314794 0.203128
0.511772 0.339940 0.202090
0.581628 0.363745 0.199466
0.651453 0.388556 0.202182
0.716121 0.412390 0.208560
0.774105 0.435798 0.216007
0.812436 0.450568 0.233982
0.841276 0.462440 0.255558
0.867796 0.476051 0.277470
0.892760 0.491676 0.299809
0.915892 0.509453 0.322820
0.936889 0.528710 0.346532
0.955261 0.549004 0.370947
0.970977 0.570123 0.396429
0.984497 0.591913 0.422827
0.996033 0.614466 0.450629
1.000000 0.637232 0.479896
1.000000 0.659632 0.509789
1.000000 0.681788 0.540612
0.126223 0.244968 0.152377
0.125917 0.244663 0.152071
0.127749 0.242924 0.150851
0.130678 0.239750 0.148714
0.135134 0.234989 0.145388
0.141024 0.228641 0.141146
0.147524 0.220829 0.135653
0.159915 0.218540 0.133516
0.187900 0.233646 0.140017
0.223758 0.252171 0.148684
0.268193 0.274235 0.159609
0.312779 0.292607 0.175448
0.357519 0.304967 0.196933
0.424475 0.326909 0.226810
0.493050 0.353002 0.233249
0.560937 0.377356 0.233616
0.629114 0.399756 0.232181
0.693172 0.421515 0.233799
0.750881 0.444556 0.240787
0.803037 0.468055 0.248997
0.849088 0.491890 0.258732
0.873838 0.503319 0.280400
0.897032 0.516960 0.303075
0.918853 0.532647 0.326055
0.938628 0.550042 0.350072
0.956146 0.568597 0.374609
0.971374 0.588220 0.400122
0.984344 0.608789 0.427161
0.995422 0.629938 0.455451
1.000000 0.651270 0.484627
1.000000 0.672297 0.514641
1.000000 0.693172 0.545495
0.137392 0.271489 0.165743
0.137423 0.271305 0.165438
0.139071 0.269352 0.164096
0.141665 0.265934 0.161807
0.145480 0.261112 0.158297
0.150149 0.254520 0.153689
0.155703 0.245914 0.147860
0.161837 0.235355 0.140932
0.183627 0.243870 0.144259
0.217044 0.262242 0.153048
0.258030 0.284001 0.163912
0.307225 0.309178 0.177249
0.354101 0.328008 0.196994
0.401648 0.341924 0.221286
0.470314 0.363958 0.253208
0.540124 0.389197 0.262974
0.606470 0.412207 0.263798
0.669703 0.433051 0.263828
0.727993 0.453254 0.264439
0.780453 0.476600 0.272435
0.828244 0.500542 0.281559
0.871366 0.525780 0.292149
0.903380 0.546471 0.308995
0.923949 0.560357 0.332311
0.942260 0.575830 0.356664
0.958618 0.592676 0.381659
0.972686 0.610468 0.407660
0.984833 0.629145 0.434760
0.995361 0.648280 0.462806
1.000000 0.667781 0.491920
1.000000 0.687251 0.521843
1.000000 0.706600 0.552697
0.149172 0.295750 0.178256
0.149325 0.295506 0.177981
0.150301 0.293858 0.176791
0.152316 0.290318 0.174197
0.155520 0.284977 0.170474
0.159426 0.277989 0.165591
0.163821 0.268803 0.159274
0.168917 0.258274 0.152041
0.177829 0.251225 0.146914
0.209323 0.269352 0.155642
0.247654 0.290776 0.166476
0.293523 0.315496 0.180026
0.346960 0.342657 0.196109
0.394903 0.361486 0.218784
0.444617 0.376501 0.245151
0.513542 0.398352 0.278050
0.584619 0.423590 0.292088
0.647425 0.445441 0.293706
0.705653 0.465919 0.295109
0.758755 0.485573 0.295781
0.807431 0.509422 0.304570
0.851530 0.534600 0.315496
0.891447 0.560784 0.328069
0.926726 0.588006 0.342412
0.946105 0.603845 0.365332
0.961120 0.618616 0.390509
0.974212 0.634730 0.417029
0.985565 0.651881 0.444892
0.995514 0.669490 0.473518
1.000000 0.687434 0.503044
1.000000 0.705592 0.533440
1.000000 0.723690 0.564630
0.160403 0.317327 0.189548
0.160708 0.316686 0.188968
0.161440 0.315282 0.187991
0.162966 0.312200 0.185733
0.165652 0.307256 0.181888
0.168856 0.300328 0.176974
0.172824 0.292058 0.170932
0.177035 0.281285 0.163546
0.181216 0.268742 0.155001
0.201968 0.275303 0.157473
0.237949 0.296361 0.168185
0.280674 0.320195 0.181521
0.330327 0.346532 0.197360
0.386206 0.374792 0.215396
0.433387 0.392248 0.239872
0.483833 0.407385 0.267124
0.552514 0.429541 0.301244
0.623499 0.455055 0.319829
0.681636 0.476753 0.322881
0.735317 0.497475 0.325719
0.785672 0.518212 0.328130
0.831540 0.542870 0.337774
0.872923 0.569451 0.351293
0.909819 0.596796 0.366369
0.941344 0.624262 0.382757
0.964080 0.647852 0.403449
0.976135 0.662074 0.430488
0.986664 0.676997 0.458198
0.995758 0.692378 0.486488
1.000000 0.708034 0.515709
1.000000 0.723751 0.545098
1.000000 0.739620 0.575372
0.171450 0.336553 0.199802
0.171695 0.336278 0.199588
0.172213 0.334783 0.198337
0.173281 0.331853 0.196139
0.175418 0.327459 0.192844
0.177859 0.321019 0.187900
0.180819 0.312444 0.181582
0.184390 0.302098 0.174136
0.187747 0.289555 0.165469
0.192050 0.277134 0.156985
0.225681 0.297734 0.167605
0.265873 0.321202 0.180606
0.312535 0.346868 0.195804
0.364569 0.374640 0.213687
0.422095 0.403754 0.233921
0.470588 0.421698 0.260258
0.522576 0.438148 0.289158
0.590936 0.460914 0.325078
0.659510 0.487190 0.349187
0.713344 0.509026 0.353674
0.764065 0.530846 0.358312
0.811734 0.552728 0.362829
0.854429 0.577905 0.373907
0.892668 0.605188 0.389624
0.925750 0.632959 0.407080
0.953094 0.660243 0.426184
0.975341 0.686549 0.446784
0.987182 0.702480 0.473213
0.995605 0.715755 0.501274
1.000000 0.729305 0.530083
1.000000 0.743130 0.559289
1.000000 0.757137 0.589014
0.183444 0.356023 0.210697
0.183444 0.355901 0.210483
0.190494 0.363836 0.214908
0.191348 0.360784 0.212314
0.192386 0.356115 0.208682
0.194034 0.349554 0.203586
0.195865 0.341192 0.197055
0.197635 0.330266 0.188754
0.199313 0.317479 0.179385
0.200870 0.301671 0.168521
0.218875 0.304387 0.168978
0.258000 0.328374 0.182193
0.303349 0.354528 0.198093
0.354376 0.382788 0.216587
0.410529 0.413001 0.236942
0.469673 0.442756 0.259983
0.520378 0.462135 0.288792
0.573846 0.479652 0.320073
0.638087 0.502251 0.358709
0.701869 0.529381 0.389136
0.751522 0.551385 0.395026
0.798428 0.573480 0.401251
0.841611 0.595239 0.407141
0.880003 0.620233 0.419776
0.913024 0.646601 0.436805
0.940642 0.672297 0.454902
0.963378 0.696986 0.474281
0.981964 0.720394 0.494850
0.995117 0.739467 0.518334
1.000000 0.750698 0.546197
1.000000 0.762448 0.574517
1.000000 0.774411 0.603418
0.197055 0.377325 0.222660
0.197604 0.377996 0.222965
0.198581 0.377325 0.222293
0.199771 0.375525 0.220615
0.201114 0.371862 0.217563
0.202304 0.365850 0.212589
0.203677 0.357641 0.206180
0.204593 0.347112 0.197971
0.205722 0.334844 0.188571
0.206607 0.320073 0.178073
0.207004 0.303532 0.166690
0.240848 0.323888 0.177615
0.283574 0.349371 0.192874
0.331029 0.376806 0.210483
0.383764 0.406348 0.230259
0.442084 0.438056 0.252079
0.501152 0.467903 0.277073
0.553185 0.488594 0.307530
0.606744 0.507439 0.341405
0.667109 0.530541 0.382605
0.728939 0.559747 0.419867
0.776761 0.582849 0.427893
0.820737 0.605432 0.435920
0.861143 0.627527 0.443397
0.895995 0.652644 0.458350
0.925353 0.678248 0.476631
0.949676 0.702663 0.495827
0.969604 0.725826 0.516136
0.985779 0.747829 0.538201
0.998810 0.768246 0.561212
1.000000 0.780026 0.588647
1.000000 0.790402 0.617060
0.206668 0.393744 0.231540
0.207218 0.394202 0.231724
0.208377 0.393835 0.231266
0.209049 0.391882 0.229496
0.210208 0.388495 0.226627
0.211215 0.382788 0.221836
0.211734 0.374975 0.215457
0.212314 0.364935 0.207584
0.212833 0.353063 0.198276
0.212894 0.338994 0.187778
0.212375 0.322759 0.176120
0.225437 0.319921 0.173098
0.265415 0.344701 0.187442
0.310735 0.371801 0.204532
0.360784 0.401068 0.223972
0.415930 0.432471 0.245121
0.476509 0.465980 0.268376
0.535271 0.495888 0.295903
0.587915 0.517510 0.328466
0.639612 0.536645 0.365179
0.696132 0.560113 0.409033
0.755428 0.590936 0.452705
0.800168 0.614405 0.462745
0.841520 0.637018 0.472053
0.878996 0.658717 0.480171
0.910002 0.683650 0.497597
0.935760 0.708003 0.516808
0.957061 0.731136 0.537041
0.974487 0.752926 0.558587
0.988495 0.773342 0.581598
0.999573 0.792203 0.605859
1.000000 0.806149 0.631861
0.216312 0.410620 0.240391
0.216709 0.410986 0.240513
0.217563 0.410559 0.239841
0.218204 0.408820 0.238376
0.219120 0.405310 0.235294
0.219547 0.399725 0.230716
0.219944 0.392340 0.224613
0.220340 0.382788 0.216983
0.220249 0.371160 0.207797
0.220188 0.357794 0.197513
0.219150 0.342077 0.185733
0.217533 0.324102 0.172824
0.247654 0.339910 0.181552
0.290837 0.366461 0.197879
0.339208 0.395636 0.216800
0.391821 0.426703 0.237766
0.449928 0.460487 0.261051
0.513451 0.496925 0.286412
0.572869 0.527489 0.317327
0.625360 0.550042 0.354162
0.675654 0.570581 0.395209
0.729213 0.595880 0.443336
0.785519 0.628443 0.494606
0.827970 0.652338 0.506554
0.866361 0.675135 0.517296
0.899626 0.697261 0.528344
0.926085 0.721584 0.548272
0.947784 0.744564 0.569177
0.965423 0.766079 0.591302
0.979675 0.785946 0.614435
0.990997 0.803983 0.638117
0.999908 0.820066 0.662013
0.228855 0.433539 0.252262
0.228916 0.433631 0.252232
0.229221 0.432715 0.251377
0.229496 0.430518 0.249577
0.229648 0.426337 0.246036
0.229770 0.420508 0.241276
0.229923 0.413153 0.235355
0.229648 0.403662 0.227634
0.229282 0.392218 0.218387
0.228824 0.379126 0.208164
0.227420 0.363653 0.196201
0.225284 0.346258 0.183261
0.231540 0.336522 0.175418
0.273991 0.363409 0.191623
0.320592 0.392279 0.210391
0.371557 0.423590 0.231235
0.427741 0.457343 0.254276
0.488808 0.493660 0.279484
0.554345 0.532006 0.307195
0.611048 0.560418 0.341894
0.660945 0.582116 0.382177
0.707851 0.602564 0.425574
0.756771 0.627131 0.475135
0.809079 0.658503 0.529747
0.848203 0.681300 0.541497
0.883055 0.703243 0.552575
0.912108 0.725704 0.567285
0.935271 0.748928 0.588373
0.954101 0.770626 0.610590
0.969238 0.790616 0.633631
0.981476 0.808591 0.657008
0.991150 0.824704 0.680568
0.237491 0.452430 0.261479
0.237461 0.452399 0.261204
0.237736 0.451331 0.260349
0.237888 0.449134 0.258488
0.238163 0.445289 0.255253
0.238132 0.439796 0.250767
0.237888 0.432258 0.244724
0.237552 0.423072 0.237095
0.237217 0.412055 0.228153
0.236362 0.399207 0.217777
0.234958 0.384405 0.206058
0.232761 0.367315 0.192966
0.229343 0.348180 0.178653
0.255100 0.358038 0.183780
0.300389 0.386908 0.202029
0.350042 0.418128 0.222660
0.404395 0.451972 0.245426
0.463447 0.488472 0.270420
0.526879 0.527153 0.297948
0.593744 0.565820 0.329168
0.646998 0.591791 0.368200
0.694575 0.613703 0.411780
0.739162 0.634852 0.458259
0.783810 0.658595 0.508721
0.828794 0.684504 0.558343
0.865232 0.706996 0.573449
0.896727 0.728328 0.585168
0.921874 0.751125 0.604181
0.942077 0.773373 0.626856
0.958495 0.793698 0.649928
0.971771 0.812070 0.673487
0.982269 0.828580 0.697322
0.247715 0.476295 0.272831
0.247898 0.476478 0.272862
0.248234 0.475654 0.272099
0.247990 0.472908 0.269718
0.247990 0.468757 0.266423
0.247562 0.462776 0.261692
0.247227 0.455146 0.255528
0.246555 0.445502 0.247959
0.245548 0.433936 0.238590
0.244724 0.421027 0.228183
0.242985 0.405951 0.216098
0.240513 0.389044 0.202914
0.237217 0.370153 0.188602
0.235264 0.351965 0.175143
0.279667 0.380407 0.192691
0.327367 0.410956 0.212467
0.379370 0.443793 0.234531
0.435889 0.479469 0.258701
0.496956 0.517815 0.285435
0.562310 0.557336 0.315618
0.628077 0.594965 0.350164
0.677485 0.618921 0.392676
0.722744 0.640681 0.438636
0.763790 0.661250 0.486000
0.804532 0.683070 0.534936
0.848600 0.711635 0.588708
0.881346 0.733303 0.607385
0.908782 0.754086 0.620905
0.930144 0.776242 0.643030
0.947692 0.796689 0.665858
0.961913 0.815335 0.689357
0.973236 0.832120 0.713283
0.253819 0.496101 0.281437
0.254368 0.496284 0.281437
0.254582 0.495735 0.280919
0.254612 0.493355 0.278752
0.254917 0.489418 0.275517
0.254673 0.484047 0.271092
0.254490 0.476997 0.265293
0.254093 0.467903 0.257755
0.253635 0.457404 0.249241
0.252934 0.444923 0.239200
0.251652 0.430335 0.227329
0.249821 0.414069 0.214084
0.247013 0.395758 0.199863
0.242588 0.374975 0.184085
0.261021 0.376959 0.183749
0.308446 0.407507 0.203342
0.359319 0.440497 0.225376
0.414527 0.476112 0.249271
0.474067 0.514580 0.275761
0.537591 0.554498 0.305272
0.603388 0.592859 0.339605
0.666438 0.628626 0.378241
0.712337 0.651331 0.424628
0.754299 0.672724 0.472938
0.792386 0.692653 0.520684
0.829465 0.713588 0.569604
0.868132 0.740871 0.623133
0.896849 0.761837 0.645869
0.919890 0.782956 0.664698
0.938048 0.803403 0.687617
0.952880 0.821958 0.711025
0.964508 0.837980 0.733425
0.262364 0.521996 0.292973
0.262669 0.522179 0.293095
0.262791 0.521050 0.292027
0.262516 0.518730 0.289921
0.262882 0.514977 0.286961
0.262791 0.509697 0.282475
0.262638 0.502434 0.276432
0.262272 0.493599 0.269078
0.262242 0.483284 0.260594
0.261418 0.470893 0.250462
0.260624 0.456672 0.238743
0.259068 0.440406 0.225620
0.256687 0.422309 0.211032
0.253239 0.402319 0.195315
0.248295 0.380163 0.178592
0.289128 0.404578 0.193637
0.339239 0.437324 0.215274
0.393439 0.472969 0.239109
0.451759 0.511498 0.265171
0.514061 0.551751 0.294224
0.578668 0.590387 0.327764
0.643183 0.627283 0.365942
0.701808 0.660456 0.408606
0.744594 0.682277 0.457404
0.783078 0.702632 0.506004
0.817960 0.721675 0.553521
0.850584 0.741024 0.601312
0.883726 0.766262 0.653956
0.908476 0.786374 0.681147
0.927703 0.807187 0.704189
0.943114 0.825315 0.726497
0.955474 0.841611 0.748867
0.270085 0.549462 0.305180
0.270329 0.549523 0.304997
0.270451 0.548577 0.304143
0.270573 0.546654 0.302464
0.270451 0.543267 0.299260
0.270939 0.538628 0.295171
0.271244 0.532677 0.289738
0.272068 0.525109 0.283024
0.272831 0.516258 0.274998
0.273289 0.505455 0.265537
0.273655 0.492653 0.254398
0.273472 0.477943 0.241825
0.272496 0.461006 0.227481
0.270634 0.441779 0.211856
0.267155 0.420478 0.194430
0.278019 0.413184 0.187320
0.329229 0.446998 0.209415
0.383948 0.483894 0.233951
0.442267 0.523491 0.260777
0.504692 0.564294 0.291051
0.569482 0.602991 0.325994
0.634363 0.639765 0.365545
0.696132 0.674983 0.409339
0.748501 0.705074 0.457252
0.786557 0.725521 0.507378
0.820829 0.744778 0.556420
0.850584 0.762325 0.603845
0.876280 0.779049 0.650355
0.902190 0.800137 0.699428
0.920470 0.818479 0.732601
0.935790 0.835935 0.754238
0.948089 0.851560 0.775601
0.287480 0.590814 0.327062
0.287541 0.590509 0.326726
0.287510 0.589532 0.325902
0.286961 0.587335 0.323491
0.286503 0.583978 0.320073
0.286076 0.579339 0.315435
0.285740 0.573297 0.309361
0.285374 0.565698 0.301946
0.285405 0.556390 0.293217
0.285710 0.545159 0.282994
0.286015 0.531731 0.271214
0.286320 0.516808 0.258274
0.286076 0.499550 0.243626
0.284947 0.480262 0.227604
