20 Preset/Wedding Style New/【3】LUT video cho PR-AE-FCPX/Tone  (6).cube
# Created by Adobe Lightroom plugin Export LUT (1.24.0)
# www.johnrellis.com/lightroom/exportlut.htm
# Preset: 褐色婚礼-素材江湖07
# Color profile: C:\Program Files (x86)\Common Files\Adobe\Color\Profiles\Recommended\VideoHD.icc
LUT_3D_SIZE 8
DOMAIN_MIN 0.000000 0.000000 0.000000
DOMAIN_MAX 0.903226 0.903226 0.903226
0.000000 0.000000 0.000000
0.151553 0.011658 0.000000
0.322606 0.075013 0.000000
0.472694 0.124300 0.000000
0.617365 0.170901 0.000000
0.755001 0.216464 0.000000
0.872679 0.252171 0.000000
0.984375 0.279545 0.000000
0.000000 0.114839 0.050599
0.154818 0.118685 0.013031
0.320409 0.139742 0.000000
0.470192 0.165835 0.000000
0.615290 0.200961 0.000000
0.753384 0.237736 0.000000
0.871611 0.267735 0.000000
0.983917 0.291752 0.000000
0.000000 0.223301 0.123537
0.151003 0.223362 0.107851
0.308049 0.235538 0.054505
0.462989 0.252506 0.000000
0.608942 0.276066 0.000000
0.747768 0.303807 0.000000
0.868101 0.321538 0.000000
0.982116 0.336248 0.000000
0.000000 0.335485 0.188937
0.088411 0.335821 0.171725
0.300664 0.336217 0.155215
0.452430 0.346319 0.110048
0.603143 0.359594 0.000000
0.741329 0.374304 0.000000
0.863828 0.389715 0.000000
0.979767 0.404334 0.000000
0.000000 0.441627 0.252110
0.000000 0.442542 0.232242
0.301366 0.440253 0.221073
0.442206 0.442573 0.197177
0.591333 0.452796 0.145480
0.733303 0.461097 0.000000
0.859678 0.466560 0.000000
0.978607 0.474434 0.000000
0.000000 0.548180 0.311284
0.000000 0.549645 0.287541
0.261936 0.547723 0.279179
0.443366 0.547723 0.261723
0.584497 0.550561 0.231601
0.725917 0.555718 0.177493
0.854551 0.556207 0.000000
0.977111 0.557214 0.000000
0.000000 0.667689 0.373693
0.000000 0.668757 0.354284
0.167086 0.667536 0.337957
0.449989 0.664332 0.323583
0.593896 0.665187 0.299504
0.735470 0.666133 0.261173
0.859861 0.657954 0.205020
0.975891 0.649897 0.013672
0.000000 0.794095 0.450202
0.000000 0.794888 0.434852
0.000000 0.794614 0.411780
0.431312 0.791135 0.398749
0.609003 0.789639 0.377081
0.753231 0.790097 0.343725
0.891417 0.786099 0.294774
0.999420 0.764187 0.229282
0.000000 0.058381 0.132692
0.132265 0.078676 0.124788
0.312200 0.100008 0.088746
0.459571 0.154269 0.000000
0.607080 0.200351 0.000000
0.747951 0.243198 0.000000
0.868345 0.271031 0.000000
0.982055 0.292393 0.000000
0.000000 0.116060 0.144198
0.134737 0.134035 0.135103
0.305608 0.149264 0.110567
0.458595 0.179416 0.010681
0.606195 0.217807 0.000000
0.746914 0.258000 0.000000
0.867582 0.284367 0.000000
0.981689 0.303380 0.000000
0.000000 0.232731 0.203586
0.114961 0.235447 0.170626
0.300511 0.241459 0.144869
0.455451 0.254704 0.097597
0.603449 0.275883 0.000000
0.743801 0.303410 0.000000
0.865080 0.329412 0.000000
0.980346 0.344335 0.000000
0.000000 0.338903 0.249546
0.008789 0.341192 0.218021
0.296025 0.341405 0.193851
0.447822 0.349615 0.161959
0.598840 0.361303 0.088655
0.738277 0.374853 0.000000
0.862089 0.389014 0.000000
0.978698 0.406256 0.000000
0.000000 0.442969 0.297093
0.000000 0.444984 0.270939
0.292332 0.443641 0.245640
0.439307 0.445594 0.224613
0.588342 0.454841 0.182956
0.730556 0.462501 0.097383
0.857877 0.467628 0.000000
0.977783 0.474525 0.000000
0.000000 0.549035 0.345342
0.000000 0.550530 0.324712
0.241337 0.550439 0.296727
0.440162 0.549828 0.280369
0.582361 0.552544 0.252811
0.723751 0.557214 0.205936
0.852873 0.557580 0.115877
0.976074 0.558312 0.000000
0.000000 0.667903 0.401190
0.000000 0.668971 0.383703
0.115053 0.669276 0.351446
0.446204 0.665614 0.337499
0.591272 0.666438 0.314641
0.733608 0.667353 0.278538
0.858366 0.659113 0.227665
0.974945 0.651087 0.120974
0.000000 0.793820 0.472145
0.000000 0.794675 0.457984
0.000000 0.795560 0.422278
0.419348 0.792142 0.409461
0.605982 0.790311 0.388312
0.750973 0.790768 0.356023
0.889891 0.787045 0.309117
0.998383 0.765133 0.247471
0.000000 0.145052 0.266239
0.000000 0.146639 0.262730
0.264714 0.145571 0.248386
0.444984 0.154818 0.215152
0.594415 0.196933 0.177127
0.735927 0.241459 0.119112
0.859648 0.277989 0.000000
0.976806 0.310826 0.000000
0.000000 0.172305 0.269627
0.000000 0.177676 0.266178
0.265324 0.183383 0.253086
0.440009 0.190951 0.223789
0.591455 0.220523 0.187564
0.734249 0.256809 0.131014
0.859342 0.288182 0.000000
0.976684 0.318517 0.000000
0.000000 0.230747 0.285161
0.084962 0.237339 0.281559
0.266514 0.265232 0.267582
0.432166 0.272343 0.246189
0.586511 0.286168 0.211307
0.731624 0.306371 0.153841
0.857603 0.327520 0.000000
0.976318 0.349248 0.000000
0.000000 0.328893 0.341772
0.018494 0.343786 0.342443
0.252934 0.359655 0.296605
0.429389 0.363134 0.272099
0.583154 0.371160 0.240665
0.726192 0.381689 0.192599
0.854398 0.392676 0.091798
0.975280 0.404395 0.000000
0.000000 0.453559 0.396429
0.000000 0.453925 0.387152
0.226322 0.457221 0.332067
0.424811 0.457160 0.306432
0.575677 0.463478 0.279820
0.719448 0.469490 0.239689
0.850065 0.473884 0.173831
0.973541 0.478096 0.000000
0.000000 0.555413 0.436805
0.000000 0.555749 0.428534
0.171664 0.559625 0.373144
0.425269 0.558251 0.344427
0.572351 0.560510 0.322881
0.714748 0.563439 0.289799
0.845792 0.563470 0.240543
0.971679 0.563622 0.136049
0.000000 0.669886 0.487831
0.000000 0.670008 0.480629
0.000000 0.674006 0.422461
0.402625 0.672206 0.389288
0.579217 0.671412 0.369574
0.725154 0.672480 0.339635
0.851926 0.663996 0.300298
0.970947 0.656184 0.235538
0.000000 0.792691 0.552697
0.000000 0.793545 0.541253
0.000000 0.797086 0.488685
0.363409 0.796292 0.451179
0.593042 0.793088 0.431769
0.740780 0.793576 0.402716
0.883299 0.790982 0.361242
0.993957 0.769192 0.310338
0.000000 0.215335 0.394110
0.000000 0.216678 0.392096
0.120180 0.211154 0.384161
0.390326 0.224979 0.367224
0.568811 0.233555 0.341344
0.721096 0.251347 0.300450
0.848508 0.285985 0.258305
0.969360 0.313848 0.189731
0.000000 0.232242 0.395300
0.000000 0.234684 0.393317
0.143557 0.238529 0.385534
0.390051 0.246464 0.369482
0.566735 0.252354 0.343755
0.718990 0.268498 0.304906
0.847074 0.298955 0.263615
0.968780 0.323522 0.195285
0.000000 0.276036 0.402747
0.000000 0.280552 0.400763
0.182956 0.300175 0.392187
0.390082 0.307805 0.377447
0.560937 0.311467 0.352911
0.711513 0.325566 0.321233
0.842252 0.345068 0.282506
0.967315 0.358984 0.211795
0.000000 0.337530 0.418250
0.000000 0.341344 0.416297
0.227298 0.357702 0.408118
0.390265 0.388556 0.391730
0.553918 0.393378 0.371588
0.703273 0.401617 0.343877
0.838468 0.410285 0.303502
0.966064 0.416358 0.234440
0.000000 0.421149 0.455909
0.057435 0.425818 0.456825
0.237095 0.444617 0.460792
0.377447 0.478004 0.417426
0.550317 0.480476 0.393194
0.698726 0.484718 0.366888
0.835416 0.488502 0.328954
0.964599 0.490364 0.266056
0.000000 0.564782 0.543023
0.000000 0.570428 0.542077
0.134859 0.571527 0.517052
0.352117 0.575250 0.447272
0.549615 0.574853 0.420050
0.696803 0.575860 0.395850
0.832547 0.575738 0.361517
0.963470 0.574823 0.305150
0.000000 0.679194 0.587396
0.000000 0.679286 0.581903
0.000000 0.679561 0.557671
0.313725 0.682979 0.486122
0.553216 0.680507 0.453864
0.705989 0.681361 0.429572
0.839078 0.673732 0.398199
0.963439 0.666529 0.350988
0.000000 0.798703 0.636164
0.000000 0.798611 0.631495
0.000000 0.797971 0.611749
0.276188 0.801816 0.540703
0.553643 0.799039 0.503716
0.719234 0.798856 0.478676
0.869291 0.798581 0.442573
0.985046 0.777371 0.400336
0.000000 0.283574 0.518639
0.000000 0.284337 0.517174
0.000000 0.289281 0.510979
0.295354 0.288090 0.499458
0.510826 0.298528 0.480995
0.687282 0.304875 0.457374
0.827543 0.320836 0.419409
0.953704 0.348638 0.383764
0.000000 0.294743 0.518975
0.000000 0.296239 0.517571
0.000000 0.306310 0.511437
0.298680 0.303593 0.500267
0.510674 0.311833 0.482246
0.685817 0.317266 0.458534
0.826291 0.332280 0.421698
0.953094 0.357702 0.386114
0.000000 0.329900 0.522484
0.000000 0.332372 0.521141
0.000000 0.344701 0.515221
0.306218 0.352819 0.504173
0.509972 0.357824 0.487221
0.680385 0.361822 0.463478
0.821683 0.374823 0.431098
0.951415 0.391028 0.394232
0.000000 0.378637 0.531884
0.000000 0.381537 0.530419
0.000000 0.394476 0.524285
0.321996 0.419654 0.512291
0.509178 0.426246 0.496437
0.673152 0.429786 0.473884
0.816434 0.438575 0.445808
0.951354 0.442695 0.403326
0.000000 0.440589 0.546166
0.000000 0.443000 0.544823
0.152193 0.453559 0.539117
0.352789 0.474769 0.527672
0.507958 0.505882 0.509880
0.668482 0.508782 0.489540
0.815488 0.510887 0.459632
0.953063 0.509148 0.413336
0.000000 0.512840 0.569848
0.000000 0.516136 0.570459
0.203952 0.529992 0.573053
0.348272 0.556847 0.577844
0.494545 0.595270 0.534295
0.667964 0.595026 0.508141
0.813931 0.594690 0.479805
0.952697 0.591699 0.435431
0.000000 0.637324 0.663539
0.000000 0.643214 0.663478
0.000000 0.667628 0.663050
0.207462 0.693385 0.643397
0.472053 0.695247 0.563348
0.672572 0.694026 0.532860
0.818479 0.689082 0.506065
0.952758 0.682734 0.466072
0.000000 0.809384 0.745876
0.000000 0.809232 0.741482
0.000000 0.808621 0.722377
0.111849 0.807126 0.684535
0.444648 0.809354 0.604334
0.681727 0.806851 0.568658
0.842435 0.807828 0.539696
0.970428 0.790463 0.504540
0.000000 0.349218 0.639155
0.000000 0.350103 0.638117
0.000000 0.358068 0.633631
0.000000 0.356725 0.625544
0.429725 0.360418 0.612482
0.630976 0.368963 0.594110
0.791836 0.382757 0.566705
0.925628 0.413703 0.541619
0.000000 0.357061 0.639155
0.000000 0.358343 0.638209
0.000000 0.366888 0.633783
0.000000 0.368536 0.625788
0.430884 0.370886 0.613001
0.630732 0.378515 0.594842
0.790799 0.391699 0.567681
0.924956 0.421668 0.543359
0.000000 0.384100 0.640772
0.000000 0.386023 0.639826
0.000000 0.395117 0.635615
0.000000 0.408392 0.627344
0.434211 0.408576 0.615351
0.629664 0.414374 0.598016
0.787411 0.425757 0.571893
0.922454 0.452705 0.550530
0.000000 0.425269 0.645716
0.000000 0.427619 0.644770
0.000000 0.437842 0.640497
0.165774 0.457252 0.632227
0.438148 0.468086 0.620264
0.627955 0.472175 0.604028
0.782803 0.482155 0.580652
0.920348 0.502770 0.562280
0.000000 0.476417 0.654688
0.000000 0.478523 0.653773
0.000000 0.487526 0.649805
0.232578 0.505821 0.641810
0.443183 0.534691 0.628840
0.625666 0.542809 0.612909
0.781796 0.549401 0.592828
0.927153 0.553368 0.565789
0.000000 0.536065 0.667292
0.000000 0.537957 0.666438
0.000000 0.545708 0.662898
0.279240 0.561486 0.655787
0.463416 0.587304 0.643824
0.623529 0.621332 0.625452
0.786007 0.622400 0.603174
0.936034 0.618616 0.567956
0.000000 0.606500 0.694881
0.000000 0.608087 0.694057
0.000000 0.615015 0.690455
0.257664 0.635401 0.691188
0.443153 0.669551 0.695094
0.609033 0.712551 0.649042
0.786984 0.710750 0.621729
0.935515 0.707332 0.590204
0.000000 0.727138 0.787289
0.000000 0.729274 0.787442
0.000000 0.738460 0.788144
0.000000 0.770199 0.787808
0.249210 0.820310 0.770871
0.586633 0.820676 0.679805
0.800137 0.819638 0.646693
0.948241 0.809384 0.618524
0.000000 0.413275 0.757473
0.000000 0.414313 0.756802
0.000000 0.421668 0.753689
0.000000 0.433295 0.747524
0.301091 0.436286 0.738521
0.563012 0.444862 0.725643
0.751278 0.455726 0.708858
0.890013 0.478309 0.676814
0.000000 0.418830 0.757534
0.000000 0.420142 0.756863
0.000000 0.427680 0.753780
0.000000 0.441321 0.747585
0.305028 0.444251 0.738705
0.563500 0.452369 0.725948
0.750912 0.462806 0.709255
0.889464 0.484779 0.677729
0.000000 0.438880 0.758541
0.000000 0.440589 0.757839
0.000000 0.448707 0.754818
0.000000 0.468147 0.748440
0.316625 0.474037 0.739681
0.565393 0.481331 0.727291
0.749264 0.490547 0.710964
0.887907 0.509667 0.681605
0.000000 0.471504 0.761715
0.000000 0.473396 0.761013
0.000000 0.481575 0.758114
0.000000 0.500114 0.751919
0.326452 0.521538 0.742367
0.568231 0.530022 0.730251
0.746792 0.536614 0.714534
0.887053 0.551507 0.688869
0.000000 0.513512 0.767941
0.000000 0.515160 0.767300
0.000000 0.522637 0.764614
0.000000 0.537926 0.759121
0.327977 0.567773 0.749050
0.567895 0.588708 0.735958
0.744594 0.592432 0.720577
0.890410 0.603815 0.698756
0.000000 0.564721 0.777218
0.000000 0.566247 0.776669
0.000000 0.572930 0.774258
0.000000 0.586938 0.769223
0.335058 0.611566 0.760342
0.558373 0.648951 0.745907
0.742611 0.658717 0.729488
0.897520 0.667292 0.710842
0.000000 0.622889 0.790311
0.000000 0.624384 0.789792
0.000000 0.631037 0.787564
0.000000 0.645106 0.782742
0.369970 0.669123 0.774350
0.573175 0.701503 0.761349
0.740444 0.738399 0.742214
0.909880 0.738460 0.718105
0.000000 0.697444 0.828763
0.000000 0.698970 0.828214
0.000000 0.705531 0.825803
0.000000 0.719356 0.820340
0.288945 0.745785 0.815610
0.528954 0.788266 0.818967
0.725917 0.837736 0.768276
0.915770 0.834836 0.740566
0.000000 0.476478 0.876646
0.000000 0.477821 0.876158
0.000000 0.486061 0.873930
0.000000 0.507713 0.869047
0.000000 0.524132 0.862089
0.503014 0.546349 0.852262
0.703487 0.558068 0.840848
0.872190 0.570428 0.826596
0.000000 0.480201 0.876768
0.000000 0.481636 0.876310
0.000000 0.489967 0.874113
0.000000 0.511467 0.869261
0.000000 0.529351 0.862211
0.504723 0.551843 0.852384
0.703670 0.562982 0.841062
0.871977 0.574823 0.826871
0.000000 0.493782 0.877897
0.000000 0.495521 0.877379
0.000000 0.504143 0.875212
0.000000 0.525200 0.870420
0.000000 0.549432 0.863096
0.510033 0.573053 0.853208
0.704402 0.582300 0.842161
0.871244 0.592279 0.828244
0.000000 0.515557 0.881010
0.000000 0.517388 0.880522
0.000000 0.526085 0.878355
0.000000 0.546471 0.873686
0.000000 0.582574 0.865568
0.515099 0.608637 0.855467
0.704585 0.615351 0.844755
0.870420 0.622705 0.831113
0.000000 0.544396 0.886778
0.000000 0.545617 0.886412
0.000000 0.551049 0.884794
0.000000 0.568994 0.880491
0.000000 0.604913 0.872374
0.494392 0.645472 0.861021
0.701564 0.657710 0.849699
0.870390 0.663020 0.835996
0.000000 0.587030 0.894316
0.000000 0.588251 0.893980
0.000000 0.593652 0.892454
0.000000 0.605982 0.889220
0.000000 0.629236 0.883207
0.448402 0.679774 0.871000
0.694606 0.710811 0.857298
0.870665 0.715389 0.843259
0.000000 0.638178 0.904845
0.000000 0.639490 0.904509
0.000000 0.645380 0.903075
0.000000 0.658381 0.899870
0.000000 0.682338 0.894072
0.419898 0.719173 0.884550
0.673732 0.767300 0.869566
0.870756 0.781949 0.853788
0.000000 0.698207 0.918853
0.000000 0.699672 0.918578
0.000000 0.706020 0.917235
0.000000 0.719966 0.914244
0.000000 0.744869 0.908782
0.441688 0.780240 0.900328
0.687770 0.823697 0.887755
0.869749 0.868132 0.870909
