20 Preset/Wedding Style New/【3】LUT video cho PR-AE-FCPX/Tone  (5).cube
# Created by Adobe Lightroom plugin Export LUT (1.24.0)
# www.johnrellis.com/lightroom/exportlut.htm
# Preset: 褐色婚礼-素材江湖06
# Color profile: C:\Program Files (x86)\Common Files\Adobe\Color\Profiles\Recommended\VideoHD.icc
LUT_3D_SIZE 5
DOMAIN_MIN 0.000000 0.000000 0.000000
DOMAIN_MAX 0.903226 0.903226 0.903226
0.025208 0.024170 0.028931
0.135348 0.073060 0.072938
0.422126 0.133181 0.118502
0.765225 0.298436 0.227115
0.980926 0.503807 0.401770
0.085054 0.125765 0.096895
0.152346 0.129488 0.101961
0.482795 0.233310 0.114229
0.797696 0.355871 0.238895
0.988830 0.546288 0.419898
0.149172 0.295750 0.178256
0.168917 0.258274 0.152041
0.444617 0.376501 0.245151
0.851530 0.534600 0.315496
0.995514 0.669490 0.473518
0.228855 0.433539 0.252262
0.229648 0.403662 0.227634
0.320592 0.392279 0.210391
0.707851 0.602564 0.425574
0.954101 0.770626 0.610590
0.306279 0.626764 0.348943
0.302312 0.605585 0.323644
0.293919 0.493965 0.224125
0.596216 0.646052 0.342962
0.888457 0.813321 0.672541
0.052766 0.084413 0.122133
0.160983 0.047211 0.134829
0.394537 0.185306 0.166049
0.757900 0.317632 0.219852
0.968841 0.493996 0.384192
0.126558 0.155032 0.151949
0.184604 0.183444 0.171054
0.444007 0.264286 0.197055
0.782315 0.367834 0.240085
0.976318 0.530327 0.398383
0.227909 0.357031 0.259037
0.222080 0.321782 0.221500
0.439643 0.387640 0.285374
0.825406 0.540642 0.350408
0.993469 0.667750 0.468177
0.279179 0.480140 0.307134
0.276097 0.449409 0.280095
0.321691 0.396979 0.230961
0.706569 0.613519 0.458228
0.953399 0.770657 0.611719
0.342168 0.650538 0.390936
0.332433 0.629572 0.363012
0.317906 0.531945 0.259983
0.592981 0.647517 0.355261
0.889128 0.821530 0.695552
0.000000 0.186893 0.329717
0.186954 0.175723 0.362158
0.518547 0.059174 0.390417
0.776333 0.287755 0.359533
0.922820 0.558190 0.495033
0.218692 0.299779 0.325689
0.242496 0.287510 0.357885
0.514397 0.259312 0.397253
0.740291 0.394781 0.396155
0.929473 0.590906 0.518029
0.366796 0.443702 0.408087
0.399145 0.455726 0.417975
0.527977 0.512383 0.464820
0.758297 0.594354 0.518761
0.947539 0.693477 0.590082
0.483528 0.630488 0.541070
0.482307 0.617487 0.520439
0.428016 0.519524 0.389746
0.714565 0.660548 0.572320
0.935943 0.803525 0.705837
0.519097 0.743343 0.595636
0.509331 0.731411 0.570428
0.421088 0.645197 0.420081
0.529717 0.611383 0.358618
0.879179 0.828794 0.738521
0.196689 0.374884 0.606806
0.254765 0.367163 0.630335
0.532860 0.340368 0.715999
0.851347 0.287968 0.705013
1.000000 0.477302 0.655604
0.325750 0.449256 0.593225
0.334691 0.434333 0.614954
0.536584 0.416632 0.698512
0.829343 0.381415 0.695583
0.987976 0.528466 0.661524
0.450233 0.541558 0.545617
0.466987 0.544152 0.545495
0.545678 0.573388 0.645045
0.776150 0.570092 0.687404
0.925811 0.662959 0.693568
0.598077 0.692195 0.686732
0.609400 0.694606 0.688808
0.659236 0.713069 0.707790
0.754055 0.755245 0.750546
0.902678 0.822110 0.804410
0.703822 0.857298 0.847257
0.701930 0.853574 0.840177
0.689296 0.833036 0.799924
0.584802 0.701381 0.562066
0.871031 0.855650 0.825254
0.419867 0.575158 0.849393
0.431922 0.563104 0.857359
0.573571 0.552270 0.889555
0.853208 0.504906 0.936797
1.000000 0.500114 0.916014
0.463813 0.608789 0.833524
0.469459 0.597681 0.842832
0.575860 0.581964 0.877226
0.837064 0.544915 0.927642
0.993530 0.534936 0.910246
0.544884 0.683009 0.788754
0.558618 0.684718 0.798611
0.591852 0.668940 0.842039
0.786923 0.656550 0.902922
0.958038 0.651759 0.903288
0.623468 0.749050 0.790951
0.627741 0.747189 0.788266
0.653101 0.746944 0.785458
0.736080 0.777676 0.870695
0.916258 0.807980 0.913909
0.743191 0.858061 0.883604
0.748043 0.858824 0.884092
0.774319 0.866514 0.890929
0.818936 0.880919 0.903624
0.882078 0.908171 0.927642
