20 Preset/Wedding Style New/【3】LUT video cho PR-AE-FCPX/Tone  (1).cube
# Created by Adobe Lightroom plugin Export LUT (1.24.0)
# www.johnrellis.com/lightroom/exportlut.htm
# Preset: 褐色婚礼-素材江湖02
# Color profile: C:\Program Files (x86)\Common Files\Adobe\Color\Profiles\Recommended\VideoHD.icc
LUT_3D_SIZE 8
DOMAIN_MIN 0.000000 0.000000 0.000000
DOMAIN_MAX 0.903226 0.903226 0.903226
0.000000 0.000000 0.000000
0.098024 0.009827 0.000000
0.215671 0.076417 0.000000
0.353826 0.097353 0.000000
0.488319 0.101106 0.000000
0.621424 0.104768 0.000000
0.775509 0.126772 0.000000
0.940826 0.185306 0.000000
0.030671 0.082734 0.052094
0.077974 0.090944 0.044465
0.216617 0.122438 0.000000
0.354559 0.133608 0.000000
0.488716 0.136355 0.000000
0.621515 0.139925 0.000000
0.773831 0.158938 0.000000
0.939239 0.209323 0.000000
0.093355 0.175906 0.131441
0.119234 0.168368 0.141573
0.170993 0.196658 0.121798
0.345983 0.230930 0.042115
0.496803 0.229648 0.000000
0.631891 0.233829 0.000000
0.786923 0.252476 0.000000
0.947662 0.292515 0.000000
0.162570 0.278172 0.212222
0.181064 0.273136 0.218479
0.210452 0.278355 0.222263
0.289372 0.311406 0.202548
0.460456 0.348943 0.161929
0.642603 0.356329 0.022339
0.805417 0.374273 0.000000
0.956695 0.406561 0.000000
0.243565 0.368200 0.288365
0.254673 0.364813 0.292058
0.288121 0.353368 0.306615
0.315221 0.379004 0.298009
0.403357 0.413458 0.280369
0.574060 0.462135 0.248417
0.783780 0.507256 0.160739
0.966064 0.533562 0.000000
0.319341 0.454963 0.358068
0.327581 0.453223 0.361212
0.355413 0.443122 0.372503
0.380468 0.449317 0.378149
0.425330 0.482734 0.369482
0.532555 0.528893 0.352056
0.728908 0.605524 0.324285
0.923156 0.664027 0.252415
0.398993 0.577417 0.437293
0.406561 0.575463 0.439918
0.434089 0.566064 0.450324
0.473823 0.551293 0.469154
0.503227 0.587213 0.463539
0.577081 0.635889 0.452949
0.705776 0.691371 0.433997
0.877958 0.757382 0.427527
0.545403 0.757595 0.575463
0.552270 0.756100 0.578180
0.579431 0.750057 0.590112
0.624720 0.738155 0.614038
0.656733 0.746212 0.624170
0.699672 0.781704 0.622278
0.771725 0.818753 0.617273
0.868162 0.853056 0.606043
0.013184 0.037598 0.092287
0.079164 0.049348 0.089509
0.217685 0.004974 0.084504
0.352911 0.092897 0.089143
0.485786 0.102296 0.058747
0.617639 0.109804 0.003235
0.768643 0.129946 0.000000
0.934905 0.182986 0.000000
0.000000 0.103395 0.105837
0.095277 0.109316 0.108064
0.219120 0.122835 0.103029
0.354650 0.133761 0.093111
0.487312 0.139162 0.067262
0.619104 0.145174 0.009644
0.769223 0.162142 0.000000
0.934569 0.208072 0.000000
0.091676 0.201877 0.154818
0.128908 0.194369 0.162356
0.183688 0.209476 0.156741
0.353094 0.235172 0.120882
0.494240 0.234134 0.096162
0.627558 0.237766 0.045838
0.779690 0.254002 0.000000
0.942016 0.291295 0.000000
0.166812 0.291936 0.224552
0.187472 0.287083 0.230320
0.223819 0.284916 0.240146
0.295201 0.316045 0.222965
0.461158 0.350805 0.188022
0.640558 0.355749 0.116976
0.797482 0.373205 0.000000
0.951263 0.405066 0.000000
0.246830 0.376593 0.295598
0.258457 0.373266 0.299168
0.294865 0.359991 0.314183
0.321263 0.381781 0.308446
0.406195 0.415564 0.292180
0.575250 0.463539 0.262394
0.783780 0.506859 0.185611
0.963043 0.532647 0.000000
0.320317 0.460670 0.362310
0.328588 0.458289 0.365026
0.357488 0.448341 0.376104
0.385199 0.450721 0.384344
0.428595 0.484413 0.376379
0.534997 0.530999 0.360388
0.730587 0.606989 0.333684
0.923430 0.663630 0.265721
0.397742 0.581445 0.439429
0.405310 0.579004 0.441749
0.433570 0.569574 0.451942
0.476448 0.551629 0.472663
0.505608 0.587640 0.468208
0.578271 0.636408 0.458289
0.705867 0.691402 0.440040
0.877531 0.757107 0.433783
0.542687 0.759121 0.575738
0.550072 0.757992 0.578820
0.577569 0.751858 0.590600
0.623743 0.740047 0.614343
0.661006 0.747951 0.629908
0.702113 0.782681 0.627253
0.772580 0.819181 0.621881
0.868528 0.853422 0.611078
0.000000 0.103548 0.198978
0.081788 0.109499 0.197543
0.174929 0.133730 0.197726
0.334508 0.123568 0.214328
0.488136 0.003143 0.187564
0.614130 0.142550 0.197543
0.765499 0.158968 0.183749
0.933440 0.192264 0.148745
0.023590 0.148501 0.211704
0.096651 0.146944 0.211612
0.186435 0.166445 0.210025
0.341588 0.154543 0.220035
0.487373 0.133577 0.199832
0.614557 0.174899 0.202579
0.766232 0.185580 0.185519
0.933379 0.216709 0.150118
0.000000 0.227420 0.236332
0.063081 0.231052 0.237644
0.219760 0.244541 0.242588
0.358587 0.249180 0.235325
0.489784 0.252964 0.225986
0.623163 0.257603 0.214328
0.776242 0.269261 0.194980
0.939574 0.297948 0.157961
0.145144 0.337835 0.276860
0.188663 0.336248 0.280674
0.261570 0.320714 0.289403
0.321752 0.338506 0.287633
0.481880 0.364904 0.263432
0.640131 0.367834 0.236912
0.795590 0.383398 0.213291
0.949920 0.410376 0.174685
0.254154 0.411994 0.327642
0.264103 0.409155 0.327886
0.312261 0.396094 0.340734
0.350317 0.397650 0.350072
0.425971 0.431769 0.339117
0.593866 0.478157 0.314458
0.798886 0.513787 0.260136
0.961639 0.536034 0.203799
0.322820 0.489235 0.382513
0.332891 0.486824 0.385016
0.368078 0.476448 0.395514
0.409827 0.461738 0.412818
0.446998 0.496437 0.407172
0.550347 0.544152 0.395026
0.744564 0.618311 0.372137
0.931273 0.667414 0.316655
0.394202 0.607172 0.453925
0.403235 0.604700 0.456184
0.436591 0.594812 0.466194
0.486213 0.576104 0.486641
0.521752 0.595911 0.492592
0.590600 0.645716 0.485451
0.715755 0.700649 0.471778
0.884245 0.764675 0.468940
0.539208 0.773068 0.585382
0.546654 0.771481 0.587854
0.576349 0.765438 0.599390
0.626368 0.753933 0.623102
0.672450 0.749966 0.646998
0.710506 0.785428 0.645960
0.777829 0.822324 0.642420
0.871275 0.856596 0.633845
0.000000 0.160098 0.314214
0.031342 0.166506 0.314366
0.193820 0.192416 0.313573
0.295445 0.222049 0.318273
0.447700 0.209537 0.339452
0.609186 0.177523 0.328954
0.774319 0.000000 0.289982
0.931670 0.135317 0.287938
0.018433 0.195926 0.322057
0.101045 0.197421 0.322118
0.208286 0.217197 0.320958
0.302861 0.241855 0.324346
0.452186 0.230228 0.343694
0.611780 0.196475 0.330175
0.774350 0.093538 0.294133
0.930236 0.188174 0.292943
0.091890 0.264317 0.333715
0.141451 0.268101 0.335912
0.235203 0.277440 0.341588
0.325994 0.298497 0.343145
0.470741 0.292454 0.356298
0.623865 0.253239 0.329656
0.774105 0.265751 0.319829
0.935973 0.289830 0.303777
0.000000 0.347112 0.360845
0.109224 0.349096 0.361669
0.234623 0.357641 0.365454
0.363012 0.373632 0.373510
0.493935 0.374640 0.364233
0.631495 0.377356 0.352941
0.789517 0.385992 0.337163
0.946380 0.405005 0.314580
0.151369 0.462074 0.394842
0.194003 0.460975 0.394720
0.303105 0.456672 0.398016
0.396246 0.437934 0.408606
0.460151 0.460395 0.410773
0.630945 0.498634 0.390021
0.818601 0.516838 0.358495
0.960021 0.534783 0.334020
0.332372 0.547601 0.443061
0.341131 0.545922 0.442115
0.372045 0.535729 0.438087
0.436652 0.513939 0.450996
0.483497 0.520806 0.462531
0.580133 0.570214 0.456092
0.771267 0.637690 0.436957
0.947356 0.670832 0.392767
0.377905 0.656916 0.489265
0.385931 0.654963 0.489113
0.425330 0.645747 0.494270
0.496803 0.626001 0.514611
0.555200 0.611353 0.538720
0.613855 0.662684 0.536095
0.732631 0.716732 0.529076
0.895293 0.776974 0.528893
0.522881 0.800565 0.603876
0.532128 0.799130 0.606439
0.568078 0.792966 0.617456
0.625818 0.780941 0.639246
0.688350 0.762264 0.671321
0.725307 0.789609 0.678096
0.786618 0.827543 0.677302
0.876341 0.862455 0.672633
0.000336 0.229038 0.420539
0.107820 0.233585 0.420874
0.216800 0.251530 0.421607
0.322759 0.283543 0.422492
0.417700 0.307469 0.430976
0.562799 0.285161 0.456703
0.761013 0.265507 0.474434
0.941405 0.145022 0.452094
0.102785 0.251072 0.424994
0.140139 0.254612 0.425330
0.230045 0.269047 0.425910
0.330175 0.296880 0.426429
0.422370 0.319280 0.434455
0.566888 0.298253 0.459937
0.763912 0.276280 0.475441
0.942870 0.165713 0.450233
0.188418 0.315496 0.435157
0.209537 0.317967 0.436744
0.257023 0.316716 0.438666
0.351568 0.338689 0.440040
0.438788 0.360174 0.447120
0.583124 0.343969 0.471504
0.774777 0.313909 0.476265
0.948425 0.224155 0.438666
0.171786 0.370550 0.445991
0.195773 0.372900 0.446723
0.271000 0.383001 0.449928
0.374731 0.398199 0.462959
0.468147 0.422736 0.470253
0.620172 0.414862 0.489693
0.797787 0.366949 0.463905
0.952148 0.347417 0.429206
0.135470 0.458076 0.476020
0.168765 0.459602 0.476905
0.258640 0.466041 0.480476
0.372198 0.478950 0.488228
0.506798 0.500206 0.501274
0.653681 0.498878 0.487221
0.812680 0.502129 0.469215
0.957519 0.512261 0.447608
0.000000 0.603937 0.528374
0.000000 0.603357 0.527276
0.231693 0.600275 0.522667
0.404730 0.593805 0.519921
0.532616 0.568414 0.531304
0.618647 0.604944 0.540734
0.806973 0.655360 0.522179
0.968017 0.664393 0.486549
0.291295 0.717098 0.565393
0.314763 0.715999 0.565637
0.396063 0.711818 0.568414
0.486183 0.698665 0.567681
0.580011 0.668544 0.583917
0.645136 0.681209 0.603113
0.753536 0.736873 0.605219
0.909606 0.790738 0.603296
0.514549 0.835203 0.655146
0.521111 0.834043 0.654749
0.548089 0.829068 0.654047
0.598627 0.819547 0.658503
0.684810 0.800351 0.688655
0.744961 0.792172 0.717739
0.796963 0.833036 0.720333
0.882414 0.869474 0.719814
0.138277 0.297612 0.534325
0.167910 0.300664 0.534783
0.250919 0.312322 0.536034
0.352667 0.334447 0.538842
0.456580 0.368536 0.543053
0.556939 0.386023 0.557794
0.709590 0.351934 0.592065
0.916869 0.347601 0.631067
0.160037 0.311101 0.536431
0.184512 0.313603 0.536736
0.259892 0.323888 0.538048
0.357671 0.344030 0.540856
0.459907 0.376410 0.545068
0.559594 0.393866 0.559716
0.712428 0.361334 0.594171
0.918059 0.358312 0.631403
0.223362 0.362188 0.546502
0.233341 0.361151 0.547143
0.280552 0.361639 0.549554
0.374151 0.378424 0.552361
0.476112 0.407660 0.557580
0.574701 0.426978 0.571954
0.730190 0.399451 0.606897
0.926482 0.403784 0.635981
0.231449 0.418585 0.553216
0.249821 0.420600 0.554925
0.315526 0.429389 0.563134
0.389197 0.431891 0.573053
0.501213 0.459815 0.580774
0.602716 0.486061 0.595056
0.763302 0.468452 0.629297
0.940276 0.467384 0.639094
0.197208 0.484260 0.573205
0.217655 0.485573 0.573877
0.284886 0.491188 0.576837
0.383154 0.503075 0.583215
0.515099 0.524834 0.605921
0.634974 0.562676 0.621973
0.801266 0.558923 0.647669
0.958099 0.514458 0.614801
0.000000 0.589227 0.612238
0.039185 0.590753 0.613275
0.218387 0.595789 0.616541
0.351659 0.606287 0.623346
0.500694 0.624964 0.635401
0.675807 0.657832 0.657008
0.826047 0.653193 0.636957
0.958801 0.652003 0.613428
0.000000 0.778408 0.694423
0.000000 0.778042 0.693172
0.000000 0.775601 0.687190
0.277531 0.769772 0.676692
0.542870 0.758389 0.671015
0.696590 0.727962 0.685084
0.784054 0.767147 0.702266
0.931701 0.806729 0.693324
0.311284 0.877836 0.720027
0.337560 0.876921 0.719905
0.427893 0.873320 0.720729
0.554711 0.866026 0.725734
0.670405 0.852598 0.733425
0.756954 0.827665 0.752102
0.813748 0.840513 0.773556
0.892393 0.880735 0.778927
0.192844 0.373693 0.690211
0.217441 0.375952 0.691066
0.294713 0.383612 0.691981
0.399176 0.399298 0.694545
0.512718 0.425025 0.698054
0.624140 0.467353 0.702449
0.729610 0.483711 0.717800
0.862791 0.440375 0.739956
0.200107 0.381415 0.689113
0.223423 0.383551 0.690181
0.298039 0.390723 0.691218
0.400031 0.405371 0.693446
0.512688 0.430121 0.696895
0.623377 0.471656 0.700984
0.727626 0.487892 0.715694
0.860441 0.445502 0.737758
0.237095 0.420600 0.696742
0.247837 0.419165 0.697292
0.305943 0.420325 0.698482
0.408423 0.433814 0.700923
0.522148 0.457832 0.704372
0.634760 0.500145 0.709499
0.738155 0.521202 0.724880
0.871489 0.486671 0.748714
0.279210 0.486641 0.705135
0.295872 0.487587 0.706142
0.339666 0.484871 0.709133
0.412146 0.481544 0.714229
0.536065 0.507042 0.718898
0.655024 0.551293 0.725826
0.755795 0.579858 0.740444
0.886137 0.555779 0.764157
0.186374 0.541802 0.701595
0.212314 0.542046 0.702235
0.294865 0.545129 0.707301
0.415869 0.555444 0.719142
0.533959 0.564935 0.732143
0.671077 0.609918 0.740932
0.772580 0.648707 0.755459
0.902373 0.641352 0.781582
0.000000 0.622339 0.729061
0.084657 0.622980 0.729458
0.229191 0.625391 0.730709
0.362036 0.631098 0.733394
0.504814 0.643549 0.737636
0.680049 0.680232 0.761288
0.798672 0.730617 0.780209
0.923735 0.734798 0.800473
0.000000 0.738125 0.763912
0.000000 0.739071 0.764553
0.000000 0.741848 0.765927
0.307042 0.748013 0.769162
0.495125 0.758785 0.774624
0.669459 0.777371 0.784970
0.825589 0.809598 0.806638
0.940978 0.803433 0.787747
0.000000 0.923522 0.847837
0.000000 0.923033 0.846769
0.000000 0.921050 0.842710
0.000000 0.915526 0.834073
0.502617 0.905760 0.822690
0.714809 0.891875 0.817105
0.839811 0.866300 0.829709
0.907958 0.897948 0.847593
0.332555 0.480812 0.847349
0.348119 0.482704 0.847562
0.403449 0.489235 0.846860
0.492164 0.504662 0.846769
0.595392 0.530968 0.846281
0.699214 0.571801 0.845121
0.791012 0.631128 0.843748
0.868467 0.644190 0.852995
0.333471 0.486152 0.846494
0.349248 0.488045 0.846738
0.404608 0.494759 0.846433
0.492714 0.509667 0.846250
0.595789 0.535607 0.845792
0.699580 0.576074 0.844785
0.790860 0.634211 0.843259
0.867704 0.647181 0.852262
0.348669 0.514336 0.848112
0.357092 0.513390 0.848356
0.410132 0.518730 0.848081
0.499641 0.534539 0.848875
0.602197 0.559380 0.848203
0.705409 0.598413 0.847044
0.795682 0.654108 0.846128
0.870115 0.668452 0.854917
0.396399 0.575555 0.850187
0.404181 0.574853 0.850614
0.434180 0.571130 0.851469
0.502586 0.574182 0.852934
0.609979 0.599359 0.853025
0.715846 0.637903 0.852750
0.805203 0.689113 0.852964
0.875944 0.706477 0.861418
0.352270 0.626459 0.850553
0.368139 0.627527 0.851194
0.424903 0.630793 0.852659
0.524010 0.642786 0.856077
0.605554 0.645319 0.858854
0.720546 0.681209 0.859586
0.814542 0.728847 0.861570
0.884123 0.752468 0.870481
0.243687 0.687739 0.855375
0.261692 0.687678 0.854978
0.325841 0.688289 0.854032
0.432349 0.691981 0.854246
0.584619 0.707027 0.860929
0.713985 0.729793 0.869841
0.826474 0.777523 0.875547
0.898161 0.809537 0.885832
0.150942 0.770596 0.876188
0.186893 0.770748 0.876066
0.286473 0.771603 0.875700
0.411933 0.774594 0.875517
0.545495 0.780880 0.875212
0.679225 0.792935 0.875212
0.826505 0.826352 0.890074
0.914580 0.867948 0.903746
0.000000 0.873289 0.899870
0.000000 0.873442 0.899809
0.216281 0.874479 0.899931
0.386969 0.877073 0.900542
0.537194 0.881346 0.901488
0.679042 0.888487 0.903319
0.812528 0.901122 0.908293
0.933806 0.926452 0.924804
