20 Preset/Wedding Style New/【3】LUT video cho PR-AE-FCPX/Tone  (11).cube
# Created by Adobe Lightroom plugin Export LUT (1.24.0)
# www.johnrellis.com/lightroom/exportlut.htm
# Preset: 褐色婚礼-素材江湖01
# Color profile: C:\Program Files (x86)\Common Files\Adobe\Color\Profiles\Recommended\VideoHD.icc
LUT_3D_SIZE 8
DOMAIN_MIN 0.000000 0.000000 0.000000
DOMAIN_MAX 0.903226 0.903226 0.903226
0.025208 0.024170 0.028931
0.059602 0.037812 0.041077
0.152926 0.075105 0.077699
0.315557 0.098817 0.102327
0.534600 0.179355 0.143709
0.757076 0.281102 0.217166
0.917113 0.393683 0.314611
1.000000 0.537438 0.434455
0.041810 0.061830 0.051698
0.075196 0.062379 0.056641
0.172152 0.094820 0.080354
0.334020 0.122133 0.102693
0.548089 0.204257 0.144717
0.762783 0.296635 0.219120
0.916320 0.401923 0.314153
1.000000 0.542504 0.434363
0.081117 0.127016 0.095918
0.092927 0.121035 0.091707
0.168276 0.139437 0.104738
0.407050 0.229374 0.110811
0.628016 0.305638 0.154910
0.811887 0.371954 0.240726
0.941405 0.470192 0.340948
1.000000 0.593286 0.463233
0.101259 0.212009 0.131411
0.111940 0.201724 0.125154
0.159976 0.199619 0.120180
0.339422 0.282780 0.175021
0.653986 0.407813 0.232303
0.880552 0.512902 0.286442
0.966339 0.583459 0.389746
1.000000 0.669123 0.509850
0.123262 0.297063 0.167788
0.130190 0.285863 0.160586
0.148470 0.241672 0.134920
0.275578 0.311437 0.163302
0.528527 0.432197 0.270085
0.810971 0.565332 0.381415
0.961547 0.691615 0.469825
1.000000 0.757015 0.578912
0.149447 0.371313 0.200534
0.153048 0.362493 0.193912
0.161898 0.321202 0.166079
0.193576 0.282628 0.140993
0.423804 0.435492 0.223880
0.700862 0.579248 0.384741
0.900755 0.718502 0.566613
0.976562 0.809262 0.668269
0.172946 0.456794 0.235142
0.175051 0.447944 0.228275
0.180148 0.409644 0.199344
0.179294 0.336309 0.149844
0.306249 0.392737 0.174319
0.600153 0.587335 0.301732
0.823636 0.718624 0.541283
0.933410 0.824033 0.736782
0.184146 0.591119 0.286168
0.185458 0.583795 0.278935
0.196689 0.551263 0.249241
0.215976 0.483833 0.195468
0.215427 0.382238 0.122225
0.489570 0.578088 0.236362
0.777127 0.747646 0.456123
0.898192 0.837217 0.726192
0.035401 0.041932 0.066957
0.081209 0.034150 0.072724
0.151827 0.085512 0.088045
0.323766 0.116335 0.101808
0.541070 0.199954 0.143008
0.756741 0.292576 0.216281
0.911284 0.395453 0.309911
1.000000 0.533806 0.427985
0.058656 0.072389 0.080293
0.084810 0.084169 0.087160
0.168734 0.104829 0.095460
0.344732 0.139834 0.102449
0.557763 0.223270 0.144533
0.765835 0.308568 0.219669
0.913970 0.406622 0.312322
1.000000 0.540948 0.429999
0.101198 0.146304 0.120150
0.105867 0.139956 0.112245
0.175235 0.153048 0.124453
0.400763 0.235447 0.125460
0.630610 0.313848 0.154421
0.808804 0.376135 0.238468
0.935363 0.467262 0.334600
1.000000 0.588403 0.456184
0.116609 0.232639 0.152407
0.125582 0.222263 0.145083
0.164889 0.206607 0.132326
0.338415 0.288365 0.191653
0.639063 0.400305 0.227970
0.871244 0.506035 0.278233
0.960784 0.575555 0.380072
1.000000 0.663233 0.501274
0.139101 0.315526 0.186221
0.144839 0.304082 0.178439
0.159426 0.258671 0.149416
0.276402 0.313664 0.173068
0.525048 0.433783 0.281193
0.805600 0.559930 0.376654
0.958953 0.687037 0.464851
1.000000 0.754421 0.573968
0.164889 0.384833 0.215763
0.167208 0.375219 0.208408
0.173037 0.334203 0.178897
0.193271 0.282994 0.145754
0.422156 0.435309 0.231144
0.698756 0.581384 0.394537
0.899718 0.716579 0.564080
0.976257 0.807767 0.665461
0.184146 0.466407 0.246830
0.185885 0.457008 0.239628
0.189334 0.418738 0.210483
0.186191 0.344884 0.158633
0.302861 0.390021 0.177279
0.596277 0.584985 0.306157
0.822263 0.716304 0.538872
0.933013 0.822202 0.733394
0.193637 0.596735 0.296056
0.195102 0.590143 0.289189
0.202884 0.557641 0.258793
0.220005 0.489876 0.204013
0.217990 0.387396 0.127626
0.486152 0.575982 0.238621
0.777188 0.747616 0.456214
0.898222 0.837125 0.726345
0.046204 0.090730 0.138094
0.080812 0.084718 0.148562
0.194186 0.042542 0.156954
0.349310 0.089235 0.151492
0.518975 0.241520 0.203891
0.767025 0.328954 0.244175
0.924376 0.427161 0.322148
1.000000 0.556847 0.441169
0.095460 0.119142 0.137758
0.100496 0.114992 0.149050
0.198306 0.102785 0.162539
0.333135 0.157015 0.169253
0.530846 0.263188 0.213169
0.771756 0.345098 0.252262
0.926421 0.437079 0.324376
1.000000 0.563867 0.443549
0.138705 0.176516 0.170657
0.153475 0.183932 0.175845
0.218540 0.217594 0.198398
0.375280 0.268254 0.216342
0.593317 0.340856 0.246769
0.806241 0.407599 0.280583
0.943755 0.492439 0.345556
1.000000 0.604730 0.466438
0.194980 0.307866 0.245945
0.204562 0.306981 0.242496
0.210941 0.273075 0.203586
0.366979 0.333379 0.259678
0.647944 0.445045 0.308751
0.855711 0.529351 0.339788
0.965667 0.594751 0.391974
1.000000 0.675349 0.511711
0.241154 0.397711 0.282506
0.232181 0.388067 0.268925
0.221775 0.340246 0.224949
0.289799 0.334081 0.214023
0.544488 0.466041 0.339483
0.802823 0.592035 0.434913
0.957305 0.694240 0.479164
1.000000 0.760250 0.581506
0.237186 0.453407 0.288609
0.236515 0.442847 0.279606
0.231785 0.399420 0.244114
0.215183 0.314275 0.179965
0.426001 0.444862 0.263310
0.700923 0.600519 0.442237
0.897673 0.725582 0.584741
0.976471 0.809903 0.669612
0.239414 0.523705 0.307164
0.238956 0.513542 0.298863
0.236210 0.471565 0.264744
0.224460 0.392523 0.203342
0.293004 0.385138 0.190555
0.591638 0.586572 0.330724
0.822995 0.724941 0.564538
0.934356 0.825315 0.738552
0.250584 0.633845 0.350500
0.247562 0.626490 0.341680
0.239963 0.595422 0.306981
0.242771 0.527916 0.244938
0.238407 0.418708 0.159884
0.468421 0.564080 0.245212
0.777951 0.749142 0.462104
0.899351 0.838773 0.730648
0.000000 0.142580 0.258732
0.025849 0.136904 0.270848
0.232700 0.115755 0.317113
0.419165 0.000000 0.314580
0.641169 0.105653 0.307652
0.732113 0.334356 0.332219
0.875334 0.470405 0.407874
0.998932 0.579614 0.469825
0.111330 0.186069 0.258091
0.116732 0.177859 0.269078
0.237827 0.163058 0.313451
0.417914 0.126589 0.316197
0.628870 0.186923 0.310643
0.718563 0.366766 0.347295
0.878264 0.483772 0.415991
0.998779 0.589441 0.476539
0.188815 0.251255 0.250095
0.201816 0.256687 0.253422
0.247776 0.272435 0.303990
0.426581 0.269657 0.332921
0.580865 0.330571 0.328557
0.725826 0.446296 0.392889
0.894499 0.543664 0.456153
1.000000 0.631220 0.507286
0.274235 0.354314 0.322637
0.286412 0.358740 0.325872
0.337835 0.381140 0.343847
0.438209 0.425727 0.378546
0.619409 0.484413 0.410651
0.782467 0.552636 0.458289
0.914977 0.626795 0.510552
0.999145 0.692531 0.552758
0.367681 0.507591 0.434913
0.371588 0.503777 0.429206
0.385016 0.488808 0.405829
0.356390 0.413581 0.318791
0.581170 0.529198 0.443641
0.799924 0.647181 0.537591
0.933776 0.734554 0.595636
0.992889 0.771450 0.626093
0.390295 0.570794 0.448646
0.392035 0.567712 0.443702
0.391424 0.546838 0.414679
0.336980 0.451453 0.314275
0.436683 0.467384 0.319799
0.711116 0.638666 0.527062
0.887907 0.756863 0.658930
0.970428 0.822599 0.706813
0.401251 0.629969 0.463691
0.400153 0.625452 0.456977
0.352911 0.591180 0.399969
0.316930 0.504234 0.314611
0.270756 0.374243 0.209049
0.582055 0.589593 0.371710
0.820645 0.743862 0.623682
0.931701 0.835691 0.764279
0.404364 0.708492 0.491005
0.392462 0.702388 0.477760
0.352697 0.673945 0.427344
0.311009 0.610864 0.344152
0.285344 0.493568 0.235477
0.426825 0.535027 0.250309
0.762112 0.743923 0.486336
0.900999 0.842039 0.739864
0.000000 0.242954 0.416175
0.017639 0.233829 0.427619
0.242252 0.230900 0.471473
0.502220 0.178286 0.561791
0.683986 0.128878 0.521019
0.884398 0.219516 0.495979
0.930053 0.414771 0.477577
0.948058 0.609094 0.580072
0.145296 0.282017 0.412848
0.153109 0.274937 0.423896
0.257023 0.265965 0.467109
0.497383 0.231113 0.555535
0.677913 0.196933 0.519158
0.873777 0.270970 0.497566
0.920806 0.438178 0.485359
0.940002 0.622156 0.589868
0.256565 0.356878 0.391089
0.268376 0.361089 0.402411
0.297215 0.354589 0.447486
0.474952 0.350011 0.532128
0.665064 0.332647 0.520836
0.829129 0.399054 0.503502
0.878538 0.526177 0.525048
0.936858 0.655299 0.614771
0.330205 0.416815 0.403540
0.339452 0.419745 0.405554
0.377081 0.433326 0.415808
0.459968 0.471504 0.501335
0.653468 0.485084 0.540795
0.756558 0.537438 0.529503
0.838315 0.632349 0.594781
0.946899 0.709102 0.656794
0.435065 0.532067 0.501305
0.443854 0.535363 0.504082
0.479713 0.548943 0.516228
0.545739 0.579461 0.545800
0.632654 0.618067 0.581628
0.770748 0.673671 0.625086
0.880247 0.727871 0.672053
0.954711 0.776974 0.712062
0.548882 0.687678 0.652064
0.550225 0.685206 0.647639
0.552483 0.671962 0.625483
0.549310 0.641810 0.575463
0.479255 0.532952 0.427161
0.725612 0.686885 0.630610
0.879942 0.791226 0.736233
0.954406 0.848386 0.785092
0.543481 0.730678 0.653895
0.542351 0.727321 0.648005
0.536675 0.712245 0.621332
0.524041 0.677882 0.562829
0.423163 0.555413 0.393286
0.555718 0.585077 0.414099
0.817655 0.767849 0.694606
0.923339 0.854734 0.813321
0.536126 0.786526 0.668452
0.535363 0.783536 0.662806
0.531243 0.769802 0.636622
0.503716 0.735042 0.566796
0.397894 0.631891 0.399969
0.341253 0.471656 0.240452
0.729702 0.729397 0.507073
0.893248 0.851835 0.783291
0.141390 0.362799 0.602258
0.152346 0.357488 0.611200
0.262669 0.354192 0.644770
0.452064 0.347478 0.709957
0.755520 0.289250 0.798825
0.874357 0.295323 0.727474
0.996551 0.409064 0.701442
1.000000 0.556603 0.674067
0.210819 0.387671 0.594141
0.216495 0.382666 0.602136
0.283543 0.374762 0.635645
0.454627 0.369665 0.699977
0.746853 0.324712 0.790463
0.866148 0.326848 0.722469
0.989960 0.431495 0.702388
1.000000 0.568383 0.676112
0.336614 0.461646 0.573785
0.339452 0.459571 0.581842
0.355322 0.447639 0.616144
0.471412 0.447578 0.679408
0.724269 0.437995 0.771511
0.844785 0.434913 0.719265
0.969482 0.514031 0.714412
0.994263 0.618189 0.691371
0.396155 0.500969 0.518944
0.404639 0.506218 0.527886
0.443915 0.529229 0.568627
0.501549 0.544518 0.645686
0.684810 0.565576 0.743374
0.820005 0.565362 0.727779
0.924468 0.620966 0.721035
0.956695 0.687037 0.716213
0.479225 0.579889 0.578027
0.485298 0.581659 0.579187
0.509636 0.589014 0.584771
0.553277 0.604334 0.597528
0.636835 0.649897 0.693385
0.789364 0.669856 0.733333
0.862669 0.702388 0.720790
0.901213 0.769558 0.766903
0.576104 0.680293 0.674647
0.581262 0.682399 0.676783
0.600641 0.688746 0.683253
0.637018 0.702388 0.697505
0.689876 0.727443 0.725032
0.758541 0.758694 0.756100
0.859525 0.808255 0.798672
0.922881 0.841581 0.827787
0.695247 0.826963 0.834714
0.699184 0.828611 0.836545
0.699947 0.824918 0.829709
0.695674 0.809934 0.805417
0.680171 0.775174 0.747433
0.582055 0.639399 0.538628
0.821286 0.806729 0.786099
0.917937 0.879942 0.867369
0.684565 0.861387 0.841825
0.683497 0.860044 0.839261
0.678523 0.853788 0.827146
0.665492 0.838376 0.796475
0.639796 0.801816 0.724666
0.519768 0.671778 0.497505
0.674006 0.703426 0.525048
0.886137 0.868009 0.837675
0.293523 0.487953 0.772274
0.302556 0.487098 0.780392
0.352850 0.481025 0.800137
0.487617 0.483467 0.837888
0.692714 0.475044 0.885405
0.927367 0.452247 0.929046
0.976684 0.472602 0.878141
1.000000 0.557885 0.839902
0.313054 0.494301 0.753841
0.321904 0.494728 0.763149
0.358007 0.485786 0.784207
0.480140 0.486488 0.821805
0.676936 0.478035 0.871672
0.914366 0.450904 0.918517
0.964416 0.463355 0.862455
1.000000 0.543420 0.825284
0.414862 0.562280 0.743374
0.417700 0.560418 0.748684
0.428779 0.547784 0.768368
0.507561 0.544274 0.807279
0.672114 0.542565 0.857725
0.897887 0.533196 0.911925
0.949340 0.540856 0.863798
1.000000 0.613886 0.840940
0.483406 0.616449 0.708583
0.489570 0.618158 0.713619
0.518120 0.626734 0.736995
0.547417 0.621302 0.783200
0.665644 0.629603 0.839902
0.862394 0.643580 0.900603
0.925383 0.642939 0.867124
0.986542 0.693263 0.853269
0.518090 0.634089 0.662867
0.519371 0.632074 0.659876
0.532250 0.631678 0.657008
0.575219 0.659663 0.707698
0.638819 0.682277 0.790463
0.800809 0.709987 0.868345
0.892363 0.712398 0.856840
0.954498 0.760891 0.854490
0.584863 0.702846 0.725490
0.588647 0.703914 0.726436
0.602564 0.706966 0.728664
0.628656 0.713375 0.733669
0.665766 0.723293 0.741756
0.747616 0.772335 0.831022
0.865660 0.798184 0.865110
0.910948 0.819852 0.854948
0.670161 0.788846 0.808591
0.674281 0.790677 0.810575
0.685603 0.793698 0.813230
0.708888 0.800870 0.820035
0.742031 0.811887 0.830503
0.785550 0.831144 0.849638
0.836088 0.855100 0.871824
0.903441 0.888060 0.899290
0.774777 0.890715 0.908873
0.777279 0.891630 0.909789
0.788907 0.896025 0.914366
0.806546 0.902251 0.920623
0.806943 0.897124 0.911894
0.786770 0.873777 0.875669
0.676051 0.746761 0.662806
0.884489 0.892149 0.896086
0.440009 0.603540 0.879332
0.445350 0.602075 0.882780
0.464332 0.589654 0.890745
0.549706 0.590051 0.908324
0.680262 0.585931 0.930968
0.844388 0.575189 0.955108
0.982574 0.573144 0.971283
1.000000 0.586938 0.942901
0.444587 0.607172 0.870848
0.449928 0.606043 0.874662
0.464820 0.593408 0.884581
0.545922 0.593042 0.902434
0.674037 0.589441 0.926177
0.837919 0.579583 0.951568
0.978180 0.574670 0.968597
1.000000 0.584680 0.939117
0.490822 0.643702 0.856870
0.493660 0.642115 0.859861
0.501946 0.630610 0.869993
0.560174 0.627893 0.893217
0.671931 0.625605 0.917418
0.823850 0.619135 0.943908
0.964752 0.618860 0.964111
1.000000 0.622309 0.935546
0.539574 0.686336 0.830045
0.547295 0.688930 0.834287
0.561059 0.687617 0.846769
0.582452 0.677089 0.871702
0.665766 0.677241 0.901671
0.802213 0.682002 0.932860
0.943389 0.691096 0.958923
0.979400 0.687617 0.932830
0.547692 0.696590 0.776120
0.552605 0.699550 0.781247
0.567346 0.705409 0.796353
0.611994 0.722744 0.830259
0.653376 0.721675 0.872099
0.765103 0.733120 0.912993
0.910369 0.755093 0.949371
0.954009 0.754299 0.929473
0.591577 0.732204 0.782162
0.592218 0.730831 0.780423
0.597894 0.728054 0.776303
0.614221 0.726955 0.773068
0.654566 0.747524 0.808011
0.735439 0.782864 0.885008
0.868040 0.822629 0.937560
0.929534 0.833249 0.934478
0.668360 0.804593 0.844938
0.670039 0.804562 0.844785
0.677790 0.805051 0.844633
0.695430 0.807980 0.846433
0.722469 0.813382 0.850004
0.755703 0.820615 0.854765
0.822141 0.856840 0.910460
0.907012 0.877226 0.932525
0.746548 0.866484 0.895384
0.747829 0.866545 0.895354
0.755184 0.868040 0.896544
0.771511 0.872435 0.900328
0.794461 0.878904 0.905852
0.822873 0.888060 0.913725
0.856962 0.902068 0.926177
0.892607 0.918761 0.940429
