20 Preset/Wedding Style New/【3】LUT video cho PR-AE-FCPX/Tone  (1).cube
# Created by Adobe Lightroom plugin Export LUT (1.24.0)
# www.johnrellis.com/lightroom/exportlut.htm
# Preset: 褐色婚礼-素材江湖02
# Color profile: C:\Program Files (x86)\Common Files\Adobe\Color\Profiles\Recommended\VideoHD.icc
LUT_3D_SIZE 32
DOMAIN_MIN 0.0 0.0 0.0
DOMAIN_MAX 1.0 1.0 1.0
0.000000 0.000000 0.000000
0.005249 0.000519 0.000000
0.022675 0.001892 0.000427
0.059449 0.005615 0.000000
0.098024 0.009827 0.000000
0.125216 0.021363 0.000000
0.153262 0.040772 0.000000
0.183597 0.059510 0.000000
0.215671 0.076417 0.000000
0.249485 0.086366 0.000000
0.284276 0.091554 0.000000
0.319066 0.095155 0.000000
0.353826 0.097353 0.000000
0.388159 0.098848 0.000000
0.422034 0.100038 0.000000
0.455421 0.100679 0.000000
0.488319 0.101106 0.000000
0.520989 0.102266 0.000000
0.553918 0.102083 0.000000
0.587274 0.103059 0.000000
0.621424 0.104768 0.000000
0.657679 0.107301 0.000000
0.695491 0.111604 0.000000
0.734798 0.117830 0.000000
0.775509 0.126772 0.000000
0.817472 0.138369 0.000000
0.860075 0.152377 0.000000
0.901274 0.168185 0.000000
0.940826 0.185306 0.000000
0.978637 0.203952 0.000000
1.000000 0.223209 0.000000
1.000000 0.243198 0.000000
0.001251 0.003143 0.001801
0.002533 0.004150 0.001648
0.021820 0.006500 0.000000
0.060975 0.008789 0.000000
0.097749 0.014435 0.000000
0.124941 0.025971 0.000000
0.153079 0.045380 0.000000
0.183169 0.064302 0.000000
0.215549 0.079927 0.000000
0.249393 0.088746 0.000000
0.283879 0.093446 0.000000
0.318669 0.096559 0.000000
0.353429 0.099153 0.000000
0.387701 0.100618 0.000000
0.421576 0.101472 0.000000
0.454994 0.102113 0.000000
0.487922 0.102937 0.000000
0.520684 0.103334 0.000000
0.553491 0.104036 0.000000
0.586725 0.104829 0.000000
0.620813 0.106600 0.000000
0.656916 0.108370 0.000000
0.694453 0.113100 0.000000
0.733608 0.118990 0.000000
0.774136 0.128176 0.000000
0.815946 0.138796 0.000000
0.858579 0.152438 0.000000
0.899809 0.168490 0.000000
0.939452 0.185550 0.000000
0.977417 0.203983 0.000000
1.000000 0.223331 0.000000
1.000000 0.243229 0.000000
0.005921 0.015778 0.010163
0.007599 0.015564 0.011292
0.015290 0.019257 0.008362
0.053773 0.027344 0.004273
0.097505 0.032319 0.000031
0.124269 0.047456 0.000000
0.152590 0.066865 0.000000
0.183261 0.081331 0.000000
0.215549 0.090730 0.000000
0.249302 0.095705 0.000000
0.284031 0.100221 0.000000
0.318761 0.103456 0.000000
0.353429 0.105470 0.000000
0.387671 0.107210 0.000000
0.421546 0.108034 0.000000
0.454902 0.108675 0.000000
0.487831 0.109407 0.000000
0.520562 0.109468 0.000000
0.553368 0.110140 0.000000
0.586694 0.110780 0.000000
0.620813 0.112398 0.000000
0.656825 0.115389 0.000000
0.694301 0.118990 0.000000
0.733272 0.125246 0.000000
0.773709 0.133303 0.000000
0.815518 0.143862 0.000000
0.858000 0.157321 0.000000
0.899290 0.172885 0.000000
0.938933 0.189456 0.000000
0.976867 0.207431 0.000000
1.000000 0.226261 0.000000
1.000000 0.245975 0.000000
0.017090 0.044190 0.026398
0.018494 0.043946 0.028656
0.025422 0.044251 0.029603
0.039124 0.051881 0.022644
0.089357 0.067903 0.015961
0.122164 0.084688 0.003143
0.152804 0.092073 0.000000
0.183261 0.098634 0.000000
0.216129 0.104555 0.000000
0.249821 0.109285 0.000000
0.284672 0.112642 0.000000
0.319066 0.115511 0.000000
0.353887 0.117494 0.000000
0.388159 0.118898 0.000000
0.421881 0.119661 0.000000
0.455238 0.120211 0.000000
0.488014 0.120668 0.000000
0.520623 0.121096 0.000000
0.553491 0.121614 0.000000
0.586633 0.122347 0.000000
0.620691 0.123842 0.000000
0.656703 0.126192 0.000000
0.693965 0.130404 0.000000
0.732784 0.135927 0.000000
0.773220 0.143862 0.000000
0.815152 0.153964 0.000000
0.857877 0.166781 0.000000
0.899260 0.181308 0.000000
0.938994 0.197238 0.000000
0.976867 0.214755 0.000000
1.000000 0.232853 0.000000
1.000000 0.251865 0.000000
0.030671 0.082734 0.052094
0.035035 0.081697 0.053376
0.043915 0.078859 0.058320
0.049073 0.084230 0.053681
0.077974 0.090944 0.044465
0.109712 0.101778 0.032959
0.145510 0.111482 0.015412
0.183627 0.117525 0.000000
0.216617 0.122438 0.000000
0.250553 0.126955 0.000000
0.285313 0.129702 0.000000
0.319890 0.132204 0.000000
0.354559 0.133608 0.000000
0.388769 0.134829 0.000000
0.422492 0.135653 0.000000
0.455756 0.136110 0.000000
0.488716 0.136355 0.000000
0.521263 0.136965 0.000000
0.554040 0.137636 0.000000
0.587335 0.138338 0.000000
0.621515 0.139925 0.000000
0.657496 0.142519 0.000000
0.694575 0.146212 0.000000
0.733455 0.151675 0.000000
0.773831 0.158938 0.000000
0.815824 0.168582 0.000000
0.858427 0.180545 0.000000
0.899718 0.194186 0.000000
0.939239 0.209323 0.000000
0.977020 0.225650 0.000000
1.000000 0.242985 0.000000
1.000000 0.261204 0.000000
0.046265 0.104952 0.079347
0.048676 0.104524 0.080171
0.060670 0.102266 0.084199
0.070161 0.102998 0.084596
0.081666 0.108400 0.078614
0.100801 0.114870 0.065827
0.130922 0.125887 0.050904
0.170108 0.137148 0.027497
0.211826 0.143709 0.005676
0.252110 0.147433 0.000000
0.286809 0.150027 0.000000
0.321569 0.151949 0.000000
0.356176 0.153231 0.000000
0.390265 0.154421 0.000000
0.423987 0.155032 0.000000
0.457282 0.155306 0.000000
0.489998 0.155795 0.000000
0.522667 0.156130 0.000000
0.555505 0.156802 0.000000
0.588678 0.157961 0.000000
0.623224 0.159670 0.000000
0.659174 0.162325 0.000000
0.702632 0.167697 0.000000
0.742031 0.173342 0.000000
0.782864 0.180392 0.000000
0.824949 0.190005 0.000000
0.867063 0.201236 0.000000
0.907561 0.214054 0.000000
0.946319 0.228397 0.000000
0.983246 0.243656 0.000000
1.000000 0.260014 0.000000
1.000000 0.276982 0.000000
0.058106 0.127626 0.097139
0.063203 0.126955 0.097627
0.077180 0.125246 0.099763
0.089387 0.122408 0.104128
0.092073 0.127108 0.100679
0.101625 0.133089 0.095888
0.122042 0.140658 0.089082
0.155428 0.152102 0.077485
0.197391 0.164096 0.045533
0.242161 0.170901 0.017029
0.286992 0.173739 0.000000
0.325292 0.175082 0.000000
0.359655 0.176394 0.000000
0.393683 0.177218 0.000000
0.427314 0.177646 0.000000
0.460243 0.178073 0.000000
0.493111 0.178256 0.000000
0.525658 0.178775 0.000000
0.558434 0.179538 0.000000
0.592035 0.180911 0.000000
0.627344 0.182803 0.000000
0.664027 0.185702 0.000000
0.702174 0.189609 0.000000
0.741939 0.194980 0.000000
0.783108 0.202029 0.000000
0.825376 0.211307 0.000000
0.867338 0.221653 0.000000
0.907591 0.233707 0.000000
0.946166 0.246921 0.000000
0.982849 0.261173 0.000000
1.000000 0.276402 0.000000
1.000000 0.292210 0.000000
0.078340 0.150942 0.113313
0.080476 0.150881 0.113924
0.088930 0.149264 0.115969
0.098299 0.146304 0.119905
0.104005 0.146975 0.120272
0.109255 0.152712 0.116793
0.122133 0.159701 0.111666
0.145266 0.167941 0.104433
0.180392 0.179294 0.098390
0.225467 0.191867 0.078798
0.271427 0.198947 0.042695
0.316686 0.201968 0.009125
0.360815 0.201816 0.000000
0.395605 0.202243 0.000000
0.429084 0.202701 0.000000
0.461921 0.202884 0.000000
0.494606 0.203189 0.000000
0.527276 0.203403 0.000000
0.560174 0.204196 0.000000
0.594171 0.205478 0.000000
0.629236 0.207492 0.000000
0.665827 0.210300 0.000000
0.703822 0.214115 0.000000
0.743465 0.219394 0.000000
0.784543 0.226352 0.000000
0.826719 0.234867 0.000000
0.868284 0.244877 0.000000
0.908263 0.256168 0.000000
0.946624 0.268254 0.000000
0.983062 0.281712 0.000000
1.000000 0.295811 0.000000
1.000000 0.310765 0.000000
0.093355 0.175906 0.131441
0.094789 0.175662 0.131960
0.099702 0.174411 0.133639
0.109194 0.171756 0.136934
0.119234 0.168368 0.141573
0.121614 0.173800 0.138705
0.129549 0.180240 0.134432
0.145632 0.188022 0.128939
0.170993 0.196658 0.121798
0.208835 0.208133 0.114992
0.254429 0.220310 0.101503
0.300572 0.227634 0.081971
0.345983 0.230930 0.042115
0.390021 0.231052 0.003113
0.431373 0.229557 0.000000
0.464118 0.229587 0.000000
0.496803 0.229648 0.000000
0.529595 0.229953 0.000000
0.562890 0.230747 0.000000
0.596918 0.231846 0.000000
0.631891 0.233829 0.000000
0.668452 0.236790 0.000000
0.706325 0.240513 0.000000
0.745876 0.245823 0.000000
0.786923 0.252476 0.000000
0.828916 0.260838 0.000000
0.870115 0.270390 0.000000
0.909758 0.280919 0.000000
0.947662 0.292515 0.000000
0.983795 0.304814 0.000000
1.000000 0.317906 0.000000
1.000000 0.331670 0.000000
0.107057 0.201877 0.150790
0.108492 0.201511 0.151247
0.112764 0.200320 0.152682
0.121798 0.198093 0.155612
0.132296 0.194644 0.160189
0.138216 0.195529 0.161074
0.142947 0.201572 0.157565
0.153384 0.208804 0.153353
0.171786 0.216892 0.147829
0.198917 0.225711 0.140475
0.238285 0.237308 0.133333
0.283085 0.248631 0.122469
0.329259 0.256291 0.106233
0.374273 0.259953 0.088289
0.418402 0.260655 0.043732
0.461372 0.259098 0.000000
0.499519 0.257664 0.000000
0.532647 0.258030 0.000000
0.565942 0.258640 0.000000
0.599969 0.259861 0.000000
0.635187 0.261753 0.000000
0.671565 0.264561 0.000000
0.709163 0.268498 0.000000
0.748531 0.273625 0.000000
0.789120 0.280186 0.000000
0.830777 0.288365 0.000000
0.871580 0.297429 0.000000
0.910857 0.307378 0.000000
0.948486 0.318120 0.000000
0.984344 0.329717 0.000000
1.000000 0.341955 0.000000
1.000000 0.354742 0.000000
0.123110 0.227665 0.170596
0.124269 0.227359 0.170993
0.128054 0.226444 0.172335
0.136294 0.224430 0.174838
0.146548 0.221347 0.179080
0.157259 0.217960 0.183688
0.160006 0.223362 0.181094
0.166751 0.229953 0.177462
0.179599 0.237461 0.173007
0.199771 0.245731 0.167208
0.228428 0.254398 0.159976
0.267857 0.265721 0.152804
0.311681 0.276799 0.144594
0.357427 0.284855 0.128969
0.402411 0.289128 0.112123
0.446418 0.290715 0.092378
0.489876 0.290105 0.045747
0.532952 0.288060 0.000000
0.569146 0.287907 0.000000
0.603265 0.289036 0.000000
0.638636 0.290959 0.000000
0.675013 0.293767 0.000000
0.712734 0.297826 0.000000
0.752010 0.302892 0.000000
0.792599 0.309514 0.000000
0.833982 0.317479 0.000000
0.874327 0.326238 0.000000
0.913085 0.335668 0.000000
0.950164 0.345769 0.000000
0.985595 0.356573 0.000000
1.000000 0.367987 0.000000
1.000000 0.379797 0.000000
0.141817 0.252964 0.191135
0.142824 0.252720 0.191318
0.146487 0.251804 0.192508
0.153506 0.250156 0.194919
0.162997 0.247471 0.198459
0.174441 0.243565 0.203433
0.179873 0.244938 0.204166
0.184207 0.250828 0.201389
0.192874 0.257694 0.197818
0.207614 0.265415 0.193210
0.229191 0.273747 0.187411
0.258244 0.282597 0.180667
0.299474 0.295476 0.174350
0.342931 0.306554 0.168673
0.388373 0.315404 0.153994
0.433417 0.320470 0.137728
0.477729 0.322850 0.119570
0.521874 0.323400 0.097078
0.566278 0.322881 0.044129
0.611688 0.321660 0.000000
0.647669 0.323857 0.000000
0.684260 0.326848 0.000000
0.722133 0.330785 0.000000
0.761349 0.336248 0.000000
0.801785 0.342901 0.000000
0.842344 0.350591 0.000000
0.881498 0.358648 0.000000
0.919097 0.367468 0.000000
0.955169 0.376776 0.000000
0.989532 0.386603 0.000000
1.000000 0.396948 0.000000
1.000000 0.407599 0.000000
0.162570 0.278172 0.212222
0.163302 0.278050 0.212375
0.166445 0.277134 0.213413
0.172580 0.275608 0.215274
0.181064 0.273136 0.218479
0.191592 0.269718 0.222721
0.201724 0.266392 0.227390
0.204501 0.271885 0.225101
0.210452 0.278355 0.222263
0.220920 0.285588 0.218601
0.236881 0.293706 0.214359
0.259861 0.302434 0.209049
0.289372 0.311406 0.202548
0.327184 0.321721 0.195132
0.371038 0.333532 0.191867
0.415900 0.342931 0.177615
0.460456 0.348943 0.161929
0.504997 0.352392 0.144533
0.549767 0.354345 0.124178
0.595422 0.355444 0.097627
0.642603 0.356329 0.022339
0.687892 0.357824 0.000000
0.725734 0.362158 0.000000
0.765011 0.367529 0.000000
0.805417 0.374273 0.000000
0.845335 0.381750 0.000000
0.884031 0.389624 0.000000
0.921111 0.397833 0.000000
0.956695 0.406561 0.000000
0.990570 0.415869 0.000000
1.000000 0.425330 0.000000
1.000000 0.435187 0.000000
0.183291 0.301946 0.232212
0.183841 0.301823 0.232456
0.186618 0.301183 0.233341
0.192050 0.299657 0.235019
0.199741 0.297459 0.237644
0.209171 0.294408 0.241520
0.219730 0.290410 0.246494
0.224796 0.291966 0.247196
0.229068 0.297826 0.244846
0.236484 0.304479 0.242008
0.248447 0.311986 0.238590
0.265782 0.320195 0.234440
0.289128 0.328954 0.229191
0.318639 0.337987 0.223148
0.354406 0.347112 0.215640
0.398657 0.359838 0.214450
0.442969 0.369787 0.200381
0.487282 0.376776 0.185458
0.532280 0.381750 0.168521
0.578149 0.385443 0.149294
0.625788 0.388708 0.124575
0.674830 0.391943 0.088716
0.724941 0.395178 0.000000
0.769802 0.400000 0.000000
0.809934 0.406744 0.000000
0.849271 0.414069 0.000000
0.887236 0.421485 0.000000
0.923674 0.429297 0.000000
0.958618 0.437415 0.000000
0.991943 0.445960 0.000000
1.000000 0.454749 0.000000
1.000000 0.463874 0.000000
0.203861 0.324926 0.251652
0.204410 0.324743 0.251896
0.206607 0.324193 0.252567
0.211337 0.322789 0.254063
0.218204 0.320745 0.256321
0.226841 0.317998 0.259739
0.236576 0.314397 0.264042
0.245731 0.311345 0.268345
0.248478 0.316716 0.266270
0.253849 0.322942 0.263951
0.262791 0.329900 0.261234
0.275944 0.337652 0.257816
0.294041 0.345922 0.253758
0.318059 0.354650 0.248905
0.347478 0.363684 0.242893
0.382635 0.372808 0.235691
0.426123 0.385382 0.236118
0.469947 0.396338 0.222354
0.514702 0.404517 0.207431
0.560662 0.411200 0.190951
0.608576 0.417243 0.171847
0.658289 0.423194 0.148348
0.709224 0.428931 0.116854
0.760952 0.434699 0.036164
0.812741 0.440253 0.000000
0.853544 0.446876 0.000000
0.890776 0.453986 0.000000
0.926574 0.461463 0.000000
0.960937 0.469062 0.000000
0.993683 0.476997 0.000000
1.000000 0.485145 0.000000
1.000000 0.493538 0.000000
0.224033 0.346838 0.270329
0.224674 0.346715 0.270512
0.226596 0.346197 0.271153
0.230533 0.345037 0.272404
0.236698 0.343206 0.274632
0.244511 0.340703 0.277470
0.253574 0.337499 0.281468
0.263554 0.333501 0.286259
0.268681 0.335424 0.287114
0.272618 0.341131 0.285222
0.279271 0.347631 0.282841
0.289158 0.354864 0.280064
0.303380 0.362707 0.276677
0.322240 0.370977 0.272648
0.346105 0.379583 0.267704
0.375402 0.388647 0.261906
0.410285 0.397833 0.255039
0.453559 0.411017 0.254734
0.497322 0.422583 0.243198
0.542992 0.432410 0.228336
0.591058 0.441627 0.211734
0.641413 0.450477 0.192538
0.693050 0.459083 0.169680
0.745663 0.467384 0.139834
0.798459 0.475471 0.094514
0.848661 0.482033 0.000000
0.894865 0.487251 0.000000
0.929900 0.494118 0.000000
0.963500 0.501152 0.000000
0.995483 0.508415 0.000000
1.000000 0.515831 0.000000
1.000000 0.523308 0.000000
0.243565 0.368200 0.288365
0.244083 0.367987 0.288487
0.245731 0.367559 0.289036
0.249180 0.366552 0.290166
0.254673 0.364813 0.292058
0.261784 0.362646 0.294713
0.270298 0.359686 0.298161
0.279728 0.356023 0.302678
0.288121 0.353368 0.306615
0.291203 0.358709 0.305058
0.296269 0.364782 0.303105
0.303929 0.371557 0.300877
0.315221 0.379004 0.298009
0.329992 0.387030 0.294743
0.349737 0.395422 0.290684
0.373907 0.404273 0.285954
0.403357 0.413458 0.280369
0.437934 0.422980 0.273777
0.481666 0.436957 0.272740
0.526085 0.449561 0.263371
0.574060 0.462135 0.248417
0.624750 0.474098 0.231479
0.676905 0.485573 0.212284
0.730190 0.496681 0.189303
0.783780 0.507256 0.160739
0.834958 0.516106 0.122347
0.882872 0.523186 0.017731
0.927550 0.528527 0.000000
0.966064 0.533562 0.000000
0.997375 0.540185 0.000000
1.000000 0.546868 0.000000
1.000000 0.553643 0.000000
0.262882 0.389166 0.305913
0.263218 0.389075 0.306065
0.266423 0.390295 0.307927
0.269505 0.389380 0.308965
0.274388 0.387854 0.310704
0.280858 0.385779 0.313146
0.288640 0.383032 0.316320
0.297704 0.379583 0.320134
0.306889 0.375555 0.324956
0.311833 0.377630 0.325628
0.315740 0.383368 0.324102
0.321691 0.389837 0.322148
0.330480 0.396826 0.319829
0.342657 0.404456 0.316899
0.358465 0.412634 0.313542
0.378607 0.421302 0.309636
0.403479 0.430335 0.304936
0.433082 0.439826 0.299290
0.467750 0.449744 0.292790
0.512505 0.465003 0.290959
0.559289 0.479927 0.283452
0.609979 0.495277 0.268040
0.662409 0.509728 0.250950
0.716091 0.523552 0.231479
0.770230 0.536584 0.208713
0.821836 0.547692 0.181949
0.870329 0.556603 0.148592
0.915618 0.563714 0.099519
0.957549 0.569146 0.000000
0.996399 0.573175 0.000000
1.000000 0.577996 0.000000
1.000000 0.583978 0.000000
0.281987 0.410651 0.323522
0.282597 0.410681 0.323735
0.284184 0.410437 0.324376
0.287266 0.409644 0.325536
0.291691 0.408453 0.327123
0.297612 0.406592 0.329320
0.305028 0.404059 0.332280
0.313359 0.400824 0.335821
0.322362 0.397070 0.340124
0.330419 0.394507 0.343908
0.333471 0.400000 0.342626
0.338476 0.406165 0.341009
0.345373 0.412970 0.339055
0.355200 0.420386 0.336767
0.368292 0.428473 0.334020
0.385260 0.437018 0.330694
0.406592 0.446143 0.326757
0.432105 0.455909 0.322148
0.462745 0.466163 0.316838
0.498177 0.477028 0.310430
0.544732 0.494057 0.307774
0.594324 0.511498 0.302159
0.646723 0.529320 0.286534
0.700679 0.546014 0.269261
0.755306 0.561852 0.249668
0.807767 0.575463 0.227787
0.856992 0.586572 0.203281
0.902892 0.595575 0.174563
0.945434 0.602777 0.137087
0.984955 0.608270 0.059632
1.000000 0.612177 0.000000
1.000000 0.614466 0.000000
0.300694 0.432013 0.340551
0.300969 0.432136 0.340856
0.302495 0.431861 0.341436
0.305272 0.431312 0.342412
0.309422 0.430182 0.343999
0.315190 0.428382 0.346105
0.321996 0.426062 0.348669
0.329931 0.423072 0.351995
0.338598 0.419593 0.355962
0.347692 0.415381 0.360723
0.352361 0.417823 0.361395
0.356359 0.423804 0.360113
0.362158 0.430365 0.358434
0.370336 0.437751 0.356512
0.381445 0.445686 0.354192
0.395789 0.454322 0.351476
0.414069 0.463539 0.348180
0.436439 0.473396 0.344244
0.463508 0.483955 0.339666
0.495277 0.495369 0.334142
0.532311 0.507530 0.327764
0.580377 0.526116 0.324163
0.631800 0.545525 0.320714
0.685939 0.565545 0.304936
0.740902 0.584314 0.287541
0.793912 0.600549 0.268711
0.843717 0.613886 0.248356
0.890227 0.624872 0.226169
0.933379 0.633814 0.201114
0.973419 0.640833 0.171084
1.000000 0.646204 0.131319
1.000000 0.649744 0.024292
0.319341 0.454963 0.358068
0.319646 0.455055 0.358282
0.321111 0.454871 0.358801
0.323613 0.454261 0.359777
0.327581 0.453223 0.361212
0.332982 0.451484 0.363134
0.339391 0.449256 0.365667
0.347051 0.446479 0.368719
0.355413 0.443122 0.372503
0.364508 0.439124 0.376989
0.372290 0.436866 0.380652
0.375525 0.442725 0.379553
0.380468 0.449317 0.378149
0.387427 0.456550 0.376471
0.397009 0.464515 0.374578
0.409430 0.473243 0.372229
0.425330 0.482734 0.369482
0.445319 0.493019 0.366064
0.469551 0.504143 0.362219
0.498726 0.516136 0.357488
0.532555 0.528893 0.352056
0.570977 0.542321 0.345586
0.620081 0.561944 0.341161
0.673487 0.583459 0.340124
0.728908 0.605524 0.324285
0.782406 0.624567 0.307530
0.832639 0.640314 0.290135
0.879576 0.653346 0.271855
0.923156 0.664027 0.252415
0.963561 0.672633 0.231205
1.000000 0.679225 0.207126
1.000000 0.684016 0.178683
0.339025 0.481147 0.376837
0.339330 0.481117 0.376959
0.340459 0.480842 0.377447
0.342870 0.480110 0.378241
0.346563 0.479011 0.379522
0.351690 0.477302 0.381292
0.357946 0.475135 0.383734
0.365454 0.472389 0.386664
0.373632 0.469123 0.390204
0.382757 0.465278 0.394568
0.391974 0.460914 0.399390
0.396735 0.463996 0.400122
0.401038 0.470558 0.398993
0.407019 0.477943 0.397528
0.415320 0.486030 0.395819
0.426398 0.495003 0.393744
0.440467 0.504753 0.391180
0.458442 0.515373 0.388342
0.480262 0.526879 0.384802
0.506523 0.539055 0.380682
0.537346 0.551995 0.375830
0.572595 0.565515 0.370123
0.611963 0.579644 0.363348
0.661280 0.599695 0.358129
0.715633 0.622431 0.359655
0.769345 0.644404 0.344488
0.820035 0.662684 0.328985
0.867399 0.677913 0.313268
0.911467 0.690455 0.297032
0.952239 0.700618 0.280339
0.990051 0.708675 0.262760
1.000000 0.714717 0.243565
0.358007 0.509239 0.395544
0.358312 0.509209 0.395666
0.359564 0.508934 0.396124
0.361913 0.508202 0.396979
0.365576 0.507073 0.398199
0.370489 0.505455 0.399939
0.376745 0.503319 0.402197
0.384100 0.500572 0.405097
0.392340 0.497444 0.408545
0.401373 0.493660 0.412726
0.410986 0.489326 0.417517
0.418952 0.487221 0.421363
0.422736 0.493904 0.420356
0.428046 0.501488 0.419074
0.435615 0.509880 0.417578
0.445411 0.519188 0.415778
0.458350 0.529351 0.413611
0.474495 0.540215 0.410986
0.494453 0.551843 0.407904
0.518456 0.564233 0.404242
0.546685 0.577386 0.399969
0.579004 0.591150 0.394995
0.615534 0.605554 0.389136
0.656001 0.620417 0.382208
0.704372 0.639704 0.375647
0.756649 0.661677 0.378454
0.807523 0.682429 0.367071
0.855222 0.699947 0.353368
0.899657 0.714412 0.339574
0.940826 0.726284 0.325811
0.979034 0.735805 0.312078
1.000000 0.743191 0.298070
0.377996 0.542107 0.415900
0.378515 0.542107 0.416083
0.379644 0.541894 0.416480
0.381994 0.541100 0.417243
0.385504 0.539910 0.418402
0.390539 0.538140 0.420142
0.396582 0.535912 0.422248
0.403815 0.533165 0.425025
0.412299 0.529808 0.428382
0.421546 0.525933 0.432441
0.431281 0.521599 0.437079
0.441291 0.516564 0.442451
0.446418 0.520500 0.443214
0.451270 0.528130 0.442023
0.458015 0.536645 0.440558
0.466926 0.545892 0.438880
0.478462 0.556085 0.436866
0.493172 0.566979 0.434485
0.511376 0.578698 0.431769
0.533288 0.591302 0.428565
0.559136 0.604486 0.424872
0.588983 0.618402 0.420478
0.622766 0.632868 0.415259
0.660060 0.647578 0.409247
0.700160 0.662165 0.402350
0.746883 0.680354 0.396033
0.796048 0.700740 0.400702
0.843687 0.719966 0.393957
0.888243 0.736446 0.382055
0.929625 0.750057 0.370611
0.968109 0.761013 0.359716
1.000000 0.769741 0.349371
0.398993 0.577417 0.437293
0.399542 0.577417 0.437476
0.400641 0.577234 0.437934
0.402808 0.576562 0.438697
0.406561 0.575463 0.439918
0.411536 0.573846 0.441688
0.417823 0.571801 0.443885
0.425422 0.569207 0.446754
0.434089 0.566064 0.450324
0.443793 0.562402 0.454414
0.454108 0.558190 0.459266
0.464729 0.553399 0.464790
0.473823 0.551293 0.469154
0.478279 0.559106 0.468147
0.484382 0.567681 0.466835
0.492653 0.577050 0.465370
0.503227 0.587213 0.463539
0.516655 0.598199 0.461463
0.533288 0.609979 0.459083
0.553246 0.622614 0.456306
0.577081 0.635889 0.452949
0.604608 0.649714 0.449165
0.635309 0.663752 0.444770
0.669276 0.677638 0.439704
0.705776 0.691371 0.433997
0.744533 0.704891 0.427588
0.787442 0.720333 0.421546
0.833738 0.739651 0.428626
0.877958 0.757382 0.427527
0.919310 0.772824 0.418372
0.957794 0.785367 0.410193
0.993469 0.795315 0.402564
0.423865 0.617639 0.462318
0.424201 0.617670 0.462470
0.425391 0.617365 0.462898
0.427710 0.616724 0.463722
0.431373 0.615656 0.464942
0.436500 0.614160 0.466712
0.442878 0.612085 0.469032
0.450660 0.609552 0.471962
0.459510 0.606561 0.475563
0.469612 0.602991 0.479896
0.480507 0.598810 0.484962
0.491920 0.594110 0.490730
0.503532 0.588891 0.497230
0.509483 0.593713 0.498146
0.515190 0.602350 0.497047
0.522637 0.611749 0.495766
0.532341 0.622004 0.494270
0.544549 0.633021 0.492470
0.559686 0.644831 0.490425
0.577966 0.657160 0.488045
0.599451 0.669886 0.485359
0.623987 0.682765 0.482307
0.651514 0.695674 0.478767
0.681849 0.708614 0.474739
0.714656 0.721370 0.470192
0.749508 0.733883 0.464881
0.786252 0.746120 0.458961
0.825132 0.758907 0.453071
0.868040 0.776638 0.462745
0.908537 0.792966 0.468391
0.946746 0.807126 0.462440
0.982238 0.818601 0.457588
0.453986 0.662135 0.491981
0.454383 0.662104 0.492195
0.455543 0.661891 0.492592
0.457954 0.661311 0.493507
0.461769 0.660334 0.494820
0.466865 0.659022 0.496742
0.473671 0.657313 0.499367
0.481819 0.655268 0.502617
0.491341 0.652705 0.506706
0.501793 0.649683 0.511437
0.513390 0.646113 0.516899
0.525566 0.641932 0.523186
0.538140 0.637232 0.530175
0.548333 0.635798 0.535485
0.553735 0.644648 0.534752
0.560723 0.654078 0.533776
0.569604 0.664027 0.532616
0.580652 0.674464 0.531243
0.594232 0.685389 0.529778
0.610437 0.696742 0.528008
0.629328 0.708309 0.526055
0.650935 0.720089 0.523827
0.675044 0.731838 0.521233
0.701808 0.743587 0.518151
0.730617 0.755123 0.514672
0.761501 0.766506 0.510643
0.794003 0.777523 0.506126
0.827787 0.788296 0.500938
0.862455 0.798520 0.495003
0.901030 0.814054 0.506493
0.937224 0.828458 0.519188
0.972168 0.841581 0.517296
0.495186 0.710842 0.530358
0.495277 0.710811 0.530480
0.496437 0.710475 0.530877
0.498665 0.709957 0.531701
0.502342 0.709071 0.533013
0.507195 0.707790 0.534936
0.513695 0.706233 0.537438
0.521508 0.704219 0.540581
0.530602 0.701839 0.544518
0.540978 0.698970 0.549187
0.552270 0.695644 0.554589
0.564355 0.691829 0.560815
0.577050 0.687495 0.567803
0.589929 0.682643 0.575555
