20 Preset/Wedding Style New/【3】LUT video cho PR-AE-FCPX/Tone  (6).cube
# Created by Adobe Lightroom plugin Export LUT (1.24.0)
# www.johnrellis.com/lightroom/exportlut.htm
# Preset: 褐色婚礼-素材江湖07
# Color profile: C:\Program Files (x86)\Common Files\Adobe\Color\Profiles\Recommended\VideoHD.icc
LUT_3D_SIZE 5
DOMAIN_MIN 0.000000 0.000000 0.000000
DOMAIN_MAX 0.903226 0.903226 0.903226
0.000000 0.000000 0.000000
0.282017 0.053162 0.000000
0.545525 0.147066 0.000000
0.785733 0.226352 0.000000
0.984375 0.279545 0.000000
0.000000 0.195224 0.107729
0.271153 0.207004 0.038239
0.538048 0.243381 0.000000
0.780423 0.290013 0.000000
0.982696 0.322240 0.000000
0.000000 0.389136 0.221530
0.265293 0.388190 0.193759
0.522637 0.400092 0.128145
0.769375 0.418311 0.000000
0.979004 0.439033 0.000000
0.000000 0.577661 0.325994
0.153231 0.577996 0.295964
0.515984 0.577356 0.264500
0.759304 0.581231 0.184848
0.976745 0.579706 0.000000
0.000000 0.794095 0.450202
0.000000 0.795163 0.413947
0.537041 0.789456 0.389075
0.789395 0.790249 0.332860
0.999420 0.764187 0.229282
0.000000 0.126955 0.233371
0.232059 0.127047 0.217777
0.524224 0.173404 0.156161
0.771084 0.251316 0.000000
0.977874 0.313664 0.000000
0.000000 0.203281 0.251041
0.234531 0.233494 0.235569
0.517021 0.252811 0.187503
0.768582 0.294865 0.000000
0.977417 0.341558 0.000000
0.000000 0.400244 0.349798
0.200107 0.403662 0.293370
0.508843 0.409796 0.247593
0.759609 0.423621 0.157046
0.975891 0.438209 0.000000
0.000000 0.581170 0.425666
0.000000 0.585107 0.370031
0.505028 0.584131 0.326055
0.751858 0.586481 0.269139
0.972747 0.584375 0.109895
0.000000 0.793088 0.527581
0.000000 0.796292 0.478614
0.515862 0.792477 0.428840
0.780789 0.792813 0.378332
0.995453 0.767849 0.291386
0.000000 0.249577 0.456733
0.000000 0.253300 0.450477
0.451270 0.262608 0.424750
0.742214 0.275883 0.369055
0.962982 0.326665 0.295140
0.000000 0.291752 0.460700
0.000000 0.304204 0.454475
0.450599 0.316258 0.430518
0.735653 0.327123 0.379644
0.961151 0.360327 0.306004
0.000000 0.389593 0.482856
0.135561 0.401282 0.476814
0.449836 0.447944 0.451545
0.722286 0.456031 0.412207
0.959442 0.461280 0.332464
0.000000 0.558709 0.580774
0.000000 0.584375 0.581201
0.419104 0.609949 0.497261
0.720607 0.608240 0.451637
0.958221 0.604791 0.380407
0.000000 0.803464 0.687190
0.000000 0.802914 0.669734
0.367285 0.805203 0.571160
0.742000 0.802701 0.515251
0.978668 0.783169 0.450355
0.000000 0.365393 0.668788
0.000000 0.370825 0.665248
0.243442 0.374365 0.651179
0.661402 0.388556 0.622797
0.917601 0.429358 0.576623
0.000000 0.389929 0.669673
0.000000 0.397070 0.666224
0.261021 0.410498 0.652430
0.660182 0.420264 0.625269
0.915282 0.457099 0.582300
0.000000 0.460121 0.678126
0.000000 0.468208 0.674800
0.301091 0.503593 0.660395
0.656306 0.519493 0.634974
0.913420 0.542626 0.600641
0.000000 0.558709 0.697719
0.000000 0.565240 0.694972
0.352056 0.593805 0.682704
0.652430 0.650202 0.654292
0.930327 0.648035 0.606012
0.000000 0.717281 0.792630
0.000000 0.725551 0.793332
0.000000 0.763088 0.795499
0.621180 0.824308 0.700618
0.941253 0.815061 0.648157
0.000000 0.476478 0.876646
0.000000 0.482918 0.874693
0.000000 0.515465 0.865904
0.558251 0.549157 0.849638
0.872190 0.570428 0.826596
0.000000 0.489479 0.877470
0.000000 0.496590 0.875547
0.000000 0.534813 0.866514
0.562036 0.568566 0.850370
0.871458 0.586572 0.827787
0.000000 0.527703 0.883787
0.000000 0.535027 0.881895
0.000000 0.573999 0.872923
0.565942 0.631342 0.855070
0.870359 0.641505 0.833280
0.000000 0.598993 0.896666
0.000000 0.603845 0.895354
0.000000 0.628229 0.889006
0.510796 0.700465 0.870665
0.870695 0.730556 0.845548
0.000000 0.698207 0.918853
0.000000 0.703822 0.917693
0.000000 0.730831 0.911894
0.512627 0.790463 0.897581
0.869749 0.868132 0.870909
