20 Preset/Wedding Style New/【3】LUT video cho PR-AE-FCPX/Tone  (5).cube
# Created by Adobe Lightroom plugin Export LUT (1.24.0)
# www.johnrellis.com/lightroom/exportlut.htm
# Preset: 褐色婚礼-素材江湖06
# Color profile: C:\Program Files (x86)\Common Files\Adobe\Color\Profiles\Recommended\VideoHD.icc
LUT_3D_SIZE 8
DOMAIN_MIN 0.000000 0.000000 0.000000
DOMAIN_MAX 0.903226 0.903226 0.903226
0.025208 0.024170 0.028931
0.071473 0.040803 0.044953
0.163760 0.080110 0.081544
0.325017 0.101747 0.102449
0.519860 0.178897 0.140200
0.713832 0.271885 0.203128
0.880858 0.377783 0.297185
0.980926 0.503807 0.401770
0.051148 0.072786 0.060182
0.084474 0.071931 0.061860
0.180789 0.097932 0.081727
0.332708 0.123323 0.100435
0.519921 0.196902 0.136904
0.711757 0.282811 0.200229
0.867308 0.374517 0.286687
0.973602 0.496773 0.390814
0.091585 0.145510 0.105837
0.103944 0.139223 0.101320
0.183261 0.154574 0.113771
0.394293 0.223239 0.109468
0.589715 0.293278 0.140047
0.768185 0.356085 0.219272
0.905577 0.444373 0.314427
0.988800 0.555993 0.421759
0.126223 0.244968 0.152377
0.135134 0.234989 0.145388
0.187900 0.233646 0.140017
0.357519 0.304967 0.196933
0.629114 0.399756 0.232181
0.849088 0.491890 0.258732
0.938628 0.550042 0.350072
0.995422 0.629938 0.455451
0.171450 0.336553 0.199802
0.175418 0.327459 0.192844
0.187747 0.289555 0.165469
0.312535 0.346868 0.195804
0.522576 0.438148 0.289158
0.764065 0.530846 0.358312
0.925750 0.632959 0.407080
0.995605 0.715755 0.501274
0.216312 0.410620 0.240391
0.219120 0.405310 0.235294
0.220249 0.371160 0.207797
0.247654 0.339910 0.181552
0.449928 0.460487 0.261051
0.675654 0.570581 0.395209
0.866361 0.675135 0.517296
0.965423 0.766079 0.591302
0.253819 0.496101 0.281437
0.254917 0.489418 0.275517
0.253635 0.457404 0.249241
0.247013 0.395758 0.199863
0.359319 0.440497 0.225376
0.603388 0.592859 0.339605
0.792386 0.692653 0.520684
0.919890 0.782956 0.664698
0.306279 0.626764 0.348943
0.305028 0.621241 0.342168
0.301579 0.597528 0.314458
0.301946 0.547143 0.263676
0.294896 0.453620 0.189456
0.530236 0.609247 0.303746
0.773709 0.745541 0.483528
0.888457 0.813321 0.672541
0.038422 0.045838 0.074250
0.087800 0.034974 0.079500
0.156283 0.089143 0.090883
0.318791 0.115755 0.099519
0.509728 0.190738 0.134493
0.700740 0.276341 0.195682
0.855589 0.363378 0.278416
0.965118 0.480232 0.378882
0.065736 0.081575 0.086366
0.090242 0.089754 0.091096
0.173587 0.108675 0.099275
0.332982 0.139376 0.103059
0.520867 0.210880 0.134127
0.707240 0.289647 0.196506
0.852842 0.368811 0.275731
0.961089 0.479652 0.373480
0.111086 0.162875 0.131197
0.117494 0.156924 0.123232
0.188144 0.166445 0.133974
0.382879 0.232212 0.134218
0.581506 0.295354 0.135500
0.750149 0.351232 0.208804
0.880766 0.423468 0.293278
0.975677 0.531304 0.397375
0.140383 0.258335 0.171542
0.148653 0.249302 0.164309
0.190188 0.236790 0.151949
0.343420 0.298894 0.205234
0.588220 0.385016 0.235416
0.813382 0.463050 0.236484
0.915068 0.519646 0.321599
0.985351 0.604150 0.427405
0.186343 0.349096 0.216495
0.189090 0.339635 0.208835
0.198276 0.301579 0.179812
0.308141 0.343908 0.202457
0.507469 0.429541 0.291203
0.745266 0.521294 0.357061
0.914824 0.616297 0.390723
0.991730 0.703304 0.484321
0.226383 0.417578 0.251774
0.227268 0.410071 0.245487
0.228153 0.377264 0.218448
0.245670 0.337346 0.185580
0.443366 0.455360 0.264347
0.668727 0.567315 0.398199
0.859617 0.671656 0.517845
0.963317 0.759213 0.580835
0.260136 0.498787 0.289189
0.259281 0.490181 0.282231
0.257694 0.458686 0.256107
0.250492 0.398383 0.207065
0.353491 0.434577 0.226444
0.594995 0.585992 0.339055
0.784268 0.685481 0.516167
0.916533 0.774624 0.652186
0.307683 0.624537 0.352728
0.307561 0.620630 0.347326
0.303044 0.596490 0.319249
0.302678 0.546319 0.268772
0.298131 0.460334 0.195132
0.529137 0.609491 0.306584
0.770871 0.743679 0.484596
0.887083 0.812802 0.674159
0.047425 0.093629 0.144686
0.085420 0.088258 0.154971
0.200839 0.041108 0.162722
0.347967 0.092927 0.154788
0.490700 0.239445 0.205783
0.708003 0.318486 0.241642
0.875486 0.394995 0.291325
0.975158 0.508232 0.394110
0.101411 0.126772 0.147189
0.105776 0.121065 0.157748
0.204959 0.106722 0.168460
0.332494 0.157931 0.171450
0.496223 0.257298 0.212985
0.708217 0.330694 0.246983
0.872465 0.398871 0.288426
0.972290 0.508751 0.390173
0.151644 0.191012 0.182681
0.166567 0.198367 0.187747
0.228244 0.228244 0.207340
0.367559 0.269902 0.220554
0.551720 0.330785 0.246098
0.743252 0.388098 0.274876
0.892973 0.448951 0.306157
0.980194 0.548974 0.406806
0.218357 0.323919 0.260258
0.228489 0.324407 0.258152
0.237186 0.298955 0.225284
0.373449 0.343328 0.270848
0.607813 0.431128 0.308263
0.794980 0.496620 0.330053
0.916258 0.548150 0.360967
0.989715 0.621637 0.440894
0.277897 0.417456 0.304479
0.267185 0.408515 0.290867
0.261143 0.370733 0.254124
0.324315 0.365972 0.244755
0.529808 0.462440 0.345495
0.749264 0.557488 0.415473
0.909514 0.644892 0.447517
0.993164 0.711086 0.492531
0.286900 0.473274 0.316503
0.286320 0.465736 0.309575
0.281773 0.431281 0.278965
0.268040 0.363714 0.221836
0.447364 0.464393 0.293736
0.670619 0.582666 0.436896
0.854795 0.687984 0.554742
0.962249 0.765103 0.594385
0.306828 0.547417 0.344701
0.305241 0.538872 0.337011
0.298833 0.504295 0.306340
0.286656 0.439796 0.251682
0.347570 0.433265 0.239933
0.593072 0.589502 0.361425
0.786526 0.697963 0.548486
0.915190 0.788266 0.682063
0.349981 0.653468 0.401526
0.346227 0.647486 0.393469
0.335485 0.624231 0.362829
0.325780 0.576898 0.307317
0.316289 0.487892 0.227207
0.516838 0.603449 0.312840
0.767239 0.744747 0.499916
0.885954 0.818387 0.693629
0.000000 0.143313 0.260410
0.049104 0.138888 0.271550
0.228550 0.115969 0.308812
0.403754 0.003021 0.305791
0.593988 0.113313 0.293736
0.690669 0.315312 0.317174
0.816922 0.439826 0.384955
0.953277 0.531518 0.436072
0.121065 0.192508 0.264500
0.126101 0.182895 0.274022
0.238193 0.165499 0.309148
0.404730 0.131075 0.309148
0.587274 0.187076 0.299290
0.679591 0.348455 0.332616
0.819364 0.451026 0.391333
0.953521 0.540215 0.441169
0.205478 0.265873 0.261418
0.217746 0.270939 0.264347
0.255314 0.277836 0.305699
0.412329 0.269017 0.325444
0.555840 0.326909 0.324132
0.684657 0.432166 0.381689
0.845365 0.513542 0.434485
0.962982 0.589807 0.477028
0.292607 0.364874 0.331518
0.303075 0.368078 0.333867
0.347448 0.386694 0.348547
0.433875 0.423285 0.376562
0.587762 0.468177 0.398444
0.733394 0.521294 0.433173
0.864195 0.583886 0.475502
0.966369 0.647669 0.514061
0.383886 0.505455 0.434638
0.387121 0.502251 0.429755
0.400793 0.492744 0.412665
0.385657 0.437415 0.344060
0.568017 0.522362 0.440284
0.756222 0.614405 0.509209
0.895689 0.690181 0.552392
0.969696 0.731167 0.581445
0.416327 0.572290 0.457801
0.420752 0.572717 0.456641
0.420356 0.556725 0.432502
0.378424 0.481544 0.348272
0.464851 0.492958 0.351812
0.684169 0.620386 0.514336
0.852811 0.720424 0.620722
0.951812 0.791379 0.664881
0.440467 0.633936 0.482918
0.439155 0.630640 0.477180
0.400061 0.603113 0.428107
0.370123 0.537041 0.355962
0.335393 0.432441 0.262669
0.591608 0.598901 0.402655
0.789059 0.717983 0.601465
0.911345 0.807309 0.726101
0.460121 0.715602 0.521935
0.451545 0.710933 0.511192
0.428595 0.689235 0.472938
0.393500 0.642054 0.401770
0.360082 0.554437 0.300206
0.485725 0.586511 0.318029
0.757076 0.743862 0.522942
0.883909 0.828458 0.727626
0.060151 0.237888 0.402533
0.102571 0.231601 0.412268
0.242435 0.225193 0.444953
0.468910 0.170932 0.513024
0.634424 0.130373 0.483101
0.820249 0.190158 0.456580
0.877928 0.372900 0.439765
0.915892 0.559838 0.532860
0.163821 0.279942 0.403235
0.170199 0.273289 0.413336
0.260075 0.262242 0.445624
0.466712 0.221714 0.509911
0.631189 0.192752 0.483467
0.812192 0.243534 0.459083
0.870542 0.396582 0.447791
0.908171 0.574517 0.543053
0.272648 0.362097 0.392645
0.282841 0.364996 0.401892
0.302373 0.352239 0.435889
0.453376 0.339300 0.497627
0.617487 0.319554 0.483894
0.771939 0.366552 0.463966
0.832914 0.481331 0.482063
0.895445 0.609766 0.566674
0.347601 0.424201 0.407996
0.355627 0.426673 0.409613
0.389258 0.439216 0.419196
0.453254 0.462776 0.485054
0.619593 0.463813 0.510552
0.717830 0.510582 0.500053
0.793332 0.597253 0.556085
0.914000 0.662593 0.605249
0.440284 0.524193 0.491035
0.447700 0.527214 0.493690
0.477272 0.538720 0.503777
0.533776 0.564019 0.527489
0.607904 0.594202 0.553704
0.728664 0.636347 0.582330
0.839933 0.682094 0.618769
0.931365 0.731685 0.655329
0.532555 0.653529 0.609949
0.534142 0.651850 0.606867
0.536828 0.641657 0.589532
0.539208 0.621332 0.553796
0.494057 0.541772 0.442329
0.694240 0.658137 0.597650
0.849210 0.751156 0.685725
0.940887 0.815030 0.731289
0.547265 0.710048 0.633204
0.545800 0.706661 0.627527
0.541680 0.694331 0.605890
0.535760 0.669947 0.562463
0.460212 0.576440 0.426307
0.571160 0.597436 0.441932
0.786984 0.737545 0.659358
0.905455 0.823941 0.767575
0.557977 0.774014 0.663966
0.557336 0.771389 0.658991
0.554681 0.760403 0.638148
0.531487 0.734005 0.580652
0.459388 0.655695 0.448859
0.412757 0.538415 0.306523
0.728756 0.730892 0.537499
0.876951 0.834958 0.760403
0.175357 0.352758 0.573266
0.182284 0.347204 0.581109
0.273228 0.342626 0.606287
0.435340 0.331151 0.659632
0.699245 0.263554 0.732998
0.821500 0.261997 0.669398
0.951263 0.344366 0.634516
0.999573 0.494636 0.618982
0.226780 0.375067 0.563165
0.230716 0.369604 0.569543
0.289647 0.360754 0.595209
0.434028 0.348730 0.645014
0.686854 0.293126 0.719112
0.809903 0.289250 0.660029
0.942351 0.363684 0.631128
0.991943 0.504265 0.617395
0.346838 0.456764 0.558740
0.348394 0.453468 0.564508
0.358434 0.437629 0.590539
0.454383 0.427619 0.634272
0.672480 0.402411 0.707179
0.792294 0.394415 0.658412
0.925719 0.455543 0.648432
0.971283 0.561181 0.635706
0.418158 0.511070 0.525414
0.423835 0.514183 0.531579
0.453895 0.529351 0.562585
0.497932 0.534417 0.623407
0.654170 0.540154 0.698756
0.779110 0.533806 0.679347
0.891539 0.578149 0.671839
0.938262 0.643977 0.670253
0.486824 0.575158 0.568017
0.492042 0.576501 0.568872
0.513512 0.583276 0.574121
0.552514 0.597681 0.586236
0.616693 0.626551 0.658686
0.751583 0.633600 0.684535
0.831174 0.664515 0.675074
0.878386 0.731502 0.720302
0.568872 0.658991 0.645686
0.574578 0.661982 0.649012
0.590356 0.667109 0.654078
0.620569 0.678370 0.665614
0.666102 0.699275 0.688106
0.729610 0.726894 0.715236
0.834653 0.772519 0.752407
0.908843 0.808804 0.782315
0.673854 0.799863 0.800656
0.674434 0.800229 0.800412
0.674983 0.794827 0.791104
0.674311 0.781979 0.768917
0.666194 0.753811 0.720180
0.595209 0.646998 0.554192
0.797665 0.778561 0.748531
0.904814 0.854826 0.829770
0.672023 0.842130 0.816159
0.670436 0.840360 0.812955
0.666407 0.834165 0.800961
0.658442 0.820890 0.773922
0.641352 0.790127 0.713161
0.553643 0.686671 0.530571
0.684535 0.712276 0.554803
0.871824 0.850278 0.810575
0.290684 0.462196 0.728481
0.297490 0.460731 0.735866
0.343023 0.454383 0.752193
0.455573 0.449683 0.786069
0.637476 0.427314 0.832578
0.878050 0.370062 0.881285
0.939757 0.392340 0.822782
1.000000 0.471901 0.781979
0.310552 0.469551 0.711574
0.317113 0.469184 0.719844
0.349828 0.460182 0.737118
0.450965 0.453559 0.769192
0.623255 0.432197 0.816068
0.861662 0.373907 0.866575
0.923613 0.387152 0.803128
1.000000 0.458991 0.763088
0.407904 0.538933 0.707271
0.409674 0.536309 0.711574
0.415839 0.521111 0.727291
0.483040 0.512963 0.759274
0.626307 0.499489 0.804471
0.849271 0.465675 0.861143
0.912139 0.474891 0.808316
0.992950 0.536553 0.785092
0.488014 0.605219 0.686549
0.491981 0.605341 0.689754
0.513451 0.609277 0.707759
0.530266 0.595361 0.744778
0.631495 0.593347 0.793118
0.821805 0.586572 0.854459
0.892546 0.583856 0.815610
0.974273 0.625544 0.803647
0.529351 0.630549 0.651759
0.530236 0.628687 0.649042
0.541527 0.628656 0.646876
0.573510 0.648615 0.688685
0.618189 0.656123 0.753719
0.764523 0.665675 0.823819
0.862669 0.662013 0.809110
0.945922 0.705196 0.810147
0.586908 0.690517 0.705379
0.590112 0.691524 0.706325
0.602014 0.694453 0.708675
0.624720 0.700557 0.713832
0.657527 0.709834 0.721706
0.723110 0.744076 0.797879
0.843778 0.759426 0.827359
0.901244 0.784390 0.817899
0.660975 0.769192 0.782254
0.664546 0.771023 0.784298
0.674250 0.773770 0.786831
0.694362 0.780392 0.793332
0.723720 0.790341 0.802976
0.764736 0.808194 0.821042
0.816098 0.831479 0.842466
0.891569 0.866209 0.870481
0.757931 0.875975 0.890440
0.760281 0.876921 0.891478
0.771359 0.881773 0.896574
0.787808 0.888304 0.903288
0.785183 0.880980 0.890867
0.769375 0.858946 0.854459
0.681514 0.748257 0.668696
0.871794 0.875975 0.872465
0.419867 0.575158 0.849393
0.424048 0.573358 0.852995
0.443366 0.561822 0.859953
0.518669 0.557092 0.877958
0.639857 0.543572 0.902007
0.806577 0.514366 0.929381
0.965057 0.484321 0.949950
1.000000 0.500114 0.916014
0.426490 0.579492 0.840299
0.430579 0.578058 0.844144
0.445502 0.566217 0.853239
0.516136 0.560876 0.871092
0.634058 0.548180 0.896086
0.799283 0.520348 0.924681
0.959136 0.487678 0.945892
1.000000 0.499001 0.910307
0.476326 0.619043 0.827970
0.478096 0.616907 0.830900
0.482307 0.603418 0.839994
0.534874 0.598413 0.863371
0.635950 0.587366 0.887694
0.786923 0.564538 0.916442
0.946563 0.538720 0.941222
0.988586 0.542596 0.906889
0.535912 0.670069 0.806516
0.541833 0.671809 0.810513
0.546868 0.665797 0.821225
0.560479 0.650416 0.844541
0.635523 0.643915 0.873564
0.769070 0.634302 0.906371
0.927825 0.620783 0.937377
0.970001 0.617426 0.905943
0.558648 0.692287 0.764340
0.562402 0.694484 0.768887
0.571862 0.697169 0.780789
0.604456 0.707576 0.809812
0.630243 0.695552 0.847044
0.734890 0.695094 0.886778
0.893797 0.696040 0.927733
0.945830 0.692897 0.903380
0.603113 0.728420 0.771237
0.603479 0.727047 0.769497
0.608026 0.724300 0.765652
0.621729 0.723629 0.763302
0.651942 0.739071 0.794858
0.711879 0.757626 0.863706
0.849699 0.783444 0.918364
0.922545 0.789731 0.913024
0.671962 0.797330 0.832853
0.673335 0.797299 0.832700
0.679713 0.797604 0.832517
0.694545 0.800259 0.834348
0.717983 0.805234 0.837980
0.748714 0.812314 0.843137
0.805600 0.839078 0.894560
0.897856 0.853147 0.914855
0.743191 0.858061 0.883604
0.744137 0.858061 0.883513
0.750271 0.859373 0.884581
0.764645 0.863615 0.888396
0.785092 0.869688 0.893706
0.811246 0.878141 0.901122
0.844572 0.891478 0.913207
0.882078 0.908171 0.927642
