20 Preset/Japan Style/【1】LRtemplate Lightroom bản cũ/Japan TONE (2)/Japan Style TONE (10).lrtemplate
s = {
	id = "B6184F56-4C5D-4EDE-A8CA-934926BBAF97",
	internalName = "MIKO小清新2",
	title = "10日系清新（素材江湖）",
	type = "Develop",
	value = {
		settings = {
			AutoLateralCA = 0,
			Blacks2012 = -11,
			BlueHue = -3,
			BlueSaturation = 0,
			CameraProfile = "Adobe Standard",
			ChromaticAberrationB = 0,
			ChromaticAberrationR = 0,
			Clarity2012 = 0,
			ColorNoiseReduction = 25,
			ColorNoiseReductionDetail = 50,
			ColorNoiseReductionSmoothness = 50,
			Contrast2012 = -19,
			ConvertToGrayscale = false,
			Defringe = 0,
			DefringeGreenAmount = 0,
			DefringeGreenHueHi = 60,
			DefringeGreenHueLo = 40,
			DefringePurpleAmount = 0,
			DefringePurpleHueHi = 70,
			DefringePurpleHueLo = 30,
			EnableCalibration = true,
			EnableColorAdjustments = true,
			EnableDetail = true,
			EnableEffects = true,
			EnableLensCorrections = true,
			EnableSplitToning = true,
			Exposure2012 = 0.7,
			GrainAmount = 0,
			GrainFrequency = 50,
			GrainSize = 25,
			GreenHue = 10,
			GreenSaturation = 8,
			Highlights2012 = -99,
			HueAdjustmentAqua = 0,
			HueAdjustmentBlue = 0,
			HueAdjustmentGreen = 53,
			HueAdjustmentMagenta = 0,
			HueAdjustmentOrange = 0,
			HueAdjustmentPurple = 0,
			HueAdjustmentRed = 0,
			HueAdjustmentYellow = -57,
			LuminanceAdjustmentAqua = 0,
			LuminanceAdjustmentBlue = 0,
			LuminanceAdjustmentGreen = 0,
			LuminanceAdjustmentMagenta = 0,
			LuminanceAdjustmentOrange = 10,
			LuminanceAdjustmentPurple = 0,
			LuminanceAdjustmentRed = 0,
			LuminanceAdjustmentYellow = 0,
			LuminanceNoiseReductionContrast = 0,
			LuminanceNoiseReductionDetail = 50,
			LuminanceSmoothing = 0,
			ParametricDarks = 0,
			ParametricHighlightSplit = 75,
			ParametricHighlights = 0,
			ParametricLights = 0,
			ParametricMidtoneSplit = 50,
			ParametricShadowSplit = 25,
			ParametricShadows = 0,
			PostCropVignetteAmount = 0,
			PostCropVignetteFeather = 50,
			PostCropVignetteHighlightContrast = 0,
			PostCropVignetteMidpoint = 50,
			PostCropVignetteRoundness = 0,
			PostCropVignetteStyle = 1,
			ProcessVersion = "6.7",
			RedHue = 0,
			RedSaturation = 0,
			Saturation = 0,
			SaturationAdjustmentAqua = 0,
			SaturationAdjustmentBlue = 0,
			SaturationAdjustmentGreen = -71,
			SaturationAdjustmentMagenta = 0,
			SaturationAdjustmentOrange = -11,
			SaturationAdjustmentPurple = 0,
			SaturationAdjustmentRed = 0,
			SaturationAdjustmentYellow = 0,
			ShadowTint = 2,
			Shadows2012 = 9,
			SharpenDetail = 25,
			SharpenEdgeMasking = 0,
			SharpenRadius = 1,
			Sharpness = 90,
			SplitToningBalance = 0,
			SplitToningHighlightHue = 210,
			SplitToningHighlightSaturation = 13,
			SplitToningShadowHue = 0,
			SplitToningShadowSaturation = 0,
			Temperature = 4463,
			Tint = -2,
			ToneCurveName2012 = "Custom",
			ToneCurvePV2012 = {
				0,
				0,
				182,
				183,
				255,
				230,
			},
			ToneCurvePV2012Blue = {
				0,
				0,
				255,
				255,
			},
			ToneCurvePV2012Green = {
				0,
				0,
				255,
				255,
			},
			ToneCurvePV2012Red = {
				0,
				0,
				255,
				255,
			},
			Vibrance = 0,
			VignetteAmount = 0,
			VignetteMidpoint = 50,
			WhiteBalance = "Custom",
			Whites2012 = -52,
		},
		uuid = "BE428A61-1805-4EF2-8319-CB32EC8985A0",
	},
	version = 0,
}
