20 Preset/Japan Style/【1】LRtemplate Lightroom bản cũ/Japan TONE (2)/Japan Style TONE (18).lrtemplate
s = {
	id = "88D93919-396D-4F5F-8751-FBE16B94E89C",
	internalName = "MIKO小森林4",
	title = "18日系森林（素材江湖）",
	type = "Develop",
	value = {
		settings = {
			AutoLateralCA = 0,
			Blacks2012 = 46,
			BlueHue = 5,
			BlueSaturation = 93,
			CameraProfile = "Adobe Standard",
			ChromaticAberrationB = 0,
			ChromaticAberrationR = 0,
			Clarity2012 = 0,
			ColorNoiseReduction = 42,
			ColorNoiseReductionDetail = 69,
			ColorNoiseReductionSmoothness = 70,
			Contrast2012 = 1,
			ConvertToGrayscale = false,
			Defringe = 0,
			DefringeGreenAmount = 0,
			DefringeGreenHueHi = 60,
			DefringeGreenHueLo = 40,
			DefringePurpleAmount = 20,
			DefringePurpleHueHi = 70,
			DefringePurpleHueLo = 30,
			EnableCalibration = true,
			EnableCircularGradientBasedCorrections = true,
			EnableColorAdjustments = true,
			EnableDetail = true,
			EnableEffects = true,
			EnableGradientBasedCorrections = true,
			EnableLensCorrections = true,
			EnableSplitToning = true,
			Exposure2012 = -0.2,
			GrainAmount = 0,
			GrainFrequency = 45,
			GrainSize = 30,
			GreenHue = 35,
			GreenSaturation = -63,
			Highlights2012 = -71,
			HueAdjustmentAqua = 15,
			HueAdjustmentBlue = -5,
			HueAdjustmentGreen = 37,
			HueAdjustmentMagenta = 0,
			HueAdjustmentOrange = 7,
			HueAdjustmentPurple = 0,
			HueAdjustmentRed = 28,
			HueAdjustmentYellow = 25,
			LensProfileChromaticAberrationScale = 100,
			LensProfileDigest = "8F32FC2D56959D4DCB55E9F4227F12F8",
			LensProfileDistortionScale = 100,
			LensProfileEnable = 1,
			LensProfileFilename = "Canon EOS-1Ds Mark III (Canon EF 50mm f1.4 USM) - RAW.lcp",
			LensProfileName = "Adobe (Canon EF 50mm f/1.4 USM)",
			LensProfileSetup = "Custom",
			LensProfileVignettingScale = 100,
			LuminanceAdjustmentAqua = -20,
			LuminanceAdjustmentBlue = -30,
			LuminanceAdjustmentGreen = 32,
			LuminanceAdjustmentMagenta = -15,
			LuminanceAdjustmentOrange = -13,
			LuminanceAdjustmentPurple = -10,
			LuminanceAdjustmentRed = 11,
			LuminanceAdjustmentYellow = -11,
			LuminanceNoiseReductionContrast = 18,
			LuminanceNoiseReductionDetail = 57,
			LuminanceSmoothing = 48,
			ParametricDarks = 0,
			ParametricHighlightSplit = 75,
			ParametricHighlights = 0,
			ParametricLights = 0,
			ParametricMidtoneSplit = 60,
			ParametricShadowSplit = 14,
			ParametricShadows = 0,
			PostCropVignetteAmount = 0,
			PostCropVignetteFeather = 50,
			PostCropVignetteHighlightContrast = 0,
			PostCropVignetteMidpoint = 50,
			PostCropVignetteRoundness = 0,
			PostCropVignetteStyle = 1,
			ProcessVersion = "6.7",
			RedHue = 23,
			RedSaturation = -7,
			Saturation = -10,
			SaturationAdjustmentAqua = 24,
			SaturationAdjustmentBlue = 0,
			SaturationAdjustmentGreen = -46,
			SaturationAdjustmentMagenta = -30,
			SaturationAdjustmentOrange = -27,
			SaturationAdjustmentPurple = 0,
			SaturationAdjustmentRed = -15,
			SaturationAdjustmentYellow = -15,
			ShadowTint = -4,
			Shadows2012 = 17,
			SharpenDetail = 25,
			SharpenEdgeMasking = 0,
			SharpenRadius = 1.2,
			Sharpness = 40,
			SplitToningBalance = 0,
			SplitToningHighlightHue = 0,
			SplitToningHighlightSaturation = 0,
			SplitToningShadowHue = 0,
			SplitToningShadowSaturation = 0,
			Temperature = 6112,
			Tint = -20,
			ToneCurveName2012 = "Custom",
			ToneCurvePV2012 = {
				0,
				34,
				33,
				36,
				68,
				66,
				125,
				127,
				199,
				205,
				255,
				255,
			},
			ToneCurvePV2012Blue = {
				0,
				0,
				50,
				21,
				114,
				117,
				176,
				204,
				255,
				255,
			},
			ToneCurvePV2012Green = {
				0,
				0,
				52,
				19,
				84,
				62,
				116,
				115,
				178,
				198,
				255,
				255,
			},
			ToneCurvePV2012Red = {
				0,
				0,
				54,
				22,
				110,
				120,
				175,
				206,
				255,
				255,
			},
			Vibrance = 19,
			VignetteAmount = 0,
			VignetteMidpoint = 50,
			WhiteBalance = "Custom",
			Whites2012 = -54,
			orientation = "DA",
		},
		uuid = "18F6751F-5FFF-4BAE-A841-AEF80B8F0092",
	},
	version = 0,
}
