20 Preset/Japan Style/【1】LRtemplate Lightroom bản cũ/Japan TONE (2)/Japan Style TONE (26).lrtemplate
s = {
	id = "0179C121-7A56-45F3-B30C-2DCF0D8057DE",
	internalName = "MIKO上海muse",
	title = "26日系胶片（素材江湖）",
	type = "Develop",
	value = {
		settings = {
			AutoLateralCA = 0,
			Blacks2012 = 15,
			BlueHue = -12,
			BlueSaturation = 15,
			CameraProfile = "Kodak Gold 100 - F",
			ChromaticAberrationB = 0,
			ChromaticAberrationR = 0,
			Clarity2012 = -10,
			ColorNoiseReduction = 0,
			ColorNoiseReductionDetail = 50,
			ColorNoiseReductionSmoothness = 50,
			Contrast2012 = 5,
			ConvertToGrayscale = false,
			Defringe = 0,
			DefringeGreenAmount = 0,
			DefringeGreenHueHi = 60,
			DefringeGreenHueLo = 40,
			DefringePurpleAmount = 0,
			DefringePurpleHueHi = 70,
			DefringePurpleHueLo = 30,
			EnableCalibration = true,
			EnableColorAdjustments = true,
			EnableDetail = true,
			EnableEffects = true,
			EnableLensCorrections = true,
			EnableSplitToning = true,
			Exposure2012 = 0,
			GrainAmount = 0,
			GrainFrequency = 45,
			GrainSize = 40,
			GreenHue = 35,
			GreenSaturation = 7,
			Highlights2012 = -50,
			HueAdjustmentAqua = 0,
			HueAdjustmentBlue = 0,
			HueAdjustmentGreen = 10,
			HueAdjustmentMagenta = 20,
			HueAdjustmentOrange = 11,
			HueAdjustmentPurple = 0,
			HueAdjustmentRed = 10,
			HueAdjustmentYellow = 0,
			LensProfileChromaticAberrationScale = 100,
			LensProfileDigest = "8F32FC2D56959D4DCB55E9F4227F12F8",
			LensProfileDistortionScale = 100,
			LensProfileEnable = 1,
			LensProfileFilename = "Canon EOS-1Ds Mark III (Canon EF 50mm f1.4 USM) - RAW.lcp",
			LensProfileName = "Adobe (Canon EF 50mm f/1.4 USM)",
			LensProfileSetup = "Custom",
			LensProfileVignettingScale = 64,
			LuminanceAdjustmentAqua = 0,
			LuminanceAdjustmentBlue = 0,
			LuminanceAdjustmentGreen = -5,
			LuminanceAdjustmentMagenta = 20,
			LuminanceAdjustmentOrange = 0,
			LuminanceAdjustmentPurple = 0,
			LuminanceAdjustmentRed = 5,
			LuminanceAdjustmentYellow = 10,
			LuminanceNoiseReductionContrast = 0,
			LuminanceNoiseReductionDetail = 50,
			LuminanceSmoothing = 0,
			ParametricDarks = 0,
			ParametricHighlightSplit = 75,
			ParametricHighlights = 0,
			ParametricLights = 0,
			ParametricMidtoneSplit = 60,
			ParametricShadowSplit = 14,
			ParametricShadows = 0,
			PostCropVignetteAmount = 0,
			PostCropVignetteFeather = 50,
			PostCropVignetteHighlightContrast = 0,
			PostCropVignetteMidpoint = 50,
			PostCropVignetteRoundness = 0,
			PostCropVignetteStyle = 1,
			ProcessVersion = "6.7",
			RedHue = 19,
			RedSaturation = 19,
			Saturation = -15,
			SaturationAdjustmentAqua = 0,
			SaturationAdjustmentBlue = 0,
			SaturationAdjustmentGreen = -46,
			SaturationAdjustmentMagenta = -40,
			SaturationAdjustmentOrange = -35,
			SaturationAdjustmentPurple = 0,
			SaturationAdjustmentRed = -33,
			SaturationAdjustmentYellow = -29,
			ShadowTint = -4,
			Shadows2012 = 22,
			SharpenDetail = 25,
			SharpenEdgeMasking = 0,
			SharpenRadius = 1,
			Sharpness = 15,
			SplitToningBalance = 0,
			SplitToningHighlightHue = 0,
			SplitToningHighlightSaturation = 0,
			SplitToningShadowHue = 0,
			SplitToningShadowSaturation = 0,
			Temperature = 4403,
			Tint = -5,
			ToneCurveName2012 = "Custom",
			ToneCurvePV2012 = {
				0,
				55,
				35,
				58,
				77,
				74,
				131,
				127,
				185,
				188,
				255,
				250,
			},
			ToneCurvePV2012Blue = {
				0,
				0,
				21,
				13,
				80,
				70,
				119,
				122,
				183,
				197,
				255,
				255,
			},
			ToneCurvePV2012Green = {
				0,
				0,
				27,
				11,
				120,
				122,
				181,
				196,
				255,
				255,
			},
			ToneCurvePV2012Red = {
				0,
				0,
				31,
				7,
				72,
				51,
				117,
				123,
				179,
				197,
				255,
				255,
			},
			Vibrance = 0,
			VignetteAmount = 0,
			VignetteMidpoint = 50,
			WhiteBalance = "Custom",
			Whites2012 = -45,
		},
		uuid = "4C85B481-7F09-4306-B509-FFC02D5D5F5F",
	},
	version = 0,
}
