20 Preset/Japan Style/【1】LRtemplate Lightroom bản cũ/Japan TONE (2)/Japan Style TONE (38).lrtemplate
s = {
	id = "6D4040EB-E8BD-4266-8E73-13327A81DA79",
	internalName = "猫大大咖啡店复古预设",
	title = "38日系胶片（素材江湖）",
	type = "Develop",
	value = {
		settings = {
			AutoLateralCA = 0,
			Blacks2012 = 21,
			BlueHue = -36,
			BlueSaturation = 0,
			CameraProfile = "Adobe Standard",
			ChromaticAberrationB = 0,
			ChromaticAberrationR = 0,
			Clarity2012 = -5,
			ColorNoiseReduction = 25,
			ColorNoiseReductionDetail = 50,
			ColorNoiseReductionSmoothness = 50,
			Contrast2012 = -9,
			ConvertToGrayscale = false,
			CropConstrainToWarp = 0,
			Defringe = 0,
			DefringeGreenAmount = 0,
			DefringeGreenHueHi = 60,
			DefringeGreenHueLo = 40,
			DefringePurpleAmount = 0,
			DefringePurpleHueHi = 70,
			DefringePurpleHueLo = 30,
			Dehaze = 0,
			EnableCalibration = true,
			EnableColorAdjustments = true,
			EnableDetail = true,
			EnableEffects = true,
			EnableLensCorrections = true,
			EnableSplitToning = true,
			Exposure2012 = 0.65,
			GrainAmount = 0,
			GrainFrequency = 65,
			GrainSize = 20,
			GreenHue = 57,
			GreenSaturation = -8,
			Highlights2012 = -67,
			HueAdjustmentAqua = 10,
			HueAdjustmentBlue = 0,
			HueAdjustmentGreen = 10,
			HueAdjustmentMagenta = 30,
			HueAdjustmentOrange = 8,
			HueAdjustmentPurple = 20,
			HueAdjustmentRed = 10,
			HueAdjustmentYellow = 0,
			IncrementalTemperature = -46,
			IncrementalTint = 19,
			LensManualDistortionAmount = 0,
			LensProfileChromaticAberrationScale = 100,
			LensProfileDigest = "8F32FC2D56959D4DCB55E9F4227F12F8",
			LensProfileDistortionScale = 100,
			LensProfileEnable = 1,
			LensProfileFilename = "Canon EOS-1Ds Mark III (Canon EF 50mm f1.4 USM) - RAW.lcp",
			LensProfileName = "Adobe (Canon EF 50mm f/1.4 USM)",
			LensProfileSetup = "Custom",
			LensProfileVignettingScale = 79,
			LuminanceAdjustmentAqua = 0,
			LuminanceAdjustmentBlue = -25,
			LuminanceAdjustmentGreen = 0,
			LuminanceAdjustmentMagenta = 0,
			LuminanceAdjustmentOrange = 0,
			LuminanceAdjustmentPurple = -15,
			LuminanceAdjustmentRed = 5,
			LuminanceAdjustmentYellow = 10,
			LuminanceNoiseReductionContrast = 0,
			LuminanceNoiseReductionDetail = 50,
			LuminanceSmoothing = 0,
			ParametricDarks = 0,
			ParametricHighlightSplit = 75,
			ParametricHighlights = 0,
			ParametricLights = 0,
			ParametricMidtoneSplit = 48,
			ParametricShadowSplit = 20,
			ParametricShadows = 0,
			PostCropVignetteAmount = 0,
			PostCropVignetteFeather = 50,
			PostCropVignetteHighlightContrast = 0,
			PostCropVignetteMidpoint = 50,
			PostCropVignetteRoundness = 0,
			PostCropVignetteStyle = 1,
			ProcessVersion = "6.7",
			RedHue = 49,
			RedSaturation = 12,
			Saturation = -12,
			SaturationAdjustmentAqua = -35,
			SaturationAdjustmentBlue = -30,
			SaturationAdjustmentGreen = -82,
			SaturationAdjustmentMagenta = -78,
			SaturationAdjustmentOrange = -16,
			SaturationAdjustmentPurple = -73,
			SaturationAdjustmentRed = -20,
			SaturationAdjustmentYellow = 33,
			ShadowTint = -4,
			Shadows2012 = 31,
			SharpenDetail = 25,
			SharpenEdgeMasking = 0,
			SharpenRadius = 1,
			Sharpness = 0,
			SplitToningBalance = 50,
			SplitToningHighlightHue = 0,
			SplitToningHighlightSaturation = 0,
			SplitToningShadowHue = 0,
			SplitToningShadowSaturation = 8,
			ToneCurveName2012 = "Custom",
			ToneCurvePV2012 = {
				0,
				19,
				62,
				61,
				188,
				189,
				255,
				245,
			},
			ToneCurvePV2012Blue = {
				0,
				0,
				34,
				11,
				72,
				50,
				120,
				121,
				181,
				206,
				222,
				235,
				255,
				255,
			},
			ToneCurvePV2012Green = {
				0,
				0,
				36,
				10,
				76,
				46,
				124,
				122,
				180,
				199,
				219,
				230,
				255,
				255,
			},
			ToneCurvePV2012Red = {
				0,
				0,
				42,
				8,
				81,
				41,
				129,
				118,
				184,
				200,
				255,
				255,
			},
			Vibrance = -2,
			VignetteAmount = 0,
			VignetteMidpoint = 50,
			WhiteBalance = "Custom",
			Whites2012 = -34,
		},
		uuid = "17FCCEB6-A380-4CE6-B424-DBC76A409A48",
	},
	version = 0,
}
