20 Preset/Japan Style/【1】LRtemplate Lightroom bản cũ/Japan TONE (2)/Japan Style TONE (37).lrtemplate
s = {
	id = "BE7B5577-D55A-4DF5-BA71-4FDCBCEE4DED",
	internalName = "猫大大胶片预设",
	title = "37日系胶片（素材江湖）",
	type = "Develop",
	value = {
		settings = {
			AutoLateralCA = 0,
			Blacks2012 = 15,
			BlueHue = -5,
			BlueSaturation = -5,
			CameraProfile = "Agfa Vista 800 - F",
			ChromaticAberrationB = 0,
			ChromaticAberrationR = 0,
			Clarity2012 = -5,
			ColorNoiseReduction = 0,
			ColorNoiseReductionDetail = 50,
			ColorNoiseReductionSmoothness = 50,
			Contrast2012 = 0,
			ConvertToGrayscale = false,
			Defringe = 0,
			DefringeGreenAmount = 0,
			DefringeGreenHueHi = 60,
			DefringeGreenHueLo = 40,
			DefringePurpleAmount = 0,
			DefringePurpleHueHi = 70,
			DefringePurpleHueLo = 30,
			EnableCalibration = true,
			EnableColorAdjustments = true,
			EnableDetail = true,
			EnableEffects = true,
			EnableLensCorrections = true,
			EnableSplitToning = true,
			Exposure2012 = 0,
			GrainAmount = 0,
			GrainFrequency = 85,
			GrainSize = 25,
			GreenHue = 60,
			GreenSaturation = -20,
			Highlights2012 = -50,
			HueAdjustmentAqua = 10,
			HueAdjustmentBlue = -5,
			HueAdjustmentGreen = 0,
			HueAdjustmentMagenta = 0,
			HueAdjustmentOrange = -4,
			HueAdjustmentPurple = 0,
			HueAdjustmentRed = 15,
			HueAdjustmentYellow = 5,
			LensProfileChromaticAberrationScale = 100,
			LensProfileDigest = "8F32FC2D56959D4DCB55E9F4227F12F8",
			LensProfileDistortionScale = 100,
			LensProfileEnable = 1,
			LensProfileFilename = "Canon EOS-1Ds Mark III (Canon EF 50mm f1.4 USM) - RAW.lcp",
			LensProfileName = "Adobe (Canon EF 50mm f/1.4 USM)",
			LensProfileSetup = "Custom",
			LensProfileVignettingScale = 56,
			LuminanceAdjustmentAqua = 15,
			LuminanceAdjustmentBlue = -25,
			LuminanceAdjustmentGreen = 0,
			LuminanceAdjustmentMagenta = 10,
			LuminanceAdjustmentOrange = -5,
			LuminanceAdjustmentPurple = 10,
			LuminanceAdjustmentRed = -25,
			LuminanceAdjustmentYellow = 10,
			LuminanceNoiseReductionContrast = 0,
			LuminanceNoiseReductionDetail = 50,
			LuminanceSmoothing = 0,
			ParametricDarks = 0,
			ParametricHighlightSplit = 75,
			ParametricHighlights = 0,
			ParametricLights = 0,
			ParametricMidtoneSplit = 48,
			ParametricShadowSplit = 20,
			ParametricShadows = 0,
			PostCropVignetteAmount = 0,
			PostCropVignetteFeather = 50,
			PostCropVignetteHighlightContrast = 0,
			PostCropVignetteMidpoint = 50,
			PostCropVignetteRoundness = 0,
			PostCropVignetteStyle = 1,
			ProcessVersion = "6.7",
			RedHue = 25,
			RedSaturation = 35,
			Saturation = -10,
			SaturationAdjustmentAqua = -50,
			SaturationAdjustmentBlue = -25,
			SaturationAdjustmentGreen = -20,
			SaturationAdjustmentMagenta = -30,
			SaturationAdjustmentOrange = -5,
			SaturationAdjustmentPurple = -45,
			SaturationAdjustmentRed = -20,
			SaturationAdjustmentYellow = -5,
			ShadowTint = -4,
			Shadows2012 = 40,
			SharpenDetail = 25,
			SharpenEdgeMasking = 0,
			SharpenRadius = 1,
			Sharpness = 0,
			SplitToningBalance = 75,
			SplitToningHighlightHue = 0,
			SplitToningHighlightSaturation = 0,
			SplitToningShadowHue = 240,
			SplitToningShadowSaturation = 10,
			Temperature = 5001,
			Tint = 10,
			ToneCurveName2012 = "Custom",
			ToneCurvePV2012 = {
				0,
				19,
				33,
				36,
				79,
				75,
				133,
				133,
				189,
				187,
				255,
				249,
			},
			ToneCurvePV2012Blue = {
				0,
				0,
				70,
				56,
				115,
				120,
				148,
				170,
				203,
				227,
				255,
				255,
			},
			ToneCurvePV2012Green = {
				0,
				0,
				31,
				13,
				80,
				65,
				115,
				120,
				178,
				200,
				255,
				255,
			},
			ToneCurvePV2012Red = {
				0,
				0,
				36,
				11,
				83,
				62,
				118,
				121,
				174,
				196,
				255,
				255,
			},
			Vibrance = 0,
			VignetteAmount = 0,
			VignetteMidpoint = 50,
			WhiteBalance = "Custom",
			Whites2012 = -30,
		},
		uuid = "9BB395D1-4606-45DD-B22C-79931FEC8683",
	},
	version = 0,
}
