20 Preset/Dark Portrait/【2】XMP cho Photoshop - Lightroom CC/Milestone_04.xmp
<x:xmpmeta xmlns:x="adobe:ns:meta/" x:xmptk="Adobe XMP Core 5.6-c140 79.160451, 2017/05/06-01:08:21        ">
 <rdf:RDF xmlns:rdf="http://www.w3.org/1999/02/22-rdf-syntax-ns#">
  <rdf:Description rdf:about=""
    xmlns:crs="http://ns.adobe.com/camera-raw-settings/1.0/"
   crs:PresetType="Normal"
   crs:Cluster=""
   crs:UUID="12CB3F9C8CA37C7B7DEA4B895D42478B"
   crs:SupportsAmount="False"
   crs:SupportsColor="True"
   crs:SupportsMonochrome="True"
   crs:SupportsHighDynamicRange="True"
   crs:SupportsNormalDynamicRange="True"
   crs:SupportsSceneReferred="True"
   crs:SupportsOutputReferred="True"
   crs:CameraModelRestriction=""
   crs:Copyright=""
   crs:ContactInfo=""
   crs:Version="12.0"
   crs:ProcessVersion="6.7"
   crs:WhiteBalance="Custom"
   crs:Temperature="5904"
   crs:Tint="+1"
   crs:Saturation="+23"
   crs:Sharpness="36"
   crs:LuminanceSmoothing="0"
   crs:ColorNoiseReduction="0"
   crs:VignetteAmount="0"
   crs:ShadowTint="-25"
   crs:RedHue="+28"
   crs:RedSaturation="+42"
   crs:GreenHue="+50"
   crs:GreenSaturation="+14"
   crs:BlueHue="-12"
   crs:BlueSaturation="-74"
   crs:Vibrance="-55"
   crs:HueAdjustmentRed="0"
   crs:HueAdjustmentOrange="-6"
   crs:HueAdjustmentYellow="+13"
   crs:HueAdjustmentGreen="+25"
   crs:HueAdjustmentAqua="+40"
   crs:HueAdjustmentBlue="+5"
   crs:HueAdjustmentPurple="0"
   crs:HueAdjustmentMagenta="0"
   crs:SaturationAdjustmentRed="-40"
   crs:SaturationAdjustmentOrange="-39"
   crs:SaturationAdjustmentYellow="-40"
   crs:SaturationAdjustmentGreen="-45"
   crs:SaturationAdjustmentAqua="-20"
   crs:SaturationAdjustmentBlue="+100"
   crs:SaturationAdjustmentPurple="-65"
   crs:SaturationAdjustmentMagenta="-50"
   crs:LuminanceAdjustmentRed="+2"
   crs:LuminanceAdjustmentOrange="+10"
   crs:LuminanceAdjustmentYellow="-5"
   crs:LuminanceAdjustmentGreen="-10"
   crs:LuminanceAdjustmentAqua="+19"
   crs:LuminanceAdjustmentBlue="+24"
   crs:LuminanceAdjustmentPurple="+20"
   crs:LuminanceAdjustmentMagenta="+20"
   crs:SplitToningShadowHue="21"
   crs:SplitToningShadowSaturation="10"
   crs:SplitToningHighlightHue="155"
   crs:SplitToningHighlightSaturation="3"
   crs:SplitToningBalance="-37"
   crs:ParametricShadows="0"
   crs:ParametricDarks="0"
   crs:ParametricLights="0"
   crs:ParametricHighlights="0"
   crs:ParametricShadowSplit="20"
   crs:ParametricMidtoneSplit="48"
   crs:ParametricHighlightSplit="75"
   crs:SharpenRadius="+1.4"
   crs:SharpenDetail="49"
   crs:SharpenEdgeMasking="0"
   crs:PostCropVignetteAmount="0"
   crs:GrainAmount="10"
   crs:GrainSize="30"
   crs:GrainFrequency="60"
   crs:LensProfileEnable="0"
   crs:LensManualDistortionAmount="0"
   crs:PerspectiveVertical="0"
   crs:PerspectiveHorizontal="0"
   crs:PerspectiveRotate="0.0"
   crs:PerspectiveScale="100"
   crs:PerspectiveAspect="0"
   crs:PerspectiveUpright="0"
   crs:PerspectiveX="0.00"
   crs:PerspectiveY="0.00"
   crs:AutoLateralCA="1"
   crs:Exposure2012="+0.10"
   crs:Contrast2012="-42"
   crs:Highlights2012="-87"
   crs:Shadows2012="+48"
   crs:Whites2012="+41"
   crs:Blacks2012="+40"
   crs:Clarity2012="+8"
   crs:DefringePurpleAmount="3"
   crs:DefringePurpleHueLo="30"
   crs:DefringePurpleHueHi="70"
   crs:DefringeGreenAmount="3"
   crs:DefringeGreenHueLo="40"
   crs:DefringeGreenHueHi="70"
   crs:Dehaze="0"
   crs:ConvertToGrayscale="False"
   crs:OverrideLookVignette="False"
   crs:ToneCurveName2012="Custom"
   crs:CameraProfile="Camera Standard"
   crs:LensProfileSetup="LensDefaults"
   crs:HasSettings="True">
   <crs:Name>
    <rdf:Alt>
     <rdf:li xml:lang="x-default">Milestone_04</rdf:li>
    </rdf:Alt>
   </crs:Name>
   <crs:ShortName>
    <rdf:Alt>
     <rdf:li xml:lang="x-default"/>
    </rdf:Alt>
   </crs:ShortName>
   <crs:SortName>
    <rdf:Alt>
     <rdf:li xml:lang="x-default"/>
    </rdf:Alt>
   </crs:SortName>
   <crs:Group>
    <rdf:Alt>
     <rdf:li xml:lang="x-default">Dark Portrait</rdf:li>
    </rdf:Alt>
   </crs:Group>
   <crs:Description>
    <rdf:Alt>
     <rdf:li xml:lang="x-default"/>
    </rdf:Alt>
   </crs:Description>
   <crs:ToneCurvePV2012>
    <rdf:Seq>
     <rdf:li>1, 17</rdf:li>
     <rdf:li>41, 30</rdf:li>
     <rdf:li>88, 73</rdf:li>
     <rdf:li>180, 175</rdf:li>
     <rdf:li>255, 220</rdf:li>
    </rdf:Seq>
   </crs:ToneCurvePV2012>
   <crs:ToneCurvePV2012Red>
    <rdf:Seq>
     <rdf:li>0, 0</rdf:li>
     <rdf:li>52, 31</rdf:li>
     <rdf:li>126, 122</rdf:li>
     <rdf:li>182, 204</rdf:li>
     <rdf:li>255, 255</rdf:li>
    </rdf:Seq>
   </crs:ToneCurvePV2012Red>
   <crs:ToneCurvePV2012Green>
    <rdf:Seq>
     <rdf:li>0, 0</rdf:li>
     <rdf:li>34, 15</rdf:li>
     <rdf:li>124, 122</rdf:li>
     <rdf:li>180, 202</rdf:li>
     <rdf:li>255, 255</rdf:li>
    </rdf:Seq>
   </crs:ToneCurvePV2012Green>
   <crs:ToneCurvePV2012Blue>
    <rdf:Seq>
     <rdf:li>0, 0</rdf:li>
     <rdf:li>56, 35</rdf:li>
     <rdf:li>122, 118</rdf:li>
     <rdf:li>183, 206</rdf:li>
     <rdf:li>222, 235</rdf:li>
     <rdf:li>255, 255</rdf:li>
    </rdf:Seq>
   </crs:ToneCurvePV2012Blue>
   <crs:Look
    crs:Name=""/>
  </rdf:Description>
 </rdf:RDF>
</x:xmpmeta>
