20 Preset/Dark Portrait/【2】XMP cho Photoshop - Lightroom CC/Milestone_09.xmp
<x:xmpmeta xmlns:x="adobe:ns:meta/" x:xmptk="Adobe XMP Core 5.6-c140 79.160451, 2017/05/06-01:08:21        ">
 <rdf:RDF xmlns:rdf="http://www.w3.org/1999/02/22-rdf-syntax-ns#">
  <rdf:Description rdf:about=""
    xmlns:crs="http://ns.adobe.com/camera-raw-settings/1.0/"
   crs:PresetType="Normal"
   crs:Cluster=""
   crs:UUID="A7E114FCCD054F3EE25CCC3A5C77D0F2"
   crs:SupportsAmount="False"
   crs:SupportsColor="True"
   crs:SupportsMonochrome="True"
   crs:SupportsHighDynamicRange="True"
   crs:SupportsNormalDynamicRange="True"
   crs:SupportsSceneReferred="True"
   crs:SupportsOutputReferred="True"
   crs:CameraModelRestriction=""
   crs:Copyright=""
   crs:ContactInfo=""
   crs:Version="12.0"
   crs:ProcessVersion="6.7"
   crs:WhiteBalance="Custom"
   crs:Temperature="6539"
   crs:Tint="+47"
   crs:Saturation="-22"
   crs:Sharpness="39"
   crs:LuminanceSmoothing="0"
   crs:ColorNoiseReduction="25"
   crs:VignetteAmount="0"
   crs:ShadowTint="-15"
   crs:RedHue="+28"
   crs:RedSaturation="+50"
   crs:GreenHue="+50"
   crs:GreenSaturation="0"
   crs:BlueHue="-10"
   crs:BlueSaturation="-15"
   crs:Vibrance="+30"
   crs:HueAdjustmentRed="+20"
   crs:HueAdjustmentOrange="0"
   crs:HueAdjustmentYellow="+5"
   crs:HueAdjustmentGreen="+11"
   crs:HueAdjustmentAqua="+10"
   crs:HueAdjustmentBlue="0"
   crs:HueAdjustmentPurple="+20"
   crs:HueAdjustmentMagenta="+20"
   crs:SaturationAdjustmentRed="-54"
   crs:SaturationAdjustmentOrange="-37"
   crs:SaturationAdjustmentYellow="-51"
   crs:SaturationAdjustmentGreen="-55"
   crs:SaturationAdjustmentAqua="-20"
   crs:SaturationAdjustmentBlue="-15"
   crs:SaturationAdjustmentPurple="-65"
   crs:SaturationAdjustmentMagenta="-50"
   crs:LuminanceAdjustmentRed="+2"
   crs:LuminanceAdjustmentOrange="-12"
   crs:LuminanceAdjustmentYellow="+100"
   crs:LuminanceAdjustmentGreen="-10"
   crs:LuminanceAdjustmentAqua="-53"
   crs:LuminanceAdjustmentBlue="+7"
   crs:LuminanceAdjustmentPurple="+20"
   crs:LuminanceAdjustmentMagenta="+20"
   crs:SplitToningShadowHue="21"
   crs:SplitToningShadowSaturation="10"
   crs:SplitToningHighlightHue="155"
   crs:SplitToningHighlightSaturation="3"
   crs:SplitToningBalance="-37"
   crs:ParametricShadows="0"
   crs:ParametricDarks="0"
   crs:ParametricLights="0"
   crs:ParametricHighlights="0"
   crs:ParametricShadowSplit="20"
   crs:ParametricMidtoneSplit="48"
   crs:ParametricHighlightSplit="75"
   crs:SharpenRadius="+1.5"
   crs:SharpenDetail="54"
   crs:SharpenEdgeMasking="0"
   crs:PostCropVignetteAmount="-42"
   crs:PostCropVignetteMidpoint="0"
   crs:PostCropVignetteFeather="100"
   crs:PostCropVignetteRoundness="+100"
   crs:PostCropVignetteStyle="1"
   crs:PostCropVignetteHighlightContrast="20"
   crs:GrainAmount="0"
   crs:ColorNoiseReductionDetail="50"
   crs:ColorNoiseReductionSmoothness="50"
   crs:LensProfileEnable="1"
   crs:LensManualDistortionAmount="0"
   crs:AutoLateralCA="1"
   crs:Exposure2012="0.00"
   crs:Contrast2012="-8"
   crs:Highlights2012="-100"
   crs:Shadows2012="+72"
   crs:Whites2012="+7"
   crs:Blacks2012="+28"
   crs:Clarity2012="+20"
   crs:DefringePurpleAmount="3"
   crs:DefringePurpleHueLo="30"
   crs:DefringePurpleHueHi="70"
   crs:DefringeGreenAmount="3"
   crs:DefringeGreenHueLo="40"
   crs:DefringeGreenHueHi="70"
   crs:Dehaze="0"
   crs:ConvertToGrayscale="False"
   crs:OverrideLookVignette="True"
   crs:ToneCurveName2012="Custom"
   crs:CameraProfile="Adobe Standard"
   crs:LensProfileSetup="LensDefaults"
   crs:HasSettings="True">
   <crs:Name>
    <rdf:Alt>
     <rdf:li xml:lang="x-default">Milestone_09</rdf:li>
    </rdf:Alt>
   </crs:Name>
   <crs:ShortName>
    <rdf:Alt>
     <rdf:li xml:lang="x-default"/>
    </rdf:Alt>
   </crs:ShortName>
   <crs:SortName>
    <rdf:Alt>
     <rdf:li xml:lang="x-default"/>
    </rdf:Alt>
   </crs:SortName>
   <crs:Group>
    <rdf:Alt>
     <rdf:li xml:lang="x-default">Dark Portrait</rdf:li>
    </rdf:Alt>
   </crs:Group>
   <crs:Description>
    <rdf:Alt>
     <rdf:li xml:lang="x-default"/>
    </rdf:Alt>
   </crs:Description>
   <crs:ToneCurvePV2012>
    <rdf:Seq>
     <rdf:li>0, 31</rdf:li>
     <rdf:li>54, 61</rdf:li>
     <rdf:li>90, 92</rdf:li>
     <rdf:li>195, 187</rdf:li>
     <rdf:li>255, 236</rdf:li>
    </rdf:Seq>
   </crs:ToneCurvePV2012>
   <crs:ToneCurvePV2012Red>
    <rdf:Seq>
     <rdf:li>0, 0</rdf:li>
     <rdf:li>40, 9</rdf:li>
     <rdf:li>76, 46</rdf:li>
     <rdf:li>126, 122</rdf:li>
     <rdf:li>182, 204</rdf:li>
     <rdf:li>255, 255</rdf:li>
    </rdf:Seq>
   </crs:ToneCurvePV2012Red>
   <crs:ToneCurvePV2012Green>
    <rdf:Seq>
     <rdf:li>0, 0</rdf:li>
     <rdf:li>36, 10</rdf:li>
     <rdf:li>76, 46</rdf:li>
     <rdf:li>124, 122</rdf:li>
     <rdf:li>180, 202</rdf:li>
     <rdf:li>255, 255</rdf:li>
    </rdf:Seq>
   </crs:ToneCurvePV2012Green>
   <crs:ToneCurvePV2012Blue>
    <rdf:Seq>
     <rdf:li>0, 0</rdf:li>
     <rdf:li>36, 10</rdf:li>
     <rdf:li>76, 46</rdf:li>
     <rdf:li>122, 118</rdf:li>
     <rdf:li>183, 206</rdf:li>
     <rdf:li>222, 235</rdf:li>
     <rdf:li>255, 255</rdf:li>
    </rdf:Seq>
   </crs:ToneCurvePV2012Blue>
   <crs:Look
    crs:Name=""/>
  </rdf:Description>
 </rdf:RDF>
</x:xmpmeta>
