20 Preset/Scenery style2/【1】LRtemplate Lightroom bản cũ/Tone  (12).lrtemplate
s = {
	id = "53A173E0-6A7B-4C86-838E-A9768D7BBCC4",
	internalName = "暗青风光-素材江湖03",
	title = "暗青风光-素材江湖03",
	type = "Develop",
	value = {
		settings = {
			AutoLateralCA = 1,
			AutoWhiteVersion = 134348800,
			Blacks2012 = -33,
			BlueHue = 0,
			BlueSaturation = 0,
			CameraProfile = "Adobe Standard",
			ChromaticAberrationB = 0,
			ChromaticAberrationR = 0,
			Clarity2012 = 0,
			ColorNoiseReduction = 25,
			ColorNoiseReductionDetail = 50,
			ColorNoiseReductionSmoothness = 50,
			Contrast2012 = -30,
			ConvertToGrayscale = false,
			CropConstrainToWarp = 0,
			Defringe = 0,
			DefringeGreenAmount = 0,
			DefringeGreenHueHi = 60,
			DefringeGreenHueLo = 40,
			DefringePurpleAmount = 0,
			DefringePurpleHueHi = 70,
			DefringePurpleHueLo = 30,
			Dehaze = 0,
			EnableCalibration = true,
			EnableColorAdjustments = true,
			EnableDetail = true,
			EnableEffects = true,
			EnableLensCorrections = true,
			EnableSplitToning = true,
			Exposure2012 = 0,
			GrainAmount = 0,
			GrainFrequency = 50,
			GrainSize = 25,
			GreenHue = 14,
			GreenSaturation = 25,
			Highlights2012 = -75,
			HueAdjustmentAqua = 0,
			HueAdjustmentBlue = 0,
			HueAdjustmentGreen = -77,
			HueAdjustmentMagenta = 0,
			HueAdjustmentOrange = 0,
			HueAdjustmentPurple = 0,
			HueAdjustmentRed = 0,
			HueAdjustmentYellow = -35,
			LensManualDistortionAmount = 0,
			LuminanceAdjustmentAqua = 0,
			LuminanceAdjustmentBlue = 3,
			LuminanceAdjustmentGreen = 42,
			LuminanceAdjustmentMagenta = 0,
			LuminanceAdjustmentOrange = 49,
			LuminanceAdjustmentPurple = 0,
			LuminanceAdjustmentRed = 24,
			LuminanceAdjustmentYellow = 37,
			LuminanceNoiseReductionContrast = 0,
			LuminanceNoiseReductionDetail = 50,
			LuminanceSmoothing = 0,
			ParametricDarks = 0,
			ParametricHighlightSplit = 75,
			ParametricHighlights = 0,
			ParametricLights = 0,
			ParametricMidtoneSplit = 50,
			ParametricShadowSplit = 25,
			ParametricShadows = 0,
			PostCropVignetteAmount = -12,
			PostCropVignetteFeather = 78,
			PostCropVignetteHighlightContrast = 0,
			PostCropVignetteMidpoint = 19,
			PostCropVignetteRoundness = 0,
			PostCropVignetteStyle = 1,
			ProcessVersion = "10.0",
			RedHue = 13,
			RedSaturation = 0,
			Saturation = 0,
			SaturationAdjustmentAqua = 0,
			SaturationAdjustmentBlue = -52,
			SaturationAdjustmentGreen = -46,
			SaturationAdjustmentMagenta = 0,
			SaturationAdjustmentOrange = -20,
			SaturationAdjustmentPurple = 0,
			SaturationAdjustmentRed = -63,
			SaturationAdjustmentYellow = -30,
			ShadowTint = 0,
			Shadows2012 = 0,
			SharpenDetail = 25,
			SharpenEdgeMasking = 0,
			SharpenRadius = 1,
			Sharpness = 40,
			SplitToningBalance = -38,
			SplitToningHighlightHue = 67,
			SplitToningHighlightSaturation = 8,
			SplitToningShadowHue = 235,
			SplitToningShadowSaturation = 5,
			ToneCurveName2012 = "Custom",
			ToneCurvePV2012 = {
				0,
				23,
				67,
				66,
				128,
				128,
				193,
				186,
				224,
				209,
				255,
				229,
			},
			ToneCurvePV2012Blue = {
				0,
				0,
				73,
				55,
				188,
				194,
				255,
				255,
			},
			ToneCurvePV2012Green = {
				0,
				0,
				74,
				53,
				187,
				195,
				255,
				255,
			},
			ToneCurvePV2012Red = {
				0,
				0,
				71,
				44,
				187,
				192,
				255,
				255,
			},
			Vibrance = -46,
			VignetteAmount = 0,
			VignetteMidpoint = 50,
			WhiteBalance = "Auto",
			Whites2012 = 25,
		},
		uuid = "DC1260C5-337D-4429-864D-DC804B23D342",
	},
	version = 0,
}
