20 Preset/Scenery style/【3】LUT video cho PR-AE-FCPX/Scenery LUT (6).cube
# Created by Adobe Lightroom plugin Export LUT (1.24.0)
# www.johnrellis.com/lightroom/exportlut.htm
# Preset: 暗青风光-素材江湖06
# Color profile: C:\Program Files (x86)\Common Files\Adobe\Color\Profiles\Recommended\VideoHD.icc
LUT_3D_SIZE 8
DOMAIN_MIN 0.000000 0.000000 0.000000
DOMAIN_MAX 0.903226 0.903226 0.903226
0.063966 0.104799 0.114015
0.063966 0.104799 0.114015
0.096925 0.117250 0.124056
0.125521 0.137667 0.134035
0.186374 0.168246 0.135897
0.293767 0.214786 0.121614
0.463111 0.290379 0.048157
0.680323 0.405402 0.000000
0.067628 0.108919 0.116518
0.081910 0.114504 0.120668
0.108949 0.131319 0.131472
0.150881 0.154116 0.137087
0.232670 0.192477 0.132143
0.370581 0.251316 0.102480
0.550439 0.338323 0.000000
0.737209 0.444068 0.000000
0.105531 0.142855 0.139803
0.109834 0.145357 0.140993
0.126375 0.155825 0.145266
0.167330 0.177462 0.147860
0.265721 0.222599 0.134585
0.406012 0.283848 0.091676
0.541741 0.348577 0.000000
0.723415 0.449714 0.000000
0.164401 0.195468 0.154574
0.171878 0.200687 0.155001
0.194461 0.213962 0.155734
0.220890 0.224491 0.155032
0.287816 0.256504 0.151919
0.423774 0.322393 0.120516
0.593774 0.409430 0.000000
0.770779 0.511589 0.000000
0.339025 0.333074 0.152590
0.347082 0.338201 0.151827
0.371130 0.351049 0.150729
0.407416 0.367651 0.149355
0.475746 0.402289 0.147646
0.581598 0.460151 0.150484
0.706966 0.532280 0.153079
0.832792 0.610285 0.158114
0.569665 0.520317 0.166537
0.555474 0.507317 0.162661
0.574304 0.517571 0.165499
0.607782 0.534874 0.172335
0.655604 0.559991 0.188754
0.704646 0.583429 0.212528
0.770626 0.622644 0.260502
0.859007 0.694881 0.361883
0.755154 0.686458 0.312810
0.754452 0.684840 0.310887
0.766354 0.692378 0.322576
0.785061 0.703182 0.340764
0.814115 0.721675 0.373510
0.841428 0.737148 0.405280
0.868528 0.752682 0.440467
0.905791 0.785336 0.510582
0.875669 0.816037 0.534905
0.876829 0.816739 0.536645
0.880278 0.818387 0.541100
0.886015 0.820432 0.547509
0.909331 0.841855 0.595666
0.918486 0.845182 0.608331
0.928649 0.848905 0.623651
0.941222 0.857267 0.651759
0.071229 0.118685 0.137514
0.071199 0.115877 0.133974
0.106752 0.128176 0.132448
0.157259 0.156558 0.137026
0.242588 0.196201 0.130556
0.392554 0.260288 0.095766
0.581811 0.354101 0.000000
0.765988 0.461372 0.000000
0.076112 0.121981 0.135958
0.083131 0.122591 0.134127
0.115206 0.139406 0.139010
0.171420 0.167544 0.137850
0.268864 0.211246 0.126894
0.428138 0.281163 0.077180
0.626032 0.382635 0.000000
0.799130 0.488075 0.000000
0.110750 0.151888 0.150942
0.114992 0.154177 0.151400
0.135042 0.164370 0.151888
0.190707 0.192966 0.149691
0.317998 0.251316 0.127291
0.481758 0.327031 0.032227
0.653681 0.415625 0.000000
0.800595 0.504295 0.000000
0.188907 0.220188 0.171450
0.196811 0.224735 0.171267
0.224155 0.238285 0.165896
0.281498 0.264927 0.153048
0.383825 0.317266 0.146700
0.542199 0.398413 0.101564
0.702541 0.484138 0.000000
0.841489 0.569177 0.000000
0.350286 0.347265 0.179538
0.362860 0.355474 0.178622
0.400519 0.376989 0.170565
0.462654 0.409003 0.149416
0.544030 0.452766 0.150271
0.643336 0.507347 0.164858
0.752987 0.571649 0.186496
0.866789 0.645258 0.209812
0.597101 0.548241 0.217472
0.601251 0.549920 0.215152
0.620813 0.558801 0.205386
0.651179 0.571069 0.194247
0.689876 0.589197 0.212741
0.728817 0.604791 0.233494
0.792660 0.644160 0.286595
0.875700 0.716091 0.395300
0.781155 0.711391 0.348791
0.786618 0.715846 0.355871
0.797757 0.723140 0.368658
0.811917 0.730312 0.383032
0.832181 0.741054 0.405524
0.856748 0.755062 0.436530
0.883726 0.772549 0.477119
0.918120 0.803433 0.545678
0.886748 0.828550 0.560235
0.886046 0.827237 0.557824
0.889647 0.829099 0.562768
0.894682 0.830625 0.568231
0.904112 0.835264 0.581567
0.917327 0.843503 0.604608
0.929900 0.850858 0.628199
0.942260 0.859220 0.656519
0.032593 0.143740 0.204807
0.044862 0.141848 0.201907
0.095644 0.146517 0.191440
0.126162 0.154757 0.177310
0.196597 0.185916 0.171115
0.341894 0.248234 0.154910
0.558190 0.348394 0.000000
0.749386 0.454963 0.000000
0.069398 0.150301 0.198337
0.081178 0.151339 0.196353
0.102541 0.154971 0.190738
0.138247 0.168643 0.187350
0.217258 0.200839 0.178744
0.375647 0.269047 0.158724
0.600336 0.375616 0.000000
0.778134 0.477729 0.000000
0.102724 0.167544 0.190127
0.105745 0.168948 0.189792
0.120912 0.177676 0.193942
0.162203 0.193729 0.193118
0.254826 0.233677 0.189334
0.425696 0.308965 0.158053
0.639368 0.412848 0.000000
0.799619 0.506767 0.000000
0.158785 0.215610 0.213535
0.162173 0.217350 0.213382
0.179843 0.226474 0.215122
0.218784 0.244602 0.215305
0.317845 0.294011 0.215091
0.490303 0.377691 0.182376
0.682124 0.472816 0.000000
0.828916 0.560662 0.000000
0.307774 0.336522 0.257908
0.315007 0.340887 0.258610
0.342290 0.356115 0.259495
0.392584 0.381445 0.255833
0.479347 0.425299 0.247623
0.611414 0.496407 0.235538
0.751003 0.570092 0.185153
0.864775 0.643336 0.207309
0.561730 0.543694 0.338994
0.564599 0.544274 0.337072
0.585809 0.555566 0.336980
0.624170 0.574456 0.334142
0.676753 0.598413 0.324956
0.730770 0.615564 0.291325
0.801511 0.652522 0.297459
0.877531 0.717403 0.396307
0.754421 0.707057 0.440223
0.759976 0.711208 0.444251
0.776486 0.721706 0.450660
0.799619 0.732937 0.449012
0.829984 0.745022 0.437812
0.857939 0.755642 0.438025
0.880735 0.767849 0.468635
0.914214 0.797086 0.533532
0.887327 0.829129 0.561456
0.889097 0.830655 0.564813
0.892790 0.832670 0.570153
0.895903 0.831907 0.570947
0.905303 0.836667 0.584527
0.916808 0.842649 0.602777
0.928954 0.849241 0.624537
0.941619 0.857633 0.652857
0.000000 0.173861 0.342443
0.000000 0.173037 0.327764
0.000000 0.181491 0.310918
0.124575 0.191531 0.286870
0.183444 0.202518 0.265202
0.299413 0.255131 0.272526
0.489387 0.337743 0.247166
0.728328 0.475837 0.239261
0.000000 0.182071 0.308934
0.000000 0.182956 0.304601
0.053193 0.188602 0.294865
0.129580 0.195285 0.276585
0.186313 0.208072 0.263523
0.309880 0.262272 0.272282
0.504692 0.352819 0.255802
0.738003 0.487984 0.247044
0.094179 0.213169 0.294133
0.103029 0.214572 0.292332
0.126986 0.219699 0.288762
0.161318 0.226963 0.284001
0.220737 0.245426 0.279271
0.334966 0.284031 0.258396
0.505852 0.372107 0.263218
0.737423 0.499794 0.242283
0.149508 0.243626 0.280339
0.155367 0.247044 0.282506
0.175998 0.258701 0.288548
0.225010 0.293004 0.311803
0.296788 0.316228 0.305638
0.432868 0.382361 0.316228
0.619287 0.478462 0.316777
0.801389 0.576043 0.278935
0.262211 0.336278 0.329503
0.273106 0.342107 0.334630
0.298619 0.356786 0.341863
0.330785 0.372045 0.343145
0.392004 0.403021 0.350530
0.517113 0.476112 0.376623
0.680812 0.566094 0.383886
0.837522 0.650813 0.356603
0.486793 0.514946 0.426459
0.477516 0.504875 0.416449
0.502647 0.521355 0.424353
0.540520 0.542779 0.430945
0.596460 0.573724 0.440986
0.662135 0.607843 0.449256
0.755886 0.660578 0.461036
0.868040 0.723171 0.450202
0.713130 0.703426 0.549981
0.714534 0.703639 0.548913
0.725490 0.709285 0.550011
0.746609 0.719844 0.551537
0.779721 0.736965 0.555016
0.819120 0.755306 0.553582
0.860929 0.770993 0.540429
0.914336 0.796078 0.532219
0.864469 0.826810 0.624628
0.866087 0.827634 0.624842
0.872068 0.830106 0.624201
0.882353 0.833127 0.619104
0.898283 0.837766 0.610864
0.916564 0.842313 0.602045
0.928588 0.848295 0.622522
0.940612 0.855161 0.647242
0.000000 0.249210 0.520500
0.000000 0.246860 0.508568
0.000000 0.255406 0.496162
0.109499 0.265202 0.470588
0.218814 0.279911 0.446876
0.304112 0.295384 0.423590
0.424842 0.356420 0.418860
0.652308 0.490272 0.461280
0.000000 0.256626 0.494850
0.000000 0.252842 0.482948
0.000000 0.259312 0.473793
0.134554 0.272740 0.462196
0.227176 0.287480 0.443702
0.308934 0.301915 0.422492
0.438056 0.370947 0.426703
0.659388 0.497932 0.461433
0.063111 0.292027 0.466224
0.091157 0.292271 0.463783
0.143221 0.299687 0.462654
0.204257 0.312261 0.458381
0.270176 0.327428 0.449775
0.351904 0.345739 0.440833
0.506584 0.444587 0.470741
0.697261 0.540978 0.471901
0.214237 0.348760 0.458198
0.220676 0.350805 0.457984
0.241733 0.355657 0.453285
0.273808 0.363989 0.447517
0.319036 0.377508 0.445655
0.406592 0.413092 0.451911
0.566400 0.490120 0.461402
0.736202 0.602319 0.498207
0.298772 0.408270 0.453620
0.302190 0.409033 0.452766
0.319890 0.416938 0.454108
0.356237 0.436286 0.461250
0.429175 0.486915 0.492683
0.524987 0.529717 0.501152
0.657893 0.605737 0.531640
0.803708 0.692866 0.559808
0.445197 0.554864 0.521996
0.458137 0.558740 0.526970
0.511986 0.579614 0.551507
0.561242 0.604028 0.570336
0.604944 0.630030 0.582055
0.641321 0.643091 0.579736
0.729213 0.694667 0.602136
0.842771 0.758694 0.615137
0.691920 0.715419 0.639612
0.697963 0.719997 0.642817
0.714992 0.731777 0.649042
0.732387 0.740597 0.650446
0.760311 0.755367 0.655726
0.798459 0.776303 0.664912
0.839109 0.796414 0.670588
0.896910 0.827848 0.680018
0.855680 0.846799 0.729519
0.857328 0.847776 0.730343
0.863005 0.850797 0.732113
0.867704 0.849699 0.723812
0.881285 0.854490 0.721584
0.898772 0.859525 0.715846
0.919097 0.862913 0.701839
0.942840 0.863798 0.675227
0.000000 0.338933 0.638666
0.000000 0.337163 0.633692
0.030640 0.351293 0.634272
0.202487 0.367224 0.626795
0.298558 0.391058 0.619226
0.382788 0.415076 0.607050
0.464576 0.435737 0.590875
0.578027 0.488502 0.584100
0.119600 0.380560 0.658045
0.140169 0.383032 0.657557
0.200229 0.392676 0.655207
0.268803 0.406470 0.647852
0.339666 0.423011 0.635981
0.410071 0.440436 0.620233
0.486122 0.458076 0.603265
0.596429 0.511772 0.597009
0.218845 0.404517 0.631434
0.229129 0.407630 0.632197
0.259159 0.414984 0.631006
0.320989 0.438087 0.635401
0.375128 0.452338 0.626856
0.432197 0.465278 0.613062
0.500816 0.479805 0.599207
0.613947 0.543664 0.602319
0.318914 0.456977 0.616480
0.327825 0.461524 0.618067
0.348150 0.468330 0.615595
0.361456 0.464302 0.602991
0.395056 0.470680 0.593866
0.444739 0.484565 0.587335
0.515099 0.503349 0.584710
0.643061 0.593408 0.611475
0.436286 0.540124 0.622522
0.439765 0.541741 0.622522
0.451026 0.545556 0.620661
0.467445 0.549645 0.615442
0.494209 0.559075 0.612757
0.531670 0.572503 0.612451
0.603601 0.603326 0.619623
0.742824 0.687556 0.652552
0.517784 0.604120 0.627039
0.514305 0.600336 0.623163
0.524773 0.605219 0.623926
0.543664 0.614313 0.625330
0.575036 0.631800 0.631495
0.618433 0.658534 0.643702
0.703090 0.700954 0.658412
0.815488 0.768093 0.690517
0.564660 0.675196 0.644129
0.563958 0.674434 0.642145
0.593072 0.688014 0.649744
0.654475 0.714199 0.673548
0.721767 0.749325 0.705440
0.764218 0.775875 0.719814
0.808530 0.802090 0.736110
0.870970 0.841215 0.761563
0.837064 0.852049 0.796414
0.839750 0.854063 0.798215
0.846036 0.858122 0.800259
0.854368 0.862028 0.798306
0.867948 0.868406 0.797452
0.883238 0.874815 0.798550
0.900084 0.879973 0.795682
0.919341 0.884428 0.789242
0.434943 0.561517 0.791196
0.440497 0.563928 0.791165
0.457221 0.569909 0.789090
0.485969 0.579889 0.784726
0.525811 0.594781 0.779446
0.569665 0.610071 0.771481
0.615259 0.624262 0.760922
0.665919 0.638209 0.749783
0.444343 0.567163 0.787320
0.449744 0.569604 0.787503
0.464881 0.574853 0.785580
0.492073 0.584344 0.781857
0.528038 0.596765 0.775937
0.568933 0.610071 0.767422
0.612665 0.622858 0.756466
0.662501 0.635828 0.745266
0.491035 0.598932 0.783322
0.493690 0.599786 0.782956
0.503868 0.602747 0.780911
0.524102 0.609094 0.777401
0.552117 0.617517 0.771572
0.586725 0.627893 0.764004
0.627375 0.639796 0.755276
0.676692 0.653590 0.747555
0.544793 0.638331 0.776333
0.548486 0.640345 0.776974
0.554894 0.641657 0.774960
0.569574 0.645960 0.772152
0.590204 0.651331 0.767208
0.618006 0.658991 0.761105
0.652064 0.667933 0.753964
0.697780 0.679774 0.749203
0.595026 0.677668 0.768887
0.595636 0.677424 0.768032
0.600763 0.678492 0.766262
0.612207 0.681910 0.764309
0.627649 0.685664 0.760555
0.648493 0.690303 0.755276
0.676356 0.696407 0.749233
0.725154 0.710750 0.750912
0.647944 0.718868 0.761654
0.649073 0.719356 0.761593
0.653346 0.720760 0.760983
0.661677 0.723476 0.760006
0.674128 0.727352 0.758389
0.692531 0.733303 0.756832
0.716915 0.739803 0.753628
0.768338 0.758694 0.757168
0.695949 0.759182 0.763760
0.697383 0.759884 0.763973
0.701167 0.761196 0.763394
0.709255 0.764248 0.762600
0.721675 0.769039 0.761471
0.741176 0.778073 0.762142
0.776028 0.799130 0.772427
0.857389 0.850126 0.807553
0.748470 0.821622 0.791867
0.749233 0.822202 0.791867
0.753964 0.825956 0.793027
0.763668 0.833280 0.794247
0.814054 0.855314 0.812161
0.868223 0.880583 0.844602
0.887724 0.891417 0.849943
0.904601 0.898924 0.853178
0.639765 0.716365 0.874418
0.641993 0.717494 0.874418
0.648371 0.719875 0.873411
0.662684 0.726131 0.872343
0.682856 0.734707 0.870481
0.707668 0.745022 0.867765
0.736721 0.757198 0.864591
0.767330 0.768917 0.860319
0.642634 0.718593 0.873014
0.644892 0.719722 0.873045
0.651453 0.722377 0.872343
0.664942 0.728054 0.871183
0.684413 0.736202 0.869352
0.708705 0.746151 0.866667
0.736721 0.757504 0.863310
0.766720 0.768582 0.858915
0.661189 0.733089 0.871244
0.662715 0.733761 0.871153
0.668055 0.735653 0.870420
0.681270 0.741665 0.869963
0.697780 0.748043 0.868009
0.718868 0.756039 0.865263
0.744717 0.766079 0.862211
0.772946 0.776150 0.858183
0.689815 0.756191 0.869322
0.691218 0.756863 0.869322
0.695766 0.758450 0.868742
0.705715 0.762509 0.868070
0.719966 0.767941 0.866636
0.738247 0.774624 0.864469
0.760678 0.782895 0.861906
0.786099 0.791409 0.858488
0.723049 0.783536 0.867643
0.724147 0.784054 0.867796
0.726711 0.784634 0.867491
0.733974 0.787167 0.866941
0.744991 0.790890 0.865537
0.760006 0.795895 0.863615
0.779446 0.802670 0.861540
0.803067 0.810575 0.859220
0.761654 0.814603 0.866178
0.761746 0.814450 0.865934
0.763027 0.814359 0.865476
0.767147 0.815457 0.865263
0.774838 0.817929 0.865629
0.789090 0.823606 0.865568
0.807401 0.830747 0.864897
0.828519 0.837980 0.863523
0.805264 0.848447 0.867735
0.805570 0.848508 0.867643
0.807004 0.848905 0.867430
0.810697 0.850340 0.867521
0.816770 0.852689 0.867735
0.825986 0.856352 0.868498
0.838743 0.861143 0.868986
0.852079 0.863127 0.864927
0.840208 0.877012 0.874022
0.840452 0.877043 0.873869
0.841947 0.877562 0.873655
0.845426 0.878996 0.873472
0.850584 0.880919 0.872892
0.857542 0.883421 0.871733
0.867002 0.886839 0.870146
0.881224 0.892973 0.869718
