20 Preset/Scenery style/【3】LUT video cho PR-AE-FCPX/Scenery LUT (9).cube
# Created by Adobe Lightroom plugin Export LUT (1.24.0)
# www.johnrellis.com/lightroom/exportlut.htm
# Preset: 暗青风光-素材江湖09
# Color profile: C:\Program Files (x86)\Common Files\Adobe\Color\Profiles\Recommended\VideoHD.icc
LUT_3D_SIZE 32
DOMAIN_MIN 0.0 0.0 0.0
DOMAIN_MAX 1.0 1.0 1.0
0.063966 0.104799 0.114015
0.063966 0.104799 0.114015
0.063966 0.104799 0.114015
0.063966 0.104799 0.114015
0.063966 0.104799 0.114015
0.069581 0.105226 0.114839
0.099550 0.112154 0.124361
0.117525 0.118654 0.132937
0.141054 0.121157 0.138460
0.170260 0.120516 0.142489
0.205478 0.115999 0.144839
0.247593 0.104891 0.145876
0.297704 0.081025 0.145754
0.354498 0.017334 0.145144
0.416846 0.000000 0.144472
0.482155 0.000000 0.145815
0.548363 0.000000 0.148898
0.614191 0.000000 0.152438
0.677302 0.000000 0.156893
0.734066 0.000000 0.162112
0.800107 0.000000 0.171817
0.858488 0.000000 0.185336
0.903471 0.000000 0.200412
0.939666 0.000000 0.217288
0.968933 0.123934 0.235935
0.992920 0.189578 0.256260
1.000000 0.240146 0.278660
1.000000 0.285679 0.303410
1.000000 0.329686 0.330968
1.000000 0.373663 0.361639
1.000000 0.418250 0.395727
1.000000 0.463600 0.432685
0.063966 0.104799 0.114015
0.063966 0.104799 0.114015
0.063966 0.104799 0.114015
0.063966 0.104799 0.114015
0.063966 0.104799 0.114015
0.068605 0.104952 0.114565
0.098329 0.111666 0.123629
0.115480 0.118318 0.132265
0.138277 0.121004 0.137850
0.166140 0.121004 0.141848
0.200076 0.117067 0.144442
0.240574 0.107088 0.145968
0.288701 0.088685 0.145876
0.344030 0.034730 0.145144
0.405005 0.000000 0.144656
0.469978 0.000000 0.145296
0.536278 0.000000 0.148348
0.602380 0.000000 0.151888
0.666133 0.000000 0.155917
0.723751 0.000000 0.160830
0.789364 0.000000 0.169894
0.846159 0.000000 0.181979
0.890654 0.000000 0.195560
0.927123 0.000000 0.210941
0.957214 0.086702 0.227909
0.982452 0.164187 0.246769
1.000000 0.217807 0.268009
1.000000 0.265599 0.291936
1.000000 0.310979 0.319036
1.000000 0.356207 0.349432
1.000000 0.401984 0.383276
1.000000 0.448432 0.420386
0.063966 0.104799 0.114015
0.063966 0.104799 0.114015
0.063966 0.104799 0.114015
0.063966 0.104799 0.114015
0.063966 0.104799 0.114015
0.067903 0.105318 0.114534
0.098421 0.111666 0.123354
0.114687 0.118135 0.132052
0.136812 0.120943 0.137636
0.164034 0.121096 0.141665
0.196933 0.117525 0.144503
0.236576 0.108492 0.145754
0.283146 0.095003 0.146151
0.336980 0.060456 0.145357
0.397284 0.000000 0.144686
0.461341 0.000000 0.144930
0.527520 0.000000 0.147860
0.593713 0.000000 0.151278
0.658137 0.000000 0.155123
0.716976 0.000000 0.160067
0.783993 0.000000 0.168795
0.839780 0.000000 0.180453
0.883970 0.000000 0.193332
0.920500 0.000000 0.207950
0.950774 0.082307 0.224338
0.976501 0.159121 0.242374
0.998932 0.212589 0.263005
1.000000 0.259525 0.286473
1.000000 0.304753 0.313298
1.000000 0.350042 0.343359
1.000000 0.395575 0.377050
1.000000 0.441901 0.413916
0.063966 0.104799 0.114015
0.063966 0.104799 0.114015
0.063966 0.104799 0.114015
0.063966 0.104799 0.114015
0.063966 0.104799 0.114015
0.073243 0.105745 0.115663
0.099641 0.112154 0.124086
0.115236 0.118074 0.132052
0.137240 0.120882 0.137636
0.163394 0.121218 0.141665
0.195712 0.117800 0.144289
0.233249 0.113649 0.145846
0.278386 0.105989 0.146151
0.330968 0.091859 0.145480
0.389624 0.040772 0.144808
0.452338 0.000000 0.144839
0.517144 0.000000 0.147250
0.582055 0.000000 0.150332
0.645777 0.000000 0.154177
0.704860 0.000000 0.158694
0.772519 0.000000 0.166781
0.826139 0.000000 0.177218
0.870329 0.000000 0.189120
0.908324 0.000000 0.203006
0.940978 0.093965 0.219272
0.969207 0.163577 0.237736
0.993896 0.215976 0.259251
1.000000 0.263096 0.283726
1.000000 0.308171 0.311223
1.000000 0.352636 0.341588
1.000000 0.396674 0.374731
1.000000 0.440711 0.410285
0.063966 0.104799 0.114015
0.063966 0.104799 0.114015
0.063966 0.104799 0.114015
0.063966 0.104799 0.114015
0.063966 0.104799 0.114015
0.077852 0.106569 0.116732
0.099855 0.112428 0.124605
0.114778 0.118685 0.132235
0.134951 0.122286 0.137514
0.159823 0.124544 0.141604
0.189731 0.125734 0.144289
0.226108 0.124788 0.146059
0.269902 0.120912 0.146426
0.321935 0.112612 0.146029
0.380285 0.097505 0.144961
0.443336 0.055360 0.144656
0.509239 0.000000 0.146609
0.575311 0.000000 0.149722
0.639826 0.000000 0.153506
0.704036 0.000000 0.158175
0.769406 0.000000 0.166079
0.821042 0.000000 0.175998
0.864591 0.000000 0.187686
0.902892 0.030915 0.201511
0.936187 0.134340 0.217655
0.965209 0.186007 0.236423
0.990356 0.231113 0.258030
1.000000 0.274083 0.282383
1.000000 0.316106 0.309606
1.000000 0.358038 0.339635
1.000000 0.399969 0.372229
1.000000 0.442298 0.407202
0.067048 0.114199 0.118196
0.066041 0.114504 0.118471
0.067323 0.114778 0.118410
0.065858 0.115999 0.118837
0.066377 0.117739 0.119753
0.088106 0.118929 0.120607
0.094453 0.121614 0.127565
0.110506 0.127504 0.133944
0.131014 0.131868 0.138796
0.156222 0.135653 0.142611
0.186282 0.138216 0.145296
0.223362 0.139528 0.146792
0.267674 0.138582 0.147066
0.319921 0.134890 0.146151
0.379065 0.126619 0.144930
0.443153 0.113375 0.144198
0.509514 0.095399 0.146151
0.576410 0.048280 0.149386
0.641413 0.000000 0.152865
0.711666 0.000000 0.158297
0.773526 0.000000 0.166293
0.823484 0.015656 0.176455
0.933104 0.201175 0.218723
0.964385 0.240055 0.240085
0.989532 0.276493 0.262913
1.000000 0.311345 0.287144
1.000000 0.344945 0.312596
1.000000 0.378424 0.339422
1.000000 0.412055 0.367926
1.000000 0.446265 0.398108
1.000000 0.480598 0.429633
1.000000 0.514794 0.462104
0.071107 0.136873 0.129305
0.072389 0.137057 0.129244
0.071382 0.137331 0.129488
0.070924 0.138033 0.129641
0.076722 0.139040 0.129976
0.101137 0.139834 0.130373
0.107576 0.138399 0.132021
0.111299 0.138827 0.138430
0.133700 0.146853 0.142672
0.161990 0.154757 0.145815
0.197360 0.159609 0.147646
0.239994 0.163088 0.148440
0.290105 0.164675 0.147463
0.347326 0.163577 0.145632
0.409339 0.159487 0.144045
0.473945 0.153384 0.144259
0.540093 0.146700 0.146517
0.605524 0.138338 0.149569
0.674128 0.133364 0.153506
0.749081 0.141238 0.161654
0.809689 0.160189 0.172946
0.861967 0.187076 0.188052
0.907103 0.219394 0.206760
0.945037 0.254734 0.229099
0.975586 0.289830 0.253910
0.999207 0.323156 0.279362
1.000000 0.354101 0.305119
1.000000 0.384558 0.331762
1.000000 0.415534 0.359747
1.000000 0.446815 0.389044
1.000000 0.479072 0.420020
1.000000 0.511742 0.452064
0.065492 0.155367 0.133181
0.066773 0.155550 0.133150
0.065766 0.155764 0.133364
0.067597 0.156313 0.133272
0.089998 0.157259 0.133486
0.110140 0.158541 0.133486
0.125338 0.157992 0.134310
0.128420 0.154910 0.136934
0.128908 0.153048 0.144533
0.155581 0.162905 0.147524
0.190188 0.173617 0.149416
0.233433 0.183810 0.149630
0.283543 0.188693 0.148318
0.340520 0.191348 0.146090
0.402167 0.191806 0.143923
0.466285 0.191043 0.143313
0.532006 0.190646 0.144961
0.597436 0.189334 0.147585
0.678431 0.195224 0.152041
0.745846 0.204288 0.159701
0.802396 0.217838 0.170901
0.852445 0.236698 0.185702
0.896605 0.260410 0.204013
0.934447 0.287633 0.225803
0.965545 0.316625 0.250278
0.990051 0.344518 0.275425
1.000000 0.371679 0.301183
1.000000 0.398810 0.327611
1.000000 0.426978 0.355566
1.000000 0.455970 0.384833
1.000000 0.485969 0.415534
1.000000 0.516777 0.447486
0.056214 0.178683 0.134066
0.057496 0.178836 0.134035
0.067994 0.178988 0.133944
0.088289 0.179690 0.133944
0.104616 0.180697 0.133791
0.126558 0.182223 0.133364
0.149691 0.182986 0.133211
0.153567 0.180056 0.135439
0.155764 0.175509 0.139590
0.154269 0.171237 0.147921
0.184604 0.182254 0.151217
0.226810 0.194919 0.151125
0.278294 0.208255 0.149630
0.338323 0.220920 0.146242
0.400366 0.225711 0.143191
0.464759 0.229313 0.141695
0.530632 0.232914 0.143221
0.611719 0.242283 0.145510
0.684291 0.250584 0.149935
0.746181 0.259770 0.157992
0.799222 0.271214 0.169741
0.847044 0.286412 0.184970
0.889769 0.305180 0.203738
0.926909 0.326940 0.225986
0.957794 0.350530 0.250309
0.982574 0.373846 0.275608
1.000000 0.397131 0.301305
1.000000 0.421118 0.327886
1.000000 0.446235 0.355749
1.000000 0.472145 0.384802
1.000000 0.499611 0.415198
1.000000 0.527916 0.446784
0.090150 0.208560 0.130434
0.092378 0.208469 0.130434
0.097902 0.208652 0.130312
0.109529 0.209354 0.129976
0.126436 0.210330 0.129702
0.148928 0.211765 0.128817
0.176699 0.213962 0.127718
0.185763 0.210697 0.129610
0.189761 0.206577 0.132601
0.189731 0.199710 0.139040
0.185885 0.192203 0.148928
0.217533 0.203647 0.152987
0.267430 0.218418 0.151003
0.326207 0.233982 0.147799
0.392340 0.250248 0.143526
0.467659 0.270085 0.139773
0.547662 0.283879 0.140383
0.623926 0.295628 0.142428
0.691554 0.305516 0.147707
0.749172 0.314580 0.157015
0.798459 0.323827 0.169650
0.842405 0.334936 0.185367
0.881682 0.348241 0.203586
0.916258 0.363867 0.224613
0.945922 0.380987 0.247532
0.970764 0.399268 0.271733
0.991760 0.418830 0.297124
1.000000 0.439734 0.323796
1.000000 0.462654 0.352148
1.000000 0.487098 0.382025
1.000000 0.513085 0.413367
1.000000 0.540215 0.445838
0.118349 0.243229 0.120912
0.119661 0.243290 0.120882
0.125612 0.243870 0.120516
0.137758 0.244877 0.120180
0.155520 0.246616 0.119081
0.179599 0.248966 0.117433
0.210300 0.252110 0.114900
0.229282 0.250431 0.115877
0.233799 0.246036 0.119417
0.239017 0.241032 0.123507
0.236332 0.230625 0.134157
0.228305 0.219120 0.147127
0.261051 0.230167 0.153048
0.320684 0.248753 0.149050
0.394446 0.271855 0.144137
0.473823 0.296635 0.140932
0.553918 0.321782 0.139132
0.630304 0.346380 0.138735
0.693660 0.357702 0.144747
0.747372 0.365423 0.155367
0.794369 0.372747 0.169741
0.836698 0.381689 0.186465
0.874968 0.392706 0.205600
0.908904 0.405158 0.227481
0.938384 0.419165 0.251041
0.963256 0.434455 0.275608
0.984527 0.450874 0.301091
1.000000 0.469032 0.327977
1.000000 0.488960 0.356359
1.000000 0.510674 0.386358
1.000000 0.534020 0.417487
1.000000 0.558618 0.449744
0.157778 0.291752 0.097353
0.159670 0.291966 0.097108
0.165621 0.292576 0.096498
0.178683 0.293919 0.095064
0.198032 0.296300 0.092439
0.224430 0.299168 0.089143
0.258274 0.303441 0.080262
0.289311 0.303899 0.074159
0.294041 0.298833 0.086061
0.299657 0.292882 0.093446
0.305364 0.285954 0.100710
0.302220 0.273625 0.119692
0.345647 0.292424 0.135042
0.386114 0.307500 0.152987
0.469245 0.338903 0.152499
0.552728 0.369390 0.153262
0.630304 0.396948 0.157259
0.696925 0.420813 0.167025
0.752285 0.441810 0.183108
0.800534 0.462257 0.203586
0.840696 0.471687 0.225589
0.875547 0.478981 0.247776
0.906157 0.487129 0.270451
0.932860 0.496834 0.293797
0.955779 0.507073 0.316777
0.975402 0.517510 0.338903
0.992187 0.528099 0.359960
1.000000 0.539483 0.381079
1.000000 0.552178 0.403021
1.000000 0.566491 0.426093
1.000000 0.582513 0.450935
1.000000 0.601617 0.479927
0.214755 0.366918 0.000000
0.216068 0.366857 0.000000
0.222782 0.366491 0.000000
0.236606 0.367346 0.000000
0.257053 0.368292 0.000000
0.284855 0.370092 0.000000
0.321111 0.373510 0.000000
0.365362 0.378088 0.000000
0.377569 0.373053 0.000000
0.391028 0.372656 0.000000
0.407355 0.372534 0.000000
0.424750 0.371191 0.000000
0.425818 0.359258 0.092348
0.422370 0.345739 0.135195
0.451362 0.355932 0.167605
0.532464 0.387518 0.169924
0.608362 0.415686 0.174319
0.673976 0.438972 0.183413
0.729244 0.459052 0.197879
0.776852 0.477699 0.216495
0.819272 0.496345 0.237797
0.856687 0.515526 0.262028
0.887999 0.521904 0.283421
0.915892 0.529381 0.305150
0.940093 0.537621 0.326909
0.960998 0.546502 0.348425
0.979095 0.555871 0.369604
0.994903 0.565942 0.390478
1.000000 0.577264 0.412055
1.000000 0.590051 0.434668
1.000000 0.603937 0.458198
1.000000 0.619776 0.483925
0.260807 0.427192 0.000000
0.262028 0.426978 0.000000
0.269047 0.427192 0.000000
0.283085 0.428321 0.000000
0.304784 0.430457 0.000000
0.334264 0.433814 0.000000
0.373327 0.439399 0.000000
0.421241 0.446876 0.000000
0.459602 0.448768 0.000000
0.469825 0.445777 0.000000
0.482643 0.443305 0.000000
0.497261 0.440528 0.000000
0.510430 0.435309 0.000000
0.507897 0.420081 0.084627
0.500206 0.402716 0.141909
0.517357 0.405341 0.181949
0.585382 0.431891 0.191684
0.650752 0.455940 0.200626
0.707088 0.476387 0.214267
0.755154 0.494301 0.231876
0.798367 0.512261 0.252018
0.837247 0.530663 0.274907
0.871489 0.549401 0.299596
0.901152 0.565606 0.324346
0.926207 0.572534 0.345251
0.948028 0.580041 0.365911
0.967010 0.587762 0.385809
0.983551 0.596307 0.406073
0.998047 0.605798 0.426703
1.000000 0.616663 0.448249
1.000000 0.628717 0.470771
1.000000 0.642145 0.494453
0.326024 0.504173 0.000000
0.327489 0.504082 0.000000
0.333165 0.503624 0.000000
0.346044 0.503410 0.000000
0.365972 0.503502 0.000000
0.393011 0.504662 0.000000
0.428748 0.507805 0.000000
0.473304 0.513085 0.000000
0.526787 0.520653 0.000000
0.543755 0.515587 0.000000
0.553887 0.511681 0.000000
0.566064 0.507897 0.000000
0.578698 0.503136 0.000000
0.586847 0.494057 0.000000
0.581170 0.476204 0.092195
0.569421 0.455573 0.154696
0.577722 0.452247 0.198734
0.630030 0.472633 0.218326
0.686732 0.493599 0.231846
0.735561 0.511650 0.248722
0.779385 0.529229 0.268376
0.819364 0.547173 0.290227
0.854734 0.565087 0.313603
0.885771 0.583154 0.338445
0.912474 0.600855 0.363531
0.935149 0.613458 0.386267
0.954955 0.620264 0.405859
0.972290 0.628107 0.426093
0.987610 0.637018 0.446876
1.000000 0.647211 0.468788
1.000000 0.658686 0.491829
1.000000 0.670893 0.514946
0.384161 0.566644 0.000000
0.386084 0.567010 0.000000
0.392218 0.567132 0.000000
0.404028 0.567559 0.000000
0.423285 0.568383 0.000000
0.449622 0.570092 0.000000
0.484169 0.573541 0.000000
0.526238 0.578393 0.000000
0.575860 0.584619 0.000000
0.617395 0.584924 0.000000
0.623865 0.579156 0.000000
0.630945 0.572473 0.000000
0.637995 0.564446 0.000000
0.644251 0.554650 0.000000
0.645411 0.540551 0.000000
0.635889 0.520256 0.116213
0.623102 0.498878 0.173037
0.624903 0.491341 0.217990
0.664088 0.506920 0.246799
0.714504 0.526146 0.263859
0.760128 0.544640 0.283696
0.801724 0.563195 0.305699
0.838834 0.581537 0.329503
0.871580 0.599725 0.354223
0.899718 0.617548 0.379706
0.923735 0.634943 0.405249
0.943969 0.651789 0.430793
0.961669 0.661860 0.452033
0.977325 0.669245 0.471565
0.990875 0.677424 0.491463
1.000000 0.686061 0.511315
1.000000 0.695216 0.531243
0.434760 0.616541 0.000000
0.436439 0.616571 0.000000
0.441321 0.616663 0.000000
0.452705 0.617121 0.000000
0.469764 0.617884 0.000000
0.493690 0.619409 0.000000
0.524376 0.621820 0.000000
0.561975 0.625116 0.000000
0.605493 0.629358 0.000000
0.654414 0.634333 0.000000
0.672694 0.628077 0.000000
0.678065 0.621485 0.000000
0.683467 0.613794 0.000000
0.688319 0.604578 0.000000
0.692622 0.593683 0.000000
0.691157 0.578515 0.043519
0.682124 0.559350 0.151949
0.670497 0.539544 0.201175
0.668330 0.529747 0.244663
0.696345 0.541741 0.281163
0.742733 0.560754 0.300908
0.785428 0.579553 0.322911
0.823758 0.598047 0.346288
0.857664 0.616266 0.371038
0.887114 0.633967 0.396094
0.912261 0.651270 0.421729
0.933715 0.667903 0.447089
0.951873 0.683803 0.472053
0.967132 0.699092 0.496712
0.981048 0.706691 0.515465
0.993256 0.713619 0.533501
1.000000 0.720790 0.551324
0.485115 0.661769 0.000000
0.486519 0.662257 0.000000
0.531823 0.695674 0.000000
0.541344 0.695979 0.000000
0.556268 0.696437 0.000000
0.576776 0.697108 0.000000
0.602777 0.698177 0.000000
0.635309 0.699977 0.000000
0.672877 0.702693 0.000000
0.715602 0.706172 0.000000
0.753780 0.704860 0.000000
0.756741 0.698085 0.000000
0.759213 0.689815 0.000000
0.761135 0.679927 0.088167
0.762203 0.668452 0.124666
0.762539 0.655329 0.148440
0.757046 0.638087 0.185916
0.745663 0.618189 0.228611
0.732570 0.598047 0.264103
0.725307 0.585077 0.300023
0.742550 0.593530 0.340398
0.783169 0.611017 0.361120
0.819883 0.628077 0.383032
0.852201 0.644434 0.405585
0.880186 0.659602 0.427466
0.904326 0.674128 0.449134
0.925200 0.688014 0.470436
0.943267 0.701534 0.492012
0.959045 0.714748 0.513451
0.972534 0.727565 0.534783
0.984131 0.739040 0.554986
0.995148 0.744289 0.570489
0.543359 0.710048 0.000000
0.548028 0.712947 0.000000
0.556085 0.716060 0.000000
0.568017 0.718929 0.000000
0.583276 0.721279 0.000000
0.602228 0.722683 0.000000
0.625574 0.723751 0.000000
0.653712 0.725032 0.000000
0.686458 0.726894 0.000000
0.723476 0.729335 0.000000
0.764004 0.732387 0.000000
0.781949 0.726528 0.019074
0.783902 0.719173 0.104036
0.785458 0.710689 0.136385
0.786648 0.700954 0.159457
0.787381 0.689845 0.178103
0.787930 0.677668 0.193088
0.782681 0.662074 0.225772
0.773190 0.644800 0.263676
0.762539 0.627802 0.297093
0.754482 0.615076 0.330541
0.766781 0.623499 0.375647
0.804593 0.641077 0.397589
0.838071 0.657527 0.419562
0.867185 0.672633 0.440864
0.892363 0.686915 0.461982
0.914183 0.700404 0.482673
0.933257 0.713375 0.503288
0.949950 0.725948 0.523644
0.964477 0.738064 0.543908
0.976867 0.749569 0.563806
0.987366 0.760250 0.582910
0.578943 0.737911 0.062287
0.583581 0.740597 0.090913
0.591272 0.743648 0.105226
0.601648 0.746334 0.117556
0.615686 0.748623 0.124788
0.632410 0.749874 0.128450
0.652613 0.750790 0.128664
0.676905 0.751644 0.129061
0.705440 0.752956 0.131167
0.737636 0.754665 0.133455
0.772976 0.756863 0.138186
0.807370 0.756710 0.149325
0.810666 0.749508 0.170993
0.812192 0.742367 0.189334
0.813260 0.734066 0.205570
0.814176 0.724819 0.219089
0.814847 0.714412 0.230869
0.815488 0.703151 0.240909
0.810178 0.688991 0.270481
0.801999 0.673884 0.303807
0.792569 0.658961 0.334386
0.783688 0.646235 0.364538
0.793759 0.654597 0.409583
0.824857 0.670375 0.434333
0.854856 0.685634 0.455390
0.881010 0.699702 0.475715
0.903716 0.712795 0.495552
0.923705 0.725246 0.514946
0.941283 0.737240 0.534386
0.956695 0.748684 0.553643
0.969940 0.759518 0.572503
0.981170 0.769436 0.590570
0.615656 0.765072 0.166720
0.619532 0.767330 0.174411
0.626062 0.769711 0.182010
0.635218 0.771878 0.189578
0.647150 0.773678 0.194858
0.661677 0.774716 0.197391
0.679286 0.775509 0.198489
0.700282 0.776150 0.199924
0.725063 0.777218 0.202090
0.753170 0.778470 0.205417
0.784207 0.780087 0.210056
0.817044 0.781979 0.215885
0.835691 0.777371 0.227207
0.836820 0.771237 0.240085
0.837919 0.764401 0.252567
0.839200 0.756954 0.263584
0.840635 0.749050 0.274998
0.842374 0.740627 0.285954
0.844480 0.732143 0.297307
0.840879 0.721370 0.327825
0.835264 0.710353 0.360754
0.828641 0.699672 0.391608
0.820798 0.689296 0.419623
0.829160 0.697993 0.463874
0.852476 0.712306 0.492103
0.878508 0.726680 0.512840
0.901183 0.739437 0.531914
0.920958 0.751095 0.550164
0.938293 0.761959 0.568139
0.953368 0.772000 0.585565
0.966217 0.781308 0.602564
0.976959 0.789853 0.619257
0.670558 0.802365 0.270634
0.672450 0.803159 0.273289
0.675807 0.803799 0.275639
0.681453 0.804257 0.277104
0.689906 0.804562 0.278019
0.700893 0.804562 0.278050
0.715023 0.804623 0.278538
0.732631 0.804959 0.279698
0.753597 0.805539 0.281651
0.777584 0.806577 0.285618
0.803922 0.807828 0.290593
0.832120 0.809293 0.296269
0.860838 0.810239 0.302434
0.865049 0.803403 0.312413
0.865934 0.797696 0.320256
0.866819 0.791409 0.328008
0.867735 0.784512 0.335363
0.868772 0.777188 0.342779
0.870115 0.769497 0.350103
0.871672 0.761440 0.357305
0.867124 0.751186 0.383764
0.861265 0.740871 0.410651
0.854520 0.730556 0.435920
0.846525 0.720302 0.459297
0.851286 0.725643 0.496986
0.868467 0.737087 0.524346
0.892088 0.749996 0.543206
0.912779 0.761624 0.561120
0.930907 0.772183 0.578332
0.946654 0.781704 0.594903
0.959991 0.790463 0.611200
0.971252 0.798459 0.627100
0.702510 0.823270 0.323430
0.703975 0.823850 0.325383
0.706996 0.824369 0.327581
0.711971 0.824765 0.329046
0.719081 0.825010 0.330175
0.728542 0.825101 0.330846
0.740688 0.825162 0.331548
0.755795 0.825406 0.332769
0.773709 0.825864 0.335180
0.794308 0.826596 0.338994
0.816953 0.827604 0.343664
0.841367 0.828702 0.349248
0.867033 0.829892 0.354955
0.884794 0.826535 0.363287
0.885649 0.821927 0.370397
0.886656 0.816892 0.377050
0.887724 0.811460 0.383795
0.888914 0.805570 0.390326
0.890288 0.799435 0.396796
0.891814 0.792935 0.403296
0.893492 0.786191 0.410193
0.889036 0.777584 0.435401
0.883818 0.768978 0.459571
0.877958 0.760433 0.482124
0.866392 0.744350 0.489265
0.869139 0.747433 0.521630
0.881834 0.757046 0.549310
0.903563 0.768795 0.566949
0.922728 0.779324 0.583703
0.939330 0.788876 0.600122
0.953521 0.797635 0.616510
0.965515 0.805509 0.632288
0.741421 0.847257 0.393530
0.743282 0.848020 0.396918
0.745632 0.848386 0.398474
0.749081 0.848325 0.398383
0.753902 0.847929 0.397162
0.760678 0.847318 0.395331
0.769436 0.846586 0.393103
0.780728 0.845945 0.391424
0.794644 0.845457 0.390631
0.810971 0.845212 0.390875
0.829313 0.845121 0.391913
0.849760 0.845365 0.394415
0.871611 0.845701 0.397559
0.894560 0.846006 0.400946
0.900114 0.839902 0.405371
0.900481 0.834928 0.408179
0.901030 0.829679 0.411475
0.901915 0.824308 0.415869
0.903166 0.818967 0.421393
0.904784 0.813657 0.428077
0.906645 0.808225 0.434943
0.907958 0.802243 0.443183
0.903807 0.794583 0.466163
0.898802 0.786496 0.486793
0.893004 0.777951 0.505211
0.886229 0.769131 0.522057
0.887205 0.769863 0.548486
0.895537 0.776974 0.574731
0.915160 0.786831 0.590021
0.932341 0.795895 0.605432
0.947143 0.804196 0.620813
0.959747 0.811765 0.636103
0.761990 0.860563 0.426642
0.763607 0.861204 0.429572
0.765805 0.861631 0.431617
0.769100 0.861753 0.432532
0.773800 0.861692 0.432868
0.780179 0.861570 0.432990
0.788602 0.861509 0.433539
0.799252 0.861479 0.434638
0.811917 0.861601 0.436408
0.826505 0.861845 0.439185
0.842710 0.862089 0.442176
0.860502 0.862394 0.445899
0.879393 0.862730 0.449714
0.899443 0.862913 0.453193
0.915892 0.859739 0.457465
0.916289 0.855528 0.459052
0.916808 0.851041 0.460822
0.917571 0.846464 0.463325
0.918669 0.841855 0.467079
0.920043 0.837308 0.471901
0.921691 0.832639 0.477333
0.923461 0.827787 0.482521
0.924285 0.822324 0.490272
0.920653 0.815732 0.509545
0.916442 0.808865 0.527214
0.911650 0.801755 0.543481
0.906249 0.794583 0.558618
0.906218 0.794217 0.580896
0.911284 0.800015 0.606928
0.928283 0.808438 0.621485
0.942992 0.815976 0.635828
0.955627 0.823056 0.650446
0.786648 0.875944 0.472450
0.787442 0.876219 0.473854
0.788968 0.876371 0.474617
0.791501 0.876371 0.475044
0.795315 0.876219 0.475044
0.800626 0.876066 0.474983
0.807614 0.875883 0.475044
0.816434 0.875731 0.475502
0.827024 0.875639 0.476692
0.839384 0.875669 0.478767
0.853361 0.875700 0.481117
0.868772 0.875853 0.484199
0.885344 0.876005 0.487434
0.902831 0.876066 0.490486
0.921202 0.875975 0.493416
0.928191 0.871275 0.496254
0.928771 0.867430 0.497261
0.929564 0.863493 0.498695
0.930602 0.859525 0.501427
0.931914 0.855589 0.504997
0.933379 0.851530 0.509209
0.935027 0.847318 0.513268
0.936736 0.842741 0.516625
0.937102 0.837522 0.523522
0.933806 0.831418 0.539696
0.930114 0.825101 0.554528
0.925902 0.818723 0.568780
0.921202 0.812345 0.582177
0.920348 0.811032 0.601617
0.924132 0.816220 0.627283
0.937835 0.823606 0.643122
0.950896 0.830472 0.657343
0.804715 0.887846 0.504906
0.805386 0.888029 0.505943
0.806760 0.888182 0.506828
0.809079 0.888243 0.507713
0.812711 0.888334 0.508782
0.817929 0.888518 0.510491
0.824979 0.888945 0.513787
0.833646 0.889525 0.518181
0.843900 0.890227 0.523674
0.855528 0.891020 0.529931
0.868437 0.891844 0.536797
0.882170 0.892607 0.543603
0.896696 0.893248 0.550134
0.911742 0.893675 0.555871
0.927398 0.893858 0.560815
0.941253 0.892058 0.564965
0.942809 0.888518 0.566430
0.943725 0.885435 0.567285
0.944762 0.882322 0.568994
0.945953 0.879149 0.571160
0.947326 0.875822 0.573724
0.948791 0.872343 0.576226
0.950347 0.868559 0.577935
0.951934 0.864469 0.579156
0.952026 0.859800 0.584192
0.949462 0.854643 0.596033
0.946502 0.849393 0.607599
0.943145 0.844175 0.618921
0.939483 0.839170 0.630549
0.937926 0.837491 0.646693
0.940490 0.841825 0.669917
0.949462 0.847166 0.685206
0.830625 0.903593 0.563287
0.830808 0.903593 0.563287
0.831601 0.903532 0.563195
0.833219 0.903441 0.563073
0.835843 0.903319 0.563012
0.839628 0.903166 0.563226
0.844663 0.903044 0.563897
0.851072 0.902983 0.565026
0.858732 0.902922 0.566857
0.867735 0.902922 0.569207
0.877897 0.902922 0.572076
0.889128 0.902953 0.575311
0.901305 0.902892 0.578759
0.914275 0.902800 0.582116
