20 Preset/Scenery style/【3】LUT video cho PR-AE-FCPX/Scenery LUT (2).cube
# Created by Adobe Lightroom plugin Export LUT (1.24.0)
# www.johnrellis.com/lightroom/exportlut.htm
# Preset: 暗青风光-素材江湖02
# Color profile: C:\Program Files (x86)\Common Files\Adobe\Color\Profiles\Recommended\VideoHD.icc
LUT_3D_SIZE 8
DOMAIN_MIN 0.000000 0.000000 0.000000
DOMAIN_MAX 0.903226 0.903226 0.903226
0.063966 0.104799 0.114015
0.098329 0.111666 0.123629
0.205783 0.125551 0.143130
0.414710 0.092134 0.134127
0.672816 0.000000 0.129458
0.879637 0.000000 0.134585
1.000000 0.208133 0.206485
1.000000 0.346471 0.295903
0.072358 0.127962 0.129244
0.095094 0.129366 0.132174
0.185763 0.147433 0.137453
0.368109 0.146365 0.129122
0.619867 0.106416 0.119936
0.843442 0.079408 0.122835
0.990356 0.202213 0.179660
1.000000 0.325597 0.263523
0.120974 0.209995 0.162020
0.145968 0.209689 0.166323
0.187991 0.211612 0.163455
0.377752 0.249638 0.118471
0.607141 0.272282 0.088930
0.856870 0.305089 0.115389
1.000000 0.369635 0.209079
1.000000 0.442206 0.305394
0.217319 0.369451 0.214572
0.244144 0.366949 0.218235
0.326207 0.375128 0.230289
0.458564 0.428901 0.243809
0.722957 0.499886 0.182803
0.872404 0.505913 0.131350
0.982483 0.519829 0.210575
1.000000 0.545953 0.309697
0.441108 0.613153 0.358953
0.461860 0.612696 0.364050
0.543938 0.619623 0.394781
0.628382 0.639246 0.412482
0.685115 0.630579 0.405524
0.813413 0.640558 0.376318
0.940185 0.642023 0.303563
1.000000 0.645075 0.288731
0.622461 0.752071 0.528985
0.646784 0.762142 0.546715
0.686854 0.764157 0.562829
0.745846 0.769406 0.588617
0.783383 0.774411 0.578668
0.816861 0.766232 0.574792
0.889555 0.775967 0.580407
0.985748 0.770108 0.501823
0.755612 0.846677 0.656947
0.762936 0.848081 0.661646
0.781582 0.847318 0.668391
0.815427 0.847898 0.684810
0.842649 0.847807 0.687800
0.868498 0.850065 0.681270
0.890013 0.842802 0.677394
0.925505 0.841550 0.685420
0.838041 0.902251 0.754299
0.840330 0.902068 0.755184
0.850797 0.901915 0.760525
0.869902 0.902098 0.772000
0.884306 0.894255 0.766995
0.901335 0.897520 0.767025
0.918914 0.898558 0.765530
0.932067 0.890959 0.757504
0.071931 0.120272 0.139681
0.093050 0.115663 0.142336
0.170230 0.130587 0.156527
0.316564 0.136141 0.164675
0.571679 0.084871 0.170230
0.809537 0.000000 0.189731
0.963134 0.194095 0.235782
1.000000 0.317479 0.299626
0.055024 0.127749 0.140719
0.088869 0.129732 0.141939
0.158755 0.147829 0.157534
0.308080 0.157351 0.161868
0.555871 0.140993 0.166720
0.797604 0.134615 0.185183
0.944152 0.209812 0.222965
1.000000 0.309514 0.279179
0.100649 0.193362 0.175937
0.121492 0.194369 0.179355
0.159854 0.197971 0.182162
0.312779 0.229038 0.159823
0.547021 0.255070 0.152499
0.793820 0.286412 0.175357
0.943938 0.332525 0.226261
1.000000 0.406561 0.299718
0.172702 0.323308 0.221622
0.198398 0.323674 0.225223
0.282109 0.338170 0.242771
0.366155 0.361883 0.245243
0.611841 0.427680 0.199161
0.784939 0.445167 0.150912
0.924468 0.465583 0.204929
1.000000 0.503990 0.288853
0.402197 0.585229 0.358373
0.420203 0.582483 0.360540
0.497230 0.585107 0.382696
0.577386 0.596796 0.393469
0.628565 0.583337 0.379004
0.768887 0.601740 0.355413
0.909850 0.613306 0.296727
0.999115 0.621973 0.276188
0.586938 0.728695 0.511009
0.599329 0.729946 0.516014
0.644312 0.733700 0.534539
0.714382 0.743313 0.568597
0.757076 0.752499 0.563134
0.798001 0.750820 0.566918
0.876402 0.763699 0.572290
0.976257 0.759915 0.495735
0.732570 0.832883 0.639582
0.735103 0.831052 0.638453
0.755245 0.830106 0.644984
0.794614 0.832761 0.664637
0.829496 0.836851 0.675990
0.856931 0.839872 0.669764
0.877806 0.830655 0.662104
0.916625 0.829557 0.667353
0.827054 0.896757 0.742702
0.831266 0.897551 0.746242
0.842130 0.897307 0.751308
0.862791 0.897917 0.763729
0.887205 0.897887 0.778561
0.901518 0.898589 0.773495
0.917357 0.897826 0.766934
0.930480 0.890227 0.758511
0.032258 0.144015 0.223331
0.082979 0.138399 0.228702
0.162905 0.133791 0.227298
0.282658 0.145480 0.238224
0.516472 0.160983 0.282811
0.778561 0.259098 0.362249
0.932677 0.381109 0.431556
1.000000 0.481514 0.488869
0.081300 0.159884 0.211856
0.095583 0.158419 0.213321
0.149599 0.154360 0.215976
0.264439 0.168246 0.234257
0.492500 0.194217 0.280278
0.761013 0.267369 0.349584
0.917998 0.367590 0.409430
1.000000 0.465553 0.467720
0.039918 0.194034 0.214145
0.084627 0.195712 0.215091
0.151156 0.215610 0.233707
0.270481 0.228885 0.242466
0.519951 0.276860 0.285344
0.766629 0.347051 0.345220
0.915312 0.426307 0.406073
1.000000 0.507042 0.466590
0.000000 0.312108 0.244755
0.077882 0.316808 0.257359
0.240024 0.335760 0.296666
0.334905 0.362860 0.318883
0.568994 0.429755 0.313939
0.764584 0.464515 0.319310
0.907866 0.519524 0.393011
0.997864 0.575311 0.459724
0.328374 0.553368 0.399573
0.353094 0.555047 0.404425
0.442084 0.565789 0.428382
0.551354 0.588769 0.465644
0.606531 0.589258 0.461707
0.748928 0.616266 0.448371
0.884825 0.631250 0.415656
0.980652 0.652552 0.430823
0.552239 0.711818 0.537163
0.566247 0.714351 0.542718
0.611231 0.718624 0.558312
0.682277 0.728267 0.587976
0.730587 0.738399 0.592584
0.773617 0.742397 0.598718
0.861357 0.765103 0.607904
0.959289 0.773037 0.568536
0.724910 0.832395 0.663905
0.727932 0.831022 0.663355
0.745907 0.829038 0.667170
0.783139 0.830564 0.682582
0.822141 0.834653 0.698756
0.850248 0.840269 0.696071
0.873289 0.836423 0.696162
0.915129 0.840513 0.703670
0.822782 0.896727 0.755154
0.824460 0.896147 0.754940
0.835355 0.895872 0.759579
0.858366 0.897948 0.774441
0.882841 0.898161 0.788571
0.899657 0.899779 0.790066
0.915190 0.900175 0.785428
0.927459 0.893523 0.778225
0.000000 0.160555 0.352422
0.000000 0.161410 0.357794
0.153384 0.156924 0.357549
0.280247 0.148409 0.351232
0.446906 0.154391 0.365423
0.712978 0.238590 0.445075
0.865110 0.427924 0.531579
0.956023 0.573114 0.611810
0.000000 0.192081 0.341955
0.034760 0.191165 0.343389
0.157900 0.184146 0.346075
0.275792 0.173373 0.346746
0.450019 0.185000 0.369879
0.709560 0.276616 0.450813
0.857755 0.449958 0.537072
0.954009 0.575463 0.609003
0.114595 0.244388 0.314336
0.127108 0.245151 0.315312
0.165927 0.243076 0.320958
0.255070 0.233433 0.329290
0.462226 0.283543 0.389899
0.712398 0.412604 0.491829
0.864073 0.558587 0.588281
0.959686 0.622248 0.626978
0.000000 0.320104 0.345068
0.000000 0.320928 0.345037
0.174624 0.333806 0.354986
0.331090 0.395422 0.409430
0.505211 0.425360 0.430915
0.697597 0.497292 0.489967
0.847990 0.577966 0.555352
0.951934 0.643885 0.606348
0.000000 0.536156 0.425666
0.000000 0.534752 0.426459
0.279301 0.541955 0.442908
0.493141 0.573114 0.515923
0.573541 0.591821 0.537530
0.714992 0.626612 0.537560
0.851652 0.652552 0.535210
0.948028 0.699855 0.592889
0.479042 0.705379 0.562066
0.512932 0.714168 0.578912
0.573571 0.713954 0.599664
0.653132 0.728023 0.627497
0.721462 0.743862 0.652216
0.754879 0.745632 0.651362
0.847929 0.773770 0.658991
0.938720 0.787167 0.643610
0.695399 0.825681 0.685756
0.703090 0.826932 0.688960
0.729061 0.829435 0.698482
0.771908 0.834440 0.716426
0.819364 0.840787 0.739986
0.844968 0.845396 0.739345
0.864775 0.842191 0.737057
0.910369 0.850340 0.742031
0.819150 0.900053 0.779995
0.821592 0.899870 0.780728
0.832334 0.899626 0.784695
0.852445 0.899962 0.794034
0.876829 0.900206 0.806332
0.896574 0.901457 0.813657
0.911467 0.903136 0.810666
0.923064 0.898833 0.807248
0.000000 0.215702 0.515923
0.000000 0.216739 0.520317
0.166262 0.212253 0.520897
0.313848 0.193851 0.525719
0.485634 0.172854 0.532860
0.666011 0.211368 0.542718
0.817350 0.349615 0.573449
0.933165 0.539757 0.648859
0.000000 0.248478 0.510552
0.037415 0.249546 0.515709
0.190249 0.242588 0.517601
0.315160 0.221256 0.518639
0.484779 0.205753 0.531060
0.661433 0.244755 0.541802
0.813535 0.376043 0.576898
0.929503 0.554040 0.652186
0.171420 0.325383 0.486030
0.183200 0.324102 0.487343
0.227054 0.315190 0.488563
0.324804 0.306432 0.505547
0.462654 0.291295 0.511192
0.624292 0.325383 0.523980
0.791684 0.452461 0.583154
0.912291 0.593103 0.657038
0.232425 0.409003 0.490089
0.249821 0.410895 0.489113
0.307530 0.422675 0.491127
0.363165 0.426703 0.506828
0.466896 0.413611 0.516930
0.620203 0.459358 0.542901
0.786831 0.582055 0.623224
0.902892 0.681758 0.691890
0.118257 0.496803 0.510063
0.161440 0.498299 0.510887
0.262089 0.502068 0.512383
0.379553 0.519219 0.524590
0.518761 0.568688 0.564996
0.647486 0.597528 0.586175
0.793606 0.656733 0.633570
0.906737 0.715084 0.680446
0.152468 0.641871 0.539635
0.205692 0.642725 0.541588
0.324010 0.642695 0.546319
0.469398 0.655879 0.571283
0.621271 0.679927 0.626184
0.698177 0.712001 0.658076
0.815732 0.754116 0.673976
0.914336 0.774594 0.671595
0.542138 0.807767 0.648707
0.548486 0.806149 0.648371
0.600610 0.803128 0.662959
0.695857 0.807523 0.702846
0.771786 0.821653 0.735470
0.820737 0.833219 0.756283
0.842344 0.833219 0.754452
0.898955 0.845762 0.755184
0.760739 0.892027 0.763729
0.766751 0.891508 0.766690
0.790311 0.890257 0.778744
0.824430 0.894499 0.795804
0.857389 0.896513 0.811185
0.888029 0.899168 0.828733
0.903380 0.901793 0.827024
0.914611 0.898344 0.823514
0.191836 0.320348 0.668299
0.216007 0.321538 0.670069
0.280491 0.314427 0.667994
0.392432 0.309636 0.676936
0.533165 0.289982 0.689845
0.679561 0.284154 0.684352
0.808408 0.353246 0.676967
0.912840 0.482033 0.694972
0.208377 0.335668 0.650996
0.224155 0.334295 0.650935
0.281071 0.327764 0.651179
0.385107 0.322972 0.661891
0.514824 0.300237 0.672023
0.659968 0.293309 0.668971
0.791287 0.356725 0.664698
0.901671 0.479164 0.685878
0.323827 0.437079 0.652338
0.331609 0.435981 0.652949
0.366918 0.432959 0.657130
0.421790 0.413336 0.656123
0.520623 0.389105 0.661646
0.649592 0.379461 0.660212
0.777188 0.435340 0.663294
0.892638 0.540551 0.694392
0.425971 0.543359 0.649073
0.429084 0.541619 0.647395
0.453620 0.543603 0.647913
0.494759 0.543633 0.658778
0.557092 0.527886 0.665980
0.654261 0.512078 0.665309
0.770718 0.554711 0.677119
0.891661 0.643580 0.722652
0.416266 0.580804 0.633295
0.425055 0.581415 0.632380
0.460334 0.586358 0.630701
0.519005 0.600549 0.631952
0.556268 0.600855 0.641566
0.625818 0.586145 0.645991
0.741360 0.619013 0.665919
0.878508 0.719539 0.737087
0.352087 0.639796 0.634516
0.372015 0.644099 0.637903
0.412848 0.643702 0.636622
0.477363 0.646143 0.637049
0.554376 0.655970 0.643580
0.663111 0.698451 0.679103
0.789578 0.745602 0.718593
0.891173 0.795560 0.763027
0.386511 0.783322 0.684321
0.407416 0.785672 0.687037
0.464668 0.786709 0.689235
0.556176 0.790494 0.696498
0.665339 0.801114 0.716182
0.789212 0.823209 0.768948
0.828641 0.833738 0.782620
0.895872 0.852201 0.786984
0.641444 0.891844 0.748013
0.645441 0.890867 0.747555
0.671870 0.889677 0.751583
0.727474 0.890532 0.767453
0.812589 0.890013 0.806088
0.866178 0.895445 0.832853
0.894957 0.901122 0.847257
0.906889 0.900084 0.844846
0.393072 0.451850 0.768307
0.398749 0.449622 0.767697
0.433173 0.449134 0.770352
0.492683 0.442817 0.773892
0.573877 0.424079 0.777157
0.680720 0.390021 0.781521
0.799924 0.403754 0.776822
0.897520 0.471260 0.770443
0.427558 0.485695 0.772152
0.430762 0.482399 0.771084
0.459388 0.480018 0.773251
0.512047 0.472419 0.776730
0.588922 0.455390 0.781094
0.692439 0.425727 0.786923
0.808347 0.440375 0.783780
0.903380 0.505028 0.779294
0.476753 0.547570 0.760983
0.481147 0.546746 0.761379
0.502007 0.544671 0.764065
0.541100 0.536767 0.767727
0.604547 0.522911 0.773312
0.692653 0.495796 0.778927
0.795010 0.495064 0.774289
0.887205 0.540429 0.770901
0.534630 0.620752 0.747372
0.535882 0.618982 0.747066
0.549493 0.617945 0.750179
0.573053 0.610437 0.752987
0.617639 0.599054 0.758480
0.685542 0.576318 0.763333
0.775448 0.566003 0.760861
0.871092 0.602625 0.766506
0.584222 0.683070 0.742763
0.589197 0.685176 0.744442
0.602686 0.687922 0.747189
0.622522 0.688075 0.749813
0.647425 0.679957 0.754604
0.694850 0.664088 0.760678
0.772244 0.650813 0.761746
0.863432 0.678370 0.771084
0.577539 0.726192 0.752560
0.581903 0.726345 0.752163
0.600671 0.727840 0.751217
0.633570 0.730953 0.749569
0.678157 0.738582 0.748898
0.704799 0.733822 0.754086
0.762234 0.719387 0.757229
0.859007 0.753628 0.779507
0.524193 0.778256 0.757992
0.527916 0.777279 0.756954
0.551202 0.777432 0.756741
0.591547 0.777493 0.756008
0.647669 0.780545 0.757717
0.713130 0.788602 0.763912
0.789395 0.811002 0.784085
0.884306 0.853513 0.825284
0.514122 0.886381 0.795468
0.519493 0.886015 0.795071
0.536706 0.883177 0.791684
0.605035 0.882322 0.792813
0.702052 0.883940 0.800839
0.796475 0.889097 0.819333
0.881346 0.900053 0.860319
0.902373 0.904845 0.868803
0.637995 0.659052 0.874846
0.639826 0.657404 0.874662
0.654444 0.656916 0.876432
0.678004 0.649744 0.877836
0.716854 0.638178 0.880522
0.772885 0.620172 0.884581
0.846159 0.589319 0.888945
0.924712 0.608667 0.886107
0.651240 0.674861 0.876036
0.652674 0.673121 0.875761
0.664637 0.671046 0.876982
0.687221 0.664576 0.878721
0.723873 0.653193 0.881468
0.777432 0.635676 0.885557
0.848905 0.607507 0.890501
0.925780 0.626307 0.888365
0.676722 0.711086 0.873106
0.678553 0.710201 0.873228
0.688685 0.708644 0.874693
0.703639 0.699153 0.875090
0.735958 0.690181 0.878569
0.784024 0.676020 0.883482
0.848386 0.650355 0.888457
0.921202 0.661769 0.887114
0.711513 0.759335 0.868589
0.712154 0.758175 0.868528
0.718868 0.756435 0.869780
0.730739 0.750515 0.871214
0.753506 0.741726 0.874113
0.790616 0.728695 0.878538
0.845090 0.706752 0.883482
0.912383 0.709071 0.883299
0.746517 0.804562 0.865324
0.747250 0.804044 0.865141
0.754696 0.805203 0.866697
0.762997 0.802274 0.868528
0.777829 0.796597 0.871916
0.803983 0.787259 0.876555
0.846067 0.770474 0.881437
0.905241 0.765164 0.881926
0.770169 0.838102 0.864897
0.773556 0.839353 0.865415
0.784878 0.843015 0.866453
0.796414 0.845243 0.868559
0.808255 0.844724 0.871366
0.819181 0.835874 0.873136
0.844633 0.820768 0.875608
0.895872 0.812528 0.877501
0.755489 0.862455 0.872648
0.758480 0.862974 0.872892
0.770352 0.864988 0.873625
0.789487 0.867430 0.873777
0.815579 0.871336 0.874052
0.844511 0.876493 0.873991
0.861234 0.874754 0.878386
0.896056 0.867155 0.882048
0.729397 0.900633 0.881895
0.733242 0.900969 0.882231
0.745144 0.901244 0.882414
0.763577 0.900542 0.881315
0.791714 0.900420 0.880705
0.826596 0.901457 0.881132
0.863035 0.903532 0.882536
0.899443 0.909270 0.888090
