20 Preset/Scenery style/【3】LUT video cho PR-AE-FCPX/Scenery LUT (6).cube
# Created by Adobe Lightroom plugin Export LUT (1.24.0)
# www.johnrellis.com/lightroom/exportlut.htm
# Preset: 暗青风光-素材江湖06
# Color profile: C:\Program Files (x86)\Common Files\Adobe\Color\Profiles\Recommended\VideoHD.icc
LUT_3D_SIZE 5
DOMAIN_MIN 0.000000 0.000000 0.000000
DOMAIN_MAX 0.903226 0.903226 0.903226
0.063966 0.104799 0.114015
0.090822 0.111818 0.120638
0.150454 0.150729 0.136446
0.328405 0.229343 0.114199
0.680323 0.405402 0.000000
0.095918 0.132265 0.134249
0.110140 0.142061 0.139620
0.194888 0.185183 0.140566
0.409583 0.278630 0.086915
0.700679 0.430579 0.000000
0.234745 0.251652 0.157198
0.269993 0.273899 0.155306
0.328679 0.297276 0.150454
0.537285 0.407477 0.126772
0.808377 0.563104 0.000000
0.601892 0.547692 0.178012
0.615534 0.554711 0.182010
0.668330 0.582116 0.203555
0.751827 0.626490 0.256748
0.872007 0.719997 0.402869
0.875669 0.816037 0.534905
0.879240 0.817990 0.539849
0.904845 0.839902 0.589258
0.920745 0.845701 0.611078
0.941222 0.857267 0.651759
0.049989 0.140261 0.190249
0.091524 0.139193 0.177615
0.169284 0.171450 0.163455
0.442817 0.289525 0.095766
0.769894 0.467536 0.000000
0.096559 0.154971 0.174929
0.108614 0.161135 0.176272
0.203403 0.202853 0.176089
0.501427 0.333898 0.046693
0.792416 0.496162 0.000000
0.231449 0.269047 0.220645
0.259281 0.285405 0.222446
0.369360 0.340490 0.211948
0.621057 0.468421 0.137911
0.834592 0.587610 0.000000
0.586786 0.553552 0.295842
0.601404 0.559930 0.291386
0.666804 0.591058 0.276249
0.765560 0.638636 0.271397
0.879973 0.730159 0.420050
0.878630 0.819242 0.541436
0.882689 0.821805 0.547601
0.895293 0.828153 0.564904
0.916320 0.839506 0.597375
0.938323 0.851713 0.638514
0.000000 0.206516 0.430701
0.000000 0.212589 0.409857
0.158999 0.228641 0.360266
0.313390 0.279240 0.333318
0.687373 0.470924 0.334447
0.000000 0.238651 0.379522
0.090822 0.244297 0.376806
0.192569 0.258000 0.357214
0.369451 0.335668 0.366461
0.707485 0.506279 0.357855
0.214847 0.321904 0.366430
0.235080 0.331640 0.370031
0.324285 0.388983 0.403479
0.514672 0.474647 0.416114
0.797787 0.632898 0.439063
0.531121 0.568933 0.503349
0.559228 0.590021 0.518059
0.610651 0.618402 0.529625
0.702113 0.666896 0.546838
0.870878 0.770871 0.584009
0.863645 0.841245 0.688258
0.867185 0.841917 0.685847
0.883970 0.846708 0.678981
0.915404 0.854154 0.661006
0.944244 0.861814 0.663844
0.195560 0.416449 0.701625
0.226322 0.418524 0.693721
0.335790 0.444678 0.679957
0.457008 0.480598 0.657679
0.609400 0.536309 0.642359
0.304936 0.464027 0.693477
0.327092 0.470222 0.691646
0.397406 0.490211 0.681758
0.495705 0.520531 0.664088
0.631312 0.568902 0.650111
0.457740 0.562493 0.676051
0.467018 0.564782 0.672816
0.500206 0.573999 0.664454
0.550866 0.584192 0.650446
0.685481 0.646784 0.661158
0.558282 0.639307 0.657221
0.569818 0.646326 0.660731
0.597162 0.658991 0.661952
0.664302 0.699519 0.680049
0.832395 0.798611 0.732357
0.824369 0.848508 0.798795
0.833951 0.853452 0.804410
0.853330 0.863371 0.807797
0.881498 0.876524 0.809232
0.914946 0.888914 0.809537
0.639765 0.716365 0.874418
0.646021 0.718929 0.873686
0.672236 0.730251 0.871580
0.714687 0.748013 0.867063
0.767330 0.768917 0.860319
0.656001 0.729000 0.871946
0.661524 0.731197 0.871427
0.684016 0.740444 0.869413
0.722347 0.755703 0.865141
0.771908 0.774716 0.858946
0.706050 0.769558 0.868681
0.709133 0.770352 0.867979
0.724208 0.775631 0.866148
0.751675 0.784970 0.862333
0.793423 0.799863 0.858366
0.773983 0.824338 0.867155
0.775143 0.824338 0.866758
0.782528 0.826413 0.866484
0.801114 0.832639 0.866026
0.835111 0.844968 0.864561
0.840208 0.877012 0.874022
0.841398 0.877379 0.873716
0.847807 0.879911 0.873259
0.859678 0.884184 0.871397
0.881224 0.892973 0.869718
