20 Preset/Scenery style/【3】LUT video cho PR-AE-FCPX/Scenery LUT (2).cube
# Created by Adobe Lightroom plugin Export LUT (1.24.0)
# www.johnrellis.com/lightroom/exportlut.htm
# Preset: 暗青风光-素材江湖02
# Color profile: C:\Program Files (x86)\Common Files\Adobe\Color\Profiles\Recommended\VideoHD.icc
LUT_3D_SIZE 5
DOMAIN_MIN 0.000000 0.000000 0.000000
DOMAIN_MAX 0.903226 0.903226 0.903226
0.063966 0.104799 0.114015
0.171450 0.124453 0.141787
0.547478 0.000000 0.131868
0.934051 0.000000 0.146914
1.000000 0.346471 0.295903
0.109865 0.187747 0.153262
0.160922 0.188602 0.154696
0.499031 0.234287 0.101198
0.912718 0.278264 0.141115
1.000000 0.428656 0.312291
0.330510 0.505852 0.278569
0.420233 0.504845 0.299107
0.605737 0.555261 0.327672
0.881804 0.574395 0.224857
1.000000 0.590387 0.289677
0.676661 0.790646 0.580652
0.708492 0.792386 0.593347
0.787991 0.798703 0.621057
0.840269 0.790494 0.605463
0.975280 0.791501 0.542962
0.838041 0.902251 0.754299
0.847257 0.901915 0.758602
0.870817 0.893980 0.758083
0.906310 0.898558 0.767056
0.932067 0.890959 0.757504
0.055024 0.139681 0.195010
0.142428 0.129000 0.203006
0.389471 0.150607 0.233768
0.823484 0.231754 0.321782
1.000000 0.417823 0.422736
0.051942 0.174899 0.193179
0.129152 0.188479 0.205447
0.377600 0.220188 0.230259
0.815915 0.311498 0.310918
1.000000 0.461311 0.420661
0.218235 0.432624 0.312078
0.316258 0.441321 0.331090
0.478187 0.471015 0.356939
0.799374 0.534783 0.315221
1.000000 0.610681 0.420081
0.646418 0.775418 0.596612
0.681270 0.779446 0.610101
0.771359 0.789639 0.645869
0.820981 0.783902 0.631769
0.960510 0.796048 0.589441
0.832914 0.901274 0.763149
0.841794 0.900755 0.766598
0.875181 0.900542 0.784207
0.906615 0.902403 0.790127
0.930358 0.896513 0.782559
0.000000 0.184787 0.433722
0.110353 0.182895 0.436805
0.370520 0.156039 0.434791
0.723720 0.247745 0.495521
0.943023 0.565667 0.633417
0.111940 0.266789 0.403479
0.164492 0.259159 0.405432
0.359655 0.239353 0.423499
0.708614 0.354833 0.506920
0.932982 0.620478 0.654810
0.000000 0.407324 0.428748
0.170626 0.410773 0.429572
0.427680 0.485451 0.491402
0.702174 0.565332 0.553521
0.927489 0.684138 0.648157
0.443610 0.729335 0.578363
0.504448 0.722530 0.591241
0.681147 0.745113 0.658961
0.769924 0.765957 0.684962
0.919219 0.797024 0.674372
0.795193 0.893553 0.772885
0.808957 0.894377 0.778927
0.851957 0.896422 0.798672
0.894560 0.899321 0.817502
0.917784 0.896513 0.810636
0.218692 0.334539 0.681971
0.279973 0.333867 0.684749
0.461769 0.324895 0.700404
0.699672 0.298894 0.699672
0.900938 0.460548 0.703822
0.313634 0.420478 0.671077
0.347173 0.417639 0.674159
0.469581 0.396490 0.682551
0.675105 0.362646 0.680079
0.883879 0.500420 0.698817
0.453101 0.572992 0.650690
0.474037 0.577752 0.653773
0.527123 0.573297 0.661006
0.662226 0.553582 0.672572
0.868376 0.646082 0.720058
0.411749 0.680232 0.669612
0.437171 0.676234 0.665431
0.536400 0.680476 0.666651
0.692378 0.724605 0.702663
0.883330 0.802457 0.770718
0.611292 0.890135 0.754635
0.640925 0.889738 0.758572
0.743893 0.891783 0.782193
0.872160 0.898039 0.842588
0.905089 0.900664 0.850156
0.637995 0.659052 0.874846
0.649958 0.657465 0.876005
0.695155 0.644373 0.878904
0.789425 0.613642 0.885557
0.924712 0.608667 0.886107
0.667750 0.699001 0.873503
0.676448 0.696681 0.874449
0.713710 0.684474 0.877745
0.796109 0.656855 0.884855
0.921569 0.646876 0.886198
0.730434 0.783627 0.866423
0.736233 0.783261 0.868070
0.757137 0.776425 0.872374
0.810513 0.759396 0.880613
0.909209 0.738430 0.883116
0.762661 0.840177 0.864408
0.773220 0.843107 0.865263
0.804044 0.850187 0.866484
0.829221 0.845243 0.873655
0.895995 0.827939 0.878904
0.729397 0.900633 0.881895
0.741543 0.901244 0.882444
0.776242 0.900237 0.880766
0.835599 0.901823 0.881315
0.899443 0.909270 0.888090
