20 Preset/Scenery style/【3】LUT video cho PR-AE-FCPX/Scenery LUT (6).cube
# Created by Adobe Lightroom plugin Export LUT (1.24.0)
# www.johnrellis.com/lightroom/exportlut.htm
# Preset: 暗青风光-素材江湖06
# Color profile: C:\Program Files (x86)\Common Files\Adobe\Color\Profiles\Recommended\VideoHD.icc
LUT_3D_SIZE 32
DOMAIN_MIN 0.0 0.0 0.0
DOMAIN_MAX 1.0 1.0 1.0
0.063966 0.104799 0.114015
0.063966 0.104799 0.114015
0.063966 0.104799 0.114015
0.063966 0.104799 0.114015
0.063966 0.104799 0.114015
0.063966 0.104799 0.114015
0.079194 0.107149 0.117281
0.090822 0.111818 0.120638
0.096925 0.117250 0.124056
0.101900 0.122347 0.127352
0.108217 0.127321 0.130251
0.116121 0.132143 0.132509
0.125521 0.137667 0.134035
0.136599 0.143740 0.135653
0.150454 0.150729 0.136446
0.166781 0.158724 0.136660
0.186374 0.168246 0.135897
0.208927 0.178592 0.134096
0.234348 0.189853 0.131411
0.262364 0.201816 0.127138
0.293767 0.214786 0.121614
0.328405 0.229343 0.114199
0.367987 0.246311 0.103731
0.412757 0.266423 0.089113
0.463111 0.290379 0.048157
0.517876 0.317540 0.000000
0.574273 0.346563 0.000000
0.629847 0.376654 0.000000
0.680323 0.405402 0.000000
0.724941 0.432136 0.000000
0.764126 0.456886 0.000000
0.799863 0.480659 0.000000
0.063966 0.104799 0.114015
0.063966 0.104799 0.114015
0.063966 0.104799 0.114015
0.063966 0.104799 0.114015
0.063966 0.104799 0.114015
0.066926 0.105013 0.114260
0.083558 0.107881 0.118013
0.093233 0.113466 0.121553
0.098787 0.119051 0.125185
0.104036 0.124331 0.128389
0.111635 0.129335 0.131197
0.120302 0.134646 0.133089
0.130251 0.140383 0.134798
0.142458 0.146792 0.136019
0.156863 0.154238 0.136446
0.174533 0.162692 0.136507
0.195468 0.172427 0.135286
0.219394 0.183352 0.133211
0.246891 0.195285 0.129580
0.277287 0.207950 0.124636
0.311223 0.222141 0.118044
0.348669 0.238041 0.109010
0.390967 0.256657 0.096437
0.438361 0.278630 0.071260
0.490913 0.304173 0.019409
0.546838 0.332433 0.000000
0.603204 0.362219 0.000000
0.656611 0.392035 0.000000
0.704311 0.419837 0.000000
0.746151 0.445777 0.000000
0.783688 0.470222 0.000000
0.818082 0.493843 0.000000
0.063966 0.104799 0.114015
0.063966 0.104799 0.114015
0.063966 0.104799 0.114015
0.063966 0.104799 0.114015
0.063966 0.104799 0.114015
0.074220 0.106050 0.115908
0.087984 0.110842 0.119356
0.094759 0.116579 0.122805
0.100435 0.121706 0.126406
0.106752 0.126711 0.129580
0.114717 0.131533 0.132113
0.123232 0.137179 0.133913
0.134310 0.143099 0.135531
0.147463 0.150027 0.136385
0.163210 0.157626 0.136690
0.182071 0.166659 0.136049
0.204227 0.176944 0.134585
0.229404 0.188357 0.131960
0.258274 0.200534 0.127932
0.289586 0.213626 0.122530
0.324407 0.228244 0.114931
0.362615 0.244633 0.105074
0.405737 0.263828 0.091371
0.454078 0.286656 0.057252
0.507500 0.313085 0.000000
0.564019 0.342077 0.000000
0.620111 0.372198 0.000000
0.671962 0.401526 0.000000
0.717861 0.428870 0.000000
0.758358 0.454383 0.000000
0.795193 0.478706 0.000000
0.829007 0.502342 0.000000
0.063966 0.104799 0.114015
0.063966 0.104799 0.114015
0.063966 0.104799 0.114015
0.063966 0.104799 0.114015
0.069856 0.105898 0.115053
0.081483 0.110262 0.118044
0.091371 0.115694 0.121279
0.097139 0.120333 0.125032
0.102724 0.125246 0.128298
0.109560 0.130007 0.131136
0.118532 0.135042 0.133303
0.127962 0.140627 0.134798
0.140383 0.147005 0.136263
0.154452 0.154299 0.136965
0.171878 0.162814 0.136782
0.192630 0.172610 0.135836
0.217411 0.183932 0.133669
0.246128 0.196536 0.129824
0.278813 0.210178 0.124453
0.313756 0.224887 0.117556
0.351904 0.240970 0.108125
0.392309 0.259007 0.095735
0.435981 0.279210 0.073610
0.483070 0.302159 0.026551
0.533532 0.327489 0.000000
0.585687 0.354833 0.000000
0.636774 0.382757 0.000000
0.683894 0.409857 0.000000
0.726650 0.435523 0.000000
0.765774 0.460395 0.000000
0.802762 0.485084 0.000000
0.837766 0.509911 0.000000
0.067628 0.108919 0.116518
0.067323 0.108919 0.116823
0.070253 0.109743 0.117586
0.075715 0.111757 0.118746
0.081910 0.114504 0.120668
0.089235 0.118441 0.123995
0.095583 0.122896 0.126589
0.101625 0.126894 0.129122
0.108949 0.131319 0.131472
0.117006 0.136385 0.133394
0.125948 0.141482 0.135195
0.137514 0.147311 0.136294
0.150881 0.154116 0.137087
0.166506 0.161959 0.137301
0.185061 0.170840 0.136629
0.206973 0.180941 0.134920
0.232670 0.192477 0.132143
0.262272 0.205203 0.127565
0.295445 0.219211 0.121584
0.331518 0.234409 0.113313
0.370581 0.251316 0.102480
0.411719 0.269932 0.088777
0.455177 0.290501 0.053040
0.501457 0.313420 0.003845
0.550439 0.338323 0.000000
0.600793 0.365148 0.000000
0.649653 0.392157 0.000000
0.695369 0.418616 0.000000
0.737209 0.444068 0.000000
0.776028 0.469093 0.000000
0.812863 0.494057 0.000000
0.847532 0.519066 0.000000
0.085389 0.119783 0.124422
0.084779 0.120089 0.124666
0.087251 0.120516 0.125124
0.088258 0.122103 0.126497
0.090700 0.123751 0.128389
0.093721 0.126162 0.130343
0.098299 0.129122 0.132662
0.104219 0.133120 0.134279
0.112490 0.137392 0.135531
0.121798 0.142275 0.136599
0.132570 0.147768 0.137270
0.145602 0.154055 0.137453
0.159304 0.161074 0.137881
0.175784 0.169162 0.137667
0.195041 0.178134 0.136599
0.217502 0.188510 0.134127
0.243626 0.199832 0.130892
0.273472 0.212558 0.125734
0.306462 0.226383 0.119326
0.342718 0.241825 0.110292
0.381415 0.258915 0.098817
0.421790 0.277379 0.081361
0.343236 0.240452 0.110475
0.383246 0.257969 0.098695
0.428412 0.278660 0.078004
0.478065 0.302678 0.029328
0.531212 0.329534 0.000000
0.585931 0.357946 0.000000
0.639887 0.387396 0.000000
0.689418 0.415808 0.000000
0.735012 0.443305 0.000000
0.778103 0.470863 0.000000
0.088502 0.122866 0.127474
0.088991 0.123110 0.127413
0.088960 0.123629 0.127871
0.090425 0.124575 0.128786
0.091981 0.126040 0.129854
0.094240 0.127932 0.131380
0.097444 0.130434 0.133242
0.101930 0.133242 0.135256
0.107454 0.137057 0.137057
0.115236 0.141024 0.137819
0.124086 0.145541 0.138460
0.134615 0.150851 0.139101
0.146914 0.157229 0.139254
0.162081 0.164645 0.139071
0.180453 0.173404 0.138186
0.202121 0.183444 0.136263
0.226322 0.194644 0.133639
0.254032 0.206699 0.129427
0.284092 0.219455 0.124147
0.315312 0.232547 0.117433
0.345739 0.245487 0.109468
0.374395 0.258122 0.100832
0.403540 0.270909 0.090730
0.435889 0.285801 0.068666
0.473365 0.303899 0.030518
0.518273 0.326360 0.000000
0.568719 0.352453 0.000000
0.622095 0.381140 0.000000
0.672877 0.409766 0.000000
0.720180 0.437781 0.000000
0.763455 0.465034 0.000000
0.805081 0.492653 0.000000
0.095918 0.132265 0.134249
0.096345 0.132479 0.134218
0.096437 0.132967 0.134401
0.098146 0.133547 0.135042
0.099641 0.134859 0.135805
0.101869 0.137026 0.136904
0.105592 0.139284 0.138216
0.110140 0.142061 0.139620
0.115114 0.145571 0.141360
0.122286 0.149386 0.142947
0.131563 0.154238 0.143648
0.142977 0.160159 0.143618
0.157076 0.167391 0.143496
0.174258 0.175540 0.142550
0.194888 0.185183 0.140566
0.219516 0.196506 0.137575
0.248203 0.209079 0.132876
0.280217 0.222690 0.126375
0.314549 0.237217 0.117861
0.348486 0.251560 0.108553
0.379980 0.265354 0.098573
0.409583 0.278630 0.086915
0.439338 0.292332 0.061830
0.472023 0.307927 0.027741
0.509728 0.326635 0.000000
0.554162 0.349279 0.000000
0.603357 0.375494 0.000000
0.653590 0.403204 0.000000
0.700679 0.430579 0.000000
0.744717 0.457557 0.000000
0.786099 0.484199 0.000000
0.825895 0.511498 0.000000
0.105531 0.142855 0.139803
0.106142 0.142794 0.139803
0.106813 0.143191 0.139956
0.107485 0.143984 0.140536
0.109834 0.145357 0.140993
0.112459 0.147250 0.141817
0.116457 0.149660 0.142794
0.120912 0.152743 0.144045
0.126375 0.155825 0.145266
0.132692 0.159518 0.146334
0.141299 0.164309 0.147799
0.151919 0.170047 0.148806
0.167330 0.177462 0.147860
0.185763 0.186435 0.146395
0.208133 0.196963 0.143832
0.235019 0.209201 0.139864
0.265721 0.222599 0.134585
0.299931 0.237613 0.127108
0.335760 0.252934 0.117525
0.371679 0.268650 0.105715
0.406012 0.283848 0.091676
0.438575 0.298405 0.063081
0.470710 0.313359 0.024140
0.504021 0.329595 0.000000
0.541741 0.348577 0.000000
0.585412 0.371374 0.000000
0.632532 0.397009 0.000000
0.679377 0.423590 0.000000
0.723415 0.449714 0.000000
0.765103 0.475715 0.000000
0.805020 0.502129 0.000000
0.843259 0.529168 0.000000
0.118715 0.154879 0.144869
0.118776 0.155276 0.145022
0.119173 0.155825 0.145144
0.120912 0.156863 0.145632
0.123507 0.158389 0.145998
0.126955 0.160739 0.146670
0.130983 0.163546 0.147677
0.136355 0.166873 0.148562
0.142885 0.170687 0.149294
0.150118 0.174624 0.150393
0.158785 0.179049 0.150912
0.170565 0.185306 0.151827
0.184451 0.192844 0.152560
0.203525 0.201938 0.151095
0.227146 0.212772 0.147555
0.254429 0.224979 0.142885
0.285161 0.238376 0.136751
0.318578 0.252995 0.128756
0.353613 0.268406 0.118654
0.389349 0.284550 0.106600
0.425666 0.300999 0.091676
0.461891 0.317998 0.059663
0.499611 0.336217 0.009796
0.540307 0.356298 0.000000
0.583734 0.378424 0.000000
0.629725 0.402869 0.000000
0.673243 0.427314 0.000000
0.715053 0.451728 0.000000
0.754147 0.475685 0.000000
0.791928 0.500084 0.000000
0.828183 0.524681 0.000000
0.862699 0.549889 0.000000
0.138308 0.173098 0.150454
0.138582 0.173251 0.150423
0.139315 0.173709 0.150546
0.140719 0.174594 0.150790
0.143099 0.176028 0.151125
0.146426 0.178042 0.151339
0.151064 0.180697 0.151827
0.156405 0.183841 0.152193
0.162905 0.187381 0.152865
0.170626 0.191592 0.153140
0.179629 0.196201 0.153475
0.190249 0.201389 0.153811
0.205417 0.208988 0.154055
0.223453 0.218082 0.153964
0.245579 0.228855 0.152316
0.274327 0.241886 0.146944
0.306004 0.256107 0.140200
0.340429 0.271580 0.131411
0.376410 0.288121 0.121004
0.413458 0.305119 0.108522
0.450568 0.322728 0.093874
0.487648 0.340459 0.059754
0.526207 0.359350 0.004517
0.566796 0.379644 0.000000
0.609827 0.401984 0.000000
0.653559 0.425605 0.000000
0.696345 0.449592 0.000000
0.736934 0.473213 0.000000
0.775296 0.496620 0.000000
0.811185 0.520134 0.000000
0.845365 0.544060 0.000000
0.877714 0.568322 0.000000
0.160128 0.191806 0.153933
0.160342 0.191928 0.153902
0.161074 0.192142 0.154055
0.162356 0.193210 0.154238
0.164675 0.194461 0.154360
0.167910 0.196292 0.154543
0.172549 0.198825 0.154543
0.177981 0.201785 0.154849
0.184604 0.205203 0.155001
0.192630 0.209293 0.154971
0.201694 0.213748 0.154971
0.212589 0.219028 0.154696
0.179568 0.194064 0.153262
0.192905 0.201114 0.153597
0.209049 0.209903 0.153780
0.228519 0.219699 0.153658
0.253696 0.231754 0.149844
0.282780 0.244968 0.144564
0.314458 0.259281 0.137758
0.347601 0.274510 0.129244
0.382300 0.290715 0.118929
0.418891 0.307866 0.106844
0.459022 0.327459 0.091005
0.502403 0.349248 0.045533
0.549584 0.373602 0.000000
0.600000 0.400458 0.000000
0.651148 0.428595 0.000000
0.699916 0.456611 0.000000
0.745205 0.483650 0.000000
0.787930 0.510369 0.000000
0.828367 0.537041 0.000000
0.864256 0.563043 0.000000
0.164401 0.195468 0.154574
0.164767 0.195712 0.154696
0.166384 0.196719 0.154696
0.168551 0.198337 0.154940
0.171878 0.200687 0.155001
0.176730 0.203647 0.155306
0.182132 0.207004 0.155489
0.188174 0.210483 0.155825
0.194461 0.213962 0.155734
0.200992 0.216922 0.155520
0.207218 0.219608 0.155337
0.213535 0.221958 0.155215
0.220890 0.224491 0.155032
0.229801 0.228275 0.154665
0.244266 0.234958 0.153964
0.263828 0.244602 0.153140
0.287816 0.256504 0.151919
0.316808 0.270848 0.148196
0.350835 0.286992 0.140078
0.386877 0.304326 0.131167
0.423774 0.322393 0.120516
0.462318 0.341405 0.108003
0.503838 0.362310 0.089296
0.547478 0.384863 0.032746
0.593774 0.409430 0.000000
0.640620 0.435065 0.000000
0.686366 0.461006 0.000000
0.729580 0.486305 0.000000
0.770779 0.511589 0.000000
0.810147 0.536919 0.000000
0.847379 0.562188 0.000000
0.881743 0.587152 0.000000
0.196170 0.221408 0.156832
0.196933 0.221927 0.156893
0.198856 0.223392 0.156924
0.202060 0.225559 0.156924
0.206851 0.228458 0.156924
0.212680 0.232334 0.156832
0.219303 0.236332 0.156863
0.226413 0.240360 0.156619
0.233768 0.244053 0.156252
0.240848 0.247349 0.155947
0.247410 0.249912 0.155428
0.253971 0.252018 0.155001
0.261295 0.254368 0.154299
0.270695 0.258061 0.153689
0.283299 0.263310 0.152834
0.302892 0.272953 0.151431
0.328099 0.285771 0.149874
0.356634 0.300694 0.147921
0.387427 0.317021 0.146548
0.424231 0.335576 0.138308
0.461860 0.354498 0.127810
0.500938 0.374304 0.114168
0.542382 0.395727 0.095430
0.585107 0.418250 0.046723
0.628595 0.441840 0.000000
0.671565 0.465736 0.000000
0.713130 0.489845 0.000000
0.753079 0.513878 0.000000
0.791958 0.538323 0.000000
0.828672 0.562615 0.000000
0.863005 0.586664 0.000000
0.894499 0.610346 0.000000
0.234745 0.251652 0.157198
0.235355 0.252079 0.157259
0.237675 0.253727 0.157137
0.241642 0.256291 0.156893
0.247318 0.260166 0.156832
0.254520 0.264714 0.156466
0.262150 0.269261 0.156039
0.269993 0.273899 0.155306
0.277836 0.277897 0.154757
0.285344 0.281224 0.154208
0.292119 0.283696 0.153689
0.298619 0.285801 0.152895
0.306065 0.288182 0.152132
0.315679 0.291752 0.151461
0.328679 0.297276 0.150454
0.346075 0.305547 0.149142
0.369848 0.317937 0.147890
0.399023 0.333532 0.147005
0.429816 0.350317 0.146242
0.462287 0.368261 0.145693
0.498085 0.387121 0.139712
0.537285 0.407477 0.126772
0.578332 0.429358 0.110231
0.619471 0.451453 0.088930
0.659754 0.473854 0.032929
0.699062 0.496132 0.000000
0.736568 0.518273 0.000000
0.773281 0.540673 0.000000
0.808377 0.563104 0.000000
0.841062 0.585077 0.000000
0.871427 0.606470 0.000000
0.899290 0.627466 0.000000
0.283330 0.289342 0.155276
0.283330 0.289342 0.155276
0.284977 0.290318 0.155093
0.287938 0.292210 0.154940
0.292393 0.295048 0.154788
0.297917 0.298436 0.154177
0.303807 0.301701 0.153750
0.310094 0.304997 0.153292
0.316747 0.308202 0.152804
0.323888 0.311406 0.152041
0.331853 0.314885 0.151522
0.341131 0.318853 0.150668
0.352056 0.323857 0.149905
0.365515 0.330144 0.149172
0.381415 0.337987 0.148562
0.400793 0.347936 0.148043
0.422675 0.359258 0.147433
0.448768 0.373083 0.146731
0.478523 0.389563 0.146304
0.508782 0.406226 0.146242
0.540063 0.423682 0.146670
0.573236 0.442390 0.146242
0.611139 0.462654 0.134066
0.648249 0.482795 0.120943
0.684382 0.502922 0.107301
0.719478 0.523064 0.095125
0.754086 0.543755 0.081453
0.788235 0.564996 0.066987
0.821103 0.586542 0.067872
0.852201 0.607904 0.087953
0.881285 0.629175 0.106996
0.907866 0.650141 0.132296
0.339025 0.333074 0.152590
0.339391 0.333257 0.152499
0.340734 0.334112 0.152255
0.343297 0.335760 0.152041
0.347082 0.338201 0.151827
0.352209 0.341039 0.151553
0.357824 0.344152 0.151522
0.364172 0.347509 0.151095
0.371130 0.351049 0.150729
0.378668 0.354650 0.150454
0.387243 0.358434 0.149966
0.396612 0.362676 0.149630
0.407416 0.367651 0.149355
0.420478 0.373907 0.148836
0.436255 0.381689 0.148470
0.454719 0.391363 0.147921
0.475746 0.402289 0.147646
0.498116 0.413916 0.147524
0.523095 0.427192 0.147646
0.551843 0.443214 0.148653
0.581598 0.460151 0.150484
0.611566 0.477455 0.154421
0.641749 0.495521 0.161288
0.674281 0.513939 0.158511
0.706966 0.532280 0.153079
0.739193 0.551019 0.149844
0.771237 0.570428 0.148898
0.802640 0.590234 0.151553
0.832792 0.610285 0.158114
0.861418 0.630365 0.169375
0.888090 0.650385 0.185000
0.912688 0.670283 0.205112
0.391333 0.374792 0.151736
0.390661 0.374273 0.151614
0.335882 0.330510 0.152560
0.337957 0.331853 0.152316
0.341405 0.333898 0.152102
0.346166 0.336706 0.151888
0.351934 0.340215 0.151705
0.358343 0.343816 0.151217
0.365209 0.347448 0.150851
0.372473 0.351080 0.150607
0.380499 0.355047 0.150362
0.389990 0.359808 0.149996
0.402289 0.366064 0.149660
0.416754 0.373907 0.149355
0.434272 0.383551 0.148745
0.454536 0.394995 0.148348
0.477943 0.408148 0.147982
0.503105 0.422553 0.148165
0.529290 0.437263 0.148684
0.557000 0.452979 0.149630
0.589227 0.472053 0.152621
0.620233 0.490486 0.158053
0.650782 0.509270 0.166415
0.681209 0.528740 0.178683
0.713100 0.549096 0.189090
0.747219 0.570062 0.191470
0.780728 0.591608 0.197055
0.812772 0.612879 0.205417
0.842374 0.633417 0.216434
0.869596 0.653254 0.230076
0.894499 0.672511 0.246830
0.917357 0.691585 0.267124
0.427619 0.404089 0.152102
0.422431 0.399817 0.152132
0.417456 0.395697 0.152010
0.414282 0.392706 0.151766
0.413642 0.391669 0.151736
0.416571 0.393042 0.151614
0.421912 0.396185 0.151400
0.428809 0.400122 0.151431
0.436194 0.404150 0.151125
0.444312 0.408484 0.150973
0.452918 0.412848 0.150698
0.462776 0.417823 0.150546
0.474769 0.424201 0.150515
0.488899 0.431678 0.150546
0.505455 0.440894 0.150546
0.524163 0.451301 0.151003
0.544823 0.462989 0.151919
0.566674 0.475227 0.153536
0.588556 0.487373 0.156191
0.609857 0.499001 0.159731
0.631983 0.511192 0.164889
0.658747 0.527398 0.174044
0.685451 0.544091 0.186221
0.712398 0.561791 0.202090
0.740444 0.581353 0.221744
0.768704 0.602167 0.244999
0.799832 0.622827 0.254063
0.829221 0.643183 0.265537
0.856291 0.662623 0.278874
0.880888 0.681178 0.294072
0.903197 0.699062 0.311406
0.923461 0.716548 0.331456
0.500053 0.462776 0.155276
0.494209 0.457984 0.154849
0.488777 0.453376 0.154421
0.484840 0.449744 0.153811
0.483589 0.448127 0.153719
0.485878 0.449226 0.153628
0.490913 0.451911 0.153902
0.497566 0.455879 0.154025
0.504936 0.459968 0.154147
0.513054 0.464454 0.154482
0.521813 0.469001 0.154665
0.531487 0.474067 0.155123
0.542931 0.480018 0.155764
0.555840 0.486946 0.156649
0.570520 0.494881 0.158236
0.586816 0.503990 0.160739
0.604456 0.513878 0.164126
0.622675 0.524193 0.168765
0.641138 0.534386 0.174563
0.658900 0.543999 0.181277
0.676265 0.553368 0.188815
0.693294 0.562554 0.197360
0.716854 0.577630 0.212284
0.741329 0.594110 0.230014
0.766842 0.612543 0.251591
0.792508 0.632197 0.276799
0.817350 0.652674 0.304936
0.843015 0.672328 0.324315
0.867552 0.690639 0.339055
0.889677 0.707973 0.355169
0.909728 0.724575 0.372992
0.927947 0.740627 0.392950
0.569665 0.520317 0.166537
0.564630 0.516075 0.165377
0.559869 0.511925 0.164096
0.556603 0.508782 0.163027
0.555474 0.507317 0.162661
0.557549 0.508171 0.162966
0.562005 0.510552 0.163485
0.567803 0.513939 0.164462
0.574304 0.517571 0.165499
0.581598 0.521477 0.166629
0.589319 0.525414 0.168307
0.597925 0.529747 0.169924
0.607782 0.534874 0.172335
0.618402 0.540459 0.175448
0.630243 0.546777 0.179080
0.642969 0.553429 0.183627
0.655604 0.559991 0.188754
0.668452 0.566522 0.194430
0.680964 0.572534 0.200290
0.692958 0.578180 0.206241
0.704646 0.583429 0.212528
0.716304 0.588586 0.218936
0.728511 0.594110 0.226047
0.748775 0.607355 0.241520
0.770626 0.622644 0.260502
0.793545 0.639887 0.283299
0.816312 0.658198 0.309300
0.837980 0.676875 0.337591
0.859007 0.694881 0.361883
0.880766 0.711574 0.376684
0.900694 0.727657 0.393317
0.919036 0.743587 0.412299
0.601892 0.547692 0.178012
0.600000 0.546075 0.177127
0.599023 0.545037 0.176761
0.599451 0.545129 0.176822
0.601526 0.546258 0.177340
0.605249 0.548486 0.178592
0.610071 0.551507 0.180026
0.615534 0.554711 0.182010
0.621180 0.557855 0.183963
0.627253 0.560967 0.186038
0.633570 0.564111 0.188266
0.640681 0.567681 0.190982
0.649012 0.571923 0.194553
0.658198 0.576654 0.198581
0.668330 0.582116 0.203555
0.679408 0.588037 0.209537
0.691035 0.594263 0.216220
0.703029 0.600793 0.223697
0.715297 0.607416 0.231388
0.727535 0.613794 0.239506
0.739742 0.620233 0.248112
0.751827 0.626490 0.256748
0.764065 0.632990 0.266117
0.776730 0.640009 0.276524
0.795987 0.653925 0.296269
0.816220 0.669825 0.319860
0.835996 0.686366 0.345830
0.854734 0.703182 0.373602
0.872007 0.719997 0.402869
0.887907 0.736690 0.433265
0.906004 0.751675 0.450050
0.922667 0.766354 0.469001
0.660853 0.598962 0.213718
0.659510 0.597742 0.212619
0.658778 0.596918 0.212009
0.659113 0.596826 0.211917
0.660456 0.597467 0.212680
0.663233 0.599176 0.214267
0.666926 0.601373 0.216434
0.671199 0.603845 0.219120
0.675837 0.606378 0.221775
0.680751 0.608881 0.224613
0.686030 0.611475 0.227543
0.691890 0.614313 0.231022
0.698634 0.617670 0.234958
0.706111 0.621454 0.239689
0.714321 0.625727 0.245121
0.723323 0.630426 0.251408
0.732784 0.635462 0.258122
0.742580 0.640650 0.265415
0.752621 0.645960 0.273136
0.762753 0.651240 0.281132
0.772915 0.656489 0.289433
0.783017 0.661769 0.298039
0.793240 0.667109 0.307164
0.803494 0.672724 0.316808
0.824582 0.690120 0.343755
0.840604 0.702968 0.365454
0.857237 0.717678 0.391058
0.873014 0.732692 0.418402
0.887633 0.747616 0.446754
0.900969 0.762264 0.475715
0.913237 0.776303 0.504265
0.926970 0.789120 0.524102
0.697932 0.632624 0.247013
0.695644 0.630488 0.244724
0.695033 0.629847 0.244175
0.696345 0.630701 0.245090
0.699367 0.632929 0.247562
0.703700 0.636194 0.251316
0.709102 0.640101 0.255955
0.715084 0.644404 0.261112
0.721370 0.648707 0.266636
0.727779 0.652857 0.272007
0.734585 0.657221 0.277836
0.741238 0.661311 0.283482
0.748470 0.665614 0.289769
0.756313 0.670436 0.296849
0.765011 0.675837 0.305028
0.774014 0.681361 0.313603
0.783139 0.686946 0.322667
0.791928 0.692134 0.331456
0.800137 0.696590 0.339483
0.807797 0.700496 0.346868
0.815335 0.704189 0.354192
0.823087 0.708186 0.362188
0.831479 0.712886 0.371557
0.840452 0.718379 0.382483
0.849973 0.724697 0.394965
0.859648 0.731563 0.408759
0.872862 0.743435 0.431464
0.887144 0.757900 0.459724
0.900237 0.771847 0.488045
0.912230 0.785092 0.515312
0.923156 0.797543 0.541650
0.933135 0.809476 0.567437
0.755154 0.686458 0.312810
0.753292 0.684657 0.310369
0.752468 0.683711 0.309148
0.752895 0.683864 0.309361
0.754452 0.684840 0.310887
0.756771 0.686427 0.313176
0.759548 0.688258 0.316106
0.762844 0.690303 0.319219
0.766354 0.692378 0.322576
0.770138 0.694545 0.326146
0.774655 0.697139 0.330449
0.779477 0.699855 0.335210
0.785061 0.703182 0.340764
0.791440 0.707118 0.347601
0.798703 0.711696 0.355596
0.806363 0.716640 0.364446
0.814115 0.721675 0.373510
0.821653 0.726375 0.382513
0.828672 0.730495 0.390753
0.835172 0.733974 0.398199
0.841428 0.737148 0.405280
0.847745 0.740414 0.412696
0.854337 0.744015 0.420905
0.861265 0.748043 0.430091
0.868528 0.752682 0.440467
0.876036 0.757809 0.451911
0.883421 0.763088 0.463996
0.893797 0.772763 0.484321
0.905791 0.785336 0.510582
0.916930 0.797482 0.536339
0.927184 0.809140 0.561486
0.936248 0.819699 0.585016
0.794736 0.726070 0.371069
0.793973 0.725246 0.369726
0.793881 0.725002 0.369543
0.794583 0.725399 0.370245
0.795956 0.726436 0.371984
0.797971 0.727901 0.374578
0.800504 0.729702 0.377752
0.803433 0.731655 0.381292
0.806516 0.733730 0.385046
0.809781 0.735744 0.388952
0.813535 0.737972 0.393347
0.817441 0.740291 0.397864
0.821805 0.742947 0.403174
0.826841 0.746151 0.409583
0.832609 0.749905 0.417212
0.838712 0.754116 0.425666
0.844999 0.758328 0.434516
0.851041 0.762295 0.443122
0.856657 0.765743 0.450935
0.861906 0.768612 0.457893
0.866941 0.771237 0.464546
0.872038 0.773922 0.471443
0.877409 0.776974 0.479042
0.883146 0.780362 0.487526
0.889128 0.784207 0.496925
0.895293 0.788418 0.507134
0.901427 0.792752 0.517632
0.907530 0.797147 0.528344
0.915526 0.804471 0.544976
0.925353 0.815061 0.568322
0.933928 0.824643 0.590173
0.941527 0.833768 0.612055
0.833158 0.766995 0.440742
0.832639 0.766415 0.439734
0.832425 0.766049 0.439124
0.832670 0.766110 0.439307
0.833188 0.766262 0.439765
0.833707 0.766293 0.440040
0.833768 0.765743 0.439277
0.833829 0.764889 0.438148
0.833646 0.763729 0.436378
0.833585 0.762356 0.434485
0.833677 0.761013 0.432624
0.834257 0.760067 0.431647
0.835630 0.759701 0.431830
0.837980 0.760250 0.433631
0.841398 0.761807 0.437507
0.846098 0.764645 0.443763
0.851255 0.768032 0.451148
0.856565 0.771389 0.458747
0.861540 0.774350 0.465736
0.866300 0.777035 0.472328
0.870970 0.779477 0.478584
0.875761 0.781979 0.485084
0.880858 0.784939 0.492470
0.886320 0.788296 0.500755
0.892027 0.792050 0.509972
0.897978 0.796139 0.519829
0.903868 0.800320 0.530083
0.909728 0.804593 0.540612
0.915251 0.808530 0.550530
0.921935 0.814450 0.564508
0.930938 0.824277 0.586755
0.939025 0.833860 0.609461
0.847837 0.784024 0.472541
0.847868 0.784024 0.472541
0.848264 0.784298 0.473152
0.848875 0.784878 0.474250
0.849882 0.785611 0.475929
0.851102 0.786526 0.477790
0.852445 0.787381 0.479835
0.853880 0.788266 0.481849
0.855375 0.789059 0.483772
0.857023 0.789792 0.485756
0.858824 0.790616 0.487922
0.860868 0.791501 0.490242
0.863249 0.792599 0.493172
0.866087 0.794125 0.496925
