20 Preset/Scenery style/【3】LUT video cho PR-AE-FCPX/Scenery LUT (9).cube
# Created by Adobe Lightroom plugin Export LUT (1.24.0)
# www.johnrellis.com/lightroom/exportlut.htm
# Preset: 暗青风光-素材江湖09
# Color profile: C:\Program Files (x86)\Common Files\Adobe\Color\Profiles\Recommended\VideoHD.icc
LUT_3D_SIZE 8
DOMAIN_MIN 0.000000 0.000000 0.000000
DOMAIN_MAX 0.903226 0.903226 0.903226
0.063966 0.104799 0.114015
0.063966 0.104799 0.114015
0.141054 0.121157 0.138460
0.297704 0.081025 0.145754
0.548363 0.000000 0.148898
0.800107 0.000000 0.171817
0.968933 0.123934 0.235935
1.000000 0.329686 0.330968
0.063966 0.104799 0.114015
0.063966 0.104799 0.114015
0.134951 0.122286 0.137514
0.269902 0.120912 0.146426
0.509239 0.000000 0.146609
0.769406 0.000000 0.166079
0.936187 0.134340 0.217655
1.000000 0.316106 0.309606
0.056214 0.178683 0.134066
0.104616 0.180697 0.133791
0.155764 0.175509 0.139590
0.278294 0.208255 0.149630
0.530632 0.232914 0.143221
0.799222 0.271214 0.169741
0.957794 0.350530 0.250309
1.000000 0.446235 0.355749
0.214755 0.366918 0.000000
0.257053 0.368292 0.000000
0.377569 0.373053 0.000000
0.425818 0.359258 0.092348
0.608362 0.415686 0.174319
0.819272 0.496345 0.237797
0.940093 0.537621 0.326909
1.000000 0.577264 0.412055
0.434760 0.616541 0.000000
0.469764 0.617884 0.000000
0.605493 0.629358 0.000000
0.683467 0.613794 0.000000
0.682124 0.559350 0.151949
0.742733 0.560754 0.300908
0.887114 0.633967 0.396094
0.967132 0.699092 0.496712
0.615656 0.765072 0.166720
0.647150 0.773678 0.194858
0.725063 0.777218 0.202090
0.835691 0.777371 0.227207
0.840635 0.749050 0.274998
0.835264 0.710353 0.360754
0.852476 0.712306 0.492103
0.938293 0.761959 0.568139
0.761990 0.860563 0.426642
0.773800 0.861692 0.432868
0.811917 0.861601 0.436408
0.879393 0.862730 0.449714
0.916808 0.851041 0.460822
0.921691 0.832639 0.477333
0.916442 0.808865 0.527214
0.911284 0.800015 0.606928
0.843534 0.912200 0.589136
0.848295 0.912016 0.589685
0.868467 0.911711 0.594629
0.905516 0.911284 0.606378
0.952514 0.904936 0.586023
0.958679 0.894255 0.597253
0.965087 0.882689 0.605524
0.962646 0.866789 0.633631
0.063966 0.104799 0.114015
0.063966 0.104799 0.114015
0.129519 0.120241 0.136202
0.255924 0.113802 0.146212
0.491676 0.000000 0.145815
0.750668 0.000000 0.163485
0.918578 0.000000 0.207889
1.000000 0.270603 0.289677
0.063966 0.104799 0.114015
0.063966 0.104799 0.114015
0.129305 0.124666 0.136873
0.252506 0.134768 0.146914
0.485023 0.097475 0.145388
0.743008 0.000000 0.161837
0.902892 0.121401 0.202243
1.000000 0.274205 0.278904
0.080629 0.168856 0.138460
0.108705 0.171237 0.138430
0.143404 0.167636 0.144167
0.255802 0.201907 0.155184
0.494942 0.230594 0.150210
0.749416 0.257908 0.173434
0.907225 0.308812 0.230961
1.000000 0.400092 0.320653
0.155520 0.312322 0.124910
0.194003 0.315648 0.122011
0.319982 0.330724 0.110079
0.339483 0.305394 0.150454
0.502251 0.355169 0.189975
0.744045 0.444068 0.227237
0.891051 0.484108 0.295689
0.985931 0.536278 0.380896
0.379187 0.583276 0.000000
0.412390 0.583001 0.000000
0.545190 0.592645 0.000000
0.632044 0.576013 0.000000
0.622950 0.517479 0.181216
0.699336 0.528862 0.295018
0.860288 0.610254 0.386053
0.953857 0.681025 0.483772
0.573632 0.742458 0.197024
0.595575 0.744106 0.199863
0.678584 0.749722 0.207767
0.807706 0.756130 0.233585
0.815549 0.730251 0.286015
0.814603 0.696284 0.370428
0.837461 0.700862 0.490242
0.929259 0.753689 0.564019
0.737209 0.849119 0.417395
0.745388 0.847959 0.413489
0.786099 0.847990 0.416052
0.859953 0.850919 0.433631
0.906218 0.843076 0.457008
0.911192 0.824460 0.474556
0.904692 0.797848 0.517174
0.900908 0.788174 0.593439
0.833097 0.908324 0.580560
0.839292 0.908782 0.584955
0.860044 0.908476 0.589166
0.898650 0.908446 0.601587
0.949432 0.907530 0.615229
0.956298 0.895506 0.615808
0.962310 0.882689 0.615198
0.960052 0.866667 0.640040
0.057038 0.137545 0.181338
0.058015 0.137758 0.181460
0.128664 0.122744 0.189548
0.237675 0.118624 0.201572
0.431403 0.096712 0.222812
0.703395 0.116121 0.279576
0.884855 0.273503 0.357153
0.992340 0.412299 0.437995
0.057862 0.137331 0.180209
0.072663 0.135286 0.181491
0.125521 0.129763 0.184115
0.220096 0.139406 0.197360
0.409644 0.136812 0.221042
0.687709 0.164187 0.278080
0.870939 0.278904 0.346563
0.984375 0.408209 0.426123
0.023194 0.163058 0.181003
0.055024 0.163210 0.180423
0.116762 0.172641 0.188632
0.211795 0.195407 0.208438
0.432807 0.235935 0.246738
0.701442 0.298497 0.305364
0.869566 0.385107 0.376074
0.976165 0.484016 0.454261
0.000000 0.271183 0.187137
0.000000 0.273136 0.197147
0.200076 0.290440 0.214786
0.275975 0.288670 0.237522
0.466712 0.370794 0.294377
0.708278 0.467720 0.363714
0.860777 0.531884 0.436103
0.958068 0.596429 0.506462
0.208835 0.516442 0.252506
0.256321 0.520684 0.252720
0.408026 0.540948 0.255283
0.579095 0.557610 0.276005
0.574975 0.512169 0.322362
0.673457 0.547387 0.400153
0.833585 0.639979 0.491768
0.932341 0.704280 0.566461
0.490425 0.711696 0.347417
0.514305 0.714839 0.351446
0.598840 0.722194 0.360357
0.737484 0.735897 0.379217
0.774929 0.717342 0.411292
0.774685 0.688869 0.461738
0.815427 0.707393 0.548547
0.915343 0.768185 0.618067
0.708370 0.841917 0.512993
0.716335 0.841184 0.511223
0.753994 0.840970 0.511559
0.824918 0.844236 0.523033
0.888518 0.842039 0.541436
0.893492 0.826291 0.556390
0.890501 0.805051 0.585901
0.895995 0.801694 0.642145
0.818753 0.906218 0.628321
0.822995 0.905852 0.627436
0.843320 0.905760 0.631434
0.882536 0.907073 0.647700
0.931701 0.906920 0.661311
0.947082 0.898131 0.667567
0.952728 0.886900 0.667384
0.951476 0.872007 0.682338
0.000000 0.157290 0.285283
0.000000 0.153719 0.291997
0.109377 0.132845 0.305791
0.233188 0.115694 0.304814
0.377417 0.108431 0.310246
0.627253 0.102113 0.365881
0.812467 0.275090 0.435279
0.929046 0.463630 0.532708
0.000000 0.156100 0.293217
0.000000 0.154726 0.294621
0.118227 0.148745 0.297520
0.225406 0.139406 0.296452
0.374121 0.138460 0.310399
0.623255 0.158480 0.369268
0.805722 0.305272 0.440772
0.926177 0.475898 0.535454
0.059022 0.200900 0.265019
0.087831 0.201389 0.265019
0.124880 0.199496 0.268528
0.201144 0.191745 0.275120
0.370489 0.218631 0.317357
0.628534 0.295750 0.398840
0.811704 0.444160 0.499245
0.928557 0.557519 0.574823
0.000000 0.257725 0.283177
0.000000 0.257481 0.282261
0.113313 0.264530 0.286900
0.245121 0.312902 0.331151
0.404364 0.354253 0.365911
0.624994 0.440040 0.439918
0.796048 0.540642 0.525078
0.915618 0.626856 0.595483
0.000000 0.460883 0.333898
0.000000 0.460761 0.332830
0.000000 0.471778 0.339727
0.423713 0.513878 0.403449
0.504356 0.503655 0.433875
0.642573 0.576104 0.508537
0.802243 0.671717 0.591913
0.906157 0.722316 0.642084
0.311803 0.678645 0.443366
0.368109 0.686213 0.463416
0.480232 0.687953 0.492042
0.624292 0.710231 0.517845
0.736172 0.719905 0.546685
0.728969 0.689723 0.562097
0.794949 0.723659 0.619715
0.898161 0.789090 0.685176
0.639857 0.822782 0.590784
0.651820 0.824399 0.593713
0.695674 0.828824 0.602106
0.770687 0.836820 0.618250
0.861082 0.846525 0.639612
0.872404 0.832212 0.647852
0.868498 0.811398 0.657954
0.886168 0.815702 0.697383
0.796414 0.904173 0.694911
0.800961 0.904204 0.695583
0.820340 0.904448 0.699519
0.856321 0.905394 0.709224
0.903258 0.906279 0.722042
0.933715 0.901915 0.731685
0.938659 0.892454 0.730709
0.938781 0.880064 0.738399
0.000000 0.184451 0.450813
0.000000 0.180362 0.456825
0.000000 0.165377 0.463233
0.242618 0.144320 0.468299
0.404608 0.108278 0.467323
0.578393 0.097902 0.472084
0.756924 0.210422 0.502007
0.900420 0.418036 0.576104
0.000000 0.195102 0.451362
0.000000 0.195163 0.455573
0.073976 0.188876 0.457649
0.242954 0.169497 0.459327
0.400305 0.143252 0.462318
0.573053 0.146548 0.469917
0.753811 0.244633 0.504753
0.896361 0.438453 0.580713
0.000977 0.261112 0.422156
0.054963 0.260044 0.423346
0.144533 0.253025 0.425086
0.245304 0.241306 0.435767
0.375067 0.224063 0.437476
0.536767 0.242313 0.451392
0.735317 0.338750 0.510399
0.877562 0.497261 0.590875
0.129488 0.330297 0.415869
0.152987 0.331701 0.414374
0.216190 0.340734 0.414099
0.271458 0.343175 0.427955
0.373846 0.330907 0.438087
0.535454 0.368902 0.466987
0.729671 0.486854 0.550469
0.868376 0.603418 0.629541
0.000000 0.410468 0.432898
0.000000 0.411627 0.433204
0.141299 0.414679 0.434028
0.279820 0.431281 0.445838
0.428504 0.486275 0.492103
0.578882 0.537621 0.533776
0.740322 0.621851 0.604211
0.871305 0.698238 0.667536
0.000000 0.583490 0.468635
0.000000 0.585473 0.469947
0.000000 0.589654 0.471565
0.319463 0.609949 0.487129
0.581353 0.648341 0.557183
0.651514 0.654322 0.592065
0.765621 0.722683 0.658839
0.878569 0.797055 0.727260
0.389288 0.792050 0.566583
0.411994 0.790616 0.570001
0.499702 0.789303 0.589654
0.639338 0.795041 0.637781
0.763302 0.816831 0.670436
0.838651 0.823728 0.693874
0.833005 0.801724 0.695583
0.869352 0.817624 0.730098
0.707515 0.892424 0.696956
0.717189 0.891844 0.701595
0.753719 0.890532 0.719661
0.804288 0.895781 0.738064
0.859953 0.899748 0.755123
0.917418 0.903899 0.775570
0.922881 0.894469 0.774380
0.923095 0.882017 0.774502
0.000000 0.245335 0.620203
0.000000 0.245151 0.621912
0.129549 0.237613 0.620539
0.291814 0.225864 0.626947
0.445533 0.190829 0.635279
0.602411 0.158297 0.627680
0.745571 0.216434 0.618097
0.868956 0.354223 0.632776
0.000000 0.260807 0.603937
0.000000 0.259556 0.603937
0.146822 0.253178 0.604456
0.287419 0.241672 0.611353
0.430579 0.209110 0.618433
0.584894 0.182010 0.613306
0.730159 0.231052 0.607538
0.858000 0.357733 0.625208
0.180606 0.349035 0.597742
0.193881 0.347570 0.598077
0.245090 0.342809 0.601099
0.320287 0.323980 0.599481
0.433845 0.297429 0.604517
0.574029 0.280125 0.602197
0.717067 0.325109 0.604578
0.849454 0.436988 0.634974
0.297185 0.450172 0.587121
0.303197 0.448798 0.585412
0.335363 0.450446 0.585626
0.385290 0.448005 0.596338
0.462837 0.430610 0.604150
0.577508 0.412848 0.604181
0.709102 0.457313 0.615015
0.847623 0.561608 0.665522
0.288884 0.498665 0.571832
0.301427 0.499336 0.570825
0.347662 0.504448 0.568658
0.420233 0.519890 0.569512
0.468025 0.521599 0.581598
0.553765 0.505882 0.588067
0.680751 0.545373 0.608606
0.840116 0.652827 0.684260
0.167483 0.570611 0.576135
0.203037 0.574487 0.579095
0.274815 0.574426 0.577722
0.367620 0.577966 0.578576
0.469764 0.591089 0.587274
0.597406 0.639704 0.627131
0.739773 0.705715 0.682765
0.859709 0.774624 0.743587
0.160861 0.731685 0.626246
0.213718 0.734432 0.628992
0.320073 0.738430 0.632502
0.446448 0.748714 0.641382
0.579034 0.770047 0.660304
0.766690 0.805203 0.723720
0.801877 0.798123 0.735164
0.866911 0.836240 0.780056
0.507073 0.883391 0.683619
0.514549 0.882841 0.683223
0.555840 0.882963 0.687465
0.655695 0.884154 0.713832
0.779995 0.885008 0.764797
0.865385 0.895140 0.798428
0.907805 0.897673 0.815732
0.907225 0.885252 0.810819
0.236362 0.353307 0.726436
0.251255 0.353277 0.727291
0.299901 0.349462 0.728511
0.380468 0.340673 0.731502
0.481270 0.318151 0.734157
0.604242 0.274144 0.737301
0.738643 0.274540 0.730648
0.852079 0.341344 0.720729
0.260227 0.371893 0.721462
0.272770 0.372045 0.722469
0.314733 0.367681 0.723690
0.385901 0.356878 0.725948
0.481544 0.334874 0.728878
0.600366 0.292790 0.731960
0.731991 0.290440 0.725277
0.845060 0.351446 0.716060
0.340429 0.445502 0.712795
0.346502 0.444465 0.713100
0.371954 0.438972 0.713954
0.422278 0.427893 0.716243
0.498085 0.407446 0.719203
0.602380 0.373053 0.723415
0.725765 0.369909 0.719753
0.837034 0.423499 0.716152
0.433173 0.541833 0.699916
0.433753 0.539025 0.699092
0.445899 0.533867 0.699916
0.475227 0.525109 0.702785
0.525872 0.508476 0.706630
0.607294 0.482673 0.712398
0.715023 0.474434 0.711818
0.822995 0.516716 0.715908
0.484443 0.605890 0.686366
0.487007 0.605493 0.685969
0.500114 0.605768 0.686275
0.525597 0.606775 0.688808
0.554284 0.596918 0.693355
0.608881 0.578058 0.699519
0.700008 0.564935 0.702174
0.813138 0.602716 0.718441
0.467536 0.650324 0.692256
0.473854 0.650965 0.692042
0.498634 0.653254 0.691096
0.540459 0.658289 0.689906
0.594171 0.668086 0.689784
0.632136 0.668727 0.700313
0.701686 0.656519 0.706813
0.811948 0.690120 0.728725
0.407050 0.717952 0.704097
0.415625 0.718318 0.704280
0.446052 0.718166 0.703548
0.497566 0.718776 0.702937
0.562615 0.721157 0.703456
0.638880 0.730495 0.710018
0.733150 0.760952 0.736049
0.852873 0.825162 0.796201
0.338750 0.844602 0.742824
0.350927 0.844663 0.742947
0.397955 0.845090 0.743771
0.494972 0.848356 0.747097
0.616480 0.856229 0.756588
0.739162 0.870726 0.778256
0.872038 0.892271 0.836149
0.891997 0.887846 0.841154
0.486580 0.528649 0.826596
0.491554 0.528252 0.827024
0.508598 0.523583 0.827481
0.544976 0.515557 0.829526
0.600061 0.500175 0.832425
0.675166 0.473762 0.836210
0.772152 0.431403 0.841245
0.873869 0.453803 0.836271
0.495033 0.540215 0.823941
0.499794 0.539910 0.824369
0.516197 0.535607 0.825162
0.550195 0.527214 0.827115
0.602899 0.511955 0.830106
0.675685 0.486122 0.833982
0.770260 0.444007 0.838895
0.870787 0.462837 0.833982
0.530358 0.586236 0.818051
0.533654 0.585443 0.818326
0.546288 0.581231 0.819059
0.575463 0.575036 0.821836
0.619104 0.560449 0.824704
0.682399 0.536645 0.828489
0.769162 0.500328 0.833829
0.864500 0.509148 0.830198
0.575036 0.647211 0.810086
0.577508 0.646723 0.810483
0.586450 0.643366 0.811398
0.606622 0.637232 0.813809
0.640467 0.625757 0.817166
0.692378 0.607019 0.821500
0.767605 0.578332 0.827329
0.855863 0.576410 0.825803
0.615869 0.704219 0.802609
0.618494 0.704555 0.803006
0.627131 0.704005 0.803616
0.640436 0.699794 0.805875
0.662196 0.690089 0.809171
0.700557 0.674678 0.813809
0.763394 0.651820 0.820188
0.846098 0.644648 0.821317
0.642939 0.749111 0.799008
0.645655 0.749294 0.798581
0.658045 0.750912 0.797299
0.672969 0.751766 0.798672
0.693263 0.751431 0.802914
0.719387 0.744411 0.809384
0.766079 0.730098 0.816983
0.839353 0.720333 0.820523
0.618555 0.787655 0.810513
0.622095 0.787808 0.810330
0.636988 0.788418 0.809567
0.665553 0.790585 0.808774
0.704982 0.794797 0.808042
0.751461 0.802914 0.808408
0.781491 0.802701 0.817044
0.835080 0.790799 0.821775
0.569879 0.845335 0.823728
0.574212 0.845212 0.823545
0.592920 0.845029 0.823209
0.628107 0.845212 0.823026
0.675166 0.845548 0.822721
0.729122 0.846708 0.822934
0.786770 0.850706 0.825834
0.849729 0.864836 0.839139
