20 Preset/Scenery style/【3】LUT video cho PR-AE-FCPX/Scenery LUT (2).cube
# Created by Adobe Lightroom plugin Export LUT (1.24.0)
# www.johnrellis.com/lightroom/exportlut.htm
# Preset: 暗青风光-素材江湖02
# Color profile: C:\Program Files (x86)\Common Files\Adobe\Color\Profiles\Recommended\VideoHD.icc
LUT_3D_SIZE 32
DOMAIN_MIN 0.0 0.0 0.0
DOMAIN_MAX 1.0 1.0 1.0
0.063966 0.104799 0.114015
0.063966 0.104799 0.114015
0.063966 0.104799 0.114015
0.069581 0.105226 0.114839
0.098329 0.111666 0.123629
0.117006 0.118715 0.132937
0.142214 0.121828 0.138369
0.171450 0.124453 0.141787
0.205783 0.125551 0.143130
0.246464 0.124147 0.142458
0.295506 0.119234 0.140383
0.352087 0.109560 0.137331
0.414710 0.092134 0.134127
0.480781 0.039002 0.132540
0.547478 0.000000 0.131868
0.612024 0.000000 0.130800
0.672816 0.000000 0.129458
0.727352 0.000000 0.128603
0.775753 0.000000 0.128634
0.819089 0.000000 0.129915
0.879637 0.000000 0.134585
0.934051 0.000000 0.146914
0.972930 0.100160 0.165988
1.000000 0.163180 0.186038
1.000000 0.208133 0.206485
1.000000 0.246036 0.227115
1.000000 0.280522 0.248631
1.000000 0.313542 0.271336
1.000000 0.346471 0.295903
1.000000 0.380774 0.323125
1.000000 0.416632 0.353613
1.000000 0.454810 0.388037
0.063966 0.104799 0.114015
0.063966 0.104799 0.114015
0.063966 0.104799 0.114015
0.069581 0.105226 0.114839
0.097749 0.111727 0.123354
0.115938 0.118257 0.132509
0.139467 0.122225 0.138155
0.167544 0.125185 0.141115
0.200412 0.126467 0.142763
0.239139 0.125734 0.142367
0.285588 0.122194 0.140597
0.339788 0.114076 0.137728
0.400580 0.099580 0.134310
0.465431 0.063233 0.132357
0.531304 0.000000 0.131685
0.596460 0.000000 0.130617
0.658534 0.000000 0.129152
0.714778 0.000000 0.128237
0.764462 0.000000 0.127779
0.808499 0.000000 0.128939
0.868009 0.000000 0.132753
0.921172 0.000000 0.142763
0.959869 0.056977 0.159304
0.990143 0.142061 0.177005
1.000000 0.187381 0.195315
1.000000 0.224887 0.214237
1.000000 0.259312 0.234043
1.000000 0.292912 0.255924
1.000000 0.326574 0.279789
1.000000 0.361151 0.306340
1.000000 0.397864 0.336614
1.000000 0.436469 0.370489
0.063966 0.104799 0.114015
0.063966 0.104799 0.114015
0.063966 0.104799 0.114015
0.073243 0.105745 0.115663
0.098421 0.112276 0.123812
0.115328 0.120058 0.132326
0.137484 0.124971 0.137148
0.164584 0.128298 0.140352
0.196292 0.130220 0.141787
0.233768 0.130526 0.141787
0.278660 0.128145 0.140047
0.331884 0.121767 0.137209
0.391119 0.110506 0.133608
0.454627 0.092622 0.131258
0.519829 0.043030 0.130465
0.584497 0.000000 0.129305
0.647059 0.000000 0.127657
0.704555 0.000000 0.126406
0.755673 0.000000 0.125978
0.800900 0.000000 0.126558
0.861875 0.000000 0.130220
0.913878 0.000000 0.140627
0.952514 0.079683 0.156039
0.983001 0.142092 0.172671
1.000000 0.183993 0.190036
1.000000 0.219120 0.207767
1.000000 0.253086 0.227237
1.000000 0.285710 0.248081
1.000000 0.318791 0.271244
1.000000 0.353399 0.297765
1.000000 0.389532 0.327398
1.000000 0.427680 0.360662
0.065827 0.110842 0.117769
0.066804 0.111116 0.118013
0.067048 0.112337 0.118715
0.079225 0.113466 0.119966
0.097139 0.119783 0.124544
0.113619 0.126528 0.131533
0.135653 0.131441 0.136172
0.161807 0.135012 0.138918
0.192874 0.137728 0.140017
0.229587 0.138857 0.139742
0.273442 0.137911 0.138125
0.324712 0.134157 0.135164
0.382574 0.126833 0.131716
0.444343 0.115511 0.128847
0.507713 0.099916 0.127962
0.571099 0.066133 0.126589
0.632532 0.001007 0.124666
0.689906 0.000000 0.123323
0.741451 0.000000 0.122286
0.787228 0.000000 0.122652
0.848844 0.000000 0.125551
0.898161 0.000000 0.136355
0.937194 0.100893 0.150088
0.969543 0.146242 0.165927
0.996612 0.184268 0.182620
1.000000 0.219486 0.201205
1.000000 0.253788 0.221530
1.000000 0.287083 0.243534
1.000000 0.320226 0.267491
1.000000 0.354345 0.293950
1.000000 0.388952 0.322820
1.000000 0.424506 0.354223
0.072358 0.127962 0.129244
0.071656 0.128237 0.129213
0.079286 0.128237 0.129946
0.089601 0.128237 0.131899
0.095094 0.129366 0.132174
0.110628 0.133822 0.132845
0.131075 0.139864 0.134615
0.156039 0.144106 0.136355
0.185763 0.147433 0.137453
0.220981 0.149905 0.137301
0.262699 0.150942 0.135592
0.312169 0.149996 0.132692
0.368109 0.146365 0.129122
0.429145 0.140414 0.125490
0.492592 0.132174 0.123629
0.556481 0.121645 0.122011
0.619867 0.106416 0.119936
0.679377 0.089723 0.117586
0.732540 0.064240 0.116030
0.784939 0.046967 0.116274
0.843442 0.079408 0.122835
0.890745 0.109773 0.134035
0.929320 0.140566 0.147646
0.962310 0.171420 0.162661
0.990356 0.202213 0.179660
1.000000 0.233219 0.198154
1.000000 0.263798 0.218357
1.000000 0.294621 0.239994
1.000000 0.325597 0.263523
1.000000 0.357305 0.289097
1.000000 0.389807 0.317082
1.000000 0.423621 0.347601
0.082094 0.143160 0.137423
0.083986 0.143313 0.137636
0.089631 0.143038 0.138582
0.096376 0.143038 0.139895
0.103395 0.144076 0.140810
0.109865 0.144259 0.140688
0.125002 0.148165 0.140352
0.154696 0.155459 0.137026
0.182681 0.160555 0.134951
0.217136 0.164675 0.133272
0.258488 0.167453 0.131167
0.307652 0.168917 0.127779
0.363165 0.168612 0.123812
0.423865 0.166537 0.119814
0.487343 0.163577 0.117281
0.552239 0.158572 0.114900
0.615717 0.152255 0.112001
0.676020 0.145602 0.109102
0.729335 0.139681 0.109255
0.789273 0.140597 0.113497
0.844541 0.150546 0.121889
0.890318 0.166537 0.133669
0.996277 0.261357 0.190036
1.000000 0.291875 0.215427
1.000000 0.320348 0.240482
1.000000 0.347723 0.265232
1.000000 0.373846 0.289982
1.000000 0.399390 0.314122
1.000000 0.425330 0.339361
1.000000 0.452064 0.365759
1.000000 0.479561 0.393683
1.000000 0.507195 0.422156
0.097292 0.167819 0.146822
0.099214 0.167697 0.147005
0.103914 0.167422 0.147860
0.112001 0.167422 0.149264
0.121248 0.167819 0.150729
0.129244 0.169558 0.149722
0.136904 0.168429 0.148928
0.153841 0.171084 0.148806
0.200198 0.182742 0.136477
0.238041 0.189181 0.130373
0.282322 0.195315 0.122255
0.334997 0.200107 0.115267
0.394812 0.202396 0.110079
0.457191 0.203525 0.106722
0.519921 0.203250 0.105257
0.581567 0.201205 0.103731
0.641962 0.198611 0.102358
0.697749 0.196017 0.102815
0.754726 0.196445 0.106050
0.821927 0.206394 0.114839
0.878721 0.221653 0.128756
0.927001 0.242527 0.147829
0.967346 0.268376 0.171420
1.000000 0.297154 0.197665
1.000000 0.325719 0.224918
1.000000 0.352544 0.251316
1.000000 0.376287 0.275517
1.000000 0.399664 0.299596
1.000000 0.423194 0.324010
1.000000 0.446967 0.348974
1.000000 0.471962 0.375311
1.000000 0.497841 0.403113
0.109865 0.187747 0.153262
0.110903 0.187686 0.153475
0.115328 0.187564 0.154238
0.123842 0.187472 0.155550
0.134585 0.187289 0.157961
0.143221 0.188968 0.156954
0.152407 0.190036 0.155612
0.160922 0.188602 0.154696
0.177707 0.190280 0.154238
0.229099 0.204013 0.140841
0.279911 0.213504 0.128511
0.328130 0.220279 0.118807
0.379034 0.227024 0.108827
0.437018 0.231693 0.103212
0.499031 0.234287 0.101198
0.560693 0.235416 0.099428
0.621454 0.235966 0.097780
0.679133 0.235599 0.097200
0.752865 0.243290 0.099550
0.813046 0.251469 0.108827
0.865995 0.262943 0.122683
0.912718 0.278264 0.141115
0.953002 0.297856 0.163943
0.986786 0.320348 0.189059
1.000000 0.344182 0.215457
1.000000 0.366339 0.240818
1.000000 0.387488 0.265293
1.000000 0.407599 0.288426
1.000000 0.428656 0.312291
1.000000 0.450507 0.337133
1.000000 0.473304 0.362951
1.000000 0.497383 0.390326
0.120974 0.209995 0.162020
0.122225 0.210056 0.162173
0.126711 0.209781 0.162905
0.134463 0.209842 0.164279
0.145968 0.209689 0.166323
0.157534 0.210117 0.167849
0.167056 0.212253 0.166354
0.177401 0.213199 0.164706
0.187991 0.211612 0.163455
0.205325 0.212192 0.162539
0.261723 0.228183 0.149569
0.326085 0.242008 0.129366
0.377752 0.249638 0.118471
0.430976 0.257420 0.107790
0.485054 0.265202 0.095888
0.545586 0.269383 0.091493
0.607141 0.272282 0.088930
0.685847 0.281956 0.083436
0.751156 0.289006 0.089174
0.806760 0.295933 0.100160
0.856870 0.305089 0.115389
0.901976 0.317327 0.134798
0.941680 0.332586 0.158083
0.975616 0.350530 0.183322
1.000000 0.369635 0.209079
1.000000 0.388098 0.234195
1.000000 0.405951 0.258305
1.000000 0.423590 0.281498
1.000000 0.442206 0.305394
1.000000 0.461219 0.329564
1.000000 0.481880 0.355169
1.000000 0.503502 0.381781
0.134768 0.236179 0.171450
0.135714 0.236027 0.171633
0.139803 0.235691 0.172183
0.147921 0.235538 0.173465
0.159243 0.235233 0.175357
0.173739 0.234928 0.178317
0.184390 0.236332 0.177676
0.196445 0.238865 0.175540
0.207492 0.238773 0.173800
0.219425 0.237095 0.172457
0.236515 0.236088 0.171145
0.295232 0.254002 0.159976
0.370092 0.271916 0.133730
0.426368 0.281987 0.120546
0.482277 0.291112 0.108217
0.544610 0.302800 0.091432
0.616754 0.318425 0.044434
0.688685 0.328161 0.038697
0.749813 0.335088 0.051331
0.802579 0.341070 0.083894
0.849760 0.347967 0.104677
0.891569 0.356268 0.126497
0.928527 0.366461 0.149172
0.960784 0.378576 0.172396
0.988159 0.391669 0.196231
1.000000 0.405493 0.219852
1.000000 0.419837 0.243534
1.000000 0.435126 0.266850
1.000000 0.451820 0.291112
1.000000 0.469886 0.316533
1.000000 0.489387 0.343175
1.000000 0.510216 0.371069
0.149172 0.263371 0.180423
0.150210 0.263310 0.180575
0.154177 0.263493 0.181125
0.162875 0.263554 0.182406
0.174990 0.263798 0.184512
0.190555 0.264286 0.187350
0.207309 0.265324 0.190280
0.219272 0.268254 0.188144
0.234440 0.271977 0.185824
0.246891 0.271550 0.184024
0.260990 0.269749 0.182437
0.277562 0.266819 0.180636
0.338506 0.286931 0.172763
0.421332 0.309880 0.145327
0.501793 0.331334 0.122621
0.570306 0.347051 0.105104
0.634546 0.360418 0.078340
0.691188 0.370733 0.019104
0.742794 0.378332 0.000000
0.792996 0.382879 0.028534
0.838682 0.387762 0.083497
0.879667 0.394018 0.112001
0.916655 0.401953 0.137819
0.949218 0.411139 0.163149
0.977295 0.421576 0.188174
1.000000 0.432776 0.212528
1.000000 0.444648 0.236545
1.000000 0.457588 0.260410
1.000000 0.471870 0.284855
1.000000 0.487587 0.310460
1.000000 0.504936 0.337194
1.000000 0.523583 0.365057
0.170718 0.300450 0.191348
0.171939 0.300542 0.191592
0.176059 0.300877 0.192203
0.184787 0.301152 0.193576
0.197940 0.301884 0.195773
0.214878 0.302647 0.199069
0.235660 0.304204 0.203342
0.251957 0.306920 0.203922
0.267185 0.311101 0.201389
0.284947 0.315465 0.198611
0.299046 0.314519 0.196963
0.320226 0.316503 0.196811
0.412909 0.369085 0.216587
0.495705 0.402930 0.219791
0.596826 0.434211 0.183444
0.677424 0.452247 0.143343
0.729183 0.459297 0.130068
0.774899 0.464149 0.115694
0.815793 0.468208 0.101106
0.852934 0.472084 0.081788
0.888823 0.475746 0.102602
0.922789 0.480110 0.142367
0.952209 0.485237 0.174899
0.977600 0.491798 0.205020
0.999268 0.498756 0.232364
1.000000 0.505882 0.257237
1.000000 0.512932 0.279911
1.000000 0.520745 0.301640
1.000000 0.529870 0.323888
1.000000 0.540490 0.346593
1.000000 0.552758 0.370306
1.000000 0.567010 0.395544
0.217319 0.369451 0.214572
0.217929 0.369329 0.214603
0.222110 0.368444 0.215152
0.231144 0.367895 0.216251
0.244144 0.366949 0.218235
0.261479 0.366278 0.221317
0.283299 0.366735 0.225772
0.307683 0.367987 0.231479
0.326207 0.375128 0.230289
0.355901 0.390173 0.231662
0.389746 0.406226 0.233799
0.422614 0.418280 0.238590
0.458564 0.428901 0.243809
0.495369 0.435981 0.248753
0.565515 0.464332 0.261570
0.652796 0.488441 0.226444
0.722957 0.499886 0.182803
0.767514 0.502251 0.165957
0.805875 0.503655 0.153841
0.840513 0.504692 0.142611
0.872404 0.505913 0.131350
0.901823 0.507958 0.121706
0.931456 0.510765 0.147524
0.958801 0.514977 0.181064
0.982483 0.519829 0.210575
1.000000 0.525322 0.237491
1.000000 0.531273 0.262516
1.000000 0.538018 0.286198
1.000000 0.545953 0.309697
1.000000 0.555505 0.333928
1.000000 0.566461 0.358770
1.000000 0.579370 0.385168
0.261479 0.426429 0.237858
0.262119 0.426032 0.237858
0.266484 0.425879 0.238560
0.275761 0.426062 0.240146
0.290227 0.426947 0.242985
0.309514 0.428901 0.247471
0.335119 0.432502 0.254154
0.365301 0.437934 0.263157
0.393011 0.446143 0.268986
0.418097 0.457374 0.269596
0.449073 0.471748 0.270939
0.480781 0.484413 0.274388
0.510735 0.492836 0.279484
0.541222 0.498604 0.284276
0.570153 0.499641 0.287541
0.621607 0.516167 0.300084
0.690944 0.532097 0.272984
0.751492 0.538964 0.232456
0.796933 0.540368 0.204196
0.830472 0.539757 0.193332
0.861662 0.539513 0.183474
0.890929 0.540063 0.174624
0.917937 0.541100 0.166354
0.942962 0.542748 0.159182
0.968078 0.546075 0.190921
0.990021 0.550164 0.220798
1.000000 0.554589 0.247654
1.000000 0.559838 0.273411
1.000000 0.566278 0.298405
1.000000 0.574304 0.323552
1.000000 0.583948 0.349737
1.000000 0.595300 0.377111
0.330510 0.505852 0.278569
0.331456 0.505608 0.278630
0.334569 0.504509 0.278721
0.342229 0.503166 0.279576
0.354040 0.501762 0.281498
0.370489 0.500969 0.285008
0.392706 0.501884 0.290562
0.420233 0.504845 0.299107
0.452735 0.510307 0.310552
0.475319 0.518700 0.312078
0.501335 0.529961 0.313512
0.532189 0.543359 0.315892
0.558923 0.551629 0.320317
0.582910 0.555230 0.324956
0.605737 0.555261 0.327672
0.625971 0.550622 0.328161
0.663661 0.558343 0.337987
0.720424 0.570428 0.320226
0.776028 0.575677 0.281773
0.822385 0.576318 0.244083
0.852903 0.575006 0.234043
0.881804 0.574395 0.224857
0.908507 0.574090 0.216556
0.933318 0.574426 0.209018
0.956115 0.574945 0.201572
0.977356 0.576165 0.201450
0.998047 0.579675 0.232273
1.000000 0.584375 0.261448
1.000000 0.590387 0.289677
1.000000 0.598230 0.318517
1.000000 0.607904 0.348455
1.000000 0.619287 0.379400
0.390082 0.566583 0.318700
0.391455 0.566888 0.319158
0.395148 0.566644 0.319860
0.402136 0.566186 0.321050
0.413825 0.565881 0.323705
0.429969 0.566094 0.327916
0.451545 0.567956 0.334691
0.477882 0.571252 0.344244
0.508537 0.576074 0.356756
0.536675 0.582147 0.366796
0.556115 0.588983 0.367346
0.578119 0.596368 0.367803
0.601831 0.603723 0.367742
0.618341 0.603693 0.368536
0.633692 0.600671 0.368109
0.648676 0.595270 0.366491
0.663966 0.587579 0.363836
0.692836 0.590265 0.370611
0.742123 0.602136 0.362463
0.794217 0.607172 0.327398
0.841154 0.608881 0.288273
0.872679 0.608545 0.274388
0.899840 0.608270 0.266606
0.925109 0.608270 0.259281
0.948302 0.608545 0.252811
0.969726 0.609094 0.247074
0.989410 0.610040 0.242557
1.000000 0.612299 0.252598
1.000000 0.617029 0.283391
1.000000 0.623072 0.313329
1.000000 0.630396 0.343267
1.000000 0.639124 0.373693
0.441108 0.613153 0.358953
0.442084 0.613123 0.359197
0.445014 0.612909 0.359869
0.451575 0.612787 0.361303
0.461860 0.612696 0.364050
0.476234 0.613153 0.368322
0.495033 0.614343 0.374731
0.517784 0.616480 0.383612
0.543938 0.619623 0.394781
0.572564 0.623713 0.408515
0.591760 0.628534 0.412451
0.609277 0.633875 0.412787
0.628382 0.639246 0.412482
0.647700 0.643671 0.411414
0.660121 0.641169 0.410620
0.672480 0.636652 0.408515
0.685115 0.630579 0.405524
0.698421 0.623133 0.402197
0.722042 0.623224 0.406836
0.764523 0.635096 0.407874
0.813413 0.640558 0.376318
0.857908 0.642573 0.340826
0.891691 0.642329 0.317266
0.916869 0.642115 0.310124
0.940185 0.642023 0.303563
0.961730 0.642237 0.298070
0.981750 0.642725 0.293462
1.000000 0.643580 0.290043
1.000000 0.645075 0.288731
1.000000 0.648951 0.308537
1.000000 0.655024 0.340642
1.000000 0.662379 0.372656
0.493629 0.655940 0.405982
0.494789 0.656489 0.406744
0.550347 0.696071 0.459297
0.555413 0.696010 0.460822
0.563439 0.695888 0.463264
0.574334 0.695766 0.466865
0.588312 0.695949 0.471992
0.605859 0.696864 0.479164
0.626368 0.698726 0.488869
0.649287 0.701472 0.500786
0.670893 0.704738 0.511620
0.683070 0.707790 0.510826
0.695949 0.710262 0.508568
0.709438 0.712154 0.504997
0.721431 0.711818 0.500237
0.728695 0.706386 0.495094
0.736080 0.699214 0.488350
0.744045 0.690883 0.480964
0.752865 0.681544 0.473732
0.768978 0.677394 0.472786
0.801877 0.686976 0.479408
0.844511 0.690303 0.449134
0.883299 0.690455 0.415473
0.916686 0.687831 0.381659
0.937713 0.684932 0.371435
0.957336 0.682124 0.361669
0.975830 0.679622 0.352697
0.993256 0.677913 0.345617
1.000000 0.677333 0.341009
1.000000 0.678065 0.339940
1.000000 0.679774 0.341650
1.000000 0.684901 0.369604
0.556664 0.703731 0.466590
0.561975 0.707118 0.471473
0.569177 0.710689 0.477241
0.578058 0.713802 0.483101
0.588037 0.716091 0.488746
0.598718 0.717067 0.493355
0.611109 0.717464 0.498116
0.625788 0.717922 0.503777
0.643000 0.719020 0.511498
0.662379 0.720821 0.520867
0.683284 0.723293 0.531884
0.697810 0.725795 0.535821
0.708492 0.727687 0.533593
0.719814 0.729305 0.530632
0.731746 0.730495 0.526604
0.741421 0.728939 0.521965
0.748348 0.723934 0.517113
0.755795 0.718166 0.512016
0.764279 0.711757 0.506981
0.773953 0.704952 0.502312
0.787869 0.700710 0.501213
0.817105 0.712184 0.516075
0.856779 0.716304 0.489754
0.892851 0.716701 0.459083
0.925658 0.713680 0.422919
0.947448 0.710353 0.406836
0.965881 0.707454 0.397192
0.983307 0.705196 0.389349
0.999939 0.704005 0.383795
1.000000 0.703944 0.381140
1.000000 0.704982 0.381842
1.000000 0.706844 0.385290
0.589319 0.727779 0.497780
0.594415 0.731014 0.502617
0.601343 0.734585 0.508263
0.609308 0.737636 0.513878
0.618402 0.739956 0.519097
0.627771 0.740993 0.523308
0.638148 0.741421 0.527276
0.650538 0.741634 0.532006
0.665126 0.742336 0.538231
0.681422 0.743465 0.545556
0.699397 0.745144 0.554437
0.717983 0.747280 0.564019
0.726741 0.748806 0.562036
0.736416 0.750271 0.559594
0.746639 0.751369 0.556420
0.757473 0.752224 0.552361
0.765164 0.749783 0.548058
0.771572 0.745266 0.543664
0.778805 0.740352 0.539483
0.787106 0.735195 0.535576
0.796262 0.729488 0.531975
0.807767 0.724849 0.530297
0.834440 0.735714 0.544793
0.868803 0.740566 0.527001
0.901762 0.740993 0.499550
0.932403 0.738247 0.466529
0.956420 0.734188 0.441352
0.973754 0.731563 0.432624
0.990326 0.729885 0.426429
1.000000 0.729183 0.422736
1.000000 0.729458 0.421942
1.000000 0.730434 0.423682
0.622461 0.752071 0.528985
0.626795 0.754818 0.533043
0.632441 0.757687 0.537652
0.639155 0.760250 0.542351
0.646784 0.762142 0.546715
0.654780 0.762997 0.550256
0.663813 0.763394 0.553674
0.674311 0.763577 0.557702
0.686854 0.764157 0.562829
0.701015 0.765042 0.569055
0.716701 0.766323 0.576471
0.733242 0.767910 0.584771
0.745846 0.769406 0.588617
0.753994 0.770565 0.586572
0.762844 0.771695 0.584161
0.772549 0.772885 0.581323
0.783383 0.774411 0.578668
0.790890 0.772702 0.576715
0.798581 0.770535 0.575525
0.807309 0.768429 0.574884
0.816861 0.766232 0.574792
0.827054 0.763699 0.575036
0.837613 0.760433 0.574945
0.861051 0.770382 0.588800
0.889555 0.775967 0.580407
0.918639 0.777066 0.559136
0.945678 0.775387 0.533806
0.970367 0.771725 0.506706
0.985748 0.770108 0.501823
1.000000 0.769100 0.498939
1.000000 0.768704 0.498146
1.000000 0.768887 0.499672
0.676661 0.790646 0.580652
0.678370 0.791653 0.582208
0.680720 0.792416 0.583734
0.683894 0.792844 0.585199
0.688136 0.792996 0.586725
0.693263 0.792721 0.588251
0.699947 0.792447 0.590387
0.708492 0.792386 0.593347
0.718837 0.792660 0.597345
0.731014 0.793393 0.602747
0.744350 0.794461 0.609094
0.758694 0.795712 0.616327
0.773251 0.796963 0.624018
0.780819 0.797910 0.623346
0.787991 0.798703 0.621057
0.795865 0.799496 0.618402
0.804410 0.800290 0.615503
0.813504 0.801083 0.612543
0.819242 0.798703 0.610468
0.825589 0.796201 0.608576
0.832639 0.793454 0.606867
0.840269 0.790494 0.605463
0.848386 0.787045 0.603937
0.856718 0.782925 0.602106
0.875700 0.789273 0.612116
0.899596 0.794339 0.608423
0.926390 0.795407 0.589227
0.951415 0.794400 0.567834
0.975280 0.791501 0.542962
0.991547 0.789609 0.533898
1.000000 0.788693 0.532067
1.000000 0.788144 0.532097
0.703517 0.810117 0.605402
0.704860 0.810819 0.606622
0.706905 0.811460 0.607996
0.709743 0.811887 0.609400
0.713405 0.812039 0.610864
0.718013 0.811948 0.612421
0.723812 0.811734 0.614374
0.731289 0.811673 0.616999
0.740200 0.811917 0.620691
0.750698 0.812467 0.625452
0.762325 0.813291 0.631098
0.774777 0.814267 0.637537
0.787716 0.815335 0.644495
0.798703 0.816434 0.649226
0.805020 0.817319 0.647669
0.811917 0.818265 0.645777
0.819516 0.819333 0.643824
0.827817 0.820462 0.641688
0.835935 0.820981 0.639704
0.841489 0.819181 0.638361
0.847623 0.817288 0.637263
0.854276 0.815091 0.636225
0.861295 0.812558 0.635187
0.868681 0.809659 0.634058
0.870726 0.798978 0.621302
0.886717 0.803311 0.629114
0.907256 0.808560 0.630457
0.932341 0.809812 0.613123
0.955993 0.809232 0.593774
0.978332 0.807034 0.572259
0.996307 0.804746 0.557824
1.000000 0.804044 0.557427
0.739437 0.834928 0.641260
0.741329 0.835966 0.643214
0.742916 0.836423 0.644312
0.744533 0.836240 0.644709
0.746334 0.835599 0.644617
0.748867 0.834623 0.644526
0.752224 0.833463 0.644495
0.756832 0.832303 0.645075
0.762966 0.831357 0.646479
0.770443 0.830747 0.648920
0.779019 0.830259 0.652064
0.788876 0.830198 0.656397
0.799344 0.830228 0.661372
0.810147 0.830289 0.666773
0.816342 0.830198 0.666102
0.821408 0.830167 0.663020
0.827268 0.830350 0.659998
0.834104 0.830961 0.657404
0.842100 0.832090 0.655451
0.849424 0.832425 0.654475
0.855161 0.831266 0.654047
0.861204 0.829740 0.653529
0.867308 0.827604 0.652369
0.873411 0.824735 0.650446
0.879515 0.821042 0.647669
0.885740 0.816617 0.644343
0.898711 0.818723 0.649439
0.915404 0.823270 0.654017
0.938567 0.823972 0.637079
0.960540 0.823270 0.618952
0.981415 0.821195 0.599084
1.000000 0.817929 0.578668
0.755612 0.846677 0.656947
0.757259 0.847562 0.658686
0.758877 0.848112 0.660029
0.760678 0.848234 0.660883
0.762936 0.848081 0.661646
0.765957 0.847807 0.662501
0.770016 0.847562 0.663844
0.775235 0.847349 0.665766
0.781582 0.847318 0.668391
0.788998 0.847440 0.671809
0.797147 0.847532 0.675593
0.806119 0.847745 0.680079
0.815427 0.847898 0.684810
0.825010 0.847959 0.689754
0.833707 0.847898 0.693507
0.837888 0.847776 0.690669
0.842649 0.847807 0.687800
0.848325 0.848142 0.685237
0.854917 0.848966 0.683253
0.862455 0.850217 0.681910
0.868498 0.850065 0.681270
0.873686 0.848905 0.680842
0.879057 0.847379 0.680171
0.884489 0.845365 0.679042
0.890013 0.842802 0.677394
0.895689 0.839689 0.675166
0.901671 0.836057 0.672663
0.912230 0.837034 0.676692
0.925505 0.841550 0.685420
0.946319 0.842222 0.670832
0.966064 0.841459 0.655055
0.984619 0.839475 0.638056
0.778225 0.862364 0.681331
0.779019 0.862730 0.682155
0.779995 0.862943 0.682826
0.781308 0.862913 0.683345
0.783047 0.862669 0.683803
0.785519 0.862364 0.684413
0.788785 0.861997 0.685359
0.793027 0.861662 0.686732
0.798276 0.861418 0.688777
0.804501 0.861326 0.691554
0.811521 0.861265 0.694789
0.819303 0.861387 0.698634
0.827543 0.861418 0.702846
0.835966 0.861387 0.707179
0.844511 0.861234 0.711604
0.850217 0.861082 0.711971
0.854276 0.861051 0.709377
0.859068 0.861326 0.706996
0.864744 0.861936 0.705165
0.871183 0.862974 0.703853
0.878325 0.864225 0.702907
0.883207 0.863584 0.702358
0.887724 0.862242 0.701564
0.892393 0.860502 0.700343
0.897093 0.858305 0.698634
0.901976 0.855619 0.696345
0.907134 0.852537 0.693935
0.912474 0.849088 0.691218
0.921386 0.849088 0.693904
0.933135 0.853178 0.703029
0.951141 0.854368 0.693324
0.969207 0.853849 0.679652
0.794888 0.874174 0.699672
0.795529 0.874449 0.700343
0.796445 0.874662 0.701076
0.797787 0.874754 0.701808
0.799802 0.874876 0.702876
0.802762 0.875090 0.704555
0.807065 0.875700 0.707393
0.812375 0.876463 0.711055
0.818723 0.877501 0.715602
0.825834 0.878660 0.720760
0.833616 0.879881 0.726497
0.841611 0.881010 0.732357
0.849699 0.881987 0.738155
0.857664 0.882689 0.743587
0.865354 0.883085 0.748714
0.872740 0.883146 0.753140
0.876188 0.883330 0.751461
0.880064 0.883635 0.749783
0.884550 0.884184 0.748440
0.889586 0.884916 0.747433
0.895109 0.885832 0.746609
0.900938 0.886717 0.745754
0.904417 0.885527 0.744869
0.907958 0.884092 0.743679
0.911589 0.882261 0.742031
0.915404 0.880125 0.739986
0.919432 0.877623 0.737697
0.923674 0.874876 0.735286
0.928252 0.871916 0.732906
0.934813 0.871031 0.734279
0.943786 0.873899 0.742214
0.956847 0.874693 0.737514
0.824186 0.892973 0.736965
0.824308 0.893004 0.737026
0.824643 0.892912 0.737057
0.825315 0.892760 0.737148
0.826535 0.892576 0.737423
0.828305 0.892363 0.737972
0.830777 0.892210 0.738979
0.834012 0.892119 0.740444
0.838010 0.892088 0.742458
0.842710 0.892149 0.745022
0.848020 0.892241 0.748013
0.853819 0.892363 0.751400
0.859983 0.892485 0.755032
0.866239 0.892515 0.758755
