20 Preset/Scenery style/【3】LUT video cho PR-AE-FCPX/Scenery LUT (9).cube
# Created by Adobe Lightroom plugin Export LUT (1.24.0)
# www.johnrellis.com/lightroom/exportlut.htm
# Preset: 暗青风光-素材江湖09
# Color profile: C:\Program Files (x86)\Common Files\Adobe\Color\Profiles\Recommended\VideoHD.icc
LUT_3D_SIZE 5
DOMAIN_MIN 0.000000 0.000000 0.000000
DOMAIN_MAX 0.903226 0.903226 0.903226
0.063966 0.104799 0.114015
0.117525 0.118654 0.132937
0.416846 0.000000 0.144472
0.858488 0.000000 0.185336
1.000000 0.329686 0.330968
0.065492 0.155367 0.133181
0.128420 0.154910 0.136934
0.402167 0.191806 0.143923
0.852445 0.236698 0.185702
1.000000 0.426978 0.355566
0.326024 0.504173 0.000000
0.473304 0.513085 0.000000
0.581170 0.476204 0.092195
0.819364 0.547173 0.290227
0.987610 0.637018 0.446876
0.670558 0.802365 0.270634
0.732631 0.804959 0.279698
0.865934 0.797696 0.320256
0.861265 0.740871 0.410651
0.930907 0.772183 0.578332
0.843534 0.912200 0.589136
0.861753 0.911772 0.592706
0.925414 0.906035 0.577661
0.960143 0.891722 0.600275
0.962646 0.866789 0.633631
0.071260 0.129885 0.160037
0.107912 0.121859 0.165927
0.323339 0.111727 0.188235
0.762295 0.098604 0.256718
0.998199 0.356817 0.381872
0.034485 0.146883 0.162631
0.102174 0.151736 0.166171
0.310033 0.191135 0.200717
0.760708 0.262425 0.274754
0.990021 0.435004 0.407385
0.115541 0.392920 0.198367
0.284550 0.410864 0.194156
0.433387 0.392798 0.240146
0.743404 0.526543 0.366918
0.956146 0.653101 0.522118
0.607416 0.778500 0.396918
0.672145 0.783993 0.408453
0.835874 0.789303 0.444984
0.828946 0.736172 0.493477
0.916564 0.778805 0.618250
0.829923 0.909789 0.630823
0.847440 0.909453 0.633509
0.912749 0.908965 0.650385
0.951537 0.896513 0.662287
0.954894 0.874357 0.682765
0.000000 0.168673 0.364324
0.000000 0.150515 0.378241
0.307469 0.113008 0.379187
0.643397 0.114961 0.421637
0.913603 0.447425 0.554894
0.000000 0.214359 0.343938
0.101015 0.208621 0.345953
0.286320 0.189120 0.357122
0.629389 0.248325 0.428534
0.901549 0.521660 0.582086
0.000000 0.328283 0.354498
0.024475 0.330053 0.353704
0.333806 0.398077 0.411902
0.637903 0.511131 0.506340
0.891051 0.667140 0.636133
0.188846 0.699947 0.472480
0.358038 0.694850 0.496284
0.655329 0.727291 0.575036
0.742611 0.715633 0.610437
0.881865 0.794095 0.702266
0.761929 0.896361 0.701137
0.783658 0.897673 0.707454
0.856168 0.901427 0.728389
0.926879 0.899321 0.750332
0.930419 0.879088 0.751675
0.000000 0.259373 0.639094
0.111666 0.256413 0.641840
0.367651 0.233402 0.651423
0.628656 0.173800 0.647761
0.857847 0.335882 0.647395
0.164096 0.335698 0.623835
0.219364 0.331273 0.625666
0.376837 0.306218 0.631800
0.606653 0.261265 0.628443
0.839719 0.389899 0.641962
0.329900 0.484474 0.590387
0.352300 0.485634 0.590478
0.421729 0.479713 0.597711
0.578454 0.448920 0.605432
0.819913 0.567498 0.663447
0.257298 0.615076 0.614405
0.303563 0.611872 0.610620
0.446052 0.617700 0.612268
0.631037 0.669764 0.653620
0.853086 0.782254 0.751736
0.473213 0.876127 0.698787
0.517388 0.876921 0.702663
0.668757 0.882963 0.729763
0.869444 0.895995 0.812345
0.903319 0.885924 0.818906
0.486580 0.528649 0.826596
0.502617 0.524926 0.827237
0.570214 0.509117 0.830900
0.697414 0.465126 0.837400
0.873869 0.453803 0.836271
0.520745 0.572930 0.820096
0.533349 0.569574 0.820951
0.588617 0.554070 0.824765
0.700893 0.513970 0.831601
0.867185 0.496681 0.831998
0.598718 0.678492 0.806180
0.604089 0.675319 0.806760
0.633783 0.663081 0.810513
0.709285 0.633600 0.817807
0.850675 0.609216 0.823148
0.640467 0.758694 0.802762
0.652094 0.759884 0.801724
0.694026 0.766171 0.800626
0.734432 0.758633 0.810391
0.837613 0.738216 0.820340
0.569879 0.845335 0.823728
0.586664 0.845060 0.823301
0.650538 0.845396 0.822904
0.743313 0.847318 0.823301
0.849729 0.864836 0.839139
