20 Preset/caramel style/【3】LUT video cho PR-AE-FCPX/Tone  (4).cube
# Created by Adobe Lightroom plugin Export LUT (1.24.0)
# www.johnrellis.com/lightroom/exportlut.htm
# Preset: 褐色婚礼-素材江湖03
# Color profile: C:\Program Files (x86)\Common Files\Adobe\Color\Profiles\Recommended\VideoHD.icc
LUT_3D_SIZE 8
DOMAIN_MIN 0.000000 0.000000 0.000000
DOMAIN_MAX 0.903226 0.903226 0.903226
0.092653 0.069673 0.068574
0.114595 0.065003 0.071229
0.217075 0.031525 0.080140
0.329442 0.030304 0.084291
0.460914 0.052949 0.079744
0.609308 0.096345 0.071809
0.746822 0.127626 0.085908
0.856016 0.167025 0.114046
0.080140 0.104555 0.069398
0.128725 0.106416 0.072358
0.215854 0.102632 0.079164
0.323064 0.105440 0.082124
0.451118 0.116854 0.078584
0.592706 0.131533 0.078553
0.725521 0.152926 0.087617
0.842313 0.184390 0.111666
0.123293 0.187869 0.094881
0.152712 0.188418 0.094911
0.233829 0.191379 0.097444
0.343938 0.199649 0.096834
0.471870 0.210910 0.094972
0.610590 0.226322 0.094972
0.747982 0.246189 0.105776
0.856596 0.266270 0.135683
0.159213 0.301793 0.109957
0.186831 0.302464 0.110170
0.270115 0.307988 0.111208
0.388342 0.323217 0.113985
0.520256 0.338659 0.116518
0.640742 0.346410 0.128023
0.757443 0.355505 0.141329
0.856809 0.365423 0.171206
0.199039 0.434730 0.130373
0.223636 0.434424 0.130922
0.301488 0.436378 0.132052
0.408759 0.443427 0.136660
0.525475 0.450233 0.142916
0.642084 0.455390 0.149294
0.750820 0.461433 0.181613
0.850828 0.469642 0.218326
0.245151 0.562493 0.174228
0.267857 0.567926 0.177401
0.335180 0.568780 0.179477
0.432380 0.571160 0.184329
0.541619 0.574304 0.191440
0.657069 0.580774 0.204410
0.760739 0.579278 0.229648
0.855344 0.583368 0.280278
0.315862 0.684138 0.256718
0.330602 0.685176 0.258518
0.380407 0.684474 0.260014
0.460060 0.684535 0.265019
0.554070 0.683711 0.271611
0.656703 0.686183 0.285252
0.761929 0.690913 0.304784
0.853880 0.688411 0.337224
0.427008 0.802884 0.381720
0.435187 0.802884 0.382208
0.469154 0.803738 0.385382
0.529381 0.806302 0.393317
0.593805 0.796902 0.386145
0.685359 0.802976 0.403204
0.783932 0.811032 0.425147
0.881956 0.817838 0.446387
0.088533 0.069581 0.094240
0.115328 0.063355 0.095125
0.208927 0.050690 0.097353
0.314397 0.079683 0.106996
0.445197 0.080537 0.109010
0.583703 0.094209 0.110903
0.713954 0.118929 0.115450
0.831815 0.155764 0.130587
0.078614 0.105043 0.100862
0.129152 0.106416 0.102205
0.210422 0.110597 0.106813
0.316838 0.114595 0.109895
0.445014 0.119722 0.110689
0.580468 0.129854 0.112367
0.705684 0.147219 0.115816
0.823392 0.175937 0.129671
0.128206 0.185214 0.118471
0.154574 0.185946 0.118776
0.231266 0.189181 0.120485
0.336706 0.196811 0.121584
0.459388 0.205905 0.120790
0.589685 0.218021 0.121096
0.716609 0.232883 0.126833
0.833494 0.254124 0.146426
0.154940 0.293858 0.129427
0.181735 0.294255 0.129519
0.262577 0.298863 0.130343
0.369482 0.306493 0.132448
0.489174 0.316808 0.135317
0.606256 0.325353 0.142733
0.725490 0.336675 0.150118
0.833890 0.350500 0.173587
0.193576 0.428473 0.149203
0.217960 0.427405 0.148684
0.294560 0.427436 0.149691
0.397803 0.430579 0.152163
0.509056 0.434424 0.156222
0.624262 0.440681 0.161959
0.735744 0.449989 0.189151
0.837827 0.459663 0.220432
0.238712 0.552636 0.185183
0.258671 0.553124 0.186160
0.326116 0.554650 0.187961
0.423072 0.558648 0.192782
0.532433 0.563775 0.200015
0.649561 0.573266 0.213169
0.753628 0.572686 0.235142
0.847257 0.576287 0.281773
0.306035 0.675380 0.257694
0.318547 0.674128 0.256748
0.369207 0.673243 0.257877
0.450721 0.674342 0.263401
0.547204 0.676173 0.272740
0.649805 0.678798 0.285496
0.753414 0.681880 0.301732
0.843992 0.678187 0.330968
0.416052 0.794949 0.376928
0.426398 0.796262 0.379370
0.460334 0.796811 0.382147
0.521538 0.799527 0.390112
0.599725 0.802304 0.400122
0.686946 0.804623 0.411597
0.782162 0.809384 0.428351
0.879881 0.815885 0.448737
0.046174 0.067659 0.156954
0.112795 0.057923 0.158328
0.204837 0.076478 0.162966
0.322118 0.063294 0.173373
0.454414 0.000000 0.173526
0.596002 0.030671 0.182559
0.726467 0.108095 0.191775
0.841367 0.158022 0.205875
0.101839 0.111421 0.162631
0.131411 0.111574 0.163760
0.211612 0.114504 0.167330
0.322942 0.110323 0.173190
0.452247 0.096254 0.173831
0.590112 0.116701 0.183383
0.718318 0.141390 0.190311
0.834653 0.178470 0.204044
0.131289 0.188327 0.178347
0.155856 0.189425 0.178988
0.233249 0.191379 0.179263
0.339422 0.196750 0.183352
0.469917 0.206058 0.188174
0.600183 0.217136 0.192996
0.724727 0.233280 0.199802
0.837034 0.256291 0.214939
0.140078 0.301396 0.193759
0.167880 0.303075 0.192355
0.261234 0.306340 0.193668
0.376928 0.312963 0.197116
0.495949 0.321569 0.206851
0.614954 0.330724 0.212741
0.734646 0.342992 0.220798
0.839872 0.357183 0.238102
0.179385 0.430274 0.211643
0.207370 0.430304 0.211826
0.290929 0.431708 0.212863
0.399878 0.436561 0.216587
0.516258 0.441932 0.220951
0.628809 0.445136 0.228428
0.737545 0.453956 0.249943
0.839414 0.464393 0.273075
0.232609 0.552941 0.240452
0.253300 0.553826 0.241184
0.322148 0.554894 0.242649
0.420020 0.557336 0.245670
0.529320 0.561761 0.251408
0.646845 0.571344 0.262608
0.751400 0.571954 0.280766
0.846555 0.579431 0.324651
0.308598 0.678187 0.302770
0.321324 0.677180 0.301915
0.370611 0.675380 0.301671
0.450690 0.675166 0.304906
0.546410 0.676234 0.311803
0.649836 0.679774 0.324102
0.755428 0.685389 0.341497
0.848203 0.684627 0.369177
0.417212 0.795285 0.404486
0.424750 0.794644 0.403906
0.458442 0.795010 0.406317
0.521599 0.799344 0.415808
0.599298 0.802029 0.424872
0.687892 0.806180 0.437415
0.783597 0.811887 0.453773
0.881285 0.818631 0.472206
0.055726 0.078096 0.234897
0.115663 0.079927 0.237827
0.210117 0.085115 0.243137
0.318608 0.078340 0.251926
0.455543 0.000580 0.267735
0.592096 0.000000 0.273136
0.718807 0.000000 0.274144
0.832883 0.134646 0.286290
0.092012 0.116915 0.245121
0.129824 0.116670 0.246250
0.217777 0.115999 0.250095
0.326818 0.111910 0.257420
0.462074 0.093721 0.270603
0.593927 0.068849 0.273716
0.718318 0.095552 0.274784
0.831937 0.167086 0.288182
0.115785 0.194644 0.259464
0.143862 0.193973 0.260472
0.228733 0.190494 0.263005
0.344945 0.192599 0.267918
0.474922 0.199954 0.276677
0.605921 0.208713 0.282170
0.734493 0.234592 0.294285
0.841123 0.263096 0.305241
0.136355 0.307469 0.286076
0.166262 0.307591 0.285985
0.254154 0.309545 0.286198
0.374090 0.312108 0.286168
0.489662 0.319615 0.292821
0.609491 0.329717 0.298161
0.730983 0.343297 0.306340
0.837766 0.360662 0.318914
0.170474 0.437690 0.306920
0.197940 0.437140 0.305608
0.281437 0.437934 0.302708
0.399817 0.442969 0.306157
0.521782 0.448859 0.310704
0.631739 0.452308 0.322301
0.740291 0.461616 0.334813
0.840299 0.472023 0.349676
0.226352 0.562463 0.326452
0.250004 0.566674 0.329351
0.321904 0.566125 0.329259
0.423499 0.568322 0.331670
0.535058 0.571740 0.335973
0.650172 0.576959 0.342901
0.750973 0.576043 0.359411
0.845396 0.586297 0.393774
0.307317 0.680201 0.370764
0.321965 0.680659 0.371527
0.374090 0.681147 0.373541
0.455573 0.682094 0.377508
0.551049 0.682948 0.382605
0.652735 0.684993 0.390967
0.756222 0.689052 0.403326
0.850095 0.690242 0.425299
0.422705 0.800443 0.457282
0.430732 0.800381 0.457588
0.463569 0.800626 0.459083
0.522637 0.802243 0.463722
0.599298 0.804379 0.470314
0.687343 0.808164 0.480262
0.783749 0.814603 0.494087
0.883604 0.823392 0.510552
0.033631 0.095644 0.335515
0.114168 0.095491 0.337774
0.217014 0.091554 0.341985
0.329747 0.069398 0.349584
0.455116 0.015137 0.361242
0.591302 0.000000 0.374060
0.716793 0.000092 0.377813
0.831083 0.138918 0.383673
0.040284 0.123171 0.343359
0.118135 0.122560 0.345617
0.221225 0.118715 0.348791
0.333654 0.110079 0.353643
0.460060 0.096956 0.364721
0.593652 0.087434 0.375158
0.717617 0.109773 0.378607
0.830777 0.170626 0.384955
0.061280 0.201114 0.358007
0.116304 0.197940 0.358984
0.223819 0.193423 0.361578
0.345800 0.192996 0.366125
0.470558 0.194064 0.371283
0.592889 0.203403 0.374548
0.716213 0.219120 0.380011
0.826108 0.252262 0.387701
0.109407 0.308385 0.377173
0.147097 0.308019 0.377539
0.243778 0.307805 0.379797
0.364233 0.308019 0.382879
0.489784 0.314794 0.385229
0.605035 0.326177 0.387396
0.723262 0.340002 0.394079
0.828519 0.360479 0.403571
0.165835 0.432502 0.399145
0.193851 0.433265 0.399573
0.276799 0.434760 0.399908
0.386877 0.436683 0.399603
0.506371 0.437751 0.398352
0.614069 0.444129 0.405127
0.727840 0.453986 0.411780
0.830747 0.466316 0.421973
0.210178 0.549798 0.410986
0.231388 0.550103 0.411017
0.299077 0.549157 0.408637
0.396277 0.550286 0.406378
0.512383 0.555444 0.409247
0.637385 0.567529 0.420386
0.739681 0.572717 0.440894
0.836759 0.584527 0.461372
0.283574 0.676570 0.444709
0.296086 0.675685 0.443702
0.346349 0.674464 0.441840
0.435523 0.676051 0.445533
0.538048 0.678370 0.451057
0.642878 0.680507 0.457160
0.747799 0.684260 0.466133
0.842435 0.685817 0.482094
0.380560 0.792447 0.499733
0.392554 0.792142 0.500786
0.432441 0.791958 0.503075
0.501183 0.796902 0.510948
0.582605 0.799924 0.516625
0.674372 0.804105 0.524224
0.773495 0.810178 0.534234
0.875761 0.818051 0.546014
0.000000 0.108125 0.451423
0.092256 0.106783 0.452979
0.219425 0.099763 0.454444
0.341375 0.082216 0.462409
0.466743 0.027710 0.470985
0.594324 0.000000 0.478218
0.722621 0.070314 0.485481
0.833127 0.166232 0.487129
0.000000 0.131106 0.449744
0.089387 0.129824 0.450233
0.217319 0.125093 0.452155
0.338384 0.115389 0.458503
0.462226 0.101625 0.465949
0.589746 0.094148 0.473945
0.717281 0.121859 0.481544
0.828794 0.185031 0.484352
0.000000 0.203738 0.468605
0.000000 0.202792 0.468879
0.216739 0.201694 0.470741
0.344915 0.198581 0.470619
0.471809 0.198825 0.475166
0.599878 0.203983 0.481727
0.722225 0.227146 0.486275
0.829435 0.267552 0.489235
0.019165 0.319951 0.486580
0.119051 0.318639 0.486152
0.233890 0.315709 0.487800
0.362005 0.315953 0.493629
0.494453 0.321050 0.497780
0.621790 0.329229 0.500603
0.733181 0.350683 0.500175
0.833371 0.379492 0.504936
0.134829 0.434241 0.496803
0.168673 0.434241 0.496864
0.260472 0.434546 0.497749
0.374395 0.435798 0.500359
0.497230 0.436530 0.502159
0.619989 0.444373 0.502464
0.726284 0.458625 0.505608
0.825437 0.479225 0.515862
0.199283 0.558068 0.514214
0.223941 0.560174 0.515984
0.295720 0.560876 0.516106
0.394629 0.561761 0.515801
0.506371 0.562158 0.514824
0.629725 0.567163 0.518669
0.730983 0.576532 0.531090
0.833341 0.586755 0.540276
0.277806 0.679835 0.537682
0.295140 0.680751 0.538689
0.348760 0.680812 0.538781
0.433539 0.680873 0.539635
0.535027 0.681056 0.543023
0.637751 0.683436 0.545586
0.743740 0.687282 0.551171
0.842771 0.694514 0.566766
0.350774 0.793759 0.571160
0.359289 0.793057 0.570336
0.397894 0.792752 0.570214
0.464912 0.794858 0.572290
0.552026 0.797299 0.575372
0.653040 0.801907 0.580774
0.761013 0.808865 0.588708
0.870451 0.816831 0.597253
0.000000 0.119265 0.570092
0.000000 0.117678 0.571618
0.208621 0.110353 0.573144
0.341161 0.095552 0.577111
0.467964 0.055909 0.581292
0.594354 0.023835 0.586023
0.720882 0.057008 0.591180
0.821561 0.168643 0.580499
0.000000 0.140078 0.567773
0.000000 0.139284 0.569604
0.204532 0.134005 0.571008
0.338018 0.123751 0.573754
0.464729 0.109773 0.577508
0.589929 0.101259 0.581415
0.714870 0.110903 0.585565
0.815152 0.181064 0.575006
0.000000 0.208225 0.579004
0.000000 0.207950 0.579248
0.191073 0.205936 0.579461
0.336919 0.203403 0.581140
0.467323 0.201572 0.583185
0.594720 0.204196 0.586725
0.722347 0.216464 0.592645
0.820768 0.265080 0.582300
0.000000 0.318730 0.592615
0.000000 0.316625 0.591882
0.178958 0.309880 0.591943
0.337255 0.309697 0.593652
0.473854 0.312078 0.595087
0.604395 0.319219 0.598535
0.732296 0.332616 0.603357
0.823941 0.368994 0.591058
0.000000 0.434058 0.600336
0.000000 0.432654 0.599603
0.204501 0.429694 0.599207
0.335424 0.425147 0.600702
0.472175 0.425788 0.602075
0.604761 0.432013 0.604120
0.729885 0.444648 0.606012
0.823514 0.476631 0.602441
0.109224 0.554589 0.612085
0.150271 0.554772 0.612390
0.247959 0.554772 0.612970
0.361151 0.554711 0.614191
0.483192 0.555016 0.615259
0.611780 0.561334 0.617670
0.727626 0.573785 0.618555
0.825101 0.588739 0.623346
0.232090 0.678096 0.630457
0.251652 0.678767 0.631006
0.315373 0.679164 0.631250
0.410193 0.680140 0.632197
0.518059 0.679927 0.632166
0.624353 0.680018 0.632563
0.730983 0.683070 0.634913
0.837400 0.690517 0.643122
0.326696 0.792966 0.655360
0.338109 0.793271 0.655787
0.382757 0.795285 0.657984
0.451026 0.797147 0.659602
0.533257 0.799619 0.660487
0.626184 0.803738 0.660273
0.740139 0.809934 0.661372
0.864775 0.817868 0.667933
0.000000 0.140414 0.689052
0.000000 0.139742 0.689723
0.181399 0.134585 0.689418
0.331640 0.127047 0.691402
0.463233 0.120699 0.693690
0.589593 0.123476 0.696101
0.714412 0.145663 0.699855
0.836484 0.183871 0.703120
0.000000 0.158389 0.687343
0.000000 0.157809 0.688075
0.175113 0.154177 0.688411
0.328954 0.148562 0.689998
0.461341 0.144564 0.692195
0.587945 0.148043 0.694514
0.712123 0.165377 0.697566
0.833585 0.197665 0.700435
0.000000 0.219669 0.690364
0.000000 0.219516 0.690578
0.149569 0.218143 0.690578
0.323064 0.218723 0.693599
0.459480 0.219211 0.694636
0.587213 0.223972 0.695827
0.712154 0.238773 0.698848
0.833829 0.263767 0.701869
0.000000 0.312444 0.695827
0.000000 0.311681 0.696345
0.071962 0.309514 0.696651
0.309697 0.311589 0.698116
0.455329 0.315465 0.699611
0.587274 0.322606 0.701167
0.714046 0.336675 0.704097
0.836210 0.357885 0.707454
0.000000 0.421942 0.702449
0.000000 0.421149 0.702998
0.000000 0.415412 0.702785
0.279332 0.414130 0.703761
0.442725 0.418738 0.704463
0.581506 0.425818 0.705806
0.711940 0.439551 0.709010
0.836667 0.461219 0.714107
0.000000 0.543969 0.712551
0.000000 0.542840 0.712001
0.000000 0.539513 0.711055
0.273167 0.534966 0.711086
0.422339 0.531029 0.712428
0.579339 0.545617 0.716274
0.714900 0.562097 0.722683
0.840299 0.580163 0.729580
0.000000 0.673640 0.731380
0.000000 0.673426 0.731289
0.203677 0.672786 0.731106
0.337133 0.672938 0.731838
0.464912 0.674006 0.733303
0.586908 0.675593 0.736507
0.710597 0.676020 0.738857
0.838987 0.684993 0.741207
0.241154 0.800412 0.755947
0.256931 0.800259 0.755795
0.314336 0.800504 0.756100
0.399145 0.802060 0.757687
0.494850 0.803983 0.759579
0.598138 0.806455 0.761715
0.714931 0.808957 0.763729
0.847532 0.813870 0.768887
