20 Preset/caramel style/【3】LUT video cho PR-AE-FCPX/Tone  (4).cube
# Created by Adobe Lightroom plugin Export LUT (1.24.0)
# www.johnrellis.com/lightroom/exportlut.htm
# Preset: 褐色婚礼-素材江湖03
# Color profile: C:\Program Files (x86)\Common Files\Adobe\Color\Profiles\Recommended\VideoHD.icc
LUT_3D_SIZE 5
DOMAIN_MIN 0.000000 0.000000 0.000000
DOMAIN_MAX 0.903226 0.903226 0.903226
0.092653 0.069673 0.068574
0.192966 0.033051 0.078920
0.394781 0.034760 0.083955
0.647486 0.103243 0.075227
0.856016 0.167025 0.114046
0.112703 0.166110 0.087373
0.206088 0.168429 0.091707
0.400732 0.179995 0.091157
0.646632 0.206699 0.091859
0.859678 0.246098 0.131594
0.179538 0.372015 0.118502
0.262272 0.369848 0.118715
0.461494 0.389593 0.125887
0.668055 0.401373 0.145327
0.852079 0.415595 0.191653
0.263096 0.601556 0.194461
0.326390 0.602319 0.196689
0.492622 0.605066 0.205966
0.685725 0.610376 0.226658
0.854795 0.609583 0.292943
0.427008 0.802884 0.381720
0.457954 0.803342 0.384131
0.552361 0.795132 0.379950
0.709712 0.805051 0.408728
0.881956 0.817838 0.446387
0.048402 0.069123 0.140383
0.181735 0.060578 0.145235
0.383032 0.031067 0.151919
0.620142 0.082460 0.163272
0.833707 0.153628 0.181613
0.124483 0.164889 0.156985
0.204410 0.167605 0.158236
0.393774 0.176059 0.163119
0.624262 0.194919 0.169986
0.835294 0.233341 0.191348
0.160037 0.363043 0.180758
0.250462 0.363287 0.181125
0.442451 0.372320 0.186343
0.645136 0.386419 0.205417
0.843992 0.412696 0.240574
0.258030 0.598901 0.244938
0.322698 0.600275 0.247074
0.490181 0.603174 0.254368
0.682246 0.607630 0.269841
0.850645 0.608606 0.326726
0.426551 0.801511 0.404822
0.456794 0.801541 0.406531
0.563348 0.804562 0.417456
0.715236 0.811246 0.438819
0.887297 0.824765 0.473884
0.046693 0.088624 0.283940
0.188205 0.089479 0.289464
0.384680 0.048463 0.304448
0.622553 0.000000 0.323796
0.831785 0.129519 0.333318
0.094728 0.176028 0.304295
0.197513 0.169162 0.306310
0.404089 0.167514 0.317174
0.625696 0.178195 0.326574
0.833188 0.231846 0.342412
0.145663 0.368872 0.341680
0.238041 0.370092 0.341680
0.440955 0.374060 0.341344
0.639673 0.388983 0.352819
0.834562 0.414374 0.371435
0.237064 0.594018 0.379828
0.298497 0.591333 0.375952
0.475746 0.595911 0.380682
0.674495 0.603937 0.392676
0.838529 0.607599 0.430030
0.403204 0.793515 0.474617
0.437201 0.794736 0.477302
0.548669 0.798520 0.485939
0.702876 0.804868 0.500420
0.876616 0.817288 0.522972
0.000000 0.109926 0.474434
0.185489 0.104189 0.477729
0.400336 0.059480 0.488777
0.621393 0.000000 0.501762
0.826474 0.159762 0.507195
0.000000 0.180880 0.485634
0.177035 0.178897 0.487221
0.402869 0.172885 0.493324
0.623194 0.174899 0.502586
0.822965 0.237095 0.506950
0.013642 0.368505 0.506950
0.200717 0.366125 0.506950
0.415106 0.363104 0.511009
0.635767 0.373602 0.513939
0.822263 0.417517 0.523003
0.205997 0.593805 0.547845
0.274968 0.592859 0.546532
0.450141 0.594232 0.546471
0.655451 0.596887 0.548577
0.830472 0.609766 0.563134
0.346868 0.794095 0.592096
0.384497 0.794553 0.592767
0.503929 0.798734 0.596094
0.675227 0.806149 0.601801
0.869078 0.816800 0.612573
0.000000 0.140414 0.689052
0.131960 0.136202 0.689326
0.398566 0.123293 0.692622
0.621027 0.127047 0.697017
0.836484 0.183871 0.703120
0.000000 0.201541 0.689967
0.086885 0.199985 0.690486
0.393896 0.197665 0.692988
0.619348 0.205753 0.696590
0.835172 0.246586 0.702754
0.000000 0.364691 0.699153
0.000000 0.361944 0.698817
0.376471 0.362493 0.699794
0.615320 0.373236 0.701442
0.836027 0.406653 0.709682
0.000000 0.578088 0.718746
0.000000 0.575799 0.717952
0.363622 0.570489 0.717983
0.614160 0.579736 0.720790
0.839200 0.605371 0.731350
0.241154 0.800412 0.755947
0.296483 0.800351 0.755917
0.446265 0.803037 0.758663
0.626032 0.807065 0.762264
0.847532 0.813870 0.768887
