20 Preset/caramel style/【3】LUT video cho PR-AE-FCPX/Tone  (5).cube
# Created by Adobe Lightroom plugin Export LUT (1.24.0)
# www.johnrellis.com/lightroom/exportlut.htm
# Preset: 褐色婚礼-素材江湖04
# Color profile: C:\Program Files (x86)\Common Files\Adobe\Color\Profiles\Recommended\VideoHD.icc
LUT_3D_SIZE 5
DOMAIN_MIN 0.000000 0.000000 0.000000
DOMAIN_MAX 0.903226 0.903226 0.903226
0.000000 0.000000 0.000000
0.125734 0.023102 0.003845
0.393652 0.000000 0.000000
0.704433 0.000000 0.000000
0.869169 0.245029 0.108827
0.073732 0.127504 0.047639
0.144259 0.142245 0.057496
0.419501 0.132998 0.000000
0.708736 0.148592 0.000000
0.866819 0.311315 0.115755
0.238376 0.411231 0.258152
0.312413 0.410834 0.272801
0.490242 0.453895 0.296086
0.721279 0.451392 0.201846
0.846433 0.469764 0.209567
0.525872 0.635340 0.498604
0.551568 0.635889 0.507256
0.620172 0.641108 0.535149
0.696071 0.659174 0.544182
0.806180 0.666438 0.504417
0.688136 0.752926 0.691707
0.695033 0.753384 0.695155
0.715511 0.752438 0.703304
0.746456 0.760891 0.719387
0.784268 0.772244 0.729885
0.032013 0.027375 0.078767
0.121920 0.056550 0.088655
0.392676 0.072572 0.104860
0.688808 0.113771 0.114443
0.856443 0.267948 0.126772
0.047913 0.147768 0.132540
0.167971 0.175143 0.145235
0.422919 0.188998 0.139986
0.694301 0.219944 0.141543
0.852995 0.325933 0.159274
0.236545 0.419928 0.293828
0.322942 0.426673 0.309270
0.485298 0.453010 0.331731
0.706600 0.445045 0.254002
0.838285 0.483619 0.275273
0.529656 0.637964 0.515435
0.554467 0.639490 0.522881
0.625177 0.643610 0.553216
0.695033 0.660639 0.560388
0.803647 0.667018 0.520073
0.686549 0.753384 0.694301
0.693477 0.753719 0.697414
0.718685 0.756344 0.711421
0.748684 0.763333 0.726467
0.785702 0.774624 0.736477
0.000000 0.096223 0.279698
0.110994 0.118990 0.292912
0.399908 0.196109 0.331273
0.694575 0.273350 0.356573
0.834745 0.397345 0.371160
0.000000 0.180789 0.322545
0.175204 0.215976 0.333989
0.437201 0.287572 0.366369
0.695094 0.346166 0.378332
0.830350 0.435706 0.390814
0.195407 0.435981 0.424140
0.295598 0.449775 0.431708
0.533776 0.508049 0.470924
0.696803 0.509361 0.449622
0.817014 0.535454 0.446296
0.499519 0.644221 0.559228
0.530236 0.644800 0.562615
0.628412 0.655604 0.593896
0.695186 0.669795 0.612604
0.795010 0.665492 0.566583
0.665522 0.752255 0.695399
0.676661 0.753414 0.700282
0.711604 0.757687 0.717525
0.748135 0.763729 0.737514
0.783902 0.774716 0.745327
0.000000 0.185306 0.507439
0.073335 0.206180 0.516075
0.429755 0.289097 0.545342
0.671473 0.406744 0.575769
0.800290 0.518853 0.597986
0.000000 0.249088 0.522576
0.198154 0.279179 0.529717
0.457008 0.351049 0.554711
0.671229 0.453193 0.583581
0.794614 0.541375 0.603235
0.201328 0.418067 0.557366
0.282658 0.427893 0.559838
0.515038 0.501518 0.586725
0.676356 0.572625 0.615869
0.783902 0.611505 0.628229
0.462379 0.631159 0.633692
0.490852 0.634211 0.635431
0.586969 0.651118 0.647425
0.702052 0.688960 0.679957
0.784176 0.682307 0.658442
0.618555 0.755734 0.721248
0.630182 0.756313 0.722316
0.674098 0.759823 0.728939
0.742947 0.769131 0.753628
0.784451 0.779141 0.766903
0.192538 0.313024 0.696284
0.283818 0.328344 0.698329
0.494118 0.396551 0.707820
0.672694 0.524224 0.722835
0.774380 0.608270 0.733272
0.230106 0.350011 0.695644
0.315587 0.369055 0.697749
0.503624 0.429938 0.706813
0.672389 0.543603 0.722133
0.771756 0.620478 0.733974
0.150271 0.415930 0.698146
0.267521 0.432074 0.699916
0.520043 0.518761 0.708339
0.673396 0.601740 0.725093
0.768032 0.663630 0.743282
0.366613 0.596979 0.721401
0.394537 0.597284 0.720668
0.493568 0.602319 0.720455
0.669795 0.665034 0.737575
0.772793 0.725429 0.768368
0.580835 0.740291 0.767605
0.590845 0.741207 0.767819
0.631586 0.746853 0.770840
0.698848 0.759243 0.778164
0.788479 0.789181 0.803525
