20 Preset/caramel style/【3】LUT video cho PR-AE-FCPX/Tone  (11).cube
# Created by Adobe Lightroom plugin Export LUT (1.24.0)
# www.johnrellis.com/lightroom/exportlut.htm
# Preset: 褐色婚礼-素材江湖10
# Color profile: C:\Program Files (x86)\Common Files\Adobe\Color\Profiles\Recommended\VideoHD.icc
LUT_3D_SIZE 5
DOMAIN_MIN 0.000000 0.000000 0.000000
DOMAIN_MAX 0.903226 0.903226 0.903226
0.000000 0.000000 0.000000
0.208835 0.063020 0.083314
0.435401 0.112123 0.143496
0.700893 0.193088 0.234592
0.887846 0.305180 0.334936
0.160220 0.165133 0.141787
0.230045 0.188479 0.127535
0.423896 0.199557 0.157137
0.679500 0.252445 0.237125
0.886961 0.344213 0.342321
0.354070 0.368719 0.303380
0.375891 0.361883 0.317601
0.505852 0.417395 0.264988
0.652338 0.385168 0.247959
0.856687 0.432013 0.338384
0.585870 0.607904 0.497902
0.603021 0.606775 0.508293
0.647120 0.617609 0.501061
0.731502 0.619959 0.413092
0.841489 0.560388 0.347539
0.776699 0.788235 0.695003
0.782956 0.788022 0.699214
0.790372 0.776181 0.702235
0.825345 0.793606 0.679133
0.886168 0.793210 0.625452
0.007935 0.090700 0.137789
0.179263 0.079011 0.168246
0.407752 0.148989 0.214878
0.652277 0.222202 0.283055
0.853605 0.310582 0.356512
0.107149 0.187716 0.185885
0.205203 0.197024 0.197696
0.408972 0.223087 0.230411
0.644862 0.265293 0.282628
0.850492 0.340124 0.358038
0.315312 0.373449 0.302373
0.362097 0.368353 0.319982
0.466560 0.396033 0.287663
0.626642 0.378943 0.282200
0.845335 0.437324 0.366278
0.571923 0.610864 0.499428
0.593591 0.610529 0.510399
0.641230 0.616480 0.518761
0.722499 0.619013 0.431373
0.832731 0.556542 0.360540
0.772061 0.789456 0.694789
0.778439 0.788663 0.698329
0.800473 0.789303 0.716182
0.830198 0.801297 0.694881
0.889830 0.801785 0.643061
0.000000 0.199313 0.322972
0.114290 0.189059 0.334752
0.385443 0.140749 0.351476
0.652979 0.210544 0.390326
0.848661 0.362829 0.455879
0.115053 0.278508 0.356298
0.213413 0.281041 0.361578
0.400916 0.224125 0.366522
0.650446 0.284825 0.398657
0.845914 0.415686 0.473335
0.191562 0.426642 0.404791
0.265690 0.426490 0.405219
0.436500 0.421515 0.405798
0.644190 0.443946 0.429786
0.835080 0.497108 0.482704
0.449531 0.631922 0.496437
0.480781 0.625177 0.496651
0.616815 0.618860 0.547204
0.698573 0.626764 0.501518
0.820645 0.571374 0.446571
0.730922 0.791409 0.681453
0.747738 0.791745 0.691310
0.785611 0.791501 0.711086
0.818906 0.797848 0.712978
0.876249 0.797055 0.654261
0.000000 0.363165 0.561517
0.000000 0.356756 0.564996
0.362585 0.305303 0.561547
0.612848 0.212985 0.544182
0.848722 0.307012 0.557702
0.110353 0.418677 0.574426
0.229862 0.419318 0.577325
0.383368 0.363928 0.566888
0.610742 0.268498 0.543359
0.840574 0.352789 0.557549
0.274388 0.531060 0.592340
0.336156 0.532341 0.592035
0.500725 0.544640 0.595575
0.618982 0.425635 0.555688
0.829648 0.508049 0.582116
0.396338 0.672847 0.625116
0.426032 0.669490 0.622431
0.530236 0.664363 0.619471
0.657008 0.641138 0.603113
0.822843 0.657923 0.622034
0.616510 0.810758 0.689693
0.634180 0.810391 0.691157
0.701625 0.810727 0.701472
0.808438 0.807156 0.744350
0.860990 0.803616 0.697200
0.276249 0.540276 0.751278
0.329503 0.541100 0.750912
0.465797 0.537469 0.748836
0.587640 0.443061 0.735927
0.803372 0.331060 0.717556
0.348119 0.572045 0.750668
0.391089 0.574792 0.750820
0.495399 0.568963 0.748226
0.594324 0.477882 0.734432
0.800504 0.362524 0.715938
0.411078 0.637263 0.754421
0.457832 0.643519 0.754482
0.590692 0.668177 0.757137
0.635981 0.599969 0.740139
0.801114 0.479774 0.721736
0.508537 0.734432 0.766140
0.529320 0.734615 0.765743
0.612787 0.740932 0.768521
0.740200 0.762203 0.777981
0.814115 0.657099 0.747158
0.601465 0.833463 0.789090
0.614435 0.833463 0.789364
0.669459 0.835721 0.793240
0.751400 0.837278 0.797360
0.829252 0.817777 0.780148
