20 Preset/caramel style/【3】LUT video cho PR-AE-FCPX/Tone  (5).cube
# Created by Adobe Lightroom plugin Export LUT (1.24.0)
# www.johnrellis.com/lightroom/exportlut.htm
# Preset: 褐色婚礼-素材江湖04
# Color profile: C:\Program Files (x86)\Common Files\Adobe\Color\Profiles\Recommended\VideoHD.icc
LUT_3D_SIZE 8
DOMAIN_MIN 0.000000 0.000000 0.000000
DOMAIN_MAX 0.903226 0.903226 0.903226
0.000000 0.000000 0.000000
0.052155 0.007507 0.001343
0.151095 0.024933 0.004578
0.299870 0.000000 0.000855
0.490547 0.000000 0.000000
0.663416 0.000000 0.000000
0.793790 0.024659 0.000000
0.869169 0.245029 0.108827
0.031525 0.043122 0.009308
0.063569 0.050660 0.009918
0.159213 0.064546 0.002838
0.300389 0.023804 0.000000
0.484657 0.000000 0.000000
0.656794 0.000000 0.000000
0.782406 0.099855 0.000000
0.862669 0.250492 0.099367
0.083223 0.158846 0.079316
0.111177 0.160128 0.088258
0.178073 0.178347 0.090791
0.347845 0.184756 0.003601
0.514092 0.165194 0.000000
0.675715 0.179507 0.000000
0.792508 0.244419 0.000000
0.864256 0.327947 0.114748
0.160708 0.322545 0.190036
0.188571 0.322087 0.194278
0.265110 0.327337 0.210788
0.383307 0.363500 0.219608
0.578515 0.386908 0.168093
0.698848 0.353918 0.110750
0.790249 0.380804 0.125277
0.855283 0.421393 0.159213
0.325109 0.489143 0.326970
0.342596 0.489082 0.330419
0.403662 0.490913 0.346380
0.479408 0.504417 0.362799
0.569757 0.524743 0.367041
0.686671 0.538476 0.325292
0.774685 0.522087 0.273594
0.838346 0.517998 0.263310
0.486519 0.608057 0.460792
0.499519 0.611078 0.467323
0.531823 0.611749 0.477668
0.580102 0.614252 0.498299
0.623468 0.624201 0.503197
0.678584 0.637690 0.510521
0.748074 0.648096 0.492531
0.814878 0.642145 0.456336
0.608423 0.690578 0.588037
0.612909 0.691127 0.590417
0.627344 0.691218 0.596185
0.651881 0.692439 0.608392
0.677241 0.695430 0.619959
0.703731 0.702846 0.624567
0.736873 0.711971 0.631617
0.781704 0.720943 0.626978
0.688136 0.752926 0.691707
0.689937 0.752987 0.692531
0.697597 0.753628 0.696529
0.711513 0.755306 0.704707
0.724941 0.753933 0.709773
0.741939 0.759213 0.717830
0.761440 0.765805 0.723995
0.784268 0.772244 0.729885
0.014221 0.009094 0.015412
0.051820 0.017182 0.014710
0.148623 0.037171 0.018982
0.290196 0.020050 0.020539
0.476631 0.000000 0.000000
0.649531 0.000000 0.000000
0.775387 0.062501 0.000000
0.858183 0.234928 0.090883
0.028962 0.053956 0.028199
0.077974 0.066285 0.030091
0.160067 0.084108 0.033448
0.298894 0.080049 0.025666
0.480476 0.000000 0.000000
0.649622 0.000000 0.000000
0.770657 0.120302 0.000000
0.853758 0.245304 0.084779
0.087861 0.166934 0.101411
0.116548 0.170871 0.106783
0.183658 0.185458 0.114382
0.342443 0.188510 0.070527
0.506706 0.180514 0.036683
0.661769 0.193393 0.013581
0.775143 0.241520 0.004150
0.854520 0.316045 0.095827
0.163821 0.321538 0.200931
0.188754 0.322606 0.204105
0.269322 0.327031 0.223087
0.371862 0.354955 0.226780
0.555962 0.371527 0.178042
0.677394 0.340398 0.131441
0.774075 0.368383 0.141817
0.845365 0.411536 0.167941
0.323796 0.488533 0.332708
0.340124 0.487709 0.335088
0.400092 0.487953 0.349096
0.472511 0.497444 0.363775
0.558923 0.515435 0.365362
0.677485 0.529534 0.325048
0.767575 0.514336 0.276310
0.832914 0.513268 0.268254
0.480171 0.604181 0.459297
0.489479 0.604517 0.462043
0.523247 0.605493 0.472633
0.573724 0.608820 0.493874
0.618891 0.619623 0.501274
0.675349 0.634699 0.510277
0.745357 0.645106 0.491951
0.812131 0.638575 0.455085
0.602716 0.687221 0.583703
0.605829 0.686732 0.584161
0.620630 0.686702 0.589807
0.646693 0.688350 0.602869
0.674434 0.692409 0.617243
0.701076 0.699977 0.621790
0.733913 0.708553 0.627558
0.779141 0.717189 0.621668
0.684504 0.750576 0.688075
0.686946 0.751095 0.689693
0.694575 0.751675 0.693507
0.708888 0.753414 0.701869
0.726802 0.755886 0.713405
0.742580 0.759915 0.719783
0.761044 0.765499 0.724208
0.783810 0.771847 0.729854
0.031525 0.034638 0.101930
0.071260 0.042267 0.103853
0.149233 0.077577 0.114382
0.309545 0.088808 0.131106
0.494026 0.100282 0.137087
0.661158 0.137850 0.149416
0.778347 0.212314 0.158602
0.857450 0.292729 0.169345
0.045380 0.082979 0.119966
0.089845 0.092256 0.122713
0.164675 0.113191 0.131533
0.317723 0.126619 0.141695
0.495552 0.140108 0.146853
0.658717 0.169558 0.156649
0.773861 0.227024 0.161257
0.853666 0.301793 0.171908
0.035126 0.184756 0.170504
0.101534 0.191623 0.173831
0.211765 0.221042 0.188602
0.357183 0.227451 0.182589
0.523949 0.237583 0.181552
0.669978 0.259648 0.184970
0.775082 0.301823 0.190249
0.849882 0.358312 0.202579
0.139254 0.344091 0.252354
0.180819 0.348699 0.257053
0.296147 0.363134 0.277806
0.399756 0.382727 0.292119
0.564843 0.385992 0.252659
0.682338 0.379583 0.235508
0.773892 0.406531 0.242649
0.841428 0.442847 0.258396
0.326513 0.499580 0.367498
0.347143 0.500999 0.371069
0.415869 0.506676 0.386450
0.495521 0.513298 0.409247
0.572045 0.531334 0.412451
0.681270 0.540215 0.373358
0.764889 0.521019 0.327977
0.828305 0.529961 0.331609
0.484352 0.609125 0.480781
0.495155 0.610315 0.484382
0.528710 0.612451 0.493874
0.578576 0.614618 0.512383
0.623011 0.623255 0.523827
0.675105 0.637812 0.532219
0.743435 0.647639 0.513878
0.808743 0.641077 0.481239
0.606683 0.690455 0.597223
0.610773 0.690364 0.598749
0.623255 0.690211 0.601770
0.648585 0.691188 0.612909
0.677272 0.694331 0.628779
0.702541 0.702174 0.633539
0.734768 0.711635 0.640406
0.779904 0.720668 0.634791
0.684047 0.751614 0.692561
0.684901 0.751583 0.692409
0.692775 0.752132 0.696071
0.708186 0.754330 0.705135
0.726558 0.756710 0.716365
0.743618 0.761074 0.725032
0.761837 0.766873 0.729580
0.784329 0.773190 0.734951
0.000000 0.077638 0.212650
0.000000 0.084962 0.217563
0.155337 0.110109 0.231144
0.302922 0.149569 0.252750
0.503990 0.179202 0.280064
0.666926 0.212161 0.274907
0.769253 0.292271 0.288792
0.842985 0.358099 0.300755
0.000000 0.108309 0.233371
0.041840 0.118349 0.236515
0.174197 0.143435 0.247868
0.318578 0.181613 0.267094
0.512932 0.209751 0.290196
0.667659 0.244602 0.285069
0.767971 0.309392 0.295933
0.841306 0.369604 0.306523
0.000000 0.194919 0.273716
0.079713 0.200992 0.276860
0.216587 0.237491 0.291234
0.361395 0.277012 0.307958
0.538720 0.303716 0.323095
0.673426 0.340368 0.325566
0.771084 0.381323 0.332372
0.839322 0.421424 0.336187
0.105745 0.355718 0.343999
0.154696 0.360327 0.345953
0.277012 0.381109 0.357244
0.439307 0.423774 0.384771
0.569146 0.422766 0.371069
0.676997 0.433661 0.365393
0.763607 0.455146 0.365179
0.829648 0.482673 0.370367
0.297551 0.519310 0.430884
0.321141 0.520317 0.432227
0.405402 0.527214 0.441047
0.519677 0.542199 0.467933
0.589990 0.555108 0.480568
0.685237 0.552758 0.443244
0.759945 0.541711 0.416968
0.819303 0.556786 0.424659
0.479652 0.620569 0.518914
0.493507 0.623407 0.523674
0.531487 0.625879 0.531701
0.590692 0.631922 0.551415
0.637568 0.637018 0.569818
0.679255 0.648280 0.573846
0.742641 0.654261 0.552453
0.804257 0.643915 0.519768
0.596735 0.693568 0.610071
0.602258 0.694087 0.612146
0.622492 0.695857 0.620142
0.652186 0.698909 0.633173
0.682429 0.701503 0.648371
0.706538 0.707820 0.655360
0.735805 0.716152 0.659968
0.780392 0.724208 0.652064
0.677852 0.754086 0.698268
0.680415 0.754238 0.699367
0.690883 0.755215 0.704524
0.706508 0.757076 0.712123
0.726070 0.759182 0.722652
0.745205 0.762905 0.733852
0.762783 0.768856 0.738125
0.785306 0.775570 0.743740
0.000000 0.117037 0.347814
0.000000 0.123507 0.351934
0.141939 0.149355 0.364294
0.319432 0.200931 0.387121
0.497688 0.251194 0.410590
0.661311 0.314244 0.440833
0.762753 0.361425 0.432532
0.824033 0.441718 0.444190
0.000000 0.148104 0.361547
0.000000 0.155856 0.365667
0.168368 0.179782 0.376562
0.334081 0.227146 0.395850
0.505669 0.275975 0.418555
0.662379 0.334051 0.445930
0.761563 0.377173 0.437507
0.821897 0.452399 0.449348
0.000000 0.220584 0.390845
0.000000 0.227420 0.394049
0.226383 0.266117 0.406256
0.377813 0.309514 0.424262
0.527276 0.355444 0.442695
0.661280 0.396033 0.460456
0.755459 0.428748 0.453162
0.816190 0.479622 0.460609
0.113710 0.351141 0.435737
0.158755 0.355596 0.437354
0.272099 0.374243 0.446052
0.434363 0.425391 0.468696
0.564935 0.470527 0.489509
0.669459 0.490181 0.495064
0.747097 0.512810 0.490974
0.811063 0.527733 0.484840
0.287541 0.506584 0.495460
0.308965 0.509483 0.497383
0.382910 0.520806 0.504204
0.491524 0.542596 0.519402
0.602655 0.575799 0.545037
0.677302 0.570733 0.529046
0.745266 0.573205 0.518883
0.804929 0.581506 0.513420
0.437903 0.620203 0.558221
0.449195 0.621271 0.559503
0.489021 0.624445 0.562982
0.558343 0.630854 0.572076
0.635523 0.642817 0.596277
0.679469 0.654902 0.610376
0.740749 0.654383 0.585687
0.798215 0.643458 0.559442
0.569268 0.695064 0.627558
0.573877 0.694942 0.627771
0.593927 0.695583 0.630701
0.633112 0.699397 0.641962
0.677394 0.705745 0.661128
0.707576 0.710689 0.675166
0.734676 0.718593 0.678340
0.780026 0.723598 0.664637
0.651270 0.752346 0.696315
0.654444 0.752438 0.697200
0.667384 0.753201 0.701442
0.692256 0.756588 0.712947
0.719326 0.760250 0.726436
0.743557 0.763699 0.740261
0.761837 0.769345 0.746212
0.784115 0.775875 0.750729
0.000000 0.172763 0.481636
0.000000 0.178653 0.484443
0.146059 0.201511 0.492592
0.339910 0.248631 0.512139
0.517754 0.323857 0.535943
0.648554 0.379400 0.549828
0.746212 0.451789 0.571283
0.807736 0.505333 0.573083
0.000000 0.197299 0.483650
0.000000 0.202243 0.485634
0.173434 0.223331 0.494270
0.346990 0.265751 0.510887
0.517388 0.336889 0.534051
0.646021 0.390417 0.548821
0.742947 0.459236 0.570764
0.805356 0.509117 0.572381
0.000000 0.256962 0.505943
0.000000 0.266606 0.507866
0.250095 0.302708 0.516442
0.390234 0.338811 0.528038
0.539757 0.401373 0.548974
0.652033 0.449928 0.564111
0.739284 0.504387 0.584039
0.799985 0.539483 0.583398
0.138613 0.359869 0.529168
0.174716 0.362860 0.529839
0.287694 0.386328 0.538598
0.448798 0.444800 0.558801
0.574212 0.496468 0.579583
0.665095 0.537011 0.595331
0.736294 0.569604 0.608576
0.793576 0.587335 0.604303
0.288548 0.494728 0.564233
0.306859 0.497169 0.565148
0.372290 0.507195 0.569696
0.470954 0.526787 0.579675
0.590631 0.570459 0.601495
0.671565 0.607050 0.620752
0.732418 0.618677 0.624140
0.785245 0.629328 0.619532
0.432776 0.609491 0.608362
0.444343 0.611719 0.610224
0.482002 0.616785 0.613642
0.543114 0.627283 0.621149
0.615442 0.644221 0.633997
0.687495 0.671290 0.658137
0.736599 0.667353 0.646052
0.787655 0.666773 0.636164
0.545434 0.697963 0.665400
0.551568 0.698726 0.666346
0.572229 0.700496 0.668299
0.608576 0.704372 0.672633
0.656733 0.710445 0.680659
0.708797 0.719753 0.699092
0.737453 0.726741 0.707027
0.783536 0.725216 0.686671
0.625849 0.754879 0.714290
0.628382 0.754757 0.714229
0.640253 0.755215 0.715389
0.663661 0.757046 0.719478
0.697780 0.760372 0.728573
0.736873 0.766262 0.746456
0.762203 0.771633 0.759396
0.784237 0.778256 0.763027
0.000000 0.235019 0.596551
0.000000 0.240604 0.599115
0.205081 0.260227 0.604700
0.372381 0.300847 0.616266
0.528923 0.365911 0.631159
0.650874 0.457649 0.648768
0.729427 0.501335 0.654322
0.783627 0.557977 0.661372
0.000000 0.251377 0.594446
0.000000 0.256718 0.597284
0.221622 0.275273 0.602869
0.376257 0.312779 0.613184
0.527520 0.374151 0.627619
0.647120 0.460700 0.644587
0.725216 0.501762 0.649928
0.780362 0.555596 0.656855
0.009796 0.300542 0.605432
0.143771 0.309270 0.606775
0.281529 0.337255 0.611414
0.410132 0.371130 0.620691
0.543175 0.425208 0.633509
0.651331 0.500664 0.650416
0.724819 0.539483 0.658534
0.777920 0.586725 0.668421
0.148989 0.372961 0.617395
0.186191 0.377203 0.618128
0.292485 0.397711 0.623102
0.451820 0.454658 0.633478
0.565393 0.499733 0.645899
0.660304 0.560449 0.663325
0.724300 0.594385 0.673243
0.774258 0.626215 0.683619
0.260594 0.479774 0.631769
0.276371 0.480385 0.631281
0.336431 0.486000 0.632074
0.434791 0.503227 0.637812
0.576043 0.562890 0.654994
0.664240 0.609766 0.672633
0.722774 0.640070 0.685786
0.772671 0.663447 0.699214
0.398657 0.592554 0.658625
0.408362 0.593622 0.659144
0.444923 0.597681 0.660792
0.504967 0.605951 0.664424
0.579614 0.620172 0.670710
0.671077 0.659358 0.690730
0.730007 0.690639 0.710780
0.775448 0.698085 0.713924
0.521263 0.680110 0.692988
0.527306 0.681117 0.693782
0.547967 0.683742 0.695338
0.585199 0.689509 0.699184
0.632563 0.698665 0.705562
0.685084 0.713161 0.717159
0.740475 0.735805 0.738216
0.780514 0.730739 0.726314
0.600763 0.753872 0.742306
0.603998 0.754238 0.742672
0.617365 0.755917 0.744381
0.640375 0.758297 0.746487
0.672328 0.762081 0.749935
0.712886 0.767666 0.756283
0.760067 0.776181 0.772915
0.785916 0.782834 0.780789
0.192538 0.313024 0.696284
0.223117 0.317571 0.697383
0.310430 0.334173 0.699092
0.431098 0.370397 0.704372
0.553277 0.427863 0.711452
0.652125 0.503502 0.720180
0.724147 0.585870 0.731838
0.774380 0.608270 0.733272
0.205692 0.323430 0.694392
0.233738 0.328130 0.695521
0.316930 0.344396 0.697780
0.433478 0.378882 0.702846
0.552911 0.434241 0.709957
0.651118 0.507652 0.718807
0.722683 0.587030 0.730312
0.772763 0.608667 0.731594
0.223545 0.356115 0.695521
0.258793 0.364538 0.696132
0.344427 0.386114 0.697993
0.451850 0.419806 0.704250
0.560510 0.468513 0.710750
0.652552 0.532341 0.719234
0.722103 0.603601 0.731380
0.770565 0.623743 0.733669
0.170108 0.388586 0.697841
0.207248 0.393866 0.698787
0.329076 0.423407 0.700679
0.468757 0.475502 0.705440
0.569085 0.517723 0.712795
0.656245 0.571984 0.722530
0.722713 0.631312 0.735836
0.768917 0.650233 0.740017
0.143801 0.450263 0.698024
0.180880 0.453285 0.698939
0.275731 0.463630 0.700832
0.416571 0.496742 0.706508
0.567864 0.562799 0.714229
0.655512 0.608576 0.725154
0.722164 0.658228 0.740536
0.768124 0.679469 0.748440
0.322240 0.568322 0.714321
0.330541 0.568078 0.713863
0.366125 0.568048 0.712825
0.429664 0.570153 0.712551
0.513542 0.578210 0.714229
0.651240 0.645502 0.731319
0.724422 0.690944 0.751308
0.771664 0.716487 0.764309
0.469154 0.666224 0.738460
0.474006 0.666468 0.738399
0.494392 0.667597 0.738247
0.533074 0.671046 0.738888
0.584619 0.677150 0.740566
0.643427 0.687129 0.744533
0.722316 0.721340 0.761746
0.776455 0.750942 0.780331
0.580835 0.740291 0.767605
0.583307 0.740444 0.767575
0.594598 0.741665 0.768032
0.616815 0.744656 0.769680
0.648432 0.749477 0.772213
0.687800 0.756802 0.776547
0.734493 0.768673 0.785031
0.788479 0.789181 0.803525
