20 Preset/caramel style/【3】LUT video cho PR-AE-FCPX/Tone  (9).cube
# Created by Adobe Lightroom plugin Export LUT (1.24.0)
# www.johnrellis.com/lightroom/exportlut.htm
# Preset: 褐色婚礼-素材江湖08
# Color profile: C:\Program Files (x86)\Common Files\Adobe\Color\Profiles\Recommended\VideoHD.icc
LUT_3D_SIZE 5
DOMAIN_MIN 0.000000 0.000000 0.000000
DOMAIN_MAX 0.903226 0.903226 0.903226
0.088624 0.086030 0.107179
0.167910 0.089937 0.113924
0.386389 0.000000 0.122713
0.769284 0.000000 0.108736
1.000000 0.059937 0.081575
0.083497 0.155276 0.135805
0.154818 0.165927 0.123903
0.391547 0.161349 0.105470
0.763790 0.154360 0.000000
1.000000 0.259983 0.000000
0.000000 0.361578 0.203342
0.028473 0.353338 0.199039
0.399329 0.425360 0.122377
0.770779 0.467292 0.000000
1.000000 0.501061 0.000000
0.000000 0.684535 0.334020
0.000000 0.679805 0.328252
0.356268 0.667445 0.301549
0.731716 0.749966 0.125063
0.985962 0.757839 0.000000
0.508293 0.904936 0.661769
0.526696 0.903899 0.658900
0.582910 0.895293 0.633875
0.718593 0.904173 0.610681
0.918181 0.926848 0.530755
0.087617 0.096437 0.163851
0.152407 0.100343 0.162387
0.364508 0.097200 0.181735
0.737301 0.000000 0.177707
1.000000 0.092531 0.136538
0.092561 0.156283 0.177646
0.156161 0.165713 0.182773
0.376806 0.169223 0.182223
0.740139 0.137087 0.166323
1.000000 0.244938 0.110994
0.000000 0.362524 0.258793
0.104921 0.362585 0.243839
0.385657 0.406806 0.200107
0.747494 0.436652 0.010620
1.000000 0.488838 0.000000
0.000000 0.688930 0.405249
0.000000 0.686488 0.381872
0.371710 0.666468 0.356115
0.728969 0.746731 0.248081
0.983154 0.752743 0.000000
0.532250 0.904845 0.686976
0.542687 0.903990 0.680842
0.607416 0.899931 0.669398
0.726101 0.905303 0.644923
0.918425 0.928618 0.578790
0.014893 0.116701 0.318883
0.171878 0.122957 0.326116
0.380438 0.124819 0.339422
0.761654 0.000000 0.400702
1.000000 0.189242 0.431952
0.000000 0.180362 0.334508
0.164065 0.186069 0.341802
0.392370 0.202152 0.356481
0.756161 0.188968 0.407568
1.000000 0.292882 0.438544
0.000000 0.362799 0.377111
0.078950 0.370550 0.381292
0.394720 0.402350 0.400793
0.743771 0.424781 0.400275
0.997925 0.481849 0.399695
0.081605 0.697139 0.558251
0.247990 0.694942 0.554650
0.443763 0.694118 0.530541
0.720272 0.739071 0.488624
0.971740 0.730434 0.376806
0.580346 0.903380 0.757259
0.608850 0.903044 0.761257
0.641169 0.902159 0.740902
0.729213 0.897185 0.716976
0.910674 0.925689 0.681453
0.000000 0.145632 0.620050
0.183719 0.143557 0.629023
0.522698 0.127474 0.659968
0.783139 0.133242 0.678920
0.998932 0.399542 0.705287
0.000000 0.210636 0.624414
0.147189 0.213260 0.632136
0.515129 0.229496 0.663172
0.777676 0.266361 0.682307
0.987030 0.461311 0.710536
0.000000 0.385229 0.602594
0.000000 0.385748 0.609369
0.429938 0.423011 0.659602
0.747585 0.507225 0.693263
0.954711 0.619623 0.734096
0.000000 0.673823 0.689570
0.000000 0.675441 0.690089
0.418219 0.688777 0.698085
0.701381 0.720699 0.717800
0.937072 0.742733 0.721675
0.560876 0.909361 0.832975
0.585565 0.909148 0.833158
0.669947 0.908995 0.834348
0.766842 0.906065 0.825589
0.905119 0.924285 0.808713
0.242130 0.236271 0.887297
0.365179 0.229374 0.888609
0.620020 0.239231 0.894987
0.854765 0.388281 0.902007
0.999145 0.472053 0.898924
0.237980 0.273686 0.885039
0.353094 0.277104 0.886320
0.605493 0.309789 0.891936
0.843656 0.446052 0.899046
0.988586 0.522484 0.897093
0.000000 0.435492 0.877134
0.000000 0.436408 0.879149
0.525414 0.478767 0.884794
0.804623 0.593652 0.893065
0.956390 0.670253 0.897002
0.000000 0.671534 0.868620
0.000000 0.666896 0.867216
0.000000 0.650568 0.864439
0.716396 0.725795 0.887602
0.924437 0.821653 0.907744
0.338567 0.888884 0.899199
0.392187 0.889097 0.899138
0.554070 0.892271 0.900938
0.733913 0.898924 0.904112
0.895964 0.914458 0.913634
