20 Preset/caramel style/【3】LUT video cho PR-AE-FCPX/Tone  (9).cube
# Created by Adobe Lightroom plugin Export LUT (1.24.0)
# www.johnrellis.com/lightroom/exportlut.htm
# Preset: 褐色婚礼-素材江湖08
# Color profile: C:\Program Files (x86)\Common Files\Adobe\Color\Profiles\Recommended\VideoHD.icc
LUT_3D_SIZE 8
DOMAIN_MIN 0.000000 0.000000 0.000000
DOMAIN_MAX 0.903226 0.903226 0.903226
0.088624 0.086030 0.107179
0.113832 0.088472 0.109224
0.189761 0.089387 0.115328
0.304723 0.061616 0.121065
0.483894 0.000000 0.122896
0.711879 0.000000 0.113741
0.906065 0.000000 0.090486
1.000000 0.059937 0.081575
0.089479 0.109194 0.117220
0.110597 0.112642 0.113100
0.191897 0.110262 0.109071
0.301183 0.102846 0.114870
0.474403 0.013947 0.115602
0.696651 0.000000 0.104036
0.887602 0.000000 0.060609
1.000000 0.137728 0.025605
0.077089 0.174319 0.143679
0.100069 0.173465 0.142947
0.173892 0.188540 0.128054
0.314672 0.193057 0.109407
0.488624 0.188083 0.093446
0.709407 0.193118 0.000061
0.898161 0.237644 0.000000
1.000000 0.293584 0.000000
0.000000 0.282170 0.181399
0.000000 0.280858 0.180575
0.144442 0.280858 0.176364
0.304417 0.331243 0.136019
0.542657 0.367529 0.000000
0.726986 0.369940 0.000000
0.893248 0.400702 0.000000
1.000000 0.436133 0.000000
0.000000 0.446571 0.226230
0.000000 0.444373 0.225071
0.000000 0.438300 0.220615
0.255741 0.457069 0.198489
0.499550 0.521660 0.088746
0.736873 0.565240 0.000000
0.879973 0.563104 0.000000
0.997498 0.568170 0.000000
0.000000 0.633234 0.299596
0.000000 0.636652 0.301244
0.000000 0.630671 0.294957
0.247074 0.619257 0.282933
0.457801 0.655390 0.234257
0.692164 0.710597 0.058991
0.885893 0.741451 0.000000
0.989471 0.722927 0.000000
0.000000 0.798734 0.451911
0.000000 0.798672 0.451606
0.201816 0.794400 0.443793
0.349737 0.787167 0.430701
0.480507 0.781369 0.407324
0.649042 0.813413 0.363378
0.827024 0.841764 0.282994
0.974609 0.850858 0.146609
0.508293 0.904936 0.661769
0.512902 0.904601 0.660883
0.533837 0.903593 0.658137
0.573846 0.901823 0.653407
0.613489 0.893492 0.628687
0.693416 0.900023 0.615564
0.799619 0.915465 0.588495
0.918181 0.926848 0.530755
0.088258 0.090547 0.127474
0.109712 0.090394 0.125887
0.179721 0.097139 0.132204
0.288670 0.095003 0.136538
0.462959 0.000000 0.134340
0.684199 0.000000 0.120912
0.876799 0.000000 0.081910
1.000000 0.057862 0.054780
0.088838 0.109346 0.131868
0.110018 0.113191 0.134157
0.182132 0.116457 0.135134
0.291508 0.114260 0.136233
0.463508 0.072206 0.133028
0.681300 0.000000 0.118166
0.868742 0.000000 0.061891
1.000000 0.140230 0.001648
0.100191 0.174838 0.161563
0.110750 0.175998 0.158602
0.174044 0.186893 0.147677
0.306493 0.189914 0.132570
0.476173 0.186526 0.123201
0.687831 0.184787 0.096895
0.872618 0.217777 0.000000
1.000000 0.284489 0.000000
0.000000 0.279942 0.197543
0.024628 0.279240 0.192416
0.151431 0.276219 0.189151
0.292454 0.317082 0.156588
0.509575 0.343938 0.096101
0.694270 0.344762 0.000000
0.868193 0.377478 0.000000
1.000000 0.418891 0.000000
0.000000 0.444648 0.240787
0.000000 0.441932 0.236790
0.000000 0.434516 0.231693
0.252628 0.445319 0.212802
0.483772 0.505303 0.130800
0.719997 0.548272 0.000000
0.867826 0.549035 0.000000
0.989868 0.558068 0.000000
0.000000 0.627070 0.309056
0.000000 0.626032 0.307622
0.000000 0.620600 0.301732
0.244633 0.610803 0.291051
0.449683 0.645594 0.248875
0.685939 0.703883 0.129122
0.880186 0.735164 0.000000
0.985016 0.717098 0.000000
0.000000 0.792905 0.453681
0.000000 0.791104 0.450690
0.180575 0.786648 0.442786
0.340215 0.780026 0.430701
0.474434 0.774624 0.411322
0.643091 0.807828 0.368811
0.821134 0.836393 0.290501
0.969604 0.845975 0.164584
0.499519 0.902068 0.658961
0.506706 0.902251 0.659663
0.527306 0.901091 0.656397
0.568109 0.899382 0.651820
0.622431 0.895964 0.642084
0.695888 0.900328 0.624750
0.798764 0.914702 0.594690
0.917174 0.926207 0.538476
0.085603 0.099245 0.179782
0.112276 0.099336 0.179232
0.172457 0.105196 0.178836
0.288792 0.111757 0.191928
0.465888 0.034791 0.204349
0.691615 0.000000 0.205325
0.884886 0.000000 0.195590
1.000000 0.097963 0.176150
0.089693 0.119234 0.185733
0.113558 0.121065 0.185855
0.174472 0.127474 0.185000
0.287633 0.133852 0.196384
0.462348 0.103639 0.205295
0.686091 0.000000 0.203555
0.877531 0.000000 0.190860
1.000000 0.147341 0.170535
0.091005 0.176272 0.196689
0.112367 0.178866 0.198215
0.177066 0.188571 0.203189
0.299962 0.193515 0.203677
0.481117 0.190982 0.201816
0.696651 0.179721 0.193606
0.879332 0.206485 0.176028
1.000000 0.274723 0.150118
0.064576 0.287236 0.242771
0.109163 0.289830 0.244053
0.174228 0.296056 0.238376
0.301274 0.320470 0.219486
0.510948 0.334630 0.186374
0.704982 0.341192 0.158358
0.877928 0.372900 0.126986
1.000000 0.413855 0.062715
0.000000 0.454383 0.308415
0.000000 0.455207 0.307744
0.095460 0.453834 0.286198
0.272801 0.447974 0.274357
0.493904 0.510216 0.223209
0.720180 0.541711 0.135286
0.868070 0.538048 0.000000
0.993713 0.552850 0.000000
0.000000 0.635828 0.396674
0.000000 0.635706 0.388464
0.000000 0.632044 0.360052
0.274052 0.620722 0.347051
0.453071 0.641382 0.317845
0.683955 0.700649 0.252049
0.876127 0.729366 0.137819
0.984436 0.712062 0.000000
0.236088 0.797757 0.524743
0.231144 0.796719 0.517235
0.256992 0.792996 0.495613
0.371832 0.785397 0.481422
0.487037 0.774716 0.461158
0.644678 0.806973 0.430335
0.821744 0.837888 0.376043
0.968322 0.847044 0.302373
0.535760 0.902342 0.691981
0.534112 0.902068 0.688075
0.544366 0.901335 0.680659
0.583612 0.900237 0.677668
0.633173 0.896788 0.667597
0.701259 0.899351 0.653864
0.800504 0.914733 0.630152
0.916106 0.926787 0.583307
0.057557 0.110109 0.260502
0.107027 0.111025 0.262699
0.193668 0.119417 0.267063
0.289342 0.123659 0.270146
0.480476 0.102144 0.299107
0.702937 0.000000 0.321996
0.881315 0.000000 0.331792
1.000000 0.102449 0.337407
0.072572 0.131136 0.268406
0.111238 0.133181 0.269535
0.197391 0.141054 0.273747
0.294652 0.145907 0.276677
0.483680 0.134493 0.303716
0.702754 0.000000 0.324041
0.878752 0.000000 0.332464
1.000000 0.157107 0.335576
0.000000 0.189212 0.274876
0.056550 0.190890 0.277317
0.185122 0.199313 0.287266
0.301335 0.212406 0.291875
0.492195 0.219394 0.317876
0.705592 0.199405 0.333104
0.886961 0.218082 0.338506
1.000000 0.285252 0.334417
0.000000 0.288304 0.303014
0.000000 0.290288 0.304173
0.171267 0.299657 0.309483
0.305974 0.318273 0.320256
0.500999 0.325902 0.320104
0.703517 0.336431 0.317601
0.877836 0.365026 0.313268
1.000000 0.409033 0.308659
0.000000 0.467720 0.390906
0.000000 0.468177 0.390539
0.192813 0.472572 0.390753
0.321202 0.478828 0.379248
0.502892 0.512688 0.353002
0.715358 0.523491 0.305180
0.871336 0.523980 0.267399
0.997131 0.547539 0.265171
0.000000 0.650538 0.486793
0.024567 0.654505 0.489876
0.249027 0.654383 0.487007
0.339818 0.651789 0.457649
0.474434 0.644251 0.434150
0.686427 0.702510 0.399023
0.869993 0.721218 0.343786
0.982574 0.701259 0.261112
0.341009 0.803250 0.606287
0.359106 0.803372 0.606989
0.420661 0.802976 0.608820
0.435920 0.800137 0.573205
0.525719 0.789303 0.552483
0.651453 0.807004 0.530175
0.820005 0.838895 0.497383
0.961730 0.846006 0.449836
0.601495 0.904479 0.751064
0.607935 0.904265 0.751797
0.609583 0.904082 0.742672
0.614191 0.903655 0.724239
0.654749 0.899992 0.713558
0.709651 0.896788 0.699428
0.802396 0.913970 0.684413
0.914183 0.927703 0.653468
0.000000 0.125307 0.391669
0.042939 0.126772 0.394965
0.206119 0.130861 0.403967
0.359808 0.136233 0.422004
0.491615 0.113710 0.426581
0.712062 0.000000 0.469123
0.893339 0.103822 0.498207
1.000000 0.252659 0.516808
0.000000 0.146487 0.398291
0.048127 0.147921 0.401892
0.208164 0.152438 0.410773
0.361975 0.160403 0.426764
0.496590 0.145418 0.432380
0.713924 0.124514 0.473426
0.891661 0.163821 0.500633
1.000000 0.279149 0.519158
0.000000 0.206607 0.408179
0.000000 0.206119 0.411994
0.187259 0.214023 0.420935
0.358801 0.231327 0.438819
0.504784 0.236606 0.447517
0.711116 0.255863 0.482551
0.880491 0.283818 0.505669
0.997467 0.358221 0.524651
0.000000 0.303166 0.416388
0.000000 0.304112 0.417456
0.000000 0.308080 0.422736
0.322881 0.331090 0.454017
0.510979 0.363592 0.473091
0.706569 0.394629 0.503441
0.866148 0.418341 0.518944
0.985382 0.464942 0.533349
0.000000 0.448768 0.463844
0.000000 0.450996 0.465217
0.037812 0.458747 0.470039
0.313481 0.473884 0.479500
0.491432 0.495552 0.492744
0.690211 0.507012 0.492256
0.858183 0.527703 0.492409
0.983581 0.555505 0.493568
0.000000 0.649317 0.573236
0.000000 0.649866 0.573327
0.236606 0.649592 0.570916
0.388128 0.650721 0.567956
0.505821 0.651881 0.552728
0.673671 0.689662 0.538140
0.852049 0.695857 0.494667
0.974029 0.679591 0.443000
0.327733 0.806394 0.672511
0.342260 0.805631 0.671229
0.398535 0.804379 0.668940
0.496437 0.804318 0.670314
0.563043 0.801114 0.648524
0.650324 0.796262 0.623743
0.811643 0.834226 0.609979
0.948730 0.837369 0.570916
0.558770 0.904875 0.770199
0.566918 0.904570 0.770840
0.599573 0.903655 0.773770
0.658289 0.903746 0.782834
0.675715 0.902739 0.763760
0.720943 0.897551 0.749081
0.799466 0.909514 0.737789
0.909087 0.925628 0.719081
0.000000 0.142397 0.578241
0.000000 0.142367 0.581476
0.225742 0.140261 0.589654
0.413245 0.131624 0.607538
0.612238 0.142306 0.635004
0.737118 0.103944 0.636072
0.887755 0.218448 0.651118
1.000000 0.379583 0.675715
0.000000 0.162661 0.574914
0.000000 0.162875 0.577020
0.220371 0.162722 0.586023
0.407874 0.159854 0.604059
0.606287 0.177188 0.631647
0.731472 0.156344 0.632990
0.882536 0.247257 0.649073
1.000000 0.392889 0.674617
0.000000 0.225162 0.583978
0.000000 0.226352 0.586053
0.188022 0.231449 0.595392
0.399268 0.242191 0.612848
0.603876 0.278080 0.640589
0.733425 0.283452 0.644434
0.878599 0.359716 0.661036
0.989258 0.466712 0.685267
0.000000 0.328466 0.578210
0.000000 0.328985 0.581415
0.000000 0.333654 0.598810
0.356847 0.356390 0.626398
0.591852 0.409949 0.657649
0.733211 0.439918 0.667262
0.869688 0.511406 0.687526
0.972168 0.570092 0.705623
0.000000 0.464637 0.596277
0.000000 0.465095 0.596643
0.000000 0.467567 0.599115
0.206516 0.471321 0.604944
0.514183 0.512352 0.644892
0.702174 0.569360 0.671290
0.845487 0.618738 0.697841
0.950347 0.647150 0.710201
0.000000 0.628077 0.643885
0.000000 0.630640 0.646052
0.000000 0.634546 0.648432
0.314855 0.642786 0.653346
0.501091 0.656062 0.661158
0.665339 0.680446 0.677302
0.829038 0.695613 0.681636
0.948241 0.711910 0.684657
0.327794 0.813596 0.753902
0.351873 0.814755 0.755459
0.426978 0.817014 0.759060
0.514519 0.817136 0.758145
0.610071 0.816098 0.754910
0.688533 0.811154 0.738766
0.806973 0.832883 0.728145
0.936034 0.828122 0.692073
0.557214 0.908385 0.819120
0.562371 0.908049 0.818662
0.588128 0.907500 0.818448
0.635615 0.907347 0.819242
0.699947 0.906310 0.821225
0.746181 0.904173 0.811154
0.799252 0.903441 0.796567
0.905669 0.924529 0.791196
0.000000 0.160830 0.758511
0.105623 0.159945 0.761349
0.297185 0.154696 0.766262
0.479316 0.147219 0.777096
0.658228 0.174197 0.791135
0.818173 0.285649 0.807797
0.907591 0.275303 0.801114
0.980621 0.402930 0.779843
0.000000 0.180758 0.752041
0.032715 0.180789 0.755428
0.285832 0.178012 0.760708
0.468513 0.174624 0.770352
0.648554 0.199588 0.784421
0.808377 0.299107 0.800656
0.897734 0.286992 0.793149
0.973388 0.403479 0.773098
0.000000 0.249607 0.757351
0.000000 0.250248 0.758541
0.249149 0.252842 0.762570
0.452888 0.262303 0.772305
0.638605 0.296696 0.785885
0.799863 0.388861 0.803250
0.893553 0.393652 0.800534
0.967468 0.494331 0.786160
0.000000 0.352941 0.756527
0.000000 0.351934 0.757778
0.000000 0.355138 0.763210
0.402319 0.376623 0.774838
0.614984 0.422034 0.790097
0.783719 0.514672 0.809598
0.879820 0.534051 0.810636
0.952453 0.606470 0.802304
0.000000 0.475776 0.730312
0.000000 0.473365 0.728756
0.000000 0.471901 0.734371
0.190402 0.480385 0.755612
0.537804 0.524773 0.779782
0.743465 0.607813 0.803586
0.851804 0.644282 0.811246
0.934264 0.708278 0.819333
0.000000 0.632136 0.757992
0.000000 0.632441 0.758328
0.000000 0.632410 0.758999
0.000000 0.632136 0.760311
0.387579 0.630426 0.761257
0.676326 0.688502 0.796902
0.828458 0.752499 0.821958
0.920165 0.790280 0.837095
0.000000 0.781674 0.796139
0.000000 0.782834 0.797055
0.160433 0.784482 0.797910
0.372290 0.788571 0.800229
0.531243 0.794553 0.803128
0.672541 0.804471 0.808469
0.794766 0.820676 0.818814
0.912810 0.829953 0.822232
0.516289 0.907713 0.863951
0.527184 0.907927 0.864469
0.571771 0.909331 0.867308
0.639582 0.910918 0.871336
0.709834 0.912200 0.874235
0.770596 0.912016 0.872770
0.821683 0.909148 0.863096
0.904234 0.923461 0.858488
0.242130 0.236271 0.887297
0.283268 0.235203 0.888273
0.399390 0.226871 0.889067
0.547631 0.223239 0.892912
0.691676 0.265080 0.896971
0.824857 0.356634 0.900999
0.928740 0.477302 0.904021
0.999145 0.472053 0.898924
0.261814 0.232578 0.885344
0.298802 0.231540 0.886412
0.403021 0.230442 0.887602
0.540917 0.242039 0.890562
0.686488 0.282231 0.894774
0.820523 0.370336 0.898985
0.924681 0.486732 0.901823
0.995056 0.478462 0.896422
0.212741 0.292332 0.883848
0.254185 0.293645 0.884337
0.372595 0.297642 0.885283
0.525048 0.316777 0.890074
0.674556 0.356664 0.893523
0.809628 0.436439 0.897063
0.914855 0.546929 0.900572
0.984497 0.536248 0.895750
0.000000 0.382879 0.880888
0.000000 0.385199 0.881682
0.278874 0.393042 0.883024
0.476204 0.414771 0.886839
0.646479 0.458717 0.891234
0.790555 0.533806 0.895598
0.899138 0.635676 0.900572
0.967102 0.627314 0.897063
0.000000 0.495308 0.869078
0.000000 0.495308 0.870451
0.000000 0.492653 0.873594
0.327520 0.507256 0.880125
0.579675 0.549889 0.885100
0.753658 0.616785 0.891112
0.875700 0.705653 0.898711
0.945861 0.715633 0.898436
0.000000 0.630671 0.862669
0.000000 0.628656 0.861906
0.000000 0.621759 0.860075
0.000000 0.609766 0.858518
0.386328 0.621851 0.871458
0.688472 0.691035 0.886412
0.850828 0.775753 0.900694
0.928405 0.804074 0.906157
0.000000 0.774746 0.878019
0.000000 0.774380 0.877775
0.000000 0.772976 0.877012
0.000000 0.771817 0.876524
0.378515 0.770169 0.875761
0.561273 0.767819 0.874723
0.799527 0.821073 0.895811
0.915404 0.869871 0.913970
0.338567 0.888884 0.899199
0.353063 0.888823 0.899077
0.410773 0.889281 0.899260
0.502708 0.891051 0.900267
0.605921 0.893645 0.901579
0.708858 0.897612 0.903441
0.806180 0.903990 0.906828
0.895964 0.914458 0.913634
