20 Preset/caramel style/【3】LUT video cho PR-AE-FCPX/Tone  (11).cube
# Created by Adobe Lightroom plugin Export LUT (1.24.0)
# www.johnrellis.com/lightroom/exportlut.htm
# Preset: 褐色婚礼-素材江湖10
# Color profile: C:\Program Files (x86)\Common Files\Adobe\Color\Profiles\Recommended\VideoHD.icc
LUT_3D_SIZE 32
DOMAIN_MIN 0.0 0.0 0.0
DOMAIN_MAX 1.0 1.0 1.0
0.000000 0.000000 0.000000
0.010193 0.001068 0.000793
0.036225 0.004700 0.005432
0.088930 0.011048 0.014679
0.116396 0.024201 0.030365
0.146181 0.038727 0.049500
0.177157 0.051820 0.070039
0.208835 0.063020 0.083314
0.240757 0.070680 0.092744
0.272587 0.080293 0.099916
0.304845 0.086976 0.107362
0.337224 0.092042 0.115511
0.370001 0.097871 0.124361
0.402564 0.104829 0.133669
0.435401 0.112123 0.143496
0.467842 0.120424 0.153902
0.500298 0.129335 0.164462
0.532860 0.139040 0.175448
0.568688 0.149569 0.187900
0.617395 0.164340 0.204379
0.661463 0.178744 0.219760
0.700893 0.193088 0.234592
0.734340 0.207248 0.248386
0.764431 0.221592 0.261906
0.792020 0.236057 0.275273
0.817563 0.251316 0.288945
0.841794 0.267491 0.302892
0.865141 0.285405 0.318425
0.887846 0.305180 0.334936
0.910277 0.327916 0.353918
0.932341 0.353857 0.375433
0.953704 0.383673 0.399725
0.005188 0.004883 0.003754
0.008453 0.005646 0.003571
0.040009 0.009796 0.006928
0.089998 0.015198 0.015198
0.116609 0.028565 0.030884
0.145357 0.042573 0.050172
0.175479 0.055360 0.069795
0.206302 0.065492 0.082673
0.237522 0.074464 0.092378
0.268803 0.081544 0.099031
0.300389 0.088441 0.106935
0.332464 0.093294 0.114595
0.364691 0.098726 0.123384
0.397223 0.105013 0.132662
0.429480 0.112581 0.141970
0.462104 0.120546 0.152163
0.494606 0.129519 0.163119
0.527184 0.138613 0.174136
0.562829 0.148898 0.186038
0.608881 0.162844 0.201480
0.651148 0.176455 0.216342
0.689448 0.189761 0.230320
0.722316 0.202853 0.243442
0.752346 0.216251 0.256626
0.779812 0.230198 0.269230
0.805814 0.244266 0.282231
0.830808 0.259953 0.296239
0.855070 0.277165 0.311223
0.878843 0.296666 0.327825
0.902220 0.318944 0.346410
0.925109 0.344396 0.367468
0.947417 0.373602 0.391424
0.022675 0.021485 0.016938
0.025360 0.022248 0.019043
0.045075 0.030182 0.016449
0.093050 0.037507 0.022156
0.118349 0.047730 0.037171
0.146365 0.061952 0.054200
0.176028 0.072786 0.070741
0.205814 0.080964 0.084810
0.236393 0.087221 0.092805
0.267094 0.090883 0.099489
0.298222 0.094667 0.106783
0.329686 0.099336 0.114199
0.361486 0.104128 0.123110
0.393469 0.110292 0.131960
0.425727 0.117067 0.141878
0.457862 0.124697 0.151949
0.490150 0.133272 0.162417
0.522728 0.141634 0.173220
0.558984 0.152285 0.185275
0.603510 0.165042 0.200198
0.644892 0.178073 0.214878
0.682643 0.190890 0.228275
0.715663 0.203159 0.241215
0.745571 0.216098 0.253880
0.773037 0.229129 0.266484
0.799222 0.242557 0.278965
0.824521 0.257786 0.292699
0.849302 0.274540 0.307652
0.873625 0.293553 0.323949
0.897490 0.315343 0.342412
0.920897 0.340246 0.363226
0.943511 0.369024 0.387030
0.057618 0.059083 0.047272
0.062562 0.059602 0.048219
0.075288 0.064790 0.050660
0.096162 0.078187 0.045777
0.123720 0.086091 0.050111
0.151278 0.089967 0.063355
0.179110 0.093812 0.078614
0.207797 0.097017 0.087953
0.237247 0.099916 0.094331
0.266941 0.103120 0.101167
0.297337 0.106325 0.108095
0.327855 0.110536 0.115450
0.359014 0.115175 0.123690
0.390234 0.120363 0.132601
0.421668 0.126345 0.141909
0.453040 0.133730 0.152224
0.484688 0.140902 0.162081
0.516411 0.148928 0.172671
0.553155 0.158572 0.184817
0.593866 0.170138 0.198306
0.632593 0.181216 0.211551
0.669093 0.192782 0.224460
0.702419 0.204166 0.236942
0.733608 0.216251 0.249729
0.762905 0.229099 0.262181
0.791165 0.242924 0.275639
0.818662 0.258122 0.290013
0.845060 0.275242 0.305394
0.870512 0.294224 0.322240
0.894926 0.315801 0.340642
0.918303 0.339910 0.361151
0.940551 0.367071 0.383917
0.092988 0.094179 0.084291
0.094331 0.094026 0.084993
0.098573 0.094209 0.089052
0.107515 0.099672 0.085908
0.125887 0.106752 0.079530
0.155032 0.110506 0.078798
0.182010 0.112276 0.083284
0.208896 0.113954 0.090547
0.236790 0.116091 0.096437
0.265354 0.118868 0.102480
0.294560 0.121248 0.109438
0.324315 0.124971 0.117037
0.354711 0.128969 0.124971
0.385626 0.133791 0.133761
0.416724 0.139406 0.143191
0.448219 0.145876 0.153017
0.480079 0.152590 0.162814
0.512047 0.159915 0.173342
0.550256 0.169467 0.185550
0.589441 0.179568 0.198611
0.626673 0.190005 0.211093
0.662287 0.200290 0.223636
0.695735 0.210971 0.235660
0.727504 0.221958 0.248173
0.757595 0.234318 0.261082
0.786587 0.247471 0.274510
0.814603 0.262181 0.288792
0.841337 0.278447 0.303899
0.866941 0.296666 0.320714
0.891417 0.317113 0.338567
0.914855 0.340246 0.358648
0.937194 0.366491 0.380987
0.112673 0.114595 0.102083
0.113680 0.114473 0.102449
0.117281 0.114290 0.104524
0.123201 0.116548 0.105409
0.135744 0.123293 0.101472
0.158206 0.131289 0.095766
0.187198 0.134707 0.094514
0.213169 0.134920 0.094240
0.239597 0.136110 0.100343
0.267185 0.138033 0.106508
0.295445 0.140169 0.112825
0.324651 0.143160 0.120180
0.354376 0.146944 0.128084
0.384649 0.151308 0.136599
0.415442 0.156405 0.146212
0.446998 0.161990 0.155581
0.478706 0.168154 0.165316
0.511711 0.175113 0.175662
0.551476 0.184329 0.188479
0.589410 0.193698 0.200778
0.626215 0.203250 0.213107
0.661677 0.212772 0.225376
0.756649 0.250217 0.263432
0.786313 0.263188 0.277348
0.813474 0.276555 0.291417
0.838468 0.290837 0.306096
0.861692 0.306279 0.321172
0.883604 0.323278 0.337011
0.904662 0.342107 0.354376
0.924895 0.363256 0.373114
0.944182 0.386938 0.393805
0.962402 0.412970 0.416327
0.138979 0.142275 0.123476
0.139681 0.142184 0.124025
0.143069 0.141970 0.126131
0.148074 0.141726 0.129976
0.158267 0.147768 0.126406
0.172702 0.154482 0.120089
0.198581 0.163088 0.112856
0.229099 0.165805 0.110079
0.253574 0.164950 0.109194
0.280430 0.165286 0.113680
0.309087 0.166934 0.120729
0.338323 0.169467 0.128603
0.367895 0.172671 0.136660
0.398077 0.176364 0.145022
0.428351 0.180667 0.154208
0.458900 0.185336 0.163088
0.490028 0.190555 0.172366
0.528985 0.198795 0.184695
0.570031 0.208499 0.197635
0.610651 0.218296 0.211154
0.651209 0.228611 0.224460
0.691371 0.239841 0.238773
0.729274 0.252140 0.253696
0.764553 0.265599 0.269017
0.796902 0.279393 0.284459
0.825162 0.293614 0.299687
0.850309 0.308141 0.314855
0.873259 0.323888 0.330541
0.895140 0.341253 0.347539
0.915801 0.360510 0.365332
0.935790 0.382361 0.385321
0.954681 0.406958 0.407172
0.160220 0.165133 0.141787
0.161135 0.165011 0.142245
0.164065 0.164645 0.143801
0.168673 0.164218 0.147036
0.175387 0.166293 0.148257
0.188144 0.173892 0.142245
0.203006 0.179873 0.135531
0.230045 0.188479 0.127535
0.259770 0.190921 0.124697
0.283268 0.189242 0.123995
0.308232 0.188724 0.126284
0.336492 0.190585 0.133120
0.365179 0.193027 0.140719
0.394324 0.196170 0.148684
0.423896 0.199557 0.157137
0.453803 0.203311 0.165774
0.487709 0.209415 0.175906
0.526055 0.217258 0.187411
0.563806 0.225254 0.199100
0.601801 0.233494 0.211063
0.640375 0.242466 0.223484
0.679500 0.252445 0.237125
0.717006 0.263218 0.250980
0.752468 0.275181 0.265904
0.785214 0.287816 0.280888
0.814298 0.300481 0.295628
0.840330 0.313878 0.310613
0.864317 0.328099 0.325841
0.886961 0.344213 0.342321
0.908446 0.362371 0.360388
0.929137 0.382788 0.379767
0.948760 0.406317 0.401465
0.183261 0.188754 0.161196
0.184146 0.188815 0.161715
0.186313 0.188540 0.163027
0.190707 0.188113 0.165743
0.195834 0.187564 0.170199
0.205447 0.193179 0.166354
0.218662 0.200320 0.159701
0.234195 0.205936 0.151736
0.262089 0.214664 0.143069
0.291447 0.216403 0.139590
0.313970 0.214694 0.139651
0.336004 0.212650 0.138277
0.364141 0.214389 0.145632
0.392676 0.216800 0.153353
0.421607 0.219883 0.161135
0.453346 0.224216 0.170199
0.489113 0.230716 0.180606
0.524559 0.237156 0.191287
0.560143 0.243778 0.201846
0.596338 0.251194 0.212894
0.633509 0.259098 0.224491
0.671473 0.267948 0.237064
0.708400 0.277745 0.250340
0.743496 0.288365 0.264622
0.776272 0.299626 0.278965
0.805966 0.311101 0.293645
0.832578 0.323125 0.308019
0.857237 0.336370 0.323308
0.880522 0.351202 0.339513
0.902586 0.367987 0.357183
0.923735 0.387304 0.376532
0.943877 0.409125 0.397528
0.207187 0.213809 0.181369
0.207492 0.213901 0.181674
0.209537 0.213382 0.182650
0.213565 0.212894 0.185000
0.218265 0.211978 0.188571
0.224491 0.213382 0.190036
0.235660 0.220096 0.183536
0.249332 0.226627 0.176425
0.264683 0.231296 0.168032
0.293095 0.240085 0.158755
0.321874 0.241276 0.154055
0.343236 0.239078 0.154391
0.363958 0.236454 0.153140
0.389380 0.236912 0.157504
0.421241 0.241215 0.165927
0.454902 0.246494 0.175387
0.488960 0.252079 0.185061
0.523461 0.257786 0.194766
0.558251 0.263981 0.205081
0.593561 0.270451 0.215885
0.628992 0.277379 0.226444
0.664485 0.284733 0.237888
0.698939 0.292576 0.249821
0.731868 0.301122 0.262303
0.763119 0.310216 0.275364
0.792477 0.319982 0.288914
0.819913 0.330724 0.302983
0.845853 0.342687 0.317967
0.870512 0.356542 0.334142
0.894072 0.372564 0.351995
0.916625 0.391028 0.371374
0.937987 0.412390 0.393011
0.229557 0.237491 0.200504
0.229953 0.237430 0.200626
0.231907 0.237186 0.201755
0.235630 0.236728 0.203799
0.240513 0.236088 0.207004
0.245609 0.235477 0.211704
0.254459 0.240574 0.207919
0.267185 0.247868 0.201297
0.280949 0.253758 0.193759
0.297002 0.258488 0.184817
0.326116 0.267155 0.175113
0.354253 0.267796 0.169375
0.376257 0.266178 0.170657
0.398901 0.264714 0.170321
0.423316 0.264286 0.171237
0.455390 0.268559 0.180209
0.487831 0.273228 0.188968
0.520958 0.278111 0.198428
0.554253 0.283360 0.207492
0.588128 0.289067 0.217441
0.622400 0.295079 0.227634
0.656947 0.301640 0.238285
0.691005 0.308934 0.249729
0.723751 0.316472 0.261692
0.755032 0.324712 0.274235
0.784695 0.333532 0.287510
0.812680 0.343175 0.301274
0.839139 0.354253 0.316045
0.864469 0.367071 0.332311
0.888670 0.381903 0.349889
0.911803 0.399390 0.369451
0.933745 0.419654 0.390906
0.254704 0.263645 0.221592
0.255253 0.263676 0.221927
0.256992 0.263462 0.222751
0.260166 0.263340 0.224735
0.265019 0.262821 0.227665
0.270512 0.262272 0.231876
0.276951 0.263890 0.233829
0.287572 0.270603 0.227726
0.301030 0.277836 0.220554
0.315312 0.283360 0.212406
0.332341 0.288396 0.203433
0.365728 0.299992 0.195193
0.424903 0.324041 0.202548
0.448981 0.322210 0.203830
0.470710 0.318181 0.201602
0.490700 0.313176 0.197787
0.523308 0.316686 0.205783
0.557580 0.321202 0.214939
0.591882 0.326085 0.224704
0.626246 0.331151 0.234440
0.660487 0.336706 0.245029
0.693050 0.342229 0.256016
0.724269 0.348150 0.267521
0.754208 0.354620 0.279606
0.782803 0.361639 0.292210
0.809384 0.369268 0.305455
0.834043 0.377386 0.318669
0.857237 0.386755 0.333074
0.879362 0.397803 0.348363
0.900999 0.411048 0.365332
0.921843 0.426795 0.384131
0.942138 0.445747 0.405432
0.290410 0.301274 0.251316
0.290654 0.301091 0.251347
0.292027 0.300450 0.251926
0.294713 0.299748 0.253300
0.298589 0.298558 0.255406
0.303166 0.297307 0.258671
0.308568 0.296300 0.263401
0.316869 0.300877 0.259464
0.331609 0.310582 0.254734
0.348974 0.320623 0.248692
0.368292 0.329778 0.242557
0.390295 0.338231 0.235080
0.427985 0.351812 0.226322
0.460060 0.353368 0.219577
0.483528 0.350835 0.219791
0.503258 0.345556 0.217105
0.520867 0.338811 0.212406
0.545830 0.337438 0.214450
0.578668 0.341405 0.223362
0.611475 0.345739 0.232670
0.644404 0.350469 0.242283
0.676814 0.355444 0.252476
0.708125 0.360693 0.263401
0.738643 0.366522 0.275151
0.767941 0.372961 0.287388
0.795621 0.380011 0.300145
0.821775 0.387610 0.313634
0.846525 0.396460 0.328099
0.870176 0.406836 0.343450
0.893126 0.419562 0.360967
0.915129 0.434455 0.379828
0.936400 0.452461 0.401282
0.319219 0.331640 0.274907
0.319402 0.331334 0.274876
0.320562 0.330999 0.275517
0.323308 0.330480 0.276890
0.327459 0.329747 0.279210
0.332738 0.329198 0.282658
0.339025 0.328954 0.287633
0.346441 0.331029 0.290532
0.358129 0.338903 0.285222
0.373449 0.348425 0.278660
0.390600 0.357549 0.272190
0.409888 0.366064 0.264775
0.431617 0.373571 0.256199
0.467903 0.385412 0.246250
0.496742 0.384100 0.237400
0.517266 0.379034 0.235691
0.534112 0.371527 0.231815
0.549432 0.363348 0.226261
0.566949 0.357092 0.222263
0.598901 0.360967 0.231022
0.631373 0.365148 0.240543
0.663874 0.370062 0.250340
0.695552 0.375097 0.260838
0.726467 0.380713 0.272190
0.756435 0.386633 0.284154
0.785061 0.393225 0.296757
0.812131 0.400366 0.310094
0.837858 0.408667 0.324681
0.862547 0.418402 0.340368
0.886381 0.430121 0.357519
0.909392 0.444465 0.377050
0.931579 0.461677 0.398596
0.354070 0.368719 0.303380
0.354162 0.368414 0.303349
0.355016 0.367651 0.303532
0.357061 0.366461 0.304326
0.360174 0.365026 0.305882
0.364477 0.363409 0.308293
0.369848 0.362371 0.312169
0.375891 0.361883 0.317601
0.385077 0.367102 0.314580
0.397925 0.375494 0.308415
0.414343 0.385382 0.301701
0.431525 0.393774 0.294438
0.450416 0.401343 0.286381
0.472389 0.408392 0.276310
0.505852 0.417395 0.264988
0.531090 0.413153 0.254429
0.549523 0.406043 0.250553
0.564324 0.397284 0.246006
0.578332 0.388098 0.239872
0.591669 0.379034 0.233097
0.619776 0.380529 0.238621
0.652338 0.385168 0.247959
0.684199 0.390082 0.258396
0.715267 0.395270 0.269505
0.745541 0.400977 0.281254
0.775051 0.407080 0.293584
0.803281 0.414099 0.307317
0.830381 0.422309 0.322026
0.856687 0.432013 0.338384
0.882139 0.444007 0.356756
0.906767 0.458656 0.377264
0.930449 0.476539 0.400702
0.385138 0.401495 0.328374
0.385748 0.401587 0.328679
0.386542 0.401343 0.329137
0.388739 0.400458 0.329992
0.392126 0.399512 0.331731
0.396765 0.398566 0.334386
0.402777 0.398108 0.338506
0.409613 0.398108 0.343908
0.417456 0.400244 0.347570
0.428565 0.407813 0.341497
0.442359 0.416327 0.334478
0.457862 0.424628 0.326268
0.473121 0.430732 0.317357
0.489357 0.435218 0.306798
0.509209 0.439948 0.294652
0.538476 0.445167 0.281559
0.560784 0.438575 0.269566
0.577844 0.430396 0.264073
0.591699 0.421088 0.259220
0.605219 0.411688 0.252873
0.618952 0.402747 0.246006
0.641016 0.399908 0.245609
0.673701 0.405127 0.255924
0.705592 0.410681 0.267002
0.737026 0.416419 0.279057
0.767575 0.422889 0.291814
0.796933 0.429908 0.305486
0.825193 0.437903 0.320653
0.852232 0.447333 0.337438
0.878172 0.458595 0.355749
0.903136 0.472206 0.376410
0.926970 0.488655 0.399298
0.414771 0.432776 0.352209
0.415045 0.432685 0.352300
0.415900 0.432410 0.352697
0.418067 0.431861 0.353704
0.421332 0.431128 0.355444
0.426032 0.430365 0.358007
0.431739 0.429847 0.361639
0.438361 0.429664 0.366583
0.445411 0.429908 0.372625
0.454261 0.434943 0.370092
0.465980 0.442481 0.363378
0.480049 0.450660 0.355383
0.494514 0.457588 0.346654
0.508873 0.462287 0.336553
0.523796 0.465309 0.325048
0.543633 0.469642 0.311986
0.570733 0.472724 0.298253
0.591333 0.465126 0.285527
0.607904 0.456214 0.278965
0.620935 0.446357 0.273747
0.634546 0.437110 0.267308
0.648402 0.427955 0.259922
0.663600 0.420142 0.253086
0.696284 0.425849 0.264286
0.728328 0.431830 0.276280
0.759884 0.438453 0.289281
0.790463 0.445655 0.303441
0.819883 0.453712 0.319066
0.847959 0.463111 0.336309
0.874907 0.474159 0.355138
0.900786 0.487465 0.376379
0.925353 0.503624 0.400153
0.447242 0.466865 0.378363
0.447669 0.467262 0.378698
0.475441 0.494850 0.401038
0.477516 0.494392 0.401953
0.480659 0.493690 0.403632
0.484932 0.492622 0.405798
0.490272 0.491646 0.409064
0.496407 0.490883 0.413306
0.503471 0.490730 0.419013
0.510979 0.492226 0.422919
0.520745 0.498634 0.415808
0.532464 0.505516 0.407446
0.545617 0.512047 0.397314
0.557397 0.515709 0.386053
0.569116 0.517266 0.373358
0.581079 0.516838 0.359228
0.599023 0.518578 0.343603
0.621332 0.517021 0.327703
0.637903 0.505638 0.312535
0.651820 0.494148 0.303014
0.663111 0.482460 0.296513
0.675563 0.471717 0.288884
0.688533 0.461585 0.280613
0.702113 0.452094 0.271672
0.727565 0.452583 0.277012
0.758083 0.458045 0.289281
0.787686 0.464088 0.302953
0.816403 0.471077 0.317967
0.844541 0.479591 0.335119
0.871824 0.490059 0.354284
0.898192 0.502861 0.375952
0.923430 0.518425 0.400305
0.487434 0.509270 0.411231
0.490211 0.511742 0.413458
0.493904 0.514366 0.416083
0.498299 0.516411 0.419013
0.502922 0.517723 0.422065
0.507622 0.517693 0.424750
0.512871 0.516899 0.427802
0.518578 0.515984 0.431525
0.525048 0.515465 0.436439
0.531762 0.515160 0.442481
0.539666 0.519249 0.439582
0.549432 0.525231 0.431769
0.560510 0.530999 0.422400
0.572412 0.536095 0.411810
0.582940 0.538323 0.400183
0.593896 0.538933 0.387335
0.605158 0.537865 0.373144
0.623621 0.540398 0.358129
0.645075 0.538231 0.342840
0.661555 0.527428 0.328222
0.676051 0.516442 0.318303
0.688563 0.506035 0.312139
0.701534 0.495827 0.304631
0.714778 0.485878 0.296178
0.728542 0.476265 0.286809
0.748287 0.471931 0.284428
0.778653 0.478035 0.297948
0.808347 0.484901 0.313298
0.837339 0.493111 0.330297
0.865660 0.503288 0.349828
0.893156 0.515709 0.372015
0.919493 0.530968 0.397131
0.513939 0.536797 0.433143
0.516838 0.539391 0.435462
0.520653 0.542138 0.438392
0.524773 0.544427 0.441413
0.529564 0.545739 0.444465
0.534081 0.545983 0.447242
0.538872 0.545403 0.450050
0.544213 0.544366 0.453407
0.550317 0.543694 0.457832
0.556634 0.543145 0.463081
0.563073 0.543938 0.466865
0.571008 0.549004 0.459693
0.580255 0.554009 0.450965
0.590875 0.559075 0.441169
0.601404 0.562554 0.430060
0.611200 0.563867 0.418097
0.621363 0.563745 0.405005
0.632105 0.562127 0.390814
0.650813 0.564996 0.376196
0.670924 0.561700 0.360845
0.686793 0.550835 0.346227
0.701381 0.540185 0.335393
0.714321 0.530297 0.329381
0.727596 0.520348 0.321691
0.741115 0.510613 0.312902
0.755428 0.501335 0.303532
0.770932 0.492927 0.293919
0.800565 0.499001 0.307713
0.830625 0.507164 0.325444
0.859983 0.517082 0.345190
0.888487 0.529198 0.367712
0.915801 0.543908 0.393317
0.542077 0.565240 0.457496
0.544610 0.567651 0.459754
0.547967 0.569940 0.462409
0.551873 0.571862 0.465309
0.556054 0.573053 0.468147
0.560204 0.573205 0.470680
0.564569 0.572656 0.473304
0.569574 0.571862 0.476448
0.575280 0.571252 0.480507
0.581170 0.570764 0.485359
0.587274 0.570459 0.491157
0.593713 0.573388 0.488624
0.601343 0.577813 0.480781
0.610285 0.582238 0.471717
0.620630 0.586664 0.461463
0.630121 0.589136 0.450355
0.640101 0.590539 0.438941
0.650904 0.590967 0.426703
0.662715 0.590570 0.413947
0.683223 0.595209 0.400916
0.703548 0.592493 0.387182
0.720241 0.582788 0.373175
0.735744 0.572900 0.362158
0.749905 0.564141 0.356695
0.764431 0.555230 0.349279
0.779477 0.546471 0.340887
0.795621 0.538354 0.331945
0.813504 0.531395 0.323217
0.839628 0.534264 0.331182
0.869871 0.544976 0.353582
0.898924 0.557885 0.378851
0.926360 0.573510 0.407355
0.585870 0.607904 0.497902
0.587060 0.608759 0.498878
0.588556 0.609369 0.499977
0.590356 0.609583 0.501122
0.592676 0.609369 0.502403
0.595331 0.608576 0.503807
0.598810 0.607630 0.505699
0.603021 0.606775 0.508293
0.607996 0.606043 0.511681
0.613642 0.605676 0.516075
0.619471 0.605524 0.521263
0.625116 0.606134 0.525322
0.631373 0.609979 0.518395
0.638697 0.613825 0.510277
0.647120 0.617609 0.501061
0.656672 0.621210 0.490761
0.665064 0.622522 0.479744
0.674128 0.622950 0.467659
0.684016 0.622522 0.454902
0.694606 0.621088 0.441505
0.713893 0.624750 0.427832
0.731502 0.619959 0.413092
0.746395 0.609003 0.397772
0.760403 0.597864 0.384466
0.773892 0.588830 0.377996
0.788479 0.580346 0.370733
0.804288 0.572381 0.362646
0.821805 0.565606 0.354681
0.841489 0.560388 0.347539
0.865354 0.559747 0.347539
0.895445 0.572381 0.373419
0.923888 0.587549 0.402777
0.613581 0.634730 0.523919
0.614557 0.635492 0.524773
0.615808 0.636042 0.525750
0.617487 0.636286 0.526818
0.619623 0.636133 0.528038
0.622156 0.635615 0.529412
0.625238 0.634913 0.531151
0.629175 0.634089 0.533471
0.633753 0.633600 0.536614
0.638941 0.633326 0.540551
0.644434 0.633234 0.545251
0.649866 0.633234 0.550561
0.655207 0.635462 0.548669
0.661433 0.639033 0.541772
0.668696 0.642573 0.534020
0.676997 0.646174 0.525383
0.685847 0.649134 0.515740
0.693965 0.650385 0.505577
0.702876 0.650874 0.494545
0.712490 0.650446 0.482673
0.722835 0.649042 0.469886
0.741665 0.652796 0.456947
0.758145 0.647303 0.442023
0.772549 0.636591 0.426398
0.780545 0.619226 0.404639
0.793942 0.610651 0.398352
0.809262 0.603265 0.391608
0.826139 0.596796 0.384710
0.845060 0.591669 0.378302
0.866453 0.588312 0.372900
0.890715 0.587121 0.369329
0.920073 0.600092 0.395056
0.648920 0.668421 0.558556
0.650324 0.669581 0.559960
0.651423 0.670039 0.560754
0.652308 0.669673 0.561181
0.653285 0.668666 0.561303
0.654444 0.667323 0.561486
0.656001 0.665614 0.561822
0.658198 0.663813 0.562615
0.661006 0.662165 0.564141
0.664576 0.660792 0.566461
0.668360 0.659480 0.569390
0.672541 0.658595 0.573266
0.676539 0.658137 0.576318
0.680812 0.660334 0.569360
0.685908 0.662501 0.561303
0.691981 0.664820 0.552575
0.699367 0.667292 0.542992
0.706783 0.669001 0.533501
0.714626 0.669947 0.523583
0.723476 0.670588 0.513451
0.733089 0.670527 0.502922
0.743221 0.669337 0.491127
0.761532 0.673060 0.478767
0.776394 0.666560 0.463508
0.789487 0.655360 0.446632
0.802457 0.643580 0.430182
0.815610 0.635218 0.423346
0.831113 0.628473 0.416754
0.848753 0.623041 0.410529
0.868681 0.619532 0.405707
0.891386 0.618280 0.402930
0.916869 0.619745 0.402655
0.670222 0.688502 0.580072
0.671504 0.689509 0.581353
0.672633 0.690059 0.582361
0.673793 0.690150 0.583062
0.675135 0.689815 0.583795
0.676875 0.689235 0.584619
0.679164 0.688624 0.585870
0.682063 0.688014 0.587610
0.685573 0.687526 0.589929
0.689570 0.687160 0.592920
0.693782 0.686702 0.596246
0.698085 0.686366 0.600122
0.702052 0.685969 0.604273
0.705776 0.687007 0.602350
0.709865 0.688869 0.595453
0.714717 0.690761 0.587671
0.720607 0.692805 0.579278
0.727840 0.695216 0.570428
0.734585 0.696407 0.561486
0.742184 0.697383 0.552514
0.750576 0.697871 0.542992
0.759579 0.697627 0.532921
0.769009 0.696223 0.521660
0.786648 0.699947 0.510277
0.800504 0.693477 0.495857
0.813413 0.683223 0.480049
0.826810 0.672602 0.464027
0.840635 0.665492 0.457557
0.857603 0.660945 0.453010
0.876677 0.658167 0.449561
0.898192 0.657588 0.448188
0.922210 0.659754 0.449622
0.697200 0.713680 0.608209
0.697902 0.714137 0.608850
0.698543 0.714321 0.609369
0.699336 0.714229 0.609827
0.700343 0.713863 0.610315
0.701747 0.713252 0.610895
0.703548 0.712612 0.611872
0.705959 0.711940 0.613214
0.708797 0.711360 0.615076
0.712306 0.710872 0.617456
0.715969 0.710445 0.620356
0.719844 0.710170 0.623774
0.723690 0.709895 0.627527
0.727077 0.709651 0.630610
0.730434 0.711299 0.624659
0.734432 0.712978 0.618036
0.739254 0.714778 0.610712
0.745205 0.716915 0.602960
0.752071 0.719203 0.595178
0.758694 0.720455 0.587335
0.766049 0.721462 0.579217
0.774014 0.721828 0.570275
0.782376 0.721248 0.560388
0.791043 0.719570 0.549279
0.807736 0.723110 0.538476
0.820615 0.716396 0.524071
0.833219 0.706844 0.508751
0.846403 0.697078 0.493660
0.860563 0.691035 0.487556
0.878569 0.688960 0.485634
0.898802 0.689113 0.485664
0.921447 0.691981 0.488624
0.719905 0.734951 0.632288
0.720394 0.735317 0.632776
0.721096 0.735592 0.633356
0.721981 0.735683 0.633997
0.723293 0.735744 0.634882
0.725307 0.735958 0.636286
0.728267 0.736721 0.638575
0.731930 0.737667 0.641596
0.736294 0.738949 0.645289
0.741207 0.740444 0.649500
0.746456 0.742061 0.654292
0.751583 0.743618 0.659266
0.756588 0.744991 0.664302
0.760983 0.746029 0.669123
0.764828 0.747738 0.669032
0.768551 0.749722 0.664240
0.772671 0.751614 0.658656
0.777554 0.753628 0.652644
0.783536 0.756039 0.646509
0.789761 0.758083 0.640131
0.795956 0.759396 0.633631
0.802670 0.760281 0.626581
0.809720 0.760372 0.618463
0.817105 0.759670 0.609522
0.825345 0.758328 0.599359
0.840391 0.761288 0.589502
0.852506 0.755062 0.576074
0.864958 0.747036 0.562188
0.878355 0.739101 0.548669
0.892882 0.734768 0.543511
0.911894 0.736049 0.545373
0.932891 0.740047 0.550317
0.755093 0.767758 0.670863
0.755123 0.767758 0.670893
0.755337 0.767605 0.670954
0.755764 0.767391 0.671107
0.756466 0.767086 0.671412
0.757504 0.766812 0.671962
0.759121 0.766537 0.672938
0.761227 0.766415 0.674342
0.763760 0.766415 0.676173
0.766781 0.766567 0.678553
0.770077 0.766781 0.681300
0.773648 0.767086 0.684413
0.777157 0.767422 0.687831
0.780545 0.767636 0.691371
