20 Preset/caramel style/【3】LUT video cho PR-AE-FCPX/Tone  (1).cube
# Created by Adobe Lightroom plugin Export LUT (1.24.0)
# www.johnrellis.com/lightroom/exportlut.htm
# Preset: 褐色婚礼-素材江湖11
# Color profile: C:\Program Files (x86)\Common Files\Adobe\Color\Profiles\Recommended\VideoHD.icc
LUT_3D_SIZE 8
DOMAIN_MIN 0.000000 0.000000 0.000000
DOMAIN_MAX 0.903226 0.903226 0.903226
0.000000 0.000000 0.000000
0.115206 0.000000 0.003906
0.366552 0.020356 0.031403
0.538811 0.155001 0.034699
0.685939 0.232486 0.084443
0.844999 0.315465 0.164004
0.956268 0.383429 0.234836
1.000000 0.446723 0.305394
0.084047 0.089357 0.074220
0.146059 0.104463 0.053590
0.338445 0.152407 0.047120
0.507347 0.198154 0.045502
0.661494 0.254551 0.107515
0.814939 0.322911 0.168154
0.931609 0.384527 0.230625
1.000000 0.446937 0.300114
0.251255 0.259037 0.222446
0.267643 0.269810 0.221988
0.419867 0.309026 0.200565
0.499886 0.304021 0.167086
0.635889 0.337224 0.181125
0.792844 0.388373 0.218875
0.926726 0.443397 0.274235
1.000000 0.496040 0.337774
0.422797 0.435248 0.387884
0.429328 0.436896 0.389075
0.489357 0.484321 0.387640
0.686885 0.542687 0.399603
0.731685 0.499153 0.332036
0.754452 0.464637 0.277562
0.893523 0.510369 0.320195
1.000000 0.555169 0.377447
0.562554 0.590173 0.534112
0.566339 0.590936 0.534630
0.592432 0.614038 0.539269
0.688502 0.675227 0.547631
0.836820 0.700313 0.567864
0.866300 0.639918 0.477729
0.880705 0.592340 0.398749
0.967071 0.614069 0.414862
0.682979 0.715572 0.665064
0.690333 0.721218 0.671107
0.701228 0.726528 0.674464
0.740810 0.762295 0.681056
0.826047 0.805173 0.688594
0.924468 0.813382 0.710689
0.956725 0.769863 0.643824
0.990356 0.739193 0.583612
0.784695 0.817441 0.775601
0.787015 0.818845 0.777096
0.792142 0.820127 0.778286
0.808499 0.835019 0.782101
0.846128 0.860807 0.786221
0.913573 0.889860 0.793790
0.974640 0.888334 0.810910
1.000000 0.860777 0.767788
0.871519 0.900328 0.868376
0.872190 0.900511 0.868559
0.875792 0.901946 0.870054
0.883757 0.906249 0.873472
0.893462 0.915068 0.868070
0.925811 0.933562 0.873198
0.970397 0.948577 0.879240
1.000000 0.941711 0.887633
0.000000 0.019348 0.082338
0.114534 0.000000 0.090272
0.354711 0.032380 0.093080
0.522789 0.174197 0.127504
0.675257 0.245090 0.159213
0.818235 0.314733 0.201266
0.929107 0.376165 0.249577
1.000000 0.437629 0.308263
0.059297 0.096162 0.093446
0.150301 0.123415 0.113710
0.343267 0.165896 0.124971
0.511345 0.214176 0.143343
0.662989 0.269535 0.170626
0.804868 0.328954 0.207675
0.915953 0.383429 0.251011
1.000000 0.440955 0.306340
0.271000 0.272862 0.246189
0.284092 0.277653 0.250004
0.415320 0.315648 0.239109
0.488991 0.308476 0.201053
0.629847 0.340642 0.212985
0.776822 0.384924 0.239628
0.901213 0.431495 0.279240
1.000000 0.483955 0.335210
0.419043 0.428565 0.387243
0.425177 0.430426 0.388586
0.476753 0.471260 0.389746
0.653071 0.518486 0.394659
0.691920 0.474372 0.325994
0.727657 0.448554 0.279942
0.865507 0.492256 0.314611
0.983307 0.539330 0.367895
0.561181 0.587396 0.534783
0.563836 0.587121 0.534295
0.585382 0.604395 0.536980
0.673823 0.661219 0.541314
0.819669 0.685328 0.558190
0.848417 0.626307 0.469520
0.862486 0.579248 0.391638
0.954620 0.603967 0.409735
0.677028 0.708919 0.659815
0.679866 0.710140 0.661006
0.690852 0.714321 0.665003
0.730953 0.751827 0.673457
0.817441 0.797269 0.683375
0.919097 0.809323 0.709071
0.950469 0.764736 0.640223
0.983215 0.731868 0.576440
0.778164 0.811002 0.769345
0.778378 0.810361 0.768521
0.783383 0.811551 0.769589
0.800381 0.826596 0.774533
0.840452 0.855406 0.781643
0.908751 0.885405 0.789761
0.970825 0.883757 0.805997
1.000000 0.854429 0.759945
0.866819 0.896086 0.863890
0.868467 0.897154 0.865080
0.871885 0.898375 0.866392
0.879973 0.902312 0.870054
0.896971 0.918120 0.873228
0.926543 0.934508 0.875822
0.969726 0.948363 0.879820
1.000000 0.941650 0.888182
0.000000 0.132601 0.253025
0.000000 0.017914 0.261845
0.359289 0.000000 0.284825
0.580682 0.090333 0.270420
0.731746 0.280430 0.294835
0.852384 0.357794 0.322026
0.949004 0.416236 0.350927
1.000000 0.472053 0.390448
0.000000 0.192294 0.266026
0.054200 0.169009 0.276097
0.378637 0.154360 0.293553
0.573602 0.204562 0.272862
0.714900 0.310521 0.301213
0.836759 0.370794 0.322881
0.936919 0.421057 0.347814
1.000000 0.474678 0.387335
0.285191 0.301152 0.294438
0.319921 0.312322 0.306279
0.403876 0.347112 0.325719
0.532067 0.358953 0.315953
0.680262 0.388952 0.323949
0.810666 0.423346 0.337591
0.919341 0.462470 0.362585
1.000000 0.508873 0.402594
0.460304 0.465156 0.440436
0.465309 0.469368 0.442298
0.494636 0.489021 0.450080
0.656916 0.544610 0.466041
0.676936 0.486000 0.378424
0.760616 0.483375 0.355688
0.886168 0.520439 0.384192
0.993256 0.562646 0.428229
0.583948 0.607141 0.567285
0.587366 0.608179 0.568078
0.603510 0.614343 0.573358
0.677302 0.671412 0.585138
0.819608 0.705074 0.610010
0.837095 0.636042 0.506950
0.850675 0.581415 0.417121
0.961425 0.619928 0.455238
0.689662 0.719326 0.678187
0.692561 0.720851 0.679622
0.702113 0.724392 0.682918
0.733059 0.752102 0.690974
0.812741 0.797757 0.702754
0.913481 0.815091 0.730709
0.941161 0.768521 0.657893
0.976654 0.735256 0.592340
0.787686 0.819089 0.782376
0.788022 0.818662 0.781827
0.791806 0.818936 0.781796
0.804562 0.827695 0.785458
0.840970 0.856474 0.792905
0.906981 0.887663 0.803250
0.969635 0.890654 0.822507
0.998444 0.861967 0.776211
0.870512 0.899168 0.869474
0.870756 0.899016 0.869200
0.873960 0.900145 0.870329
0.882750 0.904479 0.875090
0.897948 0.918334 0.878660
0.927062 0.935912 0.882902
0.969543 0.950805 0.887816
1.000000 0.945098 0.896483
0.000000 0.197513 0.404059
0.000000 0.165042 0.414160
0.286839 0.092317 0.440375
0.567010 0.108431 0.463294
0.771511 0.205539 0.455940
0.900206 0.315129 0.425086
0.967681 0.456672 0.469795
1.000000 0.511864 0.492897
0.000000 0.254429 0.419135
0.000000 0.235752 0.426612
0.309239 0.192447 0.450233
0.577264 0.208652 0.470222
0.772732 0.268528 0.458442
0.892058 0.369635 0.442237
0.961028 0.468177 0.471809
1.000000 0.519249 0.494667
0.117189 0.371069 0.432136
0.188022 0.375982 0.437568
0.355322 0.361089 0.462867
0.593317 0.378119 0.480201
0.762722 0.415167 0.465003
0.862425 0.484413 0.482124
0.948272 0.522515 0.494636
1.000000 0.559197 0.514733
0.446296 0.481788 0.474739
0.463569 0.487404 0.480385
0.524681 0.513268 0.507042
0.610529 0.548974 0.522271
0.688624 0.524010 0.476783
0.802213 0.539300 0.478187
0.906188 0.563958 0.492073
0.999420 0.598749 0.521202
0.617853 0.633387 0.614313
0.623041 0.636988 0.617548
0.638819 0.649226 0.626276
0.679469 0.679988 0.641077
0.807584 0.724300 0.668788
0.809812 0.642359 0.552422
0.861357 0.610376 0.493935
0.971313 0.651820 0.537743
0.718654 0.744930 0.716701
0.724117 0.749325 0.721218
0.730617 0.751278 0.722621
0.748470 0.761257 0.729152
0.813718 0.808072 0.744594
0.909270 0.830808 0.771725
0.926635 0.775570 0.686793
0.964599 0.736843 0.612360
0.801236 0.830625 0.801755
0.802823 0.831479 0.802579
0.808042 0.833646 0.804623
0.818570 0.837919 0.808682
0.846708 0.862303 0.816953
0.905547 0.893523 0.828122
0.966888 0.900694 0.847074
0.992767 0.869627 0.795895
0.880095 0.907561 0.882597
0.880674 0.907713 0.882719
0.883452 0.908659 0.883604
0.889769 0.911162 0.886107
0.901091 0.919310 0.889616
0.927092 0.937591 0.894316
0.968658 0.954345 0.900206
1.000000 0.951019 0.910246
0.000000 0.273869 0.550439
0.000000 0.256260 0.557916
0.000000 0.185183 0.579828
0.509483 0.186038 0.616022
0.753109 0.226200 0.634424
0.909911 0.315892 0.611963
0.993164 0.425116 0.577630
1.000000 0.547539 0.606012
0.000000 0.318822 0.559808
0.000000 0.305119 0.567102
0.000000 0.242069 0.588220
0.517937 0.246525 0.619989
0.756344 0.278294 0.636591
0.906981 0.353948 0.612207
0.989136 0.449928 0.582147
1.000000 0.568261 0.616052
0.000000 0.426642 0.570001
0.000000 0.424781 0.575189
0.273808 0.401068 0.597070
0.539513 0.390326 0.628809
0.757137 0.413153 0.636530
0.886320 0.462013 0.608698
0.970275 0.527794 0.597070
1.000000 0.622766 0.639643
0.298863 0.533257 0.587823
0.323186 0.536461 0.590692
0.410529 0.550835 0.604608
0.571923 0.556481 0.638422
0.758389 0.580957 0.648035
0.860472 0.606897 0.631708
0.930938 0.639063 0.638178
1.000000 0.655207 0.640375
0.580468 0.634180 0.628351
0.591608 0.638331 0.632532
0.634455 0.653346 0.648096
0.686946 0.682795 0.677211
0.751522 0.703456 0.680964
0.787778 0.653376 0.611963
0.885313 0.665370 0.615351
0.977386 0.688380 0.632898
0.719081 0.738430 0.725490
0.722560 0.741054 0.727962
0.733883 0.749050 0.735256
0.750118 0.761196 0.744320
0.788724 0.791318 0.760189
0.887572 0.829526 0.791714
0.895933 0.762692 0.694514
0.950072 0.732845 0.635676
0.813504 0.837339 0.819883
0.814542 0.837858 0.820310
0.817258 0.840024 0.820951
0.825132 0.844755 0.823972
0.841978 0.854490 0.831113
0.894469 0.891356 0.846159
0.960235 0.906920 0.867796
0.980835 0.867674 0.804318
0.882261 0.908721 0.889250
0.882353 0.908873 0.889067
0.884154 0.909789 0.889311
0.892332 0.914336 0.894011
0.901854 0.918273 0.897795
0.922759 0.935210 0.903807
0.962829 0.954589 0.911040
0.997436 0.954864 0.921630
0.000000 0.353796 0.693385
0.000000 0.342657 0.697780
0.000000 0.278630 0.711116
0.378088 0.268101 0.735622
0.694850 0.290440 0.767605
0.890959 0.344182 0.768612
0.998657 0.445960 0.736080
1.000000 0.550347 0.713466
0.000000 0.381384 0.689631
0.000000 0.371374 0.692775
0.000000 0.318029 0.706569
0.383948 0.299992 0.729397
0.690944 0.320806 0.760494
0.884245 0.368994 0.762234
0.992157 0.462226 0.733059
1.000000 0.558556 0.711818
0.000000 0.473884 0.699825
0.000000 0.471290 0.702785
0.110994 0.448676 0.716396
0.421027 0.411994 0.735531
0.702541 0.438575 0.763973
0.880674 0.478309 0.762936
0.979431 0.546960 0.739284
1.000000 0.614649 0.724697
0.000000 0.580957 0.705379
0.085145 0.581689 0.706081
0.322362 0.584771 0.716854
0.510491 0.576715 0.745693
0.727352 0.599115 0.775662
0.876097 0.625696 0.772702
0.959808 0.661189 0.754788
1.000000 0.699306 0.751858
0.456794 0.671382 0.715358
0.470039 0.673396 0.716670
0.520378 0.682307 0.723262
0.602594 0.699428 0.737331
0.729610 0.712978 0.767300
0.855772 0.730709 0.770443
0.930236 0.745235 0.762783
0.989258 0.768338 0.771481
0.687343 0.749660 0.745602
0.695277 0.753323 0.749233
0.718654 0.761074 0.756954
0.760281 0.775692 0.772366
0.797665 0.798337 0.794461
0.849210 0.816342 0.800259
0.879759 0.768399 0.735683
0.967468 0.785336 0.748165
0.817014 0.838590 0.830686
0.819638 0.840696 0.832761
0.826932 0.845945 0.837766
0.840909 0.856260 0.847501
0.857664 0.869474 0.858396
0.884184 0.889281 0.869139
0.952026 0.915221 0.891386
0.967773 0.865171 0.814664
0.886229 0.909880 0.898131
0.886778 0.910094 0.898314
0.890867 0.912810 0.900847
0.900603 0.919646 0.907530
0.907256 0.924651 0.910277
0.919402 0.929839 0.915068
0.955688 0.954986 0.925566
0.993744 0.961334 0.937865
0.000000 0.421118 0.803983
0.000000 0.414221 0.807828
0.000000 0.374578 0.815335
0.084840 0.327428 0.830381
0.564233 0.348241 0.847166
0.819028 0.391089 0.866270
0.979004 0.453681 0.861662
1.000000 0.547845 0.820493
0.000000 0.436927 0.795132
0.000000 0.431434 0.799619
0.000000 0.395361 0.807553
0.120272 0.344457 0.821592
0.560113 0.362737 0.838102
0.810788 0.399481 0.856504
0.967864 0.453162 0.850187
1.000000 0.539513 0.810239
0.000000 0.510674 0.800412
0.000000 0.508965 0.802182
0.000000 0.487221 0.808438
0.233616 0.430091 0.823301
0.576745 0.449928 0.837766
0.815763 0.489815 0.857053
0.963622 0.538842 0.852781
1.000000 0.610651 0.823514
0.000000 0.605829 0.803037
0.000000 0.603937 0.803372
0.192905 0.600153 0.808255
0.424781 0.587366 0.823270
0.613306 0.579706 0.841093
0.828061 0.620661 0.862913
0.954467 0.653010 0.857267
1.000000 0.696895 0.837919
0.270451 0.688838 0.799283
0.286778 0.687770 0.798062
0.356420 0.689204 0.799008
0.474159 0.694697 0.806973
0.643397 0.692836 0.830655
0.820737 0.718166 0.855741
0.934752 0.740200 0.852811
1.000000 0.772519 0.846189
0.560204 0.770291 0.807797
0.567437 0.771633 0.808865
0.594781 0.776211 0.812253
0.644007 0.785214 0.819333
0.710872 0.797940 0.830350
0.820951 0.814664 0.859373
0.926940 0.834592 0.867430
0.985809 0.845029 0.862394
0.761654 0.837919 0.835813
0.766445 0.839902 0.837766
0.780941 0.844297 0.841978
0.808835 0.853696 0.851133
0.846586 0.866911 0.864591
0.882567 0.885801 0.883726
0.920867 0.900206 0.889799
0.956268 0.864469 0.840482
0.883299 0.905821 0.900999
0.884703 0.906828 0.901976
0.891264 0.911772 0.906859
0.900725 0.918608 0.913420
0.913787 0.927947 0.922271
0.930968 0.940490 0.934081
0.946624 0.951965 0.939818
0.989014 0.967956 0.954345
0.000000 0.479622 0.891173
0.000000 0.474311 0.893187
0.000000 0.445777 0.895995
0.000000 0.383032 0.906188
0.423621 0.393957 0.914977
0.697841 0.427070 0.925383
0.903593 0.487953 0.935058
1.000000 0.549737 0.932097
0.000000 0.491524 0.885924
0.000000 0.486854 0.888029
0.000000 0.460670 0.892088
0.000000 0.401495 0.901793
0.424170 0.406043 0.911070
0.695888 0.437781 0.921721
0.899901 0.493660 0.931090
1.000000 0.550652 0.927886
0.000000 0.544396 0.882597
0.000000 0.543725 0.883726
0.000000 0.523827 0.887205
0.000000 0.483223 0.899657
0.445624 0.468940 0.908843
0.700771 0.498543 0.918151
0.898466 0.549615 0.928496
1.000000 0.596765 0.924926
0.000000 0.611536 0.878569
0.000000 0.611688 0.880003
0.000000 0.609918 0.883085
0.299535 0.597528 0.892241
0.481727 0.564752 0.905211
0.713130 0.595453 0.916014
0.899321 0.639307 0.928374
1.000000 0.675563 0.924590
0.000000 0.690883 0.872129
0.000000 0.691615 0.873259
0.000000 0.686976 0.874998
0.329168 0.687861 0.882200
0.551476 0.684352 0.894194
0.714656 0.683680 0.909636
0.895995 0.725460 0.926726
1.000000 0.757900 0.925353
0.332311 0.771176 0.875120
0.338994 0.770230 0.874418
0.372686 0.768734 0.873655
0.440101 0.769497 0.875761
0.534997 0.773037 0.882139
0.733577 0.785275 0.906889
0.896056 0.820951 0.932708
0.991241 0.845060 0.933898
0.632929 0.855680 0.891386
0.636713 0.855985 0.891539
0.652827 0.857664 0.892668
0.686976 0.862943 0.896635
0.736599 0.871794 0.903716
0.794064 0.881163 0.912261
0.885191 0.889555 0.931426
0.977996 0.907225 0.937987
0.816403 0.908568 0.908537
0.818204 0.908751 0.908629
0.827481 0.910552 0.910216
0.847105 0.915526 0.914763
0.874876 0.923705 0.922515
0.908690 0.934508 0.933043
0.944640 0.948547 0.947723
0.970550 0.960357 0.955138
