20 Preset/caramel style/【3】LUT video cho PR-AE-FCPX/Tone  (1).cube
# Created by Adobe Lightroom plugin Export LUT (1.24.0)
# www.johnrellis.com/lightroom/exportlut.htm
# Preset: 褐色婚礼-素材江湖11
# Color profile: C:\Program Files (x86)\Common Files\Adobe\Color\Profiles\Recommended\VideoHD.icc
LUT_3D_SIZE 5
DOMAIN_MIN 0.000000 0.000000 0.000000
DOMAIN_MAX 0.903226 0.903226 0.903226
0.000000 0.000000 0.000000
0.314672 0.000000 0.025635
0.613611 0.195193 0.043305
0.877165 0.334112 0.183200
1.000000 0.446723 0.305394
0.207675 0.215854 0.182925
0.358953 0.258885 0.158541
0.564752 0.291447 0.145510
0.841611 0.387610 0.220981
1.000000 0.486397 0.332799
0.497658 0.517754 0.465156
0.519799 0.534539 0.462989
0.776242 0.631250 0.487617
0.806668 0.531029 0.342412
0.984375 0.583062 0.394141
0.715846 0.748867 0.700893
0.724178 0.751888 0.703822
0.788724 0.802243 0.714504
0.939635 0.835172 0.739467
0.996246 0.773465 0.635523
0.871519 0.900328 0.868376
0.874510 0.901396 0.869505
0.882933 0.906523 0.866178
0.936370 0.938170 0.874754
1.000000 0.941711 0.887633
0.000000 0.110597 0.209476
0.297978 0.000000 0.235416
0.638788 0.229892 0.244724
0.862516 0.357855 0.293187
1.000000 0.457008 0.360815
0.237888 0.253086 0.246891
0.348150 0.295506 0.275944
0.599786 0.336400 0.278111
0.836423 0.405188 0.307652
1.000000 0.489631 0.376074
0.510246 0.526635 0.487831
0.527337 0.532036 0.491829
0.745785 0.620386 0.514855
0.769100 0.515373 0.359686
0.980407 0.590051 0.430640
0.723354 0.754452 0.712734
0.731655 0.757961 0.716152
0.788266 0.802335 0.728725
0.934661 0.839261 0.756039
0.988891 0.774105 0.645319
0.873777 0.902129 0.872282
0.876402 0.902922 0.873075
0.890623 0.912139 0.877867
0.938445 0.941497 0.884428
1.000000 0.946349 0.897704
0.000000 0.235325 0.478187
0.000000 0.147585 0.502800
0.662531 0.170993 0.550103
0.928557 0.341314 0.508202
1.000000 0.550256 0.563592
0.000000 0.372992 0.499001
0.236698 0.346715 0.520165
0.679530 0.352361 0.561944
0.912535 0.446784 0.522118
1.000000 0.577630 0.571435
0.511620 0.560235 0.553613
0.563958 0.578302 0.572168
0.687465 0.632136 0.607111
0.818570 0.600641 0.547387
0.987945 0.645319 0.579950
0.752987 0.775265 0.755032
0.753445 0.775998 0.752804
0.783474 0.794919 0.765072
0.921233 0.854429 0.806760
0.962402 0.766384 0.662470
0.878538 0.906310 0.883268
0.881712 0.907836 0.884794
0.893828 0.912963 0.889860
0.932647 0.940307 0.898833
0.998962 0.951629 0.913756
0.000000 0.367590 0.717189
0.000000 0.323125 0.730159
0.509697 0.287938 0.768246
0.912444 0.365362 0.790341
1.000000 0.544244 0.737758
0.000000 0.455512 0.720394
0.000000 0.432441 0.731044
0.527520 0.393194 0.766903
0.903166 0.458289 0.784665
1.000000 0.590417 0.741726
0.237308 0.620081 0.720485
0.325444 0.623560 0.723323
0.589929 0.625055 0.759792
0.874083 0.662806 0.776181
1.000000 0.723049 0.769741
0.712154 0.777249 0.773709
0.729397 0.781979 0.778286
0.797147 0.805631 0.803159
0.868467 0.838865 0.824308
0.962921 0.803555 0.769772
0.886320 0.909636 0.899626
0.890471 0.912505 0.902373
0.908293 0.925139 0.914641
0.926818 0.936217 0.922210
0.992828 0.963195 0.942321
0.000000 0.479622 0.891173
0.000000 0.455299 0.894682
0.170291 0.384039 0.910674
0.755886 0.439857 0.928588
1.000000 0.549737 0.932097
0.000000 0.532006 0.884611
0.000000 0.513024 0.888609
0.227451 0.439643 0.905272
0.756069 0.492897 0.923125
1.000000 0.587335 0.927581
0.000000 0.649683 0.875853
0.000000 0.646571 0.877409
0.440497 0.637110 0.890654
0.759335 0.642786 0.913085
1.000000 0.713985 0.923552
0.436439 0.797269 0.881529
0.458778 0.796689 0.881193
0.553704 0.800351 0.885527
0.775753 0.812833 0.912810
0.987304 0.860472 0.934020
0.816403 0.908568 0.908537
0.824247 0.909850 0.909606
0.860258 0.919371 0.918425
0.918029 0.937743 0.936339
0.970550 0.960357 0.955138
