20 Preset/caramel style/【3】LUT video cho PR-AE-FCPX/Tone  (1).cube
# Created by Adobe Lightroom plugin Export LUT (1.24.0)
# www.johnrellis.com/lightroom/exportlut.htm
# Preset: 褐色婚礼-素材江湖11
# Color profile: C:\Program Files (x86)\Common Files\Adobe\Color\Profiles\Recommended\VideoHD.icc
LUT_3D_SIZE 32
DOMAIN_MIN 0.0 0.0 0.0
DOMAIN_MAX 1.0 1.0 1.0
0.000000 0.000000 0.000000
0.000000 0.000000 0.000000
0.000000 0.000000 0.000000
0.000000 0.000000 0.000000
0.115206 0.000000 0.003906
0.186313 0.000000 0.011292
0.254643 0.000000 0.019226
0.314672 0.000000 0.025635
0.366552 0.020356 0.031403
0.413703 0.081392 0.032166
0.457740 0.109895 0.033875
0.499184 0.133669 0.033722
0.538811 0.155001 0.034699
0.576959 0.175540 0.038483
0.613611 0.195193 0.043305
0.649042 0.214328 0.054688
0.685939 0.232486 0.084443
0.722713 0.251011 0.103151
0.767819 0.273625 0.123354
0.808560 0.295415 0.144137
0.844999 0.315465 0.164004
0.877165 0.334112 0.183200
0.905547 0.351263 0.201022
0.931823 0.367742 0.218265
0.956268 0.383429 0.234836
0.979431 0.398993 0.251560
1.000000 0.414588 0.268833
1.000000 0.430396 0.286503
1.000000 0.446723 0.305394
1.000000 0.463935 0.325536
1.000000 0.482094 0.347173
1.000000 0.501335 0.370672
0.000000 0.000000 0.000000
0.000000 0.000000 0.000000
0.000000 0.000000 0.000000
0.000000 0.000000 0.000000
0.116793 0.000000 0.003876
0.185794 0.000000 0.011322
0.252964 0.000000 0.018341
0.310826 0.000000 0.026581
0.362432 0.031250 0.031434
0.409308 0.086183 0.033021
0.452888 0.112581 0.032746
0.494270 0.134707 0.033570
0.533928 0.155550 0.035065
0.572107 0.175570 0.038392
0.608637 0.194827 0.044068
0.644221 0.213993 0.053376
0.681178 0.232120 0.083833
0.718105 0.250156 0.102083
0.762448 0.271977 0.122347
0.802152 0.292882 0.142000
0.837827 0.312505 0.160983
0.869780 0.330663 0.179355
0.897948 0.347509 0.197055
0.924132 0.363622 0.213565
0.948821 0.379309 0.230106
0.972290 0.394507 0.246555
0.995087 0.409979 0.263523
1.000000 0.425910 0.281193
1.000000 0.442298 0.299901
1.000000 0.459541 0.320012
1.000000 0.477760 0.341680
1.000000 0.496986 0.365026
0.000000 0.000000 0.000000
0.000000 0.000000 0.000000
0.000000 0.000000 0.000000
0.000000 0.000000 0.000000
0.126619 0.000000 0.005219
0.192508 0.000000 0.012757
0.251408 0.005707 0.021668
0.306401 0.042023 0.030030
0.357183 0.085725 0.034333
0.403662 0.106477 0.034394
0.447333 0.126253 0.034943
0.488960 0.144594 0.035584
0.528313 0.163485 0.036683
0.566186 0.182162 0.039612
0.602838 0.200198 0.043702
0.639277 0.217899 0.060487
0.676509 0.235325 0.088808
0.713832 0.253025 0.105135
0.757595 0.274266 0.123995
0.796841 0.294347 0.142855
0.832609 0.313481 0.161471
0.864500 0.331365 0.179263
0.892973 0.347784 0.196506
0.919371 0.363561 0.212650
0.944121 0.378851 0.228824
0.967864 0.393835 0.244907
0.990875 0.409339 0.261936
1.000000 0.425116 0.279332
1.000000 0.441382 0.297887
1.000000 0.458595 0.317937
1.000000 0.476570 0.339361
1.000000 0.495674 0.362615
0.001953 0.001953 0.001953
0.002228 0.004120 0.002777
0.007416 0.009033 0.006531
0.051484 0.020783 0.007446
0.135134 0.051545 0.016083
0.190707 0.079500 0.025910
0.247105 0.095644 0.033722
0.300114 0.108461 0.037903
0.350408 0.121462 0.038270
0.396277 0.134554 0.038087
0.439765 0.148867 0.037415
0.480812 0.163516 0.038025
0.520195 0.179232 0.040131
0.557946 0.195163 0.043275
0.594751 0.210788 0.051087
0.632349 0.226719 0.078340
0.669490 0.242710 0.095827
0.707729 0.260136 0.111177
0.749386 0.279362 0.128664
0.787259 0.297642 0.145418
0.822171 0.315404 0.162081
0.854124 0.332433 0.179263
0.883146 0.348516 0.195712
0.910643 0.364080 0.211856
0.936828 0.379461 0.227817
0.961944 0.395056 0.244419
0.986358 0.410773 0.261723
1.000000 0.426886 0.279637
1.000000 0.443244 0.298466
1.000000 0.460395 0.318364
1.000000 0.478096 0.339666
1.000000 0.496590 0.362158
0.084047 0.089357 0.074220
0.085481 0.090059 0.075013
0.090639 0.092103 0.076326
0.102235 0.099397 0.073976
0.146059 0.104463 0.053590
0.194888 0.120058 0.053346
0.238712 0.132540 0.049714
0.289677 0.142336 0.048463
0.338445 0.152407 0.047120
0.383948 0.162905 0.046174
0.427008 0.173495 0.044800
0.467964 0.185458 0.044099
0.507347 0.198154 0.045502
0.546685 0.211368 0.057282
0.585595 0.225162 0.079622
0.623651 0.239811 0.094545
0.661494 0.254551 0.107515
0.701778 0.271489 0.121736
0.742458 0.289220 0.136934
0.779995 0.306249 0.152377
0.814939 0.322911 0.168154
0.846952 0.338903 0.183658
0.876402 0.354284 0.199130
0.904692 0.369329 0.214817
0.931609 0.384527 0.230625
0.957427 0.399817 0.247013
0.982422 0.415076 0.263981
1.000000 0.430823 0.281529
1.000000 0.446937 0.300114
1.000000 0.463569 0.319646
1.000000 0.480873 0.340337
1.000000 0.498909 0.362554
0.120485 0.126528 0.108217
0.121340 0.126711 0.108186
0.125460 0.128328 0.109133
0.134432 0.134340 0.107820
0.164065 0.148287 0.098238
0.213657 0.150698 0.088533
0.261265 0.163333 0.082307
0.294743 0.172061 0.071168
0.326879 0.180301 0.062135
0.371893 0.189914 0.058656
0.415015 0.199222 0.060700
0.457191 0.209384 0.067811
0.498451 0.220310 0.081453
0.538384 0.232090 0.091829
0.577600 0.244572 0.101320
0.616388 0.257420 0.111452
0.654658 0.271275 0.122744
0.696834 0.287816 0.136355
0.737148 0.303990 0.149386
0.774807 0.319829 0.163302
0.809903 0.335393 0.177676
0.842344 0.350500 0.192172
0.910674 0.388769 0.230655
0.937499 0.403174 0.246250
0.962707 0.417304 0.261906
0.986450 0.431403 0.278080
1.000000 0.445655 0.294804
1.000000 0.460182 0.311833
1.000000 0.475227 0.330083
1.000000 0.490913 0.349432
1.000000 0.507134 0.369635
1.000000 0.524071 0.391028
0.165133 0.172763 0.145266
0.166049 0.173159 0.145174
0.169802 0.174258 0.146212
0.177462 0.180026 0.145205
0.197726 0.193118 0.139071
0.241611 0.209445 0.126955
0.294133 0.208469 0.119783
0.339757 0.217472 0.114260
0.365057 0.221286 0.107546
0.386542 0.224521 0.102388
0.415930 0.230289 0.101106
0.458412 0.240055 0.106172
0.499580 0.249943 0.111330
0.539452 0.260472 0.118166
0.578576 0.271336 0.125795
0.616754 0.282872 0.134401
0.660090 0.297795 0.145663
0.703090 0.313512 0.157595
0.744137 0.328985 0.170016
0.783108 0.344549 0.183505
0.820371 0.360235 0.198001
0.855619 0.375830 0.213199
0.888853 0.391608 0.229618
0.920043 0.407202 0.245975
0.948943 0.422339 0.262699
0.975036 0.436896 0.279301
0.999145 0.450813 0.295567
1.000000 0.464973 0.312474
1.000000 0.479438 0.330297
1.000000 0.494331 0.348852
1.000000 0.510002 0.368627
1.000000 0.526390 0.389624
0.207675 0.215854 0.182925
0.208713 0.216098 0.183322
0.211276 0.216922 0.183749
0.217594 0.219760 0.184512
0.230198 0.231022 0.179904
0.259159 0.246067 0.173068
0.305730 0.260838 0.162600
0.358953 0.258885 0.158541
0.400305 0.264805 0.153262
0.420600 0.264836 0.144656
0.437934 0.265019 0.138247
0.451759 0.264775 0.131807
0.486336 0.272007 0.133883
0.525689 0.281498 0.139467
0.564752 0.291447 0.145510
0.606500 0.304082 0.153964
0.648157 0.317357 0.163119
0.689509 0.330755 0.172976
0.729732 0.344579 0.183169
0.768612 0.358709 0.194888
0.805936 0.372961 0.207279
0.841611 0.387610 0.220981
0.875578 0.402289 0.235904
0.907622 0.416968 0.251377
0.937438 0.431464 0.267247
0.964599 0.445319 0.283177
0.989593 0.458869 0.299168
1.000000 0.472358 0.315373
1.000000 0.486397 0.332799
1.000000 0.500816 0.351080
1.000000 0.515984 0.370611
1.000000 0.531914 0.391363
0.251255 0.259037 0.222446
0.252110 0.259251 0.222629
0.254215 0.259861 0.223087
0.259129 0.261387 0.224277
0.267643 0.269810 0.221988
0.286748 0.282902 0.217441
0.320439 0.298253 0.210483
0.366217 0.310216 0.202518
0.419867 0.309026 0.200565
0.458808 0.312779 0.195010
0.475624 0.310185 0.184787
0.489448 0.307347 0.175631
0.499886 0.304021 0.167086
0.512902 0.302495 0.160616
0.554925 0.314183 0.167269
0.595575 0.325658 0.174014
0.635889 0.337224 0.181125
0.676051 0.349279 0.189151
0.716213 0.361944 0.197848
0.755184 0.375067 0.207614
0.792844 0.388373 0.218875
0.828824 0.402014 0.231235
0.863340 0.415778 0.244846
0.896208 0.429633 0.259342
0.926726 0.443397 0.274235
0.954803 0.456580 0.289372
0.980743 0.469490 0.304845
1.000000 0.482551 0.320928
1.000000 0.496040 0.337774
1.000000 0.509911 0.355779
1.000000 0.524590 0.375006
1.000000 0.539971 0.395422
0.293675 0.301122 0.261845
0.294255 0.301061 0.261845
0.295933 0.301396 0.262211
0.299718 0.302525 0.263188
0.305669 0.307713 0.262638
0.318151 0.318669 0.259251
0.341680 0.332403 0.254734
0.379248 0.348516 0.248753
0.422736 0.357671 0.243015
0.477363 0.358068 0.243381
0.514427 0.360235 0.237095
0.528069 0.354925 0.224063
0.541344 0.351141 0.214328
0.551141 0.346746 0.204440
0.558282 0.341405 0.194186
0.581506 0.344488 0.192355
0.621576 0.355657 0.198459
0.662043 0.367590 0.205447
0.702846 0.380011 0.213107
0.742275 0.392584 0.221805
0.780026 0.404974 0.231449
0.815640 0.417243 0.242252
0.849668 0.429603 0.254002
0.882017 0.442023 0.266575
0.912688 0.454322 0.280034
0.941222 0.466682 0.293980
0.968231 0.479072 0.309026
0.993744 0.491737 0.324559
1.000000 0.505028 0.341436
1.000000 0.518853 0.359594
1.000000 0.533471 0.378943
1.000000 0.548852 0.399786
0.332067 0.339574 0.298283
0.332525 0.339727 0.298314
0.334020 0.340215 0.298772
0.337255 0.341283 0.299626
0.342077 0.343938 0.300359
0.351324 0.353979 0.298680
0.368566 0.366705 0.295903
0.396368 0.381781 0.292241
0.437263 0.399115 0.287327
0.480018 0.406836 0.284184
0.539269 0.411109 0.288334
0.577173 0.414099 0.283238
0.589075 0.406806 0.268437
0.597436 0.398871 0.255009
0.603388 0.390631 0.241703
0.607477 0.382544 0.228885
0.610040 0.374517 0.216281
0.646204 0.383886 0.220340
0.686641 0.396033 0.226871
0.726711 0.408392 0.234684
0.764858 0.420417 0.243290
0.801114 0.432166 0.253117
0.835874 0.444190 0.263859
0.869291 0.456214 0.275822
0.900847 0.468177 0.288609
0.930480 0.480171 0.302312
0.958434 0.492256 0.316808
0.984955 0.504540 0.332158
1.000000 0.517479 0.348638
1.000000 0.530938 0.366552
1.000000 0.545220 0.386114
1.000000 0.560266 0.406806
0.370977 0.379828 0.336034
0.371130 0.379858 0.336034
0.372351 0.380285 0.336278
0.375036 0.381262 0.337133
0.379339 0.382757 0.338415
0.386572 0.390784 0.337865
0.400519 0.403479 0.337102
0.422889 0.419043 0.336004
0.456062 0.436957 0.334295
0.501762 0.457069 0.331548
0.544640 0.463661 0.331029
0.604730 0.468879 0.336614
0.675929 0.499092 0.354498
0.683253 0.486366 0.334112
0.686671 0.473152 0.315831
0.688228 0.459907 0.297612
0.688228 0.447120 0.280064
0.688167 0.435401 0.263462
0.699031 0.430976 0.254002
0.739254 0.443244 0.261418
0.777432 0.454994 0.270359
0.813504 0.466407 0.279973
0.847776 0.477394 0.290562
0.880217 0.488502 0.302251
0.910796 0.499428 0.314641
0.939391 0.510246 0.327733
0.966033 0.520867 0.341344
0.990997 0.531762 0.355596
1.000000 0.543175 0.371435
1.000000 0.555261 0.388495
1.000000 0.568200 0.406897
1.000000 0.582208 0.426947
0.422797 0.435248 0.387884
0.423072 0.435218 0.387884
0.423865 0.435340 0.387976
0.426032 0.435859 0.388373
0.429328 0.436896 0.389075
0.435004 0.441871 0.389410
0.445441 0.453223 0.388739
0.462928 0.467292 0.388190
0.489357 0.484321 0.387640
0.527153 0.504356 0.386816
0.577966 0.527337 0.386114
0.623102 0.534417 0.389502
0.686885 0.542687 0.399603
0.721309 0.541253 0.393072
0.728573 0.528344 0.372381
0.731228 0.513848 0.351995
0.731685 0.499153 0.332036
0.730922 0.484840 0.312566
0.730190 0.471992 0.294652
0.729763 0.460639 0.277928
0.754452 0.464637 0.277562
0.791714 0.476356 0.286595
0.827329 0.487831 0.296788
0.861357 0.499184 0.307958
0.893523 0.510369 0.320195
0.923613 0.521416 0.332982
0.952056 0.532403 0.346960
0.978668 0.543603 0.361517
1.000000 0.555169 0.377447
1.000000 0.567498 0.394965
1.000000 0.580468 0.413672
1.000000 0.594415 0.434150
0.461616 0.477668 0.427527
0.461555 0.477455 0.427344
0.462104 0.477302 0.427161
0.463416 0.477089 0.426917
0.465705 0.477424 0.427039
0.469520 0.478614 0.427405
0.477455 0.488380 0.426673
0.490669 0.500908 0.425910
0.511498 0.516350 0.425757
0.541619 0.534874 0.425727
0.583124 0.556664 0.426215
0.632593 0.577539 0.427375
0.676020 0.582757 0.432227
0.734920 0.589014 0.443732
0.765682 0.584802 0.436133
0.770565 0.569421 0.412360
0.771572 0.552728 0.388983
0.771176 0.536797 0.367285
0.770352 0.521813 0.346563
0.769345 0.507866 0.327062
0.769039 0.495796 0.309178
0.771328 0.486458 0.293980
0.808438 0.498817 0.304021
0.844083 0.510796 0.314946
0.877745 0.522515 0.327062
0.909453 0.534051 0.340185
0.939208 0.545373 0.354009
0.967285 0.556756 0.368963
0.993652 0.568505 0.385016
1.000000 0.580926 0.402747
1.000000 0.594018 0.422095
1.000000 0.608087 0.443030
0.497658 0.517754 0.465156
0.497749 0.517632 0.464942
0.497963 0.517235 0.464607
0.498756 0.516808 0.464088
0.500450 0.516472 0.463691
0.503258 0.516655 0.463600
0.509117 0.523186 0.463355
0.519799 0.534539 0.462989
0.536309 0.548699 0.463111
0.560937 0.566064 0.463844
0.594079 0.585565 0.465217
0.636957 0.606989 0.466987
0.682429 0.623804 0.469978
0.722621 0.626795 0.475502
0.776242 0.631250 0.487617
0.803403 0.624750 0.478920
0.807095 0.607691 0.452430
0.807797 0.589960 0.426917
0.807156 0.573053 0.403479
0.806271 0.557183 0.381262
0.805844 0.542992 0.360784
0.806668 0.531029 0.342412
0.809140 0.521172 0.325902
0.826780 0.521874 0.321904
0.861875 0.534386 0.334081
0.895171 0.546471 0.347326
0.926543 0.558434 0.361456
0.956237 0.570611 0.377081
0.984375 0.583062 0.394141
1.000000 0.596216 0.412909
1.000000 0.610224 0.433692
1.000000 0.625055 0.456153
0.530663 0.555047 0.500023
0.530999 0.555200 0.500145
0.531579 0.555138 0.500053
0.532586 0.555261 0.500084
0.534630 0.555535 0.500206
0.537774 0.556298 0.500816
0.542962 0.560357 0.501762
0.552361 0.571527 0.502556
0.566369 0.584863 0.503685
0.586114 0.600183 0.505241
0.612360 0.617029 0.506920
0.645838 0.635065 0.508782
0.686549 0.653742 0.510185
0.725704 0.664912 0.512810
0.760952 0.664759 0.517052
0.808438 0.667201 0.528557
0.833463 0.659419 0.518822
0.836973 0.641749 0.491005
0.837888 0.623438 0.463752
0.837766 0.606317 0.439307
0.838102 0.590906 0.416693
0.839353 0.577356 0.396124
0.841855 0.565942 0.377600
0.846128 0.556725 0.360937
0.852354 0.549981 0.346624
0.882231 0.559716 0.355322
0.915251 0.572717 0.370459
0.946471 0.585565 0.386664
0.975677 0.598627 0.404334
1.000000 0.611963 0.423651
1.000000 0.625849 0.444465
1.000000 0.640528 0.467231
0.562554 0.590173 0.534112
0.562829 0.590204 0.534112
0.563256 0.590326 0.534203
0.564416 0.590509 0.534356
0.566339 0.590936 0.534630
0.569268 0.591730 0.535393
0.573480 0.593194 0.536645
0.581170 0.602411 0.537713
0.592432 0.614038 0.539269
0.608118 0.627405 0.541100
0.629023 0.642329 0.543114
0.655787 0.658503 0.545403
0.688502 0.675227 0.547631
0.727108 0.692073 0.549310
0.761318 0.699519 0.552605
0.793454 0.698360 0.556725
0.836820 0.700313 0.567864
0.860044 0.692561 0.559136
0.863523 0.675074 0.531212
0.865049 0.656367 0.502373
0.866300 0.639918 0.477729
0.868009 0.624811 0.454597
0.870726 0.611780 0.433845
0.874876 0.600977 0.415229
0.880705 0.592340 0.398749
0.888609 0.586358 0.384741
0.903746 0.586389 0.378912
0.936461 0.600244 0.396124
0.967071 0.614069 0.414862
0.995544 0.628107 0.435035
1.000000 0.642603 0.457038
1.000000 0.657740 0.480812
0.596033 0.625238 0.570245
0.596368 0.625544 0.570550
0.615167 0.644587 0.590387
0.616175 0.644862 0.590631
0.617792 0.645228 0.590936
0.620111 0.645716 0.591363
0.623346 0.646601 0.592096
0.628717 0.651759 0.593133
0.637598 0.661738 0.594598
0.649958 0.673365 0.596368
0.666285 0.686152 0.598566
0.687068 0.699886 0.600732
0.712337 0.713832 0.602533
0.742580 0.727993 0.603845
0.777493 0.741787 0.604639
0.805325 0.744656 0.607080
0.833188 0.741665 0.609888
0.870542 0.741756 0.618982
0.890532 0.732753 0.609491
0.893187 0.714717 0.581109
0.894926 0.696071 0.552148
0.897154 0.679500 0.526299
0.900175 0.664515 0.502129
0.903990 0.651301 0.480232
0.908904 0.640070 0.460456
0.915465 0.631220 0.443153
0.924102 0.625025 0.428779
0.935088 0.621668 0.417395
0.958892 0.629908 0.425788
0.988128 0.644404 0.446845
1.000000 0.659327 0.469764
1.000000 0.674830 0.494484
0.632288 0.663081 0.609674
0.634028 0.664790 0.611444
0.636194 0.666682 0.613367
0.638605 0.668421 0.615198
0.641138 0.669947 0.616754
0.643641 0.670954 0.617700
0.646632 0.671870 0.618555
0.650477 0.673854 0.619440
0.657557 0.682429 0.620661
0.667323 0.692409 0.622248
0.680446 0.703639 0.624201
0.697139 0.715724 0.626337
0.717647 0.728328 0.628107
0.742245 0.741146 0.629877
0.771084 0.753994 0.631189
0.804044 0.766476 0.632136
0.828214 0.767239 0.635279
0.854063 0.764462 0.638727
0.888609 0.764981 0.648310
0.908019 0.757259 0.640772
0.911192 0.740627 0.614405
0.914305 0.724147 0.588159
0.917723 0.709102 0.564111
0.921782 0.695216 0.541253
0.926909 0.682856 0.519951
0.933257 0.672328 0.500450
0.941283 0.664332 0.483955
0.951293 0.659022 0.470558
0.963745 0.656977 0.461006
0.978882 0.658412 0.455970
1.000000 0.674128 0.480110
1.000000 0.690425 0.506310
0.657679 0.689509 0.637415
0.659358 0.691127 0.639094
0.661494 0.692958 0.641108
0.663722 0.694667 0.642878
0.666194 0.696193 0.644404
0.668513 0.697200 0.645380
0.671015 0.697993 0.646143
0.674189 0.698939 0.647028
0.679500 0.704799 0.648096
0.687434 0.713405 0.649500
0.697871 0.723232 0.651240
0.711421 0.733913 0.653254
0.728054 0.745144 0.655024
0.748257 0.756832 0.656916
0.772030 0.768521 0.658534
0.799374 0.780179 0.660029
0.828550 0.789944 0.661463
0.850828 0.790188 0.664546
0.874693 0.787533 0.668391
0.906126 0.788052 0.677729
0.924376 0.781094 0.671656
0.927886 0.765896 0.647333
0.931792 0.750942 0.623072
0.936187 0.737057 0.600305
0.941131 0.724514 0.579339
0.947234 0.713436 0.559777
0.954742 0.704250 0.542107
0.964080 0.697505 0.527184
0.975402 0.693660 0.515892
0.989075 0.693050 0.508659
1.000000 0.695827 0.506035
1.000000 0.706142 0.518486
0.682979 0.715572 0.665064
0.684535 0.716976 0.666590
0.686305 0.718502 0.668238
0.688228 0.719966 0.669764
0.690333 0.721218 0.671107
0.692378 0.722103 0.671962
0.694575 0.722866 0.672694
0.697292 0.723690 0.673396
0.701228 0.726528 0.674464
0.707668 0.734157 0.675807
0.716304 0.742824 0.677424
0.727260 0.752255 0.679194
0.740810 0.762295 0.681056
0.757290 0.772671 0.682887
0.776974 0.783444 0.684779
0.799832 0.794247 0.686580
0.826047 0.805173 0.688594
0.852140 0.813199 0.691218
0.873259 0.813840 0.695613
0.895628 0.812131 0.700679
0.924468 0.813382 0.710689
0.942077 0.807980 0.706996
0.946136 0.794553 0.685267
0.951110 0.781765 0.664027
0.956725 0.769863 0.643824
0.962982 0.759365 0.625635
0.970489 0.750393 0.608972
0.979553 0.743465 0.594659
0.990356 0.739193 0.583612
1.000000 0.737758 0.576135
1.000000 0.739284 0.572717
1.000000 0.743771 0.573693
0.715846 0.748867 0.700893
0.716487 0.749416 0.701472
0.717220 0.749935 0.702022
0.717983 0.750332 0.702419
0.719051 0.750698 0.702724
0.720272 0.750912 0.702937
0.721920 0.751247 0.703212
0.724178 0.751888 0.703822
0.727047 0.752743 0.704616
0.732296 0.758785 0.705928
0.739345 0.766354 0.707454
0.748318 0.774746 0.709224
0.759335 0.783536 0.710964
0.772763 0.792782 0.712734
0.788724 0.802243 0.714504
0.807401 0.811917 0.716274
0.828794 0.821561 0.718013
0.853025 0.831205 0.719875
0.875395 0.836851 0.722621
0.894377 0.836851 0.726558
0.914275 0.834684 0.730922
0.939635 0.835172 0.739467
0.955810 0.829831 0.735988
0.959594 0.816831 0.714992
0.964721 0.805020 0.695186
0.970916 0.794369 0.676600
0.977905 0.785489 0.660731
0.986267 0.778439 0.646876
0.996246 0.773465 0.635523
1.000000 0.771054 0.627375
1.000000 0.771359 0.623011
1.000000 0.773526 0.621149
0.739010 0.772183 0.726070
0.739437 0.772641 0.726558
0.740078 0.773068 0.727016
0.740902 0.773465 0.727413
0.741848 0.773770 0.727749
0.742947 0.774105 0.728023
0.744472 0.774472 0.728328
0.746395 0.774960 0.728847
0.748989 0.775784 0.729641
0.752834 0.778988 0.730800
0.758633 0.785672 0.732174
0.766079 0.793057 0.733822
0.775143 0.800931 0.735500
0.786252 0.809232 0.737270
0.799466 0.817807 0.739132
0.814969 0.826596 0.741024
0.832914 0.835538 0.743069
0.853239 0.844419 0.745052
0.875914 0.853269 0.747189
0.895354 0.857298 0.750301
0.912688 0.857176 0.754269
0.930694 0.855192 0.758694
0.953368 0.855436 0.766537
0.968444 0.850797 0.764187
0.970611 0.835813 0.740444
0.976043 0.825254 0.722469
0.982818 0.816159 0.706172
0.990478 0.809110 0.692805
0.999634 0.803830 0.681544
1.000000 0.800870 0.673304
1.000000 0.799680 0.667292
1.000000 0.800717 0.664454
0.765774 0.798825 0.755154
0.766537 0.799466 0.755917
0.767086 0.799832 0.756313
0.767453 0.799863 0.756344
0.767758 0.799710 0.756100
0.768246 0.799405 0.755734
0.768826 0.799100 0.755306
0.769894 0.798917 0.755032
0.771420 0.798978 0.755001
0.773587 0.799344 0.755306
0.777646 0.804349 0.755825
0.783291 0.810330 0.756680
0.790341 0.816861 0.757748
0.798978 0.823728 0.758816
0.809415 0.830930 0.759854
0.821775 0.838376 0.761044
0.836393 0.846098 0.762325
0.853269 0.854032 0.764004
0.872496 0.862181 0.766018
0.893919 0.870390 0.768368
0.910918 0.873136 0.771908
0.926848 0.872953 0.775967
0.943236 0.870878 0.780026
0.963500 0.870695 0.786801
0.977539 0.866209 0.784848
0.981353 0.855009 0.766537
0.986877 0.845579 0.750210
0.993988 0.837919 0.735927
1.000000 0.832151 0.724422
1.000000 0.827970 0.714900
1.000000 0.825834 0.708095
1.000000 0.825986 0.704524
0.784695 0.817441 0.775601
0.785336 0.818051 0.776303
0.785946 0.818479 0.776761
0.786404 0.818692 0.777005
0.787015 0.818845 0.777096
0.787778 0.818967 0.777218
0.788846 0.819181 0.777401
0.790249 0.819547 0.777737
0.792142 0.820127 0.778286
0.794461 0.820890 0.779080
0.797757 0.823728 0.779934
0.802579 0.829191 0.780972
0.808499 0.835019 0.782101
0.815640 0.841154 0.783139
0.824125 0.847471 0.784085
0.834226 0.854032 0.785092
0.846128 0.860807 0.786221
0.859983 0.867857 0.787625
0.875914 0.875120 0.789395
0.893828 0.882506 0.791470
0.913573 0.889860 0.793790
0.927947 0.891234 0.797299
0.942168 0.890776 0.801053
0.956786 0.888731 0.804837
0.974640 0.888334 0.810910
0.987640 0.884520 0.809995
0.991791 0.874998 0.794034
0.997559 0.866941 0.779782
1.000000 0.860777 0.767788
1.000000 0.856321 0.758206
1.000000 0.853849 0.751431
1.000000 0.853361 0.747402
0.806485 0.838682 0.799161
0.806851 0.838987 0.799496
0.807187 0.839139 0.799680
0.807523 0.839292 0.799802
0.807950 0.839322 0.799802
0.808560 0.839384 0.799832
0.809384 0.839506 0.799924
0.810544 0.839750 0.800137
0.812100 0.840146 0.800565
0.814084 0.840757 0.801144
0.816373 0.841489 0.801877
0.820340 0.846220 0.802762
0.825223 0.851377 0.803738
0.831052 0.856748 0.804654
0.838041 0.862364 0.805509
0.846311 0.868162 0.806394
0.856107 0.874174 0.807370
0.867613 0.880491 0.808591
0.880827 0.886992 0.810208
0.895811 0.893675 0.812070
0.912474 0.900328 0.814176
0.930175 0.906523 0.816495
0.942504 0.907012 0.819730
0.955261 0.906249 0.823056
0.968109 0.904082 0.826322
0.983612 0.903044 0.831174
0.995483 0.899443 0.830594
0.999695 0.890776 0.815854
1.000000 0.883757 0.803250
1.000000 0.879149 0.793637
1.000000 0.876280 0.786465
1.000000 0.875425 0.782376
0.825956 0.857481 0.820066
0.826230 0.857694 0.820279
0.826566 0.857939 0.820523
0.826963 0.858122 0.820706
0.827634 0.858396 0.821042
0.828550 0.858854 0.821500
0.830076 0.859678 0.822416
0.832029 0.860746 0.823575
0.834440 0.862089 0.825071
0.837186 0.863645 0.826780
0.840360 0.865385 0.828702
0.844205 0.868772 0.830625
0.849058 0.873991 0.832425
0.854429 0.879271 0.834012
0.860563 0.884611 0.835447
0.867399 0.889799 0.836515
0.875303 0.895079 0.837552
0.884581 0.900511 0.838682
0.895232 0.906126 0.840146
0.907317 0.911864 0.841825
0.920653 0.917571 0.843595
0.935088 0.922972 0.845304
0.949462 0.927184 0.847074
0.959808 0.926970 0.849485
0.970306 0.925658 0.851896
0.981018 0.923247 0.854429
0.993866 0.921813 0.858274
1.000000 0.918547 0.858091
1.000000 0.911376 0.845487
1.000000 0.905699 0.834928
1.000000 0.902770 0.828061
1.000000 0.901396 0.823392
0.852537 0.882567 0.848325
0.852567 0.882567 0.848325
0.852659 0.882536 0.848325
0.852842 0.882567 0.848325
0.853147 0.882597 0.848325
0.853666 0.882658 0.848386
0.854459 0.882933 0.848661
0.855528 0.883330 0.849058
0.856962 0.883879 0.849668
0.858701 0.884611 0.850462
0.860777 0.885466 0.851347
0.863127 0.886503 0.852415
0.866575 0.890440 0.853391
0.870634 0.894682 0.854368
