20 Preset/caramel style/【3】LUT video cho PR-AE-FCPX/Tone  (9).cube
# Created by Adobe Lightroom plugin Export LUT (1.24.0)
# www.johnrellis.com/lightroom/exportlut.htm
# Preset: 褐色婚礼-素材江湖08
# Color profile: C:\Program Files (x86)\Common Files\Adobe\Color\Profiles\Recommended\VideoHD.icc
LUT_3D_SIZE 32
DOMAIN_MIN 0.0 0.0 0.0
DOMAIN_MAX 1.0 1.0 1.0
0.088624 0.086030 0.107179
0.089845 0.086519 0.107118
0.093172 0.086549 0.107424
0.101320 0.087617 0.108217
0.113832 0.088472 0.109224
0.130159 0.088960 0.110719
0.148165 0.089815 0.112367
0.167910 0.089937 0.113924
0.189761 0.089387 0.115328
0.213962 0.088075 0.117128
0.240574 0.084565 0.118349
0.270726 0.077455 0.119631
0.304723 0.061616 0.121065
0.343114 0.036530 0.122042
0.386389 0.000000 0.122713
0.433356 0.000000 0.122927
0.483894 0.000000 0.122896
0.537438 0.000000 0.122072
0.593042 0.000000 0.120089
0.649226 0.000000 0.117861
0.711879 0.000000 0.113741
0.769284 0.000000 0.108736
0.819242 0.000000 0.103395
0.864744 0.000000 0.097200
0.906065 0.000000 0.090486
0.943145 0.000000 0.082979
0.976928 0.000000 0.077760
1.000000 0.000000 0.074495
1.000000 0.059937 0.081575
1.000000 0.140108 0.092164
1.000000 0.184176 0.106600
1.000000 0.222263 0.125948
0.088716 0.087404 0.107424
0.089204 0.088014 0.107362
0.093385 0.087953 0.107332
0.101503 0.088594 0.108125
0.114229 0.088838 0.108858
0.130282 0.089784 0.110628
0.148104 0.090272 0.112032
0.167483 0.090455 0.113893
0.188876 0.090059 0.115297
0.212833 0.088930 0.116487
0.239200 0.086305 0.118044
0.268894 0.080018 0.119326
0.302556 0.065187 0.120821
0.340459 0.041657 0.121828
0.383276 0.005951 0.122530
0.430121 0.000000 0.122774
0.480568 0.000000 0.122469
0.533898 0.000000 0.121736
0.589258 0.000000 0.120119
0.645075 0.000000 0.117433
0.706813 0.000000 0.113558
0.763149 0.000000 0.108797
0.812711 0.000000 0.103517
0.857847 0.000000 0.097139
0.899443 0.000000 0.090791
0.937041 0.000000 0.083497
0.971283 0.000000 0.076448
1.000000 0.000000 0.073915
1.000000 0.034699 0.079500
1.000000 0.132815 0.090272
1.000000 0.178805 0.104372
1.000000 0.217502 0.122835
0.088899 0.090913 0.109071
0.089357 0.091279 0.109041
0.092866 0.091768 0.107912
0.102113 0.092287 0.107362
0.115816 0.092378 0.108095
0.131441 0.092958 0.109316
0.148989 0.093446 0.111025
0.167971 0.093721 0.112612
0.189242 0.093324 0.114351
0.212772 0.091920 0.115602
0.238956 0.090059 0.117189
0.268284 0.086244 0.118715
0.301671 0.075715 0.119661
0.339239 0.053071 0.120974
0.381476 0.021332 0.121645
0.428016 0.000000 0.121675
0.478370 0.000000 0.121584
0.531365 0.000000 0.120485
0.586572 0.000000 0.118837
0.642359 0.000000 0.116335
0.704067 0.000000 0.112184
0.759854 0.000000 0.107027
0.809201 0.000000 0.101747
0.854307 0.000000 0.095003
0.895842 0.000000 0.088716
0.933623 0.000000 0.079347
0.968109 0.000000 0.069032
0.999878 0.000000 0.064027
1.000000 0.061128 0.069368
1.000000 0.138186 0.084871
1.000000 0.181582 0.100252
1.000000 0.219425 0.118746
0.089174 0.098299 0.112093
0.089815 0.098207 0.112428
0.092622 0.098329 0.112062
0.100313 0.100160 0.110109
0.115908 0.101167 0.108400
0.133608 0.100679 0.107362
0.151156 0.100313 0.108919
0.169589 0.100252 0.110567
0.190890 0.099855 0.112337
0.213901 0.098665 0.113954
0.239750 0.097047 0.115236
0.268681 0.094331 0.116518
0.301701 0.089662 0.118013
0.338872 0.078462 0.118685
0.380438 0.049683 0.119356
0.426429 0.009522 0.119844
0.475776 0.000000 0.119234
0.528038 0.000000 0.118349
0.582574 0.000000 0.116365
0.638514 0.000000 0.113710
0.698360 0.000000 0.108949
0.753017 0.000000 0.104005
0.802213 0.000000 0.098238
0.847807 0.000000 0.091005
0.890349 0.000000 0.080903
0.929351 0.000000 0.065461
0.965087 0.000000 0.052735
0.997650 0.000000 0.047578
1.000000 0.104005 0.053285
1.000000 0.153384 0.072297
1.000000 0.192142 0.093599
1.000000 0.226902 0.113008
0.089479 0.109194 0.117220
0.089937 0.109468 0.117189
0.093660 0.109163 0.117159
0.098207 0.110353 0.116030
0.110597 0.112642 0.113100
0.130953 0.113924 0.110262
0.150393 0.112856 0.108919
0.171023 0.111177 0.108125
0.191897 0.110262 0.109071
0.214755 0.109255 0.110719
0.240177 0.107637 0.112123
0.268803 0.105715 0.113436
0.301183 0.102846 0.114870
0.338170 0.097292 0.115816
0.379431 0.088380 0.116396
0.424964 0.060731 0.116152
0.474403 0.013947 0.115602
0.526574 0.000000 0.114199
0.580865 0.000000 0.111818
0.638270 0.000000 0.108827
0.696651 0.000000 0.104036
0.750362 0.000000 0.097841
0.799161 0.000000 0.090394
0.844877 0.000000 0.079652
0.887602 0.000000 0.060609
0.926940 0.000000 0.041016
0.962860 0.000000 0.027802
0.995666 0.088197 0.022156
1.000000 0.137728 0.025605
1.000000 0.175448 0.042359
1.000000 0.208194 0.076173
1.000000 0.238956 0.103487
0.089082 0.122164 0.122683
0.089845 0.122103 0.122683
0.092805 0.121889 0.122683
0.098207 0.121736 0.122347
0.106447 0.124117 0.119905
0.123110 0.127352 0.116213
0.147250 0.129427 0.112215
0.169436 0.127932 0.110780
0.192447 0.126070 0.109255
0.216587 0.124147 0.108766
0.241978 0.122744 0.109529
0.270726 0.121370 0.109529
0.303197 0.119112 0.110353
0.339696 0.116274 0.111116
0.381079 0.110872 0.111208
0.426429 0.102663 0.111025
0.475715 0.089479 0.110109
0.527794 0.050385 0.108278
0.581933 0.000000 0.105287
0.640558 0.000000 0.100710
0.698024 0.000000 0.094820
0.751003 0.000000 0.087098
0.834379 0.000000 0.046357
0.878477 0.000000 0.021546
0.918395 0.050538 0.001495
0.954192 0.112154 0.000000
0.986633 0.145357 0.000000
1.000000 0.174166 0.000000
1.000000 0.201541 0.000000
1.000000 0.227176 0.009430
1.000000 0.252384 0.053742
1.000000 0.276799 0.100496
0.088197 0.138430 0.129213
0.088197 0.138430 0.129213
0.091157 0.138247 0.129213
0.096681 0.138125 0.128908
0.104982 0.138460 0.128206
0.117067 0.142153 0.124514
0.138613 0.146334 0.119997
0.168887 0.149844 0.114626
0.193729 0.148287 0.112795
0.220035 0.146334 0.110689
0.248203 0.143648 0.108675
0.278264 0.142336 0.108888
0.311772 0.140749 0.109194
0.349371 0.138766 0.108705
0.391119 0.135897 0.107332
0.436622 0.131197 0.105653
0.485847 0.124819 0.102571
0.537682 0.115877 0.098299
0.594720 0.104829 0.093446
0.655543 0.092012 0.084932
0.714473 0.081453 0.065766
0.769131 0.083894 0.038483
0.819547 0.099001 0.011475
0.866636 0.118776 0.000000
0.909422 0.140902 0.000000
0.946929 0.164034 0.000000
0.980316 0.185916 0.000000
1.000000 0.207523 0.000000
1.000000 0.229129 0.000000
1.000000 0.250340 0.000000
1.000000 0.271458 0.000000
1.000000 0.293248 0.058167
0.083497 0.155276 0.135805
0.084565 0.155245 0.136049
0.089052 0.155062 0.135805
0.095003 0.154757 0.135531
0.102785 0.154513 0.135256
0.113619 0.156191 0.133333
0.129915 0.160769 0.129213
0.154818 0.165927 0.123903
0.189975 0.171817 0.117556
0.217716 0.170291 0.115206
0.247013 0.168521 0.112886
0.278630 0.166476 0.110048
0.312718 0.163821 0.107668
0.350164 0.162966 0.106661
0.391547 0.161349 0.105470
0.436530 0.159060 0.103120
0.485084 0.156222 0.099245
0.538323 0.152285 0.093812
0.595972 0.148959 0.083986
0.653864 0.147066 0.058534
0.710567 0.148959 0.024384
0.763790 0.154360 0.000000
0.813596 0.163424 0.000000
0.860227 0.176425 0.000000
0.902983 0.192355 0.000000
0.940887 0.209018 0.000000
0.974670 0.225834 0.000000
1.000000 0.242771 0.000000
1.000000 0.259983 0.000000
1.000000 0.277958 0.000000
1.000000 0.295689 0.000000
1.000000 0.314366 0.000000
0.077089 0.174319 0.143679
0.077089 0.174319 0.143679
0.082673 0.174197 0.143435
0.090913 0.173922 0.143191
0.100069 0.173465 0.142947
0.111635 0.172824 0.142489
0.124819 0.176761 0.139040
0.145205 0.182254 0.134218
0.173892 0.188540 0.128054
0.213901 0.196262 0.120272
0.246036 0.195926 0.116762
0.279088 0.194766 0.113527
0.314672 0.193057 0.109407
0.352605 0.190890 0.105104
0.393683 0.189151 0.101503
0.438453 0.188540 0.098238
0.488624 0.188083 0.093446
0.542840 0.187869 0.085603
0.598260 0.187747 0.065797
0.654353 0.189151 0.035431
0.709407 0.193118 0.000061
0.761013 0.200565 0.000000
0.809751 0.210208 0.000000
0.855680 0.223758 0.000000
0.898161 0.237644 0.000000
0.936126 0.251316 0.000000
0.970123 0.265141 0.000000
1.000000 0.279240 0.000000
1.000000 0.293584 0.000000
1.000000 0.307988 0.000000
1.000000 0.323552 0.000000
1.000000 0.339117 0.000000
0.058564 0.195865 0.151888
0.060578 0.195834 0.151888
0.069215 0.195590 0.151919
0.083192 0.195193 0.151736
0.095369 0.194949 0.151278
0.107881 0.194247 0.150851
0.121920 0.194522 0.149538
0.138399 0.200076 0.145144
0.162570 0.206516 0.139590
0.195651 0.214023 0.132204
0.240513 0.223545 0.122316
0.278294 0.225132 0.117037
0.315526 0.224643 0.112001
0.355200 0.223697 0.106661
0.397314 0.222354 0.099733
0.443549 0.221195 0.091463
0.493629 0.221988 0.081117
0.546899 0.223575 0.062379
0.601434 0.225772 0.034394
0.656153 0.229465 0.002564
0.709255 0.234867 0.000000
0.758785 0.242008 0.000000
0.805631 0.251133 0.000000
0.850004 0.262425 0.000000
0.891234 0.275517 0.000000
0.928649 0.289097 0.000000
0.962860 0.301701 0.000000
0.994232 0.313603 0.000000
1.000000 0.326055 0.000000
1.000000 0.338720 0.000000
1.000000 0.351690 0.000000
1.000000 0.365332 0.000000
0.032624 0.219425 0.160830
0.034607 0.219394 0.160830
0.042847 0.219303 0.160647
0.061738 0.218936 0.160464
0.085725 0.218601 0.160067
0.101289 0.217990 0.159487
0.117708 0.217166 0.159091
0.133486 0.220188 0.156252
0.154879 0.226810 0.150912
0.183871 0.234806 0.144106
0.222110 0.243473 0.135286
0.271885 0.255283 0.122866
0.318151 0.260166 0.114504
0.360937 0.261204 0.107149
0.405859 0.261570 0.098238
0.452430 0.261540 0.086793
0.500572 0.260960 0.058198
0.549767 0.260136 0.023957
0.602869 0.263737 0.000000
0.656214 0.268223 0.000000
0.707668 0.274571 0.000000
0.756069 0.281834 0.000000
0.802335 0.290959 0.000000
0.845975 0.301671 0.000000
0.887053 0.313298 0.000000
0.924346 0.325689 0.000000
0.958373 0.338201 0.000000
0.989685 0.350317 0.000000
1.000000 0.360845 0.000000
1.000000 0.371588 0.000000
1.000000 0.382635 0.000000
1.000000 0.394141 0.000000
0.000000 0.246769 0.170291
0.000000 0.246769 0.170291
0.000000 0.246555 0.170108
0.020294 0.246250 0.169955
0.050690 0.245945 0.169589
0.089845 0.245243 0.169070
0.109438 0.244511 0.168338
0.129580 0.243381 0.167453
0.148928 0.250034 0.162631
0.175662 0.258457 0.156283
0.210636 0.268803 0.148196
0.255436 0.280156 0.136965
0.328099 0.307774 0.119142
0.387854 0.317784 0.101808
0.437079 0.319432 0.087221
0.487129 0.320348 0.050446
0.537041 0.320684 0.006867
0.587060 0.321019 0.000000
0.635615 0.321355 0.000000
0.684596 0.324254 0.000000
0.733516 0.330938 0.000000
0.779202 0.338445 0.000000
0.822599 0.346685 0.000000
0.863584 0.356298 0.000000
0.901488 0.366125 0.000000
0.936065 0.376074 0.000000
0.967712 0.385687 0.000000
0.996582 0.395422 0.000000
1.000000 0.405158 0.000000
1.000000 0.413092 0.000000
1.000000 0.421118 0.000000
1.000000 0.429847 0.000000
0.000000 0.282170 0.181399
0.000000 0.282261 0.181552
0.000000 0.281712 0.181155
0.000000 0.281254 0.180911
0.000000 0.280858 0.180575
0.035950 0.280156 0.179965
0.093294 0.279637 0.179232
0.120729 0.278813 0.178683
0.144442 0.280858 0.176364
0.171084 0.290684 0.170321
0.205905 0.302525 0.162081
0.250004 0.316106 0.151125
0.304417 0.331243 0.136019
0.371618 0.349035 0.112032
0.441169 0.364446 0.079042
0.492470 0.366583 0.026246
0.542657 0.367529 0.000000
0.591699 0.367926 0.000000
0.639368 0.368566 0.000000
0.684565 0.369329 0.000000
0.726986 0.369940 0.000000
0.770840 0.375097 0.000000
0.813993 0.382818 0.000000
0.855039 0.391821 0.000000
0.893248 0.400702 0.000000
0.928191 0.409796 0.000000
0.960418 0.418647 0.000000
0.990021 0.427436 0.000000
1.000000 0.436133 0.000000
1.000000 0.444953 0.000000
1.000000 0.452186 0.000000
1.000000 0.459419 0.000000
0.000000 0.320623 0.192569
0.000000 0.320592 0.192569
0.000000 0.320134 0.192386
0.000000 0.319371 0.191928
0.000000 0.318395 0.191348
0.000000 0.317144 0.190616
0.025269 0.315892 0.189853
0.100801 0.314641 0.188724
0.134768 0.313298 0.187686
0.162875 0.319554 0.183139
0.196048 0.331426 0.175357
0.238285 0.345129 0.165133
0.289647 0.360571 0.151186
0.350042 0.377050 0.131655
0.419043 0.393957 0.100465
0.497414 0.414862 0.001007
0.548058 0.416114 0.000000
0.596643 0.416876 0.000000
0.643549 0.417578 0.000000
0.687434 0.417853 0.000000
0.728878 0.417853 0.000000
0.768643 0.418708 0.000000
0.807034 0.420356 0.000000
0.848264 0.428443 0.000000
0.886534 0.436835 0.000000
0.921813 0.444984 0.000000
0.954223 0.452949 0.000000
0.984161 0.460517 0.000000
1.000000 0.468086 0.000000
1.000000 0.475807 0.000000
1.000000 0.483436 0.000000
1.000000 0.489784 0.000000
0.000000 0.361578 0.203342
0.000000 0.361425 0.203372
0.000000 0.360754 0.203250
0.000000 0.359838 0.202762
0.000000 0.358404 0.201968
0.000000 0.356725 0.201205
0.000000 0.355077 0.200198
0.028473 0.353338 0.199039
0.114504 0.351751 0.197757
0.153536 0.350347 0.196597
0.186557 0.362158 0.188846
0.227817 0.376013 0.179324
0.276890 0.391455 0.166476
0.334295 0.408179 0.148440
0.399329 0.425360 0.122377
0.470802 0.442573 0.065797
0.553918 0.466926 0.000000
0.602197 0.467872 0.000000
0.648096 0.468177 0.000000
0.691005 0.467659 0.000000
0.731624 0.467079 0.000000
0.770779 0.467292 0.000000
0.808316 0.468025 0.000000
0.844572 0.469581 0.000000
0.879942 0.472999 0.000000
0.915496 0.480079 0.000000
0.948241 0.487282 0.000000
0.978698 0.494179 0.000000
1.000000 0.501061 0.000000
1.000000 0.507988 0.000000
1.000000 0.514885 0.000000
1.000000 0.521904 0.000000
0.000000 0.403326 0.214481
0.000000 0.403326 0.214481
0.000000 0.403021 0.214298
0.000000 0.402136 0.213718
0.000000 0.401099 0.213169
0.000000 0.399634 0.212314
0.000000 0.398383 0.211307
0.000000 0.396979 0.210422
0.059297 0.395422 0.209232
0.136385 0.393774 0.207858
0.177707 0.396857 0.203830
0.218784 0.409949 0.194308
0.266392 0.424506 0.182101
0.320867 0.440009 0.165713
0.381689 0.456153 0.143618
0.448737 0.473091 0.109255
0.520928 0.490425 0.000000
0.604852 0.517266 0.000000
0.651240 0.517845 0.000000
0.693477 0.516838 0.000000
0.733883 0.515984 0.000000
0.772763 0.515679 0.000000
0.810086 0.516045 0.000000
0.845792 0.516716 0.000000
0.879454 0.517418 0.000000
0.911376 0.518303 0.000000
0.943236 0.522637 0.000000
0.973907 0.528710 0.000000
1.000000 0.534630 0.000000
1.000000 0.540368 0.000000
1.000000 0.546075 0.000000
1.000000 0.551751 0.000000
0.000000 0.446571 0.226230
0.000000 0.446418 0.226169
0.000000 0.446204 0.225986
0.000000 0.445502 0.225650
0.000000 0.444373 0.225071
0.000000 0.443275 0.224216
0.000000 0.441779 0.223270
0.000000 0.440192 0.222049
0.000000 0.438300 0.220615
0.106294 0.436500 0.219150
0.164797 0.434333 0.217227
0.208621 0.442969 0.210117
0.255741 0.457069 0.198489
0.308354 0.472175 0.184115
0.367346 0.488167 0.164065
0.431312 0.504662 0.136355
0.499550 0.521660 0.088746
0.570947 0.539269 0.000000
0.650172 0.564660 0.000000
0.696986 0.566674 0.000000
0.736873 0.565240 0.000000
0.775204 0.564141 0.000000
0.812039 0.563653 0.000000
0.846983 0.563256 0.000000
0.879973 0.563104 0.000000
0.911254 0.562921 0.000000
0.940917 0.563012 0.000000
0.969055 0.563378 0.000000
0.997498 0.568170 0.000000
1.000000 0.572992 0.000000
1.000000 0.577722 0.000000
1.000000 0.582483 0.000000
0.000000 0.492988 0.240299
0.000000 0.493141 0.240330
0.000000 0.508659 0.245792
0.000000 0.508019 0.245212
0.000000 0.506950 0.244511
0.000000 0.505272 0.243534
0.000000 0.503563 0.242100
0.000000 0.501457 0.240482
0.000000 0.499275 0.238895
0.009888 0.497078 0.237125
0.152010 0.494301 0.234867
0.207370 0.492256 0.231998
0.256229 0.505669 0.220645
0.309636 0.519951 0.206241
0.367285 0.534752 0.188022
0.429206 0.549981 0.163638
0.494392 0.565179 0.128176
0.560967 0.580499 0.030304
0.627924 0.595972 0.000000
0.700771 0.618280 0.000000
0.747555 0.621180 0.000000
0.784482 0.618616 0.000000
0.819516 0.616236 0.000000
0.852628 0.613825 0.000000
0.883879 0.611383 0.000000
0.913451 0.609277 0.000000
0.941558 0.607416 0.000000
0.968475 0.605890 0.000000
0.994263 0.604913 0.000000
1.000000 0.605524 0.000000
1.000000 0.609186 0.000000
1.000000 0.612970 0.000000
0.000000 0.544884 0.258518
0.000000 0.546166 0.259007
0.000000 0.547662 0.259648
0.000000 0.548333 0.259709
0.000000 0.548455 0.259403
0.000000 0.547448 0.258396
0.000000 0.545892 0.257359
0.000000 0.543664 0.255467
0.000000 0.541405 0.253819
0.000000 0.538781 0.251560
0.128298 0.535973 0.248966
0.196628 0.532952 0.246525
0.247623 0.536522 0.239933
0.299260 0.550103 0.227512
0.355077 0.564263 0.211765
0.414435 0.578698 0.191348
0.476722 0.593256 0.164248
0.540246 0.607965 0.124483
0.604547 0.623072 0.000000
0.668757 0.638300 0.000000
0.737453 0.658991 0.000000
0.785519 0.664546 0.000000
0.819913 0.661219 0.000000
0.852323 0.657832 0.000000
0.882902 0.654383 0.000000
0.911864 0.651209 0.000000
0.939452 0.648127 0.000000
0.965789 0.645563 0.000000
0.991150 0.643519 0.000000
1.000000 0.641993 0.000000
1.000000 0.641169 0.000000
1.000000 0.642451 0.000000
0.000000 0.589105 0.276951
0.000000 0.590448 0.277409
0.000000 0.591943 0.278111
0.000000 0.592706 0.278141
0.000000 0.593011 0.278264
0.000000 0.592279 0.277348
0.000000 0.590723 0.275822
0.000000 0.588739 0.274449
0.000000 0.586481 0.272160
0.000000 0.583917 0.269749
0.100343 0.581109 0.267185
0.188327 0.578058 0.264378
0.244511 0.574304 0.260960
0.295140 0.583490 0.251255
0.349279 0.596582 0.237461
0.405585 0.610010 0.220401
0.464759 0.623713 0.198825
0.524712 0.637446 0.169924
0.585992 0.651514 0.128725
0.647425 0.665736 0.000000
0.708553 0.680049 0.000000
0.772915 0.698695 0.000000
0.820188 0.704799 0.000000
0.852049 0.700557 0.000000
0.881926 0.696254 0.000000
0.910307 0.692012 0.000000
0.937224 0.688014 0.000000
0.963073 0.684291 0.000000
0.987976 0.681239 0.000000
1.000000 0.678828 0.000000
1.000000 0.676936 0.000000
1.000000 0.675502 0.000000
0.000000 0.633234 0.299596
0.000000 0.634546 0.300359
0.000000 0.635706 0.301122
0.000000 0.636408 0.301305
0.000000 0.636652 0.301244
0.000000 0.635828 0.300237
0.000000 0.634607 0.298863
0.000000 0.632715 0.297093
0.000000 0.630671 0.294957
0.000000 0.628260 0.292271
0.086976 0.625605 0.289586
0.187564 0.622583 0.286412
0.247074 0.619257 0.282933
0.296300 0.617639 0.278172
0.348241 0.629816 0.266056
0.401801 0.642329 0.251987
0.457801 0.655390 0.234257
0.515343 0.668849 0.212589
0.573632 0.682643 0.184848
0.632990 0.696681 0.146029
0.692164 0.710597 0.058991
0.750790 0.724208 0.000000
0.810239 0.740230 0.000000
0.856413 0.746304 0.000000
0.885893 0.741451 0.000000
0.913634 0.736538 0.000000
0.939910 0.731594 0.000000
0.965148 0.727016 0.000000
0.989471 0.722927 0.000000
1.000000 0.719509 0.000000
1.000000 0.716487 0.000000
1.000000 0.714015 0.000000
0.000000 0.684535 0.334020
0.000000 0.684932 0.334203
0.000000 0.685206 0.334356
0.000000 0.684901 0.334112
0.000000 0.684291 0.333227
0.000000 0.683101 0.331914
0.000000 0.681544 0.330297
0.000000 0.679805 0.328252
0.000000 0.677790 0.325811
0.000000 0.675685 0.323369
0.119142 0.673335 0.320317
0.205081 0.670619 0.317296
0.262608 0.667475 0.313268
0.310277 0.663874 0.309117
0.356268 0.667445 0.301549
0.406592 0.678859 0.289250
0.458381 0.690517 0.274754
0.511711 0.702419 0.257572
0.566033 0.714534 0.236851
0.621363 0.726558 0.210605
0.676814 0.738430 0.176638
0.731716 0.749966 0.125063
0.785702 0.761044 0.000000
0.840177 0.773770 0.000000
0.884184 0.778775 0.000000
0.911223 0.773220 0.000000
0.937102 0.767758 0.000000
0.961944 0.762600 0.000000
0.985962 0.757839 0.000000
1.000000 0.753597 0.000000
1.000000 0.749905 0.000000
1.000000 0.746639 0.000000
0.000000 0.725154 0.367407
0.000000 0.725582 0.367895
0.000000 0.725734 0.368109
0.000000 0.725521 0.367559
0.000000 0.724971 0.366735
0.000000 0.724056 0.365759
0.000000 0.722683 0.363958
0.000000 0.721096 0.361669
0.000000 0.719417 0.359472
0.000000 0.717464 0.356817
0.163546 0.715358 0.353643
0.230838 0.712947 0.350469
0.282536 0.710262 0.346685
0.327581 0.707088 0.342168
0.368383 0.703700 0.337774
0.413245 0.712093 0.328252
0.461372 0.722896 0.316655
0.510552 0.733608 0.303166
0.561273 0.744381 0.286625
0.612757 0.755062 0.268132
0.664820 0.765591 0.244999
0.716609 0.775723 0.216007
0.767849 0.785489 0.178103
0.818112 0.794705 0.117006
0.866026 0.802365 0.000000
0.907897 0.806455 0.000000
0.933288 0.800656 0.000000
0.957733 0.795102 0.000000
0.981415 0.789944 0.000000
1.000000 0.785183 0.000000
1.000000 0.781064 0.000000
1.000000 0.777371 0.000000
0.000000 0.767086 0.411444
0.000000 0.767605 0.411933
0.000000 0.767727 0.412146
0.000000 0.767269 0.411536
0.000000 0.766415 0.410224
0.000000 0.765042 0.408331
0.000000 0.763333 0.405676
0.000000 0.761410 0.402930
0.000000 0.759274 0.399817
0.156649 0.757046 0.396185
0.217624 0.754513 0.392401
0.266636 0.752010 0.388495
0.309361 0.749233 0.384466
0.348791 0.746090 0.379370
0.385718 0.742519 0.373907
0.422095 0.741512 0.367559
0.464973 0.750454 0.357336
0.509819 0.759670 0.346227
0.556207 0.769162 0.333043
0.604028 0.778714 0.318547
0.652674 0.788174 0.301762
0.701350 0.797208 0.281315
0.749691 0.805692 0.256321
0.797238 0.813565 0.224521
0.843626 0.820829 0.182345
0.890898 0.829282 0.113497
0.928618 0.831174 0.000000
0.953948 0.826047 0.000000
0.977081 0.820310 0.000000
0.999664 0.815152 0.000000
1.000000 0.810544 0.000000
1.000000 0.806302 0.000000
0.000000 0.798734 0.451911
0.000000 0.799191 0.452613
0.000000 0.799374 0.452979
0.000000 0.799191 0.452522
0.000000 0.798672 0.451606
0.000000 0.797818 0.450172
0.094087 0.796902 0.448554
0.155459 0.795743 0.446387
0.201816 0.794400 0.443793
0.242741 0.792996 0.441260
0.280339 0.791257 0.438178
0.315831 0.789364 0.434638
0.349737 0.787167 0.430701
0.382849 0.784604 0.426123
0.414435 0.781643 0.420539
0.445686 0.778531 0.415106
0.480507 0.781369 0.407324
0.520012 0.789181 0.397925
0.561517 0.797238 0.387640
0.604761 0.805356 0.376196
0.649042 0.813413 0.363378
0.693874 0.821164 0.347845
0.738643 0.828519 0.330205
0.783230 0.835416 0.308598
0.827024 0.841764 0.282994
0.870207 0.847623 0.250156
0.913878 0.854124 0.207523
0.949157 0.855161 0.182773
0.974609 0.850858 0.146609
0.996735 0.845457 0.093416
1.000000 0.840269 0.000000
1.000000 0.835508 0.000000
0.196078 0.829831 0.500633
0.198367 0.830014 0.501122
0.202884 0.830045 0.501061
0.210361 0.829831 0.500633
0.221134 0.829343 0.499550
0.235386 0.828672 0.498268
0.252903 0.827848 0.496590
0.272465 0.826810 0.494423
0.294987 0.825650 0.492164
0.318547 0.824399 0.489509
0.343572 0.822965 0.486458
0.369238 0.821408 0.483314
0.395575 0.819638 0.479622
0.422095 0.817594 0.475257
0.448554 0.815213 0.470314
0.475074 0.812619 0.464820
0.501640 0.809873 0.458900
0.535454 0.815793 0.451392
0.571862 0.822599 0.443091
0.610071 0.829465 0.433936
0.649561 0.836332 0.423713
0.689937 0.842924 0.412146
0.730648 0.849210 0.398383
0.771603 0.855100 0.381903
0.812284 0.860533 0.362371
0.852720 0.865599 0.339086
0.892851 0.870298 0.310887
0.932738 0.874846 0.276127
0.966308 0.875669 0.258366
0.991608 0.871885 0.235508
1.000000 0.866575 0.207675
1.000000 0.861692 0.177981
0.316136 0.856229 0.548852
0.317174 0.856321 0.549065
0.319738 0.856382 0.549035
0.324193 0.856291 0.549004
0.330205 0.856077 0.548425
0.338750 0.855802 0.547906
0.350835 0.855680 0.547601
0.365057 0.855467 0.547295
0.381353 0.855375 0.546838
0.399756 0.855161 0.546410
0.419532 0.854826 0.545708
0.439734 0.854398 0.544579
0.461067 0.853696 0.543053
0.482429 0.852689 0.540612
0.504021 0.851347 0.537407
0.525566 0.849607 0.533257
0.547387 0.847654 0.528344
0.571527 0.847776 0.523186
0.601526 0.853269 0.517113
0.633448 0.858824 0.510460
0.666651 0.864378 0.503105
0.701198 0.869780 0.494514
0.736355 0.874846 0.484047
0.772213 0.879667 0.471931
0.808377 0.884184 0.457282
0.844694 0.888304 0.439643
0.881163 0.892027 0.418524
0.917693 0.895476 0.393469
0.954345 0.898650 0.363622
0.985321 0.898466 0.347509
1.000000 0.894957 0.332006
1.000000 0.889921 0.312749
0.428717 0.884184 0.610498
0.428840 0.884184 0.610376
0.429786 0.884062 0.610224
0.431617 0.883879 0.609644
0.434852 0.883604 0.608972
0.439277 0.883207 0.607904
0.445686 0.882780 0.606989
0.453346 0.882322 0.605707
0.462989 0.881773 0.604395
0.474006 0.881224 0.602869
0.486854 0.880583 0.601312
0.500786 0.879850 0.599420
0.515801 0.879026 0.597162
0.531701 0.878019 0.594720
