20 Preset/caramel style/【3】LUT video cho PR-AE-FCPX/Tone  (5).cube
# Created by Adobe Lightroom plugin Export LUT (1.24.0)
# www.johnrellis.com/lightroom/exportlut.htm
# Preset: 褐色婚礼-素材江湖04
# Color profile: C:\Program Files (x86)\Common Files\Adobe\Color\Profiles\Recommended\VideoHD.icc
LUT_3D_SIZE 32
DOMAIN_MIN 0.0 0.0 0.0
DOMAIN_MAX 1.0 1.0 1.0
0.000000 0.000000 0.000000
0.002960 0.000763 0.000977
0.010193 0.001068 0.000793
0.025238 0.003876 0.000122
0.052155 0.007507 0.001343
0.084932 0.013397 0.002075
0.105348 0.018280 0.003723
0.125734 0.023102 0.003845
0.151095 0.024933 0.004578
0.181613 0.021393 0.004761
0.217350 0.010254 0.004028
0.256931 0.000000 0.003357
0.299870 0.000000 0.000855
0.345830 0.000000 0.000000
0.393652 0.000000 0.000000
0.442267 0.000000 0.000000
0.490547 0.000000 0.000000
0.537438 0.000000 0.000000
0.582147 0.000000 0.000000
0.623987 0.000000 0.000000
0.663416 0.000000 0.000000
0.704433 0.000000 0.000000
0.738338 0.000000 0.000000
0.767941 0.000000 0.000000
0.793790 0.024659 0.000000
0.816220 0.127260 0.000000
0.835904 0.172488 0.026734
0.853452 0.210208 0.080659
0.869169 0.245029 0.108827
0.883482 0.278111 0.134646
0.896727 0.310704 0.161624
0.908751 0.343359 0.191104
0.000275 0.002167 0.000824
0.002258 0.001953 0.000824
0.010773 0.003235 0.000488
0.026215 0.004852 0.001099
0.053437 0.008484 0.001190
0.085725 0.014374 0.001923
0.105135 0.019471 0.003571
0.125093 0.024506 0.003693
0.150362 0.025391 0.004608
0.180484 0.022278 0.004791
0.215518 0.013245 0.003967
0.254612 0.000000 0.003326
0.297215 0.000000 0.001007
0.342535 0.000000 0.000000
0.390173 0.000000 0.000000
0.438666 0.000000 0.000000
0.487068 0.000000 0.000000
0.534112 0.000000 0.000000
0.578820 0.000000 0.000000
0.620813 0.000000 0.000000
0.660182 0.000000 0.000000
0.700404 0.000000 0.000000
0.733913 0.000000 0.000000
0.763333 0.000000 0.000000
0.789395 0.000641 0.000000
0.812222 0.118013 0.000000
0.832364 0.164645 0.018433
0.850340 0.203983 0.070527
0.866514 0.239109 0.104555
0.881163 0.272770 0.130098
0.894743 0.305608 0.157259
0.907073 0.338537 0.186374
0.005646 0.008270 0.001007
0.007630 0.008057 0.001007
0.012879 0.008576 0.000824
0.029603 0.011170 0.001282
0.054841 0.015015 0.001404
0.087861 0.020691 0.002136
0.106233 0.025788 0.002655
0.126070 0.029633 0.004059
0.151278 0.032685 0.003510
0.181003 0.028595 0.003845
0.215763 0.018585 0.003174
0.254582 0.001190 0.002411
0.296849 0.000000 0.001099
0.341619 0.000000 0.000000
0.388861 0.000000 0.000000
0.437049 0.000000 0.000000
0.485176 0.000000 0.000000
0.532311 0.000000 0.000000
0.576837 0.000000 0.000000
0.618952 0.000000 0.000000
0.659144 0.000000 0.000000
0.698573 0.000000 0.000000
0.731807 0.000000 0.000000
0.761105 0.000000 0.000000
0.787167 0.013519 0.000000
0.810025 0.120241 0.000000
0.830289 0.165652 0.014343
0.848539 0.203861 0.063752
0.864927 0.238743 0.101076
0.879789 0.272160 0.127901
0.893431 0.304753 0.155276
0.905882 0.337621 0.184848
0.017060 0.021454 0.003510
0.019043 0.021210 0.003510
0.023987 0.021759 0.004486
0.033783 0.024018 0.003967
0.060853 0.031037 0.003632
0.091554 0.034089 0.003510
0.109407 0.037995 0.003021
0.129397 0.042573 0.003143
0.154635 0.044007 0.003876
0.184360 0.040436 0.004028
0.218784 0.031189 0.003204
0.256687 0.016419 0.001007
0.298314 0.000000 0.000000
0.342504 0.000000 0.000000
0.389105 0.000000 0.000000
0.436561 0.000000 0.000000
0.484047 0.000000 0.000000
0.530266 0.000000 0.000000
0.574517 0.000000 0.000000
0.616175 0.000000 0.000000
0.656489 0.000000 0.000000
0.694728 0.000000 0.000000
0.727657 0.000000 0.000000
0.757168 0.000000 0.000000
0.783780 0.046662 0.000000
0.807462 0.128542 0.000000
0.828489 0.172122 0.010834
0.847166 0.208988 0.059510
0.863920 0.243046 0.100954
0.878874 0.275731 0.127810
0.892515 0.307591 0.155093
0.904845 0.339300 0.183566
0.031525 0.043122 0.009308
0.031525 0.043122 0.009308
0.038453 0.043427 0.010285
0.047944 0.045686 0.010895
0.063569 0.050660 0.009918
0.093324 0.060273 0.007752
0.113344 0.062074 0.005127
0.133761 0.063813 0.004395
0.159213 0.064546 0.002838
0.188418 0.061769 0.001678
0.222232 0.054475 0.001678
0.259464 0.043091 0.000000
0.300389 0.023804 0.000000
0.344244 0.000000 0.000000
0.390204 0.000000 0.000000
0.437171 0.000000 0.000000
0.484657 0.000000 0.000000
0.530571 0.000000 0.000000
0.574578 0.000000 0.000000
0.616083 0.000000 0.000000
0.656794 0.000000 0.000000
0.693935 0.000000 0.000000
0.726375 0.000000 0.000000
0.755673 0.000000 0.000000
0.782406 0.099855 0.000000
0.806149 0.146487 0.000000
0.827207 0.184146 0.005615
0.845975 0.218357 0.056397
0.862669 0.250492 0.099367
0.877592 0.281773 0.126772
0.891203 0.312474 0.154238
0.903563 0.343145 0.182559
0.045930 0.075898 0.016999
0.045930 0.075898 0.016999
0.052857 0.076204 0.017945
0.065461 0.075837 0.020020
0.080598 0.080446 0.019989
0.093477 0.085664 0.019501
0.114382 0.092164 0.015045
0.141543 0.093568 0.008850
0.166964 0.091371 0.006867
0.196475 0.089723 0.003418
0.229679 0.088319 0.000458
0.266514 0.083986 0.000000
0.306737 0.073976 0.000000
0.350103 0.053376 0.000000
0.395575 0.024018 0.000000
0.442420 0.000000 0.000000
0.488777 0.000000 0.000000
0.534478 0.000000 0.000000
0.577661 0.000000 0.000000
0.618555 0.000000 0.000000
0.659724 0.000000 0.000000
0.695857 0.000000 0.000000
0.751278 0.096651 0.000000
0.779019 0.137636 0.000000
0.803189 0.171695 0.000000
0.824094 0.203372 0.000000
0.842374 0.232914 0.045136
0.858640 0.261418 0.094850
0.873198 0.289097 0.121340
0.886442 0.316655 0.147951
0.898528 0.344152 0.174655
0.909453 0.371832 0.203464
0.063447 0.102052 0.030213
0.065156 0.101961 0.031342
0.072084 0.102083 0.032288
0.084138 0.102205 0.035309
0.093446 0.103578 0.037720
0.102663 0.107362 0.036591
0.116701 0.112245 0.035615
0.145632 0.120851 0.027527
0.181094 0.122957 0.014252
0.213565 0.119692 0.007630
0.247105 0.114076 0.002991
0.284672 0.112428 0.000000
0.325170 0.109194 0.000000
0.368231 0.104067 0.000000
0.412940 0.096559 0.000000
0.458076 0.084596 0.000000
0.503105 0.059663 0.000000
0.547021 0.035584 0.000000
0.588983 0.021271 0.000000
0.632044 0.023804 0.000000
0.673487 0.058167 0.000000
0.710231 0.101167 0.000000
0.742824 0.131014 0.000000
0.772244 0.161959 0.000000
0.798001 0.191653 0.000000
0.819852 0.219791 0.000000
0.838621 0.246677 0.034577
0.855131 0.272374 0.089815
0.869841 0.298161 0.117800
0.883207 0.323796 0.144289
0.895445 0.349798 0.171664
0.906554 0.376349 0.200534
0.073732 0.127504 0.047639
0.074708 0.127718 0.048615
0.082673 0.127687 0.050690
0.091615 0.128237 0.053407
0.101717 0.128481 0.058320
0.111727 0.131655 0.059144
0.125368 0.136446 0.058503
0.144259 0.142245 0.057496
0.178073 0.153048 0.045808
0.218845 0.155978 0.023651
0.258793 0.153353 0.009705
0.295201 0.146853 0.000000
0.334051 0.139467 0.000000
0.375921 0.137179 0.000000
0.419501 0.132998 0.000000
0.463294 0.128603 0.000000
0.507134 0.124361 0.000000
0.549859 0.120211 0.000000
0.592218 0.119295 0.000000
0.634699 0.123323 0.000000
0.673640 0.132906 0.000000
0.708736 0.148592 0.000000
0.740475 0.168795 0.000000
0.769192 0.191989 0.000000
0.794736 0.216617 0.000000
0.816526 0.240574 0.000000
0.835386 0.264103 0.022766
0.851957 0.287663 0.085725
0.866819 0.311315 0.115755
0.880339 0.335088 0.143221
0.892699 0.359442 0.170474
0.904021 0.384527 0.199344
0.083223 0.158846 0.079316
0.085878 0.159152 0.079835
0.090730 0.159121 0.081147
0.099458 0.159579 0.084169
0.111177 0.160128 0.088258
0.125032 0.160952 0.091829
0.137179 0.165652 0.091676
0.155093 0.171572 0.091188
0.178073 0.178347 0.090791
0.216190 0.190158 0.083101
0.261601 0.194217 0.048951
0.308934 0.192264 0.018433
0.347845 0.184756 0.003601
0.387610 0.175051 0.000000
0.429145 0.168978 0.000000
0.471534 0.167025 0.000000
0.514092 0.165194 0.000000
0.556359 0.164645 0.000000
0.598993 0.166873 0.000000
0.638972 0.171481 0.000000
0.675715 0.179507 0.000000
0.709071 0.191348 0.000000
0.739528 0.206058 0.000000
0.767514 0.223880 0.000000
0.792508 0.244419 0.000000
0.813993 0.264927 0.000000
0.832761 0.285557 0.014984
0.849332 0.306584 0.082033
0.864256 0.327947 0.114748
0.877775 0.349737 0.142885
0.890166 0.372625 0.171359
0.901579 0.395819 0.200015
0.093355 0.194888 0.103273
0.095888 0.194919 0.103212
0.100679 0.194858 0.104219
0.109926 0.195102 0.105989
0.122866 0.195499 0.108949
0.138643 0.195865 0.112917
0.153689 0.198520 0.115694
0.169924 0.203769 0.115145
0.190433 0.209934 0.114900
0.217227 0.217227 0.114717
0.258366 0.229770 0.110170
0.306554 0.234287 0.092287
0.357580 0.233066 0.056672
0.401190 0.226108 0.025422
0.441382 0.216709 0.003571
0.480995 0.205386 0.000000
0.523705 0.204990 0.000000
0.566430 0.206821 0.000000
0.606653 0.210208 0.000000
0.644190 0.215244 0.000000
0.678553 0.222110 0.000000
0.709712 0.231357 0.000000
0.738277 0.243290 0.000000
0.764614 0.257206 0.000000
0.788602 0.272496 0.000000
0.809903 0.288243 0.000000
0.828611 0.306310 0.001831
0.845396 0.325078 0.074128
0.860563 0.344579 0.112764
0.874388 0.364874 0.141909
0.887083 0.386145 0.171237
0.898680 0.408209 0.201022
0.108248 0.232364 0.127199
0.109560 0.232547 0.127138
0.114809 0.232517 0.128359
0.124819 0.232731 0.129946
0.138308 0.233127 0.132845
0.155428 0.233616 0.136904
0.173495 0.234867 0.142153
0.189364 0.239170 0.142763
0.208621 0.245182 0.142916
0.232761 0.251865 0.143008
0.262242 0.259220 0.142855
0.305821 0.272099 0.140230
0.356329 0.277348 0.121736
0.408423 0.277012 0.101656
0.456794 0.272190 0.079377
0.498054 0.264347 0.046296
0.537591 0.254917 0.018463
0.575494 0.247837 0.000000
0.613092 0.251164 0.000000
0.648249 0.255589 0.000000
0.680537 0.261692 0.000000
0.710018 0.269505 0.000000
0.737484 0.279545 0.000000
0.763119 0.291508 0.000000
0.786313 0.304356 0.001862
0.807034 0.318181 0.014374
0.825834 0.332341 0.034699
0.842802 0.347509 0.070283
0.857847 0.365057 0.113832
0.871641 0.383673 0.144381
0.884398 0.403021 0.173556
0.896056 0.423468 0.204410
0.129000 0.273167 0.154910
0.130556 0.273198 0.155062
0.135134 0.273442 0.155917
0.144930 0.273777 0.157809
0.159121 0.274113 0.160555
0.176059 0.274601 0.164004
0.195285 0.275669 0.169223
0.214328 0.277867 0.173892
0.232456 0.283207 0.174014
0.254490 0.289616 0.174289
0.281437 0.296605 0.174258
0.313115 0.304112 0.174655
0.375494 0.331060 0.184146
0.430884 0.339605 0.167086
0.484901 0.341711 0.148318
0.536004 0.339574 0.128389
0.573816 0.331548 0.114321
0.608972 0.322637 0.099886
0.641352 0.313848 0.080629
0.672114 0.311650 0.065553
0.701076 0.317418 0.072023
0.727474 0.324315 0.077852
0.752132 0.332525 0.083345
0.774777 0.342229 0.091066
0.795254 0.352544 0.097078
0.813779 0.363317 0.104829
0.830503 0.374365 0.112642
0.845884 0.386053 0.122683
0.860136 0.398352 0.133913
0.873136 0.413245 0.158419
0.885008 0.429908 0.187808
0.896086 0.447700 0.218143
0.160708 0.322545 0.190036
0.161715 0.322515 0.190036
0.166690 0.322271 0.190616
0.175692 0.322271 0.191958
0.188571 0.322087 0.194278
0.205631 0.321996 0.197269
0.224765 0.322545 0.201907
0.246311 0.323339 0.207950
0.265110 0.327337 0.210788
0.286503 0.333959 0.211337
0.314244 0.342809 0.213809
0.346654 0.352850 0.216434
0.383307 0.363500 0.219608
0.430762 0.378759 0.223117
0.483711 0.387427 0.206058
0.532982 0.389197 0.187686
0.578515 0.386908 0.168093
0.615045 0.379767 0.151186
0.645258 0.371008 0.137606
0.673152 0.362188 0.124025
0.698848 0.353918 0.110750
0.724025 0.357275 0.111086
0.747951 0.363958 0.114656
0.770199 0.371893 0.119356
0.790249 0.380804 0.125277
0.808621 0.390082 0.131899
0.825376 0.399939 0.139681
0.840848 0.410254 0.148592
0.855283 0.421393 0.159213
0.868956 0.433448 0.170809
0.881559 0.447211 0.191012
0.892851 0.463386 0.221744
0.194278 0.364660 0.221195
0.195193 0.364477 0.221347
0.199161 0.364660 0.222080
0.207767 0.364721 0.223453
0.220645 0.364599 0.225528
0.236454 0.365057 0.228946
0.255863 0.366003 0.233555
0.277317 0.367437 0.239445
0.300450 0.369574 0.246647
0.320256 0.376043 0.248295
0.344274 0.383520 0.250187
0.372717 0.392126 0.252689
0.404730 0.401373 0.255314
0.439673 0.410712 0.257969
0.482155 0.424170 0.263005
0.529808 0.431495 0.245304
0.573327 0.432532 0.226902
0.613184 0.430121 0.207523
0.648035 0.424750 0.188968
0.674220 0.416388 0.175845
0.698939 0.407965 0.162631
0.722469 0.400458 0.150668
0.745052 0.395972 0.141543
0.766629 0.402625 0.145693
0.786282 0.409979 0.151919
0.804379 0.417975 0.157717
0.820920 0.426398 0.165499
0.836301 0.435431 0.173892
0.850675 0.445228 0.183749
0.864378 0.456031 0.195285
0.877470 0.467414 0.208133
0.889677 0.480537 0.227695
0.238376 0.411231 0.258152
0.239506 0.411170 0.258244
0.242374 0.410986 0.258824
0.249546 0.410590 0.259464
0.260441 0.410193 0.261295
0.274998 0.409888 0.263859
0.292485 0.410224 0.267826
0.312413 0.410834 0.272801
0.334325 0.412299 0.279576
0.355627 0.415869 0.284916
0.376287 0.422339 0.286412
0.400824 0.429755 0.288914
0.428473 0.437812 0.291752
0.458442 0.445899 0.293980
0.490242 0.453895 0.296086
0.527214 0.465034 0.301946
0.569268 0.471443 0.284611
0.607141 0.472267 0.265782
0.642206 0.470039 0.246738
0.674403 0.465858 0.227726
0.698634 0.458564 0.213718
0.721279 0.451392 0.201846
0.742977 0.444739 0.190127
0.763363 0.438941 0.179477
0.782498 0.438849 0.177279
0.800320 0.445411 0.183352
0.816648 0.452888 0.191226
0.831937 0.460883 0.199435
0.846433 0.469764 0.209567
0.860258 0.479622 0.221439
0.873503 0.490303 0.234684
0.886107 0.502037 0.250706
0.282261 0.452430 0.293309
0.283207 0.452461 0.293309
0.286046 0.452369 0.294011
0.292393 0.452216 0.294896
0.302464 0.452064 0.296666
0.315007 0.452064 0.299229
0.331060 0.452644 0.303075
0.350134 0.453468 0.308324
0.371038 0.454871 0.314549
0.393103 0.456519 0.322026
0.411780 0.461219 0.324987
0.431800 0.466804 0.326574
0.454292 0.472908 0.328099
0.479255 0.479072 0.329656
0.505455 0.485084 0.330694
0.532860 0.491096 0.331823
0.564477 0.500603 0.338537
0.601190 0.506188 0.321569
0.634394 0.507042 0.303410
0.665522 0.505364 0.285283
0.694820 0.502403 0.267582
0.719692 0.497200 0.252567
0.740414 0.491279 0.241520
0.760189 0.485359 0.231296
0.778866 0.480171 0.221683
0.796597 0.475532 0.213260
0.812894 0.479683 0.217716
0.828031 0.486519 0.226169
0.842435 0.494240 0.236301
0.856107 0.502770 0.247837
0.869108 0.512291 0.261112
0.881621 0.522576 0.276127
0.325109 0.489143 0.326970
0.326024 0.489204 0.327306
0.328649 0.489021 0.327581
0.333867 0.489082 0.328557
0.342596 0.489082 0.330419
0.353887 0.489113 0.332708
0.368353 0.489418 0.336278
0.384894 0.490028 0.340734
0.403662 0.490913 0.346380
0.423774 0.492317 0.353246
0.443427 0.494545 0.359869
0.460365 0.499306 0.361212
0.479408 0.504417 0.362799
0.500053 0.509422 0.364080
0.522393 0.514519 0.365026
0.545708 0.519646 0.366003
0.569757 0.524743 0.367041
0.597162 0.533074 0.373541
0.629053 0.538445 0.359350
0.658503 0.539178 0.341894
0.686671 0.538476 0.325292
0.713344 0.536217 0.308751
0.737697 0.532616 0.293370
0.756558 0.527367 0.283177
0.774685 0.522087 0.273594
0.791867 0.517571 0.265354
0.808377 0.513603 0.258030
0.824155 0.511162 0.253269
0.838346 0.517998 0.263310
0.851957 0.525658 0.274662
0.864897 0.534203 0.287907
0.877379 0.543603 0.303349
0.369146 0.523857 0.361791
0.369818 0.523919 0.361944
0.388617 0.535821 0.375311
0.393103 0.535729 0.376287
0.400183 0.535607 0.377844
0.409674 0.535607 0.380163
0.421485 0.535637 0.383001
0.435920 0.535851 0.386938
0.452033 0.536400 0.391821
0.469551 0.537316 0.397955
0.487739 0.538476 0.404974
0.503471 0.541253 0.408972
0.518334 0.544762 0.409491
0.534630 0.548486 0.410407
0.551995 0.552056 0.410742
0.570275 0.555688 0.411078
0.589502 0.559167 0.411078
0.609186 0.562890 0.411017
0.631678 0.569238 0.416480
0.658503 0.573632 0.403815
0.684138 0.574151 0.387366
0.708614 0.573205 0.371801
0.732021 0.570855 0.356359
0.754055 0.567559 0.341436
0.771725 0.562524 0.329992
0.787930 0.557427 0.320287
0.803555 0.552850 0.311925
0.818784 0.548882 0.304875
0.833707 0.546105 0.299535
0.847776 0.547784 0.302129
0.860563 0.555444 0.315496
0.872923 0.563897 0.330144
0.415869 0.557885 0.399451
0.417670 0.558923 0.400702
0.421210 0.559991 0.402472
0.426581 0.560815 0.404425
0.433600 0.561456 0.406622
0.442023 0.561822 0.409125
0.452491 0.561822 0.411810
0.464515 0.561883 0.415106
0.478614 0.562188 0.419471
0.493782 0.562768 0.424689
0.509880 0.563775 0.430976
0.526146 0.564904 0.437964
0.538598 0.567895 0.439033
0.552026 0.571099 0.439612
0.566583 0.574365 0.440345
0.582147 0.577661 0.440864
0.598596 0.580987 0.441016
0.615900 0.584527 0.441627
0.634058 0.588312 0.442451
0.654231 0.594476 0.448249
0.677638 0.598627 0.438666
0.700801 0.599603 0.424262
0.723018 0.599054 0.410620
0.744228 0.597101 0.396735
0.764401 0.594232 0.382879
0.782132 0.590356 0.371008
0.797299 0.585992 0.362432
0.812161 0.582269 0.355169
0.826871 0.579278 0.349554
0.841215 0.577508 0.345861
0.855467 0.576715 0.344213
0.868132 0.582574 0.355657
0.451942 0.583459 0.430030
0.453712 0.584405 0.431281
0.457069 0.585504 0.433082
0.461372 0.586481 0.435035
0.467567 0.587091 0.437140
0.475013 0.587335 0.439399
0.483650 0.587457 0.441718
0.493996 0.587518 0.444831
0.506126 0.587732 0.448768
0.519127 0.588159 0.453223
0.532891 0.588861 0.458717
0.547204 0.589776 0.464973
0.560052 0.591424 0.469612
0.571344 0.594202 0.470344
0.583551 0.597131 0.470985
0.596643 0.600092 0.471595
0.610529 0.603082 0.472145
0.625269 0.606104 0.472602
0.640681 0.609400 0.473457
0.656825 0.612787 0.474434
0.674220 0.618097 0.480354
0.694453 0.621851 0.473426
0.715267 0.623011 0.460975
0.735348 0.622644 0.448676
0.754604 0.621118 0.436316
0.773190 0.618799 0.423957
0.791104 0.615961 0.411994
0.805570 0.612512 0.404791
0.819852 0.609796 0.399176
0.833951 0.607904 0.395575
0.847898 0.607019 0.393683
0.861662 0.607233 0.394202
0.486519 0.608057 0.460792
0.488014 0.608881 0.462013
0.490578 0.609796 0.463661
0.494484 0.610498 0.465309
0.499519 0.611078 0.467323
0.505608 0.611353 0.469306
0.512963 0.611475 0.471473
0.521752 0.611505 0.474220
0.531823 0.611749 0.477668
0.543023 0.612024 0.481758
0.555016 0.612665 0.486732
0.567529 0.613367 0.492164
0.580102 0.614252 0.498299
0.590417 0.616266 0.500664
0.600549 0.618738 0.501274
0.611658 0.621302 0.502068
0.623468 0.624201 0.503197
0.636316 0.627192 0.504417
0.649866 0.630457 0.506065
0.663966 0.633997 0.508141
0.678584 0.637690 0.510521
0.693782 0.642725 0.517082
0.711238 0.646296 0.512840
0.729885 0.647883 0.502739
0.748074 0.648096 0.492531
0.765835 0.647333 0.482307
0.783139 0.645930 0.472267
0.800137 0.644190 0.462593
0.814878 0.642145 0.456336
0.828550 0.640620 0.453285
0.842100 0.639826 0.451820
0.855467 0.640009 0.452705
0.525872 0.635340 0.498604
0.526604 0.635676 0.499092
0.528008 0.635889 0.499763
0.530266 0.636011 0.500603
0.533928 0.636072 0.501793
0.538506 0.635950 0.503105
0.544274 0.635859 0.504845
0.551568 0.635889 0.507256
0.559838 0.635981 0.510277
0.569390 0.636316 0.514031
0.579553 0.636835 0.518364
0.590417 0.637446 0.523491
0.601312 0.638148 0.529015
0.611902 0.639124 0.534325
0.620172 0.641108 0.535149
0.629053 0.643305 0.535851
0.638666 0.645563 0.536736
0.649042 0.647974 0.537713
0.660060 0.650507 0.538994
0.671656 0.653254 0.540490
0.683772 0.656123 0.542199
0.696071 0.659174 0.544182
0.708980 0.663111 0.550103
0.723659 0.665919 0.546807
0.740414 0.667414 0.537560
0.757107 0.668025 0.528618
0.773678 0.667811 0.519951
0.789975 0.667262 0.511955
0.806180 0.666438 0.504417
0.821347 0.665522 0.498878
0.834440 0.664973 0.497780
0.847440 0.665217 0.498573
0.555230 0.655146 0.528649
0.555718 0.655360 0.529107
0.556970 0.655543 0.529747
0.558923 0.655726 0.530541
0.561791 0.655756 0.531609
0.565667 0.655756 0.532891
0.570642 0.655665 0.534478
0.576593 0.655695 0.536645
0.583612 0.655879 0.539361
0.591669 0.656153 0.542931
0.600336 0.656611 0.546899
0.609644 0.657130 0.551446
0.619196 0.657710 0.556420
0.628840 0.658503 0.561883
0.637049 0.659815 0.565240
0.644373 0.661769 0.566186
0.652308 0.663813 0.567132
0.660883 0.665980 0.568292
0.670100 0.668299 0.569665
0.679805 0.670680 0.571099
0.689998 0.673335 0.572869
0.700587 0.675990 0.574701
0.711482 0.678737 0.576776
0.722713 0.682399 0.582269
0.734218 0.683101 0.577081
0.749447 0.684718 0.569024
0.764920 0.685878 0.561944
0.780423 0.686427 0.555322
0.795926 0.686671 0.549340
0.811398 0.686793 0.543969
0.826810 0.687037 0.539849
0.839597 0.687587 0.540795
0.586175 0.675410 0.562310
0.586999 0.675685 0.563012
0.587793 0.675868 0.563500
0.589166 0.675837 0.563958
0.591180 0.675654 0.564416
0.593835 0.675349 0.565057
0.597253 0.675044 0.565972
0.601648 0.674739 0.567285
0.606928 0.674525 0.569146
0.613092 0.674434 0.571466
0.619898 0.674464 0.574395
0.627405 0.674678 0.577935
0.635248 0.674983 0.581872
0.643214 0.675380 0.586236
0.651209 0.675898 0.590875
0.657191 0.677211 0.591760
0.663569 0.678737 0.592248
0.670619 0.680568 0.593194
0.678279 0.682582 0.594263
0.686580 0.684871 0.595819
0.695430 0.687282 0.597620
0.704646 0.689784 0.599512
0.714076 0.692256 0.601312
0.723720 0.694667 0.603052
0.733608 0.697749 0.607630
0.744717 0.700038 0.606592
0.758511 0.701564 0.599603
0.772854 0.703059 0.594049
0.787381 0.704158 0.588983
0.801999 0.705165 0.585046
0.816678 0.706172 0.582086
0.831418 0.707393 0.580499
0.608423 0.690578 0.588037
0.609094 0.690883 0.588678
0.609888 0.691096 0.589227
0.611170 0.691127 0.589807
0.612909 0.691127 0.590417
0.615381 0.691096 0.591333
0.618585 0.691096 0.592584
0.622583 0.691096 0.594202
0.627344 0.691218 0.596185
0.632746 0.691402 0.598657
0.638697 0.691646 0.601556
0.645136 0.692012 0.604791
0.651881 0.692439 0.608392
0.658778 0.692866 0.612207
0.665675 0.693355 0.616266
0.672084 0.694087 0.619501
0.677241 0.695430 0.619959
0.683009 0.696956 0.620722
0.689326 0.698665 0.621637
0.696284 0.700679 0.622950
0.703731 0.702846 0.624567
0.711635 0.705104 0.626276
0.719753 0.707424 0.628077
0.728206 0.709712 0.629877
0.736873 0.711971 0.631617
0.745846 0.714839 0.635889
0.755673 0.717098 0.636133
0.768246 0.718837 0.630518
0.781704 0.720943 0.626978
0.795346 0.722805 0.624201
0.809232 0.724605 0.622492
0.823209 0.726497 0.621881
0.630762 0.706722 0.615381
0.631006 0.706874 0.615717
0.631617 0.706966 0.615991
0.632624 0.706966 0.616388
0.634028 0.706935 0.616876
0.636011 0.706905 0.617670
0.638605 0.706844 0.618616
0.641779 0.706874 0.619928
0.645655 0.706966 0.621607
0.650202 0.707118 0.623682
0.655238 0.707362 0.626123
0.660670 0.707698 0.628962
0.666499 0.708095 0.632105
0.672450 0.708522 0.635492
0.678553 0.708949 0.638972
0.684627 0.709499 0.642786
0.689662 0.710475 0.644495
0.694423 0.711849 0.645045
0.699794 0.713405 0.646052
0.705653 0.715206 0.647120
0.712032 0.717128 0.648615
0.718807 0.719173 0.650202
0.725887 0.721187 0.651728
0.733242 0.723262 0.653346
0.740780 0.725338 0.654994
0.748684 0.727382 0.656519
0.756802 0.729915 0.660456
0.765560 0.732082 0.661585
0.777066 0.733822 0.656977
0.789883 0.736507 0.655116
0.802945 0.739010 0.654231
0.816220 0.741482 0.654322
0.649561 0.721370 0.639612
0.649836 0.721462 0.639826
0.650263 0.721584 0.640162
0.651209 0.721645 0.640589
0.652552 0.721767 0.641321
0.654475 0.721920 0.642206
0.657130 0.722286 0.643732
0.660395 0.722744 0.645655
0.664271 0.723323 0.647944
0.668666 0.724056 0.650629
0.673548 0.724849 0.653712
0.678767 0.725704 0.657038
0.684199 0.726528 0.660487
0.689754 0.727321 0.664057
0.695308 0.728054 0.667659
0.700801 0.728725 0.671260
0.706203 0.729427 0.674830
0.710201 0.730678 0.675471
0.714717 0.732082 0.676417
0.719631 0.733669 0.677607
0.725002 0.735378 0.678920
0.730678 0.737179 0.680354
0.736629 0.738949 0.681758
0.742916 0.740810 0.683314
0.749447 0.742580 0.684718
0.756191 0.744411 0.686213
0.763241 0.746273 0.687739
0.770443 0.748531 0.691310
0.778195 0.750607 0.693233
0.788571 0.752193 0.689418
0.800565 0.755215 0.689113
0.812985 0.758206 0.689876
0.671443 0.739010 0.668879
0.671534 0.739010 0.668910
0.671839 0.738979 0.669032
0.672419 0.738979 0.669215
0.673457 0.738979 0.669612
0.674830 0.738979 0.670192
0.676692 0.739071 0.671077
0.679133 0.739193 0.672206
0.681941 0.739437 0.673701
0.685328 0.739712 0.675502
0.689113 0.740108 0.677638
0.693263 0.740566 0.679988
0.697749 0.741054 0.682673
0.702358 0.741573 0.685481
