20 Preset/caramel style/【3】LUT video cho PR-AE-FCPX/Tone  (11).cube
# Created by Adobe Lightroom plugin Export LUT (1.24.0)
# www.johnrellis.com/lightroom/exportlut.htm
# Preset: 褐色婚礼-素材江湖10
# Color profile: C:\Program Files (x86)\Common Files\Adobe\Color\Profiles\Recommended\VideoHD.icc
LUT_3D_SIZE 8
DOMAIN_MIN 0.000000 0.000000 0.000000
DOMAIN_MAX 0.903226 0.903226 0.903226
0.000000 0.000000 0.000000
0.116396 0.024201 0.030365
0.240757 0.070680 0.092744
0.370001 0.097871 0.124361
0.500298 0.129335 0.164462
0.661463 0.178744 0.219760
0.792020 0.236057 0.275273
0.887846 0.305180 0.334936
0.092988 0.094179 0.084291
0.125887 0.106752 0.079530
0.236790 0.116091 0.096437
0.354711 0.128969 0.124971
0.480079 0.152590 0.162814
0.626673 0.190005 0.211093
0.757595 0.234318 0.261082
0.866941 0.296666 0.320714
0.183261 0.188754 0.161196
0.195834 0.187564 0.170199
0.262089 0.214664 0.143069
0.364141 0.214389 0.145632
0.489113 0.230716 0.180606
0.633509 0.259098 0.224491
0.776272 0.299626 0.278965
0.880522 0.351202 0.339513
0.290410 0.301274 0.251316
0.298589 0.298558 0.255406
0.331609 0.310582 0.254734
0.427985 0.351812 0.226322
0.520867 0.338811 0.212406
0.644404 0.350469 0.242283
0.767941 0.372961 0.287388
0.870176 0.406836 0.343450
0.414771 0.432776 0.352209
0.421332 0.431128 0.355444
0.445411 0.429908 0.372625
0.494514 0.457588 0.346654
0.570733 0.472724 0.298253
0.634546 0.437110 0.267308
0.728328 0.431830 0.276280
0.847959 0.463111 0.336309
0.542077 0.565240 0.457496
0.556054 0.573053 0.468147
0.575280 0.571252 0.480507
0.601343 0.577813 0.480781
0.640101 0.590539 0.438941
0.703548 0.592493 0.387182
0.764431 0.555230 0.349279
0.839628 0.534264 0.331182
0.670222 0.688502 0.580072
0.675135 0.689815 0.583795
0.685573 0.687526 0.589929
0.702052 0.685969 0.604273
0.720607 0.692805 0.579278
0.750576 0.697871 0.542992
0.800504 0.693477 0.495857
0.857603 0.660945 0.453010
0.776699 0.788235 0.695003
0.778225 0.788022 0.695949
0.785397 0.788174 0.701045
0.797818 0.789670 0.712001
0.797452 0.779965 0.699031
0.819303 0.791470 0.683497
0.844938 0.796719 0.661524
0.886168 0.793210 0.625452
0.005646 0.031250 0.083040
0.104372 0.031525 0.098817
0.220981 0.085420 0.120424
0.342351 0.119722 0.154177
0.472877 0.147433 0.187198
0.615015 0.182956 0.227939
0.743191 0.225010 0.270268
0.852476 0.284428 0.322332
0.048005 0.103609 0.103792
0.116274 0.111055 0.112581
0.222965 0.126406 0.131533
0.341863 0.143679 0.156619
0.468177 0.166934 0.188052
0.605005 0.197391 0.226352
0.727657 0.231693 0.264927
0.838315 0.283268 0.314153
0.170504 0.195773 0.166751
0.193362 0.194461 0.176181
0.251377 0.213382 0.164584
0.353124 0.215671 0.169833
0.470497 0.230045 0.197055
0.601617 0.252903 0.231937
0.730617 0.282322 0.272190
0.846586 0.329168 0.325750
0.274540 0.294652 0.246250
0.285405 0.292821 0.250980
0.318517 0.300999 0.258549
0.396002 0.329351 0.226108
0.478248 0.314336 0.211978
0.595880 0.326787 0.238956
0.720272 0.348180 0.276188
0.835477 0.382208 0.326818
0.402350 0.426825 0.347448
0.408392 0.423835 0.349584
0.431220 0.419348 0.363745
0.472206 0.438575 0.340551
0.541344 0.450019 0.292424
0.606775 0.419196 0.265293
0.705287 0.418677 0.275914
0.827146 0.448859 0.329290
0.523705 0.551690 0.445075
0.529961 0.551690 0.448371
0.551263 0.550744 0.461128
0.580865 0.558465 0.468116
0.622889 0.575189 0.430091
0.690669 0.582391 0.383642
0.751553 0.545617 0.346532
0.825834 0.524559 0.328954
0.653285 0.675624 0.565057
0.654536 0.673182 0.564599
0.665614 0.670436 0.570611
0.685389 0.670405 0.587213
0.708583 0.681239 0.569299
0.739559 0.687098 0.532921
0.788113 0.680537 0.482155
0.843259 0.645167 0.436530
0.766140 0.779934 0.684230
0.769497 0.781247 0.687068
0.776669 0.781064 0.691920
0.790066 0.782742 0.703365
0.803189 0.786374 0.708248
0.820737 0.793576 0.687770
0.843046 0.795285 0.660914
0.884001 0.791257 0.623926
0.000000 0.104585 0.161563
0.061097 0.101961 0.171298
0.208103 0.091127 0.194583
0.350286 0.119661 0.217136
0.480415 0.172702 0.250401
0.632654 0.229435 0.298528
0.759915 0.274052 0.335515
0.863645 0.333654 0.380438
0.072908 0.140719 0.179538
0.116426 0.144686 0.184756
0.215610 0.132021 0.202396
0.344976 0.156710 0.220340
0.473182 0.197391 0.253635
0.619013 0.238926 0.294072
0.745510 0.275090 0.327611
0.853025 0.330175 0.371893
0.118807 0.218235 0.215122
0.150301 0.220859 0.217929
0.236149 0.226749 0.226719
0.350988 0.240696 0.242771
0.484962 0.261753 0.268315
0.619898 0.285069 0.296818
0.743618 0.314794 0.329839
0.850858 0.360998 0.374121
0.216190 0.321813 0.258915
0.239292 0.323674 0.263035
0.323796 0.323064 0.294224
0.395575 0.345281 0.278050
0.491402 0.335668 0.271580
0.615106 0.351690 0.297612
0.737758 0.375097 0.331121
0.845426 0.410437 0.375860
0.373938 0.444648 0.355230
0.390417 0.443397 0.362097
0.431281 0.439857 0.377234
0.476051 0.451423 0.380652
0.546258 0.465797 0.334813
0.608576 0.429236 0.303227
0.715023 0.434424 0.320348
0.832334 0.465431 0.369574
0.509453 0.561700 0.452247
0.517967 0.562188 0.456001
0.544152 0.560052 0.467536
0.576715 0.558404 0.490364
0.615900 0.576013 0.452766
0.682002 0.583276 0.407233
0.744259 0.546624 0.369757
0.828214 0.534203 0.363409
0.650935 0.685481 0.574121
0.652857 0.683528 0.574029
0.664271 0.679194 0.578149
0.685145 0.676539 0.591852
0.706538 0.682856 0.584924
0.738338 0.691432 0.551141
0.788602 0.688502 0.505699
0.846738 0.655756 0.462318
0.762722 0.783383 0.686366
0.763821 0.782406 0.686427
0.771633 0.781918 0.690974
0.788418 0.785275 0.704616
0.802579 0.787076 0.715694
0.820798 0.796078 0.697780
0.843809 0.799344 0.672358
0.884123 0.795407 0.635554
0.000000 0.161715 0.262699
0.000000 0.161624 0.270146
0.173129 0.148470 0.283726
0.324315 0.122988 0.298314
0.480385 0.145785 0.319341
0.622492 0.209689 0.349065
0.747127 0.280644 0.385687
0.849149 0.372564 0.438300
0.002502 0.197208 0.282048
0.099245 0.198245 0.285618
0.189975 0.182559 0.294102
0.332189 0.154818 0.305943
0.486244 0.178470 0.325261
0.622522 0.232822 0.352514
0.744442 0.297276 0.388708
0.846525 0.384527 0.441627
0.124514 0.261448 0.305119
0.158022 0.263645 0.307500
0.243534 0.269596 0.313634
0.343175 0.237064 0.318029
0.492561 0.269169 0.339971
0.632715 0.315801 0.374914
0.760159 0.380102 0.422461
0.854368 0.426337 0.456550
0.162722 0.354772 0.341009
0.188540 0.355169 0.341619
0.267643 0.357733 0.344945
0.372137 0.358618 0.349462
0.494667 0.371130 0.362524
0.619959 0.388678 0.382483
0.739681 0.414099 0.409430
0.843351 0.452125 0.446235
0.275639 0.480262 0.389563
0.294438 0.478523 0.388891
0.363012 0.476509 0.392187
0.476661 0.473915 0.428077
0.543084 0.487343 0.401984
0.614496 0.452308 0.372625
0.731899 0.470222 0.400610
0.837766 0.500053 0.440497
0.442878 0.595727 0.458045
0.466957 0.600977 0.469429
0.522087 0.595087 0.488624
0.585199 0.590753 0.514916
0.624201 0.597864 0.511955
0.679408 0.599420 0.461341
0.738216 0.555444 0.415167
0.833097 0.556603 0.427405
0.625269 0.699336 0.578943
0.633295 0.699489 0.583124
0.657313 0.698268 0.593957
0.688685 0.696864 0.608850
0.714382 0.696620 0.623957
0.741115 0.704555 0.589502
0.785916 0.698878 0.541466
0.844663 0.664302 0.494667
0.758175 0.795254 0.696101
0.760372 0.794888 0.696925
0.769772 0.793973 0.701045
0.786526 0.793668 0.710597
0.803861 0.793423 0.723995
0.820035 0.799649 0.715053
0.843320 0.804715 0.690303
0.884031 0.802518 0.655604
0.000000 0.241825 0.387640
0.000000 0.241825 0.392309
0.141573 0.226841 0.397559
0.298100 0.197879 0.401617
0.452399 0.161898 0.408331
0.615595 0.184482 0.428138
0.744594 0.253513 0.444923
0.849546 0.352636 0.479164
0.000000 0.271550 0.401770
0.000793 0.272068 0.406104
0.175906 0.257053 0.408728
0.305364 0.221836 0.407263
0.457069 0.185702 0.412787
0.617884 0.208011 0.430304
0.744259 0.272770 0.447242
0.848051 0.366217 0.481971
0.133669 0.333074 0.422736
0.166934 0.334447 0.424720
0.254643 0.335729 0.428138
0.329717 0.299290 0.424262
0.464210 0.257084 0.420386
0.611994 0.276921 0.430121
0.735592 0.334386 0.452186
0.837369 0.409552 0.488746
0.187716 0.410803 0.446448
0.213687 0.411566 0.447333
0.295171 0.416541 0.451789
0.400336 0.422644 0.455970
0.484657 0.366247 0.441413
0.620691 0.392981 0.451453
0.735500 0.438972 0.479500
0.831724 0.498970 0.520897
0.231907 0.501915 0.470527
0.251621 0.502647 0.471199
0.317357 0.502007 0.471473
0.407996 0.498573 0.469764
0.502373 0.486397 0.463325
0.613825 0.492988 0.469917
0.726284 0.511192 0.489631
0.826780 0.539025 0.517601
0.318059 0.596155 0.493843
0.334325 0.596124 0.493935
0.388556 0.591394 0.490974
0.475410 0.586908 0.493202
0.586603 0.581659 0.526665
0.650233 0.597681 0.506950
0.716915 0.555413 0.463416
0.826566 0.582147 0.502525
0.535576 0.709377 0.569574
0.540459 0.707637 0.568688
0.564691 0.704067 0.570275
0.632136 0.701900 0.594110
0.697475 0.699123 0.624292
0.728176 0.703822 0.619196
0.769558 0.698695 0.570336
0.826902 0.654719 0.512688
0.694057 0.795102 0.667781
0.699214 0.794522 0.669917
0.720577 0.792935 0.679713
0.761410 0.795712 0.703883
0.791043 0.795163 0.719020
0.812375 0.797116 0.731197
0.834714 0.803586 0.704372
0.873655 0.799374 0.665217
0.000000 0.347173 0.539666
0.000000 0.346471 0.541955
0.128023 0.333165 0.540764
0.293767 0.302129 0.537530
0.441627 0.252537 0.532219
0.591150 0.206699 0.525719
0.744015 0.245029 0.536065
0.857053 0.330632 0.546410
0.000000 0.360571 0.535241
0.000000 0.358404 0.535546
0.167086 0.346380 0.535271
0.298375 0.315465 0.532799
0.435004 0.264103 0.523980
0.582452 0.220401 0.518456
0.735164 0.255985 0.530053
0.849973 0.336034 0.542290
0.148501 0.420508 0.556146
0.186313 0.422309 0.557824
0.280247 0.425544 0.562737
0.345586 0.389105 0.551049
0.451514 0.333349 0.537865
0.592401 0.286412 0.528374
0.739559 0.321141 0.536797
0.847532 0.393622 0.550744
0.255100 0.500938 0.581201
0.276188 0.500816 0.580468
0.353277 0.506523 0.583185
0.459388 0.520134 0.591424
0.501549 0.460273 0.572717
0.618799 0.397375 0.554406
0.752834 0.429267 0.557336
0.846433 0.493965 0.576104
0.304509 0.565942 0.584039
0.320684 0.566125 0.583978
0.379706 0.568048 0.585199
0.469490 0.573083 0.587793
0.561181 0.575586 0.586023
0.614862 0.497505 0.555993
0.736110 0.526665 0.563470
0.829557 0.574060 0.591760
0.348699 0.636805 0.591241
0.365454 0.639460 0.593927
0.407507 0.637781 0.592889
0.473701 0.634363 0.590845
0.547051 0.625605 0.584253
0.629572 0.613336 0.577203
0.732509 0.623072 0.587091
0.827817 0.641749 0.607538
0.456062 0.731380 0.628717
0.465492 0.732448 0.630091
0.496132 0.731106 0.629480
0.558892 0.728481 0.629267
0.635950 0.724056 0.631800
0.722316 0.716274 0.657374
0.759976 0.714015 0.625055
0.819638 0.661250 0.559960
0.633570 0.807309 0.680293
0.636255 0.806363 0.679561
0.652949 0.805051 0.680690
0.688258 0.805234 0.687404
0.743954 0.803464 0.705837
0.801541 0.801602 0.735256
0.827665 0.807126 0.731716
0.863798 0.802213 0.689174
0.000000 0.441993 0.658381
0.000000 0.442817 0.660365
0.199802 0.437232 0.660090
0.321752 0.419318 0.658473
0.436835 0.376593 0.650538
0.557702 0.298375 0.630976
0.701930 0.253941 0.622309
0.831144 0.308080 0.619684
0.000000 0.450477 0.653620
0.115145 0.451881 0.655940
0.224369 0.445930 0.655756
0.327153 0.426154 0.652277
0.433967 0.382269 0.643610
0.550195 0.304204 0.622889
0.690791 0.257969 0.612512
0.819699 0.305364 0.610315
0.233188 0.500877 0.665705
0.259770 0.502861 0.666438
0.327489 0.503838 0.666224
0.390997 0.486610 0.661524
0.460548 0.440192 0.650263
0.559625 0.362097 0.630762
0.700069 0.316716 0.622156
0.828397 0.366430 0.621454
0.331273 0.565362 0.678645
0.345525 0.565301 0.677638
0.406592 0.570733 0.677729
0.494881 0.581994 0.679591
0.526299 0.543053 0.666499
0.585504 0.465919 0.649134
0.713008 0.410010 0.636957
0.831846 0.453254 0.633204
0.388128 0.622522 0.680842
0.397436 0.621607 0.679561
0.441993 0.623651 0.679225
0.517052 0.631342 0.681758
0.602502 0.641688 0.682979
0.614130 0.574090 0.659419
0.711666 0.502983 0.640406
0.830503 0.544152 0.644617
0.442878 0.684291 0.687068
0.452033 0.684962 0.687526
0.486519 0.686702 0.688746
0.544701 0.690059 0.691005
0.615961 0.693904 0.693019
0.692226 0.700557 0.695277
0.724544 0.620172 0.660060
0.828153 0.647608 0.667048
0.494362 0.749386 0.700282
0.502342 0.750240 0.701289
0.526452 0.749905 0.701442
0.570062 0.749660 0.702083
0.623438 0.746883 0.700649
0.679988 0.739712 0.695003
0.735409 0.720882 0.679805
0.823331 0.725399 0.685420
0.571038 0.818784 0.727047
0.575616 0.819028 0.727474
0.596033 0.820706 0.730251
0.626001 0.820890 0.731441
0.678553 0.819730 0.732082
0.745083 0.818112 0.735927
0.819638 0.814084 0.761166
0.851957 0.810391 0.728328
0.276249 0.540276 0.751278
0.294438 0.541680 0.751949
0.346105 0.541253 0.750668
0.425971 0.541558 0.750271
0.493568 0.519768 0.746639
0.565087 0.462501 0.738796
0.664332 0.363195 0.722683
0.803372 0.331060 0.717556
0.293309 0.546349 0.748531
0.309819 0.547845 0.749386
0.358709 0.548272 0.748989
0.431800 0.547082 0.748013
0.496712 0.525780 0.744198
0.564721 0.468238 0.736233
0.660883 0.368139 0.719203
0.798611 0.332708 0.713100
0.356909 0.578790 0.750149
0.375769 0.582116 0.750698
0.418555 0.584802 0.750210
0.479591 0.586969 0.751522
0.531121 0.567956 0.746212
0.579431 0.509697 0.737087
0.663600 0.410712 0.720699
0.798306 0.370825 0.714015
0.399054 0.617029 0.752651
0.415259 0.620081 0.753414
0.469429 0.629633 0.754452
0.543328 0.643641 0.756619
0.584619 0.631891 0.752529
0.613916 0.583795 0.743587
0.675105 0.491341 0.727993
0.801511 0.441657 0.720150
0.431769 0.661219 0.755673
0.443275 0.662989 0.756466
0.479164 0.665980 0.756771
0.556481 0.679744 0.759487
0.637995 0.695979 0.761715
0.656886 0.662745 0.750912
0.690120 0.583246 0.735348
0.803098 0.525048 0.726253
0.485603 0.716091 0.760861
0.490639 0.715633 0.760311
0.515404 0.715785 0.759670
0.565423 0.719661 0.761044
0.634638 0.728695 0.765499
0.720424 0.748653 0.773739
0.730922 0.697261 0.757656
0.812528 0.632227 0.743343
0.543725 0.774777 0.771878
0.548302 0.774777 0.771817
0.568017 0.775051 0.771969
0.607416 0.777401 0.773953
0.661738 0.781674 0.777584
0.726406 0.789364 0.784024
0.797208 0.803250 0.793912
0.816342 0.724453 0.756008
0.601465 0.833463 0.789090
0.604608 0.833341 0.788998
0.619623 0.833585 0.789639
0.649897 0.834928 0.791836
0.690913 0.836362 0.794491
0.738674 0.837278 0.796902
0.788632 0.835508 0.796658
0.829252 0.817777 0.780148
