20 Preset/caramel style/【3】LUT video cho PR-AE-FCPX/Tone  (4).cube
# Created by Adobe Lightroom plugin Export LUT (1.24.0)
# www.johnrellis.com/lightroom/exportlut.htm
# Preset: 褐色婚礼-素材江湖03
# Color profile: C:\Program Files (x86)\Common Files\Adobe\Color\Profiles\Recommended\VideoHD.icc
LUT_3D_SIZE 32
DOMAIN_MIN 0.0 0.0 0.0
DOMAIN_MAX 1.0 1.0 1.0
0.092653 0.069673 0.068574
0.092653 0.069673 0.068574
0.092653 0.069673 0.068574
0.092653 0.069673 0.068574
0.114595 0.065003 0.071229
0.144656 0.053407 0.072480
0.169497 0.041688 0.075807
0.192966 0.033051 0.078920
0.217075 0.031525 0.080140
0.242130 0.030640 0.081483
0.269352 0.030365 0.082673
0.298466 0.029572 0.083711
0.329442 0.030304 0.084291
0.361913 0.031647 0.084352
0.394781 0.034760 0.083955
0.427741 0.043214 0.082094
0.460914 0.052949 0.079744
0.494057 0.068605 0.075563
0.527489 0.079957 0.072389
0.567864 0.088869 0.072541
0.609308 0.096345 0.071809
0.647486 0.103243 0.075227
0.682338 0.110780 0.078309
0.715389 0.119173 0.081666
0.746822 0.127626 0.085908
0.775998 0.137118 0.091127
0.803586 0.145937 0.097322
0.830045 0.156222 0.104585
0.856016 0.167025 0.114046
0.882292 0.179171 0.124605
0.909453 0.192569 0.136873
0.937682 0.207889 0.151400
0.092653 0.069673 0.068574
0.092653 0.069673 0.068574
0.092653 0.069673 0.068574
0.092653 0.069673 0.068574
0.115206 0.064790 0.070069
0.144656 0.053407 0.072480
0.168978 0.040925 0.075959
0.191684 0.037537 0.077852
0.215366 0.035492 0.079988
0.240116 0.035309 0.081331
0.267002 0.034699 0.082643
0.295659 0.034058 0.083101
0.326299 0.034913 0.083803
0.358404 0.036622 0.084718
0.391272 0.039643 0.083742
0.424323 0.046571 0.082063
0.457404 0.058656 0.079652
0.490547 0.072023 0.075929
0.523949 0.082826 0.072786
0.563287 0.090120 0.072908
0.603418 0.096956 0.073671
0.640589 0.103151 0.074067
0.674586 0.111025 0.077150
0.707179 0.118715 0.080201
0.738430 0.126772 0.085023
0.768032 0.134737 0.090181
0.796078 0.143893 0.095216
0.823026 0.154025 0.102663
0.849485 0.164828 0.110750
0.876158 0.176425 0.121035
0.903563 0.189670 0.133608
0.931975 0.204501 0.147890
0.092653 0.069673 0.068574
0.092653 0.069673 0.068574
0.092653 0.069673 0.068574
0.094820 0.069001 0.068544
0.118257 0.063447 0.071168
0.146242 0.054688 0.073274
0.169223 0.053040 0.076539
0.191440 0.052277 0.078126
0.214878 0.051667 0.080079
0.239536 0.050477 0.081544
0.266209 0.050355 0.082155
0.294469 0.051545 0.083223
0.324804 0.052094 0.084047
0.356603 0.054932 0.083558
0.389136 0.060273 0.083223
0.421973 0.068330 0.081575
0.455055 0.078614 0.078645
0.488258 0.088075 0.075349
0.521508 0.092287 0.074983
0.561089 0.097902 0.073671
0.600397 0.103334 0.073243
0.637079 0.109712 0.075044
0.670771 0.116487 0.078584
0.703120 0.123537 0.080903
0.734066 0.131411 0.084535
0.763882 0.138552 0.089570
0.792050 0.147494 0.094697
0.819303 0.156771 0.101534
0.846006 0.167086 0.109804
0.872831 0.178470 0.119875
0.900237 0.190921 0.132052
0.928679 0.205509 0.146151
0.091066 0.078737 0.069642
0.090791 0.079500 0.069490
0.091005 0.080873 0.069184
0.100618 0.082399 0.070558
0.123476 0.085023 0.071778
0.148440 0.085115 0.074006
0.170565 0.083558 0.076295
0.192508 0.083101 0.078706
0.215488 0.082216 0.079316
0.239841 0.082399 0.080690
0.266178 0.081819 0.081392
0.294285 0.082734 0.082490
0.324193 0.085023 0.083131
0.355688 0.088014 0.082582
0.387579 0.090211 0.082368
0.420050 0.094148 0.079927
0.452491 0.098207 0.077729
0.485176 0.102022 0.076112
0.518151 0.105104 0.076295
0.557061 0.109957 0.075563
0.594293 0.115236 0.075471
0.629755 0.120180 0.077790
0.663264 0.126528 0.079164
0.695857 0.132631 0.082429
0.727840 0.139528 0.085786
0.759030 0.147341 0.089601
0.788602 0.155093 0.094789
0.816831 0.163973 0.102388
0.844205 0.173648 0.110384
0.871305 0.184451 0.120638
0.898528 0.196628 0.132204
0.926329 0.210117 0.145937
0.080140 0.104555 0.069398
0.079713 0.104921 0.069276
0.091096 0.105196 0.069856
0.107027 0.105898 0.070832
0.128725 0.106416 0.072358
0.151156 0.105715 0.073945
0.171969 0.104158 0.075593
0.193118 0.103365 0.078462
0.215854 0.102632 0.079164
0.239750 0.102846 0.080537
0.265568 0.103151 0.081178
0.293217 0.103914 0.081575
0.323064 0.105440 0.082124
0.354192 0.107820 0.081392
0.385962 0.110719 0.080201
0.418402 0.114107 0.078401
0.451118 0.116854 0.078584
0.483986 0.120089 0.078187
0.518456 0.123018 0.079042
0.556481 0.126955 0.078950
0.592706 0.131533 0.078553
0.627314 0.136385 0.079500
0.660395 0.141848 0.081727
0.693233 0.147280 0.083467
0.725521 0.152926 0.087617
0.756985 0.160281 0.090517
0.786648 0.167758 0.095857
0.815000 0.175601 0.102693
0.842313 0.184390 0.111666
0.869200 0.194369 0.121584
0.896300 0.205264 0.133211
0.923919 0.218021 0.146456
0.087922 0.124697 0.070314
0.089906 0.124819 0.070130
0.098268 0.125002 0.070710
0.112215 0.125093 0.070893
0.131563 0.125368 0.072602
0.153017 0.125673 0.074830
0.174990 0.125002 0.075990
0.195926 0.123812 0.078187
0.218021 0.123293 0.079622
0.242161 0.123568 0.080171
0.267735 0.124056 0.080720
0.295506 0.125582 0.079988
0.324895 0.127871 0.080171
0.355688 0.130251 0.080659
0.387488 0.132601 0.081514
0.419989 0.134646 0.081331
0.452644 0.137240 0.081331
0.485695 0.139864 0.081514
0.522332 0.143771 0.080812
0.559228 0.147921 0.081331
0.594812 0.151766 0.082490
0.629053 0.156497 0.082460
0.703090 0.173098 0.089418
0.735561 0.179263 0.092287
0.766049 0.185061 0.097047
0.794064 0.191470 0.102968
0.820401 0.198093 0.110658
0.845640 0.205600 0.119081
0.870634 0.213901 0.128847
0.895781 0.223545 0.139895
0.921324 0.234257 0.152438
0.947509 0.246189 0.166354
0.100679 0.146670 0.074769
0.102358 0.146792 0.074586
0.109621 0.146700 0.075319
0.122072 0.146944 0.076478
0.138949 0.147036 0.078279
0.159060 0.147280 0.079683
0.181003 0.147860 0.081971
0.204929 0.148592 0.082216
0.227756 0.148226 0.083436
0.251987 0.148745 0.085084
0.278477 0.149783 0.085695
0.306981 0.151522 0.086458
0.337194 0.153384 0.087587
0.368109 0.155459 0.086915
0.399664 0.157626 0.087312
0.431403 0.159365 0.086915
0.463630 0.161837 0.086458
0.498878 0.165164 0.086275
0.537743 0.169986 0.086122
0.575860 0.174441 0.086275
0.613519 0.179385 0.086854
0.650660 0.184573 0.088869
0.687190 0.190341 0.090669
0.722896 0.196475 0.094514
0.756588 0.202701 0.098268
0.786526 0.209018 0.104433
0.813809 0.214847 0.111818
0.839384 0.221317 0.119905
0.864439 0.228580 0.129427
0.889403 0.236759 0.140261
0.914824 0.246220 0.152560
0.940917 0.257145 0.165866
0.112703 0.166110 0.087373
0.113985 0.166201 0.088411
0.119692 0.166354 0.088197
0.130556 0.166415 0.088685
0.145022 0.166598 0.088991
0.163363 0.167056 0.089754
0.183871 0.167636 0.090272
0.206088 0.168429 0.091707
0.231754 0.170596 0.091402
0.255863 0.170962 0.091524
0.281956 0.172305 0.092134
0.309850 0.173953 0.092531
0.339422 0.175906 0.092256
0.369757 0.178195 0.091676
0.400732 0.179995 0.091157
0.431983 0.181918 0.090822
0.465095 0.185000 0.090425
0.502190 0.189273 0.090150
0.538415 0.193362 0.090150
0.574517 0.197543 0.090181
0.610620 0.202060 0.090394
0.646632 0.206699 0.091859
0.682368 0.211978 0.094240
0.717556 0.217563 0.097200
0.751095 0.223423 0.101534
0.781186 0.228550 0.107637
0.808682 0.233982 0.114382
0.834501 0.239597 0.122255
0.859678 0.246098 0.131594
0.884794 0.253330 0.142275
0.910277 0.261753 0.154238
0.936370 0.271855 0.167391
0.123293 0.187869 0.094881
0.124819 0.187778 0.094484
0.129366 0.187930 0.094697
0.139132 0.188144 0.094697
0.152712 0.188418 0.094911
0.169467 0.188724 0.095308
0.189029 0.189212 0.096162
0.210452 0.190036 0.097047
0.233829 0.191379 0.097444
0.261387 0.194400 0.096681
0.287724 0.195804 0.095888
0.315221 0.197665 0.096834
0.343938 0.199649 0.096834
0.373602 0.201755 0.097078
0.404028 0.203983 0.095918
0.436744 0.207034 0.095155
0.471870 0.210910 0.094972
0.506462 0.214572 0.094667
0.541100 0.218235 0.094453
0.575708 0.222171 0.094575
0.610590 0.226322 0.094972
0.645472 0.230930 0.095918
0.680354 0.235508 0.099214
0.714931 0.240848 0.101595
0.747982 0.246189 0.105776
0.777981 0.250736 0.111940
0.805417 0.255619 0.118349
0.831327 0.260624 0.126680
0.856596 0.266270 0.135683
0.881621 0.272679 0.146639
0.907103 0.280400 0.158358
0.933135 0.289372 0.171176
0.133242 0.211643 0.099580
0.133608 0.211612 0.099947
0.138796 0.211551 0.099825
0.147311 0.211765 0.099825
0.160067 0.211856 0.100069
0.176059 0.212222 0.100404
0.195315 0.212589 0.100465
0.216281 0.213382 0.100862
0.238926 0.214359 0.101656
0.263340 0.215702 0.101961
0.292699 0.219913 0.100465
0.320500 0.221744 0.098604
0.348455 0.223667 0.100038
0.377783 0.226261 0.100252
0.410834 0.230228 0.100404
0.444038 0.233921 0.100832
0.477699 0.237552 0.100282
0.511589 0.241123 0.099825
0.545342 0.244724 0.099489
0.579065 0.248173 0.100038
0.612512 0.252110 0.100496
0.645441 0.255741 0.102022
0.678218 0.259892 0.103792
0.710811 0.264195 0.106477
0.742458 0.268437 0.110750
0.771786 0.272709 0.115816
0.799283 0.276555 0.122774
0.825528 0.281102 0.130434
0.851164 0.286351 0.139467
0.876829 0.292210 0.150149
0.902770 0.299535 0.161929
0.929320 0.308080 0.175570
0.140932 0.236454 0.103578
0.142000 0.236484 0.103548
0.146578 0.236576 0.103731
0.155459 0.236790 0.103670
0.167758 0.237095 0.103822
0.183474 0.237552 0.104036
0.202701 0.238102 0.103944
0.223484 0.239139 0.104128
0.246128 0.240208 0.104707
0.270542 0.241642 0.104829
0.296117 0.243259 0.105226
0.327794 0.248661 0.103395
0.358099 0.252079 0.101381
0.388617 0.255222 0.102327
0.419715 0.258366 0.104128
0.451362 0.261662 0.105257
0.483436 0.264897 0.105806
0.515953 0.268193 0.105776
0.548577 0.271366 0.105898
0.581140 0.274662 0.105776
0.613428 0.277867 0.106538
0.645472 0.281346 0.108034
0.677638 0.285191 0.110292
0.709590 0.289097 0.112947
0.740841 0.292821 0.117037
0.769772 0.296696 0.122347
0.797116 0.300481 0.129000
0.823301 0.304387 0.136995
0.848905 0.309056 0.146151
0.874571 0.314641 0.156924
0.900481 0.321416 0.168734
0.927092 0.329320 0.181796
0.149477 0.264652 0.106874
0.150881 0.264683 0.106477
0.154604 0.264866 0.106630
0.163424 0.265141 0.106538
0.175723 0.265415 0.106935
0.191653 0.265934 0.107027
0.210788 0.266606 0.106813
0.231876 0.267460 0.107271
0.254612 0.268711 0.107271
0.280186 0.271336 0.107515
0.307439 0.274296 0.108217
0.336156 0.277440 0.108705
0.389593 0.299565 0.108339
0.422492 0.303014 0.106874
0.454566 0.305913 0.108400
0.486519 0.308690 0.111391
0.518273 0.311315 0.113680
0.550195 0.313909 0.115999
0.581994 0.316472 0.117861
0.613672 0.319127 0.118318
0.645045 0.321416 0.120333
0.675654 0.323919 0.122438
0.705898 0.326513 0.125216
0.735500 0.329290 0.129122
0.763210 0.331579 0.134371
0.789212 0.333898 0.140352
0.813779 0.336126 0.147127
0.837522 0.338842 0.155093
0.861173 0.342229 0.164126
0.885283 0.346624 0.174289
0.909880 0.352270 0.185611
0.935637 0.359350 0.198367
0.159213 0.301793 0.109957
0.160220 0.301732 0.109957
0.165194 0.301671 0.110140
0.174166 0.302068 0.109926
0.186831 0.302464 0.110170
0.203494 0.302983 0.110109
0.223270 0.304265 0.110353
0.245884 0.305730 0.110536
0.270115 0.307988 0.111208
0.296849 0.310674 0.111574
0.325658 0.314336 0.111849
0.356329 0.318639 0.112825
0.388342 0.323217 0.113985
0.424109 0.329808 0.112978
0.457649 0.334020 0.111238
0.489631 0.336645 0.112490
0.520256 0.338659 0.116518
0.550713 0.340734 0.119417
0.580926 0.342535 0.122621
0.610834 0.344640 0.125734
0.640742 0.346410 0.128023
0.670680 0.348577 0.129946
0.700465 0.350958 0.132631
0.729793 0.353307 0.136446
0.757443 0.355505 0.141329
0.783536 0.357671 0.147372
0.808469 0.359716 0.154513
0.832700 0.362158 0.162661
0.856809 0.365423 0.171206
0.881346 0.369574 0.181857
0.906279 0.374945 0.193057
0.932219 0.381750 0.205722
0.169558 0.337987 0.114046
0.170474 0.337804 0.113527
0.175235 0.337469 0.113558
0.183627 0.337133 0.114076
0.196841 0.336858 0.113405
0.212955 0.336828 0.113954
0.231968 0.337224 0.114290
0.254276 0.337896 0.114137
0.278386 0.339361 0.114748
0.304601 0.341588 0.114839
0.332555 0.344640 0.115785
0.362493 0.348333 0.117067
0.393744 0.352483 0.118105
0.425544 0.356725 0.119448
0.460060 0.362280 0.118349
0.492470 0.365301 0.117159
0.523003 0.366918 0.117342
0.552239 0.368139 0.122469
0.581476 0.369696 0.126528
0.610376 0.370977 0.131044
0.639216 0.372534 0.134676
0.668238 0.374609 0.139193
0.697810 0.376806 0.141878
0.726741 0.379034 0.145846
0.754269 0.381048 0.150362
0.780301 0.382940 0.156771
0.805295 0.384741 0.163577
0.829526 0.386938 0.171542
0.853758 0.389776 0.180514
0.878355 0.393866 0.190646
0.903532 0.398840 0.202243
0.929717 0.405493 0.214908
0.179538 0.372015 0.118502
0.180728 0.371923 0.118837
0.184848 0.371527 0.118379
0.193240 0.370916 0.118471
0.205844 0.370153 0.118471
0.221561 0.369604 0.118410
0.240391 0.369512 0.118410
0.262272 0.369848 0.118715
0.285771 0.370886 0.119142
0.311498 0.372778 0.120119
0.339178 0.375463 0.120729
0.368597 0.378790 0.121859
0.398962 0.382605 0.123323
0.430091 0.386358 0.124666
0.461494 0.389593 0.125887
0.494362 0.393866 0.125063
0.525719 0.396063 0.124300
0.555138 0.396979 0.124361
0.583459 0.397650 0.129946
0.611597 0.398505 0.135592
0.639582 0.399664 0.140688
0.668055 0.401373 0.145327
0.696620 0.403418 0.151003
0.724758 0.405432 0.155764
0.751766 0.407111 0.160861
0.777707 0.408606 0.166842
0.802731 0.410346 0.173922
0.827268 0.412543 0.182101
0.852079 0.415595 0.191653
0.877317 0.419654 0.202029
0.903258 0.425177 0.214389
0.930297 0.432197 0.227817
0.189120 0.403845 0.124025
0.190799 0.403876 0.123964
0.194308 0.403784 0.124147
0.202335 0.403540 0.124025
0.214633 0.403265 0.124269
0.230838 0.403082 0.123964
0.249393 0.403479 0.124697
0.271061 0.404273 0.124849
0.294896 0.405554 0.125460
0.320500 0.407172 0.126040
0.347417 0.409155 0.127382
0.375799 0.411444 0.128389
0.404822 0.413794 0.129519
0.434302 0.416114 0.130861
0.464027 0.418128 0.132021
0.493782 0.419989 0.133455
0.525292 0.422919 0.133120
0.555718 0.424872 0.132509
0.584436 0.425299 0.133364
0.612238 0.425849 0.138521
0.640131 0.426917 0.145480
0.668391 0.428656 0.151736
0.696834 0.430640 0.158541
0.724392 0.432563 0.164920
0.750942 0.434211 0.172427
0.776791 0.435889 0.179080
0.801816 0.437476 0.186618
0.826596 0.439521 0.195041
0.851408 0.442420 0.204379
0.876463 0.446265 0.214908
0.902251 0.451301 0.226932
0.928985 0.457771 0.240208
0.199039 0.434730 0.130373
0.200076 0.434638 0.130648
0.203525 0.434607 0.130800
0.211704 0.434516 0.130831
0.223636 0.434424 0.130922
0.238590 0.434424 0.130770
0.256992 0.434791 0.131411
0.278050 0.435431 0.131594
0.301488 0.436378 0.132052
0.326635 0.437690 0.132692
0.352911 0.439338 0.134279
0.380468 0.441382 0.135256
0.408759 0.443427 0.136660
0.437629 0.445411 0.137972
0.466957 0.447150 0.139590
0.496254 0.448737 0.141268
0.525475 0.450233 0.142916
0.556237 0.452735 0.143191
0.586175 0.454322 0.143404
0.614130 0.454536 0.144778
0.642084 0.455390 0.149294
0.670008 0.456611 0.157565
0.697719 0.458289 0.165133
0.724697 0.459937 0.173220
0.750820 0.461433 0.181613
0.776150 0.462959 0.190738
0.800992 0.464668 0.199985
0.825925 0.466773 0.208621
0.850828 0.469642 0.218326
0.876188 0.473487 0.229099
0.902190 0.478553 0.241154
0.929107 0.485115 0.254795
0.209995 0.467292 0.139742
0.210880 0.467506 0.139528
0.221866 0.484596 0.145693
0.229191 0.484596 0.145846
0.240757 0.484443 0.145968
0.256321 0.484291 0.145846
0.274479 0.484260 0.146365
0.295567 0.484504 0.146883
0.318608 0.485145 0.147311
0.343999 0.486091 0.148318
0.370336 0.487312 0.149691
0.398108 0.488594 0.150729
0.426093 0.489815 0.152010
0.454658 0.490578 0.153719
0.483070 0.491218 0.154849
0.511650 0.491585 0.156161
0.540002 0.491676 0.157626
0.568292 0.491829 0.158968
0.597223 0.492439 0.159915
0.625727 0.492897 0.160769
0.652766 0.492134 0.162722
0.680049 0.492195 0.166445
0.705989 0.492317 0.176333
0.731228 0.492470 0.186038
0.755581 0.492500 0.194949
0.779324 0.492775 0.204257
0.802823 0.493507 0.213596
0.826505 0.495064 0.223850
0.850797 0.497475 0.233738
0.875914 0.501091 0.244327
0.901884 0.506035 0.256504
0.928923 0.512474 0.270207
0.223667 0.504417 0.151858
0.224796 0.506065 0.152682
0.229404 0.507713 0.153353
0.237247 0.509148 0.154269
0.248386 0.510124 0.154543
0.263066 0.510552 0.154879
0.280613 0.510613 0.155245
0.300847 0.510735 0.155612
0.322820 0.511192 0.156374
0.346929 0.511833 0.157107
0.372473 0.512779 0.158358
0.398901 0.513878 0.159640
0.426276 0.514824 0.160983
0.454017 0.515709 0.162539
0.482033 0.516350 0.163790
0.510246 0.516838 0.165652
0.538476 0.517327 0.167300
0.566796 0.517876 0.168643
0.595453 0.518578 0.170687
0.624201 0.519585 0.172274
0.652705 0.520287 0.174380
0.679866 0.520104 0.177432
0.706172 0.519707 0.181918
0.730861 0.519280 0.192782
0.754757 0.518975 0.203311
0.778134 0.518883 0.213718
0.801358 0.519402 0.223819
0.824887 0.520684 0.234562
0.848936 0.523156 0.245701
0.873777 0.527092 0.258488
0.899901 0.532067 0.270848
0.927184 0.538628 0.284794
0.233738 0.532830 0.162356
0.235996 0.534417 0.162814
0.239933 0.536187 0.163638
0.246921 0.537743 0.164889
0.257939 0.538903 0.165499
0.271824 0.539422 0.165866
0.287968 0.539544 0.166415
0.307347 0.539544 0.166842
0.328954 0.539757 0.167605
0.352056 0.540185 0.168063
0.376471 0.540887 0.169192
0.402289 0.541772 0.170504
0.428870 0.542596 0.171969
0.456153 0.543481 0.173495
0.483711 0.544152 0.174990
0.511498 0.544762 0.176425
0.539391 0.545159 0.178164
0.567498 0.545678 0.180209
0.595758 0.546471 0.182040
0.624292 0.547478 0.184543
0.652430 0.548211 0.187076
0.679500 0.548089 0.190707
0.705531 0.547417 0.195285
0.730709 0.546532 0.200900
0.754360 0.545739 0.211398
0.777401 0.545312 0.222843
0.800412 0.545525 0.233890
0.823728 0.546685 0.245426
0.847684 0.548974 0.257633
0.872465 0.552789 0.270787
0.898405 0.558129 0.284947
0.925597 0.564996 0.299901
0.245151 0.562493 0.174228
0.246555 0.563989 0.175021
0.250736 0.565545 0.175967
0.257511 0.566857 0.177005
0.267857 0.567926 0.177401
0.280735 0.568383 0.178286
0.296513 0.568505 0.178744
0.314885 0.568536 0.178775
0.335180 0.568780 0.179477
0.357824 0.569085 0.180453
0.381720 0.569665 0.181521
0.406500 0.570428 0.183078
0.432380 0.571160 0.184329
0.458961 0.571862 0.185977
0.486275 0.572564 0.187564
0.513603 0.573358 0.189517
0.541619 0.574304 0.191440
0.569970 0.575463 0.194186
0.598596 0.576959 0.197299
0.627710 0.578698 0.200534
0.657069 0.580774 0.204410
0.684810 0.581353 0.209659
0.710658 0.580652 0.215335
0.736110 0.580011 0.222171
0.760739 0.579278 0.229648
0.784390 0.578882 0.240330
0.807584 0.579309 0.253635
0.831144 0.580682 0.266575
0.855344 0.583368 0.280278
0.880461 0.587549 0.294621
0.906737 0.593347 0.309972
0.934295 0.600916 0.326696
0.263096 0.601556 0.194461
0.264225 0.602197 0.195041
0.267369 0.602594 0.195224
0.273167 0.602838 0.195621
0.282383 0.602899 0.196017
0.294316 0.602655 0.195926
0.309117 0.602472 0.196231
0.326390 0.602319 0.196689
0.346014 0.602380 0.197269
0.367437 0.602686 0.198367
0.390539 0.603113 0.199527
0.414893 0.603693 0.201266
0.440162 0.604181 0.202548
0.466163 0.604639 0.204288
0.492622 0.605066 0.205966
0.519402 0.605463 0.208286
0.546532 0.605921 0.210391
0.573999 0.606409 0.212924
0.601617 0.607172 0.215976
0.629572 0.608057 0.218845
0.657649 0.609094 0.222507
0.685725 0.610376 0.226658
0.711421 0.609491 0.231998
0.735042 0.607141 0.238132
0.759121 0.605859 0.245396
0.783108 0.605280 0.253269
0.807004 0.605402 0.263645
0.830564 0.606836 0.278080
0.854795 0.609583 0.292943
0.879911 0.613733 0.307866
0.906157 0.619562 0.323980
0.933837 0.627192 0.341131
0.277867 0.629572 0.211887
0.278721 0.629969 0.212406
0.281743 0.630365 0.212711
0.287572 0.630640 0.213138
0.295598 0.630732 0.213352
0.306523 0.630549 0.213748
0.320348 0.630365 0.214054
0.336706 0.630243 0.214420
0.355322 0.630274 0.215335
0.375799 0.630518 0.216251
0.397833 0.630823 0.217838
0.421118 0.631250 0.219211
0.445411 0.631678 0.221042
0.470527 0.632136 0.222934
0.496345 0.632563 0.225010
0.522545 0.632959 0.227329
0.549157 0.633539 0.229801
0.575982 0.634089 0.232822
0.603174 0.634821 0.235966
0.630457 0.635645 0.239445
0.658015 0.636713 0.243412
0.685512 0.637812 0.247776
0.713161 0.639033 0.252354
0.737850 0.637842 0.258305
0.756497 0.631037 0.260349
0.779995 0.629908 0.267735
0.804135 0.630030 0.276738
0.828489 0.631128 0.286809
0.852750 0.633845 0.302617
0.878019 0.638117 0.318914
0.904540 0.644221 0.336187
0.932586 0.652277 0.354192
0.299199 0.661067 0.236912
0.300633 0.661799 0.238010
0.303075 0.662074 0.238407
0.308049 0.661921 0.238376
0.315038 0.661433 0.237797
0.324468 0.660731 0.237583
0.336339 0.659907 0.237156
0.350530 0.659052 0.237064
0.367285 0.658289 0.236881
0.385931 0.657771 0.237369
0.406043 0.657252 0.237858
0.427771 0.657099 0.238987
0.450752 0.656855 0.240238
0.474311 0.656672 0.241459
0.498573 0.656428 0.242924
0.523247 0.656184 0.244755
0.548699 0.656092 0.246677
0.574487 0.656306 0.249332
0.600855 0.656916 0.252415
0.627497 0.657893 0.256443
0.654566 0.659022 0.260807
0.681605 0.660304 0.265293
0.708492 0.661402 0.269932
0.735134 0.662287 0.274388
0.758602 0.660456 0.279942
0.779843 0.657008 0.285985
0.802579 0.655879 0.293889
0.826658 0.656580 0.303105
0.851438 0.658595 0.313695
0.876555 0.662531 0.329900
0.902953 0.668605 0.347845
0.931151 0.676967 0.366613
0.315862 0.684138 0.256718
0.317174 0.684779 0.257511
0.319615 0.685206 0.258213
0.324071 0.685328 0.258427
0.330602 0.685176 0.258518
0.339513 0.684962 0.258671
0.350896 0.684718 0.259068
0.364721 0.684535 0.259312
0.380407 0.684474 0.260014
0.398230 0.684504 0.261021
0.417578 0.684474 0.262181
0.438300 0.684535 0.263432
0.460060 0.684535 0.265019
0.482765 0.684413 0.266514
0.505913 0.684138 0.268009
0.529656 0.683894 0.269657
0.554070 0.683711 0.271611
0.578943 0.683833 0.274083
0.604334 0.684291 0.277440
0.630335 0.685084 0.280949
0.656703 0.686183 0.285252
0.683131 0.687404 0.289891
0.709529 0.688655 0.294835
0.735866 0.689815 0.299779
0.761929 0.690913 0.304784
0.785153 0.689418 0.310796
0.806058 0.686458 0.317571
0.828855 0.686030 0.326238
0.853880 0.688411 0.337224
0.879881 0.692378 0.349493
0.906828 0.698634 0.366613
0.935180 0.707424 0.386389
0.338384 0.711208 0.282963
0.339178 0.711543 0.283299
0.341222 0.711696 0.283421
0.345129 0.711666 0.283604
0.350805 0.711513 0.283848
0.358770 0.711238 0.283787
0.368841 0.710933 0.283909
0.381201 0.710689 0.284215
0.395636 0.710506 0.284886
0.412024 0.710445 0.285679
0.430060 0.710353 0.286870
0.449439 0.710445 0.288090
0.470039 0.710445 0.289738
0.491463 0.710414 0.291081
0.513573 0.710201 0.292638
0.536217 0.709957 0.294285
0.559564 0.709804 0.296361
0.583612 0.709895 0.298741
0.608179 0.710353 0.301884
0.633387 0.711147 0.305577
0.658900 0.712245 0.309880
0.684688 0.713466 0.314397
0.710414 0.714626 0.319310
0.736172 0.715785 0.324224
0.761685 0.716854 0.329107
0.786984 0.717861 0.334173
0.809781 0.716609 0.340124
0.830320 0.713893 0.346868
0.853086 0.714168 0.355932
0.879362 0.718593 0.368719
0.906981 0.725032 0.383093
0.936126 0.734096 0.400916
0.360632 0.736843 0.308385
0.361303 0.737118 0.308629
0.363226 0.737331 0.309178
0.366918 0.737453 0.309392
0.372381 0.737575 0.310033
0.380102 0.737850 0.310765
0.390356 0.738491 0.312016
0.402869 0.739376 0.313817
0.417395 0.740475 0.316320
0.433906 0.741756 0.319066
0.452064 0.743191 0.322210
0.471351 0.744564 0.325261
0.491890 0.745785 0.328618
0.512779 0.746792 0.331487
0.534478 0.747494 0.334386
0.556420 0.747738 0.336675
0.578729 0.747951 0.338903
0.601740 0.748226 0.341741
0.625452 0.748836 0.345037
0.649836 0.749783 0.348882
0.674525 0.750973 0.353399
0.699550 0.752255 0.358099
0.724575 0.753475 0.362860
0.749630 0.754696 0.367681
0.774563 0.755795 0.372595
0.799435 0.756985 0.377752
0.824399 0.758114 0.382818
0.846983 0.757412 0.388983
0.867613 0.755550 0.396033
0.890593 0.756893 0.405493
0.918761 0.764187 0.420020
0.948638 0.773983 0.436500
0.398352 0.773098 0.349584
0.398749 0.773129 0.349706
0.400031 0.773037 0.349645
0.402594 0.772946 0.349615
0.407019 0.772793 0.349584
0.413336 0.772610 0.349828
0.421515 0.772580 0.350256
0.431739 0.772641 0.351080
0.443854 0.772854 0.352117
0.457771 0.773220 0.353552
0.473426 0.773617 0.355077
0.490333 0.774166 0.357031
0.508568 0.774685 0.359228
0.527733 0.775174 0.361486
