20 Preset/Street 2/【1】LRtemplate Lightroom bản cũ/Street 2/Tone 1 (9).lrtemplate
s = {
	id = "4ACD167F-09A7-4350-AF32-2F23C17C5645",
	internalName = "青橙风光-素材江湖27",
	title = "青橙风光-素材江湖27",
	type = "Develop",
	value = {
		settings = {
			AutoLateralCA = 0,
			Blacks2012 = -17,
			BlueHue = -22,
			BlueSaturation = 25,
			CameraProfile = "Adobe Standard",
			ChromaticAberrationB = 0,
			ChromaticAberrationR = 0,
			Clarity2012 = -20,
			ColorNoiseReduction = 25,
			ColorNoiseReductionDetail = 50,
			ColorNoiseReductionSmoothness = 50,
			Contrast2012 = 32,
			ConvertToGrayscale = false,
			CropConstrainToWarp = 0,
			Defringe = 0,
			DefringeGreenAmount = 0,
			DefringeGreenHueHi = 60,
			DefringeGreenHueLo = 40,
			DefringePurpleAmount = 0,
			DefringePurpleHueHi = 70,
			DefringePurpleHueLo = 30,
			Dehaze = 0,
			EnableCalibration = true,
			EnableColorAdjustments = true,
			EnableDetail = true,
			EnableEffects = true,
			EnableLensCorrections = true,
			EnableSplitToning = true,
			Exposure2012 = 0.15,
			GrainAmount = 0,
			GrainFrequency = 50,
			GrainSize = 25,
			GreenHue = 13,
			GreenSaturation = 15,
			Highlights2012 = -74,
			HueAdjustmentAqua = 10,
			HueAdjustmentBlue = -32,
			HueAdjustmentGreen = -76,
			HueAdjustmentMagenta = 20,
			HueAdjustmentOrange = 2,
			HueAdjustmentPurple = 20,
			HueAdjustmentRed = 15,
			HueAdjustmentYellow = -56,
			LensManualDistortionAmount = 0,
			LuminanceAdjustmentAqua = -35,
			LuminanceAdjustmentBlue = -43,
			LuminanceAdjustmentGreen = -31,
			LuminanceAdjustmentMagenta = -58,
			LuminanceAdjustmentOrange = -11,
			LuminanceAdjustmentPurple = -57,
			LuminanceAdjustmentRed = 0,
			LuminanceAdjustmentYellow = -15,
			LuminanceNoiseReductionContrast = 0,
			LuminanceNoiseReductionDetail = 50,
			LuminanceSmoothing = 7,
			ParametricDarks = 10,
			ParametricHighlightSplit = 75,
			ParametricHighlights = 20,
			ParametricLights = 10,
			ParametricMidtoneSplit = 48,
			ParametricShadowSplit = 14,
			ParametricShadows = 30,
			PostCropVignetteAmount = 0,
			PostCropVignetteFeather = 50,
			PostCropVignetteHighlightContrast = 0,
			PostCropVignetteMidpoint = 50,
			PostCropVignetteRoundness = 0,
			PostCropVignetteStyle = 1,
			ProcessVersion = "10.0",
			RedHue = 35,
			RedSaturation = 50,
			Saturation = 4,
			SaturationAdjustmentAqua = -92,
			SaturationAdjustmentBlue = -85,
			SaturationAdjustmentGreen = -88,
			SaturationAdjustmentMagenta = -71,
			SaturationAdjustmentOrange = -77,
			SaturationAdjustmentPurple = -59,
			SaturationAdjustmentRed = -38,
			SaturationAdjustmentYellow = -36,
			ShadowTint = -2,
			Shadows2012 = 59,
			SharpenDetail = 25,
			SharpenEdgeMasking = 67,
			SharpenRadius = 1,
			Sharpness = 19,
			SplitToningBalance = 0,
			SplitToningHighlightHue = 40,
			SplitToningHighlightSaturation = 17,
			SplitToningShadowHue = 186,
			SplitToningShadowSaturation = 11,
			ToneCurveName2012 = "Custom",
			ToneCurvePV2012 = {
				0,
				23,
				41,
				48,
				176,
				180,
				255,
				253,
			},
			ToneCurvePV2012Blue = {
				0,
				0,
				32,
				19,
				78,
				66,
				113,
				117,
				174,
				198,
				255,
				255,
			},
			ToneCurvePV2012Green = {
				0,
				0,
				32,
				17,
				79,
				65,
				115,
				119,
				177,
				204,
				255,
				255,
			},
			ToneCurvePV2012Red = {
				0,
				0,
				27,
				11,
				81,
				64,
				116,
				122,
				175,
				201,
				255,
				255,
			},
			Vibrance = 23,
			VignetteAmount = 0,
			VignetteMidpoint = 50,
			WhiteBalance = "As Shot",
			Whites2012 = -62,
		},
		uuid = "0FC12E5E-F932-4852-BFDD-A52442D35AD6",
	},
	version = 0,
}
