20 Preset/Dark Portrait/【1】LRtemplate Lightroom bản cũ/Tone  (14).lrtemplate
s = {
	id = "C9B3A077-1CFD-4590-BDCA-C323922E22EF",
	internalName = "Milestone_08",
	title = "Milestone_08",
	type = "Develop",
	value = {
		settings = {
			AutoLateralCA = 0,
			Blacks2012 = -10,
			BlueHue = -100,
			BlueSaturation = 45,
			CameraProfile = "Camera Standard",
			ChromaticAberrationB = 0,
			ChromaticAberrationR = 0,
			Clarity2012 = 18,
			ColorNoiseReduction = 25,
			ColorNoiseReductionDetail = 50,
			ColorNoiseReductionSmoothness = 50,
			Contrast2012 = 45,
			ConvertToGrayscale = false,
			CropConstrainToWarp = 0,
			Defringe = 0,
			DefringeGreenAmount = 0,
			DefringeGreenHueHi = 60,
			DefringeGreenHueLo = 40,
			DefringePurpleAmount = 0,
			DefringePurpleHueHi = 70,
			DefringePurpleHueLo = 30,
			Dehaze = 0,
			EnableCalibration = true,
			EnableCircularGradientBasedCorrections = true,
			EnableColorAdjustments = true,
			EnableDetail = true,
			EnableEffects = true,
			EnableGradientBasedCorrections = true,
			EnableLensCorrections = true,
			EnableSplitToning = true,
			Exposure2012 = -0.6,
			GrainAmount = 0,
			GrainFrequency = 50,
			GrainSize = 25,
			GreenHue = 76,
			GreenSaturation = -15,
			Highlights2012 = -75,
			HueAdjustmentAqua = 0,
			HueAdjustmentBlue = 0,
			HueAdjustmentGreen = 0,
			HueAdjustmentMagenta = 0,
			HueAdjustmentOrange = 0,
			HueAdjustmentPurple = 0,
			HueAdjustmentRed = 0,
			HueAdjustmentYellow = 0,
			LensManualDistortionAmount = 0,
			LensProfileEnable = 1,
			LensProfileSetup = "LensDefaults",
			LuminanceAdjustmentAqua = -10,
			LuminanceAdjustmentBlue = -24,
			LuminanceAdjustmentGreen = 5,
			LuminanceAdjustmentMagenta = -15,
			LuminanceAdjustmentOrange = 37,
			LuminanceAdjustmentPurple = 0,
			LuminanceAdjustmentRed = -60,
			LuminanceAdjustmentYellow = -32,
			LuminanceNoiseReductionContrast = 0,
			LuminanceNoiseReductionDetail = 50,
			LuminanceSmoothing = 0,
			ParametricDarks = 14,
			ParametricHighlightSplit = 87,
			ParametricHighlights = 11,
			ParametricLights = 0,
			ParametricMidtoneSplit = 50,
			ParametricShadowSplit = 10,
			ParametricShadows = -81,
			PostCropVignetteAmount = -39,
			PostCropVignetteFeather = 100,
			PostCropVignetteHighlightContrast = 86,
			PostCropVignetteMidpoint = 37,
			PostCropVignetteRoundness = 82,
			PostCropVignetteStyle = 1,
			ProcessVersion = "6.7",
			RedHue = 73,
			RedSaturation = 5,
			Saturation = -31,
			SaturationAdjustmentAqua = -35,
			SaturationAdjustmentBlue = -59,
			SaturationAdjustmentGreen = -30,
			SaturationAdjustmentMagenta = 0,
			SaturationAdjustmentOrange = -11,
			SaturationAdjustmentPurple = 0,
			SaturationAdjustmentRed = 40,
			SaturationAdjustmentYellow = 6,
			ShadowTint = -40,
			Shadows2012 = 100,
			SharpenDetail = 70,
			SharpenEdgeMasking = 0,
			SharpenRadius = 1.8,
			Sharpness = 50,
			SplitToningBalance = 0,
			SplitToningHighlightHue = 55,
			SplitToningHighlightSaturation = 10,
			SplitToningShadowHue = 360,
			SplitToningShadowSaturation = 5,
			Temperature = 5419,
			Tint = 2,
			ToneCurveName2012 = "Custom",
			ToneCurvePV2012 = {
				0,
				21,
				47,
				42,
				193,
				193,
				255,
				253,
			},
			ToneCurvePV2012Blue = {
				0,
				0,
				255,
				255,
			},
			ToneCurvePV2012Green = {
				0,
				0,
				255,
				255,
			},
			ToneCurvePV2012Red = {
				0,
				0,
				75,
				78,
				203,
				199,
				255,
				255,
			},
			Vibrance = -34,
			VignetteAmount = 0,
			VignetteMidpoint = 50,
			WhiteBalance = "Custom",
			Whites2012 = -30,
			orientation = "AB",
		},
		uuid = "DD6D34B0-7BAB-42A6-84AD-9302A1AE65DF",
	},
	version = 0,
}
