20 Preset/Dark Portrait/【1】LRtemplate Lightroom bản cũ/Tone  (1).lrtemplate
s = {
	id = "41DC914B-8CB6-4DE0-B251-B0234AADE03D",
	internalName = "Candy_01",
	title = "Candy_01",
	type = "Develop",
	value = {
		settings = {
			AutoLateralCA = 1,
			Blacks2012 = -11,
			BlueHue = -77,
			BlueSaturation = -76,
			CameraProfile = "Camera Standard",
			ChromaticAberrationB = 0,
			ChromaticAberrationR = 0,
			Clarity2012 = 52,
			ColorNoiseReduction = 25,
			ColorNoiseReductionDetail = 50,
			ColorNoiseReductionSmoothness = 50,
			Contrast2012 = 48,
			ConvertToGrayscale = false,
			CropConstrainToWarp = 0,
			Defringe = 0,
			DefringeGreenAmount = 0,
			DefringeGreenHueHi = 60,
			DefringeGreenHueLo = 40,
			DefringePurpleAmount = 0,
			DefringePurpleHueHi = 70,
			DefringePurpleHueLo = 30,
			Dehaze = 0,
			EnableCalibration = true,
			EnableCircularGradientBasedCorrections = true,
			EnableColorAdjustments = true,
			EnableDetail = true,
			EnableEffects = true,
			EnableGradientBasedCorrections = true,
			EnableLensCorrections = true,
			EnableSplitToning = true,
			EnableTransform = true,
			Exposure2012 = 0,
			GrainAmount = 0,
			GrainFrequency = 50,
			GrainSize = 25,
			GreenHue = 57,
			GreenSaturation = -71,
			Highlights2012 = -49,
			HueAdjustmentAqua = 0,
			HueAdjustmentBlue = -3,
			HueAdjustmentGreen = 0,
			HueAdjustmentMagenta = 0,
			HueAdjustmentOrange = 0,
			HueAdjustmentPurple = 0,
			HueAdjustmentRed = 0,
			HueAdjustmentYellow = 0,
			LensManualDistortionAmount = 0,
			LensProfileEnable = 1,
			LensProfileSetup = "LensDefaults",
			LuminanceAdjustmentAqua = -10,
			LuminanceAdjustmentBlue = 86,
			LuminanceAdjustmentGreen = 3,
			LuminanceAdjustmentMagenta = 0,
			LuminanceAdjustmentOrange = 94,
			LuminanceAdjustmentPurple = 0,
			LuminanceAdjustmentRed = -61,
			LuminanceAdjustmentYellow = -1,
			LuminanceNoiseReductionContrast = 0,
			LuminanceNoiseReductionDetail = 50,
			LuminanceSmoothing = 0,
			ParametricDarks = 14,
			ParametricHighlightSplit = 87,
			ParametricHighlights = 11,
			ParametricLights = 0,
			ParametricMidtoneSplit = 50,
			ParametricShadowSplit = 10,
			ParametricShadows = -81,
			PerspectiveAspect = 0,
			PerspectiveHorizontal = 0,
			PerspectiveRotate = 0,
			PerspectiveScale = 100,
			PerspectiveUpright = 0,
			PerspectiveVertical = 0,
			PerspectiveX = 0,
			PerspectiveY = 0,
			PostCropVignetteAmount = -30,
			PostCropVignetteFeather = 100,
			PostCropVignetteHighlightContrast = 0,
			PostCropVignetteMidpoint = 32,
			PostCropVignetteRoundness = -32,
			PostCropVignetteStyle = 1,
			ProcessVersion = "6.7",
			RedHue = 51,
			RedSaturation = 22,
			Saturation = -50,
			SaturationAdjustmentAqua = 16,
			SaturationAdjustmentBlue = 51,
			SaturationAdjustmentGreen = -39,
			SaturationAdjustmentMagenta = 0,
			SaturationAdjustmentOrange = 0,
			SaturationAdjustmentPurple = 0,
			SaturationAdjustmentRed = 37,
			SaturationAdjustmentYellow = -15,
			ShadowTint = 31,
			Shadows2012 = 65,
			SharpenDetail = 82,
			SharpenEdgeMasking = 6,
			SharpenRadius = 2.1,
			Sharpness = 74,
			SplitToningBalance = -2,
			SplitToningHighlightHue = 56,
			SplitToningHighlightSaturation = 13,
			SplitToningShadowHue = 356,
			SplitToningShadowSaturation = 6,
			Temperature = 5363,
			Tint = -4,
			ToneCurveName2012 = "Custom",
			ToneCurvePV2012 = {
				0,
				20,
				47,
				42,
				193,
				193,
				255,
				253,
			},
			ToneCurvePV2012Blue = {
				0,
				0,
				255,
				255,
			},
			ToneCurvePV2012Green = {
				0,
				0,
				255,
				255,
			},
			ToneCurvePV2012Red = {
				0,
				0,
				75,
				78,
				203,
				199,
				255,
				255,
			},
			UprightCenterMode = 0,
			UprightCenterNormX = 0.5,
			UprightCenterNormY = 0.5,
			UprightFocalLength35mm = 35,
			UprightFocalMode = 0,
			UprightFourSegmentsCount = 0,
			UprightPreview = false,
			UprightTransformCount = 6,
			UprightVersion = 151388160,
			Vibrance = 72,
			VignetteAmount = -7,
			VignetteMidpoint = 10,
			WhiteBalance = "Custom",
			Whites2012 = -47,
			orientation = "AB",
		},
		uuid = "A6E2F2B3-F08F-4CFC-88A7-C4B61661959F",
	},
	version = 0,
}
