20 Preset/Dark Portrait/【1】LRtemplate Lightroom bản cũ/Tone  (8).lrtemplate
s = {
	id = "C079A1EC-E1C7-4C26-AC04-84776B6ACD29",
	internalName = "Horizon_03",
	title = "Horizon_03",
	type = "Develop",
	value = {
		settings = {
			AutoLateralCA = 1,
			Blacks2012 = -38,
			BlueHue = -77,
			BlueSaturation = -64,
			CameraProfile = "Camera Standard",
			ChromaticAberrationB = 0,
			ChromaticAberrationR = 0,
			Clarity2012 = 37,
			ColorNoiseReduction = 25,
			ColorNoiseReductionDetail = 50,
			ColorNoiseReductionSmoothness = 50,
			Contrast2012 = 0,
			ConvertToGrayscale = false,
			CropConstrainToWarp = 0,
			Defringe = 0,
			DefringeGreenAmount = 0,
			DefringeGreenHueHi = 60,
			DefringeGreenHueLo = 40,
			DefringePurpleAmount = 0,
			DefringePurpleHueHi = 70,
			DefringePurpleHueLo = 30,
			Dehaze = 0,
			EnableCalibration = true,
			EnableCircularGradientBasedCorrections = true,
			EnableColorAdjustments = true,
			EnableDetail = true,
			EnableEffects = true,
			EnableGradientBasedCorrections = true,
			EnableLensCorrections = true,
			EnableSplitToning = true,
			EnableTransform = true,
			Exposure2012 = 0.05,
			GrainAmount = 0,
			GrainFrequency = 50,
			GrainSize = 25,
			GreenHue = 40,
			GreenSaturation = 100,
			Highlights2012 = -66,
			HueAdjustmentAqua = 0,
			HueAdjustmentBlue = -3,
			HueAdjustmentGreen = 0,
			HueAdjustmentMagenta = 0,
			HueAdjustmentOrange = 0,
			HueAdjustmentPurple = 0,
			HueAdjustmentRed = 0,
			HueAdjustmentYellow = 0,
			LensManualDistortionAmount = 0,
			LensProfileEnable = 1,
			LensProfileSetup = "LensDefaults",
			LuminanceAdjustmentAqua = -10,
			LuminanceAdjustmentBlue = 45,
			LuminanceAdjustmentGreen = 3,
			LuminanceAdjustmentMagenta = 0,
			LuminanceAdjustmentOrange = 37,
			LuminanceAdjustmentPurple = 0,
			LuminanceAdjustmentRed = -61,
			LuminanceAdjustmentYellow = 63,
			LuminanceNoiseReductionContrast = 0,
			LuminanceNoiseReductionDetail = 50,
			LuminanceSmoothing = 0,
			ParametricDarks = 14,
			ParametricHighlightSplit = 87,
			ParametricHighlights = 11,
			ParametricLights = 0,
			ParametricMidtoneSplit = 50,
			ParametricShadowSplit = 10,
			ParametricShadows = -81,
			PerspectiveAspect = 0,
			PerspectiveHorizontal = 0,
			PerspectiveRotate = 0,
			PerspectiveScale = 100,
			PerspectiveUpright = 0,
			PerspectiveVertical = 0,
			PerspectiveX = 0,
			PerspectiveY = 0,
			PostCropVignetteAmount = -38,
			PostCropVignetteFeather = 100,
			PostCropVignetteHighlightContrast = 86,
			PostCropVignetteMidpoint = 35,
			PostCropVignetteRoundness = 100,
			PostCropVignetteStyle = 1,
			ProcessVersion = "6.7",
			RedHue = 42,
			RedSaturation = -31,
			Saturation = -56,
			SaturationAdjustmentAqua = -36,
			SaturationAdjustmentBlue = -42,
			SaturationAdjustmentGreen = 0,
			SaturationAdjustmentMagenta = 0,
			SaturationAdjustmentOrange = 0,
			SaturationAdjustmentPurple = 0,
			SaturationAdjustmentRed = 9,
			SaturationAdjustmentYellow = 0,
			ShadowTint = -39,
			Shadows2012 = 73,
			SharpenDetail = 53,
			SharpenEdgeMasking = 0,
			SharpenRadius = 1.7,
			Sharpness = 61,
			SplitToningBalance = -2,
			SplitToningHighlightHue = 56,
			SplitToningHighlightSaturation = 13,
			SplitToningShadowHue = 356,
			SplitToningShadowSaturation = 6,
			Temperature = 4614,
			Tint = -20,
			ToneCurveName2012 = "Custom",
			ToneCurvePV2012 = {
				0,
				21,
				47,
				42,
				193,
				193,
				255,
				253,
			},
			ToneCurvePV2012Blue = {
				0,
				0,
				255,
				255,
			},
			ToneCurvePV2012Green = {
				0,
				0,
				255,
				255,
			},
			ToneCurvePV2012Red = {
				0,
				0,
				75,
				78,
				203,
				199,
				255,
				255,
			},
			UprightCenterMode = 0,
			UprightCenterNormX = 0.5,
			UprightCenterNormY = 0.5,
			UprightFocalLength35mm = 35,
			UprightFocalMode = 0,
			UprightFourSegmentsCount = 0,
			UprightPreview = false,
			UprightTransformCount = 6,
			UprightVersion = 151388160,
			Vibrance = 31,
			VignetteAmount = -7,
			VignetteMidpoint = 10,
			WhiteBalance = "Custom",
			Whites2012 = 22,
			orientation = "AB",
		},
		uuid = "F33B2DDE-5B8F-4D13-B2A1-D3AEEEA9E537",
	},
	version = 0,
}
