20 Preset/Food Style/【3】LUT video cho PR-AE-FCPX/Food Style Tone (13).cube
# Created by Adobe Lightroom plugin Export LUT (1.24.0)
# www.johnrellis.com/lightroom/exportlut.htm
# Preset: 静谧咖啡-素材江湖09
# Color profile: E:\lut插件\exportlut.1.24\exportlut.lrplugin\color profiles\Rec709gamma2.4.icc
LUT_3D_SIZE 8
DOMAIN_MIN 0.000000 0.000000 0.000000
DOMAIN_MAX 0.903226 0.903226 0.903226
0.048188 0.067689 0.135317
0.089235 0.077577 0.136721
0.164584 0.091707 0.140963
0.320653 0.090700 0.142885
0.557885 0.000000 0.139803
0.790311 0.088624 0.131624
0.923308 0.279454 0.137057
1.000000 0.418647 0.184848
0.037079 0.097627 0.139742
0.083528 0.100252 0.138857
0.158541 0.113008 0.143557
0.309178 0.124392 0.144472
0.541253 0.105470 0.141543
0.767056 0.146761 0.134493
0.904112 0.284062 0.137575
0.990082 0.418341 0.180575
0.000000 0.181277 0.149233
0.000000 0.183078 0.148928
0.148531 0.204410 0.140841
0.341314 0.242435 0.150332
0.583703 0.266941 0.149172
0.789761 0.322850 0.147341
0.915831 0.417273 0.172427
0.993347 0.506371 0.236515
0.000000 0.362860 0.158755
0.000000 0.362799 0.156497
0.000000 0.370153 0.155612
0.367193 0.427100 0.097566
0.669337 0.485878 0.137514
0.813443 0.530297 0.231113
0.908995 0.563592 0.267582
0.980652 0.607263 0.328649
0.000000 0.575586 0.201633
0.000000 0.575647 0.196353
0.000000 0.578485 0.201114
0.319799 0.592401 0.188113
0.623621 0.611658 0.092958
0.806577 0.646204 0.205722
0.889891 0.677638 0.373663
0.960296 0.707698 0.454994
0.000000 0.726436 0.324041
0.000000 0.731685 0.325017
0.000000 0.729458 0.329442
0.393683 0.725551 0.339605
0.605890 0.730434 0.314397
0.774807 0.742153 0.266087
0.894926 0.770748 0.368658
0.957244 0.791775 0.530602
0.108614 0.830686 0.486183
0.162112 0.831693 0.482551
0.337713 0.828824 0.484291
0.496468 0.825101 0.490883
0.628382 0.821622 0.493721
0.746426 0.828580 0.469398
0.859922 0.838346 0.437140
0.958526 0.859373 0.516258
0.510491 0.916747 0.647425
0.512505 0.916899 0.643854
0.551812 0.916350 0.646448
0.617517 0.916075 0.654017
0.678920 0.907286 0.644800
0.757809 0.911803 0.647272
0.843137 0.919768 0.634668
0.935180 0.925689 0.609918
0.036927 0.076997 0.147768
0.087434 0.077272 0.148409
0.158755 0.087434 0.149874
0.296574 0.096284 0.156130
0.524376 0.006165 0.158236
0.749630 0.045686 0.158419
0.892180 0.241001 0.163699
0.981994 0.386297 0.195254
0.030182 0.099153 0.150790
0.080629 0.101167 0.151675
0.156008 0.112886 0.155154
0.299870 0.125826 0.158785
0.526421 0.114656 0.160220
0.746059 0.143740 0.160128
0.883909 0.262760 0.164828
0.974365 0.393530 0.194797
0.000000 0.180667 0.166201
0.000000 0.184268 0.164218
0.148318 0.201633 0.158206
0.325414 0.239078 0.173861
0.559197 0.259098 0.172457
0.760433 0.301579 0.174014
0.889006 0.381720 0.188052
0.975525 0.477821 0.235416
0.000000 0.349920 0.188113
0.000000 0.351965 0.179751
0.000000 0.360601 0.179904
0.336980 0.400427 0.143191
0.617914 0.447120 0.175143
0.776272 0.490852 0.232395
0.884398 0.529046 0.257969
0.964050 0.581292 0.312718
0.000000 0.567376 0.242557
0.000000 0.566766 0.225345
0.000000 0.567132 0.222721
0.298985 0.575189 0.212680
0.598322 0.591272 0.143313
0.788479 0.628016 0.224735
0.877531 0.663874 0.375463
0.950988 0.694789 0.445167
0.000000 0.715785 0.345556
0.000000 0.716762 0.333745
0.000000 0.716030 0.331975
0.372595 0.714046 0.343145
0.593164 0.720485 0.323766
0.767330 0.734981 0.283391
0.888060 0.763973 0.378576
0.950866 0.785489 0.530297
0.103609 0.822232 0.490700
0.103731 0.821500 0.481331
0.299107 0.819120 0.476265
0.477607 0.816251 0.484291
0.619684 0.814664 0.493050
0.739620 0.821805 0.469276
0.852689 0.830381 0.434028
0.951324 0.851347 0.508598
0.502800 0.911040 0.645136
0.508019 0.912108 0.643671
0.540642 0.911803 0.641871
0.609155 0.911620 0.649561
0.685603 0.911009 0.658869
0.759579 0.912749 0.656336
0.841917 0.918639 0.638911
0.933745 0.924498 0.614069
0.000000 0.092744 0.196353
0.003662 0.089723 0.199680
0.163607 0.087007 0.204288
0.326482 0.065431 0.204532
0.532250 0.000000 0.208713
0.754757 0.006226 0.228916
0.894652 0.251926 0.250126
0.982940 0.397681 0.286656
0.000000 0.117647 0.201175
0.003113 0.114137 0.204990
0.165835 0.112215 0.209842
0.321599 0.115389 0.208865
0.531121 0.065187 0.214664
0.748409 0.141604 0.232792
0.886931 0.272709 0.250248
0.976776 0.406561 0.285893
0.000000 0.195254 0.223667
0.000000 0.198611 0.224918
0.154269 0.210239 0.229648
0.336309 0.233707 0.235904
0.573205 0.258030 0.245731
0.765225 0.305425 0.257481
0.888457 0.386542 0.276982
0.972412 0.480293 0.317815
0.000000 0.365850 0.262333
0.000000 0.369757 0.264012
0.000000 0.385321 0.265232
0.367285 0.413458 0.251865
0.623651 0.461891 0.303807
0.779507 0.496315 0.324468
0.884794 0.536461 0.347143
0.962768 0.587671 0.389776
0.000000 0.572961 0.331548
0.000000 0.573754 0.332097
0.000000 0.578271 0.323705
0.350774 0.582635 0.326329
0.615930 0.601007 0.288334
0.786648 0.633692 0.354925
0.871061 0.671168 0.462684
0.947387 0.696864 0.497871
0.000000 0.715602 0.426581
0.000000 0.716121 0.428687
0.000000 0.716854 0.413581
0.398718 0.714015 0.416266
0.597528 0.717830 0.408026
0.763546 0.732967 0.379919
0.880339 0.762600 0.461067
0.944396 0.789578 0.587182
0.282170 0.822782 0.552361
0.317266 0.821408 0.552697
0.361975 0.820279 0.533867
0.496895 0.817044 0.533532
0.628138 0.814145 0.542901
0.740688 0.822293 0.525750
0.852110 0.833341 0.501061
0.949462 0.855589 0.570947
0.537041 0.909697 0.680781
0.544305 0.909087 0.679957
0.552361 0.910155 0.667079
0.614191 0.911589 0.672480
0.688289 0.911009 0.680385
0.762600 0.913298 0.683253
0.842954 0.919890 0.668696
0.933227 0.925933 0.646448
0.000000 0.111940 0.315618
0.000000 0.103670 0.322118
0.042603 0.100160 0.336706
0.349187 0.013214 0.342718
0.595972 0.000000 0.333288
0.762325 0.000000 0.329046
0.876249 0.124544 0.331212
0.969574 0.346532 0.371466
0.000000 0.146517 0.328008
0.000000 0.139620 0.332525
0.045228 0.129183 0.345312
0.359960 0.105043 0.351751
0.601556 0.084565 0.341588
0.760433 0.019318 0.333745
0.875456 0.191775 0.338598
0.967437 0.369574 0.377569
0.000000 0.236637 0.345006
0.000000 0.239658 0.346593
0.000000 0.238499 0.359075
0.370855 0.231815 0.368688
0.603265 0.251469 0.363439
0.759396 0.255802 0.357244
0.885344 0.365209 0.386236
0.967742 0.467506 0.419471
0.000000 0.392096 0.393408
0.000000 0.394415 0.394293
0.000000 0.405219 0.399756
0.390692 0.419959 0.410803
0.607782 0.438636 0.414893
0.763516 0.470466 0.423346
0.872496 0.517479 0.441047
0.954223 0.574914 0.472267
0.000000 0.590356 0.458625
0.000000 0.589990 0.458381
0.000000 0.592065 0.462409
0.415351 0.598413 0.470375
0.632258 0.611536 0.458381
0.777066 0.644404 0.515709
0.864744 0.669642 0.545281
0.941405 0.695216 0.566522
0.000000 0.726467 0.531548
0.000000 0.729976 0.537255
0.233860 0.727321 0.538811
0.465949 0.726619 0.538537
0.624079 0.726009 0.539696
0.764126 0.738308 0.517052
0.869932 0.766018 0.579919
0.934600 0.797787 0.667353
0.265293 0.825956 0.610315
0.309911 0.825834 0.612360
0.433204 0.824002 0.619501
0.543114 0.823301 0.619379
0.649378 0.821256 0.622522
0.746487 0.826291 0.614893
0.849607 0.836301 0.593774
0.943633 0.858488 0.649714
0.512932 0.915312 0.709621
0.526909 0.914824 0.711177
0.578637 0.913298 0.718349
0.628016 0.913695 0.716121
0.693751 0.913146 0.718746
0.766995 0.913634 0.725246
0.843595 0.921019 0.713313
0.932799 0.928405 0.696529
0.000000 0.149905 0.492134
0.000000 0.139467 0.497475
0.000000 0.132631 0.508629
0.297093 0.082673 0.529900
0.627100 0.000000 0.533165
0.810117 0.164157 0.516686
0.897490 0.244541 0.495674
0.968170 0.328161 0.491676
0.000000 0.192233 0.501335
0.000000 0.182101 0.506645
0.000000 0.163180 0.517052
0.305547 0.133700 0.533898
0.631556 0.000000 0.537835
0.808713 0.217075 0.520775
0.894652 0.273014 0.498756
0.965576 0.344762 0.493599
0.000000 0.297826 0.511986
0.000000 0.297337 0.515129
0.000000 0.282963 0.526116
0.321813 0.261082 0.544671
0.632715 0.252995 0.545922
0.788785 0.329351 0.524102
0.879545 0.354620 0.504967
0.953246 0.393927 0.495369
0.000000 0.434089 0.538811
0.000000 0.436103 0.539452
0.000000 0.445350 0.543694
0.361089 0.446906 0.559167
0.635035 0.443061 0.568292
0.769711 0.469581 0.547021
0.860838 0.467933 0.525048
0.943023 0.521691 0.534966
0.000000 0.591608 0.577600
0.000000 0.592767 0.578668
0.000000 0.595270 0.581201
0.399878 0.598138 0.586358
0.625757 0.602747 0.593164
0.750484 0.611475 0.589776
0.847959 0.631495 0.593286
0.930358 0.662654 0.606867
0.000000 0.717250 0.613672
0.000000 0.717556 0.614435
0.000000 0.715511 0.614160
0.431495 0.713161 0.616846
0.622004 0.714656 0.625330
0.752743 0.730617 0.625299
0.851408 0.763210 0.677485
0.924712 0.786435 0.706233
0.000000 0.825772 0.672572
0.166903 0.824552 0.671626
0.340948 0.821592 0.670893
0.520104 0.819638 0.679225
0.651789 0.819547 0.687404
0.743862 0.821256 0.688136
0.841154 0.831998 0.671412
0.931701 0.853788 0.715572
0.368078 0.914458 0.727077
0.394690 0.913725 0.728115
0.482460 0.911406 0.733303
0.601923 0.911284 0.749691
0.688777 0.911131 0.756954
0.762997 0.911498 0.761563
0.838560 0.917357 0.756100
0.926940 0.924895 0.740505
0.000000 0.217502 0.664302
0.000000 0.206729 0.667170
0.000000 0.185428 0.671870
0.200473 0.169345 0.684779
0.617243 0.000000 0.703395
0.821775 0.124849 0.694606
0.913298 0.359014 0.667323
0.974426 0.452094 0.655604
0.000000 0.253178 0.658869
0.000000 0.242374 0.660395
0.000000 0.210391 0.666529
0.199680 0.199191 0.678706
0.606500 0.089998 0.695644
0.813260 0.177890 0.688624
0.906706 0.372503 0.663111
0.969543 0.456031 0.651881
0.000000 0.366918 0.668727
0.000000 0.365606 0.670497
0.000000 0.346654 0.678828
0.247135 0.311955 0.686244
0.610895 0.285130 0.699763
0.807584 0.331884 0.694331
0.896056 0.457374 0.671412
0.960357 0.504051 0.658930
0.000000 0.506859 0.679103
0.000000 0.507164 0.678492
0.000000 0.509606 0.682521
0.361517 0.498970 0.699214
0.618280 0.480507 0.713619
0.798550 0.504082 0.711299
0.880369 0.574975 0.693446
0.947539 0.579217 0.675288
0.000000 0.620111 0.691402
0.000000 0.620203 0.691524
0.000000 0.621118 0.692592
0.406958 0.623896 0.695949
0.610285 0.623316 0.706111
0.769131 0.625513 0.712673
0.852476 0.641993 0.694209
0.926970 0.629114 0.670680
0.000000 0.725490 0.713832
0.000000 0.726925 0.715846
0.159091 0.725765 0.716457
0.440040 0.724605 0.718227
0.616449 0.724849 0.721187
0.752895 0.733852 0.731075
0.838376 0.741238 0.728817
0.920867 0.754971 0.731136
0.000000 0.828794 0.753201
0.138552 0.829404 0.754482
0.329412 0.828611 0.755337
0.491615 0.827878 0.757290
0.634211 0.826322 0.759854
0.750362 0.827176 0.765591
0.840024 0.835416 0.758694
0.925505 0.860105 0.797421
0.248753 0.918578 0.786770
0.279362 0.917693 0.786069
0.383215 0.915770 0.785763
0.513329 0.914275 0.787991
0.644709 0.912047 0.794614
0.758236 0.911711 0.807187
0.836454 0.915068 0.809751
0.923278 0.923766 0.796872
0.000000 0.304051 0.786191
0.000000 0.294835 0.788357
0.000000 0.256901 0.792172
0.000000 0.250553 0.798001
0.567742 0.208835 0.805295
0.799619 0.163729 0.814755
0.917845 0.334234 0.801877
0.969360 0.495644 0.769650
0.000000 0.333806 0.781369
0.000000 0.325444 0.783871
0.000000 0.279759 0.788266
0.000000 0.272038 0.793057
0.560327 0.238102 0.800046
0.791226 0.201816 0.808774
0.910582 0.343175 0.795438
0.963348 0.494545 0.763455
0.000000 0.437385 0.783749
0.000000 0.435920 0.784665
0.000000 0.410651 0.788083
0.147036 0.367620 0.794339
0.564416 0.352117 0.799954
0.782925 0.343359 0.808865
0.902678 0.435187 0.799466
0.957488 0.554955 0.773007
0.000000 0.557122 0.784817
0.000000 0.555108 0.784695
0.000000 0.550195 0.786770
0.334478 0.531334 0.794186
0.568597 0.502739 0.801999
0.766903 0.503716 0.811643
0.887327 0.554162 0.805936
0.946319 0.631525 0.784848
0.000000 0.652033 0.787015
0.000000 0.650690 0.786007
0.000000 0.648829 0.785061
0.386481 0.647547 0.786313
0.585840 0.639246 0.796689
0.739223 0.628717 0.807614
0.864591 0.650965 0.807095
0.934936 0.704158 0.797696
0.000000 0.740505 0.799832
0.000000 0.740383 0.800076
0.137575 0.739315 0.800565
0.423285 0.738125 0.801602
0.597925 0.738582 0.802884
0.731502 0.742092 0.812863
0.850126 0.748409 0.821134
0.923003 0.758480 0.805814
0.000000 0.826230 0.822080
0.089754 0.826474 0.822751
0.310155 0.825437 0.823087
0.474098 0.824399 0.824338
0.611627 0.823789 0.825742
0.729152 0.826078 0.828794
0.836240 0.833280 0.835569
0.914214 0.835233 0.829404
0.156069 0.916014 0.851041
0.213687 0.915984 0.851347
0.349676 0.916625 0.853330
0.483162 0.916381 0.854704
0.606806 0.916411 0.856199
0.724788 0.916167 0.858335
0.837461 0.916899 0.865507
0.922118 0.924285 0.860136
0.000000 0.422522 0.886351
0.000000 0.414771 0.887510
0.000000 0.372625 0.889647
0.103182 0.356909 0.892638
0.557519 0.344305 0.895842
0.763241 0.340551 0.899992
0.904143 0.375402 0.904173
0.989960 0.501244 0.892088
0.000000 0.444831 0.883055
0.000000 0.437507 0.884337
0.000000 0.398505 0.887144
0.107332 0.373877 0.890288
0.553918 0.362371 0.893523
0.759060 0.358770 0.897734
0.900114 0.387427 0.901732
0.986297 0.505791 0.889433
0.000000 0.523827 0.879423
0.000000 0.523186 0.879911
0.000000 0.495949 0.882261
0.185855 0.449378 0.889036
0.553552 0.440925 0.891539
0.749081 0.437720 0.895109
0.889982 0.455085 0.900359
0.978027 0.549523 0.888762
0.000000 0.604089 0.876097
0.000000 0.603906 0.876768
0.000000 0.600916 0.878019
0.362829 0.582727 0.882719
0.550591 0.549645 0.888701
0.733608 0.548486 0.893187
0.872862 0.556725 0.900053
0.966339 0.618982 0.890684
0.000000 0.686000 0.873045
0.000000 0.685939 0.873381
0.000000 0.680903 0.874022
0.378332 0.676905 0.877165
0.575189 0.667628 0.882444
0.711147 0.649042 0.889372
0.848142 0.653162 0.897490
0.952911 0.689693 0.893431
0.000000 0.760769 0.880491
0.000000 0.759640 0.879911
0.000000 0.756283 0.878599
0.356512 0.752499 0.877745
0.553307 0.750698 0.877714
0.705837 0.750607 0.888670
0.827054 0.749172 0.901244
0.942840 0.770169 0.903197
0.000000 0.837552 0.894316
0.000000 0.837034 0.894133
0.152316 0.835050 0.893553
0.403693 0.832914 0.893553
0.564752 0.831296 0.893858
0.695857 0.832609 0.895323
0.815640 0.838529 0.904570
0.929625 0.844053 0.911040
0.048402 0.916808 0.914305
0.160220 0.916442 0.914183
0.309697 0.915526 0.914275
0.453803 0.914824 0.915068
0.582879 0.914366 0.916045
0.700832 0.914672 0.917266
0.813504 0.916686 0.919585
0.920348 0.922301 0.924773
