20 Preset/Food Style/【3】LUT video cho PR-AE-FCPX/Food Style Tone (11).cube
# Created by Adobe Lightroom plugin Export LUT (1.24.0)
# www.johnrellis.com/lightroom/exportlut.htm
# Preset: 静谧咖啡-素材江湖07
# Color profile: E:\lut插件\exportlut.1.24\exportlut.lrplugin\color profiles\Rec709gamma2.4.icc
LUT_3D_SIZE 32
DOMAIN_MIN 0.0 0.0 0.0
DOMAIN_MAX 1.0 1.0 1.0
0.052338 0.109529 0.125643
0.054322 0.109468 0.125643
0.057282 0.109682 0.125856
0.065919 0.109712 0.126345
0.079774 0.110170 0.127016
0.092164 0.110292 0.127962
0.103517 0.110445 0.128817
0.118166 0.110658 0.129854
0.136172 0.110048 0.131106
0.157290 0.108675 0.132021
0.181704 0.106386 0.133059
0.209171 0.102693 0.133974
0.239353 0.096803 0.135012
0.272892 0.087373 0.136324
0.308965 0.058595 0.137423
0.346960 0.016114 0.138705
0.386999 0.000000 0.139956
0.428931 0.000000 0.141299
0.472328 0.000000 0.143221
0.516899 0.000000 0.144961
0.562310 0.000000 0.147097
0.608026 0.000000 0.149477
0.653773 0.000000 0.152438
0.700221 0.000000 0.155642
0.752377 0.000000 0.159854
0.803220 0.000000 0.165042
0.851041 0.000000 0.171359
0.896300 0.000000 0.179141
0.938842 0.000000 0.189120
0.978790 0.000000 0.200626
1.000000 0.000000 0.215305
1.000000 0.000000 0.233097
0.053315 0.109804 0.125856
0.053315 0.109804 0.125856
0.056580 0.110018 0.125826
0.065217 0.110048 0.126314
0.080568 0.110445 0.126986
0.091890 0.110628 0.127901
0.103304 0.110780 0.128786
0.117891 0.110994 0.130068
0.135622 0.110445 0.131075
0.156832 0.109102 0.131991
0.180789 0.106935 0.133028
0.207919 0.103426 0.133974
0.238346 0.097597 0.134981
0.271550 0.089143 0.136019
0.307286 0.063661 0.137148
0.345159 0.021881 0.138460
0.385382 0.000000 0.139681
0.427008 0.000000 0.141299
0.470497 0.000000 0.142977
0.515038 0.000000 0.144961
0.560266 0.000000 0.146944
0.605707 0.000000 0.149569
0.651087 0.000000 0.152132
0.697627 0.000000 0.155337
0.748806 0.000000 0.159304
0.799252 0.000000 0.164431
0.846860 0.000000 0.170504
0.892210 0.000000 0.178470
0.934997 0.000000 0.188052
0.975250 0.000000 0.199710
1.000000 0.000000 0.213901
1.000000 0.000000 0.231144
0.052552 0.111391 0.126741
0.052247 0.111391 0.127016
0.054841 0.111330 0.126467
0.065339 0.111635 0.126406
0.079866 0.111727 0.127108
0.091188 0.112276 0.127993
0.103334 0.112367 0.128878
0.118013 0.112551 0.129885
0.135988 0.112276 0.130861
0.156741 0.110994 0.132052
0.180636 0.109285 0.132815
0.208011 0.105776 0.133974
0.238163 0.100649 0.134737
0.271427 0.092103 0.136049
0.306889 0.073304 0.136873
0.345006 0.032258 0.138399
0.385016 0.000000 0.139590
0.426856 0.000000 0.140963
0.469917 0.000000 0.142672
0.514366 0.000000 0.144594
0.559625 0.000000 0.146548
0.605035 0.000000 0.149172
0.650477 0.000000 0.151522
0.697169 0.000000 0.154910
0.748043 0.000000 0.159121
0.797757 0.000000 0.163760
0.845243 0.000000 0.170047
0.890501 0.000000 0.177676
0.933257 0.000000 0.187045
0.973541 0.000000 0.198795
1.000000 0.000000 0.213046
1.000000 0.000000 0.230320
0.048981 0.115084 0.128969
0.050965 0.115023 0.128969
0.056062 0.114260 0.129274
0.062379 0.114748 0.127626
0.079744 0.115114 0.126986
0.091402 0.115297 0.127901
0.103395 0.115389 0.129030
0.118654 0.115511 0.129793
0.136294 0.115572 0.130983
0.157473 0.114870 0.131838
0.181521 0.113191 0.132631
0.209171 0.110079 0.133486
0.239139 0.105867 0.134676
0.272129 0.098817 0.135714
0.307836 0.087404 0.136507
0.345678 0.053407 0.137758
0.385321 0.003967 0.139193
0.426551 0.000000 0.140444
0.469459 0.000000 0.142153
0.513878 0.000000 0.143832
0.558831 0.000000 0.145998
0.603998 0.000000 0.148409
0.649348 0.000000 0.150942
0.696651 0.000000 0.154269
0.746914 0.000000 0.158053
0.796750 0.000000 0.163210
0.844541 0.000000 0.169039
0.890013 0.000000 0.176699
0.933013 0.000000 0.186221
0.973266 0.000000 0.198276
1.000000 0.000000 0.212070
1.000000 0.000000 0.229587
0.047547 0.120790 0.132601
0.047852 0.120790 0.132357
0.055634 0.119722 0.132692
0.061341 0.118990 0.132509
0.073396 0.119875 0.129824
0.091005 0.120241 0.128084
0.103578 0.120577 0.128939
0.119020 0.120974 0.129915
0.137575 0.120912 0.130587
0.158755 0.120485 0.131411
0.182925 0.119387 0.132113
0.210300 0.117433 0.132906
0.240604 0.113741 0.133791
0.273655 0.108278 0.134981
0.309209 0.099580 0.135927
0.346929 0.086366 0.137057
0.386938 0.042969 0.138186
0.428534 0.000000 0.139651
0.471412 0.000000 0.141238
0.515404 0.000000 0.142855
0.560296 0.000000 0.144961
0.605463 0.000000 0.147036
0.650782 0.000000 0.149752
0.698848 0.000000 0.153140
0.748653 0.000000 0.157015
0.798093 0.000000 0.161776
0.845396 0.000000 0.168185
0.890471 0.000000 0.175631
0.933104 0.000000 0.185641
0.973053 0.000000 0.197086
1.000000 0.000000 0.211063
1.000000 0.000000 0.228428
0.038972 0.129427 0.136202
0.039704 0.129152 0.136233
0.047791 0.128176 0.136324
0.060121 0.126009 0.136995
0.069856 0.125795 0.135561
0.087160 0.127138 0.132113
0.103670 0.128878 0.129152
0.120027 0.128878 0.129397
0.139071 0.129000 0.130037
0.160739 0.129030 0.130770
0.185611 0.128603 0.131624
0.213382 0.127413 0.132326
0.243839 0.125032 0.133089
0.277287 0.120790 0.133913
0.312993 0.114626 0.134707
0.350835 0.104768 0.135775
0.391058 0.089601 0.136965
0.432685 0.043366 0.138308
0.475654 0.000000 0.139742
0.519738 0.000000 0.141726
0.564508 0.000000 0.143435
0.609430 0.000000 0.145663
0.668879 0.000000 0.149081
0.721462 0.000000 0.152804
0.773068 0.000000 0.157412
0.822324 0.000000 0.163027
0.868498 0.000000 0.169711
0.911833 0.000000 0.178225
0.952392 0.000000 0.188876
0.990021 0.000000 0.201450
1.000000 0.000000 0.216709
1.000000 0.000000 0.234867
0.019593 0.143191 0.141207
0.020600 0.142977 0.140993
0.030426 0.141634 0.140902
0.052522 0.138827 0.141878
0.072786 0.135256 0.142947
0.084413 0.136660 0.139284
0.100038 0.138918 0.134554
0.122988 0.141909 0.130770
0.143008 0.142153 0.129335
0.166262 0.141848 0.129793
0.192233 0.141787 0.130556
0.221073 0.141421 0.131044
0.252476 0.139712 0.131930
0.286473 0.136904 0.132540
0.322820 0.132235 0.133394
0.360967 0.125093 0.134249
0.401099 0.114717 0.135256
0.442878 0.098817 0.136660
0.485847 0.060700 0.138094
0.530083 0.000000 0.139590
0.575555 0.000000 0.141726
0.621363 0.000000 0.144045
0.670680 0.000000 0.146914
0.722072 0.000000 0.150362
0.773434 0.000000 0.154635
0.822293 0.000000 0.160372
0.868070 0.000000 0.167117
0.910735 0.000000 0.175845
0.950805 0.000000 0.186313
0.988067 0.000000 0.198825
1.000000 0.000000 0.213901
1.000000 0.000000 0.232181
0.000000 0.160464 0.147799
0.000000 0.160037 0.147433
0.004883 0.158694 0.147158
0.029664 0.156069 0.148104
0.064820 0.151705 0.149660
0.085695 0.148501 0.149783
0.097292 0.151369 0.144137
0.117067 0.154238 0.137728
0.145541 0.159060 0.132296
0.169772 0.159091 0.130404
0.196201 0.159121 0.128267
0.225620 0.158389 0.129091
0.257389 0.157656 0.129519
0.291630 0.156008 0.130220
0.327977 0.153292 0.130831
0.366064 0.148348 0.131533
0.406195 0.141573 0.132570
0.447761 0.131716 0.133761
0.490944 0.117769 0.135012
0.535027 0.097200 0.136782
0.579767 0.039033 0.138552
0.627008 0.000000 0.140902
0.676265 0.000000 0.143801
0.726162 0.000000 0.147066
0.776394 0.000000 0.151400
0.824125 0.000000 0.156985
0.868956 0.000000 0.163760
0.911040 0.000000 0.172549
0.950500 0.000000 0.182956
0.987304 0.000000 0.196078
1.000000 0.000000 0.211612
1.000000 0.000000 0.229984
0.000000 0.182864 0.157198
0.000000 0.182345 0.156710
0.000000 0.180911 0.155917
0.000000 0.178103 0.156863
0.043458 0.173465 0.158419
0.085573 0.167910 0.160616
0.098360 0.166720 0.157992
0.113954 0.170382 0.150423
0.138003 0.174472 0.142000
0.173556 0.181277 0.133730
0.201816 0.181003 0.131136
0.231662 0.180697 0.128511
0.263767 0.180240 0.125948
0.298375 0.178225 0.126986
0.335088 0.176761 0.127352
0.373388 0.173861 0.128023
0.413519 0.169528 0.128786
0.455116 0.162997 0.129732
0.497993 0.154055 0.131289
0.541863 0.142672 0.132540
0.588006 0.127657 0.134249
0.635157 0.106447 0.136507
0.683162 0.057404 0.139193
0.732113 0.000000 0.142519
0.781094 0.000000 0.146700
0.827573 0.000000 0.152499
0.871458 0.000000 0.159701
0.912810 0.000000 0.168551
0.951598 0.000000 0.179477
0.987701 0.000000 0.193088
1.000000 0.000000 0.208896
1.000000 0.000000 0.227909
0.000000 0.209812 0.168643
0.000000 0.209506 0.168338
0.000000 0.208072 0.166934
0.000000 0.205112 0.168063
0.004486 0.200473 0.169589
0.072389 0.194247 0.171633
0.103883 0.186648 0.174502
0.115755 0.189364 0.167697
0.135470 0.194125 0.158267
0.164157 0.199222 0.147372
0.206088 0.208255 0.135775
0.238102 0.207492 0.132265
0.271031 0.206973 0.127962
0.305730 0.206241 0.123873
0.342931 0.204318 0.121859
0.381537 0.201572 0.122774
0.422156 0.199100 0.123415
0.463905 0.195071 0.123995
0.507378 0.189883 0.125063
0.552605 0.183017 0.126467
0.598291 0.174533 0.128084
0.643915 0.163607 0.130465
0.690333 0.150607 0.132753
0.737484 0.134615 0.136080
0.784390 0.114473 0.140444
0.829496 0.087251 0.146426
0.872465 0.022095 0.153719
0.913115 0.000000 0.163210
0.951537 0.000000 0.174807
0.987274 0.000000 0.188602
1.000000 0.000000 0.205447
1.000000 0.079896 0.225162
0.000000 0.240726 0.182650
0.000000 0.240482 0.182040
0.000000 0.239078 0.180545
0.000000 0.236515 0.181247
0.000000 0.231907 0.182895
0.035401 0.225895 0.185183
0.101686 0.217929 0.188144
0.123232 0.211551 0.189120
0.137881 0.216892 0.179110
0.162051 0.222690 0.167575
0.195468 0.228794 0.153750
0.241611 0.239078 0.138888
0.279240 0.239231 0.132692
0.315465 0.238071 0.127474
0.352941 0.236912 0.121462
0.391424 0.235386 0.114748
0.432532 0.232151 0.115084
0.475624 0.229587 0.115724
0.519249 0.226688 0.116518
0.563592 0.222538 0.117647
0.608209 0.217136 0.119387
0.652705 0.211002 0.121553
0.698421 0.203830 0.124117
0.744839 0.195956 0.127749
0.790524 0.187808 0.132265
0.834379 0.179141 0.138766
0.876219 0.171267 0.146548
0.915984 0.165072 0.156924
0.953460 0.162142 0.169528
0.988434 0.165377 0.183963
1.000000 0.175204 0.201816
1.000000 0.192599 0.222293
0.000000 0.276982 0.199069
0.000000 0.276616 0.198581
0.000000 0.275273 0.197147
0.000000 0.272679 0.196994
0.000000 0.268315 0.198703
0.000000 0.262058 0.200931
0.092226 0.254429 0.204135
0.128878 0.244907 0.207675
0.146731 0.242832 0.204349
0.165072 0.249363 0.192599
0.193759 0.256138 0.178561
0.231693 0.263371 0.161593
0.290227 0.281315 0.142611
0.335821 0.283879 0.132265
0.376318 0.282353 0.124392
0.417853 0.280766 0.115633
0.459785 0.278935 0.105165
0.502800 0.276219 0.098604
0.546929 0.271977 0.100679
0.591272 0.269688 0.101625
0.635584 0.266361 0.103853
0.679438 0.262943 0.106447
0.724331 0.259129 0.109773
0.769100 0.255283 0.114137
0.812222 0.251347 0.120394
0.853391 0.247318 0.128542
0.892393 0.244358 0.138399
0.929412 0.242344 0.150607
0.964233 0.242466 0.164828
0.996674 0.246220 0.181582
1.000000 0.253910 0.200687
1.000000 0.266850 0.222690
0.000000 0.320897 0.219577
0.000000 0.320653 0.219364
0.000000 0.319432 0.217777
0.000000 0.316564 0.216831
0.000000 0.311986 0.218265
0.000000 0.305882 0.220645
0.051606 0.298192 0.223819
0.128878 0.288426 0.227604
0.161990 0.277317 0.232029
0.177737 0.281834 0.222965
0.201389 0.290349 0.209354
0.235294 0.299413 0.192630
0.279332 0.309117 0.171878
0.335943 0.322637 0.146670
0.387579 0.327733 0.131258
0.430243 0.325353 0.120729
0.472755 0.322911 0.108614
0.514885 0.320165 0.094301
0.557183 0.317784 0.062623
0.600244 0.312871 0.067689
0.643030 0.309178 0.077241
0.686275 0.307195 0.082582
0.730159 0.305303 0.089113
0.773739 0.303593 0.094606
0.815702 0.301427 0.102632
0.856016 0.299474 0.112856
0.894347 0.298528 0.124819
0.930602 0.298100 0.139162
0.964752 0.299718 0.155459
0.996582 0.303624 0.173983
1.000000 0.310430 0.195285
1.000000 0.321111 0.219059
0.000000 0.367712 0.241733
0.000000 0.367346 0.241611
0.000000 0.365728 0.239689
0.000000 0.363195 0.238041
0.000000 0.358434 0.239475
0.000000 0.351965 0.241733
0.000000 0.343847 0.244450
0.120729 0.334295 0.248142
0.166812 0.322911 0.252445
0.194705 0.313909 0.254887
0.211795 0.322515 0.241855
0.239475 0.332280 0.226078
0.277592 0.342504 0.206546
0.324987 0.353094 0.182284
0.383703 0.366735 0.151888
0.440406 0.374151 0.129305
0.483803 0.370886 0.115724
0.526116 0.367468 0.098848
0.568383 0.364202 0.069398
0.609979 0.361089 0.011444
0.651850 0.357275 0.000000
0.694331 0.352483 0.005005
0.737423 0.351659 0.016236
0.779873 0.351049 0.033204
0.820829 0.350256 0.059113
0.860044 0.349645 0.089052
0.897368 0.349554 0.106142
0.932616 0.350072 0.124147
0.965820 0.352026 0.143923
0.996826 0.355993 0.165560
1.000000 0.362493 0.188785
1.000000 0.371771 0.214878
0.000000 0.416236 0.265721
0.000000 0.415869 0.265049
0.000000 0.414252 0.263615
0.000000 0.411658 0.260746
0.000000 0.406775 0.261845
0.000000 0.400275 0.263767
0.000000 0.392432 0.266636
0.101534 0.382574 0.269993
0.166720 0.371405 0.274449
0.206149 0.358770 0.279545
0.228336 0.356115 0.276402
0.249607 0.366155 0.261448
0.281132 0.376898 0.243473
0.322118 0.388037 0.221653
0.372198 0.399268 0.193240
0.432227 0.412787 0.157595
0.493355 0.422889 0.127047
0.536370 0.418738 0.109529
0.578729 0.414649 0.084565
0.620233 0.410742 0.021393
0.661463 0.407538 0.000000
0.703059 0.405066 0.000000
0.745235 0.401282 0.000000
0.786313 0.398413 0.000000
0.826017 0.398322 0.000000
0.864164 0.398413 0.009552
0.900511 0.399084 0.062409
0.934936 0.400214 0.103426
0.967437 0.402502 0.129274
0.997589 0.406775 0.155276
1.000000 0.413031 0.182345
1.000000 0.421942 0.211765
0.000000 0.465248 0.290349
0.000000 0.465156 0.290288
0.000000 0.464057 0.288975
0.000000 0.461463 0.285618
0.000000 0.457313 0.286229
0.000000 0.451270 0.288121
0.000000 0.443915 0.291020
0.030884 0.434791 0.294591
0.162020 0.423926 0.298894
0.212985 0.411627 0.304173
0.248661 0.397375 0.309911
0.266697 0.402289 0.299443
0.290929 0.412818 0.282658
0.324895 0.423651 0.261967
0.368078 0.434791 0.237034
0.419287 0.445960 0.205753
0.479835 0.459052 0.164767
0.544305 0.472358 0.124727
0.586999 0.467475 0.102266
0.628748 0.463111 0.054078
0.670405 0.459449 0.000000
0.712062 0.456794 0.000000
0.752956 0.454841 0.000000
0.793027 0.451575 0.000000
0.831815 0.447486 0.000000
0.869047 0.447364 0.000000
0.904326 0.448249 0.000000
0.937774 0.449683 0.053285
0.969024 0.452125 0.109865
0.997955 0.455970 0.143343
1.000000 0.461341 0.174929
1.000000 0.469123 0.207828
0.000000 0.515404 0.317144
0.000000 0.515038 0.316655
0.000000 0.514031 0.315343
0.000000 0.511742 0.312383
0.000000 0.507927 0.311559
0.000000 0.502251 0.313603
0.000000 0.495369 0.316320
0.000000 0.486336 0.319585
0.149233 0.476326 0.323888
0.213657 0.464363 0.328710
0.257908 0.450355 0.334386
0.287968 0.438148 0.337896
0.306004 0.448554 0.322148
0.333318 0.459602 0.303563
0.369696 0.470893 0.280705
0.414740 0.482429 0.253422
0.467140 0.493874 0.218784
0.527123 0.506615 0.173587
0.594965 0.523827 0.123842
0.636866 0.518425 0.096101
0.678950 0.514275 0.015015
0.720089 0.510857 0.000000
0.760250 0.508049 0.000000
0.799222 0.505730 0.000000
0.836973 0.502678 0.000000
0.873106 0.499001 0.000000
0.907591 0.496986 0.000000
0.939940 0.498360 0.000000
0.970001 0.500542 0.076722
0.997864 0.504143 0.128359
1.000000 0.508995 0.167330
1.000000 0.515679 0.204746
0.000000 0.566888 0.345983
0.000000 0.566979 0.345830
0.000000 0.577600 0.351232
0.000000 0.575494 0.348669
0.000000 0.572045 0.346593
0.000000 0.566613 0.348302
0.000000 0.559442 0.350805
0.000000 0.550927 0.353979
0.138460 0.540887 0.357946
0.219760 0.528801 0.362554
0.272007 0.515129 0.367681
0.310857 0.499855 0.373724
0.334356 0.495094 0.370214
0.355108 0.505669 0.352300
0.384649 0.516655 0.330938
0.423194 0.527977 0.305821
0.469581 0.539239 0.275181
0.522393 0.550622 0.237156
0.581170 0.562341 0.186648
0.650782 0.582269 0.126192
0.691798 0.576165 0.091249
0.731930 0.571160 0.000000
0.770657 0.566705 0.000000
0.808133 0.562676 0.000000
0.844053 0.559167 0.000000
0.878386 0.555596 0.000000
0.911009 0.551263 0.000000
0.941955 0.547417 0.000000
0.970550 0.548547 0.000000
0.997131 0.551019 0.111391
1.000000 0.555291 0.160006
1.000000 0.560906 0.202396
0.000000 0.622065 0.379583
0.000000 0.623011 0.380072
0.000000 0.623224 0.379492
0.000000 0.622339 0.377264
0.000000 0.620111 0.374487
0.000000 0.615412 0.376379
0.000000 0.609216 0.378759
0.000000 0.600855 0.381506
0.113710 0.591363 0.385046
0.214145 0.580438 0.389532
0.274327 0.567498 0.394324
0.319310 0.553155 0.399939
0.353887 0.536736 0.405921
0.372961 0.540764 0.394873
0.396216 0.551934 0.375769
0.427955 0.563256 0.353185
0.467720 0.574914 0.326299
0.515129 0.586786 0.293919
0.568536 0.598901 0.254429
0.626795 0.611078 0.201816
0.696345 0.632227 0.135866
0.736049 0.626246 0.100282
0.774289 0.620722 0.000000
0.811093 0.615808 0.000000
0.846159 0.611475 0.000000
0.879637 0.607507 0.000000
0.911254 0.603723 0.000000
0.941009 0.599542 0.000000
0.968994 0.596277 0.000000
0.994873 0.595880 0.087343
1.000000 0.599176 0.152316
1.000000 0.603876 0.200748
0.000000 0.670832 0.412757
0.000000 0.671595 0.412909
0.000000 0.671901 0.412482
0.000000 0.671504 0.410681
0.000000 0.669581 0.406958
0.000000 0.665766 0.408484
0.000000 0.660060 0.410559
0.000000 0.652918 0.413123
0.083528 0.644373 0.416419
0.211337 0.634150 0.420386
0.278508 0.622339 0.424842
0.328191 0.608820 0.430091
0.367559 0.593591 0.435645
0.397375 0.579095 0.439948
0.415106 0.590082 0.422736
0.440711 0.601434 0.402106
0.474189 0.613123 0.378393
0.515221 0.624994 0.350072
0.562707 0.636835 0.316594
0.615381 0.648615 0.275303
0.671809 0.660151 0.222110
0.736538 0.678187 0.160525
0.776699 0.674250 0.121736
0.812741 0.668360 0.044129
0.846983 0.663020 0.000000
0.879637 0.658015 0.000000
0.910521 0.653803 0.000000
0.939422 0.649653 0.000000
0.966278 0.646174 0.000000
0.991516 0.643244 0.020722
1.000000 0.641596 0.146120
1.000000 0.645350 0.201785
0.000000 0.717342 0.449561
0.000000 0.718288 0.450416
0.000000 0.718349 0.449531
0.000000 0.718013 0.448310
0.000000 0.716457 0.444892
0.000000 0.713161 0.444617
0.000000 0.708339 0.446479
0.000000 0.702235 0.448798
0.096315 0.694759 0.451698
0.218143 0.685969 0.455146
0.285863 0.675990 0.459327
0.338781 0.664118 0.463996
0.381628 0.650477 0.469001
0.416236 0.635157 0.474800
0.439460 0.629755 0.471687
0.459510 0.640833 0.453681
0.486824 0.652308 0.432471
0.521904 0.663905 0.407813
0.563378 0.675593 0.379675
0.610956 0.687343 0.345190
0.662837 0.698970 0.304234
0.717952 0.710292 0.251225
0.777066 0.725032 0.196017
0.817166 0.723049 0.158938
0.850614 0.717250 0.121187
0.882261 0.711574 0.013733
0.912169 0.706386 0.000000
0.940368 0.701991 0.000000
0.966339 0.698024 0.000000
0.990295 0.694636 0.002380
1.000000 0.692287 0.152468
1.000000 0.691188 0.214145
0.000000 0.765957 0.497322
0.000000 0.766262 0.497688
0.000000 0.765866 0.496651
0.000000 0.764889 0.494240
0.000000 0.763149 0.490883
0.000000 0.760128 0.488930
0.000000 0.756008 0.490486
0.000000 0.750729 0.492226
0.155154 0.744350 0.494606
0.245274 0.736995 0.497780
0.308385 0.728267 0.501244
0.358831 0.718318 0.505486
0.401068 0.706966 0.509972
0.437354 0.693996 0.515312
0.467720 0.679194 0.520745
0.486213 0.682307 0.510185
0.507683 0.692683 0.491279
0.535912 0.703212 0.469581
0.570672 0.713741 0.444129
0.611261 0.724208 0.414588
0.656733 0.734401 0.380224
0.706203 0.744350 0.338415
0.757748 0.753780 0.286015
0.810941 0.764706 0.235111
0.849241 0.763607 0.198611
0.879789 0.757382 0.167208
0.908721 0.751705 0.127047
0.936156 0.746548 0.004211
0.962219 0.741878 0.000000
0.985595 0.738003 0.000000
1.000000 0.735073 0.156588
1.000000 0.733211 0.222293
0.000000 0.804196 0.543206
0.000000 0.804379 0.543450
0.000000 0.804227 0.542870
0.000000 0.803403 0.541009
0.000000 0.801968 0.537743
0.000000 0.799802 0.534813
0.000000 0.796292 0.536034
0.126925 0.791867 0.537621
0.221134 0.786679 0.539666
0.285924 0.780545 0.542412
0.338750 0.773281 0.545464
0.384405 0.765042 0.549126
0.424964 0.755398 0.553185
0.460273 0.744686 0.557855
0.491127 0.732418 0.562860
0.516686 0.719966 0.567529
0.532799 0.729580 0.550927
0.554833 0.739223 0.531975
0.582910 0.748959 0.509972
0.617029 0.758480 0.484352
0.656275 0.767819 0.454780
0.699794 0.776822 0.420203
0.746365 0.785336 0.378882
0.794400 0.793362 0.328222
0.840055 0.799130 0.277409
0.876127 0.798550 0.242008
0.904143 0.792508 0.215305
0.930816 0.786893 0.183322
0.956176 0.781765 0.140108
0.980407 0.777066 0.031128
1.000000 0.773678 0.167147
1.000000 0.771359 0.235477
0.000000 0.840085 0.596979
0.000000 0.840330 0.597345
0.000000 0.840116 0.596612
0.025513 0.839414 0.594934
0.090059 0.838071 0.591638
0.127352 0.836088 0.587701
0.194339 0.832975 0.588067
0.248234 0.829038 0.588586
0.296696 0.824369 0.589807
0.341070 0.818997 0.591455
0.381903 0.812772 0.593530
0.419989 0.805631 0.596155
0.455421 0.797543 0.599298
0.487709 0.788418 0.602991
0.516442 0.778103 0.606806
0.541985 0.766415 0.611139
0.560632 0.761593 0.608515
0.576837 0.770169 0.591882
0.598657 0.778836 0.572900
0.626246 0.787594 0.551110
0.658961 0.796078 0.526146
0.696071 0.804227 0.497200
0.736782 0.811765 0.462409
0.779873 0.818692 0.421515
0.824216 0.824887 0.371252
0.866697 0.830106 0.325292
0.900328 0.829496 0.290043
0.925750 0.823484 0.265812
0.950286 0.817929 0.237400
0.973724 0.812802 0.204807
0.995758 0.808347 0.187472
1.000000 0.805570 0.254429
0.261387 0.866941 0.645716
0.263462 0.867155 0.646204
0.266484 0.867094 0.645838
0.270695 0.866575 0.644495
0.276829 0.865660 0.641932
0.284855 0.864317 0.638392
0.309758 0.862181 0.638605
0.340826 0.859190 0.639612
0.371527 0.855802 0.641047
0.403906 0.851713 0.642756
0.435462 0.846921 0.644739
0.466224 0.841489 0.647272
0.495857 0.835050 0.649866
0.523796 0.827878 0.652918
0.549523 0.819638 0.656031
0.573022 0.810452 0.659632
0.593835 0.800229 0.663844
0.608026 0.801907 0.655573
0.624170 0.809476 0.640070
0.645258 0.816983 0.622278
0.671077 0.824369 0.601312
0.701503 0.831418 0.576715
0.735683 0.838010 0.548058
0.772915 0.844022 0.514427
0.812314 0.849485 0.474006
0.852873 0.854398 0.424994
0.891081 0.857755 0.380072
0.922271 0.856992 0.345617
0.945739 0.851377 0.322759
0.968383 0.846159 0.298161
0.990295 0.841306 0.270451
1.000000 0.837552 0.284886
0.377020 0.890837 0.696376
0.377722 0.890867 0.696468
0.379370 0.890745 0.696223
0.381292 0.890318 0.694820
0.384649 0.889616 0.692958
0.388952 0.888548 0.689998
0.401678 0.886900 0.689143
0.421332 0.884611 0.689906
0.443030 0.881804 0.690913
0.466285 0.878569 0.692317
0.490364 0.874784 0.693935
0.514763 0.870420 0.695827
0.538933 0.865537 0.698146
0.562493 0.859861 0.700587
0.584710 0.853483 0.703182
0.605524 0.846342 0.706142
0.624567 0.838407 0.709377
0.641474 0.829892 0.713100
0.653193 0.836179 0.700862
0.668879 0.842618 0.687160
0.688655 0.848905 0.670924
0.712367 0.854887 0.651820
0.739773 0.860502 0.628931
0.770382 0.865690 0.601801
0.803769 0.870390 0.568414
0.839292 0.874601 0.528527
0.876371 0.878355 0.480751
0.911070 0.880339 0.435737
0.940246 0.879271 0.399786
0.962097 0.874235 0.379004
0.983368 0.869474 0.356176
1.000000 0.864866 0.330663
0.465492 0.909972 0.742733
0.466102 0.910033 0.743038
0.466926 0.909911 0.742489
0.468482 0.909606 0.741665
0.470954 0.909178 0.740352
0.474434 0.908537 0.738521
0.482795 0.907561 0.737819
0.497780 0.906004 0.739254
0.514763 0.904204 0.741024
0.533227 0.902068 0.743191
0.552911 0.899535 0.745663
0.572808 0.896605 0.748257
0.592767 0.893156 0.750851
0.612390 0.889220 0.753567
0.631098 0.884642 0.756222
0.648798 0.879484 0.758816
0.665187 0.873777 0.761715
0.680232 0.867430 0.764889
0.692531 0.864622 0.764187
0.703517 0.869749 0.753994
0.717586 0.874846 0.742367
0.734829 0.879759 0.728298
0.755245 0.884306 0.711757
0.778683 0.888609 0.691493
0.804959 0.892485 0.666987
0.833982 0.895964 0.636927
0.865415 0.899077 0.600183
0.899016 0.901823 0.553796
0.930663 0.902770 0.508476
0.957641 0.901183 0.470924
0.977752 0.896483 0.450538
0.997620 0.891997 0.428229
0.553491 0.927886 0.791806
0.553765 0.927855 0.791745
0.554070 0.927703 0.791287
0.554803 0.927459 0.790524
0.556023 0.927062 0.789303
0.557977 0.926482 0.787747
0.561975 0.925658 0.786282
0.571649 0.924315 0.786923
0.583032 0.922728 0.787808
0.595789 0.920867 0.788937
0.609705 0.918669 0.790249
0.624445 0.916228 0.791836
0.639643 0.913390 0.793545
0.654780 0.910277 0.795377
