20 Preset/Food Style/【3】LUT video cho PR-AE-FCPX/Food Style Tone (5).cube
# Created by Adobe Lightroom plugin Export LUT (1.24.0)
# www.johnrellis.com/lightroom/exportlut.htm
# Preset: 静谧咖啡-素材江湖01
# Color profile: E:\lut插件\exportlut.1.24\exportlut.lrplugin\color profiles\Rec709gamma2.4.icc
LUT_3D_SIZE 5
DOMAIN_MIN 0.000000 0.000000 0.000000
DOMAIN_MAX 0.903226 0.903226 0.903226
0.112306 0.154849 0.142519
0.174990 0.168246 0.148165
0.337316 0.195895 0.154543
0.633295 0.243565 0.157900
0.921233 0.334295 0.171054
0.126589 0.196078 0.159792
0.172030 0.204318 0.158572
0.328771 0.231327 0.162020
0.618769 0.284306 0.164797
0.919707 0.375097 0.180453
0.161196 0.320012 0.207218
0.178958 0.323552 0.209751
0.366827 0.365545 0.197269
0.611780 0.411841 0.187961
0.890227 0.491096 0.207492
0.226444 0.557031 0.306950
0.249393 0.560540 0.310491
0.369177 0.578515 0.313207
0.662135 0.618647 0.277806
0.890684 0.664790 0.305577
0.514916 0.813230 0.538079
0.528069 0.814237 0.541924
0.559594 0.811215 0.542901
0.725948 0.824643 0.551019
0.923491 0.836545 0.547234
0.118349 0.168399 0.176883
0.166171 0.176638 0.179232
0.338506 0.204440 0.196719
0.612634 0.250797 0.211551
0.899687 0.333959 0.230442
0.119081 0.209842 0.188235
0.174136 0.214176 0.196841
0.334813 0.241184 0.204837
0.605951 0.287816 0.214969
0.896239 0.369757 0.235996
0.177584 0.328405 0.229892
0.210147 0.333715 0.242863
0.357519 0.362341 0.235538
0.591760 0.405463 0.230503
0.886564 0.493416 0.262364
0.267735 0.564141 0.344152
0.288090 0.568322 0.348119
0.378637 0.583795 0.355718
0.660883 0.621363 0.324407
0.886748 0.666316 0.346990
0.532921 0.813596 0.558801
0.544518 0.814298 0.561730
0.593683 0.818997 0.577783
0.735714 0.828916 0.583703
0.925353 0.840543 0.580377
0.110567 0.194430 0.270848
0.171267 0.202945 0.277623
0.318242 0.230045 0.295842
0.620142 0.269505 0.347662
0.919738 0.382177 0.420966
0.113619 0.230747 0.289097
0.171389 0.237125 0.299138
0.333165 0.265232 0.316686
0.632227 0.308110 0.364172
0.915801 0.419043 0.428382
0.000000 0.371618 0.336889
0.126802 0.377600 0.346715
0.374609 0.402502 0.391791
0.636378 0.447181 0.406348
0.897917 0.525811 0.440436
0.222751 0.583124 0.375769
0.288273 0.584924 0.399054
0.455390 0.605707 0.482643
0.662043 0.639246 0.473945
0.876066 0.674647 0.473518
0.513939 0.814023 0.574884
0.556207 0.815091 0.598383
0.637232 0.819272 0.638178
0.731716 0.828061 0.651637
0.914763 0.839933 0.643183
0.000000 0.236851 0.443061
0.128389 0.246250 0.452155
0.343023 0.265690 0.475196
0.577478 0.317144 0.512352
0.862150 0.466285 0.589532
0.000000 0.263981 0.456367
0.104921 0.272343 0.466346
0.345953 0.295811 0.487587
0.581476 0.349187 0.521782
0.862089 0.490822 0.598108
0.000000 0.381292 0.493507
0.000000 0.381292 0.498329
0.334234 0.404730 0.535180
0.604791 0.468605 0.566155
0.880583 0.589624 0.643214
0.000000 0.622339 0.571557
0.000000 0.624262 0.576074
0.333104 0.639368 0.602686
0.668055 0.676692 0.666590
0.890959 0.718624 0.679957
0.359289 0.829770 0.558404
0.412848 0.829953 0.576165
0.580133 0.831327 0.647608
0.771939 0.834806 0.753933
0.904784 0.846189 0.750576
0.000000 0.317754 0.702205
0.000000 0.330419 0.705257
0.374975 0.349218 0.715206
0.652186 0.393805 0.732540
0.861540 0.509056 0.753964
0.000000 0.328496 0.702052
0.000000 0.343694 0.705867
0.367041 0.371008 0.716487
0.647791 0.415595 0.733211
0.859129 0.528771 0.755886
0.000000 0.414496 0.709133
0.000000 0.415564 0.712032
0.296269 0.442756 0.729732
0.634882 0.499001 0.745693
0.860533 0.609491 0.773312
0.000000 0.631067 0.751095
0.000000 0.626032 0.750637
0.000000 0.609216 0.753841
0.584466 0.633967 0.779324
0.871672 0.741482 0.814023
0.000000 0.859190 0.800046
0.000000 0.858274 0.801328
0.333135 0.856138 0.810025
0.657527 0.851133 0.828214
0.902098 0.862028 0.873320
