20 Preset/Food Style/【3】LUT video cho PR-AE-FCPX/Food Style Tone (2).cube
# Created by Adobe Lightroom plugin Export LUT (1.24.0)
# www.johnrellis.com/lightroom/exportlut.htm
# Preset: 静谧咖啡-素材江湖13
# Color profile: E:\lut插件\exportlut.1.24\exportlut.lrplugin\color profiles\Rec709gamma2.4.icc
LUT_3D_SIZE 32
DOMAIN_MIN 0.0 0.0 0.0
DOMAIN_MAX 1.0 1.0 1.0
0.181765 0.146120 0.163882
0.182223 0.146242 0.163851
0.183658 0.146456 0.163973
0.186343 0.147097 0.164401
0.191348 0.148379 0.164858
0.197635 0.149813 0.165805
0.205356 0.151583 0.166476
0.214969 0.153292 0.167300
0.226932 0.155032 0.167788
0.241642 0.157168 0.168338
0.259495 0.159274 0.168887
0.280674 0.161471 0.169406
0.305058 0.163699 0.169680
0.332555 0.165866 0.169863
0.362646 0.168002 0.169894
0.395026 0.169833 0.170169
0.429877 0.172061 0.170138
0.466377 0.174105 0.170260
0.504448 0.176089 0.170260
0.543877 0.178470 0.169894
0.583581 0.181094 0.169558
0.626398 0.184726 0.169192
0.669673 0.189822 0.168490
0.712490 0.196445 0.167971
0.754116 0.205051 0.167208
0.794064 0.215274 0.166751
0.832914 0.227756 0.166629
0.870848 0.242252 0.166812
0.907744 0.258396 0.167880
0.942870 0.276616 0.170108
0.976379 0.296818 0.173983
1.000000 0.318486 0.180453
0.182071 0.146487 0.164004
0.182071 0.146487 0.164004
0.183688 0.146883 0.164126
0.186587 0.147677 0.164309
0.191379 0.148806 0.164981
0.197726 0.150240 0.165743
0.205447 0.151980 0.166445
0.214786 0.153719 0.167422
0.226780 0.155459 0.167758
0.241367 0.157412 0.168307
0.259068 0.159548 0.169039
0.280125 0.161990 0.169192
0.304265 0.163912 0.169497
0.331548 0.166354 0.169833
0.361547 0.168368 0.170077
0.393835 0.170626 0.169955
0.428595 0.172580 0.170169
0.465034 0.174716 0.170291
0.503105 0.176761 0.170108
0.542290 0.178988 0.169955
0.581933 0.181704 0.169467
0.624109 0.185214 0.169039
0.666804 0.190219 0.168643
0.708980 0.196567 0.167910
0.750149 0.204593 0.167208
0.789975 0.214878 0.166812
0.828916 0.226780 0.166659
0.867002 0.240909 0.166812
0.904173 0.257359 0.167453
0.939727 0.275425 0.169345
0.973419 0.295079 0.173251
1.000000 0.316716 0.179629
0.182284 0.148562 0.164675
0.182498 0.148501 0.164858
0.183200 0.148836 0.164645
0.186465 0.149996 0.164614
0.191623 0.151034 0.164889
0.198154 0.152407 0.165835
0.205936 0.153902 0.166567
0.215488 0.155581 0.167361
0.227207 0.157321 0.167880
0.242069 0.159396 0.168399
0.260044 0.161593 0.168734
0.281010 0.163790 0.169100
0.305211 0.166018 0.169528
0.332341 0.168246 0.169711
0.362097 0.170443 0.169955
0.394659 0.172732 0.169986
0.429175 0.175021 0.170321
0.465705 0.177066 0.170230
0.503624 0.179263 0.170047
0.542596 0.181857 0.169863
0.582208 0.184360 0.169589
0.624537 0.188296 0.169009
0.666682 0.193088 0.168368
0.708461 0.199435 0.167697
0.749416 0.207492 0.166995
0.788907 0.217472 0.166476
0.827787 0.229191 0.166171
0.865751 0.243259 0.166506
0.902892 0.259129 0.167269
0.938537 0.277226 0.169131
0.972168 0.296544 0.172946
1.000000 0.317967 0.178866
0.182773 0.152743 0.166171
0.183078 0.152682 0.166171
0.183749 0.152773 0.166323
0.185672 0.153719 0.165988
0.191104 0.155886 0.165957
0.199069 0.156619 0.165866
0.207034 0.158022 0.166567
0.216983 0.159579 0.167361
0.229129 0.161349 0.167849
0.244205 0.163241 0.168368
0.262211 0.165530 0.168856
0.283330 0.167910 0.169162
0.307591 0.170352 0.169375
0.334691 0.172763 0.169680
0.364538 0.175113 0.169863
0.396796 0.177462 0.169863
0.431250 0.179812 0.169986
0.467384 0.182132 0.170077
0.505028 0.184604 0.169833
0.543908 0.187076 0.169650
0.583215 0.190066 0.169100
0.625116 0.193698 0.168795
0.666407 0.198795 0.168154
0.707729 0.204959 0.167544
0.748775 0.213077 0.166751
0.788632 0.222995 0.166140
0.827787 0.235355 0.165743
0.866117 0.249027 0.165805
0.903380 0.264714 0.166659
0.938842 0.282231 0.168734
0.972381 0.301396 0.172335
1.000000 0.322210 0.178408
0.183841 0.158785 0.168643
0.183993 0.158938 0.168795
0.184726 0.159030 0.168765
0.186191 0.159792 0.168460
0.189334 0.160678 0.167910
0.196841 0.163699 0.167514
0.207126 0.164889 0.167269
0.219120 0.166201 0.167147
0.231907 0.167758 0.167636
0.247135 0.169833 0.168276
0.265629 0.172183 0.168551
0.287053 0.174472 0.168978
0.311192 0.177005 0.169345
0.338598 0.179599 0.169558
0.368597 0.182284 0.169650
0.400977 0.184939 0.169894
0.435584 0.187686 0.169894
0.471931 0.190066 0.169711
0.509545 0.192630 0.169558
0.548211 0.195590 0.169070
0.587732 0.198764 0.168917
0.629175 0.202914 0.168307
0.669734 0.208042 0.167666
0.710842 0.214572 0.166903
0.751461 0.222812 0.166018
0.791104 0.232822 0.165438
0.829862 0.244450 0.165286
0.867826 0.258274 0.165011
0.904784 0.273472 0.165835
0.939727 0.290501 0.167941
0.972839 0.309117 0.171786
1.000000 0.329198 0.177646
0.184665 0.166354 0.171145
0.184909 0.166293 0.171328
0.185885 0.166354 0.171298
0.187137 0.166903 0.171206
0.189975 0.167788 0.170840
0.194339 0.168978 0.170230
0.204166 0.173465 0.169375
0.217136 0.175937 0.168673
0.234257 0.178012 0.168063
0.252171 0.180087 0.167880
0.271214 0.182193 0.168460
0.293004 0.184726 0.168795
0.317998 0.187503 0.169009
0.345678 0.190097 0.169162
0.375891 0.193149 0.169284
0.408515 0.196017 0.169375
0.443427 0.198856 0.169436
0.479805 0.201694 0.169223
0.517571 0.204623 0.168887
0.555932 0.207767 0.168460
0.596246 0.211643 0.168154
0.637110 0.216342 0.167330
0.696651 0.226200 0.166079
0.737819 0.234043 0.165438
0.777523 0.243320 0.164828
0.816068 0.254154 0.164370
0.853208 0.266209 0.164889
0.889403 0.280095 0.165164
0.923888 0.295140 0.167300
0.956603 0.311864 0.170138
0.987457 0.329778 0.175113
1.000000 0.348852 0.182559
0.185855 0.176059 0.174289
0.186130 0.176028 0.174289
0.187076 0.176059 0.174411
0.188632 0.176364 0.174502
0.191073 0.177401 0.174166
0.195041 0.178714 0.173526
0.201175 0.180514 0.172793
0.214328 0.187167 0.171633
0.231785 0.191165 0.170504
0.254124 0.194858 0.169192
0.281621 0.197757 0.168032
0.304845 0.200351 0.168215
0.330724 0.202914 0.168490
0.359380 0.205722 0.168582
0.390051 0.208621 0.168734
0.423163 0.211612 0.168612
0.457954 0.214725 0.168460
0.494362 0.217868 0.168185
0.531762 0.220951 0.167849
0.571344 0.224979 0.167239
0.613916 0.229679 0.166384
0.656001 0.235355 0.165774
0.697841 0.242222 0.164920
0.739559 0.250492 0.163882
0.779690 0.259739 0.163180
0.818143 0.270359 0.162875
0.855039 0.282200 0.163210
0.890593 0.295323 0.163699
0.924498 0.309667 0.165499
0.956512 0.325048 0.168826
0.986908 0.341924 0.173800
1.000000 0.360266 0.181338
0.186984 0.187808 0.177737
0.187198 0.187778 0.177920
0.188174 0.187839 0.177890
0.190188 0.187747 0.178012
0.192477 0.188846 0.177798
0.196262 0.190219 0.177371
0.202060 0.192050 0.176455
0.210239 0.194125 0.175601
0.227298 0.203250 0.173983
0.249058 0.209201 0.172305
0.276127 0.214298 0.170596
0.307866 0.218692 0.168765
0.341405 0.221897 0.167391
0.370428 0.224735 0.167514
0.401617 0.227695 0.167269
0.434516 0.230655 0.167391
0.469520 0.233768 0.167025
0.505821 0.237217 0.166506
0.543328 0.240818 0.166201
0.584161 0.245182 0.165316
0.624750 0.250095 0.164767
0.665400 0.256168 0.163577
0.705959 0.263096 0.162753
0.746212 0.271214 0.162020
0.785367 0.280369 0.161318
0.822873 0.290501 0.161166
0.858915 0.301701 0.161257
0.893675 0.314122 0.161746
0.926879 0.327611 0.163790
0.958190 0.342107 0.167391
0.987976 0.358068 0.172824
1.000000 0.375250 0.180240
0.188327 0.202701 0.181918
0.188479 0.202823 0.182071
0.189425 0.202853 0.182040
0.191684 0.202762 0.182162
0.194491 0.203159 0.182376
0.198337 0.204623 0.181735
0.203830 0.206577 0.180972
0.211856 0.208988 0.179904
0.222599 0.211887 0.178653
0.243137 0.222202 0.176699
0.270329 0.230930 0.174289
0.302007 0.237675 0.171969
0.338659 0.243412 0.169162
0.380011 0.248386 0.166354
0.416327 0.251713 0.165347
0.449622 0.254520 0.165072
0.484627 0.257633 0.164645
0.520989 0.261143 0.164034
0.560082 0.265599 0.163241
0.599359 0.270054 0.162509
0.638697 0.275303 0.161685
0.677729 0.281041 0.160769
0.717037 0.288029 0.159701
0.755734 0.296117 0.158999
0.793515 0.304845 0.158389
0.829740 0.314458 0.158358
0.864897 0.324956 0.158816
0.898680 0.336614 0.159670
0.930785 0.349096 0.162264
0.961303 0.362676 0.165743
0.990173 0.377325 0.171633
1.000000 0.393164 0.179660
0.189517 0.221347 0.186801
0.189761 0.221317 0.186801
0.190951 0.221317 0.186923
0.193149 0.221225 0.187045
0.196628 0.221256 0.187289
0.200626 0.222568 0.186831
0.206363 0.224491 0.185885
0.214328 0.226871 0.184970
0.224796 0.229923 0.183688
0.238437 0.233249 0.182040
0.262303 0.244144 0.179782
0.295323 0.255985 0.176333
0.331365 0.264378 0.173068
0.372229 0.271672 0.169375
0.417975 0.278233 0.165530
0.466865 0.283635 0.161044
0.503410 0.287297 0.160586
0.541161 0.291112 0.159731
0.579278 0.295262 0.159091
0.617487 0.299779 0.158236
0.655146 0.304784 0.157229
0.692195 0.310185 0.156680
0.729274 0.316686 0.155612
0.765743 0.323827 0.155093
0.801480 0.331670 0.154879
0.836271 0.340368 0.154635
0.870298 0.350164 0.155489
0.903044 0.360815 0.156710
0.934417 0.372595 0.159091
0.964111 0.385077 0.163912
0.992462 0.398566 0.170016
1.000000 0.413184 0.179294
0.191104 0.242863 0.192355
0.191226 0.242954 0.192508
0.192447 0.242954 0.192477
0.195041 0.242954 0.192569
0.198856 0.243046 0.192905
0.203861 0.243565 0.192874
0.209659 0.245548 0.192050
0.217563 0.248051 0.191104
0.228061 0.251041 0.189670
0.241703 0.254459 0.187839
0.258488 0.258244 0.185916
0.285649 0.269932 0.182864
0.324956 0.285069 0.178164
0.364996 0.295109 0.173922
0.411139 0.304509 0.169345
0.460914 0.313268 0.164065
0.513787 0.320806 0.158083
0.562676 0.326421 0.153323
0.599695 0.330083 0.152499
0.636164 0.333989 0.151797
0.672297 0.338201 0.151400
0.707881 0.343023 0.150790
0.743313 0.348882 0.149905
0.778195 0.355138 0.149905
0.812497 0.362310 0.150149
0.846098 0.370520 0.150179
0.878721 0.379339 0.151034
0.910094 0.388891 0.153323
0.940154 0.399329 0.156527
0.968811 0.410498 0.162325
0.996033 0.422919 0.169406
1.000000 0.436133 0.179171
0.192844 0.268101 0.199161
0.193362 0.268070 0.199161
0.194675 0.268162 0.199252
0.197208 0.268132 0.199466
0.201389 0.268284 0.199649
0.207401 0.268376 0.200076
0.213962 0.270054 0.199313
0.222141 0.272648 0.198154
0.232853 0.275578 0.196689
0.246464 0.279088 0.195010
0.263035 0.283085 0.192874
0.283146 0.287633 0.190402
0.320348 0.306096 0.187167
0.368597 0.326787 0.180636
0.415839 0.339635 0.174960
0.467170 0.351263 0.168368
0.520897 0.361395 0.161288
0.576104 0.370245 0.153170
0.631220 0.377874 0.144106
0.673304 0.382238 0.140688
0.707698 0.385595 0.140627
0.740658 0.388800 0.141360
0.773465 0.393317 0.141665
0.805753 0.398169 0.142794
0.837522 0.404150 0.143343
0.868406 0.410468 0.145480
0.898100 0.417639 0.147738
0.926543 0.425299 0.151247
0.953765 0.433631 0.156924
0.979980 0.442969 0.163699
1.000000 0.453346 0.172580
1.000000 0.464973 0.183597
0.195834 0.299413 0.208103
0.196109 0.299413 0.208103
0.197757 0.299382 0.208072
0.200900 0.299168 0.208347
0.205631 0.299107 0.208530
0.212131 0.298955 0.208835
0.219852 0.299687 0.208774
0.228580 0.302098 0.207492
0.239933 0.305547 0.205783
0.254154 0.309789 0.204257
0.271611 0.314794 0.201968
0.292790 0.320500 0.199435
0.317723 0.326726 0.196445
0.353491 0.340429 0.191836
0.407355 0.364782 0.183291
0.457588 0.378729 0.176333
0.510491 0.391180 0.168643
0.564355 0.401923 0.159976
0.618677 0.411139 0.150484
0.671901 0.419196 0.139773
0.723232 0.425483 0.129152
0.755001 0.427680 0.130495
0.786160 0.430610 0.132021
0.817136 0.434333 0.133791
0.847501 0.438727 0.136233
0.877073 0.443946 0.139254
0.905547 0.449653 0.142611
0.932769 0.456153 0.147860
0.958984 0.463325 0.154147
0.984222 0.471351 0.162325
1.000000 0.480507 0.172732
1.000000 0.490608 0.184878
0.199649 0.332311 0.217807
0.199985 0.332219 0.217807
0.201541 0.332067 0.217838
0.205142 0.331975 0.218021
0.210239 0.332036 0.218173
0.217472 0.331975 0.218540
0.226749 0.332006 0.219211
0.236088 0.334234 0.217990
0.247745 0.337530 0.216281
0.262089 0.341558 0.214511
0.279484 0.346288 0.212131
0.300298 0.351934 0.209689
0.324468 0.357946 0.206332
0.352117 0.364294 0.202670
0.389502 0.377264 0.197177
0.447974 0.404273 0.186496
0.499458 0.418921 0.178378
0.552422 0.431434 0.169284
0.605829 0.442481 0.159915
0.658778 0.452094 0.148928
0.709834 0.459907 0.138094
0.758816 0.466316 0.126772
0.800565 0.470619 0.119692
0.830259 0.473030 0.123507
0.859281 0.476234 0.127047
0.887297 0.479835 0.131777
0.914244 0.484016 0.137636
0.940063 0.488960 0.144350
0.965026 0.494789 0.152621
0.989075 0.501518 0.162875
1.000000 0.509331 0.174319
1.000000 0.518029 0.188205
0.204440 0.369055 0.229129
0.204868 0.368933 0.229038
0.206943 0.368688 0.229068
0.210452 0.368475 0.229191
0.216312 0.368078 0.229404
0.224155 0.367712 0.229496
0.233616 0.367559 0.230014
0.244938 0.368475 0.229679
0.256779 0.371588 0.228000
0.271244 0.375280 0.226047
0.288548 0.379950 0.223697
0.308995 0.385351 0.221042
0.332738 0.391119 0.217777
0.359380 0.397345 0.213809
0.389258 0.403449 0.209323
0.427161 0.415045 0.203159
0.489052 0.444495 0.190433
0.540978 0.459297 0.181430
0.593652 0.471901 0.171695
0.645869 0.483070 0.161379
0.696773 0.492348 0.150271
0.746151 0.500008 0.139528
0.793362 0.506554 0.128359
0.838407 0.512016 0.117464
0.871183 0.514641 0.118196
0.897581 0.516747 0.125429
0.923125 0.519738 0.133181
0.947784 0.523278 0.142824
0.971588 0.527855 0.153017
0.994598 0.533440 0.164584
1.000000 0.539910 0.178439
1.000000 0.547601 0.194217
0.211063 0.406470 0.240940
0.211612 0.406500 0.241154
0.213687 0.406500 0.241093
0.217441 0.406317 0.241215
0.223514 0.406073 0.241367
0.232059 0.405859 0.241825
0.242924 0.405829 0.242252
0.255467 0.406043 0.242802
0.267704 0.408789 0.241245
0.282383 0.412421 0.239414
0.299687 0.416632 0.236851
0.319799 0.421210 0.234195
0.342504 0.426337 0.230625
0.368048 0.431708 0.226688
0.396368 0.437171 0.222080
0.427039 0.442634 0.216861
0.465217 0.452644 0.209659
0.526085 0.481361 0.197147
0.580835 0.498360 0.186221
0.632898 0.510979 0.176059
0.683803 0.522179 0.165866
0.733516 0.531487 0.155856
0.781369 0.539330 0.146090
0.826871 0.546105 0.136294
0.869261 0.551385 0.127596
0.908263 0.555230 0.121004
0.932555 0.556695 0.132204
0.955810 0.558953 0.143984
0.978332 0.562036 0.155856
1.000000 0.566033 0.169650
1.000000 0.571099 0.184298
1.000000 0.577142 0.201114
0.219852 0.444831 0.254124
0.220371 0.444770 0.254124
0.222629 0.444709 0.254093
0.226810 0.444617 0.254276
0.233005 0.444343 0.254429
0.242039 0.444160 0.254734
0.252781 0.444099 0.255253
0.266148 0.444190 0.255833
0.280217 0.445533 0.255558
0.294713 0.448859 0.253513
0.311803 0.452705 0.251011
0.331334 0.457008 0.248386
0.353643 0.461707 0.244938
0.378332 0.466651 0.241032
0.405402 0.471687 0.236362
0.435096 0.476814 0.231266
0.466560 0.481941 0.225406
0.503899 0.490486 0.217929
0.564294 0.518456 0.205844
0.621057 0.537438 0.193668
0.672023 0.550164 0.183993
0.721706 0.560998 0.174807
0.769497 0.570275 0.165927
0.815427 0.578210 0.157717
0.858183 0.584436 0.150851
0.897551 0.589197 0.146761
0.933654 0.592859 0.143801
0.963348 0.595087 0.147616
0.984619 0.596796 0.162387
1.000000 0.599451 0.177493
1.000000 0.602960 0.193759
1.000000 0.607752 0.211612
0.232792 0.484413 0.268833
0.233799 0.484596 0.268864
0.239384 0.493233 0.272587
0.243717 0.493202 0.272984
0.250370 0.493019 0.273198
0.259648 0.492775 0.273472
0.271305 0.492317 0.273655
0.284977 0.492103 0.274357
0.300206 0.492164 0.275273
0.315190 0.495033 0.273320
0.332097 0.498360 0.270665
0.351568 0.502129 0.267979
0.373266 0.506065 0.264256
0.397345 0.510185 0.260319
0.423438 0.514336 0.255833
0.451575 0.518517 0.250584
0.481697 0.522728 0.244541
0.513634 0.527092 0.237949
0.549401 0.533501 0.230350
0.607843 0.560174 0.218692
0.665980 0.580468 0.205631
0.714961 0.592309 0.197696
0.762295 0.602533 0.189792
0.807492 0.611139 0.183444
0.849760 0.617762 0.178805
0.888609 0.622858 0.175570
0.924254 0.626673 0.173648
0.957122 0.629389 0.174807
0.987182 0.631495 0.177218
1.000000 0.632868 0.188968
1.000000 0.635157 0.206180
1.000000 0.638453 0.224338
0.251804 0.526543 0.286687
0.252934 0.527337 0.287022
0.255131 0.528191 0.287388
0.259831 0.528862 0.288090
0.267124 0.529320 0.288670
0.275914 0.529320 0.289158
0.287114 0.529076 0.289464
0.300206 0.528771 0.289952
0.315679 0.528618 0.290837
0.331548 0.529870 0.290074
0.347936 0.532830 0.287907
0.366552 0.536309 0.285100
0.387335 0.539849 0.281682
0.410132 0.543664 0.277897
0.435157 0.547539 0.273686
0.462287 0.551751 0.268803
0.490791 0.555901 0.263066
0.521416 0.560204 0.256962
0.553826 0.564782 0.250126
0.588342 0.570123 0.242710
0.645502 0.595666 0.232547
0.703639 0.617273 0.220615
0.751034 0.628870 0.214481
0.796353 0.638819 0.208713
0.838499 0.646540 0.205295
0.877531 0.652522 0.203281
0.913298 0.657099 0.202853
0.946380 0.660456 0.204776
0.976745 0.663020 0.208194
1.000000 0.665003 0.213870
1.000000 0.666468 0.220706
1.000000 0.668482 0.239384
0.273594 0.564752 0.304631
0.274723 0.565545 0.305211
0.277348 0.566400 0.305669
0.281865 0.567163 0.306279
0.288457 0.567620 0.306920
0.297307 0.567651 0.307225
0.307897 0.567498 0.307683
0.320989 0.567163 0.308141
0.335729 0.566918 0.308873
0.352331 0.566705 0.310033
0.368109 0.569482 0.307622
0.385809 0.572473 0.304875
0.405707 0.575799 0.301946
0.427405 0.579309 0.298436
0.451209 0.582910 0.294194
0.476783 0.586694 0.289677
0.503960 0.590509 0.284520
0.532921 0.594507 0.278904
0.563195 0.598566 0.272709
0.595209 0.602960 0.265812
0.628473 0.607477 0.258762
0.682887 0.630976 0.250278
0.740536 0.653498 0.240146
0.785763 0.664607 0.235935
0.827726 0.673518 0.232914
0.866789 0.680354 0.232242
0.902678 0.685695 0.232700
0.935851 0.689723 0.235355
0.966278 0.693019 0.239780
0.994537 0.695460 0.246067
1.000000 0.697322 0.254154
1.000000 0.698787 0.263401
0.300786 0.603449 0.325200
0.301854 0.604242 0.325780
0.304387 0.605005 0.326390
0.308690 0.605615 0.326818
0.314794 0.606043 0.327642
0.323156 0.606043 0.327886
0.333196 0.605921 0.328496
0.345495 0.605585 0.328801
0.359594 0.605310 0.329625
0.375586 0.604944 0.330327
0.391669 0.606195 0.329839
0.408392 0.608850 0.327367
0.427008 0.611749 0.324620
0.447700 0.614862 0.321477
0.469825 0.618128 0.317540
0.493965 0.621576 0.313664
0.519707 0.625360 0.309117
0.547204 0.629297 0.304265
0.576196 0.633509 0.299107
0.606867 0.637964 0.293217
0.638819 0.642695 0.286870
0.671962 0.647517 0.280217
0.723232 0.668757 0.274449
0.779721 0.692073 0.266300
0.821622 0.702205 0.265629
0.860410 0.710048 0.266453
0.896117 0.716182 0.268528
0.928954 0.721004 0.272862
0.959228 0.724727 0.278935
0.987304 0.727718 0.286198
1.000000 0.730037 0.295628
1.000000 0.731746 0.305852
0.337713 0.645991 0.352667
0.338476 0.646326 0.352789
0.340337 0.646479 0.353094
0.343938 0.646509 0.353277
0.349248 0.646479 0.353613
0.356634 0.646143 0.353826
0.365576 0.645808 0.354131
0.376593 0.645533 0.354681
0.389776 0.645167 0.355322
0.404852 0.644923 0.356176
0.421241 0.644862 0.357183
0.436805 0.647120 0.354833
0.453925 0.649714 0.352483
0.472877 0.652430 0.349401
0.493538 0.655238 0.346288
0.515740 0.658350 0.342290
0.539635 0.661585 0.338323
0.565179 0.664942 0.333654
0.591974 0.668544 0.328801
0.620294 0.672358 0.323583
0.649805 0.676265 0.317937
0.680507 0.680385 0.311864
0.711971 0.684474 0.305119
0.758785 0.702571 0.300389
0.811948 0.725002 0.295201
0.850645 0.734005 0.296635
0.886137 0.741054 0.300298
0.918975 0.746670 0.304967
0.949279 0.751156 0.311833
0.977295 0.754665 0.320439
1.000000 0.757443 0.330083
1.000000 0.759701 0.341863
0.374304 0.682429 0.379767
0.374701 0.682704 0.379950
0.376562 0.682918 0.380377
0.379736 0.682948 0.380560
0.384375 0.682887 0.380835
0.391028 0.682612 0.380957
0.399176 0.682368 0.381384
0.409461 0.682002 0.381903
0.421302 0.681788 0.382483
0.435248 0.681514 0.383673
0.450416 0.681300 0.384710
0.465644 0.682429 0.383978
0.481270 0.684718 0.381537
0.498787 0.687190 0.379126
0.517662 0.689815 0.376196
0.538262 0.692683 0.372839
0.560479 0.695735 0.369390
0.584009 0.698909 0.365576
0.608850 0.702174 0.361181
0.635187 0.705562 0.356451
0.662745 0.709133 0.351843
0.691127 0.712764 0.346288
0.720363 0.716518 0.340734
0.750362 0.720241 0.334600
0.790311 0.733272 0.329473
0.838254 0.753353 0.327611
0.876036 0.763455 0.330785
0.908782 0.769863 0.336492
0.938994 0.775051 0.343999
0.967041 0.779232 0.353246
0.993011 0.782681 0.364385
1.000000 0.785550 0.376562
0.416571 0.720302 0.412757
0.417426 0.720729 0.413275
0.419104 0.720851 0.413458
0.421668 0.720699 0.413550
0.425299 0.720363 0.413581
0.430640 0.719905 0.413672
0.437598 0.719173 0.413489
0.446143 0.718502 0.413458
0.456336 0.717861 0.413703
0.468299 0.717250 0.414221
0.481819 0.716640 0.414984
0.496559 0.716365 0.415564
0.510307 0.718074 0.413367
0.525689 0.719966 0.410712
0.542351 0.721920 0.407691
0.560632 0.724025 0.404547
0.580529 0.726345 0.401099
0.601831 0.728939 0.397375
0.624628 0.731746 0.393622
0.648768 0.734859 0.389807
0.674189 0.738125 0.385748
0.700435 0.741421 0.381384
0.727382 0.744625 0.376379
0.754818 0.747768 0.371008
0.782742 0.750820 0.365026
0.820401 0.763272 0.363409
0.862974 0.780880 0.364263
0.899504 0.791684 0.368872
0.929412 0.797421 0.376928
0.957183 0.802182 0.386786
0.983062 0.806149 0.398016
1.000000 0.809598 0.411597
0.456062 0.751858 0.444831
0.456825 0.752163 0.445197
0.458473 0.752346 0.445594
0.460731 0.752316 0.445655
0.464240 0.752163 0.445869
0.469276 0.751949 0.446296
0.475441 0.751675 0.446387
0.483528 0.751369 0.446906
0.493080 0.751064 0.447547
0.504082 0.750790 0.448280
0.516411 0.750484 0.449439
0.530205 0.750149 0.450568
0.543328 0.750942 0.449592
0.556970 0.752590 0.447425
0.571984 0.754269 0.444892
0.588159 0.756039 0.441993
0.605859 0.757992 0.438819
0.624872 0.760159 0.435676
0.645441 0.762539 0.432502
0.667079 0.765194 0.429023
0.689998 0.768002 0.425666
0.713893 0.770901 0.422065
0.738460 0.773800 0.417884
0.763699 0.776638 0.413367
0.789364 0.779446 0.408667
0.815305 0.782223 0.403235
0.848966 0.792721 0.403052
0.886503 0.808255 0.406744
0.921904 0.819883 0.413611
0.949248 0.825193 0.424201
0.974670 0.829740 0.436774
0.998383 0.833616 0.450843
0.500603 0.783017 0.482155
0.501122 0.783169 0.482429
0.502220 0.783169 0.482612
0.504204 0.783139 0.482643
0.507164 0.782956 0.482795
0.511315 0.782712 0.483009
0.516777 0.782467 0.483284
0.523552 0.782162 0.483680
0.531853 0.781827 0.484321
0.541375 0.781582 0.484993
0.552422 0.781216 0.485939
0.564599 0.780880 0.487160
0.577325 0.780819 0.487953
0.589288 0.782223 0.485908
0.602289 0.783688 0.483680
0.616632 0.785183 0.481147
0.632044 0.786893 0.478492
0.648920 0.788724 0.475471
0.667018 0.790799 0.472786
0.686366 0.793088 0.469917
0.706844 0.795560 0.467079
0.728145 0.798093 0.463996
0.750271 0.800595 0.460609
0.772976 0.803128 0.457038
0.796170 0.805631 0.452796
0.819699 0.808042 0.448188
0.843565 0.810544 0.443488
0.873472 0.819211 0.443641
0.906584 0.832822 0.449744
0.940826 0.845335 0.458747
0.965911 0.850431 0.472206
0.989349 0.854917 0.487098
0.545312 0.811002 0.521080
0.545892 0.811093 0.521294
0.546807 0.811185 0.521660
0.548547 0.811185 0.521782
0.551293 0.811185 0.522057
0.555291 0.811154 0.522667
0.560601 0.811307 0.523552
0.567437 0.811490 0.524773
0.575372 0.811734 0.526207
0.584619 0.812070 0.528069
0.595148 0.812375 0.530022
0.606561 0.812650 0.532189
0.618860 0.812802 0.534234
0.630304 0.813962 0.534386
0.641962 0.815518 0.532982
0.654231 0.817014 0.531151
0.667567 0.818509 0.529046
0.682002 0.820157 0.526848
0.697597 0.821988 0.524712
0.714229 0.823972 0.522545
0.731868 0.826078 0.520317
0.750393 0.828305 0.517876
0.769558 0.830472 0.515099
0.789364 0.832670 0.512047
0.809598 0.834867 0.508934
0.830381 0.837003 0.505211
0.851499 0.839200 0.501213
0.873136 0.841367 0.496834
0.899290 0.848478 0.497780
0.928038 0.860166 0.505364
0.960327 0.873075 0.516747
0.983001 0.877958 0.532097
0.597650 0.840543 0.568444
0.597833 0.840543 0.568444
0.598505 0.840513 0.568505
0.599725 0.840391 0.568597
0.601770 0.840299 0.568658
0.604822 0.840177 0.568841
0.608698 0.840024 0.569177
0.613825 0.839902 0.569726
0.620020 0.839841 0.570581
0.627375 0.839719 0.571649
0.635615 0.839658 0.572869
0.644831 0.839597 0.574334
0.654994 0.839506 0.575769
0.665400 0.839628 0.576776
