20 Preset/Food Style/【3】LUT video cho PR-AE-FCPX/Food Style Tone (14).cube
# Created by Adobe Lightroom plugin Export LUT (1.24.0)
# www.johnrellis.com/lightroom/exportlut.htm
# Preset: 静谧咖啡-素材江湖10
# Color profile: E:\lut插件\exportlut.1.24\exportlut.lrplugin\color profiles\Rec709gamma2.4.icc
LUT_3D_SIZE 32
DOMAIN_MIN 0.0 0.0 0.0
DOMAIN_MAX 1.0 1.0 1.0
0.047669 0.103548 0.156832
0.047669 0.103548 0.156832
0.049653 0.103456 0.156832
0.052613 0.103700 0.156985
0.061555 0.103731 0.157168
0.076692 0.104219 0.157443
0.093690 0.104463 0.157534
0.110475 0.104311 0.157931
0.133303 0.104219 0.158022
0.162264 0.102998 0.158175
0.196017 0.100282 0.158175
0.234806 0.095735 0.158114
0.278080 0.086091 0.157778
0.324926 0.057710 0.157473
0.374334 0.012085 0.156771
0.425483 0.000000 0.156191
0.478645 0.000000 0.154971
0.532708 0.000000 0.153628
0.587335 0.000000 0.151919
0.642237 0.000000 0.149844
0.698573 0.000000 0.147341
0.758389 0.000000 0.144167
0.810849 0.000000 0.141329
0.858061 0.000000 0.139162
0.900694 0.000000 0.137697
0.939330 0.000000 0.137697
0.974456 0.000000 0.139742
1.000000 0.027314 0.144411
1.000000 0.140078 0.152102
1.000000 0.192142 0.163394
1.000000 0.236271 0.178653
1.000000 0.277012 0.198611
0.047669 0.103548 0.156832
0.047669 0.103548 0.156832
0.048951 0.103853 0.156802
0.052613 0.103700 0.156985
0.060853 0.104128 0.157137
0.078462 0.104158 0.157443
0.093690 0.104463 0.157534
0.110292 0.104677 0.157900
0.132876 0.104280 0.158022
0.160952 0.103273 0.158206
0.194400 0.101106 0.158175
0.232700 0.096193 0.158145
0.275273 0.088319 0.157809
0.321965 0.061860 0.157351
0.370947 0.019471 0.156832
0.422126 0.000000 0.156039
0.475074 0.000000 0.155062
0.529015 0.000000 0.153384
0.583612 0.000000 0.151919
0.638270 0.000000 0.149691
0.694240 0.000000 0.147341
0.752743 0.000000 0.144381
0.804379 0.000000 0.141360
0.851377 0.000000 0.139040
0.894102 0.000000 0.137667
0.933104 0.000000 0.137423
0.968688 0.000000 0.139284
1.000000 0.000000 0.143374
1.000000 0.131960 0.150607
1.000000 0.185885 0.161349
1.000000 0.230808 0.176028
1.000000 0.271977 0.195407
0.045655 0.104280 0.157168
0.047639 0.104219 0.157168
0.049928 0.104158 0.156985
0.053193 0.104372 0.156954
0.063386 0.104707 0.157076
0.079805 0.105104 0.157168
0.094301 0.105409 0.157443
0.110872 0.105623 0.157626
0.133120 0.105592 0.157931
0.161410 0.104921 0.157870
0.194400 0.103243 0.157809
0.232242 0.099062 0.157778
0.274510 0.092073 0.157412
0.320806 0.074037 0.157107
0.369574 0.032532 0.156405
0.420447 0.000000 0.155612
0.472877 0.000000 0.154391
0.526818 0.000000 0.153079
0.581323 0.000000 0.151400
0.635981 0.000000 0.148928
0.692500 0.000000 0.146456
0.749905 0.000000 0.143313
0.801358 0.000000 0.140475
0.848081 0.000000 0.137972
0.890776 0.000000 0.136477
0.929625 0.000000 0.136172
0.965545 0.000000 0.137362
0.998444 0.015656 0.141482
1.000000 0.135653 0.148379
1.000000 0.187411 0.159182
1.000000 0.231540 0.174014
1.000000 0.272221 0.193088
0.045899 0.105592 0.157656
0.047883 0.105531 0.157656
0.047883 0.105531 0.157656
0.052705 0.106050 0.157382
0.063508 0.106355 0.157137
0.081117 0.106722 0.157229
0.096254 0.107240 0.157290
0.113191 0.108034 0.157412
0.135531 0.108583 0.157443
0.163272 0.108553 0.157534
0.195773 0.107301 0.157473
0.233585 0.103975 0.157168
0.275395 0.098695 0.156924
0.320806 0.088899 0.156405
0.368963 0.058564 0.155642
0.419043 0.012604 0.154726
0.470985 0.000000 0.153506
0.523949 0.000000 0.151949
0.578058 0.000000 0.149966
0.632166 0.000000 0.147707
0.688563 0.000000 0.144747
0.744320 0.000000 0.141817
0.795010 0.000000 0.138308
0.842130 0.000000 0.135866
0.885649 0.000000 0.133730
0.925750 0.000000 0.132815
0.962676 0.000000 0.134218
0.996399 0.085328 0.138430
1.000000 0.150301 0.144961
1.000000 0.197177 0.156222
1.000000 0.238163 0.170687
1.000000 0.276890 0.189822
0.046357 0.108186 0.158602
0.046357 0.108186 0.158602
0.048341 0.108125 0.158602
0.051606 0.108339 0.158572
0.061585 0.109346 0.157870
0.083131 0.110170 0.157534
0.097658 0.111299 0.157321
0.115785 0.112184 0.157229
0.138125 0.113252 0.157015
0.165774 0.113771 0.156863
0.197848 0.113802 0.156680
0.234745 0.112123 0.156283
0.276158 0.108492 0.155947
0.321080 0.101656 0.155306
0.368475 0.091493 0.154391
0.418494 0.062318 0.153170
0.470405 0.013214 0.151705
0.523613 0.000000 0.149783
0.577325 0.000000 0.147860
0.631128 0.000000 0.145388
0.687861 0.000000 0.142031
0.742550 0.000000 0.138247
0.792721 0.000000 0.134829
0.839780 0.000000 0.131655
0.883421 0.000000 0.129213
0.923796 0.000000 0.128145
0.960967 0.022675 0.129549
0.994659 0.124453 0.133181
1.000000 0.171572 0.140261
1.000000 0.212100 0.150881
1.000000 0.249271 0.166079
1.000000 0.285405 0.185550
0.042939 0.113008 0.159945
0.042939 0.113008 0.159945
0.044923 0.112947 0.159945
0.050874 0.112734 0.159945
0.060548 0.113680 0.159457
0.080293 0.115480 0.158663
0.100221 0.117983 0.157900
0.118929 0.119539 0.157321
0.142733 0.120790 0.157046
0.170932 0.121828 0.156619
0.202884 0.122469 0.156130
0.239597 0.122652 0.155337
0.280339 0.121370 0.154421
0.324895 0.117769 0.153353
0.372076 0.111604 0.152193
0.421393 0.101808 0.150759
0.473091 0.087251 0.149020
0.525933 0.044099 0.146975
0.579492 0.000000 0.144198
0.634363 0.000000 0.141115
0.690761 0.000000 0.137209
0.744503 0.000000 0.133181
0.828702 0.000000 0.125032
0.874083 0.000000 0.121187
0.915129 0.082734 0.118929
0.952270 0.127443 0.118959
0.985809 0.163180 0.122103
1.000000 0.196384 0.128328
1.000000 0.228702 0.137819
1.000000 0.259739 0.151949
1.000000 0.290684 0.169833
1.000000 0.320958 0.191836
0.035004 0.121859 0.162051
0.035004 0.121859 0.162051
0.038972 0.121736 0.162051
0.044221 0.121889 0.162020
0.057008 0.122072 0.161776
0.078187 0.124544 0.160708
0.098451 0.127871 0.159274
0.125643 0.132784 0.157687
0.152010 0.134768 0.157015
0.181827 0.136019 0.156466
0.215702 0.136446 0.155459
0.253422 0.137087 0.154696
0.294835 0.136782 0.153719
0.339239 0.135195 0.152316
0.386145 0.131899 0.150637
0.434882 0.126741 0.148775
0.485786 0.120058 0.146090
0.537774 0.111360 0.142977
0.590570 0.101442 0.139040
0.649744 0.091493 0.133852
0.708095 0.082856 0.128847
0.763943 0.085267 0.122774
0.815671 0.099916 0.116823
0.863584 0.121248 0.111666
0.907073 0.145327 0.108156
0.945739 0.170962 0.107454
0.980072 0.197055 0.109499
1.000000 0.223392 0.115480
1.000000 0.250187 0.125765
1.000000 0.276921 0.140993
1.000000 0.304295 0.159396
1.000000 0.332372 0.181338
0.019104 0.134737 0.165103
0.019104 0.134737 0.165103
0.024384 0.134859 0.165072
0.032624 0.134646 0.164889
0.047791 0.134524 0.164858
0.070130 0.136172 0.164065
0.094911 0.140108 0.162203
0.119387 0.145449 0.160006
0.155886 0.153323 0.157259
0.187137 0.155032 0.156344
0.221897 0.156405 0.155367
0.259648 0.156649 0.154177
0.300389 0.155673 0.152865
0.343877 0.155734 0.151247
0.389807 0.154726 0.149538
0.438087 0.152438 0.147402
0.487831 0.149660 0.144656
0.539025 0.146181 0.141176
0.595087 0.143252 0.136812
0.651606 0.142184 0.130922
0.707179 0.144289 0.123781
0.760983 0.151278 0.114961
0.811490 0.162722 0.104707
0.858671 0.176516 0.096925
0.901976 0.193820 0.090822
0.940673 0.212253 0.088655
0.975280 0.232395 0.090791
1.000000 0.253605 0.097749
1.000000 0.276127 0.109224
1.000000 0.299504 0.125734
1.000000 0.323369 0.147097
1.000000 0.348455 0.170596
0.000000 0.153506 0.169375
0.000000 0.153506 0.169375
0.000000 0.153384 0.169192
0.010834 0.153140 0.169192
0.030274 0.152956 0.168978
0.057679 0.152621 0.168765
0.089448 0.156832 0.166690
0.113344 0.162692 0.164248
0.146120 0.169497 0.160952
0.191226 0.179995 0.156649
0.228672 0.182315 0.155154
0.267491 0.183169 0.153719
0.308629 0.183230 0.151766
0.351324 0.182345 0.149844
0.396063 0.180911 0.147799
0.443183 0.180789 0.145327
0.492226 0.180362 0.142428
0.546227 0.180606 0.138338
0.600641 0.181277 0.133608
0.654902 0.183627 0.127382
0.708705 0.188449 0.119722
0.760616 0.196078 0.110079
0.809812 0.206760 0.099062
0.856046 0.220768 0.083833
0.898589 0.236271 0.050965
0.937072 0.252262 0.029725
0.971618 0.268742 0.031800
1.000000 0.286534 0.048859
1.000000 0.305425 0.084047
1.000000 0.325444 0.105745
1.000000 0.346197 0.130251
1.000000 0.368322 0.156680
0.000000 0.177829 0.175326
0.000000 0.177768 0.175326
0.000000 0.177523 0.175174
0.000000 0.177432 0.174960
0.000000 0.177066 0.174777
0.032502 0.176333 0.174441
0.076265 0.177279 0.173495
0.106325 0.183566 0.170474
0.137942 0.191104 0.166781
0.177401 0.199771 0.162173
0.229587 0.212070 0.155612
0.273777 0.215427 0.152773
0.315587 0.216281 0.150546
0.358862 0.215915 0.148409
0.403723 0.215091 0.145510
0.451179 0.213657 0.142245
0.501732 0.214664 0.138399
0.554314 0.216800 0.133883
0.606958 0.220005 0.128573
0.659846 0.223941 0.121706
0.711452 0.230014 0.113680
0.760861 0.237705 0.103883
0.807858 0.247440 0.091341
0.852140 0.259007 0.068208
0.893248 0.272251 0.031830
0.931090 0.286595 0.000000
0.965576 0.302342 0.000000
0.997070 0.317815 0.000000
1.000000 0.334142 0.000610
1.000000 0.351843 0.059083
1.000000 0.370245 0.106691
1.000000 0.389868 0.139620
0.000000 0.206332 0.183078
0.000000 0.206302 0.183078
0.000000 0.206210 0.182925
0.000000 0.205966 0.182742
0.000000 0.205447 0.182437
0.000000 0.205020 0.182071
0.050233 0.204318 0.181552
0.097444 0.208347 0.179080
0.129732 0.216342 0.175021
0.168734 0.225711 0.169680
0.214755 0.236088 0.162905
0.272526 0.250126 0.154086
0.323369 0.255650 0.148989
0.368933 0.256779 0.145724
0.416022 0.256992 0.142367
0.463935 0.257084 0.138399
0.512230 0.256260 0.133761
0.561059 0.254948 0.128145
0.612085 0.258640 0.121920
0.663020 0.263859 0.114809
0.713008 0.270115 0.105684
0.760922 0.278050 0.094087
0.806851 0.287297 0.075654
0.850340 0.297673 0.040101
0.890929 0.309880 0.003235
0.928222 0.322881 0.000000
0.962463 0.336553 0.000000
0.993805 0.351202 0.000000
1.000000 0.366308 0.000000
1.000000 0.381323 0.000000
1.000000 0.397162 0.050446
1.000000 0.414252 0.115938
0.000000 0.240269 0.192782
0.000000 0.240452 0.192874
0.000000 0.240146 0.192782
0.000000 0.240024 0.192447
0.000000 0.239536 0.192142
0.000000 0.239017 0.191836
0.005921 0.238529 0.191165
0.087312 0.237613 0.190341
0.121614 0.245548 0.185946
0.159976 0.255344 0.180362
0.205386 0.267033 0.173373
0.258549 0.280186 0.164004
0.339208 0.311070 0.149935
0.401312 0.320989 0.139895
0.451057 0.321477 0.134707
0.500847 0.321355 0.129458
0.550256 0.320806 0.122896
0.599054 0.320256 0.114870
0.646876 0.319677 0.105684
0.694331 0.320958 0.094514
0.742092 0.327916 0.077729
0.787076 0.335210 0.045716
0.829740 0.343633 0.012696
0.869993 0.352880 0.000000
0.907317 0.362890 0.000000
0.941802 0.373480 0.000000
0.973236 0.384283 0.000000
1.000000 0.395819 0.000000
1.000000 0.407813 0.000000
1.000000 0.420386 0.000000
1.000000 0.433051 0.000000
1.000000 0.447059 0.088655
0.000000 0.284031 0.206058
0.000000 0.283909 0.206058
0.000000 0.283543 0.205722
0.000000 0.282963 0.205509
0.000000 0.282170 0.205020
0.000000 0.281559 0.204471
0.000000 0.280949 0.204013
0.052888 0.280461 0.203037
0.116396 0.283482 0.200961
0.156497 0.294713 0.195224
0.202426 0.307927 0.187747
0.255436 0.322972 0.178317
0.316503 0.339330 0.165499
0.387671 0.358526 0.146853
0.457160 0.372869 0.130007
0.507378 0.372747 0.123201
0.556481 0.372198 0.115206
0.604150 0.371130 0.106600
0.650538 0.370459 0.095552
0.695766 0.369787 0.079194
0.738949 0.369635 0.040772
0.781735 0.372717 0.007202
0.823819 0.380163 0.000000
0.863706 0.388525 0.000000
0.900999 0.397345 0.000000
0.935637 0.406806 0.000000
0.967407 0.416571 0.000000
0.996368 0.427008 0.000000
1.000000 0.437568 0.000000
1.000000 0.448768 0.000000
1.000000 0.460487 0.000000
1.000000 0.472450 0.000000
0.000000 0.328923 0.220188
0.000000 0.328893 0.220188
0.000000 0.328313 0.219913
0.000000 0.327581 0.219669
0.000000 0.326452 0.218936
0.000000 0.325383 0.218173
0.000000 0.323949 0.217197
0.000000 0.322911 0.216312
0.107424 0.321599 0.215274
0.149966 0.329107 0.210971
0.194034 0.342168 0.203494
0.244388 0.356939 0.194583
0.301946 0.373297 0.182406
0.366339 0.390448 0.166201
0.437079 0.407813 0.144198
0.513024 0.426398 0.116457
0.561944 0.425299 0.107637
0.609094 0.423651 0.096559
0.654780 0.422522 0.079713
0.698848 0.421393 0.042664
0.740749 0.420264 0.005524
0.781186 0.419501 0.000000
0.820218 0.419501 0.000000
0.859403 0.425452 0.000000
0.896452 0.433448 0.000000
0.931060 0.441566 0.000000
0.962799 0.450202 0.000000
0.991882 0.459083 0.000000
1.000000 0.468421 0.000000
1.000000 0.478431 0.000000
1.000000 0.488472 0.000000
1.000000 0.499184 0.000000
0.000000 0.375189 0.235660
0.000000 0.374853 0.235508
0.000000 0.374334 0.235386
0.000000 0.373144 0.234714
0.000000 0.371801 0.234043
0.000000 0.370031 0.233005
0.000000 0.368475 0.231937
0.000000 0.366705 0.230625
0.090394 0.365057 0.229221
0.144900 0.364721 0.227848
0.187900 0.377234 0.221225
0.235935 0.391852 0.212680
0.290135 0.407691 0.201389
0.350378 0.424506 0.187015
0.416876 0.441657 0.167636
0.488228 0.458656 0.140139
0.567254 0.479591 0.099306
0.614221 0.477668 0.084993
0.659419 0.475776 0.047700
0.702327 0.473579 0.012726
0.743252 0.471504 0.000000
0.782895 0.469978 0.000000
0.821012 0.468971 0.000000
0.857572 0.468727 0.000000
0.892332 0.469276 0.000000
0.926696 0.476417 0.000000
0.958495 0.483925 0.000000
0.987823 0.491768 0.000000
1.000000 0.500206 0.000000
1.000000 0.509148 0.000000
1.000000 0.518517 0.000000
1.000000 0.528344 0.000000
0.000000 0.420478 0.251652
0.000000 0.420417 0.251438
0.000000 0.419867 0.251164
0.000000 0.419257 0.250736
0.000000 0.418219 0.250187
0.000000 0.416876 0.249363
0.000000 0.415595 0.248264
0.000000 0.414191 0.247013
0.043854 0.412818 0.245884
0.139895 0.411383 0.244388
0.185916 0.415534 0.240452
0.231601 0.428809 0.232425
0.282109 0.443336 0.222019
0.337987 0.458534 0.209140
0.399542 0.474311 0.192111
0.466011 0.490394 0.169284
0.536919 0.506584 0.136751
0.616175 0.528801 0.079042
0.662501 0.527092 0.030671
0.704646 0.524041 0.000000
0.745480 0.521324 0.000000
0.784695 0.519158 0.000000
0.822354 0.517662 0.000000
0.858335 0.516503 0.000000
0.892363 0.515984 0.000000
0.924651 0.515709 0.000000
0.955444 0.518517 0.000000
0.984619 0.525414 0.000000
1.000000 0.532555 0.000000
1.000000 0.540215 0.000000
1.000000 0.548089 0.000000
1.000000 0.556420 0.000000
0.000000 0.465431 0.268498
0.000000 0.465309 0.268315
0.000000 0.464973 0.268101
0.000000 0.464393 0.267643
0.000000 0.463416 0.267155
0.000000 0.462226 0.266117
0.000000 0.460853 0.265263
0.000000 0.459449 0.263951
0.000000 0.458015 0.262699
0.130678 0.456275 0.261051
0.184787 0.454261 0.259190
0.228702 0.463630 0.252689
0.276585 0.477394 0.243565
0.329259 0.491829 0.231754
0.386664 0.506981 0.216983
0.449287 0.522240 0.198276
0.515282 0.537621 0.173373
0.584802 0.553307 0.138399
0.661707 0.574487 0.064759
0.708309 0.573968 0.001373
0.748348 0.570397 0.000000
0.786831 0.567620 0.000000
0.823789 0.565332 0.000000
0.859098 0.563287 0.000000
0.892485 0.561913 0.000000
0.924071 0.560967 0.000000
0.953735 0.560571 0.000000
0.981506 0.560540 0.000000
1.000000 0.564813 0.000000
1.000000 0.571374 0.000000
1.000000 0.578149 0.000000
1.000000 0.585290 0.000000
0.000000 0.511894 0.287877
0.000000 0.512200 0.287938
0.000000 0.527337 0.294713
0.000000 0.526726 0.294224
0.000000 0.525841 0.293645
0.000000 0.524468 0.292424
0.000000 0.522637 0.291264
0.000000 0.520836 0.289830
0.000000 0.518822 0.287999
0.140047 0.516777 0.286320
0.196506 0.514427 0.283970
0.241611 0.513664 0.280949
0.286412 0.526177 0.272282
0.336584 0.539239 0.261265
0.390845 0.552697 0.248020
0.449653 0.566430 0.231724
0.511589 0.580041 0.210727
0.575830 0.593530 0.184054
0.641901 0.606897 0.147585
0.713039 0.624628 0.088838
0.759213 0.624994 0.011048
0.796109 0.620478 0.000000
0.831174 0.616510 0.000000
0.864591 0.613092 0.000000
0.896056 0.609857 0.000000
0.925872 0.607141 0.000000
0.953765 0.605005 0.000000
0.980224 0.603357 0.000000
1.000000 0.602594 0.000000
1.000000 0.602319 0.000000
1.000000 0.607843 0.000000
1.000000 0.613916 0.000000
0.000000 0.561975 0.311131
0.000000 0.563500 0.312016
0.000000 0.564660 0.312596
0.000000 0.565393 0.312657
0.000000 0.565667 0.312688
0.000000 0.564782 0.311894
0.000000 0.563378 0.310735
0.000000 0.561242 0.308904
0.000000 0.559380 0.307225
0.139437 0.557122 0.305211
0.198825 0.554742 0.303105
0.245274 0.551904 0.300511
0.286961 0.556207 0.294835
0.333165 0.568505 0.285374
0.383948 0.581323 0.274235
0.438788 0.594263 0.260197
0.496773 0.607141 0.243412
0.557183 0.620050 0.222904
0.619562 0.632898 0.196780
0.682979 0.645624 0.162570
0.750362 0.662013 0.113588
0.797421 0.664546 0.065522
0.831785 0.659907 0.025971
0.864469 0.655726 0.000000
0.895109 0.651911 0.000000
0.923980 0.648371 0.000000
0.951110 0.645441 0.000000
0.976806 0.642969 0.000000
1.000000 0.641230 0.000000
1.000000 0.640131 0.000000
1.000000 0.639826 0.000000
1.000000 0.641291 0.000000
0.000000 0.603845 0.333379
0.000000 0.605035 0.334020
0.000000 0.606378 0.334844
0.000000 0.607294 0.335241
0.000000 0.607507 0.335058
0.000000 0.606867 0.334447
0.000000 0.605463 0.332982
0.000000 0.603693 0.331395
0.010407 0.601740 0.329595
0.153048 0.599420 0.327459
0.209171 0.597070 0.324987
0.254978 0.594232 0.322393
0.295109 0.591028 0.319402
0.337407 0.600366 0.311742
0.384283 0.612177 0.302220
0.435065 0.624018 0.290440
0.488838 0.635981 0.276555
0.545129 0.647883 0.259892
0.603418 0.659663 0.240330
0.663264 0.671534 0.215305
0.723262 0.683162 0.184451
0.786221 0.697719 0.144594
0.832670 0.701595 0.116060
0.864378 0.696742 0.107088
0.894163 0.692287 0.094697
0.922179 0.688075 0.080232
0.948547 0.684291 0.050904
0.973449 0.680964 0.029206
0.997009 0.678492 0.011963
1.000000 0.676661 0.007050
1.000000 0.675532 0.012238
1.000000 0.674983 0.024903
0.000000 0.644831 0.358679
0.000000 0.645991 0.359350
0.000000 0.646967 0.359991
0.000000 0.647669 0.360418
0.000000 0.647883 0.360418
0.000000 0.647242 0.359625
0.000000 0.646082 0.358404
0.000000 0.644373 0.356573
0.111604 0.642603 0.354864
0.179568 0.640467 0.352575
0.229099 0.638361 0.350439
0.271427 0.635706 0.347539
0.310033 0.632746 0.344396
0.347265 0.632380 0.340063
0.390448 0.643091 0.331884
0.437232 0.654017 0.322271
0.486946 0.665339 0.311315
0.539605 0.676753 0.298009
0.594507 0.688228 0.282841
0.651179 0.699794 0.265141
0.708797 0.711299 0.243534
0.765957 0.722469 0.217258
0.824338 0.735622 0.186343
0.869200 0.740322 0.167880
0.898222 0.735561 0.162112
0.925139 0.730983 0.157931
0.950469 0.726619 0.153658
0.974395 0.722744 0.149874
0.997070 0.719509 0.149172
1.000000 0.716854 0.150088
1.000000 0.714931 0.153384
1.000000 0.713588 0.159457
0.000000 0.690944 0.393500
0.000000 0.691463 0.393774
0.000000 0.691615 0.394110
0.000000 0.691493 0.393774
0.000000 0.690913 0.393286
0.000000 0.689815 0.391791
0.000000 0.688502 0.390356
0.125338 0.686976 0.388647
0.180362 0.685267 0.386725
0.225010 0.683345 0.384497
0.265202 0.681331 0.382055
0.302159 0.678981 0.379339
0.336919 0.676356 0.376287
0.370245 0.673304 0.372625
0.406592 0.677363 0.366796
0.448768 0.687068 0.358679
0.493690 0.696925 0.349615
0.541650 0.706966 0.338659
0.591608 0.716976 0.326207
0.643427 0.726986 0.312078
0.696345 0.736873 0.295476
0.749447 0.746487 0.275608
0.801785 0.755734 0.252232
0.854551 0.766598 0.226474
0.896727 0.771054 0.211856
0.922728 0.766049 0.207797
0.947265 0.761288 0.205356
0.970581 0.756893 0.203372
0.992676 0.753109 0.203098
1.000000 0.750027 0.204776
1.000000 0.747524 0.207431
1.000000 0.745632 0.213107
0.000000 0.726986 0.425971
0.000000 0.727291 0.426307
0.000000 0.727382 0.426337
0.029938 0.727230 0.426062
0.105135 0.726741 0.425483
0.141176 0.725887 0.424537
0.174838 0.724758 0.422889
0.207279 0.723476 0.421088
0.240146 0.721920 0.419196
0.272435 0.720333 0.417334
0.304021 0.718532 0.414862
0.334997 0.716579 0.412268
0.365637 0.714046 0.408759
0.395819 0.711482 0.405585
0.425788 0.708492 0.401709
0.462776 0.716548 0.395148
0.503563 0.725612 0.387579
0.546654 0.734707 0.379248
0.592493 0.743801 0.369177
0.639857 0.752804 0.357977
0.688563 0.761746 0.345464
0.737911 0.770413 0.330724
0.786893 0.778805 0.313390
0.835019 0.786801 0.293187
0.880156 0.793545 0.265446
0.919249 0.797665 0.253880
0.943236 0.792721 0.251713
0.965820 0.788083 0.251072
0.987366 0.783993 0.250706
1.000000 0.780423 0.252873
1.000000 0.777584 0.256504
1.000000 0.775448 0.261814
0.214969 0.763851 0.465949
0.218112 0.764340 0.466651
0.222599 0.764431 0.466682
0.228763 0.764034 0.465980
0.237766 0.763241 0.464881
0.250370 0.762081 0.463294
0.264866 0.760586 0.461158
0.282414 0.758907 0.458778
0.302831 0.757076 0.456367
0.324865 0.755093 0.453498
0.348394 0.752987 0.450568
0.373205 0.750729 0.447333
0.398688 0.748318 0.443885
0.424659 0.745602 0.440101
0.450385 0.742489 0.435584
0.478645 0.742397 0.430457
0.514092 0.750057 0.423713
0.552544 0.757992 0.416449
0.593652 0.766110 0.408423
0.636927 0.774350 0.399542
0.681636 0.782559 0.389746
0.726986 0.790433 0.378363
0.772396 0.797879 0.364874
0.816983 0.804898 0.349187
0.860319 0.811368 0.330419
0.903868 0.819272 0.309941
0.938384 0.821683 0.300999
0.961608 0.817563 0.298802
0.982422 0.813016 0.298405
1.000000 0.809049 0.299748
1.000000 0.805875 0.303471
1.000000 0.803342 0.308904
0.301610 0.792172 0.501305
0.304051 0.792538 0.501946
0.307012 0.792752 0.502220
0.311650 0.792569 0.501946
0.317632 0.792111 0.501244
0.325994 0.791440 0.500175
0.336706 0.790555 0.498848
0.349950 0.789548 0.497047
0.364721 0.788388 0.495003
0.382238 0.787076 0.492958
0.400702 0.785550 0.490547
0.420935 0.783871 0.487831
0.441810 0.781888 0.484504
0.463478 0.779629 0.480964
0.485634 0.777005 0.476631
0.508354 0.774197 0.472114
0.536614 0.777615 0.466804
0.569909 0.784360 0.460883
0.605829 0.791440 0.454292
0.644160 0.798611 0.447272
0.684047 0.805753 0.439551
0.724910 0.812680 0.430732
0.766049 0.819303 0.420569
0.807004 0.825589 0.408576
0.847074 0.831479 0.394842
0.886015 0.837034 0.378820
0.925109 0.843412 0.360113
0.956451 0.845304 0.354253
0.979065 0.842252 0.353124
0.998291 0.838132 0.354925
1.000000 0.834562 0.358160
1.000000 0.831540 0.362829
0.385351 0.820493 0.543023
0.386755 0.820676 0.543420
0.388190 0.820645 0.543297
0.390845 0.820432 0.542992
0.394995 0.820005 0.542168
0.400519 0.819394 0.541161
0.407599 0.818631 0.539574
0.416693 0.817685 0.537987
0.427893 0.816648 0.536248
0.440528 0.815518 0.534112
0.454902 0.814237 0.531914
0.470863 0.812802 0.529412
0.487739 0.811215 0.526482
0.505364 0.809354 0.522942
0.524010 0.807156 0.519097
0.543023 0.804837 0.514763
0.563226 0.802487 0.510185
0.591516 0.808377 0.505272
0.622492 0.814481 0.499916
0.655756 0.820706 0.494636
0.690608 0.826932 0.488685
0.726589 0.832944 0.481788
0.763180 0.838712 0.473457
0.799924 0.844205 0.464027
0.836210 0.849393 0.453407
0.871977 0.854307 0.440406
0.907012 0.858976 0.426001
0.941772 0.863706 0.408850
0.970977 0.865660 0.404089
0.992859 0.863432 0.404334
1.000000 0.859648 0.407263
1.000000 0.856443 0.411933
0.456245 0.844846 0.583215
0.457160 0.844968 0.583551
0.458534 0.845029 0.583703
0.460853 0.844907 0.583459
0.464149 0.844694 0.583032
0.469123 0.844511 0.582727
0.476051 0.844358 0.582391
0.484596 0.844205 0.582177
0.494972 0.844053 0.581994
0.506706 0.843839 0.581598
0.519768 0.843595 0.581140
0.533898 0.843198 0.580438
0.548669 0.842557 0.579217
0.563989 0.841611 0.577356
0.579706 0.840330 0.574762
0.595514 0.838682 0.571374
0.612146 0.836820 0.567620
0.631891 0.837613 0.563897
0.657160 0.842710 0.560174
0.684504 0.847837 0.556420
0.713375 0.853025 0.552087
0.743435 0.858091 0.547082
0.774166 0.862913 0.541314
0.805295 0.867613 0.534325
0.836515 0.872007 0.526116
0.867704 0.876188 0.516411
0.898680 0.880125 0.505425
0.929473 0.883848 0.491981
0.960052 0.887419 0.476661
0.986206 0.888670 0.471809
1.000000 0.887022 0.473487
1.000000 0.883818 0.478553
0.538903 0.871183 0.634333
0.539086 0.871183 0.634272
0.539605 0.871061 0.634058
0.540734 0.870909 0.633631
0.542748 0.870603 0.633051
0.545678 0.870237 0.632258
0.549889 0.869841 0.631464
0.554986 0.869383 0.630488
0.561456 0.868894 0.629358
0.569146 0.868345 0.628260
0.578027 0.867735 0.627008
0.587915 0.867033 0.625574
0.598840 0.866239 0.623835
0.610376 0.865263 0.621698
