20 Preset/Food Style/【3】LUT video cho PR-AE-FCPX/Food Style Tone (9).cube
# Created by Adobe Lightroom plugin Export LUT (1.24.0)
# www.johnrellis.com/lightroom/exportlut.htm
# Preset: 静谧咖啡-素材江湖05
# Color profile: E:\lut插件\exportlut.1.24\exportlut.lrplugin\color profiles\Rec709gamma2.4.icc
LUT_3D_SIZE 5
DOMAIN_MIN 0.000000 0.000000 0.000000
DOMAIN_MAX 0.903226 0.903226 0.903226
0.034668 0.038300 0.008789
0.198672 0.078187 0.041871
0.499672 0.021057 0.088594
0.849973 0.245151 0.183566
1.000000 0.477577 0.385595
0.092866 0.189181 0.051972
0.224918 0.198093 0.063416
0.508873 0.255436 0.124483
0.854978 0.380072 0.229587
1.000000 0.548852 0.440497
0.105531 0.487831 0.154208
0.239902 0.490150 0.147280
0.546197 0.555322 0.234043
0.868833 0.644251 0.425147
1.000000 0.719875 0.613245
0.328130 0.761227 0.400702
0.393469 0.762173 0.400916
0.592340 0.766659 0.412451
0.854154 0.798886 0.586328
0.979950 0.847288 0.768856
0.717067 0.904967 0.726497
0.732570 0.904936 0.727321
0.780179 0.900847 0.717342
0.886900 0.907683 0.767361
0.967346 0.924071 0.848051
0.109438 0.087495 0.119875
0.193576 0.096895 0.122652
0.453223 0.141604 0.172122
0.789731 0.277623 0.273716
1.000000 0.477943 0.438392
0.153933 0.180484 0.147616
0.243687 0.202609 0.163882
0.475685 0.261479 0.209720
0.802670 0.379156 0.307744
1.000000 0.539727 0.478157
0.217807 0.472328 0.254887
0.275334 0.478798 0.244694
0.521355 0.526482 0.300053
0.837156 0.629511 0.470283
1.000000 0.717861 0.642023
0.361120 0.755978 0.460975
0.417670 0.757656 0.462196
0.593194 0.760830 0.463325
0.848295 0.794614 0.619989
0.975799 0.847288 0.784573
0.723720 0.903197 0.743832
0.737728 0.903075 0.743954
0.794522 0.903716 0.747799
0.889769 0.909117 0.783932
0.968322 0.926146 0.858030
0.187991 0.117159 0.299657
0.265782 0.131899 0.302861
0.442054 0.192355 0.326116
0.713588 0.337621 0.424903
0.986267 0.488380 0.567346
0.236881 0.218692 0.333318
0.298528 0.229496 0.334936
0.458259 0.280461 0.355901
0.727138 0.399084 0.456062
0.984466 0.538048 0.595544
0.273930 0.452277 0.419684
0.333013 0.464851 0.430823
0.528923 0.528588 0.495277
0.784360 0.599451 0.579522
0.973510 0.702937 0.705928
0.451362 0.740047 0.618189
0.489784 0.739712 0.618158
0.618006 0.750149 0.624109
0.834287 0.784085 0.708675
0.965881 0.847074 0.826139
0.741817 0.895293 0.794919
0.757198 0.895903 0.796994
0.798611 0.898528 0.795102
0.880430 0.902739 0.805631
0.966003 0.923522 0.872831
0.277440 0.184207 0.552239
0.336065 0.197177 0.555840
0.503899 0.252842 0.568444
0.707118 0.346471 0.612482
0.917723 0.552728 0.700496
0.303807 0.266270 0.569421
0.354742 0.276036 0.571954
0.512047 0.320287 0.582452
0.708034 0.402472 0.622278
0.913573 0.586664 0.712032
0.255009 0.444770 0.613306
0.323674 0.454475 0.620722
0.528130 0.502556 0.644739
0.729702 0.567132 0.675990
0.923613 0.686824 0.764889
0.447211 0.705013 0.722988
0.486519 0.707210 0.725277
0.623743 0.723354 0.742977
0.813931 0.765805 0.790951
0.954437 0.819547 0.845701
0.747158 0.888701 0.853300
0.759518 0.889220 0.853849
0.807156 0.892760 0.856840
0.878477 0.899840 0.860777
0.965026 0.922576 0.898314
0.443000 0.308690 0.831724
0.485145 0.318090 0.831449
0.626947 0.361791 0.832517
0.807004 0.451698 0.833371
0.948913 0.562097 0.849882
0.443000 0.360754 0.831205
0.484382 0.369207 0.831266
0.624231 0.406439 0.832242
0.803403 0.485420 0.833310
0.944182 0.587366 0.850126
0.406439 0.502373 0.839445
0.453895 0.507622 0.838926
0.609491 0.534081 0.839475
0.797665 0.591485 0.840818
0.936400 0.671901 0.858824
0.379217 0.687892 0.858488
0.411353 0.686061 0.857359
0.528252 0.681300 0.855375
0.791897 0.722469 0.865049
0.938293 0.788052 0.883268
0.714290 0.869749 0.897948
0.727993 0.869993 0.898161
0.783169 0.873045 0.900450
0.866087 0.881346 0.905791
0.957580 0.909972 0.923400
