20 Preset/Food Style/【3】LUT video cho PR-AE-FCPX/Food Style Tone (15).cube
# Created by Adobe Lightroom plugin Export LUT (1.24.0)
# www.johnrellis.com/lightroom/exportlut.htm
# Preset: 静谧咖啡-素材江湖11
# Color profile: E:\lut插件\exportlut.1.24\exportlut.lrplugin\color profiles\Rec709gamma2.4.icc
LUT_3D_SIZE 5
DOMAIN_MIN 0.000000 0.000000 0.000000
DOMAIN_MAX 0.903226 0.903226 0.903226
0.017090 0.035462 0.084596
0.139467 0.096590 0.104158
0.391516 0.134859 0.119020
0.746517 0.268864 0.180758
0.935607 0.502281 0.298619
0.017792 0.144015 0.122042
0.129885 0.158724 0.117891
0.389288 0.217197 0.143282
0.741024 0.344030 0.205600
0.933257 0.544427 0.329320
0.000000 0.388312 0.241459
0.000000 0.398871 0.231052
0.422492 0.456031 0.221195
0.755215 0.553887 0.289097
0.917479 0.656062 0.423285
0.256870 0.697139 0.466896
0.284581 0.701930 0.452338
0.503105 0.712734 0.456062
0.740688 0.730526 0.447608
0.916655 0.789425 0.551324
0.646937 0.883268 0.731685
0.649317 0.885344 0.725704
0.686122 0.884154 0.714839
0.783993 0.897093 0.724788
0.907805 0.910307 0.733974
0.040070 0.095216 0.158816
0.136294 0.103731 0.158022
0.310979 0.181643 0.205142
0.666743 0.297063 0.279423
0.897704 0.498207 0.371649
0.047333 0.155489 0.177340
0.148074 0.184604 0.200259
0.334691 0.234379 0.227909
0.677180 0.350439 0.294255
0.897276 0.533410 0.390051
0.000000 0.385870 0.299229
0.120424 0.399176 0.301793
0.407843 0.436652 0.289311
0.717342 0.534722 0.357702
0.899321 0.653437 0.475044
0.358587 0.691524 0.514519
0.388251 0.696345 0.507713
0.523064 0.708919 0.500572
0.736202 0.726894 0.492744
0.907256 0.787930 0.588922
0.666682 0.880430 0.750484
0.668269 0.882261 0.744778
0.703944 0.888884 0.740444
0.791012 0.899718 0.746609
0.910216 0.913542 0.755215
0.000000 0.159518 0.385809
0.121523 0.172824 0.387091
0.408392 0.209628 0.383825
0.670924 0.359472 0.433143
0.839719 0.532250 0.526177
0.000000 0.247501 0.384375
0.166140 0.253910 0.389166
0.424567 0.286046 0.405097
0.654871 0.407111 0.449073
0.843626 0.562890 0.542687
0.111116 0.427680 0.442298
0.246494 0.439796 0.449165
0.538170 0.534691 0.524346
0.682795 0.555840 0.522820
0.857389 0.659022 0.597192
0.425788 0.689906 0.599847
0.469459 0.690059 0.601343
0.604791 0.709895 0.623377
0.737026 0.730037 0.619532
0.882719 0.786038 0.684077
0.651850 0.876158 0.773373
0.673976 0.876860 0.777768
0.730373 0.881865 0.785885
0.793576 0.893736 0.786374
0.904326 0.908904 0.790982
0.091096 0.310094 0.660914
0.277562 0.321111 0.663783
0.561028 0.356359 0.672145
0.758907 0.442756 0.662348
0.876280 0.628107 0.696803
0.229801 0.387945 0.654170
0.325872 0.394202 0.656001
0.558373 0.420386 0.665309
0.747921 0.486671 0.661830
0.866697 0.642908 0.699062
0.342504 0.544121 0.652430
0.402747 0.548852 0.651087
0.573327 0.576776 0.670985
0.739132 0.618677 0.688014
0.846159 0.697139 0.718807
0.499702 0.704250 0.709438
0.530388 0.704982 0.709194
0.633997 0.718837 0.719722
0.776669 0.774594 0.772702
0.860288 0.786191 0.770901
0.651942 0.877623 0.829831
0.667201 0.878141 0.830472
0.724788 0.882383 0.835203
0.817655 0.894621 0.850248
0.904845 0.910277 0.850767
0.554406 0.575891 0.873869
0.589441 0.582177 0.873594
0.699184 0.609369 0.874052
0.826810 0.655268 0.877134
0.919554 0.713222 0.867033
0.570336 0.613367 0.869017
0.600855 0.618067 0.869139
0.699580 0.638422 0.870451
0.821653 0.675685 0.874846
0.915557 0.725978 0.867216
0.593194 0.697292 0.863523
0.621424 0.701534 0.862943
0.701289 0.713405 0.865202
0.809079 0.735744 0.872648
0.907744 0.771023 0.873594
0.629114 0.790890 0.875212
0.643824 0.790799 0.873930
0.699214 0.792569 0.870634
0.799557 0.809720 0.880095
0.907774 0.840665 0.893889
0.697230 0.891905 0.908934
0.708400 0.892180 0.908690
0.753140 0.894682 0.909056
0.826108 0.901762 0.911742
0.927886 0.931456 0.934691
