20 Preset/Food Style/【3】LUT video cho PR-AE-FCPX/Food Style Tone (6).cube
# Created by Adobe Lightroom plugin Export LUT (1.24.0)
# www.johnrellis.com/lightroom/exportlut.htm
# Preset: 静谧咖啡-素材江湖02
# Color profile: E:\lut插件\exportlut.1.24\exportlut.lrplugin\color profiles\Rec709gamma2.4.icc
LUT_3D_SIZE 5
DOMAIN_MIN 0.000000 0.000000 0.000000
DOMAIN_MAX 0.903226 0.903226 0.903226
0.035737 0.087953 0.080812
0.157015 0.100435 0.080720
0.433448 0.083406 0.052064
0.804898 0.109010 0.000000
1.000000 0.356847 0.000000
0.000000 0.178622 0.113161
0.135256 0.182742 0.112734
0.455940 0.214817 0.075105
0.813504 0.275517 0.000000
1.000000 0.432044 0.000000
0.000000 0.466682 0.219699
0.000000 0.473976 0.217807
0.450141 0.476783 0.215061
0.819577 0.561669 0.149142
1.000000 0.619867 0.118288
0.000000 0.761013 0.434577
0.232853 0.762905 0.437354
0.537499 0.765316 0.444190
0.774533 0.745022 0.428901
0.971313 0.791928 0.461372
0.637049 0.920256 0.726070
0.656336 0.920653 0.728206
0.718013 0.919951 0.729397
0.824308 0.919066 0.735439
0.933410 0.913878 0.730953
0.000000 0.104128 0.171695
0.153658 0.107027 0.175509
0.425696 0.105837 0.170443
0.784634 0.142214 0.164553
1.000000 0.351049 0.098207
0.000000 0.190890 0.200381
0.152193 0.202762 0.204746
0.449714 0.225772 0.200381
0.795163 0.278233 0.179141
1.000000 0.423011 0.127504
0.000000 0.464149 0.313695
0.000000 0.474922 0.301152
0.455421 0.476814 0.296086
0.811765 0.557519 0.269474
1.000000 0.618006 0.267948
0.262913 0.755978 0.507378
0.304204 0.760769 0.491951
0.552605 0.767147 0.502129
0.775174 0.746883 0.483650
0.967803 0.793759 0.513237
0.654780 0.918456 0.747066
0.665736 0.919402 0.744686
0.732021 0.921996 0.753506
0.829374 0.921355 0.757656
0.934264 0.916411 0.751797
0.000000 0.143191 0.411231
0.000000 0.149416 0.413397
0.454719 0.116152 0.429114
0.817838 0.000000 0.398688
1.000000 0.314305 0.405676
0.000000 0.236210 0.440131
0.000000 0.239994 0.442115
0.476997 0.233768 0.450568
0.809934 0.241886 0.418769
0.999542 0.403723 0.427436
0.000000 0.487160 0.501152
0.000000 0.493965 0.503807
0.517418 0.519890 0.516930
0.797910 0.552087 0.509056
0.986938 0.610651 0.505882
0.348547 0.748836 0.629236
0.424353 0.749142 0.631952
0.604150 0.761196 0.642817
0.780850 0.756771 0.636835
0.958801 0.801541 0.655482
0.666224 0.912963 0.793240
0.693782 0.913359 0.799039
0.746334 0.918547 0.800015
0.834470 0.922728 0.808774
0.931456 0.916686 0.797421
0.000000 0.218418 0.688075
0.000000 0.220523 0.688563
0.446662 0.208316 0.686854
0.802548 0.186709 0.704799
1.000000 0.365301 0.674708
0.000000 0.300450 0.701015
0.000000 0.301091 0.699977
0.465156 0.294713 0.695979
0.800626 0.302129 0.709621
1.000000 0.433417 0.680873
0.000000 0.525750 0.724147
0.000000 0.527092 0.723934
0.504845 0.533806 0.727352
0.789425 0.544793 0.730404
0.977630 0.607080 0.712642
0.336980 0.749355 0.771084
0.409155 0.749691 0.771054
0.598169 0.755581 0.774960
0.795071 0.774472 0.787381
0.949310 0.791226 0.780880
0.625116 0.911986 0.849210
0.648432 0.912322 0.850401
0.731685 0.915007 0.856779
0.844083 0.923552 0.871000
0.932586 0.921630 0.864775
0.000000 0.364263 0.901793
0.273533 0.363806 0.900847
0.552605 0.364111 0.898405
0.790738 0.371252 0.892454
0.994537 0.450385 0.898741
0.126375 0.423438 0.900969
0.292973 0.423011 0.900237
0.553155 0.422309 0.897551
0.785336 0.426093 0.891447
0.987640 0.493660 0.897673
0.141024 0.580865 0.903655
0.301335 0.581506 0.902708
0.558770 0.589929 0.899657
0.771206 0.585351 0.893492
0.967712 0.626825 0.899962
0.381994 0.766232 0.912078
0.428779 0.764736 0.911254
0.576379 0.761532 0.909819
0.769619 0.766537 0.908446
0.947875 0.785428 0.913970
0.608545 0.910063 0.932372
0.628656 0.910063 0.932219
0.705226 0.911894 0.932952
0.816403 0.916289 0.933959
0.939117 0.930083 0.939849
