20 Preset/Food Style/【3】LUT video cho PR-AE-FCPX/Food Style Tone (15).cube
# Created by Adobe Lightroom plugin Export LUT (1.24.0)
# www.johnrellis.com/lightroom/exportlut.htm
# Preset: 静谧咖啡-素材江湖11
# Color profile: E:\lut插件\exportlut.1.24\exportlut.lrplugin\color profiles\Rec709gamma2.4.icc
LUT_3D_SIZE 32
DOMAIN_MIN 0.0 0.0 0.0
DOMAIN_MAX 1.0 1.0 1.0
0.017090 0.035462 0.084596
0.022065 0.036011 0.085206
0.030793 0.041657 0.086732
0.052674 0.051270 0.089479
0.080354 0.067750 0.093874
0.097749 0.082582 0.097841
0.116945 0.090608 0.101167
0.139467 0.096590 0.104158
0.165042 0.101961 0.106020
0.194034 0.107271 0.107851
0.225803 0.112459 0.109529
0.261143 0.117556 0.110872
0.300359 0.122225 0.112123
0.343908 0.127718 0.114717
0.391516 0.134859 0.119020
0.441718 0.143191 0.124758
0.493019 0.153353 0.131289
0.544091 0.165896 0.139040
0.594385 0.181399 0.146883
0.647852 0.203830 0.156924
0.701472 0.234684 0.168795
0.746517 0.268864 0.180758
0.784451 0.303563 0.193545
0.817502 0.338506 0.206668
0.846067 0.372839 0.221012
0.871305 0.406348 0.237064
0.894224 0.439155 0.254978
0.915526 0.471046 0.275425
0.935607 0.502281 0.298619
0.954894 0.533104 0.325170
0.973754 0.563684 0.355169
0.992309 0.594141 0.389075
0.019043 0.037415 0.085817
0.020325 0.038392 0.085725
0.031769 0.042634 0.087312
0.052949 0.053468 0.089784
0.079469 0.070161 0.093782
0.097505 0.083345 0.097780
0.116213 0.091157 0.101106
0.138643 0.096742 0.104158
0.163302 0.102693 0.105989
0.191714 0.107881 0.107881
0.223178 0.112917 0.109590
0.258274 0.117647 0.110719
0.296849 0.122744 0.112337
0.339727 0.128298 0.114687
0.386877 0.135256 0.118868
0.436744 0.143435 0.124483
0.488136 0.153323 0.131136
0.539178 0.165927 0.138491
0.589746 0.180972 0.146517
0.642969 0.202426 0.156313
0.695338 0.231785 0.167605
0.739742 0.264317 0.179232
0.777523 0.297826 0.191409
0.810788 0.331945 0.203952
0.839780 0.365637 0.217838
0.865629 0.398840 0.233005
0.889067 0.431922 0.250645
0.910918 0.464210 0.270390
0.931518 0.495766 0.293034
0.951263 0.527092 0.319036
0.970428 0.558068 0.348821
0.989288 0.588891 0.382361
0.022370 0.048096 0.088167
0.023651 0.049073 0.088106
0.033143 0.051331 0.088350
0.055299 0.060975 0.090242
0.079957 0.076692 0.094636
0.097902 0.087434 0.098268
0.116518 0.093599 0.101534
0.137911 0.099519 0.104524
0.162356 0.105287 0.106691
0.190585 0.110689 0.108553
0.221622 0.115755 0.110231
0.256443 0.120821 0.111330
0.294621 0.126009 0.112917
0.337133 0.131930 0.115236
0.383551 0.138918 0.119722
0.433356 0.147372 0.125277
0.484443 0.157321 0.131899
0.536065 0.169100 0.139254
0.586481 0.184115 0.147036
0.640101 0.205509 0.156680
0.691829 0.233829 0.168215
0.735958 0.265263 0.179690
0.773861 0.297795 0.191165
0.807218 0.331182 0.203799
0.836423 0.364355 0.217258
0.862425 0.397009 0.231907
0.886137 0.429877 0.249119
0.908263 0.462043 0.268620
0.929137 0.493782 0.291051
0.949126 0.525048 0.316869
0.968414 0.556085 0.346136
0.987366 0.586847 0.379431
0.031922 0.072389 0.092348
0.031922 0.072389 0.092348
0.039429 0.074861 0.092592
0.055146 0.078431 0.093111
0.082918 0.086610 0.095460
0.098970 0.092836 0.099489
0.117159 0.098848 0.102663
0.138277 0.104707 0.105531
0.162478 0.110475 0.108003
0.190219 0.116243 0.109712
0.220981 0.121645 0.111299
0.255222 0.127077 0.112947
0.292943 0.132662 0.114412
0.334844 0.138766 0.117006
0.380926 0.146273 0.121309
0.429664 0.155062 0.126986
0.480476 0.164767 0.133761
0.531243 0.176455 0.141054
0.581476 0.190768 0.148806
0.635187 0.211246 0.158358
0.685176 0.237369 0.168704
0.728573 0.266545 0.179782
0.766476 0.297765 0.191287
0.800809 0.330541 0.203189
0.831296 0.363745 0.216464
0.858518 0.397314 0.231846
0.883268 0.430762 0.249180
0.906218 0.463416 0.268986
0.927611 0.495216 0.291508
0.947784 0.526421 0.317327
0.967071 0.556970 0.346349
0.985809 0.586969 0.378790
0.040406 0.091035 0.097993
0.042420 0.090944 0.097963
0.046937 0.091585 0.097871
0.058991 0.093172 0.097963
0.080842 0.095369 0.098299
0.100160 0.101381 0.100526
0.118135 0.106722 0.103700
0.137789 0.112856 0.107088
0.161532 0.118746 0.109438
0.188663 0.124697 0.111666
0.218784 0.130556 0.113436
0.252537 0.136446 0.114900
0.289738 0.142733 0.116823
0.331273 0.149386 0.119722
0.376959 0.157351 0.124331
0.426368 0.166384 0.130404
0.477333 0.176577 0.136965
0.528832 0.188144 0.144045
0.579156 0.202213 0.151827
0.633906 0.222812 0.161471
0.682582 0.247654 0.172030
0.725368 0.275334 0.182589
0.763210 0.305333 0.193484
0.797848 0.337163 0.205600
0.828611 0.369818 0.219059
0.856291 0.402686 0.233921
0.881346 0.435401 0.251194
0.904356 0.467323 0.270817
0.925811 0.498543 0.293217
0.945953 0.529076 0.318730
0.965301 0.558984 0.347265
0.983978 0.588434 0.379248
0.043000 0.104646 0.104555
0.042603 0.105013 0.104158
0.047425 0.105531 0.103700
0.057191 0.106844 0.104158
0.077577 0.109468 0.104005
0.096376 0.111696 0.103792
0.118532 0.119234 0.105257
0.139803 0.125124 0.108125
0.162295 0.131136 0.111269
0.188540 0.137392 0.114199
0.218662 0.143648 0.116304
0.252201 0.149905 0.118410
0.289403 0.156619 0.120577
0.330938 0.164004 0.123934
0.376867 0.172854 0.128969
0.426459 0.182162 0.134920
0.477729 0.192691 0.142000
0.529717 0.204379 0.149020
0.582452 0.219821 0.157321
0.636530 0.239994 0.166934
0.684108 0.264225 0.177096
0.726192 0.291142 0.187472
0.799466 0.355596 0.212375
0.830228 0.387823 0.226902
0.857145 0.419257 0.242649
0.881254 0.449714 0.260075
0.903014 0.479042 0.279698
0.923308 0.507347 0.301152
0.942229 0.535332 0.325231
0.960571 0.562585 0.351751
0.978210 0.589624 0.381170
0.995422 0.615991 0.413184
0.033021 0.124025 0.112917
0.034607 0.124269 0.112551
0.035370 0.125093 0.111452
0.046693 0.126375 0.111482
0.064820 0.128481 0.111696
0.091585 0.132052 0.110872
0.112886 0.135042 0.110597
0.141756 0.144259 0.111360
0.169039 0.150881 0.113619
0.196017 0.156710 0.117159
0.226169 0.163882 0.121004
0.260960 0.171023 0.124086
0.299626 0.178408 0.126864
0.342565 0.186526 0.130831
0.390112 0.195682 0.136538
0.439918 0.205386 0.142794
0.491096 0.216312 0.149569
0.542107 0.228611 0.157107
0.599664 0.247074 0.166537
0.653956 0.269657 0.176913
0.702510 0.296269 0.187778
0.745815 0.326299 0.199771
0.784939 0.358618 0.213077
0.819303 0.391699 0.227543
0.849027 0.424262 0.244114
0.874693 0.454841 0.261967
0.897429 0.483650 0.281437
0.918120 0.511101 0.302281
0.937438 0.538140 0.325780
0.955840 0.564446 0.351415
0.973724 0.590661 0.379950
0.991058 0.616541 0.411200
0.017792 0.144015 0.122042
0.018097 0.144015 0.121767
0.016754 0.144961 0.120180
0.027680 0.146212 0.119905
0.046357 0.148379 0.119997
0.078645 0.151431 0.119539
0.104067 0.155215 0.118502
0.129885 0.158724 0.117891
0.164309 0.169802 0.117525
0.195468 0.176883 0.119997
0.226810 0.183444 0.123842
0.260777 0.190738 0.128176
0.299016 0.198978 0.132906
0.342016 0.207706 0.137423
0.389288 0.217197 0.143282
0.438788 0.227268 0.149660
0.489845 0.238010 0.156527
0.544579 0.252293 0.164614
0.600732 0.270481 0.173983
0.652155 0.291814 0.183474
0.698604 0.316381 0.194125
0.741024 0.344030 0.205600
0.779599 0.374029 0.218204
0.813657 0.405066 0.233005
0.843534 0.435767 0.249119
0.869505 0.464729 0.266697
0.892607 0.492164 0.285527
0.913664 0.518456 0.306188
0.933257 0.544427 0.329320
0.951904 0.569970 0.354650
0.970001 0.595300 0.382666
0.987610 0.620447 0.413245
0.000000 0.167269 0.132937
0.000000 0.167483 0.132631
0.000000 0.168032 0.131289
0.000000 0.169314 0.130251
0.017151 0.171206 0.130282
0.047486 0.173770 0.130159
0.090547 0.178012 0.129030
0.118959 0.181979 0.127749
0.149569 0.186007 0.126711
0.190280 0.198672 0.125063
0.225772 0.206577 0.127687
0.262913 0.214115 0.131838
0.301671 0.222110 0.136812
0.344884 0.231510 0.143313
0.392096 0.242374 0.151278
0.441688 0.252537 0.157931
0.494697 0.264958 0.165316
0.550774 0.280583 0.173831
0.604089 0.297917 0.182528
0.653193 0.318090 0.192020
0.697932 0.341161 0.202213
0.738735 0.366918 0.213474
0.776516 0.394690 0.226139
0.810056 0.423529 0.240574
0.839689 0.452003 0.256535
0.865660 0.478950 0.273930
0.888884 0.504723 0.292546
0.910094 0.529625 0.313207
0.929870 0.554345 0.336004
0.948638 0.578668 0.360815
0.966888 0.602838 0.388342
0.984619 0.627039 0.418372
0.000000 0.193698 0.145754
0.000000 0.193851 0.145296
0.000000 0.194339 0.143862
0.000000 0.195590 0.142031
0.000000 0.196994 0.141878
0.003326 0.199191 0.141726
0.051972 0.202518 0.141024
0.103456 0.207553 0.139284
0.137270 0.211643 0.137972
0.172610 0.215946 0.136080
0.220157 0.230014 0.132784
0.260105 0.238621 0.136538
0.303685 0.247990 0.140536
0.347692 0.256962 0.147738
0.395911 0.267857 0.156252
0.448432 0.281163 0.165682
0.504356 0.296849 0.175479
0.558648 0.312139 0.183658
0.609735 0.329320 0.192721
0.656764 0.348577 0.201968
0.699153 0.370001 0.212070
0.737758 0.392798 0.222995
0.773404 0.417487 0.234836
0.805356 0.442695 0.248661
0.834012 0.467811 0.263645
0.859800 0.492226 0.280186
0.883146 0.516228 0.298680
0.904784 0.539910 0.318975
0.925017 0.563653 0.341588
0.944305 0.587304 0.366613
0.962982 0.610864 0.394018
0.981140 0.634516 0.424231
0.000000 0.221714 0.159274
0.000000 0.221866 0.158846
0.000000 0.222507 0.157351
0.000000 0.223606 0.154726
0.000000 0.225223 0.154665
0.000000 0.227543 0.154635
0.000000 0.230625 0.154147
0.070954 0.234989 0.152987
0.120790 0.240787 0.150851
0.160525 0.245151 0.149203
0.201175 0.250034 0.146792
0.256077 0.265995 0.141848
0.302251 0.275792 0.146487
0.353399 0.287205 0.151919
0.406653 0.300053 0.161593
0.460395 0.313787 0.171603
0.513848 0.328954 0.182437
0.566125 0.345525 0.193271
0.614649 0.362524 0.203372
0.659297 0.380377 0.212497
0.699825 0.399786 0.222629
0.737118 0.420661 0.233371
0.771725 0.443183 0.245487
0.802976 0.466102 0.259098
0.831296 0.488930 0.274266
0.856748 0.511284 0.291142
0.880064 0.533440 0.309392
0.901671 0.555444 0.329595
0.921996 0.577600 0.351904
0.941314 0.599969 0.376715
0.960113 0.622309 0.403906
0.978454 0.644739 0.433509
0.000000 0.254215 0.174716
0.000000 0.254307 0.174350
0.000000 0.254948 0.173037
0.000000 0.256199 0.170321
0.000000 0.257786 0.169162
0.000000 0.260227 0.169162
0.000000 0.263218 0.168948
0.000000 0.267094 0.168795
0.096559 0.272740 0.166720
0.145571 0.278874 0.164401
0.191135 0.283879 0.162020
0.237247 0.289403 0.158968
0.322728 0.325292 0.158022
0.385657 0.341833 0.166354
0.448219 0.358343 0.175143
0.506065 0.373541 0.185672
0.558801 0.388434 0.197696
0.607874 0.404761 0.210178
0.652369 0.422644 0.223514
0.693019 0.441962 0.237552
0.729732 0.459968 0.249149
0.762905 0.478157 0.261112
0.793118 0.496529 0.274418
0.820676 0.515160 0.289006
0.845640 0.533593 0.304845
0.868467 0.552026 0.321752
0.889342 0.570306 0.340032
0.908965 0.588586 0.359503
0.927611 0.607233 0.380743
0.945769 0.626215 0.404364
0.963531 0.645686 0.430152
0.981048 0.665797 0.458778
0.000000 0.297917 0.196048
0.000000 0.297917 0.195773
0.000000 0.298344 0.194217
0.000000 0.299107 0.191379
0.000000 0.300450 0.188754
0.000000 0.302220 0.188327
0.000000 0.304784 0.188083
0.000000 0.308293 0.187808
0.014313 0.313298 0.187015
0.127291 0.320348 0.184573
0.184604 0.330449 0.183291
0.241459 0.340795 0.182406
0.301518 0.351537 0.180270
0.380987 0.375250 0.175051
0.447852 0.393378 0.182589
0.508141 0.409003 0.192416
0.563165 0.424048 0.202579
0.609400 0.437568 0.215366
0.651667 0.452522 0.228763
0.690211 0.468666 0.242741
0.725765 0.485969 0.257481
0.758389 0.503563 0.273045
0.787991 0.519646 0.286259
0.815274 0.536187 0.300694
0.840269 0.552850 0.316228
0.863188 0.569696 0.333165
0.884428 0.586664 0.351202
0.904326 0.603815 0.370733
0.923369 0.621363 0.391974
0.941833 0.639460 0.415503
0.959930 0.657923 0.441138
0.977600 0.677028 0.469306
0.000000 0.338048 0.216098
0.000000 0.338048 0.215824
0.000000 0.338140 0.214054
0.000000 0.338781 0.211307
0.000000 0.340154 0.207553
0.000000 0.341650 0.207004
0.000000 0.345068 0.207095
0.000000 0.350103 0.207584
0.000000 0.356329 0.208255
0.097993 0.364843 0.207767
0.172519 0.375494 0.206088
0.236332 0.385595 0.204532
0.298589 0.395392 0.202731
0.361700 0.404883 0.200076
0.439887 0.425483 0.194308
0.507103 0.443885 0.199954
0.561822 0.457862 0.210758
0.611841 0.472175 0.220676
0.652399 0.484565 0.234653
0.689631 0.497871 0.249027
0.724025 0.512444 0.264286
0.756069 0.528008 0.280613
0.785306 0.544213 0.298222
0.812314 0.560204 0.315496
0.836942 0.575189 0.331090
0.859800 0.590356 0.347723
0.880949 0.605737 0.365850
0.900847 0.621454 0.385046
0.919951 0.637720 0.406256
0.938537 0.654597 0.429450
0.956756 0.671931 0.454658
0.974640 0.690028 0.482307
0.000000 0.388312 0.241459
0.000000 0.388434 0.241123
0.000000 0.388495 0.239597
0.000000 0.389258 0.236759
0.000000 0.390539 0.232395
0.000000 0.392309 0.231113
0.000000 0.395056 0.231174
0.000000 0.398871 0.231052
0.000000 0.404150 0.231235
0.010559 0.410681 0.231876
0.159579 0.420081 0.230259
0.231296 0.430854 0.228336
0.296818 0.439765 0.226902
0.360235 0.448249 0.224430
0.422492 0.456031 0.221195
0.495613 0.473091 0.215183
0.560601 0.491768 0.219577
0.608911 0.504143 0.231662
0.653132 0.517113 0.243015
0.690730 0.528710 0.256840
0.724086 0.540703 0.272374
0.755215 0.553887 0.289097
0.783841 0.567895 0.307073
0.810239 0.582574 0.326146
0.834531 0.597803 0.346258
0.856992 0.612085 0.364446
0.878111 0.626184 0.382330
0.898131 0.640742 0.401923
0.917479 0.656062 0.423285
0.936400 0.672114 0.446906
0.955016 0.688869 0.472786
0.973236 0.706325 0.500938
0.000000 0.439124 0.267887
0.000000 0.439460 0.267613
0.000000 0.439765 0.266209
0.000000 0.440558 0.263737
0.000000 0.441840 0.259464
0.000000 0.443854 0.256840
0.000000 0.446571 0.256931
0.000000 0.450355 0.257145
0.000000 0.455207 0.257572
0.000000 0.461006 0.258061
0.154574 0.467842 0.257908
0.231724 0.476295 0.255680
0.298253 0.485023 0.253117
0.360693 0.491127 0.250553
0.420600 0.496864 0.247257
0.478431 0.502068 0.243320
0.544335 0.515526 0.237552
0.605737 0.534295 0.241123
0.648768 0.545342 0.254490
0.688777 0.557244 0.267185
0.724636 0.569207 0.281468
0.755093 0.580468 0.298924
0.783352 0.592706 0.317418
0.809415 0.605798 0.337011
0.833494 0.619471 0.357610
0.855863 0.633722 0.379339
0.876677 0.648432 0.402167
0.896574 0.661891 0.422065
0.915801 0.675776 0.443183
0.934569 0.690364 0.466072
0.952972 0.705592 0.490852
0.970947 0.721614 0.517967
0.000000 0.487190 0.295018
0.000000 0.487282 0.294774
0.000000 0.487526 0.293462
0.000000 0.488289 0.290867
0.000000 0.489601 0.286839
0.000000 0.491493 0.282780
0.000000 0.493721 0.282841
0.000000 0.496895 0.282902
0.000000 0.500786 0.283330
0.000000 0.505364 0.283787
0.158297 0.510796 0.284398
0.234562 0.517449 0.283207
0.301640 0.524956 0.280797
0.363928 0.531579 0.278019
0.422522 0.536278 0.275425
0.478370 0.540703 0.272038
0.531304 0.544762 0.268101
0.589136 0.555627 0.263432
0.647456 0.574853 0.266606
0.686336 0.584985 0.281163
0.722805 0.596277 0.295262
0.756161 0.608026 0.310185
0.783627 0.618341 0.329259
0.809232 0.629664 0.349065
0.832914 0.641749 0.369970
0.855070 0.654475 0.392004
0.875822 0.667933 0.415290
0.895476 0.681819 0.439612
0.914427 0.695949 0.464546
0.933196 0.709377 0.487098
0.951537 0.723537 0.511498
0.969421 0.738491 0.538109
0.000000 0.534447 0.324773
0.000000 0.534874 0.324590
0.000000 0.554040 0.337041
0.000000 0.554681 0.334630
0.000000 0.555810 0.330755
0.000000 0.557366 0.325139
0.000000 0.558831 0.324681
0.000000 0.560906 0.324681
0.000000 0.563775 0.325017
0.140230 0.567224 0.325597
0.216587 0.571130 0.326177
0.276921 0.575433 0.326909
0.337621 0.580621 0.324468
0.395544 0.585626 0.321416
0.450050 0.589380 0.318151
0.500908 0.591913 0.314916
0.548760 0.594079 0.310765
0.594018 0.596643 0.306065
0.642390 0.604181 0.301640
0.695644 0.622370 0.304112
0.728908 0.630579 0.319432
0.760220 0.640009 0.335027
0.789212 0.650080 0.350805
0.813931 0.659266 0.369512
0.836118 0.668635 0.389624
0.856962 0.678828 0.410559
0.876707 0.689754 0.432380
0.895659 0.701564 0.455543
0.914122 0.714290 0.480354
0.932280 0.727840 0.506828
0.950195 0.741573 0.533196
0.967864 0.755428 0.559075
0.000000 0.583337 0.360662
0.000000 0.585046 0.361761
0.000000 0.587152 0.361975
0.000000 0.589319 0.361181
0.000000 0.591455 0.358709
0.000000 0.593256 0.353826
0.000000 0.594751 0.351751
0.000000 0.596216 0.351507
0.082734 0.598291 0.351751
0.181033 0.600855 0.352239
0.243442 0.603876 0.352850
0.296696 0.607263 0.353613
0.348882 0.611078 0.352819
0.402136 0.615412 0.350378
0.453773 0.619654 0.347295
0.502312 0.622644 0.344335
0.547753 0.624994 0.341314
0.591455 0.627466 0.337774
0.633143 0.630335 0.334264
0.676509 0.636866 0.331151
0.726711 0.655085 0.334417
0.757351 0.663264 0.351446
0.785763 0.672175 0.368383
0.812253 0.681544 0.385199
0.835569 0.690455 0.403479
0.856077 0.699184 0.424231
0.875608 0.708675 0.445716
0.894438 0.719173 0.468635
0.912963 0.730617 0.492958
0.931090 0.743130 0.519158
0.948760 0.756588 0.547326
0.965881 0.770901 0.577081
0.000000 0.619928 0.390692
0.000000 0.621668 0.391852
0.000000 0.623682 0.392432
0.000000 0.625818 0.392065
0.000000 0.627802 0.389929
0.000000 0.629480 0.385657
0.000000 0.631006 0.381781
0.093721 0.632136 0.381811
0.174868 0.633692 0.381964
0.231052 0.635615 0.382269
0.280491 0.637995 0.382757
0.326635 0.640620 0.383459
0.370459 0.643397 0.384009
0.417426 0.646937 0.382513
0.464302 0.650660 0.380102
0.509575 0.654322 0.377264
0.552453 0.656397 0.374792
0.593378 0.658534 0.371984
0.632654 0.660883 0.369329
0.670497 0.663661 0.366583
0.708553 0.668788 0.364355
0.755550 0.686488 0.368017
0.783352 0.694240 0.386175
0.809262 0.702510 0.403967
0.833310 0.711116 0.421454
0.855741 0.719875 0.439307
0.875029 0.728084 0.460426
0.893736 0.737270 0.482765
0.912139 0.747555 0.506798
0.930236 0.758938 0.532647
0.947845 0.771420 0.560449
0.964965 0.784787 0.589410
0.107149 0.655756 0.422919
0.115572 0.657221 0.424292
0.125032 0.658900 0.424781
0.133303 0.660670 0.424384
0.139559 0.662379 0.422553
0.143221 0.663844 0.418616
0.149905 0.665309 0.413428
0.197726 0.666163 0.413428
0.240909 0.667384 0.413733
0.282139 0.668727 0.414069
0.321752 0.670558 0.414649
0.360845 0.672572 0.415320
0.398962 0.674800 0.416083
0.436774 0.677241 0.416449
0.478553 0.680415 0.414679
0.519951 0.683650 0.412665
0.560571 0.687129 0.410590
0.599512 0.689418 0.409400
0.637171 0.692195 0.408423
0.673487 0.695460 0.407630
0.708492 0.699153 0.407080
0.742947 0.704128 0.407141
0.786252 0.721401 0.413062
0.812131 0.729152 0.431952
0.835843 0.737209 0.451270
0.858152 0.745510 0.470130
0.879545 0.754208 0.488869
0.898589 0.762661 0.510887
0.916716 0.771969 0.535210
0.934478 0.782437 0.561151
0.951843 0.793881 0.588251
0.968750 0.806180 0.616205
0.256870 0.697139 0.466896
0.258579 0.697719 0.467414
0.260014 0.698268 0.467018
0.261326 0.698878 0.465705
0.262242 0.699580 0.463142
0.263157 0.700282 0.459174
0.264195 0.701259 0.453925
0.284581 0.701930 0.452338
0.312657 0.702754 0.452552
0.343206 0.703883 0.453101
0.373999 0.705318 0.453834
0.405859 0.706935 0.454658
0.437354 0.708644 0.455482
0.469245 0.710506 0.456489
0.503105 0.712734 0.456062
0.539239 0.715419 0.454353
0.575219 0.718166 0.452552
0.610651 0.720821 0.450935
0.644770 0.722744 0.449897
0.677852 0.725002 0.449012
0.709773 0.727596 0.448219
0.740688 0.730526 0.447608
0.770413 0.733761 0.447150
0.809842 0.749569 0.452827
0.833555 0.756374 0.470344
0.855497 0.763821 0.489509
0.876738 0.771847 0.508904
0.897429 0.780514 0.528893
0.916655 0.789425 0.551324
0.934234 0.798886 0.576532
0.951507 0.809293 0.602625
0.968353 0.820615 0.629541
0.332525 0.726864 0.502098
0.333623 0.727321 0.502525
0.334569 0.727871 0.502220
0.335760 0.728389 0.501122
0.336675 0.728969 0.498970
0.337530 0.729641 0.495644
0.338598 0.730526 0.490883
0.348394 0.731289 0.488106
0.369024 0.732021 0.488380
0.392737 0.732906 0.488930
0.417884 0.734035 0.489723
0.443732 0.735439 0.490669
0.470771 0.736873 0.491554
0.498207 0.738552 0.492653
0.525811 0.740322 0.493751
0.557244 0.742611 0.493111
0.589349 0.745235 0.491920
0.621393 0.748013 0.490822
0.652827 0.750393 0.490028
0.683375 0.752438 0.489784
0.713039 0.754818 0.489784
0.741909 0.757382 0.489784
0.769802 0.760250 0.489998
0.796780 0.763272 0.490059
0.830076 0.774380 0.489876
0.852415 0.780667 0.506432
0.873472 0.788052 0.526268
0.894011 0.796109 0.546593
0.914061 0.804898 0.567620
0.933379 0.814237 0.589746
0.950713 0.823880 0.615351
0.967712 0.834470 0.641566
0.407813 0.758633 0.544274
0.409583 0.759274 0.545068
0.410498 0.759701 0.544945
0.410590 0.759915 0.543542
0.410132 0.759976 0.541009
0.409339 0.760067 0.537346
0.408728 0.760220 0.532525
0.410498 0.760464 0.527520
0.424994 0.760403 0.526879
0.441932 0.760616 0.526543
0.460670 0.760952 0.526329
0.481361 0.761624 0.526482
0.502983 0.762448 0.526757
0.525628 0.763363 0.527214
0.548608 0.764309 0.527489
0.572930 0.765591 0.527489
0.600641 0.767483 0.525963
0.629023 0.769711 0.524743
0.657710 0.772366 0.523888
0.686152 0.774685 0.524102
0.713985 0.776974 0.524651
0.741024 0.779416 0.525322
0.767147 0.781888 0.525719
0.792416 0.784329 0.525658
0.816922 0.786679 0.525261
0.849973 0.799191 0.530510
0.871641 0.805325 0.545739
0.891569 0.812345 0.565545
0.911284 0.820249 0.585718
0.930663 0.828946 0.606561
0.949828 0.838407 0.628168
0.967041 0.848142 0.653223
0.459358 0.782101 0.577508
0.461006 0.782650 0.578241
0.462013 0.783139 0.578393
0.462501 0.783474 0.577478
0.462837 0.783810 0.575677
0.463142 0.784207 0.573053
0.463722 0.784787 0.569665
0.464668 0.785611 0.565301
0.475837 0.786130 0.564874
0.490089 0.786679 0.565332
0.505791 0.787320 0.565850
0.522942 0.788144 0.566491
0.541070 0.788968 0.567132
0.559960 0.789822 0.567620
0.579339 0.790707 0.568139
0.599237 0.791714 0.568597
0.621515 0.793149 0.568078
0.645747 0.795041 0.566979
0.670741 0.797391 0.566339
0.696193 0.800107 0.566064
0.721340 0.802182 0.566888
0.746059 0.804440 0.567864
0.770260 0.806821 0.568811
0.793973 0.809201 0.569574
0.817166 0.811582 0.570062
0.840055 0.813993 0.570459
0.870634 0.825101 0.576165
0.892180 0.831601 0.590448
0.911528 0.838804 0.610346
0.930663 0.846799 0.630610
0.949462 0.855558 0.651545
0.968109 0.865141 0.673274
0.513695 0.807584 0.616083
0.514427 0.807889 0.616449
0.514763 0.808072 0.616236
0.515007 0.808286 0.615320
0.515221 0.808530 0.613733
0.515312 0.808804 0.611322
0.515648 0.809293 0.608270
0.516258 0.809934 0.604547
0.522423 0.810452 0.602808
0.533532 0.810941 0.603143
0.546258 0.811460 0.603571
0.560235 0.812161 0.604150
0.575097 0.812985 0.604822
0.590845 0.813809 0.605371
0.607172 0.814603 0.605890
0.624018 0.815518 0.606317
0.641566 0.816587 0.607019
0.662196 0.818296 0.606165
0.683955 0.820401 0.605676
0.706355 0.822934 0.605524
0.729061 0.825589 0.605921
0.751583 0.827634 0.607050
0.773831 0.829740 0.608057
0.795895 0.831876 0.608881
0.817655 0.833982 0.609583
0.839261 0.836088 0.610071
0.860777 0.838285 0.610559
0.888975 0.847868 0.615778
0.910338 0.854490 0.628626
0.929168 0.861875 0.648646
0.947875 0.870115 0.669306
0.966461 0.879271 0.690883
0.557641 0.830838 0.651118
0.558160 0.831052 0.651423
0.558556 0.831327 0.651392
0.558984 0.831601 0.650752
0.559625 0.832029 0.649714
0.560601 0.832670 0.648432
0.562432 0.833738 0.647028
0.564752 0.835080 0.645289
0.569757 0.836606 0.644434
0.580621 0.838041 0.646509
0.592737 0.839597 0.648859
0.605585 0.841215 0.651118
0.619135 0.842802 0.653346
0.632990 0.844266 0.655268
0.647089 0.845640 0.656794
0.661280 0.846799 0.657862
0.675807 0.847959 0.658930
0.691615 0.849424 0.659571
0.709773 0.851408 0.659449
0.728664 0.853696 0.659632
0.748226 0.856229 0.660060
0.768215 0.858579 0.660792
0.788144 0.860410 0.661860
0.808194 0.862242 0.662867
0.828122 0.864042 0.663661
0.848081 0.865873 0.664240
0.868009 0.867704 0.664942
0.887877 0.869657 0.665675
0.913481 0.877714 0.670588
0.934081 0.884154 0.682033
0.952209 0.891661 0.701839
0.970214 0.899962 0.722255
0.610803 0.860288 0.697230
0.610895 0.860288 0.697200
0.610864 0.860349 0.696803
0.610864 0.860410 0.696040
0.610925 0.860594 0.694820
0.611139 0.860899 0.693263
0.611688 0.861357 0.691371
0.612421 0.862058 0.689021
0.613672 0.862974 0.686366
0.621088 0.863615 0.687007
0.629664 0.864378 0.687984
0.639155 0.865263 0.689021
0.649531 0.866239 0.690120
0.660456 0.867247 0.691157
