20 Preset/Food Style/【3】LUT video cho PR-AE-FCPX/Food Style Tone (5).cube
# Created by Adobe Lightroom plugin Export LUT (1.24.0)
# www.johnrellis.com/lightroom/exportlut.htm
# Preset: 静谧咖啡-素材江湖01
# Color profile: E:\lut插件\exportlut.1.24\exportlut.lrplugin\color profiles\Rec709gamma2.4.icc
LUT_3D_SIZE 32
DOMAIN_MIN 0.0 0.0 0.0
DOMAIN_MAX 1.0 1.0 1.0
0.112306 0.154849 0.142519
0.112947 0.155184 0.142702
0.116701 0.155886 0.142763
0.125093 0.157168 0.143313
0.135531 0.159304 0.144137
0.147158 0.162142 0.145449
0.160311 0.165133 0.146639
0.174990 0.168246 0.148165
0.191623 0.171359 0.149111
0.210086 0.174868 0.150088
0.230625 0.178408 0.151095
0.253513 0.182345 0.152010
0.278935 0.186526 0.152834
0.306889 0.191012 0.153719
0.337316 0.195895 0.154543
0.370489 0.200900 0.155337
0.406043 0.206394 0.156100
0.443793 0.212314 0.156649
0.483589 0.218296 0.157137
0.530968 0.225711 0.157595
0.582971 0.234531 0.157809
0.633295 0.243565 0.157900
0.679805 0.252903 0.158389
0.724331 0.263279 0.158877
0.766842 0.274571 0.159640
0.807736 0.286839 0.160952
0.846952 0.300816 0.163180
0.884825 0.316564 0.166262
0.921233 0.334295 0.171054
0.955871 0.354498 0.177951
0.988220 0.377630 0.187808
1.000000 0.403388 0.201389
0.111910 0.155642 0.142855
0.112825 0.155764 0.142824
0.117037 0.156435 0.143099
0.124971 0.157748 0.143465
0.135012 0.159915 0.144259
0.146822 0.162509 0.145602
0.159701 0.165560 0.146792
0.174319 0.168490 0.148135
0.190463 0.171664 0.149294
0.208713 0.175051 0.150088
0.228885 0.178531 0.151125
0.251560 0.182376 0.151888
0.276616 0.186526 0.152926
0.304234 0.191012 0.153841
0.334508 0.195712 0.154543
0.367315 0.200778 0.155367
0.402564 0.206332 0.155978
0.439979 0.212131 0.156802
0.479622 0.218173 0.157137
0.526329 0.225437 0.157748
0.576410 0.233707 0.158022
0.625208 0.242496 0.158083
0.670985 0.251530 0.158480
0.714717 0.261540 0.158785
0.757137 0.272099 0.159548
0.797971 0.284123 0.160555
0.837797 0.297642 0.162600
0.876341 0.313054 0.165133
0.913573 0.330541 0.169558
0.949035 0.350469 0.175998
0.982513 0.373083 0.185519
1.000000 0.398749 0.198520
0.112703 0.158083 0.143801
0.113527 0.158206 0.143984
0.116915 0.158938 0.143618
0.124422 0.160616 0.144106
0.134676 0.162539 0.144961
0.145907 0.164981 0.146334
0.159121 0.167544 0.147555
0.173404 0.170352 0.148501
0.189517 0.173312 0.149477
0.207492 0.176547 0.150515
0.227634 0.180026 0.151308
0.250156 0.183719 0.152102
0.274968 0.187747 0.153201
0.302190 0.192172 0.153933
0.332341 0.196933 0.154849
0.364874 0.202090 0.155642
0.400092 0.207553 0.156313
0.437324 0.213321 0.157168
0.476783 0.219364 0.157534
0.522972 0.226780 0.157992
0.572412 0.234958 0.158389
0.620691 0.243626 0.158602
0.666102 0.252384 0.158785
0.709621 0.262272 0.158999
0.751858 0.272618 0.159731
0.792660 0.284184 0.160555
0.832700 0.297551 0.162325
0.871550 0.312596 0.165164
0.909209 0.329839 0.168917
0.945129 0.349676 0.175418
0.979034 0.371893 0.184451
1.000000 0.397345 0.197055
0.114504 0.163546 0.145785
0.114748 0.163699 0.145968
0.116762 0.164096 0.146090
0.124453 0.165377 0.145785
0.134432 0.167056 0.146639
0.145174 0.169284 0.147585
0.158083 0.171481 0.148653
0.172610 0.173983 0.149386
0.188815 0.176547 0.150210
0.206638 0.179721 0.151034
0.226749 0.182986 0.151858
0.248814 0.186679 0.152834
0.273381 0.190707 0.153536
0.300359 0.195163 0.154482
0.330053 0.199832 0.155398
0.361944 0.204990 0.156252
0.396551 0.210361 0.156985
0.433417 0.216129 0.157687
0.472145 0.222080 0.158145
0.517601 0.229496 0.158724
0.564446 0.237339 0.158938
0.611200 0.245640 0.159152
0.656123 0.254276 0.159152
0.700465 0.263706 0.159670
0.743862 0.274205 0.160037
0.786343 0.285954 0.160983
0.827848 0.299504 0.162631
0.868009 0.314702 0.165164
0.906584 0.332006 0.169253
0.943023 0.351690 0.175601
0.976837 0.373663 0.184421
1.000000 0.398199 0.196506
0.117800 0.169986 0.149172
0.118044 0.170138 0.149355
0.119112 0.170413 0.149508
0.123323 0.171328 0.149294
0.133547 0.172793 0.148898
0.145022 0.174716 0.149416
0.157137 0.176730 0.150088
0.171023 0.179080 0.150637
0.186954 0.181430 0.151492
0.204990 0.184176 0.152132
0.224704 0.187442 0.152773
0.246586 0.190951 0.153567
0.270726 0.194949 0.154665
0.297581 0.199496 0.155367
0.326818 0.204318 0.156497
0.358862 0.209537 0.157107
0.393469 0.215091 0.157961
0.430365 0.221012 0.158633
0.469245 0.227085 0.159030
0.514824 0.234592 0.159548
0.560601 0.242405 0.159701
0.606683 0.250370 0.159854
0.651362 0.259068 0.160067
0.695766 0.268498 0.160189
0.739681 0.278904 0.160891
0.782620 0.290715 0.161685
0.824552 0.303899 0.163302
0.864866 0.318975 0.165621
0.903532 0.335882 0.169741
0.940063 0.354986 0.176028
0.973938 0.376623 0.184695
1.000000 0.400671 0.196414
0.120546 0.176974 0.152316
0.120882 0.177127 0.152316
0.121614 0.177249 0.152468
0.123507 0.177920 0.152743
0.131228 0.179324 0.152377
0.143954 0.181247 0.151644
0.157595 0.183536 0.152010
0.170993 0.185641 0.152346
0.186099 0.188144 0.152773
0.203952 0.190799 0.153628
0.223606 0.193912 0.154238
0.245426 0.197574 0.155184
0.269535 0.201572 0.156039
0.296330 0.206088 0.156924
0.325719 0.211093 0.157717
0.357733 0.216220 0.158724
0.392493 0.221927 0.159304
0.429419 0.227970 0.159854
0.470405 0.234653 0.160464
0.515099 0.242161 0.160769
0.560449 0.250187 0.161196
0.606012 0.258427 0.161074
0.697566 0.278965 0.161837
0.742245 0.289952 0.162814
0.784817 0.301701 0.164004
0.825376 0.314702 0.165835
0.864042 0.328954 0.168978
0.900664 0.344732 0.172885
0.935210 0.362432 0.179232
0.967559 0.382086 0.187350
0.997070 0.404120 0.198581
1.000000 0.427924 0.212802
0.123598 0.186343 0.155917
0.123842 0.186465 0.156069
0.124392 0.186740 0.156222
0.126406 0.187228 0.156527
0.131075 0.188418 0.156435
0.142031 0.190188 0.155734
0.157839 0.192630 0.155001
0.174563 0.195438 0.155123
0.190341 0.197665 0.155489
0.207431 0.200717 0.155825
0.226810 0.204013 0.156558
0.249638 0.207767 0.157382
0.274662 0.211917 0.158267
0.302037 0.216648 0.159152
0.331823 0.221469 0.159854
0.364019 0.226902 0.160616
0.398901 0.232670 0.161227
0.436072 0.238743 0.161593
0.481239 0.246830 0.162081
0.528466 0.255314 0.162570
0.577234 0.264164 0.162631
0.627131 0.273960 0.162814
0.676387 0.284428 0.163149
0.724819 0.295720 0.163790
0.770932 0.308019 0.164889
0.814176 0.321080 0.166995
0.854185 0.335027 0.169772
0.891569 0.350256 0.173526
0.926848 0.367346 0.179232
0.959655 0.386084 0.187228
0.989868 0.407233 0.197360
1.000000 0.430426 0.211093
0.126589 0.196078 0.159792
0.126986 0.196048 0.159976
0.127596 0.196292 0.159915
0.129244 0.196628 0.160220
0.131868 0.197421 0.160800
0.140658 0.199222 0.160311
0.153536 0.201480 0.159304
0.172030 0.204318 0.158572
0.191104 0.207828 0.158602
0.208499 0.210391 0.158968
0.227543 0.213626 0.159274
0.248264 0.217533 0.159854
0.272313 0.221744 0.160525
0.299260 0.226291 0.161379
0.328771 0.231327 0.162020
0.360540 0.236698 0.162753
0.395026 0.242679 0.163272
0.434516 0.249668 0.163760
0.478096 0.257633 0.164309
0.523156 0.265965 0.164401
0.570214 0.274632 0.164797
0.618769 0.284306 0.164797
0.667292 0.294560 0.164889
0.715267 0.305821 0.165560
0.761532 0.317845 0.166476
0.805142 0.330388 0.168429
0.845670 0.343877 0.170993
0.883757 0.358801 0.174899
0.919707 0.375097 0.180453
0.953124 0.393561 0.187930
0.984009 0.413886 0.198062
1.000000 0.436378 0.211337
0.130770 0.207340 0.164401
0.130709 0.207340 0.164584
0.131289 0.207553 0.164523
0.132723 0.208011 0.164797
0.135409 0.208621 0.165347
0.140932 0.209812 0.165408
0.152285 0.212009 0.164614
0.167819 0.214664 0.163821
0.188418 0.217990 0.162692
0.210086 0.222049 0.162600
0.229618 0.225223 0.162814
0.250370 0.228946 0.163363
0.273075 0.233127 0.163638
0.297429 0.237888 0.163912
0.326757 0.242954 0.164645
0.358343 0.248386 0.165133
0.394110 0.255131 0.165652
0.434180 0.262608 0.166201
0.476081 0.270512 0.166384
0.519982 0.278569 0.166720
0.565423 0.287541 0.166567
0.612940 0.296971 0.166812
0.660914 0.307195 0.166873
0.708309 0.318212 0.167575
0.754391 0.330022 0.168643
0.798184 0.342290 0.170504
0.839078 0.355535 0.172732
0.877653 0.369970 0.176852
0.914031 0.385931 0.182315
0.947875 0.403693 0.189822
0.979126 0.423529 0.200015
1.000000 0.445289 0.213352
0.134737 0.220462 0.169711
0.135164 0.220432 0.169711
0.135805 0.220523 0.169863
0.137179 0.220920 0.170108
0.139559 0.221378 0.170504
0.142184 0.222171 0.171023
0.151736 0.224186 0.170291
0.166049 0.226719 0.169528
0.184268 0.229709 0.168338
0.207401 0.233524 0.166995
0.231327 0.238132 0.166903
0.252354 0.241733 0.167025
0.275273 0.245853 0.167178
0.299687 0.250462 0.167422
0.326055 0.255711 0.167422
0.357305 0.261906 0.167605
0.394568 0.269474 0.168215
0.433936 0.277104 0.168643
0.475196 0.285161 0.169039
0.517906 0.293492 0.169039
0.562524 0.302220 0.169253
0.607904 0.311345 0.169131
0.653651 0.321080 0.169528
0.699336 0.331365 0.169894
0.743893 0.342412 0.170809
0.787015 0.354070 0.172213
0.828458 0.366796 0.174746
0.867826 0.380865 0.178347
0.905364 0.396612 0.183993
0.940368 0.414313 0.191348
0.972900 0.433692 0.201694
1.000000 0.455360 0.215213
0.139101 0.234653 0.175387
0.139559 0.234623 0.175204
0.139956 0.234806 0.175509
0.141665 0.235142 0.175753
0.143862 0.235691 0.175937
0.146731 0.236606 0.176699
0.152712 0.237888 0.176852
0.166110 0.240482 0.175906
0.182406 0.243595 0.174929
0.203494 0.247013 0.173556
0.229282 0.251469 0.171664
0.255741 0.256809 0.171481
0.278996 0.260899 0.171542
0.304021 0.265476 0.171481
0.332555 0.271672 0.171511
0.362921 0.278172 0.171511
0.394812 0.285161 0.171176
0.432532 0.292851 0.171328
0.472633 0.300694 0.171542
0.514458 0.309087 0.171633
0.557885 0.317693 0.171695
0.602411 0.326726 0.171725
0.647883 0.336522 0.171817
0.692988 0.346838 0.172244
0.737636 0.357733 0.173190
0.780789 0.369329 0.175051
0.822293 0.381811 0.177279
0.862089 0.395727 0.180880
0.899901 0.411048 0.186740
0.935424 0.428260 0.194491
0.968231 0.447364 0.204807
0.997894 0.468391 0.218540
0.144259 0.251316 0.181643
0.144259 0.251316 0.181643
0.145418 0.251438 0.181918
0.146517 0.251865 0.182132
0.148806 0.252445 0.182437
0.151980 0.253269 0.183017
0.155856 0.254429 0.183810
0.166354 0.256840 0.183444
0.182803 0.259861 0.182162
0.202243 0.263493 0.180911
0.225956 0.267308 0.179110
0.254429 0.272557 0.177157
0.296269 0.287205 0.178317
0.326848 0.294377 0.178195
0.358495 0.301366 0.178164
0.391547 0.308598 0.177859
0.425757 0.315770 0.177371
0.460609 0.323217 0.176394
0.497932 0.330999 0.175784
0.541100 0.339879 0.175814
0.585626 0.348913 0.175937
0.629725 0.358160 0.175937
0.673854 0.367712 0.176486
0.717342 0.377874 0.177432
0.759792 0.388464 0.179019
0.800778 0.399725 0.181613
0.839536 0.411688 0.185061
0.876402 0.424598 0.189700
0.911345 0.438911 0.195926
0.944244 0.455116 0.204715
0.974701 0.473030 0.216190
1.000000 0.493172 0.230961
0.150423 0.273869 0.190341
0.150973 0.273930 0.190463
0.151247 0.274022 0.190280
0.152560 0.274205 0.190524
0.155062 0.274449 0.190890
0.158236 0.275059 0.191287
0.162203 0.275914 0.191928
0.168338 0.277501 0.192508
0.184665 0.280552 0.191226
0.204105 0.284306 0.189822
0.228489 0.289891 0.188327
0.257877 0.296605 0.186862
0.293919 0.304997 0.184634
0.331395 0.314397 0.183597
0.364141 0.321874 0.183474
0.396918 0.328618 0.182956
0.430365 0.335302 0.182162
0.464179 0.342016 0.181338
0.498787 0.348821 0.180240
0.533898 0.356115 0.179232
0.574182 0.364416 0.178775
0.617700 0.373754 0.178714
0.661524 0.383185 0.179294
0.705043 0.393317 0.180270
0.747890 0.403784 0.182040
0.789456 0.414984 0.184115
0.829129 0.427008 0.187625
0.866972 0.440009 0.192386
0.903044 0.454353 0.199100
0.936980 0.470375 0.208042
0.968231 0.488136 0.219547
0.996582 0.507713 0.235080
0.155581 0.294621 0.198123
0.155764 0.294560 0.198001
0.156283 0.294438 0.197879
0.157992 0.294530 0.198093
0.159823 0.294896 0.198398
0.163424 0.295293 0.198825
0.167330 0.296208 0.199405
0.172671 0.298131 0.200381
0.185061 0.301549 0.200504
0.204837 0.306371 0.199344
0.228946 0.312047 0.197818
0.257420 0.318608 0.196048
0.290471 0.325841 0.193912
0.329686 0.334722 0.190860
0.369268 0.343633 0.189334
0.402594 0.350744 0.188479
0.435431 0.356847 0.187716
0.468452 0.362768 0.186709
0.502495 0.369146 0.185489
0.536767 0.375830 0.184298
0.572045 0.382971 0.182956
0.608240 0.390875 0.181796
0.651820 0.400519 0.182010
0.695491 0.410742 0.183108
0.738552 0.421424 0.184695
0.780575 0.432654 0.187076
0.820920 0.444617 0.190982
0.859403 0.457618 0.195895
0.896025 0.471717 0.202884
0.930510 0.487495 0.212100
0.962371 0.504967 0.224125
0.991333 0.524285 0.240146
0.161196 0.320012 0.207218
0.161196 0.320012 0.207218
0.162142 0.319951 0.207340
0.163394 0.320134 0.207401
0.165774 0.320439 0.207706
0.169192 0.320989 0.208042
0.173678 0.321996 0.208774
0.178958 0.323552 0.209751
0.185946 0.325719 0.210910
0.205661 0.330266 0.209567
0.229343 0.335851 0.207980
0.257237 0.342382 0.206332
0.289158 0.349401 0.204105
0.325109 0.356725 0.201236
0.366827 0.365545 0.197269
0.407446 0.373846 0.195102
0.441413 0.380438 0.193912
0.474342 0.385992 0.192844
0.507591 0.391730 0.191623
0.541405 0.397894 0.190463
0.576287 0.404456 0.189029
0.611780 0.411841 0.187961
0.647852 0.419898 0.186740
0.686824 0.429114 0.186435
0.729885 0.439887 0.188083
0.772274 0.451331 0.190799
0.813230 0.463478 0.194644
0.852598 0.476631 0.200107
0.890227 0.491096 0.207492
0.925872 0.507286 0.217990
0.958709 0.525078 0.231235
0.988342 0.544732 0.248997
0.166629 0.348089 0.217288
0.166934 0.348089 0.217288
0.167575 0.348180 0.217502
0.169406 0.348425 0.217655
0.171847 0.348760 0.218021
0.175570 0.349401 0.218540
0.180179 0.350591 0.219150
0.185916 0.352331 0.220188
0.192874 0.354467 0.221469
0.206973 0.358068 0.221622
0.230716 0.363256 0.219883
0.258061 0.369085 0.217868
0.288670 0.375402 0.215579
0.322911 0.381659 0.212222
0.360357 0.388067 0.208499
0.403052 0.396002 0.203738
0.444587 0.403571 0.200717
0.478950 0.409888 0.199466
0.512078 0.415167 0.198245
0.545800 0.420996 0.197055
0.580560 0.427558 0.195773
0.616114 0.434607 0.194614
0.651972 0.442542 0.193698
0.688411 0.451087 0.193088
0.724727 0.460395 0.192599
0.766079 0.471778 0.195010
0.807584 0.484321 0.199313
0.847593 0.497719 0.205295
0.885557 0.512169 0.213474
0.921263 0.527947 0.224460
0.954101 0.545129 0.238529
0.983612 0.564050 0.256138
0.172335 0.376715 0.228000
0.172519 0.376654 0.227787
0.173312 0.376806 0.227970
0.174899 0.376959 0.228153
0.177615 0.377356 0.228336
0.181643 0.378119 0.229007
0.186343 0.379248 0.229648
0.192325 0.380682 0.230564
0.199557 0.382635 0.231968
0.207401 0.385199 0.233616
0.229923 0.389899 0.232151
0.257115 0.395300 0.230137
0.287572 0.401282 0.227634
0.321019 0.407446 0.224399
0.357244 0.413581 0.220676
0.396399 0.419715 0.216251
0.440467 0.427619 0.210605
0.483375 0.434852 0.207462
0.518517 0.441382 0.206027
0.552148 0.446723 0.204868
0.586511 0.452735 0.203525
0.621637 0.459510 0.202457
0.657282 0.467109 0.201877
0.693324 0.475288 0.201602
0.729244 0.484443 0.201602
0.765255 0.494362 0.202365
0.801877 0.505608 0.204257
0.842313 0.519249 0.210971
0.880919 0.533867 0.220066
0.916930 0.549767 0.231907
0.950103 0.566827 0.246891
0.979767 0.585412 0.265843
0.179049 0.407965 0.239902
0.179294 0.408209 0.240055
0.183627 0.422034 0.245701
0.185580 0.422248 0.246128
0.188693 0.422675 0.246403
0.192844 0.423102 0.246830
0.197848 0.423957 0.247440
0.204654 0.425269 0.248508
0.212497 0.426978 0.249851
0.221592 0.429328 0.251591
0.236698 0.432715 0.251957
0.265537 0.437873 0.249882
0.296849 0.443183 0.246830
0.330785 0.448676 0.243229
0.367071 0.454047 0.239322
0.405585 0.459388 0.234470
0.446601 0.464332 0.228885
0.492164 0.471534 0.221683
0.535637 0.477607 0.218082
0.570459 0.483070 0.216312
0.603479 0.487617 0.215152
0.637476 0.493172 0.214267
0.671839 0.499611 0.213687
0.706325 0.506737 0.213901
0.740536 0.514549 0.213870
0.774441 0.523125 0.214755
0.808011 0.532647 0.216861
0.841306 0.543450 0.219760
0.876677 0.556695 0.227512
0.912627 0.572045 0.240024
0.945861 0.588800 0.256199
0.975555 0.606836 0.276097
0.188174 0.444984 0.255131
0.188479 0.446418 0.255589
0.189822 0.447883 0.256321
0.192508 0.449470 0.257206
0.195895 0.450813 0.258030
0.200076 0.451728 0.258762
0.205478 0.452522 0.259342
0.212161 0.453498 0.260319
0.219883 0.455055 0.261479
0.228672 0.457038 0.263035
0.238651 0.459388 0.264927
0.263035 0.463752 0.263554
0.293950 0.468849 0.260899
0.327092 0.474037 0.257572
0.362676 0.479408 0.253452
0.400519 0.484840 0.248997
0.440101 0.490242 0.243687
0.482368 0.495644 0.237583
0.529870 0.503624 0.230594
0.573816 0.509606 0.227054
0.608728 0.515251 0.226261
0.642603 0.520592 0.225559
0.676753 0.526635 0.225437
0.710811 0.533410 0.225223
0.744564 0.540642 0.226078
0.777920 0.548669 0.227604
0.810758 0.557641 0.229709
0.843320 0.567773 0.233463
0.875334 0.579431 0.239445
0.906615 0.592706 0.247349
0.939879 0.609155 0.263798
0.970031 0.626886 0.284611
0.196536 0.476387 0.268498
0.197452 0.477974 0.269291
0.198978 0.479591 0.270085
0.201144 0.481422 0.270970
0.204990 0.482887 0.272099
0.209171 0.483803 0.272679
0.214603 0.484657 0.273320
0.221653 0.485542 0.274327
0.229160 0.486824 0.275425
0.238346 0.488441 0.276951
0.248264 0.490608 0.278599
0.262577 0.493477 0.279759
0.293431 0.498451 0.277195
0.326299 0.503624 0.273838
0.361517 0.508995 0.269963
0.398627 0.514336 0.265782
0.437873 0.519615 0.260563
0.479011 0.524956 0.254978
0.522332 0.530510 0.248814
0.570123 0.538537 0.241672
0.613947 0.543938 0.238529
0.648402 0.549310 0.238376
0.682277 0.554986 0.238560
0.715999 0.561303 0.239231
0.749233 0.567956 0.240177
0.781918 0.575402 0.241978
0.814084 0.583703 0.245182
0.845853 0.593103 0.249241
0.877104 0.604211 0.255711
0.907622 0.616724 0.264836
0.936675 0.631037 0.276738
0.964538 0.647150 0.294377
0.207126 0.510826 0.283696
0.207858 0.512383 0.284642
0.209812 0.513970 0.285496
0.212222 0.515618 0.286381
0.215671 0.517052 0.287327
0.220340 0.517876 0.288121
0.225895 0.518669 0.288701
0.232425 0.519615 0.289677
0.240391 0.520897 0.290990
0.249424 0.522393 0.292363
0.259403 0.524346 0.294041
0.270634 0.526696 0.296239
0.294347 0.530480 0.295293
0.327489 0.535302 0.292241
0.362158 0.540459 0.288823
0.399023 0.545830 0.284886
0.437995 0.551446 0.280430
0.479011 0.557458 0.275608
0.522148 0.563714 0.270512
0.567346 0.570336 0.264714
0.617182 0.579461 0.258335
0.661830 0.585199 0.256809
0.695888 0.590723 0.257633
0.730129 0.597253 0.259434
0.763516 0.604120 0.262181
0.795987 0.611414 0.265232
0.827634 0.619409 0.269780
0.858579 0.628565 0.275669
0.888762 0.639033 0.283848
0.917723 0.651057 0.294865
0.944915 0.664454 0.309026
0.969818 0.679347 0.327398
0.226444 0.557031 0.306950
0.226780 0.557671 0.307347
0.228183 0.558282 0.307683
0.230137 0.558770 0.308171
0.233555 0.559167 0.308629
0.237461 0.559411 0.309026
0.243076 0.559747 0.309514
0.249393 0.560540 0.310491
0.257298 0.561486 0.311437
0.266606 0.562951 0.312993
0.277195 0.564813 0.315221
0.288151 0.567010 0.317235
0.301030 0.569390 0.319493
0.334417 0.573877 0.316442
0.369177 0.578515 0.313207
0.405615 0.583368 0.309331
0.443763 0.588464 0.305150
0.483742 0.593683 0.300511
0.525383 0.599115 0.295506
0.568811 0.604761 0.290135
0.613611 0.610590 0.284398
0.662135 0.618647 0.277806
0.704402 0.622675 0.276310
0.735714 0.626581 0.278233
0.768032 0.632349 0.280980
0.799802 0.638972 0.284642
0.830991 0.646418 0.289769
0.861265 0.655024 0.296452
0.890684 0.664790 0.305577
0.918700 0.675837 0.317388
0.944884 0.688228 0.332464
0.968872 0.701900 0.351293
0.245823 0.594232 0.327642
0.246311 0.594751 0.327886
0.247593 0.595331 0.328374
0.249912 0.595819 0.328893
0.253025 0.596216 0.329351
0.256718 0.596521 0.329625
0.262333 0.596979 0.330449
0.268650 0.597589 0.331273
0.276371 0.598535 0.332525
0.285649 0.599939 0.334112
0.295720 0.601648 0.336156
0.306737 0.603632 0.338323
0.318883 0.605768 0.340795
0.341100 0.609125 0.340856
0.375830 0.613550 0.338109
0.411505 0.618280 0.334661
0.449348 0.623255 0.331090
0.488594 0.628351 0.327031
0.529290 0.633631 0.322667
0.571588 0.639063 0.318181
0.615229 0.644556 0.313237
0.659785 0.650233 0.307805
0.707057 0.657832 0.302403
0.747585 0.660853 0.302098
0.771450 0.659205 0.300206
0.801846 0.664607 0.304051
0.832486 0.671504 0.309880
0.862242 0.679347 0.317174
0.890898 0.688411 0.327062
0.918212 0.698634 0.339513
0.943786 0.710262 0.355749
0.967163 0.723140 0.375525
0.276280 0.637751 0.355596
0.277165 0.638697 0.356329
0.278447 0.639185 0.356786
0.280186 0.639246 0.357122
0.282658 0.638911 0.357183
0.285618 0.638453 0.356847
0.289708 0.637995 0.356817
0.295109 0.637629 0.357031
0.301823 0.637659 0.357549
0.309514 0.638056 0.358465
0.318700 0.638636 0.359686
0.328893 0.639796 0.361425
0.340215 0.641108 0.363561
0.352117 0.642573 0.365942
0.382879 0.645777 0.363104
0.417273 0.649317 0.359411
0.453010 0.653285 0.355749
0.490608 0.657588 0.351812
0.529961 0.662409 0.347906
0.571099 0.667628 0.344152
0.613306 0.673121 0.340398
0.656214 0.678462 0.336004
0.699306 0.683528 0.330999
0.744381 0.690089 0.325841
0.781704 0.691463 0.325597
0.808133 0.693111 0.328496
0.835966 0.697688 0.333288
0.864378 0.704280 0.340948
0.891844 0.712062 0.350713
0.918059 0.721126 0.363500
0.942626 0.731563 0.380041
0.965270 0.743343 0.400793
0.304417 0.671778 0.379797
0.305699 0.672602 0.380652
0.307103 0.673243 0.381231
0.308934 0.673548 0.381689
0.311376 0.673671 0.381903
0.314824 0.673793 0.382330
0.319524 0.674037 0.382971
0.324956 0.674434 0.383825
0.331823 0.675105 0.384863
0.340093 0.676081 0.386450
0.349126 0.677150 0.388190
0.359533 0.678462 0.390478
0.370489 0.679866 0.392737
0.382300 0.681270 0.395392
0.400885 0.683162 0.395880
0.433478 0.686244 0.392554
0.467811 0.689570 0.389044
0.503593 0.693263 0.385412
0.541161 0.697444 0.381903
0.580316 0.701961 0.378820
0.620722 0.706722 0.375463
0.661860 0.711482 0.372076
0.703151 0.716182 0.368322
0.744442 0.720607 0.364294
0.786954 0.726345 0.360174
0.821134 0.727108 0.361517
0.845609 0.728359 0.365606
0.870909 0.732509 0.372656
0.897093 0.739376 0.383581
0.921874 0.747341 0.397284
0.944976 0.756558 0.414893
0.966247 0.766720 0.436164
0.344793 0.709773 0.411841
0.345678 0.710140 0.412360
0.346441 0.710353 0.412512
0.347906 0.710536 0.412818
0.350256 0.710597 0.413184
0.353033 0.710567 0.413306
0.357122 0.710689 0.413977
0.362036 0.710872 0.414588
0.368566 0.711360 0.415747
0.375921 0.712062 0.417273
0.384436 0.712947 0.418921
0.394079 0.714015 0.421118
0.404486 0.715297 0.423590
0.415534 0.716548 0.426154
0.427008 0.717800 0.428870
0.453407 0.720150 0.427161
0.485603 0.722927 0.424140
0.519371 0.726040 0.420722
0.554894 0.729610 0.417914
0.591852 0.733516 0.415076
0.630060 0.737667 0.412604
0.668849 0.741787 0.410101
0.707881 0.745724 0.407111
0.747036 0.749447 0.403845
0.785367 0.753017 0.400183
0.824460 0.757656 0.396643
0.854917 0.757565 0.399268
0.876829 0.758175 0.403906
0.899138 0.761715 0.412696
0.922911 0.768704 0.427375
0.945068 0.776669 0.444800
0.965606 0.785489 0.466011
0.389014 0.743709 0.445472
0.389807 0.744015 0.445869
0.390692 0.744320 0.446235
0.392340 0.744594 0.446632
0.394934 0.744869 0.447364
0.398413 0.745449 0.448280
0.403693 0.746548 0.450233
0.410163 0.747890 0.452430
0.418219 0.749630 0.455451
0.427558 0.751644 0.458839
0.437964 0.753902 0.462684
0.449073 0.756130 0.466804
0.460761 0.758389 0.470954
0.472602 0.760464 0.475044
0.484627 0.762203 0.478828
0.499794 0.763912 0.481453
0.529015 0.766354 0.479042
0.559808 0.768917 0.476600
0.592309 0.771725 0.474647
0.626154 0.774777 0.472755
0.660975 0.777981 0.471290
0.696498 0.781125 0.469551
0.732113 0.784024 0.467567
0.767422 0.786770 0.465309
0.802274 0.789273 0.462623
0.836240 0.791562 0.459846
0.870237 0.794888 0.458076
0.895506 0.794003 0.461616
0.913787 0.794095 0.467445
0.931884 0.796567 0.477668
0.951995 0.802823 0.495460
0.970672 0.810086 0.516655
0.457771 0.784695 0.496223
0.457771 0.784726 0.496132
0.458412 0.784695 0.496345
0.459144 0.784634 0.496284
0.460700 0.784634 0.496498
0.463111 0.784695 0.496925
0.466560 0.784909 0.497810
0.470893 0.785275 0.498726
0.476570 0.785885 0.500450
0.483162 0.786618 0.502281
0.490791 0.787594 0.504662
0.499336 0.788663 0.507439
0.508721 0.789792 0.510491
0.518730 0.790921 0.513664
