20 Preset/Food Style/【3】LUT video cho PR-AE-FCPX/Food Style Tone (11).cube
# Created by Adobe Lightroom plugin Export LUT (1.24.0)
# www.johnrellis.com/lightroom/exportlut.htm
# Preset: 静谧咖啡-素材江湖07
# Color profile: E:\lut插件\exportlut.1.24\exportlut.lrplugin\color profiles\Rec709gamma2.4.icc
LUT_3D_SIZE 8
DOMAIN_MIN 0.000000 0.000000 0.000000
DOMAIN_MAX 0.903226 0.903226 0.903226
0.052338 0.109529 0.125643
0.079774 0.110170 0.127016
0.136172 0.110048 0.131106
0.239353 0.096803 0.135012
0.386999 0.000000 0.139956
0.562310 0.000000 0.147097
0.752377 0.000000 0.159854
0.938842 0.000000 0.189120
0.047547 0.120790 0.132601
0.073396 0.119875 0.129824
0.137575 0.120912 0.130587
0.240604 0.113741 0.133791
0.386938 0.042969 0.138186
0.560296 0.000000 0.144961
0.748653 0.000000 0.157015
0.933104 0.000000 0.185641
0.000000 0.182864 0.157198
0.043458 0.173465 0.158419
0.138003 0.174472 0.142000
0.263767 0.180240 0.125948
0.413519 0.169528 0.128786
0.588006 0.127657 0.134249
0.781094 0.000000 0.146700
0.951598 0.000000 0.179477
0.000000 0.320897 0.219577
0.000000 0.311986 0.218265
0.161990 0.277317 0.232029
0.279332 0.309117 0.171878
0.472755 0.322911 0.108614
0.643030 0.309178 0.077241
0.815702 0.301427 0.102632
0.964752 0.299718 0.155459
0.000000 0.515404 0.317144
0.000000 0.507927 0.311559
0.149233 0.476326 0.323888
0.306004 0.448554 0.322148
0.467140 0.493874 0.218784
0.678950 0.514275 0.015015
0.836973 0.502678 0.000000
0.970001 0.500542 0.076722
0.000000 0.717342 0.449561
0.000000 0.716457 0.444892
0.096315 0.694759 0.451698
0.381628 0.650477 0.469001
0.486824 0.652308 0.432471
0.662837 0.698970 0.304234
0.850614 0.717250 0.121187
0.966339 0.698024 0.000000
0.261387 0.866941 0.645716
0.276829 0.865660 0.641932
0.371527 0.855802 0.641047
0.495857 0.835050 0.649866
0.593835 0.800229 0.663844
0.671077 0.824369 0.601312
0.812314 0.849485 0.474006
0.945739 0.851377 0.322759
0.621088 0.941161 0.829343
0.623163 0.940612 0.827817
0.642420 0.937469 0.826810
0.685847 0.930388 0.831693
0.727016 0.916655 0.832761
0.767483 0.908659 0.835264
0.815091 0.921752 0.797787
0.899962 0.930785 0.708919
0.046479 0.111360 0.139376
0.077974 0.111177 0.135256
0.136446 0.112428 0.133333
0.235355 0.111391 0.134035
0.381994 0.041810 0.138369
0.554894 0.000000 0.144991
0.741115 0.000000 0.157076
0.925383 0.000000 0.184360
0.026612 0.123903 0.145541
0.073518 0.122988 0.142611
0.139376 0.124483 0.138643
0.240177 0.125032 0.132998
0.386419 0.094789 0.136721
0.558648 0.000000 0.142947
0.741848 0.000000 0.154726
0.922667 0.000000 0.181521
0.000000 0.190036 0.173495
0.014618 0.184970 0.172580
0.141512 0.179477 0.160098
0.265995 0.181674 0.142611
0.410620 0.177371 0.127443
0.582238 0.144778 0.132479
0.764828 0.000000 0.143832
0.938262 0.000000 0.174746
0.000000 0.324529 0.233555
0.000000 0.318914 0.233768
0.163973 0.285252 0.242496
0.276066 0.306401 0.191592
0.459022 0.314733 0.140383
0.624079 0.304021 0.082094
0.796628 0.297185 0.100801
0.951965 0.294957 0.149996
0.000000 0.518059 0.329870
0.000000 0.511681 0.328710
0.137057 0.479957 0.332067
0.307225 0.444434 0.334173
0.460548 0.487221 0.238346
0.668788 0.505882 0.122194
0.828611 0.496925 0.000000
0.964080 0.495979 0.056947
0.000000 0.715938 0.458320
0.000000 0.712337 0.456977
0.000000 0.692073 0.454688
0.376562 0.649226 0.472145
0.484657 0.647425 0.441993
0.659480 0.696010 0.322423
0.846708 0.713802 0.171969
0.963867 0.694697 0.000000
0.246220 0.865110 0.648066
0.272251 0.862730 0.645655
0.355535 0.853239 0.638880
0.487617 0.832883 0.648493
0.590967 0.799100 0.664179
0.667964 0.821225 0.606348
0.808072 0.846281 0.481453
0.942077 0.848325 0.336706
0.616571 0.940398 0.829252
0.621485 0.939971 0.829007
0.636927 0.937072 0.825925
0.681727 0.929992 0.830869
0.730983 0.918639 0.837797
0.769497 0.909056 0.839353
0.814817 0.921508 0.801480
0.898924 0.930632 0.715389
0.000000 0.115785 0.204105
0.065003 0.115267 0.200809
0.140261 0.114382 0.179965
0.263706 0.098665 0.176638
0.399664 0.043244 0.163882
0.569329 0.000000 0.146242
0.757168 0.000000 0.153536
0.936217 0.000000 0.183230
0.000000 0.132052 0.212253
0.026123 0.130220 0.210269
0.146700 0.129915 0.191409
0.266239 0.118105 0.182528
0.403754 0.099397 0.170077
0.572381 0.000000 0.150118
0.757107 0.000000 0.150790
0.934325 0.000000 0.180545
0.000000 0.202487 0.243626
0.000000 0.201205 0.240055
0.150881 0.197421 0.226169
0.280278 0.194400 0.211856
0.429389 0.185611 0.191348
0.598230 0.167697 0.162234
0.777127 0.131167 0.138766
0.944610 0.000000 0.172335
0.000000 0.360723 0.306645
0.000000 0.355810 0.301213
0.142580 0.333532 0.292119
0.293584 0.325963 0.267094
0.474006 0.325750 0.230777
0.639246 0.315953 0.192020
0.808591 0.318059 0.124544
0.959075 0.318364 0.148257
0.000000 0.546471 0.387976
0.000000 0.541558 0.385443
0.000000 0.520439 0.383520
0.337316 0.462531 0.396857
0.476387 0.504936 0.320195
0.676875 0.515190 0.248692
0.833738 0.502281 0.180056
0.967895 0.505730 0.056794
0.000000 0.733425 0.503593
0.000000 0.730556 0.503929
0.000000 0.715602 0.505516
0.378515 0.674922 0.510857
0.497993 0.653864 0.499184
0.662654 0.702144 0.400549
0.844877 0.716426 0.301701
0.962860 0.697963 0.208591
0.185306 0.873899 0.673915
0.243534 0.871611 0.674922
0.378058 0.862791 0.679500
0.492775 0.843748 0.677943
0.600153 0.811551 0.690364
0.674006 0.824033 0.651820
0.807736 0.850217 0.548486
0.938842 0.851987 0.432319
0.602319 0.943725 0.834867
0.612055 0.942718 0.836057
0.645899 0.939208 0.840299
0.683589 0.933196 0.840909
0.733822 0.922057 0.846738
0.775204 0.909575 0.852354
0.816922 0.922362 0.820554
0.896635 0.931640 0.747951
0.000000 0.122744 0.334905
0.000000 0.122042 0.335149
0.185245 0.117494 0.329107
0.281132 0.109346 0.287999
0.465126 0.000000 0.285740
0.611994 0.000000 0.241550
0.766049 0.000000 0.220340
0.940185 0.000000 0.180758
0.000000 0.143038 0.344030
0.000000 0.143008 0.343023
0.183993 0.141329 0.337682
0.289799 0.133455 0.299443
0.467750 0.060151 0.291966
0.613245 0.000000 0.246098
0.769650 0.000000 0.226291
0.941833 0.000000 0.178958
0.000000 0.220066 0.359472
0.000000 0.219059 0.356756
0.137942 0.215763 0.358618
0.304692 0.217380 0.331487
0.472663 0.197848 0.313756
0.616114 0.173739 0.283726
0.794308 0.145724 0.253605
0.955535 0.129702 0.194491
0.000000 0.363958 0.423804
0.000000 0.362646 0.420722
0.000000 0.359014 0.408423
0.311070 0.352697 0.385687
0.480751 0.344366 0.361120
0.645930 0.335698 0.330663
0.813779 0.329503 0.288548
0.963897 0.332525 0.221500
0.000000 0.604456 0.532097
0.000000 0.599237 0.524926
0.000000 0.578851 0.498451
0.332128 0.538354 0.477180
0.495277 0.531029 0.446967
0.683650 0.529290 0.400061
0.837766 0.516991 0.349981
0.969787 0.516167 0.279149
0.000000 0.770138 0.605676
0.000000 0.769497 0.605280
0.000000 0.755825 0.594934
0.363775 0.727749 0.593622
0.532464 0.671595 0.600488
0.670222 0.717830 0.526299
0.840635 0.723964 0.459449
0.958312 0.704097 0.389715
0.000000 0.889403 0.722896
0.000000 0.887785 0.723629
0.313756 0.880308 0.726528
0.504173 0.865263 0.736355
0.615503 0.836759 0.738460
0.686915 0.830076 0.723629
0.804990 0.855833 0.649805
0.929168 0.856413 0.566552
0.568353 0.951324 0.848203
0.580529 0.950347 0.849210
0.625910 0.946502 0.853849
0.691554 0.939635 0.862333
0.738003 0.929290 0.863005
0.783413 0.914244 0.869413
0.820554 0.923522 0.849058
0.893584 0.933501 0.796536
0.000000 0.139773 0.515892
0.000000 0.139132 0.517235
0.165835 0.132479 0.518669
0.395819 0.105776 0.519615
0.490730 0.028809 0.452399
0.711238 0.000000 0.458167
0.843503 0.000000 0.395972
0.967742 0.000000 0.322606
0.000000 0.164431 0.521447
0.000000 0.164065 0.523156
0.160708 0.160616 0.524743
0.395727 0.147005 0.525170
0.496193 0.117433 0.460365
0.711269 0.000000 0.463386
0.842649 0.000000 0.400061
0.965515 0.000000 0.329076
0.000000 0.245487 0.529595
0.000000 0.243107 0.531884
0.000000 0.242161 0.536492
0.382483 0.249363 0.540520
0.508995 0.238926 0.488075
0.702449 0.219455 0.478004
0.834379 0.110750 0.413092
0.950134 0.075288 0.365209
0.000000 0.373754 0.560723
0.000000 0.372808 0.558282
0.000000 0.369329 0.549035
0.314366 0.376196 0.558892
0.517876 0.391363 0.534722
0.687953 0.376501 0.506157
0.815702 0.337255 0.446143
0.958465 0.333227 0.399298
0.000000 0.565972 0.639765
0.000000 0.565545 0.638117
0.000000 0.562982 0.629480
0.177005 0.558007 0.612299
0.500328 0.550347 0.585199
0.669612 0.537957 0.551720
0.825315 0.526238 0.508049
0.961395 0.516472 0.448005
0.000000 0.796536 0.743404
0.000000 0.796475 0.742000
0.000000 0.792721 0.733181
0.000000 0.767910 0.699306
0.524437 0.726589 0.677852
0.666835 0.727016 0.655512
0.825315 0.725460 0.611139
0.945525 0.706508 0.549004
0.000000 0.909697 0.799283
0.000000 0.907958 0.797482
0.000000 0.901061 0.790951
0.387274 0.887510 0.785245
0.607507 0.864683 0.789792
0.699702 0.831144 0.790555
0.798306 0.859373 0.744625
0.913664 0.857694 0.690578
0.436927 0.962554 0.863706
0.458381 0.961456 0.864164
0.533104 0.957031 0.866331
0.640040 0.949584 0.873289
0.735225 0.938903 0.883024
0.786831 0.924315 0.884855
0.823606 0.923400 0.877531
0.889555 0.934356 0.841581
0.000000 0.172641 0.723903
0.000000 0.171817 0.725734
0.098909 0.165072 0.728756
0.426398 0.143801 0.736721
0.658198 0.116823 0.745846
0.729580 0.000000 0.659968
0.905180 0.000000 0.649683
1.000000 0.000000 0.590692
0.000000 0.196963 0.721645
0.000000 0.196353 0.722621
0.048127 0.192691 0.726467
0.419562 0.180728 0.734188
0.651698 0.172427 0.743465
0.727077 0.109407 0.661311
0.901030 0.133730 0.651026
1.000000 0.008911 0.591424
0.000000 0.274998 0.729244
0.000000 0.275883 0.730282
0.000000 0.279179 0.734829
0.399268 0.283482 0.740963
0.640497 0.303197 0.751736
0.731838 0.277226 0.682399
0.895811 0.309148 0.671351
0.999359 0.267826 0.606165
0.000000 0.403845 0.721523
0.000000 0.403143 0.723201
0.000000 0.403143 0.732998
0.322972 0.414740 0.750546
0.609400 0.454658 0.765927
0.732204 0.452644 0.719753
0.879057 0.481636 0.705715
0.981659 0.424109 0.630304
0.000000 0.563897 0.764584
0.000000 0.563287 0.763210
0.000000 0.560143 0.757412
0.000000 0.555108 0.746059
0.509117 0.576776 0.759396
0.702785 0.610315 0.746975
0.839231 0.602045 0.717494
0.950011 0.540185 0.635554
0.000000 0.750576 0.818143
0.000000 0.751156 0.818112
0.000000 0.750149 0.814359
0.000000 0.748104 0.806973
0.431952 0.745052 0.794491
0.668238 0.743069 0.777096
0.804715 0.730709 0.747158
0.925231 0.715755 0.701991
0.000000 0.919493 0.883177
0.000000 0.919371 0.883055
0.000000 0.917662 0.881071
0.000000 0.914458 0.877348
0.510216 0.898619 0.860868
0.709590 0.868772 0.847135
0.797391 0.867185 0.833066
0.899443 0.861784 0.802426
0.219364 0.976226 0.907927
0.261997 0.975280 0.907256
0.386145 0.971618 0.905272
0.531273 0.964752 0.902312
0.671077 0.953826 0.900725
0.785611 0.939239 0.906828
0.831876 0.923491 0.907500
0.888579 0.936614 0.886748
0.000000 0.231601 0.883726
0.000000 0.232059 0.885100
0.199954 0.230594 0.886900
0.467140 0.228916 0.891203
0.682521 0.240146 0.896117
0.858213 0.280461 0.897246
0.915801 0.211154 0.838010
1.000000 0.313146 0.802213
0.000000 0.251499 0.879484
0.000000 0.252384 0.881193
0.179507 0.251987 0.883268
0.456794 0.251682 0.887083
0.673182 0.264317 0.891966
0.850034 0.304112 0.893095
0.907195 0.238102 0.832731
1.000000 0.324743 0.797513
0.000000 0.327123 0.881346
0.000000 0.328008 0.881895
0.042634 0.331243 0.883482
0.436835 0.340246 0.887266
0.658747 0.363714 0.891844
0.841245 0.420417 0.895689
0.902617 0.371405 0.843870
0.992615 0.441718 0.814725
0.000000 0.444099 0.877806
0.000000 0.443214 0.878294
0.000000 0.443610 0.881682
0.371527 0.460090 0.886748
0.625330 0.495705 0.892210
0.815488 0.567132 0.898436
0.885130 0.538231 0.859617
0.967864 0.588006 0.837644
0.000000 0.575067 0.871427
0.000000 0.572930 0.869657
0.000000 0.566918 0.864927
0.000000 0.570642 0.872496
0.534874 0.606989 0.883757
0.762570 0.673396 0.892729
0.850858 0.675349 0.868193
0.936706 0.713649 0.858946
0.000000 0.735927 0.895018
0.000000 0.735683 0.894591
0.000000 0.733883 0.892363
0.000000 0.729915 0.887602
0.371740 0.723751 0.878386
0.679683 0.758450 0.887083
0.821866 0.796414 0.884459
0.907591 0.789822 0.865843
0.000000 0.879728 0.917784
0.000000 0.879973 0.917754
0.000000 0.879271 0.916533
0.000000 0.878141 0.914153
0.459663 0.875761 0.909789
0.651026 0.872923 0.903258
0.796323 0.870756 0.894194
0.884459 0.859648 0.875090
0.000000 0.976867 0.947662
0.000000 0.976501 0.947509
0.277073 0.974975 0.947112
0.454841 0.971801 0.945739
0.604120 0.967468 0.943633
0.734920 0.958099 0.936950
0.839902 0.940978 0.931670
0.891447 0.940063 0.925353
0.214542 0.340063 0.969116
0.262455 0.341894 0.969390
0.388281 0.344976 0.969055
0.548943 0.357061 0.969390
0.713863 0.384466 0.969329
0.862303 0.442023 0.968231
0.965209 0.489052 0.964538
1.000000 0.425391 0.934203
0.196811 0.354620 0.967468
0.248631 0.356359 0.967773
0.381079 0.360571 0.967773
0.542931 0.372503 0.968017
0.708797 0.399878 0.967987
0.857633 0.456794 0.966918
0.960754 0.503166 0.963134
1.000000 0.438636 0.932647
0.116915 0.415808 0.965332
0.197482 0.417334 0.965393
0.354131 0.422461 0.965270
0.528740 0.440162 0.966155
0.696284 0.469093 0.965667
0.843534 0.524407 0.964172
0.945861 0.577020 0.960723
0.996643 0.518334 0.932921
0.000000 0.507408 0.961334
0.000000 0.507744 0.961700
0.264714 0.514885 0.961700
0.482765 0.534081 0.961975
0.666835 0.568353 0.961578
0.817990 0.623377 0.960235
0.921416 0.683375 0.957855
0.972045 0.635035 0.934569
0.000000 0.604242 0.953979
0.000000 0.604639 0.954406
0.000000 0.604211 0.955108
0.342840 0.623316 0.955932
0.599084 0.657618 0.955840
0.775631 0.707057 0.955230
0.892241 0.771847 0.954742
0.942107 0.742763 0.936339
0.000000 0.736690 0.954223
0.000000 0.735286 0.953674
0.000000 0.730282 0.951873
0.000000 0.722347 0.948699
0.402228 0.726101 0.948272
0.706630 0.777920 0.950774
0.860075 0.836790 0.953338
0.916594 0.838499 0.942229
0.000000 0.868467 0.960845
0.000000 0.868101 0.960601
0.000000 0.866758 0.959564
0.000000 0.864652 0.957641
0.423621 0.860929 0.954284
0.605646 0.854734 0.948699
0.808286 0.877867 0.950256
0.902373 0.901213 0.949096
0.120760 0.950683 0.967163
0.177798 0.950439 0.967010
0.307561 0.949706 0.966522
0.449195 0.948547 0.965698
0.581598 0.946838 0.964233
0.699733 0.944884 0.961975
0.802548 0.942931 0.958679
0.892515 0.940856 0.953857
