20 Preset/Food Style/【3】LUT video cho PR-AE-FCPX/Food Style Tone (3).cube
# Created by Adobe Lightroom plugin Export LUT (1.24.0)
# www.johnrellis.com/lightroom/exportlut.htm
# Preset: 静谧咖啡-素材江湖14
# Color profile: E:\lut插件\exportlut.1.24\exportlut.lrplugin\color profiles\Rec709gamma2.4.icc
LUT_3D_SIZE 32
DOMAIN_MIN 0.0 0.0 0.0
DOMAIN_MAX 1.0 1.0 1.0
0.030091 0.034394 0.042145
0.033051 0.035126 0.043091
0.043275 0.036194 0.043885
0.062348 0.039521 0.047578
0.088411 0.046845 0.052705
0.105684 0.054322 0.058595
0.124392 0.061982 0.062959
0.145937 0.067262 0.067048
0.171145 0.069612 0.069520
0.200320 0.067933 0.071229
0.234134 0.060151 0.073060
0.272953 0.044373 0.074586
0.317144 0.016449 0.074281
0.366033 0.000000 0.073793
0.418463 0.000000 0.073518
0.473152 0.000000 0.074891
0.529625 0.000000 0.073762
0.587060 0.000000 0.071015
0.644404 0.000000 0.065003
0.700649 0.000000 0.056825
0.753445 0.000000 0.043824
0.812009 0.000000 0.026368
0.863157 0.000000 0.010193
0.907073 0.137148 0.000000
0.943938 0.195590 0.000000
0.975433 0.241428 0.000000
1.000000 0.281102 0.000000
1.000000 0.316808 0.020233
1.000000 0.350011 0.069154
1.000000 0.381750 0.107332
1.000000 0.411688 0.137118
1.000000 0.440497 0.170169
0.032349 0.036347 0.042939
0.034333 0.036103 0.042939
0.043519 0.038392 0.044709
0.062928 0.041688 0.047272
0.088136 0.048035 0.052552
0.105287 0.056733 0.058289
0.123720 0.063416 0.062837
0.145052 0.068910 0.066926
0.169619 0.070710 0.069551
0.197848 0.070192 0.071321
0.230594 0.062959 0.074495
0.268864 0.048981 0.073823
0.312413 0.022309 0.074891
0.360449 0.000000 0.074556
0.412238 0.000000 0.074739
0.466407 0.000000 0.074281
0.523125 0.000000 0.075013
0.580255 0.000000 0.071931
0.637781 0.000000 0.067628
0.693904 0.000000 0.059388
0.746731 0.000000 0.047059
0.804410 0.000000 0.031067
0.854337 0.000000 0.012848
0.897734 0.123964 0.000000
0.935149 0.184329 0.000000
0.967315 0.230930 0.000000
0.995789 0.271366 0.000000
1.000000 0.307774 0.004944
1.000000 0.341924 0.045747
1.000000 0.374090 0.096345
1.000000 0.404852 0.128359
1.000000 0.434058 0.160006
0.033112 0.045045 0.047395
0.035096 0.044831 0.047395
0.042908 0.047333 0.046906
0.062593 0.050660 0.048310
0.088746 0.056764 0.053590
0.105165 0.065675 0.059358
0.123232 0.072572 0.062745
0.144411 0.077119 0.066987
0.168795 0.078767 0.069642
0.196658 0.078706 0.072541
0.229221 0.073487 0.073335
0.266789 0.059632 0.074006
0.309483 0.036164 0.074983
0.357122 0.000000 0.074861
0.408087 0.000000 0.075013
0.462257 0.000000 0.075959
0.518395 0.000000 0.075227
0.575647 0.000000 0.072541
0.633112 0.000000 0.068177
0.689357 0.000000 0.059022
0.742489 0.000000 0.048859
0.800504 0.000000 0.030488
0.849882 0.000000 0.012177
0.892973 0.128084 0.000000
0.930327 0.185702 0.000000
0.962585 0.230472 0.000000
0.991547 0.270146 0.000000
1.000000 0.306584 0.000000
1.000000 0.340429 0.035431
1.000000 0.372717 0.091798
1.000000 0.403357 0.122133
1.000000 0.432471 0.155581
0.037903 0.063233 0.056123
0.039887 0.063020 0.056092
0.046418 0.064515 0.055756
0.061036 0.068544 0.053803
0.089448 0.076631 0.055390
0.105867 0.080629 0.060456
0.124392 0.084047 0.065126
0.145388 0.086885 0.068238
0.169131 0.088563 0.071870
0.197116 0.088899 0.073487
0.228946 0.086519 0.075441
0.265965 0.079805 0.075807
0.308110 0.059693 0.075593
0.354742 0.026123 0.076539
0.404974 0.000000 0.075502
0.457832 0.000000 0.076326
0.512810 0.000000 0.076814
0.568994 0.000000 0.074220
0.625666 0.000000 0.069154
0.681544 0.000000 0.061860
0.735500 0.000000 0.047822
0.792294 0.000000 0.031861
0.840787 0.023560 0.011841
0.884245 0.136782 0.000000
0.923003 0.191257 0.000000
0.956970 0.235050 0.000000
0.987335 0.275212 0.000000
1.000000 0.311315 0.000000
1.000000 0.345251 0.030121
1.000000 0.376898 0.088441
1.000000 0.406439 0.120363
1.000000 0.434638 0.152560
0.044312 0.086976 0.067842
0.045289 0.087587 0.068818
0.050538 0.087892 0.068635
0.065492 0.089387 0.065522
0.087160 0.091218 0.063233
0.105348 0.094392 0.061006
0.123720 0.095949 0.064729
0.145327 0.097017 0.069123
0.169406 0.098116 0.071595
0.196231 0.099123 0.074250
0.227726 0.098024 0.076051
0.263920 0.095186 0.077455
0.305241 0.088991 0.078126
0.351232 0.070069 0.078401
0.400519 0.034241 0.078157
0.453956 0.000000 0.078218
0.509087 0.000000 0.077882
0.565667 0.000000 0.075227
0.622248 0.000000 0.069184
0.678096 0.000000 0.059266
0.734493 0.000000 0.046815
0.789303 0.000000 0.027955
0.836942 0.108248 0.008667
0.880156 0.163302 0.000000
0.919280 0.209476 0.000000
0.953765 0.249882 0.000000
0.984466 0.286809 0.000000
1.000000 0.321324 0.000000
1.000000 0.353491 0.020203
1.000000 0.383917 0.083223
1.000000 0.412421 0.116854
1.000000 0.439246 0.149111
0.047150 0.100526 0.079774
0.048432 0.100832 0.079683
0.054383 0.100618 0.079652
0.065461 0.101656 0.079255
0.084413 0.103731 0.076326
0.100740 0.106416 0.070924
0.122957 0.110353 0.065278
0.144167 0.111635 0.069520
0.169070 0.112428 0.073121
0.198001 0.112428 0.076997
0.229770 0.112276 0.078248
0.265843 0.111116 0.078737
0.306737 0.107576 0.079469
0.352209 0.101564 0.079194
0.401892 0.091920 0.079591
0.454658 0.070405 0.079408
0.509911 0.031098 0.078920
0.566644 0.000000 0.074403
0.623316 0.000000 0.067842
0.678706 0.000000 0.056855
0.737789 0.044007 0.040803
0.791196 0.115084 0.020569
0.886046 0.213626 0.000000
0.926452 0.254276 0.000000
0.960327 0.289921 0.000000
0.989837 0.322423 0.000000
1.000000 0.352331 0.007050
1.000000 0.379828 0.058167
1.000000 0.406043 0.104402
1.000000 0.430488 0.133425
1.000000 0.453986 0.161715
1.000000 0.476204 0.192233
0.047486 0.118105 0.088777
0.048463 0.118349 0.089143
0.053712 0.118471 0.089052
0.065888 0.118685 0.089357
0.083162 0.120699 0.087312
0.099001 0.123537 0.083772
0.118379 0.126864 0.079683
0.146548 0.132296 0.070344
0.172671 0.133608 0.073274
0.203494 0.134524 0.077272
0.239292 0.134371 0.079225
0.280797 0.132448 0.080415
0.323369 0.131014 0.080537
0.369726 0.128115 0.080964
0.419989 0.123903 0.080232
0.472633 0.118959 0.079377
0.527306 0.113863 0.076570
0.583124 0.111269 0.069368
0.639063 0.113466 0.058991
0.699641 0.127871 0.042359
0.762051 0.158175 0.018799
0.817319 0.194247 0.000000
0.866850 0.232212 0.000000
0.911284 0.270390 0.000000
0.948852 0.305974 0.000000
0.980407 0.337530 0.000000
1.000000 0.365423 0.000000
1.000000 0.391211 0.036469
1.000000 0.415534 0.094240
1.000000 0.438270 0.124117
1.000000 0.460243 0.153658
1.000000 0.481544 0.184146
0.042481 0.134890 0.095155
0.043763 0.135103 0.095094
0.049012 0.135225 0.095033
0.061219 0.135409 0.095308
0.079530 0.136599 0.094514
0.095277 0.139345 0.092836
0.113313 0.142580 0.089906
0.136110 0.146426 0.085634
0.167636 0.153445 0.077150
0.198459 0.155764 0.077821
0.234165 0.157412 0.078859
0.275120 0.157839 0.080751
0.320989 0.157198 0.080903
0.370092 0.155459 0.080537
0.419287 0.155123 0.080140
0.470680 0.155337 0.077882
0.524376 0.155642 0.073304
0.579431 0.157931 0.064973
0.637293 0.164889 0.051087
0.700374 0.181064 0.030182
0.758572 0.204532 0.006073
0.811307 0.233768 0.000000
0.859556 0.265568 0.000000
0.903136 0.298711 0.000000
0.940764 0.330480 0.000000
0.972686 0.358556 0.000000
1.000000 0.384405 0.000000
1.000000 0.407752 0.017182
1.000000 0.430243 0.085206
1.000000 0.451301 0.119539
1.000000 0.471595 0.149905
1.000000 0.491463 0.179629
0.033539 0.154330 0.102327
0.035828 0.154269 0.101961
0.040772 0.154360 0.102266
0.053681 0.154299 0.102541
0.072694 0.154726 0.102327
0.091676 0.157259 0.100435
0.108156 0.160739 0.097688
0.129000 0.164797 0.094453
0.155428 0.169436 0.089967
0.191684 0.177096 0.080659
0.229007 0.181827 0.077028
0.269261 0.184695 0.078004
0.314733 0.187015 0.078187
0.364691 0.188479 0.077150
0.418494 0.189212 0.075013
0.472419 0.190463 0.072511
0.525536 0.194400 0.064332
0.581933 0.200229 0.053803
0.643244 0.211978 0.034730
0.702235 0.228367 0.013092
0.757504 0.249882 0.000000
0.808011 0.274449 0.000000
0.854582 0.302586 0.000000
0.897368 0.331823 0.000000
0.934478 0.359869 0.000000
0.966430 0.384833 0.000000
0.994354 0.407965 0.000000
1.000000 0.428992 0.000000
1.000000 0.449226 0.080079
1.000000 0.468269 0.116365
1.000000 0.486824 0.147463
1.000000 0.505119 0.177951
0.016236 0.176333 0.109102
0.016236 0.176333 0.109102
0.022187 0.176242 0.109102
0.036378 0.176333 0.109316
0.056794 0.176333 0.109194
0.083864 0.177646 0.108003
0.102052 0.180941 0.105470
0.122347 0.185000 0.102388
0.147097 0.189975 0.098238
0.177646 0.195499 0.092622
0.216678 0.202914 0.082734
0.260960 0.210971 0.071809
0.305760 0.216007 0.067811
0.355230 0.220371 0.065827
0.408881 0.224765 0.062989
0.465766 0.228916 0.056733
0.529625 0.235325 0.046998
0.591485 0.244938 0.030579
0.650019 0.258091 0.009674
0.706294 0.274754 0.000000
0.758175 0.294133 0.000000
0.805325 0.315648 0.000000
0.848936 0.339117 0.000000
0.889311 0.363470 0.000000
0.925170 0.387030 0.000000
0.956847 0.408972 0.000000
0.985138 0.429511 0.000000
1.000000 0.448798 0.000000
1.000000 0.467445 0.054108
1.000000 0.485451 0.110201
1.000000 0.502739 0.143832
1.000000 0.519860 0.176944
0.000000 0.200168 0.115694
0.000000 0.200137 0.115694
0.000000 0.200198 0.115663
0.006867 0.200443 0.115816
0.030579 0.200534 0.115663
0.062196 0.200778 0.116030
0.092683 0.204135 0.113283
0.113924 0.208560 0.110231
0.138796 0.213931 0.105776
0.168826 0.219913 0.100313
0.204044 0.226505 0.093019
0.245701 0.233646 0.080079
0.298070 0.245914 0.053468
0.346838 0.252873 0.048341
0.402533 0.261540 0.040772
0.462562 0.271031 0.028962
0.525444 0.280400 0.016114
0.589563 0.290776 0.000000
0.652583 0.302678 0.000000
0.707301 0.318578 0.000000
0.756680 0.336431 0.000000
0.801877 0.355871 0.000000
0.844511 0.376959 0.000000
0.884184 0.398718 0.000000
0.919615 0.419806 0.000000
0.951019 0.439155 0.000000
0.979583 0.457099 0.000000
1.000000 0.474250 0.000000
1.000000 0.490700 0.043061
1.000000 0.506889 0.110628
1.000000 0.522515 0.145541
1.000000 0.538048 0.178805
0.000000 0.229160 0.121981
0.000000 0.229129 0.122255
0.000000 0.229160 0.122225
0.000000 0.229221 0.122133
0.000000 0.229526 0.122194
0.015991 0.229923 0.122469
0.061830 0.232029 0.121004
0.101381 0.236606 0.117891
0.128969 0.242222 0.113161
0.159701 0.248600 0.107668
0.195193 0.255741 0.100069
0.236179 0.263951 0.089784
0.303593 0.292363 0.052399
0.369940 0.312261 0.000000
0.431159 0.325780 0.000000
0.495064 0.339391 0.000000
0.560327 0.353185 0.000000
0.624842 0.367742 0.000000
0.686580 0.383734 0.000000
0.743832 0.400183 0.000000
0.795346 0.416297 0.000000
0.835966 0.433021 0.000000
0.873960 0.450141 0.000000
0.908446 0.466499 0.000000
0.939208 0.481361 0.000000
0.967102 0.494972 0.000000
0.992309 0.507561 0.000000
1.000000 0.519554 0.048280
1.000000 0.531426 0.108797
1.000000 0.543359 0.142275
1.000000 0.555535 0.173190
1.000000 0.568109 0.204196
0.000000 0.270665 0.130373
0.000000 0.270542 0.130404
0.000000 0.270298 0.130190
0.000000 0.269932 0.130251
0.000000 0.269566 0.130007
0.000000 0.269139 0.130220
0.000000 0.269200 0.129702
0.069856 0.273533 0.126375
0.116152 0.279850 0.121859
0.153170 0.289006 0.115908
0.193362 0.299657 0.107912
0.238743 0.311864 0.096620
0.290623 0.325200 0.073243
0.348028 0.338842 0.018555
0.418280 0.360754 0.000000
0.480781 0.375525 0.000000
0.544091 0.390234 0.000000
0.606104 0.404913 0.000000
0.666285 0.420478 0.000000
0.722072 0.436103 0.000000
0.773159 0.451026 0.000000
0.820615 0.465888 0.000000
0.863401 0.480629 0.000000
0.897887 0.494972 0.000000
0.929107 0.508141 0.000000
0.957671 0.520256 0.000000
0.983673 0.531731 0.000000
1.000000 0.542657 0.031891
1.000000 0.553460 0.106477
1.000000 0.564446 0.142641
1.000000 0.575402 0.174136
1.000000 0.586725 0.205814
0.000000 0.309575 0.137514
0.000000 0.309422 0.137331
0.000000 0.309026 0.137453
0.000000 0.308843 0.137179
0.000000 0.308598 0.137148
0.000000 0.308598 0.137179
0.000000 0.308782 0.137087
0.000000 0.311833 0.135195
0.092805 0.318425 0.130434
0.139895 0.326604 0.124239
0.183444 0.336675 0.116152
0.229953 0.348241 0.105074
0.280247 0.361212 0.088502
0.335088 0.374365 0.036774
0.393500 0.387335 0.000000
0.464668 0.409247 0.000000
0.525994 0.423621 0.000000
0.587030 0.438575 0.000000
0.646174 0.454292 0.000000
0.701686 0.469764 0.000000
0.752926 0.484596 0.000000
0.801144 0.499153 0.000000
0.846067 0.513237 0.000000
0.887083 0.526085 0.000000
0.921782 0.537377 0.000000
0.950500 0.547997 0.000000
0.976928 0.558068 0.000000
1.000000 0.567712 0.024781
1.000000 0.577295 0.108156
1.000000 0.586938 0.145022
1.000000 0.596857 0.178103
1.000000 0.607019 0.210452
0.000000 0.355230 0.145480
0.000000 0.355138 0.145510
0.000000 0.354498 0.145113
0.000000 0.353765 0.144930
0.000000 0.352667 0.144594
0.000000 0.351659 0.144411
0.000000 0.351293 0.144503
0.000000 0.351568 0.144015
0.017609 0.357397 0.138827
0.120333 0.364996 0.133059
0.171054 0.374426 0.125002
0.219913 0.385687 0.114260
0.270603 0.397925 0.099184
0.323705 0.410468 0.064942
0.380102 0.422889 0.000000
0.438331 0.434424 0.000000
0.508904 0.456153 0.000000
0.568627 0.470222 0.000000
0.627192 0.486091 0.000000
0.682399 0.501610 0.000000
0.734096 0.516228 0.000000
0.782773 0.530510 0.000000
0.828489 0.544274 0.000000
0.870481 0.556725 0.000000
0.908293 0.567254 0.000000
0.942412 0.576257 0.000000
0.970916 0.584894 0.000000
0.995789 0.593652 0.038392
1.000000 0.602533 0.114168
1.000000 0.611566 0.154360
1.000000 0.620844 0.188693
1.000000 0.630335 0.223331
0.000000 0.398840 0.152621
0.000000 0.398932 0.152560
0.000000 0.398566 0.152895
0.000000 0.398199 0.152560
0.000000 0.397498 0.152560
0.000000 0.397101 0.152132
0.000000 0.397192 0.151949
0.000000 0.397681 0.152102
0.000000 0.401343 0.149020
0.091646 0.408728 0.142794
0.157534 0.417029 0.135348
0.210422 0.426490 0.124453
0.261875 0.436622 0.110323
0.313664 0.447059 0.089815
0.367437 0.457527 0.024811
0.422827 0.467567 0.000000
0.479805 0.477882 0.000000
0.549096 0.499184 0.000000
0.606287 0.513085 0.000000
0.662165 0.529107 0.000000
0.714992 0.544427 0.000000
0.764828 0.559106 0.000000
0.811826 0.573388 0.000000
0.855222 0.586267 0.000000
0.894347 0.597040 0.000000
0.929747 0.606287 0.000000
0.961913 0.614191 0.000000
0.991089 0.621241 0.057679
1.000000 0.628595 0.126619
1.000000 0.636194 0.164675
1.000000 0.644038 0.199863
1.000000 0.652186 0.233280
0.000000 0.441444 0.160678
0.000000 0.441566 0.160769
0.000000 0.441291 0.160861
0.000000 0.440955 0.160555
0.000000 0.440467 0.160281
0.000000 0.440101 0.160403
0.000000 0.440253 0.160403
0.000000 0.440375 0.160067
0.000000 0.441138 0.159884
0.000000 0.447578 0.153872
0.138643 0.455207 0.146304
0.197940 0.463966 0.136385
0.252018 0.473365 0.123354
0.304417 0.483009 0.104860
0.357275 0.492653 0.068269
0.411322 0.502220 0.000000
0.466072 0.511620 0.000000
0.521996 0.521324 0.000000
0.587121 0.540124 0.000000
0.643977 0.555474 0.000000
0.697505 0.571130 0.000000
0.748104 0.586267 0.000000
0.795895 0.600641 0.000000
0.840452 0.613916 0.000000
0.880674 0.624994 0.000000
0.917082 0.634363 0.000000
0.950408 0.642329 0.000000
0.980713 0.649256 0.015076
1.000000 0.655451 0.130465
1.000000 0.661158 0.179324
1.000000 0.667994 0.213077
1.000000 0.675105 0.246738
0.000000 0.486854 0.170962
0.000000 0.487251 0.170718
0.000000 0.511955 0.177584
0.000000 0.511711 0.177951
0.000000 0.511223 0.177859
0.000000 0.510552 0.177340
0.000000 0.509972 0.177127
0.000000 0.509575 0.176883
0.000000 0.509606 0.176455
0.000000 0.512932 0.173129
0.137179 0.519738 0.165225
0.206302 0.527276 0.156344
0.263493 0.534844 0.143160
0.317693 0.542626 0.127230
0.370642 0.550072 0.105013
0.423407 0.557427 0.049134
0.476417 0.564263 0.000000
0.528832 0.571344 0.000000
0.580682 0.578668 0.000000
0.638514 0.592462 0.000000
0.693233 0.607568 0.000000
0.743008 0.621698 0.000000
0.790097 0.635187 0.000000
0.833707 0.647181 0.000000
0.872923 0.656733 0.000000
0.908751 0.664698 0.000000
0.941405 0.671290 0.000000
0.971496 0.677180 0.000000
0.999237 0.682490 0.126711
1.000000 0.687587 0.177707
1.000000 0.692470 0.221653
1.000000 0.697597 0.261173
0.000000 0.539330 0.184878
0.000000 0.541650 0.185641
0.000000 0.543847 0.186557
0.000000 0.545922 0.187350
0.000000 0.547204 0.187778
0.000000 0.547234 0.187625
0.000000 0.546777 0.187228
0.000000 0.546136 0.186831
0.000000 0.545800 0.186313
0.000000 0.545708 0.186435
0.117647 0.551781 0.179294
0.195346 0.558404 0.170596
0.254978 0.565087 0.159915
0.309300 0.572076 0.146639
0.361944 0.579095 0.128237
0.414099 0.586053 0.103883
0.465248 0.592706 0.040864
0.516594 0.599634 0.000000
0.567315 0.606897 0.000000
0.617334 0.614466 0.000000
0.670375 0.626184 0.000000
0.726131 0.643610 0.000000
0.774044 0.657313 0.000000
0.818601 0.669917 0.000000
0.858762 0.680018 0.000000
0.895384 0.688167 0.000000
0.928893 0.695033 0.000000
0.959838 0.700862 0.000000
0.988373 0.706142 0.111147
1.000000 0.711055 0.169711
1.000000 0.715846 0.217685
1.000000 0.720394 0.260533
0.000000 0.578271 0.196994
0.000000 0.580621 0.198093
0.000000 0.582971 0.199161
0.000000 0.585138 0.200229
0.000000 0.586511 0.200626
0.000000 0.586755 0.200748
0.000000 0.586206 0.200168
0.000000 0.585718 0.200137
0.000000 0.585107 0.199680
0.000000 0.584710 0.199222
0.110353 0.587274 0.195499
0.193698 0.592981 0.188052
0.254154 0.599023 0.178592
0.308659 0.605158 0.167086
0.360571 0.611414 0.153262
0.411383 0.617548 0.134798
0.461433 0.623621 0.109957
0.510491 0.629908 0.047791
0.559228 0.636439 0.000000
0.607233 0.643397 0.000000
0.654658 0.650752 0.000000
0.702937 0.660060 0.000000
0.759091 0.679255 0.000000
0.804227 0.691402 0.000000
0.845335 0.702022 0.000000
0.882689 0.710628 0.000000
0.916991 0.717678 0.000000
0.948669 0.723629 0.000000
0.977935 0.729000 0.091432
1.000000 0.733944 0.161105
1.000000 0.738552 0.212528
1.000000 0.742824 0.257633
0.000000 0.618006 0.212406
0.000000 0.620020 0.213321
0.000000 0.622095 0.214572
0.000000 0.623865 0.215518
0.000000 0.624994 0.216159
0.000000 0.625177 0.216403
0.000000 0.624842 0.215885
0.000000 0.624201 0.215579
0.000000 0.623682 0.215091
0.000000 0.623133 0.214786
0.120638 0.622858 0.214542
0.201022 0.627619 0.207797
0.260349 0.632807 0.199344
0.313695 0.638087 0.190005
0.364080 0.643671 0.178836
0.413367 0.649470 0.164218
0.462379 0.655665 0.146944
0.510643 0.662226 0.123751
0.558495 0.669337 0.089662
0.605982 0.676967 0.000000
0.653193 0.685054 0.000000
0.699641 0.693568 0.000000
0.744991 0.702052 0.000000
0.800473 0.721859 0.000000
0.841642 0.731807 0.000000
0.879820 0.740810 0.000000
0.914458 0.748196 0.000000
0.946410 0.754299 0.000000
0.975769 0.759548 0.125521
1.000000 0.764248 0.187930
1.000000 0.768460 0.237858
1.000000 0.772244 0.283268
0.000000 0.668879 0.240330
0.000000 0.669703 0.240940
0.000000 0.670222 0.241215
0.000000 0.670375 0.241337
0.000000 0.670222 0.241245
0.000000 0.669490 0.240757
0.000000 0.668788 0.240421
0.000000 0.667994 0.239597
0.000000 0.667353 0.239017
0.066590 0.666865 0.238590
0.169162 0.666468 0.238743
0.228824 0.668482 0.235447
0.283116 0.672847 0.228428
0.332830 0.677424 0.220462
0.380591 0.682124 0.211002
0.427283 0.687037 0.199680
0.472908 0.692103 0.185763
0.517876 0.697566 0.169863
0.562646 0.703334 0.149935
0.606958 0.709529 0.123018
0.650996 0.716030 0.077119
0.694392 0.722683 0.000000
0.736904 0.729305 0.000000
0.778408 0.735744 0.000000
0.829801 0.753109 0.000000
0.867704 0.760739 0.000000
0.903319 0.768734 0.000000
0.936126 0.775357 0.000000
0.966217 0.781003 0.109834
0.993866 0.785794 0.180941
1.000000 0.789914 0.234257
1.000000 0.793515 0.282200
0.000000 0.705104 0.264134
0.000000 0.705715 0.264561
0.000000 0.706142 0.264836
0.000000 0.706386 0.265354
0.000000 0.706294 0.265232
0.000000 0.705837 0.264897
0.000000 0.705135 0.264286
0.000000 0.704463 0.263828
0.011627 0.703883 0.263188
0.153658 0.703395 0.262974
0.209354 0.702998 0.262455
0.255528 0.702754 0.262272
0.304417 0.706569 0.256626
0.350805 0.710750 0.249516
0.395422 0.715084 0.241978
0.438697 0.719692 0.233127
0.482063 0.724605 0.222629
0.524773 0.729671 0.210422
0.567163 0.734920 0.195895
0.609400 0.740383 0.178653
0.650965 0.746090 0.159060
0.692226 0.751888 0.132052
0.732692 0.757809 0.093050
0.772488 0.763699 0.000000
0.806088 0.764248 0.000000
0.854978 0.780301 0.000000
0.890593 0.786648 0.000000
0.924315 0.793912 0.000000
0.955261 0.800046 0.048432
0.983856 0.805142 0.164706
1.000000 0.809567 0.224735
1.000000 0.813413 0.275425
0.000000 0.746944 0.298711
0.000000 0.747951 0.299992
0.000000 0.748287 0.300267
0.000000 0.747982 0.300084
0.000000 0.747097 0.299046
0.000000 0.745937 0.297765
0.000000 0.744350 0.296239
0.117891 0.742672 0.294163
0.171115 0.741146 0.292668
0.214664 0.739712 0.291478
0.252537 0.738338 0.289982
0.289281 0.737148 0.288914
0.327337 0.738003 0.285496
0.367987 0.740871 0.278508
0.407202 0.743740 0.271153
0.446693 0.746883 0.262547
0.486305 0.750393 0.252995
0.526024 0.754360 0.242649
0.565881 0.758938 0.231144
0.605890 0.763973 0.219120
0.645869 0.769314 0.204349
0.685206 0.774655 0.187991
0.723720 0.779751 0.166812
0.761410 0.784573 0.138857
0.798276 0.789090 0.093141
0.834379 0.793332 0.000000
0.880308 0.807645 0.000000
0.913787 0.812680 0.000000
0.945281 0.818875 0.000000
0.974304 0.824125 0.143099
1.000000 0.828550 0.211124
1.000000 0.832425 0.266087
0.000000 0.775967 0.325841
0.000000 0.776822 0.326970
0.001740 0.777279 0.327611
0.071931 0.777340 0.327703
0.113283 0.777005 0.327520
0.145083 0.776486 0.326970
0.176303 0.775845 0.326116
0.207767 0.775235 0.325536
0.238529 0.774624 0.324956
0.269718 0.774044 0.324376
0.300053 0.773404 0.323888
0.330663 0.772732 0.323644
0.360113 0.771939 0.322728
0.395605 0.774380 0.317174
0.430854 0.776730 0.310796
0.466285 0.779263 0.303288
0.502098 0.782040 0.294743
0.538323 0.785245 0.286442
0.575128 0.788968 0.277012
0.612055 0.793210 0.267765
0.649409 0.797726 0.257359
0.686458 0.802396 0.245518
0.722957 0.807034 0.231998
0.758938 0.811551 0.215244
0.794339 0.815824 0.195377
0.829282 0.819913 0.169100
0.863859 0.823941 0.133608
0.906065 0.835813 0.055695
0.939879 0.841825 0.000000
0.969177 0.846830 0.146639
0.996002 0.851164 0.216342
1.000000 0.854704 0.272831
0.201236 0.808103 0.363806
0.203952 0.808499 0.364630
0.208225 0.808591 0.364569
0.215427 0.808530 0.364813
0.226139 0.808103 0.364233
0.239414 0.807553 0.363348
0.255497 0.806973 0.362615
0.274571 0.806271 0.361700
0.296025 0.805600 0.361120
0.318853 0.805020 0.360479
0.342901 0.804379 0.359930
0.367895 0.803769 0.359289
0.393256 0.803098 0.359045
0.421576 0.803799 0.356023
0.452674 0.805814 0.350256
0.484474 0.807919 0.343542
0.516686 0.810208 0.336736
0.549615 0.812894 0.329168
0.583612 0.816037 0.321447
0.617914 0.819699 0.313573
0.652430 0.823667 0.305608
0.687098 0.827726 0.296300
0.721431 0.831693 0.285466
0.755367 0.835569 0.273472
0.788998 0.839261 0.258701
0.822263 0.842802 0.240787
0.855253 0.846311 0.220340
0.888060 0.849668 0.194797
0.927092 0.859312 0.166354
0.961273 0.866514 0.151339
0.988830 0.870420 0.204623
1.000000 0.873930 0.265537
0.280125 0.836118 0.402045
0.281773 0.836423 0.402747
0.285100 0.836606 0.403143
0.290074 0.836667 0.403174
0.297490 0.836698 0.403388
0.307897 0.836820 0.403723
0.322515 0.837247 0.405097
0.339666 0.837858 0.406836
0.358770 0.838743 0.409033
0.380072 0.839719 0.411597
0.402502 0.840787 0.414740
0.425422 0.841672 0.417243
0.448493 0.842405 0.419776
0.471687 0.842802 0.421302
0.498695 0.845335 0.418158
0.525872 0.847471 0.413550
0.553521 0.849577 0.408484
0.582116 0.851926 0.402594
0.611719 0.854612 0.396735
0.642054 0.857633 0.390631
0.672816 0.860899 0.384955
0.703975 0.864225 0.377905
0.735042 0.867399 0.369970
0.766171 0.870512 0.360937
0.797116 0.873442 0.350042
0.828031 0.876249 0.337682
0.858824 0.878965 0.323766
0.889677 0.881651 0.307591
0.920470 0.884337 0.289220
0.955688 0.891386 0.272923
0.989136 0.898619 0.267704
1.000000 0.900694 0.299413
0.378424 0.872282 0.467140
0.378912 0.872282 0.467109
0.380407 0.872190 0.467140
0.382727 0.871946 0.466835
0.386816 0.871702 0.466255
0.392615 0.871397 0.465675
0.400671 0.871122 0.465339
0.410803 0.870939 0.465309
0.423133 0.870848 0.465583
0.437232 0.870756 0.465980
0.453010 0.870726 0.466865
0.469917 0.870726 0.467536
0.487953 0.870634 0.468238
0.506310 0.870481 0.468971
