20 Preset/Food Style/【3】LUT video cho PR-AE-FCPX/Food Style Tone (2).cube
# Created by Adobe Lightroom plugin Export LUT (1.24.0)
# www.johnrellis.com/lightroom/exportlut.htm
# Preset: 静谧咖啡-素材江湖13
# Color profile: E:\lut插件\exportlut.1.24\exportlut.lrplugin\color profiles\Rec709gamma2.4.icc
LUT_3D_SIZE 8
DOMAIN_MIN 0.000000 0.000000 0.000000
DOMAIN_MAX 0.903226 0.903226 0.903226
0.181765 0.146120 0.163882
0.191348 0.148379 0.164858
0.226932 0.155032 0.167788
0.305058 0.163699 0.169680
0.429877 0.172061 0.170138
0.583581 0.181094 0.169558
0.754116 0.205051 0.167208
0.907744 0.258396 0.167880
0.183841 0.158785 0.168643
0.189334 0.160678 0.167910
0.231907 0.167758 0.167636
0.311192 0.177005 0.169345
0.435584 0.187686 0.169894
0.587732 0.198764 0.168917
0.751461 0.222812 0.166018
0.904784 0.273472 0.165835
0.188327 0.202701 0.181918
0.194491 0.203159 0.182376
0.222599 0.211887 0.178653
0.338659 0.243412 0.169162
0.484627 0.257633 0.164645
0.638697 0.275303 0.161685
0.793515 0.304845 0.158389
0.930785 0.349096 0.162264
0.195834 0.299413 0.208103
0.205631 0.299107 0.208530
0.239933 0.305547 0.205783
0.317723 0.326726 0.196445
0.510491 0.391180 0.168643
0.723232 0.425483 0.129152
0.847501 0.438727 0.136233
0.958984 0.463325 0.154147
0.219852 0.444831 0.254124
0.233005 0.444343 0.254429
0.280217 0.445533 0.255558
0.353643 0.461707 0.244938
0.466560 0.481941 0.225406
0.672023 0.550164 0.183993
0.858183 0.584436 0.150851
0.984619 0.596796 0.162387
0.300786 0.603449 0.325200
0.314794 0.606043 0.327642
0.359594 0.605310 0.329625
0.427008 0.611749 0.324620
0.519707 0.625360 0.309117
0.638819 0.642695 0.286870
0.821622 0.702205 0.265629
0.959228 0.724727 0.278935
0.456062 0.751858 0.444831
0.464240 0.752163 0.445869
0.493080 0.751064 0.447547
0.543328 0.750942 0.449592
0.605859 0.757992 0.438819
0.689998 0.768002 0.425666
0.789364 0.779446 0.408667
0.921904 0.819883 0.413611
0.642664 0.864866 0.610834
0.646265 0.864744 0.611261
0.661952 0.864591 0.613550
0.691981 0.864591 0.619104
0.721706 0.864256 0.609888
0.770230 0.871061 0.605890
0.829770 0.879088 0.600336
0.897307 0.886809 0.590478
0.182712 0.150759 0.175784
0.189731 0.151736 0.176211
0.223911 0.155032 0.177981
0.295842 0.166476 0.184421
0.417731 0.174289 0.186557
0.569207 0.182010 0.187564
0.732906 0.201968 0.187625
0.890013 0.250767 0.189548
0.184085 0.161440 0.177859
0.191165 0.163699 0.179873
0.226932 0.169680 0.182315
0.304601 0.178622 0.184787
0.427253 0.188235 0.186587
0.578637 0.198978 0.186923
0.736446 0.220127 0.186679
0.890257 0.267216 0.187991
0.191653 0.207889 0.193851
0.198093 0.208255 0.194553
0.225498 0.215335 0.191836
0.339696 0.241428 0.185061
0.473487 0.253696 0.184176
0.622889 0.269932 0.183780
0.772580 0.296178 0.182559
0.915068 0.339971 0.185428
0.200076 0.301335 0.221042
0.209781 0.301213 0.221378
0.243961 0.306249 0.220340
0.316106 0.323552 0.211063
0.498146 0.380407 0.189731
0.699123 0.409979 0.165896
0.826627 0.425422 0.168917
0.945190 0.453285 0.180850
0.225681 0.445930 0.267308
0.238346 0.445136 0.267582
0.284764 0.444129 0.269322
0.353643 0.457832 0.259098
0.462043 0.476143 0.240635
0.664454 0.542931 0.206302
0.851743 0.577783 0.181857
0.977356 0.590936 0.192935
0.303777 0.601007 0.335729
0.315373 0.601099 0.336584
0.359472 0.600671 0.338689
0.426429 0.606897 0.335546
0.517632 0.621393 0.321538
0.636591 0.640070 0.301793
0.818692 0.699092 0.282872
0.956481 0.721736 0.295354
0.455116 0.748592 0.450324
0.461250 0.747768 0.449958
0.489754 0.746548 0.451331
0.541131 0.746334 0.455024
0.604303 0.754818 0.445960
0.687617 0.764981 0.433082
0.785794 0.775875 0.415290
0.918547 0.816220 0.419043
0.640070 0.862730 0.611841
0.644678 0.863035 0.613092
0.660182 0.862760 0.615198
0.690211 0.862821 0.620722
0.727016 0.865965 0.620630
0.772396 0.871641 0.614099
0.829953 0.878721 0.606378
0.896910 0.886412 0.596277
0.180484 0.162264 0.217288
0.189334 0.163455 0.217899
0.224125 0.167666 0.221286
0.307286 0.170932 0.229801
0.428138 0.159915 0.229313
0.556176 0.181674 0.242679
0.717464 0.201877 0.251377
0.879484 0.247166 0.258732
0.184909 0.178500 0.221439
0.191836 0.177066 0.223148
0.227481 0.181460 0.225986
0.310033 0.183871 0.232517
0.427863 0.176822 0.231388
0.559899 0.201236 0.246159
0.721645 0.218967 0.251133
0.880949 0.263554 0.258152
0.189609 0.219364 0.231724
0.199008 0.221653 0.234012
0.240024 0.230655 0.243381
0.329290 0.238743 0.244816
0.456550 0.251011 0.248417
0.605463 0.266453 0.252049
0.757351 0.290990 0.255283
0.903014 0.334234 0.262211
0.213260 0.320226 0.271031
0.226383 0.322911 0.273899
0.265415 0.325383 0.275792
0.335302 0.339483 0.269810
0.520256 0.385290 0.261479
0.684016 0.401404 0.259129
0.815457 0.420111 0.262455
0.936980 0.450385 0.272099
0.249210 0.463935 0.322087
0.261631 0.463661 0.322484
0.307439 0.463142 0.324041
0.376165 0.471290 0.320745
0.480507 0.489784 0.306004
0.677852 0.548882 0.288365
0.858976 0.577996 0.282689
0.969177 0.589258 0.297704
0.332952 0.612116 0.388769
0.343847 0.612360 0.389624
0.383825 0.611566 0.391150
0.448676 0.612451 0.392584
0.530907 0.626246 0.380621
0.644312 0.644282 0.364904
0.821683 0.700587 0.356695
0.957061 0.723201 0.373816
0.480812 0.754788 0.495918
0.486397 0.754086 0.495460
0.511589 0.752407 0.495735
0.559106 0.750881 0.498909
0.617823 0.756985 0.493141
0.695857 0.767544 0.482094
0.790829 0.779477 0.468360
0.919951 0.819120 0.476173
0.653101 0.864225 0.637812
0.656062 0.863951 0.637781
0.670466 0.863676 0.639490
0.699886 0.864256 0.645319
0.736049 0.866087 0.647578
0.779049 0.872465 0.642451
0.833738 0.879881 0.635767
0.898283 0.887724 0.626215
0.161074 0.182406 0.308690
0.176181 0.184207 0.310796
0.232853 0.191318 0.315679
0.320378 0.200229 0.324743
0.448127 0.199191 0.336522
0.608576 0.183810 0.341314
0.743404 0.146639 0.327794
0.867094 0.205142 0.337926
0.171572 0.204379 0.315251
0.181521 0.202304 0.316716
0.238041 0.208408 0.320958
0.325414 0.216403 0.329656
0.454200 0.215824 0.340673
0.609339 0.201511 0.342321
0.742184 0.169223 0.327184
0.863554 0.234287 0.342351
0.179965 0.257633 0.323278
0.193973 0.259251 0.325414
0.247257 0.260472 0.335271
0.339452 0.270451 0.343389
0.477882 0.277653 0.355871
0.614649 0.261082 0.345800
0.739223 0.278233 0.347784
0.874144 0.322087 0.360235
0.199069 0.340124 0.345617
0.214420 0.341833 0.347509
0.271733 0.350103 0.355810
0.370520 0.367773 0.374487
0.501183 0.372930 0.370672
0.638453 0.385016 0.370794
0.778500 0.405676 0.373083
0.911040 0.438392 0.380438
0.270726 0.486702 0.406073
0.286168 0.487648 0.407477
0.343847 0.493416 0.415442
0.419867 0.497902 0.421546
0.512047 0.512383 0.412879
0.700923 0.557366 0.410864
0.849912 0.572320 0.414771
0.950378 0.584649 0.421881
0.396948 0.636072 0.484413
0.400977 0.638331 0.483284
0.432471 0.636896 0.482246
0.491829 0.635370 0.484443
0.563714 0.641962 0.480018
0.663478 0.657252 0.466529
0.829648 0.706233 0.468330
0.958221 0.726497 0.487739
0.522148 0.764736 0.567529
0.527977 0.764736 0.567864
0.551171 0.764187 0.569116
0.593194 0.763180 0.571649
0.647456 0.764034 0.572229
0.713161 0.773861 0.562402
0.798672 0.784878 0.549889
0.920806 0.822354 0.559564
0.677180 0.868956 0.683284
0.680171 0.868833 0.683497
0.692775 0.868498 0.684596
0.717281 0.868223 0.687434
0.752010 0.867857 0.691707
0.789944 0.873808 0.687770
0.839780 0.881621 0.681941
0.900816 0.890105 0.674372
0.096742 0.223636 0.447333
0.135958 0.226047 0.449439
0.231571 0.233860 0.454566
0.352636 0.247440 0.464851
0.485115 0.258000 0.478950
0.623255 0.253422 0.484443
0.794766 0.278935 0.499916
0.912749 0.276799 0.488685
0.123293 0.245640 0.452125
0.149508 0.245335 0.454292
0.239536 0.251926 0.459266
0.357610 0.264042 0.468086
0.489143 0.274662 0.482399
0.626978 0.271672 0.487739
0.794095 0.294804 0.500938
0.911467 0.290959 0.488624
0.176242 0.313512 0.459510
0.197940 0.314366 0.462135
0.253513 0.306981 0.469184
0.371832 0.320226 0.479072
0.500267 0.333349 0.491402
0.636622 0.335241 0.496834
0.788449 0.347509 0.501732
0.904723 0.335485 0.484413
0.187961 0.393469 0.471015
0.208469 0.394781 0.472328
0.278325 0.400702 0.478767
0.390509 0.409461 0.497444
0.521813 0.428748 0.510979
0.661707 0.439368 0.518944
0.783108 0.420325 0.499855
0.893828 0.411322 0.480079
0.252995 0.502739 0.497658
0.270603 0.504204 0.499336
0.333898 0.509758 0.505241
0.431861 0.520653 0.517479
0.549004 0.537926 0.536858
0.671626 0.535851 0.525994
0.795956 0.542229 0.520073
0.912383 0.559197 0.520714
0.393988 0.642512 0.557671
0.405524 0.643214 0.558892
0.449256 0.644892 0.563073
0.522148 0.649805 0.572900
0.596246 0.652705 0.578912
0.681727 0.667994 0.574090
0.838529 0.708492 0.583642
0.950347 0.721401 0.595514
0.556573 0.773068 0.641901
0.562249 0.772824 0.642237
0.586999 0.772915 0.644984
0.622492 0.773922 0.645777
0.673487 0.772457 0.648157
0.729885 0.777646 0.644190
0.805417 0.788632 0.633600
0.921050 0.822843 0.643671
0.693080 0.871946 0.728359
0.695644 0.871794 0.728328
0.706813 0.871336 0.728786
0.731228 0.872038 0.732479
0.763333 0.871763 0.735592
0.800900 0.873899 0.737026
0.844938 0.882048 0.731563
0.901976 0.890654 0.724178
0.000000 0.289921 0.607843
0.054688 0.291997 0.609247
0.239048 0.299351 0.612421
0.385687 0.314366 0.621088
0.535882 0.339086 0.633845
0.672389 0.357336 0.645197
0.787716 0.359106 0.640558
0.926299 0.432441 0.660060
0.000000 0.306157 0.606622
0.109865 0.307805 0.607355
0.247471 0.314244 0.610895
0.388037 0.328191 0.619257
0.534844 0.351537 0.631373
0.670283 0.370001 0.643397
0.785885 0.372076 0.639734
0.924163 0.442481 0.659602
0.199863 0.385626 0.614343
0.213962 0.382147 0.615534
0.273960 0.372930 0.620478
0.405280 0.384558 0.626001
0.546227 0.407507 0.637354
0.676326 0.426795 0.649226
0.791501 0.431434 0.648127
0.922759 0.494301 0.667201
0.219974 0.465278 0.616236
0.245304 0.466346 0.617548
0.331273 0.472724 0.624933
0.430732 0.473671 0.639338
0.567681 0.496803 0.651392
0.690700 0.517906 0.663447
0.803403 0.526085 0.666194
0.919738 0.560510 0.675990
0.283970 0.557397 0.626917
0.300450 0.558221 0.627619
0.361364 0.561486 0.630915
0.454627 0.568322 0.638025
0.576715 0.581109 0.657069
0.698390 0.603998 0.672206
0.812467 0.615351 0.679286
0.910033 0.596307 0.658747
0.392248 0.660822 0.650538
0.405280 0.662257 0.652094
0.449989 0.664454 0.655146
0.522789 0.669184 0.661555
0.612696 0.677272 0.671870
0.716152 0.692744 0.690272
0.815854 0.687556 0.677211
0.912352 0.690578 0.669764
0.567681 0.784268 0.713588
0.574823 0.784878 0.714687
0.600031 0.785672 0.717067
0.645472 0.787350 0.721950
0.704860 0.790219 0.729732
0.760403 0.790707 0.733181
0.819944 0.799527 0.726589
0.927916 0.828885 0.738094
0.708644 0.877165 0.780209
0.711391 0.877012 0.780331
0.724392 0.877195 0.781888
0.750210 0.878325 0.786221
0.779355 0.879606 0.788144
0.815152 0.879088 0.790372
0.854246 0.884581 0.788968
0.905852 0.893675 0.782650
0.169528 0.389075 0.754910
0.209293 0.391424 0.755856
0.314977 0.399298 0.757565
0.446052 0.415045 0.761593
0.581476 0.440528 0.767117
0.711269 0.479072 0.774624
0.820157 0.503410 0.780880
0.902220 0.501671 0.769497
0.189395 0.402319 0.753048
0.224399 0.404669 0.754116
0.322271 0.411841 0.756039
0.448188 0.426093 0.759579
0.581445 0.450050 0.765103
0.709407 0.486549 0.772335
0.817227 0.509636 0.778408
0.899199 0.507042 0.767147
0.287175 0.469490 0.754726
0.298192 0.466712 0.755489
0.351965 0.462257 0.757839
0.466926 0.474983 0.761227
0.592126 0.496407 0.766506
0.715114 0.530205 0.774228
0.819150 0.552605 0.781643
0.900298 0.552911 0.773556
0.349157 0.549340 0.754665
0.365820 0.550225 0.755184
0.429664 0.555901 0.758328
0.494240 0.548669 0.764614
0.610895 0.567773 0.770382
0.726070 0.596979 0.779110
0.822690 0.617639 0.787533
0.900938 0.619532 0.782712
0.361334 0.620264 0.751522
0.372869 0.620111 0.751308
0.423651 0.621790 0.752651
0.521386 0.630121 0.760555
0.621271 0.637232 0.772183
0.732753 0.661860 0.782132
0.824552 0.682673 0.792233
0.903197 0.690822 0.793881
0.454627 0.706752 0.763546
0.463783 0.707088 0.763943
0.498054 0.708248 0.765347
0.557214 0.710384 0.768063
0.634272 0.713802 0.772274
0.738582 0.728023 0.788632
0.832334 0.752407 0.803342
0.909850 0.762753 0.808408
0.559838 0.792660 0.783200
0.566644 0.793088 0.783810
0.591821 0.793851 0.785245
0.637751 0.795712 0.788418
0.698268 0.798795 0.793301
0.767269 0.804440 0.800992
0.839017 0.814694 0.813352
0.910704 0.807218 0.799252
0.714260 0.883482 0.831785
0.717494 0.883665 0.832181
0.731624 0.884642 0.834104
0.756344 0.885954 0.837003
0.790433 0.887877 0.841184
0.831174 0.890745 0.846830
0.870054 0.891997 0.849363
0.913237 0.899870 0.845182
0.430640 0.541131 0.868894
0.443946 0.543175 0.869169
0.490639 0.549279 0.869108
0.569238 0.563012 0.870024
0.662898 0.583917 0.871275
0.758114 0.612421 0.873136
0.844846 0.649836 0.876158
0.914672 0.667140 0.879149
0.437629 0.549828 0.867765
0.450477 0.551690 0.868040
0.496223 0.557855 0.868284
0.572351 0.570550 0.869108
0.664393 0.590509 0.870481
0.758450 0.618097 0.872435
0.844236 0.653986 0.875364
0.913573 0.670527 0.878325
0.480476 0.592401 0.866148
0.486091 0.591272 0.866514
0.518029 0.591577 0.867185
0.589288 0.603662 0.868742
0.674495 0.620478 0.870085
0.763333 0.644465 0.872099
0.845548 0.676814 0.875517
0.912535 0.691676 0.878874
0.537469 0.655543 0.863706
0.548486 0.657588 0.864073
0.569329 0.654841 0.865415
0.610315 0.651759 0.868193
0.689204 0.666377 0.870115
0.771878 0.686976 0.872923
0.848814 0.714168 0.877195
0.912139 0.727535 0.881254
0.525780 0.699092 0.861448
0.534905 0.699916 0.861936
0.569360 0.702266 0.863096
0.640253 0.713283 0.865904
0.697841 0.714137 0.870420
0.777066 0.731106 0.874052
0.851377 0.754452 0.879545
0.912627 0.768673 0.885008
0.558587 0.760708 0.863035
0.563195 0.760464 0.862882
0.583948 0.760006 0.862760
0.623651 0.760098 0.863310
0.696986 0.765743 0.868040
0.778653 0.777493 0.877104
0.855924 0.800168 0.885191
0.916381 0.816953 0.892821
0.634974 0.829221 0.872618
0.638819 0.829221 0.872679
0.654841 0.829252 0.872984
0.685756 0.829801 0.873991
0.729152 0.830838 0.875731
0.781613 0.832639 0.878569
0.855283 0.844083 0.890379
0.921019 0.864347 0.901640
0.712215 0.893156 0.886809
0.714931 0.893187 0.886900
0.726955 0.893492 0.887572
0.750423 0.894469 0.889189
0.783932 0.896056 0.891752
0.825376 0.898650 0.895476
0.873106 0.903105 0.901213
0.925292 0.910826 0.910246
