20 Preset/Food Style/【3】LUT video cho PR-AE-FCPX/Food Style Tone (6).cube
# Created by Adobe Lightroom plugin Export LUT (1.24.0)
# www.johnrellis.com/lightroom/exportlut.htm
# Preset: 静谧咖啡-素材江湖02
# Color profile: E:\lut插件\exportlut.1.24\exportlut.lrplugin\color profiles\Rec709gamma2.4.icc
LUT_3D_SIZE 32
DOMAIN_MIN 0.0 0.0 0.0
DOMAIN_MAX 1.0 1.0 1.0
0.035737 0.087953 0.080812
0.039002 0.088228 0.080720
0.046815 0.089143 0.080415
0.070771 0.090211 0.080568
0.093721 0.092348 0.081025
0.111818 0.095216 0.081056
0.132967 0.097658 0.080812
0.157015 0.100435 0.080720
0.184848 0.102510 0.080079
0.216342 0.104036 0.078676
0.251591 0.104799 0.077363
0.290867 0.103822 0.073976
0.334325 0.100984 0.069154
0.382055 0.095491 0.062287
0.433448 0.083406 0.052064
0.487221 0.052827 0.039612
0.542718 0.013519 0.023407
0.598047 0.000000 0.003693
0.652155 0.000000 0.000000
0.703761 0.000000 0.000000
0.754665 0.028504 0.000000
0.804898 0.109010 0.000000
0.848081 0.151400 0.000000
0.886137 0.190372 0.000000
0.920073 0.226658 0.000000
0.950622 0.261082 0.000000
0.978393 0.294255 0.000000
1.000000 0.326238 0.000000
1.000000 0.356847 0.000000
1.000000 0.386297 0.000000
1.000000 0.414588 0.000000
1.000000 0.441932 0.000000
0.035309 0.089204 0.081239
0.037293 0.089113 0.081239
0.047089 0.089967 0.080934
0.071046 0.091035 0.081086
0.093690 0.093599 0.080751
0.111421 0.096040 0.080873
0.132448 0.098878 0.081239
0.156405 0.101259 0.080537
0.183810 0.103487 0.079896
0.215061 0.105104 0.079225
0.250095 0.105684 0.077272
0.289006 0.105348 0.073762
0.332097 0.102632 0.070283
0.379553 0.097414 0.062501
0.430671 0.087953 0.053468
0.484321 0.060792 0.041230
0.539574 0.022736 0.025299
0.594965 0.000000 0.005921
0.649348 0.000000 0.000000
0.700984 0.000000 0.000000
0.751461 0.032532 0.000000
0.800900 0.106874 0.000000
0.843687 0.149294 0.000000
0.881773 0.187442 0.000000
0.915709 0.223209 0.000000
0.946502 0.257542 0.000000
0.974609 0.290867 0.000000
1.000000 0.322637 0.000000
1.000000 0.353429 0.000000
1.000000 0.383215 0.000000
1.000000 0.411688 0.000000
1.000000 0.439185 0.000000
0.034943 0.093355 0.083131
0.035920 0.093721 0.083711
0.045136 0.093751 0.083619
0.066560 0.096376 0.082704
0.092744 0.098665 0.082338
0.110506 0.101350 0.082368
0.131960 0.103609 0.082124
0.156313 0.105776 0.082124
0.183749 0.107851 0.081483
0.214939 0.109712 0.079988
0.249729 0.110689 0.079011
0.288579 0.110445 0.076051
0.331609 0.108339 0.071290
0.378790 0.104128 0.064485
0.429664 0.096223 0.055360
0.483253 0.082673 0.041871
0.538445 0.050233 0.026764
0.593927 0.017700 0.006134
0.648066 0.000000 0.000000
0.699611 0.011170 0.000000
0.750423 0.071962 0.000000
0.799161 0.118837 0.000000
0.841764 0.156069 0.000000
0.879667 0.192142 0.000000
0.913664 0.226841 0.000000
0.944396 0.259983 0.000000
0.972625 0.292454 0.000000
0.998749 0.324010 0.000000
1.000000 0.354467 0.000000
1.000000 0.384039 0.000000
1.000000 0.412360 0.000000
1.000000 0.439704 0.000000
0.029053 0.103182 0.088197
0.030335 0.103487 0.088136
0.038849 0.103914 0.088014
0.059541 0.104555 0.088167
0.089082 0.107973 0.087678
0.109926 0.110445 0.086152
0.131350 0.112795 0.085847
0.156130 0.114992 0.085023
0.184024 0.117037 0.084291
0.215640 0.118593 0.082795
0.250767 0.119600 0.081697
0.289616 0.119875 0.078584
0.332464 0.118868 0.073671
0.379522 0.115755 0.066560
0.430121 0.110140 0.056977
0.483101 0.102235 0.044221
0.537926 0.091524 0.027741
0.592645 0.077760 0.007904
0.646448 0.066377 0.000000
0.697719 0.081575 0.000000
0.748287 0.105928 0.000000
0.795804 0.136172 0.000000
0.837980 0.168826 0.000000
0.876066 0.201633 0.000000
0.910613 0.234501 0.000000
0.942016 0.267124 0.000000
0.970855 0.299107 0.000000
0.997406 0.330022 0.000000
1.000000 0.360021 0.000000
1.000000 0.388952 0.000000
1.000000 0.416449 0.000000
1.000000 0.443061 0.000000
0.020935 0.117037 0.093385
0.022217 0.117281 0.093324
0.031434 0.117311 0.093263
0.047456 0.118288 0.093355
0.080568 0.118410 0.093507
0.104341 0.122927 0.092592
0.128267 0.126131 0.090822
0.155550 0.128603 0.089296
0.184176 0.130220 0.088441
0.216159 0.132235 0.087007
0.251469 0.133516 0.084993
0.290532 0.134127 0.081697
0.333379 0.134157 0.078035
0.380560 0.132418 0.070314
0.431128 0.129274 0.060945
0.484535 0.124269 0.046052
0.539208 0.118929 0.029328
0.593988 0.114290 0.008240
0.647517 0.113161 0.000000
0.698421 0.120699 0.000000
0.749142 0.138582 0.000000
0.795590 0.162997 0.000000
0.837186 0.190616 0.000000
0.875090 0.220035 0.000000
0.909575 0.250278 0.000000
0.941039 0.280919 0.000000
0.969818 0.310979 0.000000
0.996338 0.340459 0.000000
1.000000 0.369238 0.000000
1.000000 0.396918 0.000000
1.000000 0.423529 0.000000
1.000000 0.449226 0.000000
0.004211 0.133089 0.098909
0.005188 0.133303 0.099214
0.011719 0.133608 0.099123
0.027314 0.134707 0.098787
0.063203 0.135042 0.098848
0.095125 0.135500 0.098817
0.122377 0.141421 0.097230
0.151369 0.145022 0.095064
0.183841 0.148348 0.092378
0.218235 0.150393 0.090639
0.254490 0.152010 0.088746
0.293980 0.153445 0.086152
0.337407 0.154269 0.081910
0.385016 0.154025 0.075135
0.435889 0.153017 0.064118
0.489204 0.150607 0.048951
0.543877 0.148440 0.031586
0.598474 0.147555 0.007294
0.651575 0.150271 0.000000
0.703090 0.158572 0.000000
0.752804 0.174746 0.000000
0.798428 0.195438 0.000000
0.862943 0.239384 0.000000
0.898772 0.266880 0.000000
0.930877 0.294713 0.000000
0.959930 0.322240 0.000000
0.986358 0.349218 0.000000
1.000000 0.375280 0.000000
1.000000 0.400916 0.000000
1.000000 0.425422 0.000000
1.000000 0.449287 0.000000
1.000000 0.472206 0.000000
0.000000 0.154726 0.105745
0.000000 0.154910 0.105684
0.000000 0.155337 0.105531
0.000000 0.156161 0.105257
0.027832 0.157321 0.105135
0.083925 0.157717 0.105043
0.113466 0.157961 0.105165
0.147555 0.165560 0.103365
0.182315 0.170291 0.100038
0.221012 0.174258 0.096773
0.263096 0.177981 0.092927
0.305333 0.179904 0.089876
0.350347 0.181369 0.086458
0.399084 0.182132 0.079408
0.450477 0.182193 0.067079
0.503441 0.182315 0.050050
0.557671 0.182773 0.028595
0.611322 0.184939 0.003265
0.663233 0.189944 0.000000
0.717189 0.201724 0.000000
0.767605 0.218418 0.000000
0.813840 0.239719 0.000000
0.855283 0.263828 0.000000
0.892729 0.289464 0.000000
0.926207 0.315587 0.000000
0.955962 0.341527 0.000000
0.982757 0.366430 0.000000
1.000000 0.390753 0.000000
1.000000 0.414496 0.000000
1.000000 0.437324 0.000000
1.000000 0.459724 0.000000
1.000000 0.481666 0.000000
0.000000 0.178622 0.113161
0.000000 0.178592 0.113161
0.000000 0.179141 0.112978
0.000000 0.179965 0.112978
0.000000 0.181582 0.112703
0.041352 0.182162 0.112520
0.101778 0.182589 0.112520
0.135256 0.182742 0.112734
0.174990 0.191897 0.110475
0.214359 0.197848 0.106569
0.257847 0.203189 0.102113
0.305058 0.207889 0.097139
0.355474 0.211612 0.091096
0.404669 0.213260 0.085084
0.455940 0.214817 0.075105
0.508812 0.216464 0.055848
0.562310 0.218784 0.031952
0.615320 0.222446 0.004211
0.669276 0.229801 0.000000
0.720821 0.241306 0.000000
0.768887 0.256504 0.000000
0.813504 0.275517 0.000000
0.853880 0.296361 0.000000
0.890440 0.319158 0.000000
0.923522 0.342596 0.000000
0.953063 0.365698 0.000000
0.979767 0.388312 0.000000
1.000000 0.410376 0.000000
1.000000 0.432044 0.000000
1.000000 0.453285 0.000000
1.000000 0.474159 0.000000
1.000000 0.494667 0.000000
0.000000 0.206729 0.122560
0.000000 0.206790 0.122499
0.000000 0.207248 0.122347
0.000000 0.208164 0.122286
0.000000 0.209689 0.122225
0.000000 0.211307 0.121798
0.074678 0.211643 0.121767
0.125093 0.211582 0.121920
0.161837 0.211856 0.121767
0.207401 0.222477 0.119417
0.251652 0.230014 0.114626
0.299718 0.236728 0.109071
0.352270 0.242710 0.102235
0.408698 0.248203 0.093324
0.463874 0.252018 0.082887
0.516533 0.254856 0.063661
0.569512 0.258183 0.038239
0.623774 0.264012 0.007599
0.676417 0.272465 0.000000
0.725826 0.283513 0.000000
0.772091 0.297826 0.000000
0.814878 0.314397 0.000000
0.853941 0.332799 0.000000
0.889555 0.353002 0.000000
0.921965 0.373602 0.000000
0.951049 0.394018 0.000000
0.977539 0.414099 0.000000
1.000000 0.433814 0.000000
1.000000 0.453407 0.000000
1.000000 0.472694 0.000000
1.000000 0.491798 0.000000
1.000000 0.510826 0.000000
0.000000 0.239292 0.134157
0.000000 0.239353 0.134127
0.000000 0.239689 0.133974
0.000000 0.240543 0.133883
0.000000 0.241825 0.133547
0.000000 0.243687 0.133242
0.000000 0.244816 0.132937
0.104860 0.245029 0.132937
0.152529 0.245029 0.132784
0.193179 0.244938 0.132662
0.243626 0.256504 0.130282
0.292546 0.265721 0.124178
0.345586 0.273960 0.116976
0.402258 0.281498 0.108705
0.462165 0.288792 0.097658
0.523186 0.295933 0.078859
0.580255 0.302464 0.046448
0.633906 0.308995 0.011566
0.684535 0.317723 0.000000
0.731960 0.328466 0.000000
0.776272 0.341436 0.000000
0.816678 0.355505 0.000000
0.853758 0.371130 0.000000
0.887816 0.387884 0.000000
0.918975 0.405249 0.000000
0.947570 0.422736 0.000000
0.973785 0.440375 0.000000
0.998138 0.457984 0.000000
1.000000 0.475685 0.000000
1.000000 0.493446 0.000000
1.000000 0.511040 0.000000
1.000000 0.528618 0.000000
0.000000 0.274998 0.147127
0.000000 0.275151 0.147066
0.000000 0.275608 0.146883
0.000000 0.276524 0.146914
0.000000 0.277928 0.146731
0.000000 0.280095 0.146426
0.000000 0.282719 0.145846
0.032898 0.282963 0.145785
0.135134 0.283024 0.145541
0.185580 0.282902 0.145327
0.229740 0.282506 0.144900
0.285344 0.295048 0.142580
0.339452 0.305760 0.135012
0.396674 0.315465 0.126589
0.458473 0.325505 0.116243
0.521508 0.335546 0.102785
0.584100 0.345861 0.082673
0.643153 0.356451 0.027649
0.691554 0.364538 0.000000
0.737148 0.374273 0.000000
0.779660 0.385565 0.000000
0.818357 0.397772 0.000000
0.854246 0.411170 0.000000
0.887388 0.425360 0.000000
0.917937 0.440284 0.000000
0.945953 0.455299 0.000000
0.971862 0.470527 0.000000
0.995972 0.485847 0.000000
1.000000 0.501427 0.000000
1.000000 0.517235 0.000000
1.000000 0.533196 0.000000
1.000000 0.549157 0.000000
0.000000 0.316075 0.161776
0.000000 0.316197 0.161715
0.000000 0.316686 0.161868
0.000000 0.317571 0.161868
0.000000 0.319127 0.161349
0.000000 0.321111 0.161349
0.000000 0.324010 0.160922
0.000000 0.326238 0.160525
0.102571 0.326116 0.160281
0.172824 0.326055 0.159945
0.225589 0.325505 0.159518
0.272953 0.324773 0.158816
0.346777 0.348150 0.159365
0.409857 0.362951 0.151064
0.474281 0.375921 0.140841
0.538872 0.388159 0.128603
0.601526 0.400305 0.112947
0.660487 0.412848 0.091096
0.715236 0.426246 0.030365
0.762631 0.438117 0.000000
0.801724 0.447211 0.000000
0.837217 0.456611 0.000000
0.870146 0.466743 0.000000
0.900572 0.477546 0.000000
0.928679 0.488869 0.000000
0.954620 0.500389 0.000000
0.978637 0.512230 0.000000
1.000000 0.524224 0.000000
1.000000 0.536675 0.000000
1.000000 0.549584 0.000000
1.000000 0.562737 0.000000
1.000000 0.576501 0.000000
0.000000 0.366308 0.180545
0.000000 0.366400 0.180484
0.000000 0.366674 0.180362
0.000000 0.367285 0.180026
0.000000 0.368353 0.179782
0.000000 0.370031 0.179416
0.000000 0.372412 0.179171
0.000000 0.375647 0.178439
0.000000 0.376440 0.178134
0.153994 0.377173 0.177859
0.222751 0.378393 0.177890
0.280797 0.379400 0.177981
0.334325 0.380102 0.177737
0.403296 0.395666 0.174594
0.467231 0.410620 0.166690
0.531090 0.424170 0.155947
0.592828 0.436957 0.143160
0.650629 0.449439 0.127932
0.704463 0.462318 0.108400
0.754482 0.475227 0.078279
0.799435 0.487648 0.003662
0.835325 0.496071 0.000000
0.867491 0.504051 0.000000
0.897429 0.512871 0.000000
0.925170 0.522210 0.000000
0.950927 0.531853 0.000000
0.974884 0.541894 0.000000
0.997284 0.552392 0.000000
1.000000 0.563256 0.000000
1.000000 0.574731 0.000000
1.000000 0.586511 0.000000
1.000000 0.598718 0.000000
0.000000 0.413764 0.198520
0.000000 0.413825 0.198459
0.000000 0.414008 0.198184
0.000000 0.414771 0.198245
0.000000 0.416052 0.198032
0.000000 0.418006 0.197726
0.000000 0.420630 0.197513
0.000000 0.424140 0.197208
0.000000 0.428077 0.197086
0.119936 0.428412 0.196811
0.212314 0.428870 0.196780
0.279240 0.429297 0.196536
0.337957 0.429480 0.196170
0.391669 0.429175 0.195804
0.459266 0.442481 0.192355
0.523156 0.457588 0.184146
0.583886 0.471138 0.173495
0.640711 0.483772 0.161440
0.694118 0.496254 0.147890
0.743740 0.508476 0.131350
0.788602 0.520012 0.113924
0.829526 0.531273 0.092958
0.866270 0.542077 0.048066
0.895628 0.549126 0.019379
0.922881 0.556634 0.000000
0.948302 0.564569 0.000000
0.971954 0.572992 0.000000
0.994141 0.581811 0.000000
1.000000 0.591089 0.000000
1.000000 0.601038 0.000000
1.000000 0.611353 0.000000
1.000000 0.622309 0.039582
0.000000 0.466682 0.219699
0.000000 0.466712 0.219669
0.000000 0.466804 0.219455
0.000000 0.467048 0.219242
0.000000 0.467781 0.218906
0.000000 0.469001 0.218662
0.000000 0.471046 0.218357
0.000000 0.473976 0.217807
0.000000 0.477790 0.217838
0.010559 0.479866 0.217716
0.199191 0.479835 0.217197
0.276860 0.479835 0.217075
0.341039 0.479347 0.216709
0.397986 0.478492 0.216098
0.450141 0.476783 0.215061
0.514244 0.487739 0.211460
0.575586 0.502739 0.204105
0.631861 0.515862 0.194247
0.684535 0.528161 0.183566
0.733730 0.539971 0.172274
0.778500 0.550958 0.160586
0.819577 0.561669 0.149142
0.857115 0.572137 0.137667
0.891417 0.582483 0.126131
0.920897 0.590906 0.117189
0.945800 0.597345 0.114565
0.969207 0.604303 0.112825
0.991272 0.611810 0.114321
1.000000 0.619867 0.118288
1.000000 0.628626 0.125795
1.000000 0.637903 0.136172
1.000000 0.647700 0.149630
0.000000 0.516777 0.242069
0.000000 0.516869 0.242130
0.000000 0.517082 0.241978
0.000000 0.517601 0.241978
0.000000 0.518395 0.241611
0.000000 0.519738 0.241428
0.000000 0.521721 0.241550
0.000000 0.524590 0.241398
0.000000 0.528130 0.241672
0.000000 0.532280 0.241886
0.189578 0.531884 0.241581
0.277440 0.530632 0.240879
0.345556 0.529137 0.239994
0.404395 0.526940 0.238987
0.457557 0.524193 0.237613
0.505791 0.520989 0.236088
0.564721 0.529442 0.232578
0.622309 0.544060 0.226291
0.674525 0.556786 0.217746
0.723445 0.568658 0.209018
0.768582 0.579767 0.200656
0.809995 0.590295 0.192874
0.847837 0.600610 0.185977
0.882475 0.610559 0.180270
0.914122 0.620111 0.175021
0.943084 0.629450 0.170840
0.967193 0.636164 0.170932
0.988922 0.642329 0.173434
1.000000 0.649012 0.177646
1.000000 0.656275 0.184146
1.000000 0.664118 0.192569
1.000000 0.672511 0.203952
0.000000 0.563714 0.266209
0.000000 0.563714 0.266209
0.000000 0.563897 0.266178
0.000000 0.564355 0.266056
0.000000 0.565179 0.266026
0.000000 0.566278 0.266056
0.000000 0.567956 0.266239
0.000000 0.570306 0.266392
0.000000 0.573175 0.266819
0.000000 0.576532 0.267185
0.184878 0.578759 0.267491
0.280125 0.577142 0.266697
0.351354 0.575128 0.265721
0.412268 0.572595 0.264469
0.466011 0.569696 0.263127
0.514763 0.566339 0.261234
0.558862 0.562554 0.259251
0.611933 0.569360 0.256321
0.666224 0.583703 0.251743
0.714656 0.595911 0.244816
0.759579 0.607141 0.238499
0.800961 0.617670 0.233188
0.838895 0.627771 0.228946
0.873777 0.637324 0.225589
0.905638 0.646509 0.223270
0.934813 0.655390 0.222232
0.961669 0.664088 0.222385
0.986358 0.672328 0.223453
1.000000 0.677852 0.228367
1.000000 0.684016 0.234836
1.000000 0.690639 0.243229
1.000000 0.697871 0.253666
0.000000 0.608820 0.293828
0.000000 0.609003 0.293828
0.000000 0.620996 0.302159
0.000000 0.621302 0.302129
0.000000 0.621912 0.302403
0.000000 0.622797 0.302281
0.000000 0.623987 0.302342
0.000000 0.625544 0.302586
0.000000 0.627741 0.303136
0.098146 0.630365 0.303868
0.223392 0.633326 0.304692
0.307286 0.632776 0.304417
0.376989 0.629969 0.302861
0.436439 0.626612 0.301091
0.488777 0.622827 0.299168
0.535698 0.618769 0.296757
0.578454 0.614130 0.294133
0.617517 0.609583 0.291203
0.664210 0.614252 0.288304
0.713558 0.627008 0.285130
0.756802 0.637781 0.280247
0.797116 0.647822 0.276402
0.834226 0.657221 0.273655
0.868284 0.666041 0.272129
0.899504 0.674281 0.271183
0.928130 0.682155 0.271305
0.954589 0.689723 0.272160
0.979095 0.697200 0.274205
1.000000 0.704646 0.277958
1.000000 0.711269 0.283330
1.000000 0.716823 0.291508
1.000000 0.722988 0.301549
0.000000 0.654353 0.326329
0.000000 0.655421 0.327184
0.000000 0.656672 0.328099
0.000000 0.657923 0.329046
0.000000 0.659205 0.329747
0.000000 0.660121 0.330114
0.000000 0.661158 0.330388
0.000000 0.662348 0.330571
0.000000 0.663905 0.331273
0.151705 0.665858 0.332067
0.247593 0.668177 0.333165
0.318151 0.670344 0.334264
0.386236 0.667475 0.332830
0.443915 0.664363 0.331090
0.495613 0.660853 0.329107
0.542229 0.657069 0.326879
0.584649 0.653010 0.324376
0.623774 0.648920 0.321660
0.660243 0.644892 0.319066
0.702754 0.648585 0.316777
0.748287 0.660548 0.315984
0.788418 0.671015 0.313664
0.825498 0.680598 0.312261
0.859556 0.689418 0.311833
0.890715 0.697566 0.312322
0.919402 0.705165 0.313603
0.945922 0.712428 0.315801
0.970581 0.719570 0.319219
0.993500 0.726680 0.324010
1.000000 0.733791 0.329992
1.000000 0.740963 0.337713
1.000000 0.746914 0.347326
0.000000 0.690913 0.357092
0.000000 0.691920 0.358129
0.000000 0.693050 0.359167
0.000000 0.694301 0.360204
0.000000 0.695338 0.361242
0.000000 0.696162 0.361791
0.000000 0.696895 0.362005
0.000000 0.697780 0.362585
0.084047 0.698909 0.363256
0.209934 0.700252 0.364233
0.283055 0.701961 0.365332
0.343481 0.703822 0.366705
0.401190 0.703609 0.366949
0.456306 0.700649 0.365301
0.505730 0.697444 0.363378
0.550866 0.693965 0.361242
0.592493 0.690242 0.358679
0.631006 0.686488 0.356146
0.666957 0.682673 0.353368
0.700526 0.679103 0.350652
0.738674 0.681758 0.349096
0.780453 0.692561 0.350134
0.817227 0.702480 0.349889
0.851194 0.711421 0.350774
0.882292 0.719570 0.352300
0.910979 0.727108 0.354711
0.937438 0.734188 0.357885
0.962158 0.741054 0.362249
0.985107 0.747951 0.368170
1.000000 0.754818 0.375250
1.000000 0.761715 0.383917
1.000000 0.768582 0.393744
0.000000 0.725002 0.391150
0.000000 0.725856 0.392096
0.000000 0.726741 0.393225
0.000000 0.727718 0.394354
0.000000 0.728573 0.395178
0.000000 0.729122 0.395819
0.000000 0.729732 0.396429
0.089723 0.730404 0.396918
0.198947 0.731228 0.397772
0.265660 0.732235 0.398810
0.322484 0.733547 0.400122
0.374060 0.734951 0.401862
0.421576 0.736599 0.403571
0.471687 0.734401 0.402441
0.518242 0.731533 0.400732
0.561425 0.728389 0.398749
0.601831 0.725277 0.396735
0.639521 0.722225 0.394659
0.675105 0.719203 0.392706
0.708583 0.716396 0.390753
0.740108 0.713802 0.388952
0.775051 0.716213 0.388617
0.813169 0.726101 0.391485
0.846799 0.735622 0.394263
0.877714 0.744137 0.397833
0.906188 0.751827 0.401953
0.932464 0.758999 0.406775
0.956909 0.765805 0.412757
0.979583 0.772549 0.420111
1.000000 0.779171 0.428656
1.000000 0.785824 0.438575
1.000000 0.792416 0.449683
0.000000 0.761013 0.434577
0.000000 0.761349 0.435065
0.000000 0.761563 0.435523
0.000000 0.761868 0.435798
0.000000 0.762081 0.436194
0.110475 0.762234 0.436530
0.178622 0.762539 0.436805
0.232853 0.762905 0.437354
0.281468 0.763455 0.438270
0.327367 0.764279 0.439612
0.371069 0.765286 0.441077
0.413275 0.766415 0.442878
0.453956 0.767666 0.444800
0.495094 0.768032 0.445960
0.537499 0.765316 0.444190
0.577417 0.762387 0.442145
0.614954 0.759396 0.440040
0.650690 0.756405 0.437903
0.684199 0.753414 0.435584
0.715999 0.750484 0.433295
0.745998 0.747707 0.431067
0.774533 0.745022 0.428901
0.805417 0.746304 0.427985
0.839597 0.754665 0.431312
0.869902 0.763149 0.435279
0.898131 0.770932 0.440253
0.924346 0.778256 0.446235
0.948699 0.785214 0.453162
0.971313 0.791928 0.461372
0.992401 0.798489 0.470771
1.000000 0.805051 0.481514
1.000000 0.811521 0.493568
0.177340 0.789120 0.473548
0.180636 0.789364 0.473884
0.190677 0.789609 0.474311
0.206241 0.789822 0.474769
0.227481 0.789975 0.475196
0.252598 0.790158 0.475532
0.281682 0.790341 0.475929
0.313054 0.790646 0.476661
0.345861 0.791104 0.477607
0.380468 0.791714 0.478950
0.415259 0.792447 0.480537
0.450355 0.793393 0.482490
0.485481 0.794369 0.484443
0.520104 0.795499 0.486793
0.556817 0.794369 0.486671
0.593103 0.791928 0.484932
0.628138 0.789303 0.483101
0.661311 0.786709 0.481209
0.692988 0.784054 0.479164
0.723293 0.781491 0.477089
0.752010 0.779019 0.475196
0.779416 0.776608 0.473121
0.805417 0.774319 0.471168
0.833219 0.775082 0.470405
0.862364 0.780331 0.470466
0.889799 0.787991 0.475715
0.915923 0.795560 0.482429
0.940185 0.802670 0.490333
0.962707 0.809506 0.499367
0.983734 0.816159 0.509545
1.000000 0.822843 0.521416
1.000000 0.829435 0.534569
0.310033 0.817075 0.518303
0.312627 0.817441 0.518975
0.316808 0.817624 0.519402
0.323980 0.817624 0.519524
0.334112 0.817533 0.519432
0.347906 0.817350 0.519249
0.364721 0.817166 0.519097
0.384924 0.817014 0.519188
0.408057 0.817014 0.519493
0.433478 0.817197 0.520256
0.460487 0.817441 0.521172
0.488746 0.817899 0.522545
0.517845 0.818448 0.524254
0.547295 0.819120 0.526085
0.576654 0.819699 0.527855
0.608728 0.817197 0.525658
0.640040 0.814694 0.523369
0.670405 0.812222 0.521324
0.699825 0.809873 0.519463
0.728450 0.807645 0.517784
0.755856 0.805539 0.516167
0.782010 0.803433 0.514488
0.806943 0.801297 0.512474
0.830594 0.799100 0.510246
0.855497 0.799191 0.508873
0.884459 0.806210 0.512505
0.908568 0.812314 0.518822
0.932372 0.819455 0.526970
0.954620 0.826261 0.536339
0.975341 0.833005 0.547295
0.994720 0.839628 0.559655
1.000000 0.846311 0.573602
0.390204 0.839139 0.557641
0.392035 0.839475 0.558251
0.395300 0.839658 0.558862
0.400549 0.839750 0.559106
0.408118 0.839780 0.559380
0.418524 0.839811 0.559716
0.431525 0.839902 0.560143
0.447456 0.840024 0.560815
0.465583 0.840269 0.561700
0.486122 0.840574 0.562982
0.508049 0.841001 0.564416
0.531426 0.841459 0.566217
0.555657 0.841978 0.567956
0.580468 0.842527 0.569909
0.605524 0.843137 0.571893
0.631647 0.842588 0.572259
0.659022 0.840360 0.570092
0.685878 0.838163 0.568017
0.712490 0.836057 0.566186
0.738369 0.834073 0.564569
0.763638 0.832181 0.563012
0.788022 0.830381 0.561517
0.811521 0.828550 0.559899
0.834012 0.826749 0.558099
0.855650 0.824918 0.556023
0.878172 0.824857 0.554986
0.905303 0.831998 0.559136
0.926390 0.836942 0.566949
0.948211 0.843961 0.577050
0.968627 0.850767 0.588373
0.987610 0.857450 0.600977
1.000000 0.863981 0.614618
0.464271 0.861204 0.600977
0.465370 0.861326 0.601343
0.467384 0.861387 0.601526
0.470924 0.861448 0.601801
0.476417 0.861448 0.601923
0.483955 0.861418 0.602136
0.493385 0.861479 0.602502
0.505425 0.861540 0.603082
0.519341 0.861662 0.603906
0.535271 0.861906 0.605005
0.552789 0.862242 0.606287
0.571679 0.862638 0.607843
0.591669 0.863096 0.609613
0.612421 0.863554 0.611444
0.633570 0.864073 0.613428
0.655055 0.864652 0.615351
0.678309 0.863188 0.614282
0.702022 0.861295 0.612329
0.725612 0.859464 0.610620
0.748959 0.857786 0.609186
0.771908 0.856168 0.607965
0.794308 0.854612 0.606714
0.816098 0.852995 0.605219
0.837247 0.851377 0.603662
0.857603 0.849821 0.601953
0.877317 0.848203 0.599969
0.897642 0.848020 0.599023
0.922271 0.854429 0.603326
0.941497 0.858946 0.611261
0.961669 0.865965 0.622889
0.980407 0.872709 0.635401
0.997864 0.879240 0.648859
0.524712 0.880949 0.641199
0.525383 0.881071 0.641505
0.526970 0.881193 0.641810
0.529931 0.881254 0.642115
0.534478 0.881346 0.642573
0.540734 0.881529 0.643214
0.549340 0.881865 0.644404
0.559869 0.882353 0.645930
0.572168 0.882933 0.647822
0.586145 0.883604 0.650050
0.601587 0.884367 0.652583
0.617884 0.885161 0.655177
0.635004 0.885954 0.657862
0.652583 0.886717 0.660456
0.670497 0.887449 0.662928
0.688624 0.888060 0.665217
0.707179 0.888273 0.666712
0.727199 0.886778 0.665217
0.747341 0.885344 0.663966
0.767605 0.883940 0.662867
0.787716 0.882658 0.661860
0.807614 0.881376 0.660853
0.827146 0.880034 0.659632
0.846250 0.878721 0.658442
0.864866 0.877409 0.656947
0.883055 0.876097 0.655390
0.900816 0.874876 0.653895
0.918975 0.874632 0.653132
0.940948 0.880369 0.657649
0.958038 0.884215 0.665156
0.976043 0.890776 0.677241
0.992889 0.897185 0.690333
0.589197 0.902617 0.688319
0.589441 0.902647 0.688319
0.590387 0.902617 0.688350
0.592187 0.902617 0.688411
0.595300 0.902586 0.688563
0.599664 0.902647 0.688838
0.605493 0.902708 0.689326
0.612726 0.902831 0.689967
0.621515 0.903075 0.690913
0.631708 0.903349 0.692134
0.643091 0.903716 0.693568
0.655543 0.904143 0.695216
0.669001 0.904601 0.697017
0.683131 0.905089 0.698878
