20 Preset/Food Style/【3】LUT video cho PR-AE-FCPX/Food Style Tone (9).cube
# Created by Adobe Lightroom plugin Export LUT (1.24.0)
# www.johnrellis.com/lightroom/exportlut.htm
# Preset: 静谧咖啡-素材江湖05
# Color profile: E:\lut插件\exportlut.1.24\exportlut.lrplugin\color profiles\Rec709gamma2.4.icc
LUT_3D_SIZE 8
DOMAIN_MIN 0.000000 0.000000 0.000000
DOMAIN_MAX 0.903226 0.903226 0.903226
0.034668 0.038300 0.008789
0.105989 0.063294 0.020111
0.237186 0.072053 0.047150
0.407507 0.023041 0.072267
0.594995 0.092409 0.106569
0.795071 0.207767 0.161776
0.967834 0.348425 0.258030
1.000000 0.477577 0.385595
0.075471 0.105959 0.030457
0.116579 0.107942 0.034180
0.239445 0.119326 0.058137
0.401190 0.123018 0.081361
0.583886 0.160739 0.113588
0.783505 0.247440 0.168276
0.950072 0.361120 0.255619
1.000000 0.481697 0.380652
0.099580 0.222385 0.058778
0.140902 0.225040 0.054383
0.263066 0.235874 0.079286
0.422583 0.272526 0.117678
0.603967 0.323583 0.159182
0.809659 0.396399 0.224460
0.964080 0.479622 0.327733
1.000000 0.567163 0.454108
0.115785 0.388830 0.113588
0.156039 0.389654 0.110323
0.269780 0.400610 0.105989
0.444251 0.447913 0.163485
0.656458 0.520348 0.254826
0.845029 0.580224 0.358007
0.961517 0.619348 0.450324
1.000000 0.670710 0.557305
0.113466 0.576043 0.205447
0.164736 0.576501 0.203799
0.285618 0.582025 0.201205
0.450324 0.603937 0.227909
0.646357 0.641993 0.315465
0.826078 0.683864 0.440833
0.940826 0.724483 0.562829
1.000000 0.768338 0.675074
0.263676 0.725795 0.347997
0.294743 0.730373 0.354192
0.375402 0.731716 0.353491
0.496681 0.734188 0.353613
0.663142 0.750362 0.420539
0.822019 0.773983 0.530907
0.930419 0.806241 0.666255
0.983642 0.834806 0.754940
0.495460 0.832517 0.538903
0.507469 0.833158 0.540551
0.545373 0.832609 0.539757
0.615412 0.832242 0.540337
0.712154 0.832425 0.552361
0.833768 0.843687 0.636774
0.919402 0.859373 0.722438
0.971557 0.881804 0.807645
0.717067 0.904967 0.726497
0.721065 0.904906 0.726619
0.738521 0.904997 0.727871
0.772305 0.905577 0.731563
0.805844 0.901274 0.719966
0.870451 0.905608 0.753109
0.928313 0.914458 0.806363
0.967346 0.924071 0.848051
0.079988 0.066072 0.060517
0.108583 0.076661 0.059876
0.222782 0.086793 0.088167
0.379278 0.103090 0.112184
0.560937 0.143374 0.145022
0.759609 0.226291 0.194827
0.932189 0.337896 0.270848
1.000000 0.460945 0.383093
0.090547 0.104677 0.076814
0.123507 0.110109 0.083528
0.234073 0.125551 0.098146
0.384619 0.144289 0.118715
0.562829 0.186801 0.151888
0.759365 0.261540 0.201999
0.924926 0.357885 0.274510
1.000000 0.470192 0.383795
0.142702 0.216709 0.111879
0.163485 0.220340 0.108003
0.263920 0.231418 0.117586
0.410498 0.271672 0.152010
0.583062 0.320714 0.188510
0.777798 0.385901 0.243900
0.932982 0.459571 0.326452
1.000000 0.548333 0.443305
0.152895 0.376501 0.146578
0.180728 0.378088 0.145144
0.273594 0.388708 0.140597
0.426368 0.424018 0.183841
0.613886 0.488106 0.258213
0.804715 0.551598 0.346136
0.935210 0.593164 0.428443
1.000000 0.650538 0.536431
0.147402 0.567681 0.229374
0.184146 0.567193 0.227176
0.288609 0.570764 0.222995
0.438758 0.587274 0.240848
0.624018 0.623011 0.318181
0.805753 0.668696 0.435462
0.929442 0.713344 0.555444
0.995880 0.758785 0.665126
0.261509 0.716670 0.356146
0.285100 0.717281 0.356603
0.364630 0.719326 0.356603
0.485420 0.723568 0.358251
0.650935 0.741176 0.420813
0.813657 0.767727 0.531914
0.925048 0.801144 0.664485
0.980743 0.830442 0.751553
0.483436 0.826139 0.536187
0.490669 0.825315 0.534051
0.528771 0.824704 0.532494
0.601801 0.825162 0.534844
0.702022 0.826902 0.547997
0.826688 0.838773 0.632197
0.914366 0.854124 0.715816
0.968719 0.876890 0.801419
0.707424 0.901549 0.721553
0.713588 0.901976 0.723384
0.731106 0.902007 0.724361
0.765835 0.902647 0.728237
0.811795 0.903197 0.732052
0.871336 0.905974 0.758083
0.927642 0.913725 0.807309
0.966888 0.923400 0.848569
0.120302 0.090669 0.140780
0.147463 0.092897 0.140810
0.228580 0.105287 0.144839
0.360449 0.145022 0.170535
0.541161 0.178286 0.214878
0.739498 0.257877 0.280247
0.916258 0.370550 0.363470
1.000000 0.491310 0.469154
0.138216 0.122988 0.152102
0.165682 0.125887 0.152102
0.241062 0.139040 0.155306
0.367071 0.173098 0.181064
0.542138 0.205661 0.221714
0.736721 0.287572 0.287236
0.909941 0.386267 0.364935
1.000000 0.499763 0.469490
0.176730 0.212589 0.177279
0.200961 0.217716 0.180758
0.284794 0.243046 0.199557
0.405432 0.272801 0.222293
0.570367 0.327153 0.266941
0.760586 0.396735 0.328801
0.917113 0.474372 0.408850
1.000000 0.564660 0.513298
0.223056 0.376654 0.240024
0.243137 0.381506 0.243015
0.304295 0.397314 0.242039
0.435767 0.428077 0.272618
0.614740 0.497383 0.349248
0.792782 0.553796 0.422248
0.924437 0.603204 0.501518
1.000000 0.664179 0.597559
0.245090 0.564569 0.329381
0.260349 0.566430 0.326665
0.321355 0.572290 0.318364
0.447761 0.585260 0.322911
0.628992 0.624872 0.399451
0.801358 0.672328 0.507378
0.921050 0.720699 0.614954
0.988342 0.762539 0.698787
0.307439 0.713558 0.428077
0.325963 0.714595 0.429023
0.390967 0.716396 0.428779
0.496803 0.719783 0.429023
0.647913 0.734310 0.472206
0.807431 0.762966 0.576928
0.918791 0.800137 0.695338
0.976532 0.833371 0.775357
0.516625 0.825132 0.588281
0.522942 0.824521 0.586694
0.554192 0.823484 0.583642
0.617151 0.823423 0.583734
0.704555 0.823880 0.585534
0.826596 0.837064 0.661494
0.914183 0.855070 0.741695
0.968109 0.879973 0.819486
0.717281 0.900298 0.742702
0.720089 0.900023 0.741909
0.736294 0.900023 0.742428
0.771206 0.901488 0.747829
0.814633 0.902251 0.750881
0.871550 0.905425 0.771206
0.928099 0.914031 0.818235
0.967041 0.924193 0.856718
0.162142 0.104494 0.239231
0.188266 0.108064 0.241123
0.270024 0.124758 0.243076
0.370367 0.155947 0.256413
0.498238 0.232395 0.290501
0.693568 0.291997 0.361822
0.877195 0.363500 0.433265
0.999603 0.478920 0.529503
0.188296 0.141390 0.251865
0.210605 0.144625 0.252476
0.283940 0.158877 0.253941
0.378180 0.187198 0.266300
0.503593 0.258427 0.301610
0.698207 0.313085 0.371313
0.877256 0.381262 0.440406
0.996582 0.496590 0.540032
0.202853 0.224887 0.278202
0.226871 0.230014 0.281376
0.307317 0.250126 0.288518
0.397894 0.278202 0.298833
0.532769 0.341650 0.347631
0.725093 0.392218 0.413001
0.891600 0.470253 0.494057
0.996857 0.573449 0.591302
0.249058 0.369299 0.329168
0.266819 0.373053 0.332067
0.332280 0.391821 0.347875
0.447120 0.436652 0.389380
0.588251 0.474739 0.427161
0.753170 0.527886 0.487068
0.894194 0.591821 0.564874
0.987121 0.662745 0.651331
0.297307 0.562432 0.442145
0.313542 0.563684 0.442908
0.375616 0.572839 0.449928
0.470619 0.592523 0.455909
0.631556 0.624689 0.506981
0.792935 0.677424 0.602228
0.908019 0.724025 0.678981
0.977661 0.762814 0.738003
0.395026 0.713588 0.547204
0.414618 0.717617 0.553002
0.465614 0.719814 0.555352
0.536919 0.725246 0.549950
0.655848 0.732509 0.562188
0.805844 0.761593 0.649928
0.912535 0.801877 0.744076
0.971283 0.838163 0.809049
0.573083 0.820920 0.666896
0.582422 0.821347 0.668544
0.597467 0.823270 0.661585
0.650446 0.824460 0.662898
0.723934 0.825528 0.663661
0.828367 0.835904 0.708583
0.912963 0.855253 0.776791
0.966552 0.882444 0.841367
0.738796 0.900267 0.780514
0.741909 0.900237 0.780453
0.755520 0.900328 0.780545
0.782864 0.900969 0.781949
0.821195 0.901823 0.783719
0.869657 0.903929 0.790097
0.928008 0.913848 0.833799
0.967468 0.925566 0.869718
0.214664 0.133272 0.365850
0.236088 0.137606 0.368109
0.307103 0.153689 0.370977
0.407019 0.188846 0.377905
0.515129 0.234012 0.404852
0.647761 0.326787 0.447456
0.826322 0.417456 0.528801
0.968017 0.509789 0.612116
0.235782 0.167788 0.376471
0.254734 0.171115 0.378637
0.319219 0.185153 0.381353
0.413306 0.215946 0.386084
0.519402 0.258610 0.412848
0.651209 0.346990 0.456184
0.828244 0.432227 0.536034
0.967376 0.521660 0.617914
0.261784 0.257084 0.406592
0.278172 0.260075 0.407599
0.337835 0.271489 0.409491
0.429694 0.298619 0.416632
0.530480 0.337896 0.439429
0.657343 0.413611 0.482856
0.832486 0.482704 0.559960
0.963195 0.560632 0.636194
0.251438 0.371557 0.444434
0.267277 0.374853 0.446601
0.327092 0.388739 0.457832
0.450141 0.425727 0.480995
0.560784 0.463905 0.501823
0.693935 0.523156 0.550958
0.851804 0.571283 0.613977
0.965667 0.631128 0.678218
0.303929 0.533532 0.513970
0.320134 0.536522 0.516838
0.380072 0.548119 0.528313
0.481544 0.572168 0.553582
0.618860 0.611963 0.598901
0.752071 0.642634 0.636774
0.876188 0.686763 0.691737
0.963287 0.737240 0.750759
0.416083 0.693477 0.623072
0.428321 0.694514 0.624414
0.473762 0.696773 0.626978
0.553094 0.704524 0.635737
0.647089 0.717739 0.643366
0.789090 0.748043 0.701198
0.901732 0.795987 0.779995
0.964630 0.833829 0.830228
0.578729 0.812802 0.721828
0.584100 0.812406 0.721126
0.610071 0.812528 0.721035
0.667689 0.815793 0.727657
0.728939 0.820218 0.727657
0.814328 0.826169 0.740597
0.906767 0.849729 0.803861
0.963104 0.880064 0.857481
0.730678 0.894041 0.805570
0.735378 0.893889 0.805997
0.754971 0.893675 0.808621
0.788785 0.896208 0.814359
0.820829 0.898314 0.813657
0.865232 0.900572 0.815732
0.923430 0.910033 0.845731
0.965942 0.923644 0.879973
0.267033 0.175082 0.519707
0.284916 0.178653 0.521233
0.346838 0.193362 0.522667
0.441993 0.223453 0.528161
0.554681 0.276188 0.541833
0.672480 0.327733 0.576806
0.796963 0.431128 0.613336
0.926421 0.563409 0.692958
0.277897 0.201419 0.518883
0.293767 0.204288 0.519463
0.351354 0.216953 0.521752
0.443214 0.244114 0.528283
0.551385 0.291630 0.539483
0.667659 0.341436 0.574365
0.792447 0.440833 0.612421
0.923400 0.567041 0.692348
0.300359 0.285924 0.546014
0.314733 0.288518 0.546715
0.370336 0.299992 0.550256
0.457771 0.321782 0.553368
0.563958 0.362127 0.563287
0.678096 0.408759 0.596094
0.799405 0.498817 0.635706
0.925628 0.603693 0.711849
0.276341 0.390784 0.582940
0.294926 0.393744 0.584710
0.373907 0.418067 0.594995
0.476387 0.441779 0.606104
0.593744 0.476905 0.618433
0.706630 0.519493 0.645197
0.817960 0.595727 0.685206
0.934539 0.664637 0.748775
0.286168 0.528008 0.620386
0.301640 0.529839 0.621637
0.359411 0.537499 0.627649
0.453254 0.553185 0.641688
0.608728 0.590478 0.667567
0.726406 0.626673 0.688502
0.834470 0.678248 0.729427
0.942962 0.717891 0.776791
0.404517 0.672511 0.683528
0.420020 0.675257 0.686671
0.469337 0.680232 0.691890
0.553613 0.690608 0.703212
0.658869 0.708003 0.723079
0.781460 0.740444 0.760922
0.883635 0.770932 0.795834
0.956481 0.807462 0.833066
0.615991 0.806821 0.786313
0.623835 0.807828 0.787625
0.648188 0.809079 0.789151
0.692378 0.811917 0.792477
0.751766 0.817197 0.797574
0.816678 0.825040 0.800839
0.904143 0.847166 0.837583
0.963317 0.882902 0.881041
0.741421 0.890013 0.843656
0.743618 0.889769 0.843198
0.756588 0.889982 0.843229
0.783841 0.891722 0.844846
0.823880 0.894163 0.848112
0.864988 0.898100 0.849760
0.915984 0.905119 0.860044
0.965179 0.922759 0.894347
0.328466 0.225040 0.680659
0.343999 0.228489 0.682368
0.399939 0.241032 0.683772
0.491005 0.267247 0.688106
0.601251 0.308843 0.693111
0.714412 0.371008 0.700160
0.824521 0.426184 0.728817
0.903014 0.536217 0.741695
0.332280 0.244755 0.677821
0.347356 0.248417 0.679835
0.400885 0.259648 0.681361
0.488869 0.282719 0.684535
0.597131 0.321691 0.689418
0.708553 0.379492 0.695583
0.817197 0.431830 0.723354
0.896849 0.537011 0.736751
0.345037 0.317754 0.692164
0.358679 0.320073 0.692500
0.410285 0.329076 0.693141
0.496468 0.349187 0.696010
0.602716 0.382361 0.700069
0.713832 0.433875 0.707240
0.822141 0.485725 0.736019
0.901549 0.584863 0.755093
0.339849 0.422065 0.715267
0.354101 0.423194 0.714626
0.409186 0.430823 0.715023
0.501671 0.448890 0.718807
0.613001 0.477272 0.723598
0.727199 0.521691 0.732174
0.829770 0.570855 0.757687
0.906950 0.650446 0.780667
0.257420 0.519677 0.725765
0.278111 0.520287 0.725826
0.352667 0.526787 0.730007
0.472328 0.546075 0.741115
0.613031 0.576501 0.748074
0.735714 0.611719 0.756588
0.834348 0.652949 0.778378
0.914885 0.718898 0.810086
0.365911 0.659388 0.764034
0.378393 0.660273 0.764553
0.424659 0.663020 0.766384
0.503044 0.668360 0.770260
0.603021 0.676936 0.776944
0.757870 0.710506 0.797910
0.857877 0.745663 0.817197
0.929229 0.791501 0.846372
0.558495 0.781247 0.811856
0.567193 0.782132 0.812833
0.597467 0.783963 0.814694
0.652827 0.788327 0.819211
0.726040 0.795560 0.826658
0.809415 0.808743 0.839597
0.891966 0.833707 0.862181
0.955444 0.861601 0.885161
0.756100 0.882933 0.876799
0.760311 0.883177 0.877195
0.778470 0.884794 0.879423
0.804105 0.886778 0.881498
0.835264 0.889769 0.883330
0.872221 0.894865 0.885740
0.912261 0.902312 0.887572
0.964630 0.921691 0.910735
0.443000 0.308690 0.831724
0.455329 0.311833 0.832273
0.499611 0.321782 0.831357
0.578576 0.345068 0.832090
0.678035 0.382086 0.832670
0.781918 0.435279 0.833005
0.874846 0.503746 0.835966
0.948913 0.562097 0.849882
0.441108 0.322118 0.829465
0.453651 0.325109 0.830106
0.498268 0.335149 0.829923
0.576196 0.356695 0.830381
0.675166 0.391943 0.831022
0.779110 0.443091 0.831540
0.871458 0.508873 0.833951
0.945708 0.564874 0.847807
0.441321 0.376989 0.831205
0.452766 0.379248 0.831357
0.496895 0.387518 0.830900
0.577173 0.408576 0.833188
0.674739 0.438880 0.833219
0.777340 0.482918 0.833127
0.869169 0.543755 0.835416
0.942016 0.594476 0.849607
0.426459 0.458045 0.835966
0.439399 0.460304 0.836332
0.486793 0.467750 0.836332
0.569451 0.484474 0.837430
0.672114 0.510613 0.838376
0.777676 0.549248 0.839322
0.868803 0.601862 0.841581
0.938750 0.645380 0.855741
0.345769 0.535210 0.842649
0.362280 0.536828 0.843290
0.434119 0.547906 0.843351
0.542229 0.566735 0.844022
0.657862 0.588006 0.844846
0.771786 0.618921 0.846281
0.866636 0.661158 0.849760
0.935393 0.702388 0.863859
0.326116 0.651179 0.851286
0.335302 0.650202 0.850675
0.374975 0.647303 0.849119
0.464302 0.647242 0.849271
0.608606 0.660945 0.854582
0.763729 0.695277 0.859770
0.871275 0.732662 0.866270
0.937713 0.771572 0.879393
0.523857 0.777707 0.873869
0.529747 0.777554 0.873716
0.554711 0.777005 0.873350
0.603052 0.777005 0.873442
0.669306 0.777157 0.873869
0.748165 0.777829 0.875273
0.873747 0.805020 0.885801
0.942382 0.837827 0.896880
0.714290 0.869749 0.897948
0.717708 0.869718 0.897948
0.733181 0.870207 0.898314
0.763546 0.871824 0.899565
0.804868 0.874571 0.901488
0.853239 0.879484 0.904631
0.905333 0.889158 0.910613
0.957580 0.909972 0.923400
