20 Preset/Food Style/【3】LUT video cho PR-AE-FCPX/Food Style Tone (14).cube
# Created by Adobe Lightroom plugin Export LUT (1.24.0)
# www.johnrellis.com/lightroom/exportlut.htm
# Preset: 静谧咖啡-素材江湖10
# Color profile: E:\lut插件\exportlut.1.24\exportlut.lrplugin\color profiles\Rec709gamma2.4.icc
LUT_3D_SIZE 8
DOMAIN_MIN 0.000000 0.000000 0.000000
DOMAIN_MAX 0.903226 0.903226 0.903226
0.047669 0.103548 0.156832
0.061555 0.103731 0.157168
0.133303 0.104219 0.158022
0.278080 0.086091 0.157778
0.478645 0.000000 0.154971
0.698573 0.000000 0.147341
0.900694 0.000000 0.137697
1.000000 0.140078 0.152102
0.046357 0.108186 0.158602
0.061585 0.109346 0.157870
0.138125 0.113252 0.157015
0.276158 0.108492 0.155947
0.470405 0.013214 0.151705
0.687861 0.000000 0.142031
0.883421 0.000000 0.129213
1.000000 0.171572 0.140261
0.000000 0.153506 0.169375
0.030274 0.152956 0.168978
0.146120 0.169497 0.160952
0.308629 0.183230 0.151766
0.492226 0.180362 0.142428
0.708705 0.188449 0.119722
0.898589 0.236271 0.050965
1.000000 0.305425 0.084047
0.000000 0.284031 0.206058
0.000000 0.282170 0.205020
0.116396 0.283482 0.200961
0.316503 0.339330 0.165499
0.556481 0.372198 0.115206
0.738949 0.369635 0.040772
0.900999 0.397345 0.000000
1.000000 0.437568 0.000000
0.000000 0.465431 0.268498
0.000000 0.463416 0.267155
0.000000 0.458015 0.262699
0.276585 0.477394 0.243565
0.515282 0.537621 0.173373
0.748348 0.570397 0.000000
0.892485 0.561913 0.000000
1.000000 0.564813 0.000000
0.000000 0.644831 0.358679
0.000000 0.647883 0.360418
0.111604 0.642603 0.354864
0.310033 0.632746 0.344396
0.486946 0.665339 0.311315
0.708797 0.711299 0.243534
0.898222 0.735561 0.162112
0.997070 0.719509 0.149172
0.301610 0.792172 0.501305
0.317632 0.792111 0.501244
0.364721 0.788388 0.495003
0.441810 0.781888 0.484504
0.536614 0.777615 0.466804
0.684047 0.805753 0.439551
0.847074 0.831479 0.394842
0.979065 0.842252 0.353124
0.601740 0.891081 0.676356
0.605097 0.890745 0.675532
0.620081 0.889708 0.673274
0.650019 0.887999 0.669612
0.678828 0.879942 0.649744
0.745357 0.886778 0.641566
0.835019 0.902220 0.627924
0.932097 0.914855 0.597345
0.046235 0.104067 0.160647
0.057313 0.104402 0.160220
0.128939 0.102541 0.162020
0.265019 0.091493 0.164096
0.460914 0.000000 0.161654
0.677180 0.000000 0.152956
0.872557 0.000000 0.133730
1.000000 0.131319 0.143343
0.043641 0.108400 0.162387
0.061402 0.109682 0.163363
0.135592 0.112001 0.164187
0.271427 0.106661 0.164309
0.463294 0.024781 0.161501
0.676448 0.000000 0.151949
0.865751 0.000000 0.131930
1.000000 0.169406 0.132296
0.013397 0.155184 0.182345
0.035615 0.156619 0.179538
0.145510 0.168856 0.172244
0.302098 0.177401 0.164492
0.483436 0.175174 0.158907
0.688960 0.179294 0.145663
0.873167 0.218173 0.121187
1.000000 0.293736 0.081697
0.000000 0.281498 0.222324
0.000000 0.281041 0.217319
0.125795 0.278294 0.214267
0.303441 0.324559 0.183810
0.525200 0.348150 0.149905
0.706081 0.344732 0.120821
0.875395 0.376837 0.080934
1.000000 0.422522 0.000000
0.000000 0.463569 0.281987
0.000000 0.461067 0.278904
0.042145 0.453986 0.273381
0.273442 0.465797 0.255955
0.500572 0.522362 0.195804
0.731563 0.555322 0.105287
0.880186 0.549859 0.000000
0.999817 0.556634 0.000000
0.000000 0.639124 0.365728
0.000000 0.638178 0.364599
0.112551 0.633509 0.359564
0.307378 0.624903 0.350164
0.479530 0.656580 0.320897
0.702205 0.705379 0.260899
0.892271 0.729976 0.192538
0.992615 0.714321 0.176303
0.294926 0.786984 0.502190
0.305089 0.785336 0.499672
0.353674 0.781369 0.493141
0.433570 0.775570 0.483772
0.530571 0.771572 0.468910
0.677882 0.800687 0.442756
0.841306 0.826413 0.397772
0.974640 0.837430 0.356207
0.594629 0.888334 0.673884
0.600000 0.888518 0.674434
0.614801 0.887358 0.671809
0.645014 0.885679 0.667994
0.686824 0.882383 0.660273
0.747524 0.887083 0.648676
0.834318 0.901488 0.632227
0.931273 0.914244 0.602258
0.026276 0.105165 0.190127
0.059297 0.105043 0.190341
0.125734 0.104860 0.191592
0.274907 0.083742 0.208438
0.470954 0.000000 0.215976
0.687037 0.000000 0.227604
0.880339 0.000000 0.228153
1.000000 0.185641 0.224857
0.003449 0.113100 0.198306
0.046387 0.113252 0.198734
0.134737 0.115419 0.199344
0.277958 0.107118 0.212680
0.468269 0.035157 0.222477
0.683284 0.000000 0.228092
0.873686 0.000000 0.225864
1.000000 0.209689 0.221744
0.000000 0.160037 0.215427
0.015167 0.162570 0.217105
0.149813 0.173159 0.222995
0.301884 0.180850 0.226139
0.491951 0.184237 0.228855
0.697566 0.191958 0.228519
0.878080 0.233219 0.224002
1.000000 0.308171 0.220493
0.000000 0.292515 0.272068
0.009613 0.295750 0.273381
0.164828 0.303075 0.268498
0.315312 0.330663 0.250401
0.528344 0.344030 0.232029
0.714290 0.352850 0.221897
0.882048 0.387274 0.217136
1.000000 0.433448 0.215824
0.000000 0.474342 0.347936
0.019409 0.475166 0.347753
0.153567 0.474342 0.328893
0.300359 0.470100 0.317754
0.511772 0.528435 0.277409
0.731411 0.552667 0.235752
0.879026 0.545861 0.211978
0.999756 0.561303 0.209079
0.167086 0.647028 0.439033
0.166659 0.647059 0.432715
0.199741 0.643946 0.410163
0.338720 0.634333 0.399268
0.486122 0.653315 0.377447
0.701106 0.702937 0.336156
0.887266 0.725887 0.298283
0.989960 0.712886 0.284703
0.390814 0.791348 0.557275
0.387152 0.790372 0.551110
0.398322 0.787106 0.535393
0.462867 0.780453 0.524224
0.544884 0.770993 0.508171
0.681819 0.799954 0.488838
0.842496 0.827909 0.456519
0.972503 0.839139 0.429877
0.621515 0.888914 0.699611
0.619928 0.888640 0.696345
0.628107 0.887816 0.690852
0.657954 0.886748 0.688411
0.696193 0.883421 0.680293
0.752407 0.886320 0.670527
0.836179 0.901701 0.657893
0.930694 0.914946 0.632898
0.000000 0.105989 0.277165
0.000000 0.106020 0.279850
0.166903 0.104189 0.285893
0.283818 0.095949 0.291691
0.487556 0.009735 0.319402
0.699886 0.000000 0.336187
0.875883 0.000000 0.344396
1.000000 0.237980 0.366644
0.000000 0.119081 0.288151
0.000000 0.119631 0.289952
0.172732 0.122713 0.294926
0.293492 0.121462 0.299962
0.491829 0.107118 0.324987
0.700191 0.000000 0.339513
0.871427 0.126894 0.353552
1.000000 0.261845 0.367559
0.000000 0.178714 0.301274
0.000000 0.179965 0.304143
0.164675 0.188144 0.314763
0.310002 0.204044 0.320531
0.503777 0.220920 0.343175
0.705196 0.222873 0.353796
0.880461 0.282658 0.370520
1.000000 0.351476 0.376349
0.000000 0.297673 0.337774
0.000000 0.299931 0.338750
0.169100 0.310857 0.344060
0.324346 0.332158 0.354803
0.516289 0.347906 0.358648
0.706538 0.370123 0.362432
0.875212 0.405585 0.366705
1.000000 0.453315 0.373266
0.000000 0.490303 0.425574
0.107942 0.490669 0.425238
0.245335 0.494728 0.425818
0.357031 0.501244 0.417334
0.523033 0.533349 0.396063
0.726253 0.544030 0.374884
0.876829 0.546410 0.364538
0.995941 0.573602 0.375067
0.243320 0.661494 0.515007
0.271641 0.664973 0.517906
0.345464 0.664759 0.516350
0.406714 0.662684 0.494270
0.512749 0.657099 0.475441
0.705898 0.705287 0.451240
0.880247 0.721584 0.430915
0.984344 0.709926 0.413703
0.459907 0.796567 0.622736
0.471138 0.796719 0.623468
0.512413 0.796170 0.625055
0.521141 0.793729 0.597772
0.586023 0.784207 0.581323
0.692531 0.800259 0.565698
0.842496 0.829068 0.545312
0.966003 0.839261 0.530510
0.675013 0.891447 0.748928
0.679805 0.891203 0.749447
0.679957 0.890990 0.741329
0.683711 0.890501 0.726406
0.715328 0.886870 0.717372
0.759609 0.884184 0.705989
0.838254 0.901274 0.698238
0.929900 0.916136 0.681941
0.000000 0.111757 0.411933
0.000000 0.111543 0.415412
0.190158 0.110292 0.424384
0.365667 0.113069 0.441413
0.505303 0.092622 0.446845
0.712184 0.115023 0.478767
0.889250 0.191165 0.500603
1.000000 0.305974 0.514794
0.000000 0.131960 0.420233
0.000000 0.132784 0.423560
0.195865 0.135317 0.432013
0.370214 0.146120 0.446693
0.510948 0.139712 0.452796
0.714321 0.168704 0.483680
0.887633 0.227817 0.503502
1.000000 0.328344 0.517479
0.000000 0.200870 0.433906
0.000000 0.200778 0.437568
0.185153 0.211063 0.445380
0.373724 0.235691 0.460945
0.520317 0.250492 0.468574
0.712032 0.289311 0.495369
0.876921 0.326879 0.510399
0.995209 0.396002 0.523644
0.000000 0.314305 0.446815
0.000000 0.315953 0.447822
0.055482 0.322148 0.452583
0.349676 0.351202 0.479042
0.528374 0.388830 0.494392
0.710018 0.424231 0.517113
0.864530 0.449439 0.525750
0.981018 0.505028 0.543938
0.000000 0.474861 0.493263
0.000000 0.476967 0.494331
0.185916 0.484871 0.498268
0.358007 0.500008 0.505974
0.517601 0.521019 0.516869
0.699763 0.537591 0.520928
0.858152 0.561608 0.527672
0.978698 0.592248 0.536065
0.251225 0.662074 0.587976
0.274601 0.662562 0.588128
0.348425 0.661982 0.586175
0.451728 0.662684 0.583978
0.547692 0.663752 0.572442
0.697749 0.695430 0.562188
0.862699 0.705135 0.550469
0.972137 0.700526 0.537621
0.463203 0.800137 0.677546
0.470924 0.799466 0.676478
0.505364 0.798154 0.674586
0.573785 0.797971 0.675441
0.623804 0.795163 0.657954
0.695003 0.791287 0.638911
0.836942 0.825040 0.629969
0.955016 0.832547 0.619379
0.647333 0.892027 0.767025
0.653040 0.891752 0.767391
0.676265 0.890929 0.769314
0.720546 0.891203 0.776181
0.733486 0.890105 0.759335
0.769619 0.885069 0.746761
0.835904 0.897307 0.739559
0.926116 0.914336 0.729763
0.000000 0.131014 0.580591
0.000000 0.130861 0.583642
0.235477 0.131197 0.590753
0.424384 0.136477 0.606622
0.620081 0.185733 0.630793
0.744045 0.186191 0.631861
0.887266 0.290105 0.641596
1.000000 0.427924 0.665583
0.000000 0.154543 0.578668
0.000000 0.155184 0.580591
0.234684 0.158053 0.588251
0.420783 0.168917 0.604242
0.614099 0.215274 0.627497
0.738521 0.218814 0.629328
0.882017 0.311528 0.639979
0.998810 0.438605 0.664515
0.000000 0.230686 0.589471
0.000000 0.232822 0.591089
0.227878 0.242496 0.600122
0.421149 0.263279 0.613855
0.614038 0.314397 0.636439
0.740322 0.329992 0.639857
0.878264 0.407111 0.651911
0.988983 0.501305 0.674617
0.000000 0.345464 0.588861
0.000000 0.346990 0.591608
0.132418 0.357031 0.605951
0.396674 0.386389 0.628168
0.607813 0.444282 0.653071
0.742031 0.475105 0.660731
0.872770 0.540032 0.677638
0.974762 0.590295 0.693202
0.000000 0.489113 0.606744
0.000000 0.490059 0.607202
0.000000 0.493599 0.609186
0.296544 0.500008 0.614099
0.546685 0.541039 0.646021
0.718502 0.591150 0.666712
0.854368 0.632441 0.688075
0.957092 0.655818 0.696162
0.000000 0.645838 0.649775
0.116091 0.648066 0.651637
0.267369 0.651606 0.653437
0.410101 0.658808 0.657313
0.553521 0.670039 0.663539
0.696284 0.690120 0.676600
0.843900 0.707515 0.685176
0.952422 0.726833 0.693141
0.476356 0.807248 0.745968
0.490333 0.808347 0.747494
0.536797 0.810269 0.750576
0.598322 0.810605 0.750332
0.669673 0.809506 0.746883
0.732723 0.805081 0.732723
0.835630 0.824613 0.724269
0.945159 0.827481 0.715236
0.654780 0.895995 0.811337
0.658137 0.895659 0.810849
0.675227 0.895201 0.810300
0.708644 0.895140 0.810361
0.756069 0.894316 0.811002
0.791714 0.892241 0.800961
0.835599 0.891997 0.788602
0.923522 0.913664 0.787228
0.125032 0.172793 0.741482
0.189639 0.174563 0.744045
0.329015 0.179202 0.748470
0.495766 0.195712 0.757931
0.668055 0.247166 0.770687
0.824704 0.355993 0.785428
0.911650 0.357397 0.779538
0.980499 0.463111 0.762295
0.110719 0.194583 0.735805
0.181521 0.197024 0.738918
0.321691 0.202152 0.743404
0.486763 0.217960 0.751919
0.658686 0.265293 0.764401
0.814847 0.364996 0.778653
0.901762 0.363897 0.771908
0.973602 0.461891 0.755673
0.000000 0.273136 0.741085
0.148165 0.275212 0.742153
0.309117 0.283116 0.745785
0.480140 0.304173 0.754147
0.651911 0.350530 0.765835
0.807889 0.441199 0.781094
0.897917 0.450965 0.778927
0.968780 0.536889 0.768643
0.000000 0.383124 0.741848
0.000000 0.383642 0.742855
0.233707 0.390387 0.747311
0.448646 0.417334 0.757259
0.635798 0.465858 0.770230
0.796689 0.549554 0.787625
0.887205 0.568231 0.788968
0.957305 0.629725 0.784726
0.000000 0.499031 0.720668
0.000000 0.497047 0.719265
0.000000 0.498970 0.724392
0.324315 0.513512 0.742000
0.576989 0.557794 0.762264
0.764584 0.628901 0.783291
0.865599 0.659663 0.790860
0.944579 0.714260 0.801328
0.000000 0.647974 0.746334
0.000000 0.648463 0.746639
0.000000 0.649165 0.747158
0.304082 0.650141 0.748165
0.474434 0.650721 0.749020
0.712978 0.699550 0.780240
0.851164 0.752132 0.803250
0.934356 0.785702 0.818235
0.336461 0.782132 0.783413
0.354742 0.783108 0.784298
0.413153 0.784482 0.785061
0.505577 0.787900 0.787076
0.612299 0.792752 0.789731
0.723201 0.800931 0.794553
0.826902 0.815000 0.803952
0.927550 0.828275 0.811582
0.632624 0.895537 0.851194
0.639490 0.895781 0.851713
0.669368 0.897307 0.854459
0.716732 0.899199 0.858274
0.769039 0.901030 0.861357
0.814176 0.900969 0.859220
0.854063 0.898344 0.849302
0.921843 0.913207 0.846220
0.347204 0.261631 0.865690
0.371130 0.264469 0.866545
0.450538 0.272374 0.866941
0.573449 0.297490 0.870115
0.710414 0.349035 0.874022
0.839109 0.436316 0.877867
0.936248 0.542107 0.881376
0.997620 0.540917 0.876616
0.338750 0.277226 0.862699
0.363165 0.280125 0.863615
0.445045 0.288884 0.864714
0.568353 0.312627 0.867704
0.705684 0.362066 0.871763
0.834928 0.446418 0.875792
0.932616 0.548669 0.879240
0.993988 0.544854 0.874113
0.315923 0.340734 0.860807
0.341314 0.343053 0.861326
0.427893 0.351843 0.862181
0.558526 0.379156 0.866941
0.696895 0.424445 0.870298
0.826047 0.499092 0.873869
0.924651 0.594903 0.878355
0.984955 0.588281 0.873777
0.215671 0.428504 0.857633
0.257786 0.431739 0.858366
0.374792 0.441901 0.859709
0.523919 0.467323 0.863462
0.676143 0.511040 0.867857
0.811704 0.577661 0.872801
0.912688 0.662928 0.879271
0.971191 0.658503 0.876066
0.000000 0.526390 0.846403
0.000000 0.527428 0.847684
0.141665 0.528740 0.850614
0.425818 0.548028 0.856962
0.624079 0.587366 0.862211
0.782223 0.644587 0.869017
0.894316 0.718410 0.878447
0.954925 0.728481 0.878782
0.000000 0.647456 0.841184
0.000000 0.645777 0.840421
0.000000 0.640192 0.838529
0.000000 0.631159 0.836790
0.483711 0.647578 0.849638
0.729397 0.705562 0.865537
0.874998 0.777432 0.881682
0.941558 0.803647 0.888090
0.138216 0.779355 0.859007
0.174075 0.779049 0.858824
0.270146 0.777920 0.858061
0.389776 0.777127 0.857572
0.512840 0.775662 0.856840
0.636133 0.773007 0.856046
0.833433 0.818143 0.878233
0.930297 0.862486 0.897002
0.540307 0.880125 0.883482
0.546502 0.880095 0.883421
0.574395 0.880491 0.883604
0.626642 0.882109 0.884733
0.694148 0.884550 0.886198
0.768185 0.888334 0.888212
0.842832 0.894743 0.891905
0.914580 0.905516 0.899077
