20 Preset/Food Style/【3】LUT video cho PR-AE-FCPX/Food Style Tone (12).cube
# Created by Adobe Lightroom plugin Export LUT (1.24.0)
# www.johnrellis.com/lightroom/exportlut.htm
# Preset: 静谧咖啡-素材江湖08
# Color profile: E:\lut插件\exportlut.1.24\exportlut.lrplugin\color profiles\Rec709gamma2.4.icc
LUT_3D_SIZE 5
DOMAIN_MIN 0.000000 0.000000 0.000000
DOMAIN_MAX 0.903226 0.903226 0.903226
0.181949 0.149477 0.144350
0.262913 0.173190 0.158511
0.453651 0.218906 0.174746
0.738216 0.331121 0.207034
0.957092 0.489052 0.277836
0.195010 0.217044 0.172366
0.256291 0.230137 0.173220
0.457923 0.277226 0.186526
0.735500 0.380438 0.217533
0.960571 0.527916 0.297887
0.178500 0.398260 0.248905
0.231235 0.406592 0.245762
0.464576 0.467048 0.255131
0.756435 0.556634 0.276249
0.954955 0.643000 0.365637
0.000000 0.683070 0.415320
0.071229 0.688380 0.399939
0.448310 0.702113 0.426551
0.732448 0.736843 0.442267
0.941833 0.796597 0.530205
0.499855 0.895476 0.678828
0.512779 0.897185 0.672572
0.608423 0.892485 0.670832
0.775418 0.903136 0.704677
0.924102 0.919951 0.733242
0.196689 0.168124 0.207340
0.264347 0.179171 0.212100
0.420539 0.235966 0.236057
0.683040 0.327825 0.275242
0.923186 0.474311 0.334112
0.212161 0.226535 0.222232
0.271641 0.242832 0.233524
0.435554 0.283604 0.250584
0.692866 0.371588 0.283818
0.926665 0.508690 0.347295
0.215183 0.401831 0.300114
0.268711 0.411749 0.301305
0.454414 0.452949 0.305791
0.729152 0.538201 0.331731
0.940887 0.637110 0.418067
0.180972 0.681910 0.472389
0.249058 0.687892 0.464515
0.463630 0.702144 0.472999
0.730037 0.735042 0.487007
0.935973 0.795377 0.564385
0.535668 0.893034 0.704433
0.545739 0.894469 0.698085
0.636164 0.898711 0.701991
0.785092 0.906737 0.728939
0.927245 0.923796 0.754788
0.194736 0.205600 0.384314
0.271336 0.216159 0.393225
0.477333 0.258793 0.411048
0.696925 0.353094 0.433845
0.887785 0.481209 0.493050
0.224094 0.275120 0.395026
0.281224 0.278538 0.403815
0.482094 0.315587 0.427619
0.687037 0.391394 0.444434
0.893462 0.516899 0.509361
0.210391 0.432898 0.448005
0.283452 0.443091 0.454810
0.502831 0.502586 0.502434
0.705989 0.541894 0.508873
0.909300 0.633692 0.562219
0.216892 0.688563 0.583551
0.313024 0.688655 0.584009
0.529870 0.708339 0.604639
0.733822 0.739467 0.617639
0.921416 0.793210 0.659876
0.480201 0.890532 0.734646
0.536584 0.890745 0.741360
0.666835 0.893797 0.756405
0.786557 0.902434 0.771328
0.922484 0.920317 0.788663
0.143862 0.278447 0.656245
0.270878 0.286839 0.662593
0.531640 0.317632 0.683406
0.768460 0.414130 0.688808
0.916716 0.594079 0.704707
0.170657 0.337835 0.657496
0.278691 0.344244 0.661707
0.524590 0.372137 0.680629
0.759121 0.455390 0.688380
0.908110 0.608942 0.705196
0.183780 0.498207 0.659998
0.276310 0.502495 0.660121
0.502312 0.527428 0.685359
0.742702 0.586358 0.703426
0.892332 0.669429 0.719051
0.265049 0.696559 0.718593
0.340032 0.698360 0.718898
0.535058 0.715541 0.729274
0.762570 0.764096 0.764889
0.904845 0.785122 0.762997
0.426154 0.897032 0.814939
0.475532 0.896910 0.815488
0.627222 0.898375 0.820310
0.806729 0.905455 0.839658
0.923552 0.922484 0.849668
0.338659 0.420569 0.874968
0.411261 0.428443 0.875273
0.611322 0.467567 0.878996
0.828489 0.549279 0.885588
0.956603 0.671870 0.877775
0.335332 0.462623 0.870481
0.407202 0.469947 0.871214
0.603937 0.504021 0.874968
0.819638 0.575433 0.882139
0.951385 0.686427 0.876921
0.304295 0.589349 0.864469
0.383337 0.593805 0.864439
0.578607 0.613062 0.868711
0.794766 0.661006 0.877562
0.940520 0.745449 0.882353
0.312230 0.743832 0.872343
0.368200 0.743160 0.871061
0.535180 0.746609 0.869505
0.762814 0.774655 0.883116
0.934417 0.835447 0.901640
0.481483 0.891814 0.905089
0.515984 0.891966 0.904967
0.637171 0.895567 0.906950
0.787747 0.904387 0.911498
0.933532 0.931518 0.930480
