20 Preset/Food Style/【3】LUT video cho PR-AE-FCPX/Food Style Tone (13).cube
# Created by Adobe Lightroom plugin Export LUT (1.24.0)
# www.johnrellis.com/lightroom/exportlut.htm
# Preset: 静谧咖啡-素材江湖09
# Color profile: E:\lut插件\exportlut.1.24\exportlut.lrplugin\color profiles\Rec709gamma2.4.icc
LUT_3D_SIZE 32
DOMAIN_MIN 0.0 0.0 0.0
DOMAIN_MAX 1.0 1.0 1.0
0.048188 0.067689 0.135317
0.050172 0.067445 0.135317
0.056397 0.068971 0.135470
0.071809 0.072724 0.136019
0.089235 0.077577 0.136721
0.102235 0.081300 0.137819
0.118929 0.085420 0.139040
0.139406 0.089235 0.140078
0.164584 0.091707 0.140963
0.195193 0.093538 0.141817
0.230716 0.095216 0.142275
0.272343 0.094514 0.142763
0.320653 0.090700 0.142885
0.375372 0.079591 0.142641
0.434943 0.043366 0.142000
0.496498 0.000000 0.141024
0.557885 0.000000 0.139803
0.617121 0.000000 0.138277
0.672450 0.000000 0.136355
0.736324 0.000000 0.133913
0.790311 0.088624 0.131624
0.834348 0.150576 0.130068
0.869200 0.197910 0.130556
0.898405 0.240421 0.132662
0.923308 0.279454 0.137057
0.945159 0.315831 0.143893
0.965057 0.350896 0.153902
0.983703 0.385168 0.167147
1.000000 0.418647 0.184848
1.000000 0.451606 0.207187
1.000000 0.484138 0.234775
1.000000 0.516503 0.268620
0.047150 0.068879 0.135531
0.048432 0.069856 0.135470
0.056641 0.071138 0.135653
0.071107 0.073945 0.135988
0.088869 0.078523 0.136934
0.101686 0.082826 0.138003
0.118227 0.086305 0.139010
0.138033 0.089937 0.140047
0.162509 0.092653 0.140932
0.192355 0.094392 0.141817
0.227420 0.095674 0.142336
0.268101 0.095766 0.142855
0.315343 0.092500 0.142855
0.369268 0.084352 0.142672
0.428290 0.053285 0.142123
0.489570 0.008209 0.141238
0.551080 0.000000 0.139925
0.610468 0.000000 0.138521
0.666377 0.000000 0.136690
0.729274 0.000000 0.134432
0.782254 0.076173 0.132143
0.826047 0.141909 0.130556
0.861173 0.188876 0.130343
0.890867 0.230869 0.131991
0.916320 0.269169 0.135592
0.938750 0.305882 0.141390
0.959258 0.341314 0.150301
0.978424 0.376074 0.162692
0.996887 0.410163 0.178988
1.000000 0.443641 0.200534
1.000000 0.476783 0.227390
1.000000 0.509667 0.260197
0.045258 0.076844 0.136019
0.046540 0.077821 0.135988
0.055055 0.078737 0.135897
0.068879 0.080476 0.136721
0.086458 0.084382 0.137636
0.100343 0.087892 0.138735
0.116976 0.090425 0.139681
0.136751 0.093080 0.140780
0.161532 0.095613 0.141421
0.190890 0.098268 0.142245
0.225559 0.100099 0.142733
0.266148 0.100404 0.143008
0.312749 0.098695 0.143191
0.365881 0.093019 0.143069
0.424475 0.076661 0.142489
0.485603 0.035218 0.141604
0.546960 0.000000 0.140261
0.606683 0.000000 0.138888
0.662776 0.000000 0.137057
0.725460 0.000000 0.134615
0.778042 0.093782 0.132631
0.821744 0.147372 0.131044
0.857023 0.191257 0.130678
0.886839 0.231571 0.132418
0.912566 0.268956 0.135531
0.935180 0.304448 0.140871
0.955932 0.339422 0.149447
0.975402 0.374090 0.161318
0.994141 0.408087 0.177188
1.000000 0.441749 0.198154
1.000000 0.474617 0.224491
1.000000 0.507439 0.256840
0.041444 0.088319 0.137392
0.043427 0.088228 0.137392
0.050355 0.088350 0.137606
0.067262 0.089754 0.136965
0.087953 0.091463 0.138369
0.098573 0.094240 0.140352
0.115602 0.096590 0.141085
0.135897 0.099702 0.141634
0.160586 0.102815 0.142428
0.190341 0.105470 0.142977
0.224979 0.107881 0.143404
0.265293 0.109590 0.143587
0.311681 0.109255 0.143648
0.364416 0.106111 0.143435
0.422187 0.098329 0.142794
0.482338 0.084169 0.142123
0.542870 0.050080 0.140749
0.601678 0.017487 0.139406
0.659022 0.009339 0.137575
0.718898 0.056641 0.135470
0.769497 0.114443 0.133303
0.812650 0.156527 0.132082
0.848661 0.195956 0.131533
0.879698 0.234409 0.132784
0.906828 0.271305 0.135561
0.930877 0.307195 0.141176
0.952789 0.342748 0.149905
0.973083 0.377508 0.161837
0.992309 0.411536 0.178042
1.000000 0.444800 0.199161
1.000000 0.476905 0.225193
1.000000 0.508507 0.256321
0.037079 0.097627 0.139742
0.039063 0.097536 0.139742
0.046296 0.097658 0.139681
0.060060 0.098268 0.139590
0.083528 0.100252 0.138857
0.100130 0.103700 0.139986
0.113863 0.105745 0.142367
0.133059 0.109651 0.143252
0.158541 0.113008 0.143557
0.188083 0.116670 0.143984
0.222660 0.120027 0.144289
0.263035 0.122774 0.144564
0.309178 0.124392 0.144472
0.361852 0.123720 0.144289
0.419440 0.119966 0.143709
0.480232 0.113619 0.142702
0.541253 0.105470 0.141543
0.600580 0.098634 0.140078
0.660212 0.099519 0.138277
0.717800 0.117922 0.136141
0.767056 0.146761 0.134493
0.809445 0.180148 0.133333
0.845335 0.214267 0.132784
0.876707 0.249058 0.134188
0.904112 0.284062 0.137575
0.928557 0.318303 0.143099
0.950591 0.352178 0.151919
0.970947 0.385504 0.164370
0.990082 0.418341 0.180575
1.000000 0.450233 0.201480
1.000000 0.481392 0.226871
1.000000 0.511986 0.257603
0.027314 0.109346 0.141939
0.026612 0.109682 0.141909
0.033539 0.109773 0.142092
0.047730 0.109926 0.142245
0.069429 0.112123 0.141726
0.094728 0.115114 0.140322
0.117159 0.121309 0.140993
0.135531 0.123445 0.143374
0.157259 0.128267 0.145480
0.187747 0.132967 0.145693
0.223484 0.137453 0.145754
0.264622 0.141512 0.145998
0.311650 0.144869 0.145785
0.365087 0.146181 0.145480
0.423560 0.145754 0.144839
0.484260 0.143496 0.143679
0.545525 0.140566 0.142489
0.604791 0.139620 0.140963
0.667018 0.145998 0.139223
0.722347 0.161990 0.137118
0.770108 0.185672 0.135683
0.811490 0.214023 0.134707
0.886900 0.293980 0.139315
0.913085 0.325628 0.145418
0.935760 0.356085 0.153719
0.955993 0.385718 0.164797
0.974487 0.414496 0.179049
0.992035 0.442298 0.196109
1.000000 0.469825 0.216983
1.000000 0.496864 0.241520
1.000000 0.523613 0.270054
1.000000 0.549859 0.302342
0.000000 0.129122 0.144625
0.000000 0.129397 0.144381
0.005371 0.129732 0.144320
0.020508 0.130098 0.144656
0.045045 0.131228 0.144656
0.082643 0.135164 0.143343
0.110140 0.140200 0.141512
0.144259 0.151461 0.141146
0.169802 0.153628 0.144045
0.198489 0.159243 0.147005
0.235386 0.165896 0.148379
0.281071 0.171511 0.148074
0.332067 0.175967 0.147524
0.388678 0.178592 0.146853
0.448127 0.180087 0.145876
0.508629 0.180423 0.144808
0.568292 0.181399 0.143221
0.629877 0.185855 0.141726
0.692561 0.198764 0.139986
0.746822 0.218631 0.138613
0.794614 0.243931 0.137606
0.835935 0.273625 0.138186
0.871092 0.305119 0.141451
0.901152 0.337316 0.147494
0.926787 0.368383 0.156344
0.948638 0.397681 0.168063
0.968017 0.424994 0.182345
0.985870 0.451148 0.199161
1.000000 0.477058 0.219272
1.000000 0.502342 0.242893
1.000000 0.527703 0.270237
1.000000 0.552972 0.301427
0.000000 0.152102 0.146822
0.000000 0.152102 0.146609
0.000000 0.152529 0.146517
0.000000 0.153017 0.146609
0.002289 0.153872 0.146822
0.040436 0.156863 0.146242
0.092500 0.162325 0.144259
0.126833 0.168856 0.141817
0.172488 0.185306 0.139590
0.204776 0.187350 0.143221
0.240391 0.193240 0.146914
0.281254 0.201846 0.151034
0.333715 0.207462 0.150179
0.390906 0.212039 0.149325
0.450660 0.215244 0.148287
0.510521 0.217716 0.147158
0.570001 0.220584 0.145754
0.636042 0.229557 0.143893
0.693935 0.242222 0.142580
0.744961 0.259190 0.141817
0.790494 0.280858 0.141634
0.830533 0.306279 0.142794
0.865080 0.333593 0.146578
0.894835 0.362036 0.153262
0.920531 0.389899 0.162692
0.942626 0.416144 0.174624
0.962280 0.441199 0.188937
0.980438 0.465309 0.205478
0.997833 0.489296 0.225650
1.000000 0.513085 0.248905
1.000000 0.536950 0.275669
1.000000 0.560876 0.306126
0.000000 0.181277 0.149233
0.000000 0.181277 0.148836
0.000000 0.181643 0.148745
0.000000 0.182162 0.148775
0.000000 0.183078 0.148928
0.000000 0.184390 0.149142
0.033082 0.189578 0.147311
0.104189 0.196353 0.144472
0.148531 0.204410 0.140841
0.208042 0.226169 0.135805
0.248753 0.228305 0.140414
0.292363 0.234165 0.145266
0.341314 0.242435 0.150332
0.396735 0.250614 0.153017
0.457221 0.255100 0.151888
0.516991 0.258976 0.150576
0.583703 0.266941 0.149172
0.644221 0.276280 0.148013
0.698207 0.288273 0.146975
0.746365 0.303593 0.146883
0.789761 0.322850 0.147341
0.827970 0.344579 0.149691
0.861387 0.368139 0.154513
0.890471 0.392889 0.162203
0.915831 0.417273 0.172427
0.937835 0.440314 0.184909
0.957549 0.462623 0.199374
0.975830 0.484474 0.216434
0.993347 0.506371 0.236515
1.000000 0.528191 0.259373
1.000000 0.550286 0.285710
1.000000 0.572595 0.315496
0.000000 0.216709 0.151522
0.000000 0.216709 0.151095
0.000000 0.216739 0.150668
0.000000 0.217258 0.150881
0.000000 0.217929 0.150820
0.000000 0.218875 0.151034
0.000000 0.221500 0.150576
0.028595 0.228244 0.147311
0.120668 0.236149 0.143526
0.176669 0.244968 0.138216
0.252140 0.271580 0.128450
0.300664 0.273106 0.134707
0.352239 0.278569 0.140688
0.406592 0.286534 0.147707
0.464729 0.298100 0.156069
0.531762 0.307652 0.156039
0.595666 0.316503 0.155215
0.653346 0.325994 0.154299
0.704585 0.337835 0.154116
0.750362 0.351843 0.154696
0.791012 0.368200 0.156344
0.826169 0.385626 0.159884
0.857206 0.404334 0.165194
0.884611 0.423926 0.173159
0.908843 0.443732 0.183230
0.930571 0.463294 0.195254
0.950408 0.482948 0.209934
0.969024 0.502739 0.227024
0.986969 0.522911 0.247105
1.000000 0.543511 0.270085
1.000000 0.564263 0.296300
1.000000 0.585504 0.326238
0.000000 0.255009 0.153597
0.000000 0.255100 0.153140
0.000000 0.255436 0.152407
0.000000 0.256107 0.152560
0.000000 0.256992 0.152590
0.000000 0.258396 0.152804
0.000000 0.260075 0.153048
0.000000 0.265141 0.151003
0.040162 0.273198 0.146181
0.147402 0.282292 0.140169
0.215244 0.291875 0.132387
0.308415 0.323125 0.114687
0.365209 0.323827 0.123690
0.425940 0.331060 0.132509
0.488045 0.341558 0.142947
0.548455 0.354742 0.154971
0.606348 0.368200 0.164981
0.660731 0.377295 0.164584
0.708858 0.387701 0.165164
0.752071 0.399847 0.166537
0.790494 0.413275 0.169100
0.824002 0.427619 0.173526
0.853971 0.443244 0.180117
0.880674 0.459388 0.188876
0.904509 0.476051 0.199741
0.926024 0.492805 0.212528
0.945769 0.509850 0.227451
0.964416 0.527153 0.244480
0.982422 0.545098 0.264408
1.000000 0.563592 0.287266
1.000000 0.582574 0.313054
1.000000 0.602014 0.342199
0.000000 0.300725 0.155612
0.000000 0.300816 0.154971
0.000000 0.301152 0.154025
0.000000 0.301823 0.154116
0.000000 0.302739 0.154269
0.000000 0.304143 0.154330
0.000000 0.306096 0.154726
0.000000 0.308537 0.154971
0.000000 0.316197 0.149905
0.096040 0.325261 0.143008
0.188205 0.334966 0.134127
0.269657 0.347173 0.121645
0.423590 0.411627 0.042786
0.493690 0.415991 0.090761
0.557397 0.422919 0.114717
0.614893 0.433387 0.138338
0.665797 0.446906 0.162295
0.710780 0.463447 0.187655
0.752193 0.474922 0.196780
0.788968 0.484108 0.200687
0.820768 0.493385 0.206302
0.848692 0.502892 0.213504
0.873716 0.513207 0.222538
0.896422 0.524285 0.233097
0.917021 0.535882 0.245060
0.936004 0.547601 0.258244
0.953674 0.559808 0.273167
0.970611 0.572442 0.289372
0.987213 0.585809 0.307774
1.000000 0.600031 0.328985
1.000000 0.615198 0.352972
1.000000 0.631525 0.380468
0.000000 0.362860 0.158755
0.000000 0.362890 0.157992
0.000000 0.362860 0.156222
0.000000 0.362799 0.156313
0.000000 0.362799 0.156497
0.000000 0.363256 0.156558
0.000000 0.364202 0.157076
0.000000 0.365911 0.157321
0.000000 0.370153 0.155612
0.000000 0.382971 0.147433
0.164584 0.397314 0.136599
0.269383 0.412360 0.121187
0.367193 0.427100 0.097566
0.495583 0.466163 0.000000
0.564752 0.471870 0.026215
0.620691 0.477333 0.102632
0.669337 0.485878 0.137514
0.711910 0.496986 0.168978
0.749905 0.510582 0.199374
0.782895 0.523980 0.226200
0.813443 0.530297 0.231113
0.840818 0.537346 0.237949
0.865599 0.545281 0.246433
0.888243 0.554162 0.256321
0.908995 0.563592 0.267582
0.928222 0.573541 0.280400
0.946288 0.584161 0.294560
0.963653 0.595300 0.310521
0.980652 0.607263 0.328649
0.997498 0.620203 0.349432
1.000000 0.634028 0.372778
1.000000 0.648768 0.399359
0.000000 0.413703 0.162539
0.000000 0.413581 0.162020
0.000000 0.413428 0.159426
0.000000 0.414038 0.159579
0.000000 0.414893 0.159670
0.000000 0.416327 0.159915
0.000000 0.418433 0.160464
0.000000 0.421454 0.161074
0.000000 0.425269 0.162081
0.000000 0.433997 0.156680
0.111238 0.445869 0.145937
0.246372 0.458778 0.131350
0.348272 0.471565 0.110018
0.443580 0.483192 0.063935
0.562524 0.517510 0.000000
0.625055 0.523308 0.000000
0.672175 0.526635 0.097475
0.713436 0.532860 0.143008
0.749966 0.541894 0.180789
0.781613 0.552422 0.215824
0.809140 0.564569 0.250462
0.834989 0.573297 0.268620
0.859342 0.579278 0.276310
0.881834 0.586297 0.285679
0.902525 0.593927 0.296391
0.921874 0.602167 0.308415
0.940063 0.610956 0.321996
0.957610 0.620417 0.336858
0.974792 0.630732 0.354253
0.991760 0.642115 0.374243
1.000000 0.654444 0.396612
1.000000 0.667872 0.422156
0.000000 0.475593 0.171176
0.000000 0.475441 0.170199
0.000000 0.475196 0.167117
0.000000 0.474678 0.166537
0.000000 0.474250 0.166842
0.000000 0.474220 0.167147
0.000000 0.474952 0.167544
0.000000 0.476478 0.168185
0.000000 0.479072 0.169284
0.000000 0.482856 0.170352
0.000000 0.492775 0.160464
0.224643 0.503655 0.147860
0.332830 0.514397 0.130770
0.427253 0.524285 0.105806
0.514519 0.532799 0.035157
0.618677 0.562280 0.000000
0.675105 0.568750 0.000000
0.715541 0.570886 0.104280
0.750912 0.575525 0.157168
0.781460 0.582055 0.199405
0.808408 0.590631 0.237675
0.832517 0.601190 0.274815
0.853971 0.613184 0.311254
0.876005 0.618402 0.319432
0.896513 0.624231 0.329015
0.915740 0.630945 0.340215
0.934142 0.638361 0.352758
0.951995 0.646632 0.367590
0.969635 0.655909 0.384558
0.986999 0.666346 0.404456
1.000000 0.677882 0.427070
1.000000 0.690486 0.452613
0.000000 0.528893 0.183749
0.000000 0.529046 0.183017
0.000000 0.528954 0.179843
0.000000 0.529015 0.178683
0.000000 0.528801 0.178805
0.000000 0.529107 0.179446
0.000000 0.530083 0.180331
0.000000 0.531701 0.181338
0.000000 0.533806 0.183139
0.000000 0.536370 0.185122
0.000000 0.540948 0.182925
0.214054 0.548638 0.171756
0.324346 0.556115 0.157534
0.415869 0.562707 0.138827
0.498512 0.568658 0.112520
0.572992 0.573999 0.047944
0.663081 0.600031 0.000000
0.714900 0.607416 0.000000
0.749691 0.608453 0.123232
0.780148 0.611719 0.178073
0.807279 0.617548 0.222446
0.831510 0.625513 0.263523
0.853117 0.635248 0.302831
0.872557 0.646387 0.341436
0.891478 0.655329 0.366552
0.910765 0.660822 0.377081
0.929290 0.667140 0.389166
0.947326 0.674098 0.403113
0.964965 0.681941 0.418860
0.982269 0.690791 0.437079
0.999237 0.700526 0.457679
1.000000 0.711421 0.480781
0.000000 0.575586 0.201633
0.000000 0.575525 0.200992
0.000000 0.575586 0.197848
0.000000 0.575647 0.195834
0.000000 0.575647 0.196353
0.000000 0.575769 0.196902
0.000000 0.576318 0.198032
0.000000 0.577203 0.199344
0.000000 0.578485 0.201114
0.000000 0.579889 0.203372
0.000000 0.581476 0.206363
0.207950 0.586481 0.199557
0.319799 0.592401 0.188113
0.409155 0.597833 0.173800
0.488197 0.602716 0.155215
0.559472 0.607294 0.130617
0.623621 0.611658 0.092958
0.701900 0.634638 0.000000
0.749660 0.643153 0.035584
0.779629 0.643275 0.152255
0.806577 0.646204 0.205722
0.830808 0.651423 0.251133
0.852445 0.658686 0.293645
0.872068 0.667506 0.334203
0.889891 0.677638 0.373663
0.906188 0.688838 0.412543
0.924437 0.695003 0.427375
0.942565 0.700923 0.440162
0.960296 0.707698 0.454994
0.977691 0.715358 0.471901
0.994720 0.724025 0.491035
1.000000 0.733730 0.512566
0.000000 0.619989 0.227024
0.000000 0.620325 0.226352
0.000000 0.642634 0.240177
0.000000 0.642603 0.237217
0.000000 0.642359 0.237705
0.000000 0.642054 0.238102
0.000000 0.641718 0.238956
0.000000 0.641566 0.240421
0.000000 0.641810 0.242222
0.000000 0.642084 0.244938
0.113436 0.642390 0.247959
0.273960 0.643091 0.249973
0.365393 0.646632 0.240055
0.442878 0.649714 0.228122
0.511589 0.652461 0.213626
0.573999 0.654810 0.196353
0.631128 0.656886 0.174319
0.683650 0.659083 0.146395
0.747036 0.676905 0.054505
0.788571 0.684962 0.137362
0.813535 0.683955 0.201022
0.836393 0.685847 0.250828
0.857084 0.689845 0.295109
0.875761 0.695552 0.336919
0.892790 0.702419 0.376593
0.908568 0.710597 0.414771
0.923430 0.719753 0.451820
0.938659 0.728206 0.480415
0.955962 0.733394 0.492866
0.973083 0.739681 0.507652
0.989960 0.747127 0.525017
1.000000 0.755703 0.544762
0.000000 0.666133 0.262272
0.000000 0.668086 0.263279
0.000000 0.670192 0.262425
0.000000 0.672023 0.260716
0.000000 0.673091 0.262486
0.000000 0.673213 0.263615
0.000000 0.672908 0.264469
0.000000 0.672328 0.265446
0.000000 0.672023 0.267247
0.000000 0.671717 0.269474
0.128054 0.671412 0.272282
0.278294 0.671046 0.275731
0.366430 0.671931 0.273136
0.438209 0.674495 0.263310
0.502861 0.676722 0.251774
0.561975 0.678889 0.237980
0.616510 0.680934 0.222080
0.667384 0.683101 0.203098
0.714839 0.685664 0.180728
0.771359 0.701991 0.135897
0.810971 0.711604 0.177188
0.834226 0.711482 0.235050
0.855283 0.713405 0.283635
0.874388 0.717128 0.327855
0.891752 0.722133 0.368994
0.907866 0.728420 0.408392
0.923064 0.735897 0.446418
0.937530 0.744594 0.483711
0.951385 0.754665 0.520409
0.967437 0.761654 0.540276
0.984192 0.768307 0.556298
1.000000 0.776028 0.574517
0.000000 0.697230 0.291417
0.000000 0.699062 0.292790
0.000000 0.700984 0.292607
0.000000 0.702846 0.290654
0.000000 0.703731 0.292699
0.000000 0.703853 0.293950
0.000000 0.703365 0.294652
0.000000 0.702693 0.295811
0.000000 0.701930 0.297368
0.000000 0.701167 0.299290
0.173556 0.700496 0.301854
0.296422 0.699672 0.304814
0.378546 0.698665 0.308171
0.443732 0.700252 0.301579
0.502770 0.702205 0.292149
0.557427 0.704036 0.281071
0.608728 0.705776 0.268193
0.656733 0.707668 0.253544
0.701900 0.709773 0.236973
0.744320 0.712398 0.218235
0.794308 0.726864 0.186618
0.832029 0.737514 0.217288
0.853513 0.737667 0.271061
0.873014 0.739528 0.318334
0.890776 0.742763 0.361517
0.907286 0.747280 0.402411
0.922850 0.753079 0.441291
0.937591 0.760220 0.479255
0.951690 0.768856 0.516899
0.965209 0.778836 0.554314
0.978668 0.789242 0.587823
0.995178 0.796048 0.603845
0.000000 0.726436 0.324041
0.000000 0.727932 0.325719
0.000000 0.729488 0.325414
0.000000 0.730983 0.323186
0.000000 0.731685 0.325017
0.000000 0.731563 0.326177
0.000000 0.731106 0.327092
0.000000 0.730312 0.328008
0.000000 0.729458 0.329442
0.000000 0.728511 0.331304
0.222263 0.727626 0.333745
0.320562 0.726650 0.336614
0.393683 0.725551 0.339605
0.454505 0.725002 0.340612
0.507469 0.726680 0.332982
0.557855 0.728420 0.324041
0.605890 0.730434 0.314397
0.651545 0.732662 0.303624
0.694850 0.735317 0.292027
0.735988 0.738491 0.279637
0.774807 0.742153 0.266087
0.820096 0.756069 0.244572
0.856199 0.767788 0.270146
0.876432 0.768582 0.321965
0.894926 0.770748 0.368658
0.912016 0.774014 0.411963
0.927977 0.778531 0.452644
0.943023 0.784421 0.491920
0.957244 0.791775 0.530602
0.970703 0.800595 0.568750
0.983581 0.810544 0.605341
0.995972 0.821408 0.640131
0.000000 0.761593 0.372717
0.000000 0.762173 0.373144
0.000000 0.762539 0.372137
0.000000 0.762936 0.368719
0.000000 0.762692 0.368261
0.000000 0.762020 0.368658
0.000000 0.761135 0.368902
0.000000 0.760159 0.369604
0.000000 0.759182 0.370825
0.184573 0.758236 0.372808
0.288212 0.757290 0.375189
0.362158 0.756283 0.377874
0.423041 0.755215 0.380835
0.476905 0.754086 0.383978
0.524285 0.754299 0.381537
0.568566 0.755673 0.373816
0.611139 0.757168 0.365454
0.652308 0.758846 0.356207
0.691676 0.760739 0.346288
0.729458 0.763027 0.335393
0.765438 0.765621 0.323644
0.799924 0.768521 0.310979
0.840299 0.780331 0.292363
0.874693 0.791714 0.311284
0.893492 0.791928 0.359838
0.911101 0.793729 0.404822
0.927550 0.796963 0.447181
0.943084 0.801572 0.487922
0.957702 0.807614 0.527459
0.971435 0.815061 0.566400
0.984527 0.823728 0.603540
0.997101 0.833371 0.638788
0.000000 0.785397 0.409125
0.000000 0.785824 0.409583
0.000000 0.786191 0.408515
0.000000 0.786526 0.405615
0.000000 0.786374 0.404700
0.000000 0.785794 0.405127
0.000000 0.785000 0.405463
0.000000 0.784085 0.406195
0.158785 0.783169 0.407507
0.261723 0.782254 0.409277
0.332830 0.781399 0.411444
0.392676 0.780484 0.414160
0.445838 0.779477 0.416815
0.493660 0.778500 0.420142
0.537804 0.777523 0.423499
0.577173 0.778775 0.418067
0.615717 0.780301 0.411322
0.653101 0.781979 0.403998
0.689418 0.783902 0.395880
0.724483 0.786038 0.387121
0.758358 0.788479 0.377905
0.791012 0.791196 0.367712
0.822599 0.794095 0.356725
0.859953 0.804837 0.341314
0.891020 0.812711 0.346654
0.908782 0.812650 0.393286
0.925872 0.814572 0.437476
0.941894 0.817868 0.479652
0.956970 0.822660 0.520439
0.971191 0.828885 0.560510
0.984771 0.836484 0.599023
0.997742 0.845182 0.635370
0.000000 0.811887 0.454444
0.000000 0.812528 0.455451
0.000000 0.812863 0.454841
0.000000 0.812863 0.451728
0.000000 0.812345 0.449317
0.000000 0.811276 0.448554
0.102754 0.809934 0.447761
0.201053 0.808499 0.447150
0.267338 0.807034 0.446998
0.324010 0.805600 0.447364
0.374975 0.804135 0.448005
0.422797 0.802823 0.449439
0.466926 0.801450 0.451148
0.508476 0.800076 0.453040
0.547143 0.798611 0.454994
0.583093 0.797848 0.454841
0.616999 0.798825 0.448066
0.650660 0.800137 0.441199
0.684169 0.801877 0.434180
0.717067 0.804044 0.427314
0.749172 0.806546 0.419928
0.780209 0.809171 0.411902
0.810361 0.811765 0.402350
0.839719 0.814206 0.391608
0.874662 0.823362 0.376471
0.907530 0.833890 0.386419
0.924926 0.834073 0.430121
0.941131 0.835691 0.472541
0.956481 0.838834 0.513756
0.970977 0.843595 0.554376
0.984802 0.849821 0.593530
0.998077 0.857298 0.630884
0.108614 0.830686 0.486183
0.120363 0.831266 0.487129
0.131289 0.831693 0.486824
0.138186 0.831846 0.484688
0.162112 0.831693 0.482551
0.206729 0.831144 0.482673
0.251133 0.830442 0.482979
0.294896 0.829618 0.483406
0.337713 0.828824 0.484291
0.379278 0.828000 0.485634
0.419776 0.827085 0.487129
0.458930 0.826169 0.488899
0.496468 0.825101 0.490883
0.532158 0.823972 0.492775
0.566064 0.822690 0.494667
0.598383 0.821469 0.496864
0.628382 0.821622 0.493721
0.657710 0.822812 0.487587
0.687465 0.824338 0.481605
0.717067 0.826322 0.475532
0.746426 0.828580 0.469398
0.775265 0.831052 0.462745
0.803677 0.833585 0.455421
0.831785 0.836057 0.446815
0.859922 0.838346 0.437140
0.893431 0.846647 0.424384
0.925414 0.856535 0.431830
0.942809 0.857481 0.473945
0.958526 0.859373 0.516258
0.973266 0.862730 0.557671
0.987274 0.867613 0.597040
1.000000 0.873716 0.634424
0.282078 0.852171 0.525048
0.284642 0.852445 0.525505
0.286168 0.852598 0.524773
0.288029 0.852689 0.522881
0.293950 0.852567 0.520378
0.314275 0.851987 0.520348
0.338384 0.851347 0.520348
0.365942 0.850584 0.520684
0.395453 0.849790 0.521416
0.426581 0.848997 0.522454
0.458656 0.848142 0.523766
0.490730 0.847349 0.525353
0.522332 0.846494 0.527214
0.553094 0.845518 0.529076
0.582879 0.844419 0.530907
0.611627 0.843351 0.532799
0.639368 0.842374 0.535027
0.665003 0.843473 0.529625
0.691218 0.844938 0.524285
0.717891 0.846799 0.519249
0.744564 0.848905 0.514092
0.771176 0.851194 0.508415
0.797696 0.853422 0.502007
0.824308 0.855650 0.494728
0.851072 0.857725 0.486427
0.877958 0.859678 0.477028
0.909941 0.866972 0.465339
0.940856 0.876036 0.469612
0.958312 0.877470 0.510246
0.973480 0.879637 0.552819
0.987854 0.883238 0.593317
1.000000 0.888182 0.631800
0.366430 0.871458 0.560510
0.367864 0.871672 0.560906
0.369360 0.871885 0.560510
0.371160 0.872068 0.559014
0.374792 0.872221 0.557031
0.389532 0.872160 0.557946
0.409308 0.872282 0.559777
0.432013 0.872465 0.562127
0.457069 0.872770 0.565148
0.483711 0.873167 0.568597
0.511223 0.873594 0.572503
0.538628 0.873930 0.576379
0.565728 0.874174 0.580194
0.591913 0.874205 0.583734
0.617243 0.873991 0.586847
0.641474 0.873442 0.589349
0.665064 0.872892 0.591943
0.687587 0.873045 0.592035
0.709438 0.874540 0.588006
0.732021 0.876280 0.584039
0.755123 0.878264 0.579980
0.778775 0.880308 0.575555
0.802823 0.882292 0.570367
0.827329 0.884184 0.564446
0.852232 0.885954 0.557671
0.877501 0.887602 0.549889
0.903044 0.889281 0.541405
0.933196 0.895445 0.531243
0.962737 0.903532 0.533165
0.979492 0.905058 0.570733
0.993866 0.907103 0.610376
1.000000 0.910521 0.647974
0.460243 0.897337 0.612238
0.460395 0.897368 0.612116
0.460609 0.897337 0.611292
0.461189 0.897307 0.609827
0.462135 0.897307 0.607477
0.470405 0.896971 0.607385
0.481910 0.896635 0.607782
0.495796 0.896300 0.608453
0.512078 0.896025 0.609644
0.530205 0.895750 0.611017
0.549859 0.895506 0.612879
0.570367 0.895293 0.614893
0.591638 0.895048 0.617090
0.612909 0.894743 0.619287
