20 Preset/Food Style/【3】LUT video cho PR-AE-FCPX/Food Style Tone (7).cube
# Created by Adobe Lightroom plugin Export LUT (1.24.0)
# www.johnrellis.com/lightroom/exportlut.htm
# Preset: 静谧咖啡-素材江湖03
# Color profile: E:\lut插件\exportlut.1.24\exportlut.lrplugin\color profiles\Rec709gamma2.4.icc
LUT_3D_SIZE 32
DOMAIN_MIN 0.0 0.0 0.0
DOMAIN_MAX 1.0 1.0 1.0
0.000000 0.000000 0.000000
0.003265 0.000763 0.000000
0.014435 0.002808 0.001587
0.037385 0.006867 0.002838
0.076783 0.013519 0.005676
0.099672 0.023438 0.009003
0.116793 0.036805 0.013947
0.137728 0.047791 0.017456
0.164279 0.053712 0.020600
0.196170 0.053132 0.023102
0.232639 0.044282 0.028138
0.271489 0.031128 0.029358
0.312474 0.010224 0.030274
0.354498 0.000000 0.030365
0.396521 0.000000 0.030549
0.438483 0.000000 0.028168
0.479591 0.000000 0.026612
0.519860 0.000000 0.025086
0.558434 0.000000 0.025483
0.595911 0.000000 0.025696
0.631342 0.000000 0.027924
0.664546 0.000000 0.034119
0.701503 0.048524 0.045106
0.735592 0.112520 0.063081
0.765957 0.146517 0.082795
0.793606 0.176211 0.096651
0.819608 0.204105 0.109743
0.844663 0.230991 0.123659
0.869017 0.256992 0.137942
0.893095 0.283238 0.153262
0.917479 0.309850 0.169619
0.942290 0.336584 0.187503
0.000519 0.004364 0.001648
0.002533 0.004150 0.001648
0.014008 0.006165 0.002258
0.038941 0.010040 0.003510
0.076326 0.016907 0.006378
0.098878 0.027039 0.009705
0.116213 0.040406 0.013489
0.136995 0.050416 0.017182
0.163333 0.056580 0.021454
0.195010 0.055207 0.024140
0.230686 0.048707 0.027893
0.269718 0.033600 0.029450
0.310094 0.014252 0.030426
0.351904 0.000000 0.031556
0.393866 0.000000 0.029633
0.435706 0.000000 0.028626
0.476967 0.000000 0.026917
0.516991 0.000000 0.025757
0.555840 0.000000 0.026154
0.593347 0.000000 0.026551
0.628626 0.000000 0.026886
0.661769 0.000000 0.033722
0.698207 0.049042 0.043519
0.731807 0.110323 0.059907
0.761929 0.143374 0.081819
0.789548 0.173007 0.095277
0.815549 0.200534 0.107973
0.840757 0.227329 0.120699
0.865293 0.253635 0.135225
0.889616 0.279728 0.150027
0.914122 0.306188 0.166293
0.939117 0.333043 0.184390
0.002136 0.017426 0.006622
0.004120 0.017212 0.006592
0.013184 0.020691 0.005951
0.037720 0.025757 0.005921
0.077394 0.032410 0.007630
0.098238 0.043946 0.011933
0.116152 0.054902 0.014923
0.137545 0.063508 0.018738
0.164248 0.068238 0.022034
0.195438 0.067109 0.025849
0.231266 0.060365 0.028473
0.269566 0.048341 0.029755
0.309697 0.029419 0.030732
0.351141 0.006897 0.031891
0.393042 0.000000 0.030823
0.434730 0.000000 0.028534
0.475593 0.000000 0.027710
0.515618 0.000000 0.025299
0.554406 0.000000 0.024445
0.591821 0.000000 0.026001
0.627192 0.000000 0.028443
0.660273 0.000000 0.033722
0.696742 0.077913 0.044312
0.730098 0.118044 0.061067
0.760037 0.148959 0.080568
0.787381 0.176364 0.095033
0.813321 0.203281 0.107149
0.838560 0.229099 0.120485
0.863188 0.255070 0.134096
0.887633 0.280949 0.149477
0.912139 0.306859 0.165042
0.937102 0.333257 0.182986
0.007568 0.045533 0.017365
0.009552 0.045319 0.017334
0.015076 0.048035 0.018006
0.033539 0.054994 0.015564
0.071687 0.065248 0.014557
0.097749 0.074159 0.015778
0.117220 0.080720 0.019013
0.139528 0.084291 0.021973
0.166812 0.086824 0.024109
0.197848 0.086610 0.027771
0.233463 0.083619 0.028931
0.271733 0.075441 0.031159
0.311040 0.061799 0.031556
0.351934 0.043336 0.031159
0.393194 0.020691 0.031128
0.434089 0.001831 0.028321
0.474647 0.000000 0.026246
0.513970 0.000000 0.025757
0.552697 0.000000 0.024903
0.589563 0.000000 0.026276
0.624720 0.011261 0.029084
0.658656 0.059052 0.034791
0.693996 0.105287 0.044465
0.726802 0.133486 0.059876
0.756954 0.159915 0.080812
0.784878 0.185702 0.094820
0.811368 0.211337 0.107393
0.836973 0.236423 0.121004
0.861906 0.261357 0.134737
0.886442 0.286290 0.149874
0.910918 0.311315 0.165499
0.935576 0.336950 0.182895
0.018982 0.082460 0.034333
0.018982 0.082460 0.034333
0.027222 0.083253 0.035126
0.039155 0.086641 0.033021
0.066407 0.090211 0.029114
0.095155 0.094453 0.025483
0.116060 0.097932 0.026154
0.141176 0.100496 0.026337
0.169741 0.102113 0.028138
0.201480 0.102358 0.030304
0.236210 0.101595 0.031189
0.273625 0.099519 0.031678
0.312505 0.096864 0.031312
0.353033 0.091585 0.031617
0.393896 0.085237 0.029389
0.434272 0.077333 0.026978
0.474922 0.064698 0.026581
0.514183 0.060853 0.024323
0.552422 0.063416 0.025055
0.589166 0.079561 0.025849
0.624170 0.094636 0.030488
0.659144 0.112825 0.037263
0.693599 0.133364 0.046723
0.725917 0.155947 0.064210
0.755795 0.178897 0.084596
0.783597 0.201877 0.096040
0.810025 0.224887 0.108858
0.835569 0.247776 0.122103
0.860472 0.271458 0.136172
0.884855 0.295140 0.150973
0.909178 0.319249 0.166659
0.933715 0.343786 0.183871
0.027131 0.101564 0.051362
0.028107 0.101869 0.052338
0.036072 0.101595 0.052308
0.045411 0.103395 0.052491
0.066011 0.106447 0.048463
0.091402 0.110506 0.042481
0.114443 0.116243 0.035920
0.140475 0.119661 0.034211
0.170901 0.122072 0.032898
0.206088 0.123598 0.031464
0.241978 0.124056 0.031342
0.278965 0.123629 0.032166
0.317601 0.122805 0.031006
0.357397 0.121065 0.030213
0.397620 0.119478 0.028077
0.437659 0.118288 0.024598
0.477607 0.117556 0.024109
0.516716 0.117891 0.024475
0.554620 0.120882 0.025147
0.590875 0.126925 0.025055
0.625299 0.136172 0.030976
0.661707 0.149599 0.039734
0.714870 0.181094 0.063081
0.746853 0.201358 0.085695
0.775692 0.221988 0.099184
0.802487 0.242557 0.111727
0.827695 0.263523 0.125765
0.852049 0.284276 0.139254
0.875669 0.305699 0.154238
0.899107 0.327123 0.169100
0.922484 0.349248 0.184665
0.946136 0.371283 0.201877
0.025910 0.125032 0.070222
0.027893 0.124971 0.070222
0.034546 0.125032 0.072297
0.046021 0.125521 0.072938
0.064485 0.128725 0.068452
0.089662 0.132906 0.062989
0.111055 0.138277 0.053742
0.141390 0.145296 0.041962
0.174014 0.149142 0.038911
0.210605 0.152193 0.035706
0.249821 0.154421 0.032136
0.291539 0.155673 0.027893
0.331243 0.155642 0.026429
0.370489 0.155642 0.024170
0.409674 0.155581 0.023133
0.448951 0.155764 0.021912
0.487770 0.156771 0.021332
0.525780 0.158785 0.021485
0.562615 0.162783 0.024048
0.598444 0.168429 0.026947
0.635981 0.177737 0.035126
0.673487 0.191958 0.047608
0.708461 0.208286 0.068421
0.741024 0.225895 0.089479
0.770809 0.244358 0.100832
0.798032 0.262974 0.114443
0.823423 0.281559 0.127932
0.847684 0.300481 0.141726
0.871366 0.319707 0.155673
0.894621 0.339544 0.169680
0.917967 0.360021 0.185733
0.941619 0.381018 0.201968
0.012940 0.150973 0.085267
0.014923 0.150942 0.085267
0.023163 0.151156 0.085786
0.037995 0.151461 0.087556
0.060548 0.153628 0.086275
0.086824 0.157748 0.081788
0.107668 0.162509 0.074464
0.135164 0.168154 0.061921
0.171298 0.176364 0.045045
0.207492 0.180545 0.039216
0.246921 0.184268 0.034943
0.287907 0.187198 0.029114
0.330632 0.188876 0.024079
0.374060 0.189914 0.018036
0.413184 0.190799 0.017060
0.451453 0.192050 0.017243
0.489479 0.193149 0.017700
0.526696 0.195773 0.019257
0.563226 0.199557 0.022248
0.599664 0.205386 0.028565
0.637781 0.214939 0.038941
0.673457 0.226596 0.055604
0.706935 0.240116 0.078309
0.738491 0.255009 0.093874
0.767514 0.271031 0.106081
0.794430 0.287144 0.119112
0.819760 0.303502 0.131594
0.844022 0.320256 0.144442
0.867613 0.337957 0.159091
0.890990 0.356054 0.173037
0.914336 0.374884 0.188540
0.938079 0.394354 0.204746
0.000000 0.181552 0.096315
0.000000 0.181521 0.096315
0.007172 0.181674 0.096956
0.027283 0.181979 0.097902
0.055451 0.182925 0.098939
0.085603 0.186465 0.095583
0.106691 0.191012 0.091493
0.132784 0.196078 0.085115
0.164736 0.201572 0.072145
0.204379 0.209903 0.050263
0.243107 0.214664 0.038544
0.284123 0.218997 0.032746
0.326543 0.222446 0.026459
0.369604 0.225071 0.020783
0.412665 0.227115 0.015442
0.455512 0.228946 0.009979
0.492653 0.230869 0.012696
0.529351 0.233310 0.017243
0.566155 0.237522 0.021546
0.604273 0.244266 0.032349
0.639979 0.252689 0.046479
0.673915 0.262486 0.065034
0.706325 0.273686 0.086824
0.736843 0.286839 0.099306
0.765255 0.300237 0.112032
0.791684 0.314092 0.124758
0.816831 0.328557 0.137606
0.841001 0.343572 0.150668
0.864622 0.359258 0.163607
0.887907 0.375708 0.178042
0.911284 0.393042 0.193088
0.934997 0.411109 0.209567
0.000000 0.215305 0.109346
0.000000 0.215396 0.109285
0.000000 0.215244 0.109285
0.015442 0.215702 0.110597
0.053803 0.215824 0.112245
0.089113 0.217899 0.110658
0.109651 0.221775 0.106600
0.134859 0.226169 0.101076
0.163668 0.231327 0.094362
0.197086 0.236790 0.084291
0.236759 0.243076 0.059693
0.278630 0.249363 0.041016
0.320562 0.254276 0.034363
0.362951 0.258213 0.027649
0.406195 0.261967 0.022736
0.449073 0.264897 0.018769
0.491463 0.268406 0.015747
0.534508 0.272679 0.014862
0.572595 0.277714 0.026429
0.608545 0.283696 0.038605
0.642481 0.290562 0.060700
0.674434 0.298405 0.080812
0.705074 0.307500 0.094514
0.734066 0.317967 0.105776
0.761288 0.329168 0.117647
0.787259 0.340673 0.129885
0.812100 0.353399 0.142153
0.836332 0.366888 0.154940
0.860105 0.381170 0.168765
0.883696 0.396307 0.183261
0.907408 0.412268 0.198520
0.931579 0.429084 0.214298
0.000000 0.249546 0.124941
0.000000 0.249638 0.125185
0.000000 0.249699 0.125643
0.019104 0.250004 0.126711
0.064973 0.250309 0.128237
0.099184 0.251194 0.129732
0.117556 0.254490 0.125399
0.140475 0.258549 0.120027
0.167117 0.263005 0.113588
0.198062 0.267826 0.105867
0.232639 0.272953 0.095674
0.271427 0.277836 0.080140
0.315007 0.284977 0.049073
0.357275 0.290227 0.043793
0.399939 0.295048 0.038666
0.443397 0.300114 0.034394
0.488075 0.305699 0.036561
0.531273 0.311040 0.035584
0.572992 0.316655 0.040803
0.611353 0.322271 0.049836
0.643702 0.327672 0.073854
0.674281 0.334325 0.091920
0.704036 0.342107 0.101472
0.732265 0.350805 0.113527
0.759030 0.360235 0.126101
0.784573 0.370397 0.138399
0.809262 0.381476 0.150301
0.833402 0.393286 0.163210
0.857145 0.405951 0.176486
0.880827 0.419745 0.190066
0.904601 0.434272 0.205142
0.928862 0.449470 0.221683
0.000000 0.285618 0.144137
0.000000 0.285679 0.144076
0.010163 0.285863 0.144839
0.043122 0.286168 0.145937
0.088075 0.286381 0.147585
0.111452 0.286900 0.149905
0.131044 0.289250 0.148196
0.151522 0.292821 0.143252
0.175570 0.296605 0.137087
0.203586 0.300938 0.130220
0.235080 0.305547 0.120821
0.270207 0.310063 0.109712
0.317784 0.322576 0.098421
0.364355 0.331548 0.077821
0.409674 0.339483 0.074586
0.454780 0.346441 0.078798
0.499001 0.352789 0.082063
0.541527 0.358923 0.086336
0.582300 0.364813 0.091035
0.620935 0.371069 0.096101
0.657252 0.377417 0.101869
0.689662 0.383642 0.111391
0.717372 0.389746 0.122805
0.743709 0.396643 0.134249
0.768856 0.404120 0.146670
0.793149 0.412299 0.157839
0.816587 0.421210 0.169436
0.839475 0.430671 0.181704
0.862181 0.440925 0.194675
0.885069 0.452125 0.207858
0.908202 0.464454 0.222171
0.932036 0.477852 0.237949
0.045014 0.327398 0.169619
0.046693 0.327398 0.169802
0.065553 0.327337 0.169924
0.092256 0.327031 0.170962
0.110384 0.327031 0.172335
0.131533 0.327245 0.174411
0.152132 0.327855 0.175418
0.169650 0.330541 0.170626
0.190951 0.333898 0.164889
0.215915 0.337865 0.158572
0.246220 0.343847 0.151308
0.280674 0.350286 0.143252
0.318517 0.356786 0.132845
0.359472 0.362737 0.118929
0.404364 0.370886 0.100526
0.447730 0.377661 0.100069
0.490303 0.384253 0.102449
0.531456 0.390082 0.105348
0.571283 0.395880 0.110170
0.608820 0.401495 0.114504
0.644343 0.407324 0.120180
0.678340 0.413886 0.126314
0.710628 0.420569 0.134218
0.738888 0.427070 0.143740
0.763882 0.433112 0.154788
0.788174 0.440131 0.166903
0.811795 0.447852 0.178103
0.834928 0.456275 0.190005
0.857969 0.465339 0.202792
0.881041 0.475807 0.216312
0.904540 0.486854 0.230838
0.928557 0.499184 0.246677
0.099977 0.362860 0.193484
0.101656 0.362768 0.193210
0.108064 0.362646 0.193637
0.118563 0.362829 0.194675
0.134096 0.363043 0.196139
0.152499 0.363531 0.198184
0.173007 0.364355 0.201114
0.190768 0.366857 0.199466
0.209537 0.370489 0.194491
0.232578 0.374914 0.188998
0.259129 0.379797 0.182589
0.289525 0.385199 0.175814
0.323125 0.390631 0.166476
0.359777 0.395666 0.155215
0.398138 0.400031 0.142061
0.441169 0.407111 0.123415
0.480781 0.412024 0.120668
0.520958 0.418189 0.123201
0.559686 0.423987 0.127840
0.596612 0.429725 0.132479
0.632074 0.435431 0.137972
0.666041 0.441962 0.143740
0.698421 0.448493 0.150271
0.729335 0.455238 0.158480
0.758541 0.462348 0.167086
0.784451 0.468788 0.177340
0.808103 0.475380 0.188846
0.831266 0.482582 0.200565
0.854398 0.490791 0.213748
0.877714 0.500008 0.226902
0.901366 0.510216 0.241123
0.925750 0.521508 0.256168
0.138247 0.403510 0.222568
0.139101 0.403479 0.222568
0.143496 0.403326 0.222812
0.151675 0.403021 0.223301
0.164096 0.402747 0.224796
0.178866 0.402625 0.225925
0.197391 0.402869 0.228733
0.215213 0.403815 0.229740
0.231479 0.406683 0.225193
0.250889 0.410101 0.220188
0.274388 0.414008 0.214054
0.301061 0.418555 0.207767
0.331121 0.423072 0.199557
0.363256 0.427436 0.190005
0.397833 0.431098 0.178714
0.433448 0.433997 0.164309
0.474708 0.440497 0.145785
0.510307 0.443610 0.141848
0.548516 0.449683 0.145174
0.585046 0.455543 0.149508
0.620081 0.461433 0.154604
0.654139 0.467994 0.160098
0.686641 0.474525 0.167178
0.717525 0.481117 0.174380
0.747280 0.487800 0.183200
0.775937 0.494881 0.191867
0.803799 0.502373 0.201755
0.828275 0.509331 0.213138
0.851713 0.516838 0.226047
0.875486 0.525414 0.239414
0.899718 0.535119 0.254276
0.924590 0.545983 0.270451
0.172854 0.439765 0.250431
0.173800 0.439826 0.250492
0.177249 0.439704 0.250706
0.184298 0.439612 0.251347
0.193637 0.439460 0.252293
0.207187 0.439521 0.254093
0.222812 0.439979 0.256779
0.241093 0.440650 0.259800
0.256413 0.442786 0.257542
0.273503 0.445472 0.252415
0.293400 0.448585 0.247318
0.316411 0.451759 0.240299
0.342016 0.454994 0.232792
0.370062 0.458015 0.223941
0.400214 0.460609 0.213260
0.431952 0.462684 0.200504
0.465187 0.464454 0.186801
0.504417 0.470588 0.168246
0.536431 0.472084 0.161898
0.572869 0.478370 0.165988
0.607904 0.484932 0.171298
0.642359 0.491798 0.177401
0.675257 0.498634 0.183352
0.706600 0.505364 0.191226
0.736660 0.512200 0.199344
0.765927 0.519310 0.208438
0.794247 0.526757 0.218204
0.822019 0.534569 0.228824
0.849271 0.542931 0.240269
0.873533 0.550805 0.253635
0.897765 0.559472 0.267308
0.922667 0.569329 0.283116
0.205570 0.472999 0.277409
0.206241 0.472969 0.277501
0.209171 0.472877 0.277775
0.214481 0.472908 0.278477
0.223239 0.472786 0.279454
0.234409 0.472908 0.280888
0.248356 0.473152 0.283207
0.264469 0.473610 0.286290
0.280949 0.474678 0.287236
0.295171 0.476844 0.282780
0.312627 0.479255 0.277501
0.332341 0.481819 0.271244
0.354589 0.484443 0.264347
0.379278 0.486915 0.255985
0.405890 0.489052 0.246586
0.434333 0.490791 0.235599
0.464179 0.492073 0.223239
0.495216 0.493263 0.209506
0.531640 0.498299 0.192111
0.561791 0.499397 0.182284
0.596887 0.506371 0.187533
0.631312 0.513664 0.192996
0.664179 0.520897 0.200107
0.695857 0.527825 0.207645
0.726314 0.534752 0.215824
0.755825 0.542077 0.225284
0.784695 0.549615 0.234989
0.812894 0.557488 0.245365
0.840726 0.565789 0.256962
0.868467 0.574731 0.269505
0.896483 0.584283 0.282628
0.921630 0.593500 0.298070
0.238895 0.505089 0.305486
0.239597 0.505180 0.305608
0.253208 0.515190 0.315282
0.257969 0.515190 0.316045
0.264988 0.515068 0.317052
0.274266 0.515038 0.318242
0.286320 0.514977 0.320012
0.300542 0.515129 0.322606
0.316564 0.515587 0.325902
0.329961 0.517082 0.322911
0.344610 0.518730 0.317754
0.361242 0.520623 0.311894
0.380377 0.522240 0.305028
0.401312 0.523644 0.296849
0.424323 0.524773 0.287572
0.448920 0.525628 0.277348
0.474891 0.525994 0.265232
0.501884 0.526268 0.252354
0.530083 0.526329 0.238285
0.562280 0.529198 0.221622
0.591089 0.530480 0.207370
0.625055 0.537743 0.212802
0.657465 0.544884 0.219791
0.688746 0.551720 0.227085
0.718837 0.558343 0.234928
0.748043 0.565209 0.244083
0.776577 0.572259 0.252811
0.804623 0.579675 0.263035
0.832486 0.587823 0.274357
0.860502 0.596582 0.286748
0.888853 0.606073 0.300206
0.917754 0.616205 0.314427
0.275181 0.537987 0.336339
0.276585 0.538903 0.336950
0.280034 0.539788 0.338354
0.284581 0.540612 0.339788
0.291844 0.541192 0.341344
0.300389 0.541405 0.342931
0.310735 0.541466 0.344640
0.323125 0.541497 0.346807
0.337652 0.541650 0.349462
0.351690 0.542321 0.350317
0.364141 0.543755 0.345495
0.378698 0.545220 0.340429
0.395209 0.546471 0.333715
0.413306 0.547723 0.326299
0.433600 0.548791 0.318120
0.455573 0.549554 0.308537
0.478859 0.550225 0.298222
0.503471 0.550652 0.286595
0.529381 0.550958 0.274266
0.556176 0.551263 0.260441
0.585657 0.553307 0.245060
0.615320 0.556420 0.230259
0.646723 0.562890 0.234379
0.678218 0.570123 0.241855
0.708339 0.577111 0.249943
0.737819 0.584222 0.258885
0.766506 0.591516 0.267826
0.794949 0.599115 0.278416
0.823178 0.607294 0.289525
0.851621 0.616205 0.301762
0.880400 0.625849 0.315526
0.909850 0.636133 0.329778
0.305333 0.564599 0.362066
0.307500 0.565393 0.363043
0.310155 0.566369 0.364202
0.314519 0.567254 0.365667
0.320684 0.567864 0.367285
0.328038 0.568109 0.368719
0.337377 0.568139 0.370489
0.348333 0.568139 0.372351
0.361303 0.568261 0.374884
0.375280 0.568566 0.377966
0.386725 0.569421 0.374517
0.399176 0.570672 0.369482
0.413397 0.571771 0.363561
0.429328 0.572839 0.356909
0.447150 0.573785 0.349493
0.466346 0.574578 0.340826
0.487129 0.575128 0.331243
0.509148 0.575616 0.320592
0.532616 0.575830 0.309300
0.557061 0.576196 0.297124
0.582208 0.576501 0.284001
0.609033 0.577447 0.269596
0.639124 0.582025 0.254856
0.668025 0.587182 0.256291
0.698360 0.594568 0.264439
0.728084 0.602045 0.273289
0.757015 0.609613 0.282628
0.785641 0.617426 0.293126
0.814145 0.625910 0.304204
0.842985 0.634943 0.316777
0.872221 0.644831 0.330724
0.902159 0.655360 0.345525
0.336278 0.590967 0.388708
0.337865 0.591760 0.389654
0.340520 0.592554 0.390906
0.344305 0.593286 0.392126
0.349584 0.593805 0.393591
0.356054 0.594018 0.394903
0.364172 0.594079 0.396246
0.373877 0.594079 0.398230
0.385473 0.594171 0.400702
0.397955 0.594354 0.403418
0.410498 0.594812 0.403906
0.420966 0.595758 0.399145
0.433326 0.596643 0.393896
0.447150 0.597498 0.387457
0.462623 0.598383 0.380804
0.479469 0.599145 0.373144
0.498085 0.599939 0.364782
0.518181 0.600671 0.355657
0.539605 0.601495 0.345861
0.562280 0.602289 0.335271
0.586023 0.603113 0.324071
0.610498 0.603906 0.311864
0.635431 0.604486 0.298253
0.666163 0.610529 0.284215
0.693111 0.614862 0.283787
0.723232 0.623133 0.293278
0.752651 0.631373 0.303471
0.781735 0.639796 0.314397
0.810758 0.648768 0.326818
0.840055 0.658381 0.339696
0.869932 0.668696 0.354192
0.900511 0.679591 0.369360
0.373999 0.621057 0.421790
0.374792 0.621363 0.422400
0.376410 0.621546 0.422766
0.378851 0.621729 0.423499
0.382971 0.621729 0.424231
0.388251 0.621637 0.425269
0.395026 0.621485 0.426398
0.403357 0.621454 0.427863
0.413367 0.621363 0.429908
0.424903 0.621576 0.432593
0.437537 0.621851 0.435828
0.447028 0.622583 0.432410
0.457252 0.623316 0.427375
0.469215 0.624079 0.421729
0.482338 0.624720 0.415351
0.497108 0.625299 0.408392
0.513054 0.625910 0.400397
0.530724 0.626429 0.391974
0.549523 0.626917 0.382635
0.569604 0.627466 0.372808
0.590723 0.627893 0.362066
0.612818 0.628290 0.350469
0.635554 0.628565 0.337835
0.658869 0.628748 0.324407
0.688899 0.635065 0.310399
0.714168 0.638331 0.306554
0.743832 0.647150 0.316960
0.773251 0.656184 0.328466
0.802731 0.665583 0.340703
0.832425 0.675624 0.354009
0.862608 0.686305 0.368872
0.893584 0.697627 0.384375
0.403967 0.645258 0.449531
0.404486 0.645472 0.449989
0.405951 0.645716 0.450416
0.408362 0.645808 0.450935
0.411872 0.645838 0.451728
0.416541 0.645808 0.452552
0.422675 0.645686 0.453651
0.429755 0.645686 0.455177
0.438697 0.645624 0.457008
0.448951 0.645808 0.459571
0.460121 0.646082 0.462470
0.470436 0.646571 0.462684
0.479286 0.647272 0.458167
0.489540 0.648005 0.453285
0.500938 0.648676 0.447425
0.513848 0.649317 0.441260
0.527947 0.650019 0.434089
0.543572 0.650660 0.426612
0.560449 0.651270 0.418280
0.578546 0.651820 0.409186
0.597803 0.652430 0.399481
0.618158 0.652979 0.389319
0.639216 0.653468 0.378027
0.661036 0.653895 0.365881
0.680903 0.651637 0.349004
0.710567 0.658442 0.335119
0.734432 0.661006 0.328374
0.764157 0.670588 0.340185
0.793881 0.680568 0.352667
0.824063 0.691127 0.366522
0.854917 0.702449 0.381537
0.886534 0.714443 0.397833
0.437201 0.671778 0.480781
0.437903 0.672206 0.481422
0.439124 0.672389 0.481910
0.440925 0.672297 0.482124
0.443397 0.672053 0.482368
0.447089 0.671626 0.482734
0.451728 0.671199 0.483131
0.457588 0.670771 0.483986
0.464851 0.670375 0.485145
0.473304 0.670130 0.486946
0.482795 0.669978 0.489082
0.493416 0.669978 0.491493
0.501061 0.670314 0.487678
0.509300 0.670649 0.482643
0.518791 0.670954 0.477241
0.529625 0.671260 0.470954
0.541680 0.671595 0.464149
0.555291 0.672145 0.457099
0.570336 0.672724 0.449256
0.586786 0.673487 0.441505
0.604395 0.674311 0.433021
0.622950 0.675044 0.423560
0.642359 0.675563 0.413306
0.662470 0.675837 0.402106
0.683070 0.675868 0.389380
0.704128 0.675776 0.375982
0.733425 0.682734 0.361852
0.756069 0.684688 0.351690
0.785916 0.695033 0.364233
0.816281 0.706081 0.378119
0.847410 0.717861 0.393347
0.879545 0.730465 0.410132
0.463478 0.693874 0.506126
0.464271 0.694240 0.506584
0.465522 0.694484 0.507103
0.467231 0.694545 0.507591
0.469795 0.694453 0.508080
0.473213 0.694362 0.508751
0.477790 0.694301 0.509636
0.483558 0.694209 0.510796
0.490333 0.694270 0.512291
0.498299 0.694362 0.514275
0.507286 0.694484 0.516533
0.517052 0.694667 0.519066
0.525719 0.694942 0.518944
0.532799 0.695338 0.514366
0.540948 0.695674 0.509514
0.550134 0.695949 0.503807
0.560571 0.696284 0.497688
0.572381 0.696712 0.491249
0.585565 0.697292 0.484321
0.600092 0.698116 0.477119
0.615961 0.698909 0.469306
0.632837 0.699763 0.461097
0.650721 0.700435 0.451698
0.669429 0.701076 0.441596
0.688746 0.701503 0.430518
0.708797 0.701808 0.418585
0.729427 0.701991 0.405341
0.757382 0.708583 0.392645
0.782315 0.712978 0.383124
0.812009 0.723445 0.393988
0.843626 0.735958 0.409613
0.876280 0.749264 0.426764
0.493202 0.718227 0.534234
0.493660 0.718471 0.534539
0.494423 0.718593 0.534844
0.495888 0.718563 0.535149
0.497993 0.718471 0.535454
0.501122 0.718349 0.536065
0.505150 0.718196 0.536706
0.510002 0.718135 0.537774
0.516075 0.718105 0.539117
0.523125 0.718135 0.540764
0.531243 0.718257 0.542809
0.540093 0.718441 0.545190
0.549645 0.718685 0.547753
0.555932 0.719081 0.544060
0.562890 0.719417 0.539513
0.570825 0.719783 0.534539
0.579797 0.720150 0.529137
0.590021 0.720607 0.523125
0.601678 0.721248 0.516991
0.614557 0.722103 0.510430
0.628748 0.723049 0.503624
0.644007 0.723995 0.496193
0.660304 0.724788 0.487861
0.677485 0.725551 0.478828
0.695460 0.726192 0.469032
0.714137 0.726650 0.458076
0.733577 0.727108 0.446296
0.753719 0.727443 0.433570
0.780667 0.733547 0.421180
0.808103 0.740719 0.413153
0.838254 0.751492 0.421790
0.871672 0.765774 0.439582
0.520775 0.742000 0.560357
0.521172 0.742184 0.560510
0.521965 0.742336 0.560876
0.523217 0.742428 0.561273
0.525414 0.742519 0.561791
0.528527 0.742733 0.562554
0.532738 0.743160 0.563989
0.538079 0.743771 0.565667
0.544427 0.744472 0.567773
0.551720 0.745388 0.570306
0.560021 0.746365 0.573175
0.568841 0.747341 0.576074
0.578454 0.748318 0.579187
0.586481 0.749264 0.579553
0.593072 0.750118 0.576287
0.600275 0.750790 0.572259
0.608362 0.751339 0.567834
0.617365 0.752010 0.562890
0.627588 0.752834 0.557641
0.639033 0.753780 0.552209
0.651575 0.754910 0.546227
0.665309 0.756008 0.539910
0.679988 0.756985 0.532586
0.695583 0.757961 0.524804
0.712062 0.758846 0.516045
0.729427 0.759548 0.506371
0.747646 0.760281 0.496101
0.766781 0.761013 0.484901
0.786770 0.761776 0.473030
0.812894 0.767514 0.461707
0.843656 0.777920 0.455940
0.875242 0.789761 0.462989
0.554711 0.772488 0.592279
0.554864 0.772488 0.592279
0.555413 0.772457 0.592401
0.556420 0.772366 0.592584
0.558129 0.772335 0.592859
0.560479 0.772305 0.593347
0.563745 0.772366 0.594049
0.567956 0.772457 0.594995
0.573053 0.772702 0.596307
0.578973 0.773007 0.597864
0.585748 0.773465 0.599786
0.593317 0.773953 0.601923
0.601587 0.774502 0.604303
0.610407 0.775021 0.606775
