20 Preset/Food Style/【3】LUT video cho PR-AE-FCPX/Food Style Tone (2).cube
# Created by Adobe Lightroom plugin Export LUT (1.24.0)
# www.johnrellis.com/lightroom/exportlut.htm
# Preset: 静谧咖啡-素材江湖13
# Color profile: E:\lut插件\exportlut.1.24\exportlut.lrplugin\color profiles\Rec709gamma2.4.icc
LUT_3D_SIZE 5
DOMAIN_MIN 0.000000 0.000000 0.000000
DOMAIN_MAX 0.903226 0.903226 0.903226
0.181765 0.146120 0.163882
0.214969 0.153292 0.167300
0.362646 0.168002 0.169894
0.626398 0.184726 0.169192
0.907744 0.258396 0.167880
0.186984 0.187808 0.177737
0.210239 0.194125 0.175601
0.401617 0.227695 0.167269
0.665400 0.256168 0.163577
0.926879 0.327611 0.163790
0.204440 0.369055 0.229129
0.244938 0.368475 0.229679
0.389258 0.403449 0.209323
0.746151 0.500008 0.139528
0.971588 0.527855 0.153017
0.337713 0.645991 0.352667
0.376593 0.645533 0.354681
0.493538 0.655238 0.346288
0.680507 0.680385 0.311864
0.949279 0.751156 0.311833
0.642664 0.864866 0.610834
0.656733 0.864591 0.612726
0.702480 0.861540 0.611597
0.784237 0.873075 0.604913
0.897307 0.886809 0.590478
0.182040 0.158999 0.202548
0.211154 0.162600 0.205203
0.358618 0.161166 0.211398
0.596765 0.187076 0.228641
0.880491 0.247074 0.237461
0.188510 0.199374 0.212924
0.221256 0.207523 0.221164
0.379278 0.223606 0.225772
0.634333 0.248966 0.231113
0.900420 0.313695 0.238926
0.221805 0.383062 0.278019
0.262882 0.382361 0.279149
0.395941 0.405646 0.265843
0.743160 0.488991 0.236576
0.959350 0.521477 0.255680
0.362982 0.652979 0.400732
0.399298 0.652735 0.402808
0.509209 0.658778 0.399207
0.685603 0.682856 0.369696
0.948241 0.751095 0.378393
0.653559 0.865690 0.633845
0.666560 0.865324 0.635187
0.717708 0.864836 0.643030
0.791623 0.875181 0.634943
0.899535 0.889128 0.621576
0.138216 0.200137 0.373907
0.211307 0.207462 0.379248
0.395850 0.225376 0.397467
0.670314 0.225345 0.418799
0.895018 0.189364 0.394995
0.177493 0.268681 0.386084
0.226108 0.263249 0.393225
0.410437 0.281132 0.409918
0.669764 0.283055 0.422278
0.890257 0.262394 0.396887
0.214939 0.418799 0.419196
0.276127 0.424842 0.425299
0.457862 0.452338 0.454597
0.687404 0.461128 0.445106
0.912383 0.498268 0.450050
0.438087 0.676417 0.543145
0.473396 0.676570 0.547143
0.565820 0.676753 0.550256
0.707912 0.696193 0.536584
0.946929 0.752407 0.555657
0.682948 0.869230 0.703243
0.694545 0.869230 0.704494
0.738338 0.868925 0.709346
0.804501 0.874907 0.708736
0.900359 0.889372 0.696254
0.000000 0.308965 0.643519
0.209964 0.316197 0.647089
0.468910 0.344915 0.660853
0.711604 0.387488 0.680354
0.918944 0.445930 0.688319
0.173922 0.378027 0.647059
0.244633 0.370581 0.650843
0.480446 0.395636 0.663050
0.712520 0.436164 0.681849
0.915923 0.489601 0.692195
0.247776 0.520531 0.647059
0.315831 0.523217 0.649653
0.508598 0.535546 0.672755
0.722713 0.574334 0.693751
0.913878 0.614069 0.710048
0.436713 0.698878 0.688380
0.471534 0.699733 0.689937
0.588800 0.707027 0.700099
0.751369 0.726284 0.724086
0.910277 0.719936 0.702815
0.710262 0.878752 0.792782
0.722438 0.879149 0.794400
0.769131 0.881437 0.801785
0.829709 0.882506 0.805905
0.907317 0.894835 0.797940
0.430640 0.541131 0.868894
0.475532 0.547021 0.869047
0.615167 0.572595 0.870634
0.781003 0.621027 0.873808
0.914672 0.667140 0.879149
0.465797 0.578363 0.866972
0.498726 0.579858 0.867613
0.626459 0.601221 0.869383
0.783963 0.644129 0.873014
0.913207 0.685969 0.879118
0.530083 0.674861 0.862882
0.567926 0.680232 0.863615
0.654566 0.682490 0.868467
0.793515 0.713344 0.873594
0.912016 0.746975 0.882628
0.579339 0.779019 0.865751
0.597009 0.778775 0.865721
0.664698 0.778988 0.866850
0.798245 0.793881 0.879667
0.917418 0.828794 0.894896
0.712215 0.893156 0.886809
0.722896 0.893370 0.887297
0.766110 0.895201 0.890349
0.836851 0.899535 0.896696
0.925292 0.910826 0.910246
