20 Preset/Food Style/【3】LUT video cho PR-AE-FCPX/Food Style Tone (7).cube
# Created by Adobe Lightroom plugin Export LUT (1.24.0)
# www.johnrellis.com/lightroom/exportlut.htm
# Preset: 静谧咖啡-素材江湖03
# Color profile: E:\lut插件\exportlut.1.24\exportlut.lrplugin\color profiles\Rec709gamma2.4.icc
LUT_3D_SIZE 5
DOMAIN_MIN 0.000000 0.000000 0.000000
DOMAIN_MAX 0.903226 0.903226 0.903226
0.000000 0.000000 0.000000
0.137728 0.047791 0.017456
0.396521 0.000000 0.030549
0.664546 0.000000 0.034119
0.869017 0.256992 0.137942
0.012940 0.150973 0.085267
0.135164 0.168154 0.061921
0.413184 0.190799 0.017060
0.673457 0.226596 0.055604
0.867613 0.337957 0.159091
0.138247 0.403510 0.222568
0.215213 0.403815 0.229740
0.397833 0.431098 0.178714
0.654139 0.467994 0.160098
0.851713 0.516838 0.226047
0.373999 0.621057 0.421790
0.403357 0.621454 0.427863
0.482338 0.624720 0.415351
0.612818 0.628290 0.350469
0.802731 0.665583 0.340703
0.581842 0.799496 0.617884
0.594415 0.800046 0.620844
0.633082 0.796750 0.624079
0.695491 0.806638 0.598718
0.804685 0.818265 0.551354
0.033631 0.065858 0.156039
0.153964 0.083528 0.158572
0.397681 0.112001 0.183536
0.656031 0.180179 0.224918
0.848814 0.298192 0.269657
0.015320 0.183902 0.181979
0.176394 0.201572 0.191562
0.415534 0.225162 0.204868
0.660548 0.270268 0.234531
0.846983 0.358556 0.279545
0.201999 0.419226 0.294408
0.261723 0.419898 0.302037
0.408606 0.435187 0.271214
0.650538 0.472602 0.271855
0.842557 0.523766 0.325292
0.398260 0.625544 0.460273
0.425422 0.626368 0.466102
0.499550 0.629084 0.463478
0.616754 0.631586 0.403601
0.802762 0.669001 0.397711
0.587060 0.801022 0.630243
0.599145 0.801358 0.632898
0.646265 0.804440 0.645167
0.703395 0.812039 0.620569
0.809812 0.823606 0.575097
0.000000 0.132204 0.415412
0.181491 0.144991 0.414191
0.415869 0.179049 0.414405
0.648768 0.239780 0.419104
0.824643 0.387182 0.496498
0.112001 0.246189 0.438544
0.225376 0.251072 0.435218
0.433234 0.272496 0.433722
0.650141 0.325444 0.444587
0.822080 0.441993 0.518914
0.234348 0.459113 0.476570
0.303960 0.465400 0.480293
0.480751 0.493965 0.500206
0.657954 0.512993 0.509117
0.824063 0.551263 0.531121
0.459907 0.641382 0.566400
0.485481 0.641535 0.569787
0.551171 0.646387 0.578729
0.636042 0.649134 0.546715
0.809842 0.684413 0.549310
0.593194 0.805539 0.667262
0.606409 0.806546 0.670008
0.654719 0.809995 0.680659
0.715114 0.816190 0.674891
0.811185 0.824582 0.629908
0.227939 0.241459 0.632776
0.299168 0.250278 0.632288
0.467994 0.277012 0.625605
0.637781 0.319707 0.621210
0.800595 0.399390 0.627497
0.276616 0.320714 0.639490
0.330510 0.324529 0.637476
0.478584 0.339330 0.629603
0.637293 0.370672 0.623896
0.799313 0.437995 0.631678
0.329198 0.493141 0.657801
0.376074 0.496315 0.657954
0.510399 0.508324 0.653590
0.648768 0.521538 0.647364
0.806607 0.558099 0.656672
0.463386 0.656489 0.674647
0.484749 0.657710 0.674983
0.562768 0.666865 0.680293
0.684779 0.690822 0.695918
0.833524 0.705867 0.701564
0.600366 0.818296 0.740932
0.613031 0.819455 0.741787
0.665034 0.825620 0.747311
0.744320 0.835294 0.757626
0.827054 0.837583 0.720607
0.490486 0.417884 0.815610
0.516167 0.422095 0.814450
0.601282 0.437171 0.808957
0.713802 0.462776 0.798672
0.830320 0.497749 0.794217
0.499275 0.461982 0.817594
0.523033 0.464668 0.816403
0.604425 0.475074 0.811276
0.714900 0.493874 0.801389
0.830686 0.522271 0.796780
0.510277 0.576287 0.826139
0.532280 0.577111 0.825345
0.608667 0.579950 0.820951
0.716518 0.585077 0.812039
0.832975 0.595789 0.805936
0.528710 0.711788 0.842985
0.543084 0.711971 0.843687
0.599847 0.709194 0.844450
0.712734 0.703426 0.837217
0.843687 0.704585 0.827146
0.611749 0.850889 0.865354
0.622522 0.852079 0.866117
0.665339 0.855772 0.867857
0.751705 0.866636 0.874205
0.895537 0.897032 0.895964
