20 Preset/Food Style/【3】LUT video cho PR-AE-FCPX/Food Style Tone (6).cube
# Created by Adobe Lightroom plugin Export LUT (1.24.0)
# www.johnrellis.com/lightroom/exportlut.htm
# Preset: 静谧咖啡-素材江湖02
# Color profile: E:\lut插件\exportlut.1.24\exportlut.lrplugin\color profiles\Rec709gamma2.4.icc
LUT_3D_SIZE 8
DOMAIN_MIN 0.000000 0.000000 0.000000
DOMAIN_MAX 0.903226 0.903226 0.903226
0.035737 0.087953 0.080812
0.093721 0.092348 0.081025
0.184848 0.102510 0.080079
0.334325 0.100984 0.069154
0.542718 0.013519 0.023407
0.754665 0.028504 0.000000
0.920073 0.226658 0.000000
1.000000 0.356847 0.000000
0.020935 0.117037 0.093385
0.080568 0.118410 0.093507
0.184176 0.130220 0.088441
0.333379 0.134157 0.078035
0.539208 0.118929 0.029328
0.749142 0.138582 0.000000
0.909575 0.250278 0.000000
1.000000 0.369238 0.000000
0.000000 0.206729 0.122560
0.000000 0.209689 0.122225
0.161837 0.211856 0.121767
0.352270 0.242710 0.102235
0.569512 0.258183 0.038239
0.772091 0.297826 0.000000
0.921965 0.373602 0.000000
1.000000 0.453407 0.000000
0.000000 0.366308 0.180545
0.000000 0.368353 0.179782
0.000000 0.376440 0.178134
0.334325 0.380102 0.177737
0.592828 0.436957 0.143160
0.799435 0.487648 0.003662
0.925170 0.522210 0.000000
1.000000 0.563256 0.000000
0.000000 0.563714 0.266209
0.000000 0.565179 0.266026
0.000000 0.573175 0.266819
0.351354 0.575128 0.265721
0.558862 0.562554 0.259251
0.759579 0.607141 0.238499
0.905638 0.646509 0.223270
1.000000 0.677852 0.228367
0.000000 0.725002 0.391150
0.000000 0.728573 0.395178
0.198947 0.731228 0.397772
0.421576 0.736599 0.403571
0.601831 0.725277 0.396735
0.740108 0.713802 0.388952
0.877714 0.744137 0.397833
0.979583 0.772549 0.420111
0.390204 0.839139 0.557641
0.408118 0.839780 0.559380
0.465583 0.840269 0.561700
0.555657 0.841978 0.567956
0.659022 0.840360 0.570092
0.763638 0.832181 0.563012
0.855650 0.824918 0.556023
0.948211 0.843961 0.577050
0.637049 0.920256 0.726070
0.642084 0.920317 0.726528
0.663478 0.920897 0.729152
0.702358 0.922393 0.734890
0.745541 0.921233 0.733883
0.808103 0.919768 0.735683
0.872313 0.916869 0.734127
0.933410 0.913878 0.730953
0.028931 0.093416 0.112856
0.092775 0.095003 0.113191
0.181491 0.105653 0.110231
0.324010 0.116213 0.113588
0.528679 0.087953 0.103395
0.739345 0.088533 0.042420
0.901549 0.217685 0.000000
1.000000 0.345434 0.000000
0.016419 0.120729 0.119417
0.084138 0.124758 0.120790
0.182223 0.135714 0.120607
0.329534 0.143862 0.118013
0.533318 0.134768 0.106569
0.740658 0.151492 0.044282
0.897795 0.246952 0.000000
1.000000 0.360998 0.000000
0.000000 0.209079 0.157168
0.000000 0.213046 0.152987
0.167666 0.217014 0.152255
0.352178 0.246250 0.140230
0.560723 0.260014 0.121187
0.756954 0.293431 0.065309
0.904814 0.360327 0.000000
1.000000 0.442054 0.000000
0.000000 0.361852 0.215457
0.000000 0.365026 0.206027
0.026612 0.376013 0.205600
0.329198 0.374121 0.202945
0.572961 0.423590 0.177615
0.778103 0.470680 0.129488
0.908293 0.506249 0.082002
1.000000 0.551690 0.000000
0.000000 0.559655 0.293034
0.000000 0.560937 0.286870
0.000000 0.567437 0.286656
0.348516 0.568658 0.284611
0.549554 0.554406 0.276555
0.749905 0.599298 0.258427
0.898619 0.640101 0.246159
1.000000 0.671870 0.250401
0.000000 0.719326 0.403479
0.000000 0.720272 0.403113
0.197513 0.723445 0.406165
0.418280 0.729885 0.412665
0.597192 0.720760 0.407691
0.736446 0.710750 0.401495
0.874083 0.741329 0.409400
0.976379 0.769711 0.429633
0.386542 0.834836 0.560327
0.399939 0.834501 0.559808
0.458228 0.834928 0.561913
0.550317 0.837247 0.569024
0.655879 0.837369 0.574395
0.760342 0.829252 0.567102
0.851713 0.821164 0.558038
0.944793 0.840238 0.576806
0.632746 0.917784 0.725154
0.639155 0.918242 0.726619
0.660426 0.918791 0.729000
0.699763 0.920378 0.734890
0.750607 0.922576 0.742519
0.809689 0.920378 0.741909
0.872007 0.916564 0.737819
0.932769 0.913481 0.734096
0.000000 0.108064 0.199283
0.014801 0.109773 0.199863
0.183047 0.111513 0.204562
0.351141 0.099825 0.189914
0.535729 0.080720 0.197879
0.744015 0.118074 0.200381
0.903655 0.236454 0.189242
1.000000 0.356725 0.164340
0.000000 0.137240 0.209689
0.014160 0.138888 0.210941
0.186618 0.141909 0.213474
0.348882 0.139803 0.200687
0.537987 0.140902 0.206363
0.742977 0.172915 0.206302
0.899870 0.263096 0.191318
1.000000 0.372442 0.166781
0.000000 0.222660 0.236179
0.000000 0.226017 0.237308
0.187259 0.238254 0.241978
0.360235 0.253300 0.239780
0.567437 0.269596 0.235477
0.759670 0.304448 0.225864
0.904448 0.369177 0.210086
1.000000 0.447059 0.192660
0.000000 0.370825 0.292210
0.000000 0.375341 0.295506
0.156680 0.390997 0.295232
0.359472 0.395300 0.293858
0.596338 0.441382 0.284062
0.779568 0.476204 0.270207
0.908476 0.512596 0.259098
1.000000 0.557183 0.253758
0.000000 0.561212 0.382483
0.000000 0.563134 0.383764
0.109804 0.573022 0.368627
0.383673 0.582422 0.371435
0.570794 0.569360 0.362463
0.759182 0.610407 0.353124
0.900786 0.647639 0.351415
0.996643 0.674678 0.357000
0.218875 0.715236 0.492287
0.243442 0.716823 0.490211
0.282841 0.722744 0.469368
0.449989 0.728695 0.475502
0.607477 0.723995 0.472969
0.739437 0.714229 0.465309
0.872923 0.744869 0.474159
0.973846 0.773922 0.495399
0.476020 0.831937 0.620783
0.476997 0.832303 0.616571
0.495003 0.834226 0.605310
0.573846 0.836240 0.610803
0.667506 0.838865 0.618189
0.765194 0.831418 0.610895
0.852995 0.824643 0.602991
0.944182 0.844755 0.620600
0.657954 0.915923 0.751675
0.658442 0.916167 0.749569
0.669917 0.917479 0.746700
0.708736 0.919677 0.753353
0.757229 0.922057 0.760494
0.813809 0.921508 0.762387
0.873747 0.917967 0.758083
0.932769 0.914916 0.753384
0.000000 0.128511 0.332799
0.000000 0.130465 0.334600
0.135622 0.135866 0.336461
0.347051 0.121736 0.347326
0.592157 0.000000 0.327947
0.758968 0.000000 0.317479
0.892943 0.182681 0.326299
1.000000 0.335607 0.330602
0.000000 0.159243 0.346258
0.000000 0.160861 0.346654
0.148135 0.164462 0.346929
0.355779 0.155428 0.355779
0.594659 0.095155 0.336339
0.758145 0.077729 0.324651
0.892973 0.228183 0.332952
1.000000 0.358648 0.336004
0.000000 0.246281 0.369512
0.000000 0.249302 0.370855
0.163577 0.256748 0.374762
0.373663 0.257603 0.378515
0.595789 0.257694 0.363958
0.755703 0.287175 0.364019
0.901152 0.364782 0.367254
1.000000 0.445655 0.364599
0.000000 0.392157 0.409522
0.000000 0.394507 0.410224
0.168826 0.404883 0.414038
0.398413 0.423377 0.422461
0.600000 0.440436 0.418097
0.767178 0.468177 0.413153
0.897642 0.507805 0.409277
0.998169 0.554955 0.407172
0.000000 0.567926 0.474952
0.000000 0.569238 0.476295
0.261662 0.576715 0.484077
0.439490 0.593591 0.490425
0.599420 0.591302 0.486610
0.772305 0.627497 0.486213
0.898039 0.654688 0.487953
0.988190 0.677089 0.487556
0.282292 0.718654 0.569848
0.318029 0.721523 0.573816
0.413825 0.723781 0.578759
0.509270 0.732357 0.574243
0.635126 0.736751 0.579400
0.749386 0.725307 0.566674
0.873136 0.754330 0.575250
0.969665 0.782101 0.593744
0.511101 0.829831 0.676051
0.524987 0.830198 0.678096
0.576074 0.831205 0.685664
0.612207 0.836912 0.676051
0.691646 0.841703 0.684688
0.775357 0.837217 0.679774
0.854582 0.829679 0.668635
0.942351 0.850401 0.682124
0.686763 0.914824 0.789487
0.693355 0.914855 0.790921
0.710109 0.915801 0.791958
0.723384 0.919341 0.784207
0.768399 0.921935 0.790311
0.820127 0.923644 0.794858
0.876310 0.920195 0.789731
0.933074 0.917479 0.784482
0.000000 0.160952 0.492103
0.000000 0.162844 0.493416
0.000000 0.167330 0.494148
0.317388 0.162356 0.495033
0.568536 0.106630 0.513359
0.801572 0.000000 0.502800
0.921019 0.155581 0.477424
1.000000 0.284825 0.469764
0.000000 0.190127 0.502159
0.000000 0.191440 0.503319
0.000000 0.194186 0.503166
0.328099 0.189670 0.501701
0.574304 0.155276 0.518639
0.802945 0.115511 0.506950
0.918761 0.206485 0.482002
1.000000 0.310857 0.474464
0.000000 0.279850 0.523827
0.000000 0.280461 0.524895
0.086000 0.283757 0.526177
0.356451 0.283024 0.524315
0.587579 0.277043 0.534478
0.797757 0.288212 0.518212
0.906401 0.330694 0.497902
0.992462 0.404944 0.498329
0.000000 0.417212 0.551690
0.000000 0.419074 0.552331
0.127779 0.426764 0.555932
0.393500 0.436652 0.561791
0.605951 0.441047 0.565972
0.779263 0.458900 0.548638
0.886503 0.477760 0.534447
0.983581 0.536736 0.540002
0.000000 0.576928 0.589227
0.000000 0.578363 0.590082
0.234440 0.583307 0.592859
0.445747 0.592676 0.598444
0.620142 0.607477 0.607080
0.762051 0.619318 0.601801
0.879179 0.638727 0.597681
0.974304 0.664546 0.595087
0.269535 0.710201 0.638666
0.301854 0.710872 0.639521
0.398657 0.712520 0.642542
0.527245 0.717952 0.651667
0.648219 0.730861 0.662715
0.753719 0.731502 0.662379
0.872160 0.761624 0.672511
0.963470 0.784024 0.681727
0.492470 0.826413 0.722316
0.503380 0.826169 0.722469
0.548425 0.826535 0.724788
0.631250 0.829465 0.735012
0.704646 0.836973 0.739742
0.781308 0.840879 0.744717
0.853971 0.832395 0.731899
0.939696 0.853544 0.740963
0.641718 0.912902 0.801450
0.649744 0.912810 0.802548
0.681666 0.912779 0.807645
0.738155 0.914641 0.820340
0.773648 0.919432 0.819638
0.824430 0.923949 0.827268
0.877226 0.921538 0.823209
0.931579 0.917967 0.815702
0.000000 0.206577 0.654444
0.000000 0.207736 0.654963
0.000000 0.209445 0.653803
0.328588 0.204868 0.654505
0.549523 0.182620 0.652399
0.766537 0.161105 0.672602
0.928038 0.241428 0.660365
1.000000 0.354192 0.638819
0.000000 0.230747 0.655482
0.000000 0.231327 0.655268
0.000000 0.232364 0.654597
0.332952 0.228244 0.653681
0.548974 0.210941 0.651270
0.763333 0.200778 0.671290
0.924315 0.270878 0.659419
1.000000 0.371160 0.638788
0.000000 0.317327 0.674556
0.000000 0.316869 0.674861
0.000000 0.320470 0.674250
0.363806 0.317327 0.669734
0.567071 0.310674 0.666011
0.767575 0.321599 0.682338
0.919982 0.381292 0.669276
1.000000 0.448219 0.650813
0.000000 0.455573 0.693263
0.000000 0.456062 0.693172
0.141848 0.459266 0.695064
0.407233 0.464210 0.698665
0.593744 0.463661 0.695247
0.772580 0.479133 0.705043
0.912413 0.526085 0.692073
0.989990 0.557183 0.676234
0.000000 0.595331 0.710933
0.000000 0.595941 0.711177
0.249638 0.598718 0.712520
0.444373 0.604791 0.715908
0.611749 0.613092 0.719661
0.763546 0.619776 0.723140
0.884489 0.640467 0.710994
0.965026 0.648280 0.696773
0.267063 0.718410 0.737789
0.300542 0.719692 0.739071
0.394934 0.721248 0.740108
0.519738 0.724941 0.742519
0.646815 0.731807 0.746822
0.767605 0.746487 0.757137
0.867887 0.756558 0.754543
0.954376 0.770047 0.751675
0.485878 0.826139 0.784482
0.499550 0.826688 0.785306
0.545922 0.827237 0.786465
0.621607 0.828885 0.789303
0.708705 0.833677 0.797238
0.791928 0.843473 0.806973
0.859281 0.840940 0.801907
0.942962 0.862974 0.809964
0.626215 0.912261 0.838560
0.631769 0.912108 0.838560
0.656611 0.912261 0.839719
0.703151 0.913603 0.843473
0.768795 0.915892 0.851713
0.828702 0.921782 0.859525
0.880980 0.925444 0.863645
0.932097 0.920653 0.854429
0.000000 0.267247 0.792691
0.000000 0.268162 0.793515
0.000000 0.268070 0.792447
0.377081 0.264134 0.791348
0.575982 0.254337 0.788296
0.738705 0.247684 0.783505
0.901457 0.293645 0.800320
1.000000 0.401129 0.778592
0.000000 0.286473 0.790311
0.000000 0.287572 0.791348
0.000000 0.287053 0.790463
0.376043 0.282780 0.788449
0.572198 0.273899 0.785000
0.732998 0.267033 0.779416
0.894896 0.307927 0.795285
0.996948 0.406531 0.773648
0.000000 0.366735 0.799893
0.000000 0.366735 0.799680
0.133883 0.365667 0.797910
0.397833 0.363012 0.795468
0.580560 0.358251 0.791043
0.735744 0.356847 0.785855
0.892912 0.398383 0.801755
0.992920 0.483223 0.783474
0.000000 0.489265 0.810147
0.000000 0.488350 0.809628
0.202670 0.487098 0.808988
0.427344 0.490547 0.807950
0.593347 0.488106 0.803891
0.739803 0.488624 0.799557
0.886198 0.522362 0.812192
0.982361 0.586023 0.796902
0.000000 0.614008 0.816556
0.000000 0.613001 0.815732
0.273594 0.612177 0.814969
0.442603 0.612360 0.815549
0.604852 0.618463 0.815030
0.736446 0.615900 0.810452
0.870848 0.635950 0.818967
0.971008 0.683925 0.812711
0.291447 0.727169 0.828977
0.316014 0.727504 0.829191
0.397375 0.728267 0.829496
0.510094 0.730037 0.830228
0.630213 0.733303 0.831266
0.750942 0.741543 0.834226
0.864134 0.750240 0.838468
0.954742 0.769802 0.831540
0.472663 0.824155 0.849607
0.485298 0.824704 0.850156
0.528252 0.825284 0.850462
0.600519 0.826993 0.851530
0.686854 0.829984 0.852995
0.777340 0.836210 0.856199
0.865324 0.848508 0.863767
0.941253 0.855650 0.860777
0.608484 0.911254 0.883421
0.615503 0.911406 0.883635
0.644678 0.912383 0.884916
0.692103 0.913146 0.885985
0.753384 0.914488 0.887602
0.819944 0.918456 0.892760
0.885618 0.926970 0.901427
0.935119 0.925444 0.897093
0.000000 0.364263 0.901793
0.151125 0.364996 0.901976
0.313970 0.363622 0.900481
0.475685 0.363745 0.899321
0.625574 0.364691 0.897002
0.759670 0.368872 0.893370
0.877165 0.381018 0.889189
0.994537 0.450385 0.898741
0.000000 0.379065 0.900114
0.156344 0.379675 0.900359
0.316258 0.378973 0.899382
0.474647 0.378363 0.897948
0.623224 0.378759 0.895659
0.756924 0.382177 0.891997
0.873899 0.391669 0.887358
0.991363 0.457404 0.896727
0.141939 0.442695 0.900755
0.199802 0.442786 0.900664
0.332097 0.441382 0.899443
0.482795 0.443305 0.899260
0.623774 0.442329 0.896391
0.753109 0.442847 0.892210
0.868711 0.449012 0.887816
0.984710 0.506401 0.896788
0.151583 0.532006 0.902525
0.210941 0.532891 0.902647
0.343969 0.535058 0.901976
0.491463 0.540093 0.900603
0.624475 0.539178 0.898405
0.748775 0.538476 0.894957
0.861295 0.540978 0.890990
0.974365 0.586481 0.899077
0.184237 0.634394 0.904509
0.226352 0.634272 0.904692
0.330388 0.631098 0.904112
0.482673 0.634730 0.903258
0.624994 0.642145 0.900877
0.740810 0.638849 0.897704
0.849760 0.637842 0.894347
0.961395 0.670680 0.902312
0.334325 0.739406 0.908751
0.349004 0.738582 0.908324
0.407568 0.736355 0.907256
0.501793 0.734005 0.906432
0.612757 0.731716 0.906065
0.741970 0.741665 0.906065
0.844602 0.742580 0.904814
0.950591 0.763668 0.911559
0.482155 0.832731 0.918608
0.490883 0.832578 0.918456
0.526024 0.832029 0.918029
0.589044 0.831998 0.917845
0.668666 0.832517 0.917723
0.755886 0.834440 0.918120
0.848905 0.840360 0.919280
0.939818 0.846860 0.921111
0.608545 0.910063 0.932372
0.613672 0.910033 0.932280
0.636103 0.910185 0.932250
0.678370 0.911162 0.932677
0.734646 0.912718 0.933135
0.799374 0.915312 0.933715
0.868559 0.920165 0.935180
0.939117 0.930083 0.939849
