20 Preset/Food Style/【3】LUT video cho PR-AE-FCPX/Food Style Tone (12).cube
# Created by Adobe Lightroom plugin Export LUT (1.24.0)
# www.johnrellis.com/lightroom/exportlut.htm
# Preset: 静谧咖啡-素材江湖08
# Color profile: E:\lut插件\exportlut.1.24\exportlut.lrplugin\color profiles\Rec709gamma2.4.icc
LUT_3D_SIZE 8
DOMAIN_MIN 0.000000 0.000000 0.000000
DOMAIN_MAX 0.903226 0.903226 0.903226
0.181949 0.149477 0.144350
0.208194 0.159274 0.151339
0.284672 0.177890 0.160128
0.389044 0.201419 0.168490
0.523857 0.240757 0.182254
0.696986 0.309789 0.201389
0.842069 0.395789 0.228183
0.957092 0.489052 0.277836
0.189944 0.172580 0.155703
0.208499 0.177218 0.156435
0.282780 0.193698 0.162112
0.382330 0.215183 0.170626
0.513481 0.252567 0.184451
0.674861 0.313573 0.202029
0.820127 0.392615 0.225559
0.943694 0.485451 0.272160
0.197513 0.234806 0.180209
0.208988 0.237522 0.179568
0.275059 0.251347 0.180880
0.392920 0.280400 0.185794
0.535149 0.319280 0.197879
0.695338 0.378790 0.215183
0.843839 0.456855 0.245975
0.957702 0.537285 0.301579
0.196292 0.334020 0.222202
0.201968 0.335760 0.217411
0.262669 0.344366 0.222782
0.389563 0.382757 0.225315
0.572320 0.445808 0.231998
0.731228 0.497841 0.246830
0.857511 0.547753 0.282139
0.958556 0.605371 0.341711
0.131411 0.476326 0.284062
0.137362 0.478309 0.277440
0.232853 0.487617 0.280156
0.367285 0.511437 0.289220
0.537957 0.545678 0.289494
0.714717 0.597253 0.299718
0.848234 0.639094 0.336522
0.954376 0.688167 0.401343
0.000000 0.636561 0.377691
0.000000 0.644221 0.376593
0.169863 0.649592 0.370855
0.359655 0.658412 0.386114
0.527214 0.676783 0.394171
0.696284 0.702663 0.404547
0.849058 0.744564 0.440284
0.945495 0.777310 0.505516
0.195926 0.783688 0.516777
0.210300 0.785702 0.514519
0.268254 0.787900 0.503075
0.418006 0.790494 0.516503
0.553765 0.794491 0.533257
0.695369 0.807553 0.545037
0.825467 0.823514 0.563561
0.933440 0.851438 0.605005
0.499855 0.895476 0.678828
0.502861 0.895842 0.676967
0.517967 0.897978 0.670527
0.589227 0.899809 0.681117
0.655177 0.893980 0.680720
0.751186 0.900633 0.700313
0.843870 0.910552 0.717494
0.924102 0.919951 0.733242
0.190433 0.158480 0.166720
0.210788 0.161715 0.167788
0.273014 0.181399 0.177737
0.366247 0.209079 0.191440
0.497566 0.245823 0.205844
0.655604 0.301518 0.223026
0.802335 0.376715 0.244175
0.929534 0.468727 0.284306
0.192996 0.176089 0.171023
0.213077 0.180606 0.173831
0.274784 0.197757 0.183047
0.368627 0.221683 0.193759
0.498238 0.258091 0.207736
0.652277 0.311833 0.224125
0.794247 0.382116 0.243748
0.921324 0.470069 0.281773
0.210025 0.236332 0.197513
0.222934 0.239506 0.198215
0.276829 0.251804 0.199466
0.384222 0.278965 0.205814
0.516045 0.314366 0.218021
0.665980 0.366308 0.233921
0.807706 0.434119 0.257176
0.932616 0.516167 0.303166
0.214664 0.328496 0.237736
0.222049 0.330846 0.234653
0.268101 0.340215 0.235966
0.378698 0.369085 0.237278
0.537926 0.418830 0.243412
0.691829 0.468544 0.255589
0.822019 0.519463 0.283665
0.935424 0.582635 0.335637
0.175509 0.471809 0.302495
0.179843 0.472816 0.295903
0.241581 0.480049 0.290349
0.363226 0.497993 0.297948
0.521324 0.527611 0.296513
0.694453 0.579522 0.306065
0.831601 0.624414 0.339666
0.941985 0.674983 0.398871
0.000000 0.625818 0.388708
0.000000 0.627863 0.383490
0.177127 0.634577 0.371923
0.355016 0.645319 0.387549
0.518334 0.665553 0.397498
0.687953 0.694759 0.410163
0.840787 0.737118 0.443641
0.938811 0.769955 0.503716
0.206088 0.773556 0.518059
0.210361 0.773007 0.512413
0.246525 0.775631 0.495521
0.404273 0.779660 0.509972
0.544915 0.786526 0.531029
0.686793 0.800259 0.542229
0.816464 0.815213 0.557153
0.926207 0.843198 0.595422
0.490242 0.889555 0.675196
0.496834 0.890867 0.675257
0.511162 0.892912 0.668238
0.578729 0.895323 0.676387
0.666438 0.897520 0.693080
0.754177 0.901610 0.707149
0.842771 0.909545 0.719509
0.922911 0.918883 0.734524
0.197910 0.171969 0.226017
0.217594 0.174075 0.228428
0.286717 0.187930 0.231601
0.375006 0.221592 0.240909
0.489143 0.260227 0.262974
0.648646 0.317815 0.290776
0.798367 0.392737 0.319127
0.927245 0.483406 0.361547
0.207980 0.194736 0.228824
0.223728 0.196170 0.231266
0.286839 0.207797 0.236210
0.370611 0.235264 0.245426
0.489784 0.272435 0.266636
0.643519 0.326970 0.291691
0.791104 0.397101 0.316991
0.921141 0.485451 0.358434
0.218204 0.247593 0.244175
0.234012 0.251133 0.246464
0.296117 0.269657 0.260014
0.383154 0.288304 0.266331
0.513787 0.326360 0.284001
0.661830 0.377752 0.304356
0.802304 0.443671 0.330236
0.925841 0.523400 0.374212
0.223545 0.341619 0.284550
0.240696 0.345220 0.287388
0.298070 0.360235 0.295354
0.396612 0.385626 0.300389
0.547234 0.430426 0.312871
0.691829 0.476020 0.331060
0.820981 0.528344 0.360235
0.932647 0.591547 0.408057
0.200015 0.481422 0.354864
0.223301 0.483497 0.356420
0.287053 0.494087 0.356756
0.384222 0.511437 0.361639
0.536522 0.541833 0.363836
0.698482 0.586877 0.376593
0.830472 0.629572 0.408118
0.936584 0.678676 0.461707
0.160739 0.630091 0.443244
0.199954 0.632258 0.445411
0.270787 0.638636 0.439124
0.378912 0.648676 0.437720
0.525566 0.665949 0.449836
0.687617 0.694667 0.462684
0.835813 0.736721 0.495308
0.934936 0.772854 0.550713
0.300450 0.776974 0.567712
0.322850 0.776211 0.568261
0.353429 0.777432 0.556634
0.432624 0.781857 0.550195
0.559411 0.787411 0.568505
0.692775 0.801724 0.580743
0.819760 0.819089 0.597528
0.926879 0.848295 0.634852
0.531273 0.888273 0.704555
0.534813 0.888060 0.702937
0.546471 0.890013 0.696254
0.591119 0.895140 0.695613
0.674678 0.897337 0.710536
0.760189 0.902342 0.726894
0.845823 0.911009 0.738796
0.923919 0.920531 0.752224
0.198917 0.190768 0.319249
0.219211 0.193942 0.322850
0.294896 0.205051 0.331853
0.400488 0.231052 0.336553
0.528862 0.283360 0.353002
0.642756 0.318059 0.366003
0.768063 0.388190 0.399390
0.900420 0.479011 0.445106
0.211612 0.215122 0.324712
0.229740 0.217594 0.327062
0.298833 0.226383 0.336187
0.403601 0.248844 0.343114
0.529808 0.298192 0.359289
0.640497 0.329442 0.369818
0.768948 0.399054 0.403235
0.900359 0.487343 0.448157
0.225895 0.273564 0.333074
0.241398 0.276707 0.334813
0.300359 0.285008 0.347601
0.407843 0.305913 0.360876
0.526238 0.346593 0.376715
0.647578 0.389166 0.399115
0.791501 0.457435 0.433845
0.913237 0.534386 0.474800
0.222904 0.360967 0.368017
0.240635 0.363897 0.369940
0.306737 0.378973 0.381109
0.427192 0.417914 0.413184
0.541741 0.437079 0.414984
0.671351 0.475746 0.430915
0.800687 0.528557 0.457618
0.916503 0.594171 0.499062
0.195041 0.503014 0.439796
0.222446 0.504570 0.440894
0.310948 0.515221 0.449592
0.431434 0.540673 0.468482
0.560754 0.566125 0.473671
0.704768 0.600549 0.486030
0.826658 0.638697 0.511437
0.925780 0.684169 0.550744
0.202182 0.649073 0.524315
0.238071 0.654902 0.530114
0.333837 0.658839 0.534417
0.448890 0.670649 0.541863
0.557977 0.683589 0.548302
0.699367 0.706325 0.555169
0.833310 0.742672 0.579706
0.929961 0.778592 0.620722
0.312718 0.782681 0.618097
0.337621 0.783536 0.620172
0.419867 0.785519 0.627436
0.508598 0.791012 0.631220
0.595911 0.797452 0.634241
0.708644 0.808408 0.645594
0.823789 0.824002 0.656336
0.925170 0.852537 0.686793
0.524498 0.893889 0.731319
0.537224 0.893645 0.732753
0.586175 0.893156 0.739620
0.635767 0.895537 0.741238
0.690791 0.899168 0.742336
0.768887 0.903258 0.757992
0.849638 0.912627 0.768246
0.925872 0.923400 0.781033
0.184085 0.223148 0.458595
0.209720 0.226291 0.462348
0.295720 0.236057 0.470619
0.428656 0.251347 0.489662
0.564019 0.293370 0.496101
0.704128 0.378668 0.512871
0.795590 0.421668 0.515038
0.883482 0.487037 0.540795
0.197421 0.245579 0.463111
0.220066 0.248203 0.467079
0.300938 0.256291 0.475532
0.430213 0.270359 0.493263
0.565026 0.309514 0.500023
0.702327 0.391211 0.516045
0.793423 0.431159 0.517754
0.880095 0.496712 0.545159
0.218448 0.310765 0.470405
0.236515 0.311894 0.473091
0.303868 0.315770 0.483040
0.428321 0.331670 0.502159
0.562554 0.364752 0.509606
0.685725 0.428931 0.519158
0.780697 0.462257 0.523766
0.874540 0.527153 0.555505
0.212131 0.396185 0.490669
0.233036 0.398535 0.491829
0.306401 0.409949 0.499214
0.424140 0.431220 0.524407
0.571283 0.463813 0.542535
0.678126 0.501823 0.544244
0.769619 0.531029 0.552819
0.888365 0.590753 0.583734
0.195010 0.511009 0.532250
0.222232 0.513695 0.534203
0.308782 0.523919 0.541131
0.432746 0.546777 0.558007
0.582879 0.587671 0.590204
0.685878 0.597101 0.583459
0.797879 0.627039 0.594110
0.903349 0.672786 0.619684
0.183871 0.643641 0.590326
0.218021 0.645594 0.591974
0.315709 0.650721 0.595727
0.445350 0.661311 0.604913
0.580926 0.682399 0.624170
0.702358 0.708736 0.636683
0.825010 0.741115 0.654108
0.920104 0.775235 0.680934
0.287938 0.783749 0.672511
0.307988 0.783078 0.671839
0.383215 0.783047 0.672267
0.506523 0.788296 0.682185
0.625971 0.797482 0.695613
0.714870 0.807156 0.702144
0.821897 0.822873 0.708949
0.918456 0.849241 0.729641
0.429633 0.891691 0.746792
0.447761 0.891295 0.747738
0.514519 0.890379 0.752682
0.622217 0.892760 0.768551
0.707027 0.895903 0.778683
0.771542 0.901457 0.785092
0.847593 0.910185 0.795621
0.922881 0.921141 0.805051
0.146487 0.268376 0.626093
0.188022 0.270939 0.628443
0.301274 0.279240 0.633021
0.451789 0.297093 0.649622
0.619013 0.323522 0.668238
0.737606 0.390112 0.660395
0.840146 0.505608 0.664729
0.915648 0.578088 0.679744
0.162417 0.285100 0.619501
0.198062 0.287022 0.620600
0.302220 0.294743 0.626886
0.443977 0.309850 0.639948
0.608270 0.334661 0.659571
0.729122 0.397681 0.654719
0.833341 0.509056 0.660975
0.910613 0.577600 0.676051
0.191745 0.354986 0.630610
0.211337 0.352331 0.632044
0.309300 0.359075 0.638056
0.444373 0.371557 0.645502
0.603723 0.396979 0.663935
0.727565 0.451698 0.663050
0.828885 0.551385 0.671748
0.905028 0.601587 0.683009
0.196231 0.451545 0.636561
0.224918 0.452430 0.637293
0.317205 0.459815 0.645014
0.446754 0.474983 0.663783
0.604791 0.503777 0.683253
0.733150 0.547997 0.687434
0.826871 0.620417 0.695857
0.899718 0.644984 0.698634
0.193240 0.549035 0.651972
0.223178 0.550408 0.652461
0.315435 0.557214 0.655482
0.439094 0.573114 0.663874
0.583490 0.599573 0.686030
0.721828 0.632746 0.700526
0.807370 0.663355 0.699794
0.880888 0.677546 0.699367
0.232151 0.658442 0.681697
0.261753 0.661555 0.684260
0.345922 0.666285 0.686854
0.462562 0.677058 0.693416
0.590784 0.696101 0.706172
0.730861 0.733883 0.735470
0.817838 0.742123 0.730831
0.906371 0.767239 0.740658
0.311192 0.790036 0.743282
0.334966 0.791653 0.744869
0.406195 0.794278 0.747066
0.512413 0.799985 0.752193
0.631922 0.807340 0.759701
0.746609 0.819150 0.773098
0.832639 0.832944 0.777493
0.920378 0.855772 0.790280
0.419867 0.895842 0.799985
0.431312 0.895232 0.799313
0.482734 0.894530 0.799313
0.570947 0.895171 0.802182
0.680781 0.896208 0.809689
0.784298 0.901335 0.824704
0.849607 0.910063 0.832914
0.923064 0.921904 0.839811
0.191043 0.326635 0.763516
0.230106 0.329656 0.765530
0.339666 0.338018 0.767819
0.482582 0.356085 0.774228
0.634089 0.386572 0.782895
0.782742 0.436164 0.794736
0.866789 0.520348 0.781643
0.923888 0.629786 0.775174
0.193118 0.339452 0.757137
0.230655 0.342596 0.759579
0.336522 0.350164 0.762264
0.475196 0.366033 0.767636
0.625147 0.394049 0.776211
0.772549 0.439155 0.787442
0.857328 0.517540 0.774075
0.916869 0.623255 0.767819
0.203647 0.398901 0.761013
0.237644 0.400580 0.761685
0.338842 0.407141 0.763363
0.473945 0.422156 0.768490
0.619715 0.447639 0.776089
0.765896 0.489998 0.788327
0.855863 0.560815 0.780575
0.917205 0.658625 0.779751
0.228580 0.498512 0.763729
0.255589 0.498360 0.763485
0.345373 0.501549 0.765591
0.469703 0.511284 0.772427
0.614374 0.535424 0.780758
0.758724 0.573846 0.794461
0.852903 0.628016 0.791897
0.914427 0.705989 0.794156
0.211185 0.589227 0.761746
0.237339 0.588586 0.760464
0.324010 0.590967 0.759579
0.451362 0.600488 0.766720
0.593744 0.619043 0.779355
0.737057 0.648737 0.793729
0.841276 0.689082 0.797452
0.911070 0.755978 0.809537
0.254978 0.686458 0.777707
0.279179 0.687434 0.778103
0.357458 0.690730 0.779080
0.466285 0.697658 0.781521
0.587915 0.709590 0.785977
0.726162 0.736355 0.804959
0.842466 0.769467 0.819089
0.905852 0.794247 0.819455
0.348394 0.786862 0.804501
0.366918 0.788113 0.805447
0.425574 0.790097 0.806332
0.519158 0.795010 0.809049
0.627131 0.802945 0.813443
0.738949 0.817502 0.822995
0.846403 0.844694 0.843778
0.912322 0.849577 0.838560
0.424231 0.892576 0.851255
0.438727 0.892973 0.851713
0.497688 0.895506 0.854734
0.580774 0.897673 0.857389
0.677028 0.901030 0.861173
0.772824 0.905821 0.866453
0.862242 0.914092 0.877348
0.926818 0.925719 0.882506
0.338659 0.420569 0.874968
0.360784 0.423713 0.875700
0.434333 0.431495 0.875364
0.547967 0.452338 0.877562
0.675257 0.485908 0.880400
0.799283 0.534478 0.884154
0.904204 0.598779 0.888701
0.956603 0.671870 0.877775
0.334112 0.429816 0.871550
0.356664 0.432837 0.872374
0.431189 0.441260 0.872831
0.543694 0.460334 0.874723
0.670680 0.492439 0.877775
0.794980 0.539086 0.881743
0.900359 0.599908 0.886198
0.953491 0.671015 0.875242
0.332403 0.476081 0.869108
0.353399 0.478035 0.869444
0.426398 0.485023 0.869657
0.541283 0.505638 0.873533
0.665827 0.533043 0.875914
0.787564 0.571984 0.879515
0.894438 0.625849 0.885527
0.949065 0.689876 0.875914
0.333501 0.553460 0.865690
0.355840 0.555932 0.866300
0.416815 0.555962 0.867582
0.530480 0.571649 0.870359
0.655756 0.595392 0.874022
0.777737 0.628229 0.879118
0.886503 0.673152 0.887388
0.943999 0.726345 0.880369
0.278141 0.630304 0.862119
0.302373 0.631373 0.862852
0.376806 0.631891 0.863462
0.503624 0.643275 0.866270
0.630976 0.658656 0.870817
0.757809 0.684962 0.877012
0.871061 0.722835 0.887327
0.938140 0.768978 0.886442
0.285924 0.717556 0.866606
0.302007 0.716793 0.865904
0.364660 0.715816 0.864225
0.463478 0.717433 0.863218
0.588739 0.724483 0.866972
0.735714 0.750637 0.879240
0.858824 0.786587 0.894163
0.936248 0.824155 0.899748
0.358648 0.807279 0.881773
0.372290 0.807187 0.881559
0.424567 0.807279 0.880888
0.512230 0.809506 0.881010
0.616419 0.814115 0.881895
0.725460 0.823575 0.885191
0.842527 0.846677 0.900237
0.931121 0.873198 0.910399
0.481483 0.891814 0.905089
0.490333 0.891752 0.904936
0.528618 0.892210 0.905058
0.596612 0.894133 0.906157
0.679347 0.897246 0.907774
0.766079 0.902434 0.910430
0.851408 0.912291 0.916289
0.933532 0.931518 0.930480
