20 Preset/Food Style/【3】LUT video cho PR-AE-FCPX/Food Style Tone (12).cube
# Created by Adobe Lightroom plugin Export LUT (1.24.0)
# www.johnrellis.com/lightroom/exportlut.htm
# Preset: 静谧咖啡-素材江湖08
# Color profile: E:\lut插件\exportlut.1.24\exportlut.lrplugin\color profiles\Rec709gamma2.4.icc
LUT_3D_SIZE 32
DOMAIN_MIN 0.0 0.0 0.0
DOMAIN_MAX 1.0 1.0 1.0
0.181949 0.149477 0.144350
0.183536 0.149874 0.144686
0.188357 0.151583 0.145632
0.197299 0.154330 0.147768
0.208194 0.159274 0.151339
0.223789 0.164004 0.154208
0.242527 0.168429 0.156497
0.262913 0.173190 0.158511
0.284672 0.177890 0.160128
0.308049 0.182956 0.162051
0.332921 0.188388 0.163973
0.359838 0.194614 0.166018
0.389044 0.201419 0.168490
0.420539 0.209628 0.171450
0.453651 0.218906 0.174746
0.488136 0.229221 0.178286
0.523857 0.240757 0.182254
0.560662 0.253452 0.186252
0.604608 0.269444 0.190951
0.652094 0.289036 0.196323
0.696986 0.309789 0.201389
0.738216 0.331121 0.207034
0.775051 0.352209 0.213352
0.809628 0.373846 0.220249
0.842069 0.395789 0.228183
0.872709 0.418067 0.237400
0.901976 0.440925 0.248508
0.930144 0.464454 0.261723
0.957092 0.489052 0.277836
0.982879 0.514794 0.297581
1.000000 0.541955 0.321538
1.000000 0.570733 0.350622
0.182345 0.150668 0.144839
0.183322 0.150729 0.145022
0.188724 0.152316 0.145937
0.197421 0.155123 0.147860
0.208133 0.159854 0.151461
0.223545 0.164614 0.154330
0.241855 0.168917 0.156435
0.261845 0.173587 0.158480
0.283330 0.178195 0.160159
0.306188 0.183230 0.162081
0.330877 0.188449 0.164096
0.357488 0.194400 0.166018
0.386297 0.201236 0.168338
0.417304 0.209537 0.171328
0.450141 0.218662 0.174533
0.484413 0.228824 0.178164
0.520134 0.240177 0.182040
0.556664 0.252628 0.186038
0.600000 0.268406 0.190738
0.645960 0.287053 0.195834
0.689540 0.306828 0.200748
0.730098 0.327184 0.206058
0.766567 0.347784 0.211948
0.800931 0.368750 0.218570
0.833402 0.390173 0.225834
0.864439 0.412177 0.234623
0.894255 0.434943 0.245182
0.923033 0.458595 0.257847
0.950774 0.483131 0.273350
0.977295 0.509026 0.292332
1.000000 0.536278 0.315740
1.000000 0.565087 0.343999
0.183444 0.155062 0.146761
0.184329 0.155337 0.146914
0.188785 0.156466 0.147066
0.197574 0.158938 0.148989
0.208652 0.162936 0.152010
0.223880 0.167391 0.154696
0.241978 0.171664 0.156802
0.261540 0.176150 0.158694
0.282719 0.180728 0.160525
0.305455 0.185550 0.162295
0.329870 0.190768 0.164309
0.356268 0.196567 0.166262
0.384619 0.203464 0.168582
0.415473 0.211368 0.171481
0.448066 0.220493 0.175021
0.482155 0.230564 0.178500
0.517601 0.241764 0.182406
0.554345 0.254185 0.186221
0.597314 0.269688 0.190860
0.642329 0.287907 0.195743
0.685481 0.307164 0.200809
0.725734 0.327245 0.206119
0.762264 0.347265 0.211704
0.796506 0.368048 0.218173
0.829038 0.389105 0.225376
0.860075 0.410681 0.233707
0.890135 0.433265 0.243992
0.919219 0.456764 0.256382
0.947387 0.481239 0.271489
0.974243 0.507073 0.290349
0.999634 0.534203 0.313146
1.000000 0.562799 0.340978
0.186740 0.163058 0.150973
0.187167 0.163180 0.150942
0.190219 0.163851 0.151369
0.197482 0.165347 0.151980
0.209598 0.169192 0.153689
0.225376 0.173190 0.155550
0.242954 0.177310 0.157443
0.262150 0.181521 0.159335
0.283177 0.185763 0.161196
0.305608 0.190494 0.162966
0.329625 0.195621 0.164950
0.355688 0.201419 0.166903
0.384009 0.207980 0.169406
0.414313 0.215854 0.172274
0.446479 0.224887 0.175631
0.480079 0.234775 0.179294
0.515068 0.245701 0.182925
0.551019 0.257725 0.186984
0.593347 0.272923 0.191409
0.636164 0.289830 0.196201
0.677607 0.307958 0.200778
0.717159 0.327092 0.205783
0.753719 0.346624 0.211337
0.788876 0.367041 0.217533
0.822690 0.388434 0.224582
0.855222 0.410651 0.233036
0.886564 0.433875 0.243595
0.916777 0.457710 0.256168
0.945586 0.482490 0.271489
0.972747 0.508293 0.290288
0.998077 0.534997 0.312840
1.000000 0.562890 0.339788
0.189944 0.172580 0.155703
0.190005 0.172915 0.155642
0.192630 0.173404 0.155703
0.198154 0.174868 0.156100
0.208499 0.177218 0.156435
0.224979 0.182010 0.157473
0.242649 0.185885 0.158968
0.262486 0.189731 0.160250
0.282780 0.193698 0.162112
0.304875 0.197971 0.164096
0.328679 0.202762 0.165927
0.354437 0.208499 0.168185
0.382330 0.215183 0.170626
0.412482 0.222873 0.173465
0.444526 0.231724 0.177096
0.478370 0.241642 0.180636
0.513481 0.252567 0.184451
0.549889 0.264439 0.188388
0.592462 0.279698 0.192782
0.634211 0.295995 0.197360
0.674861 0.313573 0.202029
0.713954 0.332067 0.206851
0.750607 0.351202 0.212100
0.785946 0.371435 0.218357
0.820127 0.392615 0.225559
0.853147 0.414710 0.233982
0.884733 0.437537 0.244388
0.914916 0.461006 0.256962
0.943694 0.485451 0.272160
0.970855 0.510674 0.290623
0.996124 0.536858 0.312871
1.000000 0.564172 0.339422
0.191470 0.184573 0.160128
0.191928 0.184695 0.159915
0.193332 0.185306 0.159579
0.198672 0.186313 0.160403
0.207584 0.188663 0.160739
0.221836 0.191806 0.160708
0.242344 0.197482 0.161318
0.261967 0.201175 0.162570
0.283207 0.205112 0.164126
0.305943 0.209445 0.165805
0.329656 0.213993 0.167941
0.355383 0.219455 0.170138
0.383490 0.225834 0.172641
0.413581 0.233707 0.175814
0.445808 0.242557 0.179416
0.479622 0.252262 0.182956
0.515038 0.263035 0.186740
0.553429 0.275669 0.190555
0.595483 0.290837 0.195163
0.636744 0.306828 0.199405
0.677058 0.324071 0.204166
0.715877 0.342351 0.209049
0.796414 0.388952 0.223087
0.830106 0.410071 0.231449
0.861662 0.431281 0.240665
0.891417 0.452613 0.251560
0.919341 0.474372 0.264561
0.945861 0.496559 0.279515
0.970764 0.519524 0.297581
0.994171 0.543359 0.318639
1.000000 0.568200 0.343206
1.000000 0.593835 0.371679
0.192874 0.201144 0.165988
0.193179 0.201144 0.165805
0.194278 0.201846 0.165103
0.199619 0.202762 0.165713
0.207767 0.204379 0.166659
0.220798 0.207614 0.166598
0.239353 0.211460 0.166567
0.264683 0.218509 0.166842
0.286687 0.222202 0.168276
0.310765 0.226474 0.169924
0.337072 0.231693 0.171603
0.364813 0.237583 0.173709
0.393652 0.244083 0.176730
0.424628 0.251835 0.179843
0.457252 0.260533 0.183383
0.491249 0.270207 0.186831
0.526574 0.280797 0.190402
0.569085 0.295262 0.194858
0.612543 0.311345 0.199466
0.655604 0.328740 0.204166
0.698634 0.347967 0.209232
0.739956 0.368353 0.215213
0.779416 0.389899 0.222232
0.817014 0.412268 0.230686
0.851987 0.434730 0.240513
0.883696 0.456641 0.251682
0.912779 0.478126 0.264530
0.939666 0.499763 0.279179
0.965026 0.521996 0.296483
0.988586 0.544976 0.316808
1.000000 0.568963 0.340551
1.000000 0.593988 0.368322
0.195010 0.217044 0.172366
0.194949 0.217166 0.172183
0.195499 0.217746 0.171023
0.200381 0.218479 0.171633
0.208347 0.219852 0.172549
0.219547 0.222232 0.173159
0.235172 0.225986 0.173190
0.256291 0.230137 0.173220
0.284733 0.238834 0.173281
0.308507 0.243015 0.174807
0.334661 0.248112 0.176516
0.363317 0.254246 0.178195
0.394446 0.261387 0.180056
0.425483 0.268986 0.183108
0.457923 0.277226 0.186526
0.491585 0.286442 0.189975
0.529198 0.297704 0.193820
0.570764 0.311742 0.197910
0.612116 0.326818 0.202426
0.653559 0.343084 0.206821
0.695094 0.360998 0.211765
0.735500 0.380438 0.217533
0.774380 0.400763 0.224430
0.811551 0.422217 0.232761
0.846586 0.443702 0.242496
0.878508 0.464790 0.253544
0.907805 0.485542 0.266026
0.935027 0.506310 0.280613
0.960571 0.527916 0.297887
0.984405 0.550225 0.317845
1.000000 0.573510 0.341222
1.000000 0.597894 0.368414
0.197513 0.234806 0.180209
0.197421 0.235050 0.179843
0.197696 0.235599 0.178775
0.201450 0.236362 0.178683
0.208988 0.237522 0.179568
0.219120 0.239200 0.180758
0.233066 0.242344 0.181033
0.251713 0.246555 0.181064
0.275059 0.251347 0.180880
0.307103 0.261692 0.180606
0.333257 0.266880 0.182254
0.361822 0.273198 0.183993
0.392920 0.280400 0.185794
0.426276 0.288701 0.187930
0.461097 0.297642 0.190402
0.495491 0.306889 0.193912
0.535149 0.319280 0.197879
0.574853 0.332250 0.202029
0.614862 0.346288 0.206088
0.655024 0.361669 0.210483
0.695338 0.378790 0.215183
0.734585 0.396918 0.220981
0.772641 0.416236 0.227909
0.809262 0.436439 0.236332
0.843839 0.456855 0.245975
0.875547 0.476722 0.257176
0.904845 0.496559 0.269718
0.932067 0.516625 0.284428
0.957702 0.537285 0.301579
0.981567 0.558709 0.321416
1.000000 0.581201 0.344610
1.000000 0.604730 0.371527
0.199466 0.254795 0.188937
0.199466 0.254887 0.188632
0.199832 0.255283 0.187625
0.201968 0.256199 0.186618
0.209445 0.257053 0.187350
0.219272 0.258396 0.188510
0.231876 0.260563 0.189548
0.248661 0.264561 0.189578
0.269780 0.269200 0.189578
0.295293 0.274632 0.189456
0.331151 0.286900 0.188449
0.359503 0.293095 0.190158
0.390570 0.300542 0.191958
0.423896 0.308995 0.194095
0.459998 0.318730 0.196384
0.500908 0.331212 0.199008
0.541497 0.343938 0.202304
0.580774 0.356359 0.206149
0.620111 0.369940 0.210483
0.659571 0.384649 0.214725
0.698299 0.400458 0.219669
0.735256 0.416693 0.225345
0.771115 0.433783 0.232090
0.805722 0.451698 0.240177
0.838743 0.469917 0.249302
0.869902 0.488228 0.259892
0.899077 0.507012 0.272526
0.926696 0.526268 0.287022
0.952819 0.546349 0.304204
0.977264 0.567346 0.324254
0.999969 0.589380 0.347692
1.000000 0.612512 0.375006
0.200473 0.275853 0.198062
0.200778 0.275822 0.197787
0.200992 0.276371 0.196811
0.201877 0.277317 0.195010
0.209384 0.278233 0.195804
0.218967 0.279698 0.196963
0.231388 0.281590 0.198245
0.246891 0.284947 0.198947
0.266423 0.289738 0.199008
0.290501 0.295262 0.198795
0.318791 0.301549 0.198520
0.358587 0.315923 0.197208
0.390021 0.323522 0.198947
0.424628 0.332952 0.201114
0.462989 0.344427 0.203769
0.502831 0.356481 0.206088
0.543908 0.369177 0.208804
0.585748 0.382879 0.211246
0.624964 0.395941 0.215091
0.663325 0.409644 0.219425
0.700649 0.423987 0.224491
0.736416 0.438849 0.230289
0.771481 0.454658 0.237186
0.805478 0.471168 0.245518
0.838010 0.488167 0.255009
0.868681 0.505241 0.265995
0.897581 0.522942 0.278630
0.925017 0.541100 0.293400
0.950896 0.560113 0.310735
0.975158 0.580224 0.331060
0.997742 0.601312 0.354589
1.000000 0.623499 0.381842
0.199954 0.300267 0.208255
0.200076 0.300420 0.208072
0.200412 0.300969 0.207156
0.201236 0.301884 0.205447
0.207248 0.302953 0.205081
0.217227 0.304417 0.206271
0.229831 0.306371 0.207675
0.245090 0.308934 0.209476
0.264134 0.313664 0.209598
0.287266 0.319280 0.209506
0.314641 0.325658 0.209293
0.345983 0.332860 0.208896
0.406683 0.365972 0.211643
0.448249 0.379553 0.214542
0.490028 0.392676 0.217380
0.532677 0.405921 0.220310
0.575769 0.419501 0.223056
0.618524 0.433570 0.226017
0.660883 0.448219 0.229252
0.701564 0.463081 0.233097
0.736568 0.475441 0.239506
0.769802 0.488014 0.246769
0.801938 0.501305 0.255283
0.832792 0.515160 0.264775
0.861967 0.529381 0.275639
0.889433 0.543877 0.287785
0.915129 0.558740 0.301427
0.939300 0.574243 0.316625
0.962219 0.590539 0.334142
0.983856 0.608118 0.354589
1.000000 0.626795 0.378027
1.000000 0.647059 0.405463
0.196292 0.334020 0.222202
0.196384 0.334020 0.221958
0.196811 0.334295 0.220920
0.197604 0.334905 0.218814
0.201968 0.335760 0.217411
0.213382 0.336828 0.218296
0.227207 0.338415 0.219608
0.243687 0.340703 0.221225
0.262669 0.344366 0.222782
0.286229 0.350378 0.222660
0.314946 0.359014 0.223178
0.349676 0.370367 0.224430
0.389563 0.382757 0.225315
0.443122 0.405066 0.224155
0.488289 0.420539 0.226505
0.530266 0.433234 0.229252
0.572320 0.445808 0.231998
0.613642 0.458503 0.235019
0.654536 0.471809 0.238132
0.693843 0.484871 0.242008
0.731228 0.497841 0.246830
0.766323 0.510613 0.253117
0.797971 0.522301 0.261601
0.828489 0.534722 0.271366
0.857511 0.547753 0.282139
0.885008 0.561120 0.294499
0.910918 0.575097 0.308354
0.935393 0.589807 0.323888
0.958556 0.605371 0.341711
0.980438 0.622217 0.362493
1.000000 0.640223 0.386206
1.000000 0.659510 0.413611
0.190005 0.363775 0.234470
0.189914 0.363714 0.234257
0.190524 0.363775 0.233005
0.191348 0.364324 0.231022
0.193668 0.365148 0.228244
0.206241 0.366064 0.229068
0.221164 0.367590 0.230259
0.238743 0.370062 0.232029
0.258885 0.374701 0.234745
0.282811 0.381659 0.236454
0.311711 0.390723 0.237308
0.345495 0.401312 0.238163
0.384070 0.412818 0.239078
0.426825 0.424933 0.239597
0.480903 0.445624 0.238102
0.528466 0.462165 0.239322
0.569451 0.473671 0.242313
0.609827 0.485237 0.245090
0.649958 0.497322 0.248478
0.688411 0.508965 0.252415
0.725185 0.520714 0.257420
0.760983 0.532982 0.263615
0.795560 0.545861 0.270848
0.827207 0.558129 0.280217
0.855955 0.569757 0.291539
0.883207 0.582025 0.304021
0.908904 0.594842 0.318181
0.933135 0.608362 0.333959
0.956146 0.622889 0.352117
0.977844 0.638727 0.373114
0.998199 0.655756 0.396948
1.000000 0.674159 0.424567
0.178500 0.398260 0.248905
0.178775 0.398291 0.248661
0.178988 0.398566 0.247562
0.180148 0.399207 0.245731
0.181949 0.400336 0.242435
0.194186 0.401678 0.242435
0.211398 0.403723 0.243931
0.231235 0.406592 0.245762
0.253391 0.410498 0.248325
0.277684 0.415503 0.251530
0.307134 0.423835 0.252354
0.340826 0.433722 0.253361
0.378668 0.444526 0.254185
0.420111 0.455818 0.254948
0.464576 0.467048 0.255131
0.518303 0.485603 0.253513
0.567956 0.503197 0.253941
0.607813 0.513817 0.256992
0.647028 0.524529 0.260502
0.684688 0.534905 0.264836
0.720943 0.545495 0.269963
0.756435 0.556634 0.276249
0.790738 0.568475 0.283757
0.823697 0.580621 0.292546
0.854765 0.593194 0.302831
0.882170 0.604547 0.315648
0.907713 0.616388 0.330083
0.931945 0.629084 0.346746
0.954955 0.643000 0.365637
0.976715 0.658259 0.387701
0.997162 0.674891 0.413001
1.000000 0.692927 0.441932
0.159426 0.437751 0.266087
0.159548 0.437842 0.265965
0.160220 0.438148 0.264927
0.161654 0.438880 0.262821
0.163668 0.439979 0.259495
0.174838 0.441505 0.258061
0.196078 0.443641 0.259617
0.219455 0.446601 0.261540
0.245182 0.450416 0.264317
0.272313 0.454963 0.267552
0.301976 0.461128 0.270237
0.336248 0.469459 0.270909
0.373724 0.478553 0.271244
0.413916 0.487831 0.271550
0.456580 0.497200 0.271672
0.500877 0.506523 0.271397
0.553307 0.522728 0.269627
0.604730 0.541436 0.269657
0.643336 0.551171 0.273564
0.680629 0.560662 0.278172
0.717037 0.570703 0.283787
0.752651 0.581201 0.290562
0.787076 0.592370 0.298558
0.820066 0.603906 0.307897
0.851286 0.615808 0.318914
0.880858 0.628077 0.331395
0.908324 0.640772 0.345892
0.932189 0.652399 0.363012
0.954650 0.665095 0.382300
0.975769 0.679042 0.404456
0.995575 0.694118 0.429389
1.000000 0.710628 0.457832
0.131411 0.476326 0.284062
0.132052 0.476295 0.283787
0.132692 0.476692 0.282750
0.134401 0.477302 0.280644
0.137362 0.478309 0.277440
0.146151 0.479988 0.274052
0.174258 0.481788 0.275578
0.203403 0.484291 0.277501
0.232853 0.487617 0.280156
0.263218 0.491615 0.283330
0.294835 0.496254 0.287144
0.329259 0.503166 0.288731
0.367285 0.511437 0.289220
0.407599 0.519860 0.289708
0.449866 0.528527 0.289830
0.493507 0.537072 0.289738
0.537957 0.545678 0.289494
0.589014 0.560143 0.288334
0.641932 0.579736 0.288731
0.678676 0.588159 0.293797
0.714717 0.597253 0.299718
0.750088 0.606989 0.306828
0.784268 0.617304 0.315312
0.817075 0.627924 0.325231
0.848234 0.639094 0.336522
0.877623 0.650599 0.349828
0.905333 0.662715 0.364752
0.931060 0.675319 0.381781
0.954376 0.688167 0.401343
0.975036 0.700984 0.423835
0.994415 0.714992 0.449073
1.000000 0.730373 0.477455
0.079133 0.516960 0.304509
0.078859 0.517266 0.304417
0.015351 0.536400 0.313909
0.028229 0.537011 0.311772
0.048310 0.538048 0.308354
0.072175 0.539513 0.303258
0.133974 0.540948 0.303960
0.179843 0.542901 0.305974
0.219303 0.545678 0.308598
0.257725 0.549187 0.312108
0.295079 0.553185 0.315923
0.332158 0.557763 0.320348
0.373083 0.564569 0.320745
0.415473 0.571466 0.320806
0.458503 0.578210 0.320745
0.502007 0.584924 0.320470
0.545586 0.591241 0.319890
0.589105 0.597772 0.319219
0.636774 0.608606 0.318547
0.688869 0.626947 0.319371
0.723171 0.633692 0.325200
0.757015 0.641596 0.332555
0.789761 0.649989 0.341009
0.820951 0.658778 0.351049
0.850401 0.667750 0.361975
0.878202 0.677211 0.374548
0.904356 0.687221 0.388556
0.928954 0.698146 0.404822
0.952056 0.710018 0.423713
0.973724 0.722988 0.445380
0.993011 0.736263 0.470283
1.000000 0.750301 0.498360
0.000000 0.563226 0.330571
0.000000 0.565118 0.331487
0.000000 0.567346 0.331548
0.000000 0.569635 0.330602
0.000000 0.571862 0.328038
0.000000 0.573632 0.323461
0.081941 0.575189 0.321935
0.152834 0.576654 0.323796
0.201633 0.578882 0.326268
0.244755 0.581628 0.329290
0.285618 0.585016 0.333135
0.324773 0.588739 0.337377
0.364630 0.593378 0.340368
0.406897 0.599420 0.340703
0.449622 0.605554 0.340948
0.492866 0.611627 0.341070
0.535668 0.617700 0.341070
0.578790 0.623896 0.341222
0.621942 0.630518 0.341711
0.667903 0.640345 0.342290
0.720760 0.659663 0.344640
0.754452 0.666926 0.352361
0.786893 0.674525 0.361242
0.817838 0.682490 0.371283
0.846921 0.690669 0.382544
0.874418 0.699245 0.394995
0.900267 0.708309 0.409125
0.924590 0.718288 0.425452
0.947509 0.729274 0.444129
0.969055 0.741390 0.465736
0.989075 0.754635 0.490272
1.000000 0.768826 0.517845
0.000000 0.599695 0.352728
0.000000 0.601678 0.353674
0.000000 0.603937 0.354040
0.000000 0.606348 0.353460
0.000000 0.608453 0.351171
0.000000 0.610254 0.346777
0.000000 0.611688 0.343023
0.119478 0.612940 0.344945
0.183505 0.614618 0.347326
0.233982 0.616602 0.350286
0.278172 0.619287 0.353826
0.320073 0.622248 0.358038
0.360143 0.625422 0.362707
0.401923 0.630274 0.364355
0.444770 0.635706 0.364904
0.487465 0.641108 0.365515
0.529961 0.646601 0.365850
0.572351 0.652216 0.366400
0.614588 0.658137 0.367224
0.656580 0.664424 0.368444
0.700069 0.672847 0.370123
0.752682 0.692378 0.374029
0.784817 0.699336 0.383337
0.815396 0.706477 0.393683
0.844144 0.713832 0.404974
0.871214 0.721553 0.417548
0.896666 0.729763 0.431556
0.920653 0.738796 0.447608
0.943297 0.748928 0.466224
0.964630 0.760159 0.487526
0.984466 0.772488 0.511955
1.000000 0.785733 0.538689
0.000000 0.636561 0.377691
0.000000 0.638239 0.378851
0.000000 0.640284 0.379309
0.000000 0.642298 0.378729
0.000000 0.644221 0.376593
0.000000 0.645747 0.372442
0.000000 0.647272 0.366552
0.076875 0.648249 0.368475
0.169863 0.649592 0.370855
0.226047 0.651209 0.373816
0.274113 0.653376 0.377325
0.318242 0.655756 0.381476
0.359655 0.658412 0.386114
0.399786 0.661402 0.390600
0.442359 0.666255 0.391638
0.484901 0.671290 0.392706
0.527214 0.676783 0.394171
0.569757 0.682582 0.395758
0.612177 0.688808 0.398016
0.654414 0.695552 0.400885
0.696284 0.702663 0.404547
0.738308 0.710842 0.408850
0.789517 0.730190 0.415320
0.820493 0.737423 0.427375
0.849058 0.744564 0.440284
0.875639 0.751797 0.454139
0.900420 0.759487 0.469123
0.923674 0.767880 0.486091
0.945495 0.777310 0.505516
0.965972 0.787655 0.527245
0.985168 0.798947 0.551110
1.000000 0.811063 0.577142
0.000000 0.683070 0.415320
0.000000 0.683864 0.415717
0.000000 0.684535 0.415351
0.000000 0.685267 0.413825
0.000000 0.685939 0.410834
0.000000 0.686610 0.406592
0.000000 0.687587 0.400824
0.071229 0.688380 0.399939
0.172610 0.689357 0.402289
0.231662 0.690791 0.405371
0.281224 0.692500 0.409064
0.326238 0.694545 0.413306
0.368139 0.696651 0.417914
0.408240 0.698909 0.423163
0.448310 0.702113 0.426551
0.490028 0.706325 0.427771
0.531334 0.710750 0.429206
0.572534 0.715450 0.430945
0.613336 0.720302 0.432990
0.653681 0.725582 0.435554
0.693446 0.731014 0.438605
0.732448 0.736843 0.442267
0.770291 0.742763 0.446357
0.818173 0.760311 0.453071
0.846708 0.766629 0.465309
0.872770 0.773098 0.479011
0.897276 0.780179 0.494240
0.920226 0.787961 0.511284
0.941833 0.796597 0.530205
0.962127 0.806088 0.551110
0.981079 0.816403 0.573999
0.998779 0.827512 0.598932
0.000000 0.717494 0.446204
0.000000 0.718074 0.446601
0.000000 0.718685 0.446235
0.000000 0.719356 0.444862
0.000000 0.720027 0.442451
0.000000 0.720699 0.438544
0.000000 0.721614 0.433173
0.109499 0.722499 0.430304
0.187350 0.723293 0.432593
0.244175 0.724392 0.435645
0.292027 0.725795 0.439277
0.336095 0.727474 0.443519
0.377661 0.729244 0.448096
0.417395 0.731197 0.453437
0.455390 0.733333 0.459205
0.495491 0.736843 0.461646
0.535821 0.740841 0.463630
0.575799 0.745022 0.465858
0.615473 0.749416 0.468452
0.654566 0.754086 0.471504
0.693019 0.758999 0.475166
0.730709 0.764065 0.479164
0.767178 0.769314 0.483711
0.802335 0.774655 0.488685
0.842466 0.786526 0.489082
0.868864 0.792294 0.502098
0.893095 0.798764 0.517082
0.915892 0.805905 0.533593
0.937346 0.813779 0.551812
0.957580 0.822568 0.572076
0.976623 0.832273 0.594568
0.994385 0.842802 0.618982
0.114748 0.755978 0.485969
0.119783 0.756863 0.486854
0.124208 0.757412 0.486641
0.129854 0.757534 0.484962
0.135286 0.757504 0.482094
0.143130 0.757412 0.477760
0.153292 0.757321 0.472206
0.169650 0.757473 0.466316
0.222782 0.757198 0.467506
0.269505 0.757229 0.469459
0.311864 0.757504 0.471839
0.352636 0.758175 0.475105
0.391455 0.758999 0.478950
0.428840 0.759945 0.483192
0.464790 0.760922 0.487739
0.500359 0.762387 0.492164
0.538384 0.765286 0.493416
0.576440 0.768582 0.495308
0.614374 0.772396 0.498024
0.652338 0.776669 0.501610
0.689662 0.781216 0.505669
0.726009 0.785824 0.510216
0.761044 0.790341 0.514580
0.794522 0.794736 0.518975
0.826383 0.798917 0.523125
0.866026 0.812528 0.529931
0.890684 0.818082 0.542412
0.912749 0.824094 0.557488
0.933684 0.830961 0.574395
0.953582 0.838804 0.593469
0.972381 0.847623 0.614740
0.990112 0.857328 0.638270
0.195926 0.783688 0.516777
0.199191 0.784451 0.517723
0.202457 0.785061 0.517754
0.206058 0.785397 0.516716
0.210300 0.785702 0.514519
0.216495 0.786069 0.511498
0.223941 0.786648 0.507530
0.233616 0.787442 0.502403
0.268254 0.787900 0.503075
0.307103 0.788418 0.505791
0.344915 0.789029 0.508904
0.382177 0.789761 0.512596
0.418006 0.790494 0.516503
0.453010 0.791226 0.520775
0.486885 0.791928 0.525200
0.519707 0.792782 0.530083
0.553765 0.794491 0.533257
0.589075 0.797116 0.535027
0.624659 0.800198 0.537682
0.660182 0.803738 0.541070
0.695369 0.807553 0.545037
0.729732 0.811551 0.549493
0.763058 0.815549 0.554162
0.794980 0.819547 0.558862
0.825467 0.823514 0.563561
0.854398 0.827451 0.568353
0.889647 0.839231 0.575830
0.913054 0.845212 0.588647
0.933440 0.851438 0.605005
0.952789 0.858488 0.623224
0.971069 0.866453 0.643519
0.988281 0.875090 0.665248
0.277653 0.813901 0.555138
0.279332 0.814237 0.555596
0.280949 0.814511 0.555322
0.282750 0.814725 0.554284
0.285832 0.814908 0.552300
0.289647 0.815122 0.549584
0.294408 0.815518 0.545983
0.300999 0.816068 0.541650
0.320287 0.816495 0.540185
0.351293 0.816800 0.542596
0.383276 0.817136 0.545342
0.415473 0.817655 0.548760
0.447761 0.818204 0.552514
0.479438 0.818784 0.556481
0.510521 0.819272 0.560723
0.541070 0.819821 0.565118
0.571252 0.820554 0.570123
0.603601 0.822568 0.572229
0.636500 0.825132 0.574792
0.669673 0.828092 0.578058
0.702510 0.831357 0.581964
0.734646 0.834745 0.586267
0.765835 0.838163 0.590570
0.795865 0.841581 0.595026
0.824521 0.844968 0.599542
0.851804 0.848356 0.603967
0.877836 0.851835 0.608759
0.909056 0.861875 0.616144
0.931365 0.868040 0.628779
0.950347 0.874540 0.646326
0.968261 0.881712 0.665339
0.985321 0.889677 0.686030
0.344366 0.840116 0.590692
0.345495 0.840391 0.591058
0.346746 0.840696 0.591058
0.348974 0.840970 0.590356
0.351965 0.841398 0.589227
0.356268 0.842100 0.587671
0.363043 0.843229 0.586114
0.371557 0.844724 0.584314
0.385046 0.846403 0.583429
0.413245 0.847745 0.587884
0.442634 0.849210 0.592950
0.472358 0.850645 0.598169
0.501976 0.852049 0.603540
0.531182 0.853208 0.608881
0.559655 0.854154 0.613977
0.587091 0.854856 0.618799
0.613977 0.855528 0.623804
0.641321 0.856626 0.628351
0.670283 0.858701 0.630945
0.699489 0.861112 0.634241
0.728511 0.863737 0.638025
0.757107 0.866514 0.642084
0.784726 0.869291 0.646143
0.811337 0.872099 0.650355
0.836912 0.874876 0.654505
0.861418 0.877684 0.658656
0.884947 0.880583 0.663111
0.907500 0.883604 0.667781
0.934173 0.891875 0.674922
0.954314 0.897673 0.686549
0.971221 0.903868 0.703761
0.987396 0.910887 0.722621
0.436469 0.872465 0.641474
0.436500 0.872496 0.641444
0.437018 0.872526 0.640955
0.437751 0.872526 0.640070
0.439246 0.872648 0.638727
0.441474 0.872892 0.636957
0.444923 0.873259 0.634852
0.449561 0.873838 0.632258
0.455451 0.874723 0.629450
0.474311 0.875059 0.631434
0.496315 0.875486 0.634516
0.519341 0.875975 0.638025
0.543450 0.876493 0.641810
0.567742 0.876982 0.645808
