20 Preset/Food Style/【3】LUT video cho PR-AE-FCPX/Food Style Tone (14).cube
# Created by Adobe Lightroom plugin Export LUT (1.24.0)
# www.johnrellis.com/lightroom/exportlut.htm
# Preset: 静谧咖啡-素材江湖10
# Color profile: E:\lut插件\exportlut.1.24\exportlut.lrplugin\color profiles\Rec709gamma2.4.icc
LUT_3D_SIZE 5
DOMAIN_MIN 0.000000 0.000000 0.000000
DOMAIN_MAX 0.903226 0.903226 0.903226
0.047669 0.103548 0.156832
0.110475 0.104311 0.157931
0.374334 0.012085 0.156771
0.758389 0.000000 0.144167
1.000000 0.140078 0.152102
0.019104 0.134737 0.165103
0.119387 0.145449 0.160006
0.389807 0.154726 0.149538
0.760983 0.151278 0.114961
1.000000 0.276127 0.109224
0.000000 0.375189 0.235660
0.000000 0.366705 0.230625
0.416876 0.441657 0.167636
0.782895 0.469978 0.000000
1.000000 0.500206 0.000000
0.000000 0.690944 0.393500
0.125338 0.686976 0.388647
0.406592 0.677363 0.366796
0.749447 0.746487 0.275608
0.992676 0.753109 0.203098
0.601740 0.891081 0.676356
0.614923 0.890043 0.673945
0.655177 0.881682 0.653742
0.766690 0.890837 0.639246
0.932097 0.914855 0.597345
0.036774 0.104707 0.177401
0.103456 0.104921 0.177920
0.363531 0.001465 0.193820
0.732418 0.000000 0.202670
1.000000 0.164889 0.190249
0.001404 0.138918 0.194827
0.119661 0.147524 0.200412
0.382849 0.152407 0.204532
0.739406 0.146273 0.201144
1.000000 0.273411 0.186954
0.000000 0.377386 0.292973
0.098482 0.377783 0.279026
0.405035 0.424231 0.238865
0.760006 0.446418 0.184085
1.000000 0.498939 0.175418
0.169162 0.694881 0.450874
0.209415 0.692958 0.433722
0.423804 0.675990 0.412634
0.747219 0.743801 0.344121
0.988342 0.750332 0.293980
0.619196 0.891234 0.695766
0.627344 0.890318 0.691188
0.676448 0.886381 0.682002
0.773709 0.892058 0.665095
0.932647 0.916777 0.630701
0.000000 0.107881 0.339971
0.140810 0.106233 0.348058
0.390356 0.088594 0.364019
0.758297 0.000000 0.412329
1.000000 0.253971 0.436652
0.000000 0.168338 0.361883
0.134981 0.174075 0.368933
0.407538 0.196628 0.383673
0.754116 0.223697 0.422766
0.999939 0.360082 0.456519
0.000000 0.383490 0.412696
0.119966 0.391760 0.416510
0.420508 0.426032 0.433875
0.746456 0.461524 0.441993
0.992370 0.524285 0.455787
0.307439 0.703517 0.576837
0.365667 0.701320 0.574090
0.501762 0.700374 0.556420
0.742641 0.738003 0.526055
0.972747 0.738949 0.492317
0.660426 0.890440 0.754879
0.681361 0.890227 0.757778
0.705226 0.889250 0.740078
0.776181 0.884794 0.720394
0.927153 0.914214 0.701625
0.000000 0.137240 0.618067
0.202792 0.137789 0.626032
0.532982 0.161318 0.653193
0.789456 0.219425 0.669551
0.997620 0.448402 0.694087
0.000000 0.215732 0.624414
0.197391 0.222232 0.630976
0.530022 0.261723 0.656733
0.783536 0.321904 0.672602
0.986633 0.499458 0.698817
0.000000 0.405951 0.611109
0.000000 0.409430 0.616876
0.467994 0.456519 0.657252
0.758053 0.536706 0.683803
0.959960 0.633478 0.719631
0.152590 0.686397 0.688869
0.269993 0.687861 0.689113
0.498695 0.699123 0.695491
0.733608 0.725063 0.711574
0.944457 0.752560 0.723537
0.659785 0.897124 0.823941
0.676112 0.897002 0.823911
0.735561 0.897063 0.824002
0.808835 0.894408 0.814206
0.923033 0.913603 0.801968
0.347204 0.261631 0.865690
0.425544 0.269261 0.866606
0.641718 0.319402 0.872099
0.867643 0.464546 0.878935
0.997620 0.540917 0.876616
0.326909 0.322393 0.862028
0.410040 0.330785 0.863310
0.630610 0.378424 0.868803
0.858091 0.508995 0.875975
0.988403 0.578454 0.875029
0.000000 0.475807 0.853910
0.256779 0.480781 0.855833
0.571038 0.525261 0.861479
0.826841 0.626246 0.870787
0.962921 0.691859 0.876585
0.000000 0.685451 0.847440
0.000000 0.681758 0.846006
0.296544 0.669551 0.842954
0.756283 0.734737 0.867491
0.938293 0.819120 0.889982
0.540307 0.880125 0.883482
0.565087 0.880308 0.883513
0.659266 0.883268 0.885496
0.787015 0.889677 0.888945
0.914580 0.905516 0.899077
