20 Preset/Food Style/【3】LUT video cho PR-AE-FCPX/Food Style Tone (3).cube
# Created by Adobe Lightroom plugin Export LUT (1.24.0)
# www.johnrellis.com/lightroom/exportlut.htm
# Preset: 静谧咖啡-素材江湖14
# Color profile: E:\lut插件\exportlut.1.24\exportlut.lrplugin\color profiles\Rec709gamma2.4.icc
LUT_3D_SIZE 5
DOMAIN_MIN 0.000000 0.000000 0.000000
DOMAIN_MAX 0.903226 0.903226 0.903226
0.030091 0.034394 0.042145
0.145937 0.067262 0.067048
0.418463 0.000000 0.073518
0.812009 0.000000 0.026368
1.000000 0.350011 0.069154
0.042481 0.134890 0.095155
0.136110 0.146426 0.085634
0.419287 0.155123 0.080140
0.811307 0.233768 0.000000
1.000000 0.430243 0.085206
0.000000 0.355230 0.145480
0.000000 0.351568 0.144015
0.380102 0.422889 0.000000
0.782773 0.530510 0.000000
1.000000 0.602533 0.114168
0.000000 0.668879 0.240330
0.000000 0.667994 0.239597
0.380591 0.682124 0.211002
0.694392 0.722683 0.000000
0.966217 0.781003 0.109834
0.440711 0.897826 0.516777
0.467475 0.897429 0.517144
0.539025 0.887327 0.494514
0.709957 0.904906 0.472877
0.900481 0.921080 0.410773
0.048371 0.072511 0.159365
0.147616 0.082399 0.158907
0.376532 0.031830 0.173526
0.755276 0.101015 0.220066
1.000000 0.356939 0.265568
0.082856 0.144167 0.159731
0.152193 0.156069 0.169741
0.383764 0.177218 0.188083
0.759731 0.242741 0.217899
1.000000 0.424231 0.267124
0.000000 0.357183 0.217044
0.124727 0.355840 0.215305
0.369146 0.397833 0.184726
0.754604 0.503441 0.190158
1.000000 0.603632 0.293034
0.000000 0.670161 0.316045
0.102907 0.670222 0.315831
0.399908 0.678431 0.300908
0.692195 0.718135 0.229252
0.960937 0.778866 0.289921
0.465949 0.896391 0.555108
0.488624 0.895659 0.554192
0.573632 0.895140 0.556664
0.720546 0.908263 0.535393
0.903014 0.924804 0.487678
0.000000 0.110994 0.431159
0.161868 0.115206 0.430823
0.454994 0.106569 0.434607
0.782956 0.000000 0.483528
0.997253 0.385016 0.528618
0.000000 0.200412 0.420569
0.185031 0.205386 0.421149
0.452064 0.222354 0.431098
0.768185 0.255161 0.479164
0.984253 0.466865 0.541192
0.083406 0.408911 0.414832
0.217288 0.415442 0.418616
0.461189 0.462379 0.454627
0.738949 0.526482 0.493751
0.959899 0.635706 0.578485
0.358495 0.686091 0.533104
0.400366 0.683680 0.531945
0.484199 0.684993 0.511040
0.698787 0.718746 0.490974
0.943053 0.780392 0.575708
0.534844 0.890593 0.662013
0.553063 0.890867 0.662806
0.616663 0.890898 0.662715
0.726741 0.898741 0.653193
0.894438 0.917815 0.623682
0.153933 0.187869 0.762081
0.318914 0.194125 0.763333
0.601038 0.234562 0.766415
0.819791 0.333989 0.770016
0.980682 0.462409 0.776150
0.193637 0.293797 0.752071
0.327031 0.299351 0.752255
0.588861 0.332677 0.754574
0.802152 0.407141 0.758694
0.968658 0.512993 0.772763
0.000000 0.516869 0.721950
0.264775 0.515953 0.721035
0.540154 0.533104 0.728786
0.759518 0.580011 0.738033
0.943297 0.661006 0.779324
0.390631 0.720729 0.721004
0.431983 0.719936 0.719844
0.567834 0.727474 0.726375
0.747097 0.756863 0.753384
0.919951 0.806790 0.797055
0.647944 0.894621 0.808438
0.661830 0.894774 0.809110
0.715877 0.896971 0.813382
0.768338 0.897978 0.799130
0.894102 0.915709 0.786648
0.507408 0.412055 0.943359
0.552026 0.423804 0.942412
0.688411 0.479713 0.940124
0.841123 0.576043 0.935485
0.961242 0.657649 0.933257
0.509087 0.478309 0.937133
0.551751 0.487984 0.936553
0.683375 0.531518 0.934600
0.834226 0.608301 0.930877
0.954620 0.679194 0.930053
0.510002 0.635248 0.924956
0.547082 0.638422 0.924071
0.670619 0.659541 0.922820
0.817411 0.702541 0.921386
0.939483 0.752987 0.926024
0.519585 0.781949 0.914611
0.541497 0.781003 0.913725
0.637263 0.783352 0.913695
0.799344 0.806851 0.919493
0.930938 0.851072 0.931243
0.673915 0.908904 0.916106
0.685878 0.908934 0.915953
0.737301 0.911467 0.917601
0.817533 0.916075 0.920226
0.917540 0.929015 0.929839
