20 Preset/Food Style/【3】LUT video cho PR-AE-FCPX/Food Style Tone (7).cube
# Created by Adobe Lightroom plugin Export LUT (1.24.0)
# www.johnrellis.com/lightroom/exportlut.htm
# Preset: 静谧咖啡-素材江湖03
# Color profile: E:\lut插件\exportlut.1.24\exportlut.lrplugin\color profiles\Rec709gamma2.4.icc
LUT_3D_SIZE 8
DOMAIN_MIN 0.000000 0.000000 0.000000
DOMAIN_MAX 0.903226 0.903226 0.903226
0.000000 0.000000 0.000000
0.076783 0.013519 0.005676
0.164279 0.053712 0.020600
0.312474 0.010224 0.030274
0.479591 0.000000 0.026612
0.631342 0.000000 0.027924
0.765957 0.146517 0.082795
0.869017 0.256992 0.137942
0.018982 0.082460 0.034333
0.066407 0.090211 0.029114
0.169741 0.102113 0.028138
0.312505 0.096864 0.031312
0.474922 0.064698 0.026581
0.624170 0.094636 0.030488
0.755795 0.178897 0.084596
0.860472 0.271458 0.136172
0.000000 0.181552 0.096315
0.055451 0.182925 0.098939
0.164736 0.201572 0.072145
0.326543 0.222446 0.026459
0.492653 0.230869 0.012696
0.639979 0.252689 0.046479
0.765255 0.300237 0.112032
0.864622 0.359258 0.163607
0.045014 0.327398 0.169619
0.110384 0.327031 0.172335
0.190951 0.333898 0.164889
0.318517 0.356786 0.132845
0.490303 0.384253 0.102449
0.644343 0.407324 0.120180
0.763882 0.433112 0.154788
0.857969 0.465339 0.202792
0.205570 0.472999 0.277409
0.223239 0.472786 0.279454
0.280949 0.474678 0.287236
0.354589 0.484443 0.264347
0.464179 0.492073 0.223239
0.596887 0.506371 0.187533
0.726314 0.534752 0.215824
0.840726 0.565789 0.256962
0.336278 0.590967 0.388708
0.349584 0.593805 0.393591
0.385473 0.594171 0.400702
0.433326 0.596643 0.393896
0.498085 0.599939 0.364782
0.586023 0.603113 0.324071
0.693111 0.614862 0.283787
0.810758 0.648768 0.326818
0.463478 0.693874 0.506126
0.469795 0.694453 0.508080
0.490333 0.694270 0.512291
0.525719 0.694942 0.518944
0.560571 0.696284 0.497688
0.615961 0.698909 0.469306
0.688746 0.701503 0.430518
0.782315 0.712978 0.383124
0.581842 0.799496 0.617884
0.585168 0.799557 0.618585
0.599268 0.800381 0.622187
0.625910 0.802609 0.629908
0.646143 0.798917 0.618189
0.683589 0.804837 0.603174
0.736934 0.811978 0.582422
0.804685 0.818265 0.551354
0.020813 0.026062 0.085359
0.083040 0.036591 0.085786
0.164981 0.065126 0.091127
0.307988 0.061372 0.101961
0.470405 0.018311 0.108309
0.619104 0.076661 0.119783
0.748745 0.169406 0.143679
0.853117 0.260746 0.179019
0.024079 0.093996 0.090913
0.082399 0.099245 0.093050
0.174716 0.109865 0.098085
0.314458 0.114107 0.103609
0.472633 0.113863 0.109957
0.619013 0.136843 0.121645
0.744594 0.198215 0.144747
0.847715 0.276249 0.178683
0.037781 0.193759 0.126467
0.095735 0.194858 0.129763
0.176822 0.209384 0.118624
0.331182 0.228733 0.109834
0.487129 0.238499 0.114748
0.629541 0.259892 0.132998
0.747951 0.298894 0.159396
0.849790 0.354955 0.196750
0.104128 0.328710 0.193240
0.134554 0.329076 0.196048
0.205722 0.334905 0.195102
0.318059 0.353155 0.166323
0.478492 0.376074 0.147616
0.628260 0.397284 0.160678
0.746212 0.421942 0.186984
0.843656 0.456306 0.225223
0.219028 0.473335 0.293523
0.234318 0.472694 0.295048
0.289097 0.472847 0.303258
0.355718 0.480018 0.281193
0.458900 0.486030 0.242100
0.589990 0.500786 0.211490
0.719234 0.529717 0.237430
0.833524 0.560845 0.274693
0.338415 0.587671 0.395514
0.347967 0.587915 0.397223
0.383520 0.588556 0.404242
0.432532 0.591760 0.401587
0.495949 0.596094 0.374578
0.583551 0.600702 0.337102
0.690150 0.612543 0.299229
0.806546 0.645594 0.338689
0.460975 0.689693 0.506859
0.465095 0.689052 0.507073
0.485573 0.688655 0.511009
0.522820 0.689906 0.520256
0.558465 0.692744 0.501274
0.612970 0.695369 0.473274
0.684077 0.696986 0.433936
0.776364 0.707454 0.385626
0.577905 0.795468 0.616327
0.582177 0.796292 0.617884
0.596094 0.796963 0.621271
0.622919 0.799252 0.628962
0.651514 0.802609 0.626337
0.685847 0.806271 0.609186
0.736660 0.811460 0.586267
0.803861 0.817441 0.555200
0.014374 0.079103 0.190433
0.087922 0.082582 0.190433
0.188357 0.092714 0.192508
0.327489 0.097169 0.191409
0.480018 0.140688 0.226841
0.627100 0.186984 0.256229
0.749172 0.249729 0.282444
0.850431 0.317327 0.308659
0.015229 0.118441 0.201572
0.094026 0.121431 0.201144
0.196689 0.130861 0.201389
0.331182 0.142855 0.203891
0.480171 0.180850 0.238468
0.625360 0.215366 0.259586
0.744869 0.265782 0.280766
0.846220 0.328283 0.306493
0.022248 0.222049 0.222354
0.108064 0.226535 0.224704
0.218814 0.243565 0.234531
0.353521 0.255467 0.240452
0.497963 0.273869 0.252964
0.633814 0.301518 0.271122
0.746120 0.339055 0.291234
0.844663 0.387701 0.316930
0.173434 0.356176 0.279728
0.201205 0.359380 0.285100
0.262821 0.365057 0.292088
0.352819 0.378637 0.276677
0.504173 0.401007 0.274479
0.641474 0.421973 0.291020
0.745876 0.444831 0.311284
0.841245 0.477119 0.337499
0.267948 0.490059 0.359106
0.281376 0.489967 0.360601
0.329503 0.490913 0.368231
0.391882 0.496315 0.364630
0.480751 0.502281 0.330938
0.603815 0.516899 0.313329
0.725216 0.543175 0.336675
0.836210 0.572869 0.367590
0.369757 0.595880 0.441840
0.378454 0.596307 0.443580
0.409766 0.596704 0.449409
0.458869 0.598230 0.456794
0.510430 0.601892 0.431861
0.590204 0.605982 0.398077
0.694057 0.619135 0.370489
0.808988 0.652461 0.406378
0.480446 0.695308 0.537621
0.484474 0.694820 0.537835
0.502739 0.693996 0.540642
0.537407 0.694453 0.548577
0.571618 0.696498 0.537499
0.620600 0.699489 0.512139
0.689052 0.702174 0.477302
0.781064 0.713741 0.435645
0.584588 0.798184 0.630884
0.587335 0.797910 0.631128
0.600916 0.798459 0.634150
0.628504 0.801724 0.642420
0.659419 0.804746 0.644831
0.691981 0.809323 0.629175
0.740932 0.814755 0.607446
0.806760 0.820523 0.577386
0.000000 0.109743 0.339666
0.015290 0.113436 0.340734
0.205356 0.125917 0.338872
0.340490 0.143862 0.341344
0.479103 0.163485 0.337835
0.622400 0.217624 0.362615
0.734615 0.299474 0.408423
0.833890 0.364904 0.442786
0.000000 0.151522 0.350866
0.095674 0.154330 0.350317
0.219516 0.164096 0.347265
0.347906 0.178836 0.348821
0.484993 0.196170 0.345525
0.623713 0.247257 0.371893
0.733455 0.320806 0.416022
0.832761 0.377630 0.444282
0.016510 0.251957 0.372229
0.120851 0.254765 0.372656
0.243839 0.265476 0.371283
0.364843 0.276066 0.369726
0.504814 0.297948 0.375677
0.630976 0.344945 0.410803
0.740719 0.390112 0.440345
0.835233 0.431922 0.458534
0.164218 0.385351 0.397742
0.194217 0.387457 0.398932
0.283879 0.397894 0.405432
0.402167 0.419135 0.420569
0.524163 0.429694 0.425513
0.635248 0.446967 0.435340
0.735531 0.471107 0.449256
0.830838 0.501152 0.466743
0.306004 0.512963 0.451148
0.321080 0.513603 0.452766
0.379095 0.517998 0.461799
0.446448 0.524681 0.472999
0.513359 0.529320 0.453346
0.626123 0.544793 0.449287
0.736599 0.566857 0.468696
0.830777 0.587640 0.486183
0.433478 0.613733 0.524041
0.438819 0.616205 0.525109
0.453376 0.616724 0.521752
0.499519 0.617823 0.530571
0.544213 0.620020 0.523644
0.606958 0.621149 0.492561
0.705013 0.634852 0.476417
0.815457 0.665614 0.504387
0.506096 0.704250 0.582177
0.510887 0.704555 0.583215
0.529503 0.705043 0.586755
0.562280 0.706264 0.593622
0.600214 0.708003 0.597223
0.637629 0.709651 0.574212
0.697414 0.710445 0.542077
0.788571 0.723781 0.511742
0.596277 0.806241 0.657771
0.599420 0.806302 0.658350
0.612726 0.806729 0.660883
0.638178 0.808347 0.666590
0.673365 0.810819 0.675196
0.702937 0.814694 0.662593
0.747799 0.820035 0.641932
0.812436 0.826139 0.613794
0.000000 0.159609 0.485634
0.100496 0.163577 0.486244
0.234104 0.175448 0.483619
0.361395 0.194430 0.478950
0.489296 0.219211 0.484535
0.606287 0.253635 0.483314
0.724941 0.300359 0.489815
0.820249 0.386084 0.530602
0.094972 0.196963 0.492134
0.143404 0.199802 0.492622
0.249882 0.208286 0.489815
0.368688 0.222202 0.483619
0.493172 0.243717 0.488716
0.608515 0.275517 0.487648
0.724636 0.320500 0.495247
0.819303 0.400824 0.535088
0.167849 0.292607 0.508873
0.197482 0.294041 0.508843
0.282048 0.299443 0.506889
0.390814 0.308476 0.501946
0.502617 0.322667 0.501274
0.611658 0.346868 0.499184
0.721279 0.388586 0.514031
0.814267 0.451331 0.550561
0.202823 0.408667 0.530114
0.226902 0.410742 0.530541
0.306981 0.418158 0.533227
0.419257 0.429145 0.532372
0.521752 0.437629 0.528954
0.626398 0.454292 0.528161
0.721523 0.491524 0.553094
0.813382 0.533593 0.584405
0.306035 0.524712 0.544945
0.321294 0.526055 0.545830
0.374365 0.531487 0.549126
0.456123 0.542168 0.556237
0.548363 0.558984 0.567681
0.636774 0.565545 0.569635
0.727138 0.578302 0.575769
0.820096 0.596399 0.584955
0.418524 0.618647 0.575128
0.427436 0.619348 0.576043
0.460914 0.620935 0.579156
0.518761 0.626337 0.588220
0.573175 0.631312 0.596368
0.623743 0.635523 0.581109
0.718959 0.652522 0.579675
0.825925 0.678584 0.597986
0.528435 0.710231 0.631861
0.532464 0.710018 0.631922
0.551141 0.710658 0.633997
0.574151 0.714321 0.633631
0.618494 0.716793 0.642634
0.654963 0.718502 0.634760
0.705531 0.717556 0.605737
0.796628 0.732326 0.587427
0.600610 0.808164 0.686305
0.601587 0.808316 0.685420
0.608881 0.809140 0.683955
0.638636 0.812650 0.691096
0.676570 0.815457 0.699367
0.715145 0.819425 0.702449
0.753384 0.823484 0.681239
0.814633 0.827634 0.652735
0.195590 0.225711 0.609003
0.221744 0.228275 0.609186
0.301946 0.238590 0.608392
0.407568 0.255039 0.605890
0.513054 0.275578 0.598901
0.614191 0.301823 0.599969
0.703212 0.346014 0.599512
0.809934 0.393286 0.606806
0.216220 0.251865 0.609216
0.237797 0.253788 0.608820
0.309606 0.260594 0.607172
0.408148 0.273442 0.603540
0.511376 0.291081 0.596948
0.611719 0.315618 0.598444
0.700893 0.357519 0.598596
0.807462 0.402014 0.606043
0.268070 0.336584 0.622400
0.284215 0.337255 0.621698
0.343267 0.340764 0.619379
0.427893 0.346258 0.612909
0.522271 0.357794 0.605798
0.615961 0.376898 0.606104
0.703578 0.412024 0.607324
0.808103 0.447364 0.613550
0.296025 0.437385 0.636133
0.311345 0.438148 0.635554
0.377966 0.448676 0.634485
0.457404 0.454353 0.632105
0.543084 0.460853 0.626184
0.627039 0.472419 0.623987
0.712306 0.497475 0.625971
0.810788 0.527001 0.637079
0.350378 0.541436 0.641474
0.361547 0.542351 0.641718
0.404334 0.546502 0.643030
0.472724 0.554803 0.646387
0.557488 0.561242 0.644251
0.633906 0.565667 0.639979
0.720668 0.578851 0.641901
0.813565 0.606317 0.661952
0.434302 0.630488 0.649775
0.442878 0.632044 0.650965
0.471748 0.634577 0.652338
0.520470 0.640040 0.655451
0.582910 0.649104 0.660914
0.659541 0.666346 0.672847
0.740749 0.674403 0.676387
0.831388 0.686488 0.681697
0.521538 0.721462 0.682643
0.527123 0.722316 0.683528
0.546532 0.723751 0.684779
0.583001 0.726833 0.687739
0.634546 0.732448 0.693935
0.686732 0.738643 0.701564
0.727108 0.736416 0.680690
0.823209 0.754726 0.676814
0.603052 0.815885 0.729335
0.605829 0.815702 0.729152
0.619196 0.816464 0.729824
0.647089 0.819699 0.732967
0.679561 0.824491 0.733974
0.727474 0.829007 0.743008
0.767727 0.833188 0.735164
0.823514 0.834806 0.705104
0.336431 0.302617 0.707820
0.348699 0.303990 0.707118
0.395941 0.310307 0.705440
0.469673 0.321630 0.701900
0.552728 0.337469 0.696101
0.633387 0.358129 0.688197
0.714199 0.385901 0.689601
0.782986 0.431647 0.688106
0.347753 0.323522 0.709712
0.358892 0.324407 0.708980
0.403632 0.329686 0.707210
0.474525 0.339208 0.703731
0.555993 0.353582 0.698177
0.635828 0.372839 0.690700
0.716182 0.399420 0.692164
0.785306 0.443824 0.691157
0.370275 0.385412 0.712093
0.380591 0.386145 0.711666
0.420630 0.389593 0.710201
0.485481 0.396033 0.706935
0.561944 0.406317 0.701869
0.638361 0.420020 0.694453
0.715511 0.440558 0.694759
0.785153 0.478462 0.694636
0.396338 0.474098 0.718379
0.405035 0.474098 0.717830
0.440528 0.476173 0.716548
0.498756 0.479408 0.713344
0.569421 0.484810 0.708583
0.641840 0.491859 0.701289
0.715511 0.505394 0.700557
0.788846 0.535668 0.703456
0.413092 0.564752 0.728145
0.421912 0.565332 0.728267
0.454749 0.566644 0.728023
0.510094 0.569024 0.726925
0.581231 0.573785 0.722286
0.650782 0.575525 0.715480
0.721492 0.582269 0.713222
0.801053 0.602380 0.718044
0.469459 0.652644 0.735042
0.474891 0.652979 0.735195
0.496834 0.654475 0.735897
0.535882 0.657191 0.737301
0.590600 0.661555 0.740169
0.662959 0.662654 0.736843
0.733394 0.664851 0.731838
0.823362 0.678828 0.737636
0.528679 0.729519 0.744198
0.532616 0.729763 0.744228
0.549645 0.731441 0.745174
0.581781 0.734890 0.747158
0.628534 0.741238 0.751034
0.689265 0.751766 0.757748
0.765713 0.769619 0.769924
0.854673 0.777859 0.773312
0.592218 0.827634 0.782712
0.595239 0.827909 0.782803
0.608057 0.828611 0.782803
0.635462 0.831388 0.784329
0.677790 0.836576 0.787625
0.734981 0.844175 0.793851
0.796963 0.853025 0.803983
0.844358 0.851774 0.777829
0.490486 0.417884 0.815610
0.497261 0.418769 0.815152
0.525109 0.423743 0.814054
0.572259 0.431861 0.811063
0.632441 0.443671 0.806577
0.697566 0.458747 0.800534
0.761746 0.475227 0.792416
0.830320 0.497749 0.794217
0.494240 0.431800 0.816678
0.500694 0.432410 0.816190
0.527642 0.436408 0.814908
0.574273 0.443763 0.812100
0.633600 0.454505 0.807645
0.698421 0.468330 0.801663
0.762600 0.483864 0.793790
0.831205 0.505791 0.795743
0.501488 0.475837 0.818418
0.507805 0.476326 0.818021
0.533440 0.479164 0.816922
0.577234 0.483497 0.813687
0.635218 0.491279 0.809720
0.699153 0.501640 0.804135
0.762814 0.513085 0.796384
0.831235 0.530938 0.798062
0.508629 0.540581 0.822538
0.514549 0.540734 0.822110
0.538659 0.542199 0.820981
0.581048 0.544579 0.818326
0.636896 0.548394 0.814298
0.699458 0.553521 0.808713
0.762783 0.559228 0.801083
0.831418 0.571191 0.802121
0.501335 0.607660 0.831327
0.506157 0.607080 0.831052
0.533074 0.609583 0.830228
0.579309 0.612512 0.827665
0.635584 0.613275 0.823941
0.699153 0.614374 0.818509
0.764553 0.615412 0.810727
0.834745 0.622766 0.810300
0.520287 0.693385 0.842039
0.524376 0.693568 0.842344
0.541558 0.693263 0.842924
0.575341 0.689876 0.842252
0.623102 0.683162 0.840360
0.695583 0.684016 0.833799
0.766018 0.681727 0.824735
0.840452 0.685451 0.822141
0.561212 0.770657 0.850706
0.564446 0.770809 0.850919
0.578271 0.771450 0.851682
0.604486 0.772122 0.852781
0.644190 0.773129 0.854551
0.697475 0.774044 0.857267
0.774136 0.770596 0.852476
0.856809 0.770993 0.846220
0.611749 0.850889 0.865354
0.614740 0.851286 0.865660
0.626429 0.852415 0.866331
0.649134 0.854276 0.867094
0.685145 0.857939 0.869108
0.736294 0.864439 0.872892
0.805142 0.875456 0.879881
0.895537 0.897032 0.895964
