20 Preset/Food Style/【3】LUT video cho PR-AE-FCPX/Food Style Tone (5).cube
# Created by Adobe Lightroom plugin Export LUT (1.24.0)
# www.johnrellis.com/lightroom/exportlut.htm
# Preset: 静谧咖啡-素材江湖01
# Color profile: E:\lut插件\exportlut.1.24\exportlut.lrplugin\color profiles\Rec709gamma2.4.icc
LUT_3D_SIZE 8
DOMAIN_MIN 0.000000 0.000000 0.000000
DOMAIN_MAX 0.903226 0.903226 0.903226
0.112306 0.154849 0.142519
0.135531 0.159304 0.144137
0.191623 0.171359 0.149111
0.278935 0.186526 0.152834
0.406043 0.206394 0.156100
0.582971 0.234531 0.157809
0.766842 0.274571 0.159640
0.921233 0.334295 0.171054
0.117800 0.169986 0.149172
0.133547 0.172793 0.148898
0.186954 0.181430 0.151492
0.270726 0.194949 0.154665
0.393469 0.215091 0.157961
0.560601 0.242405 0.159701
0.739681 0.278904 0.160891
0.903532 0.335882 0.169741
0.130770 0.207340 0.164401
0.135409 0.208621 0.165347
0.188418 0.217990 0.162692
0.273075 0.233127 0.163638
0.394110 0.255131 0.165652
0.565423 0.287541 0.166567
0.754391 0.330022 0.168643
0.914031 0.385931 0.182315
0.150423 0.273869 0.190341
0.155062 0.274449 0.190890
0.184665 0.280552 0.191226
0.293919 0.304997 0.184634
0.430365 0.335302 0.182162
0.574182 0.364416 0.178775
0.747890 0.403784 0.182040
0.903044 0.454353 0.199100
0.172335 0.376715 0.228000
0.177615 0.377356 0.228336
0.199557 0.382635 0.231968
0.287572 0.401282 0.227634
0.440467 0.427619 0.210605
0.586511 0.452735 0.203525
0.729244 0.484443 0.201602
0.880919 0.533867 0.220066
0.207126 0.510826 0.283696
0.215671 0.517052 0.287327
0.240391 0.520897 0.290990
0.294347 0.530480 0.295293
0.437995 0.551446 0.280430
0.617182 0.579461 0.258335
0.763516 0.604120 0.262181
0.888762 0.639033 0.283848
0.304417 0.671778 0.379797
0.311376 0.673671 0.381903
0.331823 0.675105 0.384863
0.370489 0.679866 0.392737
0.467811 0.689570 0.389044
0.620722 0.706722 0.375463
0.786954 0.726345 0.360174
0.897093 0.739376 0.383581
0.514916 0.813230 0.538079
0.518151 0.813413 0.538933
0.533227 0.814786 0.543572
0.563195 0.818051 0.554376
0.583062 0.813901 0.551141
0.695674 0.822446 0.550744
0.815640 0.830137 0.550652
0.923491 0.836545 0.547234
0.114839 0.160250 0.155978
0.132235 0.163729 0.156039
0.188357 0.173678 0.160403
0.269871 0.190890 0.166781
0.393683 0.210422 0.170962
0.556847 0.235416 0.174411
0.730983 0.269352 0.176791
0.893828 0.323613 0.185580
0.114321 0.174746 0.158541
0.133608 0.175814 0.161166
0.185763 0.185122 0.164309
0.268406 0.199680 0.168399
0.390265 0.219425 0.172274
0.550134 0.244694 0.175296
0.718959 0.277073 0.177218
0.882170 0.328405 0.184909
0.137606 0.210391 0.172091
0.145998 0.212070 0.175570
0.188632 0.220157 0.174136
0.269322 0.234958 0.175326
0.388830 0.255680 0.178073
0.546838 0.284001 0.180453
0.720760 0.319738 0.182681
0.887999 0.372625 0.193820
0.159396 0.273075 0.198245
0.163516 0.274022 0.198825
0.186343 0.279820 0.200565
0.284916 0.298741 0.193698
0.404852 0.322332 0.191562
0.541619 0.349096 0.189670
0.712184 0.386542 0.192294
0.877165 0.437385 0.206088
0.181949 0.376104 0.236088
0.186770 0.376165 0.236454
0.206332 0.379553 0.239017
0.282475 0.393866 0.235142
0.426093 0.416388 0.219059
0.567651 0.440986 0.213138
0.711147 0.473457 0.210758
0.866728 0.523095 0.227390
0.214694 0.504082 0.289006
0.220890 0.505211 0.290105
0.243595 0.509514 0.293614
0.289860 0.519951 0.299901
0.429755 0.542565 0.286656
0.608789 0.573083 0.267552
0.754421 0.597650 0.270176
0.879973 0.631800 0.288182
0.302495 0.662531 0.379492
0.306096 0.661494 0.379065
0.325902 0.662715 0.381537
0.364660 0.668818 0.390051
0.459602 0.681636 0.390478
0.611505 0.699245 0.377050
0.775967 0.717678 0.359442
0.887663 0.730526 0.378119
0.504753 0.807584 0.532616
0.510735 0.808804 0.535332
0.525353 0.810086 0.539605
0.555657 0.813626 0.550347
0.596002 0.817899 0.564874
0.698665 0.823667 0.559564
0.813993 0.829435 0.554406
0.921874 0.835782 0.550439
0.118776 0.171359 0.186404
0.135042 0.173678 0.187472
0.181430 0.182498 0.190036
0.273808 0.197940 0.200504
0.416663 0.216373 0.215091
0.584436 0.246433 0.227024
0.755428 0.285130 0.237797
0.910704 0.343877 0.254368
0.122164 0.183688 0.191196
0.136751 0.185733 0.193271
0.184146 0.193942 0.195254
0.275731 0.207279 0.204807
0.410346 0.227573 0.216831
0.574212 0.256535 0.227573
0.743618 0.292058 0.236179
0.901427 0.348302 0.252079
0.117922 0.225742 0.202029
0.134890 0.227024 0.204257
0.192599 0.231724 0.213748
0.282292 0.246555 0.218326
0.413153 0.269261 0.225528
0.573144 0.297429 0.232731
0.741238 0.333471 0.241367
0.898405 0.387243 0.258793
0.154879 0.285618 0.210300
0.169467 0.288151 0.217197
0.214511 0.296849 0.239963
0.295872 0.314000 0.237888
0.418006 0.336431 0.237278
0.567193 0.365057 0.241520
0.735073 0.402502 0.251225
0.891020 0.453651 0.271183
0.195651 0.389258 0.260472
0.210300 0.391089 0.267338
0.243259 0.396948 0.279759
0.295506 0.409735 0.282689
0.439857 0.432929 0.269017
0.577844 0.453895 0.264012
0.717617 0.483589 0.263432
0.875364 0.534630 0.287755
0.256718 0.516381 0.329473
0.262821 0.517998 0.331029
0.282872 0.521569 0.334173
0.318425 0.529381 0.341070
0.434913 0.548974 0.332982
0.609857 0.578302 0.317784
0.753506 0.602625 0.321233
0.880186 0.638148 0.338079
0.346349 0.672816 0.420417
0.349310 0.672114 0.419928
0.365423 0.672084 0.421027
0.399023 0.676204 0.427558
0.469825 0.686213 0.431708
0.616327 0.704463 0.420600
0.780117 0.724880 0.408057
0.890959 0.739376 0.427466
0.527794 0.809476 0.557671
0.529717 0.809201 0.557458
0.543084 0.810239 0.561120
0.574792 0.814878 0.573327
0.612757 0.818875 0.586664
0.703761 0.825406 0.587396
0.815824 0.831632 0.583398
0.921447 0.837919 0.578943
0.116609 0.185031 0.236210
0.134554 0.188327 0.238834
0.189944 0.196170 0.244175
0.263096 0.212100 0.251713
0.392218 0.237400 0.273075
0.594141 0.239963 0.296635
0.770413 0.291844 0.329015
0.912871 0.361639 0.353735
0.118990 0.196963 0.243870
0.136172 0.199863 0.246494
0.193515 0.207767 0.251225
0.268162 0.222660 0.258213
0.399817 0.247288 0.279789
0.598474 0.251164 0.301091
0.766873 0.304448 0.330724
0.910430 0.370855 0.354803
0.115297 0.236057 0.257786
0.132448 0.236942 0.259892
0.191867 0.243076 0.270085
0.279210 0.258946 0.277226
0.423468 0.283970 0.301396
0.612268 0.314488 0.330327
0.774838 0.360723 0.349157
0.915038 0.417975 0.369818
0.037232 0.313787 0.282200
0.099336 0.315282 0.284489
0.184237 0.322210 0.296056
0.303136 0.335149 0.320378
0.439033 0.357122 0.327794
0.592401 0.385504 0.337591
0.753597 0.422919 0.351965
0.900908 0.475349 0.374548
0.150576 0.411048 0.273991
0.172793 0.412451 0.281132
0.245182 0.421027 0.312902
0.341833 0.438087 0.366369
0.456489 0.458900 0.361547
0.591852 0.476570 0.355901
0.741512 0.508659 0.363897
0.888579 0.556603 0.389563
0.234257 0.539666 0.349828
0.254154 0.545525 0.359869
0.316197 0.550896 0.388159
0.388434 0.561181 0.422187
0.458381 0.574884 0.424231
0.621576 0.598138 0.409613
0.757778 0.617914 0.409430
0.880674 0.650477 0.420264
0.351446 0.684749 0.448310
0.367010 0.686183 0.455879
0.423590 0.690333 0.484749
0.465156 0.695766 0.498970
0.506340 0.702663 0.508598
0.629419 0.717922 0.499336
0.783566 0.735103 0.486305
0.891173 0.749172 0.498817
0.557122 0.816403 0.594263
0.566674 0.816403 0.599817
0.588190 0.817014 0.609949
0.612146 0.819272 0.616999
0.645472 0.822507 0.627375
0.710933 0.828031 0.633143
0.817075 0.834653 0.629480
0.920287 0.841703 0.626856
0.097444 0.204837 0.311803
0.122408 0.209018 0.315312
0.186526 0.215824 0.321691
0.280980 0.228061 0.334112
0.385809 0.250797 0.351690
0.540459 0.293919 0.381201
0.747372 0.318303 0.421241
0.920409 0.391302 0.473304
0.091493 0.213840 0.319463
0.119692 0.218296 0.323400
0.189395 0.226535 0.329839
0.284459 0.237919 0.340642
0.390021 0.260655 0.357214
0.544366 0.304692 0.386786
0.749874 0.329290 0.426062
0.919707 0.406134 0.480385
0.091279 0.250706 0.334997
0.111757 0.251835 0.337926
0.182834 0.259556 0.350469
0.291569 0.273991 0.361730
0.401068 0.297368 0.375128
0.552483 0.339879 0.402960
0.755245 0.368353 0.441077
0.913176 0.454749 0.500816
0.000000 0.323796 0.363684
0.000000 0.324498 0.365850
0.163760 0.327977 0.376135
0.291142 0.342412 0.399878
0.426429 0.371923 0.415534
0.590051 0.410101 0.445228
0.774075 0.457557 0.486610
0.906401 0.510887 0.506737
0.000000 0.437171 0.399847
0.000000 0.439124 0.402594
0.117250 0.445960 0.413458
0.290806 0.459174 0.435615
0.454902 0.478126 0.470710
0.604486 0.500816 0.476478
0.756771 0.533410 0.487678
0.893767 0.577356 0.506279
0.137575 0.541192 0.367742
0.165835 0.543877 0.370672
0.246403 0.550927 0.385077
0.362066 0.562524 0.437446
0.487831 0.581415 0.507805
0.616541 0.608667 0.508812
0.751247 0.628107 0.504997
0.880247 0.661891 0.518090
0.272099 0.691829 0.445014
0.288304 0.691493 0.449805
0.351171 0.692927 0.472633
0.461097 0.701289 0.525536
0.558892 0.711879 0.575891
0.630549 0.723415 0.578302
0.777157 0.739773 0.565545
0.883421 0.751888 0.567132
0.463264 0.816251 0.557580
0.476020 0.816159 0.563592
0.526421 0.816220 0.589044
0.617731 0.819821 0.641596
0.673243 0.822904 0.668605
0.712032 0.827604 0.681300
0.810056 0.834684 0.676814
0.912627 0.841642 0.671748
0.000000 0.231022 0.418616
0.012146 0.235386 0.422278
0.168704 0.241855 0.428565
0.283238 0.253452 0.443732
0.416449 0.270481 0.462379
0.541924 0.304021 0.483009
0.703090 0.374853 0.516136
0.881376 0.457435 0.574853
0.000000 0.236851 0.418769
0.000000 0.240818 0.421454
0.168826 0.249577 0.429267
0.280858 0.259983 0.441321
0.412177 0.276951 0.459602
0.537591 0.310704 0.480842
0.698116 0.380346 0.514855
0.877897 0.460029 0.573449
0.000000 0.272099 0.438514
0.000000 0.272648 0.441230
0.152865 0.281468 0.453162
0.284886 0.294865 0.461860
0.421942 0.313756 0.478553
0.551385 0.350103 0.499794
0.708186 0.422248 0.533806
0.882628 0.495796 0.589624
0.000000 0.338476 0.463783
0.000000 0.338231 0.464851
0.119966 0.340490 0.473884
0.279393 0.361486 0.502434
0.443427 0.389166 0.521294
0.582300 0.429389 0.540642
0.731777 0.503990 0.575402
0.895811 0.562341 0.622705
0.000000 0.445350 0.497719
0.000000 0.446021 0.499306
0.000000 0.449012 0.507042
0.251316 0.455177 0.523217
0.432349 0.476600 0.553491
0.595056 0.519860 0.573754
0.753933 0.574212 0.608362
0.902647 0.629786 0.650141
0.000000 0.580652 0.533867
0.000000 0.583764 0.537499
0.000000 0.588251 0.544945
0.241917 0.597314 0.560235
0.436591 0.611597 0.585748
0.626917 0.639277 0.630091
0.772610 0.664820 0.638666
0.894591 0.695979 0.651087
0.138735 0.701411 0.511040
0.180606 0.704036 0.514397
0.279911 0.709865 0.523461
0.405921 0.721553 0.542565
0.543023 0.731624 0.601587
0.674861 0.743435 0.673945
0.781308 0.757351 0.668421
0.883391 0.767025 0.661738
0.382513 0.826627 0.556054
0.393561 0.826108 0.559564
0.444556 0.825742 0.578149
0.534478 0.826658 0.617212
0.650599 0.827420 0.677455
0.748501 0.830655 0.733425
0.807401 0.837491 0.739376
0.906188 0.844907 0.733516
0.000000 0.263432 0.547936
0.000000 0.267887 0.551751
0.112184 0.275364 0.557214
0.276097 0.285313 0.567529
0.423163 0.300816 0.581689
0.580163 0.326757 0.600610
0.706538 0.379522 0.619318
0.830381 0.481361 0.641260
0.000000 0.266911 0.544518
0.000000 0.271397 0.548699
0.109041 0.281376 0.555138
0.272099 0.290532 0.563806
0.418006 0.305638 0.577264
0.572320 0.330449 0.594781
0.696742 0.380499 0.612146
0.821347 0.477485 0.633906
0.000000 0.295476 0.558007
0.000000 0.295842 0.560204
0.000000 0.306218 0.568139
0.270451 0.321813 0.577722
0.421302 0.337774 0.589288
0.578943 0.365087 0.606897
0.708156 0.419654 0.627558
0.832425 0.519524 0.653620
0.000000 0.353613 0.575036
0.000000 0.353704 0.575921
0.000000 0.356481 0.583307
0.243931 0.374609 0.601740
0.425666 0.399390 0.614740
0.592615 0.431891 0.632898
0.724758 0.490364 0.653590
0.843534 0.582116 0.680598
0.000000 0.449256 0.598077
0.000000 0.447791 0.597559
0.000000 0.445075 0.600122
0.162722 0.441199 0.608453
0.396490 0.471138 0.636500
0.589532 0.510765 0.654353
0.731106 0.566339 0.675319
0.855039 0.654536 0.711910
0.000000 0.585351 0.634119
0.000000 0.585718 0.635309
0.000000 0.586175 0.639277
0.000000 0.586816 0.647700
0.359594 0.587793 0.661158
0.583246 0.616449 0.693050
0.754635 0.672541 0.718471
0.878386 0.729793 0.752529
0.000000 0.731014 0.669184
0.000000 0.732296 0.671107
0.000000 0.734005 0.675502
0.119448 0.738125 0.685481
0.412024 0.743893 0.701320
0.608240 0.754208 0.726833
0.784298 0.775723 0.768002
0.890440 0.791257 0.774136
0.238376 0.824094 0.643793
0.263554 0.824826 0.645686
0.352850 0.828550 0.654841
0.468147 0.832639 0.669062
0.598169 0.837705 0.691188
0.723476 0.840299 0.743038
0.829801 0.843992 0.805875
0.902068 0.851713 0.804166
0.000000 0.317754 0.702205
0.000000 0.322332 0.704097
0.009949 0.331914 0.705837
0.293645 0.341894 0.711421
0.454108 0.358068 0.719234
0.612512 0.384192 0.729213
0.766262 0.431830 0.743435
0.861540 0.509056 0.753964
0.000000 0.319341 0.699031
0.000000 0.323888 0.700984
0.000000 0.336828 0.704311
0.289067 0.346380 0.709316
0.450141 0.362249 0.717128
0.608728 0.388190 0.727230
0.761685 0.434058 0.740658
0.857572 0.509514 0.751156
0.000000 0.337072 0.701808
0.000000 0.337591 0.703243
0.000000 0.352361 0.706722
0.279667 0.372900 0.715663
0.446448 0.388647 0.721981
0.606348 0.414069 0.730587
0.760067 0.460578 0.744198
0.857267 0.534081 0.755489
0.000000 0.384863 0.706477
0.000000 0.385748 0.708125
0.000000 0.388037 0.712703
0.217960 0.408759 0.723323
0.433509 0.435645 0.731716
0.603998 0.464271 0.741176
0.760891 0.511406 0.754788
0.860319 0.582422 0.767391
0.000000 0.459236 0.715358
0.000000 0.458198 0.716304
0.000000 0.450416 0.716274
0.000000 0.456184 0.726040
0.373877 0.486580 0.741299
0.584680 0.524498 0.751705
0.754452 0.571740 0.766140
0.862730 0.642847 0.782467
0.000000 0.589532 0.740017
0.000000 0.587457 0.739406
0.000000 0.580896 0.738552
0.000000 0.570336 0.740108
0.219944 0.554864 0.744991
0.538231 0.599268 0.769986
0.751400 0.657404 0.789120
0.871427 0.724178 0.809049
0.000000 0.743587 0.772885
0.000000 0.742855 0.772854
0.000000 0.740078 0.773342
0.000000 0.736324 0.776059
0.218418 0.730404 0.781125
0.496803 0.723537 0.790280
0.732296 0.745937 0.813169
0.876982 0.794430 0.833341
0.000000 0.859190 0.800046
0.000000 0.858885 0.800259
0.000000 0.858030 0.801999
0.190249 0.857053 0.806699
0.436988 0.854795 0.813870
0.615686 0.851774 0.824643
0.774258 0.850980 0.842130
0.902098 0.862028 0.873320
