20 Preset/Food Style/【3】LUT video cho PR-AE-FCPX/Food Style Tone (11).cube
# Created by Adobe Lightroom plugin Export LUT (1.24.0)
# www.johnrellis.com/lightroom/exportlut.htm
# Preset: 静谧咖啡-素材江湖07
# Color profile: E:\lut插件\exportlut.1.24\exportlut.lrplugin\color profiles\Rec709gamma2.4.icc
LUT_3D_SIZE 5
DOMAIN_MIN 0.000000 0.000000 0.000000
DOMAIN_MAX 0.903226 0.903226 0.903226
0.052338 0.109529 0.125643
0.118166 0.110658 0.129854
0.308965 0.058595 0.137423
0.608026 0.000000 0.149477
0.938842 0.000000 0.189120
0.000000 0.160464 0.147799
0.117067 0.154238 0.137728
0.327977 0.153292 0.130831
0.627008 0.000000 0.140902
0.950500 0.000000 0.182956
0.000000 0.416236 0.265721
0.101534 0.382574 0.269993
0.372198 0.399268 0.193240
0.703059 0.405066 0.000000
0.967437 0.402502 0.129274
0.000000 0.765957 0.497322
0.000000 0.750729 0.492226
0.467720 0.679194 0.520745
0.706203 0.744350 0.338415
0.962219 0.741878 0.000000
0.621088 0.941161 0.829343
0.633906 0.938659 0.826017
0.702144 0.922942 0.828641
0.776333 0.912200 0.828397
0.899962 0.930785 0.708919
0.015625 0.114748 0.181003
0.118196 0.113771 0.163180
0.316503 0.095888 0.153567
0.607599 0.000000 0.144411
0.929778 0.000000 0.182620
0.000000 0.174868 0.210513
0.124208 0.170901 0.197482
0.339269 0.165133 0.173922
0.627863 0.120150 0.135317
0.939269 0.000000 0.175937
0.000000 0.438025 0.318669
0.000000 0.417273 0.315343
0.375189 0.403479 0.266117
0.695918 0.400397 0.167971
0.965820 0.411841 0.124117
0.000000 0.777584 0.535760
0.000000 0.766293 0.539452
0.477974 0.699550 0.554040
0.707240 0.748043 0.410437
0.959350 0.743099 0.221500
0.613916 0.943572 0.836118
0.643519 0.940368 0.839628
0.710811 0.927733 0.842252
0.782712 0.913756 0.843870
0.898405 0.932433 0.743099
0.000000 0.129854 0.420661
0.121950 0.125704 0.420142
0.380133 0.093385 0.364630
0.694209 0.000000 0.326207
0.942901 0.000000 0.256321
0.000000 0.207919 0.436133
0.000000 0.203952 0.438605
0.398291 0.198672 0.394598
0.692012 0.055451 0.341894
0.950683 0.000000 0.273930
0.000000 0.462196 0.529931
0.000000 0.459083 0.519829
0.406043 0.448402 0.482002
0.702388 0.431983 0.427314
0.966064 0.423987 0.334142
0.000000 0.823453 0.692958
0.000000 0.812436 0.680446
0.471473 0.768856 0.669001
0.707088 0.763149 0.617090
0.944213 0.747585 0.502647
0.516777 0.955718 0.853208
0.572045 0.952148 0.856840
0.711025 0.938811 0.871427
0.793881 0.913725 0.877470
0.890776 0.933288 0.817044
0.000000 0.182956 0.767453
0.000000 0.178744 0.771542
0.549004 0.148074 0.784634
0.780850 0.000000 0.708003
1.000000 0.142061 0.653101
0.000000 0.261112 0.769192
0.000000 0.262669 0.772824
0.534417 0.269200 0.786709
0.779202 0.250370 0.720668
1.000000 0.285771 0.663111
0.000000 0.476356 0.764034
0.000000 0.471351 0.757015
0.415778 0.491890 0.784329
0.752255 0.535027 0.758572
0.964416 0.522393 0.695644
0.000000 0.790921 0.851682
0.000000 0.789334 0.848600
0.243900 0.786740 0.838041
0.703731 0.781949 0.813993
0.911559 0.756985 0.754513
0.000000 0.979797 0.921019
0.303044 0.976562 0.919158
0.584527 0.963989 0.912657
0.800198 0.940002 0.913695
0.888945 0.937407 0.897124
0.214542 0.340063 0.969116
0.352178 0.343572 0.969085
0.632319 0.368414 0.969482
0.893980 0.463691 0.967803
1.000000 0.425391 0.934203
0.159518 0.397833 0.966278
0.326879 0.402747 0.966369
0.618158 0.430823 0.966644
0.879728 0.524895 0.964721
1.000000 0.497810 0.933562
0.000000 0.551446 0.958373
0.000000 0.557366 0.958434
0.540703 0.593835 0.958495
0.829526 0.679286 0.956695
0.957305 0.688716 0.934966
0.000000 0.774594 0.956542
0.000000 0.771298 0.955108
0.000000 0.760159 0.949554
0.732692 0.805905 0.950011
0.911711 0.856321 0.943664
0.120760 0.950683 0.967163
0.273350 0.949920 0.966674
0.517235 0.947784 0.965087
0.726955 0.944396 0.961242
0.892515 0.940856 0.953857
