20 Preset/Food Style/【3】LUT video cho PR-AE-FCPX/Food Style Tone (9).cube
# Created by Adobe Lightroom plugin Export LUT (1.24.0)
# www.johnrellis.com/lightroom/exportlut.htm
# Preset: 静谧咖啡-素材江湖05
# Color profile: E:\lut插件\exportlut.1.24\exportlut.lrplugin\color profiles\Rec709gamma2.4.icc
LUT_3D_SIZE 32
DOMAIN_MIN 0.0 0.0 0.0
DOMAIN_MAX 1.0 1.0 1.0
0.034668 0.038300 0.008789
0.039918 0.038819 0.008606
0.053651 0.042817 0.010071
0.088350 0.049256 0.012879
0.105989 0.063294 0.020111
0.130709 0.074586 0.028016
0.162539 0.078676 0.035431
0.198672 0.078187 0.041871
0.237186 0.072053 0.047150
0.278080 0.062379 0.052827
0.320043 0.050965 0.059693
0.363012 0.036255 0.065431
0.407507 0.023041 0.072267
0.453040 0.014618 0.080415
0.499672 0.021057 0.088594
0.546960 0.047242 0.096925
0.594995 0.092409 0.106569
0.643610 0.119448 0.118196
0.692958 0.147494 0.130983
0.743038 0.175845 0.145205
0.795071 0.207767 0.161776
0.849973 0.245151 0.183566
0.895354 0.280674 0.206760
0.934417 0.314977 0.231662
0.967834 0.348425 0.258030
0.996399 0.381109 0.286259
1.000000 0.413397 0.317205
1.000000 0.445167 0.349981
1.000000 0.477577 0.385595
1.000000 0.510643 0.424018
1.000000 0.544091 0.465370
1.000000 0.578607 0.509422
0.035492 0.042664 0.009308
0.037476 0.042451 0.009308
0.055177 0.045991 0.010712
0.087892 0.053834 0.013428
0.105837 0.066682 0.020813
0.130312 0.076967 0.028840
0.161654 0.080476 0.035157
0.197238 0.080385 0.041627
0.235294 0.076478 0.046937
0.275456 0.068360 0.052674
0.317113 0.056123 0.058747
0.359686 0.043183 0.065675
0.403754 0.030030 0.070649
0.449165 0.023377 0.079438
0.495430 0.029358 0.088228
0.542596 0.055573 0.096345
0.590784 0.094331 0.106264
0.639094 0.120546 0.117556
0.688411 0.147707 0.130343
0.738338 0.175540 0.143954
0.789853 0.206607 0.160647
0.843595 0.242283 0.181247
0.888579 0.276463 0.203281
0.927337 0.310124 0.227207
0.961089 0.342412 0.252567
0.990295 0.374578 0.280217
1.000000 0.406714 0.310277
1.000000 0.438697 0.342657
1.000000 0.471168 0.377752
1.000000 0.504173 0.416052
1.000000 0.538048 0.457404
1.000000 0.572656 0.501335
0.039399 0.062287 0.011078
0.044648 0.062837 0.010895
0.060487 0.063203 0.012787
0.088838 0.069093 0.016938
0.106203 0.079896 0.024475
0.131563 0.086030 0.031373
0.162570 0.088594 0.037659
0.197391 0.089174 0.042878
0.235203 0.088106 0.049042
0.275029 0.084230 0.055756
0.316320 0.077516 0.060578
0.358648 0.067659 0.066102
0.402106 0.056306 0.073396
0.447059 0.053864 0.081025
0.493172 0.063325 0.089479
0.540215 0.087587 0.097414
0.587793 0.108248 0.107149
0.636530 0.131228 0.118227
0.685695 0.156130 0.130983
0.735378 0.183383 0.144839
0.787839 0.213596 0.161715
0.840726 0.247105 0.181674
0.885283 0.279911 0.203037
0.923857 0.312016 0.226719
0.957549 0.344091 0.251957
0.986969 0.375097 0.278569
1.000000 0.406439 0.308141
1.000000 0.437995 0.340246
1.000000 0.470283 0.375433
1.000000 0.503105 0.413245
1.000000 0.536675 0.454231
1.000000 0.571099 0.498421
0.058747 0.088563 0.019715
0.062013 0.088838 0.019532
0.076173 0.089082 0.020325
0.092256 0.089906 0.022827
0.109834 0.092531 0.029816
0.134798 0.096681 0.036408
0.165621 0.099336 0.042237
0.199954 0.100832 0.046967
0.237217 0.101015 0.052674
0.276646 0.100008 0.057801
0.317327 0.098268 0.063172
0.359136 0.096254 0.069398
0.401984 0.095491 0.076814
0.446418 0.096681 0.084199
0.491890 0.102052 0.091218
0.537987 0.114260 0.099794
0.585351 0.131167 0.109041
0.632868 0.151217 0.120424
0.681575 0.173434 0.133089
0.730739 0.197726 0.146792
0.783597 0.225620 0.162966
0.834379 0.256443 0.182498
0.878508 0.286961 0.202945
0.917540 0.317571 0.226047
0.952422 0.348363 0.251194
0.983001 0.379309 0.278660
1.000000 0.410925 0.308751
1.000000 0.442329 0.341741
1.000000 0.474403 0.376989
1.000000 0.506737 0.414984
1.000000 0.539513 0.455787
1.000000 0.572717 0.498268
0.075471 0.105959 0.030457
0.078035 0.106569 0.030121
0.087098 0.106752 0.029755
0.099184 0.107637 0.030976
0.116579 0.107942 0.034180
0.139193 0.110475 0.041230
0.169131 0.114473 0.047272
0.202701 0.117769 0.053223
0.239445 0.119326 0.058137
0.277897 0.119875 0.063844
0.317754 0.120211 0.068482
0.358831 0.121370 0.074678
0.401190 0.123018 0.081361
0.445258 0.126833 0.088411
0.490211 0.133730 0.095308
0.536736 0.145724 0.103731
0.583886 0.160739 0.113588
0.631830 0.178988 0.125124
0.680507 0.198550 0.137331
0.729580 0.220737 0.151247
0.783505 0.247440 0.168276
0.832944 0.275181 0.186740
0.876097 0.303227 0.207462
0.915129 0.331792 0.230411
0.950072 0.361120 0.255619
0.980957 0.390692 0.282750
1.000000 0.420630 0.313146
1.000000 0.450782 0.345556
1.000000 0.481697 0.380652
1.000000 0.512902 0.418372
1.000000 0.544701 0.458381
1.000000 0.577050 0.500633
0.081453 0.128695 0.038758
0.083314 0.128878 0.039734
0.091859 0.129183 0.038056
0.103700 0.130556 0.037659
0.123445 0.131472 0.040223
0.147005 0.131930 0.044556
0.175143 0.134310 0.052216
0.208042 0.138247 0.058350
0.244175 0.142519 0.064515
0.282475 0.145571 0.071565
0.321721 0.147921 0.075807
0.362219 0.150607 0.082521
0.404425 0.154879 0.088655
0.447791 0.160830 0.094270
0.492775 0.169558 0.101350
0.538872 0.181338 0.110262
0.586114 0.195834 0.120790
0.634241 0.212619 0.132235
0.682887 0.231083 0.145113
0.733883 0.251957 0.159365
0.787503 0.277287 0.176974
0.835538 0.302586 0.195621
0.915190 0.358923 0.240635
0.950774 0.387091 0.267826
0.981079 0.415137 0.296910
1.000000 0.442512 0.327001
1.000000 0.470039 0.358953
1.000000 0.497597 0.392432
1.000000 0.525780 0.428168
1.000000 0.554345 0.465461
1.000000 0.583337 0.504570
1.000000 0.612787 0.544854
0.088350 0.159274 0.045502
0.088808 0.159426 0.045350
0.096071 0.159976 0.045655
0.110018 0.161044 0.043915
0.130526 0.162478 0.043397
0.157351 0.163607 0.046571
0.187381 0.165042 0.053956
0.220768 0.167849 0.064179
0.256870 0.172549 0.070832
0.295293 0.178286 0.080568
0.335912 0.185092 0.088319
0.377142 0.190585 0.093019
0.419226 0.196902 0.098390
0.462745 0.204501 0.105287
0.507530 0.214511 0.112795
0.553216 0.226627 0.122316
0.600305 0.240452 0.132876
0.647761 0.255863 0.145022
0.696376 0.273167 0.157992
0.753841 0.297215 0.175265
0.808652 0.322606 0.195163
0.857786 0.348486 0.217899
0.901457 0.375494 0.243107
0.940063 0.403052 0.271305
0.973114 0.430365 0.301366
1.000000 0.456794 0.332158
1.000000 0.482673 0.364141
1.000000 0.508629 0.397101
1.000000 0.535027 0.432074
1.000000 0.561639 0.468269
1.000000 0.589288 0.506218
1.000000 0.617548 0.545953
0.092866 0.189181 0.051972
0.094148 0.189303 0.050690
0.101289 0.189883 0.050813
0.115358 0.190646 0.050202
0.135134 0.192355 0.046815
0.161379 0.193942 0.048066
0.191775 0.195956 0.053193
0.224918 0.198093 0.063416
0.260472 0.202304 0.078370
0.298070 0.208682 0.087648
0.337224 0.216373 0.093782
0.378607 0.225772 0.101137
0.421637 0.236271 0.109285
0.464729 0.245090 0.115694
0.508873 0.255436 0.124483
0.553948 0.267124 0.133700
0.600366 0.280491 0.144656
0.648005 0.294865 0.155886
0.701289 0.314183 0.171145
0.756161 0.335332 0.188113
0.807919 0.357214 0.207462
0.854978 0.380072 0.229587
0.897398 0.403937 0.254459
0.935119 0.428168 0.282200
0.967803 0.452674 0.312169
0.995117 0.476539 0.342473
1.000000 0.500389 0.373968
1.000000 0.524132 0.406378
1.000000 0.548852 0.440497
1.000000 0.574121 0.476387
1.000000 0.600214 0.513695
1.000000 0.626856 0.552483
0.099580 0.222385 0.058778
0.101259 0.222446 0.058595
0.108400 0.222873 0.058717
0.121553 0.223697 0.056672
0.140902 0.225040 0.054383
0.164981 0.226627 0.049714
0.195224 0.229007 0.054871
0.227909 0.232181 0.065370
0.263066 0.235874 0.079286
0.299992 0.241489 0.091463
0.339330 0.250553 0.100313
0.379828 0.260685 0.108370
0.422583 0.272526 0.117678
0.467323 0.286381 0.128481
0.512749 0.299443 0.139284
0.557702 0.310979 0.148745
0.603967 0.323583 0.159182
0.655512 0.340276 0.172976
0.708339 0.358251 0.188235
0.760586 0.377020 0.204990
0.809659 0.396399 0.224460
0.854490 0.416205 0.246372
0.895476 0.436713 0.271122
0.932158 0.458045 0.298619
0.964080 0.479622 0.327733
0.990936 0.501061 0.358038
1.000000 0.522515 0.388891
1.000000 0.544579 0.420752
1.000000 0.567163 0.454108
1.000000 0.590570 0.489082
1.000000 0.614954 0.525811
1.000000 0.639948 0.563470
0.106661 0.258518 0.071229
0.108736 0.258366 0.070192
0.115084 0.258824 0.069032
0.128176 0.259464 0.068116
0.146181 0.260472 0.064851
0.169375 0.261845 0.061158
0.197055 0.263859 0.059724
0.229892 0.267521 0.069520
0.264195 0.271702 0.083558
0.300511 0.276890 0.093690
0.338689 0.283970 0.104372
0.379767 0.295567 0.116823
0.421698 0.307836 0.126955
0.465949 0.321752 0.138033
0.512963 0.337835 0.151308
0.562493 0.355993 0.166384
0.614008 0.372839 0.180117
0.665400 0.388708 0.193851
0.716854 0.405249 0.209201
0.767056 0.421607 0.226322
0.813230 0.438239 0.245884
0.855100 0.454108 0.267308
0.893339 0.470985 0.290929
0.927916 0.488472 0.316686
0.958251 0.506401 0.344305
0.984558 0.524865 0.372686
1.000000 0.544121 0.402838
1.000000 0.564202 0.434180
1.000000 0.585382 0.467536
1.000000 0.607507 0.502129
1.000000 0.630579 0.538598
1.000000 0.654353 0.576043
0.112428 0.295323 0.085176
0.114534 0.295506 0.084871
0.120485 0.295872 0.084138
0.132967 0.296574 0.083375
0.151125 0.297673 0.080964
0.172793 0.299321 0.078065
0.199252 0.301427 0.072511
0.230655 0.304875 0.078248
0.264927 0.309850 0.088716
0.301823 0.315740 0.097993
0.339666 0.322576 0.108522
0.378729 0.330694 0.120974
0.423041 0.345281 0.137667
0.467659 0.360418 0.149905
0.516991 0.378454 0.164614
0.567681 0.397894 0.180819
0.620722 0.417700 0.199222
0.674311 0.437476 0.218845
0.724147 0.451820 0.234226
0.771908 0.465949 0.251255
0.815671 0.479255 0.270848
0.855558 0.492653 0.292027
0.892424 0.507073 0.315221
0.925780 0.522057 0.340429
0.955291 0.537743 0.367651
0.980774 0.554101 0.395483
1.000000 0.571405 0.424964
1.000000 0.589349 0.455482
1.000000 0.608545 0.488014
1.000000 0.628870 0.521935
1.000000 0.650141 0.557244
1.000000 0.671962 0.593072
0.115389 0.336797 0.096223
0.116793 0.336828 0.096162
0.124056 0.337102 0.095735
0.136263 0.337957 0.095491
0.153872 0.339086 0.093996
0.175784 0.340703 0.092500
0.201877 0.342809 0.090517
0.230716 0.345403 0.087434
0.266026 0.350530 0.095247
0.302556 0.357183 0.104250
0.341436 0.364355 0.115389
0.383154 0.374975 0.128817
0.444953 0.407507 0.154391
0.498512 0.428748 0.178897
0.549920 0.447364 0.196445
0.603326 0.466346 0.216159
0.658076 0.485451 0.237186
0.713100 0.504234 0.260319
0.764889 0.522057 0.286137
0.810330 0.536034 0.310002
0.848905 0.546044 0.330266
0.883879 0.555932 0.351476
0.915465 0.566949 0.374548
0.943664 0.578424 0.399207
0.968292 0.590936 0.424414
0.989258 0.603937 0.450904
1.000000 0.617792 0.477821
1.000000 0.632349 0.505394
1.000000 0.648035 0.534630
1.000000 0.664881 0.565301
1.000000 0.682399 0.596155
1.000000 0.700649 0.627619
0.115785 0.388830 0.113588
0.117067 0.388891 0.113191
0.124300 0.389014 0.112306
0.137667 0.389136 0.111910
0.156039 0.389654 0.110323
0.179416 0.390570 0.109102
0.205692 0.391974 0.107118
0.235294 0.395026 0.104952
0.269780 0.400610 0.105989
0.309514 0.409613 0.117128
0.351629 0.420630 0.130068
0.396643 0.433570 0.145266
0.444251 0.447913 0.163485
0.493599 0.463325 0.183841
0.550195 0.485389 0.213809
0.602777 0.503014 0.233707
0.656458 0.520348 0.254826
0.709041 0.536828 0.278050
0.758846 0.552117 0.302953
0.804196 0.566339 0.329717
0.845029 0.580224 0.358007
0.879362 0.589807 0.380804
0.910033 0.598657 0.402502
0.937469 0.608698 0.425910
0.961517 0.619348 0.450324
0.982330 0.630823 0.475502
0.999939 0.643153 0.501671
1.000000 0.656458 0.529046
1.000000 0.670710 0.557305
1.000000 0.686061 0.586816
1.000000 0.701930 0.616052
1.000000 0.718318 0.645533
0.111391 0.437598 0.131868
0.113069 0.437568 0.131868
0.121157 0.437293 0.131167
0.136751 0.437507 0.130220
0.156039 0.438178 0.129763
0.180636 0.439307 0.128237
0.207797 0.440955 0.126802
0.238041 0.443641 0.124453
0.271183 0.446937 0.122408
0.309697 0.454170 0.129366
0.352392 0.464271 0.142428
0.397375 0.476265 0.158083
0.445014 0.489693 0.176089
0.494362 0.503807 0.196597
0.545068 0.518059 0.219272
0.602564 0.537957 0.252049
0.655512 0.554101 0.274693
0.706447 0.568627 0.297246
0.754360 0.582055 0.322210
0.798337 0.594263 0.348150
0.838285 0.606470 0.375830
0.874571 0.619165 0.405859
0.906706 0.631861 0.436164
0.933227 0.640436 0.458473
0.956390 0.649592 0.481819
0.976501 0.659754 0.505913
0.993530 0.670619 0.531182
1.000000 0.682277 0.556909
1.000000 0.695003 0.583978
1.000000 0.708431 0.611292
1.000000 0.722469 0.638392
1.000000 0.737118 0.665949
0.105531 0.487831 0.154208
0.107271 0.487922 0.154116
0.117189 0.487434 0.153323
0.133394 0.487160 0.152865
0.155154 0.487068 0.152132
0.180972 0.487343 0.150546
0.209140 0.488289 0.148867
0.239902 0.490150 0.147280
0.272953 0.492958 0.144656
0.309026 0.496834 0.143557
0.352239 0.506340 0.157168
0.397925 0.517418 0.172580
0.445838 0.529564 0.191165
0.495399 0.542351 0.211337
0.546197 0.555322 0.234043
0.597375 0.568048 0.257908
0.654170 0.585534 0.292058
0.705837 0.600305 0.318853
0.751980 0.611841 0.343053
0.794369 0.622461 0.369207
0.833188 0.633051 0.396490
0.868833 0.644251 0.425147
0.900694 0.656031 0.455909
0.928557 0.668605 0.487739
0.951629 0.679744 0.516320
0.970642 0.688533 0.539574
0.987182 0.698177 0.563378
1.000000 0.708644 0.588037
1.000000 0.719875 0.613245
1.000000 0.731991 0.638911
1.000000 0.744808 0.664973
1.000000 0.758175 0.690791
0.103792 0.533593 0.178531
0.105928 0.533715 0.178439
0.116335 0.533654 0.178042
0.133730 0.533745 0.177432
0.157015 0.533837 0.177035
0.183993 0.534478 0.175631
0.213077 0.535821 0.174929
0.244694 0.537835 0.173526
0.278935 0.540520 0.172427
0.314611 0.543816 0.171817
0.354894 0.549432 0.176608
0.400977 0.558618 0.191653
0.448280 0.568719 0.208927
0.496895 0.579156 0.228397
0.546532 0.589960 0.249851
0.596857 0.600702 0.273014
0.647120 0.611933 0.298283
0.700496 0.626368 0.332403
0.748836 0.639338 0.364508
0.790341 0.648798 0.389929
0.828733 0.658564 0.417395
0.863981 0.668788 0.446754
0.895506 0.679683 0.477028
0.922942 0.691218 0.508721
0.946166 0.703487 0.541283
0.965637 0.716274 0.574121
0.981628 0.726131 0.599207
0.995361 0.735103 0.621637
1.000000 0.744686 0.644373
1.000000 0.754971 0.667231
1.000000 0.765805 0.690150
1.000000 0.777249 0.713313
0.113466 0.576043 0.205447
0.116274 0.576074 0.205386
0.125429 0.576043 0.204929
0.142306 0.576257 0.204501
0.164736 0.576501 0.203799
0.191196 0.577173 0.203220
0.220157 0.578180 0.202335
0.252140 0.579858 0.202090
0.285618 0.582025 0.201205
0.321050 0.584497 0.199985
0.358953 0.587579 0.199344
0.402808 0.594812 0.211063
0.450324 0.603937 0.227909
0.498909 0.613458 0.246952
0.547845 0.623072 0.268040
0.597406 0.632593 0.290959
0.646357 0.641993 0.315465
0.694789 0.651575 0.342596
0.743862 0.663416 0.377386
0.788693 0.675227 0.413886
0.826078 0.683864 0.440833
0.860441 0.693111 0.469673
0.891112 0.702937 0.499977
0.917906 0.713375 0.531273
0.940826 0.724483 0.562829
0.960021 0.736110 0.594568
0.976226 0.748043 0.625238
0.989624 0.760006 0.654627
1.000000 0.768338 0.675074
1.000000 0.777218 0.695766
1.000000 0.786648 0.716487
1.000000 0.796567 0.737148
0.137789 0.618524 0.236973
0.140139 0.618830 0.236790
0.163455 0.636774 0.252201
0.177279 0.636896 0.251987
0.197147 0.637201 0.251560
0.220584 0.637385 0.250736
0.248539 0.637903 0.250370
0.279271 0.638849 0.249454
0.312261 0.640192 0.248966
0.347662 0.642084 0.248631
0.384588 0.644160 0.248081
0.424231 0.646998 0.249516
0.471717 0.654047 0.266880
0.519738 0.661219 0.285740
0.567773 0.668299 0.306523
0.615381 0.675196 0.328679
0.661860 0.681910 0.352422
0.707118 0.688808 0.377752
0.750546 0.695918 0.405005
0.793179 0.704738 0.438636
0.833005 0.715541 0.479469
0.864591 0.722957 0.506828
0.892790 0.731014 0.535546
0.917388 0.739681 0.564630
0.938506 0.748653 0.593042
0.956512 0.758022 0.620966
0.971801 0.767727 0.648127
0.984802 0.777829 0.674617
0.995758 0.788418 0.700649
1.000000 0.798215 0.723476
1.000000 0.806271 0.741665
1.000000 0.814847 0.759792
0.178836 0.662959 0.276036
0.182559 0.664546 0.277989
0.190463 0.666224 0.279484
0.203372 0.667689 0.280583
0.221317 0.669001 0.281834
0.242435 0.669642 0.281682
0.267918 0.670161 0.281163
0.295811 0.670680 0.280217
0.325963 0.671565 0.279973
0.359136 0.672694 0.279393
0.394171 0.674189 0.279240
0.430732 0.675746 0.279210
0.472755 0.679408 0.287175
0.519066 0.685695 0.305638
0.565942 0.691859 0.325780
0.612451 0.698116 0.347417
0.657893 0.704311 0.370336
0.702358 0.710689 0.395636
0.745571 0.717372 0.422522
0.786404 0.724392 0.451453
0.825162 0.732570 0.484993
0.861692 0.744076 0.530816
0.889128 0.751308 0.558679
0.913085 0.759030 0.586755
0.933745 0.766964 0.613611
0.951446 0.775265 0.639887
0.966674 0.783810 0.665309
0.979614 0.792844 0.690486
0.990661 0.802335 0.714900
1.000000 0.812284 0.738613
1.000000 0.822538 0.761471
1.000000 0.831144 0.779629
0.217685 0.695155 0.310369
0.221744 0.696620 0.312200
0.228977 0.698177 0.314153
0.239963 0.699702 0.315526
0.255467 0.700771 0.316472
0.273716 0.701411 0.316747
0.295384 0.701778 0.316228
0.320500 0.702174 0.316106
0.348028 0.702632 0.315770
0.378058 0.703395 0.315404
0.410346 0.704372 0.314885
0.444892 0.705409 0.315038
0.480476 0.706416 0.314672
0.524285 0.711086 0.330083
0.569390 0.716548 0.349676
0.614496 0.722011 0.370794
0.658656 0.727443 0.393591
0.701717 0.733089 0.417670
0.743465 0.738857 0.443885
0.783230 0.745052 0.471687
0.820127 0.751553 0.501335
0.854185 0.758938 0.533745
0.886290 0.770474 0.582147
0.909697 0.777462 0.608911
0.929778 0.784543 0.634424
0.947143 0.791806 0.659083
0.962127 0.799405 0.682948
0.974945 0.807431 0.706477
0.985992 0.816007 0.729549
0.995392 0.825040 0.751858
1.000000 0.834409 0.773312
1.000000 0.843900 0.793393
0.263676 0.725795 0.347997
0.266911 0.726986 0.349676
0.273106 0.728237 0.351537
0.282383 0.729458 0.352911
0.294743 0.730373 0.354192
0.310216 0.730861 0.354528
0.329107 0.731106 0.354253
0.350408 0.731319 0.354009
0.375402 0.731716 0.353491
0.402380 0.732143 0.353491
0.432105 0.732815 0.353460
0.463539 0.733547 0.353582
0.496681 0.734188 0.353613
0.532677 0.735653 0.357305
0.576410 0.740352 0.376745
0.619989 0.745266 0.397498
0.663142 0.750362 0.420539
0.705379 0.755764 0.445167
0.746517 0.761471 0.471778
0.785611 0.767483 0.500359
0.822019 0.773983 0.530907
0.855039 0.780758 0.562402
0.884092 0.787869 0.593286
0.910674 0.798795 0.638422
0.930419 0.806241 0.666255
0.946807 0.812924 0.689601
0.960937 0.819852 0.712062
0.973144 0.827115 0.733852
0.983642 0.834806 0.754940
0.992676 0.842863 0.775143
1.000000 0.851225 0.794278
1.000000 0.859678 0.812009
0.328130 0.761227 0.400702
0.329595 0.761715 0.401251
0.333471 0.762020 0.402258
0.339300 0.762264 0.402502
0.348608 0.762325 0.402136
0.360510 0.762203 0.401770
0.375219 0.762173 0.401373
0.393469 0.762173 0.400916
0.414618 0.762325 0.400763
0.438819 0.762661 0.400885
0.465248 0.763088 0.400824
0.493629 0.763577 0.401465
0.523522 0.764004 0.401587
0.554833 0.764370 0.402014
0.592340 0.766659 0.412451
0.633692 0.770596 0.433021
0.674586 0.774716 0.455055
0.714534 0.779049 0.478431
0.752926 0.783505 0.503655
0.789517 0.788327 0.530205
0.823301 0.793393 0.557916
0.854154 0.798886 0.586328
0.881376 0.804623 0.614069
0.905119 0.810605 0.641138
0.926818 0.820005 0.680018
0.943603 0.827359 0.707332
0.957488 0.833646 0.728603
0.969512 0.840299 0.749081
0.979950 0.847288 0.768856
0.988952 0.854643 0.787594
0.996674 0.862242 0.805234
1.000000 0.869932 0.821561
0.380529 0.786709 0.443580
0.381781 0.787076 0.444495
0.384710 0.787381 0.445136
0.389929 0.787533 0.445502
0.397528 0.787625 0.445624
0.407263 0.787564 0.445289
0.419745 0.787503 0.444862
0.435279 0.787442 0.444587
0.453315 0.787564 0.444434
0.474617 0.787747 0.444678
0.497688 0.787991 0.445136
0.522820 0.788327 0.445777
0.549798 0.788632 0.446357
0.578119 0.788876 0.446693
0.607965 0.789059 0.447181
0.646601 0.792233 0.465827
0.685756 0.795773 0.487587
0.723781 0.799466 0.510369
0.760159 0.803342 0.534936
0.794705 0.807492 0.560388
0.826596 0.811917 0.586297
0.855558 0.816709 0.612360
0.881315 0.821775 0.638178
0.903868 0.827176 0.663478
0.921294 0.829984 0.681453
0.939391 0.838254 0.715236
0.953918 0.845823 0.742580
0.965881 0.851865 0.761837
0.976226 0.858335 0.780392
0.985351 0.865049 0.797940
0.993225 0.872160 0.814603
1.000000 0.879332 0.829892
0.444953 0.813382 0.496803
0.446937 0.813870 0.498146
0.449561 0.814084 0.498787
0.452949 0.814023 0.498482
0.457649 0.813687 0.497444
0.464515 0.813199 0.496407
0.473274 0.812619 0.495094
0.484627 0.812070 0.493538
0.498695 0.811551 0.492256
0.515465 0.811154 0.491341
0.534020 0.810819 0.490578
0.555352 0.810605 0.490425
0.578302 0.810422 0.490028
0.602869 0.810147 0.489693
0.628290 0.809842 0.489540
0.657771 0.810300 0.494484
0.693996 0.812894 0.514397
0.729366 0.815793 0.535882
0.763973 0.819028 0.558740
0.796689 0.822690 0.582788
0.827176 0.826688 0.607385
0.854673 0.830900 0.631830
0.878996 0.835294 0.655543
0.900572 0.839750 0.678370
0.919341 0.844327 0.700221
0.935729 0.848966 0.721187
0.950622 0.856107 0.749691
0.963012 0.863432 0.775174
0.973175 0.869139 0.792081
0.982177 0.875212 0.808164
0.990082 0.881621 0.823362
0.996948 0.888273 0.837705
0.495460 0.832517 0.538903
0.497169 0.832944 0.540002
0.499702 0.833188 0.540795
0.502892 0.833249 0.540856
0.507469 0.833158 0.540551
0.513787 0.833036 0.540337
0.521965 0.832853 0.540246
0.532647 0.832700 0.539788
0.545373 0.832609 0.539757
0.560204 0.832547 0.540063
0.576806 0.832456 0.540002
0.595453 0.832395 0.540368
0.615412 0.832242 0.540337
0.636622 0.832029 0.540642
0.658961 0.831662 0.540581
0.682124 0.831266 0.540185
0.712154 0.832425 0.552361
0.744594 0.834653 0.572015
0.776028 0.837308 0.592889
0.805966 0.840330 0.614679
0.833768 0.843687 0.636774
0.858946 0.847318 0.659083
0.881529 0.851194 0.680995
0.901671 0.855222 0.702113
0.919402 0.859373 0.722438
0.934997 0.863645 0.741909
0.948669 0.868009 0.760250
0.960998 0.874357 0.783963
0.971557 0.881804 0.807645
0.980255 0.887266 0.822080
0.987976 0.893004 0.835691
0.994720 0.898955 0.848447
0.553613 0.852384 0.587366
0.554650 0.852537 0.588067
0.556085 0.852598 0.588190
0.558495 0.852598 0.588128
0.562158 0.852476 0.587945
0.567102 0.852262 0.587488
0.573785 0.852079 0.587182
0.582177 0.851865 0.586633
0.592584 0.851682 0.586633
0.604822 0.851530 0.586786
0.618769 0.851377 0.586603
0.634302 0.851286 0.586938
0.651423 0.851133 0.587396
0.669551 0.850919 0.587640
0.688746 0.850584 0.587457
0.708797 0.850217 0.587335
0.729885 0.849882 0.587518
0.759304 0.851652 0.605371
0.787991 0.853788 0.624262
0.815030 0.856291 0.643977
0.840269 0.859190 0.664057
0.863310 0.862303 0.684230
0.884092 0.865568 0.703944
0.902739 0.869047 0.723110
0.919310 0.872618 0.741451
0.933959 0.876280 0.758816
0.946960 0.880125 0.775418
0.958434 0.884092 0.791043
0.968933 0.889708 0.810452
0.978149 0.897063 0.832090
0.985718 0.902312 0.844602
0.992432 0.907805 0.856413
0.605066 0.869474 0.630671
0.605798 0.869627 0.631098
0.607141 0.869749 0.631403
0.609491 0.869780 0.631739
0.613062 0.869810 0.631952
0.617975 0.869902 0.632380
0.625086 0.870176 0.633600
0.633967 0.870512 0.635065
0.644648 0.871000 0.637171
0.656886 0.871519 0.639277
0.670710 0.872099 0.641871
0.685389 0.872618 0.644221
0.701045 0.873075 0.646418
0.717250 0.873350 0.648371
0.733822 0.873442 0.649653
0.750668 0.873350 0.650294
0.768093 0.873198 0.650996
0.788571 0.873655 0.657343
0.812924 0.875425 0.673823
0.835752 0.877501 0.691035
0.857145 0.879850 0.708400
0.876890 0.882444 0.725612
0.894713 0.885191 0.742458
0.910857 0.888090 0.758663
0.925353 0.891051 0.774075
0.938262 0.894133 0.788632
0.949889 0.897368 0.802365
0.960204 0.900664 0.815366
0.969482 0.904112 0.827543
0.977905 0.908782 0.841886
0.985412 0.915282 0.859281
0.991669 0.920256 0.870146
0.670588 0.889769 0.686458
0.670893 0.889769 0.686458
0.671565 0.889708 0.686397
0.672816 0.889647 0.686244
0.675105 0.889525 0.686122
0.678370 0.889433 0.685786
0.682918 0.889342 0.685878
0.688746 0.889311 0.685969
0.696010 0.889311 0.686488
0.704463 0.889342 0.687129
0.714260 0.889403 0.687861
0.725216 0.889494 0.688930
0.737118 0.889555 0.689876
0.749752 0.889586 0.690700
