20 Preset/Food Style/【3】LUT video cho PR-AE-FCPX/Food Style Tone (3).cube
# Created by Adobe Lightroom plugin Export LUT (1.24.0)
# www.johnrellis.com/lightroom/exportlut.htm
# Preset: 静谧咖啡-素材江湖14
# Color profile: E:\lut插件\exportlut.1.24\exportlut.lrplugin\color profiles\Rec709gamma2.4.icc
LUT_3D_SIZE 8
DOMAIN_MIN 0.000000 0.000000 0.000000
DOMAIN_MAX 0.903226 0.903226 0.903226
0.030091 0.034394 0.042145
0.088411 0.046845 0.052705
0.171145 0.069612 0.069520
0.317144 0.016449 0.074281
0.529625 0.000000 0.073762
0.753445 0.000000 0.043824
0.943938 0.195590 0.000000
1.000000 0.350011 0.069154
0.044312 0.086976 0.067842
0.087160 0.091218 0.063233
0.169406 0.098116 0.071595
0.305241 0.088991 0.078126
0.509087 0.000000 0.077882
0.734493 0.000000 0.046815
0.919280 0.209476 0.000000
1.000000 0.353491 0.020203
0.033539 0.154330 0.102327
0.072694 0.154726 0.102327
0.155428 0.169436 0.089967
0.314733 0.187015 0.078187
0.525536 0.194400 0.064332
0.757504 0.249882 0.000000
0.934478 0.359869 0.000000
1.000000 0.449226 0.080079
0.000000 0.270665 0.130373
0.000000 0.269566 0.130007
0.116152 0.279850 0.121859
0.290623 0.325200 0.073243
0.544091 0.390234 0.000000
0.773159 0.451026 0.000000
0.929107 0.508141 0.000000
1.000000 0.553460 0.106477
0.000000 0.441444 0.160678
0.000000 0.440467 0.160281
0.000000 0.441138 0.159884
0.252018 0.473365 0.123354
0.466072 0.511620 0.000000
0.697505 0.571130 0.000000
0.880674 0.624994 0.000000
1.000000 0.655451 0.130465
0.000000 0.618006 0.212406
0.000000 0.624994 0.216159
0.000000 0.623682 0.215091
0.260349 0.632807 0.199344
0.462379 0.655665 0.146944
0.653193 0.685054 0.000000
0.841642 0.731807 0.000000
0.975769 0.759548 0.125521
0.000000 0.775967 0.325841
0.113283 0.777005 0.327520
0.238529 0.774624 0.324956
0.360113 0.771939 0.322728
0.502098 0.782040 0.294743
0.649409 0.797726 0.257359
0.794339 0.815824 0.195377
0.939879 0.841825 0.000000
0.440711 0.897826 0.516777
0.447517 0.897612 0.516655
0.477363 0.897490 0.517784
0.531212 0.897978 0.522484
0.583368 0.891508 0.488838
0.683345 0.901946 0.476387
0.791073 0.912963 0.455482
0.900481 0.921080 0.410773
0.046082 0.051209 0.098390
0.090944 0.053925 0.097871
0.159701 0.070893 0.103700
0.280980 0.081025 0.118044
0.483864 0.000000 0.126314
0.712886 0.000000 0.129702
0.901305 0.169741 0.128664
1.000000 0.328496 0.147097
0.050172 0.090150 0.099184
0.090394 0.092958 0.101778
0.159121 0.103090 0.110384
0.284031 0.105104 0.118868
0.482918 0.038148 0.125917
0.709773 0.000000 0.127871
0.889799 0.198978 0.123476
1.000000 0.337682 0.137911
0.077485 0.154940 0.125032
0.094911 0.155795 0.125246
0.156710 0.167086 0.118044
0.302190 0.183230 0.119509
0.498817 0.194369 0.123476
0.720394 0.236942 0.118227
0.895048 0.327489 0.110567
1.000000 0.426917 0.143252
0.000000 0.262852 0.150057
0.000000 0.262791 0.149660
0.130526 0.271550 0.145327
0.275456 0.303624 0.119814
0.498451 0.353338 0.080049
0.725429 0.407080 0.042329
0.890745 0.471504 0.052979
1.000000 0.530968 0.143954
0.000000 0.435157 0.182620
0.000000 0.432959 0.181888
0.000000 0.430762 0.180179
0.248112 0.454261 0.154482
0.444587 0.487098 0.068971
0.673518 0.547509 0.000000
0.862608 0.607141 0.000000
0.995911 0.643427 0.168795
0.000000 0.605585 0.228153
0.000000 0.605798 0.228336
0.000000 0.605432 0.227390
0.250828 0.615290 0.216953
0.449500 0.641260 0.175509
0.642695 0.674678 0.049989
0.832334 0.722774 0.000000
0.967926 0.752193 0.167514
0.000000 0.764706 0.328252
0.000000 0.762722 0.325994
0.212314 0.760037 0.322942
0.344396 0.758724 0.322362
0.491341 0.771969 0.301671
0.639673 0.788449 0.265873
0.783719 0.805447 0.204654
0.929870 0.831815 0.014588
0.425513 0.891020 0.509697
0.436530 0.891936 0.512749
0.466468 0.891569 0.512993
0.522026 0.892210 0.517723
0.595361 0.895598 0.514488
0.686519 0.902892 0.493751
0.789792 0.911467 0.466072
0.898833 0.919615 0.422400
0.032624 0.080262 0.188083
0.094087 0.082521 0.187655
0.174319 0.089570 0.185519
0.303075 0.056550 0.195499
0.489601 0.000000 0.210025
0.708125 0.106874 0.249393
0.896269 0.244419 0.280491
1.000000 0.381323 0.317205
0.046571 0.107912 0.184390
0.098177 0.109651 0.184237
0.172732 0.114443 0.184695
0.296391 0.109834 0.195071
0.478950 0.094392 0.210330
0.700160 0.153841 0.248203
0.885618 0.259800 0.273350
1.000000 0.387427 0.308598
0.088441 0.168582 0.185611
0.111147 0.171115 0.187289
0.182742 0.185611 0.199344
0.305974 0.198123 0.207736
0.496956 0.223392 0.227634
0.715633 0.271305 0.250126
0.887938 0.358221 0.274144
1.000000 0.454566 0.312352
0.114900 0.283330 0.225864
0.139132 0.287419 0.228977
0.183871 0.293034 0.223575
0.303075 0.318730 0.212406
0.520073 0.367315 0.221927
0.732418 0.423651 0.247990
0.888640 0.491341 0.275822
1.000000 0.551751 0.322148
0.000000 0.451545 0.262028
0.000000 0.450935 0.261326
0.155398 0.450446 0.259953
0.287907 0.465126 0.251621
0.467689 0.499855 0.220157
0.685420 0.556420 0.204013
0.865446 0.612879 0.258824
0.990967 0.652277 0.338048
0.000000 0.613977 0.307622
0.000000 0.614618 0.307713
0.132479 0.613458 0.306371
0.293950 0.613245 0.302892
0.460761 0.638148 0.279332
0.643549 0.671687 0.243473
0.830838 0.721248 0.221714
0.965362 0.754574 0.332525
0.204044 0.770993 0.402014
0.221530 0.769345 0.399725
0.287175 0.765530 0.394690
0.382574 0.762356 0.390692
0.503441 0.770596 0.377417
0.644190 0.788540 0.354894
0.787381 0.808591 0.322393
0.932860 0.836301 0.286961
0.458228 0.891051 0.554955
0.462593 0.890349 0.553368
0.488350 0.889830 0.552941
0.542077 0.891875 0.560235
0.606256 0.893492 0.559411
0.693660 0.902586 0.546349
0.792844 0.912200 0.525505
0.898894 0.920684 0.490730
0.000000 0.097688 0.334569
0.000000 0.099855 0.336553
0.196933 0.105196 0.333623
0.338659 0.101289 0.334630
0.508446 0.000000 0.350347
0.728511 0.000000 0.384039
0.887083 0.195224 0.406744
0.987060 0.422187 0.476234
0.000000 0.129274 0.332738
0.030823 0.131075 0.332982
0.204013 0.135500 0.332433
0.341283 0.136233 0.335760
0.511894 0.096864 0.353185
0.725521 0.100465 0.384314
0.881865 0.236912 0.406561
0.984955 0.435950 0.476692
0.000000 0.204654 0.324956
0.058930 0.205417 0.325078
0.203708 0.209476 0.327459
0.337865 0.220432 0.332555
0.525780 0.230533 0.363867
0.723445 0.280613 0.393530
0.874815 0.410071 0.450446
0.987335 0.507439 0.497597
0.062806 0.316320 0.329198
0.121981 0.317937 0.330083
0.223117 0.329168 0.337499
0.362219 0.361913 0.363073
0.528222 0.386755 0.376471
0.708553 0.437385 0.405707
0.864469 0.508049 0.445960
0.978607 0.578790 0.497261
0.187076 0.482429 0.387304
0.211734 0.482826 0.387915
0.291325 0.490333 0.395026
0.367529 0.499580 0.390234
0.508751 0.526421 0.376593
0.707698 0.577447 0.401190
0.869200 0.630274 0.462898
0.973693 0.672480 0.515648
0.302770 0.643977 0.462959
0.311467 0.649561 0.464240
0.311009 0.648157 0.441871
0.393378 0.645533 0.436774
0.504723 0.655482 0.426093
0.660639 0.682734 0.406134
0.834775 0.727962 0.424598
0.958892 0.763333 0.516533
0.342931 0.780117 0.512840
0.354376 0.780331 0.513054
0.394141 0.779416 0.511742
0.459297 0.777768 0.508965
0.540917 0.777401 0.502068
0.658839 0.793851 0.486213
0.790951 0.812039 0.464851
0.930816 0.839597 0.465919
0.523919 0.895598 0.636255
0.528222 0.895354 0.635828
0.546715 0.894774 0.634516
0.583581 0.894499 0.634394
0.633661 0.893797 0.633234
0.706111 0.901366 0.624659
0.797391 0.912169 0.611109
0.899351 0.922454 0.589563
0.000000 0.126284 0.533562
0.000000 0.127413 0.535912
0.230137 0.129061 0.535210
0.417792 0.131533 0.537102
0.582177 0.134432 0.544427
0.727810 0.123629 0.553429
0.897765 0.222965 0.590387
0.996826 0.400641 0.609216
0.000000 0.160586 0.531487
0.000000 0.162417 0.534508
0.242802 0.165194 0.534905
0.418952 0.171206 0.534844
0.581598 0.179202 0.543786
0.727626 0.178042 0.554284
0.894255 0.262974 0.589654
0.992859 0.422339 0.610040
0.000000 0.248081 0.520348
0.000000 0.250034 0.521233
0.245060 0.255955 0.521935
0.414557 0.270268 0.527276
0.568017 0.285893 0.533410
0.714382 0.294957 0.547295
0.874876 0.370184 0.582055
0.975097 0.487831 0.609339
0.000000 0.377600 0.511498
0.000000 0.378485 0.511498
0.217227 0.383276 0.515038
0.399756 0.395758 0.525505
0.561517 0.420935 0.535973
0.717037 0.445808 0.559960
0.853330 0.512810 0.587457
0.951843 0.597345 0.629847
0.144381 0.507866 0.506767
0.184085 0.509789 0.508019
0.286107 0.516228 0.512566
0.414405 0.531579 0.524041
0.557488 0.561822 0.549218
0.698756 0.587304 0.565423
0.835843 0.633814 0.601129
0.943175 0.685481 0.646174
0.321904 0.641932 0.548425
0.337133 0.642908 0.549554
0.388830 0.643580 0.550835
0.473213 0.649928 0.558587
0.542046 0.655940 0.552605
0.668757 0.685176 0.551385
0.831510 0.731960 0.595819
0.945525 0.772854 0.668696
0.473457 0.782712 0.636286
0.478981 0.781735 0.635065
0.506676 0.780423 0.633906
0.532952 0.782803 0.622034
0.582879 0.781338 0.610895
0.666529 0.789090 0.601190
0.787869 0.808164 0.588403
0.920439 0.836057 0.610193
0.591455 0.888792 0.715969
0.590997 0.888731 0.713527
0.589960 0.888914 0.703731
0.617762 0.891966 0.703120
0.660182 0.891752 0.701686
0.715236 0.894041 0.698146
0.797177 0.906279 0.689021
0.894041 0.917571 0.673823
0.039887 0.174777 0.731960
0.172427 0.176242 0.733120
0.334295 0.180789 0.730861
0.510704 0.197848 0.734554
0.671626 0.246189 0.738308
0.791348 0.295933 0.740444
0.881193 0.334966 0.732204
0.991547 0.458381 0.755642
0.098787 0.207309 0.719753
0.177737 0.208591 0.719509
0.330358 0.212985 0.719203
0.499001 0.227726 0.722011
0.658198 0.267765 0.726009
0.779843 0.312352 0.730190
0.872801 0.348516 0.724971
0.985992 0.465553 0.751064
0.149142 0.313603 0.718837
0.206088 0.314702 0.718776
0.343359 0.321935 0.719814
0.496803 0.333715 0.716915
0.648493 0.367956 0.720424
0.768307 0.405676 0.726009
0.865110 0.437507 0.726589
0.975952 0.532403 0.754299
0.113893 0.454749 0.709285
0.181674 0.454047 0.708186
0.326055 0.456977 0.709377
0.489509 0.474891 0.718166
0.641291 0.507469 0.725002
0.757870 0.538201 0.730770
0.858000 0.565209 0.738735
0.959686 0.633631 0.764889
0.139437 0.576745 0.686213
0.186679 0.577142 0.686152
0.302739 0.579095 0.687007
0.436378 0.585290 0.691554
0.598505 0.601099 0.703487
0.727382 0.627710 0.714412
0.841489 0.654292 0.734524
0.934844 0.706874 0.760220
0.333715 0.679225 0.676875
0.354345 0.681910 0.679683
0.411475 0.683619 0.680903
0.498207 0.688502 0.684962
0.598871 0.698512 0.693690
0.715938 0.724971 0.718929
0.829770 0.753964 0.744198
0.925170 0.789944 0.777005
0.521904 0.797513 0.731350
0.530877 0.798795 0.733028
0.557855 0.799435 0.734340
0.606012 0.800992 0.737209
0.668635 0.804318 0.742428
0.714473 0.804440 0.732876
0.801877 0.819303 0.725368
0.920012 0.850858 0.763790
0.639673 0.892973 0.791867
0.641810 0.892363 0.791012
0.655909 0.891875 0.790677
0.686580 0.892912 0.793118
0.713497 0.894072 0.787106
0.743221 0.894072 0.776242
0.804379 0.902312 0.772396
0.893400 0.915709 0.764706
0.341833 0.263706 0.859800
0.370062 0.268284 0.860960
0.458045 0.279667 0.860166
0.581018 0.308904 0.860380
0.704067 0.359869 0.859525
0.813718 0.435737 0.858335
0.898161 0.487495 0.857847
0.957122 0.513329 0.842679
0.337774 0.287724 0.852293
0.366461 0.292302 0.853849
0.452430 0.302281 0.853574
0.572168 0.325780 0.852903
0.694972 0.370947 0.851987
0.804562 0.438514 0.850278
0.889220 0.484535 0.849241
0.949218 0.506462 0.833860
0.353491 0.387610 0.849729
0.376623 0.389593 0.849729
0.455329 0.397070 0.848631
0.568566 0.416754 0.847990
0.686305 0.451667 0.846616
0.794888 0.507195 0.846525
0.881529 0.549340 0.849210
0.945006 0.573114 0.840085
0.351080 0.515801 0.843595
0.371618 0.515557 0.842618
0.447181 0.520714 0.841398
0.560143 0.537743 0.842069
0.676173 0.563745 0.842252
0.784268 0.604608 0.844907
0.869932 0.636744 0.849546
0.935210 0.654597 0.845212
0.312139 0.627863 0.826352
0.332647 0.626490 0.825132
0.413184 0.626825 0.824552
0.529137 0.633661 0.826810
0.648920 0.648371 0.830045
0.762081 0.677028 0.834531
0.850614 0.703426 0.841032
0.925994 0.728450 0.849638
0.395575 0.725246 0.816159
0.408392 0.725704 0.816434
0.454749 0.726802 0.817075
0.528893 0.729335 0.818692
0.619532 0.733730 0.821408
0.745235 0.753689 0.833341
0.842496 0.780148 0.844846
0.923186 0.801450 0.859159
0.518914 0.810666 0.817075
0.528038 0.811612 0.817990
0.556939 0.812284 0.818418
0.608789 0.814481 0.820066
0.674067 0.817746 0.822354
0.748379 0.824887 0.827939
0.829068 0.840787 0.841825
0.916167 0.865812 0.863340
0.670405 0.898070 0.853971
0.674159 0.898314 0.854368
0.691402 0.900084 0.856718
0.718349 0.901396 0.858579
0.754360 0.902800 0.860349
0.797971 0.905058 0.862669
0.830869 0.905516 0.854582
0.899504 0.917845 0.850706
0.507408 0.412055 0.943359
0.520836 0.416968 0.943572
0.566918 0.428260 0.942016
0.644343 0.458503 0.940978
0.733120 0.503868 0.938903
0.820188 0.560266 0.936034
0.899565 0.624964 0.933837
0.961242 0.657649 0.933257
0.504509 0.427131 0.940032
0.518120 0.431647 0.940337
0.564782 0.443915 0.939361
0.641077 0.470863 0.938140
0.729702 0.513054 0.936248
0.816922 0.566217 0.933654
0.896239 0.626734 0.931243
0.958160 0.657130 0.930480
0.508721 0.497932 0.935180
0.520531 0.500603 0.935119
0.564416 0.509178 0.934051
0.641230 0.535607 0.934447
0.726192 0.566461 0.932341
0.811093 0.606592 0.929778
0.890135 0.658106 0.928313
0.951965 0.684108 0.928313
0.512108 0.591150 0.928405
0.524224 0.593652 0.928588
0.566339 0.600122 0.928008
0.637537 0.616022 0.927855
0.721157 0.639429 0.927092
0.805203 0.670527 0.926055
0.883024 0.709957 0.926024
0.944244 0.730861 0.927367
0.506554 0.678584 0.920470
0.519188 0.680323 0.920806
0.559319 0.683284 0.920287
0.624048 0.689418 0.920836
0.708248 0.705226 0.920531
0.793484 0.727413 0.920684
0.872892 0.757870 0.922545
0.935760 0.779080 0.926146
0.488106 0.757076 0.913207
0.493568 0.756283 0.912688
0.519951 0.754788 0.911559
0.592401 0.757198 0.911772
0.684688 0.766476 0.913970
0.780758 0.786770 0.918822
0.867613 0.815976 0.924651
0.932097 0.838163 0.930602
0.582177 0.839872 0.912657
0.586633 0.839780 0.912505
0.606043 0.839689 0.912108
0.644709 0.841032 0.912505
0.698299 0.843656 0.913573
0.762692 0.848600 0.916411
0.855955 0.866575 0.925292
0.926635 0.886473 0.932128
0.673915 0.908904 0.916106
0.676783 0.908812 0.915953
0.690669 0.909087 0.916045
0.718837 0.910491 0.916960
0.757717 0.912444 0.918120
0.804623 0.915099 0.919615
0.858274 0.919829 0.922728
0.917540 0.929015 0.929839
