20 Preset/Food Style/【3】LUT video cho PR-AE-FCPX/Food Style Tone (13).cube
# Created by Adobe Lightroom plugin Export LUT (1.24.0)
# www.johnrellis.com/lightroom/exportlut.htm
# Preset: 静谧咖啡-素材江湖09
# Color profile: E:\lut插件\exportlut.1.24\exportlut.lrplugin\color profiles\Rec709gamma2.4.icc
LUT_3D_SIZE 5
DOMAIN_MIN 0.000000 0.000000 0.000000
DOMAIN_MAX 0.903226 0.903226 0.903226
0.048188 0.067689 0.135317
0.139406 0.089235 0.140078
0.434943 0.043366 0.142000
0.834348 0.150576 0.130068
1.000000 0.418647 0.184848
0.000000 0.152102 0.146822
0.126833 0.168856 0.141817
0.450660 0.215244 0.148287
0.830533 0.306279 0.142794
0.997833 0.489296 0.225650
0.000000 0.475593 0.171176
0.000000 0.476478 0.168185
0.514519 0.532799 0.035157
0.832517 0.601190 0.274815
0.969635 0.655909 0.384558
0.000000 0.761593 0.372717
0.000000 0.760159 0.369604
0.524285 0.754299 0.381537
0.799924 0.768521 0.310979
0.957702 0.807614 0.527459
0.510491 0.916747 0.647425
0.538811 0.916472 0.645289
0.638453 0.907378 0.638941
0.778347 0.913909 0.644984
0.935180 0.925689 0.609918
0.001007 0.088899 0.177432
0.135988 0.086152 0.182956
0.408637 0.000000 0.187289
0.788540 0.119020 0.210575
0.979156 0.388128 0.255436
0.000000 0.160922 0.196475
0.127138 0.171572 0.200748
0.434516 0.207736 0.211124
0.795895 0.280339 0.227390
0.974945 0.457618 0.282506
0.000000 0.468513 0.266117
0.000000 0.475074 0.257694
0.488289 0.507225 0.223423
0.805631 0.582940 0.355108
0.959594 0.648066 0.429664
0.000000 0.756680 0.456458
0.000000 0.758022 0.440192
0.536309 0.751888 0.448951
0.794980 0.765805 0.393622
0.949981 0.807218 0.573693
0.544396 0.914092 0.680812
0.551141 0.914824 0.668818
0.654536 0.913848 0.674739
0.784085 0.917510 0.677607
0.936828 0.929564 0.647028
0.000000 0.128145 0.401648
0.000000 0.115602 0.415961
0.486549 0.000000 0.435920
0.814725 0.084108 0.412940
0.965545 0.295811 0.414984
0.000000 0.239139 0.422461
0.000000 0.227054 0.435035
0.507256 0.198093 0.455390
0.802945 0.255406 0.425788
0.961364 0.398718 0.442969
0.000000 0.497963 0.489998
0.000000 0.503197 0.492500
0.523461 0.517937 0.506706
0.784115 0.549737 0.510918
0.942107 0.620203 0.543542
0.000000 0.755184 0.594263
0.155337 0.750637 0.592432
0.568078 0.749050 0.603296
0.783200 0.762356 0.589502
0.927916 0.808591 0.693324
0.453834 0.912566 0.713649
0.519463 0.911589 0.720729
0.654658 0.910674 0.732692
0.781369 0.911772 0.739437
0.928069 0.924651 0.713008
0.000000 0.232486 0.691188
0.000000 0.197147 0.698085
0.418006 0.151919 0.717617
0.846616 0.176669 0.719539
0.971466 0.469215 0.684291
0.000000 0.347204 0.693874
0.000000 0.325597 0.699794
0.430304 0.275853 0.716457
0.834470 0.311192 0.717189
0.960571 0.504540 0.684901
0.000000 0.562188 0.699947
0.000000 0.562921 0.699367
0.478004 0.553521 0.714107
0.798856 0.555627 0.722255
0.934142 0.613794 0.698878
0.000000 0.755428 0.746059
0.111086 0.753017 0.745113
0.539605 0.751278 0.748257
0.774441 0.759854 0.758694
0.916625 0.771847 0.753201
0.219364 0.919585 0.803891
0.342901 0.918303 0.804196
0.571527 0.915862 0.807736
0.779812 0.914305 0.823728
0.922637 0.923674 0.812039
0.000000 0.422522 0.886351
0.000000 0.386908 0.888762
0.407691 0.350958 0.894224
0.803403 0.343664 0.901427
0.989960 0.501244 0.892088
0.000000 0.506950 0.880797
0.000000 0.479347 0.883513
0.413001 0.421149 0.890623
0.792294 0.417090 0.897734
0.981384 0.539178 0.890105
0.000000 0.644678 0.874571
0.000000 0.641291 0.875120
0.482704 0.623835 0.881102
0.757412 0.597040 0.890745
0.959258 0.652674 0.891142
0.000000 0.782193 0.885527
0.000000 0.779477 0.884489
0.476814 0.773831 0.883085
0.733547 0.771878 0.891539
0.939940 0.789303 0.905455
0.048402 0.916808 0.914305
0.272313 0.915770 0.914183
0.520256 0.914580 0.915618
0.729580 0.914977 0.917723
0.920348 0.922301 0.924773
