20 Preset/Food Style/【3】LUT video cho PR-AE-FCPX/Food Style Tone (15).cube
# Created by Adobe Lightroom plugin Export LUT (1.24.0)
# www.johnrellis.com/lightroom/exportlut.htm
# Preset: 静谧咖啡-素材江湖11
# Color profile: E:\lut插件\exportlut.1.24\exportlut.lrplugin\color profiles\Rec709gamma2.4.icc
LUT_3D_SIZE 8
DOMAIN_MIN 0.000000 0.000000 0.000000
DOMAIN_MAX 0.903226 0.903226 0.903226
0.017090 0.035462 0.084596
0.080354 0.067750 0.093874
0.165042 0.101961 0.106020
0.300359 0.122225 0.112123
0.493019 0.153353 0.131289
0.701472 0.234684 0.168795
0.846067 0.372839 0.221012
0.935607 0.502281 0.298619
0.040406 0.091035 0.097993
0.080842 0.095369 0.098299
0.161532 0.118746 0.109438
0.289738 0.142733 0.116823
0.477333 0.176577 0.136965
0.682582 0.247654 0.172030
0.828611 0.369818 0.219059
0.925811 0.498543 0.293217
0.000000 0.167269 0.132937
0.017151 0.171206 0.130282
0.149569 0.186007 0.126711
0.301671 0.222110 0.136812
0.494697 0.264958 0.165316
0.697932 0.341161 0.202213
0.839689 0.452003 0.256535
0.929870 0.554345 0.336004
0.000000 0.297917 0.196048
0.000000 0.300450 0.188754
0.014313 0.313298 0.187015
0.301518 0.351537 0.180270
0.563165 0.424048 0.202579
0.725765 0.485969 0.257481
0.840269 0.552850 0.316228
0.923369 0.621363 0.391974
0.000000 0.487190 0.295018
0.000000 0.489601 0.286839
0.000000 0.500786 0.283330
0.301640 0.524956 0.280797
0.531304 0.544762 0.268101
0.722805 0.596277 0.295262
0.832914 0.641749 0.369970
0.914427 0.695949 0.464546
0.107149 0.655756 0.422919
0.139559 0.662379 0.422553
0.240909 0.667384 0.413733
0.398962 0.674800 0.416083
0.560571 0.687129 0.410590
0.708492 0.699153 0.407080
0.835843 0.737209 0.451270
0.916716 0.771969 0.535210
0.459358 0.782101 0.577508
0.462837 0.783810 0.575677
0.475837 0.786130 0.564874
0.541070 0.788968 0.567132
0.621515 0.793149 0.568078
0.721340 0.802182 0.566888
0.817166 0.811582 0.570062
0.911528 0.838804 0.610346
0.646937 0.883268 0.731685
0.647456 0.883726 0.729946
0.650568 0.886229 0.723659
0.679622 0.889677 0.726833
0.709377 0.886717 0.717830
0.767056 0.894591 0.723598
0.836912 0.903471 0.729091
0.907805 0.910307 0.733974
0.046632 0.071534 0.106722
0.083253 0.076020 0.106661
0.143832 0.107759 0.125216
0.254765 0.140078 0.145510
0.439307 0.178744 0.170443
0.652247 0.242039 0.204654
0.808316 0.354925 0.245914
0.912840 0.483650 0.309453
0.050813 0.094911 0.112245
0.085206 0.099428 0.115236
0.145602 0.123323 0.132143
0.257359 0.154574 0.149630
0.440070 0.195346 0.174563
0.649317 0.258091 0.207828
0.801083 0.362249 0.246647
0.906523 0.485023 0.307683
0.031769 0.167239 0.153475
0.069947 0.171756 0.154055
0.149599 0.184878 0.150698
0.278935 0.219364 0.167208
0.462959 0.264744 0.195224
0.662013 0.331609 0.228733
0.807340 0.428321 0.271153
0.909606 0.534997 0.339574
0.000000 0.289494 0.215702
0.000000 0.292638 0.211429
0.089693 0.305638 0.206180
0.285039 0.333532 0.199374
0.515740 0.393347 0.221927
0.684443 0.454200 0.268589
0.811032 0.524834 0.316258
0.904967 0.601221 0.386297
0.000000 0.479622 0.315251
0.000000 0.480995 0.307378
0.000000 0.489967 0.296117
0.295109 0.508904 0.292485
0.509911 0.526024 0.278447
0.702480 0.578698 0.305089
0.818296 0.628382 0.375006
0.903532 0.685084 0.462623
0.172610 0.644831 0.431739
0.175387 0.646845 0.426886
0.235172 0.653254 0.414038
0.390661 0.662623 0.417639
0.550958 0.677028 0.414832
0.700771 0.691859 0.413916
0.828550 0.730617 0.456550
0.909850 0.765866 0.536126
0.458564 0.773831 0.577142
0.456947 0.773648 0.572259
0.462257 0.776303 0.557977
0.530571 0.780148 0.561486
0.614862 0.786496 0.566369
0.715145 0.795895 0.565179
0.810239 0.804196 0.565545
0.904662 0.831388 0.603601
0.643183 0.877745 0.728603
0.645228 0.879088 0.728420
0.647974 0.881437 0.721798
0.674800 0.885283 0.723354
0.716365 0.889708 0.728054
0.769131 0.895293 0.729702
0.836088 0.902373 0.731350
0.906584 0.909178 0.735744
0.021363 0.101228 0.184421
0.079652 0.103334 0.185061
0.159792 0.114076 0.182101
0.258824 0.159457 0.201358
0.401892 0.217624 0.245060
0.617517 0.289555 0.294133
0.782834 0.393896 0.342199
0.895689 0.511528 0.402472
0.047211 0.125521 0.184390
0.089815 0.127199 0.185824
0.159701 0.136995 0.189273
0.251164 0.178012 0.209720
0.402502 0.230289 0.249638
0.613367 0.300450 0.296208
0.776852 0.398230 0.340520
0.891142 0.512993 0.400092
0.028748 0.182986 0.206088
0.089052 0.187961 0.209201
0.181827 0.224704 0.239170
0.270085 0.239445 0.242557
0.442237 0.289952 0.276127
0.635431 0.359136 0.315618
0.784726 0.450568 0.359503
0.891814 0.550469 0.420356
0.000000 0.301640 0.268070
0.008362 0.306798 0.272404
0.180331 0.332250 0.286656
0.316747 0.355169 0.281926
0.509667 0.405676 0.313024
0.669001 0.467109 0.354101
0.797024 0.538537 0.399359
0.892668 0.614038 0.460975
0.000000 0.485420 0.368872
0.074678 0.487709 0.370794
0.223545 0.499916 0.372381
0.346685 0.517937 0.367468
0.528038 0.536370 0.358465
0.697383 0.583520 0.388128
0.806485 0.633173 0.449134
0.892790 0.689906 0.519493
0.284154 0.644221 0.479500
0.309972 0.645716 0.481880
0.356390 0.651148 0.476509
0.432898 0.660426 0.468482
0.560998 0.673579 0.467994
0.697963 0.689357 0.468086
0.820005 0.728939 0.509880
0.901274 0.768124 0.584314
0.509331 0.773648 0.616052
0.518120 0.772915 0.616297
0.525872 0.774350 0.606012
0.558007 0.778927 0.596490
0.628534 0.784756 0.600519
0.719173 0.795529 0.601343
0.810483 0.806149 0.604883
0.903105 0.835264 0.642939
0.665980 0.875853 0.750515
0.666316 0.875883 0.748745
0.668452 0.878141 0.742733
0.684565 0.884062 0.739254
0.723323 0.888579 0.743465
0.773739 0.895201 0.747524
0.838285 0.903197 0.749813
0.906920 0.910246 0.753689
0.000000 0.131167 0.307744
0.000000 0.135103 0.309209
0.167239 0.147433 0.309941
0.298680 0.170657 0.304173
0.474952 0.239933 0.332219
0.601282 0.314641 0.370092
0.735317 0.411475 0.423377
0.858152 0.521935 0.485237
0.000000 0.162997 0.305852
0.000000 0.165652 0.306889
0.173739 0.174960 0.311101
0.302739 0.194553 0.311254
0.475074 0.261082 0.340490
0.597131 0.329564 0.376196
0.736324 0.422309 0.427741
0.857816 0.529381 0.488655
0.000000 0.230747 0.312474
0.075257 0.234867 0.313024
0.187472 0.249332 0.326146
0.321996 0.269963 0.339513
0.472145 0.329046 0.368353
0.606256 0.395056 0.409461
0.755947 0.482185 0.460090
0.865721 0.572259 0.515587
0.000000 0.333257 0.355688
0.083345 0.336919 0.357641
0.224765 0.359136 0.372717
0.418372 0.433234 0.431861
0.510796 0.435309 0.422004
0.640833 0.481178 0.447120
0.766567 0.547692 0.487617
0.867765 0.623072 0.541894
0.165316 0.502586 0.444312
0.204379 0.504448 0.445991
0.316838 0.518120 0.458015
0.454963 0.552087 0.483864
0.569055 0.566735 0.476295
0.693111 0.598627 0.500603
0.790921 0.645014 0.544213
0.875731 0.697505 0.593927
0.364202 0.655543 0.545708
0.388067 0.660273 0.551263
0.447669 0.663783 0.556451
0.527489 0.675563 0.564477
0.599847 0.686366 0.560479
0.706966 0.698573 0.556756
0.811795 0.733577 0.592523
0.889281 0.773312 0.651423
0.529015 0.775692 0.653834
0.539269 0.776272 0.655573
0.576287 0.777676 0.661311
0.618708 0.782712 0.663539
0.660395 0.789609 0.659297
0.730282 0.799313 0.660151
0.810849 0.808896 0.660639
0.898650 0.838376 0.694514
0.667536 0.879973 0.771145
0.672724 0.879911 0.772000
0.693538 0.880064 0.776150
0.713619 0.883330 0.775265
0.736904 0.888701 0.771237
0.780697 0.894896 0.775509
0.841276 0.903960 0.777829
0.907958 0.912291 0.782559
0.000000 0.195438 0.467506
0.000000 0.199985 0.469215
0.180606 0.212039 0.470405
0.372534 0.225925 0.477363
0.534936 0.261082 0.472023
0.699397 0.373419 0.499092
0.768185 0.455329 0.517723
0.829618 0.545800 0.564752
0.000000 0.226780 0.465644
0.000000 0.230228 0.467994
0.200046 0.239445 0.470863
0.376349 0.250706 0.477943
0.536736 0.283330 0.475776
0.695338 0.389776 0.502403
0.764553 0.465827 0.521141
0.825711 0.553643 0.568750
0.017853 0.304875 0.464942
0.121157 0.307347 0.466163
0.237430 0.314092 0.472267
0.390814 0.328923 0.485695
0.539910 0.356023 0.488106
0.673732 0.438453 0.508873
0.747921 0.498909 0.530938
0.822507 0.577264 0.579248
0.135958 0.400580 0.484871
0.177127 0.403326 0.485054
0.286412 0.417853 0.489754
0.430762 0.449348 0.515099
0.572473 0.479133 0.532280
0.664454 0.522881 0.541405
0.734249 0.563684 0.563531
0.835019 0.628656 0.608545
0.242985 0.520653 0.526116
0.270573 0.523033 0.527611
0.359289 0.533227 0.533959
0.485512 0.560632 0.555108
0.631250 0.620935 0.608515
0.683162 0.613855 0.591363
0.764950 0.643305 0.608545
0.850919 0.692897 0.646571
0.386358 0.646937 0.592737
0.402502 0.648524 0.594537
0.459144 0.653346 0.600061
0.544366 0.666560 0.614191
0.638483 0.691737 0.638148
0.715419 0.707485 0.639307
0.799283 0.734981 0.664698
0.872953 0.773098 0.706294
0.536767 0.773648 0.692653
0.542931 0.773129 0.692195
0.570977 0.773281 0.693080
0.628565 0.778347 0.702388
0.689693 0.788693 0.713802
0.736355 0.797940 0.711879
0.808072 0.807797 0.710719
0.889708 0.835599 0.737972
0.637507 0.876188 0.782406
0.643519 0.875975 0.782986
0.667720 0.875731 0.786069
0.713527 0.879301 0.797086
0.753292 0.884123 0.802426
0.785855 0.891569 0.801572
0.839963 0.901030 0.804227
0.904356 0.909331 0.807218
0.000000 0.288792 0.630915
0.103944 0.291966 0.631952
0.285100 0.301549 0.632074
0.465766 0.322332 0.640650
0.632898 0.350622 0.649256
0.730251 0.408911 0.632990
0.820371 0.532067 0.648554
0.871031 0.616999 0.674952
0.045808 0.310338 0.621546
0.148867 0.312291 0.621729
0.294377 0.321355 0.624475
0.457862 0.337621 0.630640
0.621820 0.363104 0.640711
0.722042 0.417517 0.627771
0.814420 0.535790 0.645472
0.866331 0.617151 0.672114
0.233463 0.397894 0.624109
0.252781 0.396124 0.624720
0.345403 0.402380 0.627893
0.474189 0.412238 0.630610
0.618555 0.435035 0.641840
0.718013 0.477394 0.635737
0.807309 0.576684 0.656886
0.858183 0.638819 0.680354
0.297215 0.492805 0.626459
0.319188 0.494118 0.626337
0.400031 0.503929 0.630640
0.509575 0.521721 0.644953
0.629084 0.543694 0.660090
0.723964 0.573114 0.662989
0.800748 0.640803 0.682856
0.848478 0.676143 0.698390
0.364355 0.580285 0.641627
0.380560 0.581384 0.641566
0.440131 0.586999 0.642725
0.529931 0.601862 0.649439
0.635370 0.631006 0.673579
0.725582 0.655299 0.688716
0.782284 0.682307 0.694118
0.827543 0.703822 0.706050
0.452918 0.669825 0.672969
0.466773 0.672145 0.675013
0.508659 0.675349 0.676967
0.576959 0.684260 0.683650
0.658991 0.704097 0.700710
0.753933 0.749233 0.744808
0.793240 0.746426 0.733791
0.858854 0.770901 0.750881
0.560662 0.775998 0.742275
0.569390 0.777279 0.743862
0.597467 0.779446 0.746517
0.645899 0.784909 0.752956
0.703975 0.794553 0.763485
0.765835 0.811582 0.779751
0.818235 0.820218 0.776638
0.887846 0.842954 0.796506
0.646448 0.877287 0.819577
0.649622 0.876890 0.819059
0.665980 0.876921 0.819181
0.698451 0.878965 0.821744
0.746822 0.882322 0.827512
0.801938 0.890227 0.837949
0.843015 0.900359 0.839353
0.904234 0.909636 0.841245
0.334783 0.408972 0.763424
0.360113 0.412116 0.764096
0.442512 0.421668 0.764279
0.557641 0.441627 0.766049
0.674708 0.471351 0.768856
0.781247 0.512291 0.774594
0.837400 0.566125 0.757900
0.886992 0.659419 0.763149
0.346960 0.426734 0.758846
0.370459 0.429725 0.759701
0.446845 0.438025 0.760281
0.555779 0.454749 0.761776
0.670466 0.481849 0.764950
0.776059 0.519280 0.770840
0.832883 0.569390 0.754574
0.883452 0.659785 0.760494
0.394079 0.493263 0.754849
0.410681 0.494697 0.755093
0.470832 0.500359 0.755795
0.563928 0.512871 0.758083
0.667567 0.533288 0.762203
0.768002 0.564172 0.770016
0.827207 0.605798 0.759091
0.880949 0.685237 0.769741
0.445014 0.576104 0.752468
0.457588 0.576654 0.751919
0.508202 0.582666 0.752468
0.579828 0.590539 0.756619
0.668513 0.606378 0.762814
0.759487 0.630579 0.773342
0.820706 0.659663 0.769192
0.877714 0.722194 0.783963
0.476265 0.645167 0.752926
0.485298 0.645228 0.752010
0.522881 0.647730 0.750210
0.590875 0.656916 0.754635
0.670130 0.672541 0.765194
0.750423 0.690852 0.778042
0.815274 0.712520 0.781552
0.877104 0.763516 0.802243
0.535027 0.717250 0.771817
0.542596 0.717769 0.771786
0.571008 0.719539 0.771603
0.618708 0.723720 0.772091
0.678706 0.732387 0.775204
0.753201 0.754910 0.794705
0.821958 0.776059 0.808988
0.870054 0.797513 0.815427
0.596277 0.787106 0.800046
0.602014 0.787655 0.800473
0.622919 0.788754 0.800809
0.660578 0.791867 0.802487
0.710231 0.798459 0.806851
0.769467 0.813169 0.818784
0.842283 0.845640 0.848783
0.879423 0.844633 0.841245
0.653376 0.874907 0.854734
0.657862 0.875212 0.855070
0.676692 0.877043 0.856931
0.709071 0.879820 0.859525
0.753719 0.884703 0.864195
0.804532 0.892485 0.871305
0.860441 0.905333 0.882567
0.909819 0.915007 0.882963
0.554406 0.575891 0.873869
0.564660 0.578119 0.874022
0.601465 0.584497 0.873503
0.663447 0.599329 0.873747
0.735836 0.620691 0.874449
0.808743 0.647608 0.876280
0.878019 0.679561 0.878782
0.919554 0.713222 0.867033
0.557458 0.585565 0.871519
0.567437 0.587610 0.871794
0.603510 0.593927 0.871611
0.663386 0.607233 0.871885
0.734432 0.627039 0.872862
0.806760 0.652583 0.874907
0.875914 0.682643 0.877562
0.917571 0.714931 0.865873
0.574701 0.624414 0.867613
0.582849 0.625635 0.867704
0.613825 0.629999 0.867674
0.668544 0.641474 0.869291
0.733639 0.656367 0.870573
0.802457 0.676387 0.873106
0.871580 0.701991 0.877379
0.913970 0.729763 0.866972
0.596155 0.676539 0.863706
0.604578 0.678370 0.863767
0.628077 0.679774 0.864195
0.674037 0.687129 0.865873
0.732631 0.698360 0.868437
0.797299 0.713954 0.872465
0.865904 0.734401 0.879057
0.909911 0.756252 0.871092
0.594873 0.721462 0.862852
0.601465 0.722194 0.863096
0.625452 0.723629 0.863127
0.674861 0.731807 0.863981
0.728786 0.740352 0.867185
0.789822 0.752468 0.872435
0.857420 0.769650 0.880766
0.906493 0.788449 0.877623
0.618311 0.775326 0.870359
0.622187 0.775113 0.869841
0.639124 0.774929 0.868223
0.670985 0.775845 0.866178
0.719020 0.780179 0.867491
0.784390 0.794980 0.876249
0.852201 0.812558 0.887633
0.907530 0.830259 0.890654
0.654841 0.833127 0.887205
0.658259 0.833127 0.886992
0.672633 0.833280 0.886198
0.700191 0.834379 0.885283
0.738582 0.836667 0.884398
0.785702 0.841550 0.884794
0.849119 0.857389 0.896574
0.911162 0.874907 0.906554
0.697230 0.891905 0.908934
0.700069 0.891936 0.908843
0.712642 0.892302 0.908690
0.736995 0.893675 0.908843
0.771450 0.895995 0.909300
0.814237 0.900145 0.910918
0.864836 0.908965 0.916381
0.927886 0.931456 0.934691
