20 Preset/City Style/【2】XMP cho Photoshop - Lightroom CC/TONE 3/Dubai I Burj Khalifa.xmp
<x:xmpmeta xmlns:x="adobe:ns:meta/" x:xmptk="Adobe XMP Core 5.6-c140 79.160451, 2017/05/06-01:08:21        ">
 <rdf:RDF xmlns:rdf="http://www.w3.org/1999/02/22-rdf-syntax-ns#">
  <rdf:Description rdf:about=""
    xmlns:crs="http://ns.adobe.com/camera-raw-settings/1.0/"
   crs:PresetType="Normal"
   crs:Cluster=""
   crs:UUID="A9BA714C4893E1D217662898644D238B"
   crs:SupportsAmount="False"
   crs:SupportsColor="True"
   crs:SupportsMonochrome="True"
   crs:SupportsHighDynamicRange="True"
   crs:SupportsNormalDynamicRange="True"
   crs:SupportsSceneReferred="True"
   crs:SupportsOutputReferred="True"
   crs:CameraModelRestriction=""
   crs:Copyright=""
   crs:ContactInfo=""
   crs:Version="12.0"
   crs:ProcessVersion="6.7"
   crs:WhiteBalance="Custom"
   crs:Temperature="3550"
   crs:Tint="+13"
   crs:Saturation="-15"
   crs:Sharpness="104"
   crs:LuminanceSmoothing="0"
   crs:ColorNoiseReduction="50"
   crs:VignetteAmount="0"
   crs:ShadowTint="+33"
   crs:RedHue="-3"
   crs:RedSaturation="+2"
   crs:GreenHue="-100"
   crs:GreenSaturation="0"
   crs:BlueHue="+2"
   crs:BlueSaturation="-12"
   crs:Vibrance="0"
   crs:HueAdjustmentRed="0"
   crs:HueAdjustmentOrange="+4"
   crs:HueAdjustmentYellow="-100"
   crs:HueAdjustmentGreen="-100"
   crs:HueAdjustmentAqua="-3"
   crs:HueAdjustmentBlue="-15"
   crs:HueAdjustmentPurple="-100"
   crs:HueAdjustmentMagenta="-1"
   crs:SaturationAdjustmentRed="-32"
   crs:SaturationAdjustmentOrange="-54"
   crs:SaturationAdjustmentYellow="-14"
   crs:SaturationAdjustmentGreen="-100"
   crs:SaturationAdjustmentAqua="-32"
   crs:SaturationAdjustmentBlue="-31"
   crs:SaturationAdjustmentPurple="-62"
   crs:SaturationAdjustmentMagenta="-100"
   crs:LuminanceAdjustmentRed="-35"
   crs:LuminanceAdjustmentOrange="-13"
   crs:LuminanceAdjustmentYellow="-21"
   crs:LuminanceAdjustmentGreen="-5"
   crs:LuminanceAdjustmentAqua="-5"
   crs:LuminanceAdjustmentBlue="-3"
   crs:LuminanceAdjustmentPurple="-8"
   crs:LuminanceAdjustmentMagenta="-23"
   crs:SplitToningShadowHue="0"
   crs:SplitToningShadowSaturation="0"
   crs:SplitToningHighlightHue="215"
   crs:SplitToningHighlightSaturation="0"
   crs:SplitToningBalance="-1"
   crs:ParametricShadows="0"
   crs:ParametricDarks="0"
   crs:ParametricLights="0"
   crs:ParametricHighlights="0"
   crs:ParametricShadowSplit="14"
   crs:ParametricMidtoneSplit="60"
   crs:ParametricHighlightSplit="75"
   crs:SharpenRadius="+1.0"
   crs:SharpenDetail="25"
   crs:SharpenEdgeMasking="0"
   crs:PostCropVignetteAmount="0"
   crs:GrainAmount="0"
   crs:ColorNoiseReductionDetail="50"
   crs:ColorNoiseReductionSmoothness="50"
   crs:LensProfileEnable="0"
   crs:LensManualDistortionAmount="0"
   crs:AutoLateralCA="0"
   crs:Exposure2012="+1.55"
   crs:Contrast2012="-3"
   crs:Highlights2012="-100"
   crs:Shadows2012="+100"
   crs:Whites2012="-100"
   crs:Blacks2012="+6"
   crs:Clarity2012="-10"
   crs:DefringePurpleAmount="0"
   crs:DefringePurpleHueLo="30"
   crs:DefringePurpleHueHi="70"
   crs:DefringeGreenAmount="0"
   crs:DefringeGreenHueLo="40"
   crs:DefringeGreenHueHi="60"
   crs:Dehaze="0"
   crs:ConvertToGrayscale="False"
   crs:OverrideLookVignette="False"
   crs:ToneCurveName2012="Custom"
   crs:CameraProfile="Adobe Standard"
   crs:LensProfileSetup="LensDefaults"
   crs:HasSettings="True">
   <crs:Name>
    <rdf:Alt>
     <rdf:li xml:lang="x-default">Dubai I Burj Khalifa</rdf:li>
    </rdf:Alt>
   </crs:Name>
   <crs:ShortName>
    <rdf:Alt>
     <rdf:li xml:lang="x-default"/>
    </rdf:Alt>
   </crs:ShortName>
   <crs:SortName>
    <rdf:Alt>
     <rdf:li xml:lang="x-default"/>
    </rdf:Alt>
   </crs:SortName>
   <crs:Group>
    <rdf:Alt>
     <rdf:li xml:lang="x-default">City Style 3</rdf:li>
    </rdf:Alt>
   </crs:Group>
   <crs:Description>
    <rdf:Alt>
     <rdf:li xml:lang="x-default"/>
    </rdf:Alt>
   </crs:Description>
   <crs:ToneCurvePV2012>
    <rdf:Seq>
     <rdf:li>1, 27</rdf:li>
     <rdf:li>33, 12</rdf:li>
     <rdf:li>129, 119</rdf:li>
     <rdf:li>182, 219</rdf:li>
     <rdf:li>255, 255</rdf:li>
    </rdf:Seq>
   </crs:ToneCurvePV2012>
   <crs:ToneCurvePV2012Red>
    <rdf:Seq>
     <rdf:li>0, 0</rdf:li>
     <rdf:li>49, 28</rdf:li>
     <rdf:li>86, 65</rdf:li>
     <rdf:li>116, 111</rdf:li>
     <rdf:li>171, 211</rdf:li>
     <rdf:li>255, 255</rdf:li>
    </rdf:Seq>
   </crs:ToneCurvePV2012Red>
   <crs:ToneCurvePV2012Green>
    <rdf:Seq>
     <rdf:li>0, 0</rdf:li>
     <rdf:li>43, 24</rdf:li>
     <rdf:li>60, 37</rdf:li>
     <rdf:li>91, 73</rdf:li>
     <rdf:li>119, 118</rdf:li>
     <rdf:li>172, 212</rdf:li>
     <rdf:li>255, 255</rdf:li>
    </rdf:Seq>
   </crs:ToneCurvePV2012Green>
   <crs:ToneCurvePV2012Blue>
    <rdf:Seq>
     <rdf:li>0, 0</rdf:li>
     <rdf:li>41, 26</rdf:li>
     <rdf:li>79, 62</rdf:li>
     <rdf:li>130, 142</rdf:li>
     <rdf:li>168, 214</rdf:li>
     <rdf:li>255, 255</rdf:li>
    </rdf:Seq>
   </crs:ToneCurvePV2012Blue>
   <crs:Look
    crs:Name=""/>
  </rdf:Description>
 </rdf:RDF>
</x:xmpmeta>
