20 Preset/Nude style/【1】LRtemplate Lightroom bản cũ/Tone  (1).lrtemplate
s = {
	id = "F409CED4-D3FE-4688-B759-C67CED85B5CF",
	internalName = "奶油裸色-素材江湖01",
	title = "奶油裸色-素材江湖01",
	type = "Develop",
	value = {
		settings = {
			AutoLateralCA = 0,
			Blacks2012 = 29,
			BlueHue = 0,
			BlueSaturation = 0,
			CameraProfile = "Embedded",
			ChromaticAberrationB = 0,
			ChromaticAberrationR = 0,
			Clarity2012 = 19,
			ColorNoiseReduction = 0,
			ColorNoiseReductionDetail = 50,
			ColorNoiseReductionSmoothness = 50,
			Contrast2012 = 12,
			ConvertToGrayscale = false,
			CropConstrainToWarp = 0,
			Defringe = 0,
			DefringeGreenAmount = 0,
			DefringeGreenHueHi = 60,
			DefringeGreenHueLo = 40,
			DefringePurpleAmount = 0,
			DefringePurpleHueHi = 70,
			DefringePurpleHueLo = 30,
			Dehaze = 0,
			EnableCalibration = true,
			EnableColorAdjustments = true,
			EnableDetail = true,
			EnableEffects = true,
			EnableLensCorrections = true,
			EnableSplitToning = true,
			Exposure2012 = 0.1,
			GrainAmount = 0,
			GrainFrequency = 50,
			GrainSize = 25,
			GreenHue = 0,
			GreenSaturation = 0,
			Highlights2012 = -47,
			HueAdjustmentAqua = -56,
			HueAdjustmentBlue = -25,
			HueAdjustmentGreen = -90,
			HueAdjustmentMagenta = -7,
			HueAdjustmentOrange = -21,
			HueAdjustmentPurple = -37,
			HueAdjustmentRed = 19,
			HueAdjustmentYellow = -54,
			IncrementalTemperature = 8,
			IncrementalTint = -19,
			LensManualDistortionAmount = 0,
			LuminanceAdjustmentAqua = 0,
			LuminanceAdjustmentBlue = 0,
			LuminanceAdjustmentGreen = 0,
			LuminanceAdjustmentMagenta = 0,
			LuminanceAdjustmentOrange = -23,
			LuminanceAdjustmentPurple = -2,
			LuminanceAdjustmentRed = -22,
			LuminanceAdjustmentYellow = -26,
			LuminanceNoiseReductionContrast = 0,
			LuminanceNoiseReductionDetail = 50,
			LuminanceSmoothing = 0,
			ParametricDarks = 3,
			ParametricHighlightSplit = 75,
			ParametricHighlights = -9,
			ParametricLights = -13,
			ParametricMidtoneSplit = 50,
			ParametricShadowSplit = 25,
			ParametricShadows = -4,
			PostCropVignetteAmount = 0,
			PostCropVignetteFeather = 50,
			PostCropVignetteHighlightContrast = 0,
			PostCropVignetteMidpoint = 50,
			PostCropVignetteRoundness = 0,
			PostCropVignetteStyle = 1,
			ProcessVersion = "10.0",
			RedHue = 0,
			RedSaturation = 0,
			Saturation = 7,
			SaturationAdjustmentAqua = 0,
			SaturationAdjustmentBlue = -31,
			SaturationAdjustmentGreen = 0,
			SaturationAdjustmentMagenta = -100,
			SaturationAdjustmentOrange = 0,
			SaturationAdjustmentPurple = -100,
			SaturationAdjustmentRed = 2,
			SaturationAdjustmentYellow = -58,
			ShadowTint = 0,
			Shadows2012 = 0,
			SharpenDetail = 25,
			SharpenEdgeMasking = 0,
			SharpenRadius = 1,
			Sharpness = 0,
			SplitToningBalance = 0,
			SplitToningHighlightHue = 204,
			SplitToningHighlightSaturation = 24,
			SplitToningShadowHue = 2,
			SplitToningShadowSaturation = 8,
			ToneCurveName2012 = "Custom",
			ToneCurvePV2012 = {
				2,
				8,
				117,
				118,
				255,
				237,
			},
			ToneCurvePV2012Blue = {
				0,
				0,
				255,
				255,
			},
			ToneCurvePV2012Green = {
				0,
				0,
				255,
				255,
			},
			ToneCurvePV2012Red = {
				0,
				0,
				255,
				255,
			},
			Vibrance = -13,
			VignetteAmount = 0,
			VignetteMidpoint = 50,
			WhiteBalance = "Custom",
			Whites2012 = 7,
		},
		uuid = "1F3D80B0-CFAA-4908-88C4-60FDFD9A6350",
	},
	version = 0,
}
