20 Preset/Nude style/【1】LRtemplate Lightroom bản cũ/Tone  (5).lrtemplate
s = {
	id = "F427F7BF-E3D9-464C-861E-23515AB57EF0",
	internalName = "奶油裸色-素材江湖05",
	title = "奶油裸色-素材江湖05",
	type = "Develop",
	value = {
		settings = {
			AutoLateralCA = 0,
			Blacks2012 = -7,
			BlueHue = 0,
			BlueSaturation = 0,
			CameraProfile = "Embedded",
			ChromaticAberrationB = 0,
			ChromaticAberrationR = 0,
			Clarity2012 = 19,
			ColorNoiseReduction = 0,
			ColorNoiseReductionDetail = 50,
			ColorNoiseReductionSmoothness = 50,
			Contrast2012 = -42,
			ConvertToGrayscale = false,
			CropConstrainToWarp = 0,
			Defringe = 0,
			DefringeGreenAmount = 0,
			DefringeGreenHueHi = 60,
			DefringeGreenHueLo = 40,
			DefringePurpleAmount = 0,
			DefringePurpleHueHi = 70,
			DefringePurpleHueLo = 30,
			Dehaze = 0,
			EnableCalibration = true,
			EnableColorAdjustments = true,
			EnableDetail = true,
			EnableEffects = true,
			EnableLensCorrections = true,
			EnableSplitToning = true,
			Exposure2012 = -0.65,
			GrainAmount = 0,
			GrainFrequency = 50,
			GrainSize = 25,
			GreenHue = 0,
			GreenSaturation = 0,
			Highlights2012 = -43,
			HueAdjustmentAqua = -34,
			HueAdjustmentBlue = -38,
			HueAdjustmentGreen = -90,
			HueAdjustmentMagenta = -12,
			HueAdjustmentOrange = -2,
			HueAdjustmentPurple = -15,
			HueAdjustmentRed = 33,
			HueAdjustmentYellow = -19,
			IncrementalTemperature = 5,
			IncrementalTint = -4,
			LensManualDistortionAmount = 0,
			LuminanceAdjustmentAqua = -79,
			LuminanceAdjustmentBlue = -63,
			LuminanceAdjustmentGreen = 0,
			LuminanceAdjustmentMagenta = 0,
			LuminanceAdjustmentOrange = -11,
			LuminanceAdjustmentPurple = 0,
			LuminanceAdjustmentRed = -28,
			LuminanceAdjustmentYellow = 4,
			LuminanceNoiseReductionContrast = 0,
			LuminanceNoiseReductionDetail = 50,
			LuminanceSmoothing = 0,
			ParametricDarks = 0,
			ParametricHighlightSplit = 75,
			ParametricHighlights = 0,
			ParametricLights = 0,
			ParametricMidtoneSplit = 50,
			ParametricShadowSplit = 25,
			ParametricShadows = 0,
			PostCropVignetteAmount = 0,
			PostCropVignetteFeather = 50,
			PostCropVignetteHighlightContrast = 0,
			PostCropVignetteMidpoint = 50,
			PostCropVignetteRoundness = 0,
			PostCropVignetteStyle = 1,
			ProcessVersion = "10.0",
			RedHue = 0,
			RedSaturation = 0,
			Saturation = 0,
			SaturationAdjustmentAqua = -68,
			SaturationAdjustmentBlue = -45,
			SaturationAdjustmentGreen = 0,
			SaturationAdjustmentMagenta = 0,
			SaturationAdjustmentOrange = 21,
			SaturationAdjustmentPurple = 0,
			SaturationAdjustmentRed = 2,
			SaturationAdjustmentYellow = -39,
			ShadowTint = 0,
			Shadows2012 = 46,
			SharpenDetail = 25,
			SharpenEdgeMasking = 0,
			SharpenRadius = 1,
			Sharpness = 0,
			SplitToningBalance = 0,
			SplitToningHighlightHue = 198,
			SplitToningHighlightSaturation = 28,
			SplitToningShadowHue = 2,
			SplitToningShadowSaturation = 11,
			ToneCurveName2012 = "Linear",
			ToneCurvePV2012 = {
				0,
				0,
				255,
				255,
			},
			ToneCurvePV2012Blue = {
				0,
				0,
				255,
				255,
			},
			ToneCurvePV2012Green = {
				0,
				0,
				255,
				255,
			},
			ToneCurvePV2012Red = {
				0,
				0,
				255,
				255,
			},
			Vibrance = 0,
			VignetteAmount = 0,
			VignetteMidpoint = 50,
			WhiteBalance = "Custom",
			Whites2012 = -20,
		},
		uuid = "0A38AFA0-B151-4E71-9815-2C1D07043723",
	},
	version = 0,
}
