20 Preset/Nude style/【1】LRtemplate Lightroom bản cũ/Tone  (7).lrtemplate
s = {
	id = "43C57FBF-D9C0-4BEF-B65F-E4E0F0E732F8",
	internalName = "奶油裸色-素材江湖07",
	title = "奶油裸色-素材江湖07",
	type = "Develop",
	value = {
		settings = {
			AutoLateralCA = 0,
			Blacks2012 = 28,
			BlueHue = 0,
			BlueSaturation = 0,
			CameraProfile = "Embedded",
			ChromaticAberrationB = 0,
			ChromaticAberrationR = 0,
			Clarity2012 = 30,
			ColorNoiseReduction = 0,
			ColorNoiseReductionDetail = 50,
			ColorNoiseReductionSmoothness = 50,
			Contrast2012 = -17,
			ConvertToGrayscale = false,
			CropConstrainToWarp = 0,
			Defringe = 0,
			DefringeGreenAmount = 0,
			DefringeGreenHueHi = 60,
			DefringeGreenHueLo = 40,
			DefringePurpleAmount = 0,
			DefringePurpleHueHi = 70,
			DefringePurpleHueLo = 30,
			Dehaze = 0,
			EnableCalibration = true,
			EnableColorAdjustments = true,
			EnableDetail = true,
			EnableEffects = true,
			EnableLensCorrections = true,
			EnableSplitToning = true,
			Exposure2012 = 0.4,
			GrainAmount = 0,
			GrainFrequency = 50,
			GrainSize = 25,
			GreenHue = 0,
			GreenSaturation = 0,
			Highlights2012 = -71,
			HueAdjustmentAqua = 31,
			HueAdjustmentBlue = -14,
			HueAdjustmentGreen = -90,
			HueAdjustmentMagenta = -12,
			HueAdjustmentOrange = -12,
			HueAdjustmentPurple = -15,
			HueAdjustmentRed = 21,
			HueAdjustmentYellow = -42,
			IncrementalTemperature = 5,
			IncrementalTint = -5,
			LensManualDistortionAmount = 0,
			LuminanceAdjustmentAqua = 0,
			LuminanceAdjustmentBlue = 0,
			LuminanceAdjustmentGreen = 0,
			LuminanceAdjustmentMagenta = 0,
			LuminanceAdjustmentOrange = -24,
			LuminanceAdjustmentPurple = 0,
			LuminanceAdjustmentRed = -22,
			LuminanceAdjustmentYellow = -29,
			LuminanceNoiseReductionContrast = 0,
			LuminanceNoiseReductionDetail = 50,
			LuminanceSmoothing = 0,
			ParametricDarks = -6,
			ParametricHighlightSplit = 75,
			ParametricHighlights = 7,
			ParametricLights = 7,
			ParametricMidtoneSplit = 50,
			ParametricShadowSplit = 25,
			ParametricShadows = 0,
			PostCropVignetteAmount = 0,
			PostCropVignetteFeather = 50,
			PostCropVignetteHighlightContrast = 0,
			PostCropVignetteMidpoint = 50,
			PostCropVignetteRoundness = 0,
			PostCropVignetteStyle = 1,
			ProcessVersion = "10.0",
			RedHue = 0,
			RedSaturation = 0,
			Saturation = 0,
			SaturationAdjustmentAqua = 13,
			SaturationAdjustmentBlue = -31,
			SaturationAdjustmentGreen = -55,
			SaturationAdjustmentMagenta = -48,
			SaturationAdjustmentOrange = -23,
			SaturationAdjustmentPurple = -47,
			SaturationAdjustmentRed = 0,
			SaturationAdjustmentYellow = -58,
			ShadowTint = 0,
			Shadows2012 = 0,
			SharpenDetail = 25,
			SharpenEdgeMasking = 0,
			SharpenRadius = 1.1,
			Sharpness = 0,
			SplitToningBalance = 0,
			SplitToningHighlightHue = 204,
			SplitToningHighlightSaturation = 24,
			SplitToningShadowHue = 2,
			SplitToningShadowSaturation = 8,
			ToneCurveName2012 = "Custom",
			ToneCurvePV2012 = {
				0,
				17,
				35,
				39,
				115,
				113,
				255,
				242,
			},
			ToneCurvePV2012Blue = {
				0,
				0,
				255,
				255,
			},
			ToneCurvePV2012Green = {
				0,
				0,
				255,
				255,
			},
			ToneCurvePV2012Red = {
				0,
				0,
				255,
				255,
			},
			Vibrance = -2,
			VignetteAmount = 0,
			VignetteMidpoint = 50,
			WhiteBalance = "Custom",
			Whites2012 = 27,
		},
		uuid = "A39DB28B-86E5-4C61-9A66-93E6A1C486C2",
	},
	version = 0,
}
