20 Preset/Ociden Style/【3】LUT video cho PR-AE-FCPX/Ocident style 5/Tone  (8).cube
# Created by Adobe Lightroom plugin Export LUT (1.24.0)
# www.johnrellis.com/lightroom/exportlut.htm
# Preset: Cvatik_Artemis_2
# Color profile: E:\lut插件\exportlut.1.24\exportlut.lrplugin\color profiles\Rec709gamma2.4.icc
LUT_3D_SIZE 8
DOMAIN_MIN 0.000000 0.000000 0.000000
DOMAIN_MAX 0.903226 0.903226 0.903226
0.000000 0.000000 0.000000
0.238956 0.000000 0.011658
0.731533 0.000000 0.000000
0.913390 0.000000 0.000000
0.988617 0.000000 0.117128
1.000000 0.308171 0.246830
1.000000 0.428168 0.360235
1.000000 0.517998 0.461158
0.000000 0.212711 0.112337
0.172091 0.180392 0.150790
0.694209 0.167605 0.000000
0.893370 0.131075 0.000000
0.974975 0.243198 0.157137
1.000000 0.359197 0.271214
1.000000 0.452552 0.375525
1.000000 0.532128 0.471717
0.000000 0.595483 0.303227
0.000000 0.576501 0.306096
0.486671 0.516747 0.431769
0.810269 0.513634 0.228031
0.918975 0.501793 0.312718
0.964080 0.520928 0.390906
0.980865 0.559533 0.468788
0.983856 0.603754 0.538964
0.000000 0.762509 0.514824
0.000000 0.753597 0.523095
0.441382 0.721096 0.550744
0.641566 0.702266 0.654963
0.809232 0.709346 0.564446
0.896391 0.669825 0.531090
0.927520 0.673915 0.578851
0.941650 0.689357 0.622797
0.000000 0.828580 0.642817
0.000000 0.823880 0.649928
0.477943 0.807553 0.675196
0.617060 0.784024 0.688350
0.707820 0.778347 0.747677
0.791806 0.788449 0.719631
0.875151 0.755123 0.654566
0.899596 0.757717 0.688960
0.336095 0.858335 0.718807
0.390753 0.856413 0.723629
0.521111 0.847898 0.737270
0.637751 0.834958 0.755184
0.695430 0.819516 0.761074
0.749142 0.820432 0.800565
0.794522 0.830716 0.796811
0.858640 0.815763 0.754299
0.487770 0.877958 0.768856
0.510338 0.876616 0.771786
0.580743 0.871397 0.781827
0.663447 0.863493 0.797024
0.710048 0.855802 0.802121
0.749111 0.847684 0.812467
0.780392 0.848936 0.835996
0.804929 0.856565 0.840055
0.588037 0.890745 0.806912
0.600732 0.889830 0.809079
0.644251 0.886442 0.817166
0.699977 0.881590 0.829038
0.746059 0.876341 0.839963
0.765713 0.872801 0.841642
0.789120 0.869627 0.850156
0.805417 0.869932 0.862516
0.059297 0.027619 0.140383
0.216770 0.016510 0.156924
0.712276 0.000000 0.193606
0.886473 0.099031 0.242344
0.962951 0.294743 0.294499
0.992676 0.402991 0.364477
1.000000 0.482551 0.436683
1.000000 0.550774 0.508629
0.000000 0.201053 0.217716
0.223636 0.222354 0.221958
0.676631 0.213901 0.234714
0.870420 0.272831 0.262211
0.951415 0.359136 0.315129
0.984070 0.436469 0.381201
0.995361 0.501915 0.448981
0.996094 0.562829 0.517266
0.000000 0.594659 0.400549
0.000000 0.585107 0.392950
0.501823 0.530724 0.473884
0.795773 0.529931 0.350164
0.901549 0.530114 0.402411
0.947692 0.549981 0.456519
0.967407 0.581170 0.510857
0.973785 0.619379 0.566308
0.000000 0.761318 0.548272
0.000000 0.752987 0.553063
0.461128 0.721553 0.576501
0.640528 0.700343 0.659327
0.807767 0.702571 0.565057
0.887083 0.673884 0.555596
0.919982 0.678798 0.595850
0.936217 0.693843 0.634394
0.000000 0.828031 0.655360
0.072480 0.823453 0.661128
0.477302 0.807370 0.681422
0.618708 0.783536 0.692988
0.706935 0.777157 0.748501
0.791806 0.786557 0.718715
0.871336 0.756222 0.663600
0.896574 0.759274 0.695186
0.337804 0.857816 0.722988
0.389105 0.855589 0.726589
0.518425 0.847227 0.739132
0.640650 0.834165 0.758572
0.695857 0.819150 0.762600
0.749081 0.820249 0.801236
0.794766 0.830320 0.796628
0.857725 0.815213 0.755398
0.484260 0.877714 0.769894
0.505364 0.876310 0.772213
0.576806 0.871031 0.781888
0.660853 0.863157 0.796780
0.709834 0.855528 0.802609
0.748562 0.847257 0.812406
0.779934 0.848478 0.835782
0.804837 0.856107 0.839322
0.582544 0.890867 0.806424
0.596307 0.889952 0.808865
0.640803 0.886503 0.816861
0.697719 0.881559 0.828672
0.746670 0.876677 0.840848
0.766354 0.872984 0.842435
0.789212 0.869657 0.850401
0.805478 0.869963 0.862669
0.125521 0.070314 0.400702
0.318181 0.080354 0.421424
0.642481 0.219333 0.471748
0.839719 0.388128 0.516808
0.903990 0.496956 0.551202
0.930205 0.570306 0.586816
0.945708 0.613062 0.612818
0.955138 0.645808 0.637751
0.092195 0.245548 0.444862
0.324163 0.277623 0.463447
0.616083 0.376837 0.505028
0.814481 0.459693 0.540642
0.889372 0.531823 0.567987
0.922545 0.586084 0.594385
0.941772 0.620600 0.615930
0.952148 0.651423 0.640681
0.000000 0.544274 0.561822
0.000000 0.548547 0.561486
0.549859 0.573724 0.568811
0.755276 0.591608 0.583764
0.853513 0.614801 0.599390
0.900114 0.636622 0.617304
0.924743 0.657862 0.637354
0.938476 0.680049 0.660182
0.000000 0.761013 0.654994
0.000000 0.756039 0.654231
0.478553 0.737087 0.654322
0.652522 0.713252 0.692439
0.798123 0.706783 0.631006
0.859953 0.707454 0.653132
0.894469 0.713924 0.672480
0.914031 0.725277 0.692927
0.000000 0.826749 0.705623
0.238132 0.823911 0.707698
0.483162 0.812558 0.714961
0.633722 0.790677 0.721675
0.713130 0.783047 0.763333
0.796445 0.786923 0.728603
0.857603 0.769436 0.708888
0.883330 0.773892 0.730800
0.374884 0.857694 0.746700
0.412665 0.856199 0.748775
0.526299 0.848875 0.756649
0.643793 0.836393 0.770352
0.703120 0.821836 0.774655
0.751766 0.822416 0.807340
0.797696 0.831296 0.799710
0.854276 0.816678 0.766384
0.489631 0.878630 0.780850
0.510338 0.877256 0.782803
0.579339 0.872099 0.790646
0.661250 0.864347 0.802701
0.716182 0.856535 0.810147
0.750698 0.848081 0.816526
0.781827 0.849973 0.839017
0.807156 0.857420 0.841123
0.572808 0.892027 0.809323
0.586694 0.891020 0.811337
0.634150 0.887419 0.819028
0.694484 0.882383 0.830533
0.745113 0.877317 0.842069
0.768246 0.873594 0.844999
0.790188 0.870207 0.852079
0.806332 0.870573 0.863981
0.295445 0.175784 0.639979
0.415930 0.210971 0.650080
0.662654 0.389197 0.679103
0.773159 0.521477 0.677363
0.847562 0.616663 0.695979
0.886412 0.648951 0.697780
0.900725 0.687037 0.714504
0.911711 0.714229 0.729030
0.339055 0.332799 0.652522
0.435492 0.360754 0.659998
0.646113 0.482704 0.684932
0.755398 0.571862 0.688319
0.837339 0.637629 0.704341
0.879271 0.662196 0.704585
0.895689 0.695674 0.719844
0.909209 0.718654 0.731594
0.217990 0.515679 0.654231
0.346258 0.530175 0.657252
0.589258 0.605707 0.689693
0.712398 0.664729 0.710994
0.807706 0.689601 0.724331
0.855436 0.703792 0.726436
0.880735 0.723415 0.735775
0.899535 0.737179 0.742763
0.000000 0.707301 0.725216
0.208072 0.708186 0.724605
0.504540 0.712886 0.722866
0.673091 0.730098 0.729946
0.773098 0.736660 0.736477
0.828458 0.744259 0.741146
0.863035 0.752529 0.747494
0.885588 0.761563 0.755428
0.208225 0.823636 0.768734
0.308293 0.821958 0.769009
0.492805 0.816312 0.769589
0.644831 0.802884 0.765713
0.721675 0.791226 0.783017
0.797757 0.785702 0.752193
0.839811 0.788174 0.763241
0.866300 0.792935 0.773709
0.430518 0.856840 0.784756
0.460334 0.855802 0.785885
0.545830 0.850736 0.788052
0.646326 0.842039 0.792477
0.715084 0.828397 0.794736
0.756893 0.826719 0.817350
0.803799 0.831876 0.804227
0.846159 0.823880 0.792630
0.498970 0.878630 0.799802
0.517784 0.877653 0.801144
0.580743 0.873869 0.806271
0.659724 0.867338 0.814206
0.725338 0.859068 0.822965
0.755581 0.850706 0.824704
0.784787 0.852232 0.844022
0.811093 0.858915 0.843290
0.547356 0.894224 0.814755
0.563348 0.893278 0.816617
0.616205 0.889921 0.823484
0.684627 0.884337 0.833982
0.740871 0.878874 0.844511
0.770871 0.874815 0.849302
0.791562 0.871061 0.854704
0.807797 0.871641 0.866178
0.459815 0.343359 0.756832
0.512596 0.372839 0.759213
0.650324 0.482979 0.766659
0.758724 0.597406 0.776089
0.809354 0.665919 0.767666
0.846372 0.712978 0.771786
0.873106 0.727596 0.769619
0.884947 0.751675 0.778958
0.482063 0.441138 0.756832
0.524956 0.462196 0.759121
0.645686 0.542260 0.766751
0.749294 0.631647 0.777554
0.802152 0.682307 0.771450
0.841489 0.721889 0.775387
0.869230 0.734310 0.773098
0.882109 0.756344 0.781827
0.482033 0.583124 0.752316
0.517967 0.595087 0.754818
0.622797 0.639307 0.764736
0.727626 0.704433 0.783169
0.779995 0.726986 0.782193
0.824979 0.748470 0.785702
0.855680 0.756100 0.784176
0.872435 0.771664 0.790951
0.403815 0.671931 0.759670
0.445289 0.676173 0.758572
0.555962 0.691615 0.754665
0.690486 0.742519 0.780880
0.755154 0.771695 0.794278
0.804166 0.780545 0.798795
0.838163 0.783993 0.798581
0.860380 0.792081 0.802579
0.396094 0.781460 0.795743
0.433936 0.781918 0.795468
0.538262 0.783505 0.794522
0.649042 0.786648 0.793332
0.732479 0.798123 0.799222
0.786435 0.800931 0.802640
0.825254 0.804562 0.804837
0.851865 0.808774 0.807919
0.447517 0.850828 0.818143
0.471717 0.850065 0.818173
0.548638 0.846952 0.818173
0.640192 0.843320 0.818967
0.716701 0.835447 0.815702
0.760891 0.829984 0.826230
0.809415 0.828092 0.809751
0.838926 0.831083 0.817441
0.488930 0.879484 0.824186
0.505364 0.878599 0.824369
0.563775 0.875242 0.825498
0.645869 0.869780 0.828611
0.716793 0.863310 0.832547
0.760250 0.854582 0.834440
0.787564 0.854276 0.849058
0.816587 0.858915 0.843870
0.434241 0.899657 0.818387
0.464118 0.898375 0.820188
0.555352 0.893675 0.827115
0.654322 0.887449 0.837522
0.727108 0.881468 0.847257
0.774380 0.876158 0.855680
0.792355 0.872068 0.857542
0.809201 0.872618 0.868406
0.555810 0.485908 0.813993
0.580194 0.502464 0.814298
0.657191 0.564111 0.815000
0.743984 0.651026 0.818418
0.802365 0.693202 0.822324
0.826108 0.735195 0.810666
0.844999 0.768338 0.812924
0.864500 0.778927 0.812924
0.564874 0.536522 0.811154
0.586084 0.549126 0.811460
0.656336 0.597223 0.812985
0.738949 0.667811 0.817655
0.796567 0.705531 0.821958
0.822080 0.742184 0.812009
0.842466 0.772183 0.814298
0.862516 0.781827 0.814267
0.575921 0.635798 0.806302
0.592676 0.642573 0.807034
0.650416 0.669490 0.810452
0.725063 0.713558 0.817258
0.780819 0.746426 0.824002
0.809537 0.768429 0.818814
0.833585 0.788602 0.821317
0.855161 0.794705 0.820981
0.540002 0.691341 0.797971
0.560632 0.697383 0.799283
0.628870 0.722133 0.805783
0.704860 0.754543 0.816098
0.766476 0.790158 0.828946
0.794797 0.800137 0.828397
0.822385 0.810269 0.831144
0.845579 0.812406 0.830350
0.515892 0.755703 0.813077
0.532280 0.757198 0.812589
0.588525 0.763027 0.810758
0.660426 0.773098 0.807858
0.743069 0.804807 0.825193
0.781735 0.821195 0.833982
0.813504 0.825620 0.837217
0.838132 0.826627 0.836851
0.515709 0.821805 0.833188
0.531884 0.822202 0.833158
0.584619 0.823026 0.832639
0.653010 0.824521 0.831907
0.715419 0.826627 0.831388
0.769223 0.834989 0.836393
0.806394 0.837339 0.839200
0.832700 0.840085 0.841123
0.508171 0.874601 0.850095
0.523461 0.874052 0.850095
0.574517 0.871885 0.849821
0.644099 0.868803 0.849729
0.710140 0.866270 0.850523
0.761715 0.861051 0.848539
0.791531 0.857389 0.855467
0.823545 0.857023 0.846128
0.400031 0.900938 0.844205
0.424750 0.900053 0.844633
0.508019 0.896452 0.846128
0.609613 0.890867 0.848966
0.699702 0.884733 0.853605
0.764065 0.879301 0.859648
0.795041 0.874540 0.863127
0.811246 0.874083 0.871458
0.613825 0.579675 0.846799
0.627497 0.589929 0.846830
0.672908 0.623438 0.845945
0.734798 0.674372 0.845640
0.790463 0.731228 0.847105
0.824186 0.747646 0.846189
0.836667 0.777035 0.836332
0.845212 0.801907 0.837156
0.616449 0.603906 0.843778
0.629328 0.612696 0.844022
0.671870 0.640284 0.843687
0.731289 0.683864 0.843809
0.786770 0.736294 0.845853
0.820920 0.751034 0.845335
0.834257 0.777951 0.835599
0.844053 0.801328 0.836271
0.626123 0.670954 0.840513
0.635767 0.675166 0.840604
0.671260 0.691646 0.840970
0.725002 0.722133 0.842496
0.777676 0.761105 0.845823
0.812497 0.775021 0.847990
0.826932 0.795254 0.840665
0.838926 0.813657 0.842100
0.623835 0.726345 0.836820
0.632227 0.728817 0.836973
0.664332 0.739834 0.838102
0.715175 0.761685 0.841398
0.766354 0.790005 0.846708
0.800473 0.806546 0.851164
0.817655 0.818021 0.847990
0.832639 0.828458 0.849088
0.571679 0.751858 0.832670
0.580438 0.752895 0.831785
0.618677 0.760189 0.830503
0.688014 0.782010 0.836210
0.747829 0.806058 0.844297
0.790494 0.828580 0.853208
0.809323 0.834409 0.852903
0.827481 0.841306 0.855161
0.556146 0.800748 0.846067
0.566827 0.801602 0.845853
0.604639 0.804746 0.844846
0.658534 0.809781 0.843168
0.712245 0.815702 0.840665
0.775662 0.838102 0.852476
0.803738 0.850217 0.858946
0.823941 0.853086 0.860868
0.540246 0.849058 0.859281
0.552728 0.849363 0.859312
0.593072 0.849882 0.858946
0.651179 0.851011 0.858488
0.708309 0.852384 0.858000
0.756863 0.854246 0.857908
0.796536 0.860075 0.861387
0.821592 0.862119 0.863615
0.425330 0.896727 0.871031
0.447486 0.895964 0.870909
0.524437 0.893095 0.870573
0.614862 0.888701 0.869871
0.693599 0.884398 0.869535
0.753811 0.881285 0.870237
0.794247 0.877989 0.870390
0.813657 0.875822 0.875029
0.648432 0.632044 0.868711
0.656489 0.637568 0.868467
0.685542 0.656275 0.867033
0.731197 0.689815 0.865385
0.779141 0.731716 0.863920
0.815640 0.765133 0.863859
0.836973 0.780514 0.859983
0.844358 0.803159 0.852537
0.649500 0.645899 0.867002
0.657282 0.650782 0.866850
0.685389 0.667750 0.865782
0.729763 0.697932 0.864378
0.777157 0.736904 0.863279
0.813687 0.769162 0.863462
0.835264 0.782864 0.859861
0.843198 0.804227 0.852537
0.653651 0.689204 0.863737
0.660182 0.692348 0.863615
0.685328 0.704219 0.863005
0.726955 0.728420 0.862760
0.771603 0.758450 0.862455
0.807828 0.786740 0.863310
0.829679 0.796567 0.861448
0.838560 0.813779 0.855070
0.652064 0.733974 0.860288
0.658350 0.736385 0.860349
0.681514 0.744961 0.860319
0.720150 0.761807 0.860777
0.763363 0.784543 0.861814
0.800626 0.810300 0.864134
0.822507 0.817105 0.864714
0.832120 0.828733 0.859648
0.617884 0.757443 0.857053
0.626795 0.760189 0.857237
0.658045 0.769986 0.857389
0.703914 0.786191 0.858610
0.749783 0.803799 0.860746
0.790219 0.824613 0.864286
0.815030 0.835233 0.867308
0.826291 0.843290 0.864530
0.565667 0.784726 0.860807
0.573327 0.785458 0.860319
0.603906 0.789334 0.858640
0.652583 0.796872 0.855985
0.718715 0.813260 0.858061
0.775448 0.834989 0.864195
0.809293 0.853178 0.870512
0.822049 0.858549 0.870634
0.511864 0.823850 0.870054
0.523461 0.824460 0.869780
0.566888 0.827024 0.868803
0.631037 0.831876 0.867399
0.693935 0.837644 0.865751
0.746731 0.843961 0.864256
0.799802 0.860838 0.871275
0.818875 0.869169 0.874937
0.416602 0.867308 0.878477
0.438087 0.867369 0.878325
0.511894 0.867796 0.877806
0.605890 0.868864 0.877165
0.685878 0.870329 0.876616
0.746059 0.872068 0.876371
0.789364 0.873991 0.876555
0.816037 0.877043 0.878050
