20 Preset/Ociden Style/【3】LUT video cho PR-AE-FCPX/Ocident style 5/Tone  (8).cube
# Created by Adobe Lightroom plugin Export LUT (1.24.0)
# www.johnrellis.com/lightroom/exportlut.htm
# Preset: Cvatik_Artemis_2
# Color profile: E:\lut插件\exportlut.1.24\exportlut.lrplugin\color profiles\Rec709gamma2.4.icc
LUT_3D_SIZE 32
DOMAIN_MIN 0.0 0.0 0.0
DOMAIN_MAX 1.0 1.0 1.0
0.000000 0.000000 0.000000
0.018433 0.000183 0.000000
0.088441 0.000397 0.001465
0.135286 0.000275 0.006104
0.238956 0.000000 0.011658
0.385657 0.000000 0.011872
0.528496 0.000000 0.000000
0.643702 0.000000 0.000000
0.731533 0.000000 0.000000
0.797421 0.000000 0.000000
0.845609 0.000000 0.000000
0.882811 0.000000 0.000000
0.913390 0.000000 0.000000
0.938781 0.000000 0.000000
0.959503 0.000000 0.000000
0.975830 0.000000 0.073365
0.988617 0.000000 0.117128
0.998535 0.156466 0.151949
1.000000 0.219211 0.183780
1.000000 0.267552 0.215915
1.000000 0.308171 0.246830
1.000000 0.342962 0.276402
1.000000 0.374426 0.305852
1.000000 0.402258 0.333135
1.000000 0.428168 0.360235
1.000000 0.452430 0.386511
1.000000 0.475319 0.411963
1.000000 0.497139 0.436866
1.000000 0.517998 0.461158
1.000000 0.538537 0.485328
1.000000 0.558160 0.508568
1.000000 0.577600 0.531762
0.000000 0.010376 0.005432
0.009796 0.007599 0.007813
0.087984 0.009339 0.005921
0.135286 0.010193 0.010407
0.239597 0.000000 0.015625
0.385077 0.000000 0.013031
0.525963 0.000000 0.000000
0.641352 0.000000 0.000000
0.728542 0.000000 0.000000
0.794705 0.000000 0.000000
0.843565 0.000000 0.000000
0.881102 0.000000 0.000000
0.911925 0.000000 0.000000
0.937285 0.000000 0.000000
0.958282 0.000000 0.000000
0.974701 0.000000 0.076020
0.987671 0.000000 0.118196
0.997742 0.159945 0.151858
1.000000 0.221592 0.184024
1.000000 0.268681 0.215702
1.000000 0.307774 0.245548
1.000000 0.342107 0.275120
1.000000 0.372930 0.303777
1.000000 0.401038 0.331548
1.000000 0.426551 0.358129
1.000000 0.450568 0.383886
1.000000 0.473762 0.409918
1.000000 0.495552 0.434699
1.000000 0.516503 0.459205
1.000000 0.536675 0.482856
1.000000 0.556573 0.506523
1.000000 0.575860 0.529473
0.000000 0.056153 0.033417
0.004852 0.053010 0.037842
0.057862 0.040925 0.054231
0.131380 0.061799 0.033082
0.237797 0.038239 0.032441
0.380804 0.000000 0.021881
0.520134 0.000000 0.000000
0.635462 0.000000 0.000000
0.723690 0.000000 0.000000
0.790616 0.000000 0.000000
0.839963 0.000000 0.000000
0.877867 0.000000 0.000000
0.908873 0.000000 0.000000
0.934600 0.000000 0.000000
0.955688 0.000000 0.012482
0.972473 0.000000 0.087190
0.985504 0.108217 0.124483
0.995911 0.183749 0.156802
1.000000 0.236301 0.188205
1.000000 0.279454 0.219455
1.000000 0.316777 0.249973
1.000000 0.349554 0.278965
1.000000 0.378119 0.306218
1.000000 0.405585 0.334203
1.000000 0.430426 0.360449
1.000000 0.453315 0.385382
1.000000 0.476020 0.411231
1.000000 0.497505 0.435859
1.000000 0.518120 0.460121
1.000000 0.538140 0.483742
1.000000 0.557794 0.507225
1.000000 0.576837 0.530053
0.000000 0.118532 0.082246
0.000000 0.117617 0.081575
0.029969 0.113680 0.081147
0.107607 0.105379 0.101991
0.224094 0.135683 0.070710
0.372198 0.123873 0.023255
0.508476 0.049836 0.000000
0.622980 0.000000 0.000000
0.712886 0.000000 0.000000
0.781765 0.000000 0.000000
0.832914 0.000000 0.000000
0.871824 0.000000 0.000000
0.903532 0.000000 0.000000
0.929686 0.000000 0.000000
0.951293 0.000000 0.039948
0.968048 0.112917 0.102754
0.981384 0.176486 0.136843
0.992065 0.223941 0.167819
1.000000 0.264805 0.198184
1.000000 0.300481 0.227970
1.000000 0.332372 0.256352
1.000000 0.362036 0.284916
1.000000 0.388983 0.312261
1.000000 0.414282 0.339025
1.000000 0.438056 0.365026
1.000000 0.460822 0.390784
1.000000 0.482795 0.416236
1.000000 0.503532 0.440772
1.000000 0.523461 0.464424
1.000000 0.543084 0.487922
1.000000 0.561883 0.510735
1.000000 0.580560 0.533318
0.000000 0.212711 0.112337
0.000000 0.212772 0.112245
0.000000 0.207797 0.109957
0.054749 0.195377 0.117037
0.172091 0.180392 0.150790
0.311864 0.224460 0.121035
0.484291 0.214511 0.000000
0.600671 0.193912 0.000000
0.694209 0.167605 0.000000
0.765835 0.144228 0.000000
0.819486 0.124788 0.000000
0.860380 0.119417 0.000000
0.893370 0.131075 0.000000
0.920775 0.153048 0.032441
0.943023 0.182681 0.096986
0.960937 0.212558 0.127413
0.974975 0.243198 0.157137
0.986297 0.273777 0.185672
0.994995 0.303471 0.214450
1.000000 0.331884 0.242527
1.000000 0.359197 0.271214
1.000000 0.384253 0.297917
1.000000 0.407874 0.324193
1.000000 0.430488 0.349950
1.000000 0.452552 0.375525
1.000000 0.473365 0.400366
1.000000 0.493507 0.424567
1.000000 0.513024 0.448402
1.000000 0.532128 0.471717
1.000000 0.550530 0.494240
1.000000 0.568597 0.516442
1.000000 0.586511 0.538567
0.000000 0.322545 0.145663
0.000000 0.322271 0.145449
0.000000 0.317449 0.141207
0.000000 0.308171 0.142061
0.140261 0.284703 0.161868
0.253025 0.269413 0.210147
0.386999 0.315496 0.190860
0.574060 0.315435 0.000000
0.667536 0.293431 0.000000
0.743618 0.280308 0.000000
0.800961 0.269139 0.000000
0.844511 0.262516 0.008515
0.879301 0.262577 0.068788
0.908019 0.268498 0.107820
0.931487 0.280522 0.136721
0.950408 0.294560 0.161593
0.965332 0.312200 0.188113
0.977569 0.331762 0.213687
0.986908 0.352392 0.240146
0.994232 0.372381 0.265385
0.999542 0.393286 0.291020
1.000000 0.413764 0.316747
1.000000 0.446693 0.356786
1.000000 0.466285 0.382086
1.000000 0.484901 0.405798
1.000000 0.502922 0.428992
1.000000 0.520836 0.451911
1.000000 0.537896 0.473762
1.000000 0.555138 0.495735
1.000000 0.571710 0.516716
0.998779 0.588006 0.537255
0.995453 0.604028 0.557427
0.000000 0.432624 0.190097
0.000000 0.431800 0.188968
0.000000 0.428229 0.185946
0.000000 0.418952 0.185000
0.000000 0.402014 0.182681
0.238621 0.375067 0.223331
0.343328 0.363409 0.282017
0.454871 0.405676 0.283360
0.625605 0.414954 0.151919
0.718105 0.386084 0.006622
0.779110 0.375341 0.070771
0.825742 0.366613 0.108034
0.862760 0.361883 0.134157
0.893126 0.361517 0.157839
0.917967 0.365087 0.180789
0.937713 0.371862 0.204593
0.953887 0.382238 0.228519
0.966674 0.395026 0.253422
0.976623 0.408972 0.278019
0.984344 0.423835 0.302220
0.990326 0.439246 0.325994
0.994720 0.455299 0.350103
0.997772 0.471901 0.374182
0.999908 0.488380 0.397650
1.000000 0.504601 0.420417
1.000000 0.521202 0.443305
1.000000 0.537102 0.465156
1.000000 0.552544 0.486000
0.998810 0.568017 0.506401
0.996857 0.583124 0.526421
0.994385 0.598138 0.545861
0.991302 0.613245 0.565393
0.000000 0.521874 0.242954
0.000000 0.520775 0.241978
0.000000 0.517845 0.239292
0.000000 0.510521 0.238468
0.000000 0.497993 0.248203
0.116304 0.475990 0.251499
0.334295 0.452918 0.294835
0.421149 0.444465 0.357092
0.504753 0.480751 0.379004
0.653193 0.497230 0.263706
0.747158 0.466743 0.147829
0.797757 0.450965 0.159213
0.838315 0.442786 0.181552
0.871336 0.438453 0.203433
0.898283 0.437354 0.224979
0.920043 0.439307 0.246921
0.937682 0.444221 0.269322
0.951568 0.450935 0.291264
0.962554 0.459419 0.313664
0.971313 0.468940 0.335149
0.978088 0.479927 0.357275
0.983307 0.491676 0.378668
0.987182 0.504173 0.400397
0.989899 0.517601 0.422156
0.991760 0.531029 0.443214
0.992889 0.544366 0.463478
0.993378 0.557427 0.482734
0.993286 0.570428 0.501427
0.992401 0.583886 0.520287
0.990814 0.597589 0.539147
0.988647 0.611322 0.557824
0.985962 0.625025 0.576165
0.000000 0.595483 0.303227
0.000000 0.594873 0.302800
0.000000 0.592309 0.301122
0.000000 0.586450 0.300999
0.000000 0.576501 0.306096
0.000000 0.561486 0.304723
0.283146 0.537865 0.326482
0.417121 0.521324 0.371618
0.486671 0.516747 0.431769
0.544335 0.545068 0.469459
0.671717 0.564294 0.370306
0.762051 0.540337 0.262425
0.810269 0.513634 0.228031
0.846342 0.506462 0.249729
0.875944 0.502434 0.271183
0.899870 0.501183 0.292058
0.918975 0.501793 0.312718
0.934264 0.504112 0.332433
0.946502 0.508263 0.352117
0.956359 0.513817 0.371649
0.964080 0.520928 0.390906
0.970092 0.529290 0.410712
0.974853 0.538415 0.429938
0.978332 0.548760 0.449439
0.980865 0.559533 0.468788
0.982696 0.570214 0.486976
0.983825 0.581048 0.504265
0.984131 0.592340 0.521904
0.983856 0.603754 0.538964
0.982971 0.615320 0.555840
0.981415 0.627253 0.572839
0.979400 0.639094 0.589349
0.000000 0.654780 0.364019
0.000000 0.654108 0.363806
0.000000 0.651850 0.363012
0.000000 0.647395 0.364446
0.000000 0.639216 0.367864
0.000000 0.627070 0.378912
0.209934 0.611322 0.372900
0.383856 0.589105 0.399908
0.483986 0.579248 0.445563
0.538598 0.577234 0.500145
0.576349 0.598322 0.546105
0.681392 0.617426 0.465583
0.762600 0.600000 0.375372
0.818479 0.567132 0.296574
0.851225 0.560327 0.315709
0.877379 0.555962 0.335027
0.898222 0.553887 0.354833
0.915160 0.553216 0.373083
0.928710 0.554437 0.391485
0.939666 0.557153 0.409247
0.948455 0.561212 0.426612
0.955413 0.566278 0.443885
0.961089 0.572381 0.460487
0.965515 0.579644 0.477455
0.968933 0.587518 0.493935
0.971618 0.595697 0.509789
0.973236 0.604791 0.526177
0.974273 0.614038 0.541924
0.974517 0.623926 0.557916
0.974090 0.634119 0.573693
0.973205 0.644282 0.589044
0.971618 0.654810 0.604517
0.000000 0.698939 0.418982
0.000000 0.698390 0.418799
0.000000 0.696803 0.419104
0.000000 0.693050 0.420966
0.000000 0.686793 0.425055
0.000000 0.677638 0.434058
0.213230 0.665644 0.442603
0.355627 0.650660 0.444465
0.457191 0.631769 0.466773
0.536858 0.627497 0.512139
0.579950 0.627100 0.559472
0.601740 0.641199 0.609400
0.688319 0.660609 0.545708
0.761563 0.649561 0.472419
0.822171 0.622126 0.389258
0.853208 0.604944 0.375952
0.876036 0.600580 0.394720
0.894530 0.597864 0.412055
0.909545 0.596704 0.428656
0.921752 0.597040 0.444923
0.931731 0.598566 0.460548
0.939757 0.601343 0.475929
0.946380 0.605188 0.490608
0.951720 0.610254 0.505913
0.955962 0.616052 0.520684
0.959228 0.622614 0.535393
0.961639 0.629603 0.549798
0.963256 0.637263 0.564324
0.964141 0.645350 0.578637
0.964416 0.653773 0.592767
0.964080 0.662409 0.606775
0.963195 0.671321 0.620539
0.000000 0.733242 0.467872
0.000000 0.732937 0.467903
0.000000 0.731319 0.469001
0.000000 0.728267 0.471260
0.000000 0.723201 0.475837
0.000000 0.715877 0.483894
0.211673 0.706233 0.497383
0.342260 0.696071 0.493141
0.444587 0.681788 0.507713
0.516472 0.667414 0.528435
0.578790 0.666224 0.570459
0.612696 0.667262 0.610620
0.632136 0.683314 0.661524
0.699275 0.701991 0.618402
0.762142 0.696040 0.561913
0.818387 0.674708 0.492592
0.854704 0.649073 0.443946
0.874388 0.644678 0.460243
0.890349 0.641901 0.475868
0.903441 0.640375 0.490272
0.914183 0.640070 0.504051
0.923033 0.640803 0.517205
0.930358 0.642756 0.530236
0.936400 0.645716 0.543175
0.941253 0.649561 0.555962
0.945190 0.653986 0.568536
0.948241 0.659022 0.580804
0.950591 0.664424 0.592706
0.952270 0.670283 0.604669
0.953246 0.676631 0.616541
0.953613 0.683406 0.628443
0.953277 0.690700 0.640620
0.000000 0.762509 0.514824
0.000000 0.762234 0.515038
0.000000 0.760922 0.516197
0.000000 0.758053 0.518669
0.000000 0.753597 0.523095
0.000000 0.747402 0.530480
0.218235 0.739345 0.541405
0.385534 0.729824 0.556939
0.441382 0.721096 0.550744
0.511711 0.709041 0.565545
0.567407 0.699977 0.587274
0.614771 0.700252 0.622431
0.641566 0.702266 0.654963
0.654322 0.710262 0.689448
0.706233 0.727291 0.661952
0.759731 0.724910 0.618341
0.809232 0.709346 0.564446
0.849302 0.685634 0.509056
0.869963 0.674495 0.504540
0.884428 0.671595 0.518273
0.896391 0.669825 0.531090
0.906371 0.669306 0.543359
0.914733 0.669886 0.555505
0.921691 0.671565 0.567468
0.927520 0.673915 0.578851
0.932311 0.676997 0.590265
0.936187 0.680629 0.601251
0.939269 0.684779 0.612055
0.941650 0.689357 0.622797
0.943236 0.694575 0.633753
0.944152 0.700252 0.644709
0.944366 0.706386 0.655756
0.000000 0.784726 0.553277
0.000000 0.784451 0.553460
0.000000 0.783139 0.554650
0.000000 0.780789 0.557397
0.000000 0.777188 0.561822
0.000000 0.771939 0.568597
0.238895 0.765438 0.578210
0.384649 0.757626 0.590997
0.455909 0.749844 0.594263
0.507225 0.740963 0.597314
0.557671 0.730404 0.609003
0.603082 0.724727 0.629969
0.640497 0.725460 0.658625
0.662745 0.727413 0.685237
0.673457 0.733242 0.713375
0.713527 0.747646 0.695857
0.759304 0.747250 0.660273
0.801785 0.736355 0.619074
0.842313 0.717189 0.568566
0.865476 0.699947 0.543603
0.878599 0.697261 0.556207
0.889769 0.695674 0.567895
0.899138 0.695216 0.579126
0.907103 0.695674 0.590112
0.913817 0.696895 0.600610
0.919463 0.698756 0.610773
0.924132 0.701259 0.620874
0.928008 0.704158 0.630518
0.930938 0.707820 0.640528
0.933135 0.711971 0.650507
0.934661 0.716548 0.660426
0.935302 0.721798 0.670832
0.000000 0.803220 0.587976
0.000000 0.802945 0.588251
0.000000 0.801877 0.589380
0.000000 0.799832 0.591943
0.000000 0.796536 0.596002
0.000000 0.792081 0.601984
0.269749 0.786557 0.610040
0.389136 0.780026 0.620233
0.474159 0.772671 0.631983
0.505394 0.766659 0.625330
0.553704 0.757809 0.633936
0.592462 0.748501 0.643488
0.631220 0.745449 0.663630
0.661585 0.746242 0.687373
0.680385 0.747890 0.710109
0.689540 0.752041 0.733242
0.720394 0.764309 0.723354
0.759854 0.765164 0.693324
0.796963 0.757382 0.660212
0.832212 0.743221 0.621881
0.859220 0.725765 0.588251
0.873533 0.719570 0.589685
0.883970 0.718196 0.600458
0.892912 0.717647 0.610529
0.900511 0.717891 0.620294
0.906920 0.718837 0.629725
0.912322 0.720424 0.638972
0.916747 0.722591 0.648188
0.920348 0.725338 0.657313
0.923033 0.728756 0.666773
0.924926 0.732723 0.676417
0.925902 0.737423 0.686458
0.000000 0.817319 0.617395
0.000000 0.817166 0.617762
0.000000 0.816281 0.618952
0.000000 0.814542 0.621454
0.000000 0.811826 0.625177
0.147311 0.808133 0.630671
0.305791 0.803586 0.637934
0.401099 0.798276 0.646235
0.474678 0.792294 0.655482
0.524437 0.786313 0.660243
0.551812 0.780270 0.657008
0.589410 0.772305 0.664088
0.619837 0.763882 0.671504
0.653681 0.762692 0.690822
0.679103 0.763180 0.711086
0.695094 0.764401 0.730373
0.703029 0.767483 0.749660
0.726772 0.777890 0.745602
0.761013 0.779690 0.720058
0.793729 0.774136 0.692378
0.824887 0.763577 0.662074
0.853239 0.749264 0.630335
0.869352 0.738979 0.619196
0.879179 0.737789 0.628992
0.887602 0.737331 0.638331
0.894743 0.737575 0.647303
0.900755 0.738460 0.656153
0.905791 0.739956 0.664820
0.909880 0.742000 0.673548
0.913024 0.744717 0.682429
0.915312 0.748013 0.691554
0.916655 0.752041 0.701045
0.000000 0.828580 0.642817
0.000000 0.828367 0.643061
0.000000 0.827573 0.644190
0.000000 0.826169 0.646326
0.000000 0.823880 0.649928
0.238834 0.820768 0.654902
0.338476 0.816922 0.660853
0.414893 0.812497 0.667750
0.477943 0.807553 0.675196
0.531090 0.802152 0.683101
0.557763 0.797238 0.680446
0.586786 0.791135 0.682277
0.617060 0.784024 0.688350
0.642817 0.776913 0.695338
0.672511 0.776822 0.713558
0.694087 0.777310 0.731136
0.707820 0.778347 0.747677
0.714839 0.780636 0.763821
0.732998 0.789548 0.764370
0.762814 0.792081 0.742611
0.791806 0.788449 0.719631
0.819730 0.780575 0.694972
0.846494 0.769436 0.668116
0.864927 0.757870 0.649683
0.875151 0.755123 0.654566
0.882963 0.754788 0.663294
0.889616 0.755154 0.671870
0.895079 0.756130 0.680415
0.899596 0.757717 0.688960
0.903166 0.759915 0.697536
0.905791 0.762692 0.706264
0.907500 0.766140 0.715358
0.000000 0.837766 0.665736
0.000000 0.837644 0.666011
0.000000 0.838621 0.671382
0.148013 0.837369 0.673396
0.241794 0.835447 0.676448
0.315282 0.832944 0.680385
0.381415 0.829709 0.685237
0.439490 0.826017 0.690730
0.491432 0.821897 0.696651
0.538415 0.817319 0.703334
0.577508 0.812436 0.709224
0.591699 0.808377 0.703456
0.619409 0.802457 0.708003
0.643641 0.796017 0.712795
0.666285 0.790951 0.720485
0.690883 0.790738 0.735927
0.708949 0.791043 0.750698
0.720638 0.791897 0.764675
0.726436 0.793362 0.777951
0.740230 0.800839 0.781613
0.766049 0.803922 0.763363
0.791501 0.801785 0.744442
0.816129 0.796017 0.724453
0.839963 0.787472 0.702937
0.859861 0.777340 0.683742
0.871489 0.771298 0.679255
0.878660 0.771023 0.687343
0.884703 0.771389 0.695338
0.889616 0.772488 0.703487
0.893553 0.774136 0.711818
0.896483 0.776516 0.720333
0.898528 0.779416 0.729030
0.171054 0.845853 0.686946
0.182071 0.845853 0.687495
0.211032 0.845487 0.688685
0.253239 0.844602 0.690700
0.303929 0.843076 0.693568
0.355077 0.840970 0.696986
0.405341 0.838315 0.701137
0.453468 0.835142 0.705715
0.498390 0.831601 0.710872
0.540612 0.827665 0.716670
0.579431 0.823362 0.723201
0.602380 0.819425 0.723476
0.619379 0.815213 0.721859
0.642390 0.809842 0.725765
0.662470 0.804135 0.729915
0.683467 0.800717 0.738521
0.704494 0.800656 0.752041
0.720027 0.801053 0.764981
0.730434 0.801938 0.777340
0.735836 0.803342 0.788968
0.746242 0.809598 0.794919
0.769039 0.813260 0.779660
0.791592 0.812314 0.763973
0.813565 0.808225 0.747616
0.834775 0.801785 0.730373
0.855375 0.793362 0.711818
0.867765 0.785855 0.702296
0.874723 0.785122 0.708614
0.880095 0.785794 0.716609
0.884428 0.787076 0.724666
0.887755 0.788968 0.732906
0.890135 0.791470 0.741329
0.273381 0.852354 0.703639
0.279271 0.852354 0.704158
0.294072 0.852049 0.705226
0.318669 0.851347 0.706996
0.352300 0.850065 0.709438
0.389990 0.848264 0.712337
0.429786 0.846006 0.715877
0.469825 0.843320 0.719905
0.508873 0.840269 0.724544
0.546563 0.836851 0.729793
0.581964 0.833097 0.735531
0.614527 0.829099 0.741878
0.625208 0.826017 0.737514
0.643610 0.821805 0.739010
0.662928 0.817044 0.742428
0.679713 0.812009 0.746059
0.699153 0.809964 0.755215
0.717159 0.809995 0.767025
0.730648 0.810452 0.778347
0.739803 0.811307 0.789151
0.744839 0.812619 0.799283
0.752468 0.817685 0.806821
0.772488 0.821683 0.793942
0.792508 0.821683 0.780911
0.812009 0.818936 0.767605
0.830930 0.814115 0.753719
0.849119 0.807767 0.739284
0.862913 0.801175 0.728786
0.871061 0.798184 0.728695
0.875792 0.799039 0.736538
0.879545 0.800534 0.744564
0.882261 0.802609 0.752682
0.336095 0.858335 0.718807
0.339025 0.858366 0.719173
0.349248 0.858061 0.720119
0.366979 0.857450 0.721614
0.390753 0.856413 0.723629
0.420081 0.854856 0.726192
0.452369 0.852934 0.729274
0.486519 0.850584 0.732967
0.521111 0.847898 0.737270
0.554559 0.844907 0.742000
0.586816 0.841672 0.747250
0.616846 0.838193 0.752926
0.637751 0.834958 0.755184
0.647181 0.832090 0.751888
0.665034 0.828122 0.754788
0.681209 0.823911 0.757809
0.695430 0.819516 0.761074
0.713588 0.818662 0.770596
0.729122 0.818845 0.781003
0.740932 0.819455 0.791012
0.749142 0.820432 0.800565
0.753964 0.821714 0.809537
0.759335 0.825772 0.818051
0.776913 0.829953 0.807370
0.794522 0.830716 0.796811
0.811795 0.829068 0.786069
0.828428 0.825711 0.775235
0.844388 0.821103 0.764279
0.858640 0.815763 0.754299
0.867308 0.811521 0.750362
0.871427 0.812528 0.757687
0.874357 0.814237 0.765591
0.388159 0.864378 0.734096
0.390234 0.864317 0.734371
0.396765 0.864042 0.734920
0.409400 0.863432 0.736019
0.427863 0.862455 0.737728
0.450752 0.861082 0.739956
0.477211 0.859403 0.742763
0.506096 0.857359 0.746120
0.535912 0.855009 0.750027
0.566064 0.852384 0.754452
0.595056 0.849577 0.759274
0.622675 0.846525 0.764431
0.647883 0.843412 0.769802
0.658442 0.840970 0.768063
0.669642 0.838102 0.767422
0.684657 0.834531 0.769924
0.698268 0.830869 0.772580
0.710445 0.827115 0.775570
0.727016 0.826993 0.784878
0.740352 0.827207 0.793851
0.750515 0.827726 0.802457
0.757748 0.828519 0.810697
0.762051 0.829648 0.818448
0.765530 0.832700 0.827451
0.781003 0.836851 0.818357
0.796597 0.838041 0.809506
0.811948 0.837247 0.800778
0.826719 0.835019 0.792172
0.840818 0.831724 0.783780
0.854063 0.827695 0.775723
0.862669 0.824308 0.772122
0.867552 0.823697 0.775265
0.425452 0.869291 0.746426
0.426642 0.869291 0.746609
0.432074 0.869017 0.747158
0.442512 0.868467 0.748257
0.457404 0.867613 0.749752
0.476387 0.866453 0.751827
0.499123 0.864927 0.754482
0.524163 0.863096 0.757595
0.550256 0.861082 0.761227
0.577203 0.858732 0.765347
0.603418 0.856260 0.769802
0.628534 0.853635 0.774502
0.651881 0.850889 0.779355
0.670253 0.848295 0.782559
0.676143 0.846342 0.779446
0.688594 0.843503 0.780789
0.701442 0.840421 0.783078
0.713069 0.837217 0.785489
0.724727 0.834562 0.789273
0.739040 0.834531 0.797391
0.750546 0.834775 0.805264
0.759487 0.835264 0.812802
0.765866 0.836027 0.820005
0.769802 0.837003 0.826780
0.772457 0.839109 0.834043
0.785061 0.842954 0.827878
0.798978 0.844572 0.820523
0.812680 0.844450 0.813474
0.825772 0.843107 0.806760
0.838163 0.840848 0.800412
0.849668 0.838102 0.794736
0.858640 0.835264 0.790829
0.460639 0.874022 0.758785
0.462043 0.874022 0.758999
0.466377 0.873808 0.759518
0.474647 0.873289 0.760433
0.486641 0.872496 0.761746
0.502556 0.871427 0.763546
0.521263 0.870085 0.765866
0.542565 0.868437 0.768673
0.565637 0.866545 0.771969
0.589258 0.864469 0.775692
0.612757 0.862242 0.779660
0.635523 0.859861 0.783902
0.656733 0.857481 0.788174
0.676478 0.854978 0.792477
0.686488 0.852995 0.792325
0.692958 0.851041 0.790494
0.704707 0.848417 0.792386
0.715724 0.845640 0.794400
0.725826 0.842863 0.796597
0.736995 0.841123 0.800961
0.749477 0.841154 0.808164
0.759609 0.841398 0.815091
0.767422 0.841825 0.821683
0.773007 0.842466 0.827970
0.776577 0.843290 0.833890
0.779232 0.845274 0.840482
0.789395 0.848783 0.836576
0.801724 0.850645 0.830533
0.813840 0.851041 0.824887
0.825406 0.850370 0.819730
0.836210 0.848936 0.814969
0.846006 0.846952 0.810697
0.487770 0.877958 0.768856
0.488991 0.877958 0.769070
0.492805 0.877745 0.769589
0.499763 0.877317 0.770474
0.510338 0.876616 0.771786
0.524102 0.875700 0.773556
0.540826 0.874510 0.775845
0.560204 0.873045 0.778622
0.580743 0.871397 0.781827
0.602136 0.869596 0.785428
0.623438 0.867643 0.789212
0.643946 0.865599 0.793118
0.663447 0.863493 0.797024
0.681636 0.861326 0.800992
0.697932 0.859190 0.804654
0.702235 0.857755 0.802243
0.710048 0.855802 0.802121
0.720119 0.853513 0.803861
0.729641 0.851164 0.805722
0.738430 0.848783 0.807797
0.749111 0.847684 0.812467
0.759854 0.847745 0.818753
0.768612 0.847959 0.824765
0.775448 0.848356 0.830533
0.780392 0.848936 0.835996
0.783627 0.849699 0.841184
0.785946 0.851316 0.846830
0.794034 0.854429 0.844877
0.804929 0.856565 0.840055
0.815549 0.857298 0.835599
0.825498 0.857053 0.831571
0.834714 0.856168 0.828061
0.514580 0.881712 0.778988
0.515587 0.881651 0.779171
0.518669 0.881468 0.779568
0.524651 0.881102 0.780392
0.533806 0.880491 0.781613
0.545830 0.879637 0.783322
0.560571 0.878538 0.785458
0.577478 0.877226 0.788083
0.595819 0.875761 0.791104
0.614832 0.874144 0.794400
0.634058 0.872404 0.797910
0.652674 0.870603 0.801511
0.670497 0.868772 0.805142
0.687343 0.866880 0.808774
0.702968 0.864988 0.812406
0.712642 0.863401 0.813413
0.716518 0.862119 0.811460
0.725216 0.860258 0.812650
0.734066 0.858305 0.814267
0.742367 0.856321 0.816068
0.749996 0.854307 0.817990
0.760037 0.853758 0.822843
0.769284 0.853788 0.828275
0.776883 0.853971 0.833524
0.782864 0.854337 0.838560
0.787228 0.854826 0.843320
0.790127 0.855528 0.847837
0.792172 0.856779 0.852628
0.798367 0.859403 0.851987
0.807858 0.861540 0.848020
0.817075 0.862516 0.844541
0.825711 0.862669 0.841550
0.538537 0.885008 0.788205
0.539452 0.884977 0.788357
0.542016 0.884825 0.788754
0.547448 0.884459 0.789578
0.555566 0.883909 0.790768
0.566339 0.883146 0.792447
0.579919 0.882200 0.794675
0.595453 0.881071 0.797360
0.612238 0.879789 0.800351
0.629603 0.878416 0.803616
0.647181 0.876951 0.807095
0.664332 0.875395 0.810636
0.680842 0.873838 0.814176
0.696376 0.872251 0.817685
0.710903 0.870665 0.821134
0.724300 0.869078 0.824521
0.728695 0.868009 0.823484
0.733425 0.866850 0.822782
0.741299 0.865263 0.824186
0.748867 0.863676 0.825742
0.755978 0.862058 0.827420
0.762509 0.860441 0.829221
0.771725 0.860258 0.833921
0.779507 0.860288 0.838560
0.785916 0.860410 0.843015
0.790951 0.860685 0.847227
0.794583 0.861051 0.851164
0.797024 0.861540 0.854887
0.798672 0.862425 0.858762
0.803159 0.864530 0.859037
0.811276 0.866636 0.856046
0.819028 0.867765 0.853483
0.565972 0.888182 0.798489
0.566552 0.888151 0.798581
0.568872 0.887968 0.798947
0.573266 0.887663 0.799649
0.580407 0.887144 0.800778
0.589685 0.886442 0.802304
0.601160 0.885588 0.804257
0.614405 0.884550 0.806577
0.628870 0.883391 0.809262
0.644099 0.882139 0.812161
0.659541 0.880797 0.815244
0.674922 0.879393 0.818418
0.689906 0.877958 0.821683
0.704067 0.876524 0.824918
