20 Preset/Ociden Style/【3】LUT video cho PR-AE-FCPX/Ocident style 5/Tone  (4).cube
# Created by Adobe Lightroom plugin Export LUT (1.24.0)
# www.johnrellis.com/lightroom/exportlut.htm
# Preset: Cvatik_Artemis_8
# Color profile: E:\lut插件\exportlut.1.24\exportlut.lrplugin\color profiles\Rec709gamma2.4.icc
LUT_3D_SIZE 32
DOMAIN_MIN 0.0 0.0 0.0
DOMAIN_MAX 1.0 1.0 1.0
0.119600 0.091096 0.098848
0.119600 0.091096 0.098848
0.120089 0.091035 0.098848
0.144411 0.086091 0.099031
0.179568 0.078859 0.099306
0.232151 0.067445 0.098848
0.295659 0.052705 0.097169
0.358251 0.050416 0.092805
0.418097 0.066346 0.085512
0.474800 0.094942 0.064057
0.529229 0.119783 0.030549
0.582818 0.142855 0.000000
0.634882 0.164584 0.000000
0.682429 0.184604 0.000000
0.725338 0.203433 0.000000
0.764523 0.221195 0.000000
0.800656 0.237919 0.000000
0.833249 0.254276 0.000000
0.866300 0.272251 0.000000
0.894713 0.289464 0.075166
0.918944 0.306004 0.114687
0.939849 0.321874 0.143038
0.957916 0.336858 0.168093
0.974365 0.351476 0.190524
0.989410 0.365515 0.211521
1.000000 0.379187 0.231235
1.000000 0.392920 0.250736
1.000000 0.406287 0.269047
1.000000 0.419593 0.287449
1.000000 0.433082 0.305760
1.000000 0.446540 0.323919
1.000000 0.460243 0.342473
0.119600 0.091096 0.098848
0.119600 0.091096 0.098848
0.120607 0.090944 0.098848
0.145052 0.086549 0.098970
0.179660 0.081575 0.099458
0.231754 0.073457 0.098970
0.294224 0.061707 0.096895
0.356420 0.059785 0.092561
0.415625 0.078920 0.085084
0.471870 0.099489 0.064912
0.526238 0.122713 0.030793
0.579919 0.144045 0.000000
0.631922 0.165316 0.000000
0.679469 0.186038 0.000000
0.722621 0.204440 0.000000
0.761959 0.221744 0.000000
0.798306 0.238376 0.000000
0.831083 0.254765 0.000000
0.863920 0.272435 0.000000
0.892149 0.289281 0.075380
0.916228 0.305455 0.113527
0.937102 0.320836 0.140841
0.955200 0.335668 0.165896
0.971740 0.350072 0.188144
0.986969 0.363806 0.208652
1.000000 0.377600 0.228580
1.000000 0.391211 0.247868
1.000000 0.404456 0.266178
1.000000 0.417823 0.284489
1.000000 0.431159 0.302678
1.000000 0.444709 0.321202
1.000000 0.458259 0.339391
0.119600 0.091096 0.098848
0.119417 0.091554 0.098817
0.122103 0.092775 0.098970
0.145815 0.092348 0.099062
0.180514 0.091798 0.099275
0.232029 0.091035 0.098390
0.293431 0.090578 0.095918
0.354559 0.093751 0.091127
0.413367 0.102419 0.082368
0.469459 0.118471 0.057252
0.523919 0.136263 0.030884
0.577264 0.155550 0.000641
0.629328 0.174777 0.000000
0.676967 0.193362 0.000000
0.720089 0.211154 0.000000
0.759670 0.227817 0.000000
0.796017 0.244175 0.000000
0.829129 0.259831 0.000000
0.861814 0.276951 0.009918
0.889830 0.293278 0.085573
0.914031 0.309056 0.118654
0.934936 0.324224 0.144930
0.953277 0.338262 0.168093
0.969879 0.352483 0.190738
0.985168 0.366094 0.210513
0.999329 0.379248 0.229557
1.000000 0.392615 0.248753
1.000000 0.405737 0.266880
1.000000 0.418799 0.284855
1.000000 0.432105 0.303044
1.000000 0.445502 0.321447
1.000000 0.458869 0.339666
0.121981 0.103151 0.103059
0.122286 0.103487 0.102998
0.126131 0.106386 0.101045
0.144656 0.108125 0.100954
0.180056 0.110231 0.100038
0.234012 0.110872 0.096925
0.293400 0.115785 0.093263
0.353094 0.123232 0.088289
0.411200 0.132143 0.079622
0.467109 0.143954 0.059846
0.521477 0.158022 0.034852
0.574670 0.174716 0.006622
0.626459 0.192142 0.000000
0.674006 0.209110 0.000000
0.717128 0.225223 0.000000
0.756374 0.240452 0.000000
0.792721 0.255467 0.000000
0.826169 0.270542 0.000000
0.858091 0.286381 0.049592
0.885649 0.301549 0.100404
0.909697 0.316106 0.126467
0.930755 0.330236 0.151583
0.949310 0.343908 0.174044
0.966400 0.357458 0.194797
0.982269 0.370611 0.214420
0.996948 0.383856 0.233860
1.000000 0.397192 0.253117
1.000000 0.410163 0.271275
1.000000 0.422980 0.288853
1.000000 0.436011 0.306889
1.000000 0.448920 0.324681
1.000000 0.462013 0.342596
0.131472 0.119417 0.113985
0.132204 0.120180 0.114473
0.134798 0.124300 0.112245
0.148562 0.130159 0.108980
0.175570 0.133730 0.109377
0.224949 0.143221 0.106233
0.287968 0.149203 0.100191
0.349676 0.154086 0.094148
0.407233 0.163272 0.086397
0.462715 0.174105 0.070771
0.516655 0.186557 0.046113
0.569848 0.200931 0.020752
0.621515 0.216464 0.000000
0.669306 0.231357 0.000000
0.712490 0.245518 0.000000
0.752255 0.259800 0.000000
0.788876 0.273625 0.006561
0.823301 0.287663 0.047486
0.854795 0.301946 0.094697
0.882231 0.315679 0.119875
0.906218 0.329168 0.143893
0.927398 0.342138 0.165499
0.946197 0.354711 0.185550
0.963561 0.367407 0.205173
0.979644 0.380011 0.224399
0.994659 0.392462 0.242374
1.000000 0.404974 0.260777
1.000000 0.417304 0.278019
1.000000 0.429786 0.295689
1.000000 0.442206 0.312963
1.000000 0.454719 0.330205
1.000000 0.467384 0.347753
0.141848 0.143374 0.129427
0.142794 0.144564 0.129976
0.143832 0.150607 0.128969
0.150912 0.159854 0.124208
0.177432 0.169863 0.118807
0.217044 0.177005 0.118196
0.274174 0.191379 0.112764
0.339117 0.199191 0.103914
0.402777 0.201633 0.095186
0.458595 0.210727 0.087617
0.512596 0.222049 0.071473
0.565850 0.234470 0.051942
0.617578 0.248356 0.033295
0.665339 0.261143 0.025971
0.708705 0.273869 0.035370
0.748562 0.285771 0.051759
0.785397 0.298039 0.085634
0.820737 0.311040 0.104738
0.852018 0.323766 0.125307
0.879484 0.335637 0.144656
0.903441 0.347784 0.165347
0.924681 0.359319 0.184573
0.956634 0.382330 0.219516
0.972992 0.394110 0.238285
0.988037 0.405524 0.255772
1.000000 0.416876 0.272557
1.000000 0.428382 0.289799
1.000000 0.439673 0.306065
1.000000 0.451362 0.323003
1.000000 0.462837 0.339055
1.000000 0.474525 0.355444
1.000000 0.486122 0.371710
0.154177 0.183627 0.153689
0.154177 0.184878 0.153658
0.155093 0.191714 0.153628
0.157076 0.204257 0.149874
0.172976 0.216953 0.139803
0.214145 0.229068 0.132326
0.264164 0.238895 0.132082
0.324681 0.254276 0.127321
0.391150 0.261540 0.117037
0.455146 0.264195 0.107881
0.514183 0.268345 0.101472
0.568292 0.279576 0.097261
0.619928 0.290715 0.096529
0.667140 0.301030 0.098421
0.710079 0.310979 0.105104
0.749416 0.320775 0.114870
0.786587 0.331029 0.127321
0.822690 0.342687 0.143465
0.853910 0.353765 0.160739
0.881407 0.364446 0.178561
0.906004 0.375158 0.196353
0.927825 0.386023 0.214817
0.947509 0.397253 0.233402
0.965515 0.408453 0.251072
0.981872 0.419379 0.268467
0.996490 0.430365 0.285649
1.000000 0.440925 0.301701
1.000000 0.451423 0.317174
1.000000 0.462013 0.332799
1.000000 0.472755 0.348455
1.000000 0.483650 0.364080
1.000000 0.494728 0.379889
0.172335 0.230503 0.184543
0.172580 0.231724 0.184634
0.172976 0.237675 0.184909
0.174075 0.248966 0.184360
0.178073 0.263890 0.177096
0.201175 0.278264 0.162844
0.251072 0.289372 0.155337
0.305669 0.299596 0.156283
0.365454 0.314336 0.155428
0.431525 0.321355 0.146273
0.495949 0.324132 0.139254
0.557946 0.324529 0.134157
0.611231 0.331975 0.133700
0.658778 0.340246 0.137301
0.701869 0.347997 0.144045
0.741512 0.355322 0.152316
0.780575 0.364508 0.163638
0.815763 0.373541 0.176303
0.846708 0.382300 0.191012
0.874296 0.390723 0.205386
0.898802 0.399512 0.221256
0.920897 0.408606 0.237369
0.940917 0.418036 0.253574
0.959197 0.427802 0.270512
0.975891 0.437629 0.286656
0.990967 0.447211 0.302037
1.000000 0.456641 0.316838
1.000000 0.465980 0.331456
1.000000 0.475990 0.346685
1.000000 0.486000 0.361761
1.000000 0.496101 0.376654
1.000000 0.506340 0.391577
0.198215 0.283696 0.222538
0.198306 0.284886 0.222782
0.197848 0.289403 0.223117
0.199069 0.298589 0.223667
0.200504 0.312474 0.221530
0.206668 0.326513 0.210208
0.234928 0.339849 0.192660
0.289372 0.349432 0.188479
0.345556 0.359014 0.190188
0.404639 0.372198 0.192142
0.471168 0.379309 0.185092
0.535546 0.382666 0.179751
0.596765 0.382147 0.175540
0.649592 0.382055 0.175906
0.693233 0.387671 0.182132
0.734829 0.394049 0.190097
0.773709 0.401038 0.200015
0.808530 0.407507 0.211398
0.839414 0.413916 0.222812
0.867033 0.420386 0.235630
0.891661 0.427283 0.249027
0.913909 0.434485 0.263127
0.934203 0.442176 0.277745
0.952789 0.450446 0.292821
0.969726 0.458900 0.307744
0.985138 0.467079 0.321843
0.999115 0.475410 0.335668
1.000000 0.483986 0.349737
1.000000 0.492805 0.363897
1.000000 0.501884 0.377935
1.000000 0.511254 0.392493
1.000000 0.520836 0.406775
0.227298 0.338689 0.264317
0.227207 0.339635 0.264317
0.227054 0.342962 0.264622
0.227787 0.350134 0.265721
0.228580 0.360632 0.264988
0.230747 0.374182 0.260197
0.240146 0.385657 0.245609
0.272618 0.397162 0.226566
0.329351 0.405402 0.225834
0.385595 0.414282 0.228244
0.442847 0.426184 0.232609
0.509209 0.433600 0.226841
0.572351 0.436316 0.222293
0.629664 0.434241 0.219944
0.682551 0.430884 0.221256
0.726436 0.433783 0.227329
0.765438 0.438666 0.236332
0.800626 0.443030 0.245487
0.831724 0.447700 0.256382
0.859525 0.452186 0.267124
0.884184 0.457221 0.278843
0.906310 0.462348 0.291081
0.926482 0.468086 0.303197
0.945068 0.474434 0.316533
0.962127 0.481025 0.329320
0.977783 0.487709 0.341955
0.992065 0.495125 0.355230
1.000000 0.502556 0.368139
1.000000 0.510674 0.381750
1.000000 0.519097 0.395636
1.000000 0.527764 0.409400
1.000000 0.536858 0.423774
0.258732 0.390661 0.307012
0.258762 0.391302 0.307134
0.258640 0.394018 0.307530
0.259129 0.399573 0.308568
0.259800 0.408209 0.308904
0.261387 0.419226 0.307469
0.263676 0.431678 0.299016
0.277653 0.441718 0.282628
0.312596 0.451514 0.262455
0.371099 0.458961 0.265293
0.427039 0.467262 0.268315
0.483314 0.478279 0.273350
0.547204 0.484718 0.269169
0.607721 0.486427 0.267521
0.662593 0.484260 0.267765
0.712306 0.479896 0.268467
0.755978 0.476478 0.272465
0.791287 0.479194 0.280400
0.822507 0.481880 0.289525
0.850492 0.484688 0.298863
0.875395 0.487800 0.309239
0.897765 0.491371 0.319768
0.918334 0.495674 0.330877
0.937316 0.500481 0.342565
0.954650 0.505943 0.354650
0.970550 0.511681 0.366491
0.985199 0.517815 0.378546
0.998688 0.524346 0.390784
1.000000 0.531395 0.403449
1.000000 0.538994 0.416663
1.000000 0.546929 0.429847
1.000000 0.555108 0.443183
0.291295 0.442206 0.351995
0.291264 0.442664 0.352148
0.291691 0.444984 0.352789
0.291600 0.449439 0.353582
0.291966 0.456367 0.354253
0.293004 0.465492 0.353948
0.295079 0.476600 0.350408
0.298741 0.487068 0.338476
0.317144 0.495674 0.320043
0.356725 0.503777 0.302770
0.414343 0.510704 0.305638
0.469886 0.518822 0.309606
0.536431 0.540337 0.326818
0.596704 0.545800 0.328527
0.653285 0.545312 0.327916
0.704585 0.541772 0.328832
0.750759 0.536187 0.329992
0.791562 0.529168 0.331945
0.823819 0.527428 0.338109
0.851011 0.528344 0.346685
0.875242 0.529625 0.355352
0.896941 0.531426 0.364782
0.916838 0.534081 0.374640
0.935180 0.537224 0.384497
0.951934 0.541009 0.394812
0.967315 0.545129 0.405097
0.981323 0.549798 0.415808
0.994293 0.554803 0.426307
1.000000 0.560266 0.437140
1.000000 0.566155 0.448219
1.000000 0.572473 0.459602
1.000000 0.579339 0.471382
0.329107 0.498268 0.404242
0.329198 0.498573 0.404334
0.329015 0.500175 0.404517
0.328954 0.503624 0.405035
0.329046 0.508721 0.405402
0.329564 0.515831 0.405066
0.330785 0.524315 0.402838
0.333471 0.534020 0.396185
0.339025 0.541650 0.380377
0.361120 0.548760 0.361181
0.405493 0.556939 0.348791
0.463020 0.564996 0.355047
0.518486 0.573358 0.361822
0.571923 0.581842 0.370001
0.626490 0.585779 0.373480
0.679103 0.584344 0.373175
0.726589 0.580011 0.373144
0.768460 0.573632 0.374151
0.805661 0.566186 0.375280
0.837888 0.559350 0.377722
0.862516 0.559228 0.385351
0.884794 0.559960 0.393622
0.905364 0.561364 0.402258
0.924224 0.563531 0.411383
0.941588 0.566217 0.420722
0.957519 0.569543 0.430365
0.972137 0.573266 0.440101
0.985595 0.577417 0.449928
0.998077 0.581933 0.459907
1.000000 0.587030 0.470222
1.000000 0.592523 0.480812
1.000000 0.598566 0.491920
0.364569 0.542992 0.449592
0.364508 0.543175 0.449470
0.363989 0.544396 0.449348
0.364446 0.546868 0.449897
0.364904 0.550744 0.450172
0.365545 0.556146 0.449958
0.367315 0.562951 0.449042
0.370794 0.571496 0.446448
0.374365 0.580072 0.437842
0.382544 0.586969 0.421180
0.405829 0.593500 0.402258
0.450446 0.599573 0.393866
0.503838 0.605982 0.399939
0.555047 0.612512 0.406348
0.604150 0.618891 0.413367
0.653346 0.621576 0.417670
0.701564 0.619287 0.416846
0.744503 0.614099 0.416358
0.782834 0.607477 0.416846
0.817105 0.599878 0.417334
0.847562 0.592279 0.418921
0.872679 0.589105 0.424018
0.893828 0.589502 0.431769
0.913268 0.590814 0.440131
0.931212 0.592523 0.448402
0.947692 0.594781 0.456947
0.962829 0.597589 0.465858
0.976837 0.600610 0.474372
0.989654 0.604425 0.483833
1.000000 0.608728 0.493446
1.000000 0.613336 0.503075
1.000000 0.618616 0.513359
0.405798 0.584558 0.495857
0.406012 0.584771 0.496010
0.406104 0.585687 0.496071
0.406195 0.587579 0.496345
0.407050 0.590723 0.496864
0.407843 0.595056 0.496986
0.409583 0.600488 0.496864
0.411444 0.606928 0.494789
0.414679 0.614130 0.490211
0.416724 0.620478 0.478279
0.426398 0.625971 0.461402
0.448829 0.631189 0.441657
0.492714 0.636164 0.438056
0.541070 0.641413 0.443671
0.587976 0.646571 0.449287
0.633021 0.651423 0.454749
0.676905 0.653285 0.459602
0.720638 0.650172 0.458259
0.759823 0.644770 0.457527
0.795041 0.638087 0.457496
0.826749 0.630976 0.457984
0.855650 0.624048 0.459297
0.882109 0.617456 0.461402
0.902159 0.617670 0.468482
0.920653 0.618433 0.475837
0.937652 0.619837 0.483589
0.953368 0.621698 0.491249
0.967773 0.624201 0.499641
0.981140 0.627283 0.508232
0.993317 0.631037 0.517479
1.000000 0.635279 0.527031
1.000000 0.640162 0.537194
0.445258 0.621149 0.538598
0.445258 0.621424 0.538689
0.445350 0.622217 0.538750
0.445686 0.623896 0.539147
0.446082 0.626429 0.539513
0.446937 0.630030 0.539879
0.448463 0.634638 0.540185
0.450141 0.640101 0.539239
0.452522 0.646174 0.536553
0.455421 0.652430 0.530449
0.456916 0.657008 0.516228
0.467475 0.661128 0.498848
0.488716 0.664576 0.478553
0.530846 0.668208 0.478889
0.574395 0.671992 0.482887
0.616754 0.675563 0.487007
0.658137 0.679225 0.491279
0.697017 0.680140 0.496345
0.736843 0.676753 0.494942
0.772854 0.671473 0.494362
0.805783 0.665461 0.494514
0.835935 0.659174 0.495338
0.863432 0.653101 0.496834
0.888701 0.647242 0.498970
0.910216 0.644099 0.503227
0.927794 0.644800 0.510246
0.943938 0.646113 0.517479
0.958801 0.647944 0.525170
0.972473 0.650263 0.533013
0.984924 0.653193 0.541436
0.996277 0.656672 0.550195
1.000000 0.660792 0.559686
0.479255 0.652918 0.575830
0.479164 0.653101 0.575799
0.479286 0.653773 0.575952
0.479530 0.655085 0.576196
0.480079 0.657221 0.576623
0.480873 0.660212 0.577020
0.481880 0.663966 0.577203
0.483497 0.668513 0.576837
0.485267 0.673610 0.575189
0.487312 0.678828 0.571099
0.488197 0.683589 0.561944
0.491127 0.687098 0.547204
0.502525 0.690120 0.529808
0.523674 0.692378 0.510857
0.564111 0.695308 0.514183
0.603876 0.698177 0.517632
0.642603 0.701015 0.521111
0.680568 0.703944 0.524895
0.715419 0.704494 0.530297
0.751888 0.701015 0.529015
0.785580 0.696254 0.528618
0.816556 0.690913 0.529015
0.844968 0.685451 0.530297
0.871092 0.680049 0.531945
0.895048 0.674861 0.534112
0.916960 0.670130 0.536919
0.934356 0.669795 0.542992
0.949584 0.671077 0.550134
0.963561 0.672908 0.557641
0.976287 0.675288 0.565606
0.987854 0.678218 0.573877
0.998108 0.681819 0.582788
0.511223 0.681666 0.609979
0.511437 0.681941 0.610193
0.520500 0.689967 0.619562
0.520867 0.691096 0.619837
0.521294 0.692836 0.620111
0.521904 0.695186 0.620417
0.522728 0.698177 0.620478
0.523766 0.701747 0.620111
0.525261 0.705806 0.618982
0.526970 0.710140 0.616297
0.528740 0.714412 0.611170
0.528069 0.717556 0.599603
0.531609 0.719814 0.584436
0.542351 0.721462 0.566888
0.564294 0.722621 0.552239
0.600244 0.724483 0.554681
0.635737 0.726253 0.556909
0.670588 0.728054 0.559289
0.704860 0.730007 0.562188
0.735622 0.729915 0.567193
0.768978 0.726497 0.565850
0.800076 0.722072 0.565545
0.828733 0.717220 0.565820
0.855131 0.712123 0.566827
0.879423 0.706966 0.568109
0.901640 0.702083 0.569909
0.922148 0.697475 0.572045
0.940520 0.694057 0.575189
0.954559 0.695247 0.582147
0.967437 0.697017 0.589380
0.979156 0.699428 0.597223
0.989563 0.702449 0.605615
0.542962 0.708736 0.642695
0.543755 0.709468 0.643519
0.544701 0.710567 0.644465
0.545800 0.712093 0.645441
0.546807 0.714046 0.646326
0.547662 0.716213 0.646845
0.548486 0.718776 0.647028
0.549432 0.721736 0.646815
0.550622 0.725185 0.646052
0.551965 0.728908 0.644221
0.553582 0.732662 0.640803
0.554559 0.736110 0.634089
0.553643 0.738155 0.621149
0.558160 0.739803 0.606378
0.569085 0.740932 0.589258
0.592676 0.742000 0.579431
0.625635 0.743557 0.581628
0.658289 0.745266 0.584009
0.690639 0.747066 0.586725
0.722560 0.748989 0.589715
0.750607 0.749233 0.595392
0.781918 0.746548 0.594842
0.811093 0.742794 0.594965
0.837980 0.738613 0.595605
0.862821 0.734066 0.596674
0.885679 0.729519 0.598108
0.906645 0.725185 0.600031
0.925963 0.721309 0.602625
0.943694 0.717983 0.605829
0.958373 0.717250 0.611231
0.970245 0.719295 0.618830
0.980835 0.721889 0.626856
0.567712 0.729549 0.667720
0.568505 0.730282 0.668513
0.569390 0.731319 0.669398
0.570581 0.732692 0.670436
0.571588 0.734401 0.671260
0.572473 0.736294 0.671809
0.573205 0.738521 0.671992
0.574334 0.741085 0.672084
0.575433 0.744015 0.671626
0.576776 0.747219 0.670436
0.578241 0.750546 0.668116
0.579736 0.753811 0.663966
0.579034 0.756161 0.655085
0.579217 0.757778 0.642390
0.584527 0.758999 0.628046
0.595514 0.759762 0.611688
0.620417 0.760769 0.606500
0.650538 0.762234 0.608606
0.680507 0.763790 0.611048
0.710384 0.765469 0.613642
0.739773 0.767239 0.616571
0.765927 0.767514 0.621759
0.794491 0.765469 0.622370
0.821653 0.762325 0.622919
0.846830 0.758602 0.623774
0.870115 0.754635 0.625055
0.891539 0.750698 0.626703
0.911284 0.747005 0.628992
0.929412 0.743832 0.632074
0.945953 0.741207 0.635828
0.960876 0.739284 0.640436
0.972107 0.740841 0.647639
0.591150 0.749020 0.690974
0.591852 0.749569 0.691615
0.592676 0.750454 0.692378
0.593683 0.751644 0.693202
0.594598 0.753079 0.693904
0.595483 0.754696 0.694453
0.596338 0.756680 0.694789
0.597345 0.758938 0.694911
0.598596 0.761532 0.694850
0.599908 0.764370 0.694087
0.601526 0.767361 0.692653
0.603113 0.770382 0.689967
0.604608 0.773098 0.685145
0.602686 0.774624 0.674708
0.604089 0.775967 0.662684
0.610071 0.776944 0.648981
0.621241 0.777615 0.633600
0.647211 0.778958 0.633204
0.675135 0.780606 0.635828
0.703059 0.782376 0.638666
0.730800 0.784298 0.641871
0.758236 0.786313 0.645441
0.782528 0.786770 0.650446
0.808438 0.785458 0.652491
0.833707 0.783047 0.653681
0.857084 0.780056 0.655116
0.878630 0.776852 0.656977
0.898497 0.773739 0.659419
0.916686 0.770962 0.662501
0.933227 0.768612 0.666316
0.948089 0.766873 0.670771
0.961334 0.765652 0.675959
0.617182 0.769955 0.715999
0.617517 0.770230 0.716304
0.617945 0.770657 0.716609
0.618311 0.771359 0.716884
0.618952 0.772335 0.717220
0.619532 0.773587 0.717525
0.620325 0.775174 0.717800
0.621271 0.777127 0.717952
0.622553 0.779416 0.718044
0.624140 0.782010 0.717830
0.625910 0.784756 0.717098
0.627619 0.787503 0.715389
0.629419 0.790158 0.712367
0.629175 0.792081 0.705928
0.628077 0.793301 0.695705
0.630274 0.794339 0.684077
0.636591 0.795102 0.671168
0.648615 0.795682 0.658289
0.673823 0.796963 0.660334
0.699123 0.798337 0.662593
0.724392 0.799771 0.665095
0.749538 0.801328 0.667842
0.774441 0.802945 0.670619
0.796658 0.803128 0.674800
0.819852 0.802029 0.677241
0.843290 0.799954 0.678553
0.865019 0.797482 0.680385
0.885100 0.794919 0.682734
0.903502 0.792538 0.685664
0.920348 0.790372 0.689235
0.935454 0.788632 0.693446
0.948882 0.787350 0.698299
0.637354 0.786282 0.735134
0.637629 0.786465 0.735348
0.637964 0.786893 0.735592
0.638422 0.787533 0.735927
0.639033 0.788388 0.736263
0.639673 0.789548 0.736568
0.640589 0.790982 0.736904
0.641688 0.792752 0.737270
0.643122 0.794827 0.737545
0.644739 0.797208 0.737636
0.646601 0.799680 0.737331
0.648615 0.802274 0.736446
0.650629 0.804776 0.734615
0.652827 0.807126 0.731563
0.650904 0.808347 0.723384
0.650935 0.809506 0.713832
0.654108 0.810452 0.703120
0.660822 0.811246 0.691127
0.675166 0.812039 0.683070
0.698207 0.813260 0.685084
0.721340 0.814572 0.687404
0.744503 0.815946 0.689876
0.767483 0.817380 0.692470
0.790280 0.818875 0.695125
0.809537 0.817777 0.696468
0.830381 0.816831 0.699367
0.852171 0.815244 0.701045
0.872374 0.813291 0.703273
0.891020 0.811307 0.706020
0.908080 0.809415 0.709438
0.923461 0.807889 0.713619
0.937133 0.806760 0.718349
0.658442 0.802976 0.754574
0.658778 0.803281 0.754879
0.659144 0.803616 0.755123
0.659480 0.804074 0.755306
0.659815 0.804685 0.755428
0.660304 0.805539 0.755550
0.660975 0.806577 0.755673
0.661860 0.807950 0.755825
0.662959 0.809598 0.755947
0.664485 0.811521 0.756008
0.666072 0.813596 0.755795
0.667994 0.815854 0.755184
0.670069 0.818051 0.753994
0.672145 0.820188 0.751858
0.671901 0.821592 0.746670
0.670130 0.822538 0.738277
0.670832 0.823423 0.728969
0.674495 0.824247 0.718654
0.681636 0.824979 0.707485
0.698054 0.825956 0.703761
0.719326 0.827207 0.705928
0.740627 0.828458 0.708186
0.761868 0.829709 0.710475
0.782895 0.830900 0.712703
0.803708 0.832059 0.714870
0.822446 0.832059 0.717830
0.840970 0.831144 0.720882
0.861021 0.829801 0.722683
0.879637 0.828214 0.725093
0.896788 0.826627 0.728237
0.912291 0.825223 0.732082
0.926085 0.824063 0.736507
0.674739 0.816129 0.769467
0.675074 0.816403 0.769741
0.675410 0.816739 0.769986
0.675898 0.817197 0.770291
0.676448 0.817868 0.770535
0.677241 0.818753 0.770901
0.678218 0.819883 0.771328
0.679500 0.821347 0.771847
0.681147 0.823026 0.772366
0.683009 0.824918 0.772854
0.685084 0.826993 0.773190
0.687495 0.829191 0.773281
0.689845 0.831327 0.772763
0.692103 0.833402 0.771542
0.693965 0.835203 0.769100
0.691768 0.836118 0.762234
0.690974 0.837034 0.754391
0.692470 0.837919 0.745724
0.696803 0.838773 0.736324
0.704128 0.839597 0.726040
0.721920 0.840604 0.726101
0.741268 0.841703 0.728145
0.760647 0.842863 0.730251
0.779995 0.843961 0.732357
0.799191 0.845029 0.734493
0.818235 0.846098 0.736660
0.835538 0.846189 0.739467
0.851804 0.845365 0.742885
0.870176 0.844450 0.745205
0.887144 0.843290 0.748196
0.902464 0.842100 0.751797
0.916106 0.840879 0.755642
0.691859 0.829496 0.784634
0.692042 0.829679 0.784787
0.692317 0.829862 0.784939
0.692714 0.830289 0.785183
0.693294 0.830838 0.785489
0.694118 0.831632 0.785824
0.695125 0.832670 0.786252
0.696529 0.833951 0.786831
0.698207 0.835477 0.787442
0.700221 0.837217 0.788113
0.702510 0.839109 0.788632
0.705043 0.841123 0.789029
0.707607 0.843168 0.789090
0.710018 0.845151 0.788510
0.712245 0.846983 0.787076
0.711818 0.848234 0.782773
0.710231 0.849149 0.776211
0.710262 0.850065 0.768826
0.712581 0.851011 0.760861
0.717372 0.851987 0.752255
0.726192 0.852934 0.744503
0.743679 0.853849 0.746365
0.761257 0.854795 0.748196
0.778897 0.855741 0.750118
0.796475 0.856687 0.752041
0.813931 0.857572 0.753902
0.831327 0.858518 0.755917
0.847135 0.858579 0.758419
0.861418 0.857694 0.762020
0.878141 0.857053 0.764858
0.893248 0.856077 0.768002
0.906859 0.855070 0.771725
0.707271 0.841398 0.798032
0.707393 0.841550 0.798154
0.707698 0.841764 0.798337
0.708217 0.842161 0.798611
0.708949 0.842771 0.799039
0.710048 0.843626 0.799588
0.711696 0.844785 0.800443
0.713680 0.846250 0.801480
0.716060 0.847959 0.802640
0.718959 0.849912 0.803952
0.722072 0.852018 0.805264
0.725277 0.854154 0.806363
0.728481 0.856352 0.807156
0.731502 0.858427 0.807492
0.734310 0.860380 0.807126
0.736172 0.861997 0.805478
0.734249 0.862974 0.800107
0.733608 0.863951 0.794217
0.734585 0.864988 0.787808
0.737514 0.866056 0.780850
0.742580 0.867094 0.773281
0.753109 0.868009 0.769284
0.768612 0.868772 0.770932
0.784176 0.869535 0.772641
0.799771 0.870268 0.774289
0.815305 0.871000 0.775967
0.830808 0.871763 0.777737
0.846220 0.872526 0.779599
0.860227 0.872496 0.781796
0.872007 0.871336 0.785092
0.886442 0.870665 0.787930
0.899413 0.869841 0.791379
0.726162 0.854704 0.813596
0.726192 0.854765 0.813626
0.726436 0.854917 0.813748
0.726802 0.855192 0.813931
0.727535 0.855680 0.814237
0.728481 0.856352 0.814725
0.729885 0.857267 0.815396
0.731594 0.858396 0.816159
0.733791 0.859739 0.817136
0.736233 0.861265 0.818173
0.738949 0.862943 0.819211
0.741756 0.864744 0.820157
0.744778 0.866575 0.820951
0.747677 0.868406 0.821439
