20 Preset/Ociden Style/【3】LUT video cho PR-AE-FCPX/Ocident style 5/Tone  (10).cube
# Created by Adobe Lightroom plugin Export LUT (1.24.0)
# www.johnrellis.com/lightroom/exportlut.htm
# Preset: Cvatik_Artemis_4
# Color profile: E:\lut插件\exportlut.1.24\exportlut.lrplugin\color profiles\Rec709gamma2.4.icc
LUT_3D_SIZE 8
DOMAIN_MIN 0.000000 0.000000 0.000000
DOMAIN_MAX 0.903226 0.903226 0.903226
0.000000 0.000000 0.000000
0.094392 0.011902 0.004120
0.278752 0.000000 0.008209
0.468696 0.000000 0.004181
0.644434 0.000000 0.002991
0.799741 0.000000 0.023804
0.909514 0.258091 0.101289
0.970336 0.362371 0.157504
0.015076 0.099428 0.022034
0.096834 0.097139 0.044648
0.283909 0.082033 0.007752
0.455909 0.000000 0.000000
0.623743 0.000000 0.007355
0.779995 0.075532 0.037568
0.886564 0.256443 0.099672
0.955901 0.358190 0.142153
0.019013 0.301061 0.139559
0.166995 0.305394 0.150332
0.286198 0.277562 0.199985
0.467140 0.296300 0.152438
0.652949 0.257786 0.115724
0.800595 0.319921 0.136782
0.898589 0.398230 0.172274
0.961517 0.451606 0.204349
0.209384 0.509941 0.286046
0.255619 0.510124 0.287022
0.402441 0.526543 0.319524
0.496559 0.492897 0.389532
0.627314 0.535027 0.364782
0.807156 0.539117 0.276432
0.890471 0.531884 0.269749
0.948211 0.547478 0.291478
0.387274 0.692226 0.475441
0.416083 0.692073 0.480385
0.507897 0.700587 0.508873
0.615869 0.710903 0.565881
0.630640 0.650019 0.572412
0.670588 0.645533 0.542290
0.818265 0.666621 0.469398
0.918639 0.650385 0.418341
0.542473 0.789487 0.640436
0.563104 0.795285 0.654688
0.601648 0.798825 0.668544
0.662928 0.806912 0.699580
0.708492 0.795621 0.716884
0.709895 0.752132 0.711635
0.716670 0.739101 0.701137
0.832425 0.769558 0.663020
0.647089 0.857847 0.761013
0.654810 0.858885 0.765042
0.672694 0.860044 0.770382
0.708217 0.863615 0.785428
0.750546 0.868254 0.804440
0.770199 0.850401 0.804837
0.766140 0.820493 0.799619
0.753872 0.800381 0.796384
0.741146 0.906523 0.846342
0.744594 0.906523 0.847562
0.754818 0.907683 0.850797
0.777523 0.910002 0.859770
0.792599 0.906950 0.859739
0.822721 0.909026 0.872618
0.831540 0.896696 0.871611
0.827085 0.878813 0.868742
0.000000 0.012024 0.066194
0.098543 0.026307 0.070741
0.253391 0.046571 0.084901
0.437415 0.000000 0.100862
0.608850 0.000000 0.113558
0.765225 0.108370 0.128145
0.872343 0.242252 0.146242
0.944213 0.338170 0.166018
0.000000 0.110140 0.099763
0.108980 0.117159 0.102663
0.276738 0.126680 0.107027
0.443458 0.117250 0.113588
0.608301 0.109194 0.124361
0.760830 0.165682 0.136568
0.861601 0.257786 0.149874
0.934051 0.342351 0.166323
0.047700 0.293065 0.179049
0.168460 0.297429 0.185061
0.298772 0.289097 0.220035
0.474464 0.294285 0.180392
0.632380 0.274937 0.167178
0.770352 0.312596 0.176791
0.865354 0.367864 0.190860
0.937072 0.426368 0.212131
0.196689 0.481331 0.291325
0.245975 0.482979 0.295048
0.384710 0.503075 0.323430
0.471839 0.465827 0.370733
0.595026 0.494423 0.335393
0.771695 0.490974 0.261479
0.859098 0.495155 0.258824
0.925383 0.520653 0.278630
0.362890 0.679835 0.472633
0.391180 0.678309 0.474281
0.484596 0.682612 0.494850
0.597681 0.693812 0.545983
0.612268 0.627375 0.546715
0.658106 0.626520 0.517540
0.809049 0.648402 0.448188
0.908263 0.633021 0.401251
0.520531 0.777493 0.624933
0.534142 0.778164 0.629419
0.578424 0.781827 0.644556
0.646906 0.792233 0.679896
0.699214 0.785916 0.704250
0.704158 0.744808 0.703304
0.712703 0.732509 0.691432
0.828153 0.760861 0.650538
0.630365 0.849271 0.747005
0.634455 0.848264 0.747005
0.654353 0.848905 0.752651
0.693599 0.853819 0.770504
0.740932 0.861204 0.794797
0.763333 0.844327 0.796872
0.757931 0.811460 0.788876
0.745266 0.789609 0.782773
0.727932 0.902068 0.837644
0.733516 0.902800 0.840452
0.744930 0.903746 0.844083
0.768948 0.906340 0.853727
0.798306 0.909422 0.865537
0.824857 0.910246 0.875273
0.830808 0.896208 0.871275
0.825956 0.877867 0.867918
0.000000 0.056764 0.241367
0.000000 0.070527 0.243931
0.273686 0.103975 0.247227
0.466804 0.175265 0.249668
0.602167 0.243015 0.267765
0.773617 0.265660 0.276127
0.872496 0.337560 0.289677
0.941955 0.401984 0.298405
0.000000 0.148714 0.264500
0.013977 0.145602 0.264683
0.289281 0.178103 0.261204
0.460304 0.223453 0.261936
0.602625 0.256748 0.269078
0.764950 0.286809 0.279789
0.862943 0.343847 0.286778
0.934325 0.404700 0.294896
0.000000 0.315679 0.315343
0.143526 0.319860 0.315404
0.320134 0.329442 0.314214
0.471687 0.348028 0.312566
0.646601 0.352789 0.309545
0.774472 0.380499 0.311406
0.862119 0.420203 0.316564
0.930175 0.462928 0.325078
0.162692 0.486397 0.379797
0.216709 0.491463 0.383795
0.363806 0.513268 0.399725
0.519249 0.519707 0.445136
0.660792 0.530755 0.403265
0.779690 0.516564 0.373541
0.856718 0.531762 0.378973
0.920653 0.551354 0.387518
0.327153 0.674342 0.522850
0.360204 0.674891 0.524956
0.466590 0.679286 0.539666
0.595544 0.696620 0.586999
0.635340 0.657343 0.598596
0.688014 0.655085 0.560082
0.822965 0.657343 0.498848
0.904082 0.643946 0.475013
0.501274 0.772671 0.643946
0.516136 0.773861 0.648035
0.565515 0.775784 0.660517
0.635920 0.783444 0.687709
0.700496 0.790524 0.721706
0.707912 0.750454 0.717250
0.724239 0.743221 0.702968
0.835813 0.766079 0.669917
0.623957 0.849577 0.757565
0.628809 0.848814 0.757778
0.651331 0.847868 0.763058
0.689937 0.851011 0.777066
0.738003 0.858366 0.799710
0.767910 0.849119 0.808286
0.764920 0.819364 0.801907
0.758968 0.803586 0.795956
0.720760 0.901671 0.838743
0.723568 0.901305 0.839231
0.739406 0.901549 0.844755
0.766567 0.905119 0.855894
0.796811 0.908415 0.867613
0.828916 0.912688 0.881437
0.835264 0.899474 0.877562
0.830320 0.881498 0.873533
0.000000 0.111177 0.428656
0.000000 0.122560 0.434668
0.209018 0.161044 0.432898
0.462959 0.213779 0.429145
0.653529 0.276371 0.446418
0.762417 0.352209 0.448157
0.828794 0.419226 0.448402
0.911406 0.449561 0.439460
0.000000 0.197848 0.457771
0.000000 0.193851 0.458320
0.249241 0.219303 0.452705
0.475837 0.258915 0.444800
0.660517 0.313970 0.462837
0.759670 0.377478 0.456519
0.828946 0.428595 0.450660
0.909545 0.460792 0.444282
0.000000 0.362982 0.503319
0.000000 0.363561 0.501305
0.289708 0.353338 0.491676
0.491279 0.372076 0.480110
0.664302 0.427283 0.501884
0.752834 0.476753 0.501122
0.839170 0.506126 0.499519
0.909026 0.528374 0.491524
0.000000 0.548363 0.570794
0.059968 0.547814 0.569146
0.325292 0.549889 0.567773
0.516838 0.554742 0.565545
0.648432 0.566705 0.554528
0.745907 0.566308 0.538811
0.827268 0.576410 0.531121
0.896147 0.590875 0.526543
0.311437 0.680659 0.627283
0.338933 0.679225 0.625330
0.432532 0.678859 0.624598
0.555108 0.686763 0.633173
0.662745 0.695827 0.666163
0.736355 0.686519 0.627253
0.821225 0.672480 0.599603
0.885161 0.674250 0.593530
0.477089 0.771145 0.692958
0.498573 0.776181 0.701015
0.545068 0.777859 0.705623
0.621607 0.783963 0.721370
0.700801 0.796445 0.752987
0.722957 0.770901 0.753353
0.749813 0.766384 0.731930
0.852140 0.773434 0.703059
0.600763 0.847196 0.771939
0.608728 0.847837 0.774044
0.637018 0.848997 0.780606
0.684474 0.851682 0.794491
0.737057 0.857969 0.814359
0.779568 0.860929 0.831632
0.775174 0.830289 0.820249
0.777676 0.820066 0.810239
0.710231 0.903716 0.845731
0.714229 0.903655 0.846708
0.730953 0.903685 0.851255
0.761593 0.904631 0.861082
0.794430 0.907530 0.872374
0.828397 0.912169 0.885954
0.841733 0.904295 0.886839
0.837858 0.887755 0.882902
0.000000 0.187778 0.640040
0.000000 0.197787 0.643244
0.019043 0.224247 0.639551
0.444617 0.260929 0.632502
0.644556 0.321630 0.632441
0.769009 0.405829 0.633997
0.833860 0.490211 0.620386
0.872892 0.552056 0.616144
0.000000 0.255833 0.654658
0.000000 0.252842 0.658198
0.158877 0.271275 0.653468
0.457740 0.300206 0.644099
0.646052 0.352209 0.638575
0.766415 0.430884 0.639063
0.830014 0.506218 0.624903
0.869718 0.561852 0.620111
0.000000 0.421118 0.680720
0.000000 0.420874 0.680964
0.232425 0.397375 0.679042
0.473487 0.412116 0.668269
0.638697 0.445136 0.648249
0.747402 0.501122 0.644160
0.812833 0.553368 0.634882
0.856016 0.589319 0.627344
0.000000 0.580652 0.715053
0.087892 0.581109 0.714412
0.333410 0.583856 0.713069
0.501946 0.575586 0.702266
0.636591 0.583246 0.684901
0.733700 0.613184 0.680812
0.793088 0.632898 0.668299
0.849973 0.638849 0.651148
0.316411 0.693568 0.736904
0.344488 0.694270 0.737270
0.430396 0.695186 0.736049
0.539147 0.697566 0.733547
0.639216 0.697383 0.725948
0.719814 0.699886 0.713344
0.782895 0.693904 0.693782
0.854154 0.691951 0.679072
0.439704 0.763699 0.750027
0.452247 0.763790 0.749996
0.493294 0.761227 0.746273
0.564324 0.758236 0.741115
0.641260 0.760189 0.740108
0.726925 0.778653 0.772702
0.780117 0.775174 0.753017
0.854978 0.766445 0.734951
0.542870 0.832486 0.785031
0.548425 0.831907 0.784237
0.575799 0.832334 0.784817
0.633234 0.837705 0.794369
0.702968 0.844694 0.810544
0.768154 0.855589 0.834806
0.778988 0.834470 0.830686
0.793606 0.827604 0.813626
0.651728 0.896880 0.838407
0.656672 0.896818 0.839048
0.678126 0.896666 0.842557
0.723415 0.899657 0.854948
0.771878 0.901671 0.868345
0.816281 0.907012 0.884123
0.843809 0.906950 0.893034
0.838712 0.888365 0.886198
0.000000 0.281773 0.790494
0.000000 0.288670 0.791958
0.000000 0.309972 0.791714
0.437690 0.345647 0.789364
0.620447 0.395148 0.777951
0.739651 0.463874 0.764523
0.822568 0.546014 0.760952
0.875761 0.621637 0.755123
0.000000 0.321752 0.786496
0.000000 0.319341 0.786374
0.033387 0.334173 0.783932
0.429389 0.361151 0.778836
0.610986 0.405219 0.768582
0.731807 0.470008 0.756985
0.816159 0.548211 0.755215
0.871061 0.620783 0.750546
0.000000 0.482673 0.803738
0.000000 0.476936 0.802976
0.246433 0.456092 0.801480
0.456275 0.466529 0.789273
0.612879 0.499245 0.777188
0.724422 0.542077 0.764157
0.806729 0.599725 0.764126
0.862181 0.652857 0.759579
0.297673 0.623224 0.817411
0.325719 0.622339 0.815518
0.423194 0.624872 0.811765
0.521752 0.621668 0.810727
0.631556 0.632868 0.802243
0.722499 0.647303 0.786526
0.797940 0.679377 0.786893
0.851469 0.706935 0.780301
0.399023 0.709712 0.819242
0.415290 0.710292 0.818875
0.474495 0.713527 0.818204
0.559625 0.720790 0.817929
0.639582 0.715724 0.807980
0.712032 0.714382 0.794675
0.782834 0.730129 0.792081
0.833890 0.739315 0.781277
0.491371 0.776852 0.825132
0.504448 0.779019 0.826780
0.536889 0.779751 0.825864
0.589593 0.781674 0.824521
0.651972 0.784237 0.821958
0.720729 0.789548 0.820706
0.781582 0.793240 0.814633
0.834897 0.786007 0.799405
0.567987 0.844724 0.848295
0.575250 0.845640 0.849119
0.594781 0.845701 0.848264
0.629877 0.845731 0.846433
0.678492 0.843565 0.841459
0.734401 0.843595 0.838926
0.794247 0.850187 0.854276
0.831113 0.844419 0.836515
0.616236 0.891722 0.859617
0.617792 0.891051 0.858640
0.630182 0.890074 0.856901
0.665919 0.891875 0.858976
0.722286 0.895628 0.866026
0.788876 0.900145 0.880522
0.842985 0.909087 0.899870
0.844968 0.893370 0.894957
0.000000 0.364813 0.865629
0.000000 0.369726 0.865904
0.142702 0.384344 0.863706
0.419593 0.414313 0.860166
0.582177 0.459144 0.852811
0.699153 0.514305 0.842130
0.785183 0.570947 0.832975
0.853696 0.631067 0.830014
0.000000 0.390631 0.863096
0.000000 0.392798 0.863645
0.175326 0.405737 0.861570
0.420996 0.431037 0.857176
0.579309 0.471901 0.849760
0.694850 0.520806 0.838590
0.780606 0.572107 0.828733
0.849363 0.628962 0.825589
0.162295 0.512688 0.864897
0.196078 0.509972 0.864775
0.287785 0.497688 0.863706
0.454566 0.517235 0.859037
0.587671 0.544610 0.851377
0.693263 0.578058 0.841398
0.776394 0.617365 0.833127
0.845670 0.664973 0.832853
0.390509 0.640955 0.868620
0.404883 0.640497 0.867460
0.462623 0.643427 0.864714
0.512627 0.630243 0.863462
0.608057 0.641718 0.857298
0.696681 0.659846 0.849210
0.772183 0.680842 0.840818
0.839536 0.712673 0.841428
0.462776 0.724971 0.873747
0.471473 0.724392 0.872892
0.510277 0.724849 0.870695
0.572717 0.727138 0.867399
0.632380 0.723232 0.862882
0.700587 0.727413 0.855833
0.767544 0.735134 0.845945
0.834836 0.760159 0.850034
0.531060 0.787411 0.877073
0.538048 0.788113 0.877073
0.564233 0.790433 0.877012
0.609003 0.795010 0.876951
0.664973 0.801572 0.876585
0.721248 0.799527 0.870878
0.775174 0.798489 0.862791
0.835386 0.810086 0.862333
0.592554 0.842069 0.884581
0.597894 0.842741 0.884825
0.615412 0.843900 0.884733
0.647822 0.846403 0.884703
0.690242 0.849485 0.884245
0.739376 0.853208 0.883482
0.790616 0.855558 0.881193
0.836362 0.854154 0.873503
0.640681 0.894865 0.900328
0.644007 0.895079 0.900389
0.658930 0.896239 0.900938
0.683345 0.897520 0.900847
0.716457 0.898711 0.899931
0.758145 0.897490 0.895964
0.814023 0.900572 0.898222
0.856474 0.902525 0.908324
0.142672 0.475410 0.916716
0.203555 0.479591 0.916594
0.328954 0.491524 0.914580
0.464027 0.518944 0.911681
0.582055 0.555291 0.907012
0.679591 0.595300 0.900816
0.760739 0.635737 0.893767
0.829679 0.675044 0.888792
0.183352 0.491768 0.915190
0.230381 0.495796 0.915068
0.342535 0.507774 0.913390
0.468605 0.531853 0.910399
0.582788 0.564843 0.905882
0.678737 0.602106 0.899809
0.758999 0.639094 0.892546
0.827695 0.676295 0.887358
0.343969 0.574304 0.912291
0.355016 0.573419 0.912261
0.398047 0.569970 0.911559
0.498695 0.589685 0.909575
0.594751 0.612116 0.905211
0.681300 0.638270 0.899351
0.757839 0.666743 0.892729
0.825315 0.696742 0.887846
0.476478 0.673915 0.909392
0.482582 0.673548 0.909483
0.502739 0.669642 0.909087
0.540612 0.663600 0.908782
0.615991 0.677638 0.905455
0.689693 0.694026 0.900755
0.759396 0.712490 0.895201
0.823819 0.732845 0.890654
0.512352 0.735103 0.911803
0.520348 0.736049 0.911742
0.546624 0.737270 0.910521
0.602655 0.746242 0.908293
0.639704 0.740230 0.906981
0.699672 0.748104 0.903166
0.762509 0.759152 0.898528
0.823850 0.772732 0.894591
0.565026 0.798215 0.915312
0.568902 0.798276 0.915038
0.587091 0.799710 0.914488
0.622187 0.801877 0.913237
0.669612 0.804471 0.911131
0.720699 0.806851 0.909545
0.775692 0.813657 0.907012
0.830472 0.820493 0.903044
0.620905 0.848905 0.919005
0.624262 0.849210 0.918944
0.638666 0.850553 0.918761
0.666896 0.853880 0.918791
0.706630 0.859037 0.919005
0.754696 0.866239 0.919677
0.797238 0.864988 0.916564
0.839445 0.863737 0.911803
0.673487 0.892607 0.924559
0.675959 0.892729 0.924529
0.687251 0.893645 0.924559
0.709804 0.895811 0.924926
0.741176 0.898833 0.925353
0.778958 0.902586 0.925872
0.821378 0.907042 0.926543
0.862119 0.910643 0.926574
