20 Preset/Ociden Style/【3】LUT video cho PR-AE-FCPX/Ocident style 5/Tone  (4).cube
# Created by Adobe Lightroom plugin Export LUT (1.24.0)
# www.johnrellis.com/lightroom/exportlut.htm
# Preset: Cvatik_Artemis_8
# Color profile: E:\lut插件\exportlut.1.24\exportlut.lrplugin\color profiles\Rec709gamma2.4.icc
LUT_3D_SIZE 8
DOMAIN_MIN 0.000000 0.000000 0.000000
DOMAIN_MAX 0.903226 0.903226 0.903226
0.119600 0.091096 0.098848
0.179568 0.078859 0.099306
0.418097 0.066346 0.085512
0.634882 0.164584 0.000000
0.800656 0.237919 0.000000
0.918944 0.306004 0.114687
0.989410 0.365515 0.211521
1.000000 0.419593 0.287449
0.131472 0.119417 0.113985
0.175570 0.133730 0.109377
0.407233 0.163272 0.086397
0.621515 0.216464 0.000000
0.788876 0.273625 0.006561
0.906218 0.329168 0.143893
0.979644 0.380011 0.224399
1.000000 0.429786 0.295689
0.198215 0.283696 0.222538
0.200504 0.312474 0.221530
0.345556 0.359014 0.190188
0.596765 0.382147 0.175540
0.773709 0.401038 0.200015
0.891661 0.427283 0.249027
0.969726 0.458900 0.307744
1.000000 0.492805 0.363897
0.329107 0.498268 0.404242
0.329046 0.508721 0.405402
0.339025 0.541650 0.380377
0.518486 0.573358 0.361822
0.726589 0.580011 0.373144
0.862516 0.559228 0.385351
0.941588 0.566217 0.420722
0.998077 0.581933 0.459907
0.479255 0.652918 0.575830
0.480079 0.657221 0.576623
0.485267 0.673610 0.575189
0.502525 0.690120 0.529808
0.642603 0.701015 0.521111
0.785580 0.696254 0.528618
0.895048 0.674861 0.534112
0.963561 0.672908 0.557641
0.591150 0.749020 0.690974
0.594598 0.753079 0.693904
0.598596 0.761532 0.694850
0.604608 0.773098 0.685145
0.621241 0.777615 0.633600
0.730800 0.784298 0.641871
0.833707 0.783047 0.653681
0.916686 0.770962 0.662501
0.674739 0.816129 0.769467
0.676448 0.817868 0.770535
0.681147 0.823026 0.772366
0.689845 0.831327 0.772763
0.690974 0.837034 0.754391
0.721920 0.840604 0.726101
0.799191 0.845029 0.734493
0.870176 0.844450 0.745205
0.740780 0.865080 0.825467
0.742397 0.866026 0.826230
0.749203 0.869841 0.829465
0.760647 0.876158 0.833951
0.766079 0.880522 0.829984
0.768490 0.885252 0.812161
0.803799 0.888701 0.804013
0.853941 0.890471 0.809567
0.142031 0.108736 0.132876
0.184634 0.090364 0.158358
0.410101 0.000000 0.157778
0.614893 0.163821 0.180880
0.782193 0.260807 0.198520
0.897581 0.334417 0.237797
0.970977 0.390753 0.285954
1.000000 0.441108 0.338079
0.174624 0.133791 0.145510
0.201328 0.160342 0.169955
0.397162 0.172000 0.189975
0.608148 0.229465 0.197452
0.775845 0.298344 0.214969
0.891447 0.357214 0.251499
0.965270 0.405188 0.295750
1.000000 0.450965 0.345403
0.290349 0.279210 0.263828
0.288762 0.307317 0.278660
0.343481 0.371679 0.270390
0.585870 0.389929 0.266270
0.756954 0.415351 0.282689
0.874907 0.442725 0.313268
0.953033 0.472267 0.352697
1.000000 0.506188 0.398413
0.382696 0.491341 0.428626
0.380957 0.502770 0.433448
0.380743 0.540429 0.432288
0.507530 0.568383 0.397131
0.708675 0.572381 0.402075
0.843503 0.560388 0.413825
0.926238 0.569635 0.443366
0.987091 0.586969 0.478279
0.505241 0.650385 0.589654
0.505058 0.654353 0.590661
0.505852 0.670069 0.591241
0.511162 0.686732 0.553918
0.634699 0.696193 0.534844
0.777127 0.693263 0.541344
0.887724 0.674464 0.546990
0.956359 0.675807 0.569696
0.601770 0.745693 0.695827
0.602747 0.748104 0.696864
0.606043 0.756985 0.698848
0.610925 0.769619 0.692317
0.623224 0.775357 0.645899
0.727657 0.782773 0.650294
0.829892 0.782345 0.661006
0.913115 0.770962 0.668605
0.678248 0.813321 0.770657
0.678798 0.814298 0.770871
0.682795 0.819577 0.772732
0.691157 0.828428 0.774014
0.693843 0.835355 0.758907
0.720119 0.838834 0.728817
0.796231 0.842954 0.736019
0.867521 0.842557 0.745693
0.740963 0.863157 0.825223
0.743038 0.864378 0.826413
0.749508 0.868254 0.829557
0.760769 0.874754 0.834165
0.771969 0.881559 0.835080
0.771725 0.885557 0.816587
0.803922 0.888548 0.806332
0.853513 0.890349 0.811582
0.250401 0.249454 0.313664
0.251957 0.231601 0.336675
0.395331 0.127321 0.398901
0.605615 0.229801 0.403418
0.762783 0.347173 0.410895
0.867063 0.442298 0.446235
0.938903 0.497841 0.476234
0.994873 0.538506 0.503044
0.315190 0.328222 0.321355
0.309300 0.327398 0.346838
0.378027 0.249638 0.406317
0.590204 0.294072 0.414954
0.751186 0.382879 0.423804
0.858976 0.459144 0.454871
0.934020 0.505425 0.479072
0.991394 0.543969 0.505547
0.388342 0.416571 0.380743
0.397406 0.428443 0.391882
0.425025 0.463539 0.426001
0.555138 0.441871 0.458228
0.726925 0.487037 0.471687
0.843565 0.520867 0.489143
0.921935 0.551263 0.509880
0.981262 0.580041 0.533471
0.466163 0.513146 0.476631
0.473121 0.521263 0.485145
0.500420 0.552453 0.518486
0.511437 0.591333 0.530846
0.695583 0.599298 0.533898
0.816342 0.608820 0.545953
0.900267 0.622217 0.562188
0.962585 0.638605 0.581353
0.596063 0.653620 0.631373
0.600244 0.657801 0.636133
0.597620 0.675288 0.648981
0.587213 0.697871 0.651179
0.635767 0.707607 0.613733
0.768551 0.706996 0.616602
0.870542 0.698909 0.622553
0.936919 0.706508 0.639582
0.657801 0.746395 0.724300
0.658167 0.749081 0.726162
0.657954 0.758358 0.731014
0.656977 0.771725 0.732723
0.652857 0.779812 0.705837
0.725948 0.785916 0.692500
0.822965 0.788724 0.700832
0.904204 0.782010 0.707759
0.709316 0.813535 0.787900
0.709651 0.814755 0.788449
0.711788 0.820035 0.790951
0.716762 0.829129 0.793851
0.720760 0.837583 0.787961
0.726986 0.840635 0.754147
0.796872 0.845640 0.760189
0.865385 0.847227 0.768826
0.754269 0.861662 0.832792
0.755367 0.862577 0.833433
0.761044 0.866667 0.836790
0.771603 0.873960 0.842252
0.781827 0.881285 0.844450
0.782681 0.886076 0.831449
0.807034 0.889372 0.818235
0.853727 0.891295 0.822751
0.388403 0.462287 0.530541
0.387304 0.457099 0.543542
0.409613 0.420874 0.578912
0.555322 0.309300 0.617182
0.736049 0.399176 0.608301
0.838407 0.492103 0.596582
0.899962 0.573358 0.614557
0.949126 0.630365 0.643824
0.440772 0.514397 0.541680
0.438880 0.512932 0.554192
0.434546 0.477668 0.585290
0.545830 0.375738 0.621302
0.728450 0.432380 0.615473
0.831907 0.511650 0.604181
0.895048 0.585229 0.621515
0.946624 0.636469 0.647822
0.534569 0.589837 0.559594
0.540337 0.595972 0.566400
0.527367 0.596033 0.598016
0.533318 0.534203 0.630671
0.698939 0.526635 0.636805
0.810239 0.579034 0.634394
0.879850 0.635950 0.655085
0.939147 0.664881 0.668635
0.584497 0.641932 0.618097
0.588190 0.645747 0.622431
0.602350 0.659968 0.638575
0.619776 0.677241 0.658228
0.660975 0.632013 0.669062
0.776730 0.658320 0.670649
0.859922 0.682612 0.681086
0.925933 0.699672 0.690150
0.637659 0.694667 0.678035
0.640101 0.697047 0.680720
0.650446 0.707027 0.692042
0.664485 0.720455 0.707240
0.671260 0.726864 0.714443
0.753445 0.730068 0.709224
0.842283 0.737942 0.715114
0.909453 0.747341 0.722744
0.701381 0.755123 0.746059
0.705165 0.758633 0.749966
0.713619 0.766506 0.758633
0.728847 0.780423 0.773983
0.721248 0.792325 0.778012
0.728511 0.794278 0.750332
0.816526 0.799435 0.754604
0.892332 0.798154 0.759304
0.758389 0.812680 0.807156
0.758724 0.814511 0.808591
0.759701 0.821286 0.813657
0.761227 0.832059 0.820584
0.760494 0.842008 0.822477
0.754116 0.846372 0.803830
0.798062 0.849638 0.793790
0.862364 0.853147 0.799863
0.778225 0.858854 0.843870
0.779232 0.860044 0.844846
0.783597 0.864805 0.848692
0.791135 0.872648 0.854520
0.799069 0.880949 0.858701
0.802457 0.887205 0.854215
0.811704 0.890593 0.836271
0.854429 0.892973 0.840146
0.532189 0.619532 0.683192
0.532189 0.618402 0.689296
0.529107 0.603540 0.705959
0.554345 0.565728 0.731075
0.662776 0.471290 0.753079
0.808286 0.533959 0.742489
0.878813 0.601312 0.721004
0.925505 0.668513 0.730495
0.558801 0.642420 0.687892
0.559380 0.642725 0.694453
0.552331 0.629145 0.710292
0.564996 0.591760 0.732876
0.658656 0.504021 0.753475
0.803128 0.549859 0.744930
0.874907 0.612085 0.724758
0.922728 0.675288 0.733822
0.625116 0.693019 0.695491
0.623713 0.693477 0.700710
0.617121 0.690883 0.718563
0.603906 0.663233 0.737514
0.648981 0.596521 0.753872
0.781979 0.600427 0.751217
0.859373 0.648707 0.736904
0.912322 0.698177 0.744411
0.670863 0.726497 0.714015
0.673671 0.729183 0.717037
0.684718 0.739590 0.728695
0.680812 0.743038 0.749203
0.666194 0.705318 0.762844
0.754330 0.675746 0.765621
0.839078 0.704677 0.758358
0.898466 0.737392 0.763912
0.700740 0.754543 0.745418
0.703090 0.756710 0.747799
0.711482 0.764462 0.756435
0.724239 0.776272 0.769406
0.734432 0.785580 0.779599
0.731350 0.742458 0.779477
0.820523 0.758633 0.777981
0.885100 0.777401 0.783474
0.729610 0.781155 0.774746
0.731319 0.782681 0.776455
0.736934 0.787839 0.782071
0.746456 0.796506 0.791440
0.756252 0.805417 0.801053
0.757992 0.806943 0.802701
0.808682 0.808713 0.800839
0.875914 0.816190 0.805020
0.766140 0.814267 0.810575
0.767300 0.815274 0.811643
0.772763 0.820157 0.816861
0.784878 0.830930 0.828305
0.799619 0.843839 0.841886
0.794430 0.851682 0.844175
0.798093 0.852445 0.824491
0.859495 0.857084 0.827756
0.803983 0.847593 0.845914
0.805478 0.849088 0.847349
0.807889 0.855619 0.852781
0.813809 0.867155 0.862333
0.819486 0.878447 0.870420
0.822843 0.886992 0.873014
0.821347 0.891173 0.860136
0.853880 0.893736 0.857053
0.632410 0.712703 0.771328
0.633539 0.713222 0.774868
0.630579 0.706783 0.783658
0.632776 0.691402 0.798306
0.657221 0.658198 0.814389
0.736934 0.591211 0.828519
0.854734 0.638941 0.826535
0.907836 0.695491 0.808560
0.642512 0.720790 0.770535
0.643275 0.721096 0.773648
0.640345 0.715785 0.782650
0.638727 0.699855 0.796262
0.658900 0.667750 0.812253
0.733425 0.604059 0.826535
0.850340 0.644923 0.825772
0.905211 0.698878 0.808682
0.682856 0.752071 0.775540
0.682704 0.752285 0.778225
0.682704 0.752560 0.788937
0.674586 0.739864 0.800504
0.679072 0.712581 0.813931
0.730251 0.660548 0.826444
0.837919 0.677668 0.828153
0.897551 0.720607 0.814786
0.734035 0.785245 0.779202
0.734066 0.786130 0.781582
0.732570 0.788937 0.792355
0.730220 0.790433 0.809323
0.721218 0.774563 0.821653
0.737423 0.736690 0.830442
0.822629 0.726925 0.834134
0.887266 0.755825 0.825345
0.749325 0.799161 0.794308
0.751034 0.800656 0.795956
0.757839 0.806821 0.802548
0.769558 0.817350 0.813840
0.769650 0.821317 0.827115
0.755734 0.797604 0.834104
0.808469 0.769986 0.837461
0.876646 0.788998 0.831724
0.768276 0.816129 0.812589
0.770108 0.817807 0.814359
0.775448 0.822568 0.819425
0.784695 0.830747 0.828092
0.795132 0.839872 0.837766
0.803738 0.847410 0.845670
0.802243 0.816709 0.845274
0.867338 0.829801 0.843809
0.790524 0.835874 0.833524
0.791867 0.837064 0.834806
0.796292 0.840909 0.838865
0.804135 0.847745 0.846036
0.813474 0.855833 0.854490
0.821225 0.862455 0.861387
0.820127 0.861479 0.860380
0.859739 0.864530 0.858976
0.806851 0.850095 0.848478
0.807828 0.850919 0.849363
0.812528 0.855009 0.853635
0.821927 0.863035 0.861997
0.835386 0.874418 0.873808
0.848051 0.886564 0.885801
0.844266 0.893126 0.886259
0.854887 0.895628 0.876402
0.700984 0.772213 0.824155
0.702907 0.773526 0.826627
0.701442 0.770565 0.831662
0.701442 0.764004 0.840940
0.708217 0.750668 0.852537
0.733516 0.726345 0.864866
0.795651 0.683253 0.876005
0.882444 0.718349 0.874235
0.704829 0.775265 0.822690
0.706752 0.776577 0.825223
0.706691 0.775082 0.830930
0.704891 0.767849 0.839567
0.709621 0.754086 0.850736
0.732174 0.729152 0.862547
0.791684 0.683345 0.873503
0.878874 0.716854 0.871763
0.728145 0.793484 0.824796
0.728786 0.794034 0.826627
0.731289 0.795621 0.833524
0.729305 0.791135 0.842222
0.728237 0.778195 0.851804
0.742672 0.756100 0.862669
0.791562 0.716732 0.873655
0.874418 0.739132 0.874418
0.761410 0.816770 0.826474
0.761318 0.817075 0.827970
0.762081 0.818906 0.834562
0.765133 0.822019 0.846464
0.761105 0.814572 0.855924
0.763638 0.796841 0.865110
0.794034 0.764492 0.874510
0.867460 0.769436 0.877134
0.785672 0.831601 0.829007
0.786496 0.832334 0.829801
0.791348 0.836606 0.834287
0.795438 0.842466 0.844541
0.794614 0.844694 0.858152
0.787716 0.833310 0.866758
0.798062 0.807065 0.874052
0.861784 0.801053 0.879667
0.796811 0.841337 0.839292
0.798001 0.842374 0.840391
0.802640 0.846433 0.844663
0.811032 0.853696 0.852262
0.821653 0.862791 0.861753
0.824613 0.867735 0.872801
0.816648 0.852415 0.879026
0.859037 0.835813 0.883513
0.810422 0.853208 0.851743
0.811704 0.854246 0.852842
0.815702 0.857725 0.856443
0.823117 0.864073 0.863066
0.832517 0.872007 0.871305
0.842252 0.880156 0.879728
0.849454 0.886168 0.885893
0.857023 0.869200 0.886870
0.821775 0.862913 0.861875
0.822812 0.863798 0.862760
0.827390 0.867674 0.866819
0.834745 0.873869 0.873259
0.843961 0.881621 0.881224
0.853452 0.889433 0.889281
0.861082 0.895689 0.895689
0.862028 0.898772 0.897398
0.757595 0.819303 0.861814
0.759182 0.820401 0.863249
0.758694 0.819089 0.866148
0.759182 0.816587 0.871946
0.762356 0.811521 0.879759
0.771969 0.802121 0.888670
0.795315 0.786191 0.898375
0.843595 0.762814 0.907256
0.759091 0.820554 0.860929
0.760708 0.821592 0.862394
0.761959 0.821805 0.866026
0.761746 0.819028 0.871611
0.764218 0.813809 0.879240
0.772915 0.804318 0.888090
0.795010 0.787930 0.897642
0.842496 0.763607 0.906676
0.769375 0.828550 0.860227
0.770443 0.829343 0.861479
0.774441 0.831968 0.866331
0.776669 0.832090 0.872953
0.776211 0.826535 0.879728
0.781064 0.816831 0.887785
0.799008 0.801266 0.896941
0.841672 0.775357 0.906401
0.785519 0.840024 0.858091
0.786465 0.840879 0.859525
0.789700 0.843656 0.864714
0.796231 0.848447 0.873686
0.796231 0.846098 0.881041
0.796658 0.837736 0.888304
0.807919 0.824033 0.896757
0.842130 0.799710 0.906096
0.806851 0.851987 0.853727
0.807218 0.852689 0.855100
0.807797 0.854520 0.859892
0.811612 0.859373 0.869780
0.817258 0.864317 0.881315
0.815640 0.859770 0.889006
0.819516 0.848692 0.896696
0.844480 0.829465 0.905730
0.816922 0.858762 0.857542
0.817624 0.859373 0.858183
0.821073 0.862303 0.861234
0.828153 0.868315 0.867491
0.835447 0.875608 0.877104
0.839567 0.881071 0.890745
0.839078 0.876341 0.898955
0.849577 0.859983 0.905699
0.824826 0.865507 0.864561
0.825681 0.866209 0.865324
0.829313 0.869291 0.868498
0.836362 0.875212 0.874662
0.845975 0.883268 0.882963
0.856718 0.892149 0.892058
0.860838 0.896910 0.900725
0.858610 0.887358 0.906188
0.831449 0.871122 0.870359
0.832273 0.871794 0.871092
0.835966 0.874937 0.874327
0.843015 0.880827 0.880400
0.852262 0.888457 0.888273
0.862181 0.896635 0.896605
0.871336 0.904051 0.904204
0.877195 0.908782 0.909026
