20 Preset/Ociden Style/【3】LUT video cho PR-AE-FCPX/Ocident style 5/Tone  (3).cube
# Created by Adobe Lightroom plugin Export LUT (1.24.0)
# www.johnrellis.com/lightroom/exportlut.htm
# Preset: Cvatik_Artemis_7
# Color profile: E:\lut插件\exportlut.1.24\exportlut.lrplugin\color profiles\Rec709gamma2.4.icc
LUT_3D_SIZE 32
DOMAIN_MIN 0.0 0.0 0.0
DOMAIN_MAX 1.0 1.0 1.0
0.000000 0.000000 0.000000
0.008637 0.000092 0.002075
0.034089 0.001526 0.007019
0.084627 0.007355 0.017578
0.119600 0.022614 0.033722
0.173922 0.031312 0.049531
0.241917 0.025818 0.060395
0.315648 0.015991 0.064637
0.393591 0.007477 0.065492
0.472816 0.023041 0.060426
0.550011 0.083864 0.049317
0.624018 0.127749 0.033753
0.692409 0.174136 0.015595
0.753628 0.223545 0.000000
0.805722 0.272068 0.017884
0.849882 0.318700 0.085359
0.887785 0.363684 0.124514
0.923125 0.410040 0.167666
0.957366 0.457343 0.214115
0.984070 0.498421 0.261204
1.000000 0.534722 0.307378
1.000000 0.566461 0.351293
1.000000 0.594568 0.392828
1.000000 0.619867 0.430701
1.000000 0.643000 0.465888
1.000000 0.664485 0.498909
1.000000 0.684657 0.530388
1.000000 0.703609 0.559747
1.000000 0.721309 0.587335
1.000000 0.737850 0.613153
1.000000 0.752895 0.636561
1.000000 0.766690 0.658320
0.000946 0.003143 0.002930
0.003235 0.002930 0.001801
0.035218 0.005890 0.006409
0.084260 0.011933 0.015839
0.118959 0.027436 0.031983
0.171664 0.038666 0.046571
0.238132 0.037049 0.057374
0.310918 0.030793 0.062898
0.387152 0.030426 0.061585
0.465278 0.050202 0.056123
0.542382 0.093538 0.045624
0.616510 0.130770 0.030945
0.685206 0.174838 0.011200
0.746822 0.223697 0.000000
0.799680 0.270939 0.017426
0.844511 0.317601 0.081605
0.883207 0.362036 0.123079
0.918914 0.407691 0.164065
0.952850 0.454078 0.209842
0.979522 0.494331 0.256046
1.000000 0.529686 0.300511
1.000000 0.560967 0.343175
1.000000 0.588922 0.383612
1.000000 0.614221 0.421210
1.000000 0.637293 0.456367
1.000000 0.658930 0.489265
1.000000 0.679316 0.520958
1.000000 0.698665 0.550774
1.000000 0.716884 0.579187
1.000000 0.733730 0.605310
1.000000 0.749416 0.630121
1.000000 0.763546 0.652277
0.000000 0.028534 0.020966
0.000641 0.029511 0.018555
0.017487 0.030884 0.021424
0.063691 0.039063 0.022797
0.112276 0.061555 0.032349
0.168185 0.078279 0.037079
0.232700 0.086580 0.046509
0.303593 0.091188 0.049592
0.378973 0.096895 0.047150
0.456428 0.108980 0.038148
0.533349 0.128420 0.025422
0.607630 0.157473 0.007752
0.676387 0.194858 0.000000
0.738888 0.238254 0.000000
0.792355 0.282872 0.022766
0.837980 0.326696 0.080629
0.877165 0.369787 0.124514
0.914244 0.414008 0.165103
0.947814 0.457893 0.208865
0.974640 0.496925 0.254002
0.996460 0.531579 0.298650
1.000000 0.562463 0.341497
1.000000 0.589258 0.380194
1.000000 0.614343 0.418585
1.000000 0.637049 0.452796
1.000000 0.658045 0.484932
1.000000 0.678401 0.516747
1.000000 0.697658 0.546715
1.000000 0.715816 0.575189
1.000000 0.732876 0.602075
1.000000 0.748531 0.626886
1.000000 0.762722 0.649226
0.000000 0.086671 0.063294
0.000000 0.087953 0.064118
0.003571 0.089998 0.058625
0.040375 0.092561 0.063752
0.094789 0.103029 0.059236
0.147951 0.118685 0.052033
0.216892 0.132662 0.042329
0.290440 0.140597 0.028901
0.366491 0.146609 0.015412
0.443580 0.158663 0.006470
0.520592 0.175143 0.000000
0.594873 0.199466 0.000000
0.664118 0.230777 0.000000
0.726986 0.268223 0.000000
0.781491 0.307073 0.012299
0.827420 0.347143 0.085878
0.867460 0.386175 0.125521
0.905425 0.427893 0.167086
0.938354 0.467353 0.209628
0.965393 0.502983 0.252354
0.987793 0.534874 0.293553
1.000000 0.564141 0.335515
1.000000 0.590600 0.374945
1.000000 0.615076 0.412299
1.000000 0.637934 0.447333
1.000000 0.659724 0.482033
1.000000 0.680446 0.515038
1.000000 0.699794 0.545800
1.000000 0.718013 0.574578
1.000000 0.734829 0.601526
1.000000 0.750118 0.626215
1.000000 0.763821 0.648188
0.000000 0.144106 0.097902
0.000000 0.145022 0.099214
0.000000 0.148104 0.098756
0.000000 0.153140 0.091341
0.013001 0.156252 0.094057
0.111971 0.168063 0.088930
0.178134 0.179995 0.077974
0.258671 0.199954 0.056703
0.340368 0.211582 0.030884
0.420874 0.221164 0.005951
0.498604 0.229679 0.000000
0.573602 0.248417 0.000000
0.643824 0.275608 0.000000
0.708522 0.307683 0.000000
0.764492 0.342412 0.026886
0.812833 0.377813 0.093477
0.854826 0.413336 0.133669
0.894835 0.451606 0.172793
0.928283 0.486458 0.213779
0.956023 0.518700 0.256016
0.979065 0.548425 0.298344
0.998413 0.575189 0.338262
1.000000 0.599786 0.376104
1.000000 0.623224 0.413886
1.000000 0.645380 0.449653
1.000000 0.666163 0.483253
1.000000 0.685969 0.515740
1.000000 0.704555 0.546197
1.000000 0.722133 0.575006
1.000000 0.738247 0.601465
1.000000 0.752895 0.625513
1.000000 0.766232 0.647547
0.000000 0.220432 0.124941
0.000000 0.221347 0.126009
0.000000 0.224063 0.125948
0.000000 0.230442 0.127199
0.000000 0.235386 0.114229
0.000000 0.236912 0.116274
0.121035 0.247257 0.112520
0.208591 0.259403 0.102968
0.298863 0.279026 0.092470
0.389044 0.297276 0.071595
0.472938 0.310552 0.034943
0.551171 0.323400 0.010590
0.622614 0.338689 0.000000
0.687861 0.358892 0.000000
0.745968 0.389593 0.042237
0.796292 0.419623 0.102266
0.842557 0.452796 0.144961
0.883116 0.485328 0.184115
0.917327 0.516014 0.225772
0.946227 0.543969 0.265721
0.970184 0.570336 0.307744
0.990539 0.594476 0.346960
1.000000 0.649470 0.435157
1.000000 0.669398 0.472328
1.000000 0.687800 0.505425
1.000000 0.705043 0.536126
1.000000 0.721492 0.565850
1.000000 0.736385 0.591821
1.000000 0.750546 0.616754
1.000000 0.763302 0.638636
1.000000 0.774960 0.658503
1.000000 0.785153 0.675807
0.000000 0.321294 0.167025
0.000000 0.321691 0.166903
0.000000 0.324224 0.167941
0.000000 0.328740 0.168490
0.000000 0.335790 0.170504
0.000000 0.339269 0.150698
0.000000 0.339849 0.155093
0.131411 0.345617 0.154604
0.246372 0.359319 0.147280
0.344945 0.376776 0.139315
0.449348 0.406561 0.136416
0.535332 0.424201 0.125551
0.611048 0.439277 0.119387
0.678096 0.453895 0.115297
0.735653 0.467567 0.117464
0.788479 0.483253 0.127932
0.837491 0.510826 0.166720
0.878569 0.537743 0.209934
0.913420 0.563287 0.252903
0.943145 0.587701 0.295140
0.968688 0.611170 0.337835
0.990387 0.633906 0.381079
1.000000 0.655756 0.423377
1.000000 0.676356 0.463264
1.000000 0.695338 0.499825
1.000000 0.712642 0.533349
1.000000 0.728115 0.563012
1.000000 0.742214 0.589044
1.000000 0.755367 0.613275
1.000000 0.767300 0.635218
1.000000 0.778317 0.654994
1.000000 0.788205 0.672663
0.000000 0.411627 0.218418
0.000000 0.411566 0.218265
0.000000 0.413764 0.217838
0.000000 0.416907 0.218936
0.000000 0.422370 0.220768
0.000000 0.429023 0.224002
0.000000 0.432532 0.200504
0.000000 0.431525 0.204654
0.146273 0.430304 0.209049
0.272923 0.446845 0.205692
0.376715 0.466835 0.202792
0.474159 0.489540 0.201144
0.570367 0.520653 0.205081
0.642664 0.535271 0.200412
0.707240 0.549248 0.204227
0.763607 0.562188 0.211978
0.812192 0.572351 0.222690
0.854246 0.582544 0.234409
0.891325 0.595941 0.260166
0.923308 0.615686 0.300389
0.950805 0.635279 0.342809
0.974487 0.654597 0.384009
0.994995 0.673396 0.424811
1.000000 0.691707 0.464698
1.000000 0.708736 0.500786
1.000000 0.724208 0.533654
1.000000 0.738247 0.562371
1.000000 0.751003 0.588403
1.000000 0.763241 0.613031
1.000000 0.774350 0.634913
1.000000 0.784573 0.654780
1.000000 0.793698 0.671870
0.000000 0.503105 0.282139
0.000000 0.503349 0.282139
0.000000 0.504326 0.281498
0.000000 0.506798 0.282780
0.000000 0.510613 0.284459
0.000000 0.515190 0.286229
0.000000 0.520897 0.289494
0.000000 0.524346 0.271580
0.000000 0.522881 0.267033
0.175753 0.519097 0.271489
0.304112 0.531273 0.272862
0.407813 0.552331 0.275975
0.503746 0.575708 0.277989
0.600153 0.609705 0.290684
0.675013 0.630030 0.302739
0.733028 0.637903 0.303929
0.783108 0.643549 0.308476
0.826871 0.648310 0.315892
0.865904 0.653742 0.325261
0.900633 0.659297 0.338293
0.931456 0.665797 0.353674
0.957427 0.680171 0.390661
0.979919 0.695857 0.430426
0.999359 0.711330 0.469154
1.000000 0.726009 0.504753
1.000000 0.739315 0.536614
1.000000 0.751644 0.564996
1.000000 0.763119 0.591241
1.000000 0.773892 0.615167
1.000000 0.783780 0.636530
1.000000 0.793027 0.656001
1.000000 0.801297 0.673030
0.000000 0.590936 0.354864
0.000000 0.590936 0.354711
0.000000 0.591211 0.354040
0.000000 0.592889 0.355169
0.000000 0.594629 0.355505
0.000000 0.597314 0.356023
0.000000 0.600916 0.358587
0.000000 0.605402 0.362737
0.000000 0.608148 0.348577
0.000000 0.606226 0.337377
0.220737 0.604486 0.342351
0.340734 0.611048 0.348302
0.441840 0.633600 0.355932
0.532403 0.655695 0.364782
0.615534 0.677638 0.376104
0.695064 0.703883 0.402472
0.749050 0.709133 0.403082
0.796170 0.711849 0.404364
0.837522 0.714443 0.410193
0.874205 0.716762 0.416907
0.906340 0.719265 0.426978
0.934997 0.721767 0.438025
0.960906 0.725307 0.450294
0.983673 0.731655 0.471199
1.000000 0.743130 0.504356
1.000000 0.753994 0.534600
1.000000 0.764706 0.563684
1.000000 0.774777 0.589715
1.000000 0.784482 0.614160
1.000000 0.793606 0.636103
1.000000 0.801999 0.655879
1.000000 0.809751 0.673762
0.000000 0.666529 0.426947
0.000000 0.666743 0.427039
0.000000 0.667140 0.426764
0.000000 0.668177 0.427405
0.000000 0.669703 0.428138
0.000000 0.671717 0.429236
0.000000 0.674250 0.430884
0.000000 0.677394 0.434577
0.000000 0.682887 0.442267
0.000000 0.686610 0.431373
0.000000 0.686244 0.418830
0.280858 0.684382 0.423774
0.381781 0.681880 0.426307
0.472541 0.699886 0.436072
0.554894 0.717708 0.446998
0.630396 0.735256 0.458656
0.700740 0.752071 0.472816
0.762203 0.767971 0.498299
0.805661 0.768856 0.497505
0.844205 0.769009 0.498665
0.878141 0.768673 0.502647
0.908354 0.768612 0.508263
0.935912 0.769345 0.515526
0.961089 0.770626 0.524285
0.984192 0.772457 0.533806
1.000000 0.774685 0.543877
1.000000 0.781857 0.567254
1.000000 0.790249 0.593286
1.000000 0.798367 0.617121
1.000000 0.806210 0.639124
1.000000 0.813504 0.658808
1.000000 0.820218 0.676295
0.000000 0.735714 0.498817
0.000000 0.735836 0.498939
0.000000 0.736324 0.499611
0.000000 0.737270 0.500237
0.000000 0.738705 0.501335
0.000000 0.740597 0.503685
0.000000 0.742947 0.506859
0.000000 0.745388 0.510979
0.000000 0.747829 0.516716
0.000000 0.750362 0.524681
0.000000 0.751827 0.513848
0.214267 0.750332 0.500511
0.385534 0.776516 0.545068
0.457313 0.769589 0.544701
0.534295 0.782956 0.555566
0.604944 0.795865 0.567620
0.670802 0.808042 0.579614
0.732265 0.819608 0.592096
0.790555 0.832425 0.612360
0.831754 0.834928 0.621698
0.864866 0.832059 0.618128
0.894621 0.829129 0.616815
0.921843 0.826627 0.617273
0.946929 0.824674 0.618921
0.969909 0.823270 0.621820
0.991272 0.822080 0.625116
1.000000 0.821530 0.629236
1.000000 0.821225 0.633509
1.000000 0.822110 0.640436
1.000000 0.827207 0.659144
1.000000 0.832212 0.676143
1.000000 0.837003 0.691585
0.000000 0.809934 0.584894
0.000000 0.809812 0.584710
0.000000 0.809476 0.584314
0.000000 0.809018 0.584192
0.000000 0.808560 0.584100
0.000000 0.808133 0.584680
0.000000 0.808011 0.586419
0.000000 0.808255 0.589288
0.000000 0.808988 0.594598
0.000000 0.810269 0.602380
0.141360 0.812192 0.613642
0.271397 0.814328 0.605463
0.352514 0.814389 0.598291
0.434943 0.813016 0.602441
0.495613 0.808530 0.603540
0.560021 0.816739 0.612268
0.622736 0.827329 0.622980
0.681239 0.837034 0.633478
0.736568 0.846250 0.644251
0.788632 0.854856 0.655390
0.835660 0.863828 0.678340
0.866697 0.861204 0.674586
0.895048 0.858152 0.671443
0.921386 0.855375 0.669551
0.945800 0.852903 0.669001
0.968505 0.850736 0.669459
0.989471 0.849088 0.670771
1.000000 0.847837 0.672999
1.000000 0.846983 0.675685
1.000000 0.846647 0.679377
1.000000 0.846525 0.683101
1.000000 0.848447 0.692866
0.000000 0.850401 0.636927
0.000000 0.850126 0.636500
0.000000 0.849332 0.635645
0.000000 0.848539 0.635370
0.000000 0.847593 0.635096
0.000000 0.846403 0.634943
0.000000 0.845548 0.636133
0.000000 0.844999 0.638666
0.000000 0.844785 0.643183
0.000000 0.845151 0.650385
0.041596 0.846067 0.659663
0.316747 0.847379 0.670863
0.365820 0.848722 0.659327
0.423804 0.848020 0.654444
0.485603 0.845853 0.656336
0.534447 0.841215 0.655268
0.586877 0.844938 0.660731
0.641657 0.853178 0.669306
0.693812 0.861051 0.678920
0.743526 0.868467 0.687800
0.790768 0.875547 0.697719
0.837552 0.883635 0.710109
0.871885 0.886320 0.723445
0.898802 0.883421 0.719081
0.923857 0.880583 0.715999
0.947387 0.877836 0.713680
0.969329 0.875425 0.712856
0.989990 0.873289 0.712459
1.000000 0.871641 0.713466
1.000000 0.870420 0.715145
1.000000 0.869413 0.717098
1.000000 0.868620 0.719509
0.000000 0.881224 0.679927
0.000000 0.881071 0.679805
0.000000 0.880461 0.679316
0.000000 0.879545 0.678767
0.000000 0.878325 0.678401
0.000000 0.876951 0.678431
0.000000 0.875822 0.679713
0.000000 0.874846 0.681819
0.000000 0.874205 0.686122
0.000000 0.873991 0.692256
0.091585 0.874205 0.699794
0.312871 0.874846 0.709010
0.416083 0.875364 0.719020
0.437842 0.876097 0.704707
0.483345 0.874540 0.701106
0.531029 0.871763 0.701015
0.571191 0.867582 0.699428
0.613672 0.868437 0.702083
0.661799 0.875090 0.709773
0.708186 0.881407 0.717647
0.752804 0.887602 0.725765
0.796292 0.893797 0.734218
0.838376 0.899840 0.742947
0.877501 0.905730 0.757595
0.904540 0.904814 0.759396
0.928191 0.902007 0.755398
0.950713 0.899290 0.752346
0.972045 0.896880 0.750698
0.992248 0.894804 0.750088
1.000000 0.893217 0.750729
1.000000 0.891814 0.751949
1.000000 0.890623 0.753536
0.000000 0.904417 0.715023
0.000000 0.904448 0.715175
0.000000 0.904143 0.715267
0.000000 0.903685 0.715480
0.000000 0.902953 0.715846
0.000000 0.902129 0.716976
0.000000 0.901396 0.719234
0.000000 0.900755 0.722164
0.000000 0.900145 0.726406
0.000000 0.899657 0.731502
0.181003 0.899168 0.737514
0.330266 0.898680 0.744076
0.420783 0.898161 0.751156
0.487037 0.897429 0.756924
0.494362 0.897124 0.740688
0.531395 0.894621 0.737484
0.569696 0.891752 0.736446
0.603479 0.888121 0.734890
0.638544 0.887358 0.736141
0.681331 0.892943 0.743038
0.723262 0.898619 0.750393
0.764462 0.904295 0.757961
0.804623 0.909880 0.765560
0.843809 0.915282 0.773251
0.883024 0.921172 0.781308
0.912505 0.923491 0.794247
0.934844 0.920989 0.790127
0.956268 0.918486 0.787015
0.976684 0.916136 0.784878
0.995972 0.914031 0.783749
1.000000 0.912047 0.783200
1.000000 0.910185 0.783169
0.000000 0.922972 0.744961
0.000000 0.922911 0.745052
0.000000 0.922667 0.745235
0.000000 0.922332 0.745571
0.000000 0.921782 0.746456
0.000000 0.921080 0.747738
0.000000 0.920378 0.749813
0.000000 0.919646 0.752499
0.000000 0.918975 0.756039
0.000000 0.918273 0.760250
0.233494 0.917540 0.765286
0.348699 0.916869 0.770871
0.429572 0.916167 0.776883
0.493996 0.915282 0.783017
0.536034 0.914427 0.784115
0.541039 0.914000 0.769955
0.574121 0.911467 0.768643
0.606012 0.908934 0.767788
0.635096 0.905974 0.766659
0.664179 0.904265 0.766934
0.702693 0.909270 0.773098
0.740871 0.914366 0.779629
0.778408 0.919463 0.786404
0.815427 0.924407 0.793057
0.851560 0.929198 0.799619
0.886931 0.933745 0.805997
0.919585 0.937743 0.815763
0.942657 0.937285 0.819425
0.962890 0.935027 0.816342
0.982208 0.932830 0.814145
1.000000 0.930663 0.812497
1.000000 0.928527 0.811337
0.000000 0.939117 0.772671
0.000000 0.939178 0.772946
0.000000 0.946380 0.786648
0.000000 0.946044 0.787167
0.000000 0.945556 0.787961
0.000000 0.944884 0.788968
0.000000 0.944030 0.790463
0.000000 0.943145 0.792660
0.000000 0.942260 0.795499
0.241276 0.941344 0.799039
0.340490 0.940429 0.803067
0.414710 0.939452 0.807584
0.475959 0.938293 0.812161
0.528740 0.936980 0.816831
0.574853 0.935515 0.821530
0.598169 0.934356 0.818784
0.602075 0.933318 0.807431
0.626947 0.930663 0.805447
0.651301 0.928038 0.803861
0.674769 0.925353 0.802243
0.698085 0.923095 0.801297
0.731533 0.927184 0.806088
0.765042 0.931304 0.811063
0.798306 0.935393 0.816220
0.831052 0.939269 0.820981
0.863371 0.943023 0.825559
0.895354 0.946593 0.829984
0.927794 0.950530 0.834775
0.951385 0.951385 0.844114
0.970245 0.949340 0.841306
0.988342 0.947173 0.838804
1.000000 0.944915 0.836667
0.000000 0.954406 0.799466
0.000000 0.954955 0.800565
0.000000 0.955413 0.801877
0.000000 0.955688 0.803403
0.000000 0.955688 0.804959
0.000000 0.955230 0.806302
0.000000 0.954559 0.807736
0.000000 0.953704 0.809567
0.179355 0.952819 0.811978
0.289555 0.951873 0.814939
0.366735 0.950958 0.818540
0.430304 0.949981 0.822446
0.485237 0.948852 0.826566
0.533745 0.947662 0.830838
0.577417 0.946380 0.835264
0.616693 0.945006 0.839719
0.628382 0.944244 0.834195
0.635279 0.943328 0.826139
0.657404 0.941283 0.825040
0.679316 0.939330 0.824155
0.700801 0.937407 0.823484
0.721828 0.935576 0.823026
0.752377 0.939361 0.827390
0.782864 0.943084 0.831754
0.813046 0.946654 0.835874
0.843076 0.950103 0.839841
0.872831 0.953399 0.843687
0.902556 0.956603 0.847623
0.932036 0.959747 0.851469
0.958465 0.961944 0.857908
0.977234 0.961059 0.861051
0.994171 0.958984 0.858366
0.000000 0.964416 0.816342
0.000000 0.964904 0.817411
0.000000 0.965362 0.818662
0.000000 0.965606 0.820096
0.000000 0.965606 0.821500
0.000000 0.965270 0.822812
0.000000 0.964630 0.824155
0.179477 0.963836 0.825864
0.271702 0.962982 0.827970
0.341131 0.962066 0.830564
0.400824 0.961120 0.833585
0.454047 0.960143 0.837064
0.502190 0.959075 0.840848
0.546197 0.958007 0.844816
0.586542 0.956847 0.848966
0.623468 0.955627 0.853178
0.657313 0.954376 0.857481
0.658717 0.954040 0.849302
0.668238 0.953124 0.844053
0.687678 0.951476 0.843320
0.707149 0.949950 0.842893
0.726589 0.948516 0.842679
0.745785 0.947204 0.842588
0.773281 0.950469 0.846311
0.800870 0.953704 0.849912
0.828458 0.956878 0.853361
0.855955 0.959899 0.856687
0.883543 0.962921 0.860014
0.911101 0.965850 0.863554
0.938598 0.968719 0.867002
0.966400 0.971771 0.870970
0.984283 0.971099 0.877165
0.000000 0.973663 0.831724
0.000000 0.974060 0.832578
0.000000 0.974395 0.833585
0.000000 0.974548 0.834806
0.000000 0.974517 0.835966
0.137118 0.974182 0.837156
0.219028 0.973632 0.838437
0.281254 0.972930 0.840024
0.336797 0.972107 0.842008
0.387304 0.971252 0.844297
0.434913 0.970367 0.847135
0.479957 0.969390 0.850340
0.522240 0.968414 0.853758
0.561761 0.967346 0.857450
0.598779 0.966308 0.861387
0.633539 0.965270 0.865568
0.666163 0.964263 0.869963
0.687495 0.963653 0.870939
0.689723 0.963775 0.864439
0.702785 0.963134 0.862303
0.721126 0.962188 0.862699
0.739345 0.961334 0.863218
0.757259 0.960510 0.863767
0.775387 0.959930 0.864530
0.800137 0.962860 0.867918
0.825101 0.965789 0.871183
0.850034 0.968566 0.874235
0.875059 0.971283 0.877287
0.900145 0.973938 0.880430
0.925170 0.976532 0.883574
0.949981 0.978912 0.886564
0.973968 0.980835 0.888548
0.196750 0.984314 0.849912
0.203098 0.984436 0.850248
0.215549 0.984436 0.850675
0.235721 0.984344 0.851133
0.262150 0.984039 0.851835
0.292576 0.983581 0.852659
0.326360 0.983001 0.853727
0.362676 0.982300 0.855070
0.400427 0.981537 0.856840
0.439277 0.980743 0.859098
0.477607 0.979889 0.861723
0.515099 0.979004 0.864683
0.551263 0.978027 0.867887
0.586267 0.977050 0.871366
0.619501 0.976013 0.875029
0.651209 0.974975 0.878843
0.681147 0.973968 0.882902
0.709529 0.973053 0.887144
0.718441 0.972839 0.884550
0.719936 0.972992 0.878782
0.734707 0.972076 0.878477
0.750271 0.971191 0.878599
0.765774 0.970306 0.878752
0.781247 0.969451 0.879026
0.797574 0.969055 0.879637
0.819852 0.971588 0.882383
0.842649 0.974182 0.885191
0.865629 0.976745 0.887999
0.888762 0.979217 0.890837
0.911833 0.981598 0.893584
0.934173 0.983551 0.895628
0.956298 0.985260 0.897246
0.307805 0.991485 0.861357
0.310246 0.991577 0.861601
0.317235 0.991577 0.861967
0.328649 0.991455 0.862486
0.344610 0.991211 0.863127
0.364599 0.990814 0.863920
0.388830 0.990265 0.864927
0.416022 0.989624 0.866300
0.445655 0.988952 0.868009
0.477363 0.988190 0.870146
0.509514 0.987396 0.872587
0.542107 0.986542 0.875395
0.574334 0.985626 0.878416
0.605859 0.984710 0.881773
0.636591 0.983734 0.885344
0.665980 0.982818 0.889128
0.694331 0.981872 0.893126
0.721279 0.981048 0.897307
0.743465 0.980407 0.900389
0.744900 0.980621 0.895781
0.750149 0.980591 0.892454
0.763912 0.979889 0.892638
0.777829 0.979217 0.892882
0.791806 0.978576 0.893248
0.801877 0.976837 0.891173
0.816953 0.976623 0.891875
0.837705 0.979034 0.894469
0.858824 0.981384 0.897032
0.879942 0.983673 0.899535
0.900633 0.985657 0.901488
0.921263 0.987488 0.903288
0.941588 0.989044 0.904601
0.390539 0.998962 0.873564
0.393103 0.999084 0.873930
0.397559 0.999084 0.874235
0.404761 0.998871 0.874571
0.414649 0.998535 0.874937
0.428290 0.998016 0.875456
0.444831 0.997406 0.876158
0.464790 0.996674 0.877134
0.487739 0.995850 0.878447
0.512902 0.994995 0.880156
0.539330 0.994079 0.882139
0.567132 0.993103 0.884520
0.595117 0.992126 0.887205
0.623072 0.991119 0.890135
0.650355 0.990051 0.893248
0.677180 0.988983 0.896635
0.703304 0.987976 0.900267
0.728786 0.987091 0.904173
0.753506 0.986297 0.908446
0.763058 0.986236 0.907591
0.764889 0.986633 0.903685
0.773922 0.986389 0.902586
0.786313 0.985809 0.902831
0.798703 0.985199 0.903014
0.810941 0.984527 0.903105
0.823209 0.983886 0.903258
0.837064 0.983886 0.903929
0.855436 0.985840 0.905760
0.873808 0.987640 0.907317
0.892424 0.989349 0.908812
0.911040 0.990967 0.910155
0.929534 0.992340 0.911131
0.436011 1.000000 0.880949
0.438087 1.000000 0.881254
0.442023 1.000000 0.881621
0.447944 1.000000 0.881987
0.456916 1.000000 0.882536
0.468910 1.000000 0.883268
0.483925 1.000000 0.884215
0.502159 1.000000 0.885466
0.522606 1.000000 0.887022
0.545129 1.000000 0.888945
0.569177 1.000000 0.891112
0.594202 0.999390 0.893584
0.619623 0.998474 0.896269
0.645106 0.997498 0.899199
0.670344 0.996460 0.902251
0.695186 0.995453 0.905577
0.719631 0.994446 0.909117
0.743496 0.993530 0.912932
0.767025 0.992706 0.917113
0.785397 0.992187 0.919921
0.787076 0.992523 0.916747
0.789792 0.992859 0.913787
0.800900 0.992401 0.914153
0.812009 0.991943 0.914458
0.823178 0.991485 0.914794
0.834012 0.990936 0.914885
0.844785 0.990356 0.914946
0.857176 0.990417 0.915435
0.873350 0.991943 0.916655
0.889586 0.993378 0.917754
0.905852 0.994659 0.918578
0.921965 0.995758 0.918975
0.480385 1.000000 0.888731
0.481819 1.000000 0.888914
0.484352 1.000000 0.889128
0.489296 1.000000 0.889464
0.496681 1.000000 0.889982
0.506767 1.000000 0.890684
0.519646 1.000000 0.891600
0.535149 1.000000 0.892821
0.552850 1.000000 0.894347
0.572686 1.000000 0.896178
0.594263 1.000000 0.898314
0.616968 1.000000 0.900725
0.640284 1.000000 0.903410
0.663905 1.000000 0.906340
0.687465 1.000000 0.909453
0.710872 1.000000 0.912718
0.734066 0.999725 0.916289
0.756954 0.998779 0.920104
0.779538 0.997894 0.924224
0.801663 0.997162 0.928679
0.806210 0.997345 0.927153
0.807645 0.997681 0.924315
0.813687 0.997528 0.923125
0.822995 0.997070 0.923186
0.832364 0.996551 0.923186
0.841733 0.996033 0.923125
0.851255 0.995514 0.923095
0.860868 0.994995 0.923064
0.872221 0.995087 0.923369
0.886503 0.996307 0.924102
0.900786 0.997375 0.924559
0.914916 0.998230 0.924529
0.519127 1.000000 0.894987
0.519615 1.000000 0.895079
0.520073 1.000000 0.895171
0.521324 1.000000 0.895293
0.528252 1.000000 0.895872
0.537804 1.000000 0.896757
0.550591 1.000000 0.898009
0.565881 1.000000 0.899657
0.583581 1.000000 0.901579
0.603174 1.000000 0.903899
0.624384 1.000000 0.906554
0.646601 1.000000 0.909422
0.669459 1.000000 0.912566
0.692500 1.000000 0.915892
0.715450 1.000000 0.919341
0.737942 1.000000 0.922911
0.759915 1.000000 0.926604
0.781552 1.000000 0.930449
0.802853 1.000000 0.934569
0.823667 1.000000 0.938933
0.833036 1.000000 0.939605
0.833799 1.000000 0.937163
0.835508 1.000000 0.934936
0.843015 1.000000 0.934874
0.850523 1.000000 0.934722
0.858091 1.000000 0.934508
0.865873 1.000000 0.934325
0.873777 1.000000 0.934081
0.881743 0.999725 0.933867
0.891234 0.999695 0.933776
0.902464 1.000000 0.933501
0.913451 1.000000 0.932647
0.570062 1.000000 0.903410
0.570123 1.000000 0.903410
0.570153 1.000000 0.903380
0.570153 1.000000 0.903319
0.570245 1.000000 0.903288
0.570489 1.000000 0.903227
0.580316 1.000000 0.904234
0.593286 1.000000 0.905577
0.608545 1.000000 0.907225
0.625513 1.000000 0.909239
0.644160 1.000000 0.911559
0.663966 1.000000 0.914153
0.684810 1.000000 0.917052
0.706050 1.000000 0.920165
