20 Preset/Ociden Style/【3】LUT video cho PR-AE-FCPX/Ocident style 5/Tone  (10).cube
# Created by Adobe Lightroom plugin Export LUT (1.24.0)
# www.johnrellis.com/lightroom/exportlut.htm
# Preset: Cvatik_Artemis_4
# Color profile: E:\lut插件\exportlut.1.24\exportlut.lrplugin\color profiles\Rec709gamma2.4.icc
LUT_3D_SIZE 5
DOMAIN_MIN 0.000000 0.000000 0.000000
DOMAIN_MAX 0.903226 0.903226 0.903226
0.000000 0.000000 0.000000
0.227115 0.000000 0.007660
0.557580 0.000000 0.001556
0.838285 0.106905 0.041566
0.970336 0.362371 0.157504
0.000000 0.254154 0.106142
0.240513 0.234409 0.163607
0.572900 0.200107 0.090517
0.833249 0.302403 0.127291
0.967041 0.435279 0.192142
0.281926 0.618524 0.377966
0.414099 0.622736 0.397528
0.580743 0.589075 0.495247
0.780941 0.611200 0.388708
0.935912 0.591485 0.337957
0.581537 0.814939 0.686305
0.612390 0.817441 0.697200
0.704585 0.829862 0.743893
0.725185 0.771878 0.737819
0.808896 0.784085 0.704005
0.741146 0.906523 0.846342
0.750637 0.907286 0.849271
0.776699 0.905119 0.852934
0.825803 0.906371 0.872526
0.827085 0.878813 0.868742
0.000000 0.042237 0.191745
0.224247 0.072511 0.201450
0.512169 0.201205 0.220584
0.794308 0.250278 0.236790
0.938384 0.375647 0.254124
0.000000 0.263035 0.261479
0.269322 0.277836 0.261601
0.547204 0.292638 0.255375
0.795743 0.340429 0.262089
0.934112 0.432776 0.280827
0.224460 0.592432 0.424842
0.370764 0.597528 0.434028
0.570153 0.577478 0.498665
0.778744 0.588891 0.405463
0.919615 0.598047 0.410254
0.563592 0.808408 0.692866
0.601221 0.810636 0.705257
0.698054 0.823362 0.748623
0.726955 0.774716 0.746426
0.813107 0.785336 0.710567
0.732876 0.905364 0.845548
0.746334 0.905364 0.850065
0.786526 0.909026 0.864591
0.833463 0.910918 0.881926
0.834592 0.885100 0.877379
0.000000 0.146395 0.541100
0.000000 0.181064 0.541894
0.558923 0.261509 0.532372
0.791470 0.401190 0.542870
0.880278 0.512261 0.536828
0.000000 0.351843 0.588525
0.176028 0.330968 0.581903
0.575494 0.375250 0.565576
0.775296 0.476905 0.562463
0.883330 0.539635 0.549187
0.126711 0.630488 0.664942
0.322240 0.630060 0.662043
0.585443 0.634607 0.655573
0.741848 0.638239 0.628992
0.874022 0.646021 0.611536
0.488167 0.786282 0.732540
0.518608 0.782895 0.728420
0.649042 0.796445 0.752560
0.739315 0.791470 0.781582
0.836606 0.787167 0.735775
0.680873 0.898863 0.838621
0.700343 0.899474 0.843717
0.763210 0.901823 0.862150
0.830167 0.910277 0.887266
0.835294 0.885557 0.881621
0.000000 0.295628 0.806363
0.000000 0.314977 0.807126
0.520378 0.372656 0.798459
0.748989 0.482948 0.778378
0.868803 0.616632 0.770321
0.000000 0.434943 0.811551
0.000000 0.416083 0.810513
0.525628 0.456275 0.798581
0.737179 0.532616 0.775692
0.859586 0.639490 0.772061
0.332403 0.661921 0.824765
0.407752 0.661738 0.821500
0.566949 0.656977 0.811917
0.719936 0.668818 0.789700
0.841062 0.721248 0.793393
0.527733 0.797787 0.845029
0.549432 0.797116 0.843107
0.631373 0.801266 0.841489
0.737453 0.806851 0.837125
0.829007 0.799924 0.815549
0.622553 0.893309 0.871183
0.635035 0.892973 0.870390
0.684779 0.893004 0.868620
0.797543 0.901762 0.886564
0.847166 0.895140 0.897765
0.142672 0.475410 0.916716
0.295109 0.487221 0.915160
0.525841 0.536492 0.909606
0.701259 0.605768 0.899199
0.829679 0.675044 0.888792
0.308354 0.551263 0.913390
0.360327 0.549645 0.912871
0.541100 0.584039 0.907774
0.701259 0.635767 0.898070
0.826627 0.692164 0.888365
0.491951 0.703487 0.910521
0.527276 0.708461 0.908995
0.592340 0.702419 0.906981
0.709071 0.721828 0.899413
0.823087 0.751369 0.891997
0.582727 0.812985 0.916655
0.598169 0.814267 0.916228
0.658137 0.820981 0.915190
0.740505 0.822538 0.910948
0.831662 0.830472 0.904479
0.673487 0.892607 0.924559
0.683406 0.893309 0.924529
0.724636 0.897246 0.925170
0.789334 0.903655 0.926055
0.862119 0.910643 0.926574
