20 Preset/Ociden Style/【3】LUT video cho PR-AE-FCPX/Ocident style 5/Tone  (8).cube
# Created by Adobe Lightroom plugin Export LUT (1.24.0)
# www.johnrellis.com/lightroom/exportlut.htm
# Preset: Cvatik_Artemis_2
# Color profile: E:\lut插件\exportlut.1.24\exportlut.lrplugin\color profiles\Rec709gamma2.4.icc
LUT_3D_SIZE 5
DOMAIN_MIN 0.000000 0.000000 0.000000
DOMAIN_MAX 0.903226 0.903226 0.903226
0.000000 0.000000 0.000000
0.643702 0.000000 0.000000
0.959503 0.000000 0.000000
1.000000 0.342962 0.276402
1.000000 0.517998 0.461158
0.000000 0.521874 0.242954
0.421149 0.444465 0.357092
0.898283 0.437354 0.224979
0.983307 0.491676 0.378668
0.992401 0.583886 0.520287
0.000000 0.803220 0.587976
0.389136 0.780026 0.620233
0.680385 0.747890 0.710109
0.873533 0.719570 0.589685
0.920348 0.725338 0.657313
0.388159 0.864378 0.734096
0.506096 0.857359 0.746120
0.669642 0.838102 0.767422
0.757748 0.828519 0.810697
0.840818 0.831724 0.783780
0.588037 0.890745 0.806912
0.631189 0.887480 0.814664
0.723049 0.878691 0.833768
0.771420 0.871702 0.843015
0.805417 0.869932 0.862516
0.103365 0.052216 0.327337
0.562097 0.122560 0.391028
0.893492 0.400519 0.475380
0.951324 0.545861 0.545586
0.967895 0.621271 0.605127
0.000000 0.475257 0.491402
0.494026 0.505547 0.498421
0.841520 0.548547 0.529351
0.928771 0.601831 0.574640
0.953185 0.653864 0.628717
0.000000 0.800717 0.658930
0.396765 0.785092 0.668238
0.683986 0.750820 0.725551
0.853880 0.734554 0.655421
0.903746 0.744717 0.700343
0.406744 0.864775 0.751522
0.514549 0.858213 0.760464
0.679774 0.839414 0.779812
0.759792 0.830106 0.815274
0.841367 0.831937 0.788022
0.579828 0.891661 0.809354
0.625299 0.888273 0.816770
0.723171 0.879637 0.836301
0.773617 0.872496 0.845762
0.806424 0.870695 0.863981
0.386389 0.258518 0.709957
0.607996 0.390082 0.724880
0.794675 0.610071 0.731991
0.873442 0.686671 0.737819
0.894652 0.738705 0.760403
0.415015 0.519249 0.712703
0.580224 0.579187 0.726955
0.762203 0.683589 0.749386
0.854307 0.719142 0.753536
0.884916 0.755123 0.770718
0.261173 0.750942 0.767178
0.473091 0.753231 0.765621
0.707454 0.770443 0.771206
0.814023 0.778408 0.778073
0.866117 0.788632 0.785855
0.458442 0.863188 0.806088
0.534325 0.858824 0.806821
0.686549 0.846281 0.810452
0.766384 0.835386 0.828611
0.838254 0.833341 0.807889
0.507958 0.896178 0.816159
0.575128 0.892454 0.822904
0.705898 0.882780 0.840452
0.776791 0.874357 0.852201
0.808255 0.871946 0.867033
0.571435 0.511131 0.822965
0.640131 0.562371 0.823239
0.773983 0.693538 0.828061
0.828977 0.746700 0.817777
0.859648 0.784390 0.819425
0.589410 0.624537 0.817136
0.641657 0.650324 0.818906
0.760586 0.730404 0.827909
0.817807 0.768978 0.823178
0.853147 0.795285 0.824613
0.532097 0.717891 0.806149
0.584833 0.728054 0.805142
0.725124 0.781216 0.824125
0.793790 0.812741 0.834684
0.838529 0.822354 0.837980
0.531212 0.830014 0.840909
0.576654 0.830533 0.840299
0.684718 0.833005 0.839261
0.776730 0.842100 0.843534
0.829252 0.846067 0.847257
0.409430 0.899992 0.850919
0.489662 0.896910 0.852140
0.656245 0.888060 0.856138
0.772702 0.878965 0.862730
0.811826 0.874510 0.872343
0.648432 0.632044 0.868711
0.676326 0.650050 0.867460
0.755795 0.710201 0.864561
0.822934 0.768704 0.864164
0.844358 0.803159 0.852537
0.653223 0.677913 0.864744
0.677638 0.690181 0.864134
0.750912 0.735134 0.862821
0.816434 0.784146 0.863706
0.839963 0.811490 0.854582
0.646387 0.752041 0.858701
0.667231 0.758053 0.858732
0.735134 0.783993 0.860075
0.802640 0.822354 0.864714
0.829068 0.835721 0.861875
0.558770 0.795438 0.863767
0.589624 0.798734 0.862425
0.677699 0.810758 0.858213
0.781643 0.841855 0.865599
0.821225 0.861723 0.871946
0.416602 0.867308 0.878477
0.489754 0.867643 0.877989
0.648432 0.869596 0.876860
0.758450 0.872557 0.876371
0.816037 0.877043 0.878050
