20 Preset/Ociden Style/【3】LUT video cho PR-AE-FCPX/Ocident style 5/Tone  (3).cube
# Created by Adobe Lightroom plugin Export LUT (1.24.0)
# www.johnrellis.com/lightroom/exportlut.htm
# Preset: Cvatik_Artemis_7
# Color profile: E:\lut插件\exportlut.1.24\exportlut.lrplugin\color profiles\Rec709gamma2.4.icc
LUT_3D_SIZE 5
DOMAIN_MIN 0.000000 0.000000 0.000000
DOMAIN_MAX 0.903226 0.903226 0.903226
0.000000 0.000000 0.000000
0.315648 0.015991 0.064637
0.805722 0.272068 0.017884
1.000000 0.566461 0.351293
1.000000 0.721309 0.587335
0.000000 0.411627 0.218418
0.000000 0.431525 0.204654
0.707240 0.549248 0.204227
0.974487 0.654597 0.384009
1.000000 0.763241 0.613031
0.000000 0.881224 0.679927
0.000000 0.874846 0.681819
0.483345 0.874540 0.701106
0.796292 0.893797 0.734218
0.992248 0.894804 0.750088
0.196750 0.984314 0.849912
0.362676 0.982300 0.855070
0.619501 0.976013 0.875029
0.750271 0.971191 0.878599
0.888762 0.979217 0.890837
0.599908 1.000000 0.907164
0.605432 1.000000 0.907561
0.728237 1.000000 0.923705
0.851408 1.000000 0.946166
0.880522 1.000000 0.938689
0.000000 0.140475 0.559167
0.360845 0.184604 0.606134
0.720577 0.467323 0.643702
0.911131 0.702998 0.748043
1.000000 0.790921 0.785977
0.000000 0.429053 0.578149
0.000000 0.461372 0.590021
0.616693 0.622919 0.678889
0.884245 0.736477 0.740749
1.000000 0.810880 0.786679
0.000000 0.877775 0.794400
0.000000 0.878111 0.797452
0.514122 0.875547 0.805936
0.769375 0.884916 0.813931
0.971160 0.899077 0.823239
0.188235 0.984588 0.879515
0.361089 0.982849 0.883055
0.619440 0.976837 0.895995
0.783474 0.971954 0.908202
0.895598 0.978546 0.914092
0.591302 1.000000 0.914122
0.595575 1.000000 0.914183
0.731960 1.000000 0.930999
0.877317 1.000000 0.958434
0.899565 1.000000 0.951202
0.253239 0.467842 0.939788
0.436713 0.502129 0.940978
0.708309 0.669062 0.941497
0.887785 0.814511 0.942901
0.972869 0.887907 0.941497
0.000000 0.607324 0.926848
0.293217 0.634272 0.928038
0.649775 0.732998 0.933165
0.867826 0.852415 0.943297
0.965881 0.906279 0.947112
0.000000 0.820737 0.923613
0.000000 0.825620 0.922454
0.478828 0.846067 0.920684
0.745693 0.879820 0.923735
0.944610 0.939910 0.953338
0.000000 0.972869 0.945159
0.201785 0.972808 0.945678
0.576654 0.974426 0.950347
0.815671 0.976715 0.959838
0.916258 0.976165 0.958434
0.553582 1.000000 0.939849
0.556664 1.000000 0.939513
0.697932 1.000000 0.947875
0.868589 1.000000 0.966979
0.942779 1.000000 0.977020
0.571466 0.720760 1.000000
0.606897 0.724849 1.000000
0.711147 0.773953 0.998047
0.839384 0.841001 0.992401
0.953155 0.908080 0.990356
0.578882 0.770199 0.998505
0.608087 0.778531 0.997620
0.706569 0.810880 0.994507
0.832792 0.861265 0.990387
0.948699 0.918090 0.989807
0.450294 0.839750 0.990234
0.496864 0.844144 0.989105
0.648951 0.868040 0.987274
0.810758 0.905760 0.985290
0.944549 0.948119 0.989868
0.471473 0.928923 0.989471
0.508721 0.930449 0.988952
0.633143 0.938506 0.988006
0.792477 0.954253 0.987366
0.935454 0.974548 0.989105
0.459632 1.000000 0.990051
0.460822 1.000000 0.989807
0.563317 1.000000 0.988647
0.838987 1.000000 0.987335
0.969726 1.000000 0.993713
0.635523 0.780850 1.000000
0.649653 0.781918 1.000000
0.702815 0.786435 1.000000
0.795010 0.826505 1.000000
0.893584 0.882444 1.000000
0.635615 0.780911 1.000000
0.650446 0.783749 1.000000
0.710780 0.807919 1.000000
0.800931 0.847410 1.000000
0.896574 0.895048 1.000000
0.652766 0.847654 1.000000
0.677119 0.855802 1.000000
0.747982 0.878752 1.000000
0.824643 0.900389 1.000000
0.915343 0.934813 0.999512
0.519127 0.883299 1.000000
0.548363 0.886748 1.000000
0.654383 0.901884 1.000000
0.839719 0.941527 1.000000
0.947845 0.973083 0.998718
0.432654 0.943145 1.000000
0.432868 0.943694 1.000000
0.490181 0.947875 1.000000
0.757626 0.967285 0.998230
0.964599 0.993042 0.998688
