20 Preset/Ociden Style/【3】LUT video cho PR-AE-FCPX/Ocident style 5/Tone  (4).cube
# Created by Adobe Lightroom plugin Export LUT (1.24.0)
# www.johnrellis.com/lightroom/exportlut.htm
# Preset: Cvatik_Artemis_8
# Color profile: E:\lut插件\exportlut.1.24\exportlut.lrplugin\color profiles\Rec709gamma2.4.icc
LUT_3D_SIZE 5
DOMAIN_MIN 0.000000 0.000000 0.000000
DOMAIN_MAX 0.903226 0.903226 0.903226
0.119600 0.091096 0.098848
0.358251 0.050416 0.092805
0.725338 0.203433 0.000000
0.939849 0.321874 0.143038
1.000000 0.419593 0.287449
0.172335 0.230503 0.184543
0.305669 0.299596 0.156283
0.701869 0.347997 0.144045
0.920897 0.408606 0.237369
1.000000 0.475990 0.346685
0.405798 0.584558 0.495857
0.411444 0.606928 0.494789
0.587976 0.646571 0.449287
0.855650 0.624048 0.459297
0.981140 0.627283 0.508232
0.617182 0.769955 0.715999
0.621271 0.777127 0.717952
0.628077 0.793301 0.695705
0.749538 0.801328 0.667842
0.903502 0.792538 0.685664
0.740780 0.865080 0.825467
0.746914 0.868589 0.828428
0.761929 0.877409 0.831540
0.772549 0.886503 0.806699
0.853941 0.890471 0.809567
0.216281 0.196506 0.259251
0.346197 0.090761 0.337163
0.693202 0.271733 0.347082
0.895506 0.424872 0.400610
1.000000 0.508171 0.456092
0.335454 0.344121 0.316350
0.370397 0.392645 0.358709
0.663508 0.414343 0.398993
0.880430 0.484504 0.434668
0.993957 0.546166 0.486427
0.528313 0.583154 0.552148
0.529229 0.606622 0.570886
0.575708 0.648737 0.540856
0.829770 0.643000 0.549554
0.957885 0.662409 0.588373
0.661463 0.769314 0.740261
0.663478 0.777157 0.744381
0.666712 0.796201 0.739284
0.747585 0.803342 0.702541
0.895995 0.799405 0.716121
0.752377 0.863462 0.832212
0.757717 0.867124 0.835233
0.774960 0.878569 0.842405
0.782895 0.887602 0.822812
0.854795 0.891936 0.821469
0.467659 0.553155 0.618006
0.465400 0.535485 0.643244
0.615259 0.394781 0.696345
0.843198 0.530541 0.666224
0.933410 0.657771 0.692805
0.567346 0.636378 0.632929
0.556451 0.632288 0.656977
0.598535 0.532708 0.700404
0.823362 0.583459 0.683314
0.923095 0.684565 0.709590
0.650782 0.707332 0.692378
0.660792 0.716915 0.703212
0.685145 0.739986 0.729183
0.774777 0.708675 0.731930
0.902678 0.743404 0.743618
0.722286 0.774441 0.767422
0.728664 0.780301 0.773831
0.753017 0.802457 0.797910
0.747677 0.812009 0.783658
0.879698 0.816709 0.788235
0.789517 0.853666 0.845548
0.793027 0.859007 0.849973
0.804501 0.874876 0.861936
0.811398 0.888029 0.860990
0.853513 0.892821 0.847379
0.648707 0.727077 0.784451
0.648188 0.724422 0.792935
0.653712 0.698970 0.815946
0.751308 0.612909 0.841154
0.902342 0.699031 0.825315
0.682338 0.753750 0.786893
0.683680 0.754604 0.796170
0.677974 0.732845 0.816831
0.746242 0.658473 0.839048
0.894804 0.716243 0.828244
0.748836 0.798672 0.793790
0.754665 0.803952 0.799496
0.754025 0.809995 0.824063
0.750759 0.765805 0.838773
0.877287 0.771511 0.839597
0.781827 0.828214 0.825406
0.785916 0.831846 0.829252
0.801328 0.845304 0.843473
0.816922 0.858762 0.857542
0.863828 0.839445 0.855009
0.810422 0.853208 0.851743
0.814237 0.856443 0.855131
0.829404 0.869352 0.868559
0.853086 0.889158 0.888975
0.855406 0.896239 0.881254
0.757595 0.819303 0.861814
0.758877 0.819577 0.865202
0.760342 0.814542 0.875700
0.776242 0.798947 0.891051
0.843595 0.762814 0.907256
0.766506 0.826383 0.860716
0.770596 0.829099 0.865293
0.771695 0.825650 0.875792
0.781979 0.809934 0.890257
0.842344 0.772549 0.906737
0.794888 0.845670 0.855924
0.797024 0.848112 0.860777
0.806180 0.855955 0.877043
0.805020 0.845029 0.889860
0.842771 0.813809 0.905760
0.819638 0.861051 0.859953
0.822751 0.863767 0.862760
0.835508 0.874540 0.873899
0.845365 0.885435 0.893431
0.851102 0.866911 0.905638
0.831449 0.871122 0.870359
0.834745 0.873869 0.873259
0.847471 0.884520 0.884215
0.864622 0.898619 0.898650
0.877195 0.908782 0.909026
