20 Preset/Ociden Style/【3】LUT video cho PR-AE-FCPX/Ocident style 5/Tone  (3).cube
# Created by Adobe Lightroom plugin Export LUT (1.24.0)
# www.johnrellis.com/lightroom/exportlut.htm
# Preset: Cvatik_Artemis_7
# Color profile: E:\lut插件\exportlut.1.24\exportlut.lrplugin\color profiles\Rec709gamma2.4.icc
LUT_3D_SIZE 8
DOMAIN_MIN 0.000000 0.000000 0.000000
DOMAIN_MAX 0.903226 0.903226 0.903226
0.000000 0.000000 0.000000
0.119600 0.022614 0.033722
0.393591 0.007477 0.065492
0.692409 0.174136 0.015595
0.887785 0.363684 0.124514
1.000000 0.534722 0.307378
1.000000 0.643000 0.465888
1.000000 0.721309 0.587335
0.000000 0.144106 0.097902
0.013001 0.156252 0.094057
0.340368 0.211582 0.030884
0.643824 0.275608 0.000000
0.854826 0.413336 0.133669
0.979065 0.548425 0.298344
1.000000 0.645380 0.449653
1.000000 0.722133 0.575006
0.000000 0.503105 0.282139
0.000000 0.510613 0.284459
0.000000 0.522881 0.267033
0.503746 0.575708 0.277989
0.783108 0.643549 0.308476
0.931456 0.665797 0.353674
1.000000 0.726009 0.504753
1.000000 0.773892 0.615167
0.000000 0.809934 0.584894
0.000000 0.808560 0.584100
0.000000 0.808988 0.594598
0.352514 0.814389 0.598291
0.622736 0.827329 0.622980
0.835660 0.863828 0.678340
0.945800 0.852903 0.669001
1.000000 0.846983 0.675685
0.000000 0.922972 0.744961
0.000000 0.921782 0.746456
0.000000 0.918975 0.756039
0.429572 0.916167 0.776883
0.574121 0.911467 0.768643
0.702693 0.909270 0.773098
0.851560 0.929198 0.799619
0.962890 0.935027 0.816342
0.000000 0.973663 0.831724
0.000000 0.974517 0.835966
0.336797 0.972107 0.842008
0.522240 0.968414 0.853758
0.666163 0.964263 0.869963
0.721126 0.962188 0.862699
0.800137 0.962860 0.867918
0.900145 0.973938 0.880430
0.436011 1.000000 0.880949
0.456916 1.000000 0.882536
0.522606 1.000000 0.887022
0.619623 0.998474 0.896269
0.719631 0.994446 0.909117
0.787076 0.992523 0.916747
0.823178 0.991485 0.914794
0.873350 0.991943 0.916655
0.599908 1.000000 0.907164
0.600153 1.000000 0.907103
0.620264 1.000000 0.909331
0.695125 1.000000 0.919707
0.771725 1.000000 0.931518
0.850919 1.000000 0.948150
0.859556 1.000000 0.941955
0.880522 1.000000 0.938689
0.000000 0.055390 0.224002
0.134585 0.050019 0.232853
0.358801 0.128725 0.251347
0.635767 0.270420 0.345647
0.842130 0.420081 0.402472
0.957275 0.561761 0.486580
1.000000 0.659907 0.571344
1.000000 0.732387 0.647669
0.000000 0.162905 0.241550
0.000000 0.182376 0.251713
0.302953 0.251865 0.291630
0.607782 0.336156 0.344915
0.822843 0.462501 0.401770
0.943236 0.580377 0.481910
1.000000 0.666621 0.563317
1.000000 0.734798 0.639918
0.000000 0.504082 0.422126
0.000000 0.517723 0.429877
0.000000 0.546136 0.438056
0.471290 0.575311 0.441047
0.745968 0.629023 0.445258
0.897581 0.668696 0.489448
0.984619 0.726925 0.581445
1.000000 0.776516 0.659937
0.000000 0.794797 0.631708
0.000000 0.794675 0.631067
0.000000 0.798001 0.637110
0.390387 0.801053 0.658808
0.587274 0.799832 0.643153
0.804807 0.846860 0.696315
0.922423 0.839292 0.681300
1.000000 0.838346 0.687434
0.000000 0.920592 0.765927
0.000000 0.919005 0.766140
0.000000 0.915404 0.771359
0.398962 0.911162 0.784939
0.570794 0.906188 0.780697
0.689540 0.900145 0.779782
0.840421 0.923735 0.808164
0.954101 0.931609 0.823392
0.000000 0.971191 0.837430
0.000000 0.970703 0.838865
0.294255 0.968566 0.844358
0.502312 0.965393 0.855497
0.654444 0.961852 0.870909
0.723629 0.960601 0.869017
0.797421 0.960052 0.872099
0.896849 0.971954 0.884367
0.415717 1.000000 0.882048
0.432776 1.000000 0.882536
0.502220 0.999695 0.886564
0.604883 0.996704 0.895628
0.710811 0.993194 0.908812
0.791928 0.990753 0.920378
0.821347 0.989837 0.915648
0.869902 0.990082 0.916655
0.591913 1.000000 0.907622
0.593286 1.000000 0.907805
0.613214 1.000000 0.909880
0.688930 1.000000 0.919829
0.775296 1.000000 0.934051
0.856107 1.000000 0.950835
0.864439 1.000000 0.944823
0.884428 1.000000 0.941527
0.000000 0.177584 0.666407
0.000000 0.174289 0.678523
0.438605 0.258183 0.706630
0.668635 0.435859 0.724300
0.791287 0.595361 0.746334
0.888548 0.720546 0.793973
0.948455 0.783902 0.820401
1.000000 0.818235 0.831449
0.000000 0.277775 0.647608
0.000000 0.288914 0.658198
0.319158 0.355779 0.690669
0.623285 0.502861 0.725216
0.762112 0.624659 0.748775
0.872618 0.729793 0.793149
0.941619 0.782956 0.813962
1.000000 0.817350 0.825986
0.000000 0.515953 0.671992
0.000000 0.522423 0.673610
0.000000 0.547265 0.680354
0.401068 0.598413 0.699550
0.691279 0.719875 0.767971
0.833066 0.771786 0.797086
0.927367 0.805539 0.810605
0.998047 0.835233 0.825895
0.000000 0.761471 0.750423
0.000000 0.765896 0.754665
0.000000 0.782712 0.766079
0.325505 0.817746 0.795377
0.628626 0.833005 0.809262
0.780392 0.853666 0.818173
0.896696 0.848295 0.800504
0.981750 0.867704 0.822904
0.000000 0.925292 0.848905
0.000000 0.925231 0.850004
0.000000 0.923613 0.852110
0.407050 0.921050 0.856107
0.626307 0.917815 0.861723
0.725277 0.910460 0.855680
0.839384 0.926543 0.869444
0.945495 0.936248 0.876402
0.000000 0.972961 0.877897
0.000000 0.972564 0.878782
0.298863 0.970428 0.881346
0.502983 0.967102 0.886870
0.654810 0.963653 0.895659
0.771695 0.962036 0.908751
0.816770 0.960632 0.902953
0.904051 0.972656 0.913848
0.417578 1.000000 0.902037
0.435492 1.000000 0.902403
0.503716 1.000000 0.904936
0.605615 0.997436 0.911192
0.711635 0.993805 0.921080
0.807248 0.990967 0.934600
0.848600 0.990661 0.935668
0.887480 0.990417 0.935607
0.583642 1.000000 0.915618
0.583520 1.000000 0.915435
0.602014 1.000000 0.916930
0.682856 1.000000 0.926085
0.772274 1.000000 0.938842
0.856474 1.000000 0.954589
0.887053 1.000000 0.956817
0.902800 1.000000 0.953552
0.000000 0.363897 0.891722
0.165560 0.369909 0.895354
0.439826 0.432563 0.898314
0.642512 0.560143 0.903105
0.794461 0.701350 0.909239
0.872709 0.763516 0.907805
0.928374 0.834165 0.908904
0.977539 0.872404 0.916777
0.000000 0.433173 0.889921
0.000000 0.446418 0.890867
0.383307 0.499123 0.893553
0.613642 0.601404 0.900267
0.777798 0.722530 0.908598
0.866606 0.781949 0.910948
0.922759 0.842252 0.910857
0.974365 0.876890 0.918212
0.000000 0.578576 0.861326
0.000000 0.583551 0.861387
0.000000 0.608881 0.868009
0.484382 0.677028 0.883024
0.707973 0.767239 0.899596
0.841550 0.842008 0.917967
0.910643 0.878355 0.923674
0.967102 0.898283 0.927214
0.000000 0.758816 0.883055
0.000000 0.759884 0.882261
0.000000 0.767697 0.880888
0.310826 0.785092 0.880125
0.564172 0.807492 0.880095
0.765530 0.862394 0.904631
0.883482 0.905516 0.926238
0.950072 0.914366 0.927581
0.000000 0.888457 0.901091
0.000000 0.888426 0.900908
0.000000 0.890562 0.902159
0.358373 0.897642 0.905882
0.596490 0.907897 0.910948
0.749630 0.920623 0.919463
0.844511 0.928313 0.923156
0.936919 0.937163 0.922667
0.000000 0.971801 0.927947
0.000000 0.972686 0.929534
0.281804 0.971313 0.930144
0.505516 0.970275 0.933104
0.672175 0.970245 0.938872
0.785855 0.968566 0.942382
0.865904 0.968292 0.946624
0.917266 0.973816 0.946746
0.402228 1.000000 0.933776
0.425605 1.000000 0.934234
0.503471 1.000000 0.935760
0.611505 1.000000 0.939025
0.720150 0.996216 0.944305
0.815610 0.992981 0.952148
0.887510 0.991272 0.961089
0.915190 0.991699 0.959136
0.571283 1.000000 0.931151
0.571710 1.000000 0.931060
0.576959 1.000000 0.930846
0.666926 1.000000 0.937652
0.765103 1.000000 0.947906
0.854948 1.000000 0.960998
0.922301 1.000000 0.973938
0.931182 1.000000 0.970397
0.393317 0.561761 0.968200
0.428260 0.566430 0.968811
0.520317 0.599115 0.967590
0.639307 0.665827 0.965728
0.756741 0.741543 0.963989
0.854643 0.811215 0.962402
0.924956 0.860075 0.963714
0.965301 0.889006 0.958801
0.393683 0.600092 0.966522
0.422431 0.609674 0.966766
0.509575 0.639246 0.965484
0.629236 0.691981 0.964019
0.748287 0.756619 0.962737
0.848447 0.820157 0.961822
0.921965 0.868162 0.963958
0.963195 0.893919 0.959594
0.281559 0.689906 0.957977
0.324254 0.695521 0.958038
0.444770 0.716182 0.957397
0.583093 0.751217 0.956756
0.712245 0.795315 0.956664
0.820706 0.843412 0.957610
0.911498 0.893095 0.964141
0.955016 0.909422 0.961456
0.000000 0.772213 0.949310
0.000000 0.774350 0.948821
0.224796 0.784207 0.947387
0.434943 0.800290 0.945006
0.632776 0.833341 0.947662
0.777462 0.874418 0.953185
0.889586 0.915190 0.963226
0.948943 0.934295 0.965850
0.000000 0.865812 0.951171
0.000000 0.867002 0.951110
0.245121 0.871153 0.950500
0.447913 0.878874 0.949493
0.594934 0.888945 0.948150
0.714778 0.901213 0.947173
0.838956 0.924041 0.953735
0.941497 0.955474 0.968261
0.000000 0.935088 0.953521
0.000000 0.935424 0.953613
0.294774 0.935912 0.953002
0.461677 0.938293 0.952728
0.613611 0.944488 0.954345
0.747799 0.953582 0.958587
0.855894 0.964721 0.964416
0.930541 0.973571 0.969482
0.264622 1.000000 0.965759
0.296483 1.000000 0.965362
0.402472 1.000000 0.964233
0.550134 0.999084 0.964477
0.693202 0.996185 0.966796
0.812741 0.993957 0.971344
0.889830 0.992035 0.974609
0.943328 0.992157 0.978576
0.537041 1.000000 0.951385
0.537438 1.000000 0.951202
0.539849 1.000000 0.950530
0.610193 1.000000 0.952728
0.736019 1.000000 0.959411
0.842893 1.000000 0.968780
0.919615 1.000000 0.978882
0.958282 1.000000 0.984741
0.553307 0.703883 0.999390
0.565759 0.705928 0.999512
0.607233 0.716030 0.998535
0.673426 0.748653 0.996033
0.750027 0.787625 0.992554
0.827970 0.829831 0.989227
0.899687 0.871855 0.987121
0.961089 0.909850 0.987945
0.551537 0.711818 0.997345
0.561578 0.715511 0.997009
0.600610 0.730343 0.995636
0.665431 0.757534 0.993378
0.743435 0.793637 0.990570
0.822965 0.834012 0.987854
0.895903 0.874479 0.986206
0.959106 0.912200 0.987396
0.556054 0.777493 0.993469
0.567224 0.780667 0.993103
0.603723 0.790036 0.992218
0.661219 0.804685 0.989929
0.737209 0.829679 0.987945
0.816403 0.860166 0.986236
0.890379 0.892882 0.985687
0.956695 0.926757 0.987640
0.477058 0.819333 0.989288
0.490059 0.821103 0.988861
0.544427 0.830594 0.987945
0.634058 0.849638 0.987366
0.733425 0.875669 0.986206
0.812192 0.896544 0.985412
0.886778 0.919860 0.985962
0.954681 0.945769 0.988678
0.414252 0.867674 0.984894
0.428748 0.868772 0.984680
0.483070 0.873533 0.983978
0.566461 0.882658 0.983001
0.657588 0.894224 0.981506
0.764675 0.911955 0.980987
0.870634 0.936553 0.983703
0.950378 0.959594 0.987823
0.422675 0.919158 0.983459
0.440223 0.920256 0.983673
0.491005 0.922606 0.983276
0.569696 0.927153 0.982666
0.660853 0.933989 0.981872
0.760159 0.944579 0.981994
0.849699 0.956207 0.982635
0.940642 0.972686 0.986603
0.426398 0.970367 0.986053
0.441993 0.970825 0.986145
0.492531 0.971984 0.985901
0.575067 0.974395 0.985473
0.675288 0.978241 0.984955
0.785794 0.982879 0.985290
0.877317 0.987091 0.986847
0.951080 0.993317 0.990539
0.465034 1.000000 0.986114
0.465675 1.000000 0.985626
0.472419 1.000000 0.983825
0.500389 1.000000 0.980377
0.663966 1.000000 0.978515
0.819242 1.000000 0.982513
0.917082 1.000000 0.987396
0.968505 1.000000 0.992187
0.628626 0.772885 1.000000
0.635309 0.774258 1.000000
0.657038 0.775479 1.000000
0.698390 0.787533 1.000000
0.753079 0.812802 1.000000
0.813565 0.841855 1.000000
0.873472 0.872007 1.000000
0.928130 0.901762 0.997833
0.625391 0.768521 1.000000
0.632471 0.770291 1.000000
0.655055 0.777310 1.000000
0.695735 0.793668 1.000000
0.749447 0.816373 1.000000
0.808804 0.842649 1.000000
0.868284 0.870695 0.999268
0.923522 0.899260 0.996704
0.643824 0.811643 1.000000
0.649042 0.813077 1.000000
0.668421 0.818265 1.000000
0.705470 0.829404 1.000000
0.754757 0.845182 1.000000
0.812070 0.865873 1.000000
0.871824 0.890593 0.998810
0.927245 0.916289 0.997101
0.637598 0.849210 1.000000
0.643671 0.850553 1.000000
0.670497 0.857511 1.000000
0.722225 0.873289 1.000000
0.770474 0.885557 1.000000
0.824521 0.900664 0.999817
0.880797 0.918883 0.998322
0.932555 0.937377 0.997162
0.565545 0.873381 1.000000
0.571374 0.873655 1.000000
0.602777 0.877409 1.000000
0.662684 0.886717 1.000000
0.741024 0.902770 0.999847
0.824186 0.924437 0.998077
0.883207 0.939422 0.997192
0.939330 0.956298 0.997253
0.538384 0.907195 1.000000
0.546502 0.908019 1.000000
0.577447 0.911009 1.000000
0.631922 0.916899 1.000000
0.703487 0.925933 0.999420
0.789120 0.940063 0.998627
0.880339 0.958160 0.997925
0.949859 0.974456 0.997925
0.521935 0.944305 0.999878
0.531487 0.944915 0.999878
0.565606 0.946899 0.999634
0.626581 0.951049 0.999176
0.705501 0.957458 0.998535
0.792752 0.966155 0.997803
0.876158 0.976287 0.997467
0.947356 0.986542 0.997772
0.462898 0.982971 0.996887
0.463233 0.983246 0.996857
0.464515 0.984558 0.996735
0.502525 0.987152 0.996429
0.631922 0.991150 0.995972
0.763394 0.996429 0.995758
0.892790 1.000000 0.996612
0.969299 1.000000 0.998352
0.635523 0.780850 1.000000
0.639307 0.781155 1.000000
0.654810 0.782315 1.000000
0.683742 0.784726 1.000000
0.724727 0.788937 1.000000
0.780514 0.818662 1.000000
0.838315 0.850614 1.000000
0.893584 0.882444 1.000000
0.635767 0.780911 1.000000
0.639551 0.781186 1.000000
0.654902 0.782345 1.000000
0.683650 0.784695 1.000000
0.727382 0.797421 1.000000
0.782040 0.824826 1.000000
0.838834 0.854490 1.000000
0.893614 0.884733 1.000000
0.640162 0.789731 1.000000
0.644312 0.791226 1.000000
0.661646 0.797330 1.000000
0.694148 0.809628 1.000000
0.738186 0.826871 1.000000
0.789487 0.847959 1.000000
0.844022 0.872465 1.000000
0.897459 0.898741 1.000000
0.670680 0.840848 1.000000
0.674678 0.842008 1.000000
0.689509 0.845914 1.000000
0.718318 0.854246 1.000000
0.758053 0.866239 1.000000
0.805203 0.881621 1.000000
0.856504 0.900511 1.000000
0.907836 0.922271 1.000000
0.621607 0.854215 1.000000
0.628748 0.855833 1.000000
0.655299 0.861814 1.000000
0.709163 0.877562 1.000000
0.779873 0.901518 1.000000
0.825956 0.914031 1.000000
0.875547 0.929412 1.000000
0.923125 0.946319 0.999115
0.531456 0.876432 1.000000
0.538354 0.877287 1.000000
0.568505 0.880949 1.000000
0.631067 0.889067 1.000000
0.716915 0.903868 1.000000
0.825406 0.933104 1.000000
0.906340 0.958862 0.999359
0.943267 0.968658 0.998718
0.449226 0.903349 1.000000
0.460151 0.904143 1.000000
0.503136 0.907561 1.000000
0.576226 0.914519 1.000000
0.668727 0.925628 1.000000
0.770596 0.941436 1.000000
0.873533 0.962036 0.999176
0.961242 0.984649 0.998932
0.432654 0.943145 1.000000
0.432807 0.943297 1.000000
0.433082 0.943877 1.000000
0.433753 0.945129 1.000000
0.569390 0.952239 0.999573
0.720058 0.963714 0.998474
0.862760 0.978943 0.997864
0.964599 0.993042 0.998688
