20 Preset/Ociden Style/【3】LUT video cho PR-AE-FCPX/Ocident style 5/Tone  (10).cube
# Created by Adobe Lightroom plugin Export LUT (1.24.0)
# www.johnrellis.com/lightroom/exportlut.htm
# Preset: Cvatik_Artemis_4
# Color profile: E:\lut插件\exportlut.1.24\exportlut.lrplugin\color profiles\Rec709gamma2.4.icc
LUT_3D_SIZE 32
DOMAIN_MIN 0.0 0.0 0.0
DOMAIN_MAX 1.0 1.0 1.0
0.000000 0.000000 0.000000
0.000000 0.000000 0.000000
0.014160 0.000610 0.000763
0.047059 0.003571 0.001984
0.094392 0.011902 0.004120
0.128847 0.020325 0.006195
0.174777 0.016358 0.007446
0.227115 0.000000 0.007660
0.278752 0.000000 0.008209
0.328588 0.000000 0.008362
0.376562 0.000000 0.006897
0.423285 0.000000 0.005432
0.468696 0.000000 0.004181
0.513542 0.000000 0.002258
0.557580 0.000000 0.001556
0.601312 0.000000 0.002350
0.644434 0.000000 0.002991
0.685847 0.000000 0.003388
0.723873 0.000000 0.006378
0.758602 0.000000 0.012818
0.799741 0.000000 0.023804
0.838285 0.106905 0.041566
0.867063 0.176791 0.065431
0.890257 0.222660 0.088533
0.909514 0.258091 0.101289
0.926268 0.287968 0.114656
0.941497 0.314733 0.127962
0.956085 0.339178 0.141695
0.970336 0.362371 0.157504
0.984649 0.384863 0.174563
0.999145 0.406867 0.193881
1.000000 0.428077 0.214786
0.000000 0.001190 0.000977
0.000000 0.001190 0.000977
0.014435 0.002808 0.001587
0.046906 0.006958 0.001526
0.094331 0.015290 0.003662
0.127413 0.024384 0.005768
0.171969 0.019593 0.007385
0.222934 0.000000 0.007813
0.273716 0.000000 0.007202
0.322667 0.000000 0.007630
0.369909 0.000000 0.007599
0.415991 0.000000 0.005615
0.461341 0.000000 0.003784
0.505852 0.000000 0.002167
0.549645 0.000000 0.001099
0.593103 0.000000 0.000427
0.636378 0.000000 0.001770
0.678157 0.000000 0.002472
0.716945 0.000000 0.004578
0.752102 0.000000 0.009308
0.792447 0.000000 0.019562
0.830106 0.081300 0.036439
0.858701 0.161196 0.057557
0.881865 0.208377 0.081147
0.901396 0.244236 0.095247
0.918456 0.274968 0.108217
0.934203 0.302617 0.121340
0.949340 0.327916 0.135103
0.964111 0.352117 0.150546
0.978882 0.375555 0.167544
0.993896 0.398322 0.186679
1.000000 0.420600 0.207614
0.000000 0.017884 0.003235
0.001312 0.019837 0.004059
0.014618 0.018280 0.006256
0.046540 0.027039 0.004456
0.096712 0.033509 0.004425
0.130587 0.040711 0.005524
0.174960 0.035248 0.007111
0.224582 0.013581 0.006744
0.273838 0.000000 0.007324
0.321691 0.000000 0.006531
0.368200 0.000000 0.005432
0.413489 0.000000 0.004700
0.457984 0.000000 0.002838
0.501823 0.000000 0.000549
0.545190 0.000000 0.000732
0.588464 0.000000 0.000000
0.631525 0.000000 0.000000
0.673548 0.000000 0.000671
0.712490 0.000000 0.003418
0.748013 0.000000 0.007843
0.789120 0.000000 0.016175
0.825925 0.091920 0.030488
0.854398 0.161379 0.050172
0.877501 0.206973 0.075380
0.897002 0.242191 0.091859
0.914122 0.271855 0.104097
0.930114 0.299199 0.117250
0.945464 0.324743 0.131380
0.960601 0.348852 0.146609
0.975616 0.372625 0.163760
0.990723 0.395636 0.182620
1.000000 0.417853 0.203647
0.007050 0.054719 0.011597
0.010315 0.055482 0.011444
0.027466 0.056855 0.013184
0.048798 0.055360 0.019745
0.090883 0.074006 0.019562
0.138888 0.077577 0.009918
0.184451 0.064637 0.008606
0.231724 0.047120 0.007630
0.279271 0.016327 0.005768
0.325292 0.000000 0.003754
0.370153 0.000000 0.001587
0.414405 0.000000 0.000763
0.457679 0.000000 0.000000
0.500450 0.000000 0.000000
0.542535 0.000000 0.000000
0.584619 0.000000 0.000000
0.626642 0.000000 0.000000
0.667384 0.000000 0.000000
0.705928 0.000000 0.000000
0.741024 0.000000 0.006653
0.781796 0.000000 0.018341
0.816861 0.105653 0.036255
0.845182 0.165347 0.055634
0.869291 0.207828 0.078614
0.890135 0.242557 0.091585
0.908904 0.273075 0.102022
0.926268 0.301183 0.113710
0.942657 0.327276 0.128206
0.958373 0.352056 0.144869
0.973724 0.375525 0.161807
0.988769 0.397620 0.180484
1.000000 0.418647 0.200900
0.015076 0.099428 0.022034
0.018616 0.100374 0.022705
0.041718 0.100587 0.024414
0.080659 0.101961 0.028687
0.096834 0.097139 0.044648
0.117586 0.106355 0.046113
0.181155 0.111879 0.022156
0.238560 0.098787 0.010468
0.283909 0.082033 0.007752
0.327825 0.047761 0.005829
0.370611 0.004181 0.003815
0.413519 0.000000 0.001801
0.455909 0.000000 0.000000
0.497902 0.000000 0.000000
0.539513 0.000000 0.001007
0.581781 0.000000 0.003296
0.623743 0.000000 0.007355
0.664912 0.000000 0.010346
0.703365 0.000000 0.015961
0.739773 0.000000 0.024323
0.779995 0.075532 0.037568
0.813443 0.144808 0.054963
0.841215 0.188724 0.074739
0.865324 0.224979 0.090181
0.886564 0.256443 0.099672
0.905699 0.284642 0.108156
0.923430 0.310582 0.117830
0.940124 0.334813 0.126680
0.955901 0.358190 0.142153
0.971099 0.380529 0.159640
0.986175 0.401556 0.178408
1.000000 0.421912 0.198337
0.000000 0.140505 0.034150
0.001953 0.141238 0.034638
0.021485 0.142580 0.035615
0.079377 0.145205 0.040558
0.116030 0.143496 0.056672
0.133791 0.134157 0.086671
0.149325 0.139956 0.093996
0.219883 0.152407 0.053101
0.290227 0.140749 0.017578
0.337377 0.116426 0.009033
0.379339 0.101472 0.007874
0.420569 0.085878 0.008881
0.461646 0.051270 0.009308
0.502708 0.017029 0.012116
0.543908 0.000000 0.017762
0.585595 0.000000 0.020966
0.627344 0.000000 0.027558
0.668055 0.000000 0.033814
0.705898 0.035431 0.040620
0.745388 0.109255 0.052796
0.783078 0.154726 0.069551
0.815000 0.192447 0.084657
0.885161 0.293492 0.118044
0.905699 0.320989 0.129458
0.923308 0.344244 0.139956
0.939147 0.364782 0.149905
0.953613 0.383551 0.159976
0.967529 0.400488 0.169192
0.981109 0.416724 0.178958
0.994385 0.432380 0.192569
1.000000 0.447852 0.211643
1.000000 0.462623 0.231449
0.000000 0.206210 0.070832
0.000000 0.206485 0.071473
0.000000 0.207797 0.073701
0.084657 0.209842 0.082399
0.135012 0.213169 0.091981
0.176608 0.204532 0.108797
0.193881 0.191196 0.128115
0.198367 0.188144 0.142367
0.270512 0.208316 0.113466
0.343297 0.202243 0.085725
0.405066 0.181033 0.046021
0.451362 0.155306 0.031250
0.491493 0.148714 0.037812
0.531426 0.143740 0.046143
0.571588 0.140505 0.053742
0.611292 0.140169 0.061585
0.650874 0.143984 0.068513
0.688563 0.153292 0.075837
0.725063 0.169863 0.083192
0.769131 0.202792 0.093538
0.807065 0.236301 0.101778
0.839689 0.269596 0.112459
0.867643 0.300877 0.123903
0.891752 0.329351 0.135164
0.912444 0.354070 0.146426
0.930022 0.375036 0.156893
0.945495 0.392584 0.166049
0.959777 0.408484 0.174533
0.973602 0.423560 0.183749
0.987213 0.437354 0.192294
1.000000 0.451118 0.204349
1.000000 0.465309 0.224125
0.000000 0.254154 0.106142
0.000000 0.254124 0.106416
0.011810 0.254948 0.109010
0.097505 0.256687 0.111788
0.147860 0.259556 0.119448
0.193362 0.262791 0.129824
0.227176 0.248692 0.146304
0.240513 0.234409 0.163607
0.235080 0.224247 0.182406
0.301152 0.250248 0.156527
0.372168 0.252720 0.131624
0.439857 0.240696 0.107637
0.490669 0.219730 0.092897
0.534081 0.201419 0.085420
0.572900 0.200107 0.090517
0.611414 0.200748 0.093385
0.649714 0.203647 0.096315
0.686244 0.210636 0.099123
0.729274 0.229679 0.105074
0.767941 0.251865 0.111238
0.802426 0.276493 0.118807
0.833249 0.302403 0.127291
0.860258 0.327825 0.136995
0.883970 0.351934 0.147280
0.904662 0.373449 0.157351
0.922454 0.391608 0.166995
0.938262 0.407385 0.175418
0.952911 0.421485 0.183230
0.967041 0.435279 0.192142
0.980896 0.448035 0.200381
0.994781 0.460365 0.209049
1.000000 0.472633 0.220157
0.019013 0.301061 0.139559
0.035126 0.301244 0.140108
0.091615 0.301549 0.142031
0.124819 0.303105 0.144320
0.166995 0.305394 0.150332
0.208957 0.308537 0.158572
0.249332 0.307134 0.169924
0.276341 0.292332 0.184726
0.286198 0.277562 0.199985
0.280461 0.265995 0.216556
0.332494 0.290105 0.198886
0.400061 0.300237 0.175967
0.467140 0.296300 0.152438
0.529473 0.283879 0.130739
0.574884 0.265537 0.119051
0.615961 0.255009 0.113222
0.652949 0.257786 0.115724
0.695338 0.269932 0.120729
0.734066 0.284337 0.125338
0.768856 0.300908 0.130953
0.800595 0.319921 0.136782
0.829343 0.340093 0.144717
0.855222 0.360510 0.153231
0.878233 0.380316 0.162814
0.898589 0.398230 0.172274
0.916320 0.413642 0.180758
0.932311 0.427222 0.188663
0.947173 0.439551 0.196384
0.961517 0.451606 0.204349
0.975586 0.462867 0.212436
0.989563 0.474098 0.220554
1.000000 0.484871 0.228733
0.109224 0.347509 0.173495
0.113527 0.347387 0.173831
0.131624 0.347356 0.175143
0.154086 0.348577 0.176394
0.188510 0.350011 0.181308
0.225681 0.352392 0.187625
0.265171 0.355962 0.196628
0.300633 0.349584 0.208499
0.321996 0.334112 0.221530
0.328862 0.318791 0.234836
0.321874 0.305211 0.249119
0.360540 0.325261 0.237858
0.424659 0.340734 0.215518
0.490455 0.344030 0.193179
0.556512 0.339910 0.170199
0.611902 0.330114 0.152468
0.662989 0.323217 0.142947
0.704646 0.326299 0.141512
0.739681 0.337896 0.146487
0.771450 0.350591 0.151583
0.800320 0.364569 0.156985
0.826200 0.378698 0.163760
0.849546 0.393103 0.170352
0.870695 0.407294 0.178103
0.889830 0.420661 0.185092
0.907225 0.432654 0.192111
0.923339 0.444343 0.199893
0.938720 0.455360 0.207004
0.953643 0.466346 0.215061
0.968414 0.477211 0.223453
0.983062 0.487800 0.232059
0.997620 0.498207 0.240696
0.146822 0.389624 0.204135
0.149844 0.389746 0.204471
0.161868 0.390112 0.205539
0.185245 0.390845 0.208652
0.209628 0.393072 0.210758
0.243412 0.396155 0.216953
0.281102 0.400061 0.225010
0.319982 0.405402 0.235477
0.349706 0.393133 0.247074
0.367132 0.377081 0.259373
0.371588 0.360754 0.271397
0.363561 0.345708 0.283757
0.389715 0.360052 0.278050
0.452522 0.380835 0.255497
0.523613 0.394720 0.236057
0.593622 0.401648 0.215244
0.658503 0.403021 0.192508
0.702235 0.397436 0.180423
0.740932 0.390478 0.170352
0.771450 0.396124 0.171664
0.798154 0.405951 0.176974
0.822446 0.416541 0.182925
0.844877 0.427466 0.189364
0.865476 0.438483 0.196048
0.884306 0.449104 0.203281
0.901610 0.458900 0.209873
0.917754 0.468299 0.216831
0.933257 0.477516 0.223972
0.948363 0.486824 0.231510
0.963256 0.496376 0.239567
0.978149 0.505730 0.248142
0.992828 0.515068 0.256840
0.178073 0.437934 0.237400
0.179507 0.438056 0.237766
0.190982 0.438453 0.238895
0.209293 0.439429 0.241337
0.230198 0.441627 0.242863
0.262333 0.444892 0.248447
0.298222 0.449317 0.256199
0.336370 0.455238 0.265965
0.374853 0.458747 0.277958
0.400000 0.442206 0.289067
0.413947 0.424262 0.300359
0.416876 0.407141 0.311925
0.441413 0.425116 0.356512
0.462715 0.439277 0.360479
0.535454 0.472999 0.338567
0.606256 0.493538 0.316106
0.668940 0.503624 0.292699
0.723262 0.507103 0.269230
0.767483 0.504601 0.248814
0.799252 0.497963 0.238560
0.827878 0.490608 0.229038
0.848234 0.494697 0.234348
0.866758 0.499702 0.240604
0.884031 0.504967 0.246983
0.900053 0.509972 0.252720
0.915007 0.514672 0.258427
0.928985 0.519219 0.263767
0.942535 0.523674 0.268559
0.955840 0.528618 0.273930
0.969238 0.534051 0.280064
0.982666 0.539940 0.286839
0.996246 0.546502 0.294255
0.209384 0.509941 0.286046
0.211612 0.509789 0.286076
0.220279 0.509483 0.286473
0.237858 0.509361 0.287694
0.255619 0.510124 0.287022
0.286473 0.511894 0.291691
0.322576 0.515007 0.298466
0.361547 0.519799 0.307500
0.402441 0.526543 0.319524
0.443427 0.529229 0.336950
0.471626 0.518242 0.353948
0.489967 0.506432 0.372045
0.496559 0.492897 0.389532
0.489326 0.476692 0.404883
0.496742 0.480964 0.412696
0.564721 0.515862 0.388983
0.627314 0.535027 0.364782
0.682795 0.544121 0.340276
0.732113 0.547112 0.315953
0.775357 0.545525 0.291814
0.807156 0.539117 0.276432
0.833249 0.531579 0.266209
0.857023 0.524834 0.258640
0.874296 0.528374 0.264195
0.890471 0.531884 0.269749
0.905760 0.535515 0.275151
0.920256 0.539269 0.280217
0.934356 0.543084 0.285832
0.948211 0.547478 0.291478
0.962097 0.552483 0.298039
0.975982 0.557855 0.305089
0.989837 0.563836 0.313024
0.232425 0.560357 0.322942
0.233951 0.560143 0.322972
0.242405 0.559930 0.323156
0.258885 0.560357 0.324804
0.279698 0.561730 0.326543
0.306584 0.564874 0.329656
0.343542 0.569116 0.337987
0.384436 0.575067 0.349676
0.428107 0.582971 0.364660
0.473243 0.593286 0.384405
0.506401 0.587793 0.400763
0.528771 0.575738 0.416022
0.541711 0.562066 0.431220
0.543877 0.546105 0.444434
0.533837 0.526665 0.454658
0.524865 0.517021 0.462501
0.585260 0.550317 0.437507
0.641260 0.568292 0.412085
0.692195 0.577722 0.387518
0.737850 0.580804 0.362982
0.778378 0.579828 0.339178
0.814481 0.575952 0.316442
0.839261 0.568688 0.305730
0.862547 0.561730 0.296483
0.883055 0.556847 0.291051
0.898528 0.559380 0.296208
0.913207 0.561975 0.301488
0.927489 0.564935 0.306523
0.941588 0.568444 0.312627
0.955688 0.572747 0.319280
0.969787 0.577508 0.326482
0.983886 0.582849 0.335058
0.281926 0.618524 0.377966
0.283757 0.618372 0.377996
0.290013 0.617762 0.377905
0.303380 0.617029 0.378302
0.323095 0.616449 0.380011
0.343175 0.617334 0.379950
0.376715 0.619257 0.387274
0.414099 0.622736 0.397528
0.453925 0.628077 0.411444
0.494118 0.635523 0.429908
0.533623 0.644190 0.452186
0.557427 0.633204 0.464607
0.573877 0.620905 0.476783
0.581933 0.606561 0.487373
0.580743 0.589075 0.495247
0.568811 0.568048 0.499825
0.550866 0.549798 0.506554
0.601495 0.579583 0.483436
0.652613 0.597772 0.459358
0.699763 0.607385 0.435401
0.742367 0.611170 0.411749
0.780941 0.611200 0.388708
0.816129 0.608301 0.365576
0.844907 0.602808 0.347845
0.867185 0.596002 0.337591
0.888304 0.589105 0.328313
0.906645 0.585595 0.324895
0.921294 0.588190 0.330968
0.935912 0.591485 0.337957
0.950591 0.595666 0.345892
0.965240 0.600610 0.355291
0.979889 0.606073 0.365423
0.336400 0.659968 0.428443
0.338323 0.660121 0.428901
0.343786 0.659937 0.429480
0.355413 0.659785 0.430732
0.372320 0.659663 0.433234
0.389105 0.660822 0.433906
0.418341 0.662928 0.442023
0.451118 0.666316 0.452888
0.485603 0.670863 0.466560
0.520378 0.676539 0.483101
0.554498 0.683223 0.502007
0.582788 0.684016 0.517876
0.598962 0.671717 0.524376
0.608850 0.657374 0.529747
0.612085 0.640742 0.533562
0.607538 0.621393 0.535576
0.594995 0.599817 0.536004
0.577844 0.581353 0.539788
0.614038 0.602899 0.522576
0.661219 0.621881 0.500938
0.705287 0.632807 0.480171
0.745815 0.638300 0.459449
0.782895 0.639826 0.438605
0.817288 0.638422 0.417456
0.848936 0.634730 0.395911
0.872557 0.629023 0.383642
0.893462 0.623133 0.374975
0.913634 0.617365 0.367315
0.930877 0.615808 0.367559
0.945434 0.619013 0.375219
0.959869 0.622797 0.384161
0.974182 0.627161 0.393683
0.387274 0.692226 0.475441
0.388128 0.692164 0.475563
0.392920 0.692103 0.476204
0.401709 0.692012 0.477668
0.416083 0.692073 0.480385
0.429755 0.692988 0.481483
0.452277 0.694759 0.487831
0.479011 0.697200 0.497200
0.507897 0.700587 0.508873
0.537316 0.704860 0.522606
0.567163 0.709987 0.538811
0.595941 0.715877 0.556542
0.615869 0.710903 0.565881
0.627771 0.698634 0.569451
0.634577 0.684627 0.571954
0.635737 0.668360 0.572747
0.630640 0.650019 0.572412
0.619196 0.629999 0.571466
0.603296 0.611963 0.573388
0.627161 0.626123 0.561334
0.670588 0.645533 0.542290
0.711696 0.657374 0.523919
0.749813 0.663966 0.505913
0.785245 0.666712 0.487800
0.818265 0.666621 0.469398
0.849332 0.664149 0.450263
0.877623 0.660029 0.432105
0.898405 0.655146 0.424689
0.918639 0.650385 0.418341
0.938323 0.645960 0.413306
0.954772 0.646174 0.416815
0.969116 0.649989 0.426734
0.435767 0.722133 0.523491
0.437476 0.722499 0.524285
0.478676 0.745510 0.565026
0.485176 0.745449 0.566522
0.495216 0.745449 0.569085
0.506401 0.745754 0.571252
0.520104 0.746944 0.574517
0.539452 0.748440 0.581811
0.560937 0.750820 0.591241
0.583917 0.753872 0.602533
0.607172 0.757595 0.615412
0.629877 0.761746 0.629389
0.651606 0.765927 0.643305
0.662409 0.755184 0.643458
0.669337 0.742336 0.641993
0.672328 0.727779 0.639338
0.670802 0.711208 0.635431
0.664485 0.692927 0.630732
0.652796 0.673091 0.625849
0.637293 0.654597 0.623499
0.649226 0.660273 0.613825
0.687587 0.678340 0.596368
0.724239 0.689448 0.579431
0.758938 0.695613 0.562493
0.791653 0.697810 0.544671
0.822385 0.697322 0.526818
0.851774 0.694697 0.508141
0.880156 0.690578 0.489082
0.903929 0.685939 0.476234
0.923766 0.681666 0.470558
0.943114 0.677974 0.466712
0.962036 0.674495 0.463691
0.487922 0.754238 0.578607
0.491798 0.756191 0.582300
0.497871 0.758236 0.586786
0.506096 0.760037 0.591394
0.516655 0.761440 0.596185
0.528527 0.762081 0.600366
0.538384 0.763394 0.602075
0.554192 0.764492 0.607904
0.572229 0.766201 0.615503
0.591760 0.768551 0.624720
0.612055 0.771481 0.635401
0.632502 0.774868 0.647211
0.652277 0.778317 0.659205
0.668788 0.778134 0.667994
0.677211 0.767178 0.666529
0.682643 0.754940 0.664454
0.684688 0.741299 0.661555
0.683223 0.726284 0.658167
0.677729 0.710140 0.654444
0.667842 0.692805 0.650660
0.654414 0.676387 0.648890
0.659052 0.677516 0.643854
0.694484 0.696101 0.629023
0.728969 0.707942 0.614221
0.761501 0.714687 0.599115
0.792691 0.717922 0.583490
0.822477 0.718532 0.567864
0.851316 0.717311 0.552026
0.879454 0.714870 0.536492
0.906859 0.711452 0.520989
0.927733 0.708217 0.515648
0.946990 0.705440 0.513207
0.515648 0.771969 0.609735
0.519341 0.773800 0.613306
0.524865 0.775814 0.617609
0.531975 0.777646 0.622156
0.540948 0.778958 0.626551
0.551019 0.779629 0.630549
0.558648 0.780758 0.631617
0.572015 0.781704 0.636622
0.586999 0.783047 0.642817
0.603418 0.784817 0.650355
0.620996 0.787167 0.659174
0.638972 0.789853 0.669032
0.656764 0.792782 0.679377
0.674220 0.795865 0.690181
0.686183 0.791592 0.693812
0.692897 0.781247 0.691920
0.697078 0.769650 0.689296
0.698451 0.756863 0.686244
0.696895 0.743282 0.683070
0.691951 0.728664 0.679774
0.683131 0.713039 0.676295
0.671107 0.697963 0.674464
0.669062 0.694453 0.672602
0.701930 0.713222 0.659754
0.733974 0.725307 0.646601
0.764828 0.732815 0.633356
0.794614 0.736965 0.620050
0.823575 0.738857 0.606928
0.851957 0.739223 0.594354
0.879728 0.738399 0.582269
0.906828 0.736507 0.570214
0.932189 0.733669 0.559228
0.542473 0.789487 0.640436
0.545312 0.791043 0.643427
0.549798 0.792630 0.647028
0.555779 0.794125 0.650904
0.563104 0.795285 0.654688
0.571588 0.795834 0.658106
0.577630 0.796811 0.658961
0.588708 0.797604 0.663111
0.601648 0.798825 0.668544
0.615747 0.800290 0.674830
0.631006 0.802213 0.682368
0.646845 0.804471 0.690730
0.662928 0.806912 0.699580
0.678828 0.809598 0.708980
0.694545 0.812436 0.718715
0.702663 0.804868 0.718318
0.708492 0.795621 0.716884
0.712306 0.785611 0.715358
0.714107 0.775143 0.714076
0.713344 0.763912 0.712764
0.709895 0.752132 0.711635
0.703029 0.739437 0.710231
0.693111 0.726650 0.709346
0.686275 0.719936 0.710842
0.716670 0.739101 0.701137
0.746456 0.751980 0.691249
0.775601 0.760494 0.681331
0.804288 0.766049 0.671870
0.832425 0.769558 0.663020
0.860044 0.771450 0.654566
0.886839 0.772030 0.646479
0.912932 0.771267 0.637964
0.581537 0.814939 0.686305
0.582788 0.815518 0.687526
0.584863 0.815946 0.688838
0.588434 0.816251 0.690303
0.593164 0.816403 0.692042
0.599329 0.816342 0.694026
0.604211 0.816739 0.694606
0.612390 0.817441 0.697200
0.622950 0.818357 0.701534
0.634913 0.819699 0.706996
0.648096 0.821347 0.713375
0.661952 0.823301 0.720424
0.676051 0.825315 0.727901
0.690333 0.827543 0.735805
0.704585 0.829862 0.743893
0.716884 0.829892 0.749844
0.722621 0.821927 0.748074
0.727047 0.813230 0.746120
0.729671 0.803952 0.744137
0.730434 0.793973 0.742123
0.729061 0.783291 0.739986
0.725185 0.771878 0.737819
0.718257 0.759518 0.735348
0.708431 0.746609 0.733028
0.698573 0.737270 0.734768
0.724636 0.754452 0.726741
0.752895 0.767788 0.718532
0.780911 0.777340 0.710964
0.808896 0.784085 0.704005
0.836301 0.788724 0.697536
0.863096 0.791684 0.691402
0.889067 0.793118 0.685237
0.603204 0.829496 0.711727
0.604181 0.829953 0.712673
0.606104 0.830350 0.713802
0.609033 0.830625 0.715175
0.613153 0.830808 0.716793
0.618402 0.830808 0.718624
0.623102 0.831205 0.719478
0.629541 0.831846 0.721401
0.638483 0.832700 0.725063
0.649012 0.833829 0.729824
0.660578 0.835233 0.735225
0.672847 0.836881 0.741299
0.685573 0.838712 0.747829
0.698695 0.840696 0.754788
0.711971 0.842832 0.762081
0.725216 0.845090 0.769619
0.734279 0.842313 0.772183
0.739162 0.835203 0.770748
0.742824 0.827512 0.769192
0.744991 0.819242 0.767636
0.745480 0.810452 0.765988
0.744045 0.801053 0.764340
0.740383 0.790951 0.762570
0.734188 0.779965 0.760555
0.720882 0.762692 0.751583
0.711971 0.754086 0.753201
0.731594 0.767361 0.748135
0.758724 0.781399 0.741665
0.785977 0.791806 0.735988
0.813321 0.799557 0.730983
0.840238 0.805386 0.726741
0.866392 0.809384 0.722683
0.631525 0.847654 0.743984
0.632959 0.848325 0.745327
0.634516 0.848631 0.746273
0.636561 0.848569 0.746853
0.639063 0.848203 0.747311
0.642695 0.847715 0.747921
0.645624 0.847379 0.747524
0.649531 0.847288 0.747646
0.656336 0.847349 0.749538
0.664271 0.847684 0.752285
0.673365 0.848203 0.755612
0.683650 0.849149 0.759915
0.694453 0.850187 0.764706
0.705715 0.851408 0.769863
0.717220 0.852689 0.775174
0.728939 0.854093 0.780941
0.740902 0.855802 0.787167
0.746365 0.850126 0.786160
0.750576 0.843503 0.784817
0.753841 0.836606 0.783749
0.755856 0.829374 0.782803
0.756252 0.821530 0.781704
0.754574 0.812863 0.780087
0.750637 0.803128 0.777890
0.744137 0.792325 0.775143
0.734920 0.780453 0.772030
0.726711 0.772335 0.773251
0.740291 0.781521 0.769986
0.766201 0.795590 0.764523
0.792569 0.806363 0.760067
0.819059 0.814725 0.756497
0.845090 0.821164 0.753536
0.647089 0.857847 0.761013
0.648371 0.858396 0.762173
0.649958 0.858824 0.763241
0.652003 0.858915 0.764096
0.654810 0.858885 0.765042
0.658595 0.858793 0.766293
0.661860 0.859068 0.766903
0.666102 0.859495 0.767819
0.672694 0.860044 0.770382
0.680415 0.860777 0.773556
0.688960 0.861601 0.777096
0.698299 0.862577 0.781125
0.708217 0.863615 0.785428
0.718532 0.864683 0.789853
0.728939 0.865751 0.794461
0.739620 0.866911 0.799252
0.750546 0.868254 0.804440
0.759884 0.868009 0.808194
0.764004 0.862364 0.806821
0.767544 0.856535 0.805753
0.770199 0.850401 0.804837
0.771664 0.843900 0.803891
0.771664 0.836820 0.802792
0.769924 0.829068 0.801389
0.766140 0.820493 0.799619
0.760281 0.811154 0.797604
0.752071 0.801022 0.795407
0.744778 0.794003 0.796841
0.753872 0.800381 0.796384
0.779019 0.814633 0.792630
0.804501 0.825711 0.789700
0.829892 0.834440 0.787594
0.668696 0.870726 0.783291
0.669398 0.871000 0.783902
0.670466 0.871153 0.784421
0.672023 0.871183 0.785031
0.674372 0.871092 0.785763
0.677668 0.870970 0.786770
0.680140 0.871122 0.786984
0.683528 0.871427 0.787564
0.689143 0.871794 0.789578
0.695766 0.872313 0.792111
0.703365 0.872953 0.795041
0.711696 0.873777 0.798459
0.720577 0.874662 0.802152
0.729885 0.875608 0.806027
0.739376 0.876463 0.809934
0.749081 0.877409 0.814054
0.759030 0.878508 0.818479
0.769284 0.879850 0.823331
0.775723 0.877470 0.824613
0.779446 0.872557 0.823606
0.782467 0.867491 0.822873
0.784665 0.861967 0.822049
0.785611 0.855985 0.820981
0.785183 0.849424 0.819760
0.783200 0.842252 0.818265
0.779446 0.834409 0.816495
0.773861 0.825925 0.814694
0.766201 0.816800 0.812833
0.759487 0.810483 0.814267
0.764828 0.814481 0.815915
0.789517 0.829129 0.813626
0.814572 0.840879 0.812284
0.687129 0.881254 0.801083
0.687800 0.881437 0.801572
0.688808 0.881621 0.802152
0.690517 0.881743 0.802884
0.692988 0.881895 0.803952
0.696651 0.882139 0.805570
0.699886 0.882994 0.806821
0.704524 0.884001 0.808957
0.711299 0.885222 0.812345
0.719051 0.886564 0.816281
0.727596 0.888090 0.820554
0.736568 0.889586 0.825010
0.745785 0.891051 0.829465
0.755062 0.892424 0.833738
0.764157 0.893614 0.837797
0.772976 0.894591 0.841550
0.781765 0.895567 0.845304
0.790799 0.896666 0.849302
0.800046 0.897978 0.853696
0.803403 0.894347 0.852934
0.806241 0.890410 0.852171
0.808560 0.886198 0.851438
0.809934 0.881559 0.850523
0.810361 0.876493 0.849424
0.809598 0.870939 0.848173
0.807523 0.864866 0.846799
0.804105 0.858366 0.845457
0.799191 0.851377 0.844114
0.792569 0.844053 0.843015
0.786984 0.838987 0.844572
0.789364 0.841184 0.848142
0.812528 0.854948 0.846952
0.720729 0.897276 0.830228
0.720943 0.897307 0.830320
0.721431 0.897246 0.830442
0.722438 0.897154 0.830716
0.724178 0.897093 0.831266
0.726497 0.897063 0.831968
0.728023 0.897337 0.832029
0.731044 0.897704 0.832883
0.735622 0.898100 0.834623
0.740993 0.898619 0.836667
0.747066 0.899229 0.839109
0.753811 0.899962 0.841825
0.761044 0.900755 0.844755
0.768521 0.901518 0.847776
