20 Preset/Travel Style 2/【1】LRtemplate Lightroom bản cũ/Travel 2 Tone (11).lrtemplate
s = {
	id = "FA0E4752-8912-4789-9908-8F395CB02F55",
	internalName = "CMG - PINETREE",
	title = "11素材江湖 - PINETREE",
	type = "Develop",
	value = {
		settings = {
			Blacks2012 = 0,
			BlueHue = -36,
			BlueSaturation = 0,
			CameraProfile = "Adobe Standard",
			Clarity2012 = 15,
			ColorNoiseReduction = 25,
			ColorNoiseReductionDetail = 50,
			ColorNoiseReductionSmoothness = 50,
			Contrast2012 = 100,
			ConvertToGrayscale = false,
			Dehaze = 0,
			EnableCalibration = true,
			EnableColorAdjustments = true,
			EnableDetail = true,
			EnableEffects = true,
			EnableSplitToning = true,
			Exposure2012 = 0.3,
			GrainAmount = 20,
			GrainFrequency = 50,
			GrainSize = 15,
			GreenHue = 0,
			GreenSaturation = 0,
			Highlights2012 = -100,
			HueAdjustmentAqua = 30,
			HueAdjustmentBlue = -2,
			HueAdjustmentGreen = -33,
			HueAdjustmentMagenta = 0,
			HueAdjustmentOrange = 0,
			HueAdjustmentPurple = 0,
			HueAdjustmentRed = 24,
			HueAdjustmentYellow = 10,
			LuminanceAdjustmentAqua = 8,
			LuminanceAdjustmentBlue = 53,
			LuminanceAdjustmentGreen = 26,
			LuminanceAdjustmentMagenta = 0,
			LuminanceAdjustmentOrange = 64,
			LuminanceAdjustmentPurple = 9,
			LuminanceAdjustmentRed = 49,
			LuminanceAdjustmentYellow = 75,
			LuminanceNoiseReductionContrast = 0,
			LuminanceNoiseReductionDetail = 50,
			LuminanceSmoothing = 19,
			ParametricDarks = 0,
			ParametricHighlightSplit = 75,
			ParametricHighlights = 0,
			ParametricLights = 0,
			ParametricMidtoneSplit = 50,
			ParametricShadowSplit = 25,
			ParametricShadows = 0,
			PostCropVignetteAmount = -6,
			PostCropVignetteFeather = 74,
			PostCropVignetteHighlightContrast = 0,
			PostCropVignetteMidpoint = 22,
			PostCropVignetteRoundness = 14,
			PostCropVignetteStyle = 1,
			ProcessVersion = "6.7",
			RedHue = 0,
			RedSaturation = 0,
			Saturation = -13,
			SaturationAdjustmentAqua = 0,
			SaturationAdjustmentBlue = -62,
			SaturationAdjustmentGreen = -54,
			SaturationAdjustmentMagenta = 0,
			SaturationAdjustmentOrange = -61,
			SaturationAdjustmentPurple = -1,
			SaturationAdjustmentRed = 10,
			SaturationAdjustmentYellow = -38,
			ShadowTint = 0,
			Shadows2012 = 17,
			SharpenDetail = 25,
			SharpenEdgeMasking = 0,
			SharpenRadius = 0.9,
			Sharpness = 100,
			SplitToningBalance = 0,
			SplitToningHighlightHue = 0,
			SplitToningHighlightSaturation = 0,
			SplitToningShadowHue = 0,
			SplitToningShadowSaturation = 0,
			ToneCurveName2012 = "Custom",
			ToneCurvePV2012 = {
				0,
				17,
				64,
				59,
				121,
				121,
				255,
				255,
			},
			ToneCurvePV2012Blue = {
				0,
				0,
				255,
				255,
			},
			ToneCurvePV2012Green = {
				0,
				0,
				255,
				255,
			},
			ToneCurvePV2012Red = {
				0,
				0,
				255,
				255,
			},
			Vibrance = 0,
			Whites2012 = 23,
		},
		uuid = "5351199A-41C1-400E-A27E-EC55DA0F4196",
	},
	version = 0,
}
