20 Preset/Travel Style 2/【1】LRtemplate Lightroom bản cũ/Travel 2 Tone (26).lrtemplate
s = {
	id = "076AAC65-07A5-4DE4-BEA2-B3B11F184B05",
	internalName = "CMG DRONE V5",
	title = "26素材江湖 - DRONE",
	type = "Develop",
	value = {
		settings = {
			AutoLateralCA = 0,
			Blacks2012 = -34,
			BlueHue = 0,
			BlueSaturation = -3,
			CameraProfile = "Embedded",
			ChromaticAberrationB = 0,
			ChromaticAberrationR = 0,
			Clarity2012 = 19,
			ColorNoiseReduction = 25,
			ColorNoiseReductionDetail = 50,
			ColorNoiseReductionSmoothness = 50,
			Contrast2012 = 30,
			ConvertToGrayscale = false,
			CropConstrainToWarp = 0,
			Defringe = 0,
			DefringeGreenAmount = 0,
			DefringeGreenHueHi = 60,
			DefringeGreenHueLo = 40,
			DefringePurpleAmount = 0,
			DefringePurpleHueHi = 70,
			DefringePurpleHueLo = 30,
			Dehaze = 0,
			EnableCalibration = true,
			EnableColorAdjustments = true,
			EnableDetail = true,
			EnableEffects = true,
			EnableLensCorrections = true,
			EnableSplitToning = true,
			Exposure2012 = -0.3,
			GrainAmount = 2,
			GrainFrequency = 39,
			GrainSize = 2,
			GreenHue = 0,
			GreenSaturation = -6,
			Highlights2012 = 14,
			HueAdjustmentAqua = 0,
			HueAdjustmentBlue = 0,
			HueAdjustmentGreen = 0,
			HueAdjustmentMagenta = -10,
			HueAdjustmentOrange = 6,
			HueAdjustmentPurple = -7,
			HueAdjustmentRed = -6,
			HueAdjustmentYellow = -5,
			LensManualDistortionAmount = 0,
			LensProfileEnable = 0,
			LensProfileSetup = "LensDefaults",
			LuminanceAdjustmentAqua = 0,
			LuminanceAdjustmentBlue = 0,
			LuminanceAdjustmentGreen = -5,
			LuminanceAdjustmentMagenta = 0,
			LuminanceAdjustmentOrange = -2,
			LuminanceAdjustmentPurple = 0,
			LuminanceAdjustmentRed = -2,
			LuminanceAdjustmentYellow = 2,
			LuminanceNoiseReductionContrast = 0,
			LuminanceNoiseReductionDetail = 50,
			LuminanceSmoothing = 18,
			ParametricDarks = -27,
			ParametricHighlightSplit = 75,
			ParametricHighlights = -29,
			ParametricLights = -22,
			ParametricMidtoneSplit = 50,
			ParametricShadowSplit = 25,
			ParametricShadows = 0,
			PostCropVignetteAmount = -5,
			PostCropVignetteFeather = 100,
			PostCropVignetteHighlightContrast = 20,
			PostCropVignetteMidpoint = 16,
			PostCropVignetteRoundness = 10,
			PostCropVignetteStyle = 1,
			ProcessVersion = "6.7",
			RedHue = 0,
			RedSaturation = -30,
			Saturation = 9,
			SaturationAdjustmentAqua = -4,
			SaturationAdjustmentBlue = 2,
			SaturationAdjustmentGreen = 0,
			SaturationAdjustmentMagenta = 0,
			SaturationAdjustmentOrange = -3,
			SaturationAdjustmentPurple = 0,
			SaturationAdjustmentRed = -6,
			SaturationAdjustmentYellow = 3,
			ShadowTint = 0,
			Shadows2012 = 10,
			SharpenDetail = 25,
			SharpenEdgeMasking = 0,
			SharpenRadius = 0.6,
			Sharpness = 37,
			SplitToningBalance = 80,
			SplitToningHighlightHue = 209,
			SplitToningHighlightSaturation = 0,
			SplitToningShadowHue = 56,
			SplitToningShadowSaturation = 0,
			Temperature = 6438,
			Tint = -14,
			ToneCurveName2012 = "Custom",
			ToneCurvePV2012 = {
				0,
				42,
				54,
				57,
				111,
				124,
				173,
				183,
				255,
				239,
			},
			ToneCurvePV2012Blue = {
				0,
				0,
				255,
				255,
			},
			ToneCurvePV2012Green = {
				0,
				0,
				255,
				255,
			},
			ToneCurvePV2012Red = {
				0,
				0,
				255,
				255,
			},
			Vibrance = -7,
			VignetteAmount = 0,
			VignetteMidpoint = 50,
			WhiteBalance = "Custom",
			Whites2012 = -19,
		},
		uuid = "9344F425-AACF-42FC-90F9-014D28451E07",
	},
	version = 0,
}
