20 Preset/Travel Style 2/【1】LRtemplate Lightroom bản cũ/Travel 2 Tone (19).lrtemplate
s = {
	id = "78500A53-CEDF-4B86-8BBE-3654DACC5CC8",
	internalName = "CMG | PURPLE",
	title = "19素材江湖 - PURPLE",
	type = "Develop",
	value = {
		settings = {
			Blacks2012 = 15,
			BlueHue = -5,
			BlueSaturation = -20,
			CameraProfile = "Agfa Vista 400 - L",
			Clarity2012 = -10,
			ColorNoiseReduction = 25,
			ColorNoiseReductionDetail = 50,
			ColorNoiseReductionSmoothness = 50,
			Contrast2012 = 0,
			ConvertToGrayscale = false,
			Dehaze = 0,
			EnableCalibration = true,
			EnableColorAdjustments = true,
			EnableDetail = true,
			EnableEffects = true,
			EnableSplitToning = true,
			Exposure2012 = 0,
			GrainAmount = 30,
			GrainFrequency = 85,
			GrainSize = 18,
			GreenHue = 50,
			GreenSaturation = -15,
			Highlights2012 = -40,
			HueAdjustmentAqua = 10,
			HueAdjustmentBlue = -2,
			HueAdjustmentGreen = 5,
			HueAdjustmentMagenta = 30,
			HueAdjustmentOrange = -5,
			HueAdjustmentPurple = 20,
			HueAdjustmentRed = 25,
			HueAdjustmentYellow = 10,
			LuminanceAdjustmentAqua = 15,
			LuminanceAdjustmentBlue = -17,
			LuminanceAdjustmentGreen = 20,
			LuminanceAdjustmentMagenta = 0,
			LuminanceAdjustmentOrange = -5,
			LuminanceAdjustmentPurple = -12,
			LuminanceAdjustmentRed = -21,
			LuminanceAdjustmentYellow = 10,
			LuminanceNoiseReductionContrast = 0,
			LuminanceNoiseReductionDetail = 50,
			LuminanceSmoothing = 0,
			ParametricDarks = 10,
			ParametricHighlightSplit = 75,
			ParametricHighlights = 0,
			ParametricLights = 10,
			ParametricMidtoneSplit = 48,
			ParametricShadowSplit = 20,
			ParametricShadows = 0,
			PostCropVignetteAmount = -25,
			PostCropVignetteFeather = 50,
			PostCropVignetteHighlightContrast = 0,
			PostCropVignetteMidpoint = 50,
			PostCropVignetteRoundness = 0,
			PostCropVignetteStyle = 1,
			ProcessVersion = "6.7",
			RedHue = 30,
			RedSaturation = 40,
			Saturation = -23,
			SaturationAdjustmentAqua = -35,
			SaturationAdjustmentBlue = -25,
			SaturationAdjustmentGreen = -30,
			SaturationAdjustmentMagenta = -30,
			SaturationAdjustmentOrange = -5,
			SaturationAdjustmentPurple = -54,
			SaturationAdjustmentRed = 0,
			SaturationAdjustmentYellow = -5,
			ShadowTint = -4,
			Shadows2012 = -4,
			SharpenDetail = 25,
			SharpenEdgeMasking = 0,
			SharpenRadius = 1,
			Sharpness = 51,
			SplitToningBalance = 0,
			SplitToningHighlightHue = 0,
			SplitToningHighlightSaturation = 0,
			SplitToningShadowHue = 0,
			SplitToningShadowSaturation = 0,
			Temperature = 5100,
			Tint = 22,
			ToneCurveName2012 = "Custom",
			ToneCurvePV2012 = {
				0,
				33,
				74,
				76,
				127,
				131,
				186,
				190,
				255,
				245,
			},
			ToneCurvePV2012Blue = {
				0,
				4,
				59,
				36,
				123,
				119,
				180,
				187,
				255,
				255,
			},
			ToneCurvePV2012Green = {
				0,
				0,
				34,
				11,
				80,
				57,
				116,
				118,
				179,
				199,
				255,
				255,
			},
			ToneCurvePV2012Red = {
				0,
				0,
				29,
				11,
				70,
				51,
				114,
				121,
				176,
				195,
				255,
				255,
			},
			Vibrance = 0,
			WhiteBalance = "Custom",
			Whites2012 = -20,
		},
		uuid = "CF438E88-2472-4261-A5B6-138266973006",
	},
	version = 0,
}
