20 Preset/Travel Style 2/【1】LRtemplate Lightroom bản cũ/Travel 2 Tone (1).lrtemplate
s = {
	id = "BE82F524-55E2-400D-BE58-A0A00B828FA9",
	internalName = "CMG - COMPASS",
	title = "01素材江湖 - COMPASS",
	type = "Develop",
	value = {
		settings = {
			Blacks2012 = -13,
			BlueHue = -18,
			BlueSaturation = 0,
			CameraProfile = "Adobe Standard",
			Clarity2012 = 14,
			ColorNoiseReduction = 25,
			ColorNoiseReductionDetail = 50,
			ColorNoiseReductionSmoothness = 50,
			Contrast2012 = 100,
			ConvertToGrayscale = false,
			Dehaze = 0,
			EnableCalibration = true,
			EnableColorAdjustments = true,
			EnableDetail = true,
			EnableEffects = true,
			EnableSplitToning = true,
			Exposure2012 = -0.05,
			GrainAmount = 20,
			GrainFrequency = 50,
			GrainSize = 15,
			GreenHue = 0,
			GreenSaturation = 0,
			Highlights2012 = -94,
			HueAdjustmentAqua = 5,
			HueAdjustmentBlue = -14,
			HueAdjustmentGreen = -49,
			HueAdjustmentMagenta = 0,
			HueAdjustmentOrange = 0,
			HueAdjustmentPurple = 0,
			HueAdjustmentRed = 0,
			HueAdjustmentYellow = -35,
			LuminanceAdjustmentAqua = 43,
			LuminanceAdjustmentBlue = 18,
			LuminanceAdjustmentGreen = 0,
			LuminanceAdjustmentMagenta = 0,
			LuminanceAdjustmentOrange = 0,
			LuminanceAdjustmentPurple = 0,
			LuminanceAdjustmentRed = 0,
			LuminanceAdjustmentYellow = 0,
			LuminanceNoiseReductionContrast = 0,
			LuminanceNoiseReductionDetail = 50,
			LuminanceSmoothing = 19,
			ParametricDarks = 0,
			ParametricHighlightSplit = 75,
			ParametricHighlights = 0,
			ParametricLights = 0,
			ParametricMidtoneSplit = 50,
			ParametricShadowSplit = 25,
			ParametricShadows = 0,
			PostCropVignetteAmount = 0,
			PostCropVignetteFeather = 50,
			PostCropVignetteHighlightContrast = 0,
			PostCropVignetteMidpoint = 50,
			PostCropVignetteRoundness = 0,
			PostCropVignetteStyle = 1,
			ProcessVersion = "6.7",
			RedHue = 0,
			RedSaturation = 0,
			Saturation = -15,
			SaturationAdjustmentAqua = 0,
			SaturationAdjustmentBlue = -72,
			SaturationAdjustmentGreen = -61,
			SaturationAdjustmentMagenta = 0,
			SaturationAdjustmentOrange = 0,
			SaturationAdjustmentPurple = -1,
			SaturationAdjustmentRed = 0,
			SaturationAdjustmentYellow = -3,
			ShadowTint = 10,
			Shadows2012 = 68,
			SharpenDetail = 25,
			SharpenEdgeMasking = 0,
			SharpenRadius = 0.9,
			Sharpness = 60,
			SplitToningBalance = 0,
			SplitToningHighlightHue = 0,
			SplitToningHighlightSaturation = 0,
			SplitToningShadowHue = 0,
			SplitToningShadowSaturation = 0,
			ToneCurveName2012 = "Linear",
			ToneCurvePV2012 = {
				0,
				0,
				255,
				255,
			},
			ToneCurvePV2012Blue = {
				0,
				0,
				255,
				255,
			},
			ToneCurvePV2012Green = {
				0,
				0,
				255,
				255,
			},
			ToneCurvePV2012Red = {
				0,
				0,
				255,
				255,
			},
			Vibrance = 0,
			Whites2012 = 0,
		},
		uuid = "D3FEA96B-44B8-4405-B5E7-3EBB9F0F8246",
	},
	version = 0,
}
