20 Preset/Travel Style 2/【1】LRtemplate Lightroom bản cũ/Travel 2 Tone (10).lrtemplate
s = {
	id = "DC2D6CDD-3D00-42AD-BAF0-6C182807AFC0",
	internalName = "CMG - LANDSCAPE III",
	title = "10素材江湖 - LANDSCAPE III",
	type = "Develop",
	value = {
		settings = {
			Blacks2012 = 0,
			BlueHue = 0,
			BlueSaturation = 0,
			CameraProfile = "Adobe Standard",
			Clarity2012 = 25,
			ColorNoiseReduction = 25,
			ColorNoiseReductionDetail = 50,
			ColorNoiseReductionSmoothness = 50,
			Contrast2012 = 50,
			ConvertToGrayscale = false,
			Dehaze = 0,
			EnableCalibration = true,
			EnableColorAdjustments = true,
			EnableDetail = true,
			EnableEffects = true,
			EnableSplitToning = true,
			Exposure2012 = -0.05,
			GrainAmount = 20,
			GrainFrequency = 50,
			GrainSize = 15,
			GreenHue = 0,
			GreenSaturation = 0,
			Highlights2012 = -94,
			HueAdjustmentAqua = 30,
			HueAdjustmentBlue = -14,
			HueAdjustmentGreen = -1,
			HueAdjustmentMagenta = 0,
			HueAdjustmentOrange = 0,
			HueAdjustmentPurple = 0,
			HueAdjustmentRed = 0,
			HueAdjustmentYellow = -5,
			LuminanceAdjustmentAqua = 43,
			LuminanceAdjustmentBlue = 50,
			LuminanceAdjustmentGreen = 31,
			LuminanceAdjustmentMagenta = 0,
			LuminanceAdjustmentOrange = 0,
			LuminanceAdjustmentPurple = 0,
			LuminanceAdjustmentRed = 0,
			LuminanceAdjustmentYellow = 0,
			LuminanceNoiseReductionContrast = 0,
			LuminanceNoiseReductionDetail = 50,
			LuminanceSmoothing = 19,
			ParametricDarks = 0,
			ParametricHighlightSplit = 75,
			ParametricHighlights = 0,
			ParametricLights = 0,
			ParametricMidtoneSplit = 50,
			ParametricShadowSplit = 25,
			ParametricShadows = 0,
			PostCropVignetteAmount = 0,
			PostCropVignetteFeather = 50,
			PostCropVignetteHighlightContrast = 0,
			PostCropVignetteMidpoint = 50,
			PostCropVignetteRoundness = 0,
			PostCropVignetteStyle = 1,
			ProcessVersion = "6.7",
			RedHue = 0,
			RedSaturation = 0,
			Saturation = -10,
			SaturationAdjustmentAqua = -35,
			SaturationAdjustmentBlue = -64,
			SaturationAdjustmentGreen = 40,
			SaturationAdjustmentMagenta = 0,
			SaturationAdjustmentOrange = 0,
			SaturationAdjustmentPurple = -1,
			SaturationAdjustmentRed = 0,
			SaturationAdjustmentYellow = 16,
			ShadowTint = 0,
			Shadows2012 = 55,
			SharpenDetail = 25,
			SharpenEdgeMasking = 0,
			SharpenRadius = 0.9,
			Sharpness = 60,
			SplitToningBalance = 0,
			SplitToningHighlightHue = 0,
			SplitToningHighlightSaturation = 0,
			SplitToningShadowHue = 0,
			SplitToningShadowSaturation = 0,
			ToneCurveName2012 = "Custom",
			ToneCurvePV2012 = {
				0,
				0,
				80,
				48,
				189,
				185,
				255,
				255,
			},
			ToneCurvePV2012Blue = {
				0,
				0,
				255,
				255,
			},
			ToneCurvePV2012Green = {
				0,
				0,
				255,
				255,
			},
			ToneCurvePV2012Red = {
				0,
				0,
				255,
				255,
			},
			Vibrance = 0,
			Whites2012 = 36,
		},
		uuid = "D5432AE0-F73C-47C8-A719-E4FCFAC17984",
	},
	version = 0,
}
