20 Preset/Japan Style/【3】LUT video cho PR-AE-FCPX/LUT VIDEO (2)/Japan Style LUT (40).cube
# Created by Adobe Lightroom plugin Export LUT (1.24.0)
# www.johnrellis.com/lightroom/exportlut.htm
# Preset: 40日系自然（素材江湖）
# Color profile: C:\Program Files (x86)\Common Files\Adobe\Color\Profiles\Recommended\VideoHD.icc
LUT_3D_SIZE 5
DOMAIN_MIN 0.000000 0.000000 0.000000
DOMAIN_MAX 0.903226 0.903226 0.903226
0.120760 0.156497 0.138705
0.201450 0.164553 0.142580
0.621851 0.136629 0.124697
0.941222 0.211276 0.088685
1.000000 0.384161 0.233280
0.035828 0.240726 0.146639
0.207889 0.264897 0.124269
0.607538 0.321599 0.000000
0.925078 0.360204 0.000000
1.000000 0.448981 0.230838
0.000000 0.630060 0.222385
0.000000 0.629786 0.182010
0.634882 0.637446 0.000000
0.897215 0.592035 0.000000
1.000000 0.599115 0.216068
0.499947 0.811093 0.541131
0.530541 0.810513 0.542718
0.626246 0.811368 0.444648
0.851194 0.803433 0.000000
1.000000 0.768948 0.222385
0.737392 0.925261 0.755978
0.747799 0.924804 0.760037
0.766384 0.924193 0.726802
0.843412 0.927276 0.689021
0.961395 0.928466 0.630884
0.106905 0.172000 0.230198
0.207309 0.182986 0.219608
0.634028 0.129915 0.224216
0.924071 0.281651 0.170535
1.000000 0.395789 0.213199
0.000000 0.277287 0.248234
0.245365 0.301183 0.255100
0.628779 0.332128 0.218509
0.911925 0.385718 0.153994
1.000000 0.450874 0.207675
0.127535 0.636347 0.362310
0.306188 0.633173 0.378882
0.634485 0.633051 0.213962
0.886473 0.592004 0.069337
1.000000 0.599359 0.208835
0.559411 0.809567 0.595178
0.589349 0.809049 0.605249
0.661677 0.809445 0.548699
0.849516 0.802335 0.340032
1.000000 0.767727 0.223606
0.749355 0.924773 0.770565
0.758968 0.924285 0.774075
0.785397 0.925566 0.761044
0.847135 0.928679 0.696040
0.963958 0.930022 0.636286
0.000000 0.236393 0.612024
0.205142 0.261662 0.611780
0.624140 0.382910 0.608148
0.876738 0.491737 0.615595
1.000000 0.595819 0.632807
0.000000 0.398718 0.614893
0.273472 0.401129 0.615625
0.637598 0.493751 0.617090
0.868711 0.563958 0.634089
1.000000 0.618189 0.633265
0.253666 0.643030 0.635889
0.414923 0.649073 0.639582
0.705715 0.682307 0.670008
0.859403 0.675776 0.641108
0.997742 0.684382 0.618189
0.665461 0.809354 0.717433
0.698604 0.808774 0.726833
0.747829 0.812192 0.735622
0.845884 0.806912 0.655024
0.986175 0.790860 0.590845
0.775082 0.923339 0.809293
0.783108 0.923522 0.811490
0.818540 0.923033 0.825162
0.858793 0.925719 0.789487
0.961181 0.927825 0.685481
0.252323 0.445960 0.822965
0.379156 0.468269 0.822019
0.634668 0.543542 0.818631
0.836942 0.639582 0.816861
0.957916 0.684413 0.823636
0.375677 0.531609 0.817105
0.454322 0.544305 0.816373
0.656672 0.592767 0.814603
0.836759 0.667781 0.815579
0.954131 0.706142 0.825742
0.516411 0.665309 0.802274
0.571466 0.673060 0.803586
0.705135 0.696010 0.811460
0.843412 0.745480 0.820584
0.950896 0.775326 0.839109
0.616815 0.796963 0.819120
0.644099 0.798215 0.819272
0.737881 0.807950 0.824582
0.868620 0.839902 0.848264
0.956756 0.835264 0.828305
0.757687 0.925261 0.857145
0.775387 0.924956 0.860044
0.839078 0.924956 0.874540
0.888975 0.927825 0.887053
0.949157 0.928283 0.832914
0.664363 0.679591 0.940215
0.686793 0.684749 0.939269
0.764828 0.707088 0.936339
0.864439 0.747280 0.931395
0.943633 0.799313 0.927245
0.680629 0.700130 0.937652
0.700526 0.704494 0.936980
0.771206 0.723384 0.934356
0.865385 0.759365 0.930083
0.942565 0.808133 0.926757
0.724758 0.765316 0.932525
0.733455 0.763790 0.932372
0.783963 0.770993 0.931182
0.868406 0.798184 0.928313
0.941558 0.840330 0.927825
0.717586 0.830350 0.928893
0.728450 0.830411 0.928130
0.782742 0.834806 0.928191
0.866880 0.849363 0.930632
0.944945 0.889067 0.934386
0.754421 0.919677 0.937469
0.763790 0.919799 0.937224
0.803220 0.921141 0.936950
0.870298 0.924743 0.936706
0.954406 0.942504 0.946746
