20 Preset/Japan Style/【3】LUT video cho PR-AE-FCPX/LUT VIDEO (2)/Japan Style LUT (32).cube
# Created by Adobe Lightroom plugin Export LUT (1.24.0)
# www.johnrellis.com/lightroom/exportlut.htm
# Preset: 32日系胶片（素材江湖）
# Color profile: C:\Program Files (x86)\Common Files\Adobe\Color\Profiles\Recommended\VideoHD.icc
LUT_3D_SIZE 8
DOMAIN_MIN 0.000000 0.000000 0.000000
DOMAIN_MAX 0.903226 0.903226 0.903226
0.000000 0.011994 0.014374
0.000000 0.026337 0.020142
0.207980 0.036591 0.030274
0.495521 0.000000 0.000000
0.801907 0.000000 0.000000
0.993530 0.048737 0.000000
1.000000 0.270573 0.000000
1.000000 0.378882 0.000000
0.000000 0.052552 0.058076
0.000000 0.066194 0.042451
0.182467 0.098878 0.025666
0.464607 0.019501 0.000000
0.777768 0.000000 0.000000
0.981598 0.178958 0.000000
1.000000 0.301732 0.000000
1.000000 0.396124 0.000000
0.000000 0.147585 0.138735
0.000000 0.144564 0.129152
0.070436 0.164981 0.090822
0.371221 0.206607 0.000000
0.678584 0.264195 0.000000
0.928832 0.331090 0.000000
1.000000 0.394202 0.000000
1.000000 0.455879 0.000000
0.000000 0.314183 0.281590
0.000000 0.309758 0.267826
0.000000 0.289250 0.206241
0.224857 0.321263 0.117983
0.574121 0.382818 0.000000
0.843351 0.447242 0.000000
1.000000 0.502922 0.000000
1.000000 0.542657 0.000000
0.000000 0.536858 0.490150
0.000000 0.533440 0.478737
0.000000 0.519310 0.442634
0.000000 0.468055 0.296880
0.398627 0.506645 0.168002
0.746242 0.575280 0.000000
0.947539 0.593652 0.000000
1.000000 0.632776 0.000000
0.000000 0.720485 0.672053
0.000000 0.718990 0.667079
0.000000 0.711330 0.644556
0.229587 0.690761 0.591882
0.237583 0.630243 0.422797
0.580072 0.671809 0.285191
0.873045 0.723171 0.000000
1.000000 0.712001 0.000000
0.372900 0.830777 0.798672
0.418921 0.829862 0.798428
0.471473 0.826413 0.789120
0.539269 0.819303 0.773465
0.505791 0.803922 0.707851
0.500938 0.764706 0.581720
0.745296 0.796078 0.480293
0.947997 0.820371 0.396979
0.661433 0.882475 0.873472
0.676081 0.881743 0.873381
0.719722 0.879393 0.872465
0.741543 0.876493 0.865812
0.771328 0.872068 0.859068
0.723018 0.865263 0.811276
0.725765 0.848264 0.745968
0.864195 0.866667 0.701595
0.000000 0.019104 0.049805
0.000000 0.029664 0.048035
0.202182 0.051881 0.038178
0.453407 0.000000 0.000000
0.769162 0.000000 0.000000
0.978912 0.169192 0.000000
1.000000 0.295598 0.000000
1.000000 0.389990 0.000000
0.000000 0.050111 0.071992
0.000000 0.080446 0.071687
0.184726 0.102663 0.055329
0.437873 0.107362 0.000000
0.747524 0.123049 0.000000
0.967559 0.222324 0.000000
1.000000 0.321691 0.000000
1.000000 0.405676 0.000000
0.000000 0.156435 0.150637
0.000000 0.155398 0.142794
0.105653 0.177279 0.103548
0.381292 0.212131 0.000000
0.680781 0.269047 0.000000
0.918730 0.343389 0.000000
1.000000 0.404425 0.000000
1.000000 0.462165 0.000000
0.000000 0.321965 0.293431
0.000000 0.319554 0.282536
0.000000 0.299290 0.221805
0.243198 0.331579 0.131502
0.582177 0.383032 0.000000
0.847013 0.449805 0.000000
1.000000 0.505882 0.000000
1.000000 0.545892 0.000000
0.000000 0.541497 0.498268
0.000000 0.539940 0.490242
0.000000 0.526055 0.453986
0.000000 0.475319 0.311162
0.411719 0.513390 0.182284
0.750271 0.575036 0.000000
0.949065 0.594690 0.000000
1.000000 0.633478 0.000000
0.000000 0.722377 0.676143
0.000000 0.721614 0.673152
0.000000 0.714076 0.650813
0.262760 0.694331 0.601160
0.257176 0.634241 0.433692
0.586816 0.674647 0.296727
0.874693 0.722774 0.012787
1.000000 0.712612 0.000000
0.372198 0.831418 0.800443
0.418402 0.830503 0.800137
0.481727 0.827085 0.791897
0.547234 0.820127 0.776333
0.517571 0.805051 0.713405
0.508598 0.766293 0.588525
0.748409 0.796933 0.487373
0.948302 0.820249 0.405463
0.658473 0.882841 0.874113
0.673274 0.882109 0.874022
0.722377 0.879606 0.873533
0.743801 0.876738 0.866819
0.772885 0.872313 0.859922
0.727108 0.865507 0.813718
0.728389 0.848661 0.748928
0.865019 0.866850 0.704341
0.000000 0.041962 0.114107
0.000000 0.049104 0.111116
0.190341 0.048585 0.117372
0.516014 0.000000 0.098146
0.778225 0.000000 0.000000
0.961944 0.230106 0.000000
1.000000 0.341619 0.000000
1.000000 0.414710 0.000000
0.000000 0.088838 0.127108
0.000000 0.092561 0.127047
0.213382 0.093568 0.128573
0.493904 0.032258 0.104799
0.762753 0.127321 0.000000
0.953735 0.262394 0.000000
1.000000 0.360998 0.000000
1.000000 0.428168 0.000000
0.000000 0.153292 0.175418
0.000000 0.172854 0.183566
0.177279 0.201480 0.152895
0.427741 0.227634 0.118990
0.709895 0.276799 0.000000
0.923369 0.350561 0.000000
1.000000 0.423072 0.000000
1.000000 0.477852 0.000000
0.000000 0.343908 0.337804
0.000000 0.347539 0.332372
0.050111 0.334874 0.286687
0.309697 0.365972 0.180758
0.615045 0.392737 0.000000
0.860258 0.456306 0.000000
1.000000 0.508873 0.000000
1.000000 0.554101 0.000000
0.000000 0.556725 0.529107
0.000000 0.558618 0.526329
0.000000 0.549767 0.495552
0.102419 0.502922 0.366094
0.459663 0.536828 0.235172
0.765133 0.571801 0.000000
0.954223 0.598383 0.000000
1.000000 0.635676 0.000000
0.000000 0.728664 0.692012
0.000000 0.728603 0.690669
0.225132 0.723537 0.674281
0.361730 0.707088 0.636286
0.322759 0.649104 0.476417
0.614496 0.685298 0.339757
0.880705 0.720516 0.184329
1.000000 0.714443 0.091554
0.359564 0.833585 0.807065
0.406561 0.832731 0.806516
0.516350 0.829313 0.802304
0.574487 0.822934 0.786831
0.562310 0.809110 0.735256
0.537530 0.772061 0.614740
0.759701 0.799557 0.513390
0.949401 0.819120 0.435523
0.641016 0.884459 0.876646
0.657221 0.883665 0.876402
0.714748 0.880858 0.876005
0.751675 0.877684 0.870878
0.779751 0.873472 0.863645
0.743679 0.866545 0.823606
0.738308 0.850065 0.759976
0.868254 0.867491 0.715053
0.000000 0.080598 0.199893
0.000000 0.085145 0.198337
0.157443 0.092958 0.194522
0.490120 0.000000 0.220981
0.861784 0.000000 0.199710
0.997620 0.177066 0.111574
1.000000 0.337804 0.000000
1.000000 0.432380 0.000000
0.000000 0.105501 0.217014
0.000000 0.110597 0.217960
0.177218 0.119814 0.212436
0.506157 0.000000 0.232212
0.845212 0.000000 0.203555
0.988708 0.228946 0.117739
1.000000 0.358709 0.000000
1.000000 0.444770 0.000000
0.000000 0.175357 0.261753
0.000000 0.187381 0.265202
0.214298 0.219730 0.268345
0.536065 0.236057 0.273381
0.784817 0.276341 0.216037
0.952544 0.351843 0.142885
1.000000 0.427771 0.000000
1.000000 0.489082 0.000000
0.000000 0.310918 0.367346
0.000000 0.328862 0.376806
0.195865 0.393225 0.394018
0.411109 0.402289 0.289708
0.680903 0.426459 0.232303
0.887968 0.472358 0.176272
1.000000 0.517296 0.105806
1.000000 0.558831 0.000000
0.000000 0.564172 0.574731
0.000000 0.575097 0.577356
0.212192 0.587457 0.568719
0.286442 0.551446 0.466011
0.545037 0.576471 0.330907
0.794797 0.564935 0.201999
0.964416 0.607172 0.172702
1.000000 0.640497 0.173495
0.000000 0.739681 0.721462
0.000000 0.739437 0.719234
0.346654 0.738582 0.713100
0.467414 0.727077 0.685542
0.420691 0.675319 0.550835
0.662989 0.703792 0.415259
0.892638 0.715175 0.296300
1.000000 0.718563 0.277134
0.286351 0.838529 0.820462
0.347875 0.837583 0.819394
0.512596 0.833890 0.816434
0.614954 0.828092 0.805478
0.634089 0.816831 0.772549
0.586511 0.782742 0.660578
0.779721 0.804501 0.559136
0.952117 0.816678 0.486671
0.586572 0.888487 0.882383
0.606775 0.887602 0.881926
0.678309 0.884184 0.880430
0.763943 0.879728 0.878843
0.790616 0.875853 0.870695
0.773465 0.869017 0.841581
0.756252 0.853056 0.780148
0.874113 0.868742 0.734249
0.000000 0.110536 0.342290
0.000000 0.112978 0.340795
0.155825 0.118318 0.333562
0.383673 0.129122 0.329320
0.799161 0.000000 0.385077
1.000000 0.172946 0.390723
1.000000 0.350408 0.320378
1.000000 0.446845 0.277806
0.000000 0.129335 0.358404
0.000000 0.137331 0.359503
0.172641 0.143801 0.351232
0.400549 0.162631 0.346166
0.804807 0.000000 0.394934
1.000000 0.236027 0.394354
1.000000 0.372503 0.325414
1.000000 0.459480 0.283299
0.000000 0.214298 0.399390
0.000000 0.219486 0.402991
0.191592 0.237064 0.408240
0.446784 0.277317 0.404486
0.821775 0.275242 0.430823
0.991638 0.372656 0.403449
1.000000 0.445228 0.344518
1.000000 0.505089 0.305882
0.000000 0.323857 0.468025
0.000000 0.334966 0.470558
0.127230 0.384497 0.481147
0.503197 0.452613 0.496590
0.772030 0.476875 0.469306
0.927214 0.503471 0.413275
1.000000 0.538445 0.371283
1.000000 0.572045 0.336339
0.000000 0.511437 0.592432
0.000000 0.524529 0.598291
0.000000 0.577691 0.620325
0.480415 0.614374 0.610925
0.633661 0.601831 0.471565
0.840055 0.600427 0.413703
0.978363 0.624842 0.389929
1.000000 0.649287 0.375372
0.000000 0.723720 0.744869
0.000000 0.729244 0.745632
0.219333 0.748287 0.748653
0.542077 0.747341 0.734005
0.532891 0.714137 0.646815
0.727199 0.728145 0.517357
0.912200 0.703120 0.409796
1.000000 0.726131 0.429145
0.000000 0.835386 0.834287
0.127047 0.836851 0.834592
0.392493 0.842008 0.835966
0.626459 0.835996 0.829435
0.710353 0.828550 0.815549
0.651057 0.799100 0.722377
0.806821 0.811551 0.619379
0.958007 0.811978 0.549279
0.407965 0.890867 0.889158
0.446540 0.890990 0.889281
0.567468 0.891234 0.889860
0.714778 0.884916 0.886198
0.802609 0.879759 0.881651
0.813779 0.873869 0.866117
0.781613 0.858366 0.808408
0.882719 0.870848 0.760952
0.000000 0.148898 0.519860
0.000000 0.150759 0.518639
0.000000 0.153719 0.511894
0.409369 0.153262 0.496193
0.683986 0.209781 0.521111
0.971557 0.286992 0.554650
1.000000 0.423590 0.559686
1.000000 0.531090 0.549584
0.000000 0.166537 0.531090
0.000000 0.173129 0.531762
0.023072 0.177249 0.523919
0.420874 0.182437 0.508263
0.691096 0.246677 0.531823
0.970428 0.320043 0.562341
1.000000 0.452430 0.572686
1.000000 0.540917 0.552605
0.000000 0.244694 0.556268
0.000000 0.245487 0.560357
0.000153 0.263981 0.564813
0.451972 0.283482 0.550896
0.710048 0.366400 0.569818
0.962737 0.426856 0.592157
1.000000 0.539574 0.612573
1.000000 0.576745 0.564416
0.000000 0.362707 0.603113
0.000000 0.371008 0.604517
0.000000 0.407294 0.610132
0.474281 0.447669 0.616815
0.724758 0.529259 0.631769
0.945251 0.562829 0.641474
1.000000 0.607019 0.617334
1.000000 0.629603 0.580102
0.000000 0.503655 0.666011
0.000000 0.511711 0.667079
0.000000 0.545861 0.671351
0.460029 0.611933 0.680110
0.739712 0.664637 0.693050
0.881895 0.664210 0.650752
0.978790 0.672023 0.617029
1.000000 0.685267 0.591089
0.000000 0.669551 0.750393
0.000000 0.676570 0.752621
0.160372 0.704433 0.762081
0.501793 0.749294 0.775143
0.678614 0.760311 0.759731
0.781582 0.739345 0.644221
0.928435 0.729915 0.603571
1.000000 0.742489 0.597498
0.000000 0.808408 0.844633
0.000000 0.811154 0.844724
0.306340 0.821469 0.845243
0.554406 0.836271 0.847074
0.746761 0.839170 0.845182
0.731930 0.821653 0.793912
0.841123 0.821530 0.697414
0.967315 0.802304 0.624933
0.133516 0.878630 0.894347
0.233036 0.879332 0.894316
0.420874 0.881926 0.894316
0.602258 0.885801 0.894713
0.764981 0.886107 0.893706
0.844877 0.880980 0.887327
0.816220 0.866911 0.843198
0.894774 0.874266 0.795712
0.000000 0.205142 0.707271
0.000000 0.207645 0.708827
0.000000 0.208865 0.701534
0.437171 0.208774 0.690120
0.700191 0.227237 0.690547
0.903410 0.408026 0.690944
1.000000 0.521691 0.700038
1.000000 0.602991 0.703090
0.000000 0.211887 0.697230
0.000000 0.221164 0.701198
0.000000 0.223789 0.694697
0.426307 0.225162 0.681880
0.685664 0.243992 0.680690
0.890379 0.406867 0.680934
1.000000 0.509514 0.689082
1.000000 0.590692 0.691951
0.000000 0.282506 0.715999
0.000000 0.282048 0.717769
0.000000 0.301579 0.716457
0.435798 0.312657 0.704158
0.694209 0.344030 0.698451
0.884367 0.490425 0.701534
1.000000 0.574487 0.714107
1.000000 0.650446 0.726894
0.000000 0.407111 0.740017
0.000000 0.411170 0.738796
0.000000 0.419867 0.740291
0.422827 0.456428 0.743099
0.702693 0.496620 0.733394
0.874723 0.614588 0.743069
0.989502 0.664881 0.753567
1.000000 0.725643 0.773770
0.000000 0.512291 0.765621
0.000000 0.514397 0.763027
0.000000 0.532555 0.759792
0.247166 0.576379 0.758663
0.668391 0.628290 0.760830
0.852720 0.700313 0.772763
0.966125 0.731899 0.782101
1.000000 0.757992 0.778897
0.000000 0.631586 0.797665
0.000000 0.636316 0.797879
0.000000 0.654902 0.797910
0.334112 0.691371 0.798642
0.632898 0.743404 0.801755
0.843198 0.786404 0.815793
0.930480 0.788785 0.797421
0.990204 0.788724 0.778470
0.000000 0.754147 0.840177
0.000000 0.758877 0.841459
0.000000 0.773617 0.844053
0.472938 0.800046 0.849973
0.694820 0.830289 0.860136
0.824949 0.843412 0.858671
0.868376 0.824918 0.785885
0.964172 0.818509 0.766140
0.000000 0.851408 0.896818
0.000000 0.852903 0.897124
0.253788 0.859129 0.898802
0.527276 0.867765 0.900938
0.712978 0.878782 0.901274
0.836637 0.887388 0.902464
0.865110 0.880034 0.883879
0.910674 0.879149 0.836057
0.000000 0.274388 0.834653
0.000000 0.279973 0.834897
0.000000 0.279484 0.827939
0.434760 0.283177 0.819760
0.697169 0.300816 0.805386
0.876493 0.372320 0.794491
0.976867 0.587182 0.789975
1.000000 0.680720 0.800412
0.000000 0.274846 0.829129
0.000000 0.288609 0.830198
0.000000 0.290196 0.824826
0.422797 0.293614 0.816037
0.688624 0.311070 0.801907
0.870695 0.380621 0.792081
0.973266 0.587579 0.787625
1.000000 0.681453 0.799649
0.000000 0.319921 0.828885
0.000000 0.319341 0.829465
0.000000 0.343572 0.826932
0.403510 0.357366 0.822416
0.679194 0.377234 0.807614
0.864652 0.441840 0.798886
0.962860 0.624903 0.795926
1.000000 0.708125 0.810544
0.000000 0.417456 0.829404
0.000000 0.417823 0.830442
0.000000 0.417212 0.831235
0.315160 0.453407 0.830625
0.651575 0.480262 0.819333
0.858915 0.541070 0.818082
0.946288 0.690028 0.815335
1.000000 0.745327 0.826291
0.000000 0.494728 0.841550
0.000000 0.498299 0.841703
0.000000 0.506310 0.837949
0.000000 0.536400 0.833799
0.568261 0.586969 0.832700
0.821836 0.637568 0.827634
0.927123 0.752926 0.837369
0.990570 0.782498 0.843137
0.000000 0.595026 0.858885
0.000000 0.596002 0.857694
0.000000 0.603723 0.854337
0.000000 0.626062 0.850278
0.340581 0.669368 0.845609
0.774228 0.743832 0.850614
0.908904 0.808255 0.860807
0.976806 0.823056 0.865110
0.000000 0.714870 0.884642
0.000000 0.717433 0.884367
0.000000 0.729091 0.883360
0.000000 0.749660 0.880064
0.474861 0.779629 0.875212
0.732082 0.814481 0.871763
0.888579 0.847532 0.878843
0.958618 0.852689 0.877165
0.000000 0.800565 0.898741
0.000000 0.802121 0.898375
0.000000 0.809873 0.897337
0.121614 0.825132 0.896147
0.581750 0.845945 0.897337
0.779965 0.867033 0.902312
0.889097 0.888304 0.909514
0.923796 0.879728 0.879362
