20 Preset/Japan Style/【3】LUT video cho PR-AE-FCPX/LUT VIDEO (2)/Japan Style LUT (16).cube
# Created by Adobe Lightroom plugin Export LUT (1.24.0)
# www.johnrellis.com/lightroom/exportlut.htm
# Preset: 16日系暖色（素材江湖）
# Color profile: C:\Program Files (x86)\Common Files\Adobe\Color\Profiles\Recommended\VideoHD.icc
LUT_3D_SIZE 8
DOMAIN_MIN 0.000000 0.000000 0.000000
DOMAIN_MAX 0.903226 0.903226 0.903226
0.000000 0.033356 0.036652
0.002502 0.041871 0.045045
0.211368 0.017762 0.061616
0.548180 0.000000 0.045411
0.895750 0.000000 0.000000
1.000000 0.000000 0.000000
1.000000 0.000000 0.000000
1.000000 0.195682 0.165774
0.000000 0.087617 0.076417
0.000000 0.089509 0.062745
0.208286 0.101411 0.046601
0.536187 0.000000 0.011963
0.882628 0.000000 0.000000
1.000000 0.000000 0.000000
1.000000 0.000000 0.000000
1.000000 0.241215 0.149264
0.000000 0.195956 0.137606
0.000000 0.192050 0.124178
0.159243 0.211460 0.094911
0.516045 0.292515 0.000000
0.854612 0.309056 0.000000
1.000000 0.312749 0.000000
1.000000 0.337530 0.000000
1.000000 0.381201 0.063416
0.000000 0.439887 0.276493
0.000000 0.435065 0.257816
0.000000 0.421057 0.229313
0.456001 0.486641 0.114595
0.812894 0.561303 0.000000
0.998688 0.564538 0.000000
1.000000 0.542718 0.000000
1.000000 0.533532 0.000000
0.000000 0.683894 0.485298
0.000000 0.681331 0.472450
0.000000 0.671687 0.421729
0.355962 0.674586 0.399237
0.724727 0.710231 0.301183
0.941527 0.721828 0.000000
1.000000 0.703487 0.000000
1.000000 0.674647 0.000000
0.354833 0.814542 0.662928
0.363500 0.814572 0.658656
0.381781 0.810880 0.634668
0.472297 0.799802 0.614282
0.641199 0.807797 0.584131
0.866636 0.818845 0.521996
0.992523 0.810880 0.362921
1.000000 0.786862 0.000000
0.632868 0.872404 0.782773
0.640833 0.872068 0.782803
0.643854 0.870726 0.772549
0.650874 0.868040 0.752712
0.711025 0.860838 0.748287
0.806394 0.866361 0.724605
0.930510 0.870512 0.685573
1.000000 0.861265 0.579828
0.793515 0.905058 0.858915
0.799161 0.904784 0.860014
0.805753 0.904234 0.858457
0.808255 0.903410 0.851408
0.817105 0.900298 0.842924
0.848234 0.899840 0.839567
0.897459 0.904601 0.826352
0.966369 0.909239 0.802274
0.000000 0.046540 0.081575
0.000000 0.051423 0.075593
0.205112 0.041444 0.068452
0.518120 0.000000 0.023072
0.872679 0.000000 0.000000
1.000000 0.000000 0.000000
1.000000 0.000000 0.000000
1.000000 0.218296 0.148959
0.000000 0.089815 0.092256
0.000000 0.096773 0.093904
0.203891 0.109499 0.080629
0.515373 0.018555 0.000000
0.865904 0.000000 0.000000
1.000000 0.000000 0.000000
1.000000 0.087953 0.000000
1.000000 0.259159 0.133455
0.000000 0.203311 0.155123
0.000000 0.205203 0.151431
0.174746 0.223362 0.122835
0.513481 0.291173 0.000000
0.839658 0.329900 0.000000
1.000000 0.334630 0.000000
1.000000 0.350713 0.000000
1.000000 0.386389 0.000000
0.000000 0.439490 0.293034
0.000000 0.439246 0.285924
0.000000 0.422950 0.254826
0.454841 0.484596 0.164523
0.800778 0.552483 0.000000
0.990204 0.560571 0.000000
1.000000 0.543450 0.000000
1.000000 0.533745 0.000000
0.000000 0.683803 0.497230
0.000000 0.682643 0.492348
0.000000 0.672724 0.441962
0.364172 0.672480 0.417487
0.721767 0.708125 0.328222
0.937346 0.719387 0.000000
1.000000 0.701564 0.000000
1.000000 0.674372 0.000000
0.354620 0.813321 0.665827
0.379889 0.812711 0.665187
0.397345 0.809201 0.642023
0.478370 0.798825 0.620172
0.642847 0.806485 0.593347
0.865263 0.818570 0.536828
0.990234 0.810697 0.384771
1.000000 0.786679 0.000000
0.628595 0.871794 0.782589
0.641718 0.871092 0.784237
0.646845 0.869718 0.774868
0.654139 0.867124 0.755337
0.712337 0.860014 0.751034
0.806302 0.865782 0.728542
0.929320 0.870024 0.690700
1.000000 0.860929 0.587427
0.790249 0.904753 0.858335
0.796475 0.904570 0.859586
0.806760 0.903899 0.859403
0.809445 0.903075 0.852476
0.820218 0.900816 0.845426
0.849912 0.899962 0.841794
0.897856 0.904631 0.828519
0.966033 0.909331 0.805264
0.000000 0.078614 0.141482
0.000000 0.080018 0.139620
0.161013 0.087037 0.140169
0.537865 0.000000 0.139559
0.875334 0.000000 0.071870
1.000000 0.000000 0.000000
1.000000 0.203464 0.000000
1.000000 0.290257 0.127382
0.000000 0.106233 0.156710
0.000000 0.111727 0.160128
0.181918 0.122560 0.159792
0.541833 0.000000 0.157259
0.867185 0.000000 0.072511
1.000000 0.167025 0.000000
1.000000 0.255344 0.000000
1.000000 0.318242 0.108492
0.000000 0.215000 0.211276
0.000000 0.229160 0.219425
0.206607 0.254154 0.214054
0.533989 0.288701 0.167056
0.848478 0.323552 0.002716
1.000000 0.369055 0.000000
1.000000 0.400153 0.000000
1.000000 0.417273 0.000000
0.000000 0.462226 0.362097
0.000000 0.466957 0.365393
0.103517 0.468360 0.346441
0.492592 0.515496 0.302464
0.807614 0.557397 0.034882
0.991150 0.561669 0.000000
1.000000 0.559930 0.000000
1.000000 0.548974 0.000000
0.000000 0.691859 0.541497
0.000000 0.692500 0.544396
0.227207 0.690028 0.532280
0.420050 0.683253 0.502434
0.735744 0.720821 0.444434
0.933867 0.724239 0.270634
1.000000 0.704097 0.000000
1.000000 0.680262 0.000000
0.370245 0.815061 0.686366
0.407782 0.814755 0.688960
0.481788 0.812253 0.685512
0.524315 0.804074 0.656794
0.662104 0.807919 0.639338
0.865293 0.821408 0.598779
0.983246 0.813565 0.473884
1.000000 0.789578 0.216983
0.629603 0.872618 0.790677
0.642542 0.871977 0.792111
0.680232 0.869902 0.794400
0.685847 0.867430 0.776608
0.728939 0.859983 0.769467
0.813107 0.866239 0.752041
0.928038 0.871611 0.722927
1.000000 0.863249 0.632715
0.785550 0.905425 0.860105
0.791348 0.905119 0.861051
0.814359 0.904143 0.865446
0.820645 0.903410 0.860380
0.827390 0.901671 0.851987
0.855406 0.900145 0.849729
0.900328 0.905272 0.838529
0.965240 0.910399 0.818753
0.000000 0.102083 0.259434
0.000000 0.103395 0.260533
0.175692 0.102998 0.261784
0.428656 0.040894 0.282292
0.857420 0.000000 0.301061
1.000000 0.000000 0.291966
1.000000 0.249485 0.219211
1.000000 0.332952 0.101076
0.000000 0.128878 0.284215
0.000000 0.134676 0.287266
0.193454 0.137392 0.286961
0.449989 0.136049 0.304356
0.863920 0.000000 0.314488
1.000000 0.115267 0.299840
1.000000 0.298497 0.228031
1.000000 0.359380 0.062715
0.000000 0.229252 0.336034
0.000000 0.236271 0.341161
0.204623 0.269780 0.364935
0.513390 0.300114 0.379644
0.861753 0.317876 0.382269
1.000000 0.383368 0.330175
1.000000 0.437507 0.268162
1.000000 0.450599 0.122072
0.000000 0.460060 0.456123
0.000000 0.473701 0.465156
0.098207 0.512902 0.488136
0.514794 0.542290 0.472786
0.807523 0.560327 0.405707
0.979889 0.574426 0.368750
1.000000 0.579797 0.310704
1.000000 0.568780 0.185702
0.000000 0.707057 0.614252
0.000000 0.707362 0.615106
0.322423 0.709377 0.622431
0.504479 0.702052 0.610864
0.747707 0.735744 0.589044
0.923217 0.731838 0.468330
1.000000 0.713802 0.373022
1.000000 0.692012 0.280552
0.384314 0.820157 0.723018
0.421668 0.820340 0.725460
0.530846 0.818326 0.731899
0.608789 0.813931 0.721828
0.696498 0.811917 0.708095
0.866453 0.827146 0.685847
0.971862 0.818631 0.589441
1.000000 0.794705 0.414649
0.620142 0.874449 0.803891
0.634333 0.873930 0.805203
0.686061 0.871824 0.810605
0.736202 0.868956 0.811246
0.758083 0.863890 0.797726
0.824735 0.867399 0.788174
0.926299 0.874235 0.769375
0.996338 0.866667 0.696407
0.772030 0.907378 0.863615
0.778653 0.907042 0.864530
0.804105 0.905913 0.868498
0.839567 0.904601 0.874418
0.842710 0.903349 0.865141
0.864500 0.900481 0.862791
0.904387 0.906371 0.854459
0.964233 0.912444 0.839933
0.000000 0.134707 0.446204
0.000000 0.135531 0.447913
0.165316 0.132937 0.452277
0.428412 0.094759 0.464302
0.737240 0.091310 0.492195
1.000000 0.130007 0.507103
1.000000 0.330816 0.502129
1.000000 0.455665 0.489754
0.000000 0.165469 0.467170
0.000000 0.166415 0.468666
0.178103 0.166690 0.472084
0.443702 0.150240 0.481636
0.744137 0.190188 0.506188
1.000000 0.228092 0.519036
1.000000 0.388434 0.524102
1.000000 0.474495 0.495186
0.000000 0.253269 0.497810
0.000000 0.257053 0.506096
0.166506 0.289189 0.530144
0.480964 0.306310 0.537041
0.757351 0.384222 0.556847
0.992065 0.418006 0.563348
1.000000 0.522148 0.576379
1.000000 0.537285 0.511711
0.000000 0.442786 0.573968
0.000000 0.448707 0.576562
0.000000 0.474800 0.588708
0.499886 0.536370 0.618677
0.778012 0.582269 0.636255
0.951354 0.618097 0.634241
1.000000 0.633570 0.599298
1.000000 0.624353 0.533501
0.000000 0.683223 0.673548
0.000000 0.689540 0.677974
0.178012 0.712032 0.693874
0.553185 0.726711 0.704799
0.744198 0.741299 0.695247
0.904082 0.737087 0.642603
1.000000 0.732601 0.615930
1.000000 0.715663 0.557092
0.322515 0.824369 0.765286
0.365942 0.823880 0.765621
0.492622 0.821439 0.766659
0.643336 0.817746 0.772061
0.726070 0.811673 0.766537
0.863462 0.830198 0.760983
0.959686 0.821408 0.687037
1.000000 0.801846 0.605341
0.586633 0.877440 0.822202
0.599969 0.876829 0.822507
0.651209 0.874723 0.824582
0.737453 0.871305 0.831571
0.790616 0.868040 0.829709
0.835447 0.867704 0.823117
0.924651 0.876951 0.813687
0.988464 0.869444 0.755398
0.724727 0.910735 0.866117
0.733700 0.910246 0.866911
0.768124 0.908568 0.870298
0.821195 0.906584 0.877653
0.863035 0.905272 0.883085
0.874571 0.902831 0.876463
0.908446 0.907439 0.872313
0.963195 0.914702 0.862669
0.000000 0.183413 0.645289
0.000000 0.183444 0.645808
0.150515 0.180209 0.646937
0.459968 0.162448 0.649897
0.712947 0.119997 0.664668
0.924956 0.322728 0.660243
1.000000 0.447700 0.666835
1.000000 0.537652 0.666438
0.000000 0.211582 0.651484
0.000000 0.211917 0.651789
0.159060 0.211246 0.652522
0.463172 0.202823 0.654597
0.714717 0.190951 0.669368
0.921172 0.362432 0.665827
1.000000 0.472511 0.672999
1.000000 0.554803 0.673213
0.000000 0.283696 0.668208
0.000000 0.290990 0.672297
0.146273 0.323095 0.680568
0.477394 0.333837 0.682429
0.727596 0.361822 0.695644
0.909728 0.497902 0.695430
1.000000 0.564446 0.702113
1.000000 0.622339 0.704158
0.000000 0.448707 0.694453
0.000000 0.451423 0.694850
0.000000 0.464332 0.697841
0.480171 0.527947 0.723629
0.731563 0.569360 0.735134
0.893706 0.649287 0.743496
1.000000 0.680629 0.748043
1.000000 0.726131 0.763058
0.000000 0.643977 0.741909
0.000000 0.646998 0.742580
0.000000 0.660182 0.745907
0.474434 0.685603 0.754147
0.724971 0.729183 0.774533
0.883146 0.756558 0.786374
0.969421 0.770809 0.785153
1.000000 0.766751 0.760922
0.167971 0.803037 0.795193
0.248905 0.805325 0.797147
0.416510 0.812955 0.803647
0.600153 0.822599 0.813779
0.758297 0.825223 0.820096
0.858671 0.832212 0.817258
0.947326 0.824521 0.784756
1.000000 0.815518 0.762325
0.557000 0.881682 0.851469
0.572656 0.881224 0.851621
0.628656 0.879149 0.851987
0.714839 0.875792 0.853513
0.804013 0.872648 0.858030
0.851591 0.869078 0.856260
0.924224 0.880491 0.855283
0.981750 0.872953 0.812345
0.695064 0.914397 0.880705
0.702571 0.914031 0.880888
0.733455 0.912566 0.881956
0.784970 0.910369 0.884733
0.847044 0.908324 0.890684
0.890776 0.907622 0.894987
0.914275 0.909178 0.892027
0.963043 0.918547 0.887846
0.000000 0.262943 0.798367
0.000000 0.264836 0.799863
0.250614 0.263676 0.798154
0.503502 0.261357 0.796780
0.727596 0.264927 0.794553
0.893736 0.314824 0.785214
1.000000 0.513725 0.771725
1.000000 0.606012 0.767697
0.000000 0.280400 0.791958
0.000000 0.282933 0.794034
0.237766 0.282872 0.792813
0.492226 0.281041 0.790738
0.715541 0.285740 0.788266
0.882200 0.330449 0.778500
0.994202 0.514519 0.765988
1.000000 0.600305 0.761776
0.000000 0.350866 0.800351
0.000000 0.363287 0.801297
0.227085 0.376013 0.800351
0.491676 0.382757 0.798550
0.712673 0.399207 0.795834
0.877348 0.450324 0.790372
0.979797 0.597681 0.783963
1.000000 0.662165 0.784604
0.000000 0.463630 0.800748
0.000000 0.465400 0.801450
0.000000 0.478187 0.805936
0.482979 0.536309 0.811917
0.705837 0.559319 0.811460
0.869078 0.606928 0.813718
0.956268 0.704189 0.812039
1.000000 0.734035 0.812741
0.000000 0.621027 0.814725
0.000000 0.620142 0.813199
0.000000 0.623102 0.810727
0.353857 0.632898 0.809140
0.674617 0.690120 0.822141
0.847593 0.723171 0.830350
0.935241 0.775692 0.833921
0.998535 0.793759 0.839536
0.000000 0.764126 0.834043
0.000000 0.765286 0.834287
0.257908 0.769131 0.834623
0.479622 0.776913 0.835874
0.665888 0.789700 0.839139
0.836240 0.817655 0.853452
0.930541 0.836912 0.863920
0.984070 0.844968 0.866850
0.432319 0.859983 0.860319
0.456672 0.860716 0.861204
0.534112 0.862577 0.863584
0.650233 0.866484 0.868833
0.766751 0.872496 0.877073
0.862333 0.875486 0.883055
0.920592 0.880858 0.883604
0.975067 0.875212 0.866056
0.656397 0.916442 0.899687
0.666835 0.916228 0.900023
0.709499 0.915709 0.901762
0.769894 0.914458 0.903868
0.831205 0.912413 0.905516
0.887449 0.912016 0.909361
0.923003 0.912474 0.911498
0.963317 0.923095 0.912627
0.214878 0.377844 0.887541
0.264958 0.379339 0.887663
0.392889 0.377142 0.885008
0.561273 0.380163 0.882444
0.736049 0.388220 0.878141
0.894285 0.413855 0.872679
0.980804 0.476326 0.851072
1.000000 0.633448 0.835630
0.190311 0.388800 0.884245
0.247471 0.390478 0.884489
0.383398 0.390234 0.882628
0.552972 0.392462 0.879881
0.729000 0.400427 0.875700
0.888518 0.425971 0.870420
0.976104 0.484108 0.849119
1.000000 0.635706 0.834165
0.083223 0.444007 0.881987
0.212131 0.451972 0.881743
0.363043 0.451911 0.879820
0.543999 0.461860 0.879026
0.718044 0.470497 0.874571
0.875395 0.492836 0.868986
0.964599 0.546197 0.852079
1.000000 0.673854 0.840055
0.000000 0.486183 0.878447
0.000000 0.489998 0.878935
0.199924 0.513939 0.878447
0.513725 0.560052 0.876493
0.695369 0.572107 0.873777
0.853513 0.595117 0.870359
0.946960 0.642084 0.860655
0.995056 0.735592 0.853025
0.000000 0.595178 0.875731
0.000000 0.595758 0.875669
0.000000 0.592218 0.873228
0.318120 0.610651 0.872892
0.650385 0.670619 0.872801
0.818784 0.690364 0.871489
0.926665 0.729732 0.871366
0.976867 0.795163 0.869627
0.000000 0.729335 0.880888
0.000000 0.728481 0.880186
0.000000 0.726802 0.878202
0.271397 0.726650 0.875517
0.518120 0.729488 0.872251
0.788418 0.782345 0.879057
0.912871 0.812741 0.887907
0.965850 0.847044 0.891295
0.236088 0.841337 0.894560
0.273320 0.841489 0.894438
0.380255 0.841520 0.893828
0.520897 0.842283 0.893065
0.662928 0.844144 0.892302
0.786343 0.848295 0.892515
0.899107 0.864958 0.900542
0.962493 0.882902 0.909575
0.537438 0.899809 0.907805
0.549432 0.899596 0.907805
0.600214 0.899351 0.908232
0.686427 0.899535 0.909850
0.778408 0.901274 0.912718
0.857939 0.907561 0.919158
0.922087 0.916533 0.927703
0.960357 0.924041 0.931792
