20 Preset/Japan Style/【3】LUT video cho PR-AE-FCPX/LUT VIDEO (2)/Japan Style LUT (29).cube
# Created by Adobe Lightroom plugin Export LUT (1.24.0)
# www.johnrellis.com/lightroom/exportlut.htm
# Preset: 29日系绿色背景（素材江湖）
# Color profile: C:\Program Files (x86)\Common Files\Adobe\Color\Profiles\Recommended\VideoHD.icc
LUT_3D_SIZE 5
DOMAIN_MIN 0.000000 0.000000 0.000000
DOMAIN_MAX 0.903226 0.903226 0.903226
0.000000 0.000000 0.000000
0.217990 0.014923 0.047303
0.712917 0.000000 0.071809
1.000000 0.343267 0.169162
1.000000 0.523033 0.343694
0.022889 0.174075 0.128878
0.178286 0.237217 0.028412
0.666438 0.320531 0.049683
0.978027 0.460456 0.166293
1.000000 0.574365 0.354284
0.181765 0.473365 0.313634
0.116060 0.444007 0.264897
0.566949 0.625360 0.117372
0.938262 0.688411 0.242039
1.000000 0.712551 0.425483
0.459541 0.715297 0.525353
0.414282 0.703639 0.488838
0.316838 0.641749 0.365148
0.792782 0.832242 0.393530
1.000000 0.853819 0.470161
0.728786 0.875669 0.751034
0.718044 0.874449 0.740291
0.683558 0.868467 0.698146
0.712062 0.884367 0.655879
0.913481 0.940124 0.669581
0.000000 0.029236 0.207034
0.227573 0.002655 0.207889
0.738705 0.000000 0.243320
0.997345 0.398077 0.300175
1.000000 0.544640 0.367651
0.007050 0.229252 0.228855
0.246708 0.263951 0.259861
0.699733 0.356054 0.284825
0.973602 0.491981 0.330632
1.000000 0.593164 0.398779
0.365972 0.531395 0.423804
0.347601 0.521752 0.395941
0.585046 0.631617 0.309056
0.922271 0.695918 0.412543
1.000000 0.727718 0.511803
0.561425 0.738674 0.596704
0.524712 0.727352 0.564446
0.404883 0.668605 0.432166
0.795468 0.832120 0.474372
1.000000 0.857359 0.556481
0.754849 0.879393 0.772763
0.744930 0.878019 0.762905
0.706416 0.871489 0.719631
0.716365 0.881498 0.670558
0.914244 0.940032 0.695613
0.000000 0.100160 0.590875
0.325994 0.107210 0.606073
0.768551 0.202976 0.628840
0.998779 0.460578 0.616876
1.000000 0.639246 0.646357
0.000000 0.297612 0.587518
0.296757 0.319188 0.608148
0.755093 0.419654 0.641535
0.971954 0.553674 0.632746
1.000000 0.675257 0.658839
0.362066 0.630549 0.598901
0.468025 0.640253 0.609155
0.688899 0.674311 0.648157
0.890196 0.729885 0.672847
1.000000 0.769375 0.695155
0.714168 0.789334 0.725124
0.717037 0.789609 0.724147
0.697383 0.774594 0.689174
0.806607 0.832334 0.663172
0.976013 0.867765 0.735195
0.808865 0.891386 0.822934
0.812070 0.891936 0.823484
0.797269 0.888060 0.803433
0.735256 0.870603 0.720363
0.918853 0.940673 0.773587
0.306828 0.245396 0.842222
0.470192 0.268681 0.844236
0.783108 0.412818 0.851682
0.966644 0.567895 0.848325
1.000000 0.721004 0.819730
0.319371 0.393469 0.835416
0.471870 0.414862 0.837949
0.769924 0.528893 0.846342
0.946990 0.647242 0.848051
1.000000 0.751736 0.826596
0.000000 0.624750 0.797543
0.294530 0.622034 0.797024
0.702113 0.693996 0.821592
0.899107 0.780636 0.843992
0.986053 0.819455 0.841794
0.669520 0.833585 0.807675
0.694148 0.835477 0.810147
0.773495 0.843565 0.820432
0.861784 0.857572 0.838834
0.956390 0.881498 0.852659
0.867918 0.908263 0.876371
0.869688 0.909361 0.877379
0.874723 0.912566 0.879240
0.869596 0.910033 0.864897
0.929015 0.942992 0.861601
0.536400 0.444892 0.947997
0.598901 0.450416 0.947539
0.769863 0.522759 0.943786
0.927031 0.667659 0.936614
1.000000 0.735836 0.929808
0.552911 0.508415 0.943114
0.608026 0.523491 0.942138
0.766812 0.589075 0.938506
0.918456 0.705867 0.933410
1.000000 0.762783 0.928649
0.518242 0.661372 0.927855
0.590417 0.678859 0.926787
0.746609 0.720424 0.925780
0.895323 0.790982 0.926726
0.982788 0.834684 0.929259
0.518791 0.814633 0.908782
0.545525 0.813230 0.908446
0.643000 0.808865 0.908751
0.856229 0.854856 0.920195
0.964508 0.907652 0.938354
0.788571 0.927886 0.912779
0.798917 0.928496 0.913756
0.840055 0.932464 0.919280
0.898711 0.940612 0.929931
0.954284 0.953338 0.946258
