20 Preset/Japan Style/【3】LUT video cho PR-AE-FCPX/LUT VIDEO (2)/Japan Style LUT (10).cube
# Created by Adobe Lightroom plugin Export LUT (1.24.0)
# www.johnrellis.com/lightroom/exportlut.htm
# Preset: 10日系清新（素材江湖）
# Color profile: C:\Program Files (x86)\Common Files\Adobe\Color\Profiles\Recommended\VideoHD.icc
LUT_3D_SIZE 32
DOMAIN_MIN 0.0 0.0 0.0
DOMAIN_MAX 1.0 1.0 1.0
0.000000 0.000000 0.000000
0.000000 0.000000 0.000000
0.033783 0.000000 0.000000
0.125216 0.000000 0.000000
0.181552 0.000000 0.000000
0.241886 0.000000 0.000000
0.301091 0.000000 0.000000
0.356390 0.000000 0.000000
0.407385 0.000000 0.000000
0.454292 0.000000 0.000000
0.499001 0.000000 0.000000
0.541588 0.000000 0.000000
0.582696 0.000000 0.000000
0.622217 0.000000 0.005890
0.660304 0.000000 0.021118
0.696681 0.000000 0.044160
0.731380 0.028138 0.077516
0.763668 0.071229 0.098909
0.792905 0.097322 0.114656
0.819181 0.117464 0.131014
0.843046 0.134463 0.147036
0.865446 0.151400 0.162997
0.885954 0.167117 0.178408
0.905425 0.181674 0.192416
0.923888 0.195499 0.205936
0.941161 0.209079 0.219120
0.957458 0.221958 0.231907
0.972900 0.234348 0.244388
0.987579 0.246220 0.256352
1.000000 0.257847 0.268009
1.000000 0.269017 0.279179
1.000000 0.280186 0.290471
0.000000 0.000000 0.000000
0.000000 0.000000 0.000000
0.043702 0.000000 0.000000
0.127260 0.000000 0.000000
0.180880 0.000000 0.000000
0.240848 0.000000 0.000000
0.299992 0.000000 0.000000
0.355077 0.000000 0.000000
0.406409 0.000000 0.000000
0.453376 0.000000 0.000000
0.497841 0.000000 0.000000
0.540490 0.000000 0.000000
0.581659 0.000000 0.000000
0.621271 0.000000 0.007843
0.659236 0.001648 0.021942
0.695735 0.021302 0.046265
0.730556 0.052918 0.078981
0.762936 0.086397 0.099031
0.792172 0.104585 0.115267
0.818448 0.121492 0.131716
0.842313 0.138796 0.147311
0.864622 0.153841 0.163027
0.884977 0.169284 0.178317
0.904417 0.183871 0.192325
0.922850 0.197513 0.205844
0.940154 0.210117 0.218906
0.956542 0.222660 0.231479
0.972045 0.234958 0.243992
0.986816 0.246708 0.255985
1.000000 0.258122 0.267430
1.000000 0.269413 0.278874
1.000000 0.280430 0.290013
0.000000 0.046815 0.017609
0.000000 0.048768 0.018402
0.022889 0.051972 0.007172
0.123262 0.058076 0.000000
0.177218 0.074311 0.000000
0.238041 0.082124 0.000000
0.297246 0.086183 0.000000
0.352850 0.084657 0.000000
0.404089 0.084749 0.000000
0.451270 0.081727 0.000000
0.496071 0.082551 0.000000
0.538994 0.081666 0.000000
0.580163 0.082673 0.000092
0.619776 0.086030 0.010986
0.657984 0.090913 0.026368
0.694392 0.097780 0.053132
0.729305 0.106386 0.084413
0.761715 0.117189 0.102144
0.791073 0.128695 0.117983
0.817441 0.141329 0.134005
0.841398 0.154482 0.149874
0.863554 0.168215 0.165225
0.883909 0.181216 0.180026
0.903410 0.193698 0.194003
0.921813 0.206119 0.207553
0.939239 0.217472 0.220157
0.955596 0.229587 0.232975
0.971191 0.241062 0.245121
0.986023 0.252110 0.256779
1.000000 0.263035 0.268345
1.000000 0.273381 0.279667
1.000000 0.284031 0.290684
0.000000 0.113405 0.067231
0.000000 0.112825 0.068482
0.029114 0.109224 0.076204
0.106447 0.122805 0.015015
0.184665 0.115663 0.000000
0.234836 0.137026 0.000000
0.292943 0.144778 0.000000
0.348241 0.146304 0.000000
0.400366 0.146090 0.000000
0.448005 0.144778 0.000000
0.493324 0.143435 0.000000
0.536217 0.142275 0.000000
0.577905 0.141726 0.008240
0.617609 0.142641 0.021546
0.655787 0.143648 0.040162
0.692287 0.147005 0.070649
0.727230 0.151125 0.093568
0.759518 0.157809 0.109529
0.788937 0.164797 0.124788
0.815305 0.173220 0.140414
0.839292 0.181979 0.155032
0.861387 0.191897 0.170138
0.881804 0.201938 0.184543
0.901366 0.212009 0.197910
0.920012 0.222049 0.210697
0.937591 0.232364 0.223789
0.954162 0.242893 0.236271
0.969909 0.252964 0.248142
0.984894 0.262669 0.259586
0.999176 0.272526 0.270878
1.000000 0.282353 0.281956
1.000000 0.292027 0.292882
0.000000 0.161593 0.112825
0.000000 0.160830 0.112612
0.028809 0.158083 0.113924
0.059846 0.160342 0.105440
0.154330 0.177218 0.057710
0.246342 0.162966 0.000000
0.293706 0.180941 0.000000
0.341436 0.199435 0.005219
0.394018 0.199680 0.002441
0.442634 0.198856 0.002197
0.488441 0.196933 0.004456
0.532128 0.195651 0.011902
0.573938 0.194278 0.024414
0.614130 0.194217 0.041718
0.652522 0.194278 0.068879
0.689021 0.196506 0.091859
0.724300 0.198459 0.105531
0.756802 0.201968 0.120546
0.786252 0.206241 0.134340
0.812833 0.210910 0.149172
0.836851 0.216800 0.163638
0.858915 0.223209 0.177737
0.879393 0.230411 0.191379
0.899138 0.237675 0.204166
0.917906 0.245426 0.216709
0.935607 0.253819 0.229191
0.952300 0.261997 0.241245
0.968170 0.270390 0.252689
0.983215 0.278752 0.263828
0.997528 0.287175 0.274815
1.000000 0.295628 0.285618
1.000000 0.304387 0.296391
0.000000 0.211124 0.143801
0.000000 0.210605 0.143679
0.000000 0.207889 0.144106
0.073610 0.203037 0.145937
0.099397 0.213046 0.126772
0.199374 0.230564 0.088197
0.298589 0.212314 0.000000
0.347601 0.222171 0.000000
0.391272 0.238621 0.011414
0.435859 0.250675 0.025269
0.482521 0.249088 0.030091
0.526909 0.247623 0.040589
0.569177 0.246220 0.060517
0.609613 0.245701 0.083467
0.648310 0.245365 0.097108
0.685420 0.245579 0.109743
0.720699 0.246708 0.122011
0.753475 0.248051 0.135714
0.783017 0.249882 0.148684
0.809659 0.252415 0.162203
0.833768 0.255650 0.175540
0.855894 0.259739 0.188479
0.881041 0.266789 0.204746
0.900847 0.272038 0.217075
0.919493 0.277501 0.229068
0.937011 0.283574 0.240848
0.953491 0.289708 0.252628
0.969116 0.296147 0.263279
0.983917 0.302861 0.274052
0.998047 0.309606 0.284520
1.000000 0.316716 0.295018
1.000000 0.323796 0.305028
0.000000 0.260655 0.177157
0.000000 0.260288 0.177066
0.000000 0.258244 0.177218
0.019837 0.254398 0.178134
0.114595 0.247807 0.181888
0.136965 0.265415 0.150362
0.241611 0.282170 0.110231
0.339574 0.268101 0.016846
0.397620 0.262242 0.009430
0.438514 0.277195 0.037568
0.479225 0.293462 0.074617
0.521904 0.300359 0.093843
0.564813 0.298863 0.102632
0.605768 0.297765 0.111727
0.644923 0.296818 0.121218
0.682002 0.296086 0.132448
0.717678 0.295720 0.143038
0.750301 0.295659 0.154879
0.779812 0.295903 0.166964
0.806882 0.296574 0.179263
0.831449 0.297826 0.191592
0.854154 0.299565 0.203708
0.875425 0.302190 0.216190
0.895811 0.305425 0.227726
0.915038 0.308843 0.239078
0.932860 0.313176 0.250553
0.949706 0.317052 0.260807
0.965484 0.321843 0.271427
0.980468 0.326818 0.281682
0.994751 0.331884 0.291600
1.000000 0.337377 0.301366
1.000000 0.343114 0.311192
0.000000 0.306279 0.211276
0.000000 0.306096 0.211673
0.000000 0.304417 0.211551
0.000000 0.301213 0.212039
0.106630 0.296178 0.214206
0.128725 0.296361 0.206271
0.177462 0.313420 0.178286
0.279057 0.328801 0.139742
0.377203 0.322271 0.085237
0.440467 0.299565 0.062257
0.479896 0.313542 0.093355
0.518822 0.329137 0.111208
0.557183 0.345983 0.130098
0.597955 0.347875 0.139315
0.637598 0.346380 0.147219
0.675227 0.344915 0.156161
0.711147 0.343816 0.165408
0.744167 0.342412 0.175174
0.774044 0.341070 0.185946
0.801053 0.340032 0.197024
0.825620 0.339452 0.207858
0.848539 0.339300 0.218784
0.870054 0.339788 0.229862
0.890715 0.340917 0.240635
0.910155 0.342870 0.251286
0.928283 0.345006 0.261570
0.945281 0.347539 0.271672
0.961364 0.350225 0.281132
0.976562 0.353491 0.290623
0.990997 0.357214 0.300267
1.000000 0.360998 0.309514
1.000000 0.365423 0.318822
0.000000 0.349279 0.246983
0.000000 0.349004 0.247044
0.000000 0.347784 0.247196
0.004852 0.345434 0.247654
0.111421 0.341405 0.249149
0.158999 0.335882 0.252964
0.160281 0.342718 0.235172
0.218784 0.358190 0.209689
0.313542 0.372137 0.173770
0.413977 0.373022 0.123598
0.480812 0.335485 0.104097
0.518700 0.348882 0.121370
0.556237 0.363867 0.139986
0.592981 0.379828 0.158236
0.629297 0.395026 0.175784
0.667597 0.393072 0.182834
0.703914 0.391089 0.190158
0.737148 0.388769 0.198856
0.767208 0.386023 0.207492
0.794308 0.383520 0.216953
0.819120 0.381384 0.226383
0.842191 0.379706 0.236332
0.864012 0.378576 0.246403
0.884977 0.378149 0.256046
0.904662 0.378271 0.265537
0.923156 0.378668 0.274937
0.940368 0.379553 0.284215
0.956664 0.380926 0.293065
0.972076 0.382727 0.302068
0.986755 0.384741 0.310857
1.000000 0.387304 0.319677
1.000000 0.390234 0.328344
0.000000 0.389685 0.282506
0.000000 0.389410 0.282353
0.000000 0.388495 0.282475
0.067109 0.386542 0.282933
0.124147 0.383520 0.283848
0.165957 0.379004 0.286351
0.203922 0.373083 0.291051
0.199344 0.385840 0.266087
0.257481 0.400061 0.241062
0.346532 0.413001 0.207370
0.448554 0.420233 0.159670
0.518395 0.369604 0.130800
0.555016 0.382666 0.149020
0.591150 0.396857 0.166537
0.626703 0.412024 0.184176
0.661372 0.427771 0.202335
0.695613 0.437293 0.216556
0.729000 0.434058 0.223362
0.759213 0.430457 0.230838
0.786557 0.426734 0.239017
0.811673 0.423163 0.247074
0.835019 0.419959 0.255528
0.857053 0.417426 0.264225
0.878172 0.415595 0.272465
0.898100 0.414099 0.280888
0.916777 0.413092 0.289311
0.934386 0.412543 0.297856
0.950988 0.412421 0.305943
0.966705 0.412818 0.314214
0.981720 0.413581 0.322515
0.995972 0.414862 0.330755
1.000000 0.416602 0.338994
0.005005 0.427771 0.316258
0.013123 0.427588 0.316258
0.058656 0.426947 0.316503
0.108003 0.425177 0.316747
0.142000 0.422766 0.317479
0.176089 0.419257 0.319249
0.210605 0.414405 0.322393
0.233524 0.411810 0.322148
0.235752 0.426734 0.295567
0.293889 0.440162 0.271122
0.378912 0.452186 0.238499
0.478340 0.462104 0.194217
0.544579 0.416175 0.165133
0.589593 0.414832 0.172488
0.624567 0.428260 0.189670
0.658625 0.442634 0.207614
0.691279 0.457008 0.225467
0.721157 0.470802 0.243900
0.750118 0.473518 0.254917
0.777676 0.468696 0.261723
0.803159 0.463966 0.268559
0.826871 0.459663 0.275639
0.849424 0.456092 0.283146
0.870970 0.452918 0.290471
0.891234 0.450141 0.297856
0.910185 0.448066 0.305608
0.928069 0.446296 0.313237
0.944976 0.445014 0.320653
0.960967 0.444129 0.328191
0.976196 0.443763 0.335882
0.990661 0.443885 0.343511
1.000000 0.444404 0.351080
0.095216 0.464393 0.348821
0.098695 0.464240 0.348852
0.110414 0.463600 0.348791
0.132906 0.462348 0.349218
0.158267 0.460334 0.349798
0.187472 0.457313 0.351080
0.217594 0.453407 0.353216
0.248356 0.448402 0.357092
0.248203 0.452430 0.344396
0.269444 0.465827 0.323308
0.328130 0.478370 0.298985
0.409033 0.489662 0.268528
0.507195 0.502251 0.229862
0.572656 0.463203 0.199313
0.626184 0.448341 0.196628
0.660090 0.461219 0.214298
0.692073 0.474189 0.232181
0.721492 0.486580 0.250126
0.748043 0.498512 0.268528
0.772244 0.509789 0.286290
0.797421 0.506676 0.294133
0.821347 0.501396 0.300237
0.844114 0.496559 0.306218
0.865721 0.492409 0.312779
0.885985 0.488563 0.319402
0.905058 0.485115 0.325841
0.923003 0.482002 0.332341
0.939910 0.479469 0.338781
0.955901 0.477485 0.345830
0.971160 0.475868 0.352575
0.985687 0.474739 0.359228
0.999664 0.474037 0.365972
0.128481 0.500786 0.380957
0.129763 0.500694 0.380926
0.139498 0.500023 0.381018
0.154635 0.498878 0.381109
0.175418 0.497047 0.381567
0.199863 0.494453 0.382391
0.226932 0.491096 0.384131
0.255009 0.486824 0.386938
0.283696 0.481758 0.391394
0.271763 0.491524 0.369787
0.302281 0.504204 0.350378
0.360967 0.516320 0.326848
0.439490 0.527153 0.297520
0.530968 0.536095 0.259709
0.595026 0.503014 0.228672
0.656245 0.476234 0.215763
0.687892 0.487892 0.233402
0.716945 0.498970 0.251377
0.743435 0.509697 0.269474
0.767514 0.520043 0.287541
0.789822 0.530236 0.305272
0.811215 0.538781 0.321477
0.834409 0.533288 0.326879
0.856535 0.528222 0.332158
0.877287 0.523522 0.337896
0.896696 0.519280 0.343725
0.914977 0.515435 0.349737
0.932311 0.511955 0.355505
0.948669 0.508965 0.361547
0.964263 0.506462 0.367681
0.979126 0.504387 0.373877
0.993317 0.502922 0.380377
0.153841 0.534020 0.410376
0.154574 0.533898 0.410376
0.161746 0.533379 0.410468
0.173739 0.532250 0.410468
0.190799 0.530541 0.410681
0.211490 0.528252 0.411322
0.235630 0.525231 0.412482
0.260746 0.521477 0.414374
0.287510 0.516960 0.417670
0.309514 0.513359 0.419593
0.297551 0.526787 0.393835
0.331914 0.538750 0.374792
0.390570 0.550042 0.351476
0.466163 0.560113 0.323186
0.553918 0.568353 0.287144
0.619104 0.541985 0.255497
0.683497 0.501732 0.233768
0.712215 0.511742 0.251835
0.738705 0.521355 0.269688
0.762722 0.530694 0.287846
0.785214 0.540032 0.305638
0.806546 0.549554 0.323064
0.826719 0.559380 0.340368
0.847044 0.563378 0.352819
0.868132 0.558068 0.357671
0.887968 0.553094 0.362768
0.906676 0.548425 0.367834
0.924254 0.544244 0.373205
0.940978 0.540429 0.378576
0.956847 0.537133 0.384039
0.971954 0.534325 0.389868
0.986450 0.532036 0.395727
0.175418 0.565148 0.438148
0.176394 0.565026 0.438117
0.181247 0.564599 0.438087
0.190921 0.563561 0.438025
0.205386 0.562005 0.438178
0.223819 0.559899 0.438666
0.244541 0.557214 0.439460
0.267613 0.553979 0.440925
0.292088 0.549950 0.443275
0.317662 0.545342 0.447089
0.320684 0.547784 0.438392
0.323400 0.560082 0.416785
0.360357 0.571313 0.397772
0.418311 0.581872 0.374762
0.491768 0.591058 0.346868
0.575860 0.598383 0.312779
0.642542 0.577935 0.280400
0.704280 0.530327 0.254887
0.733913 0.533288 0.269139
0.758053 0.541711 0.287144
0.780728 0.550195 0.305028
0.802365 0.559075 0.322454
0.822873 0.568139 0.339849
0.842130 0.577234 0.356878
0.859953 0.586267 0.373663
0.878813 0.586084 0.382513
0.897826 0.580865 0.387060
0.915801 0.576043 0.391852
0.932860 0.571618 0.396582
0.949065 0.567651 0.401617
0.964538 0.564294 0.406928
0.979339 0.561334 0.412543
0.195010 0.594293 0.464179
0.196201 0.594202 0.464210
0.200168 0.593805 0.464179
0.208011 0.593011 0.464271
0.220462 0.591699 0.464393
0.236210 0.589899 0.464851
0.254887 0.587671 0.465553
0.275700 0.584863 0.466896
0.298436 0.581476 0.468849
0.322179 0.577417 0.471717
0.346654 0.572686 0.475807
0.331609 0.580682 0.455421
0.348730 0.591547 0.438880
0.387762 0.601953 0.419593
0.444495 0.611170 0.396643
0.514916 0.618982 0.369818
0.595422 0.624933 0.337041
0.662745 0.609827 0.304845
0.717739 0.563592 0.280430
0.753109 0.552789 0.285466
0.776089 0.560632 0.303319
0.798123 0.568841 0.320928
0.818997 0.577325 0.338537
0.838621 0.585809 0.355596
0.856748 0.594293 0.372656
0.873625 0.602716 0.389380
0.889097 0.611139 0.406104
0.907012 0.607202 0.411383
0.924346 0.602289 0.415595
0.940856 0.597742 0.420081
0.956573 0.593713 0.424781
0.971618 0.590143 0.429786
0.214908 0.621424 0.488899
0.215732 0.621302 0.488838
0.219089 0.620996 0.488930
0.225650 0.620294 0.489021
0.236088 0.619196 0.489204
0.249546 0.617731 0.489479
0.265782 0.615778 0.490181
0.284794 0.613275 0.491249
0.305394 0.610315 0.492805
0.327153 0.606806 0.495155
0.350164 0.602625 0.498360
0.371008 0.598779 0.501244
0.352270 0.610437 0.475837
0.373754 0.620233 0.459541
0.413672 0.629297 0.440345
0.469032 0.637232 0.418128
0.536278 0.643824 0.391943
0.612482 0.648768 0.360998
0.680842 0.638361 0.328985
0.729946 0.593622 0.305303
0.771542 0.571374 0.300908
0.793942 0.578973 0.318822
0.815152 0.586786 0.336278
0.835080 0.594720 0.353735
0.853574 0.602594 0.370855
0.870726 0.610529 0.387854
0.886564 0.618402 0.404578
0.901244 0.626276 0.420966
0.915404 0.632227 0.435401
0.932189 0.627253 0.439246
0.948241 0.622705 0.443458
0.963592 0.618647 0.447974
0.238376 0.645960 0.512627
0.238987 0.645899 0.512657
0.244724 0.647974 0.515190
0.249973 0.647456 0.515282
0.258488 0.646509 0.515404
0.269871 0.645197 0.515770
0.283665 0.643519 0.516289
0.299931 0.641352 0.517144
0.318029 0.638819 0.518456
0.337804 0.635767 0.520348
0.358648 0.632227 0.522972
0.380255 0.628107 0.526482
0.384253 0.629267 0.519799
0.377447 0.639216 0.498116
0.401068 0.647669 0.481697
0.440467 0.655360 0.462898
0.493660 0.661982 0.440955
0.557305 0.667445 0.415564
0.629175 0.671412 0.386114
0.698390 0.665400 0.353887
0.743130 0.622583 0.330602
0.790646 0.590173 0.316869
0.812131 0.597253 0.334417
0.832181 0.604486 0.352026
0.850858 0.611688 0.369299
0.868132 0.618921 0.386206
0.884215 0.626215 0.402838
0.899138 0.633539 0.419348
0.912963 0.640955 0.435676
0.925811 0.648493 0.451972
0.939513 0.651026 0.463050
0.955108 0.646601 0.467140
0.265049 0.668574 0.535943
0.265782 0.668727 0.536156
0.268345 0.668727 0.536431
0.273136 0.668421 0.536767
0.280186 0.667781 0.537163
0.289769 0.666743 0.537530
0.301854 0.665309 0.538109
0.315648 0.663478 0.538750
0.331487 0.661250 0.539910
0.349065 0.658656 0.541619
0.367895 0.655634 0.543847
0.387640 0.652155 0.546868
0.408026 0.648066 0.550622
0.396796 0.653864 0.534173
0.401343 0.662318 0.517174
0.425940 0.669917 0.501030
0.464454 0.676783 0.482551
0.515129 0.682704 0.461372
0.575769 0.687648 0.436927
0.644282 0.691341 0.408667
0.714412 0.689174 0.376715
0.755215 0.648646 0.353521
0.808072 0.607080 0.330541
0.828489 0.613703 0.348333
0.847501 0.620325 0.365606
0.865171 0.627100 0.382879
0.881590 0.633875 0.399878
0.896757 0.640803 0.416754
0.910948 0.647730 0.433204
0.924132 0.654871 0.449653
0.936400 0.662196 0.466163
0.947784 0.669673 0.482490
0.291508 0.688533 0.557488
0.292271 0.688685 0.557702
0.294469 0.688685 0.557946
0.298497 0.688472 0.558373
0.304540 0.687953 0.558770
0.312688 0.687068 0.559197
0.322698 0.685817 0.559716
0.334752 0.684260 0.560510
0.348669 0.682368 0.561547
0.364050 0.680110 0.563012
0.380896 0.677485 0.564996
0.398749 0.674495 0.567620
0.417426 0.671015 0.570886
0.435157 0.667597 0.574029
0.414405 0.676783 0.550439
0.426459 0.684077 0.536553
0.451148 0.690974 0.520531
0.488258 0.697230 0.502281
0.536492 0.702724 0.481758
0.594079 0.707240 0.458015
0.659358 0.710536 0.430640
0.729915 0.711696 0.399084
0.767788 0.673579 0.375738
0.819852 0.631830 0.350774
0.844205 0.629358 0.361639
0.862272 0.635554 0.378973
0.879026 0.641871 0.396155
0.894591 0.648280 0.413184
0.909087 0.654871 0.430243
0.922576 0.661616 0.446998
0.935180 0.668574 0.463752
0.946960 0.675746 0.480354
0.318822 0.707515 0.578729
0.319371 0.707637 0.578943
0.321263 0.707607 0.579217
0.324773 0.707424 0.579583
0.329747 0.706966 0.579980
0.336675 0.706172 0.580377
0.345281 0.705074 0.580896
0.355688 0.703731 0.581659
0.367864 0.702022 0.582727
0.381537 0.700069 0.584131
0.396582 0.697749 0.585931
0.412848 0.695094 0.588312
0.429725 0.692103 0.591211
0.447547 0.688655 0.594781
0.450813 0.689570 0.589685
0.438941 0.697749 0.569757
0.451759 0.704616 0.555962
0.476204 0.711055 0.540185
0.511742 0.716976 0.522545
0.557733 0.722133 0.502403
0.612482 0.726375 0.479591
0.674708 0.729458 0.453346
0.742977 0.731258 0.422827
0.782254 0.698451 0.398840
0.830594 0.658412 0.374060
0.860258 0.645197 0.375830
0.877379 0.651026 0.393500
0.893278 0.657099 0.410986
0.908049 0.663294 0.428443
0.921935 0.669703 0.445686
0.934813 0.676356 0.462898
0.946746 0.683284 0.480171
0.348150 0.726528 0.600946
0.348638 0.726528 0.601007
0.349950 0.726467 0.601160
0.352514 0.726162 0.601343
0.356817 0.725673 0.601648
0.362585 0.724910 0.602014
0.370062 0.723934 0.602564
0.379095 0.722713 0.603296
0.389563 0.721187 0.604211
0.401678 0.719448 0.605585
0.415076 0.717403 0.607263
0.429511 0.715084 0.609369
0.444648 0.712428 0.611902
0.460670 0.709377 0.614954
0.476936 0.706050 0.618555
0.467292 0.710903 0.605219
0.464118 0.718105 0.589349
0.477577 0.724483 0.575830
0.501091 0.730465 0.560418
0.534936 0.735897 0.542901
0.578515 0.740566 0.523125
0.630335 0.744350 0.500816
0.689387 0.747036 0.475227
0.754482 0.748470 0.445686
0.795346 0.720882 0.420752
0.840299 0.682551 0.395850
0.875059 0.659602 0.388342
0.891356 0.665217 0.406409
0.906615 0.671077 0.424201
0.920806 0.677119 0.441932
0.934051 0.683528 0.459754
0.946380 0.690211 0.477760
0.375677 0.743526 0.621332
0.376104 0.743526 0.621454
0.377173 0.743435 0.621607
0.379675 0.743191 0.621790
0.383093 0.742733 0.622065
0.388037 0.742092 0.622400
0.394385 0.741238 0.622889
0.402106 0.740139 0.623560
0.411261 0.738827 0.624506
0.421668 0.737301 0.625666
0.433265 0.735531 0.627131
0.445869 0.733486 0.628931
0.459297 0.731167 0.631098
0.473518 0.728542 0.633722
0.488289 0.725673 0.636835
0.501152 0.723201 0.639002
0.482582 0.730983 0.619409
0.487922 0.737240 0.607752
0.502190 0.743191 0.594812
0.525353 0.748714 0.579980
0.557733 0.753750 0.563043
0.598810 0.758022 0.543816
0.648035 0.761471 0.521996
0.704097 0.763882 0.497169
0.765743 0.764675 0.467689
0.807919 0.741634 0.442298
0.849943 0.705013 0.417304
0.889525 0.673518 0.400610
0.905211 0.679042 0.419013
0.919860 0.684840 0.437446
0.933532 0.690974 0.456153
0.946258 0.697536 0.475013
0.402747 0.760250 0.641596
0.403357 0.760281 0.641749
0.404242 0.760189 0.641901
0.406134 0.759915 0.641993
0.409094 0.759487 0.642176
0.413031 0.758846 0.642420
0.418280 0.758022 0.642786
0.424689 0.757015 0.643305
0.432410 0.755795 0.643977
0.441321 0.754360 0.644923
0.451331 0.752743 0.646113
0.462257 0.750912 0.647578
0.474067 0.748836 0.649409
0.486610 0.746487 0.651575
0.499855 0.743893 0.654139
0.513512 0.740993 0.657160
0.514336 0.742306 0.652064
0.502647 0.749233 0.635401
0.510124 0.755001 0.624567
0.525139 0.760525 0.612268
0.548150 0.765652 0.598260
0.579339 0.770260 0.582208
0.618341 0.774197 0.563684
0.664851 0.777310 0.542321
0.717983 0.779446 0.518059
0.777188 0.780514 0.490211
0.820401 0.761471 0.464454
0.859861 0.726650 0.439399
0.904234 0.687465 0.413214
0.919371 0.692958 0.432410
0.933440 0.698939 0.451942
0.946471 0.705226 0.471717
0.426856 0.775387 0.659876
0.427222 0.775448 0.659998
0.428077 0.775387 0.660121
0.429725 0.775174 0.660273
0.432319 0.774807 0.660487
0.435859 0.774319 0.660792
0.440436 0.773678 0.661189
0.446143 0.772824 0.661738
0.452857 0.771847 0.662440
0.460670 0.770657 0.663355
0.469490 0.769284 0.664454
0.479225 0.767727 0.665827
0.489723 0.765957 0.667475
0.500969 0.763943 0.669368
0.512779 0.761685 0.671534
0.525170 0.759182 0.674128
0.537987 0.756466 0.677150
0.528344 0.761227 0.665278
0.524010 0.767300 0.652155
0.532860 0.772641 0.641840
0.548394 0.777737 0.630213
0.571160 0.782467 0.616938
0.601160 0.786679 0.601801
0.638361 0.790341 0.584344
0.682307 0.793210 0.564202
0.732753 0.795224 0.540764
0.789120 0.796231 0.513848
0.833249 0.780819 0.488289
0.870573 0.748135 0.463569
0.914672 0.710658 0.436835
0.933959 0.707851 0.448585
0.946929 0.713161 0.467536
0.450721 0.790372 0.677943
0.450965 0.790372 0.678004
0.451606 0.790311 0.678096
0.453040 0.790127 0.678218
0.455177 0.789822 0.678401
0.458259 0.789364 0.678676
0.462165 0.788754 0.679042
0.467109 0.788052 0.679500
0.472908 0.787167 0.680140
0.479835 0.786130 0.680995
0.487587 0.784939 0.681971
0.496132 0.783597 0.683192
0.505486 0.782071 0.684596
0.515435 0.780362 0.686305
0.526268 0.778378 0.688289
0.537469 0.776242 0.690547
0.549279 0.773892 0.693263
0.557122 0.772885 0.693599
0.542504 0.779294 0.677974
0.545159 0.784573 0.668330
0.555077 0.789578 0.658625
0.571160 0.794308 0.647639
0.593500 0.798672 0.635187
0.622553 0.802579 0.620966
0.658015 0.805966 0.604700
0.699733 0.808682 0.585840
0.747646 0.810605 0.563989
0.801358 0.811643 0.538293
0.846098 0.799435 0.513146
0.881254 0.768734 0.488441
0.923796 0.733211 0.460609
0.947601 0.721096 0.461769
0.473335 0.804685 0.695186
0.473579 0.804715 0.695216
0.474189 0.804623 0.695308
0.475441 0.804501 0.695460
0.477363 0.804257 0.695674
0.480079 0.803922 0.695979
0.483680 0.803494 0.696437
0.488258 0.803006 0.697078
0.493721 0.802365 0.697871
0.500053 0.801602 0.698817
0.507225 0.800717 0.699947
0.515190 0.799680 0.701289
0.523857 0.798489 0.702815
0.533165 0.797086 0.704524
0.543023 0.795529 0.706477
0.553429 0.793729 0.708675
0.564385 0.791775 0.711208
0.575799 0.789639 0.714137
0.573968 0.791897 0.708522
0.564050 0.797787 0.695033
0.569421 0.802640 0.686824
0.579919 0.807340 0.677607
0.596002 0.811734 0.667292
0.617914 0.815854 0.655787
0.645808 0.819547 0.642786
0.679622 0.822751 0.627893
0.719081 0.825223 0.610468
0.764004 0.826810 0.589837
0.814633 0.827543 0.565454
0.858976 0.817563 0.539940
0.892332 0.788968 0.514946
0.933410 0.755612 0.487190
0.498360 0.819577 0.713558
0.498390 0.819577 0.713588
0.498939 0.819486 0.713619
0.499947 0.819333 0.713741
0.501640 0.819120 0.713924
0.504021 0.818784 0.714199
0.507134 0.818387 0.714595
0.511070 0.817868 0.715084
0.515801 0.817288 0.715755
0.521324 0.816526 0.716548
0.527642 0.815702 0.717556
0.534630 0.814786 0.718715
0.542504 0.813687 0.720119
0.550896 0.812436 0.721675
