20 Preset/Japan Style/【3】LUT video cho PR-AE-FCPX/LUT VIDEO (2)/Japan Style LUT (27).cube
# Created by Adobe Lightroom plugin Export LUT (1.24.0)
# www.johnrellis.com/lightroom/exportlut.htm
# Preset: 27日系胶片（素材江湖）
# Color profile: C:\Program Files (x86)\Common Files\Adobe\Color\Profiles\Recommended\VideoHD.icc
LUT_3D_SIZE 5
DOMAIN_MIN 0.000000 0.000000 0.000000
DOMAIN_MAX 0.903226 0.903226 0.903226
0.000000 0.089082 0.122438
0.081453 0.093568 0.126223
0.289982 0.081147 0.128115
0.644739 0.000000 0.110597
0.956878 0.000000 0.000000
0.000000 0.144472 0.154116
0.025483 0.142184 0.146609
0.346166 0.179629 0.109377
0.698665 0.144350 0.022766
0.974823 0.183536 0.000000
0.000000 0.462226 0.284398
0.000000 0.455299 0.230472
0.383459 0.457404 0.237797
0.786618 0.516075 0.000000
0.996460 0.528923 0.000000
0.000000 0.779477 0.563806
0.004913 0.779690 0.525505
0.470527 0.766690 0.435737
0.745510 0.757229 0.493172
0.959380 0.786007 0.384405
0.694148 0.927367 0.837095
0.703975 0.927367 0.832761
0.702052 0.923644 0.785580
0.812558 0.919615 0.764553
0.914183 0.919554 0.814176
0.000000 0.094697 0.158938
0.042481 0.096712 0.160616
0.281529 0.086610 0.153262
0.634241 0.000000 0.120882
0.937713 0.000000 0.000000
0.000000 0.139895 0.187350
0.018616 0.154299 0.191257
0.330816 0.163516 0.166751
0.673701 0.140719 0.113466
0.953063 0.211917 0.000000
0.000000 0.445930 0.340917
0.000000 0.449592 0.314092
0.372290 0.441352 0.286259
0.771084 0.493568 0.024506
0.988891 0.510552 0.000000
0.178042 0.775906 0.603693
0.305608 0.775418 0.591669
0.481758 0.766445 0.491859
0.745113 0.756435 0.534417
0.957275 0.784512 0.423987
0.696040 0.926909 0.845335
0.710140 0.926421 0.843015
0.719997 0.927642 0.808957
0.817685 0.922332 0.782040
0.916960 0.922637 0.828611
0.000000 0.111696 0.309300
0.000000 0.118837 0.318090
0.350591 0.086915 0.343755
0.705165 0.000000 0.299565
0.918212 0.000000 0.220096
0.000000 0.179843 0.343053
0.000000 0.184573 0.351873
0.385138 0.191989 0.374273
0.696742 0.000000 0.299535
0.934783 0.000000 0.229679
0.000000 0.412360 0.449165
0.000000 0.425208 0.451606
0.432929 0.474586 0.462562
0.747402 0.454108 0.373114
0.970703 0.455970 0.265019
0.362615 0.770077 0.719173
0.410163 0.766690 0.708614
0.550225 0.765103 0.664149
0.748745 0.759152 0.654932
0.955871 0.774929 0.525872
0.690089 0.924498 0.871672
0.706477 0.924529 0.870542
0.760067 0.924132 0.862913
0.812589 0.921141 0.817411
0.915190 0.921263 0.850523
0.000000 0.161746 0.589105
0.000000 0.169070 0.601221
0.446662 0.198001 0.641566
0.787350 0.091798 0.665248
1.000000 0.140322 0.619257
0.000000 0.226108 0.604913
0.000000 0.235935 0.614282
0.457099 0.283177 0.651392
0.783841 0.271824 0.673426
0.993072 0.264439 0.616571
0.000000 0.416419 0.617823
0.000000 0.418067 0.614862
0.430610 0.480720 0.670069
0.758724 0.536431 0.700191
0.958679 0.460670 0.606897
0.355688 0.714931 0.763638
0.413550 0.717372 0.763027
0.581231 0.733822 0.767697
0.756344 0.763180 0.775998
0.941497 0.724025 0.674495
0.723812 0.924498 0.921599
0.733120 0.924712 0.920409
0.770108 0.926299 0.915129
0.832334 0.926268 0.896391
0.918395 0.924285 0.891783
0.000000 0.273381 0.853422
0.128603 0.280339 0.855161
0.535119 0.327977 0.866423
0.812955 0.477546 0.880644
0.988495 0.444648 0.876677
0.000000 0.319402 0.848234
0.033356 0.328222 0.850767
0.524163 0.377142 0.861753
0.802976 0.514733 0.876524
0.977539 0.492378 0.874632
0.000000 0.471443 0.840177
0.000000 0.481147 0.843168
0.465461 0.509545 0.855528
0.776547 0.621271 0.873014
0.950408 0.639612 0.881529
0.000000 0.683619 0.864775
0.000000 0.679103 0.861479
0.226932 0.666255 0.852628
0.721096 0.732021 0.880980
0.931273 0.808927 0.911254
0.646693 0.885435 0.929168
0.660700 0.885985 0.928862
0.722621 0.891844 0.930419
0.816464 0.902770 0.932494
0.918639 0.921965 0.937316
