20 Preset/Japan Style/【3】LUT video cho PR-AE-FCPX/LUT VIDEO (2)/Japan Style LUT (41).cube
# Created by Adobe Lightroom plugin Export LUT (1.24.0)
# www.johnrellis.com/lightroom/exportlut.htm
# Preset: 41日系青蓝（素材江湖）
# Color profile: C:\Program Files (x86)\Common Files\Adobe\Color\Profiles\Recommended\VideoHD.icc
LUT_3D_SIZE 5
DOMAIN_MIN 0.000000 0.000000 0.000000
DOMAIN_MAX 0.903226 0.903226 0.903226
0.000000 0.000000 0.000000
0.440803 0.000000 0.000000
0.894377 0.220035 0.000000
1.000000 0.462623 0.120516
1.000000 0.558251 0.361913
0.000000 0.388556 0.254032
0.319402 0.493324 0.133303
0.860899 0.519280 0.143435
1.000000 0.561212 0.303716
1.000000 0.603235 0.446418
0.482826 0.702266 0.639002
0.536095 0.699580 0.650507
0.746273 0.742367 0.585779
0.944152 0.731594 0.610376
1.000000 0.714565 0.635645
0.726467 0.803159 0.770657
0.740230 0.802518 0.774044
0.782681 0.806332 0.777554
0.880186 0.836088 0.741512
0.959533 0.818235 0.763546
0.847898 0.872648 0.858946
0.855833 0.872282 0.864164
0.868254 0.870787 0.867826
0.885222 0.874113 0.866087
0.910979 0.878050 0.851835
0.000000 0.049042 0.246403
0.376989 0.130251 0.281193
0.847227 0.362524 0.318181
0.995270 0.532555 0.425391
1.000000 0.595117 0.509453
0.000000 0.430671 0.368719
0.361089 0.498756 0.407843
0.816495 0.553735 0.438636
0.977844 0.596368 0.490028
1.000000 0.628748 0.553155
0.510338 0.704311 0.665064
0.556023 0.702632 0.674220
0.745571 0.740780 0.632044
0.933715 0.736477 0.653681
1.000000 0.723079 0.670314
0.733211 0.804135 0.778256
0.746365 0.803616 0.781430
0.786557 0.807218 0.785275
0.881529 0.836515 0.753841
0.956573 0.820279 0.774746
0.845975 0.873075 0.858366
0.855924 0.872587 0.865354
0.869780 0.871489 0.870481
0.885954 0.874327 0.869139
0.910674 0.878019 0.855772
0.000000 0.184085 0.618738
0.487007 0.229007 0.650935
0.763058 0.478035 0.632258
0.947448 0.583490 0.647272
1.000000 0.651606 0.680720
0.000000 0.486275 0.638697
0.477485 0.525261 0.668605
0.742977 0.565637 0.652155
0.934661 0.634516 0.670985
1.000000 0.674647 0.695796
0.497688 0.719722 0.690578
0.599573 0.719417 0.726467
0.758480 0.741970 0.726314
0.912474 0.745724 0.736233
0.990082 0.741817 0.742092
0.735225 0.808927 0.788968
0.760250 0.808438 0.801999
0.798367 0.810086 0.810544
0.882078 0.835721 0.791684
0.948333 0.826230 0.807675
0.829404 0.875334 0.850523
0.842374 0.874571 0.858793
0.871336 0.872984 0.876677
0.887175 0.874327 0.877958
0.909972 0.877958 0.866545
0.351293 0.380346 0.772519
0.563531 0.418250 0.781308
0.783261 0.572351 0.760555
0.908476 0.652644 0.765316
0.991699 0.700618 0.780941
0.391943 0.547601 0.766812
0.558770 0.570092 0.776211
0.773404 0.638697 0.769162
0.897704 0.676844 0.773068
0.986236 0.715999 0.787320
0.475105 0.724971 0.772793
0.564019 0.723507 0.776852
0.765225 0.741390 0.797421
0.893217 0.743923 0.795621
0.968872 0.765255 0.810300
0.712276 0.820493 0.796841
0.740749 0.819638 0.808255
0.815763 0.820035 0.842313
0.883848 0.836484 0.839475
0.940734 0.830106 0.844816
0.799374 0.880674 0.842069
0.813169 0.879667 0.849210
0.856626 0.876738 0.873594
0.889677 0.874723 0.892302
0.907164 0.877287 0.884337
0.607385 0.571893 0.875273
0.682155 0.583795 0.876585
0.877806 0.631617 0.882872
0.937041 0.716854 0.849577
0.964111 0.769162 0.854582
0.605646 0.631800 0.870756
0.674067 0.638575 0.872679
0.866941 0.670771 0.881743
0.930266 0.735164 0.853727
0.959258 0.778988 0.858671
0.555627 0.725032 0.861814
0.624659 0.728664 0.864561
0.811856 0.748836 0.876829
0.911040 0.786831 0.868559
0.943359 0.810544 0.872435
0.610285 0.853666 0.878508
0.644312 0.849577 0.878508
0.752865 0.834592 0.879179
0.886107 0.840970 0.887633
0.922362 0.848142 0.888365
0.753567 0.888457 0.853513
0.771450 0.887175 0.857786
0.829953 0.883146 0.874357
0.889342 0.878813 0.900542
0.902312 0.877775 0.905547
