20 Preset/Japan Style/【3】LUT video cho PR-AE-FCPX/LUT VIDEO (2)/Japan Style LUT (44).cube
# Created by Adobe Lightroom plugin Export LUT (1.24.0)
# www.johnrellis.com/lightroom/exportlut.htm
# Preset: 44日系清新（素材江湖）
# Color profile: C:\Program Files (x86)\Common Files\Adobe\Color\Profiles\Recommended\VideoHD.icc
LUT_3D_SIZE 8
DOMAIN_MIN 0.000000 0.000000 0.000000
DOMAIN_MAX 0.903226 0.903226 0.903226
0.085725 0.089082 0.083528
0.149966 0.089479 0.087526
0.356939 0.030335 0.090791
0.671778 0.000000 0.064057
0.945342 0.000000 0.026459
1.000000 0.000000 0.119142
1.000000 0.000000 0.204776
1.000000 0.217136 0.299199
0.000000 0.154879 0.081636
0.139071 0.162203 0.063355
0.397314 0.143984 0.064149
0.702602 0.000000 0.011749
0.956970 0.000000 0.000000
1.000000 0.000000 0.116487
1.000000 0.000000 0.204776
1.000000 0.242649 0.299596
0.000000 0.362402 0.000000
0.000000 0.348089 0.000000
0.319982 0.403815 0.000000
0.823514 0.407202 0.000000
1.000000 0.315068 0.000000
1.000000 0.280766 0.144717
1.000000 0.299596 0.246555
1.000000 0.359380 0.339147
0.000000 0.632563 0.000000
0.000000 0.621332 0.000000
0.000000 0.623682 0.000000
0.614862 0.684901 0.000000
1.000000 0.656275 0.000000
1.000000 0.508263 0.249119
1.000000 0.483314 0.330999
1.000000 0.493202 0.407721
0.000000 0.809506 0.000000
0.000000 0.803464 0.000000
0.000000 0.778195 0.000000
0.400488 0.809415 0.000000
0.768734 0.826017 0.000000
1.000000 0.781704 0.000000
1.000000 0.648280 0.352422
1.000000 0.631067 0.511559
0.000000 0.897154 0.232792
0.000000 0.895384 0.237247
0.000000 0.883452 0.237034
0.258030 0.867063 0.209476
0.573632 0.890806 0.000000
0.835203 0.894469 0.000000
1.000000 0.865690 0.000000
1.000000 0.762692 0.468605
0.000000 0.945953 0.424811
0.000000 0.944701 0.425452
0.000000 0.938659 0.421210
0.326635 0.926390 0.413062
0.485695 0.928252 0.333989
0.680629 0.936675 0.205295
0.874327 0.935576 0.003052
1.000000 0.925902 0.244388
0.379217 0.976440 0.586053
0.389532 0.975708 0.585443
0.431891 0.972625 0.584253
0.503136 0.966430 0.583093
0.576989 0.955596 0.569299
0.624994 0.968566 0.459419
0.766903 0.971527 0.414343
0.912230 0.969696 0.391119
0.103090 0.095247 0.128206
0.150423 0.093812 0.131014
0.334600 0.063966 0.144320
0.626154 0.000000 0.150973
0.915679 0.000000 0.157168
1.000000 0.000000 0.192050
1.000000 0.000000 0.252995
1.000000 0.262089 0.332647
0.008240 0.159548 0.141726
0.156283 0.160311 0.136416
0.362799 0.156558 0.145449
0.666072 0.079652 0.147463
0.934112 0.000000 0.155306
1.000000 0.000000 0.194736
1.000000 0.147372 0.256809
1.000000 0.284337 0.335210
0.000000 0.371374 0.131044
0.000000 0.359319 0.124727
0.325597 0.397345 0.000000
0.808286 0.375402 0.082429
0.997650 0.325170 0.155612
1.000000 0.305608 0.220584
1.000000 0.326909 0.290898
1.000000 0.382147 0.369848
0.000000 0.632715 0.000000
0.000000 0.622065 0.000000
0.000000 0.611505 0.000000
0.604425 0.670771 0.000000
0.990417 0.639460 0.000000
1.000000 0.517235 0.303746
1.000000 0.495766 0.366735
1.000000 0.506615 0.433875
0.000000 0.809842 0.000000
0.000000 0.803586 0.000000
0.000000 0.777920 0.081544
0.403906 0.803189 0.000000
0.766751 0.820066 0.000000
1.000000 0.774960 0.000000
1.000000 0.654414 0.405554
1.000000 0.642817 0.537560
0.000000 0.895384 0.281895
0.000000 0.892729 0.281498
0.000000 0.880888 0.278935
0.286564 0.861967 0.261143
0.578271 0.887663 0.000000
0.836240 0.892515 0.000000
1.000000 0.862760 0.137179
1.000000 0.766751 0.503075
0.000000 0.944182 0.446265
0.000000 0.942626 0.443885
0.000000 0.936614 0.439368
0.345220 0.924468 0.430976
0.497536 0.925505 0.364172
0.684352 0.934813 0.253269
0.874846 0.933959 0.157473
1.000000 0.923461 0.284337
0.393256 0.975280 0.594751
0.405188 0.974640 0.595270
0.444465 0.971527 0.593835
0.511284 0.965423 0.591791
0.591547 0.955627 0.586572
0.636072 0.967529 0.484779
0.770718 0.970703 0.437568
0.913329 0.969177 0.414588
0.154360 0.108186 0.246098
0.200565 0.102907 0.260716
0.343175 0.096040 0.281254
0.642969 0.000000 0.334112
0.881285 0.000000 0.318151
1.000000 0.168917 0.343420
1.000000 0.308843 0.399451
1.000000 0.407660 0.464027
0.148379 0.166781 0.252934
0.199161 0.172763 0.266758
0.357549 0.181674 0.292576
0.639277 0.156130 0.323552
0.874113 0.061372 0.306981
1.000000 0.238956 0.353338
1.000000 0.333227 0.403845
1.000000 0.420142 0.467170
0.000000 0.397498 0.333227
0.000000 0.399451 0.328801
0.390143 0.392126 0.281437
0.710872 0.379431 0.333806
0.938354 0.379950 0.359777
1.000000 0.399329 0.396582
1.000000 0.436225 0.442786
1.000000 0.485969 0.499031
0.000000 0.668971 0.370581
0.000000 0.658656 0.364599
0.220920 0.619745 0.310338
0.630213 0.666102 0.154849
0.985473 0.622553 0.391669
1.000000 0.583032 0.491463
1.000000 0.576226 0.522942
1.000000 0.587640 0.561028
0.000000 0.819272 0.391821
0.000000 0.815213 0.368536
0.000000 0.792630 0.350866
0.459419 0.793118 0.294652
0.782315 0.817380 0.103700
1.000000 0.767666 0.381262
1.000000 0.712093 0.614282
1.000000 0.700923 0.645869
0.000000 0.895537 0.446693
0.000000 0.893126 0.445045
0.000000 0.882048 0.436988
0.407263 0.858701 0.418982
0.613153 0.881804 0.329808
0.845884 0.889067 0.241917
1.000000 0.857542 0.412360
1.000000 0.793790 0.637171
0.250980 0.941314 0.550164
0.271305 0.939971 0.547753
0.346258 0.934356 0.539879
0.453834 0.922972 0.526146
0.560662 0.918425 0.484627
0.709895 0.930999 0.410681
0.882811 0.932219 0.362463
1.000000 0.919646 0.456703
0.491493 0.972503 0.652033
0.496407 0.971801 0.650721
0.521752 0.968902 0.648249
0.570153 0.963287 0.644862
0.630823 0.954009 0.636103
0.675380 0.962707 0.569238
0.788479 0.968170 0.527001
0.918883 0.967834 0.508507
0.226688 0.115053 0.430213
0.270481 0.109499 0.448219
0.446876 0.000000 0.517845
0.661097 0.000000 0.536736
0.910307 0.209964 0.576867
1.000000 0.296696 0.542718
1.000000 0.397925 0.537469
1.000000 0.503258 0.579278
0.225376 0.185367 0.440040
0.269963 0.186404 0.455665
0.446448 0.182071 0.520684
0.669551 0.191226 0.543969
0.905516 0.287266 0.575341
1.000000 0.343206 0.543481
1.000000 0.424506 0.541222
1.000000 0.522667 0.588739
0.102663 0.311833 0.443458
0.192935 0.315953 0.442969
0.420905 0.385412 0.511345
0.673976 0.425940 0.557458
0.880522 0.450660 0.564202
0.990875 0.471015 0.548974
1.000000 0.531151 0.580713
1.000000 0.585138 0.627466
0.000000 0.686458 0.623407
0.000000 0.685023 0.619867
0.367926 0.678492 0.605982
0.700160 0.649561 0.536431
0.903288 0.639399 0.619715
0.993957 0.641077 0.635859
1.000000 0.651087 0.656367
1.000000 0.667079 0.680018
0.085023 0.840879 0.633845
0.255924 0.835752 0.632471
0.486610 0.811398 0.628107
0.587732 0.772396 0.573205
0.811246 0.808499 0.497536
0.992950 0.779965 0.675288
1.000000 0.773373 0.747189
1.000000 0.762570 0.749142
0.506859 0.892119 0.679744
0.526390 0.890196 0.680415
0.517723 0.883970 0.645960
0.576074 0.865446 0.613092
0.686793 0.871336 0.570825
0.864775 0.883482 0.520745
1.000000 0.857603 0.656825
1.000000 0.835813 0.779202
0.566888 0.934417 0.705196
0.566033 0.933806 0.700771
0.559350 0.931121 0.679347
0.599237 0.921538 0.663050
0.655940 0.905455 0.634668
0.756008 0.923827 0.591302
0.896239 0.928374 0.559106
1.000000 0.915190 0.649531
0.631281 0.968048 0.745754
0.630793 0.967681 0.743069
0.631647 0.965942 0.732967
0.657099 0.960723 0.725917
0.693965 0.952209 0.713893
0.733639 0.953918 0.680201
0.817411 0.963409 0.646174
0.928374 0.965515 0.636225
0.317479 0.130587 0.630793
0.354376 0.127962 0.643763
0.494057 0.111116 0.690761
0.733669 0.084535 0.768185
0.904997 0.222171 0.753750
1.000000 0.446723 0.739742
1.000000 0.523644 0.712947
1.000000 0.585046 0.710872
0.316472 0.203433 0.633600
0.354131 0.204654 0.646143
0.493568 0.209781 0.691402
0.730404 0.231907 0.765866
0.901549 0.306615 0.753902
1.000000 0.485878 0.742702
1.000000 0.543603 0.715877
1.000000 0.597528 0.714137
0.275761 0.344396 0.620356
0.332860 0.364630 0.635126
0.477577 0.391669 0.679011
0.712764 0.448188 0.752956
0.880766 0.495796 0.750973
0.973297 0.584222 0.746273
1.000000 0.604395 0.722866
1.000000 0.637659 0.723232
0.000000 0.526360 0.668421
0.202487 0.527855 0.666865
0.416876 0.537835 0.660914
0.684504 0.625544 0.725246
0.849638 0.670008 0.754452
0.937865 0.677394 0.742763
0.997955 0.679194 0.731075
1.000000 0.697566 0.738857
0.254948 0.834653 0.796139
0.339910 0.833005 0.795071
0.533806 0.826444 0.790433
0.709133 0.807370 0.775875
0.845945 0.791562 0.735897
0.938994 0.789975 0.790951
0.991119 0.786374 0.793637
1.000000 0.785855 0.797879
0.577630 0.902617 0.785702
0.595483 0.900450 0.786069
0.654139 0.890959 0.785092
0.731716 0.870878 0.779751
0.756497 0.843351 0.734585
0.882170 0.873014 0.709133
0.990204 0.865354 0.812284
1.000000 0.862608 0.850553
0.671534 0.936950 0.800839
0.679561 0.935515 0.801236
0.710079 0.929747 0.802945
0.731289 0.920989 0.789517
0.744533 0.907225 0.757809
0.800748 0.912657 0.730220
0.910002 0.922271 0.713619
1.000000 0.912749 0.789944
0.720333 0.966827 0.822171
0.727962 0.965728 0.823972
0.744381 0.962371 0.824277
0.740871 0.959411 0.806699
0.755276 0.951995 0.789853
0.785611 0.941344 0.771237
0.846586 0.956695 0.749569
0.938354 0.961852 0.745785
0.412299 0.187808 0.783902
0.438697 0.190829 0.790249
0.538506 0.205142 0.812741
0.703944 0.253574 0.849607
0.889006 0.357671 0.882994
0.998047 0.446509 0.859434
1.000000 0.605310 0.831907
1.000000 0.682338 0.826108
0.411444 0.243229 0.779599
0.437324 0.246708 0.785458
0.536431 0.263188 0.808194
0.700679 0.309972 0.844999
0.884367 0.405188 0.879240
0.990997 0.479927 0.856382
1.000000 0.621942 0.832395
1.000000 0.689235 0.826444
0.406561 0.383093 0.769375
0.433478 0.388556 0.775357
0.535546 0.412909 0.798734
0.697810 0.464485 0.834562
0.874418 0.551141 0.872007
0.967773 0.594415 0.851926
1.000000 0.688869 0.840024
1.000000 0.721675 0.831876
0.261784 0.450263 0.723262
0.317906 0.466499 0.732082
0.507713 0.541741 0.767575
0.696437 0.615442 0.814267
0.858183 0.692409 0.858854
0.935149 0.720455 0.849973
0.977539 0.763455 0.849943
1.000000 0.764309 0.838163
0.378637 0.689876 0.810178
0.412665 0.690547 0.809079
0.522118 0.694484 0.804562
0.658015 0.701839 0.794919
0.826047 0.770535 0.832242
0.906798 0.800626 0.848173
0.957336 0.798001 0.840879
1.000000 0.793515 0.833005
0.598962 0.896513 0.873869
0.618799 0.895750 0.873808
0.681025 0.892088 0.872068
0.763333 0.886961 0.869657
0.832059 0.873045 0.859098
0.902495 0.864164 0.837766
0.961151 0.865354 0.869474
0.998779 0.859983 0.867796
0.726314 0.944457 0.871916
0.733089 0.943633 0.872251
0.756374 0.939818 0.872099
0.793027 0.932097 0.870420
0.833402 0.917845 0.863798
0.843137 0.895232 0.829526
0.923522 0.916747 0.824125
1.000000 0.916503 0.880766
0.737301 0.973877 0.867155
0.741787 0.973205 0.867491
0.760616 0.970611 0.869047
0.794522 0.964874 0.871977
0.829343 0.955291 0.870512
0.834226 0.944274 0.845182
0.872374 0.949248 0.829160
0.948882 0.958770 0.832303
0.503960 0.288121 0.880735
0.521569 0.293431 0.883330
0.588037 0.313634 0.891722
0.701564 0.361151 0.906462
0.837888 0.443397 0.923461
0.957244 0.538872 0.931579
1.000000 0.600824 0.912993
1.000000 0.707759 0.886900
0.503838 0.321447 0.876493
0.521233 0.327184 0.879210
0.587793 0.346807 0.887907
0.700465 0.391333 0.902770
0.835935 0.469642 0.920195
0.953613 0.558648 0.928923
1.000000 0.613550 0.910369
1.000000 0.712917 0.885893
0.508537 0.427619 0.867094
0.525689 0.432349 0.869383
0.592554 0.452827 0.878294
0.704921 0.496742 0.893828
0.835172 0.567010 0.911986
0.944030 0.642542 0.923339
1.000000 0.681209 0.907225
1.000000 0.752743 0.890745
0.474281 0.518181 0.844236
0.504326 0.531334 0.847013
0.593439 0.566613 0.858061
0.708583 0.610437 0.876890
0.832609 0.674189 0.898711
0.930541 0.741421 0.916258
0.979858 0.760830 0.903929
1.000000 0.801450 0.896818
0.348089 0.582574 0.828519
0.368750 0.582177 0.826352
0.442451 0.581262 0.818051
0.641810 0.653620 0.842069
0.812619 0.742916 0.876768
0.913634 0.806882 0.907317
0.957549 0.819303 0.900786
0.986450 0.844205 0.902800
0.538384 0.786648 0.883452
0.553124 0.787076 0.882872
0.607263 0.788083 0.879973
0.687404 0.789090 0.873747
0.769528 0.787900 0.861875
0.885039 0.842741 0.888151
0.940185 0.867948 0.901457
0.975341 0.865995 0.897704
0.697993 0.936461 0.921477
0.706935 0.936065 0.921324
0.739284 0.933989 0.920409
0.790341 0.930663 0.919005
0.846006 0.926940 0.917479
0.892363 0.919402 0.912016
0.935821 0.910124 0.896696
0.982086 0.911040 0.914702
0.778683 0.978058 0.920165
0.782681 0.977630 0.920348
0.799344 0.975891 0.921263
0.825467 0.972320 0.921874
0.855802 0.966674 0.920867
0.885466 0.957000 0.915526
0.897185 0.937957 0.891173
0.958251 0.956420 0.895537
0.606622 0.433417 0.941588
0.617212 0.437354 0.942351
0.657710 0.451392 0.944518
0.730800 0.483040 0.949096
0.823789 0.534234 0.955077
0.918578 0.604517 0.961852
0.993530 0.667262 0.961669
1.000000 0.708431 0.948577
0.608270 0.451270 0.939086
0.618982 0.455390 0.939849
0.659480 0.469581 0.942321
0.731991 0.500053 0.946960
0.824063 0.549981 0.953155
0.917662 0.618402 0.960143
0.991180 0.677729 0.960357
1.000000 0.715206 0.947387
0.617456 0.515343 0.931731
0.627741 0.518761 0.932464
0.667811 0.532433 0.935058
0.740078 0.563836 0.940490
0.827726 0.609522 0.947112
0.915312 0.671260 0.954711
0.983490 0.721614 0.956725
1.000000 0.747616 0.944549
0.618982 0.589380 0.918059
0.629999 0.593164 0.919005
0.671687 0.607507 0.922362
0.743526 0.637324 0.928679
0.829068 0.682063 0.936889
0.910307 0.737728 0.946502
0.972290 0.779171 0.952209
1.000000 0.794003 0.941894
0.462379 0.574029 0.897215
0.487434 0.582452 0.898436
0.576959 0.616327 0.902586
0.719265 0.687800 0.910185
0.814694 0.734279 0.922148
0.897765 0.786496 0.935882
0.960235 0.828611 0.948089
0.994324 0.837949 0.940063
0.463081 0.691920 0.906920
0.472999 0.691188 0.905852
0.511925 0.688350 0.901640
0.575433 0.681483 0.892424
0.723079 0.725307 0.895537
0.872679 0.817594 0.919951
0.947448 0.870298 0.944030
0.980529 0.879545 0.940673
0.616144 0.849943 0.932036
0.624781 0.850065 0.931609
0.658534 0.850706 0.929839
0.713375 0.851652 0.926390
0.774868 0.851072 0.920287
0.830472 0.845060 0.909026
0.920897 0.889128 0.927245
0.969055 0.913329 0.941527
0.729946 0.967346 0.955596
0.735714 0.967163 0.955596
0.758968 0.966613 0.955688
0.797726 0.965972 0.956115
0.842954 0.964965 0.956390
0.889250 0.962707 0.955688
0.934325 0.961517 0.956023
0.966766 0.952850 0.945922
