20 Preset/Japan Style/【3】LUT video cho PR-AE-FCPX/LUT VIDEO (2)/Japan Style LUT (41).cube
# Created by Adobe Lightroom plugin Export LUT (1.24.0)
# www.johnrellis.com/lightroom/exportlut.htm
# Preset: 41日系青蓝（素材江湖）
# Color profile: C:\Program Files (x86)\Common Files\Adobe\Color\Profiles\Recommended\VideoHD.icc
LUT_3D_SIZE 32
DOMAIN_MIN 0.0 0.0 0.0
DOMAIN_MAX 1.0 1.0 1.0
0.000000 0.000000 0.000000
0.000000 0.000000 0.000000
0.007233 0.000305 0.000000
0.035035 0.012909 0.000000
0.109316 0.048402 0.000000
0.206516 0.060426 0.000000
0.324620 0.010956 0.000000
0.440803 0.000000 0.000000
0.545525 0.000000 0.000000
0.635676 0.000000 0.000000
0.709102 0.000000 0.000000
0.767239 0.000000 0.000000
0.815274 0.034760 0.000000
0.858000 0.158846 0.000000
0.894377 0.220035 0.000000
0.924468 0.270573 0.000000
0.949828 0.314153 0.000000
0.971435 0.352453 0.000000
0.990234 0.385229 0.000000
1.000000 0.414618 0.000000
1.000000 0.440162 0.000000
1.000000 0.462623 0.120516
1.000000 0.481849 0.172183
1.000000 0.498695 0.212497
1.000000 0.513664 0.248447
1.000000 0.527092 0.281071
1.000000 0.538903 0.311162
1.000000 0.549310 0.337987
1.000000 0.558251 0.361913
1.000000 0.566033 0.383246
1.000000 0.572625 0.403571
1.000000 0.578546 0.424750
0.000000 0.000000 0.000000
0.000000 0.000000 0.000000
0.004974 0.007294 0.000000
0.033326 0.022065 0.000000
0.110567 0.060273 0.000000
0.208042 0.078798 0.000000
0.325628 0.031678 0.000000
0.440681 0.000000 0.000000
0.545434 0.000000 0.000000
0.635401 0.000000 0.000000
0.708370 0.000000 0.000000
0.766445 0.000000 0.000000
0.814389 0.084199 0.000000
0.856901 0.166262 0.000000
0.893065 0.224460 0.000000
0.923278 0.273442 0.000000
0.948669 0.316075 0.000000
0.970397 0.353399 0.000000
0.989258 0.386145 0.000000
1.000000 0.414862 0.000000
1.000000 0.440742 0.000000
1.000000 0.462531 0.120058
1.000000 0.481849 0.171511
1.000000 0.498695 0.212131
1.000000 0.513695 0.248020
1.000000 0.527001 0.280919
1.000000 0.538628 0.310002
1.000000 0.549187 0.337194
1.000000 0.558190 0.361517
1.000000 0.565881 0.382452
1.000000 0.572534 0.402380
1.000000 0.578454 0.423743
0.000000 0.010376 0.000000
0.000000 0.013977 0.000000
0.000000 0.033082 0.000000
0.016663 0.072236 0.000000
0.111910 0.101350 0.000000
0.215579 0.112978 0.000000
0.333379 0.106050 0.000000
0.447120 0.068818 0.000000
0.549706 0.000000 0.000000
0.637812 0.000000 0.000000
0.709468 0.000000 0.000000
0.766690 0.074678 0.000000
0.814084 0.143954 0.000000
0.856107 0.198001 0.000000
0.891905 0.245609 0.000000
0.921843 0.288731 0.000000
0.947265 0.327764 0.000000
0.969024 0.362402 0.000000
0.987854 0.393561 0.000000
1.000000 0.421576 0.000000
1.000000 0.445930 0.012146
1.000000 0.467384 0.130465
1.000000 0.485725 0.177890
1.000000 0.501976 0.217563
1.000000 0.516594 0.252903
1.000000 0.529320 0.284520
1.000000 0.540948 0.314092
1.000000 0.551171 0.340826
1.000000 0.559960 0.364355
1.000000 0.567620 0.385534
1.000000 0.573632 0.403021
1.000000 0.579278 0.422614
0.000000 0.080049 0.042725
0.000000 0.081422 0.045838
0.000000 0.089082 0.045136
0.000000 0.113558 0.016602
0.098360 0.145785 0.001068
0.220920 0.167666 0.000000
0.342443 0.169863 0.000000
0.454902 0.163302 0.000000
0.556237 0.153323 0.000000
0.642054 0.152102 0.000000
0.711513 0.163149 0.000000
0.766812 0.184543 0.000000
0.813626 0.213504 0.000000
0.854826 0.248783 0.000000
0.889769 0.283757 0.000000
0.919127 0.319005 0.000000
0.944152 0.351507 0.000000
0.965515 0.382452 0.000000
0.984283 0.410224 0.000000
1.000000 0.435187 0.000000
1.000000 0.457069 0.089723
1.000000 0.476570 0.149844
1.000000 0.493507 0.192111
1.000000 0.508721 0.229679
1.000000 0.522454 0.263310
1.000000 0.534722 0.294194
1.000000 0.545892 0.323186
1.000000 0.555474 0.348363
1.000000 0.563867 0.371527
1.000000 0.571099 0.391943
1.000000 0.576989 0.409216
1.000000 0.581262 0.421942
0.000000 0.141878 0.102480
0.000000 0.142031 0.103517
0.000000 0.143343 0.107973
0.000000 0.158297 0.098512
0.000000 0.205997 0.031037
0.194736 0.238254 0.000000
0.340063 0.253910 0.000000
0.458076 0.252140 0.000000
0.557946 0.247501 0.000000
0.641901 0.248600 0.000000
0.709071 0.253727 0.000000
0.763516 0.265995 0.000000
0.809873 0.284398 0.000000
0.850278 0.308232 0.000000
0.884581 0.334325 0.000000
0.913695 0.361669 0.000000
0.938994 0.387213 0.000000
0.960693 0.412238 0.000000
0.979675 0.435401 0.000000
0.996490 0.456062 0.046509
1.000000 0.474861 0.133272
1.000000 0.491402 0.177127
1.000000 0.506371 0.215457
1.000000 0.519738 0.248844
1.000000 0.532067 0.280217
1.000000 0.543359 0.309209
1.000000 0.553368 0.336156
1.000000 0.562341 0.360998
1.000000 0.570092 0.382971
1.000000 0.576776 0.402808
1.000000 0.582147 0.418555
1.000000 0.586145 0.431159
0.000000 0.219577 0.139742
0.000000 0.220005 0.140780
0.000000 0.220371 0.145083
0.000000 0.221866 0.153414
0.000000 0.251804 0.123384
0.027344 0.312200 0.001862
0.296330 0.339300 0.000000
0.441413 0.347509 0.000000
0.555688 0.350622 0.000000
0.638727 0.347173 0.000000
0.704311 0.346654 0.000000
0.758022 0.351415 0.000000
0.804166 0.362158 0.000000
0.843748 0.377020 0.000000
0.877867 0.394232 0.000000
0.907225 0.412757 0.000000
0.932525 0.431434 0.000000
0.954681 0.449958 0.000000
0.974212 0.467048 0.083467
0.991302 0.483101 0.138369
1.000000 0.497902 0.178531
1.000000 0.511345 0.213382
1.000000 0.528374 0.257664
1.000000 0.539300 0.286473
1.000000 0.549279 0.313817
1.000000 0.558526 0.339666
1.000000 0.566949 0.364355
1.000000 0.574426 0.386053
1.000000 0.580987 0.405829
1.000000 0.586694 0.423346
1.000000 0.591180 0.437873
1.000000 0.594293 0.448524
0.000000 0.307103 0.191592
0.000000 0.307164 0.192294
0.000000 0.307256 0.196658
0.000000 0.308293 0.205386
0.000000 0.320226 0.200351
0.000000 0.352087 0.158572
0.202487 0.412207 0.028809
0.398566 0.434577 0.000000
0.528222 0.440375 0.000000
0.629053 0.445838 0.000000
0.698116 0.442267 0.000000
0.752560 0.441627 0.000000
0.798611 0.444862 0.000000
0.838041 0.451545 0.000000
0.872038 0.460487 0.000000
0.901183 0.470741 0.000000
0.926726 0.481971 0.092897
0.949096 0.493385 0.134493
0.968750 0.505028 0.170199
0.986267 0.516075 0.202121
1.000000 0.526818 0.232242
1.000000 0.536980 0.261295
1.000000 0.546654 0.289097
1.000000 0.555749 0.315496
1.000000 0.564172 0.340276
1.000000 0.572168 0.364324
1.000000 0.579095 0.385748
1.000000 0.585504 0.406043
1.000000 0.591241 0.424689
1.000000 0.596002 0.440467
1.000000 0.599939 0.454170
1.000000 0.602686 0.464424
0.000000 0.388556 0.254032
0.000000 0.388739 0.255375
0.000000 0.388739 0.258701
0.000000 0.389136 0.266575
0.000000 0.389349 0.277470
0.000000 0.411658 0.252201
0.117525 0.439979 0.208743
0.319402 0.493324 0.133303
0.483558 0.511925 0.117800
0.592859 0.516472 0.100282
0.676356 0.519799 0.088350
0.740841 0.521630 0.081727
0.786984 0.518029 0.102785
0.826535 0.517388 0.122896
0.860899 0.519280 0.143435
0.890623 0.522820 0.164065
0.916625 0.527916 0.187045
0.939574 0.533776 0.210208
0.959930 0.540337 0.233585
0.977935 0.547326 0.257176
0.993866 0.554314 0.280308
1.000000 0.561212 0.303716
1.000000 0.568200 0.326940
1.000000 0.574945 0.349401
1.000000 0.581598 0.371710
1.000000 0.587793 0.392554
1.000000 0.593439 0.411963
1.000000 0.598596 0.429938
1.000000 0.603235 0.446418
1.000000 0.607324 0.461524
1.000000 0.610437 0.473793
1.000000 0.612665 0.483131
0.000000 0.461921 0.324743
0.000000 0.462104 0.325597
0.000000 0.461830 0.328344
0.000000 0.461952 0.334539
0.000000 0.461830 0.343908
0.000000 0.469276 0.342809
0.130495 0.490547 0.312352
0.267582 0.514092 0.270024
0.423011 0.559777 0.215152
0.557458 0.574090 0.217075
0.645472 0.575525 0.217136
0.714595 0.576379 0.219120
0.771908 0.577539 0.222843
0.815274 0.575525 0.229587
0.849851 0.572503 0.239139
0.879820 0.571344 0.250858
0.906249 0.571679 0.264836
0.929717 0.573297 0.279789
0.950530 0.575769 0.295995
0.968963 0.579156 0.313909
0.985290 0.583001 0.331762
0.999664 0.587182 0.350622
1.000000 0.591547 0.369451
1.000000 0.596124 0.388190
1.000000 0.600732 0.406561
1.000000 0.605219 0.424598
1.000000 0.609461 0.441505
1.000000 0.613489 0.457435
1.000000 0.617060 0.472206
1.000000 0.620142 0.485054
1.000000 0.622675 0.496407
1.000000 0.624231 0.504906
0.000000 0.525597 0.394537
0.000000 0.525536 0.395087
0.000000 0.525322 0.397284
0.000000 0.524987 0.401923
0.000000 0.524865 0.409003
0.060548 0.524529 0.418891
0.197086 0.538659 0.403021
0.289586 0.557061 0.375372
0.381292 0.575616 0.337713
0.509422 0.610895 0.296757
0.614313 0.618860 0.304936
0.686549 0.618616 0.308904
0.746395 0.618494 0.314000
0.796384 0.618799 0.318090
0.838743 0.619135 0.323339
0.868925 0.614679 0.330022
0.895659 0.611963 0.337530
0.919463 0.610468 0.347814
0.940612 0.610040 0.359197
0.959411 0.610529 0.371618
0.976074 0.611566 0.384985
0.990784 0.613184 0.398749
1.000000 0.615259 0.413123
1.000000 0.617823 0.427802
1.000000 0.620600 0.442786
1.000000 0.623468 0.457588
1.000000 0.626368 0.471931
1.000000 0.629145 0.485756
1.000000 0.631739 0.498421
1.000000 0.634028 0.510094
1.000000 0.635828 0.520134
1.000000 0.636866 0.527947
0.000000 0.579065 0.458534
0.000000 0.579065 0.458747
0.000000 0.578973 0.460761
0.084962 0.578790 0.464302
0.166384 0.578637 0.470008
0.225162 0.578454 0.477760
0.276616 0.582086 0.479713
0.334691 0.595209 0.460060
0.400610 0.608637 0.434943
0.471107 0.621820 0.402197
0.576684 0.648432 0.370886
0.660670 0.653315 0.381537
0.722255 0.652827 0.387396
0.774350 0.652277 0.392096
0.818204 0.651637 0.397345
0.855558 0.651087 0.402167
0.885405 0.648585 0.406714
0.909239 0.644709 0.412268
0.930480 0.642054 0.419043
0.949493 0.640223 0.427008
0.966400 0.639094 0.436164
0.981476 0.638666 0.445899
0.994995 0.639063 0.457008
1.000000 0.639796 0.468147
1.000000 0.641016 0.480201
1.000000 0.642573 0.492287
1.000000 0.644221 0.504204
1.000000 0.645930 0.515831
1.000000 0.647547 0.526757
1.000000 0.648981 0.536767
1.000000 0.650141 0.545739
1.000000 0.650599 0.552575
0.227817 0.621881 0.515404
0.230961 0.621881 0.515740
0.241154 0.621668 0.516808
0.261662 0.621424 0.519646
0.288304 0.621088 0.523888
0.319066 0.620600 0.529625
0.352087 0.620233 0.537224
0.387854 0.627039 0.528862
0.432136 0.636805 0.511589
0.483772 0.646723 0.489570
0.540276 0.656214 0.461250
0.629297 0.677821 0.437934
0.706325 0.685023 0.456428
0.759152 0.684413 0.462135
0.803494 0.683192 0.467201
0.841367 0.681788 0.471931
0.873899 0.680293 0.475868
0.902190 0.678737 0.479316
0.923339 0.674464 0.482704
0.942107 0.670802 0.486366
0.958831 0.667903 0.491829
0.973785 0.665766 0.498116
0.987457 0.664302 0.504997
0.999603 0.663661 0.513664
1.000000 0.663447 0.522362
1.000000 0.663539 0.531334
1.000000 0.663813 0.540276
1.000000 0.664393 0.549462
1.000000 0.665003 0.558282
1.000000 0.665492 0.566430
1.000000 0.665766 0.573510
1.000000 0.665583 0.579095
0.344915 0.656458 0.567285
0.345892 0.656428 0.567468
0.351537 0.656123 0.568353
0.362280 0.655818 0.570153
0.377722 0.655177 0.572961
0.397345 0.654505 0.576928
0.420050 0.653834 0.582452
0.444099 0.654444 0.586114
0.473091 0.661799 0.574029
0.509392 0.669490 0.558831
0.552270 0.677424 0.539971
0.599847 0.685328 0.516838
0.677577 0.704128 0.499367
0.738125 0.707210 0.508782
0.784451 0.706569 0.514946
0.823392 0.705165 0.519951
0.856901 0.703426 0.523888
0.886015 0.701472 0.527153
0.911223 0.699458 0.530297
0.932036 0.696468 0.532860
0.948760 0.692287 0.535210
0.963928 0.688960 0.539025
0.977722 0.686458 0.544030
0.990295 0.684565 0.549737
1.000000 0.683284 0.556390
1.000000 0.682429 0.563531
1.000000 0.681910 0.570794
1.000000 0.681636 0.578210
1.000000 0.681453 0.585443
1.000000 0.681361 0.592462
1.000000 0.681056 0.598566
1.000000 0.680385 0.603326
0.421180 0.681178 0.606744
0.421637 0.681086 0.606836
0.425513 0.680934 0.607599
0.432471 0.680537 0.608759
0.443122 0.679988 0.610773
0.456916 0.679377 0.613733
0.473793 0.678737 0.617792
0.492073 0.678096 0.622705
0.512261 0.681361 0.619776
0.537743 0.687739 0.609308
0.569177 0.694392 0.596094
0.605798 0.701137 0.579980
0.646448 0.707790 0.560235
0.714473 0.724514 0.546136
0.766598 0.726864 0.554314
0.807004 0.726070 0.559930
0.841123 0.724300 0.563928
0.870695 0.722286 0.567407
0.896605 0.720027 0.570245
0.919066 0.717678 0.572869
0.938750 0.715297 0.575219
0.954437 0.711421 0.577203
0.968353 0.708003 0.580224
0.981109 0.705226 0.584100
0.992493 0.703029 0.588800
1.000000 0.701381 0.594354
1.000000 0.700008 0.599817
1.000000 0.698970 0.605737
1.000000 0.698085 0.611536
1.000000 0.697353 0.617304
1.000000 0.696437 0.622278
1.000000 0.695369 0.626459
0.482826 0.702266 0.639002
0.483497 0.702205 0.639124
0.486000 0.702022 0.639460
0.490883 0.701717 0.640345
0.498726 0.701259 0.641810
0.508995 0.700679 0.644038
0.521569 0.700099 0.646876
0.536095 0.699580 0.650507
0.551598 0.699062 0.654902
0.569940 0.704280 0.647608
0.592828 0.709895 0.638605
0.620325 0.715724 0.627527
0.651667 0.721523 0.613977
0.686519 0.727230 0.597314
0.746273 0.742367 0.585779
0.791348 0.744198 0.592584
0.826841 0.743221 0.597436
0.856840 0.741268 0.600732
0.883116 0.738979 0.603449
0.906096 0.736507 0.605890
0.926268 0.734005 0.608057
0.944152 0.731594 0.610376
0.959472 0.728847 0.612787
0.972198 0.725277 0.615106
0.983703 0.722286 0.618189
0.993927 0.719814 0.621942
1.000000 0.717769 0.626246
1.000000 0.716060 0.630854
1.000000 0.714565 0.635645
1.000000 0.713191 0.640314
1.000000 0.711879 0.644648
1.000000 0.710597 0.648066
0.533501 0.720485 0.664912
0.534051 0.720455 0.665003
0.536065 0.720363 0.665370
0.539757 0.720150 0.666102
0.545892 0.719844 0.667353
0.553979 0.719387 0.668971
0.564111 0.718990 0.671321
0.575799 0.718563 0.674250
0.588769 0.718135 0.677790
0.602564 0.719631 0.677913
0.619348 0.724331 0.671168
0.639734 0.729274 0.663081
0.663691 0.734279 0.653376
0.690761 0.739284 0.641657
0.720485 0.744167 0.627375
0.773037 0.758114 0.617945
0.812955 0.759609 0.623194
0.844205 0.758480 0.627283
0.870756 0.756313 0.629999
0.894072 0.753872 0.632441
0.914702 0.751339 0.634699
0.933074 0.748867 0.636957
0.949310 0.746548 0.639490
0.963622 0.744259 0.641962
0.975311 0.741024 0.644312
0.985626 0.737881 0.647028
0.994659 0.735225 0.650294
1.000000 0.732876 0.654017
1.000000 0.730770 0.657832
1.000000 0.728878 0.661707
1.000000 0.726986 0.665278
1.000000 0.725704 0.667842
0.575921 0.736568 0.686641
0.576349 0.736538 0.686702
0.577813 0.736446 0.686976
0.580896 0.736263 0.687587
0.585657 0.735988 0.688533
0.592157 0.735683 0.689937
0.600305 0.735317 0.691768
0.610010 0.734890 0.694118
0.620630 0.734493 0.696925
0.632166 0.734127 0.700191
0.644770 0.737240 0.696803
0.660273 0.741543 0.690578
0.678737 0.745968 0.683223
0.699855 0.750423 0.674617
0.723690 0.754910 0.664332
0.750240 0.759548 0.652064
0.796689 0.772610 0.644129
0.831907 0.773831 0.648585
0.859648 0.772519 0.652216
0.883207 0.770138 0.654566
0.904173 0.767727 0.657008
0.922850 0.765255 0.659419
0.939391 0.762814 0.661952
0.953918 0.760464 0.664454
0.966674 0.758083 0.666987
0.977508 0.755489 0.669581
0.986511 0.752224 0.672114
0.994324 0.749355 0.675074
1.000000 0.746761 0.678309
1.000000 0.744320 0.681514
1.000000 0.742031 0.684749
1.000000 0.740932 0.686854
0.612940 0.751125 0.705959
0.613153 0.751125 0.705959
0.618463 0.752651 0.708370
0.620905 0.752529 0.708888
0.624720 0.752285 0.709682
0.629938 0.752010 0.710780
0.636408 0.751644 0.712276
0.644221 0.751247 0.714137
0.653071 0.750851 0.716396
0.662776 0.750484 0.719112
0.672877 0.750790 0.720851
0.684474 0.754513 0.715877
0.698390 0.758389 0.709895
0.714778 0.762387 0.702998
0.733455 0.766415 0.694942
0.754330 0.770474 0.685603
0.778439 0.775174 0.674983
0.818753 0.787167 0.667964
0.849668 0.787961 0.671565
0.874174 0.786374 0.674769
0.895171 0.783932 0.677272
0.913909 0.781460 0.679713
0.930541 0.778927 0.682155
0.945129 0.776394 0.684749
0.957855 0.773861 0.687312
0.968902 0.771328 0.689967
0.978332 0.768887 0.692622
0.986084 0.765713 0.695094
0.992615 0.762570 0.697688
0.997894 0.759731 0.700557
1.000000 0.757107 0.703548
1.000000 0.755886 0.705348
0.646174 0.764950 0.723903
0.646784 0.765072 0.724147
0.648127 0.765164 0.724544
0.650477 0.765164 0.725093
0.653834 0.765072 0.725948
0.658198 0.764889 0.726955
0.663722 0.764584 0.728237
0.670283 0.764248 0.729763
0.677760 0.763851 0.731685
0.686030 0.763516 0.733944
0.694820 0.763210 0.736568
0.704067 0.764950 0.735470
0.714961 0.768490 0.730617
0.727810 0.772213 0.725032
0.742763 0.775998 0.718654
0.759731 0.779812 0.711238
0.778561 0.783719 0.702785
0.800870 0.788663 0.693477
0.836667 0.799863 0.687312
0.864256 0.800473 0.690700
0.886046 0.798672 0.693935
0.904936 0.796353 0.696712
0.921660 0.793851 0.699397
0.936370 0.791257 0.702144
0.949218 0.788632 0.704860
0.960327 0.786038 0.707607
0.969787 0.783444 0.710414
0.977691 0.780819 0.713161
0.984161 0.778073 0.715908
0.989410 0.774838 0.718441
0.993469 0.771878 0.721218
0.994934 0.770138 0.722988
0.674678 0.777523 0.739803
0.675166 0.777646 0.740017
0.676387 0.777737 0.740414
0.678218 0.777798 0.740902
0.681117 0.777737 0.741604
0.684901 0.777584 0.742489
0.689387 0.777340 0.743557
0.694942 0.777066 0.744930
0.701381 0.776730 0.746548
0.708431 0.776394 0.748501
0.716121 0.776089 0.750698
0.724147 0.775845 0.753231
0.732662 0.778866 0.749691
0.742824 0.782284 0.745174
0.754696 0.785855 0.739925
0.768338 0.789517 0.733974
0.783719 0.793240 0.727199
0.800717 0.796902 0.719478
0.821317 0.802060 0.711208
0.852842 0.812375 0.705776
0.877470 0.812589 0.708919
0.896574 0.810544 0.712123
0.913329 0.808133 0.715114
0.928130 0.805539 0.718044
0.940948 0.802914 0.721004
0.952056 0.800198 0.723873
0.961486 0.797452 0.726680
0.969329 0.794705 0.729610
0.975738 0.792050 0.732570
0.980804 0.789456 0.735561
0.984741 0.786435 0.738308
0.985962 0.784146 0.740017
0.700862 0.790005 0.755093
0.701289 0.790127 0.755245
0.702235 0.790219 0.755581
0.703883 0.790249 0.756039
0.706233 0.790219 0.756619
0.709407 0.790066 0.757382
0.713252 0.789914 0.758297
0.717983 0.789670 0.759487
0.723445 0.789395 0.760861
0.729610 0.789120 0.762539
0.736324 0.788846 0.764492
0.743374 0.788602 0.766690
0.750576 0.789364 0.767330
0.758541 0.792508 0.763546
0.768002 0.795865 0.759213
0.778958 0.799313 0.754360
0.791470 0.802853 0.748928
0.805478 0.806424 0.742763
0.820920 0.810056 0.735927
0.839902 0.815244 0.728664
0.867582 0.824674 0.723995
0.889433 0.824613 0.727199
0.905974 0.822171 0.730282
0.920684 0.819699 0.733577
0.933440 0.817014 0.736782
0.944366 0.814206 0.739864
0.953582 0.811368 0.742916
0.961273 0.808530 0.746029
0.967468 0.805753 0.749172
0.972290 0.803098 0.752377
0.975677 0.800656 0.755459
0.976440 0.798245 0.757656
0.726467 0.803159 0.770657
0.726741 0.803189 0.770748
0.727352 0.803189 0.770932
0.728542 0.803159 0.771206
0.730465 0.803067 0.771695
0.732967 0.802914 0.772244
0.736233 0.802701 0.773037
0.740230 0.802518 0.774044
0.744900 0.802274 0.775235
0.750210 0.802090 0.776699
0.756039 0.801816 0.778378
0.762264 0.801633 0.780301
0.768765 0.801419 0.782406
0.775265 0.803220 0.781155
0.782681 0.806332 0.777554
0.791409 0.809506 0.773526
0.801389 0.812741 0.769009
0.812650 0.816098 0.763973
0.825284 0.819455 0.758389
0.839109 0.822812 0.752193
0.856229 0.827756 0.745632
0.880186 0.836088 0.741512
0.899321 0.835569 0.744350
0.913451 0.832609 0.747189
0.925994 0.829801 0.750393
0.936797 0.826963 0.753689
0.945922 0.824033 0.756924
0.953460 0.821103 0.760250
0.959533 0.818235 0.763546
0.964172 0.815457 0.766934
0.966674 0.813504 0.769863
0.967864 0.810208 0.772610
0.748562 0.815244 0.784817
0.748745 0.815274 0.784909
0.749325 0.815305 0.785061
0.750332 0.815274 0.785336
0.751919 0.815183 0.785702
0.754116 0.815061 0.786221
0.756924 0.814908 0.786893
0.760311 0.814755 0.787778
0.764370 0.814572 0.788846
0.768978 0.814359 0.790127
0.774075 0.814176 0.791592
0.779538 0.813993 0.793271
0.785275 0.813809 0.795102
0.791287 0.813657 0.797147
0.797116 0.816373 0.794339
0.803983 0.819303 0.791012
0.811978 0.822354 0.787289
0.821073 0.825437 0.783169
0.831327 0.828550 0.778592
0.842618 0.831693 0.773526
0.854978 0.834806 0.768002
0.870237 0.839384 0.762234
0.890806 0.846555 0.758511
0.907408 0.845548 0.761074
0.919097 0.841917 0.763210
0.929686 0.838804 0.766445
0.938659 0.835813 0.769863
0.946014 0.832822 0.773373
0.951904 0.829862 0.776852
0.956390 0.826963 0.780392
0.958465 0.824582 0.783444
0.959594 0.821347 0.786465
0.769863 0.827390 0.799130
0.770077 0.827451 0.799222
0.770565 0.827451 0.799374
0.771389 0.827420 0.799557
0.772641 0.827268 0.799832
0.774411 0.827115 0.800229
0.776669 0.826932 0.800717
0.779507 0.826719 0.801419
0.782834 0.826505 0.802274
0.786740 0.826261 0.803311
0.790982 0.826047 0.804532
0.795743 0.825834 0.805966
0.800748 0.825650 0.807553
0.805905 0.825437 0.809293
0.811093 0.826047 0.809903
0.816403 0.828641 0.807034
0.822690 0.831357 0.803891
0.829892 0.834134 0.800412
0.838071 0.836973 0.796658
0.847227 0.839811 0.792477
0.857237 0.842618 0.787900
0.868162 0.845365 0.782834
0.881590 0.849485 0.777737
0.899046 0.855467 0.774411
0.913390 0.854063 0.776699
0.923217 0.850278 0.779080
0.931823 0.846891 0.782223
0.939025 0.843748 0.785794
0.944671 0.840635 0.789425
0.948943 0.837675 0.793088
0.950561 0.834836 0.796170
0.951568 0.831754 0.799588
0.788510 0.838285 0.812253
0.788754 0.838315 0.812345
0.789120 0.838315 0.812497
0.789853 0.838315 0.812680
0.790982 0.838254 0.812955
0.792508 0.838163 0.813352
0.794553 0.838010 0.813870
0.797086 0.837888 0.814542
0.799985 0.837736 0.815366
0.803372 0.837583 0.816312
0.807156 0.837430 0.817441
0.811307 0.837247 0.818692
0.815671 0.837095 0.820127
0.820279 0.836912 0.821683
0.824949 0.836759 0.823362
0.829374 0.838010 0.822690
0.834165 0.840391 0.819974
0.839719 0.842832 0.817075
0.846128 0.845335 0.813901
0.853330 0.847837 0.810452
0.861326 0.850340 0.806699
0.870085 0.852811 0.802609
0.879606 0.855161 0.798093
0.891203 0.858671 0.793606
0.905699 0.863432 0.790646
0.917815 0.861662 0.792782
0.925689 0.857603 0.795041
0.932403 0.854002 0.798093
0.937774 0.850797 0.801877
0.941497 0.847898 0.805600
0.942779 0.844450 0.808835
0.943664 0.841520 0.812497
0.806027 0.848722 0.825162
0.806210 0.848722 0.825284
0.806882 0.848722 0.825711
0.807523 0.848722 0.825895
0.808408 0.848631 0.826108
0.809720 0.848539 0.826444
0.811398 0.848417 0.826902
0.813504 0.848325 0.827451
0.815976 0.848173 0.828153
0.818875 0.848020 0.828977
0.822049 0.847837 0.829923
0.825559 0.847654 0.831022
0.829282 0.847501 0.832242
0.833188 0.847318 0.833555
0.837278 0.847105 0.834989
0.841367 0.846921 0.836515
0.845121 0.848692 0.834836
0.849393 0.850797 0.832425
0.854337 0.852995 0.829801
0.859922 0.855161 0.826963
0.866209 0.857328 0.823911
0.873106 0.859464 0.820554
0.880613 0.861479 0.816953
0.888762 0.863401 0.812955
0.898466 0.866270 0.809049
0.910155 0.869841 0.806455
0.920287 0.867765 0.808347
0.926390 0.863554 0.810361
0.931365 0.859800 0.813199
0.934264 0.856657 0.816831
0.935637 0.852995 0.820340
0.936431 0.850187 0.824308
0.820890 0.857969 0.836576
0.821103 0.857939 0.836728
0.821714 0.857939 0.837095
0.822873 0.857939 0.837888
0.824369 0.857877 0.838773
0.825467 0.857816 0.839109
0.827024 0.857786 0.839567
0.828855 0.857755 0.840146
0.831052 0.857694 0.840879
0.833585 0.857603 0.841703
0.836423 0.857542 0.842649
0.839506 0.857450 0.843717
0.842771 0.857359 0.844846
0.846159 0.857237 0.846067
0.849668 0.857053 0.847349
0.853178 0.856901 0.848692
0.856657 0.856992 0.849729
0.859831 0.858732 0.847776
0.863462 0.860563 0.845701
0.867704 0.862364 0.843412
0.872374 0.864164 0.840970
0.877592 0.865904 0.838346
0.883268 0.867582 0.835477
0.889433 0.869139 0.832334
0.896086 0.870573 0.828977
0.903929 0.872618 0.825650
0.912902 0.874968 0.823392
0.920836 0.872648 0.824979
0.925231 0.868467 0.826719
0.927367 0.864225 0.828672
0.928649 0.860716 0.832425
0.929290 0.858122 0.836576
0.835599 0.866361 0.848478
0.835721 0.866361 0.848569
0.836210 0.866331 0.848875
0.837186 0.866270 0.849546
0.838682 0.866239 0.850614
0.840696 0.866148 0.851926
0.841855 0.866056 0.852293
0.843259 0.865965 0.852689
0.844968 0.865843 0.853208
0.846952 0.865721 0.853819
0.849180 0.865568 0.854520
0.851591 0.865415 0.855344
0.854246 0.865263 0.856229
0.856992 0.865080 0.857206
