20 Preset/Japan Style/【3】LUT video cho PR-AE-FCPX/LUT VIDEO (2)/Japan Style LUT (13).cube
# Created by Adobe Lightroom plugin Export LUT (1.24.0)
# www.johnrellis.com/lightroom/exportlut.htm
# Preset: 13日系清新（素材江湖）
# Color profile: C:\Program Files (x86)\Common Files\Adobe\Color\Profiles\Recommended\VideoHD.icc
LUT_3D_SIZE 5
DOMAIN_MIN 0.000000 0.000000 0.000000
DOMAIN_MAX 0.903226 0.903226 0.903226
0.029145 0.032685 0.028840
0.332403 0.000000 0.001312
0.787411 0.000000 0.000000
1.000000 0.112886 0.000000
1.000000 0.259892 0.000000
0.000000 0.361089 0.214786
0.176150 0.356176 0.000000
0.765805 0.383307 0.000000
0.992645 0.398993 0.000000
1.000000 0.398444 0.000000
0.000000 0.774472 0.610254
0.245365 0.778622 0.598505
0.555383 0.729244 0.270054
0.902159 0.678096 0.000000
1.000000 0.632898 0.000000
0.607752 0.875486 0.768765
0.628443 0.875822 0.768734
0.648463 0.876829 0.742184
0.699794 0.850675 0.513939
0.951415 0.790585 0.057557
0.737728 0.908080 0.833341
0.743740 0.908019 0.833249
0.764645 0.907500 0.832578
0.737118 0.909331 0.785458
0.774655 0.900908 0.651179
0.000000 0.056336 0.340429
0.326574 0.000000 0.349584
0.762753 0.000000 0.318059
0.994659 0.130587 0.293095
1.000000 0.300786 0.271611
0.000000 0.294438 0.323827
0.311986 0.353735 0.341436
0.742489 0.360143 0.311742
0.973877 0.395941 0.290105
1.000000 0.417884 0.273777
0.357153 0.747005 0.653468
0.437415 0.755215 0.648035
0.577203 0.721279 0.453651
0.895903 0.677546 0.295598
1.000000 0.637751 0.309758
0.652430 0.869902 0.786313
0.669856 0.870695 0.786496
0.712856 0.873014 0.780941
0.715602 0.848295 0.591821
0.946807 0.790372 0.313909
0.754421 0.906706 0.841306
0.759884 0.906706 0.841184
0.780667 0.906767 0.841459
0.760983 0.908141 0.803677
0.787198 0.899870 0.686244
0.000000 0.098360 0.721950
0.261723 0.000000 0.722591
0.736141 0.000000 0.721126
0.961547 0.000000 0.670436
1.000000 0.352880 0.609369
0.000000 0.400793 0.701289
0.269688 0.369329 0.704646
0.714015 0.325963 0.707210
0.936431 0.374426 0.660395
1.000000 0.470283 0.618708
0.277348 0.617578 0.667750
0.406409 0.629541 0.668238
0.662196 0.688808 0.685420
0.862333 0.681422 0.659083
0.982452 0.665278 0.641749
0.667567 0.849302 0.810819
0.701564 0.849180 0.811948
0.769406 0.857298 0.817594
0.769375 0.841123 0.738918
0.927459 0.794553 0.616846
0.789731 0.902190 0.861173
0.794827 0.902495 0.861173
0.813107 0.903593 0.861418
0.824399 0.904967 0.852110
0.821225 0.896117 0.765896
0.000000 0.215640 0.870573
0.327031 0.209354 0.869932
0.647944 0.165530 0.867124
0.894682 0.161044 0.859922
1.000000 0.337316 0.805631
0.217319 0.408301 0.859464
0.367102 0.403357 0.858885
0.639704 0.384131 0.857115
0.877073 0.377874 0.851347
1.000000 0.447730 0.799985
0.401556 0.669764 0.822995
0.467536 0.674617 0.820432
0.635248 0.669215 0.821744
0.821897 0.649195 0.819669
0.954925 0.658656 0.789578
0.552392 0.763729 0.805112
0.584283 0.767086 0.804135
0.683864 0.782712 0.803250
0.805234 0.816464 0.812345
0.905913 0.806027 0.795163
0.740322 0.894835 0.873869
0.756069 0.894743 0.873716
0.809689 0.895476 0.875212
0.861326 0.901213 0.881468
0.859556 0.893919 0.840574
0.317418 0.316899 0.928649
0.390875 0.312749 0.927947
0.579767 0.298863 0.926207
0.775937 0.263340 0.923156
0.951415 0.267521 0.916747
0.363806 0.427100 0.921111
0.421027 0.423529 0.920684
0.582971 0.410040 0.919371
0.767330 0.380102 0.916899
0.941070 0.372534 0.911528
0.524926 0.662867 0.898650
0.538872 0.655421 0.898589
0.611963 0.635279 0.898741
0.747585 0.610193 0.897795
0.909392 0.594965 0.896391
0.558984 0.760098 0.881193
0.578698 0.762478 0.880064
0.657649 0.776669 0.877043
0.766476 0.782284 0.877806
0.883268 0.779843 0.880949
0.653376 0.831327 0.872465
0.667475 0.833127 0.871916
0.724544 0.842557 0.871336
0.800656 0.857023 0.870390
0.877440 0.881102 0.878660
