20 Preset/Japan Style/【3】LUT video cho PR-AE-FCPX/LUT VIDEO (2)/Japan Style LUT (33).cube
# Created by Adobe Lightroom plugin Export LUT (1.24.0)
# www.johnrellis.com/lightroom/exportlut.htm
# Preset: 33日系胶片（素材江湖）
# Color profile: C:\Program Files (x86)\Common Files\Adobe\Color\Profiles\Recommended\VideoHD.icc
LUT_3D_SIZE 5
DOMAIN_MIN 0.000000 0.000000 0.000000
DOMAIN_MAX 0.903226 0.903226 0.903226
0.000000 0.011994 0.014374
0.270237 0.000000 0.045716
0.923552 0.000000 0.000000
1.000000 0.000000 0.150240
1.000000 0.394720 0.344915
0.000000 0.229160 0.193149
0.114839 0.187259 0.182406
0.862303 0.326268 0.000000
1.000000 0.399359 0.180392
1.000000 0.505974 0.383124
0.000000 0.710536 0.630854
0.254765 0.689906 0.629633
0.600366 0.652338 0.645258
1.000000 0.752407 0.511467
1.000000 0.727962 0.520317
0.668391 0.877714 0.847013
0.728939 0.873869 0.852934
0.774044 0.857694 0.846128
0.861540 0.845975 0.854154
0.992859 0.874327 0.816556
0.874846 0.934264 0.925170
0.888670 0.933684 0.927489
0.904082 0.928344 0.926543
0.922545 0.921904 0.922576
0.948974 0.915404 0.927092
0.000000 0.078523 0.203525
0.188602 0.073365 0.182467
0.889738 0.000000 0.195071
1.000000 0.289769 0.168246
1.000000 0.435340 0.342351
0.000000 0.257847 0.290715
0.230625 0.299687 0.307164
0.848783 0.371679 0.304234
1.000000 0.464118 0.275273
1.000000 0.524071 0.376013
0.000000 0.724056 0.647364
0.343023 0.715969 0.666651
0.633204 0.678462 0.678126
0.992340 0.763424 0.607660
1.000000 0.732235 0.520989
0.664027 0.880461 0.850126
0.724575 0.876799 0.855741
0.796323 0.862882 0.855680
0.871733 0.852659 0.862943
0.992065 0.878782 0.832456
0.870481 0.935302 0.925292
0.884703 0.934569 0.927520
0.912291 0.931945 0.931151
0.927886 0.924956 0.927214
0.952453 0.919432 0.931060
0.000000 0.161227 0.596582
0.135134 0.166567 0.598199
0.707362 0.207706 0.593683
1.000000 0.427466 0.619806
1.000000 0.604852 0.633814
0.000000 0.313054 0.634333
0.044862 0.341039 0.652003
0.722927 0.423713 0.648524
1.000000 0.563989 0.671534
1.000000 0.669062 0.674525
0.000000 0.709957 0.748379
0.000000 0.720760 0.751797
0.751247 0.768185 0.780209
0.960510 0.799649 0.796170
1.000000 0.799680 0.773922
0.626917 0.892729 0.862608
0.687251 0.888090 0.865171
0.840970 0.878386 0.879973
0.900908 0.872526 0.887663
0.994079 0.891020 0.870390
0.837430 0.939788 0.923888
0.857725 0.938750 0.926482
0.912688 0.936492 0.935302
0.936706 0.930602 0.936278
0.958740 0.927092 0.938872
0.000000 0.338628 0.858366
0.277165 0.349645 0.857237
0.716335 0.400732 0.851377
0.961303 0.556634 0.830747
1.000000 0.727260 0.831724
0.000000 0.432380 0.861112
0.292454 0.462593 0.859739
0.710597 0.509026 0.853696
0.944213 0.633814 0.838224
1.000000 0.757687 0.842679
0.000000 0.675624 0.865141
0.194308 0.680751 0.862547
0.699123 0.734066 0.865171
0.911498 0.793301 0.865751
1.000000 0.832853 0.877134
0.551568 0.871733 0.894163
0.612726 0.871244 0.893797
0.780728 0.873625 0.895750
0.924285 0.890471 0.908446
0.993347 0.901061 0.912566
0.774411 0.952270 0.929412
0.798367 0.951019 0.930480
0.870848 0.946319 0.936736
0.946715 0.943114 0.948302
0.968200 0.940215 0.951354
0.563867 0.626398 0.950530
0.618280 0.631373 0.949126
0.782284 0.655970 0.943877
0.941253 0.706416 0.934478
1.000000 0.771511 0.915007
0.579339 0.672084 0.947387
0.628931 0.675929 0.946197
0.781186 0.694148 0.941558
0.933471 0.734371 0.933196
1.000000 0.790036 0.916533
0.477882 0.738766 0.945922
0.564599 0.748379 0.944182
0.781827 0.791043 0.938354
0.915435 0.808621 0.933043
0.990295 0.842649 0.925017
0.581567 0.855833 0.947295
0.620539 0.855955 0.946441
0.745388 0.858091 0.943694
0.903258 0.875822 0.941894
0.980224 0.900359 0.942260
0.742153 0.932128 0.957183
0.765316 0.932311 0.957092
0.839322 0.934539 0.957366
0.918090 0.940673 0.958404
0.976562 0.953613 0.963561
