20 Preset/Japan Style/【3】LUT video cho PR-AE-FCPX/LUT VIDEO (2)/Japan Style LUT (3).cube
# Created by Adobe Lightroom plugin Export LUT (1.24.0)
# www.johnrellis.com/lightroom/exportlut.htm
# Preset: 03日系清新（素材江湖）
# Color profile: C:\Program Files (x86)\Common Files\Adobe\Color\Profiles\Recommended\VideoHD.icc
LUT_3D_SIZE 8
DOMAIN_MIN 0.000000 0.000000 0.000000
DOMAIN_MAX 0.903226 0.903226 0.903226
0.000000 0.120607 0.176669
0.082094 0.123903 0.179049
0.237827 0.128298 0.185031
0.432929 0.105715 0.187015
0.647059 0.000000 0.183383
0.827726 0.000000 0.179110
0.964538 0.160616 0.177798
1.000000 0.265904 0.172854
0.000000 0.158755 0.201480
0.000000 0.161257 0.198215
0.215793 0.165255 0.194705
0.413977 0.160159 0.193271
0.628534 0.135348 0.192813
0.812985 0.135988 0.191012
0.947723 0.199985 0.188815
1.000000 0.284794 0.182712
0.000000 0.314488 0.292058
0.000000 0.316075 0.291051
0.080476 0.314488 0.282628
0.405097 0.314092 0.248386
0.612085 0.305364 0.253056
0.804959 0.317815 0.243809
0.942535 0.348333 0.238437
1.000000 0.393225 0.231418
0.000000 0.554528 0.436164
0.000000 0.553704 0.434272
0.000000 0.554711 0.431373
0.280674 0.558618 0.420386
0.623865 0.575921 0.312902
0.779263 0.529351 0.360754
0.910430 0.524346 0.343084
1.000000 0.534997 0.327733
0.000000 0.744320 0.594995
0.000000 0.743221 0.593683
0.000000 0.740749 0.591882
0.209049 0.736080 0.596582
0.485786 0.728145 0.580377
0.700008 0.725948 0.444617
0.866514 0.695094 0.447944
0.955596 0.685298 0.483833
0.000000 0.851499 0.723079
0.000000 0.853208 0.727016
0.000000 0.850034 0.728725
0.272648 0.843748 0.734798
0.551080 0.834897 0.746426
0.651759 0.831418 0.735195
0.776791 0.836454 0.635706
0.925231 0.825620 0.577142
0.000000 0.915496 0.818387
0.000000 0.915129 0.819638
0.240940 0.912169 0.821866
0.458991 0.907225 0.827329
0.613947 0.900664 0.835386
0.714626 0.896483 0.841062
0.769619 0.894865 0.839322
0.836606 0.900908 0.777432
0.482582 0.952880 0.878141
0.497322 0.952331 0.878752
0.553521 0.950347 0.881590
0.637629 0.947082 0.887297
0.712062 0.941344 0.891203
0.790890 0.938384 0.901823
0.819608 0.938872 0.899535
0.851408 0.938262 0.898528
0.000000 0.132448 0.231479
0.072297 0.134493 0.228397
0.238468 0.127016 0.227420
0.422065 0.097780 0.234134
0.623957 0.000000 0.236515
0.805875 0.000000 0.233494
0.939574 0.122530 0.228794
1.000000 0.241306 0.219211
0.000000 0.160830 0.252842
0.000000 0.164889 0.254734
0.223575 0.171725 0.253605
0.413764 0.158999 0.250889
0.617639 0.129580 0.248081
0.799344 0.120333 0.243137
0.930388 0.180484 0.236698
1.000000 0.266453 0.226078
0.000000 0.308354 0.332616
0.000000 0.312749 0.333074
0.138888 0.320104 0.331823
0.385687 0.312657 0.315618
0.601984 0.305028 0.299901
0.785275 0.307927 0.287053
0.919402 0.330449 0.276524
1.000000 0.376379 0.265171
0.000000 0.539513 0.458778
0.000000 0.539208 0.457008
0.000000 0.540734 0.453285
0.283757 0.539025 0.438697
0.587579 0.543053 0.362799
0.750484 0.509697 0.386175
0.888304 0.506035 0.363714
0.993347 0.520073 0.347021
0.000000 0.737819 0.611109
0.000000 0.736080 0.608881
0.000000 0.732235 0.604547
0.161105 0.725246 0.602594
0.479225 0.715236 0.585809
0.687190 0.712886 0.470649
0.852476 0.684657 0.476143
0.947509 0.678157 0.496162
0.000000 0.846036 0.728206
0.000000 0.845548 0.728603
0.000000 0.842802 0.729915
0.236149 0.837491 0.735378
0.536980 0.829557 0.745754
0.650141 0.827146 0.739040
0.772152 0.831907 0.650172
0.918639 0.820981 0.595789
0.000000 0.912505 0.818631
0.000000 0.911467 0.818418
0.179629 0.908476 0.820188
0.438331 0.903899 0.825589
0.603540 0.898161 0.834348
0.714900 0.893400 0.842527
0.765805 0.891691 0.837858
0.832761 0.897398 0.777890
0.465980 0.951690 0.877348
0.484382 0.951354 0.878416
0.541863 0.949340 0.881010
0.628809 0.946075 0.886564
0.716915 0.942229 0.894224
0.791775 0.938689 0.903197
0.821012 0.938506 0.900816
0.852506 0.937804 0.900084
0.111910 0.150118 0.384375
0.160159 0.151064 0.383673
0.272618 0.161135 0.379858
0.421027 0.155764 0.378485
0.658595 0.035065 0.390448
0.824002 0.000000 0.369512
0.937255 0.000000 0.350195
1.000000 0.217105 0.343297
0.046632 0.190158 0.403388
0.139162 0.192081 0.402350
0.267857 0.201358 0.398199
0.404486 0.204410 0.391424
0.646174 0.165927 0.403449
0.812802 0.000000 0.377478
0.925750 0.089448 0.357122
1.000000 0.249271 0.347448
0.000000 0.276982 0.445533
0.000000 0.278843 0.445655
0.146059 0.287266 0.446326
0.396582 0.337530 0.451606
0.625452 0.328801 0.449866
0.792782 0.271000 0.405524
0.909239 0.315679 0.395178
1.000000 0.370489 0.379828
0.000000 0.480415 0.527245
0.000000 0.483589 0.529351
0.000000 0.495430 0.531609
0.307225 0.520195 0.536400
0.564111 0.529992 0.529686
0.745418 0.512718 0.499428
0.879881 0.511254 0.475013
0.984802 0.527428 0.453407
0.000000 0.718776 0.676417
0.000000 0.719356 0.676143
0.000000 0.723049 0.676020
0.096864 0.726497 0.675807
0.525139 0.714229 0.669306
0.688136 0.708949 0.601556
0.826230 0.689082 0.611933
0.935576 0.686549 0.583551
0.000000 0.843351 0.772580
0.000000 0.843046 0.772793
0.000000 0.840208 0.772122
0.228672 0.834562 0.771969
0.524254 0.826780 0.773709
0.663447 0.822904 0.770993
0.770871 0.827604 0.722103
0.902556 0.819211 0.690211
0.000000 0.912200 0.840665
0.000000 0.911254 0.840391
0.218723 0.908141 0.840604
0.442817 0.903349 0.842985
0.601434 0.897581 0.847929
0.722042 0.892485 0.856565
0.777737 0.892027 0.854551
0.838285 0.897978 0.815671
0.465187 0.951751 0.885466
0.479438 0.951141 0.885679
0.537072 0.949096 0.887724
0.626917 0.946105 0.892790
0.715206 0.942260 0.899046
0.791592 0.938994 0.907103
0.833646 0.938201 0.909422
0.861234 0.937835 0.909056
0.246769 0.170321 0.560296
0.274235 0.172549 0.562127
0.360723 0.181552 0.560906
0.481422 0.200870 0.559014
0.621668 0.192721 0.563348
0.815091 0.212863 0.576623
0.941100 0.225589 0.552972
1.000000 0.192477 0.499336
0.240085 0.212833 0.575280
0.267185 0.214267 0.575158
0.355993 0.220554 0.573571
0.480690 0.236606 0.571588
0.627100 0.235508 0.580255
0.807065 0.261051 0.585321
0.934508 0.269963 0.561425
1.000000 0.234928 0.505028
0.000000 0.272496 0.593805
0.096681 0.284123 0.596918
0.308537 0.323949 0.606287
0.458564 0.340856 0.605341
0.609644 0.367620 0.613794
0.778622 0.400305 0.623468
0.916258 0.409857 0.605371
1.000000 0.361151 0.533745
0.000000 0.427619 0.658289
0.000000 0.427619 0.656794
0.000000 0.430304 0.653620
0.304692 0.440375 0.649958
0.566400 0.521233 0.664424
0.720363 0.552819 0.673091
0.869810 0.540307 0.645167
0.973358 0.506249 0.577874
0.000000 0.634607 0.731197
0.000000 0.634730 0.730526
0.000000 0.637720 0.730617
0.182895 0.648096 0.732631
0.485786 0.664851 0.733547
0.673762 0.695399 0.738735
0.809598 0.678889 0.706996
0.918456 0.684047 0.682612
0.000000 0.797482 0.805997
0.000000 0.800839 0.809079
0.000000 0.805203 0.811582
0.165194 0.814694 0.818357
0.498756 0.820279 0.821927
0.673671 0.819883 0.821530
0.772946 0.820615 0.803647
0.878019 0.817105 0.793973
0.000000 0.908568 0.871244
0.000000 0.908415 0.871550
0.244511 0.907347 0.872313
0.455116 0.904570 0.873442
0.604181 0.898985 0.873869
0.719722 0.893462 0.875700
0.794522 0.890410 0.876616
0.846433 0.896788 0.857786
0.460761 0.953094 0.900481
0.476387 0.952575 0.900694
0.534752 0.950469 0.901823
0.622126 0.947051 0.904417
0.711696 0.942992 0.908385
0.789456 0.939544 0.913909
0.850187 0.937499 0.920928
0.872709 0.938415 0.919677
0.388708 0.207828 0.735653
0.405158 0.210544 0.736538
0.462806 0.220401 0.735470
0.555383 0.240055 0.734585
0.660365 0.275486 0.731258
0.782498 0.282719 0.742367
0.890166 0.340185 0.726162
1.000000 0.439307 0.730556
0.384802 0.246128 0.741817
0.401892 0.248478 0.743404
0.459907 0.255680 0.742672
0.550622 0.271031 0.739254
0.656245 0.302373 0.735409
0.776272 0.315679 0.744900
0.884337 0.367285 0.730648
0.996948 0.459724 0.735348
0.345556 0.341680 0.755459
0.363195 0.343175 0.755520
0.425971 0.348272 0.753384
0.523217 0.360998 0.749935
0.633875 0.386969 0.746090
0.745693 0.415320 0.748959
0.859037 0.454353 0.744961
0.976867 0.525170 0.750118
0.000000 0.362524 0.756710
0.000000 0.370428 0.757137
0.237247 0.407202 0.761532
0.460243 0.482094 0.770504
0.594873 0.509728 0.770657
0.708034 0.548363 0.769680
0.821866 0.579400 0.774807
0.948058 0.616449 0.774044
0.000000 0.558343 0.803799
0.000000 0.559136 0.803464
0.000000 0.561181 0.801083
0.255222 0.566186 0.796536
0.459113 0.577020 0.788815
0.670802 0.659388 0.800076
0.788815 0.694057 0.808286
0.911315 0.703304 0.795499
0.000000 0.723232 0.840513
0.000000 0.723873 0.840421
0.000000 0.724941 0.838560
0.220615 0.729671 0.836210
0.457710 0.741787 0.835752
0.622370 0.759213 0.837583
0.767422 0.795560 0.845365
0.866117 0.794949 0.829160
0.000000 0.864103 0.881804
0.000000 0.864225 0.881315
0.000000 0.866392 0.880735
0.346502 0.873869 0.884611
0.541253 0.881682 0.889982
0.689052 0.885832 0.893065
0.792081 0.885710 0.893706
0.851011 0.889311 0.885496
0.348577 0.952636 0.915221
0.373968 0.952178 0.915251
0.461402 0.950347 0.915648
0.584253 0.947845 0.917693
0.690028 0.943389 0.919341
0.777737 0.939452 0.921996
0.844022 0.936858 0.925872
0.878965 0.937011 0.926879
0.533684 0.293767 0.863432
0.543267 0.297307 0.863859
0.574975 0.305486 0.860838
0.632654 0.323980 0.857420
0.704891 0.351873 0.851926
0.782101 0.394598 0.845823
0.873716 0.419837 0.852689
0.949065 0.470253 0.840818
0.520470 0.313970 0.857694
0.528557 0.315557 0.857145
0.561486 0.322545 0.855070
0.620020 0.337896 0.852079
0.694911 0.364538 0.848051
0.774533 0.406073 0.843351
0.866087 0.433539 0.850248
0.943755 0.480720 0.839994
0.502068 0.395697 0.862211
0.510216 0.396643 0.861570
0.544396 0.401740 0.859892
0.601373 0.410620 0.855039
0.678248 0.432563 0.851438
0.760128 0.468330 0.847715
0.847959 0.502617 0.852476
0.929229 0.540002 0.846738
0.415045 0.461860 0.864042
0.430945 0.468177 0.863493
0.494545 0.497566 0.863066
0.570367 0.517998 0.863310
0.653986 0.537621 0.861387
0.739284 0.566247 0.858366
0.821592 0.604364 0.859007
0.908324 0.629511 0.859495
0.000000 0.497566 0.867460
0.000000 0.497810 0.866789
0.209689 0.500847 0.864134
0.413458 0.543328 0.862303
0.593103 0.619165 0.863676
0.701625 0.651698 0.863157
0.794125 0.683253 0.864195
0.885313 0.710872 0.867185
0.000000 0.668727 0.886259
0.000000 0.670405 0.886534
0.198062 0.672389 0.884977
0.349615 0.676783 0.882078
0.478889 0.683162 0.877317
0.606958 0.696437 0.871458
0.775113 0.770016 0.878416
0.866484 0.804440 0.884642
0.173068 0.813504 0.909453
0.211032 0.814511 0.909575
0.300359 0.816831 0.908904
0.413336 0.821592 0.907500
0.532830 0.829496 0.905364
0.656031 0.839567 0.903166
0.762081 0.851255 0.902251
0.855619 0.877623 0.907439
0.310704 0.921752 0.928710
0.324346 0.921965 0.928466
0.387121 0.924193 0.928374
0.491371 0.930877 0.930144
0.615625 0.938109 0.932799
0.745205 0.936278 0.933135
0.836088 0.936919 0.935363
0.886687 0.934691 0.935912
0.647669 0.407019 0.926390
0.654261 0.411048 0.926848
0.673030 0.417731 0.925383
0.709468 0.433051 0.923430
0.757534 0.454353 0.919890
0.811917 0.483833 0.915068
0.865721 0.523033 0.909270
0.929046 0.543420 0.911223
0.636439 0.413825 0.922423
0.643610 0.418189 0.923156
0.662989 0.424262 0.921904
0.698634 0.436103 0.919463
0.747127 0.454871 0.915801
0.801816 0.480751 0.910460
0.856535 0.516533 0.904204
0.921019 0.536126 0.905882
0.627955 0.474372 0.923095
0.632685 0.475502 0.922850
0.650935 0.478309 0.921202
0.686549 0.487129 0.918822
0.734707 0.500786 0.914885
0.791257 0.524559 0.910521
0.849393 0.561547 0.906706
0.913268 0.589258 0.909392
0.608087 0.557488 0.923095
0.611841 0.556878 0.922454
0.629999 0.558099 0.920806
0.668025 0.566461 0.919188
0.718166 0.578027 0.916106
0.777432 0.598962 0.913176
0.836973 0.628962 0.910369
0.897490 0.656275 0.911345
0.487953 0.566125 0.921416
0.496254 0.568444 0.920439
0.537499 0.585016 0.918486
0.612665 0.621393 0.916411
0.683497 0.646967 0.914031
0.748440 0.662318 0.911620
0.813840 0.686213 0.909575
0.879484 0.721828 0.912108
0.342870 0.631312 0.925933
0.353399 0.631983 0.925750
0.391821 0.633387 0.924681
0.455207 0.635645 0.922454
0.574029 0.665949 0.918303
0.719326 0.736690 0.916320
0.798825 0.764401 0.915557
0.867308 0.791928 0.916625
0.402197 0.770779 0.934142
0.412696 0.771847 0.934173
0.445624 0.773800 0.933471
0.503990 0.778164 0.932158
0.577478 0.784298 0.929778
0.659083 0.792447 0.925994
0.744350 0.803922 0.920378
0.859373 0.855497 0.922515
0.473732 0.880278 0.945129
0.481697 0.880858 0.945098
0.516960 0.883726 0.945190
0.569024 0.887663 0.944579
0.635401 0.893400 0.943206
0.713161 0.901976 0.941344
0.801541 0.911803 0.939971
0.872313 0.920928 0.940368
0.748013 0.546654 0.961120
0.751522 0.549096 0.961120
0.760952 0.550774 0.959899
0.782559 0.560845 0.958587
0.812345 0.574884 0.956359
0.847654 0.593042 0.953246
0.885985 0.619379 0.949920
0.922728 0.650172 0.945953
0.742061 0.548577 0.959564
0.745663 0.551110 0.959594
0.756252 0.554345 0.958709
0.777646 0.562890 0.957305
0.807919 0.576287 0.955138
0.843839 0.594171 0.952148
0.882475 0.618769 0.948699
0.919829 0.649042 0.944793
0.733547 0.578729 0.957671
0.736446 0.579889 0.957549
0.746761 0.581659 0.956634
0.770779 0.593317 0.956054
0.800320 0.602838 0.953796
0.835996 0.616815 0.950774
0.875792 0.640040 0.947784
0.914458 0.669245 0.944427
0.719265 0.626886 0.955413
0.722652 0.628351 0.955413
0.733700 0.630396 0.954742
0.756558 0.637446 0.953857
0.788052 0.647211 0.952239
0.825742 0.660883 0.949981
0.866880 0.681880 0.947631
0.907225 0.709133 0.945129
0.692561 0.677089 0.953796
0.698085 0.680781 0.953674
0.712764 0.685695 0.952789
0.736141 0.689479 0.952148
0.769680 0.697261 0.950774
0.810666 0.709834 0.949065
0.855528 0.730373 0.947601
0.897551 0.752773 0.945220
0.598566 0.681971 0.958618
0.603937 0.683650 0.958251
0.628138 0.692744 0.956970
0.676051 0.713832 0.954833
0.742275 0.748379 0.951904
0.798428 0.773037 0.950042
0.844297 0.787350 0.948272
0.887999 0.803342 0.945769
0.563928 0.762081 0.960693
0.567102 0.762081 0.960540
0.580896 0.762203 0.959869
0.609766 0.763699 0.958679
0.651545 0.765713 0.956695
0.726802 0.785672 0.952667
0.826841 0.837217 0.947936
0.878660 0.851408 0.946258
0.587823 0.857450 0.960571
0.590753 0.857603 0.960449
0.606531 0.859098 0.960082
0.639673 0.863066 0.959533
0.684718 0.868833 0.958495
0.737850 0.876432 0.956909
0.798245 0.886198 0.954650
0.860136 0.896574 0.951293
