20 Preset/Japan Style/【3】LUT video cho PR-AE-FCPX/LUT VIDEO (2)/Japan Style LUT (4).cube
# Created by Adobe Lightroom plugin Export LUT (1.24.0)
# www.johnrellis.com/lightroom/exportlut.htm
# Preset: 04日系暖色（素材江湖）
# Color profile: C:\Program Files (x86)\Common Files\Adobe\Color\Profiles\Recommended\VideoHD.icc
LUT_3D_SIZE 8
DOMAIN_MIN 0.000000 0.000000 0.000000
DOMAIN_MAX 0.903226 0.903226 0.903226
0.091341 0.095827 0.110750
0.087800 0.093965 0.108431
0.232273 0.064790 0.104189
0.492592 0.000000 0.098512
0.752193 0.000000 0.087495
0.933196 0.000000 0.093324
1.000000 0.162020 0.141573
1.000000 0.330571 0.223239
0.068544 0.105531 0.107485
0.099977 0.112428 0.105501
0.275273 0.134218 0.095003
0.523186 0.000000 0.084596
0.762844 0.000000 0.050935
0.928801 0.000000 0.066163
1.000000 0.231662 0.132753
1.000000 0.358190 0.219181
0.000000 0.301884 0.133852
0.000000 0.301183 0.117433
0.292515 0.344305 0.094911
0.656916 0.372717 0.000000
0.813993 0.394476 0.000000
0.941283 0.392279 0.000000
1.000000 0.422675 0.121035
1.000000 0.476265 0.230961
0.000000 0.565087 0.240757
0.000000 0.562524 0.225010
0.000000 0.552972 0.219852
0.595697 0.611292 0.204318
0.887053 0.638849 0.149233
0.955169 0.623194 0.107576
1.000000 0.626581 0.131594
1.000000 0.627222 0.258640
0.000000 0.733639 0.390265
0.000000 0.732357 0.381506
0.000000 0.728115 0.348577
0.428260 0.720089 0.383612
0.751492 0.757748 0.390753
0.959075 0.779049 0.403082
1.000000 0.757046 0.364477
1.000000 0.757992 0.376196
0.184756 0.828092 0.531640
0.221012 0.828458 0.529839
0.302037 0.825681 0.514427
0.449226 0.817929 0.512108
0.645533 0.817990 0.541619
0.835752 0.838956 0.561395
0.974792 0.860258 0.588708
1.000000 0.847807 0.586481
0.504692 0.887694 0.666926
0.510826 0.887480 0.665675
0.532311 0.885863 0.658839
0.571618 0.882994 0.648066
0.663569 0.875090 0.667597
0.779324 0.881132 0.689693
0.889738 0.894133 0.710048
0.978088 0.910094 0.740475
0.696620 0.930907 0.793149
0.698756 0.930785 0.792660
0.708339 0.930266 0.791196
0.726894 0.929442 0.789364
0.754757 0.926268 0.788998
0.807767 0.923308 0.810300
0.875883 0.933471 0.829435
0.937469 0.945159 0.850828
0.092683 0.095827 0.106783
0.084047 0.095766 0.107240
0.211429 0.053315 0.122072
0.475685 0.000000 0.123781
0.736599 0.000000 0.127779
0.916197 0.000000 0.138460
1.000000 0.130465 0.172976
1.000000 0.314946 0.241276
0.071412 0.100282 0.113588
0.096071 0.105287 0.116396
0.258274 0.112184 0.119234
0.511284 0.000000 0.121492
0.752468 0.000000 0.121767
0.919036 0.000000 0.132418
1.000000 0.216007 0.169253
1.000000 0.345830 0.239078
0.000000 0.296971 0.169741
0.000000 0.299321 0.162844
0.290135 0.331273 0.147860
0.637598 0.360845 0.081819
0.801999 0.375494 0.000000
0.931823 0.376684 0.091463
1.000000 0.407385 0.162173
1.000000 0.463600 0.248203
0.000000 0.556176 0.275578
0.000000 0.554437 0.261295
0.000000 0.547082 0.242649
0.583520 0.596307 0.236210
0.873106 0.623438 0.190677
0.944823 0.610895 0.156619
1.000000 0.613275 0.171054
1.000000 0.616754 0.272435
0.000000 0.731258 0.412360
0.000000 0.729702 0.403479
0.000000 0.724819 0.370825
0.427863 0.713588 0.396033
0.746822 0.751614 0.402625
0.954742 0.773678 0.414649
1.000000 0.752682 0.375402
1.000000 0.754299 0.383185
0.222934 0.825711 0.542107
0.245914 0.825071 0.538079
0.318639 0.822446 0.523095
0.451240 0.815488 0.516686
0.644129 0.814878 0.547082
0.834409 0.837003 0.568078
0.973358 0.858518 0.595361
1.000000 0.846067 0.589441
0.507683 0.886076 0.670344
0.512078 0.885557 0.668147
0.533227 0.883879 0.661006
0.572778 0.881132 0.650324
0.663081 0.873838 0.668605
0.777859 0.879515 0.691005
0.888548 0.892576 0.710597
0.977569 0.908690 0.740047
0.695277 0.929992 0.793240
0.698116 0.929961 0.793240
0.707485 0.929442 0.791562
0.726131 0.928618 0.789639
0.757992 0.926909 0.792844
0.809140 0.923491 0.812375
0.875761 0.933135 0.830381
0.937407 0.944884 0.851560
0.048890 0.097292 0.153292
0.059327 0.095094 0.157595
0.187015 0.042542 0.170962
0.461891 0.000000 0.222232
0.707759 0.000000 0.252323
0.903899 0.000000 0.245335
1.000000 0.000000 0.273869
1.000000 0.287968 0.324254
0.000000 0.096345 0.178927
0.024445 0.090547 0.187350
0.236881 0.046815 0.200290
0.479683 0.000000 0.243839
0.731350 0.000000 0.232364
0.907225 0.000000 0.248234
1.000000 0.153140 0.273350
1.000000 0.321813 0.323400
0.000000 0.267643 0.252506
0.000000 0.281407 0.257176
0.301549 0.301305 0.274510
0.598230 0.323552 0.255528
0.792416 0.313787 0.250095
0.925078 0.331548 0.255436
1.000000 0.376715 0.280797
1.000000 0.442939 0.332952
0.000000 0.552697 0.350408
0.000000 0.556268 0.357183
0.230076 0.559594 0.356725
0.589807 0.585931 0.357092
0.858518 0.609491 0.325933
0.933043 0.601617 0.292943
1.000000 0.593469 0.305394
1.000000 0.602502 0.359319
0.000000 0.730007 0.477577
0.000000 0.729824 0.483558
0.268528 0.726345 0.467659
0.468940 0.714290 0.461707
0.749569 0.747707 0.477913
0.945251 0.768582 0.486549
0.992706 0.748806 0.443122
1.000000 0.751125 0.436133
0.354559 0.823941 0.596063
0.368841 0.823453 0.592981
0.413764 0.820768 0.578271
0.485054 0.815488 0.554559
0.652369 0.809720 0.584619
0.834043 0.833799 0.605676
0.969818 0.855894 0.633204
1.000000 0.844358 0.619471
0.545739 0.884947 0.699855
0.549615 0.884459 0.697719
0.567285 0.882780 0.690089
0.601282 0.879911 0.678279
0.673823 0.873686 0.686061
0.780484 0.877531 0.709316
0.889036 0.891844 0.729641
0.977081 0.909209 0.759091
0.706355 0.929442 0.805203
0.708156 0.929229 0.804410
0.716976 0.928710 0.802548
0.735409 0.928099 0.800687
0.761440 0.926909 0.799619
0.812711 0.923766 0.818875
0.877012 0.932769 0.837339
0.938170 0.945006 0.858061
0.000000 0.101503 0.281529
0.000000 0.101472 0.285161
0.156222 0.017365 0.329046
0.448829 0.000000 0.342138
0.737484 0.000000 0.380682
0.869596 0.000000 0.432502
0.984222 0.000000 0.437995
1.000000 0.163943 0.429511
0.000000 0.093599 0.309545
0.000000 0.088624 0.319219
0.177340 0.000000 0.359686
0.491310 0.000000 0.368780
0.745754 0.000000 0.396094
0.867521 0.000000 0.442695
0.990082 0.000000 0.426123
1.000000 0.231418 0.432624
0.000000 0.188815 0.374487
0.000000 0.190677 0.383276
0.099458 0.189181 0.428870
0.590692 0.216770 0.442115
0.755734 0.279515 0.454688
0.898894 0.242893 0.426307
1.000000 0.302434 0.422797
1.000000 0.392889 0.449897
0.000000 0.515740 0.478401
0.000000 0.523857 0.481880
0.000000 0.552941 0.496254
0.606073 0.560235 0.526818
0.815183 0.575189 0.491524
0.914458 0.552117 0.460517
0.993774 0.546838 0.453620
1.000000 0.565576 0.473487
0.000000 0.727962 0.543481
0.000000 0.727932 0.546685
0.293309 0.727565 0.566064
0.563989 0.723690 0.579187
0.756100 0.739284 0.592767
0.926940 0.757137 0.587640
0.977203 0.739284 0.539452
1.000000 0.735378 0.523796
0.234409 0.824704 0.628748
0.308354 0.824735 0.633967
0.479561 0.821500 0.651850
0.586023 0.816556 0.649928
0.676509 0.805753 0.649928
0.835843 0.829984 0.669856
0.965118 0.851835 0.695460
1.000000 0.840208 0.667903
0.519677 0.885557 0.719722
0.540032 0.884855 0.723140
0.612207 0.882078 0.737453
0.650721 0.879301 0.729824
0.694453 0.875059 0.719875
0.785977 0.874235 0.742123
0.889921 0.890227 0.760952
0.977508 0.910033 0.788205
0.702205 0.930571 0.817258
0.710689 0.930083 0.819455
0.736843 0.928649 0.825284
0.752529 0.927825 0.821714
0.774990 0.926787 0.818173
0.818204 0.924407 0.829984
0.878599 0.931823 0.848753
0.939666 0.945220 0.869230
0.000000 0.107057 0.457282
0.000000 0.107362 0.460121
0.000000 0.046204 0.494942
0.443946 0.000000 0.566400
0.722316 0.000000 0.545983
0.922301 0.000000 0.549035
0.989532 0.000000 0.573846
1.000000 0.337743 0.623407
0.000000 0.107820 0.474098
0.000000 0.090761 0.483192
0.000000 0.000000 0.519249
0.461799 0.000000 0.582391
0.742123 0.000000 0.561334
0.921904 0.000000 0.556786
0.985534 0.150729 0.579522
1.000000 0.363897 0.627497
0.000000 0.123140 0.534691
0.000000 0.111818 0.544427
0.000000 0.078737 0.572168
0.471656 0.000000 0.624811
0.792569 0.000000 0.607752
0.909483 0.244327 0.585626
0.966369 0.354223 0.602258
1.000000 0.424903 0.624781
0.000000 0.388067 0.587488
0.000000 0.392309 0.592279
0.000000 0.411231 0.612299
0.489296 0.447791 0.660334
0.805875 0.517845 0.666255
0.874052 0.531060 0.646967
0.965850 0.495430 0.607263
1.000000 0.503044 0.592554
0.000000 0.696498 0.657740
0.000000 0.699794 0.659846
0.000000 0.710567 0.667567
0.522087 0.723262 0.684382
0.767788 0.722316 0.711788
0.894011 0.729793 0.686305
0.958373 0.700740 0.639643
1.000000 0.686000 0.625757
0.000000 0.822721 0.675837
0.000000 0.822110 0.677760
0.269871 0.818662 0.686641
0.574060 0.812894 0.709987
0.720912 0.809598 0.725185
0.837613 0.822141 0.740200
0.954314 0.840543 0.748714
0.993317 0.827970 0.713466
0.352331 0.888243 0.733181
0.386572 0.887358 0.735012
0.495674 0.884306 0.743709
0.645136 0.879271 0.766720
0.733028 0.874815 0.774716
0.790341 0.868009 0.778103
0.890654 0.886717 0.796109
0.977050 0.905852 0.820127
0.601495 0.935210 0.807553
0.615381 0.934508 0.809689
0.667720 0.931762 0.819028
0.747982 0.928130 0.838346
0.791135 0.926146 0.843015
0.821500 0.924987 0.842771
0.878050 0.928954 0.861357
0.940642 0.944060 0.880919
0.000000 0.115694 0.638270
0.000000 0.115969 0.639918
0.000000 0.074586 0.656062
0.199161 0.000000 0.703822
0.714504 0.000000 0.752255
0.908110 0.000000 0.715816
1.000000 0.000000 0.689357
1.000000 0.242130 0.701228
0.000000 0.116152 0.644709
0.000000 0.116457 0.645655
0.000000 0.045777 0.668147
0.275242 0.000000 0.711971
0.720729 0.000000 0.756222
0.912718 0.000000 0.720058
1.000000 0.000000 0.690822
1.000000 0.282597 0.702815
0.000000 0.061555 0.689479
0.000000 0.046448 0.693202
0.000000 0.000000 0.709224
0.292699 0.000000 0.739467
0.735744 0.000000 0.782498
0.931090 0.000000 0.742123
1.000000 0.254185 0.706233
1.000000 0.410163 0.716060
0.000000 0.273777 0.696101
0.000000 0.272160 0.701839
0.000000 0.266972 0.726253
0.141817 0.238773 0.763088
0.738521 0.273686 0.799710
0.925048 0.419837 0.770809
0.974304 0.522057 0.739162
1.000000 0.557031 0.741787
0.000000 0.577142 0.739254
0.000000 0.579431 0.741054
0.000000 0.588739 0.749020
0.200229 0.605585 0.764492
0.703487 0.646662 0.792874
0.885039 0.701503 0.798581
0.927184 0.681910 0.773648
0.991882 0.653254 0.748074
0.000000 0.804623 0.772427
0.000000 0.805692 0.773648
0.000000 0.807889 0.776547
0.390234 0.810788 0.783261
0.696254 0.814481 0.798367
0.849424 0.814908 0.820371
0.934112 0.817136 0.800626
0.984222 0.792416 0.766110
0.000000 0.893370 0.774594
0.000000 0.892729 0.775784
0.168368 0.889403 0.780453
0.509117 0.883452 0.791806
0.710567 0.877317 0.813993
0.818784 0.873869 0.829465
0.894652 0.883482 0.840757
0.973938 0.898772 0.851225
0.414191 0.941802 0.816464
0.437079 0.941070 0.817441
0.520104 0.938262 0.822568
0.637720 0.933745 0.834195
0.761715 0.928283 0.855406
0.838224 0.925658 0.870970
0.878172 0.924651 0.878935
0.942962 0.943175 0.897978
0.000000 0.129610 0.796963
0.000000 0.129763 0.800381
0.000000 0.130007 0.801724
0.000000 0.000000 0.826535
0.550072 0.000000 0.857572
0.885313 0.000000 0.873533
1.000000 0.000000 0.837888
1.000000 0.000000 0.792630
0.000000 0.128511 0.788754
0.000000 0.129213 0.792935
0.000000 0.113222 0.796658
0.000000 0.000000 0.820096
0.557153 0.000000 0.850065
0.876432 0.000000 0.862943
1.000000 0.000000 0.825376
1.000000 0.000000 0.779934
0.000000 0.131289 0.812497
0.000000 0.118593 0.814267
0.000000 0.026764 0.822751
0.000000 0.000000 0.840604
0.626856 0.000000 0.863401
0.882383 0.000000 0.871946
1.000000 0.000000 0.839292
1.000000 0.142275 0.794766
0.000000 0.149111 0.838376
0.000000 0.135103 0.839933
0.000000 0.068208 0.844144
0.000000 0.000000 0.856199
0.557153 0.000000 0.872282
0.895232 0.000000 0.890898
1.000000 0.201633 0.854520
1.000000 0.484718 0.811643
0.000000 0.431067 0.816281
0.000000 0.426307 0.814603
0.000000 0.412726 0.814878
0.000000 0.395422 0.832395
0.444587 0.380713 0.860502
0.847654 0.472908 0.881010
0.971496 0.584405 0.853391
1.000000 0.655909 0.829221
0.000000 0.695064 0.831571
0.000000 0.695644 0.832334
0.000000 0.696651 0.834592
0.000000 0.697688 0.839445
0.404822 0.700923 0.847257
0.795712 0.744167 0.869139
0.929290 0.793820 0.873655
0.960998 0.775906 0.854032
0.000000 0.877745 0.849180
0.000000 0.878294 0.850004
0.000000 0.877287 0.850584
0.000000 0.875090 0.852781
0.556298 0.871763 0.857603
0.787808 0.874205 0.870390
0.902708 0.876768 0.888670
0.960723 0.875212 0.872282
0.000000 0.950835 0.844297
0.000000 0.950103 0.845090
0.000000 0.947356 0.849577
0.412604 0.941070 0.856229
0.645136 0.933104 0.867185
0.801999 0.927489 0.885924
0.891508 0.927581 0.904570
0.946105 0.941009 0.918975
0.000000 0.146792 0.901549
0.000000 0.146975 0.902770
0.000000 0.146578 0.901274
0.000000 0.075319 0.906859
0.000000 0.000000 0.920745
0.730098 0.000000 0.934264
0.982055 0.000000 0.937926
1.000000 0.000000 0.911101
0.000000 0.145754 0.897368
0.000000 0.146181 0.898772
0.000000 0.146181 0.898741
0.000000 0.049989 0.904295
0.000000 0.000000 0.918059
0.731716 0.000000 0.931823
0.978424 0.000000 0.934325
1.000000 0.000000 0.906126
0.000000 0.146761 0.901884
0.000000 0.147005 0.902251
0.000000 0.146792 0.901488
0.000000 0.007721 0.912352
0.217807 0.000000 0.922606
0.753262 0.000000 0.934051
0.983886 0.000000 0.935210
1.000000 0.000000 0.906462
0.000000 0.148989 0.911559
0.000000 0.149172 0.912383
0.000000 0.124636 0.913298
0.000000 0.000000 0.921965
0.373693 0.000000 0.931334
0.772732 0.000000 0.940978
0.985046 0.000000 0.940948
1.000000 0.000000 0.910399
0.000000 0.291600 0.907286
0.000000 0.280308 0.909117
0.000000 0.225132 0.912200
0.000000 0.099367 0.919463
0.000000 0.000000 0.925811
0.674708 0.000000 0.934905
0.967529 0.000000 0.942168
1.000000 0.279423 0.908446
0.000000 0.545464 0.891814
0.000000 0.540215 0.890776
0.000000 0.520439 0.888792
0.000000 0.483101 0.888670
0.000000 0.424292 0.900114
0.504509 0.395941 0.922698
0.910735 0.538659 0.935088
1.000000 0.667475 0.911070
0.000000 0.775448 0.895262
0.000000 0.774441 0.895018
0.000000 0.770718 0.894347
0.000000 0.765408 0.894987
0.000000 0.755764 0.896483
0.396887 0.746975 0.900175
0.844663 0.795895 0.918364
0.960815 0.845975 0.919524
0.000000 0.943877 0.909148
0.000000 0.943511 0.908995
0.000000 0.942473 0.909178
0.000000 0.938445 0.909300
0.000000 0.929107 0.909087
0.634180 0.920439 0.911711
0.848661 0.921111 0.921843
0.946441 0.929595 0.940612
