20 Preset/Japan Style/【3】LUT video cho PR-AE-FCPX/LUT VIDEO (2)/Japan Style LUT (12).cube
# Created by Adobe Lightroom plugin Export LUT (1.24.0)
# www.johnrellis.com/lightroom/exportlut.htm
# Preset: 12日系清新（素材江湖）
# Color profile: C:\Program Files (x86)\Common Files\Adobe\Color\Profiles\Recommended\VideoHD.icc
LUT_3D_SIZE 5
DOMAIN_MIN 0.000000 0.000000 0.000000
DOMAIN_MAX 0.903226 0.903226 0.903226
0.000000 0.040620 0.026093
0.370550 0.000000 0.000000
0.898833 0.000000 0.000000
1.000000 0.000000 0.000000
1.000000 0.000000 0.000000
0.000000 0.449744 0.000000
0.222904 0.414496 0.000000
0.886625 0.291722 0.000000
1.000000 0.122927 0.000000
1.000000 0.000000 0.000000
0.000000 0.813962 0.393927
0.218967 0.806546 0.437415
0.706630 0.737026 0.102602
1.000000 0.617578 0.000000
1.000000 0.485725 0.000000
0.496895 0.892943 0.640589
0.556023 0.890227 0.653620
0.681086 0.880369 0.661463
0.843168 0.844083 0.413672
1.000000 0.746334 0.208164
0.704372 0.919402 0.758083
0.718288 0.918395 0.762234
0.765347 0.914336 0.776883
0.804013 0.910094 0.751522
0.900481 0.898192 0.603876
0.000000 0.092805 0.356542
0.347906 0.000000 0.361975
0.871122 0.000000 0.307469
1.000000 0.000000 0.258854
1.000000 0.000000 0.207156
0.000000 0.440742 0.350500
0.284825 0.425727 0.337652
0.850950 0.352728 0.308080
1.000000 0.275425 0.262211
1.000000 0.177066 0.212985
0.000000 0.798367 0.518273
0.355016 0.794675 0.536889
0.705470 0.732418 0.369604
1.000000 0.622950 0.308598
1.000000 0.520714 0.264530
0.560906 0.887907 0.679072
0.608026 0.885679 0.690242
0.719173 0.877592 0.709926
0.842069 0.843107 0.505547
1.000000 0.749477 0.371740
0.723659 0.917815 0.772549
0.736233 0.916869 0.776272
0.781064 0.913451 0.791379
0.817227 0.909300 0.773159
0.901061 0.898131 0.644434
0.000000 0.163424 0.730770
0.301335 0.105135 0.732540
0.838376 0.000000 0.726040
1.000000 0.000000 0.640406
1.000000 0.300481 0.570794
0.000000 0.469703 0.711482
0.289738 0.432502 0.716365
0.814603 0.364324 0.711513
1.000000 0.396033 0.637873
1.000000 0.462776 0.596765
0.000000 0.766323 0.683803
0.251743 0.759426 0.680995
0.720882 0.726589 0.672816
0.933562 0.691066 0.671473
1.000000 0.644953 0.641138
0.661372 0.872618 0.756954
0.707332 0.869718 0.768399
0.780179 0.869566 0.785000
0.845151 0.839994 0.690700
0.990051 0.773617 0.658320
0.775753 0.912627 0.814664
0.781704 0.912444 0.815305
0.811826 0.910826 0.823484
0.850248 0.907317 0.827115
0.903258 0.896727 0.738827
0.000000 0.301396 0.869810
0.364019 0.287999 0.869657
0.730648 0.193729 0.868589
1.000000 0.108339 0.858915
1.000000 0.322210 0.764553
0.218753 0.483467 0.857847
0.400153 0.472847 0.857816
0.717586 0.426703 0.858396
0.980163 0.398505 0.847959
1.000000 0.460334 0.764309
0.431861 0.723171 0.825742
0.523430 0.723079 0.822873
0.709651 0.713802 0.825040
0.901976 0.689235 0.813962
0.990875 0.694453 0.781613
0.503899 0.863584 0.805295
0.564904 0.860197 0.805631
0.726406 0.850004 0.810361
0.851438 0.834195 0.809140
0.947082 0.819547 0.812436
0.747799 0.912505 0.831662
0.767269 0.911223 0.836301
0.828061 0.907561 0.853666
0.877775 0.907042 0.870024
0.908476 0.896605 0.828489
0.354345 0.420264 0.923125
0.432837 0.411231 0.922789
0.640253 0.374212 0.922576
0.867735 0.267643 0.922698
1.000000 0.243534 0.915923
0.402655 0.518334 0.914977
0.463142 0.511009 0.914977
0.641047 0.480507 0.915221
0.855100 0.405554 0.916075
1.000000 0.381048 0.910521
0.574640 0.713680 0.893919
0.609583 0.714565 0.893156
0.679072 0.690394 0.894804
0.826108 0.653315 0.896788
0.994537 0.635309 0.893767
0.590295 0.815579 0.883085
0.621241 0.815122 0.882109
0.725917 0.817441 0.879637
0.832792 0.818296 0.882078
0.936522 0.815183 0.882719
0.634333 0.913451 0.872953
0.659388 0.911681 0.873289
0.746578 0.906218 0.876249
0.839628 0.899504 0.880461
0.909697 0.893828 0.885435
