20 Preset/Japan Style/【3】LUT video cho PR-AE-FCPX/LUT VIDEO (2)/Japan Style LUT (42).cube
# Created by Adobe Lightroom plugin Export LUT (1.24.0)
# www.johnrellis.com/lightroom/exportlut.htm
# Preset: 42日系青绿（素材江湖）
# Color profile: C:\Program Files (x86)\Common Files\Adobe\Color\Profiles\Recommended\VideoHD.icc
LUT_3D_SIZE 32
DOMAIN_MIN 0.0 0.0 0.0
DOMAIN_MAX 1.0 1.0 1.0
0.000000 0.000000 0.000000
0.000000 0.000000 0.000000
0.007233 0.000305 0.000000
0.037171 0.009308 0.000000
0.108614 0.035309 0.000000
0.196414 0.047333 0.000000
0.306340 0.001129 0.000000
0.418799 0.000000 0.000000
0.524102 0.000000 0.000000
0.617609 0.000000 0.000000
0.697292 0.000000 0.000000
0.760372 0.000000 0.000000
0.811887 0.000000 0.000000
0.855863 0.121370 0.000000
0.895445 0.198764 0.000000
0.927977 0.256901 0.000000
0.955138 0.305882 0.000000
0.978210 0.348150 0.000000
0.997894 0.384802 0.000000
1.000000 0.417517 0.000000
1.000000 0.445380 0.035462
1.000000 0.469245 0.141176
1.000000 0.489540 0.191592
1.000000 0.507317 0.233066
1.000000 0.522942 0.269749
1.000000 0.536675 0.302922
1.000000 0.548669 0.332860
1.000000 0.559045 0.359380
1.000000 0.567651 0.382238
1.000000 0.574884 0.401740
1.000000 0.580133 0.416449
1.000000 0.582391 0.414038
0.000000 0.000000 0.000000
0.000000 0.000000 0.000000
0.005676 0.006104 0.000000
0.036866 0.016052 0.000000
0.109407 0.046204 0.000000
0.197879 0.062928 0.000000
0.307317 0.017456 0.000000
0.418769 0.000000 0.000000
0.524041 0.000000 0.000000
0.617395 0.000000 0.000000
0.696529 0.000000 0.000000
0.759609 0.000000 0.000000
0.811063 0.000000 0.000000
0.855100 0.131899 0.000000
0.894224 0.203769 0.000000
0.926757 0.259648 0.000000
0.953979 0.307836 0.000000
0.977142 0.348974 0.000000
0.996826 0.385748 0.000000
1.000000 0.417975 0.000000
1.000000 0.445808 0.039033
1.000000 0.469093 0.140414
1.000000 0.489570 0.190707
1.000000 0.507225 0.232334
1.000000 0.522881 0.268833
1.000000 0.536431 0.301457
1.000000 0.548363 0.331670
1.000000 0.558862 0.358587
1.000000 0.567620 0.381659
1.000000 0.574762 0.401007
1.000000 0.580163 0.416083
1.000000 0.582666 0.414466
0.000000 0.006775 0.000000
0.000000 0.010376 0.000000
0.000000 0.025879 0.000000
0.026612 0.055390 0.000000
0.110780 0.091859 0.000000
0.204746 0.101808 0.000000
0.314855 0.094209 0.000000
0.425299 0.029389 0.000000
0.528801 0.000000 0.000000
0.620569 0.000000 0.000000
0.698146 0.000000 0.000000
0.760250 0.000000 0.000000
0.810941 0.102632 0.000000
0.854704 0.170962 0.000000
0.893339 0.226963 0.000000
0.925505 0.276280 0.000000
0.952544 0.319890 0.000000
0.975280 0.359289 0.000000
0.995026 0.393957 0.000000
1.000000 0.424506 0.000000
1.000000 0.451026 0.070954
1.000000 0.473884 0.149142
1.000000 0.493294 0.196292
1.000000 0.510399 0.236820
1.000000 0.525628 0.273167
1.000000 0.538750 0.305333
1.000000 0.550652 0.335241
1.000000 0.560784 0.361486
1.000000 0.569360 0.384497
1.000000 0.576440 0.403784
1.000000 0.581628 0.418616
1.000000 0.584192 0.417334
0.000000 0.066529 0.033173
0.000000 0.068727 0.035157
0.000000 0.076020 0.037446
0.000000 0.101228 0.013916
0.103395 0.129763 0.004425
0.210544 0.150515 0.000000
0.323735 0.152163 0.000000
0.433509 0.144015 0.000000
0.535882 0.129427 0.000000
0.625513 0.120333 0.000000
0.700893 0.129488 0.000000
0.760739 0.153262 0.000000
0.810605 0.187747 0.000000
0.853666 0.227726 0.000000
0.891203 0.268345 0.000000
0.922545 0.308415 0.000000
0.949157 0.345251 0.000000
0.971801 0.379828 0.000000
0.991547 0.410803 0.000000
1.000000 0.438178 0.000000
1.000000 0.461860 0.107912
1.000000 0.482826 0.165652
1.000000 0.500938 0.209567
1.000000 0.516869 0.247074
1.000000 0.531182 0.281895
1.000000 0.543969 0.313848
1.000000 0.555261 0.342596
1.000000 0.564996 0.368566
1.000000 0.573175 0.390814
1.000000 0.579889 0.409888
1.000000 0.584833 0.424048
1.000000 0.587304 0.423224
0.000000 0.128389 0.091981
0.000000 0.128817 0.093965
0.000000 0.130007 0.097932
0.000000 0.141329 0.092134
0.000000 0.179782 0.035431
0.191165 0.214145 0.000000
0.323522 0.230014 0.000000
0.439124 0.229282 0.000000
0.540032 0.224826 0.000000
0.627893 0.224949 0.000000
0.700221 0.230777 0.000000
0.758724 0.244419 0.000000
0.807370 0.264683 0.000000
0.850217 0.291722 0.000000
0.886748 0.321782 0.000000
0.917571 0.352972 0.000000
0.944335 0.382147 0.000000
0.967163 0.410285 0.000000
0.987121 0.436133 0.000000
1.000000 0.458991 0.076967
1.000000 0.479530 0.145327
1.000000 0.497475 0.190463
1.000000 0.513420 0.229892
1.000000 0.527672 0.264775
1.000000 0.540642 0.297642
1.000000 0.552300 0.327642
1.000000 0.562554 0.354955
1.000000 0.571527 0.379339
1.000000 0.579126 0.401068
1.000000 0.585351 0.419135
1.000000 0.589929 0.433051
1.000000 0.592157 0.432258
0.000000 0.199161 0.122042
0.000000 0.199832 0.126192
0.000000 0.200259 0.130159
0.000000 0.201999 0.137392
0.000000 0.226932 0.116091
0.098146 0.278233 0.020325
0.287053 0.312413 0.000000
0.425483 0.322545 0.000000
0.541131 0.327947 0.000000
0.628229 0.325780 0.000000
0.698085 0.327306 0.000000
0.754910 0.334081 0.000000
0.803006 0.346471 0.000000
0.844877 0.364324 0.000000
0.880797 0.384497 0.000000
0.911711 0.406043 0.000000
0.938293 0.427680 0.000000
0.961517 0.448707 0.000000
0.981872 0.468269 0.086458
0.999695 0.486152 0.143984
1.000000 0.502495 0.187839
1.000000 0.517205 0.224277
1.000000 0.535363 0.270329
1.000000 0.546960 0.300481
1.000000 0.557580 0.329503
1.000000 0.567285 0.356390
1.000000 0.575830 0.381048
1.000000 0.583246 0.402502
1.000000 0.589685 0.422034
1.000000 0.594812 0.437903
1.000000 0.598535 0.450202
1.000000 0.599237 0.446204
0.000000 0.282261 0.164401
0.000000 0.283268 0.169284
0.000000 0.283726 0.175418
0.000000 0.284977 0.183139
0.000000 0.293217 0.185153
0.000000 0.324865 0.147951
0.200931 0.378820 0.031647
0.387823 0.410956 0.000000
0.516442 0.418738 0.000000
0.620996 0.426703 0.000000
0.694697 0.426734 0.000000
0.750454 0.426978 0.000000
0.799008 0.432776 0.000000
0.840391 0.442054 0.000000
0.875944 0.453529 0.000000
0.906401 0.466255 0.000000
0.933013 0.479744 0.077363
0.956329 0.493355 0.131319
0.976837 0.506645 0.170871
0.994965 0.519310 0.205875
1.000000 0.531365 0.238315
1.000000 0.542596 0.269322
1.000000 0.553246 0.299413
1.000000 0.563073 0.327398
1.000000 0.572045 0.353460
1.000000 0.580377 0.378180
1.000000 0.587579 0.400397
1.000000 0.593988 0.420722
1.000000 0.599542 0.438636
1.000000 0.603967 0.453681
1.000000 0.607141 0.465187
1.000000 0.607630 0.461799
0.000000 0.364874 0.223453
0.000000 0.365515 0.228428
0.000000 0.365789 0.232029
0.000000 0.366583 0.239353
0.000000 0.367651 0.250309
0.000000 0.386114 0.235264
0.160494 0.415625 0.195682
0.307225 0.465309 0.121096
0.475257 0.493599 0.088869
0.586908 0.500450 0.032837
0.672969 0.506218 0.000000
0.741024 0.511437 0.000000
0.789059 0.509758 0.044984
0.830167 0.510918 0.097780
0.865721 0.514611 0.125887
0.896513 0.519921 0.152010
0.923491 0.526818 0.178805
0.947326 0.534325 0.205753
0.968444 0.542290 0.231846
0.986969 0.550561 0.258579
1.000000 0.558801 0.284154
1.000000 0.566705 0.309422
1.000000 0.574517 0.335180
1.000000 0.581964 0.359136
1.000000 0.589166 0.382605
1.000000 0.595636 0.404364
1.000000 0.601556 0.424384
1.000000 0.606744 0.442420
1.000000 0.611261 0.458747
1.000000 0.614984 0.472816
1.000000 0.617395 0.483009
1.000000 0.617700 0.480537
0.000000 0.442359 0.294774
0.000000 0.442573 0.296147
0.000000 0.442451 0.298619
0.000000 0.442878 0.304662
0.000000 0.443427 0.313970
0.000000 0.447028 0.322789
0.180179 0.469734 0.294987
0.282231 0.495155 0.255924
0.408392 0.537407 0.197482
0.553399 0.561791 0.193027
0.644495 0.565850 0.194217
0.715694 0.568505 0.198764
0.774563 0.571466 0.204837
0.820005 0.571740 0.213626
0.855589 0.569970 0.226291
0.886534 0.569940 0.240421
0.913787 0.571679 0.256962
0.937987 0.574548 0.274510
0.959411 0.578271 0.293400
0.978363 0.582666 0.313390
0.994965 0.587488 0.333867
1.000000 0.592493 0.354253
1.000000 0.597620 0.374914
1.000000 0.602838 0.395209
1.000000 0.607965 0.415259
1.000000 0.612787 0.433906
1.000000 0.617212 0.451514
1.000000 0.621332 0.467933
1.000000 0.624781 0.482185
1.000000 0.627527 0.494514
1.000000 0.629389 0.504051
1.000000 0.629114 0.501518
0.000000 0.510552 0.364446
0.000000 0.510552 0.364782
0.000000 0.510491 0.367254
0.000000 0.510491 0.371832
0.007691 0.510765 0.379278
0.168429 0.511070 0.389807
0.235111 0.521324 0.383215
0.308354 0.541283 0.357549
0.390570 0.562036 0.322942
0.500175 0.596246 0.278386
0.615625 0.612085 0.283574
0.689296 0.613336 0.289525
0.750484 0.614527 0.296269
0.801572 0.616052 0.303197
0.844816 0.617670 0.310857
0.876493 0.614801 0.319249
0.903929 0.613031 0.329290
0.928374 0.612512 0.341558
0.950072 0.613001 0.354833
0.969268 0.614343 0.369482
0.986206 0.616205 0.384436
1.000000 0.618494 0.400275
1.000000 0.621210 0.416510
1.000000 0.624353 0.432929
1.000000 0.627497 0.448890
1.000000 0.630732 0.464698
1.000000 0.633875 0.480232
1.000000 0.636683 0.494087
1.000000 0.639216 0.506828
1.000000 0.641199 0.517937
1.000000 0.642390 0.526421
1.000000 0.641749 0.524468
0.078645 0.568139 0.429175
0.091554 0.568109 0.429511
0.126131 0.568231 0.431586
0.171695 0.568292 0.435431
0.217838 0.568536 0.441566
0.264347 0.568841 0.449958
0.308537 0.569421 0.460761
0.357122 0.583856 0.443366
0.416419 0.598932 0.419989
0.482338 0.613703 0.389837
0.571923 0.639063 0.353826
0.665126 0.649928 0.362951
0.727871 0.650568 0.370275
0.780758 0.650965 0.377783
0.825315 0.651362 0.384436
0.863249 0.651759 0.391760
0.894377 0.650690 0.398169
0.918730 0.647547 0.405524
0.940429 0.645563 0.414160
0.959716 0.644465 0.423896
0.976867 0.643915 0.434546
0.991943 0.644068 0.445808
1.000000 0.644984 0.458625
1.000000 0.646174 0.471290
1.000000 0.647822 0.484596
1.000000 0.649653 0.497749
1.000000 0.651484 0.510460
1.000000 0.653285 0.522423
1.000000 0.654810 0.533379
1.000000 0.655940 0.543023
1.000000 0.656550 0.550744
1.000000 0.655390 0.548852
0.266819 0.615564 0.489601
0.269352 0.615625 0.490059
0.278416 0.615503 0.491188
0.296117 0.615412 0.494270
0.320195 0.615381 0.498817
0.349218 0.615106 0.505272
0.380652 0.615167 0.513512
0.412726 0.619257 0.514153
0.452583 0.630152 0.497810
0.499947 0.641108 0.477546
0.553368 0.651667 0.451331
0.628138 0.671717 0.423041
0.713375 0.684352 0.440772
0.766812 0.684657 0.448371
0.811704 0.684230 0.455512
0.850187 0.683650 0.461707
0.883177 0.682826 0.467292
0.911803 0.682002 0.472602
0.933867 0.678767 0.477211
0.952758 0.675593 0.482826
0.969543 0.673152 0.489662
0.984436 0.671473 0.497322
0.997803 0.670466 0.505791
1.000000 0.670192 0.515496
1.000000 0.670222 0.525322
1.000000 0.670588 0.535393
1.000000 0.671015 0.545220
1.000000 0.671565 0.554650
1.000000 0.672114 0.563531
1.000000 0.672358 0.571374
1.000000 0.672419 0.576501
1.000000 0.670192 0.575006
0.373297 0.653376 0.545983
0.374334 0.653285 0.546075
0.379614 0.653040 0.546960
0.390021 0.652766 0.549065
0.405035 0.652369 0.552239
0.424140 0.651881 0.556847
0.446448 0.651423 0.562829
0.470069 0.651118 0.570459
0.496193 0.657435 0.563134
0.529290 0.665919 0.548852
0.569146 0.674678 0.531212
0.614130 0.683345 0.509819
0.678950 0.700649 0.487343
0.746639 0.708278 0.496254
0.793515 0.708492 0.504143
0.832914 0.707790 0.510399
0.866819 0.706752 0.515862
0.896208 0.705409 0.520592
0.921599 0.703883 0.525017
0.942870 0.701778 0.529320
0.959625 0.697902 0.532830
0.974670 0.694972 0.537804
0.988190 0.692744 0.544091
1.000000 0.691218 0.550866
1.000000 0.690150 0.558404
1.000000 0.689540 0.566552
1.000000 0.689082 0.574609
1.000000 0.688746 0.582269
1.000000 0.688441 0.589471
1.000000 0.688014 0.596033
1.000000 0.687739 0.599939
1.000000 0.684932 0.599390
0.447181 0.680201 0.589715
0.447913 0.680110 0.589807
0.451575 0.679957 0.590539
0.458350 0.679591 0.591974
0.468910 0.679164 0.594232
0.482643 0.678706 0.597681
0.499275 0.678218 0.602197
0.517479 0.677790 0.607599
0.536706 0.678737 0.611597
0.559930 0.685695 0.601678
0.588861 0.692988 0.589410
0.623072 0.700374 0.574487
0.661463 0.707668 0.555932
0.717739 0.722866 0.537285
0.776272 0.729519 0.544732
0.817105 0.729458 0.551812
0.851560 0.728328 0.557122
0.881346 0.726894 0.561730
0.907347 0.725124 0.565759
0.929778 0.723140 0.569512
0.949248 0.721096 0.572900
0.965118 0.717861 0.576043
0.978759 0.714656 0.579889
0.990997 0.712062 0.584741
1.000000 0.710018 0.590265
1.000000 0.708461 0.596307
1.000000 0.707057 0.602228
1.000000 0.705928 0.608423
1.000000 0.704829 0.614282
1.000000 0.703700 0.619593
1.000000 0.703090 0.622553
1.000000 0.699794 0.622614
0.507774 0.702876 0.625544
0.508354 0.702876 0.625696
0.510765 0.702754 0.626184
0.515740 0.702449 0.627161
0.523400 0.702022 0.628840
0.533684 0.701564 0.631250
0.546166 0.701106 0.634424
0.560632 0.700771 0.638605
0.576135 0.700404 0.643458
0.593225 0.703548 0.642084
0.614160 0.709651 0.633509
0.639673 0.715999 0.623163
0.669032 0.722316 0.610620
0.701930 0.728634 0.595148
0.750942 0.742306 0.579492
0.801938 0.748287 0.585290
0.837766 0.747982 0.591241
0.867918 0.746548 0.595605
0.894285 0.744656 0.599268
0.917174 0.742489 0.602533
0.937102 0.740230 0.605585
0.954650 0.738033 0.608637
0.969787 0.735744 0.611933
0.982025 0.732296 0.615076
0.992889 0.729335 0.618769
1.000000 0.726894 0.623163
1.000000 0.724727 0.627802
1.000000 0.722866 0.632746
1.000000 0.721126 0.637537
1.000000 0.719417 0.642023
1.000000 0.718166 0.644526
1.000000 0.714687 0.644923
0.557305 0.722469 0.654475
0.557855 0.722469 0.654597
0.559777 0.722347 0.655024
0.563561 0.722164 0.655818
0.569604 0.721920 0.657191
0.577661 0.721553 0.659083
0.587762 0.721279 0.661707
0.599512 0.720974 0.664973
0.612482 0.720699 0.668940
0.626093 0.720546 0.673457
0.641413 0.725246 0.667872
0.660334 0.730556 0.660212
0.682704 0.736019 0.651026
0.708125 0.741543 0.639887
0.736202 0.746883 0.626551
0.778958 0.759457 0.613428
0.824155 0.765042 0.617792
0.855558 0.764462 0.622766
0.882139 0.762692 0.626368
0.905425 0.760464 0.629419
0.925780 0.758145 0.632502
0.943694 0.755795 0.635523
0.959411 0.753536 0.638666
0.973022 0.751247 0.641749
0.984222 0.748287 0.644770
0.993713 0.745052 0.647974
1.000000 0.742245 0.651728
1.000000 0.739651 0.655634
1.000000 0.737301 0.659510
1.000000 0.735042 0.663264
1.000000 0.733059 0.665187
1.000000 0.729458 0.665949
0.598840 0.739773 0.678767
0.599298 0.739712 0.678859
0.600763 0.739651 0.679194
0.603815 0.739498 0.679866
0.608576 0.739284 0.680934
0.615106 0.739010 0.682521
0.623285 0.738735 0.684627
0.632990 0.738460 0.687312
0.643671 0.738186 0.690425
0.655268 0.737942 0.694179
0.667384 0.739132 0.695613
0.681605 0.743801 0.689601
0.698665 0.748653 0.682490
0.718471 0.753536 0.674098
0.740932 0.758480 0.664240
0.765560 0.763394 0.652522
0.803403 0.775326 0.641382
0.843381 0.780575 0.644709
0.871183 0.779629 0.649134
0.894591 0.777493 0.652186
0.915312 0.775235 0.655238
0.933562 0.772793 0.658289
0.949493 0.770382 0.661372
0.963317 0.767941 0.664576
0.975158 0.765438 0.667689
0.985077 0.762936 0.670954
0.993133 0.759457 0.673793
0.999847 0.756283 0.677058
1.000000 0.753414 0.680446
1.000000 0.750668 0.683772
1.000000 0.748043 0.685298
1.000000 0.744320 0.686305
0.635248 0.755459 0.700526
0.635523 0.755489 0.700618
0.640742 0.757137 0.703304
0.643183 0.757046 0.703883
0.647028 0.756832 0.704738
0.652216 0.756588 0.706020
0.658808 0.756283 0.707698
0.666590 0.755978 0.709804
0.675471 0.755734 0.712367
0.685237 0.755428 0.715419
0.695399 0.755215 0.718898
0.706203 0.757870 0.716945
0.719020 0.762112 0.711147
0.734157 0.766476 0.704402
0.751583 0.770932 0.696559
0.771145 0.775387 0.687495
0.792752 0.779843 0.676814
0.826017 0.791196 0.666896
0.861143 0.795926 0.669490
0.885466 0.794583 0.673457
0.906188 0.792203 0.676539
0.924407 0.789731 0.679622
0.940398 0.787137 0.682704
0.954223 0.784421 0.685817
0.966033 0.781674 0.688899
0.976013 0.778897 0.691981
0.984283 0.776150 0.694972
0.990936 0.772915 0.697841
0.996307 0.769436 0.700587
1.000000 0.766232 0.703517
1.000000 0.763058 0.704829
1.000000 0.759213 0.706111
0.668025 0.770413 0.720790
0.668605 0.770565 0.721004
0.669917 0.770687 0.721492
0.672236 0.770718 0.722133
0.675593 0.770657 0.723049
0.680018 0.770504 0.724147
0.685542 0.770291 0.725582
0.692134 0.769986 0.727352
0.699611 0.769741 0.729488
0.707881 0.769497 0.732052
0.716732 0.769314 0.735012
0.725917 0.769223 0.738186
0.735836 0.773098 0.733486
0.747646 0.777127 0.727993
0.761440 0.781308 0.721767
0.777249 0.785550 0.714504
0.794919 0.789822 0.706264
0.814267 0.794125 0.696773
0.844083 0.805020 0.688075
0.875425 0.809384 0.690303
0.896849 0.807645 0.694209
0.915251 0.805234 0.697597
0.931304 0.802609 0.700862
0.945190 0.799802 0.704036
0.957092 0.796902 0.707240
0.967071 0.793942 0.710384
0.975372 0.790982 0.713527
0.981964 0.788052 0.716670
0.987182 0.785122 0.719631
0.991272 0.781460 0.722164
0.992584 0.777829 0.723445
0.993988 0.773861 0.724910
0.695338 0.784115 0.738064
0.695979 0.784268 0.738460
0.697505 0.784390 0.739193
0.699397 0.784451 0.739773
0.702235 0.784451 0.740597
0.705989 0.784298 0.741543
0.710536 0.784146 0.742733
0.716121 0.783902 0.744289
0.722530 0.783658 0.746090
0.729641 0.783444 0.748226
0.737270 0.783261 0.750759
0.745388 0.783108 0.753567
0.753567 0.784360 0.753994
0.762814 0.788113 0.749508
0.773678 0.791989 0.744442
0.786221 0.795987 0.738613
0.800504 0.800015 0.731960
0.816342 0.804074 0.724422
0.833768 0.808133 0.715846
0.860227 0.818326 0.708156
0.888029 0.822202 0.710170
0.906584 0.820035 0.713954
0.922698 0.817411 0.717403
0.936645 0.814511 0.720821
0.948455 0.811490 0.724147
0.958465 0.808377 0.727382
0.966674 0.805234 0.730617
0.973236 0.802090 0.733791
0.978363 0.798978 0.736934
0.981567 0.796384 0.739620
0.983154 0.792233 0.741421
0.984619 0.788205 0.743069
0.720058 0.797665 0.754299
0.720607 0.797818 0.754635
0.722255 0.797940 0.755673
0.724300 0.798001 0.756588
0.726650 0.797971 0.757229
0.729793 0.797879 0.758083
0.733669 0.797757 0.759121
0.738338 0.797574 0.760403
0.743832 0.797360 0.761959
0.749996 0.797177 0.763821
0.756680 0.796963 0.765957
0.763760 0.796872 0.768399
0.771084 0.796750 0.771054
0.778439 0.799161 0.769223
0.787015 0.802762 0.765011
0.796963 0.806485 0.760281
0.808438 0.810269 0.754940
0.821408 0.814115 0.748867
0.835691 0.817990 0.742184
0.851377 0.821836 0.734646
0.874632 0.831235 0.728054
0.899138 0.834592 0.729854
0.914977 0.831876 0.733455
0.928771 0.828946 0.737209
0.940490 0.825834 0.740841
0.950286 0.822599 0.744320
0.958282 0.819272 0.747677
0.964660 0.815946 0.751003
0.969512 0.812680 0.754269
0.972107 0.809506 0.756893
0.973602 0.805661 0.759182
0.974701 0.802518 0.761746
0.744045 0.811795 0.770718
0.744411 0.811856 0.770962
0.745632 0.811887 0.771756
0.747982 0.811856 0.773251
0.749966 0.811795 0.773861
0.752499 0.811673 0.774502
0.755795 0.811490 0.775357
0.759762 0.811337 0.776486
0.764401 0.811124 0.777798
0.769741 0.811002 0.779416
0.775540 0.810819 0.781216
0.781735 0.810697 0.783352
0.788235 0.810575 0.785672
0.794827 0.810575 0.787991
0.801450 0.813840 0.784451
0.809262 0.817197 0.780545
0.818235 0.820676 0.776089
0.828519 0.824155 0.771176
0.840024 0.827695 0.765713
0.852750 0.831174 0.759609
0.866545 0.834623 0.752773
0.886656 0.842863 0.746914
0.907927 0.845548 0.748287
0.921172 0.842161 0.751614
0.932769 0.838834 0.755276
0.942412 0.835447 0.758877
0.950256 0.831937 0.762417
0.956481 0.828458 0.765896
0.961212 0.825040 0.769284
0.963348 0.821439 0.771878
0.964813 0.817655 0.774533
0.965850 0.814511 0.777432
0.764431 0.824582 0.785336
0.764767 0.824613 0.785550
0.765866 0.824613 0.786282
0.767971 0.824613 0.787625
0.770687 0.824552 0.789242
0.772854 0.824430 0.789792
0.775601 0.824308 0.790524
0.778988 0.824155 0.791470
0.783017 0.824002 0.792660
0.787594 0.823850 0.794034
0.792630 0.823697 0.795651
0.798032 0.823575 0.797452
0.803738 0.823453 0.799496
0.809628 0.823331 0.801694
0.815396 0.824308 0.802182
0.821439 0.827390 0.798947
0.828550 0.830503 0.795315
0.836667 0.833677 0.791257
0.845853 0.836881 0.786770
0.856016 0.840024 0.781796
0.867247 0.843137 0.776364
0.879332 0.846189 0.770321
0.896544 0.853239 0.765225
0.914763 0.855192 0.766354
0.925505 0.850980 0.768734
0.934905 0.847288 0.772274
0.942596 0.843656 0.775967
0.948638 0.840024 0.779629
0.953246 0.836454 0.783139
0.954986 0.832395 0.785763
0.956390 0.828672 0.788693
0.957397 0.825620 0.791928
0.783963 0.837003 0.799924
0.784329 0.837064 0.800168
0.785214 0.837064 0.800778
0.787015 0.837034 0.801938
0.789731 0.836912 0.803738
0.792233 0.836790 0.804959
0.794461 0.836606 0.805539
0.797208 0.836423 0.806271
0.800534 0.836210 0.807187
0.804349 0.835996 0.808316
0.808530 0.835782 0.809628
0.813199 0.835599 0.811154
0.818082 0.835416 0.812833
0.823117 0.835233 0.814694
0.828336 0.835080 0.816709
0.833188 0.836759 0.815640
0.838621 0.839506 0.812528
0.844938 0.842313 0.809171
0.852171 0.845151 0.805478
0.860288 0.847959 0.801450
0.869230 0.850736 0.797024
0.878996 0.853422 0.792172
0.889494 0.855955 0.786709
0.903838 0.861692 0.782193
0.919310 0.862943 0.782956
0.928069 0.858549 0.785611
0.935424 0.854490 0.788907
0.941253 0.850675 0.792599
0.945068 0.846952 0.795956
0.946960 0.842466 0.798856
0.948394 0.838804 0.801999
0.949248 0.835904 0.805570
0.800748 0.847807 0.813077
0.801022 0.847868 0.813291
0.801877 0.847868 0.813840
0.803403 0.847837 0.814878
0.805844 0.847776 0.816526
0.809110 0.847654 0.818814
0.811307 0.847562 0.819638
0.813718 0.847440 0.820310
0.816556 0.847288 0.821164
0.819883 0.847135 0.822171
0.823514 0.846983 0.823362
0.827512 0.846799 0.824704
0.831724 0.846616 0.826169
0.836118 0.846464 0.827817
0.840604 0.846281 0.829526
0.845151 0.846128 0.831388
0.849302 0.848295 0.829129
0.854063 0.850736 0.826352
0.859556 0.853178 0.823331
0.865782 0.855558 0.820005
0.872740 0.857939 0.816373
0.880400 0.860258 0.812436
0.888701 0.862425 0.808103
0.897612 0.864439 0.803372
0.909239 0.868803 0.799435
0.922057 0.869413 0.799985
0.928832 0.864714 0.802365
0.934264 0.860441 0.805447
0.937377 0.856107 0.808652
0.939208 0.851713 0.811795
0.940520 0.848173 0.815244
0.941283 0.845457 0.819059
0.816617 0.857725 0.826139
0.816831 0.857725 0.826261
0.817472 0.857755 0.826749
0.818875 0.857664 0.827695
0.820859 0.857633 0.829129
0.823758 0.857511 0.831113
0.827054 0.857389 0.833341
0.829007 0.857267 0.833921
0.831388 0.857115 0.834623
0.834134 0.856931 0.835477
0.837156 0.856779 0.836484
0.840543 0.856596 0.837613
0.844083 0.856443 0.838865
0.847776 0.856229 0.840238
0.851652 0.856016 0.841703
0.855497 0.855833 0.843259
0.859281 0.856077 0.844144
0.862821 0.858091 0.841855
0.866880 0.860136 0.839353
0.871580 0.862150 0.836667
0.876829 0.864134 0.833799
0.882689 0.866026 0.830625
0.889036 0.867826 0.827176
0.895964 0.869474 0.823423
0.903349 0.870970 0.819303
0.912474 0.873960 0.815946
0.922820 0.874022 0.816220
0.927672 0.869383 0.818082
0.930358 0.864103 0.820218
0.932189 0.859770 0.823606
0.933410 0.856352 0.827237
0.934020 0.853819 0.831327
0.830777 0.866026 0.838346
0.830991 0.866026 0.838499
0.831540 0.865995 0.838895
0.832731 0.865995 0.839750
0.834562 0.865904 0.841062
0.837064 0.865843 0.842893
0.840330 0.865751 0.845243
0.843259 0.865660 0.847135
0.845304 0.865599 0.847837
0.847654 0.865507 0.848692
0.850278 0.865385 0.849638
0.853086 0.865293 0.850675
0.856107 0.865141 0.851804
0.859251 0.864958 0.852995
0.862455 0.864775 0.854276
0.865721 0.864561 0.855589
0.868956 0.864347 0.856992
0.871885 0.864988 0.856901
0.874784 0.866575 0.854948
0.878141 0.868193 0.852842
0.881895 0.869718 0.850553
0.886137 0.871183 0.848142
0.890745 0.872526 0.845426
0.895781 0.873777 0.842527
0.901213 0.874876 0.839414
0.907042 0.875853 0.836027
0.913664 0.877470 0.833158
0.920439 0.876188 0.832609
0.923278 0.871122 0.833829
0.925414 0.866880 0.835904
0.926513 0.863615 0.839719
0.927031 0.861234 0.843900
0.844511 0.872923 0.850736
0.844633 0.872923 0.850828
0.845121 0.872892 0.851164
0.846067 0.872831 0.851865
0.847593 0.872740 0.852995
0.849668 0.872618 0.854551
0.852354 0.872496 0.856565
0.855589 0.872343 0.859037
0.857847 0.872190 0.860258
0.859617 0.872038 0.860838
0.861570 0.871885 0.861509
0.863767 0.871702 0.862303
0.866087 0.871489 0.863127
0.868559 0.871275 0.864042
