20 Preset/Japan Style/【3】LUT video cho PR-AE-FCPX/LUT VIDEO (2)/Japan Style LUT (8).cube
# Created by Adobe Lightroom plugin Export LUT (1.24.0)
# www.johnrellis.com/lightroom/exportlut.htm
# Preset: 08日系清新（素材江湖）
# Color profile: C:\Program Files (x86)\Common Files\Adobe\Color\Profiles\Recommended\VideoHD.icc
LUT_3D_SIZE 5
DOMAIN_MIN 0.000000 0.000000 0.000000
DOMAIN_MAX 0.903226 0.903226 0.903226
0.000000 0.000000 0.000000
0.474708 0.109163 0.000000
0.765011 0.207034 0.057954
0.908446 0.307897 0.223728
0.997406 0.385779 0.320775
0.000000 0.402289 0.275212
0.350072 0.436133 0.103365
0.742306 0.442512 0.244358
0.890166 0.443030 0.315129
0.985046 0.465248 0.374701
0.195315 0.638727 0.502831
0.242557 0.635279 0.490730
0.537194 0.669429 0.339849
0.831327 0.665919 0.441566
0.937713 0.647395 0.516411
0.386725 0.753567 0.637140
0.405524 0.751522 0.638056
0.390875 0.764218 0.578088
0.637385 0.779202 0.474647
0.886595 0.777493 0.510979
0.490608 0.845579 0.733272
0.498756 0.844907 0.733761
0.513268 0.842618 0.725277
0.531792 0.860136 0.663661
0.732418 0.869444 0.577173
0.000000 0.092927 0.448402
0.426490 0.100801 0.443030
0.708797 0.286351 0.400641
0.855344 0.408240 0.436530
0.961028 0.460822 0.461616
0.109499 0.436469 0.437385
0.407416 0.436866 0.432593
0.688167 0.467292 0.450813
0.844266 0.494026 0.470527
0.951629 0.515404 0.488197
0.348455 0.642542 0.556085
0.380438 0.637293 0.553368
0.551659 0.660609 0.463478
0.806943 0.676356 0.551446
0.917601 0.666804 0.582696
0.440436 0.754482 0.659510
0.454475 0.752865 0.659968
0.448310 0.760891 0.618708
0.647517 0.776822 0.536706
0.876585 0.781674 0.578515
0.511376 0.846128 0.742580
0.518578 0.845396 0.742824
0.547906 0.843168 0.745144
0.552056 0.860410 0.684657
0.740475 0.869963 0.612818
0.000000 0.202274 0.701106
0.297948 0.243290 0.697841
0.638849 0.333562 0.686000
0.812711 0.434730 0.628016
0.909056 0.524407 0.623499
0.228519 0.439979 0.689479
0.371069 0.448402 0.686641
0.628016 0.467597 0.678004
0.791073 0.514275 0.636561
0.895018 0.571130 0.639612
0.327886 0.662196 0.670466
0.419348 0.661524 0.668544
0.600610 0.658900 0.663600
0.756649 0.680018 0.682185
0.876921 0.686671 0.686122
0.525170 0.763119 0.713405
0.551354 0.760311 0.716976
0.582849 0.754971 0.714382
0.676112 0.772305 0.668391
0.856168 0.792874 0.713222
0.571893 0.848234 0.773312
0.578210 0.847868 0.773526
0.602167 0.845823 0.774594
0.605280 0.855375 0.740871
0.756741 0.866758 0.689815
0.000000 0.330083 0.821256
0.267826 0.350286 0.819516
0.524407 0.405890 0.812070
0.744106 0.467659 0.800198
0.884367 0.537194 0.763516
0.290257 0.468605 0.811948
0.362219 0.474372 0.810330
0.542382 0.496437 0.804349
0.736568 0.529564 0.794125
0.872251 0.575158 0.763394
0.402686 0.632685 0.792935
0.452186 0.637751 0.789975
0.578149 0.652308 0.784817
0.715389 0.652735 0.776364
0.847410 0.666804 0.765103
0.468696 0.772854 0.782773
0.495613 0.772183 0.781765
0.587671 0.771206 0.779568
0.708583 0.769131 0.776486
0.835416 0.789395 0.796506
0.576165 0.859892 0.805692
0.594171 0.858915 0.807980
0.659968 0.855528 0.818143
0.709255 0.851133 0.822049
0.784787 0.864927 0.787442
0.209751 0.409522 0.895628
0.288853 0.417975 0.894285
0.467048 0.451148 0.890623
0.650019 0.495918 0.883635
0.821286 0.542473 0.875303
0.304997 0.484199 0.888640
0.352117 0.488777 0.887755
0.489204 0.507744 0.884581
0.652918 0.536065 0.878325
0.816587 0.570275 0.871336
0.405280 0.615534 0.877256
0.447150 0.624506 0.875151
0.541222 0.634730 0.871733
0.662318 0.638788 0.867063
0.808957 0.650996 0.865110
0.440589 0.732357 0.868681
0.462989 0.732326 0.867552
0.547631 0.735744 0.865599
0.676448 0.748623 0.863798
0.810575 0.763455 0.867094
0.502190 0.858793 0.867826
0.520928 0.858488 0.867460
0.596216 0.859373 0.867979
0.702693 0.859586 0.867857
0.810422 0.859617 0.868437
