20 Preset/Japan Style/【3】LUT video cho PR-AE-FCPX/LUT VIDEO (2)/Japan Style LUT (43).cube
# Created by Adobe Lightroom plugin Export LUT (1.24.0)
# www.johnrellis.com/lightroom/exportlut.htm
# Preset: 43日系深绿（素材江湖）
# Color profile: C:\Program Files (x86)\Common Files\Adobe\Color\Profiles\Recommended\VideoHD.icc
LUT_3D_SIZE 8
DOMAIN_MIN 0.000000 0.000000 0.000000
DOMAIN_MAX 0.903226 0.903226 0.903226
0.003784 0.029297 0.048981
0.058869 0.032959 0.055299
0.169192 0.028595 0.071962
0.345800 0.000000 0.078065
0.589746 0.000000 0.057740
0.811124 0.000000 0.006836
0.966552 0.000000 0.000000
1.000000 0.000000 0.000000
0.000000 0.095399 0.087739
0.033997 0.095277 0.070802
0.186618 0.091829 0.057130
0.376135 0.000000 0.058137
0.622278 0.000000 0.026337
0.833829 0.000000 0.000000
0.978698 0.000000 0.000000
1.000000 0.000000 0.000000
0.000000 0.217716 0.122103
0.000000 0.205661 0.105135
0.114412 0.222171 0.076387
0.430091 0.232731 0.000000
0.673518 0.168582 0.000000
0.858122 0.000000 0.000000
0.983215 0.000000 0.000000
1.000000 0.081300 0.000000
0.000000 0.394781 0.171664
0.000000 0.386877 0.163058
0.000000 0.326146 0.128939
0.268009 0.402960 0.000000
0.709102 0.480140 0.000000
0.874693 0.425727 0.000000
0.990509 0.412573 0.000000
1.000000 0.419837 0.000000
0.000000 0.579644 0.246159
0.000000 0.572168 0.238804
0.000000 0.520317 0.153567
0.000000 0.407935 0.140017
0.482429 0.590265 0.000000
0.869657 0.714839 0.000000
0.981292 0.660670 0.000000
1.000000 0.631647 0.000000
0.000000 0.735348 0.351934
0.000000 0.727810 0.341314
0.000000 0.696864 0.267277
0.000000 0.611933 0.166873
0.000000 0.536675 0.128511
0.649836 0.741970 0.000000
0.957946 0.847379 0.000000
1.000000 0.806027 0.000000
0.000000 0.861753 0.496925
0.000000 0.858244 0.489113
0.000000 0.844388 0.442695
0.000000 0.809079 0.280095
0.000000 0.731197 0.174014
0.388678 0.743618 0.138369
0.793301 0.863127 0.271580
1.000000 0.924895 0.294682
0.000000 0.963256 0.702937
0.000000 0.962005 0.700587
0.000000 0.956756 0.685664
0.000000 0.950713 0.585718
0.000000 0.935760 0.504662
0.418738 0.903532 0.410529
0.712856 0.924895 0.478096
0.904326 0.954437 0.560266
0.000000 0.030671 0.121279
0.054078 0.045258 0.104524
0.185977 0.021912 0.097993
0.375036 0.000000 0.092775
0.623346 0.000000 0.029725
0.836515 0.000000 0.000000
0.981598 0.000000 0.000000
1.000000 0.000000 0.000000
0.000000 0.104555 0.134035
0.024506 0.102937 0.125338
0.194644 0.100160 0.114321
0.392920 0.000000 0.095491
0.641047 0.000000 0.013458
0.847623 0.000000 0.000000
0.988037 0.000000 0.000000
1.000000 0.000000 0.000000
0.000000 0.246464 0.170626
0.000000 0.238956 0.162112
0.129091 0.235142 0.132906
0.443763 0.237675 0.095705
0.687709 0.177523 0.000000
0.870451 0.119966 0.000000
0.995209 0.097200 0.000000
1.000000 0.163882 0.000000
0.000000 0.427680 0.218509
0.000000 0.419898 0.211307
0.000000 0.361486 0.163973
0.293553 0.419562 0.116030
0.727840 0.495705 0.000000
0.887449 0.439948 0.000000
0.999542 0.427131 0.000000
1.000000 0.437446 0.000000
0.000000 0.600580 0.287510
0.000000 0.593744 0.279820
0.000000 0.548425 0.206394
0.000000 0.434211 0.165896
0.498604 0.601068 0.032471
0.874388 0.720333 0.000000
0.984253 0.666468 0.000000
1.000000 0.638148 0.000000
0.000000 0.749111 0.388769
0.000000 0.743740 0.380255
0.000000 0.716548 0.324193
0.000000 0.633692 0.200626
0.000000 0.540185 0.154604
0.655360 0.745785 0.132204
0.957946 0.848997 0.000000
1.000000 0.808377 0.000000
0.000000 0.869047 0.525078
0.000000 0.866545 0.519280
0.000000 0.853574 0.487709
0.000000 0.820157 0.316747
0.000000 0.743465 0.206821
0.393347 0.746242 0.172244
0.796811 0.866117 0.314427
1.000000 0.926879 0.362676
0.000000 0.965850 0.719295
0.000000 0.964385 0.716121
0.000000 0.959045 0.705592
0.000000 0.952850 0.615747
0.000000 0.935424 0.513878
0.418372 0.904356 0.421973
0.712276 0.924987 0.490272
0.903838 0.954711 0.577752
0.000000 0.025818 0.303258
0.000000 0.018219 0.284764
0.185733 0.056214 0.210849
0.405463 0.000000 0.199954
0.629999 0.000000 0.172671
0.832212 0.000000 0.158633
0.979156 0.000000 0.099794
1.000000 0.000000 0.000000
0.000000 0.092714 0.323522
0.000000 0.097688 0.307500
0.200748 0.119539 0.235477
0.417578 0.000000 0.217777
0.637293 0.000000 0.197482
0.841886 0.000000 0.166964
0.984527 0.000000 0.101015
1.000000 0.000000 0.000000
0.000000 0.283482 0.351659
0.000000 0.281132 0.342260
0.141176 0.272465 0.307408
0.436957 0.255161 0.270939
0.675593 0.205722 0.231968
0.860075 0.150820 0.182254
0.989899 0.153567 0.103456
1.000000 0.223758 0.000000
0.000000 0.510094 0.401740
0.000000 0.501976 0.390509
0.000000 0.465858 0.345159
0.338994 0.436622 0.288701
0.718379 0.485908 0.274418
0.875425 0.447913 0.223087
0.990784 0.435157 0.130007
1.000000 0.447181 0.000000
0.000000 0.667659 0.449165
0.000000 0.660914 0.439155
0.000000 0.629694 0.399847
0.000000 0.527916 0.288609
0.521080 0.610101 0.288518
0.865232 0.714626 0.294835
0.976196 0.667323 0.239353
1.000000 0.644862 0.072694
0.000000 0.785458 0.516289
0.000000 0.781003 0.508598
0.000000 0.760708 0.475685
0.000000 0.701289 0.337896
0.000000 0.555627 0.240879
0.663905 0.750362 0.320806
0.948150 0.847745 0.392370
1.000000 0.809232 0.304509
0.000000 0.883909 0.609583
0.000000 0.881559 0.604608
0.000000 0.870237 0.581018
0.000000 0.842313 0.478492
0.000000 0.775235 0.318700
0.382483 0.738186 0.252476
0.794247 0.865385 0.422675
1.000000 0.926970 0.522362
0.000000 0.970031 0.758724
0.000000 0.968963 0.757382
0.000000 0.963897 0.749081
0.000000 0.954681 0.702205
0.000000 0.941039 0.579553
0.425055 0.910216 0.478492
0.704494 0.922576 0.525078
0.899992 0.954101 0.632776
0.000000 0.000000 0.614313
0.000000 0.000000 0.595453
0.259342 0.000000 0.493050
0.416388 0.000000 0.396246
0.702449 0.000000 0.393561
0.867826 0.000000 0.340887
0.982879 0.000000 0.290745
1.000000 0.000000 0.280125
0.000000 0.081178 0.623590
0.000000 0.060670 0.608789
0.259251 0.019928 0.526482
0.428717 0.110018 0.414466
0.704921 0.000000 0.407599
0.866514 0.000000 0.351598
0.979248 0.000000 0.309636
1.000000 0.000000 0.287114
0.000000 0.271733 0.686458
0.000000 0.260655 0.680629
0.000000 0.258701 0.618524
0.459663 0.287724 0.476020
0.702235 0.261357 0.457008
0.854185 0.167361 0.388495
0.967529 0.210391 0.360510
1.000000 0.257908 0.307195
0.000000 0.558099 0.682826
0.000000 0.556542 0.678126
0.000000 0.546197 0.653803
0.412207 0.516960 0.598901
0.683833 0.490425 0.536767
0.845090 0.471687 0.486641
0.968322 0.462684 0.428107
1.000000 0.469398 0.356725
0.000000 0.764797 0.717281
0.000000 0.760067 0.710140
0.000000 0.737789 0.678889
0.276371 0.684108 0.608331
0.553826 0.629175 0.524254
0.835447 0.704768 0.583093
0.949401 0.673121 0.532311
1.000000 0.658015 0.450996
0.000000 0.837980 0.712337
0.000000 0.833402 0.705257
0.000000 0.818662 0.682246
0.000000 0.783322 0.629969
0.327703 0.687556 0.470619
0.671290 0.755550 0.525719
0.923095 0.843656 0.640345
1.000000 0.811429 0.579553
0.000000 0.909239 0.742061
0.000000 0.906920 0.738155
0.000000 0.897154 0.721767
0.000000 0.874846 0.682612
0.000000 0.827726 0.524437
0.348394 0.715846 0.347875
0.789578 0.864866 0.575433
0.982666 0.926909 0.711604
0.000000 0.977478 0.817868
0.000000 0.976379 0.816831
0.000000 0.971527 0.811246
0.271305 0.961425 0.795804
0.310246 0.949035 0.710842
0.449531 0.922118 0.590478
0.687098 0.917693 0.581170
0.894011 0.953124 0.714382
0.000000 0.000000 0.858335
0.000000 0.000000 0.850675
0.329625 0.000000 0.821530
0.536217 0.000000 0.684474
0.668391 0.000000 0.618769
0.875181 0.000000 0.617548
0.999207 0.000000 0.572320
1.000000 0.000000 0.511315
0.000000 0.000000 0.861814
0.000000 0.000000 0.854215
0.320012 0.000000 0.826749
0.548150 0.000000 0.705135
0.674128 0.076967 0.630488
0.874052 0.000000 0.626825
0.995789 0.000000 0.580438
1.000000 0.000000 0.518334
0.000000 0.244724 0.885191
0.000000 0.257939 0.879026
0.213046 0.253513 0.855161
0.571496 0.256840 0.777859
0.688624 0.306493 0.674037
0.867826 0.339910 0.667201
0.980774 0.319188 0.613336
1.000000 0.291264 0.546715
0.000000 0.544915 0.897612
0.000000 0.541466 0.896269
0.000000 0.522210 0.889799
0.461494 0.507622 0.848722
0.677333 0.521569 0.726223
0.836057 0.553552 0.724910
0.946288 0.503471 0.658045
1.000000 0.502434 0.612360
0.000000 0.770321 0.880217
0.000000 0.768917 0.878569
0.000000 0.762997 0.871244
0.301183 0.750576 0.854643
0.634821 0.729458 0.822019
0.790494 0.705379 0.774868
0.909148 0.687495 0.733120
1.000000 0.675563 0.680751
0.000000 0.892668 0.887053
0.000000 0.890990 0.885710
0.000000 0.883818 0.880491
0.359289 0.862516 0.859648
0.572686 0.821347 0.811429
0.689998 0.769192 0.732967
0.896910 0.838651 0.809262
0.983642 0.816526 0.772702
0.000000 0.940124 0.875242
0.000000 0.938659 0.873625
0.000000 0.931945 0.865263
0.219242 0.916014 0.845487
0.478798 0.885863 0.804685
0.507652 0.810788 0.634943
0.787778 0.867124 0.732753
0.965423 0.924895 0.840848
0.000000 0.991699 0.884764
0.000000 0.990600 0.884306
0.000000 0.985840 0.881590
0.339452 0.976104 0.873075
0.515923 0.961364 0.854704
0.524285 0.941619 0.755001
0.653864 0.910277 0.646387
0.890684 0.953735 0.804898
0.129641 0.000000 0.961395
0.245609 0.000000 0.958984
0.455848 0.000000 0.950286
0.644495 0.000000 0.917510
0.726436 0.141634 0.816526
0.839689 0.154696 0.799252
0.967102 0.257786 0.786343
1.000000 0.360021 0.771328
0.159335 0.000000 0.965209
0.261906 0.000000 0.963348
0.464057 0.000000 0.954589
0.650965 0.000000 0.925444
0.735073 0.199252 0.829313
0.842100 0.221683 0.807187
0.965332 0.307805 0.793393
1.000000 0.393591 0.777890
0.000000 0.275975 0.968994
0.145510 0.272770 0.967315
0.431983 0.255924 0.959258
0.640528 0.227359 0.940856
0.747768 0.338445 0.862455
0.838010 0.374121 0.825010
0.950835 0.442206 0.811429
1.000000 0.490364 0.794644
0.000000 0.501518 0.977722
0.000000 0.499123 0.976471
0.000000 0.489204 0.969635
0.574304 0.522240 0.949371
0.742916 0.526635 0.905272
0.812222 0.554070 0.843198
0.920714 0.606439 0.840269
1.000000 0.606134 0.816648
0.000000 0.745266 0.965087
0.000000 0.744747 0.964691
0.000000 0.742184 0.962646
0.395666 0.736049 0.958221
0.684352 0.731258 0.938567
0.785794 0.716915 0.870207
0.897337 0.747311 0.877653
0.987396 0.704372 0.835752
0.000000 0.877226 0.952178
0.000000 0.876280 0.951507
0.000000 0.874113 0.949554
0.451881 0.869993 0.945403
0.637720 0.863493 0.937804
0.776394 0.848966 0.921263
0.870817 0.825528 0.891386
0.961242 0.812222 0.866850
0.000000 0.960052 0.953002
0.000000 0.959045 0.952453
0.286473 0.955474 0.950530
0.486183 0.948730 0.946532
0.627802 0.934386 0.935485
0.718898 0.902617 0.904967
0.793332 0.868070 0.855894
0.954345 0.919310 0.913909
0.000000 1.000000 0.947173
0.150820 1.000000 0.946715
0.309117 0.997467 0.944366
0.444587 0.991119 0.938506
0.576471 0.980194 0.928313
0.692012 0.961700 0.911254
0.689967 0.928588 0.814420
0.891844 0.953429 0.882139
0.474830 0.000000 1.000000
0.503929 0.000000 1.000000
0.597833 0.000000 1.000000
0.726528 0.000000 1.000000
0.838407 0.105257 0.977783
0.862974 0.386481 0.916228
0.956939 0.377905 0.919890
1.000000 0.466926 0.900114
0.470924 0.000000 1.000000
0.500328 0.000000 1.000000
0.593530 0.000000 1.000000
0.720394 0.000000 1.000000
0.832151 0.171969 0.976867
0.858152 0.394690 0.914794
0.949706 0.389349 0.916014
1.000000 0.471931 0.896300
0.470100 0.302617 1.000000
0.496407 0.300267 1.000000
0.586511 0.288731 1.000000
0.711269 0.267643 1.000000
0.823697 0.344060 0.981323
0.859678 0.472724 0.926726
0.940429 0.489754 0.922057
1.000000 0.564050 0.906340
0.349462 0.526329 1.000000
0.410132 0.537713 1.000000
0.549310 0.561425 1.000000
0.678920 0.557214 0.998901
0.799283 0.544854 0.987640
0.858579 0.603021 0.946075
0.921172 0.624384 0.930358
0.986053 0.673762 0.918425
0.000000 0.719692 1.000000
0.000000 0.719081 1.000000
0.327794 0.719905 1.000000
0.566644 0.720241 0.997742
0.749386 0.739040 0.985412
0.844511 0.725551 0.963134
0.891569 0.731014 0.932830
0.966278 0.769680 0.930724
0.121279 0.854887 0.991913
0.215091 0.855070 0.991730
0.381384 0.855283 0.990906
0.542779 0.855772 0.989380
0.686641 0.856107 0.987030
0.821103 0.855039 0.977325
0.873320 0.832364 0.942779
0.953765 0.856382 0.946227
0.363348 0.938231 0.983978
0.390509 0.938231 0.983917
0.472328 0.937407 0.983185
0.586023 0.936217 0.981811
0.699428 0.934630 0.979400
0.799496 0.932372 0.975555
0.880980 0.925231 0.967681
0.942351 0.907958 0.951812
0.412085 1.000000 0.984680
0.431586 1.000000 0.984466
0.503136 1.000000 0.983734
0.599939 0.997925 0.982025
0.701106 0.992004 0.979187
0.784543 0.982971 0.973297
0.839811 0.964508 0.958038
0.900053 0.951324 0.939025
0.619928 0.000000 1.000000
0.635554 0.000000 1.000000
0.690425 0.000000 1.000000
0.779690 0.000000 1.000000
0.881285 0.116030 1.000000
0.940795 0.446174 1.000000
0.956512 0.590387 0.976898
1.000000 0.570520 0.976410
0.618494 0.000000 1.000000
0.633814 0.000000 1.000000
0.688472 0.000000 1.000000
0.776425 0.000000 1.000000
0.876799 0.181460 1.000000
0.937316 0.457832 1.000000
0.952636 0.595331 0.975586
1.000000 0.575250 0.975158
0.615717 0.333745 1.000000
0.629786 0.332494 1.000000
0.681331 0.324468 1.000000
0.767269 0.316411 1.000000
0.862913 0.339574 1.000000
0.926848 0.520073 1.000000
0.942168 0.636133 0.974121
1.000000 0.620600 0.974578
0.598444 0.569879 1.000000
0.611902 0.569940 1.000000
0.660426 0.567041 1.000000
0.739925 0.563104 1.000000
0.831449 0.551659 1.000000
0.907622 0.619776 1.000000
0.931579 0.697353 0.975830
0.993622 0.692409 0.974975
0.445594 0.686458 1.000000
0.471382 0.688411 1.000000
0.550774 0.692195 1.000000
0.705776 0.742519 1.000000
0.791226 0.732326 1.000000
0.877165 0.719661 1.000000
0.924956 0.757656 0.982422
0.976440 0.765682 0.975616
0.394965 0.821653 1.000000
0.414832 0.821653 1.000000
0.489387 0.822568 1.000000
0.601862 0.826566 1.000000
0.729763 0.831174 1.000000
0.847929 0.845914 1.000000
0.917693 0.838499 0.991150
0.960266 0.845426 0.978149
0.475746 0.913024 1.000000
0.490730 0.913115 1.000000
0.548333 0.913603 1.000000
0.639002 0.915343 1.000000
0.739040 0.919036 1.000000
0.832700 0.925292 0.999969
0.910033 0.927153 0.995300
0.946258 0.910460 0.980285
0.536706 0.973693 0.999329
0.547753 0.973541 0.999207
0.592432 0.973205 0.998810
0.666285 0.972930 0.998077
0.749813 0.972992 0.996948
0.830106 0.973693 0.995392
0.901671 0.974792 0.993378
0.954131 0.972564 0.989685
