20 Preset/Japan Style/【3】LUT video cho PR-AE-FCPX/LUT VIDEO (2)/Japan Style LUT (32).cube
# Created by Adobe Lightroom plugin Export LUT (1.24.0)
# www.johnrellis.com/lightroom/exportlut.htm
# Preset: 32日系胶片（素材江湖）
# Color profile: C:\Program Files (x86)\Common Files\Adobe\Color\Profiles\Recommended\VideoHD.icc
LUT_3D_SIZE 5
DOMAIN_MIN 0.000000 0.000000 0.000000
DOMAIN_MAX 0.903226 0.903226 0.903226
0.000000 0.011994 0.014374
0.153384 0.047303 0.029511
0.660029 0.000000 0.000000
1.000000 0.149783 0.000000
1.000000 0.378882 0.000000
0.000000 0.121004 0.117037
0.021454 0.136019 0.082612
0.546807 0.201297 0.000000
0.983795 0.313207 0.000000
1.000000 0.437140 0.000000
0.000000 0.423804 0.382757
0.000000 0.408942 0.342473
0.309911 0.414191 0.136629
0.851987 0.509575 0.000000
1.000000 0.588739 0.000000
0.000000 0.755428 0.709468
0.000000 0.750301 0.693294
0.261173 0.714199 0.579644
0.623987 0.707820 0.326818
0.997284 0.740169 0.000000
0.661433 0.882475 0.873472
0.712764 0.879942 0.873411
0.755856 0.874510 0.862272
0.708186 0.862974 0.792294
0.864195 0.866667 0.701595
0.000000 0.035309 0.100618
0.137514 0.052125 0.101442
0.633417 0.000000 0.000000
0.992798 0.261936 0.000000
1.000000 0.408362 0.000000
0.000000 0.125460 0.143008
0.127932 0.162966 0.129610
0.573877 0.213687 0.000000
0.966186 0.345434 0.000000
1.000000 0.457252 0.000000
0.000000 0.443702 0.419104
0.000000 0.437995 0.389014
0.363592 0.442725 0.186343
0.862974 0.515923 0.000000
1.000000 0.593469 0.000000
0.000000 0.759945 0.721340
0.239902 0.756558 0.710994
0.348119 0.724025 0.612238
0.645350 0.715419 0.363439
0.999359 0.737026 0.143709
0.647120 0.883879 0.875700
0.701839 0.881193 0.875273
0.762539 0.875395 0.865721
0.720760 0.864073 0.800992
0.867094 0.867216 0.711360
0.000000 0.095552 0.264591
0.106233 0.103365 0.258091
0.657801 0.000000 0.298161
1.000000 0.217350 0.230198
1.000000 0.434791 0.121309
0.000000 0.175051 0.313817
0.139681 0.192050 0.319890
0.693507 0.179690 0.334630
1.000000 0.343938 0.249027
1.000000 0.478950 0.158511
0.000000 0.410285 0.483955
0.000000 0.471901 0.512505
0.531945 0.510185 0.379370
0.905150 0.545983 0.293309
1.000000 0.602960 0.247227
0.000000 0.771420 0.763912
0.241123 0.774807 0.760372
0.560571 0.758511 0.721370
0.718532 0.741176 0.489662
1.000000 0.739040 0.369451
0.522332 0.892363 0.887480
0.611627 0.888579 0.885161
0.782773 0.879667 0.880003
0.776913 0.868681 0.838163
0.878111 0.869688 0.746731
0.000000 0.161044 0.569635
0.000000 0.164950 0.563348
0.547265 0.160433 0.556512
0.994324 0.353216 0.594842
1.000000 0.566278 0.613977
0.000000 0.226871 0.592859
0.000000 0.243168 0.597345
0.575525 0.273381 0.589563
0.984985 0.443458 0.620478
1.000000 0.594018 0.620447
0.000000 0.431312 0.658534
0.000000 0.456794 0.657923
0.591943 0.549676 0.665858
0.939269 0.640772 0.691676
1.000000 0.673365 0.637354
0.000000 0.697566 0.778714
0.000000 0.719051 0.785031
0.615503 0.785519 0.803372
0.808652 0.766110 0.685176
1.000000 0.764187 0.646357
0.000000 0.873503 0.896056
0.336675 0.876646 0.895903
0.671138 0.885435 0.896574
0.855711 0.881590 0.889433
0.898466 0.875425 0.805631
0.000000 0.274388 0.834653
0.000000 0.279484 0.829801
0.576104 0.288365 0.813626
0.903197 0.423713 0.783322
1.000000 0.680720 0.800412
0.000000 0.302403 0.830350
0.000000 0.327611 0.829282
0.558007 0.343206 0.813504
0.891539 0.469337 0.785489
1.000000 0.701900 0.808347
0.000000 0.454353 0.835233
0.000000 0.465858 0.830625
0.449104 0.513817 0.828580
0.857237 0.610010 0.808103
0.997986 0.762844 0.833768
0.000000 0.629084 0.867613
0.000000 0.636896 0.865110
0.000000 0.681819 0.858335
0.814908 0.778988 0.857969
0.973724 0.831113 0.869383
0.000000 0.800565 0.898741
0.000000 0.807218 0.897612
0.426764 0.835142 0.896178
0.814145 0.872618 0.904387
0.923796 0.879728 0.879362
