20 Preset/Japan Style/【3】LUT video cho PR-AE-FCPX/LUT VIDEO (2)/Japan Style LUT (1).cube
# Created by Adobe Lightroom plugin Export LUT (1.24.0)
# www.johnrellis.com/lightroom/exportlut.htm
# Preset: 01日系清新（素材江湖）
# Color profile: C:\Program Files (x86)\Common Files\Adobe\Color\Profiles\Recommended\VideoHD.icc
LUT_3D_SIZE 8
DOMAIN_MIN 0.000000 0.000000 0.000000
DOMAIN_MAX 0.903226 0.903226 0.903226
0.000000 0.000000 0.000000
0.107790 0.006744 0.020935
0.355108 0.000000 0.061036
0.665797 0.000000 0.051453
0.894072 0.000000 0.038239
1.000000 0.112032 0.109590
1.000000 0.302037 0.189303
1.000000 0.402777 0.279576
0.000000 0.100618 0.080415
0.102510 0.113649 0.049409
0.370459 0.111818 0.000000
0.660243 0.000000 0.000000
0.883238 0.000000 0.000000
1.000000 0.204379 0.000000
1.000000 0.320958 0.153017
1.000000 0.409918 0.256291
0.000000 0.316594 0.162295
0.000000 0.312352 0.158694
0.309300 0.360632 0.025391
0.677913 0.389807 0.000000
0.887022 0.390478 0.000000
1.000000 0.414405 0.000000
1.000000 0.448371 0.000000
1.000000 0.487190 0.208042
0.000000 0.553643 0.295354
0.000000 0.549096 0.291203
0.250065 0.542626 0.275395
0.595209 0.622492 0.168338
0.863981 0.647974 0.000000
1.000000 0.622339 0.000000
1.000000 0.603601 0.000000
1.000000 0.594903 0.040833
0.160128 0.729213 0.454444
0.215671 0.726253 0.450416
0.349584 0.717037 0.437903
0.517144 0.728267 0.410834
0.749569 0.770352 0.337835
0.933562 0.774838 0.259586
1.000000 0.746426 0.208743
1.000000 0.717220 0.142184
0.444404 0.831022 0.598718
0.461707 0.832731 0.601648
0.501061 0.828031 0.593683
0.568353 0.819059 0.578210
0.683803 0.836545 0.552148
0.845090 0.861173 0.504814
0.984405 0.862547 0.454536
1.000000 0.836088 0.410742
0.606439 0.901701 0.717952
0.611810 0.901640 0.717922
0.627527 0.899138 0.712917
0.659419 0.894804 0.704219
0.707179 0.890898 0.689631
0.795346 0.906859 0.670192
0.909819 0.921324 0.636683
1.000000 0.920073 0.593011
0.736049 0.955413 0.818173
0.737850 0.955230 0.817685
0.746273 0.954711 0.816342
0.763790 0.953918 0.814267
0.779538 0.948211 0.800412
0.820462 0.952422 0.793088
0.882109 0.962066 0.777951
0.961303 0.968750 0.747280
0.013855 0.024537 0.110262
0.096712 0.015106 0.110048
0.319371 0.000000 0.131746
0.618952 0.000000 0.144259
0.865995 0.000000 0.135256
1.000000 0.168460 0.133364
1.000000 0.297673 0.155215
1.000000 0.391394 0.254368
0.000000 0.100984 0.128023
0.099947 0.113771 0.137362
0.335485 0.117586 0.141817
0.628199 0.010742 0.139162
0.864378 0.111940 0.127474
1.000000 0.238743 0.126680
1.000000 0.326268 0.142061
1.000000 0.402808 0.235782
0.000000 0.317693 0.229526
0.000000 0.319738 0.217838
0.309514 0.352758 0.175021
0.658839 0.378607 0.091432
0.866514 0.386145 0.032990
0.995117 0.412482 0.094820
1.000000 0.444831 0.140597
1.000000 0.476539 0.180117
0.000000 0.546105 0.339971
0.000000 0.543450 0.324987
0.264775 0.530571 0.310826
0.571466 0.598444 0.233310
0.836698 0.622461 0.129976
0.978973 0.603357 0.000000
1.000000 0.591791 0.136507
1.000000 0.589899 0.183108
0.216953 0.725460 0.476692
0.242008 0.722255 0.468910
0.356909 0.711482 0.454353
0.509606 0.715969 0.426673
0.736263 0.757382 0.360479
0.921843 0.764645 0.298222
1.000000 0.740078 0.258793
1.000000 0.714260 0.220798
0.446174 0.826291 0.603845
0.456764 0.825315 0.602258
0.496254 0.820890 0.594842
0.564263 0.812650 0.580896
0.677852 0.829984 0.558282
0.840146 0.857084 0.518853
0.979095 0.859403 0.474403
1.000000 0.833921 0.431952
0.602197 0.897948 0.717098
0.604608 0.896849 0.714900
0.620172 0.894194 0.709590
0.653315 0.890166 0.701686
0.702937 0.886564 0.689540
0.791196 0.903197 0.671412
0.905455 0.917632 0.637720
1.000000 0.916777 0.595422
0.731746 0.953185 0.816251
0.734829 0.953399 0.816739
0.743008 0.952758 0.815122
0.760708 0.951965 0.813107
0.785702 0.950042 0.808011
0.822690 0.952728 0.798245
0.881834 0.961547 0.781491
0.960662 0.968292 0.751766
0.000000 0.098878 0.302281
0.108736 0.085420 0.302037
0.315068 0.000000 0.300114
0.617731 0.000000 0.336431
0.834775 0.166354 0.364080
0.977417 0.311009 0.389837
1.000000 0.406958 0.405951
1.000000 0.465553 0.411078
0.000000 0.179538 0.320134
0.133211 0.178439 0.320287
0.322759 0.165743 0.316320
0.604883 0.190768 0.346105
0.823575 0.240574 0.368414
0.971649 0.343786 0.388403
1.000000 0.420447 0.399573
1.000000 0.474189 0.405341
0.000000 0.330602 0.347692
0.118410 0.336187 0.350011
0.318883 0.351537 0.355688
0.611566 0.374243 0.365301
0.834531 0.412451 0.375982
0.969482 0.459236 0.389593
1.000000 0.500725 0.402716
1.000000 0.532830 0.409949
0.060700 0.560937 0.457099
0.202365 0.563256 0.459052
0.351263 0.564874 0.444129
0.578851 0.600488 0.411231
0.828183 0.622827 0.389075
0.959136 0.617334 0.392187
1.000000 0.620783 0.411017
1.000000 0.625879 0.419806
0.374975 0.729854 0.574121
0.400946 0.729091 0.574182
0.433692 0.724819 0.548425
0.538048 0.714199 0.526177
0.737819 0.760006 0.493507
0.911162 0.767514 0.465980
1.000000 0.748287 0.441291
1.000000 0.730922 0.435370
0.536522 0.827451 0.672389
0.536034 0.827390 0.667353
0.539727 0.824674 0.647395
0.592798 0.815885 0.632959
0.684565 0.825620 0.615290
0.835538 0.854826 0.593011
0.967956 0.859953 0.571069
1.000000 0.839872 0.542779
0.646296 0.899474 0.755825
0.644404 0.898833 0.751797
0.646204 0.896635 0.740505
0.672847 0.892149 0.731594
0.714076 0.885740 0.718776
0.795132 0.902281 0.706813
0.904875 0.918669 0.685420
1.000000 0.919463 0.658961
0.750362 0.953399 0.833799
0.749386 0.953216 0.831754
0.753414 0.952850 0.828275
0.770871 0.952544 0.827146
0.793698 0.950591 0.821988
0.828367 0.952300 0.814542
0.884916 0.961730 0.801358
0.960479 0.968811 0.777188
0.000000 0.189364 0.549126
0.175448 0.187198 0.551629
0.409369 0.183627 0.549248
0.614527 0.153719 0.542107
0.835477 0.296208 0.567010
0.950866 0.400793 0.574792
1.000000 0.503441 0.597894
1.000000 0.571557 0.616052
0.140719 0.279545 0.564019
0.230838 0.279210 0.563653
0.423896 0.272618 0.559747
0.617487 0.249241 0.551781
0.828580 0.351843 0.573877
0.943267 0.434638 0.581170
1.000000 0.522942 0.603418
1.000000 0.580804 0.616663
0.204440 0.446601 0.573083
0.269261 0.449226 0.574243
0.425055 0.443397 0.574792
0.601434 0.425238 0.566003
0.800076 0.488289 0.592523
0.917174 0.539483 0.607050
1.000000 0.594965 0.626184
1.000000 0.626825 0.628534
0.237491 0.582422 0.592981
0.289708 0.583001 0.592462
0.427710 0.586969 0.592218
0.572168 0.589746 0.587488
0.772763 0.615473 0.601312
0.903319 0.642115 0.613947
0.993988 0.666224 0.624048
1.000000 0.682765 0.626947
0.418006 0.741634 0.666743
0.441108 0.740597 0.665980
0.520378 0.738857 0.665888
0.603784 0.735988 0.654749
0.735683 0.759579 0.639826
0.890959 0.771664 0.636072
0.986023 0.765927 0.632990
1.000000 0.762051 0.634821
0.572869 0.835416 0.733150
0.586694 0.837247 0.736294
0.621088 0.835203 0.735866
0.650385 0.831235 0.719142
0.705684 0.824674 0.701076
0.833433 0.855467 0.693507
0.953307 0.862730 0.687495
1.000000 0.849180 0.670222
0.680690 0.901793 0.797604
0.686671 0.901793 0.798459
0.708858 0.901091 0.800687
0.711727 0.899290 0.783658
0.742824 0.892943 0.771420
0.804196 0.902098 0.761746
0.903777 0.919585 0.750515
0.999420 0.922026 0.738430
0.785428 0.955200 0.865690
0.788937 0.955077 0.866361
0.789761 0.955047 0.862028
0.791379 0.954955 0.853056
0.809873 0.952850 0.847471
0.837430 0.951110 0.840177
0.889555 0.961639 0.831662
0.960784 0.969818 0.816037
0.314275 0.325200 0.743801
0.365576 0.329076 0.744778
0.510338 0.336004 0.742550
0.683803 0.341863 0.739315
0.820493 0.343847 0.730587
0.931273 0.481605 0.722805
0.999115 0.574273 0.724819
1.000000 0.638544 0.734401
0.361059 0.398505 0.747829
0.402228 0.400458 0.748836
0.524529 0.401099 0.746548
0.682155 0.398566 0.741299
0.815610 0.394598 0.732662
0.924773 0.514580 0.727138
0.993683 0.592035 0.728725
1.000000 0.649775 0.737911
0.432105 0.550500 0.750973
0.457008 0.550408 0.751492
0.542229 0.546288 0.748623
0.669215 0.539025 0.743740
0.790768 0.527642 0.734890
0.898741 0.603876 0.737026
0.973114 0.645075 0.738857
1.000000 0.684413 0.746975
0.464332 0.662135 0.749142
0.486671 0.664485 0.749142
0.561883 0.674311 0.749538
0.655604 0.671870 0.748104
0.757473 0.659937 0.740688
0.867552 0.697871 0.752712
0.946654 0.714412 0.754879
1.000000 0.735927 0.761318
0.497169 0.745571 0.752071
0.513512 0.746242 0.752224
0.569909 0.747585 0.751705
0.647425 0.748226 0.748928
0.719326 0.742061 0.738003
0.846311 0.759518 0.748836
0.941100 0.774960 0.757076
1.000000 0.784695 0.759426
0.577295 0.834562 0.785580
0.587274 0.834409 0.785641
0.621302 0.832273 0.783688
0.675502 0.829282 0.780636
0.729000 0.826291 0.771054
0.823392 0.847196 0.769314
0.936828 0.859190 0.774014
1.000000 0.853696 0.768246
0.680659 0.903288 0.829831
0.684596 0.902770 0.829252
0.702876 0.901579 0.828580
0.741573 0.900908 0.830808
0.769314 0.898405 0.821256
0.807340 0.895171 0.808225
0.899626 0.916869 0.806577
0.988769 0.920897 0.802335
0.762112 0.954589 0.873014
0.766232 0.954467 0.873594
0.783474 0.954101 0.876371
0.816251 0.954864 0.883726
0.825437 0.954528 0.874754
0.847898 0.951598 0.867308
0.891356 0.959014 0.861295
0.959167 0.968658 0.851987
0.505211 0.478737 0.856107
0.527245 0.482033 0.856168
0.601892 0.489082 0.853910
0.712032 0.501671 0.851133
0.831937 0.516136 0.847807
0.922026 0.528130 0.841550
0.979492 0.620996 0.822049
1.000000 0.695186 0.823484
0.521904 0.520409 0.852232
0.540002 0.521599 0.851774
0.607019 0.525475 0.850217
0.709438 0.532586 0.847776
0.824643 0.541375 0.844541
0.913848 0.547936 0.838224
0.973449 0.632990 0.821225
1.000000 0.701076 0.823301
0.578119 0.638514 0.852628
0.589960 0.638239 0.852262
0.636896 0.637659 0.851041
0.714229 0.635401 0.847959
0.811582 0.634668 0.844877
0.895079 0.632532 0.839536
0.958251 0.692439 0.829831
1.000000 0.736751 0.832059
0.616876 0.737209 0.851804
0.627314 0.737850 0.851621
0.668574 0.742123 0.852232
0.727199 0.743465 0.853178
0.801083 0.740108 0.851225
0.873533 0.732631 0.846281
0.940429 0.770352 0.846555
0.997009 0.787198 0.846586
0.629694 0.793088 0.847105
0.638697 0.794095 0.847166
0.672724 0.798398 0.847593
0.726070 0.806058 0.848600
0.781460 0.803494 0.847257
0.845212 0.794797 0.842588
0.920745 0.817685 0.851255
0.980987 0.822416 0.850401
0.645106 0.842618 0.846860
0.653864 0.843839 0.847868
0.679591 0.844572 0.847837
0.721431 0.845701 0.847501
0.769711 0.845182 0.844755
0.816922 0.840146 0.836698
0.912535 0.855283 0.848295
0.983764 0.863890 0.853330
0.697658 0.908751 0.874815
0.703609 0.909209 0.875517
0.722957 0.909422 0.876188
0.756466 0.909026 0.875944
0.798520 0.907927 0.874754
0.834226 0.903929 0.866148
0.899992 0.916899 0.863737
0.982269 0.923552 0.866606
0.761898 0.956786 0.899962
0.764492 0.956573 0.899779
0.777646 0.956359 0.900237
0.803372 0.956573 0.901976
0.839658 0.956573 0.905150
0.866667 0.955993 0.901762
0.895628 0.955962 0.894377
0.959503 0.968597 0.892241
0.619074 0.596216 0.915404
0.632166 0.600214 0.916136
0.673274 0.605188 0.915038
0.742519 0.615442 0.913787
0.824796 0.624689 0.911131
0.912383 0.634485 0.908080
0.976532 0.641047 0.902983
1.000000 0.698482 0.878264
0.622400 0.614374 0.910216
0.635065 0.618402 0.911315
0.673518 0.621881 0.910460
0.737606 0.626368 0.908476
0.817472 0.631586 0.905638
0.903532 0.636316 0.901793
0.967651 0.637781 0.895689
1.000000 0.691493 0.871336
0.661769 0.697780 0.910674
0.668849 0.697810 0.910491
0.695949 0.696315 0.908934
0.746792 0.695888 0.907134
0.814145 0.694301 0.904143
0.892699 0.694728 0.901549
0.956634 0.697292 0.898863
0.995880 0.742031 0.881895
0.703120 0.781369 0.911254
0.708827 0.781613 0.910826
0.727230 0.779721 0.909606
0.764828 0.778836 0.908873
0.816587 0.775509 0.906859
0.882536 0.774166 0.905913
0.941741 0.772854 0.904479
0.984009 0.799741 0.893523
0.707912 0.828550 0.905211
0.711543 0.828214 0.904326
0.731930 0.829343 0.903960
0.769772 0.832517 0.905638
0.812985 0.831540 0.905486
0.866117 0.827207 0.904082
0.921569 0.822568 0.902464
0.973236 0.848814 0.903960
0.715145 0.863859 0.903716
0.720485 0.864652 0.904051
0.740078 0.867277 0.904936
0.774228 0.872251 0.906737
0.817227 0.878843 0.908843
0.863127 0.880980 0.911284
0.912169 0.877409 0.910430
0.966613 0.891936 0.915679
0.733059 0.905516 0.909422
0.738430 0.906401 0.910185
0.754147 0.907317 0.910674
0.783291 0.909514 0.912078
0.819608 0.911467 0.912779
0.857908 0.912505 0.912230
0.891478 0.907866 0.905486
0.966186 0.919921 0.915526
0.764981 0.957031 0.930083
0.768826 0.957244 0.930419
0.786221 0.958526 0.932464
0.812650 0.959503 0.934356
0.845701 0.960235 0.935760
0.881865 0.960754 0.936339
0.912779 0.959930 0.932769
0.960815 0.968597 0.931121
0.686671 0.687037 0.950622
0.693385 0.686824 0.950927
0.715511 0.679683 0.949981
0.760739 0.674159 0.949828
0.821256 0.680568 0.948455
0.889921 0.686946 0.946624
0.960937 0.695064 0.945556
1.000000 0.698146 0.942016
0.686000 0.681483 0.948791
0.692775 0.681483 0.949187
0.716030 0.680354 0.948455
0.759976 0.683894 0.947539
0.818967 0.688685 0.946288
0.886595 0.693599 0.944549
0.956909 0.698573 0.943084
1.000000 0.698970 0.939178
0.704280 0.727810 0.946136
0.709468 0.728115 0.946105
0.728511 0.727413 0.945281
0.768856 0.731991 0.945892
0.819638 0.731991 0.944427
0.880735 0.731289 0.942412
0.948516 0.732937 0.941375
1.000000 0.730373 0.938140
0.730617 0.790219 0.943969
0.734981 0.790768 0.944152
0.749783 0.789914 0.943694
0.780117 0.790280 0.943694
0.822721 0.789517 0.943145
0.875700 0.787503 0.942138
0.938231 0.786191 0.941680
0.989105 0.781888 0.939605
0.737423 0.834501 0.941253
0.742702 0.835691 0.941741
0.758724 0.836912 0.941924
0.791470 0.842069 0.942992
0.824521 0.839414 0.942229
0.868864 0.835874 0.941405
0.924834 0.833494 0.941497
0.975647 0.831144 0.941314
0.741390 0.871458 0.939422
0.743862 0.871275 0.939055
0.756802 0.872251 0.938506
0.784726 0.876768 0.939208
0.824399 0.880613 0.942229
0.871061 0.885801 0.945830
0.920836 0.888243 0.948638
0.968292 0.888731 0.950286
0.754452 0.907439 0.943359
0.757382 0.907591 0.943328
0.770291 0.908598 0.943420
0.796841 0.911955 0.944671
0.834043 0.917632 0.946990
0.878141 0.926390 0.951110
0.922057 0.932799 0.956634
0.963287 0.932799 0.958404
0.782254 0.948455 0.953124
0.784787 0.948516 0.953094
0.797086 0.949371 0.953674
0.821958 0.951781 0.955505
0.854795 0.955108 0.957916
0.890990 0.959014 0.960662
0.926421 0.962768 0.963165
0.953521 0.960876 0.959716
