20 Preset/Japan Style/【3】LUT video cho PR-AE-FCPX/LUT VIDEO (2)/Japan Style LUT (21).cube
# Created by Adobe Lightroom plugin Export LUT (1.24.0)
# www.johnrellis.com/lightroom/exportlut.htm
# Preset: 21日系街道（素材江湖）
# Color profile: C:\Program Files (x86)\Common Files\Adobe\Color\Profiles\Recommended\VideoHD.icc
LUT_3D_SIZE 5
DOMAIN_MIN 0.000000 0.000000 0.000000
DOMAIN_MAX 0.903226 0.903226 0.903226
0.014343 0.021424 0.013733
0.424567 0.000000 0.000000
0.928557 0.000000 0.000000
1.000000 0.000000 0.000000
1.000000 0.240116 0.000000
0.000000 0.428168 0.000000
0.286229 0.414801 0.000000
0.883757 0.429816 0.000000
1.000000 0.393347 0.000000
1.000000 0.394965 0.000000
0.264164 0.807614 0.490150
0.465492 0.797055 0.532708
0.686763 0.774350 0.319188
0.966949 0.711788 0.000000
1.000000 0.640101 0.000000
0.606683 0.896635 0.695308
0.641352 0.894377 0.706294
0.735134 0.886717 0.737606
0.793973 0.871305 0.579217
0.997711 0.828946 0.303838
0.730495 0.947570 0.791836
0.742855 0.946593 0.796109
0.780972 0.940795 0.807370
0.824369 0.938994 0.806912
0.880919 0.937896 0.725368
0.000000 0.063508 0.305730
0.356634 0.000000 0.284703
0.873289 0.000000 0.320104
1.000000 0.261845 0.332616
1.000000 0.361730 0.352270
0.000000 0.421454 0.330694
0.370489 0.425727 0.355718
0.848325 0.434516 0.306340
1.000000 0.440436 0.320836
1.000000 0.452247 0.352514
0.399664 0.790585 0.574334
0.508812 0.786923 0.590997
0.682399 0.761929 0.480110
0.950744 0.709407 0.303563
1.000000 0.657008 0.375128
0.634272 0.894285 0.718929
0.664790 0.892790 0.728420
0.756741 0.886717 0.763668
0.800595 0.869810 0.637324
0.989227 0.830259 0.437934
0.742306 0.947509 0.802945
0.753811 0.946532 0.806760
0.797452 0.943328 0.823667
0.838834 0.940734 0.826505
0.888182 0.939757 0.752712
0.000000 0.107942 0.697566
0.354131 0.065461 0.679133
0.768978 0.000000 0.652125
1.000000 0.302373 0.608576
1.000000 0.547662 0.656703
0.000000 0.459724 0.708217
0.293828 0.402106 0.697261
0.754269 0.408667 0.658747
0.967193 0.505089 0.640101
1.000000 0.631373 0.692226
0.000000 0.770687 0.687984
0.322148 0.766079 0.688594
0.736507 0.765774 0.729885
0.905943 0.745480 0.693263
1.000000 0.727047 0.692592
0.672786 0.883909 0.771359
0.708370 0.881743 0.780331
0.778653 0.883452 0.799680
0.824582 0.868650 0.756191
0.965270 0.840635 0.678035
0.777890 0.945495 0.838834
0.785153 0.945464 0.840177
0.817014 0.944610 0.849454
0.870085 0.941924 0.870573
0.899229 0.938994 0.805600
0.000000 0.224949 0.856748
0.394049 0.232425 0.850553
0.718715 0.285344 0.822629
0.931182 0.339452 0.804623
1.000000 0.473793 0.738064
0.000000 0.414466 0.850645
0.371038 0.416724 0.844266
0.697719 0.436286 0.817258
0.906981 0.469001 0.796780
1.000000 0.557702 0.746395
0.237858 0.724147 0.829618
0.409888 0.725551 0.826658
0.676295 0.717861 0.815488
0.843595 0.712337 0.789303
0.974853 0.735958 0.791592
0.489845 0.870878 0.810513
0.545403 0.868101 0.810636
0.699397 0.863066 0.817014
0.853544 0.869780 0.848692
0.957061 0.855589 0.827146
0.727413 0.947051 0.852964
0.747402 0.946349 0.857389
0.818143 0.945098 0.876951
0.888243 0.946960 0.901549
0.918669 0.942260 0.875486
0.358923 0.343572 0.946990
0.456519 0.352392 0.943389
0.673518 0.397711 0.929839
0.861723 0.473426 0.902007
1.000000 0.491127 0.892454
0.355077 0.448249 0.939239
0.448768 0.453864 0.936065
0.660914 0.481025 0.923003
0.848783 0.529473 0.896178
0.997040 0.544518 0.887083
0.451270 0.693935 0.921355
0.526055 0.698146 0.917540
0.646082 0.675746 0.908690
0.815946 0.676417 0.885740
0.956542 0.686549 0.878447
0.443641 0.832883 0.909606
0.493172 0.832120 0.908354
0.636622 0.831907 0.905699
0.798398 0.822538 0.899077
0.927123 0.828397 0.889860
0.571923 0.949615 0.903807
0.599329 0.948302 0.904051
0.697505 0.944976 0.907500
0.821286 0.940948 0.914458
0.941009 0.947173 0.940307
