20 Preset/Japan Style/【3】LUT video cho PR-AE-FCPX/LUT VIDEO (2)/Japan Style LUT (42).cube
# Created by Adobe Lightroom plugin Export LUT (1.24.0)
# www.johnrellis.com/lightroom/exportlut.htm
# Preset: 42日系青绿（素材江湖）
# Color profile: C:\Program Files (x86)\Common Files\Adobe\Color\Profiles\Recommended\VideoHD.icc
LUT_3D_SIZE 5
DOMAIN_MIN 0.000000 0.000000 0.000000
DOMAIN_MAX 0.903226 0.903226 0.903226
0.000000 0.000000 0.000000
0.418799 0.000000 0.000000
0.895445 0.198764 0.000000
1.000000 0.469245 0.141176
1.000000 0.567651 0.382238
0.000000 0.364874 0.223453
0.307225 0.465309 0.121096
0.865721 0.514611 0.125887
1.000000 0.566705 0.309422
1.000000 0.611261 0.458747
0.507774 0.702876 0.625544
0.560632 0.700771 0.638605
0.750942 0.742306 0.579492
0.954650 0.738033 0.608637
1.000000 0.721126 0.637537
0.744045 0.811795 0.770718
0.759762 0.811337 0.776486
0.801450 0.813840 0.784451
0.886656 0.842863 0.746914
0.961212 0.825040 0.769284
0.855680 0.877409 0.861265
0.865202 0.876799 0.868559
0.877806 0.874998 0.873991
0.889982 0.874784 0.872679
0.909575 0.877501 0.860380
0.000000 0.042786 0.232334
0.373602 0.108827 0.264744
0.850523 0.348363 0.314763
1.000000 0.537926 0.431952
1.000000 0.604700 0.521874
0.000000 0.411780 0.327337
0.365667 0.480842 0.393164
0.823056 0.549096 0.431647
0.988067 0.601709 0.493385
1.000000 0.637537 0.562524
0.526543 0.705745 0.648493
0.580713 0.704524 0.665583
0.754604 0.743038 0.627405
0.944335 0.742916 0.654108
1.000000 0.729976 0.673732
0.747219 0.812985 0.775937
0.765835 0.812680 0.784756
0.805386 0.814878 0.792996
0.886931 0.843656 0.759426
0.957885 0.827237 0.781521
0.853849 0.877806 0.860716
0.863615 0.877134 0.868070
0.879118 0.875303 0.876585
0.890684 0.874846 0.875669
0.909148 0.877531 0.864317
0.000000 0.172671 0.606897
0.509331 0.201419 0.647242
0.780362 0.479042 0.628809
0.958923 0.588464 0.650752
1.000000 0.661524 0.688594
0.000000 0.473030 0.629541
0.494209 0.514427 0.664302
0.745174 0.574121 0.656397
0.946685 0.639246 0.674281
1.000000 0.684047 0.703700
0.502342 0.723812 0.675746
0.608515 0.723293 0.715541
0.771908 0.745968 0.730159
0.923339 0.752651 0.742489
0.993378 0.750668 0.750362
0.746334 0.818570 0.786954
0.771908 0.817990 0.801144
0.817533 0.818235 0.820340
0.891173 0.845243 0.800107
0.948089 0.833829 0.817075
0.837491 0.880095 0.852567
0.850431 0.879088 0.861387
0.881193 0.876555 0.883177
0.892332 0.874968 0.884428
0.907988 0.877623 0.874937
0.393957 0.378424 0.775875
0.581659 0.416327 0.784939
0.801083 0.569421 0.768673
0.926452 0.662562 0.773739
0.993957 0.716884 0.795041
0.428962 0.546868 0.771389
0.577722 0.568933 0.780789
0.791745 0.638361 0.777310
0.916472 0.687190 0.782284
0.989502 0.729183 0.799374
0.496101 0.726345 0.778042
0.578271 0.724086 0.781155
0.789517 0.750881 0.809018
0.905272 0.750546 0.804868
0.969604 0.778012 0.822507
0.717311 0.831479 0.796231
0.748775 0.830594 0.808774
0.830747 0.830747 0.848997
0.892546 0.845640 0.850767
0.936919 0.838773 0.855467
0.808133 0.885161 0.844205
0.821988 0.883940 0.851835
0.864469 0.879698 0.876921
0.895415 0.875975 0.896727
0.906401 0.877653 0.891783
0.645747 0.589471 0.889372
0.709682 0.599512 0.890318
0.888609 0.641688 0.895445
0.949401 0.724758 0.862730
0.960815 0.783078 0.862455
0.645808 0.645136 0.886046
0.704219 0.651118 0.887419
0.874357 0.680293 0.893431
0.942290 0.743801 0.866575
0.955261 0.793179 0.866606
0.612024 0.737758 0.880827
0.668849 0.741115 0.882475
0.827848 0.759030 0.889830
0.921263 0.796933 0.879911
0.937102 0.824704 0.880064
0.649989 0.861479 0.891875
0.680110 0.857908 0.891875
0.778134 0.844907 0.892241
0.897459 0.850431 0.897612
0.914000 0.861692 0.897429
0.771115 0.889891 0.862852
0.788510 0.888334 0.866819
0.844541 0.883238 0.882017
0.896056 0.878416 0.903044
0.902892 0.878141 0.907683
