20 Preset/Japan Style/【3】LUT video cho PR-AE-FCPX/LUT VIDEO (2)/Japan Style LUT (37).cube
# Created by Adobe Lightroom plugin Export LUT (1.24.0)
# www.johnrellis.com/lightroom/exportlut.htm
# Preset: 37日系胶片（素材江湖）
# Color profile: C:\Program Files (x86)\Common Files\Adobe\Color\Profiles\Recommended\VideoHD.icc
LUT_3D_SIZE 32
DOMAIN_MIN 0.0 0.0 0.0
DOMAIN_MAX 1.0 1.0 1.0
0.000000 0.072663 0.108888
0.000000 0.072450 0.108888
0.000000 0.072969 0.109468
0.001953 0.074037 0.109712
0.019074 0.077577 0.110750
0.039551 0.079744 0.112428
0.069551 0.081758 0.113710
0.092744 0.083955 0.115206
0.111238 0.085359 0.116640
0.131716 0.086458 0.118196
0.155856 0.086091 0.119356
0.183078 0.084230 0.120302
0.213138 0.079805 0.121370
0.246555 0.068330 0.122164
0.282902 0.048402 0.122683
0.322179 0.019318 0.122866
0.364385 0.000000 0.122927
0.409400 0.000000 0.122530
0.456489 0.000000 0.121950
0.505303 0.000000 0.120699
0.554467 0.000000 0.119173
0.602899 0.000000 0.117067
0.659693 0.000000 0.114168
0.713161 0.000000 0.110323
0.762142 0.000000 0.106600
0.806424 0.000000 0.102510
0.847135 0.000000 0.098177
0.885283 0.000000 0.094362
0.921599 0.000000 0.090852
0.956664 0.000000 0.086885
0.990661 0.000000 0.084138
1.000000 0.000000 0.084871
0.000000 0.073640 0.109499
0.000000 0.073640 0.109163
0.000000 0.074159 0.109102
0.002533 0.076204 0.109621
0.018341 0.078523 0.110689
0.041108 0.080354 0.112062
0.068818 0.082521 0.113680
0.092500 0.084718 0.115145
0.109895 0.086397 0.116579
0.130709 0.087495 0.117891
0.154360 0.087434 0.119020
0.181125 0.085206 0.120333
0.211124 0.081086 0.121096
0.243992 0.071473 0.121920
0.279911 0.051667 0.122744
0.318914 0.025116 0.122652
0.361120 0.000000 0.122744
0.405859 0.000000 0.122408
0.452735 0.000000 0.121828
0.501152 0.000000 0.120363
0.549889 0.000000 0.118959
0.598108 0.000000 0.117189
0.653254 0.000000 0.114290
0.705440 0.000000 0.110780
0.753902 0.000000 0.106783
0.797940 0.000000 0.103120
0.838926 0.000000 0.098787
0.877501 0.000000 0.095125
0.914397 0.000000 0.091066
0.950042 0.000000 0.087861
0.984588 0.000000 0.084321
1.000000 0.000000 0.084016
0.000000 0.080323 0.111421
0.000000 0.081086 0.111391
0.000000 0.081422 0.110689
0.000916 0.081941 0.109957
0.020752 0.081910 0.110475
0.041535 0.083864 0.111849
0.069245 0.086030 0.113466
0.092927 0.087465 0.114992
0.110658 0.089052 0.116091
0.131258 0.089693 0.117678
0.154788 0.089662 0.118837
0.181674 0.088716 0.119783
0.211307 0.085206 0.120882
0.244175 0.078004 0.121675
0.279850 0.059663 0.122225
0.318822 0.033082 0.122408
0.360510 0.000000 0.122194
0.405035 0.000000 0.122133
0.452186 0.000000 0.121218
0.500389 0.000000 0.120058
0.549157 0.000000 0.118593
0.597436 0.000000 0.116487
0.652247 0.000000 0.113619
0.703334 0.000000 0.110231
0.751034 0.000000 0.106294
0.794766 0.000000 0.102388
0.835630 0.000000 0.098116
0.874266 0.000000 0.094148
0.911192 0.000000 0.090181
0.946929 0.000000 0.086519
0.981689 0.000000 0.081788
1.000000 0.000000 0.082795
0.000000 0.089784 0.116365
0.000000 0.089784 0.116060
0.000000 0.090425 0.115389
0.000000 0.090822 0.113771
0.014954 0.091249 0.112367
0.045228 0.090455 0.110994
0.073945 0.091279 0.112337
0.095277 0.092042 0.113924
0.113588 0.093233 0.115328
0.133974 0.093812 0.116945
0.157870 0.093965 0.118044
0.184115 0.093019 0.119326
0.214054 0.091218 0.119997
0.246708 0.086793 0.120790
0.282078 0.074434 0.121309
0.320745 0.048859 0.121462
0.362066 0.013062 0.121492
0.406256 0.000000 0.120790
0.452430 0.000000 0.120150
0.499886 0.000000 0.118959
0.547997 0.000000 0.117525
0.597192 0.000000 0.115175
0.649897 0.000000 0.112154
0.700008 0.000000 0.108888
0.747738 0.000000 0.104891
0.792325 0.000000 0.100618
0.834043 0.000000 0.095918
0.873381 0.000000 0.091951
0.910826 0.000000 0.086641
0.946624 0.000000 0.080537
0.980896 0.000000 0.075959
1.000000 0.000000 0.076295
0.000000 0.098543 0.123293
0.000000 0.098482 0.123018
0.000000 0.099153 0.122103
0.000000 0.099641 0.120607
0.001343 0.100465 0.118715
0.032380 0.100862 0.116426
0.071229 0.099916 0.114534
0.098024 0.099580 0.112764
0.116945 0.100099 0.114229
0.137850 0.100740 0.115480
0.161501 0.101106 0.116609
0.188205 0.100710 0.117800
0.217960 0.099367 0.118746
0.250675 0.096162 0.119448
0.286839 0.090333 0.119814
0.325628 0.076173 0.119844
0.367376 0.040101 0.119783
0.411566 0.000000 0.119203
0.457710 0.000000 0.118166
0.505180 0.000000 0.117159
0.552972 0.000000 0.115145
0.603296 0.000000 0.112764
0.654261 0.000000 0.109255
0.703212 0.000000 0.106081
0.750179 0.000000 0.101930
0.794308 0.000000 0.096834
0.835508 0.000000 0.092256
0.874357 0.000000 0.086458
0.911223 0.000000 0.079927
0.946441 0.000000 0.070344
0.980316 0.000000 0.063172
1.000000 0.000000 0.061860
0.000000 0.109712 0.130404
0.000000 0.109712 0.129885
0.000000 0.110018 0.128573
0.000000 0.110719 0.127382
0.000000 0.111513 0.125643
0.011048 0.113008 0.123171
0.054017 0.114809 0.120485
0.095094 0.113405 0.118379
0.120333 0.112337 0.116304
0.143954 0.112123 0.115145
0.168978 0.112642 0.114656
0.196536 0.112062 0.115511
0.226810 0.111177 0.116670
0.260410 0.108614 0.117250
0.296757 0.104280 0.117433
0.336126 0.096284 0.117311
0.378210 0.080385 0.117281
0.422950 0.034668 0.116121
0.469093 0.000000 0.115084
0.516289 0.000000 0.113497
0.563745 0.000000 0.111452
0.615656 0.000000 0.108339
0.706477 0.000000 0.100465
0.756100 0.000000 0.094911
0.800687 0.000000 0.088838
0.841184 0.000000 0.080293
0.878477 0.000000 0.067262
0.913268 0.000000 0.054902
0.946349 0.000000 0.044831
0.978027 0.000000 0.036652
1.000000 0.000000 0.033326
1.000000 0.000000 0.036896
0.000000 0.126955 0.138796
0.000000 0.127230 0.139010
0.000000 0.127535 0.136843
0.000000 0.128328 0.135744
0.000000 0.129000 0.133394
0.000000 0.130404 0.131075
0.025269 0.132723 0.128267
0.091829 0.136233 0.124758
0.123201 0.134188 0.122347
0.153170 0.132448 0.119936
0.184543 0.130190 0.118135
0.215030 0.130037 0.116304
0.248081 0.129091 0.114473
0.283421 0.127352 0.113100
0.321111 0.123201 0.113039
0.360998 0.116243 0.112886
0.403845 0.105409 0.112184
0.448554 0.088746 0.110872
0.494728 0.032471 0.109377
0.542107 0.000000 0.106996
0.594903 0.000000 0.104005
0.650233 0.000000 0.099428
0.703029 0.000000 0.094209
0.753506 0.000000 0.086366
0.799405 0.000000 0.073701
0.840360 0.000000 0.057374
0.877134 0.000000 0.041962
0.911345 0.000000 0.029633
0.943847 0.000000 0.019257
0.974792 0.000000 0.009644
1.000000 0.000000 0.006104
1.000000 0.000000 0.007355
0.000000 0.146517 0.147616
0.000000 0.146761 0.147585
0.000000 0.147402 0.146212
0.000000 0.147921 0.143893
0.000000 0.148684 0.141726
0.000000 0.149599 0.139193
0.000000 0.152071 0.136507
0.056703 0.154757 0.133089
0.116762 0.160494 0.129000
0.151736 0.158022 0.126101
0.186893 0.155215 0.123659
0.222751 0.152255 0.120851
0.258976 0.149599 0.118013
0.295354 0.147829 0.115663
0.334234 0.144961 0.112154
0.375463 0.140414 0.108949
0.418952 0.133333 0.105287
0.463355 0.122133 0.103944
0.508843 0.104982 0.101991
0.557977 0.072358 0.098909
0.611078 0.000000 0.094118
0.662440 0.000000 0.088777
0.712154 0.000000 0.078584
0.759915 0.000000 0.060700
0.803799 0.000000 0.041382
0.842924 0.000000 0.024323
0.878721 0.000000 0.009674
0.912078 0.000000 0.000000
0.943816 0.000000 0.000000
0.974243 0.000000 0.000000
1.000000 0.000000 0.000000
1.000000 0.000000 0.000000
0.000000 0.171206 0.157961
0.000000 0.171389 0.157931
0.000000 0.171878 0.156680
0.000000 0.172549 0.153353
0.000000 0.173129 0.151583
0.000000 0.173983 0.148806
0.000000 0.175387 0.145571
0.002197 0.178592 0.142061
0.095338 0.182467 0.138338
0.147127 0.190249 0.132448
0.187808 0.187472 0.129427
0.227634 0.183993 0.125795
0.268254 0.179843 0.122194
0.310369 0.174258 0.118410
0.350927 0.170443 0.114412
0.392462 0.166415 0.110414
0.436347 0.160616 0.105196
0.481666 0.153780 0.098970
0.530755 0.144625 0.090455
0.581445 0.131350 0.082277
0.630976 0.113832 0.069978
0.679011 0.091554 0.054444
0.725673 0.038849 0.035279
0.770565 0.000000 0.016449
0.811704 0.000000 0.000000
0.848997 0.000000 0.000000
0.883391 0.000000 0.000000
0.915557 0.000000 0.000000
0.946319 0.000000 0.000000
0.975891 0.000000 0.000000
1.000000 0.038331 0.000000
1.000000 0.112673 0.000000
0.000000 0.200595 0.169589
0.000000 0.200717 0.169406
0.000000 0.201114 0.168429
0.000000 0.201694 0.164157
0.000000 0.202274 0.162112
0.000000 0.202792 0.159426
0.000000 0.203708 0.155947
0.000000 0.206119 0.152377
0.040681 0.209781 0.148043
0.125521 0.214328 0.143252
0.182437 0.223728 0.135897
0.229221 0.221805 0.131044
0.273167 0.217350 0.126497
0.318334 0.212100 0.121798
0.364965 0.205234 0.116701
0.412390 0.197391 0.110811
0.457343 0.192660 0.104799
0.506981 0.187503 0.096712
0.556420 0.181430 0.085481
0.605432 0.174685 0.058320
0.652979 0.168093 0.024689
0.697627 0.160494 0.000000
0.739895 0.151369 0.000000
0.780179 0.143130 0.000000
0.817777 0.135073 0.000000
0.852689 0.129030 0.000000
0.885618 0.126467 0.000000
0.916930 0.127749 0.000000
0.947082 0.134005 0.000000
0.976318 0.144808 0.000000
1.000000 0.161746 0.000000
1.000000 0.182986 0.000000
0.000000 0.233616 0.181857
0.000000 0.233585 0.181857
0.000000 0.234226 0.180911
0.000000 0.235050 0.177005
0.000000 0.235691 0.173770
0.000000 0.236515 0.171084
0.000000 0.237430 0.167514
0.000000 0.238437 0.163149
0.000000 0.242252 0.158633
0.099763 0.247196 0.153567
0.162356 0.252750 0.147280
0.225101 0.263737 0.137667
0.278721 0.263340 0.130648
0.327764 0.257328 0.124941
0.378882 0.251225 0.118318
0.431678 0.244511 0.110384
0.484718 0.235630 0.101717
0.534447 0.227970 0.091859
0.581415 0.222843 0.072847
0.627131 0.217899 0.040711
0.671260 0.213626 0.003113
0.713558 0.210239 0.000000
0.754971 0.208865 0.000000
0.793301 0.207370 0.000000
0.828458 0.203861 0.000000
0.861479 0.201511 0.000000
0.892729 0.200565 0.000000
0.922759 0.201755 0.000000
0.951690 0.205356 0.000000
0.979889 0.212619 0.000000
1.000000 0.223697 0.000000
1.000000 0.238163 0.000000
0.000000 0.273411 0.195987
0.000000 0.273472 0.195529
0.000000 0.273991 0.194827
0.000000 0.274968 0.191958
0.000000 0.275761 0.186618
0.000000 0.276371 0.183688
0.000000 0.277287 0.179751
0.000000 0.278386 0.175204
0.000000 0.280034 0.169833
0.001404 0.285649 0.164431
0.141268 0.291600 0.157839
0.207858 0.299413 0.150027
0.301091 0.330907 0.135683
0.371862 0.335943 0.121523
0.430732 0.328679 0.111879
0.487892 0.320470 0.100069
0.542565 0.310948 0.084352
0.595056 0.300298 0.049775
0.644923 0.289067 0.009033
0.687343 0.283635 0.000000
0.727077 0.280125 0.000000
0.764126 0.277440 0.000000
0.799222 0.275761 0.000000
0.832609 0.275669 0.000000
0.864225 0.276829 0.000000
0.893217 0.276341 0.000000
0.920165 0.274693 0.000000
0.946014 0.274754 0.000000
0.971344 0.276860 0.000000
0.996277 0.281254 0.000000
1.000000 0.288304 0.000000
1.000000 0.299138 0.000000
0.000000 0.328099 0.213840
0.000000 0.328161 0.213565
0.000000 0.328161 0.212650
0.000000 0.328679 0.210666
0.000000 0.328832 0.202335
0.000000 0.328710 0.198886
0.000000 0.329747 0.194949
0.000000 0.331548 0.190127
0.000000 0.333898 0.184024
0.000000 0.338598 0.177768
0.115480 0.348089 0.170565
0.204685 0.358892 0.161379
0.280980 0.370397 0.149874
0.360662 0.383551 0.132448
0.442176 0.394537 0.107851
0.500725 0.385321 0.093019
0.555261 0.375067 0.062043
0.606012 0.363592 0.020111
0.653620 0.352026 0.000000
0.698146 0.340459 0.000000
0.738582 0.330480 0.000000
0.773129 0.326207 0.000000
0.805936 0.323461 0.000000
0.837583 0.321660 0.000000
0.867765 0.321416 0.000000
0.896544 0.322515 0.000000
0.924041 0.324865 0.000000
0.949279 0.324224 0.000000
0.974029 0.325139 0.000000
0.998383 0.328283 0.000000
1.000000 0.333806 0.000000
1.000000 0.342168 0.000000
0.000000 0.384894 0.232059
0.000000 0.384924 0.231601
0.000000 0.384710 0.230838
0.000000 0.384894 0.228641
0.000000 0.384924 0.220554
0.000000 0.384863 0.214847
0.000000 0.385138 0.210300
0.000000 0.385595 0.204715
0.000000 0.386999 0.198215
0.000000 0.388983 0.190799
0.000000 0.396063 0.183078
0.179171 0.406439 0.174197
0.266239 0.417700 0.162600
0.346075 0.428748 0.147005
0.424659 0.438911 0.125307
0.510155 0.453223 0.083742
0.564935 0.441474 0.034791
0.614862 0.429389 0.000000
0.661311 0.417212 0.000000
0.704280 0.404578 0.000000
0.744228 0.392309 0.000000
0.781857 0.380224 0.000000
0.814847 0.373114 0.000000
0.845029 0.369909 0.000000
0.873747 0.368078 0.000000
0.901366 0.367895 0.000000
0.927977 0.368536 0.000000
0.953613 0.370855 0.000000
0.977966 0.372412 0.000000
1.000000 0.374212 0.000000
1.000000 0.378149 0.000000
1.000000 0.384863 0.000000
0.000000 0.443671 0.252262
0.000000 0.443458 0.252201
0.000000 0.443275 0.251011
0.000000 0.442817 0.248631
0.000000 0.442267 0.241489
0.000000 0.441505 0.231937
0.000000 0.440925 0.227146
0.000000 0.440894 0.221408
0.000000 0.441382 0.214359
0.000000 0.442908 0.206394
0.000000 0.444984 0.196841
0.143465 0.454505 0.188174
0.248661 0.465034 0.177035
0.333227 0.475410 0.162905
0.412848 0.485115 0.143465
0.489296 0.493507 0.116152
0.573083 0.508659 0.022034
0.622675 0.495735 0.000000
0.668208 0.482429 0.000000
0.709957 0.469032 0.000000
0.748470 0.455695 0.000000
0.785061 0.443122 0.000000
0.819547 0.431037 0.000000
0.852567 0.419837 0.000000
0.880156 0.415839 0.000000
0.906798 0.413672 0.000000
0.932433 0.412818 0.000000
0.957519 0.413733 0.000000
0.982208 0.416571 0.000000
1.000000 0.420203 0.000000
1.000000 0.423529 0.000000
1.000000 0.429053 0.000000
0.000000 0.498817 0.274327
0.000000 0.499001 0.273899
0.000000 0.498939 0.272801
0.000000 0.498817 0.270878
0.000000 0.498939 0.265660
0.000000 0.499062 0.252689
0.000000 0.498878 0.248081
0.000000 0.499245 0.241886
0.000000 0.500008 0.235050
0.000000 0.500755 0.226535
0.000000 0.501671 0.216464
0.090913 0.504051 0.205295
0.230808 0.512169 0.195285
0.320623 0.520317 0.182162
0.399786 0.527886 0.165194
0.474708 0.534936 0.143252
0.546868 0.541741 0.111177
0.627192 0.558495 0.000000
0.672084 0.544549 0.000000
0.712856 0.530175 0.000000
0.751217 0.516564 0.000000
0.787411 0.503502 0.000000
0.821469 0.491463 0.000000
0.854063 0.479896 0.000000
0.884916 0.468971 0.000000
0.913420 0.461219 0.000000
0.938323 0.459022 0.000000
0.962554 0.458381 0.000000
0.986328 0.459358 0.000000
1.000000 0.462287 0.000000
1.000000 0.466651 0.000000
1.000000 0.470375 0.000000
0.000000 0.550347 0.299382
0.000000 0.550347 0.298894
0.000000 0.550439 0.297948
0.000000 0.550439 0.295476
0.000000 0.550683 0.292607
0.000000 0.550958 0.279576
0.000000 0.550927 0.271275
0.000000 0.550896 0.265141
0.000000 0.550896 0.257847
0.000000 0.551171 0.249577
0.000000 0.551415 0.239597
0.000000 0.551354 0.227787
0.211917 0.555047 0.216159
0.308415 0.562066 0.204532
0.388952 0.568933 0.190585
0.463233 0.575189 0.172427
0.533227 0.581506 0.148409
0.600549 0.587518 0.114595
0.674861 0.603204 0.000000
0.716335 0.589746 0.000000
0.753811 0.575647 0.000000
0.789487 0.561883 0.000000
0.823087 0.549310 0.000000
0.855070 0.537438 0.000000
0.885466 0.526421 0.000000
0.914549 0.516167 0.000000
0.942443 0.507012 0.000000
0.967224 0.502831 0.000000
0.990204 0.502434 0.000000
1.000000 0.503899 0.000000
1.000000 0.507225 0.000000
1.000000 0.512047 0.000000
0.000000 0.600885 0.328985
0.000000 0.601099 0.328832
0.000000 0.622309 0.342901
0.000000 0.622431 0.341161
0.000000 0.622370 0.337987
0.000000 0.622370 0.326238
0.000000 0.622095 0.313878
0.000000 0.621302 0.307012
0.000000 0.620813 0.299535
0.000000 0.620233 0.290745
0.000000 0.619501 0.279942
0.000000 0.618402 0.267521
0.234775 0.616419 0.252903
0.327672 0.619898 0.241123
0.404700 0.624475 0.228641
0.474708 0.628595 0.213779
0.539788 0.632349 0.194858
0.601617 0.636011 0.171389
0.661128 0.639765 0.140261
0.726802 0.651637 0.077546
0.765408 0.639948 0.000000
0.798917 0.625147 0.000000
0.830808 0.611261 0.000000
0.861082 0.598199 0.000000
0.889708 0.585565 0.000000
0.917113 0.573938 0.000000
0.943420 0.563439 0.000000
0.968994 0.553979 0.000000
0.993957 0.546075 0.000000
1.000000 0.545708 0.000000
1.000000 0.547295 0.000000
1.000000 0.550622 0.000000
0.000000 0.652064 0.367529
0.000000 0.653895 0.368811
0.000000 0.655787 0.369848
0.000000 0.657282 0.369482
0.000000 0.658442 0.367773
0.000000 0.658961 0.359503
0.000000 0.659297 0.343847
0.000000 0.658381 0.337682
0.000000 0.657496 0.329778
0.000000 0.656550 0.321263
0.000000 0.655573 0.311406
0.000000 0.654383 0.299351
0.227298 0.652430 0.285557
0.318914 0.650385 0.270268
0.393988 0.654444 0.259861
0.461524 0.658350 0.248142
0.524926 0.662104 0.233738
0.585077 0.665705 0.216068
0.642969 0.669520 0.195407
0.698909 0.673518 0.168673
0.759915 0.684627 0.127962
0.798367 0.676478 0.083711
0.829679 0.662837 0.000000
0.859464 0.649531 0.000000
0.887633 0.636744 0.000000
0.914672 0.624903 0.000000
0.940551 0.613977 0.000000
0.965667 0.604150 0.000000
0.990204 0.595972 0.000000
1.000000 0.589075 0.000000
1.000000 0.585840 0.000000
1.000000 0.587671 0.000000
0.000000 0.688014 0.401038
0.000000 0.689601 0.402441
0.000000 0.691371 0.403662
0.000000 0.692836 0.403967
0.000000 0.693874 0.402991
0.000000 0.694331 0.397711
0.000000 0.694728 0.383124
0.000000 0.694057 0.373449
0.000000 0.693111 0.366491
0.000000 0.692073 0.357824
0.000000 0.690974 0.348150
0.090150 0.689662 0.337072
0.238560 0.687800 0.323583
0.322881 0.685573 0.308812
0.392493 0.685054 0.294896
0.456764 0.688472 0.285557
0.516869 0.691798 0.273716
0.573907 0.695125 0.260105
0.629206 0.698543 0.244541
0.682856 0.702113 0.225620
0.734646 0.705898 0.203342
0.791073 0.716152 0.172854
0.828397 0.710994 0.145113
0.857755 0.697871 0.105867
0.885374 0.685389 0.000000
0.911803 0.673518 0.000000
0.937224 0.662409 0.000000
0.961975 0.652430 0.000000
0.986175 0.643793 0.000000
1.000000 0.636500 0.000000
1.000000 0.630854 0.000000
1.000000 0.626276 0.000000
0.000000 0.721492 0.438819
0.000000 0.722835 0.440375
0.000000 0.724147 0.441505
0.000000 0.725307 0.441932
0.000000 0.726101 0.441169
0.000000 0.726314 0.438880
0.000000 0.726741 0.425391
0.000000 0.726589 0.413031
0.000000 0.725704 0.406439
0.000000 0.724697 0.397925
0.000000 0.723568 0.388830
0.171481 0.722286 0.378515
0.266117 0.720668 0.366064
0.336950 0.718624 0.352239
0.398993 0.716182 0.336217
0.457832 0.717372 0.325170
0.514611 0.720790 0.316411
0.569512 0.724331 0.306035
0.622522 0.728145 0.294896
0.674220 0.732235 0.282383
0.724483 0.736568 0.267826
0.773037 0.741024 0.250736
0.825132 0.750942 0.229252
0.861265 0.748562 0.209720
0.888609 0.736995 0.183108
0.914641 0.725826 0.149844
0.939513 0.715267 0.103304
0.963775 0.705562 0.000000
0.987427 0.697078 0.000000
1.000000 0.689754 0.000000
1.000000 0.683558 0.000000
1.000000 0.678676 0.000000
0.000000 0.759518 0.491310
0.000000 0.760006 0.492073
0.000000 0.760342 0.492256
0.000000 0.760433 0.491432
0.000000 0.760311 0.489937
0.000000 0.760006 0.487556
0.000000 0.759976 0.477150
0.000000 0.760220 0.462348
0.000000 0.759304 0.455604
0.000000 0.758541 0.448402
0.184146 0.757565 0.439582
0.257481 0.756435 0.429938
0.316991 0.755062 0.418402
0.371099 0.753231 0.404913
0.422431 0.751095 0.389868
0.471626 0.748592 0.373144
0.522698 0.750973 0.364874
0.572412 0.753811 0.357061
0.620905 0.756802 0.347753
0.668605 0.759945 0.337163
0.715267 0.763210 0.325292
0.760433 0.766629 0.312139
0.804013 0.770077 0.296818
0.851194 0.778622 0.277440
0.884977 0.777768 0.262730
0.910338 0.767178 0.237278
0.934844 0.757107 0.209812
0.958740 0.747799 0.177951
0.982086 0.739498 0.138369
1.000000 0.732143 0.061433
1.000000 0.725887 0.000000
1.000000 0.720546 0.000000
0.000000 0.786465 0.534691
0.000000 0.786831 0.535363
0.007233 0.787045 0.535668
0.093751 0.787198 0.535271
0.134707 0.787076 0.534173
0.170657 0.786801 0.532219
0.181277 0.786679 0.525750
0.156130 0.787045 0.511467
0.189273 0.786709 0.503075
0.236027 0.785977 0.496284
0.279667 0.785214 0.488106
0.322393 0.784298 0.479011
0.363989 0.783169 0.468269
0.405798 0.781735 0.456306
0.447272 0.780148 0.442634
0.489204 0.778164 0.427008
0.532372 0.776974 0.412512
0.577630 0.779660 0.406409
0.622522 0.782437 0.399145
0.666529 0.785306 0.391028
0.709773 0.788357 0.382544
0.752102 0.791409 0.372320
0.793301 0.794583 0.360815
0.832853 0.797818 0.347692
0.871489 0.801266 0.323278
0.904814 0.803189 0.311498
0.928862 0.793851 0.287999
0.952239 0.785153 0.263798
0.975189 0.777127 0.237217
0.997711 0.770138 0.207828
1.000000 0.764034 0.173831
1.000000 0.758907 0.128664
0.286412 0.814633 0.586694
0.290501 0.815122 0.587793
0.295262 0.815305 0.588128
0.300969 0.815122 0.587335
0.308721 0.814633 0.585626
0.319249 0.813901 0.583490
0.326604 0.813230 0.578332
0.314794 0.813046 0.565637
0.314305 0.812528 0.554040
0.334386 0.811490 0.546746
0.357031 0.810300 0.538048
0.383185 0.809171 0.528649
0.411749 0.807858 0.518181
0.441993 0.806332 0.506065
0.474037 0.804532 0.492653
0.507774 0.802487 0.477485
0.542901 0.800259 0.460883
0.581476 0.800229 0.449104
0.622431 0.802670 0.443305
0.663050 0.805447 0.437476
0.703456 0.808347 0.430976
0.743038 0.811276 0.423224
0.781552 0.814023 0.414008
0.818662 0.816678 0.403082
0.854398 0.819181 0.390265
0.891142 0.823789 0.374701
0.923766 0.827939 0.364996
0.946258 0.819516 0.342168
0.968475 0.811734 0.318914
0.990417 0.804868 0.295293
1.000000 0.798917 0.270665
1.000000 0.793942 0.244785
0.373877 0.835111 0.625849
0.376471 0.835569 0.626764
0.379889 0.835782 0.627039
0.384039 0.835813 0.626825
0.390234 0.835569 0.625940
0.398627 0.835264 0.624811
0.409216 0.834897 0.623041
0.402838 0.835172 0.613184
0.396918 0.835508 0.601495
0.411597 0.834989 0.596155
0.427893 0.834348 0.589532
0.446815 0.833585 0.582238
0.467506 0.832670 0.573419
0.490089 0.831449 0.562890
0.514366 0.830014 0.550652
0.540490 0.828336 0.537224
0.568902 0.826444 0.521996
0.599207 0.824552 0.505241
0.634150 0.825803 0.497841
0.670314 0.828153 0.493233
0.706722 0.830716 0.488106
0.742733 0.833310 0.482582
0.777981 0.835935 0.475837
0.812436 0.838499 0.467475
0.845792 0.840970 0.457710
0.878080 0.843381 0.446479
0.910552 0.846830 0.433539
0.941558 0.851774 0.426062
0.963653 0.845884 0.406928
0.984833 0.839567 0.386450
1.000000 0.833921 0.366308
1.000000 0.828977 0.345464
0.451881 0.856779 0.668208
0.453223 0.856962 0.668666
0.455055 0.857053 0.668757
0.458015 0.856931 0.668513
0.462074 0.856748 0.667689
0.467994 0.856413 0.666529
0.475593 0.856046 0.664942
0.474250 0.856077 0.658320
0.468330 0.856382 0.648096
0.474525 0.856138 0.641596
0.486458 0.855558 0.636042
0.500237 0.854978 0.629450
0.515953 0.854215 0.622095
0.533379 0.853300 0.613458
0.552575 0.852110 0.603449
0.573358 0.850736 0.591760
0.596307 0.849210 0.578973
0.621210 0.847715 0.564416
0.648463 0.846372 0.550042
0.680385 0.848508 0.546258
0.712734 0.850767 0.542596
0.744900 0.853117 0.538201
0.776699 0.855406 0.533043
0.807950 0.857694 0.526787
0.838468 0.859892 0.519097
0.868315 0.862028 0.509819
0.897581 0.864164 0.499123
0.926268 0.866575 0.487190
0.955474 0.871794 0.481117
0.977081 0.868193 0.466651
0.997498 0.862943 0.448249
1.000000 0.858396 0.430762
0.513085 0.875792 0.705165
0.513970 0.875914 0.705501
0.515312 0.876036 0.705562
0.517998 0.876036 0.705531
0.521965 0.876036 0.705379
0.527642 0.876036 0.705074
0.535302 0.876249 0.705135
0.539117 0.876799 0.702480
0.537133 0.877836 0.695827
0.540368 0.878660 0.690333
0.551659 0.879026 0.687770
0.564172 0.879301 0.684413
0.577935 0.879423 0.680293
0.592309 0.879240 0.674678
0.607782 0.878843 0.667750
0.624140 0.878019 0.659174
0.641993 0.877012 0.649226
0.661616 0.875914 0.638148
0.683131 0.874876 0.626093
0.707485 0.874815 0.616876
0.734707 0.876768 0.614527
0.762020 0.878782 0.611780
0.789151 0.880766 0.608118
0.816068 0.882719 0.603906
0.842588 0.884611 0.598444
0.868833 0.886442 0.591943
0.894682 0.888273 0.584375
0.920195 0.890135 0.575647
0.945434 0.891997 0.565240
0.971557 0.896544 0.559991
0.991760 0.894530 0.550591
1.000000 0.890410 0.536248
0.585168 0.898528 0.750759
0.585443 0.898528 0.750851
0.585992 0.898497 0.750607
0.587579 0.898375 0.750271
0.590021 0.898192 0.749905
0.593591 0.898009 0.749294
0.598383 0.897856 0.748653
0.602319 0.897826 0.746792
0.599390 0.898283 0.740627
0.596979 0.898833 0.733577
0.604120 0.898680 0.730373
0.612299 0.898558 0.726680
0.621851 0.898344 0.722347
0.632441 0.898009 0.717098
