20 Preset/Japan Style/【3】LUT video cho PR-AE-FCPX/LUT VIDEO (2)/Japan Style LUT (7).cube
# Created by Adobe Lightroom plugin Export LUT (1.24.0)
# www.johnrellis.com/lightroom/exportlut.htm
# Preset: 07日系雪景（素材江湖）
# Color profile: C:\Program Files (x86)\Common Files\Adobe\Color\Profiles\Recommended\VideoHD.icc
LUT_3D_SIZE 5
DOMAIN_MIN 0.000000 0.000000 0.000000
DOMAIN_MAX 0.903226 0.903226 0.903226
0.108064 0.094575 0.063081
0.249973 0.106355 0.038758
0.513329 0.172457 0.000000
0.820157 0.293462 0.000000
1.000000 0.373388 0.000000
0.106233 0.211032 0.003754
0.242344 0.217624 0.000000
0.527733 0.285313 0.000000
0.831540 0.380285 0.000000
1.000000 0.428565 0.000000
0.000000 0.434485 0.000000
0.221683 0.437873 0.000000
0.465126 0.452247 0.000000
0.767666 0.537591 0.000000
1.000000 0.579858 0.000000
0.000000 0.687434 0.000000
0.000000 0.688380 0.000000
0.423896 0.692042 0.000000
0.679438 0.698116 0.000000
0.914855 0.719417 0.000000
0.000000 0.872374 0.000000
0.000000 0.871641 0.000000
0.311437 0.868772 0.000000
0.606775 0.863706 0.000000
0.831296 0.854704 0.000000
0.139986 0.092439 0.213657
0.267430 0.094118 0.204349
0.488441 0.119509 0.162203
0.795010 0.232303 0.000000
1.000000 0.347173 0.000000
0.123934 0.220432 0.202090
0.250736 0.218967 0.193637
0.501946 0.245151 0.160098
0.807431 0.326513 0.000000
1.000000 0.402167 0.000000
0.000000 0.439734 0.149050
0.174136 0.443397 0.121492
0.468147 0.455604 0.000000
0.782315 0.534508 0.000000
1.000000 0.570336 0.000000
0.000000 0.689845 0.000000
0.000000 0.690639 0.000000
0.408026 0.693690 0.000000
0.679744 0.698665 0.000000
0.920684 0.717739 0.000000
0.000000 0.872862 0.000000
0.000000 0.872129 0.000000
0.282689 0.869139 0.000000
0.600031 0.863859 0.000000
0.831296 0.854551 0.000000
0.000000 0.060700 0.602533
0.212558 0.049531 0.595819
0.494697 0.025269 0.569635
0.745541 0.109438 0.506432
0.956847 0.241978 0.409277
0.000000 0.208072 0.594110
0.157321 0.207401 0.588800
0.482582 0.209384 0.563195
0.739254 0.239017 0.502007
0.952148 0.322332 0.412879
0.000000 0.449409 0.570062
0.000000 0.447700 0.564569
0.428351 0.443824 0.538598
0.711818 0.470436 0.487343
0.960204 0.538933 0.453773
0.000000 0.688167 0.519799
0.000000 0.689448 0.510857
0.326970 0.692622 0.471046
0.667292 0.696162 0.410254
0.927855 0.718837 0.364508
0.000000 0.872221 0.340185
0.000000 0.871427 0.332464
0.124575 0.868650 0.285618
0.574792 0.863066 0.146700
0.830777 0.853239 0.000000
0.000000 0.087984 0.859037
0.000000 0.088594 0.856718
0.410254 0.093782 0.847562
0.676661 0.130800 0.829679
0.920226 0.228672 0.791958
0.000000 0.206210 0.854337
0.000000 0.206882 0.852354
0.398718 0.212070 0.843931
0.670863 0.236515 0.826505
0.914244 0.301396 0.787045
0.000000 0.409888 0.837461
0.000000 0.407385 0.833524
0.345068 0.413489 0.824826
0.639765 0.429603 0.802548
0.891936 0.485786 0.766140
0.000000 0.644495 0.815610
0.000000 0.645747 0.813870
0.243442 0.653315 0.805753
0.621698 0.673915 0.784451
0.854582 0.703975 0.745113
0.000000 0.865415 0.746853
0.000000 0.865049 0.740627
0.000000 0.862699 0.714992
0.580438 0.851926 0.708248
0.812528 0.847074 0.643000
0.000000 0.149874 0.948272
0.000000 0.152926 0.947143
0.328435 0.170748 0.944030
0.563928 0.208286 0.936767
0.781155 0.277531 0.925689
0.000000 0.212467 0.944549
0.000000 0.214755 0.943664
0.319615 0.226780 0.940429
0.558618 0.255009 0.933104
0.777981 0.314733 0.922698
0.000000 0.362097 0.938140
0.000000 0.362463 0.936706
0.281559 0.370733 0.932769
0.543664 0.390631 0.925078
0.775326 0.449226 0.916808
0.000000 0.550439 0.927428
0.000000 0.550652 0.926299
0.195743 0.562432 0.923247
0.547875 0.599695 0.917327
0.781949 0.651301 0.906737
0.000000 0.758968 0.910857
0.000000 0.760861 0.909819
0.000000 0.773068 0.906676
0.528496 0.796994 0.898070
0.787228 0.825162 0.882322
