20 Preset/Japan Style/【3】LUT video cho PR-AE-FCPX/LUT VIDEO (2)/Japan Style LUT (33).cube
# Created by Adobe Lightroom plugin Export LUT (1.24.0)
# www.johnrellis.com/lightroom/exportlut.htm
# Preset: 33日系胶片（素材江湖）
# Color profile: C:\Program Files (x86)\Common Files\Adobe\Color\Profiles\Recommended\VideoHD.icc
LUT_3D_SIZE 32
DOMAIN_MIN 0.0 0.0 0.0
DOMAIN_MAX 1.0 1.0 1.0
0.000000 0.011994 0.014374
0.000000 0.013184 0.015381
0.000000 0.015595 0.017334
0.000000 0.021241 0.020935
0.043793 0.027741 0.026978
0.119722 0.028168 0.035218
0.187472 0.008728 0.041749
0.270237 0.000000 0.045716
0.363287 0.000000 0.046845
0.462745 0.000000 0.045441
0.566735 0.000000 0.037446
0.670619 0.000000 0.025757
0.768063 0.000000 0.010590
0.852384 0.000000 0.000000
0.923552 0.000000 0.000000
0.981781 0.000000 0.000000
1.000000 0.000000 0.000000
1.000000 0.000000 0.003906
1.000000 0.000000 0.043641
1.000000 0.000000 0.092409
1.000000 0.000000 0.119326
1.000000 0.000000 0.150240
1.000000 0.090822 0.180148
1.000000 0.195468 0.208621
1.000000 0.252445 0.236179
1.000000 0.296330 0.263371
1.000000 0.332738 0.290501
1.000000 0.365087 0.317662
1.000000 0.394720 0.344915
1.000000 0.422827 0.372625
1.000000 0.449287 0.400732
1.000000 0.474983 0.428931
0.000000 0.015595 0.018463
0.000000 0.014374 0.017487
0.000000 0.019196 0.018036
0.000000 0.024842 0.021607
0.041382 0.031342 0.027649
0.117403 0.033661 0.035767
0.184360 0.015778 0.041230
0.265263 0.000000 0.045380
0.357824 0.000000 0.047791
0.456336 0.000000 0.045533
0.559167 0.000000 0.037629
0.662745 0.000000 0.025452
0.760525 0.000000 0.010224
0.845701 0.000000 0.000000
0.917540 0.000000 0.000000
0.976989 0.000000 0.000000
1.000000 0.000000 0.000000
1.000000 0.000000 0.000366
1.000000 0.000000 0.037629
1.000000 0.000000 0.089815
1.000000 0.000000 0.116640
1.000000 0.000000 0.147555
1.000000 0.066102 0.176059
1.000000 0.188785 0.204196
1.000000 0.246647 0.231449
1.000000 0.290196 0.258274
1.000000 0.327001 0.285527
1.000000 0.359869 0.312596
1.000000 0.389960 0.340154
1.000000 0.418250 0.368078
1.000000 0.445289 0.396094
1.000000 0.471168 0.424689
0.000000 0.028779 0.032715
0.000000 0.029969 0.032563
0.000000 0.026368 0.030732
0.000000 0.039246 0.026612
0.028901 0.049378 0.032227
0.111910 0.055970 0.038788
0.179324 0.042054 0.044007
0.259983 0.000000 0.046815
0.351202 0.000000 0.048371
0.449256 0.000000 0.045319
0.551904 0.000000 0.036927
0.655818 0.000000 0.023438
0.753780 0.000000 0.006897
0.839322 0.000000 0.000000
0.912016 0.000000 0.000000
0.972015 0.000000 0.000000
1.000000 0.000000 0.000000
1.000000 0.000000 0.000000
1.000000 0.000000 0.029786
1.000000 0.000000 0.085847
1.000000 0.000000 0.115419
1.000000 0.000000 0.146395
1.000000 0.116396 0.175387
1.000000 0.201694 0.202914
1.000000 0.254643 0.230533
1.000000 0.295079 0.257023
1.000000 0.331029 0.284123
1.000000 0.362951 0.311192
1.000000 0.392187 0.338689
1.000000 0.420081 0.366552
1.000000 0.446357 0.394751
1.000000 0.472084 0.423407
0.000000 0.058106 0.058442
0.000000 0.058106 0.059571
0.000000 0.055482 0.057618
0.000000 0.049012 0.056062
0.000000 0.075685 0.049531
0.103548 0.088808 0.045197
0.171817 0.088319 0.048005
0.251652 0.060395 0.049165
0.342779 0.000000 0.047852
0.440772 0.000000 0.042756
0.543877 0.000000 0.032807
0.646662 0.000000 0.017762
0.745480 0.000000 0.000000
0.831327 0.000000 0.000000
0.904356 0.000000 0.000000
0.964843 0.000000 0.000000
1.000000 0.000000 0.000000
1.000000 0.000000 0.000000
1.000000 0.000000 0.017731
1.000000 0.000000 0.079530
1.000000 0.000000 0.113100
1.000000 0.000000 0.144411
1.000000 0.164004 0.173159
1.000000 0.225895 0.201358
1.000000 0.271458 0.228916
1.000000 0.309453 0.256748
1.000000 0.343114 0.284398
1.000000 0.373205 0.312230
1.000000 0.401129 0.339757
1.000000 0.427863 0.368170
1.000000 0.453071 0.395880
1.000000 0.477241 0.423926
0.000000 0.096407 0.091859
0.000000 0.096254 0.092256
0.000000 0.094789 0.092012
0.000000 0.091035 0.088624
0.000000 0.085603 0.088685
0.053193 0.102937 0.081239
0.155062 0.116548 0.054749
0.236545 0.116732 0.051209
0.327337 0.104189 0.046479
0.425055 0.039490 0.037598
0.527581 0.000000 0.023560
0.631434 0.000000 0.005554
0.730739 0.000000 0.000000
0.818692 0.000000 0.000000
0.893248 0.000000 0.000000
0.954986 0.000000 0.000000
1.000000 0.000000 0.000000
1.000000 0.000000 0.000000
1.000000 0.000000 0.001587
1.000000 0.000000 0.070710
1.000000 0.024872 0.113619
1.000000 0.167208 0.145602
1.000000 0.223697 0.174594
1.000000 0.265812 0.203647
1.000000 0.301823 0.231540
1.000000 0.334234 0.259556
1.000000 0.363378 0.287480
1.000000 0.390448 0.315160
1.000000 0.415961 0.342901
1.000000 0.440284 0.370550
1.000000 0.463569 0.398474
1.000000 0.486336 0.425910
0.000000 0.128206 0.115969
0.000000 0.128328 0.116548
0.000000 0.127352 0.117494
0.000000 0.122255 0.114839
0.000000 0.116060 0.107301
0.000000 0.109224 0.110048
0.102144 0.133822 0.104921
0.204105 0.153048 0.080232
0.310277 0.159701 0.042298
0.409400 0.154604 0.027649
0.512688 0.137819 0.007477
0.617243 0.105257 0.000000
0.717739 0.000000 0.000000
0.806729 0.000000 0.000000
0.882475 0.000000 0.000000
0.945892 0.000000 0.000000
0.997681 0.000000 0.000000
1.000000 0.000000 0.000000
1.000000 0.109560 0.000000
1.000000 0.164736 0.064698
1.000000 0.213901 0.116915
1.000000 0.252934 0.150393
1.000000 0.319951 0.206394
1.000000 0.348516 0.236423
1.000000 0.373785 0.265171
1.000000 0.397314 0.292515
1.000000 0.419379 0.319738
1.000000 0.440345 0.346044
1.000000 0.460761 0.372808
1.000000 0.480690 0.399145
1.000000 0.499947 0.425116
1.000000 0.518639 0.450416
0.000000 0.176547 0.152529
0.000000 0.176791 0.153079
0.000000 0.176913 0.155581
0.000000 0.171420 0.152712
0.000000 0.162264 0.148531
0.000000 0.154299 0.135744
0.046784 0.145571 0.143435
0.151064 0.178592 0.139803
0.271458 0.207553 0.109773
0.399786 0.224399 0.037201
0.511559 0.229709 0.000000
0.618555 0.230106 0.000000
0.719753 0.227543 0.000000
0.807828 0.224094 0.000000
0.882475 0.222202 0.000000
0.944182 0.224765 0.000000
0.994934 0.232853 0.000000
1.000000 0.246708 0.000000
1.000000 0.265019 0.000000
1.000000 0.288243 0.089204
1.000000 0.314458 0.134951
1.000000 0.339269 0.172030
1.000000 0.363348 0.205509
1.000000 0.386358 0.237552
1.000000 0.407599 0.268070
1.000000 0.427588 0.296574
1.000000 0.445624 0.323461
1.000000 0.463355 0.350225
1.000000 0.480903 0.376104
1.000000 0.498054 0.401953
1.000000 0.515068 0.427558
1.000000 0.532036 0.452888
0.000000 0.229160 0.193149
0.000000 0.229374 0.193973
0.000000 0.229282 0.196201
0.000000 0.225589 0.195651
0.000000 0.216587 0.190738
0.000000 0.204685 0.183413
0.034607 0.197299 0.171847
0.114839 0.187259 0.182406
0.198459 0.226841 0.184512
0.330938 0.266667 0.149722
0.467720 0.293278 0.099214
0.595300 0.309422 0.000000
0.695430 0.318334 0.000000
0.785611 0.323186 0.000000
0.862303 0.326268 0.000000
0.925994 0.329595 0.000000
0.978515 0.334997 0.000000
1.000000 0.342260 0.000000
1.000000 0.353185 0.000000
1.000000 0.368444 0.098817
1.000000 0.383856 0.143343
1.000000 0.399359 0.180392
1.000000 0.415442 0.214328
1.000000 0.431708 0.245945
1.000000 0.447669 0.276036
1.000000 0.462837 0.304265
1.000000 0.477241 0.330968
1.000000 0.491493 0.357458
1.000000 0.505974 0.383124
1.000000 0.520592 0.408667
1.000000 0.535210 0.433845
1.000000 0.550225 0.458808
0.000000 0.290929 0.243565
0.000000 0.291203 0.244327
0.000000 0.291203 0.246342
0.000000 0.289647 0.248997
0.000000 0.280919 0.243534
0.000000 0.268650 0.237339
0.000000 0.257511 0.224247
0.125246 0.249058 0.217655
0.169100 0.238773 0.231601
0.251621 0.283726 0.241001
0.394171 0.333715 0.203342
0.535882 0.367987 0.154421
0.669947 0.391852 0.034607
0.765713 0.402655 0.000000
0.841733 0.409339 0.000000
0.907347 0.413489 0.000000
0.961547 0.417517 0.000000
1.000000 0.423041 0.000000
1.000000 0.431495 0.022217
1.000000 0.440040 0.117281
1.000000 0.448859 0.159976
1.000000 0.458503 0.195712
1.000000 0.468757 0.228244
1.000000 0.479652 0.259129
1.000000 0.490883 0.288945
1.000000 0.501793 0.316258
1.000000 0.512627 0.342779
1.000000 0.523735 0.368322
1.000000 0.535302 0.393683
1.000000 0.547051 0.418524
1.000000 0.559350 0.443183
1.000000 0.571862 0.467475
0.000000 0.360296 0.302983
0.000000 0.360143 0.303532
0.000000 0.359930 0.305241
0.000000 0.359869 0.309758
0.000000 0.352514 0.305486
0.000000 0.340948 0.298863
0.000000 0.326238 0.291783
0.095155 0.317113 0.272618
0.186831 0.307897 0.272496
0.227420 0.297734 0.289586
0.307530 0.345556 0.307591
0.455390 0.402564 0.269505
0.598566 0.441901 0.223117
0.723659 0.466926 0.162478
0.822446 0.479866 0.049042
0.888060 0.484962 0.000000
0.944274 0.490486 0.000000
0.991943 0.496407 0.000000
1.000000 0.501213 0.100587
1.000000 0.505821 0.147738
1.000000 0.510155 0.184024
1.000000 0.514702 0.216342
1.000000 0.520012 0.246555
1.000000 0.526116 0.275029
1.000000 0.532769 0.302525
1.000000 0.539910 0.329046
1.000000 0.547601 0.354528
1.000000 0.555749 0.379553
1.000000 0.564813 0.404761
1.000000 0.574395 0.429297
1.000000 0.584558 0.453468
1.000000 0.595300 0.477699
0.000000 0.430518 0.365515
0.000000 0.430610 0.365850
0.000000 0.430671 0.367895
0.000000 0.430426 0.371832
0.000000 0.426154 0.371588
0.000000 0.416602 0.365637
0.000000 0.403540 0.358740
0.004089 0.387884 0.351781
0.168978 0.382330 0.328435
0.252567 0.373358 0.335973
0.291356 0.363439 0.355505
0.367132 0.411749 0.381994
0.517662 0.473121 0.345006
0.656245 0.513451 0.302159
0.771878 0.537987 0.255070
0.865995 0.552483 0.199100
0.929290 0.558221 0.165438
0.975402 0.561181 0.150423
1.000000 0.563104 0.146975
1.000000 0.564691 0.182132
1.000000 0.565789 0.213657
1.000000 0.567193 0.242557
1.000000 0.569696 0.270420
1.000000 0.572442 0.297032
1.000000 0.576013 0.323064
1.000000 0.580407 0.348211
1.000000 0.585290 0.372656
1.000000 0.590936 0.396796
1.000000 0.597406 0.420691
1.000000 0.604639 0.444434
1.000000 0.612696 0.468086
1.000000 0.621210 0.491188
0.000000 0.504540 0.432685
0.000000 0.504540 0.433173
0.000000 0.504387 0.434668
0.000000 0.504540 0.438361
0.000000 0.502770 0.441810
0.000000 0.494392 0.436347
0.000000 0.483528 0.430091
0.000000 0.469398 0.423285
0.167300 0.457008 0.410559
0.240818 0.452064 0.390631
0.323735 0.442817 0.404913
0.361517 0.434668 0.426703
0.457771 0.505241 0.484565
0.611566 0.570703 0.453193
0.737667 0.607935 0.418585
0.837919 0.628321 0.380316
0.914855 0.638087 0.338109
0.971496 0.640436 0.294011
1.000000 0.638880 0.283543
1.000000 0.636011 0.271366
1.000000 0.633478 0.278264
1.000000 0.631952 0.301671
1.000000 0.630854 0.324804
1.000000 0.630640 0.347265
1.000000 0.631067 0.369451
1.000000 0.631952 0.391028
1.000000 0.633417 0.411963
1.000000 0.635767 0.432563
1.000000 0.639002 0.453346
1.000000 0.643061 0.474067
1.000000 0.648066 0.494911
1.000000 0.653895 0.515801
0.000000 0.587976 0.509972
0.000000 0.587823 0.510124
0.000000 0.587182 0.511070
0.000000 0.586297 0.513634
0.000000 0.585016 0.517906
0.000000 0.577874 0.513756
0.000000 0.567834 0.507439
0.000000 0.555413 0.500694
0.183658 0.542046 0.495460
0.266423 0.536217 0.480781
0.331182 0.535271 0.468696
0.417365 0.530755 0.492958
0.457984 0.527459 0.519310
0.524834 0.572381 0.561120
0.664271 0.631739 0.533989
0.775296 0.663966 0.503471
0.861357 0.680446 0.469825
0.927337 0.686854 0.431586
0.977569 0.686824 0.388464
1.000000 0.683009 0.362463
1.000000 0.678157 0.349767
1.000000 0.672969 0.336431
1.000000 0.670253 0.352667
1.000000 0.668482 0.373144
1.000000 0.667262 0.393408
1.000000 0.666712 0.413092
1.000000 0.666804 0.433112
1.000000 0.667597 0.452491
1.000000 0.669306 0.472450
1.000000 0.671901 0.492195
1.000000 0.675410 0.512383
1.000000 0.679591 0.532158
0.000000 0.653040 0.572442
0.000000 0.652766 0.572351
0.000000 0.652277 0.573480
0.000000 0.651270 0.575433
0.000000 0.650050 0.579156
0.000000 0.646235 0.579400
0.000000 0.638880 0.574914
0.136446 0.629816 0.569848
0.230076 0.619074 0.565240
0.297032 0.606500 0.561334
0.359960 0.605127 0.544335
0.424170 0.603662 0.540734
0.498268 0.599207 0.563897
0.534020 0.595850 0.587854
0.585962 0.630365 0.627955
0.707637 0.681941 0.604211
0.802762 0.708919 0.577050
0.876097 0.722011 0.547173
0.932921 0.726467 0.512993
0.977356 0.725216 0.474617
1.000000 0.720027 0.433478
1.000000 0.714595 0.420478
1.000000 0.709010 0.406470
1.000000 0.704341 0.404120
1.000000 0.702052 0.422278
1.000000 0.700374 0.440223
1.000000 0.699214 0.458106
1.000000 0.698787 0.476326
1.000000 0.699153 0.494667
1.000000 0.700526 0.513573
1.000000 0.702510 0.532189
1.000000 0.705226 0.550896
0.000000 0.710536 0.630854
0.000000 0.710292 0.630976
0.000000 0.709621 0.631495
0.000000 0.708248 0.632898
0.000000 0.706294 0.635401
0.143038 0.703487 0.637995
0.202426 0.697292 0.633845
0.254765 0.689906 0.629633
0.304021 0.681086 0.625269
0.352209 0.671107 0.621637
0.401129 0.662409 0.615808
0.452247 0.662226 0.602228
0.511528 0.660212 0.605219
0.571191 0.656001 0.625330
0.600366 0.652338 0.645258
0.639185 0.678065 0.682246
0.743740 0.722103 0.661219
0.824247 0.744503 0.637537
0.886961 0.755215 0.611322
0.935790 0.758602 0.581842
0.975372 0.757198 0.548943
1.000000 0.752407 0.511467
1.000000 0.746273 0.484810
1.000000 0.740322 0.469825
1.000000 0.733913 0.453986
1.000000 0.731472 0.470039
1.000000 0.729610 0.486366
1.000000 0.728450 0.503136
1.000000 0.727962 0.520317
1.000000 0.728298 0.537835
1.000000 0.729305 0.555383
1.000000 0.730953 0.573053
0.000000 0.754086 0.678614
0.000000 0.754055 0.678920
0.000000 0.753567 0.679622
0.000000 0.752590 0.680995
0.204166 0.751156 0.683436
0.295354 0.749325 0.687129
0.329778 0.745357 0.685603
0.357305 0.739986 0.682582
0.388586 0.733639 0.679530
0.421241 0.726009 0.676509
0.455360 0.716762 0.673487
0.493874 0.711330 0.664454
0.533898 0.710201 0.653925
0.586206 0.706477 0.659541
0.632441 0.701350 0.675257
0.655390 0.697108 0.691249
0.683406 0.715663 0.724910
0.772274 0.752895 0.706386
0.840818 0.771817 0.685725
0.894591 0.780941 0.663233
0.937652 0.784146 0.638697
0.973327 0.783291 0.611139
1.000000 0.779568 0.579950
1.000000 0.773220 0.542687
1.000000 0.767483 0.527794
1.000000 0.761135 0.510552
1.000000 0.757900 0.517998
1.000000 0.755978 0.532799
1.000000 0.754696 0.548058
1.000000 0.753902 0.563317
1.000000 0.753750 0.579004
1.000000 0.754116 0.594598
0.226963 0.788113 0.718593
0.233494 0.787930 0.718715
0.251530 0.787533 0.719265
0.286412 0.786801 0.720516
0.332128 0.785550 0.722591
0.384070 0.784024 0.725582
0.420356 0.781369 0.726528
0.438300 0.777188 0.724086
0.458808 0.772152 0.721462
0.481910 0.766232 0.718746
0.507347 0.759091 0.716121
0.534356 0.750790 0.713680
0.567437 0.748348 0.703365
0.599817 0.746853 0.695399
0.646845 0.742733 0.703304
0.684169 0.738064 0.716609
0.702815 0.734279 0.729946
0.723995 0.747799 0.759060
0.797391 0.778561 0.744594
0.855528 0.794461 0.726741
0.901915 0.802457 0.708095
0.940093 0.805386 0.687404
0.972015 0.805020 0.664393
0.999908 0.801999 0.637598
1.000000 0.796689 0.606073
1.000000 0.790372 0.579461
1.000000 0.784268 0.562097
1.000000 0.780423 0.562982
1.000000 0.778622 0.576349
1.000000 0.777249 0.590082
1.000000 0.776364 0.603937
1.000000 0.775845 0.617823
0.368261 0.815427 0.753292
0.370581 0.815488 0.753536
0.420966 0.823850 0.765957
0.437812 0.823209 0.766934
0.463142 0.822049 0.768521
0.495186 0.820554 0.770779
0.528557 0.818601 0.773068
0.539147 0.815427 0.770993
0.552209 0.811704 0.768917
0.567407 0.807248 0.766690
0.584344 0.801999 0.764431
0.602869 0.795743 0.762081
0.623041 0.788968 0.758511
0.648798 0.787411 0.748623
0.673274 0.785275 0.742458
0.712093 0.780636 0.750515
0.739834 0.775967 0.760433
0.753567 0.772122 0.770504
0.769253 0.781125 0.792416
0.825010 0.804074 0.782376
0.872801 0.816770 0.767178
0.911772 0.823239 0.751400
0.944366 0.825650 0.733791
0.972442 0.825193 0.713985
0.997436 0.822293 0.690394
1.000000 0.817380 0.662348
1.000000 0.810513 0.628199
1.000000 0.804227 0.608576
1.000000 0.799954 0.605371
1.000000 0.798093 0.617060
1.000000 0.796597 0.629023
1.000000 0.795468 0.641199
0.474006 0.838285 0.785153
0.478584 0.838895 0.786191
0.488289 0.839231 0.787625
0.503777 0.839200 0.789334
0.524315 0.838712 0.791287
0.549432 0.837583 0.793393
0.579278 0.836027 0.795956
0.591913 0.833646 0.795193
0.601190 0.830686 0.793362
0.612451 0.827176 0.791470
0.625116 0.823178 0.789548
0.639277 0.818387 0.787564
0.654322 0.812619 0.785336
0.672694 0.808255 0.780087
0.694240 0.806790 0.772457
0.715236 0.804776 0.768307
0.749569 0.800534 0.776944
0.772488 0.796933 0.785733
0.784298 0.794095 0.794705
0.797726 0.801236 0.812985
0.842679 0.819913 0.806729
0.883940 0.831266 0.794461
0.918059 0.837308 0.781308
0.946960 0.839719 0.766476
0.972168 0.839506 0.749325
0.994873 0.837247 0.729122
1.000000 0.833066 0.704799
1.000000 0.827054 0.675013
1.000000 0.820157 0.646143
1.000000 0.816037 0.642054
1.000000 0.814267 0.652613
1.000000 0.812772 0.663325
0.543236 0.852842 0.807126
0.547234 0.853269 0.808042
0.554955 0.853605 0.809293
0.566430 0.853605 0.810758
0.582635 0.853178 0.812436
0.602625 0.852232 0.814267
0.625635 0.850858 0.816312
0.642481 0.849058 0.816983
0.649439 0.846769 0.815579
0.657435 0.844053 0.813993
0.666957 0.840909 0.812406
0.677668 0.837247 0.810727
0.689143 0.832853 0.808865
0.701625 0.827756 0.807034
0.718441 0.825376 0.800992
0.736202 0.823972 0.795132
0.756435 0.821897 0.793881
0.783993 0.818387 0.801266
0.802518 0.815488 0.808804
0.812284 0.813260 0.816434
0.823362 0.818753 0.831327
0.858885 0.833738 0.827695
0.894530 0.843961 0.817533
0.924315 0.849546 0.806485
0.949859 0.851987 0.793912
0.972503 0.852049 0.779202
0.993225 0.850187 0.761776
1.000000 0.846677 0.740780
1.000000 0.841459 0.714748
1.000000 0.834257 0.681300
1.000000 0.830259 0.675868
1.000000 0.828519 0.685298
0.603845 0.865110 0.826474
0.607050 0.865415 0.827237
0.612696 0.865660 0.828214
0.622034 0.865537 0.829374
0.634424 0.865171 0.830716
0.649866 0.864347 0.832181
0.668299 0.863188 0.833890
0.687465 0.861753 0.835599
0.692653 0.860014 0.834501
0.698817 0.857877 0.833310
0.705959 0.855406 0.831968
0.714107 0.852537 0.830625
0.722957 0.849180 0.829191
0.732540 0.845304 0.827634
0.743130 0.840879 0.825986
0.758358 0.839994 0.820005
0.773434 0.838895 0.815915
0.792752 0.837064 0.816922
0.815244 0.834623 0.823606
0.830777 0.832700 0.830411
0.839414 0.831357 0.837247
0.848875 0.835874 0.849638
0.876555 0.847959 0.848020
0.906859 0.857206 0.839811
0.932464 0.862455 0.830869
0.954681 0.865019 0.820645
0.974609 0.865415 0.808621
0.993103 0.864042 0.794217
1.000000 0.861082 0.776608
1.000000 0.856382 0.754025
1.000000 0.849577 0.723842
1.000000 0.845060 0.712734
0.668391 0.877714 0.847013
0.669764 0.877806 0.847318
0.672938 0.877745 0.847715
0.678614 0.877440 0.848264
0.687312 0.876890 0.849027
0.698390 0.876066 0.850004
0.712459 0.875029 0.851286
0.728939 0.873869 0.852934
0.736049 0.872435 0.852659
0.740719 0.870817 0.851804
0.746181 0.868925 0.850858
0.752255 0.866697 0.849790
0.758968 0.864134 0.848631
0.766262 0.861143 0.847410
0.774044 0.857694 0.846128
0.783719 0.854887 0.843534
0.795956 0.854002 0.838926
0.807980 0.852995 0.835874
0.825040 0.851194 0.837919
0.842618 0.849058 0.843290
0.854765 0.847288 0.848661
0.861540 0.845975 0.854154
0.868681 0.849149 0.863828
0.889891 0.858732 0.863066
0.915831 0.867002 0.855711
0.938231 0.872007 0.847898
0.958038 0.874601 0.839078
0.976013 0.875303 0.828855
0.992859 0.874327 0.816556
1.000000 0.871733 0.801175
1.000000 0.867338 0.780911
1.000000 0.860746 0.752834
0.711543 0.886656 0.861295
0.712642 0.886717 0.861509
0.715297 0.886656 0.861845
0.719783 0.886442 0.862333
0.726589 0.885954 0.863005
0.735439 0.885344 0.863828
0.746609 0.884489 0.864927
0.759854 0.883513 0.866331
0.769680 0.882414 0.867002
0.773220 0.881132 0.866300
0.777371 0.879606 0.865537
0.782101 0.877867 0.864714
0.787350 0.875792 0.863798
0.793118 0.873472 0.862852
0.799374 0.870817 0.861875
0.806119 0.867826 0.860899
0.815213 0.866209 0.857847
0.825467 0.865507 0.854337
0.835447 0.864714 0.852232
0.850858 0.863035 0.855009
0.865141 0.861295 0.859617
0.874998 0.859922 0.864164
0.880552 0.858762 0.868772
0.886229 0.861234 0.876646
0.901030 0.867796 0.875273
0.923522 0.875425 0.868650
0.943420 0.880308 0.861753
0.961181 0.883024 0.854093
0.977539 0.883970 0.845121
0.993011 0.883268 0.834287
1.000000 0.880980 0.820645
1.000000 0.876768 0.802060
0.753658 0.895903 0.875669
0.754910 0.896025 0.875975
0.756832 0.895964 0.876249
0.759976 0.895720 0.876524
0.764675 0.895262 0.876890
0.771115 0.894621 0.877409
0.779202 0.893797 0.878111
0.789029 0.892851 0.879026
0.799771 0.891844 0.880095
0.801907 0.890623 0.879301
0.804501 0.889220 0.878416
0.807767 0.887663 0.877562
0.811460 0.885863 0.876646
0.815579 0.883848 0.875669
0.820127 0.881529 0.874632
0.825040 0.878935 0.873594
0.830564 0.876066 0.872587
0.838895 0.875303 0.869047
0.847440 0.874662 0.866270
0.856046 0.873991 0.864775
0.870298 0.872496 0.868132
0.882109 0.871061 0.872099
0.890288 0.869780 0.876005
0.894743 0.868650 0.879789
0.899016 0.870359 0.886229
0.911681 0.876738 0.886625
0.931029 0.883665 0.880491
0.948577 0.888365 0.874205
0.964538 0.891081 0.867185
0.979339 0.892119 0.859098
0.993469 0.891569 0.849241
1.000000 0.889342 0.836515
0.781949 0.903044 0.886015
0.782925 0.903166 0.886290
0.784604 0.903166 0.886564
0.787381 0.902983 0.886870
0.791501 0.902678 0.887327
0.797024 0.902251 0.887907
0.804105 0.901701 0.888670
0.812711 0.901061 0.889708
0.822538 0.900389 0.890929
0.826902 0.899535 0.890959
0.829282 0.898466 0.890410
0.831998 0.897246 0.889769
0.835019 0.895842 0.889097
0.838285 0.894194 0.888334
0.841825 0.892332 0.887449
0.845701 0.890196 0.886595
0.849973 0.887846 0.885710
0.855253 0.885771 0.884306
0.862364 0.885252 0.881285
0.869505 0.884733 0.879149
0.876890 0.884123 0.878202
0.889311 0.882719 0.881529
0.898863 0.881468 0.884855
0.905547 0.880308 0.888121
0.909209 0.879240 0.891325
0.912535 0.880552 0.896666
0.922087 0.885801 0.897551
0.938750 0.892271 0.891936
0.954162 0.896880 0.886320
0.968322 0.899626 0.880003
0.981628 0.900725 0.872557
0.994537 0.900114 0.863249
0.809689 0.910826 0.896666
0.810208 0.910857 0.896818
0.811398 0.910826 0.897002
0.813596 0.910674 0.897215
0.816800 0.910430 0.897612
0.821256 0.910063 0.898100
0.827024 0.909606 0.898772
0.833951 0.909087 0.899626
0.842039 0.908507 0.900694
0.848112 0.907866 0.901305
0.849973 0.906950 0.900816
0.852110 0.905943 0.900298
0.854520 0.904784 0.899748
0.857115 0.903441 0.899107
0.859953 0.901854 0.898405
0.863035 0.900114 0.897642
0.866484 0.898131 0.896880
0.870329 0.896025 0.896178
0.875456 0.894774 0.894347
0.881498 0.894347 0.891905
0.887510 0.893889 0.890227
0.894621 0.893187 0.890074
0.904723 0.891936 0.892851
0.912505 0.890715 0.895628
0.917937 0.889555 0.898344
0.920836 0.888487 0.900999
0.923400 0.889342 0.905425
0.930449 0.893584 0.906584
0.944884 0.899626 0.901213
0.958648 0.904143 0.896025
0.971374 0.906889 0.890135
0.983459 0.907897 0.882963
0.832090 0.918059 0.905913
0.832517 0.918120 0.906035
0.833555 0.918090 0.906188
0.835447 0.917998 0.906462
0.838285 0.917876 0.906859
0.842374 0.917662 0.907439
0.847715 0.917510 0.908293
0.854154 0.917327 0.909361
0.861601 0.917174 0.910674
0.869505 0.917021 0.912108
0.871733 0.916594 0.912108
0.874083 0.916045 0.912047
0.876555 0.915343 0.911894
0.879088 0.914458 0.911650
0.881651 0.913329 0.911284
0.884184 0.911986 0.910765
0.886992 0.910460 0.910185
0.889952 0.908782 0.909636
0.893370 0.906981 0.909178
0.898009 0.906371 0.907134
0.902800 0.906004 0.905180
0.907561 0.905608 0.903838
0.913878 0.904784 0.904112
0.921721 0.903593 0.906310
0.927764 0.902403 0.908476
0.931975 0.901274 0.910613
0.934234 0.900145 0.912749
0.935882 0.900572 0.916228
0.940612 0.903777 0.917449
0.952483 0.909117 0.912230
0.964172 0.913268 0.907225
0.975189 0.915618 0.901396
0.857572 0.927062 0.916930
0.857725 0.927062 0.916930
0.858396 0.927001 0.917052
0.859739 0.926909 0.917205
0.861936 0.926757 0.917510
0.864958 0.926543 0.917937
0.868925 0.926329 0.918547
0.873747 0.926085 0.919280
0.879301 0.925841 0.920226
0.885588 0.925628 0.921324
0.888548 0.925170 0.921569
0.890043 0.924559 0.921294
0.891722 0.923827 0.921019
0.893553 0.922972 0.920684
