20 Preset/Japan Style/【3】LUT video cho PR-AE-FCPX/LUT VIDEO (2)/Japan Style LUT (17).cube
# Created by Adobe Lightroom plugin Export LUT (1.24.0)
# www.johnrellis.com/lightroom/exportlut.htm
# Preset: 17日系窗户（素材江湖）
# Color profile: C:\Program Files (x86)\Common Files\Adobe\Color\Profiles\Recommended\VideoHD.icc
LUT_3D_SIZE 32
DOMAIN_MIN 0.0 0.0 0.0
DOMAIN_MAX 1.0 1.0 1.0
0.000000 0.011994 0.014374
0.000000 0.016785 0.019471
0.000000 0.038392 0.043427
0.107820 0.064302 0.072908
0.280522 0.045716 0.098665
0.500450 0.000000 0.130556
0.676112 0.027558 0.176181
0.795590 0.185733 0.234470
0.869139 0.278233 0.297642
0.913207 0.355749 0.358984
0.944610 0.421088 0.416327
0.966888 0.476997 0.468177
0.982055 0.524651 0.513420
0.991516 0.565423 0.552911
0.996612 0.599298 0.586450
0.999084 0.627253 0.614343
1.000000 0.650477 0.637812
1.000000 0.669886 0.657710
0.999847 0.686030 0.674647
0.999054 0.703456 0.693294
0.998138 0.717220 0.708309
0.997253 0.727962 0.720119
0.996429 0.736507 0.729641
0.995483 0.743923 0.738125
0.994446 0.750515 0.745876
0.993317 0.756558 0.753048
0.992187 0.762112 0.759792
0.990936 0.767422 0.766323
0.989715 0.772427 0.772580
0.988403 0.777310 0.778744
0.987060 0.781979 0.784695
0.985718 0.786404 0.790372
0.000000 0.028779 0.028168
0.000000 0.026398 0.019409
0.002228 0.043305 0.035828
0.114656 0.071778 0.068025
0.288151 0.054871 0.094820
0.503960 0.000000 0.124056
0.674403 0.050050 0.168551
0.792447 0.184695 0.225620
0.866545 0.276127 0.289555
0.911192 0.351934 0.350927
0.942962 0.416815 0.408179
0.965789 0.472114 0.460334
0.981262 0.520256 0.506706
0.991028 0.561456 0.547265
0.996582 0.595575 0.581140
0.999207 0.624201 0.610071
1.000000 0.647913 0.634211
1.000000 0.667750 0.654780
1.000000 0.684199 0.672084
0.999359 0.701350 0.690486
0.998444 0.715053 0.705470
0.997559 0.725765 0.717403
0.996735 0.734371 0.726955
0.995819 0.741817 0.735500
0.994842 0.748440 0.743252
0.993774 0.754543 0.750546
0.992554 0.760342 0.757595
0.991394 0.765743 0.764248
0.990112 0.770962 0.770779
0.988708 0.776059 0.777218
0.987427 0.780819 0.783230
0.986023 0.785397 0.789151
0.000000 0.092470 0.084138
0.000000 0.092592 0.086152
0.000000 0.091859 0.043854
0.152773 0.107485 0.033478
0.337560 0.110689 0.057099
0.539483 0.098787 0.095583
0.695216 0.137636 0.142000
0.803769 0.213657 0.202487
0.872526 0.290806 0.268528
0.914641 0.359106 0.334112
0.945464 0.419806 0.394202
0.967529 0.473304 0.449226
0.982727 0.519799 0.496925
0.992370 0.560204 0.538476
0.997650 0.594324 0.574212
1.000000 0.622644 0.603876
1.000000 0.646540 0.629145
1.000000 0.666499 0.650538
1.000000 0.683162 0.668635
0.999878 0.700496 0.687678
0.998932 0.713985 0.702815
0.998047 0.724727 0.714839
0.997162 0.733303 0.724666
0.996246 0.740780 0.733333
0.995239 0.747402 0.741238
0.994141 0.753536 0.748714
0.992950 0.759365 0.755825
0.991760 0.764858 0.762661
0.990417 0.770199 0.769375
0.989044 0.775296 0.775906
0.987701 0.780148 0.782132
0.986297 0.784787 0.788113
0.000000 0.185824 0.144961
0.000000 0.186923 0.147311
0.000000 0.184543 0.143038
0.092500 0.184024 0.031403
0.381445 0.227756 0.000000
0.604211 0.237217 0.000000
0.736690 0.245792 0.000000
0.827512 0.280552 0.143496
0.886076 0.329747 0.228519
0.924041 0.382025 0.303319
0.952483 0.433539 0.370001
0.972686 0.480903 0.428901
0.986603 0.524346 0.480812
0.995422 0.562371 0.524804
1.000000 0.594812 0.562463
1.000000 0.622217 0.593622
1.000000 0.645441 0.620264
1.000000 0.665156 0.642847
1.000000 0.682338 0.662684
1.000000 0.698756 0.681697
1.000000 0.711818 0.697047
0.998962 0.722560 0.709621
0.997986 0.731319 0.720089
0.997040 0.738979 0.729335
0.995941 0.745968 0.737911
0.994751 0.752468 0.746029
0.993530 0.758511 0.753567
0.992218 0.764279 0.760983
0.990784 0.769802 0.768063
0.989441 0.774899 0.774655
0.988006 0.779812 0.781064
0.986633 0.784329 0.787015
0.000000 0.380591 0.275700
0.000000 0.379706 0.278264
0.000000 0.375952 0.275425
0.000000 0.369909 0.205875
0.225345 0.348669 0.000000
0.563592 0.376226 0.000000
0.773648 0.394537 0.000000
0.849973 0.381872 0.000000
0.899504 0.393439 0.134371
0.934844 0.421485 0.243015
0.960754 0.457282 0.325322
0.979400 0.495430 0.394202
0.992065 0.532341 0.452155
0.999908 0.566979 0.502068
1.000000 0.597467 0.544030
1.000000 0.623682 0.578454
1.000000 0.646113 0.608057
1.000000 0.665614 0.633112
1.000000 0.683467 0.655756
1.000000 0.699092 0.675563
1.000000 0.711727 0.691554
1.000000 0.722133 0.704677
0.998993 0.730861 0.715785
0.997925 0.738552 0.725734
0.996735 0.745541 0.734768
0.995514 0.752041 0.743160
0.994232 0.758114 0.751125
0.992798 0.763912 0.758846
0.991424 0.769314 0.766018
0.989990 0.774441 0.772854
0.988556 0.779294 0.779355
0.987121 0.783810 0.785489
0.000000 0.551690 0.420844
0.000000 0.550988 0.422980
0.000000 0.545617 0.423804
0.000000 0.541833 0.414069
0.000000 0.533013 0.210910
0.363012 0.491676 0.000000
0.676570 0.497047 0.000000
0.836576 0.501518 0.000000
0.914519 0.488838 0.000000
0.948394 0.487861 0.114290
0.972290 0.502190 0.256138
0.988952 0.525811 0.344884
0.999817 0.553002 0.414923
1.000000 0.580865 0.473274
1.000000 0.606775 0.520958
1.000000 0.630091 0.560540
1.000000 0.650660 0.593469
1.000000 0.668757 0.621210
1.000000 0.686763 0.647547
1.000000 0.701320 0.668421
1.000000 0.713375 0.685542
1.000000 0.723384 0.699641
0.998779 0.743099 0.725399
0.997467 0.749660 0.734707
0.996124 0.755550 0.743160
0.994720 0.761105 0.751064
0.993347 0.766201 0.758328
0.991974 0.770962 0.765072
0.990570 0.775540 0.771603
0.989227 0.779843 0.777707
0.987854 0.783902 0.783536
0.986542 0.787716 0.788907
0.000000 0.686488 0.554772
0.000000 0.685420 0.556176
0.000000 0.680018 0.560052
0.000000 0.677790 0.554192
0.000000 0.673335 0.545464
0.000000 0.661372 0.245029
0.497658 0.611688 0.000000
0.765713 0.598291 0.000000
0.880064 0.592309 0.000000
0.959014 0.582391 0.000000
0.988678 0.575982 0.126711
1.000000 0.581445 0.283665
1.000000 0.594537 0.375830
1.000000 0.611780 0.446265
1.000000 0.629847 0.501518
1.000000 0.647120 0.545342
1.000000 0.663355 0.581292
1.000000 0.680781 0.614679
1.000000 0.696895 0.643305
1.000000 0.710170 0.666072
1.000000 0.721523 0.684932
1.000000 0.731319 0.700710
1.000000 0.739834 0.714107
0.999329 0.747280 0.725765
0.997772 0.753841 0.735958
0.996277 0.759609 0.744869
0.994751 0.764828 0.752956
0.993286 0.769650 0.760342
0.991821 0.774197 0.767239
0.990387 0.778561 0.773770
0.988952 0.782650 0.779904
0.987518 0.786526 0.785641
0.000000 0.748257 0.629938
0.000000 0.747158 0.630884
0.000000 0.743221 0.634516
0.000000 0.741360 0.632258
0.000000 0.738949 0.627253
0.000000 0.735317 0.589441
0.000000 0.723354 0.341588
0.585046 0.678767 0.157534
0.802670 0.655634 0.000000
0.896605 0.652277 0.095796
0.963378 0.645808 0.109255
1.000000 0.633814 0.096712
1.000000 0.631800 0.286870
1.000000 0.637690 0.385016
1.000000 0.647364 0.455207
1.000000 0.658930 0.509056
1.000000 0.672938 0.554864
1.000000 0.687312 0.593561
1.000000 0.700496 0.625116
1.000000 0.712123 0.650599
1.000000 0.722530 0.671778
1.000000 0.731685 0.689448
1.000000 0.739834 0.704524
1.000000 0.747036 0.717494
0.999481 0.753323 0.728542
0.997894 0.758907 0.738277
0.996246 0.764096 0.747158
0.994629 0.768856 0.755184
0.993133 0.773373 0.762600
0.991577 0.777676 0.769589
0.990051 0.781765 0.776181
0.988586 0.785672 0.782284
0.000000 0.785153 0.685328
0.000000 0.784482 0.686183
0.000000 0.781521 0.688655
0.000000 0.779446 0.688685
0.000000 0.778012 0.685908
0.000000 0.775937 0.682521
0.000000 0.773251 0.607752
0.221073 0.760708 0.428504
0.647303 0.724697 0.293187
0.830014 0.699123 0.241978
0.909178 0.699489 0.277256
0.963989 0.695216 0.291997
1.000000 0.685634 0.290837
1.000000 0.671901 0.295415
1.000000 0.672328 0.394110
1.000000 0.678553 0.466957
1.000000 0.687373 0.523125
1.000000 0.696956 0.567285
1.000000 0.706661 0.602777
1.000000 0.716396 0.632319
1.000000 0.725399 0.656458
1.000000 0.733700 0.676753
1.000000 0.741207 0.693782
1.000000 0.747921 0.708278
1.000000 0.753872 0.720638
0.999542 0.759121 0.731319
0.997833 0.763973 0.740749
0.996185 0.768582 0.749447
0.994537 0.772976 0.757534
0.992859 0.777218 0.765103
0.991272 0.781247 0.772122
0.989685 0.785122 0.778683
0.056825 0.812558 0.730007
0.136080 0.811887 0.730404
0.237552 0.809659 0.731991
0.302373 0.807340 0.732937
0.318517 0.806363 0.731258
0.340612 0.804898 0.729061
0.365820 0.803006 0.726528
0.247379 0.801389 0.627405
0.422309 0.787320 0.499733
0.694484 0.756558 0.389685
0.851682 0.733394 0.342504
0.917296 0.734676 0.375250
0.962280 0.731258 0.393561
0.994446 0.724331 0.400031
1.000000 0.713130 0.391333
1.000000 0.702358 0.409461
1.000000 0.704585 0.479561
1.000000 0.709560 0.533623
1.000000 0.715877 0.575921
1.000000 0.722957 0.610254
1.000000 0.730129 0.638392
1.000000 0.736812 0.661128
1.000000 0.743099 0.680140
1.000000 0.749081 0.696468
1.000000 0.754330 0.710170
1.000000 0.759152 0.721950
0.999725 0.763668 0.732387
0.997955 0.768063 0.742061
0.996155 0.772396 0.751034
0.994415 0.776577 0.759335
0.992676 0.780667 0.767117
0.991028 0.784482 0.774228
0.374273 0.831724 0.763455
0.380835 0.831388 0.763699
0.410681 0.829862 0.765042
0.445991 0.827695 0.766415
0.453895 0.827237 0.765499
0.464485 0.826505 0.764309
0.478187 0.825498 0.762875
0.479194 0.824308 0.749813
0.393835 0.823514 0.648341
0.536736 0.809140 0.558953
0.737972 0.783505 0.466682
0.872190 0.763699 0.424628
0.925536 0.765591 0.459083
0.961761 0.762600 0.478828
0.987884 0.755398 0.483467
1.000000 0.744961 0.476295
1.000000 0.731563 0.463600
1.000000 0.724605 0.488380
1.000000 0.726894 0.540093
1.000000 0.730800 0.581018
1.000000 0.735714 0.614527
1.000000 0.741085 0.641871
1.000000 0.746365 0.664210
1.000000 0.751431 0.683040
1.000000 0.756252 0.699062
1.000000 0.760647 0.712490
1.000000 0.764736 0.724147
0.999664 0.768734 0.734676
0.997803 0.772763 0.744442
0.995972 0.776699 0.753445
0.994141 0.780606 0.761807
0.992370 0.784329 0.769528
0.490272 0.847166 0.790799
0.494636 0.846921 0.791043
0.508904 0.845945 0.791836
0.535363 0.844022 0.793362
0.540002 0.843778 0.792813
0.546624 0.843320 0.792050
0.554681 0.842893 0.791165
0.566430 0.842557 0.790799
0.550072 0.842466 0.762814
0.493690 0.842863 0.673579
0.627008 0.829007 0.616693
0.778164 0.808743 0.540703
0.900206 0.801266 0.533349
0.936950 0.800168 0.562371
0.962127 0.795315 0.576623
0.981506 0.787808 0.578424
0.997986 0.777859 0.569604
1.000000 0.764920 0.548669
1.000000 0.751247 0.531334
1.000000 0.749325 0.566461
1.000000 0.751278 0.603784
1.000000 0.754147 0.633661
1.000000 0.757351 0.658045
1.000000 0.760739 0.678035
1.000000 0.764034 0.694697
1.000000 0.767208 0.708736
1.000000 0.770199 0.720760
1.000000 0.773190 0.731350
0.998779 0.776364 0.741268
0.996948 0.779568 0.750332
0.995087 0.782834 0.758816
0.993347 0.786038 0.766629
0.591455 0.862608 0.818967
0.593072 0.862486 0.819059
0.601953 0.861631 0.819516
0.619348 0.860136 0.820706
0.625116 0.859586 0.820493
0.628931 0.859220 0.819883
0.634638 0.858854 0.819394
0.641962 0.858457 0.818936
0.651179 0.858061 0.818784
0.621485 0.858701 0.780850
0.599451 0.858366 0.712886
0.703914 0.847013 0.674189
0.818021 0.831876 0.617365
0.907317 0.814481 0.575830
0.937560 0.812955 0.602747
0.958618 0.808377 0.615686
0.975341 0.801602 0.617212
0.990021 0.792721 0.609216
1.000000 0.781613 0.591730
1.000000 0.768460 0.568902
1.000000 0.758480 0.564599
1.000000 0.759304 0.601923
1.000000 0.761288 0.632471
1.000000 0.763699 0.657252
1.000000 0.766323 0.677424
1.000000 0.769039 0.694423
1.000000 0.771695 0.708705
1.000000 0.774350 0.721004
1.000000 0.777066 0.732021
0.998749 0.780026 0.742214
0.996826 0.783047 0.751644
0.994934 0.786130 0.760311
0.651087 0.869963 0.834806
0.651850 0.869841 0.834806
0.657984 0.869139 0.835142
0.669581 0.867918 0.835843
0.676905 0.867002 0.835935
0.678737 0.866636 0.835294
0.681910 0.866239 0.834684
0.686244 0.865843 0.834134
0.692409 0.865446 0.833829
0.694270 0.865263 0.829343
0.661341 0.866484 0.788540
0.659144 0.865110 0.735714
0.743282 0.855283 0.702693
0.836362 0.842527 0.656184
0.913146 0.825742 0.615015
0.937987 0.823270 0.636378
0.955932 0.818540 0.646265
0.970397 0.812284 0.647425
0.983337 0.804562 0.641169
0.995850 0.795071 0.627283
1.000000 0.783169 0.604089
1.000000 0.770047 0.580072
1.000000 0.766995 0.601953
1.000000 0.768246 0.632715
1.000000 0.769955 0.657588
1.000000 0.771969 0.678065
1.000000 0.774166 0.695155
1.000000 0.776364 0.709560
1.000000 0.778653 0.722103
1.000000 0.781125 0.733364
0.998535 0.783810 0.743832
0.996582 0.786587 0.753323
0.695766 0.874510 0.846281
0.696803 0.874388 0.846342
0.700587 0.873899 0.846525
0.709041 0.872923 0.847074
0.717464 0.871855 0.847501
0.718196 0.871519 0.846860
0.719875 0.871214 0.846311
0.722927 0.870848 0.845853
0.726986 0.870512 0.845548
0.732601 0.870207 0.845487
0.724117 0.870542 0.833463
0.695216 0.871946 0.795743
0.705409 0.869718 0.755306
0.772366 0.861418 0.725216
0.850187 0.850462 0.685695
0.917571 0.834409 0.645808
0.938354 0.831388 0.663172
0.953765 0.826780 0.671107
0.966552 0.821012 0.672053
0.978027 0.814084 0.666926
0.989197 0.805844 0.655573
1.000000 0.795560 0.635767
1.000000 0.782650 0.607416
1.000000 0.774105 0.603113
1.000000 0.774655 0.633692
1.000000 0.775814 0.658686
1.000000 0.777340 0.679164
1.000000 0.779110 0.696498
1.000000 0.781033 0.711208
1.000000 0.783078 0.724056
1.000000 0.785367 0.735592
0.998138 0.787839 0.746212
0.729427 0.877440 0.854795
0.730495 0.877379 0.854917
0.733944 0.877012 0.855192
0.740383 0.876310 0.855741
0.750118 0.875273 0.856626
0.751156 0.875090 0.856321
0.752926 0.874907 0.856077
0.755550 0.874723 0.855894
0.758907 0.874510 0.855772
0.762844 0.874266 0.855711
0.767269 0.873960 0.855650
0.750942 0.874662 0.838010
0.724483 0.875975 0.803311
0.741207 0.872923 0.771878
0.794217 0.865751 0.743496
0.859922 0.856199 0.707820
0.920714 0.840940 0.669337
0.938476 0.837736 0.683772
0.951965 0.833341 0.690608
0.963348 0.828000 0.691829
0.973724 0.821866 0.687709
0.983978 0.814511 0.677760
0.994812 0.805478 0.660914
1.000000 0.793668 0.633478
1.000000 0.780636 0.605066
1.000000 0.780758 0.635828
1.000000 0.781582 0.661006
1.000000 0.782681 0.681483
1.000000 0.784085 0.698817
1.000000 0.785611 0.713436
1.000000 0.787320 0.726223
0.999817 0.789242 0.737636
0.756283 0.879606 0.861631
0.757137 0.879515 0.861723
0.759548 0.879240 0.861936
0.764858 0.878721 0.862455
0.772793 0.877867 0.863279
0.775753 0.877562 0.863371
0.777066 0.877409 0.863188
0.778866 0.877256 0.863035
0.781186 0.877104 0.862882
0.783963 0.876890 0.862791
0.787106 0.876677 0.862699
0.788571 0.876524 0.861082
0.769436 0.877409 0.840879
0.745815 0.878691 0.808865
0.767483 0.875242 0.784939
0.811612 0.869078 0.759213
0.867796 0.860929 0.726650
0.922850 0.847990 0.692470
0.938689 0.843351 0.702327
0.950561 0.839109 0.708278
0.960754 0.834257 0.709346
0.970245 0.828611 0.705684
0.979644 0.821958 0.696803
0.989776 0.813748 0.681392
1.000000 0.803037 0.656184
1.000000 0.788571 0.617395
1.000000 0.786496 0.638849
1.000000 0.786862 0.663691
1.000000 0.787625 0.684047
1.000000 0.788663 0.701259
1.000000 0.789883 0.715785
1.000000 0.791318 0.728573
0.780270 0.881376 0.867796
0.780819 0.881315 0.867857
0.796048 0.881987 0.871489
0.799649 0.881590 0.871885
0.805264 0.881010 0.872526
0.809110 0.880552 0.872862
0.809720 0.880461 0.872679
0.810636 0.880339 0.872526
0.811917 0.880217 0.872343
0.813596 0.880064 0.872221
0.815457 0.879911 0.872068
0.817472 0.879698 0.871916
0.812863 0.879789 0.866331
0.796628 0.880522 0.848600
0.777096 0.881559 0.821408
0.797910 0.878141 0.804074
0.831449 0.873136 0.781155
0.877195 0.866392 0.751980
0.925383 0.856046 0.720729
0.939178 0.849790 0.725368
0.949371 0.845609 0.729793
0.958434 0.840970 0.729824
0.967102 0.835569 0.725307
0.975769 0.829282 0.716335
0.985229 0.821530 0.701289
0.996429 0.811460 0.677119
1.000000 0.797299 0.637049
1.000000 0.791897 0.642542
1.000000 0.791836 0.666835
1.000000 0.792264 0.687007
1.000000 0.792935 0.703822
1.000000 0.793790 0.718135
0.802976 0.882994 0.873747
0.804379 0.883024 0.874052
0.807004 0.882933 0.874510
0.811002 0.882658 0.875120
0.816159 0.882231 0.875853
0.821347 0.881743 0.876524
0.821866 0.881651 0.876402
0.822507 0.881559 0.876219
0.823362 0.881437 0.876066
0.824491 0.881346 0.875883
0.825895 0.881193 0.875761
0.827390 0.881041 0.875608
0.828733 0.880858 0.875395
0.820249 0.881163 0.866514
0.805478 0.881895 0.849668
0.793423 0.882261 0.827146
0.811917 0.879271 0.811398
0.841245 0.874968 0.791012
0.881834 0.869139 0.764981
0.926268 0.860807 0.736690
0.939117 0.853666 0.738857
0.948333 0.849821 0.742947
0.956634 0.845487 0.742641
0.964691 0.840452 0.738125
0.973022 0.834409 0.728695
0.982147 0.826993 0.713741
0.992950 0.817411 0.690120
1.000000 0.803983 0.651118
1.000000 0.796323 0.645106
1.000000 0.796078 0.669306
1.000000 0.796201 0.689265
1.000000 0.796628 0.706020
0.816281 0.884031 0.877379
0.817563 0.884031 0.877653
0.819791 0.883970 0.878080
0.823026 0.883787 0.878630
0.827420 0.883421 0.879271
0.832639 0.882933 0.879973
0.833616 0.882811 0.879973
0.834043 0.882750 0.879820
0.834684 0.882658 0.879698
0.835447 0.882567 0.879515
0.836393 0.882475 0.879393
0.837430 0.882353 0.879240
0.838499 0.882200 0.879026
0.839139 0.882048 0.878416
0.828336 0.882506 0.867460
0.815030 0.883207 0.851621
0.808957 0.883085 0.833371
0.825132 0.880461 0.819211
0.850706 0.876768 0.801144
0.886290 0.871794 0.777920
0.927123 0.865080 0.752132
0.939025 0.857389 0.751858
0.947387 0.853727 0.755306
0.955016 0.849638 0.754696
0.962554 0.844816 0.749660
0.970581 0.838987 0.739986
0.979553 0.831754 0.724392
0.990204 0.822507 0.700649
1.000000 0.809354 0.661036
1.000000 0.800992 0.650477
1.000000 0.799985 0.672023
1.000000 0.799863 0.691615
0.828458 0.884977 0.880766
0.829465 0.884977 0.880980
0.831205 0.884916 0.881346
0.833921 0.884764 0.881773
0.837491 0.884459 0.882322
0.841764 0.884062 0.882933
0.843992 0.883818 0.883177
0.844297 0.883787 0.883055
0.844724 0.883726 0.882933
0.845304 0.883665 0.882811
0.845975 0.883574 0.882658
0.846738 0.883482 0.882536
0.847532 0.883360 0.882353
0.848295 0.883238 0.882139
0.845884 0.883268 0.879118
0.836118 0.883757 0.868772
0.824399 0.884459 0.854093
0.823301 0.884001 0.839780
0.837858 0.881773 0.827756
0.860197 0.878721 0.812345
0.891081 0.874632 0.792752
0.927977 0.869535 0.770321
0.938933 0.861601 0.768338
0.946227 0.858274 0.771359
0.953124 0.854459 0.770382
0.960143 0.849912 0.765072
0.967742 0.844327 0.755062
0.976593 0.837278 0.738766
0.987304 0.828061 0.713863
1.000000 0.814664 0.671260
1.000000 0.806943 0.662745
1.000000 0.804532 0.678096
0.843534 0.886076 0.884977
0.843992 0.886076 0.885100
0.844968 0.886015 0.885252
0.846616 0.885863 0.885496
0.849149 0.885588 0.885863
0.852354 0.885252 0.886290
0.855344 0.884916 0.886687
0.855497 0.884886 0.886595
0.855772 0.884825 0.886473
0.856168 0.884794 0.886351
0.856657 0.884733 0.886259
0.857176 0.884672 0.886137
0.857725 0.884581 0.885985
0.858274 0.884489 0.885801
0.858732 0.884367 0.885557
0.854093 0.884550 0.880705
0.845426 0.885039 0.871183
0.835050 0.885710 0.857847
0.837156 0.884977 0.846860
0.849516 0.883085 0.836179
0.868498 0.880491 0.822568
0.895048 0.876951 0.805112
0.928466 0.873045 0.784451
0.938781 0.864775 0.780087
0.945434 0.861509 0.781949
0.951843 0.857786 0.780117
0.958556 0.853391 0.774350
0.965942 0.847990 0.763851
0.974792 0.840970 0.746700
0.985992 0.831479 0.719265
1.000000 0.817380 0.671229
1.000000 0.811246 0.670527
0.852567 0.886839 0.887633
0.852903 0.886839 0.887724
0.853788 0.886778 0.887846
0.855192 0.886656 0.888090
0.857206 0.886442 0.888365
0.859922 0.886168 0.888762
0.863218 0.885801 0.889250
0.863737 0.885740 0.889250
0.863920 0.885710 0.889158
0.864225 0.885679 0.889067
0.864622 0.885618 0.888975
0.865019 0.885588 0.888853
0.865415 0.885527 0.888731
0.865812 0.885466 0.888579
0.866239 0.885374 0.888396
0.866606 0.885283 0.888212
0.860502 0.885588 0.881987
0.852873 0.886076 0.873198
0.843778 0.886748 0.861082
0.848325 0.885863 0.852689
0.859220 0.884245 0.843381
0.875669 0.882048 0.831632
0.898741 0.879088 0.816373
0.928954 0.876158 0.798001
0.938720 0.867369 0.789334
0.944823 0.864164 0.790372
0.950896 0.860594 0.787961
0.957336 0.856321 0.781765
0.964691 0.850919 0.770443
0.973724 0.843839 0.751766
0.985626 0.833951 0.720943
1.000000 0.819272 0.668452
0.862577 0.887633 0.890562
0.863035 0.887633 0.890654
0.863676 0.887572 0.890776
0.864683 0.887480 0.890929
0.866117 0.887297 0.891112
0.868070 0.887083 0.891386
0.870481 0.886778 0.891722
0.871733 0.886595 0.891844
0.871580 0.886564 0.891691
0.871611 0.886473 0.891539
0.871611 0.886442 0.891386
0.871733 0.886412 0.891234
0.871855 0.886351 0.891051
0.871977 0.886259 0.890867
0.872068 0.886168 0.890654
0.872129 0.886076 0.890410
0.870787 0.886076 0.888884
0.864805 0.886412 0.882689
0.857786 0.886900 0.874357
0.850187 0.887510 0.863401
0.856199 0.886534 0.856718
0.866056 0.885161 0.848356
0.880766 0.883238 0.837675
0.901335 0.880644 0.823819
0.928649 0.878050 0.806638
0.938659 0.869993 0.799069
0.944274 0.866850 0.799039
0.950042 0.863310 0.795804
0.956329 0.859037 0.788510
0.963775 0.853574 0.775906
0.973266 0.846159 0.754604
0.986236 0.835538 0.718685
0.868437 0.888212 0.892393
0.868803 0.888212 0.892485
0.869413 0.888182 0.892576
0.870298 0.888121 0.892729
0.871672 0.887938 0.892943
0.873442 0.887755 0.893217
0.875669 0.887541 0.893553
0.877958 0.887297 0.893919
0.878019 0.887297 0.893858
0.878172 0.887266 0.893767
0.878325 0.887236 0.893706
0.878477 0.887205 0.893584
0.878630 0.887144 0.893462
0.878691 0.887083 0.893339
0.878752 0.887022 0.893126
0.878752 0.886931 0.892912
0.878782 0.886870 0.892699
0.876188 0.886992 0.890074
0.870939 0.887297 0.884367
0.864805 0.887816 0.876860
0.859983 0.888182 0.867979
0.865232 0.887358 0.862028
0.873747 0.886198 0.854643
0.886503 0.884611 0.845243
0.904417 0.882414 0.833188
0.928496 0.880156 0.817990
0.938445 0.872709 0.809689
0.943572 0.869688 0.808988
0.948974 0.866270 0.805020
0.955108 0.861997 0.796780
0.962676 0.856382 0.782406
0.972839 0.848569 0.757687
0.875090 0.888823 0.894438
0.875334 0.888823 0.894469
0.875731 0.888792 0.894560
0.876463 0.888701 0.894682
0.877562 0.888609 0.894835
0.878996 0.888457 0.895079
0.880888 0.888243 0.895384
0.883116 0.888029 0.895720
0.883757 0.887938 0.895781
0.883818 0.887938 0.895720
0.883879 0.887907 0.895628
0.884001 0.887877 0.895567
0.884123 0.887846 0.895476
0.884184 0.887785 0.895323
0.884184 0.887755 0.895171
0.884154 0.887694 0.894987
0.884154 0.887602 0.894774
0.884154 0.887541 0.894560
0.880735 0.887755 0.891112
0.876066 0.888090 0.885893
0.870665 0.888579 0.878996
0.867979 0.888762 0.871855
0.872557 0.888090 0.866514
0.879973 0.887114 0.859770
0.891142 0.885740 0.851316
0.906920 0.883909 0.840421
0.928435 0.881895 0.826535
0.938445 0.874846 0.817411
0.943206 0.871855 0.815732
0.948425 0.868467 0.810880
0.954528 0.864164 0.801541
0.962371 0.858396 0.784970
0.880430 0.889342 0.896117
0.880613 0.889342 0.896147
0.880980 0.889311 0.896239
0.881621 0.889250 0.896361
0.882658 0.889158 0.896513
0.884062 0.889036 0.896757
0.885863 0.888914 0.897093
0.888060 0.888731 0.897520
0.889799 0.888609 0.897826
0.890196 0.888609 0.897887
0.890593 0.888609 0.897917
0.890990 0.888609 0.897948
0.891356 0.888609 0.897978
0.891600 0.888609 0.897948
0.891814 0.888579 0.897887
0.891875 0.888548 0.897765
0.891875 0.888487 0.897612
0.891875 0.888457 0.897459
0.891539 0.888426 0.896971
0.888243 0.888670 0.893523
0.884489 0.889006 0.889128
0.880064 0.889464 0.883360
0.878935 0.889494 0.878050
0.882628 0.888975 0.873564
0.888487 0.888243 0.867918
0.897459 0.887175 0.860685
0.910521 0.885710 0.851347
0.928618 0.884062 0.839445
0.937896 0.877775 0.830259
0.942077 0.874846 0.827573
0.946960 0.871519 0.821683
0.953002 0.867216 0.810697
0.888029 0.889921 0.898405
0.888060 0.889891 0.898436
0.888304 0.889860 0.898466
0.888762 0.889830 0.898528
0.889494 0.889738 0.898650
0.890532 0.889647 0.898833
0.891844 0.889525 0.899077
0.893462 0.889372 0.899351
0.895293 0.889220 0.899687
0.895598 0.889189 0.899718
0.895689 0.889189 0.899657
0.895842 0.889158 0.899626
0.895933 0.889158 0.899596
0.896056 0.889128 0.899565
