20 Preset/Japan Style/【3】LUT video cho PR-AE-FCPX/LUT VIDEO (2)/Japan Style LUT (31).cube
# Created by Adobe Lightroom plugin Export LUT (1.24.0)
# www.johnrellis.com/lightroom/exportlut.htm
# Preset: 31日系胶片（素材江湖）
# Color profile: C:\Program Files (x86)\Common Files\Adobe\Color\Profiles\Recommended\VideoHD.icc
LUT_3D_SIZE 5
DOMAIN_MIN 0.000000 0.000000 0.000000
DOMAIN_MAX 0.903226 0.903226 0.903226
0.035645 0.092042 0.112490
0.249729 0.055848 0.099458
0.915465 0.000000 0.000000
1.000000 0.420722 0.148043
1.000000 0.588891 0.368658
0.000000 0.489509 0.309300
0.336065 0.469825 0.182376
0.883421 0.407080 0.000000
1.000000 0.496498 0.000000
1.000000 0.604669 0.293462
0.813382 0.890105 0.852384
0.816648 0.890135 0.839414
0.846769 0.864225 0.754940
1.000000 0.715145 0.000000
1.000000 0.699184 0.138949
0.912444 0.945800 0.935973
0.911864 0.946136 0.933654
0.909850 0.940795 0.920714
0.915862 0.925994 0.883635
0.999786 0.878538 0.615015
0.948547 0.963897 0.962463
0.948394 0.963989 0.961975
0.948272 0.964141 0.959899
0.944915 0.959930 0.951385
0.947265 0.953399 0.934661
0.000000 0.082856 0.216403
0.275547 0.005646 0.210056
0.893584 0.281468 0.264652
1.000000 0.498878 0.308415
1.000000 0.603540 0.373846
0.298009 0.451484 0.421942
0.401678 0.445655 0.327886
0.874510 0.452857 0.219944
1.000000 0.551293 0.283207
1.000000 0.629572 0.367834
0.824399 0.880034 0.859922
0.824552 0.883085 0.849210
0.845640 0.857603 0.773587
0.992798 0.705379 0.129610
1.000000 0.716030 0.337835
0.915984 0.944579 0.938445
0.915618 0.944976 0.936461
0.913451 0.940612 0.924987
0.916991 0.925536 0.889342
0.994995 0.876097 0.641047
0.949798 0.963836 0.963409
0.949676 0.963928 0.962921
0.949737 0.964355 0.961181
0.946715 0.960418 0.953460
0.948394 0.953948 0.937407
0.000000 0.211673 0.703517
0.364202 0.278202 0.700465
0.880247 0.409857 0.630182
0.976104 0.678431 0.696132
1.000000 0.736843 0.706691
0.000000 0.469337 0.705959
0.479805 0.525139 0.697108
0.847471 0.588190 0.656489
0.957427 0.716274 0.710903
1.000000 0.745083 0.699672
0.837095 0.863828 0.875120
0.833036 0.858335 0.865293
0.831937 0.826902 0.787167
0.943725 0.757321 0.635798
1.000000 0.773617 0.659693
0.920897 0.938659 0.942290
0.920714 0.937682 0.940276
0.921172 0.938689 0.934569
0.918090 0.921965 0.901518
0.984222 0.858640 0.684993
0.953063 0.963104 0.965881
0.953094 0.963256 0.965606
0.953063 0.963928 0.964233
0.951171 0.961578 0.958740
0.950835 0.954711 0.943694
0.361089 0.518730 0.893492
0.542473 0.560784 0.889220
0.815488 0.669245 0.877287
0.960235 0.693843 0.825315
0.990204 0.787839 0.831205
0.434302 0.603571 0.882353
0.609125 0.659113 0.877501
0.817044 0.722744 0.871519
0.945495 0.732509 0.827817
0.980224 0.804135 0.838804
0.727199 0.814176 0.889769
0.735866 0.807858 0.880461
0.806119 0.801419 0.853300
0.903960 0.812222 0.838499
0.954620 0.845914 0.860136
0.918029 0.931212 0.943297
0.920897 0.931365 0.942992
0.914855 0.923033 0.932982
0.905516 0.902068 0.895933
0.958190 0.856565 0.817533
0.953643 0.962890 0.968383
0.954223 0.962890 0.968261
0.955779 0.962463 0.967437
0.957671 0.963684 0.966003
0.954131 0.955566 0.951720
0.642359 0.700252 0.947448
0.693385 0.716457 0.944823
0.810422 0.752041 0.938872
0.914580 0.799588 0.930114
0.980652 0.795407 0.896757
0.627741 0.709255 0.943328
0.701534 0.740566 0.939422
0.810575 0.770718 0.934417
0.910063 0.811948 0.927398
0.974701 0.806149 0.896544
0.630213 0.769894 0.935149
0.645441 0.766629 0.930602
0.805478 0.816983 0.923796
0.898741 0.847440 0.922087
0.957977 0.844785 0.901854
0.842863 0.897551 0.944823
0.845426 0.896544 0.943389
0.852811 0.890227 0.936187
0.883757 0.880919 0.919890
0.940246 0.887968 0.913359
0.942565 0.955169 0.965606
0.944060 0.955596 0.965728
0.950378 0.957671 0.966674
0.956146 0.958495 0.966430
0.947448 0.945464 0.949615
