20 Preset/Japan Style/【3】LUT video cho PR-AE-FCPX/LUT VIDEO (2)/Japan Style LUT (8).cube
# Created by Adobe Lightroom plugin Export LUT (1.24.0)
# www.johnrellis.com/lightroom/exportlut.htm
# Preset: 08日系清新（素材江湖）
# Color profile: C:\Program Files (x86)\Common Files\Adobe\Color\Profiles\Recommended\VideoHD.icc
LUT_3D_SIZE 8
DOMAIN_MIN 0.000000 0.000000 0.000000
DOMAIN_MAX 0.903226 0.903226 0.903226
0.000000 0.000000 0.000000
0.257023 0.036286 0.000000
0.528985 0.124239 0.000000
0.698939 0.180545 0.000000
0.815244 0.234836 0.119265
0.890532 0.292699 0.203952
0.951507 0.346502 0.273014
0.997406 0.385779 0.320775
0.000000 0.230350 0.157595
0.213504 0.259159 0.023194
0.517723 0.280217 0.067872
0.688350 0.284306 0.099672
0.805173 0.304997 0.162570
0.881529 0.337957 0.230228
0.942016 0.374090 0.287175
0.990723 0.404700 0.330114
0.000000 0.444831 0.313878
0.000000 0.443366 0.303471
0.382757 0.478889 0.147799
0.659632 0.493446 0.211032
0.782895 0.482826 0.300359
0.865599 0.477485 0.332891
0.930083 0.482490 0.366217
0.979553 0.488319 0.390723
0.115602 0.584222 0.448707
0.163455 0.581476 0.448005
0.152316 0.597375 0.381445
0.497993 0.622675 0.288975
0.736965 0.632380 0.318242
0.837156 0.624750 0.443427
0.902586 0.610437 0.469245
0.954101 0.595148 0.473213
0.256992 0.678096 0.545830
0.269841 0.676814 0.545556
0.297063 0.676234 0.536126
0.337163 0.693507 0.463630
0.566766 0.702907 0.382300
0.778378 0.711696 0.374884
0.865019 0.700099 0.487129
0.921111 0.697719 0.561730
0.362249 0.737606 0.618250
0.370855 0.738460 0.620294
0.394079 0.735836 0.621302
0.369329 0.744808 0.580804
0.447059 0.756710 0.529595
0.623896 0.764981 0.458106
0.821195 0.777493 0.423957
0.894377 0.761074 0.525444
0.435401 0.792935 0.680110
0.439094 0.792874 0.680598
0.451575 0.791043 0.680659
0.461646 0.791226 0.673365
0.438392 0.803067 0.623377
0.528038 0.812314 0.584649
0.675776 0.818906 0.519371
0.861295 0.831052 0.456947
0.490608 0.845579 0.733272
0.492653 0.845396 0.733333
0.501854 0.844694 0.734035
0.520012 0.843595 0.736049
0.498787 0.847929 0.706447
0.513451 0.858091 0.670344
0.602716 0.865476 0.637751
0.732418 0.869444 0.577173
0.000000 0.033417 0.260594
0.256443 0.022614 0.258122
0.510033 0.058839 0.235843
0.667475 0.224796 0.255650
0.789212 0.288945 0.279179
0.867491 0.338720 0.310460
0.930175 0.378851 0.342443
0.981689 0.409277 0.369238
0.000000 0.261570 0.259983
0.254154 0.262791 0.256962
0.494942 0.284916 0.264286
0.662226 0.312840 0.276677
0.783505 0.344549 0.297887
0.862181 0.375311 0.325994
0.924529 0.402930 0.353063
0.976715 0.426215 0.376562
0.194156 0.453407 0.370062
0.231235 0.449653 0.368353
0.399481 0.476570 0.287358
0.643244 0.497871 0.337469
0.764096 0.494301 0.373053
0.846738 0.490455 0.388525
0.912200 0.493477 0.406226
0.966278 0.498939 0.422156
0.224094 0.583032 0.469551
0.245579 0.580957 0.468879
0.239048 0.591363 0.419989
0.499062 0.613367 0.345037
0.721645 0.624628 0.373175
0.820371 0.623407 0.475319
0.888212 0.609827 0.487312
0.943481 0.597498 0.490333
0.294041 0.676997 0.556359
0.303685 0.675502 0.555596
0.338476 0.671595 0.553368
0.356237 0.688350 0.482368
0.566949 0.697139 0.409369
0.770047 0.707057 0.409216
0.857084 0.699886 0.509911
0.914611 0.698512 0.573297
0.376806 0.735348 0.622278
0.382544 0.734798 0.622553
0.404334 0.732448 0.623590
0.389776 0.740139 0.590692
0.454932 0.752987 0.540642
0.624994 0.762295 0.475746
0.816861 0.775235 0.448188
0.889921 0.761013 0.541772
0.440833 0.790616 0.681086
0.443275 0.789822 0.680690
0.455177 0.787991 0.680598
0.469673 0.787381 0.676417
0.444984 0.800259 0.627832
0.531304 0.809659 0.590997
0.675166 0.816007 0.527855
0.857389 0.828214 0.470588
0.492195 0.843931 0.733242
0.494972 0.844022 0.733761
0.503838 0.843320 0.734310
0.521843 0.842252 0.736294
0.510155 0.848722 0.713527
0.519524 0.858152 0.675868
0.605432 0.864897 0.643061
0.733639 0.868833 0.585260
0.000000 0.105470 0.498421
0.189822 0.101961 0.497505
0.467903 0.146487 0.489754
0.644678 0.246891 0.455848
0.755428 0.332494 0.444526
0.828916 0.408759 0.464363
0.896391 0.454322 0.483925
0.953948 0.480690 0.495186
0.000000 0.274357 0.492317
0.222568 0.277012 0.490700
0.461646 0.293675 0.483833
0.630396 0.330266 0.458930
0.744228 0.379126 0.452705
0.823026 0.436896 0.473762
0.892088 0.469764 0.487984
0.950195 0.492042 0.498451
0.161440 0.479835 0.482277
0.267674 0.479988 0.480964
0.444038 0.479927 0.476905
0.607538 0.498604 0.490272
0.728450 0.513512 0.500084
0.812955 0.526543 0.510002
0.882475 0.537652 0.518486
0.940642 0.545678 0.524498
0.347326 0.601190 0.538781
0.383520 0.599817 0.544854
0.421027 0.593866 0.541375
0.527611 0.615381 0.487678
0.705318 0.634913 0.530083
0.796139 0.642786 0.573419
0.865263 0.634852 0.572625
0.922789 0.627405 0.570977
0.397650 0.681910 0.600793
0.403693 0.680964 0.600183
0.427741 0.677455 0.599237
0.433814 0.686580 0.560632
0.586389 0.697505 0.511498
0.759396 0.710872 0.528679
0.841672 0.715816 0.601495
0.899443 0.713344 0.628565
0.440467 0.737606 0.650111
0.444587 0.737270 0.650263
0.460243 0.735012 0.650385
0.471992 0.735500 0.640101
0.495918 0.749783 0.592920
0.636774 0.760037 0.544152
0.807980 0.774777 0.537316
0.879057 0.769192 0.610864
0.476783 0.793118 0.698146
0.478798 0.792477 0.697749
0.487984 0.790463 0.696925
0.506523 0.787503 0.696956
0.482979 0.798367 0.656611
0.555261 0.808286 0.627222
0.685695 0.815793 0.579004
0.852537 0.828367 0.544976
0.515160 0.844999 0.743862
0.516686 0.844663 0.743709
0.524712 0.843931 0.744076
0.542077 0.843320 0.746365
0.543023 0.846769 0.733364
0.541070 0.857328 0.695705
0.618830 0.864500 0.666316
0.740902 0.868589 0.619532
0.000000 0.162570 0.647669
0.000000 0.174746 0.647669
0.387518 0.221897 0.642451
0.592950 0.283146 0.633997
0.732082 0.347356 0.600977
0.807034 0.414679 0.573419
0.864958 0.472145 0.572961
0.916472 0.520958 0.588190
0.000000 0.298619 0.644343
0.185855 0.303563 0.643397
0.401282 0.322606 0.639063
0.589899 0.351080 0.631983
0.724880 0.391669 0.601801
0.800168 0.443153 0.577874
0.859129 0.491310 0.578515
0.914000 0.533654 0.593133
0.212863 0.469398 0.632685
0.279637 0.473182 0.631556
0.424323 0.482521 0.627619
0.577173 0.488411 0.622278
0.699428 0.505119 0.604578
0.777066 0.531304 0.597040
0.844663 0.562737 0.607477
0.907408 0.584436 0.616907
0.272282 0.617182 0.624170
0.315007 0.616754 0.623194
0.433875 0.616114 0.620447
0.560540 0.614984 0.616907
0.671962 0.632197 0.633570
0.757015 0.640864 0.639979
0.831571 0.647547 0.644617
0.894560 0.650599 0.645991
0.426551 0.694606 0.643122
0.445228 0.693202 0.645289
0.509819 0.688808 0.655543
0.548760 0.683833 0.657343
0.613092 0.697353 0.622797
0.745541 0.719844 0.653559
0.824918 0.733303 0.689631
0.881559 0.724605 0.683955
0.516320 0.745663 0.692866
0.520195 0.746365 0.693751
0.529625 0.744106 0.691859
0.548150 0.740505 0.690425
0.553765 0.749142 0.662623
0.657252 0.759426 0.632074
0.797726 0.776822 0.642969
0.867124 0.780117 0.689540
0.525750 0.797482 0.724697
0.527825 0.797330 0.724697
0.535943 0.796170 0.724178
0.551507 0.793881 0.723751
0.556085 0.796139 0.710109
0.588312 0.807767 0.676936
0.700984 0.815244 0.644862
0.845029 0.827909 0.635645
0.555047 0.848295 0.764187
0.556603 0.848112 0.764126
0.563378 0.847379 0.764218
0.577203 0.846250 0.765042
0.596643 0.844053 0.766415
0.577142 0.855589 0.728603
0.641230 0.863493 0.704128
0.752255 0.868437 0.667414
0.000000 0.242618 0.740688
0.000000 0.252781 0.740414
0.331090 0.287358 0.736995
0.514855 0.333776 0.731563
0.672877 0.379065 0.724269
0.784451 0.427375 0.695674
0.849027 0.480201 0.668086
0.903075 0.527672 0.661769
0.026123 0.333745 0.737331
0.185336 0.338720 0.737240
0.357214 0.356237 0.734463
0.519524 0.383124 0.729030
0.670314 0.414466 0.722377
0.778866 0.453407 0.695125
0.844266 0.498390 0.670192
0.899199 0.540703 0.664881
0.279576 0.480262 0.727413
0.314977 0.484169 0.726802
0.410193 0.491157 0.724422
0.531548 0.499763 0.720272
0.659632 0.511345 0.714015
0.756802 0.530785 0.691646
0.825559 0.557610 0.676997
0.884459 0.583520 0.674281
0.332921 0.593866 0.716976
0.359838 0.595636 0.716274
0.446113 0.603326 0.713771
0.549645 0.614191 0.709712
0.646967 0.617395 0.705409
0.730465 0.624079 0.694697
0.803189 0.632441 0.689540
0.867735 0.641291 0.688045
0.387457 0.696925 0.706111
0.406317 0.696925 0.705898
0.471687 0.696254 0.704524
0.556634 0.695064 0.702083
0.632929 0.693263 0.699123
0.723323 0.709651 0.714473
0.798032 0.715023 0.718410
0.862303 0.717311 0.719600
0.481697 0.753231 0.709163
0.491646 0.752682 0.710262
0.527062 0.749630 0.713558
0.582727 0.744869 0.720607
0.616388 0.741299 0.722377
0.672999 0.755367 0.697810
0.790860 0.778592 0.725154
0.854917 0.793118 0.762600
0.551415 0.802945 0.749508
0.556817 0.802304 0.750057
0.579339 0.800351 0.753323
0.596216 0.798459 0.752804
0.615595 0.795346 0.751797
0.622187 0.803861 0.726772
0.714809 0.812589 0.701961
0.838315 0.825742 0.710414
0.593561 0.849851 0.786038
0.594751 0.849668 0.785855
0.600427 0.848966 0.785428
0.614252 0.848631 0.786526
0.631495 0.846738 0.786954
0.635157 0.850217 0.774289
0.666560 0.860533 0.746700
0.764126 0.866331 0.717617
0.000000 0.316686 0.808804
0.118990 0.323308 0.808438
0.310307 0.345708 0.805600
0.465797 0.380560 0.801511
0.605341 0.418128 0.795621
0.732174 0.454414 0.787961
0.830808 0.493690 0.768673
0.889555 0.538079 0.744717
0.159335 0.372717 0.803891
0.211704 0.376562 0.803311
0.337072 0.390692 0.801144
0.473365 0.414221 0.797177
0.605219 0.442939 0.791562
0.728573 0.473182 0.784695
0.825437 0.507927 0.766293
0.885405 0.547845 0.744198
0.320287 0.498512 0.796445
0.339239 0.499702 0.795987
0.406043 0.504723 0.794308
0.502647 0.512902 0.790097
0.611994 0.526604 0.785367
0.721736 0.543206 0.779629
0.811246 0.565118 0.764187
0.873747 0.590234 0.747768
0.384497 0.596582 0.787839
0.402167 0.598962 0.786984
0.465095 0.609674 0.784543
0.542351 0.620020 0.782589
0.624811 0.624781 0.779477
0.714412 0.629603 0.774899
0.794522 0.636957 0.763821
0.860288 0.646235 0.753292
0.424384 0.680934 0.776425
0.437720 0.681819 0.775998
0.485573 0.685298 0.774563
0.553735 0.690150 0.772488
0.626276 0.692958 0.769650
0.704219 0.692958 0.766232
0.778531 0.694972 0.759335
0.845029 0.699214 0.754940
0.458869 0.757504 0.767391
0.468788 0.757931 0.767727
0.501976 0.757534 0.766873
0.555596 0.756893 0.765438
0.623255 0.755581 0.763088
0.693874 0.754940 0.762020
0.778378 0.773129 0.780148
0.840421 0.777157 0.783658
0.509087 0.814664 0.768521
0.516442 0.814572 0.769406
0.543236 0.813077 0.771817
0.590478 0.810208 0.776761
0.651514 0.806149 0.785061
0.685634 0.801785 0.786740
0.734798 0.812711 0.764248
0.834928 0.831083 0.790921
0.585718 0.857450 0.802121
0.589837 0.857023 0.802518
0.608362 0.855802 0.805051
0.643458 0.853910 0.810849
0.672816 0.851652 0.813931
0.692195 0.849332 0.813840
0.700465 0.857755 0.794186
0.780301 0.865110 0.773556
0.146609 0.372930 0.859709
0.198123 0.378393 0.860136
0.311315 0.392859 0.858030
0.437507 0.418494 0.855070
0.559289 0.448341 0.850492
0.674342 0.479561 0.844541
0.781582 0.509575 0.837675
0.870054 0.540459 0.823117
0.206332 0.404395 0.853391
0.239963 0.409094 0.854154
0.330388 0.419776 0.852445
0.442847 0.438209 0.849210
0.558221 0.461769 0.844572
0.669306 0.486854 0.838132
0.774289 0.511620 0.830716
0.861967 0.537987 0.815702
0.332616 0.506798 0.848814
0.346777 0.508049 0.848508
0.398108 0.511711 0.846525
0.479469 0.520256 0.843656
0.573724 0.531548 0.839017
0.672816 0.546654 0.833951
0.772061 0.565881 0.829587
0.856321 0.586938 0.817960
0.412573 0.602441 0.842893
0.424872 0.604334 0.841978
0.471626 0.613367 0.839109
0.527794 0.617090 0.837369
0.599145 0.620813 0.833982
0.681605 0.627466 0.830961
0.769314 0.635218 0.828214
0.846494 0.642603 0.817227
0.437568 0.670466 0.832456
0.445869 0.670344 0.831266
0.482307 0.673396 0.829160
0.540856 0.679591 0.827451
0.607385 0.684230 0.824765
0.678737 0.684901 0.822049
0.759548 0.687343 0.819699
0.834714 0.696132 0.813809
0.459358 0.739223 0.823667
0.467201 0.739712 0.823697
0.496284 0.740810 0.823301
0.546075 0.742824 0.822690
0.611078 0.745571 0.821439
0.685054 0.750820 0.820981
0.758816 0.752865 0.819913
0.825101 0.755337 0.814633
0.481636 0.811276 0.821103
0.489204 0.811826 0.821561
0.514549 0.811643 0.821164
0.560388 0.811643 0.820768
0.619379 0.810819 0.819425
0.686244 0.809964 0.818021
0.752712 0.809934 0.818021
0.825925 0.826505 0.834928
0.533196 0.866331 0.817868
0.539361 0.866209 0.818509
0.565789 0.866178 0.821866
0.607141 0.864469 0.826139
0.660243 0.861387 0.831907
0.720272 0.857847 0.840391
0.755215 0.854887 0.843900
0.798398 0.864469 0.826871
0.209751 0.409522 0.895628
0.236393 0.412940 0.895720
0.311498 0.421118 0.893797
0.413611 0.439612 0.891936
0.520043 0.463172 0.888853
0.624201 0.488869 0.884642
0.725521 0.517021 0.880400
0.821286 0.542473 0.875303
0.238956 0.430121 0.892180
0.260807 0.433265 0.892332
0.327001 0.440589 0.890990
0.420539 0.455421 0.889036
0.522332 0.475654 0.886107
0.624018 0.498299 0.882078
0.723110 0.522362 0.877562
0.817929 0.544579 0.872251
0.325597 0.504204 0.886534
0.337896 0.505486 0.886412
0.381018 0.508751 0.885069
0.456306 0.520867 0.884642
0.540612 0.531731 0.881651
0.630579 0.544518 0.877531
0.723323 0.561364 0.873777
0.814298 0.577295 0.869291
0.407111 0.591638 0.879149
0.416571 0.593317 0.879179
0.445319 0.594842 0.878264
0.498451 0.599878 0.877379
0.566339 0.605859 0.875486
0.643122 0.612268 0.872709
0.726009 0.620539 0.870115
0.811398 0.627893 0.867155
0.409583 0.644770 0.874022
0.420356 0.646784 0.874113
0.454414 0.650660 0.872862
0.520623 0.663905 0.870695
0.580102 0.667445 0.868711
0.647181 0.668544 0.866636
0.724392 0.672419 0.865171
0.807889 0.679133 0.864317
0.428199 0.711604 0.867796
0.433936 0.711269 0.867247
0.459998 0.711360 0.865812
0.508263 0.713436 0.864622
0.574578 0.718685 0.864073
0.655726 0.731197 0.864103
0.731533 0.738888 0.865446
0.810208 0.747280 0.866728
0.456794 0.785153 0.866453
0.462531 0.785153 0.866239
0.486488 0.785306 0.865629
0.532464 0.786984 0.865263
0.594568 0.790036 0.864988
0.666957 0.795407 0.865507
0.741787 0.803128 0.866331
0.808957 0.804990 0.865568
0.502190 0.858793 0.867826
0.506737 0.858610 0.867613
0.528191 0.858518 0.867460
0.569970 0.859068 0.867796
0.624567 0.859434 0.867948
0.686397 0.859525 0.867826
0.751736 0.859648 0.867918
0.810422 0.859617 0.868437
