20 Preset/Japan Style/【3】LUT video cho PR-AE-FCPX/LUT VIDEO (2)/Japan Style LUT (17).cube
# Created by Adobe Lightroom plugin Export LUT (1.24.0)
# www.johnrellis.com/lightroom/exportlut.htm
# Preset: 17日系窗户（素材江湖）
# Color profile: C:\Program Files (x86)\Common Files\Adobe\Color\Profiles\Recommended\VideoHD.icc
LUT_3D_SIZE 5
DOMAIN_MIN 0.000000 0.000000 0.000000
DOMAIN_MAX 0.903226 0.903226 0.903226
0.000000 0.011994 0.014374
0.795590 0.185733 0.234470
0.996612 0.599298 0.586450
0.997253 0.727962 0.720119
0.989715 0.772427 0.772580
0.000000 0.748257 0.629938
0.585046 0.678767 0.157534
1.000000 0.647364 0.455207
1.000000 0.731685 0.689448
0.993133 0.773373 0.762600
0.695766 0.874510 0.846281
0.722927 0.870848 0.845853
0.850187 0.850462 0.685695
1.000000 0.795560 0.635767
1.000000 0.781033 0.711208
0.843534 0.886076 0.884977
0.855497 0.884886 0.886595
0.858732 0.884367 0.885557
0.895048 0.876951 0.805112
0.974792 0.840970 0.746700
0.892576 0.890288 0.899840
0.897368 0.889860 0.900694
0.898039 0.889433 0.900237
0.894133 0.889708 0.895171
0.915251 0.887449 0.858610
0.000000 0.145510 0.511009
0.632898 0.180026 0.472267
0.951537 0.662654 0.657069
1.000000 0.719783 0.689509
0.992798 0.767025 0.760586
0.000000 0.682124 0.667567
0.602136 0.652338 0.619837
0.940307 0.736019 0.695430
1.000000 0.729946 0.667994
0.995819 0.768246 0.750637
0.689509 0.870481 0.843992
0.763882 0.862455 0.849668
0.843961 0.843412 0.742672
0.968353 0.820859 0.754330
1.000000 0.780514 0.705684
0.844633 0.885710 0.885283
0.861173 0.884062 0.887663
0.869200 0.883360 0.887907
0.896208 0.876219 0.826627
0.960723 0.850431 0.795956
0.891386 0.890410 0.899718
0.896330 0.889952 0.900572
0.902129 0.889433 0.901427
0.899229 0.889494 0.897704
0.916228 0.887541 0.867521
0.123232 0.389014 0.791836
0.537072 0.434211 0.783627
0.882597 0.621637 0.761929
0.937774 0.787869 0.813901
0.962493 0.807462 0.817197
0.246738 0.586816 0.784207
0.570642 0.634882 0.787228
0.859373 0.719539 0.788602
0.920653 0.817807 0.836637
0.959075 0.815579 0.823270
0.631922 0.855711 0.854429
0.719356 0.853819 0.854429
0.846952 0.835813 0.836606
0.922118 0.851774 0.859037
0.950408 0.838804 0.839933
0.841825 0.885344 0.885893
0.855283 0.883635 0.887205
0.886442 0.880247 0.891234
0.899962 0.874846 0.865812
0.936797 0.869017 0.866514
0.880827 0.891386 0.898222
0.888182 0.890684 0.899382
0.905669 0.889128 0.902434
0.908263 0.888914 0.902525
0.917510 0.887144 0.881651
0.536675 0.612665 0.875456
0.626184 0.627131 0.872282
0.828550 0.674922 0.861479
0.929320 0.757717 0.843412
0.940063 0.826413 0.856901
0.559838 0.676356 0.869413
0.650538 0.696529 0.866392
0.819669 0.721920 0.859525
0.917266 0.785092 0.849210
0.934295 0.836149 0.863127
0.635462 0.799283 0.871061
0.678950 0.799588 0.867735
0.815244 0.814084 0.863188
0.898436 0.839353 0.867399
0.922057 0.861967 0.881682
0.812009 0.879515 0.890562
0.827878 0.878813 0.890318
0.871702 0.877440 0.890623
0.900420 0.871977 0.885161
0.925231 0.876921 0.891722
0.864683 0.893462 0.897276
0.872831 0.892607 0.898283
0.895232 0.890410 0.901366
0.914153 0.888640 0.904387
0.919341 0.887205 0.895140
0.712398 0.741115 0.903258
0.736629 0.743496 0.902159
0.818418 0.756069 0.898192
0.908263 0.779873 0.891997
0.938720 0.817685 0.876310
0.724361 0.764004 0.900237
0.745937 0.765866 0.899413
0.819150 0.775174 0.896086
0.902983 0.794491 0.890684
0.934325 0.826505 0.878477
0.683314 0.791409 0.898436
0.722683 0.797910 0.896971
0.826291 0.822019 0.892973
0.891722 0.831022 0.890074
0.924407 0.850828 0.886259
0.755367 0.853849 0.900420
0.773373 0.854398 0.899748
0.826230 0.856413 0.897368
0.888273 0.863340 0.895079
0.919585 0.873594 0.896452
0.830137 0.890227 0.904234
0.841917 0.889769 0.904173
0.875975 0.888731 0.904295
0.905211 0.888273 0.904784
0.919951 0.886900 0.903777
