20 Preset/Japan Style/【3】LUT video cho PR-AE-FCPX/LUT VIDEO (2)/Japan Style LUT (38).cube
# Created by Adobe Lightroom plugin Export LUT (1.24.0)
# www.johnrellis.com/lightroom/exportlut.htm
# Preset: 38日系胶片（素材江湖）
# Color profile: C:\Program Files (x86)\Common Files\Adobe\Color\Profiles\Recommended\VideoHD.icc
LUT_3D_SIZE 32
DOMAIN_MIN 0.0 0.0 0.0
DOMAIN_MAX 1.0 1.0 1.0
0.001190 0.037751 0.038849
0.002167 0.038727 0.039826
0.009094 0.039033 0.040772
0.027222 0.041382 0.043488
0.054383 0.049378 0.047517
0.092805 0.057832 0.053254
0.116823 0.068971 0.058106
0.146365 0.076234 0.062440
0.182376 0.080201 0.065309
0.225437 0.082307 0.066926
0.277073 0.080323 0.066316
0.337133 0.068238 0.063325
0.403479 0.045167 0.056397
0.474678 0.015229 0.044831
0.547967 0.000000 0.037385
0.621271 0.000000 0.037781
0.691096 0.000000 0.045441
0.754269 0.072267 0.069245
0.810636 0.125429 0.092012
0.868406 0.175509 0.112825
0.915923 0.220768 0.136110
0.955108 0.262730 0.160616
0.986908 0.301579 0.185946
1.000000 0.338384 0.210056
1.000000 0.373327 0.232944
1.000000 0.406012 0.256352
1.000000 0.436622 0.278538
1.000000 0.465278 0.299962
1.000000 0.492378 0.320897
1.000000 0.517815 0.340520
1.000000 0.541527 0.359258
1.000000 0.563470 0.376440
0.001190 0.037751 0.038849
0.002167 0.038727 0.039826
0.010376 0.040009 0.040620
0.025788 0.043763 0.043183
0.054932 0.051545 0.047211
0.092287 0.060243 0.052949
0.115572 0.070619 0.057984
0.144686 0.078248 0.062318
0.180575 0.081819 0.065217
0.223056 0.084627 0.066865
0.273442 0.084321 0.065217
0.332860 0.075105 0.062623
0.398810 0.054170 0.055970
0.469306 0.026947 0.044892
0.542473 0.000000 0.040650
0.615808 0.000000 0.041352
0.686213 0.000000 0.050935
0.749813 0.078737 0.071656
0.806638 0.126192 0.093080
0.863584 0.174258 0.113832
0.910765 0.217990 0.135653
0.949859 0.258824 0.159457
0.981903 0.297032 0.183658
1.000000 0.333379 0.206790
1.000000 0.368200 0.229343
1.000000 0.400671 0.251926
1.000000 0.431342 0.273716
1.000000 0.460487 0.295720
1.000000 0.487892 0.316289
1.000000 0.513725 0.336034
1.000000 0.537865 0.354772
1.000000 0.560113 0.371893
0.001404 0.044282 0.043610
0.001099 0.044282 0.044739
0.007965 0.050385 0.039246
0.025360 0.053925 0.041810
0.050935 0.060945 0.047150
0.091371 0.070619 0.051575
0.114321 0.080079 0.057740
0.143404 0.085115 0.060975
0.178195 0.090089 0.063447
0.220371 0.092500 0.064973
0.270756 0.092683 0.064515
0.329503 0.090059 0.060426
0.394720 0.081910 0.053590
0.465095 0.058320 0.051850
0.538079 0.032624 0.049836
0.611231 0.020539 0.054078
0.681849 0.049531 0.064942
0.745907 0.100801 0.086397
0.803708 0.138827 0.100069
0.859922 0.182284 0.118959
0.906981 0.223545 0.139925
0.946166 0.262821 0.163027
0.978454 0.300084 0.186648
1.000000 0.335546 0.209445
1.000000 0.369482 0.231632
1.000000 0.401465 0.252873
1.000000 0.432166 0.275425
1.000000 0.460945 0.296086
1.000000 0.488197 0.316381
1.000000 0.514061 0.336492
1.000000 0.537926 0.354864
1.000000 0.560021 0.371710
0.000000 0.064088 0.060121
0.000671 0.065064 0.059968
0.003754 0.064607 0.063355
0.014130 0.077302 0.050141
0.053315 0.081971 0.046204
0.090333 0.086976 0.053223
0.112551 0.091524 0.058289
0.140902 0.095827 0.061067
0.176059 0.100465 0.063081
0.217868 0.103914 0.064210
0.267887 0.106111 0.065278
0.325872 0.105776 0.066499
0.391119 0.102602 0.067231
0.460792 0.097719 0.070375
0.533104 0.092897 0.071046
0.605524 0.094545 0.079927
0.675868 0.106691 0.090150
0.739559 0.130404 0.100740
0.798520 0.161379 0.114229
0.853025 0.197665 0.131746
0.899351 0.234409 0.150240
0.938476 0.271153 0.171695
0.971588 0.305852 0.193515
1.000000 0.340246 0.215274
1.000000 0.373754 0.236759
1.000000 0.406104 0.258640
1.000000 0.436774 0.280858
1.000000 0.465675 0.301762
1.000000 0.492592 0.321386
1.000000 0.518029 0.341100
1.000000 0.541588 0.359167
1.000000 0.563104 0.375586
0.000000 0.088655 0.082704
0.000000 0.088930 0.083314
0.001862 0.089418 0.085969
0.012299 0.088899 0.088899
0.027802 0.096590 0.078218
0.088350 0.102358 0.063325
0.112978 0.106233 0.066896
0.136355 0.109529 0.077028
0.171572 0.114229 0.079255
0.213443 0.118837 0.080964
0.262730 0.122683 0.082643
0.320592 0.124880 0.084962
0.384741 0.126040 0.088991
0.454414 0.126528 0.091646
0.526574 0.127718 0.096101
0.598749 0.133913 0.102754
0.669764 0.145357 0.109407
0.733974 0.165499 0.120150
0.794430 0.192447 0.132540
0.848020 0.223728 0.149386
0.893950 0.256382 0.167391
0.933135 0.288975 0.186343
0.966339 0.321416 0.207248
0.995636 0.353765 0.227115
1.000000 0.385840 0.248356
1.000000 0.417060 0.269902
1.000000 0.446509 0.290806
1.000000 0.474250 0.310918
1.000000 0.500450 0.330266
1.000000 0.525048 0.349187
1.000000 0.547753 0.366674
1.000000 0.568719 0.382635
0.000000 0.105257 0.099306
0.000000 0.105562 0.099641
0.000000 0.106233 0.100923
0.001007 0.107576 0.103853
0.023560 0.106691 0.107576
0.039307 0.117983 0.098329
0.105318 0.128786 0.080354
0.141238 0.132296 0.083589
0.169314 0.134829 0.092927
0.208865 0.139956 0.096864
0.258824 0.145144 0.099611
0.316594 0.150118 0.102663
0.380926 0.154696 0.107607
0.450019 0.159548 0.113375
0.521996 0.165377 0.119295
0.594873 0.174044 0.126650
0.665217 0.187411 0.134463
0.730220 0.205692 0.144991
0.791806 0.230350 0.157656
0.844602 0.257572 0.173526
0.890166 0.286564 0.190311
0.929137 0.316197 0.207950
0.986969 0.376043 0.248631
1.000000 0.406195 0.269535
1.000000 0.434821 0.290806
1.000000 0.462409 0.311711
1.000000 0.488350 0.332525
1.000000 0.512596 0.351263
1.000000 0.535668 0.369970
1.000000 0.557153 0.387366
1.000000 0.576989 0.403265
1.000000 0.594934 0.417334
0.000000 0.131197 0.123903
0.000000 0.131441 0.123842
0.000000 0.132204 0.125093
0.000000 0.133669 0.127169
0.000000 0.136416 0.131807
0.016236 0.136263 0.137972
0.038819 0.147799 0.130800
0.126772 0.168276 0.103120
0.177554 0.170504 0.103975
0.218875 0.173556 0.113466
0.261021 0.178286 0.124331
0.321691 0.185672 0.130495
0.387579 0.193362 0.137026
0.457588 0.201389 0.143557
0.529564 0.210666 0.150271
0.601312 0.221805 0.158328
0.670649 0.236210 0.166781
0.738582 0.256504 0.178042
0.799191 0.280217 0.192294
0.851804 0.306096 0.208011
0.897551 0.333593 0.224918
0.937285 0.362310 0.244358
0.971344 0.391943 0.265324
1.000000 0.421820 0.286503
1.000000 0.450507 0.307530
1.000000 0.477424 0.328161
1.000000 0.501946 0.346746
1.000000 0.525170 0.365911
1.000000 0.546960 0.383093
1.000000 0.567224 0.399603
1.000000 0.586053 0.414710
1.000000 0.603235 0.427955
0.000000 0.161990 0.155398
0.000000 0.162509 0.156130
0.000000 0.163088 0.156222
0.000000 0.164767 0.157473
0.000000 0.167453 0.160281
0.000000 0.171237 0.166445
0.000000 0.173251 0.174502
0.054597 0.179873 0.175967
0.140414 0.213596 0.143832
0.213046 0.215183 0.134005
0.267979 0.219883 0.146822
0.310887 0.224094 0.161563
0.376867 0.233188 0.168643
0.446601 0.243137 0.175692
0.518517 0.254063 0.182437
0.589990 0.266087 0.190249
0.662593 0.282628 0.199802
0.729702 0.301518 0.210849
0.788693 0.321935 0.223545
0.840269 0.344244 0.237675
0.885832 0.368139 0.253178
0.925689 0.393286 0.270237
0.960357 0.419471 0.290043
0.990265 0.446296 0.309331
1.000000 0.472755 0.329473
1.000000 0.497383 0.348943
1.000000 0.520378 0.367529
1.000000 0.541802 0.384222
1.000000 0.562036 0.400214
1.000000 0.581353 0.416510
1.000000 0.598962 0.430488
1.000000 0.615198 0.443122
0.000000 0.201511 0.196628
0.000000 0.201602 0.196445
0.000000 0.202609 0.196872
0.000000 0.204257 0.198032
0.000000 0.206912 0.199557
0.000000 0.210758 0.203037
0.000000 0.215702 0.209354
0.000000 0.221103 0.221500
0.101381 0.217685 0.231846
0.152651 0.260472 0.197513
0.255955 0.271153 0.168643
0.322942 0.276982 0.185183
0.372992 0.280491 0.200961
0.434272 0.289616 0.212009
0.506828 0.301305 0.219028
0.581872 0.316075 0.227329
0.654597 0.332372 0.236606
0.719814 0.349401 0.247105
0.777737 0.367315 0.257939
0.828916 0.386664 0.271092
0.874357 0.407355 0.285740
0.914275 0.429267 0.301732
0.949218 0.452277 0.320073
0.979675 0.475990 0.338170
1.000000 0.499580 0.356359
1.000000 0.521965 0.374517
1.000000 0.542901 0.391608
1.000000 0.562707 0.407691
1.000000 0.581445 0.423316
1.000000 0.598962 0.437781
1.000000 0.615412 0.451087
1.000000 0.630457 0.463111
0.000000 0.249241 0.243290
0.000000 0.249302 0.243381
0.000000 0.250034 0.243595
0.000000 0.251652 0.244175
0.000000 0.254185 0.245029
0.000000 0.257877 0.247013
0.000000 0.262730 0.250462
0.000000 0.268894 0.256779
0.000000 0.275669 0.269657
0.133150 0.273503 0.281010
0.175723 0.312505 0.255558
0.300938 0.336156 0.207675
0.376806 0.339208 0.226810
0.437507 0.344366 0.242435
0.494209 0.353552 0.258213
0.570459 0.368231 0.266392
0.642451 0.383612 0.274968
0.707729 0.399176 0.284947
0.765774 0.415259 0.295842
0.817014 0.431983 0.308446
0.862150 0.449439 0.321538
0.901701 0.467597 0.336339
0.936370 0.486641 0.352026
0.966796 0.506554 0.367590
0.992798 0.526696 0.383581
1.000000 0.546380 0.399908
1.000000 0.565362 0.415961
1.000000 0.583459 0.431037
1.000000 0.600855 0.445747
1.000000 0.617395 0.459937
1.000000 0.632837 0.473152
1.000000 0.646998 0.484718
0.000000 0.298985 0.288792
0.000000 0.299290 0.288914
0.000000 0.300847 0.289769
0.000000 0.303807 0.291325
0.000000 0.307805 0.293034
0.000000 0.311528 0.294530
0.000000 0.316472 0.296696
0.000000 0.322301 0.300542
0.000000 0.329412 0.307317
0.005402 0.337316 0.320500
0.178073 0.335943 0.333013
0.216526 0.370489 0.315862
0.342962 0.408148 0.270665
0.440772 0.412024 0.269993
0.511559 0.418799 0.285924
0.562280 0.423407 0.303868
0.626886 0.435462 0.314458
0.692287 0.448951 0.324407
0.750423 0.462776 0.334508
0.801846 0.476692 0.345647
0.847227 0.491188 0.358038
0.887327 0.506401 0.371283
0.922637 0.523095 0.386053
0.953826 0.540154 0.400336
0.980560 0.557916 0.415351
1.000000 0.575494 0.430945
1.000000 0.592401 0.445899
1.000000 0.608637 0.459876
1.000000 0.624201 0.473548
1.000000 0.639155 0.486885
1.000000 0.653162 0.499214
1.000000 0.666102 0.510185
0.000000 0.355871 0.336919
0.000000 0.356237 0.336919
0.000000 0.357549 0.337469
0.000000 0.360479 0.339178
0.000000 0.365301 0.341588
0.000000 0.371405 0.344701
0.000000 0.375982 0.345953
0.000000 0.381598 0.348486
0.000000 0.388312 0.353063
0.000000 0.396857 0.361486
0.128237 0.406043 0.376562
0.237034 0.406958 0.391333
0.297642 0.459205 0.399634
0.422248 0.509575 0.352667
0.536370 0.513237 0.330968
0.607843 0.516777 0.350896
0.656123 0.517266 0.368750
0.700923 0.522637 0.384649
0.757565 0.532982 0.395483
0.807218 0.543786 0.405829
0.850736 0.555291 0.418189
0.888762 0.567407 0.430854
0.922148 0.580224 0.443610
0.951080 0.594293 0.457710
0.975647 0.608301 0.471199
0.996094 0.621942 0.484199
1.000000 0.634791 0.496407
1.000000 0.647486 0.508110
1.000000 0.659968 0.520226
1.000000 0.671534 0.530510
1.000000 0.682673 0.540551
1.000000 0.692866 0.548425
0.000000 0.425696 0.393347
0.000000 0.425940 0.393408
0.000000 0.426795 0.393866
0.000000 0.429633 0.395148
0.000000 0.434058 0.397589
0.000000 0.440558 0.400855
0.000000 0.448127 0.404730
0.000000 0.453986 0.407630
0.000000 0.461280 0.411566
0.000000 0.469642 0.417823
0.000000 0.479133 0.428229
0.219944 0.489540 0.445899
0.317052 0.491463 0.462623
0.358129 0.517021 0.459022
0.468299 0.570428 0.413733
0.591272 0.577935 0.373114
0.655665 0.576532 0.396002
0.704768 0.575891 0.412024
0.739956 0.576226 0.429419
0.783505 0.582879 0.442267
0.828367 0.591852 0.452979
0.867857 0.601740 0.464820
0.902708 0.612604 0.477058
0.933318 0.624414 0.489204
0.959319 0.636591 0.501823
0.980987 0.648707 0.514458
0.999390 0.660334 0.526421
1.000000 0.671473 0.537346
1.000000 0.682399 0.547997
1.000000 0.692897 0.557916
1.000000 0.702693 0.566705
1.000000 0.711971 0.575128
0.000000 0.493568 0.447852
0.000000 0.493538 0.447730
0.000000 0.494484 0.448249
0.000000 0.496284 0.448890
0.000000 0.499458 0.450385
0.000000 0.504295 0.452857
0.000000 0.511223 0.456580
0.000000 0.516594 0.458625
0.000000 0.522148 0.461494
0.000000 0.528985 0.465980
0.000000 0.536889 0.473396
0.090120 0.545647 0.485206
0.299657 0.554711 0.504143
0.384009 0.554559 0.519554
0.422766 0.574121 0.518242
0.512810 0.622217 0.475074
0.638636 0.635218 0.417823
0.696773 0.629358 0.441901
0.745541 0.628290 0.456916
0.776425 0.626062 0.473671
0.805875 0.628473 0.489387
0.847105 0.636530 0.500572
0.883513 0.645747 0.511803
0.915526 0.655787 0.523583
0.942840 0.666255 0.535424
0.965881 0.676478 0.546502
0.985382 0.686397 0.557214
1.000000 0.696071 0.567407
1.000000 0.705440 0.577234
1.000000 0.714504 0.586145
1.000000 0.723201 0.594720
1.000000 0.731319 0.602106
0.000000 0.557183 0.500267
0.000000 0.557336 0.500298
0.000000 0.557733 0.500298
0.000000 0.558953 0.500664
0.000000 0.561212 0.501701
0.000000 0.564935 0.503655
0.000000 0.570336 0.506554
0.000000 0.576318 0.509667
0.000000 0.580377 0.511467
0.000000 0.585657 0.514885
0.000000 0.591882 0.520470
0.000000 0.598627 0.528985
0.243870 0.605524 0.541680
0.382116 0.611688 0.561547
0.450721 0.608942 0.574609
0.483711 0.623774 0.574090
0.556298 0.666529 0.533867
0.670954 0.684016 0.483650
0.733150 0.676326 0.487587
0.776669 0.673732 0.503899
0.808377 0.671534 0.518303
0.834043 0.672358 0.533562
0.864225 0.677882 0.546899
0.897673 0.686152 0.557366
0.926329 0.694697 0.567803
0.950622 0.703304 0.577966
0.971283 0.711727 0.587762
0.988922 0.720180 0.597589
1.000000 0.728389 0.606653
1.000000 0.736507 0.615747
1.000000 0.744350 0.624201
1.000000 0.751675 0.631708
0.000000 0.614008 0.549126
0.000000 0.614313 0.549310
0.000000 0.614923 0.549615
0.000000 0.616175 0.550134
0.000000 0.618402 0.551354
0.000000 0.621820 0.553429
0.000000 0.626703 0.556420
0.000000 0.632929 0.560845
0.000000 0.636225 0.562524
0.000000 0.640040 0.565118
0.000000 0.644007 0.569055
0.000000 0.648005 0.574548
0.181491 0.651820 0.582818
0.351965 0.655238 0.595331
0.456703 0.658259 0.613367
0.508598 0.653590 0.622889
0.536553 0.665187 0.621942
0.595972 0.703029 0.586847
0.696468 0.721462 0.544518
0.764218 0.716640 0.531762
0.803433 0.713252 0.548943
0.836942 0.712459 0.560906
0.860472 0.712428 0.575433
0.882628 0.715663 0.589075
0.910399 0.722316 0.599939
0.935912 0.729580 0.609522
0.957458 0.736843 0.619074
0.976135 0.743832 0.627893
0.992340 0.750759 0.636286
1.000000 0.757504 0.644312
1.000000 0.763882 0.651728
1.000000 0.769955 0.658320
0.000000 0.663416 0.593500
0.000000 0.663630 0.593591
0.000000 0.664057 0.593957
0.000000 0.665248 0.594537
0.000000 0.667048 0.595727
0.000000 0.669856 0.597528
0.000000 0.673579 0.600183
0.000000 0.678401 0.603845
0.000000 0.681300 0.605737
0.000000 0.683711 0.607721
0.000000 0.686305 0.610590
0.000000 0.688991 0.615106
0.092622 0.691402 0.621393
0.325475 0.693477 0.630091
0.437324 0.695491 0.642176
0.521447 0.697353 0.659419
0.561181 0.691676 0.665949
0.585046 0.701839 0.665278
0.635004 0.735500 0.635218
0.723507 0.754726 0.600244
0.793851 0.752865 0.574884
0.829252 0.748989 0.591974
0.861357 0.748531 0.602716
0.884367 0.748287 0.614496
0.903838 0.750240 0.626764
0.921447 0.753964 0.639216
0.944121 0.759945 0.648096
0.963653 0.765774 0.656458
0.980529 0.771633 0.664698
0.995483 0.777249 0.671992
1.000000 0.782620 0.678889
1.000000 0.787778 0.685054
0.000000 0.708339 0.636011
0.000000 0.708522 0.636194
0.000000 0.723171 0.651026
0.000000 0.723964 0.651637
0.000000 0.725216 0.652491
0.000000 0.727077 0.653925
0.000000 0.729427 0.655909
0.000000 0.732662 0.658595
0.000000 0.734707 0.660517
0.000000 0.735744 0.661982
0.000000 0.736812 0.664424
0.000000 0.737819 0.667872
0.143984 0.738399 0.672175
0.338323 0.738705 0.677913
0.443977 0.738949 0.685481
0.524987 0.739193 0.695918
0.587304 0.738766 0.707942
0.619989 0.732753 0.713710
0.639185 0.740719 0.712398
0.680293 0.769558 0.686366
0.757412 0.788083 0.656855
0.826108 0.788266 0.623774
0.856718 0.783902 0.638788
0.884154 0.782589 0.648280
0.906432 0.781857 0.656092
0.922698 0.781765 0.665492
0.937377 0.783413 0.675044
0.952026 0.786587 0.684260
0.969574 0.790982 0.691157
0.984955 0.795529 0.698085
0.998688 0.799985 0.704463
1.000000 0.804349 0.710170
0.000000 0.750729 0.678126
0.000000 0.751919 0.679347
0.000000 0.753506 0.681056
0.000000 0.755215 0.682673
0.000000 0.756985 0.684504
0.000000 0.758663 0.686030
0.000000 0.760647 0.687892
0.000000 0.762905 0.690059
0.000000 0.764187 0.691768
0.000000 0.764584 0.693050
0.000000 0.764950 0.694789
0.000000 0.765255 0.697780
0.127260 0.765164 0.700954
0.328679 0.765164 0.705531
0.434211 0.765072 0.711299
0.515312 0.764920 0.718837
0.582330 0.764920 0.728969
0.629694 0.763912 0.737789
0.660212 0.758907 0.744930
0.677180 0.767697 0.743221
0.714137 0.793088 0.721523
0.783017 0.811093 0.696254
0.847349 0.813291 0.665095
0.877073 0.809079 0.673732
0.900969 0.807034 0.681727
0.922423 0.806210 0.687129
0.937316 0.805509 0.694850
0.950347 0.806241 0.703365
0.962402 0.808316 0.712032
0.974792 0.811551 0.720424
0.989014 0.815396 0.726589
1.000000 0.819120 0.732143
0.000000 0.782193 0.709804
0.000000 0.783291 0.711055
0.000000 0.784665 0.712520
0.000000 0.786130 0.714168
0.000000 0.787625 0.715846
0.000000 0.788876 0.717372
0.000000 0.790280 0.718990
0.000000 0.791836 0.721004
0.000000 0.792020 0.721920
0.000000 0.791775 0.722988
0.000000 0.791562 0.724575
0.000000 0.791348 0.726833
0.172793 0.790921 0.729610
0.339849 0.790524 0.733181
0.439246 0.790005 0.737789
0.516930 0.789517 0.743557
0.581903 0.789120 0.751064
0.637873 0.788846 0.760922
0.671870 0.787137 0.766415
0.699397 0.782681 0.774105
0.713771 0.792905 0.771023
0.747433 0.814450 0.753017
0.807156 0.830259 0.731350
0.864988 0.834409 0.706050
0.895109 0.830381 0.705409
0.915801 0.827909 0.712703
0.934661 0.826658 0.717067
0.950225 0.826047 0.721767
0.961944 0.826261 0.729488
0.972900 0.827695 0.737118
0.983032 0.830045 0.745144
0.993225 0.833005 0.752285
0.000000 0.810971 0.739773
0.000000 0.811887 0.740841
0.000000 0.812985 0.742031
0.000000 0.813993 0.743465
0.000000 0.815061 0.744839
0.000000 0.815946 0.746151
0.000000 0.816892 0.747555
0.000000 0.817014 0.748562
0.000000 0.816526 0.749172
0.000000 0.815976 0.750210
0.000000 0.815427 0.751675
0.000000 0.814847 0.753628
0.239780 0.814084 0.755917
0.367590 0.813291 0.758877
0.456550 0.812558 0.762753
0.528252 0.811795 0.767391
0.590021 0.811276 0.773556
0.644312 0.810910 0.781460
0.691676 0.811063 0.791714
0.716732 0.808927 0.795651
0.739925 0.805875 0.803067
0.752804 0.817777 0.799039
0.783108 0.835752 0.784604
0.833585 0.849546 0.767422
0.884184 0.854856 0.747860
0.913298 0.851469 0.741970
0.930938 0.848966 0.748470
0.947326 0.847715 0.752560
0.962402 0.847349 0.755642
0.973358 0.847349 0.761563
0.983093 0.848295 0.768154
0.992065 0.849973 0.774655
0.000000 0.840848 0.773068
0.000000 0.841184 0.773495
0.000000 0.841489 0.774014
0.000000 0.841733 0.774502
0.000000 0.841978 0.775174
0.000000 0.842161 0.775937
0.000000 0.841550 0.776150
0.000000 0.840848 0.776425
0.000000 0.840024 0.776913
0.000000 0.839322 0.777859
0.000000 0.838407 0.779171
0.170291 0.837491 0.780880
0.323308 0.836423 0.782803
0.416785 0.835294 0.785336
0.491157 0.834104 0.788296
0.554711 0.832975 0.792081
0.610193 0.831907 0.796780
0.659358 0.831052 0.802670
0.703059 0.830503 0.810056
0.737789 0.829892 0.817350
0.756893 0.827207 0.820615
0.774655 0.824521 0.826413
0.784756 0.837430 0.820035
0.811124 0.852018 0.807736
0.853819 0.863951 0.792935
0.897154 0.869017 0.776761
0.926604 0.867124 0.767544
0.942229 0.864683 0.773434
0.956847 0.863432 0.777127
0.970489 0.863005 0.779721
0.982330 0.863005 0.782620
0.991150 0.863523 0.788113
0.000000 0.860716 0.796109
0.000000 0.860899 0.796384
0.000000 0.860960 0.796719
0.000000 0.860838 0.796811
0.000000 0.860563 0.797055
0.000000 0.860075 0.797177
0.000000 0.859403 0.797391
0.000000 0.858579 0.797665
0.000000 0.857694 0.798184
0.000000 0.856779 0.799191
0.142458 0.855711 0.800259
0.298497 0.854582 0.801785
0.390814 0.853361 0.803555
0.464393 0.852079 0.805722
0.527123 0.850797 0.808469
0.583001 0.849485 0.811734
0.632990 0.848325 0.815732
0.677699 0.847318 0.820554
0.717678 0.846586 0.826413
0.753170 0.846159 0.833463
0.773220 0.845121 0.836484
0.791440 0.842679 0.841154
0.805295 0.840574 0.846006
0.814023 0.854978 0.838010
0.834775 0.865751 0.825376
0.871489 0.876341 0.812802
0.909392 0.881529 0.799832
0.937987 0.880705 0.789242
0.952148 0.878386 0.794156
0.965362 0.877195 0.797421
0.977752 0.876799 0.799802
0.989380 0.876829 0.801236
0.000000 0.877256 0.816617
0.000000 0.877531 0.817075
0.000000 0.877501 0.817258
0.000000 0.877226 0.817258
0.000000 0.876707 0.817136
0.000000 0.875944 0.816983
0.000000 0.875029 0.816892
0.000000 0.873930 0.816831
0.000000 0.872709 0.817014
0.205722 0.871427 0.817441
0.310307 0.870054 0.818112
0.387915 0.868589 0.819181
0.453468 0.867094 0.820493
0.510826 0.865537 0.822202
0.563378 0.863920 0.824247
0.610773 0.862364 0.826780
0.654505 0.860929 0.829953
0.694423 0.859739 0.833890
0.730617 0.858885 0.838743
0.763333 0.858396 0.844572
0.790768 0.858183 0.850767
0.803708 0.856565 0.852354
0.817990 0.854520 0.856413
0.827146 0.855924 0.858183
0.836393 0.868650 0.850340
0.857145 0.878874 0.841154
0.888426 0.888212 0.830411
0.921355 0.893370 0.819699
0.948455 0.893309 0.808621
0.961181 0.891142 0.812619
0.973144 0.890013 0.815366
0.984344 0.889311 0.816587
0.000000 0.888365 0.830106
0.000000 0.888518 0.830381
0.000000 0.888548 0.830686
0.000000 0.888334 0.830808
0.000000 0.887938 0.830930
0.000000 0.887358 0.831052
0.036957 0.886656 0.831357
0.212650 0.885771 0.831662
0.292363 0.884764 0.832212
0.358007 0.883635 0.832914
0.415839 0.882414 0.833890
0.469306 0.881071 0.835080
0.519036 0.879637 0.836484
0.565423 0.878080 0.838102
0.608362 0.876524 0.839994
0.648371 0.874998 0.842283
0.685542 0.873594 0.844999
0.719936 0.872404 0.848386
0.751583 0.871519 0.852445
0.780240 0.871000 0.857237
0.806241 0.870848 0.862852
0.819883 0.870176 0.864836
0.833097 0.868528 0.868040
0.844053 0.866941 0.871427
0.849821 0.872374 0.870085
0.859861 0.882994 0.863432
0.878355 0.891844 0.855802
0.905058 0.900298 0.846921
0.933562 0.905516 0.838621
0.957641 0.906249 0.830045
0.969604 0.904082 0.831540
0.980285 0.902678 0.832792
0.207248 0.898680 0.843290
0.212314 0.898772 0.843503
0.223697 0.898680 0.843565
0.243198 0.898436 0.843717
0.269688 0.898039 0.843809
0.301274 0.897490 0.843961
0.337255 0.896757 0.844205
0.375616 0.895872 0.844541
0.415381 0.894896 0.845121
0.456519 0.893767 0.845853
0.497353 0.892546 0.846799
0.537743 0.891234 0.847959
0.576989 0.889860 0.849363
0.614374 0.888426 0.850950
0.650263 0.886931 0.852842
0.683864 0.885527 0.854948
0.715450 0.884245 0.857511
0.744961 0.883146 0.860472
0.772274 0.882383 0.864073
0.797513 0.881895 0.868193
0.820554 0.881773 0.873014
0.837125 0.881559 0.876555
0.846708 0.880400 0.878080
0.857084 0.878996 0.880919
0.865415 0.877745 0.883787
0.869261 0.886564 0.879637
0.879484 0.895598 0.873777
0.896025 0.903319 0.867033
0.919066 0.910979 0.859342
0.943694 0.915923 0.852415
0.964904 0.916899 0.845121
0.976654 0.914824 0.844755
0.384894 0.907042 0.854063
0.386908 0.907073 0.854185
0.391791 0.907012 0.854307
0.401404 0.906798 0.854490
0.415167 0.906523 0.854765
0.434119 0.906065 0.855161
0.457557 0.905577 0.855833
0.484993 0.904967 0.856657
0.514672 0.904326 0.857786
0.546471 0.903563 0.859098
0.579187 0.902739 0.860624
0.611749 0.901823 0.862272
0.643671 0.900816 0.864103
0.674464 0.899748 0.866026
0.703578 0.898680 0.868132
0.730831 0.897581 0.870298
0.756405 0.896574 0.872709
0.780453 0.895750 0.875456
0.802976 0.895171 0.878660
0.824125 0.894896 0.882322
0.843442 0.894896 0.886442
0.859953 0.895079 0.890562
0.866392 0.894347 0.891020
0.875456 0.893217 0.893370
0.883024 0.892180 0.895750
0.887724 0.894102 0.896361
0.891752 0.902617 0.891722
0.901030 0.910094 0.886534
0.914977 0.916655 0.880674
0.933837 0.923217 0.873991
0.954528 0.927733 0.868681
0.972503 0.928832 0.863096
0.515251 0.916075 0.866941
0.515892 0.916045 0.866972
0.518456 0.915953 0.867033
0.523583 0.915740 0.867124
0.532067 0.915373 0.867338
0.543847 0.914885 0.867582
0.558648 0.914305 0.868040
0.576471 0.913603 0.868620
0.596735 0.912840 0.869383
0.619043 0.911955 0.870359
0.642786 0.911040 0.871550
0.667201 0.910033 0.872862
0.691890 0.909026 0.874449
0.716152 0.908049 0.876158
