20 Preset/Japan Style/【3】LUT video cho PR-AE-FCPX/LUT VIDEO (2)/Japan Style LUT (15).cube
# Created by Adobe Lightroom plugin Export LUT (1.24.0)
# www.johnrellis.com/lightroom/exportlut.htm
# Preset: 15日系海边（素材江湖）
# Color profile: C:\Program Files (x86)\Common Files\Adobe\Color\Profiles\Recommended\VideoHD.icc
LUT_3D_SIZE 5
DOMAIN_MIN 0.000000 0.000000 0.000000
DOMAIN_MAX 0.903226 0.903226 0.903226
0.000000 0.011994 0.014374
0.235080 0.085634 0.024872
0.791775 0.186069 0.000000
1.000000 0.432898 0.000000
1.000000 0.568109 0.120882
0.000000 0.165194 0.112184
0.063264 0.180575 0.122408
0.750729 0.379187 0.000000
1.000000 0.507713 0.000000
1.000000 0.608057 0.156161
0.000000 0.496132 0.312474
0.277714 0.476173 0.332860
0.412177 0.546960 0.363775
0.963775 0.719417 0.000000
1.000000 0.718349 0.214206
0.428199 0.760555 0.578576
0.503716 0.752773 0.587610
0.640345 0.734188 0.613825
0.689143 0.769741 0.618341
0.986114 0.846921 0.527245
0.723171 0.868437 0.773404
0.742763 0.865751 0.776181
0.792599 0.852201 0.778531
0.834806 0.852628 0.791440
0.859831 0.867491 0.799496
0.000000 0.034607 0.205478
0.159243 0.094057 0.171481
0.712581 0.169467 0.241337
1.000000 0.426978 0.270359
1.000000 0.574578 0.332586
0.000000 0.193271 0.234287
0.182864 0.230228 0.237613
0.697444 0.344549 0.246220
0.998596 0.495857 0.266545
1.000000 0.607843 0.338811
0.000000 0.511864 0.365118
0.255955 0.514092 0.398779
0.433753 0.548425 0.424414
0.948699 0.695460 0.271458
1.000000 0.719722 0.375250
0.372168 0.767849 0.589471
0.503502 0.762966 0.619135
0.658350 0.739712 0.645472
0.702602 0.773159 0.648280
0.983795 0.844572 0.567590
0.710536 0.870634 0.775937
0.739193 0.867704 0.783169
0.802213 0.858396 0.794400
0.843626 0.855955 0.804562
0.867704 0.870756 0.812497
0.000000 0.055177 0.569970
0.000000 0.070192 0.546410
0.555718 0.220859 0.495369
0.948760 0.457069 0.589349
1.000000 0.653193 0.662257
0.000000 0.154940 0.585321
0.000000 0.200015 0.581872
0.570703 0.337285 0.530236
0.931518 0.523919 0.612848
1.000000 0.675349 0.665980
0.000000 0.525048 0.615412
0.000000 0.541863 0.616968
0.590021 0.610834 0.628260
0.891936 0.684779 0.648920
1.000000 0.741543 0.664515
0.122896 0.781369 0.687068
0.350378 0.777646 0.685786
0.668116 0.772030 0.719905
0.752346 0.789242 0.733028
0.981598 0.834684 0.676661
0.598169 0.876829 0.772976
0.649104 0.874754 0.780606
0.787991 0.866636 0.813596
0.853483 0.856931 0.825925
0.875120 0.871519 0.831022
0.000000 0.079591 0.817105
0.000000 0.077424 0.810056
0.569390 0.198245 0.774594
0.840055 0.440650 0.735531
0.987213 0.680079 0.779873
0.000000 0.164462 0.817685
0.000000 0.189242 0.810849
0.559747 0.285801 0.777005
0.829221 0.494942 0.738949
0.979797 0.696345 0.783810
0.000000 0.395636 0.806058
0.000000 0.393622 0.801297
0.473762 0.495827 0.794400
0.802792 0.641749 0.758511
0.962158 0.758785 0.807462
0.000000 0.741939 0.811673
0.000000 0.744930 0.809873
0.398169 0.762661 0.808316
0.814054 0.799649 0.815518
0.955779 0.828702 0.825101
0.282383 0.892424 0.840696
0.402319 0.890013 0.839628
0.647974 0.881773 0.837278
0.856443 0.871489 0.858000
0.895689 0.878325 0.865873
0.000000 0.127718 0.933227
0.000000 0.137789 0.929992
0.551873 0.230503 0.916960
0.843870 0.470680 0.882994
0.952850 0.645136 0.852873
0.000000 0.185611 0.930114
0.000000 0.197971 0.927245
0.525261 0.276890 0.914092
0.832822 0.489326 0.880552
0.946868 0.659236 0.852171
0.000000 0.262119 0.926360
0.000000 0.260777 0.924895
0.362524 0.403143 0.912779
0.796658 0.562524 0.880491
0.932036 0.721187 0.857755
0.000000 0.582727 0.918303
0.000000 0.579217 0.916564
0.000000 0.569024 0.911345
0.691798 0.682246 0.894347
0.920653 0.808927 0.875608
0.000000 0.854185 0.905058
0.000000 0.854826 0.904173
0.000000 0.858854 0.901884
0.665278 0.862852 0.897490
0.923949 0.885069 0.904082
