20 Preset/Japan Style/【3】LUT video cho PR-AE-FCPX/LUT VIDEO (2)/Japan Style LUT (32).cube
# Created by Adobe Lightroom plugin Export LUT (1.24.0)
# www.johnrellis.com/lightroom/exportlut.htm
# Preset: 32日系胶片（素材江湖）
# Color profile: C:\Program Files (x86)\Common Files\Adobe\Color\Profiles\Recommended\VideoHD.icc
LUT_3D_SIZE 32
DOMAIN_MIN 0.0 0.0 0.0
DOMAIN_MAX 1.0 1.0 1.0
0.000000 0.011994 0.014374
0.000000 0.011994 0.014374
0.000000 0.013184 0.015381
0.000000 0.017762 0.017029
0.000000 0.026337 0.020142
0.050324 0.036011 0.024598
0.108583 0.044251 0.027070
0.153384 0.047303 0.029511
0.207980 0.036591 0.030274
0.269749 0.008179 0.028443
0.339513 0.000000 0.023255
0.415137 0.000000 0.012421
0.495521 0.000000 0.000000
0.578363 0.000000 0.000000
0.660029 0.000000 0.000000
0.734554 0.000000 0.000000
0.801907 0.000000 0.000000
0.861601 0.000000 0.000000
0.913725 0.000000 0.000000
0.957305 0.000000 0.000000
0.993530 0.048737 0.000000
1.000000 0.149783 0.000000
1.000000 0.198001 0.000000
1.000000 0.237308 0.000000
1.000000 0.270573 0.000000
1.000000 0.301274 0.000000
1.000000 0.328801 0.000000
1.000000 0.354711 0.000000
1.000000 0.378882 0.000000
1.000000 0.402228 0.000000
1.000000 0.424506 0.000000
1.000000 0.446143 0.000000
0.000000 0.011994 0.015534
0.000000 0.011994 0.015534
0.000000 0.014405 0.015229
0.000000 0.018982 0.018006
0.000000 0.028748 0.020966
0.048920 0.038422 0.024292
0.108156 0.046662 0.026764
0.152773 0.049958 0.029236
0.207095 0.039673 0.029999
0.269261 0.012238 0.028016
0.338323 0.000000 0.022889
0.414160 0.000000 0.012879
0.494545 0.000000 0.000000
0.577111 0.000000 0.000000
0.658839 0.000000 0.000000
0.733852 0.000000 0.000000
0.801083 0.000000 0.000000
0.861173 0.000000 0.000000
0.913268 0.000000 0.000000
0.956939 0.000000 0.000000
0.993225 0.068116 0.000000
1.000000 0.152743 0.000000
1.000000 0.200229 0.000000
1.000000 0.238621 0.000000
1.000000 0.272435 0.000000
1.000000 0.302342 0.000000
1.000000 0.329900 0.000000
1.000000 0.355657 0.000000
1.000000 0.379583 0.000000
1.000000 0.402716 0.000000
1.000000 0.424903 0.000000
1.000000 0.446693 0.000000
0.000000 0.016785 0.020600
0.000000 0.017975 0.021576
0.000000 0.019196 0.019165
0.000000 0.027375 0.018097
0.000000 0.035737 0.021210
0.041657 0.047059 0.024384
0.104585 0.056947 0.026734
0.149172 0.061128 0.028077
0.203006 0.053620 0.028779
0.264500 0.031037 0.026581
0.333562 0.000000 0.021088
0.409827 0.000000 0.011017
0.489937 0.000000 0.000000
0.572473 0.000000 0.000000
0.654475 0.000000 0.000000
0.729824 0.000000 0.000000
0.797543 0.000000 0.000000
0.858000 0.000000 0.000000
0.910582 0.000000 0.000000
0.954803 0.000000 0.000000
0.991608 0.102327 0.000000
1.000000 0.165621 0.000000
1.000000 0.209049 0.000000
1.000000 0.245090 0.000000
1.000000 0.277379 0.000000
1.000000 0.306615 0.000000
1.000000 0.333745 0.000000
1.000000 0.358740 0.000000
1.000000 0.382452 0.000000
1.000000 0.405158 0.000000
1.000000 0.427100 0.000000
1.000000 0.448554 0.000000
0.000000 0.029969 0.034821
0.000000 0.029969 0.034821
0.000000 0.029969 0.032563
0.000000 0.036988 0.029389
0.000000 0.051148 0.024933
0.029847 0.062928 0.024720
0.098756 0.074678 0.025788
0.141848 0.081392 0.028077
0.195193 0.079866 0.027436
0.255619 0.067353 0.024781
0.324376 0.036072 0.018708
0.399695 0.000000 0.008179
0.480110 0.000000 0.000000
0.563012 0.000000 0.000000
0.644862 0.000000 0.000000
0.720974 0.000000 0.000000
0.790036 0.000000 0.000000
0.851255 0.000000 0.000000
0.904967 0.000000 0.000000
0.950195 0.047913 0.000000
0.987854 0.140047 0.000000
1.000000 0.186557 0.000000
1.000000 0.224094 0.000000
1.000000 0.257389 0.000000
1.000000 0.287358 0.000000
1.000000 0.314916 0.000000
1.000000 0.340826 0.000000
1.000000 0.364874 0.000000
1.000000 0.387732 0.000000
1.000000 0.409827 0.000000
1.000000 0.431220 0.000000
1.000000 0.452277 0.000000
0.000000 0.052552 0.058076
0.000000 0.053742 0.057923
0.000000 0.053315 0.054505
0.000000 0.053315 0.046571
0.000000 0.066194 0.042451
0.012879 0.085084 0.033906
0.089601 0.090272 0.028534
0.130739 0.095766 0.025910
0.182467 0.098878 0.025666
0.242283 0.098543 0.021180
0.309789 0.093080 0.014527
0.384833 0.072786 0.002655
0.464607 0.019501 0.000000
0.547387 0.000000 0.000000
0.629023 0.000000 0.000000
0.706569 0.000000 0.000000
0.777768 0.000000 0.000000
0.840604 0.000000 0.000000
0.895995 0.084932 0.000000
0.942748 0.138186 0.000000
0.981598 0.178958 0.000000
1.000000 0.214176 0.000000
1.000000 0.245823 0.000000
1.000000 0.274846 0.000000
1.000000 0.301732 0.000000
1.000000 0.327581 0.000000
1.000000 0.351446 0.000000
1.000000 0.374212 0.000000
1.000000 0.396124 0.000000
1.000000 0.417090 0.000000
1.000000 0.437720 0.000000
1.000000 0.458076 0.000000
0.000000 0.082490 0.083589
0.000000 0.082338 0.083589
0.000000 0.082826 0.082033
0.000000 0.081025 0.076631
0.000000 0.081056 0.063020
0.000000 0.092653 0.056031
0.060700 0.105501 0.042298
0.120607 0.108278 0.031556
0.168093 0.114168 0.025116
0.223697 0.119234 0.017365
0.289860 0.120912 0.008453
0.363409 0.119326 0.000000
0.442542 0.114321 0.000000
0.524681 0.106600 0.000000
0.607111 0.099153 0.000000
0.687190 0.099702 0.000000
0.760006 0.111360 0.000000
0.825559 0.133547 0.000000
0.883452 0.160494 0.000000
0.932067 0.189761 0.000000
0.972717 0.218662 0.000000
1.000000 0.245853 0.000000
1.000000 0.270878 0.000000
1.000000 0.296086 0.000000
1.000000 0.320104 0.000000
1.000000 0.343145 0.000000
1.000000 0.365026 0.000000
1.000000 0.386114 0.000000
1.000000 0.406653 0.000000
1.000000 0.426490 0.000000
1.000000 0.446052 0.000000
1.000000 0.465583 0.000000
0.000000 0.100374 0.098909
0.000000 0.100679 0.098848
0.000000 0.101106 0.098329
0.000000 0.099794 0.094972
0.000000 0.098543 0.089723
0.000000 0.097993 0.080262
0.000000 0.111666 0.071199
0.100496 0.130159 0.048371
0.154940 0.131868 0.033722
0.208988 0.137118 0.021820
0.269657 0.143465 0.006439
0.336797 0.149416 0.000000
0.414801 0.153170 0.000000
0.495644 0.156130 0.000000
0.578515 0.160098 0.000000
0.660731 0.166873 0.000000
0.736904 0.178134 0.000000
0.805417 0.193851 0.000000
0.865782 0.213291 0.000000
0.917601 0.234836 0.000000
0.960510 0.257206 0.000000
0.995727 0.278935 0.000000
1.000000 0.300572 0.000000
1.000000 0.321965 0.000000
1.000000 0.342748 0.000000
1.000000 0.363134 0.000000
1.000000 0.382696 0.000000
1.000000 0.401862 0.000000
1.000000 0.420691 0.000000
1.000000 0.439155 0.000000
1.000000 0.457527 0.000000
1.000000 0.475990 0.000000
0.000000 0.121004 0.117037
0.000000 0.121218 0.116670
0.000000 0.121492 0.115969
0.000000 0.120150 0.112123
0.000000 0.118105 0.108156
0.000000 0.117098 0.097261
0.000000 0.115236 0.091829
0.021454 0.136019 0.082612
0.132662 0.159640 0.052461
0.192691 0.162081 0.030976
0.254246 0.164279 0.013336
0.320348 0.173159 0.000000
0.391089 0.181827 0.000000
0.465553 0.191348 0.000000
0.546807 0.201297 0.000000
0.630793 0.212528 0.000000
0.709895 0.225742 0.000000
0.781704 0.240757 0.000000
0.845548 0.257969 0.000000
0.900420 0.276341 0.000000
0.946136 0.295171 0.000000
0.983795 0.313207 0.000000
1.000000 0.331395 0.000000
1.000000 0.349523 0.000000
1.000000 0.367651 0.000000
1.000000 0.385473 0.000000
1.000000 0.402991 0.000000
1.000000 0.420142 0.000000
1.000000 0.437140 0.000000
1.000000 0.454200 0.000000
1.000000 0.471015 0.000000
1.000000 0.488319 0.000000
0.000000 0.147585 0.138735
0.000000 0.147738 0.138705
0.000000 0.147951 0.137667
0.000000 0.146670 0.133944
0.000000 0.144564 0.129152
0.000000 0.142214 0.121126
0.000000 0.140291 0.106966
0.000000 0.137728 0.101991
0.070436 0.164981 0.090822
0.169223 0.194186 0.050507
0.235294 0.197635 0.020447
0.300938 0.195529 0.000000
0.371221 0.206607 0.000000
0.445228 0.218662 0.000000
0.522026 0.232120 0.000000
0.600305 0.247501 0.000000
0.678584 0.264195 0.000000
0.753506 0.280583 0.000000
0.820920 0.297063 0.000000
0.879759 0.314397 0.000000
0.928832 0.331090 0.000000
0.969146 0.347143 0.000000
1.000000 0.362860 0.000000
1.000000 0.378607 0.000000
1.000000 0.394202 0.000000
1.000000 0.409766 0.000000
1.000000 0.425238 0.000000
1.000000 0.440497 0.000000
1.000000 0.455879 0.000000
1.000000 0.471077 0.000000
1.000000 0.486641 0.000000
1.000000 0.502403 0.000000
0.000000 0.180301 0.165805
0.000000 0.180606 0.165743
0.000000 0.180423 0.164279
0.000000 0.178927 0.160342
0.000000 0.176944 0.155093
0.000000 0.173953 0.149722
0.000000 0.171115 0.133883
0.000000 0.167727 0.120180
0.000000 0.166537 0.114473
0.111574 0.198672 0.097902
0.209537 0.233036 0.044129
0.279637 0.237858 0.000000
0.349432 0.237095 0.000000
0.422156 0.244450 0.000000
0.499123 0.259617 0.000000
0.577020 0.276158 0.000000
0.654170 0.294347 0.000000
0.725826 0.313176 0.000000
0.792447 0.331884 0.000000
0.855100 0.349096 0.000000
0.908110 0.365057 0.000000
0.951904 0.379858 0.000000
0.988586 0.393896 0.000000
1.000000 0.407904 0.000000
1.000000 0.421729 0.000000
1.000000 0.435431 0.000000
1.000000 0.449104 0.000000
1.000000 0.462623 0.000000
1.000000 0.476020 0.000000
1.000000 0.489906 0.000000
1.000000 0.503838 0.000000
1.000000 0.518395 0.000000
0.000000 0.219425 0.198642
0.000000 0.219638 0.198734
0.000000 0.219272 0.196780
0.000000 0.217960 0.192416
0.000000 0.215732 0.186954
0.000000 0.212833 0.180667
0.000000 0.208988 0.169100
0.000000 0.204593 0.146975
0.000000 0.198001 0.134676
0.007813 0.198642 0.127993
0.148104 0.236362 0.104463
0.252354 0.276341 0.030121
0.325780 0.282658 0.000000
0.399207 0.283268 0.000000
0.472938 0.285039 0.000000
0.551446 0.303044 0.000000
0.629572 0.322057 0.000000
0.703029 0.341161 0.000000
0.770047 0.360235 0.000000
0.830320 0.379156 0.000000
0.884398 0.396338 0.000000
0.932067 0.410681 0.000000
0.971984 0.424231 0.000000
1.000000 0.436866 0.000000
1.000000 0.449348 0.000000
1.000000 0.461555 0.000000
1.000000 0.473610 0.000000
1.000000 0.485573 0.000000
1.000000 0.497566 0.000000
1.000000 0.509880 0.000000
1.000000 0.522545 0.000000
1.000000 0.535790 0.000000
0.000000 0.264866 0.237675
0.000000 0.264897 0.237430
0.000000 0.264134 0.235203
0.000000 0.262699 0.230747
0.000000 0.260533 0.224552
0.000000 0.257389 0.217411
0.000000 0.253117 0.210056
0.000000 0.247471 0.187503
0.000000 0.240787 0.160555
0.000000 0.231571 0.150362
0.076783 0.234806 0.141695
0.185428 0.277409 0.111177
0.295232 0.321172 0.011261
0.372839 0.329778 0.000000
0.448280 0.331762 0.000000
0.522972 0.330114 0.000000
0.601160 0.346838 0.000000
0.676417 0.366979 0.000000
0.745846 0.386175 0.000000
0.808408 0.404639 0.000000
0.863859 0.422187 0.000000
0.910765 0.438148 0.000000
0.952605 0.452247 0.000000
0.989410 0.464576 0.000000
1.000000 0.476326 0.000000
1.000000 0.487434 0.000000
1.000000 0.498207 0.000000
1.000000 0.508934 0.000000
1.000000 0.519829 0.000000
1.000000 0.530663 0.000000
1.000000 0.542046 0.000000
1.000000 0.554101 0.000000
0.000000 0.314183 0.281590
0.000000 0.314092 0.281346
0.000000 0.313329 0.278721
0.000000 0.311833 0.274266
0.000000 0.309758 0.267826
0.000000 0.306676 0.260136
0.000000 0.302647 0.251713
0.000000 0.296818 0.236515
0.000000 0.289250 0.206241
0.000000 0.279637 0.179660
0.000000 0.267185 0.166659
0.119600 0.276432 0.155032
0.224857 0.321263 0.117983
0.339055 0.367132 0.000000
0.421973 0.379889 0.000000
0.498939 0.383001 0.000000
0.574121 0.382818 0.000000
0.648798 0.391485 0.000000
0.720485 0.411261 0.000000
0.785489 0.429877 0.000000
0.843351 0.447242 0.000000
0.893187 0.462989 0.000000
0.936034 0.477607 0.000000
0.972534 0.491341 0.000000
1.000000 0.502922 0.000000
1.000000 0.513420 0.000000
1.000000 0.523430 0.000000
1.000000 0.533074 0.000000
1.000000 0.542657 0.000000
1.000000 0.552453 0.000000
1.000000 0.562676 0.000000
1.000000 0.573510 0.000000
0.000000 0.367620 0.330388
0.000000 0.367620 0.329961
0.000000 0.366979 0.327886
0.000000 0.365789 0.323674
0.000000 0.363714 0.317113
0.000000 0.360937 0.309148
0.000000 0.356970 0.299748
0.000000 0.351934 0.290806
0.000000 0.343572 0.262669
0.000000 0.333562 0.225315
0.000000 0.320806 0.200290
0.012177 0.305699 0.184909
0.158236 0.320745 0.169528
0.266789 0.367224 0.126497
0.383429 0.413733 0.000000
0.471321 0.430610 0.000000
0.549004 0.434760 0.000000
0.622614 0.435096 0.000000
0.691951 0.434241 0.000000
0.759701 0.453468 0.000000
0.820371 0.470954 0.000000
0.873716 0.486854 0.000000
0.919341 0.501488 0.000000
0.958495 0.514824 0.000000
0.991333 0.527245 0.000000
1.000000 0.538720 0.000000
1.000000 0.548119 0.000000
1.000000 0.557092 0.000000
1.000000 0.565667 0.000000
1.000000 0.574548 0.000000
1.000000 0.583764 0.000000
1.000000 0.593744 0.000000
0.000000 0.423804 0.382757
0.000000 0.423621 0.382177
0.000000 0.423346 0.380529
0.000000 0.421912 0.376104
0.000000 0.420111 0.369818
0.000000 0.417365 0.361822
0.000000 0.413764 0.352483
0.000000 0.408942 0.342473
0.000000 0.402258 0.326787
0.000000 0.391302 0.288334
0.000000 0.378943 0.244083
0.000000 0.362951 0.223087
0.103273 0.345312 0.204562
0.198001 0.366827 0.185336
0.309911 0.414191 0.136629
0.429114 0.460731 0.000000
0.520775 0.480995 0.000000
0.596643 0.485359 0.000000
0.667109 0.485054 0.000000
0.732540 0.481300 0.000000
0.795102 0.492988 0.000000
0.851987 0.509575 0.000000
0.901030 0.524468 0.000000
0.942840 0.537743 0.000000
0.977966 0.549981 0.000000
1.000000 0.561273 0.000000
1.000000 0.571832 0.000000
1.000000 0.580682 0.000000
1.000000 0.588739 0.000000
1.000000 0.596796 0.000000
1.000000 0.605249 0.000000
1.000000 0.614191 0.000000
0.000000 0.480690 0.436530
0.000000 0.480507 0.435828
0.000000 0.480079 0.434119
0.000000 0.479042 0.430396
0.000000 0.477180 0.424506
0.000000 0.474556 0.416571
0.000000 0.471351 0.407446
0.000000 0.466987 0.397192
0.000000 0.461494 0.387091
0.000000 0.451759 0.357580
0.000000 0.438727 0.313329
0.000000 0.423896 0.268376
0.000000 0.405341 0.247318
0.148257 0.387427 0.226261
0.239536 0.413611 0.202762
0.353826 0.460853 0.150393
0.474556 0.506859 0.000000
0.568658 0.529381 0.000000
0.640925 0.532464 0.000000
0.708095 0.531487 0.000000
0.770169 0.527916 0.000000
0.828367 0.530785 0.000000
0.880858 0.546319 0.000000
0.925658 0.559930 0.000000
0.963439 0.572137 0.000000
0.994965 0.583276 0.000000
1.000000 0.593530 0.000000
1.000000 0.603021 0.000000
1.000000 0.611383 0.000000
1.000000 0.618982 0.000000
1.000000 0.626673 0.000000
1.000000 0.634211 0.000000
0.000000 0.536858 0.490150
0.000000 0.536736 0.489601
0.000000 0.536370 0.487984
0.000000 0.535210 0.484382
0.000000 0.533440 0.478737
0.000000 0.531456 0.471931
0.000000 0.528283 0.463111
0.000000 0.524102 0.452827
0.000000 0.519310 0.442634
0.000000 0.512505 0.428901
0.000000 0.499825 0.386877
0.000000 0.485420 0.337713
0.000000 0.468055 0.296880
0.025574 0.447425 0.272953
0.191684 0.431769 0.250706
0.282963 0.460548 0.222629
0.398627 0.506645 0.168002
0.518853 0.550683 0.024445
0.613275 0.573877 0.000000
0.682185 0.575982 0.000000
0.746242 0.575280 0.000000
0.805600 0.572168 0.000000
0.858854 0.567254 0.000000
0.906981 0.581109 0.000000
0.947539 0.593652 0.000000
0.981506 0.604700 0.000000
1.000000 0.614862 0.000000
1.000000 0.624079 0.000000
1.000000 0.632776 0.000000
1.000000 0.640803 0.000000
1.000000 0.648096 0.000000
1.000000 0.654139 0.000000
0.000000 0.589410 0.540642
0.000000 0.589227 0.540215
0.000000 0.588281 0.538201
0.000000 0.587366 0.535027
0.000000 0.585992 0.530358
0.000000 0.584009 0.523919
0.000000 0.581231 0.515770
0.000000 0.577813 0.506676
0.000000 0.573632 0.496864
0.000000 0.568261 0.486702
0.000000 0.558770 0.460182
0.000000 0.545068 0.414343
0.000000 0.529442 0.360296
0.000000 0.509758 0.325383
0.140719 0.487617 0.299077
0.233707 0.474769 0.275853
0.327001 0.505882 0.243961
0.444129 0.550530 0.189395
0.560662 0.590814 0.099245
0.654749 0.615015 0.000000
0.721157 0.617243 0.000000
0.782223 0.616663 0.000000
0.837522 0.613458 0.000000
0.886839 0.608606 0.000000
0.930480 0.613977 0.000000
0.966918 0.625452 0.000000
0.997131 0.635676 0.000000
1.000000 0.644862 0.000000
1.000000 0.653376 0.000000
1.000000 0.661402 0.000000
1.000000 0.668482 0.000000
1.000000 0.673915 0.000000
0.000000 0.636622 0.586816
0.000000 0.636591 0.586694
0.000000 0.636255 0.585412
0.000000 0.635370 0.582544
0.000000 0.634089 0.578424
0.000000 0.632410 0.572961
0.000000 0.630091 0.565759
0.000000 0.627070 0.557305
0.000000 0.623499 0.548455
0.000000 0.619074 0.539117
0.000000 0.613794 0.530297
0.000000 0.601831 0.489967
0.000000 0.587945 0.441260
0.000000 0.572229 0.383551
0.000000 0.551507 0.355657
0.198825 0.528344 0.326970
0.278202 0.518578 0.303777
0.373877 0.551598 0.268864
0.489754 0.592950 0.216464
0.602533 0.629725 0.142550
0.695888 0.654017 0.000000
0.758816 0.656214 0.000000
0.815671 0.655207 0.000000
0.866606 0.651850 0.000000
0.911894 0.646998 0.000000
0.951476 0.645441 0.000000
0.984070 0.655909 0.000000
1.000000 0.665248 0.000000
1.000000 0.673762 0.000000
1.000000 0.681514 0.000000
1.000000 0.687617 0.000000
1.000000 0.693111 0.000000
0.000000 0.680568 0.630854
0.000000 0.680476 0.630701
0.000000 0.680354 0.630030
0.000000 0.679683 0.627710
0.000000 0.678614 0.624231
0.000000 0.677028 0.619135
0.000000 0.675166 0.613184
0.000000 0.672633 0.605829
0.000000 0.669459 0.597894
0.000000 0.665705 0.589410
0.000000 0.661158 0.580957
0.123293 0.653834 0.561273
0.000000 0.641840 0.519188
0.000000 0.628534 0.469001
0.000000 0.612238 0.417304
0.156313 0.591669 0.388128
0.252598 0.568963 0.357427
0.324620 0.562341 0.334295
0.422492 0.595727 0.297856
0.535119 0.633478 0.248539
0.643549 0.666804 0.186587
0.734859 0.690700 0.086519
0.793393 0.692256 0.000000
0.846006 0.690669 0.000000
0.892699 0.687373 0.000000
0.933928 0.682734 0.000000
0.970001 0.677272 0.000000
0.999207 0.685054 0.000000
1.000000 0.693721 0.000000
1.000000 0.700465 0.000000
1.000000 0.706325 0.000000
1.000000 0.711543 0.000000
0.000000 0.720485 0.672053
0.000000 0.720424 0.671931
0.000000 0.720394 0.671717
0.000000 0.719905 0.670008
0.000000 0.718990 0.667079
0.000000 0.717739 0.662989
0.000000 0.716030 0.657618
0.000000 0.713893 0.651514
0.000000 0.711330 0.644556
0.000000 0.708034 0.636927
0.187167 0.704219 0.629358
0.256168 0.699855 0.622187
0.229587 0.690761 0.591882
0.172396 0.679500 0.549523
0.042908 0.666651 0.498085
0.124544 0.650294 0.453498
0.237583 0.630243 0.422797
0.306065 0.608026 0.389960
0.373236 0.604730 0.368200
0.471229 0.637781 0.330755
0.580072 0.671809 0.285191
0.683162 0.701411 0.232639
0.771054 0.724086 0.167697
0.825071 0.724727 0.102998
0.873045 0.723171 0.000000
0.915557 0.719997 0.000000
0.952819 0.715785 0.000000
0.985565 0.710964 0.000000
1.000000 0.712001 0.000000
1.000000 0.718563 0.000000
1.000000 0.724269 0.000000
1.000000 0.729366 0.000000
0.000000 0.755428 0.709468
0.000000 0.755428 0.709438
0.000000 0.755337 0.709285
0.000000 0.755154 0.708644
0.000000 0.754421 0.706172
0.000000 0.753384 0.702724
0.000000 0.752010 0.698390
0.000000 0.750301 0.693294
0.159823 0.748074 0.687251
0.223758 0.745510 0.680751
0.274754 0.742397 0.674037
0.319890 0.738827 0.667475
0.344945 0.733852 0.656184
0.306706 0.724788 0.621912
0.261173 0.714199 0.579644
0.205051 0.702327 0.528527
0.244327 0.686000 0.491066
0.306920 0.666926 0.459327
0.360082 0.645930 0.425879
0.422522 0.645289 0.405432
0.520409 0.677455 0.368475
0.623987 0.707820 0.326818
0.720729 0.733364 0.282383
0.804898 0.754360 0.233463
0.853941 0.754513 0.197848
0.897551 0.752956 0.161074
0.935851 0.750179 0.120760
0.968658 0.745693 0.024353
0.997284 0.740169 0.000000
1.000000 0.736049 0.000000
1.000000 0.741695 0.000000
1.000000 0.746609 0.122408
0.000000 0.785428 0.743069
0.000000 0.785397 0.743038
0.000000 0.785306 0.742947
0.125673 0.785153 0.742855
0.170779 0.784604 0.741238
0.198642 0.783780 0.738491
0.228733 0.782620 0.734890
0.259770 0.781155 0.730526
0.291844 0.779477 0.725643
0.323766 0.777279 0.720089
0.355261 0.774777 0.714290
0.386847 0.771878 0.708522
0.417975 0.768460 0.702998
0.411505 0.762783 0.684169
0.375891 0.754879 0.650843
0.335241 0.745693 0.609949
0.288151 0.735195 0.559838
0.329808 0.719539 0.530083
0.372869 0.701808 0.498177
0.415015 0.682094 0.464027
0.473976 0.684108 0.446265
0.569604 0.714900 0.410620
0.666987 0.740932 0.373541
0.756252 0.762448 0.336400
0.833921 0.780423 0.298741
0.880003 0.781582 0.274174
0.918273 0.779324 0.251164
0.951476 0.775753 0.228977
0.980774 0.771237 0.208377
1.000000 0.766110 0.188113
1.000000 0.760464 0.169192
1.000000 0.763210 0.198886
0.253696 0.810330 0.772671
0.258244 0.810239 0.772610
0.270359 0.810147 0.772519
0.293980 0.809903 0.772427
0.325139 0.809537 0.772091
0.336736 0.808835 0.769833
0.351263 0.807919 0.766995
0.368261 0.806760 0.763455
0.387640 0.805325 0.759426
0.408637 0.803616 0.754879
0.430793 0.801602 0.750057
0.454444 0.799222 0.745113
0.478523 0.796506 0.740383
0.503105 0.793423 0.736080
0.475441 0.787808 0.711147
0.441566 0.781155 0.679286
0.404089 0.773556 0.640345
0.376074 0.764034 0.597528
0.405280 0.750210 0.569696
0.437446 0.734615 0.539178
0.471992 0.717861 0.506432
0.528557 0.722286 0.490333
0.618708 0.749264 0.458350
0.708583 0.771145 0.426795
0.789670 0.788632 0.395331
0.858610 0.802518 0.363561
0.900725 0.803555 0.341650
0.934478 0.801266 0.325353
0.964294 0.797910 0.310765
0.990539 0.793912 0.298436
1.000000 0.789364 0.287785
1.000000 0.784543 0.278904
0.372900 0.830777 0.798672
0.374914 0.830716 0.798642
0.382452 0.830564 0.798581
0.396735 0.830320 0.798520
0.418921 0.829862 0.798428
0.437110 0.829313 0.797543
0.446693 0.828519 0.795163
0.458015 0.827573 0.792325
0.471473 0.826413 0.789120
0.486458 0.825010 0.785458
0.502953 0.823362 0.781521
0.520470 0.821469 0.777462
0.539269 0.819303 0.773465
0.558434 0.816922 0.769711
0.564416 0.813779 0.761044
0.537102 0.809201 0.737331
0.505791 0.803922 0.707851
0.470924 0.797879 0.671443
0.456001 0.789517 0.636439
0.476234 0.777890 0.610346
0.500938 0.764706 0.581720
0.532097 0.752438 0.552911
0.584283 0.757290 0.537896
0.665522 0.778958 0.508873
0.745296 0.796078 0.480293
0.817380 0.809720 0.452796
0.878752 0.820737 0.426123
0.917906 0.822477 0.408148
0.947997 0.820371 0.396979
0.974426 0.817563 0.388098
0.997803 0.814267 0.381353
1.000000 0.810697 0.376776
0.464271 0.847257 0.821408
0.465431 0.847227 0.821408
0.470924 0.847074 0.821378
0.481300 0.846769 0.821317
0.496895 0.846372 0.821256
0.518059 0.845731 0.821225
0.528313 0.845060 0.819730
0.536400 0.844327 0.817502
0.546075 0.843412 0.814939
0.557031 0.842313 0.812070
0.569482 0.841001 0.808865
0.582879 0.839536 0.805631
0.597131 0.837858 0.802304
0.612238 0.836057 0.799252
0.628260 0.833951 0.796445
0.619959 0.831174 0.784115
0.596124 0.827695 0.763058
0.568841 0.823758 0.736721
0.538476 0.819364 0.704372
0.531212 0.812039 0.675990
0.543694 0.802090 0.651118
0.561028 0.790677 0.623621
0.587274 0.781064 0.597406
0.635187 0.785977 0.583368
0.707881 0.803586 0.558618
0.778683 0.817197 0.534722
0.842191 0.827970 0.511772
0.895872 0.836851 0.490181
0.932006 0.839261 0.475532
0.958526 0.837675 0.469490
0.981750 0.835569 0.465736
1.000000 0.833280 0.464759
0.540856 0.860960 0.841337
0.541741 0.860960 0.841337
0.545617 0.860777 0.841276
0.553521 0.860533 0.841306
0.565301 0.860105 0.841215
0.581720 0.859525 0.841184
0.599329 0.858793 0.841001
0.605371 0.858213 0.839261
0.612634 0.857481 0.837278
0.620935 0.856596 0.835050
0.630274 0.855619 0.832609
0.640681 0.854490 0.830045
0.651911 0.853178 0.827481
0.663844 0.851774 0.824979
0.676600 0.850248 0.822721
0.688869 0.848386 0.820432
0.670985 0.845792 0.805600
0.649378 0.842924 0.786648
0.624598 0.839689 0.762966
0.596918 0.836088 0.733547
0.595789 0.829648 0.711452
0.604150 0.821653 0.689174
0.617029 0.812467 0.664179
0.640558 0.805783 0.641871
0.683833 0.810575 0.629847
0.747829 0.824552 0.609369
0.809445 0.835294 0.589410
0.863828 0.843961 0.570489
0.910216 0.851316 0.553094
0.943297 0.854337 0.541619
0.966278 0.853483 0.540856
0.986236 0.852445 0.542962
0.607721 0.872740 0.858915
0.608484 0.872709 0.858915
0.611719 0.872557 0.858885
0.617395 0.872343 0.858885
0.626917 0.871977 0.858885
0.639460 0.871427 0.858854
0.654810 0.870756 0.858885
0.666590 0.870054 0.858244
0.671687 0.869444 0.856626
0.677607 0.868711 0.854765
0.684413 0.867857 0.852750
0.691920 0.866880 0.850584
0.699977 0.865782 0.848325
0.708797 0.864530 0.846098
