20 Preset/Japan Style/【3】LUT video cho PR-AE-FCPX/LUT VIDEO (2)/Japan Style LUT (41).cube
# Created by Adobe Lightroom plugin Export LUT (1.24.0)
# www.johnrellis.com/lightroom/exportlut.htm
# Preset: 41日系青蓝（素材江湖）
# Color profile: C:\Program Files (x86)\Common Files\Adobe\Color\Profiles\Recommended\VideoHD.icc
LUT_3D_SIZE 8
DOMAIN_MIN 0.000000 0.000000 0.000000
DOMAIN_MAX 0.903226 0.903226 0.903226
0.000000 0.000000 0.000000
0.109316 0.048402 0.000000
0.545525 0.000000 0.000000
0.815274 0.034760 0.000000
0.949828 0.314153 0.000000
1.000000 0.440162 0.000000
1.000000 0.513664 0.248447
1.000000 0.558251 0.361913
0.000000 0.141878 0.102480
0.000000 0.205997 0.031037
0.557946 0.247501 0.000000
0.809873 0.284398 0.000000
0.938994 0.387213 0.000000
1.000000 0.474861 0.133272
1.000000 0.532067 0.280217
1.000000 0.570092 0.382971
0.000000 0.461921 0.324743
0.000000 0.461830 0.343908
0.423011 0.559777 0.215152
0.771908 0.577539 0.222843
0.906249 0.571679 0.264836
0.985290 0.583001 0.331762
1.000000 0.600732 0.406561
1.000000 0.617060 0.472206
0.344915 0.656458 0.567285
0.377722 0.655177 0.572961
0.473091 0.661799 0.574029
0.677577 0.704128 0.499367
0.856901 0.703426 0.523888
0.948760 0.692287 0.535210
1.000000 0.683284 0.556390
1.000000 0.681453 0.585443
0.575921 0.736568 0.686641
0.585657 0.735988 0.688533
0.620630 0.734493 0.696925
0.678737 0.745968 0.683223
0.796689 0.772610 0.644129
0.904173 0.767727 0.657008
0.966674 0.758083 0.666987
1.000000 0.746761 0.678309
0.700862 0.790005 0.755093
0.706233 0.790219 0.756619
0.723445 0.789395 0.760861
0.750576 0.789364 0.767330
0.791470 0.802853 0.748928
0.867582 0.824674 0.723995
0.933440 0.817014 0.736782
0.967468 0.805753 0.749172
0.788510 0.838285 0.812253
0.790982 0.838254 0.812955
0.799985 0.837736 0.815366
0.815671 0.837095 0.820127
0.834165 0.840391 0.819974
0.861326 0.850340 0.806699
0.905699 0.863432 0.790646
0.937774 0.850797 0.801877
0.847898 0.872648 0.858946
0.850553 0.872557 0.860838
0.857206 0.872160 0.864591
0.864591 0.871550 0.867094
0.873167 0.870359 0.869780
0.882444 0.873045 0.867674
0.895293 0.876890 0.860502
0.910979 0.878050 0.851835
0.000000 0.002686 0.101839
0.105715 0.054566 0.118563
0.524224 0.000000 0.102785
0.792233 0.233097 0.107027
0.928771 0.376776 0.148501
1.000000 0.472847 0.238895
1.000000 0.532006 0.332952
1.000000 0.570062 0.413703
0.000000 0.160830 0.118502
0.000000 0.212009 0.154482
0.525170 0.277226 0.146822
0.785855 0.346502 0.145785
0.920195 0.433143 0.191775
0.997314 0.501884 0.272648
1.000000 0.548547 0.356573
1.000000 0.580926 0.431037
0.000000 0.471717 0.380163
0.000000 0.472297 0.395483
0.434546 0.560388 0.309850
0.756619 0.583062 0.329839
0.891875 0.580926 0.352636
0.974121 0.592401 0.396674
1.000000 0.608209 0.450141
1.000000 0.623285 0.501854
0.357519 0.655116 0.580011
0.387732 0.654139 0.585260
0.476783 0.661219 0.585931
0.674800 0.702083 0.521782
0.848539 0.702052 0.544945
0.941100 0.692836 0.555566
0.995758 0.685084 0.572930
1.000000 0.684016 0.598810
0.580011 0.736477 0.691005
0.589166 0.735866 0.692714
0.622705 0.734279 0.700435
0.678431 0.745174 0.686976
0.795621 0.771542 0.650721
0.901274 0.767056 0.663569
0.964263 0.758541 0.673457
0.999023 0.747646 0.683803
0.701625 0.789548 0.756619
0.706172 0.789364 0.757656
0.723293 0.788602 0.761898
0.750332 0.788693 0.768429
0.790951 0.802243 0.750729
0.867460 0.824277 0.727321
0.932433 0.816831 0.739864
0.966552 0.806088 0.751858
0.788144 0.837797 0.812619
0.790341 0.837552 0.813077
0.799283 0.837064 0.815427
0.815091 0.836484 0.820249
0.833890 0.839963 0.820584
0.860960 0.849912 0.807462
0.905455 0.863005 0.791592
0.937438 0.850553 0.802670
0.846708 0.872496 0.858213
0.849516 0.872435 0.860197
0.856870 0.872007 0.864622
0.864317 0.871458 0.867155
0.873716 0.870634 0.870665
0.882689 0.873106 0.868467
0.895293 0.876860 0.861173
0.911009 0.878050 0.852567
0.000000 0.069612 0.306767
0.052796 0.063508 0.328710
0.464271 0.178592 0.348394
0.760006 0.282933 0.353307
0.897520 0.439246 0.399054
0.973938 0.530144 0.458381
1.000000 0.577600 0.506188
1.000000 0.605097 0.542901
0.000000 0.218936 0.350042
0.000000 0.240970 0.373480
0.466712 0.289189 0.375982
0.748501 0.387579 0.391058
0.886625 0.486030 0.427802
0.967010 0.552148 0.477424
1.000000 0.589105 0.517052
1.000000 0.613306 0.551965
0.000000 0.503258 0.445167
0.000000 0.510643 0.503471
0.457557 0.564569 0.484657
0.724849 0.589654 0.504784
0.863584 0.602502 0.517235
0.949981 0.618616 0.538781
1.000000 0.634058 0.565087
1.000000 0.646601 0.591424
0.399725 0.663569 0.621210
0.435431 0.663203 0.631525
0.505241 0.668147 0.634760
0.678096 0.702235 0.601190
0.838743 0.707912 0.620447
0.926513 0.702266 0.626581
0.982757 0.698177 0.635981
1.000000 0.697566 0.649928
0.599207 0.739254 0.709102
0.607752 0.738827 0.710628
0.637964 0.737636 0.717342
0.688106 0.747677 0.707485
0.799039 0.772305 0.682185
0.897246 0.769589 0.693629
0.958190 0.763882 0.702480
0.992584 0.753994 0.709560
0.710903 0.791073 0.766354
0.715145 0.790951 0.767300
0.731106 0.790280 0.771115
0.756283 0.790005 0.777584
0.794156 0.803098 0.761715
0.869291 0.824949 0.742733
0.929778 0.818143 0.754971
0.962860 0.809140 0.766140
0.789181 0.838956 0.815122
0.793851 0.838804 0.817960
0.803098 0.838254 0.820676
0.818204 0.837644 0.825132
0.836210 0.840543 0.826169
0.862181 0.850401 0.814054
0.906065 0.863493 0.800381
0.935668 0.851560 0.811307
0.844541 0.873045 0.857572
0.847288 0.872862 0.859434
0.857786 0.872404 0.866789
0.865293 0.871885 0.869322
0.874510 0.871122 0.872709
0.883391 0.873259 0.871366
0.895537 0.876951 0.864469
0.910704 0.878019 0.856443
0.000000 0.135775 0.535393
0.000000 0.143252 0.553429
0.471046 0.253758 0.534234
0.698726 0.391028 0.565148
0.857664 0.463813 0.565301
0.946136 0.554345 0.591211
0.999786 0.607202 0.619745
1.000000 0.638117 0.643915
0.000000 0.280644 0.555322
0.000183 0.295750 0.570855
0.476143 0.376287 0.561517
0.682338 0.445380 0.581140
0.851286 0.504662 0.579919
0.940795 0.574731 0.602625
0.995880 0.618952 0.628016
1.000000 0.645472 0.649714
0.000000 0.538048 0.593957
0.000000 0.543664 0.603296
0.463844 0.561273 0.619165
0.687251 0.580163 0.618647
0.834257 0.611017 0.627863
0.924895 0.638819 0.641962
0.983551 0.660517 0.659113
1.000000 0.672633 0.671504
0.372534 0.676936 0.639368
0.432593 0.676600 0.657008
0.541161 0.677241 0.689326
0.688624 0.703609 0.677302
0.828611 0.712978 0.688777
0.908904 0.710811 0.689998
0.967437 0.711696 0.695521
1.000000 0.712764 0.702663
0.602075 0.745327 0.720790
0.620203 0.744991 0.728634
0.660304 0.744045 0.741817
0.703487 0.751858 0.737331
0.803372 0.772641 0.724056
0.892699 0.773922 0.734249
0.949371 0.770077 0.740047
0.983612 0.762722 0.743893
0.717983 0.794858 0.776150
0.726711 0.795102 0.780697
0.744839 0.794583 0.786923
0.767880 0.794064 0.793240
0.801266 0.805844 0.781064
0.870115 0.824674 0.768185
0.926238 0.820737 0.778988
0.957214 0.814023 0.788144
0.786740 0.841123 0.817075
0.791714 0.841032 0.820005
0.808896 0.840787 0.829709
0.823636 0.840360 0.833890
0.840757 0.842039 0.836637
0.864408 0.851530 0.825772
0.906645 0.863951 0.814664
0.932769 0.853025 0.824918
0.838102 0.874449 0.854978
0.841184 0.874266 0.857023
0.853147 0.873594 0.865080
0.866789 0.872892 0.873320
0.875883 0.872099 0.876432
0.884581 0.873381 0.876463
0.895811 0.877043 0.870085
0.910155 0.877958 0.863127
0.000000 0.238529 0.679316
0.208286 0.250767 0.686549
0.585016 0.309850 0.704463
0.709560 0.479744 0.672358
0.812436 0.546319 0.681239
0.913787 0.581323 0.683375
0.978546 0.632013 0.697261
1.000000 0.665309 0.713313
0.000000 0.350896 0.682521
0.264622 0.362097 0.689235
0.580591 0.410498 0.705837
0.701289 0.527337 0.680537
0.804654 0.565820 0.686366
0.912139 0.594415 0.686427
0.976013 0.641169 0.701320
1.000000 0.671107 0.716548
0.103120 0.545525 0.684871
0.284581 0.555810 0.692164
0.560082 0.586694 0.713069
0.676234 0.613611 0.700801
0.793301 0.615961 0.697322
0.902342 0.645747 0.704372
0.966674 0.673518 0.716609
1.000000 0.692226 0.728298
0.346960 0.684596 0.702663
0.406683 0.685176 0.706416
0.566430 0.693874 0.724758
0.701564 0.702754 0.734035
0.810361 0.705776 0.733425
0.894102 0.713375 0.736538
0.954284 0.721279 0.742763
0.992950 0.726101 0.748440
0.586664 0.752804 0.729915
0.606622 0.752499 0.736995
0.673213 0.752193 0.763027
0.719203 0.756435 0.769345
0.808896 0.773007 0.764889
0.888884 0.778134 0.773312
0.941039 0.773159 0.773373
0.975830 0.768612 0.775051
0.709346 0.798734 0.779873
0.718074 0.798642 0.783871
0.749660 0.798306 0.799191
0.776547 0.797971 0.807980
0.805692 0.807156 0.801785
0.870603 0.823880 0.795254
0.922972 0.823117 0.804746
0.951904 0.817594 0.810513
0.776211 0.844144 0.816526
0.780941 0.843931 0.818936
0.799222 0.843412 0.828824
0.826352 0.843229 0.843046
0.844450 0.842954 0.848692
0.865690 0.852171 0.839750
0.905303 0.862974 0.831449
0.929625 0.854215 0.840177
0.816190 0.876951 0.843992
0.820401 0.876616 0.846494
0.836606 0.875517 0.856413
0.861387 0.874266 0.872618
0.876463 0.873381 0.880735
0.885649 0.873320 0.883024
0.895781 0.877043 0.877165
0.909514 0.877928 0.871031
0.299870 0.353582 0.757107
0.387762 0.364508 0.760098
0.613519 0.410773 0.771756
0.731502 0.511772 0.753292
0.825101 0.605249 0.745785
0.892210 0.635462 0.750942
0.952575 0.666957 0.762264
0.996307 0.694331 0.769589
0.329351 0.425391 0.755154
0.403326 0.434150 0.757900
0.608637 0.472114 0.769436
0.721279 0.547723 0.752407
0.819638 0.618158 0.747982
0.887968 0.643091 0.752804
0.952270 0.669947 0.761715
0.994690 0.698390 0.771115
0.367132 0.574029 0.751339
0.423957 0.579889 0.754360
0.594598 0.602106 0.767330
0.711635 0.634180 0.760372
0.806271 0.660212 0.758602
0.875792 0.672023 0.762264
0.950927 0.688655 0.765621
0.988464 0.716335 0.779416
0.411719 0.678096 0.750729
0.447700 0.677913 0.751858
0.583398 0.690517 0.767727
0.720760 0.711574 0.780148
0.791073 0.708248 0.774197
0.880308 0.713497 0.774807
0.942565 0.731411 0.784482
0.978210 0.745846 0.794095
0.562585 0.753994 0.764736
0.582879 0.754086 0.766812
0.652613 0.758511 0.777310
0.742367 0.765225 0.803708
0.819699 0.776211 0.805447
0.882170 0.775021 0.803738
0.932952 0.777066 0.806302
0.965789 0.778744 0.809934
0.695674 0.807065 0.786191
0.705592 0.806973 0.790127
0.740017 0.806363 0.804227
0.789914 0.807004 0.827543
0.815000 0.811704 0.827878
0.873472 0.825284 0.825986
0.920623 0.826566 0.833066
0.947723 0.818967 0.832425
0.766049 0.849027 0.819547
0.771389 0.848905 0.822080
0.791348 0.848325 0.831724
0.823636 0.847837 0.848600
0.849699 0.847929 0.860838
0.867857 0.853666 0.857725
0.904204 0.862730 0.852293
0.925444 0.856504 0.859007
0.802029 0.879911 0.841642
0.805570 0.879637 0.843534
0.820005 0.878569 0.851255
0.844205 0.876921 0.864958
0.873259 0.875334 0.883238
0.887053 0.874327 0.889769
0.895842 0.877073 0.886320
0.907713 0.877409 0.881468
0.477333 0.464057 0.818051
0.518242 0.471962 0.819425
0.649012 0.502068 0.824399
0.803250 0.559075 0.831571
0.846891 0.627649 0.803677
0.907500 0.677272 0.801022
0.948302 0.702907 0.807126
0.970855 0.735317 0.822019
0.481392 0.505211 0.815030
0.519738 0.511864 0.816556
0.645319 0.537133 0.821927
0.797330 0.581811 0.830106
0.842893 0.639124 0.804105
0.903929 0.682399 0.801694
0.945617 0.705806 0.807584
0.969360 0.737331 0.822629
0.493904 0.605615 0.809934
0.525750 0.608972 0.811460
0.635798 0.622339 0.817899
0.786038 0.647333 0.830533
0.835630 0.680934 0.810483
0.895750 0.706508 0.809110
0.939178 0.723934 0.815061
0.967834 0.747158 0.825040
0.490364 0.681117 0.802884
0.518639 0.683467 0.805173
0.618372 0.693721 0.813993
0.761227 0.712673 0.830686
0.829221 0.732082 0.823056
0.884886 0.740261 0.821317
0.929381 0.751278 0.826963
0.963958 0.764431 0.830076
0.539483 0.761013 0.813901
0.555291 0.759823 0.813901
0.614954 0.755825 0.815061
0.713588 0.755947 0.823697
0.821744 0.777340 0.837919
0.870878 0.772183 0.832883
0.926604 0.780972 0.836240
0.952636 0.794705 0.843656
0.647303 0.812467 0.816861
0.657343 0.812192 0.817868
0.695430 0.811276 0.822263
0.756374 0.813809 0.832822
0.826169 0.820005 0.855161
0.876860 0.827451 0.857969
0.915801 0.827268 0.857664
0.937987 0.827970 0.860166
0.736782 0.856870 0.820462
0.744961 0.856657 0.823026
0.771450 0.855619 0.832761
0.809506 0.854154 0.849546
0.851133 0.853696 0.870329
0.872465 0.856046 0.876951
0.902770 0.863157 0.874907
0.919829 0.858976 0.878080
0.788602 0.883177 0.842802
0.792752 0.882872 0.844755
0.809293 0.881712 0.852750
0.835996 0.879728 0.866209
0.865843 0.877745 0.882597
0.889372 0.876707 0.897154
0.896361 0.877134 0.896880
0.905272 0.877073 0.893492
0.607385 0.571893 0.875273
0.629236 0.575219 0.875731
0.706203 0.588312 0.877134
0.820981 0.613794 0.881102
0.907988 0.652308 0.878630
0.929137 0.704585 0.851286
0.954192 0.743099 0.849149
0.964111 0.769162 0.854582
0.606928 0.591333 0.873411
0.627924 0.594324 0.873930
0.703273 0.605188 0.875700
0.816373 0.627161 0.879911
0.904509 0.661372 0.878172
0.926879 0.710048 0.852018
0.952575 0.746304 0.850095
0.962890 0.771420 0.855467
0.603052 0.646418 0.869505
0.622431 0.648005 0.870085
0.692714 0.654719 0.872282
0.801724 0.670741 0.877592
0.893706 0.694606 0.878386
0.919738 0.731533 0.856352
0.946593 0.760861 0.855253
0.957641 0.782193 0.859983
0.584527 0.702907 0.864836
0.602991 0.704067 0.865568
0.670253 0.708736 0.868315
0.774624 0.719875 0.874388
0.877714 0.738308 0.880369
0.909026 0.763729 0.864439
0.936950 0.784176 0.863981
0.948608 0.800351 0.867887
0.551873 0.757565 0.862760
0.564904 0.756130 0.862669
0.613214 0.750423 0.862211
0.725765 0.759213 0.869902
0.845335 0.777462 0.880949
0.895689 0.797269 0.874449
0.925261 0.809140 0.873503
0.937499 0.821805 0.877592
0.596918 0.834928 0.874968
0.606439 0.833707 0.874846
0.644282 0.828824 0.874632
0.707729 0.819974 0.874601
0.784573 0.808011 0.875029
0.881041 0.829984 0.886107
0.912352 0.836057 0.884489
0.925353 0.843137 0.886442
0.676661 0.873289 0.865873
0.683528 0.872770 0.866423
0.710933 0.870665 0.868772
0.757565 0.867094 0.873442
0.813870 0.862943 0.880400
0.867674 0.861479 0.890074
0.900969 0.863706 0.895659
0.911772 0.864714 0.896483
0.753567 0.888457 0.853513
0.758358 0.888121 0.854643
0.777737 0.886748 0.859373
0.810819 0.884459 0.868467
0.849058 0.881834 0.880888
0.883421 0.879179 0.897246
0.898894 0.878050 0.906096
0.902312 0.877775 0.905547
