20 Preset/Japan Style/【3】LUT video cho PR-AE-FCPX/LUT VIDEO (2)/Japan Style LUT (24).cube
# Created by Adobe Lightroom plugin Export LUT (1.24.0)
# www.johnrellis.com/lightroom/exportlut.htm
# Preset: 24日系胶片（素材江湖）
# Color profile: C:\Program Files (x86)\Common Files\Adobe\Color\Profiles\Recommended\VideoHD.icc
LUT_3D_SIZE 32
DOMAIN_MIN 0.0 0.0 0.0
DOMAIN_MAX 1.0 1.0 1.0
0.105989 0.187930 0.211521
0.106874 0.188052 0.211643
0.110628 0.188296 0.211978
0.117861 0.189059 0.212467
0.134951 0.190494 0.213291
0.168307 0.192020 0.214115
0.214603 0.193668 0.214939
0.271153 0.194888 0.215488
0.338048 0.194430 0.215946
0.412879 0.192233 0.216312
0.493324 0.187076 0.216342
0.574823 0.180636 0.216190
0.653071 0.175113 0.216190
0.723873 0.175631 0.216037
0.784451 0.184634 0.216709
0.834470 0.200809 0.217929
0.876402 0.222141 0.220371
0.912840 0.246433 0.224369
0.957549 0.282444 0.233310
0.990936 0.317021 0.245182
1.000000 0.347692 0.258885
1.000000 0.375097 0.273960
1.000000 0.399023 0.289799
1.000000 0.420813 0.306218
1.000000 0.440955 0.323430
1.000000 0.460060 0.341497
1.000000 0.478920 0.360693
1.000000 0.498024 0.381659
1.000000 0.517479 0.404150
1.000000 0.537713 0.428534
1.000000 0.558892 0.454902
1.000000 0.580774 0.482704
0.105684 0.188388 0.211856
0.106447 0.188357 0.211612
0.111238 0.188724 0.211795
0.118593 0.189334 0.212284
0.135164 0.190768 0.213138
0.167391 0.192538 0.213931
0.211582 0.194369 0.214664
0.265721 0.195712 0.215274
0.330419 0.195834 0.215671
0.403265 0.194034 0.215915
0.481849 0.189853 0.215976
0.562463 0.183566 0.215915
0.640528 0.178378 0.215732
0.712093 0.178012 0.215518
0.774044 0.185397 0.215854
0.825742 0.200565 0.217075
0.869139 0.220798 0.219333
0.906950 0.244175 0.223148
0.950561 0.278416 0.230930
0.983703 0.310918 0.241184
1.000000 0.340459 0.253971
1.000000 0.366888 0.268284
1.000000 0.390326 0.282628
1.000000 0.411780 0.298100
1.000000 0.431891 0.314763
1.000000 0.450904 0.332097
1.000000 0.469947 0.351232
1.000000 0.489357 0.371893
1.000000 0.509209 0.394751
1.000000 0.529900 0.419379
1.000000 0.551476 0.445899
1.000000 0.573785 0.474098
0.106050 0.190433 0.212772
0.105837 0.190585 0.212772
0.109957 0.191012 0.212314
0.119509 0.191348 0.212192
0.138125 0.193088 0.212711
0.169833 0.195377 0.213321
0.212589 0.197818 0.213840
0.264714 0.199710 0.214328
0.327153 0.200687 0.214694
0.397833 0.199832 0.214725
0.474769 0.196811 0.214572
0.554223 0.192111 0.214420
0.631586 0.188113 0.213962
0.702876 0.188113 0.213596
0.765743 0.194644 0.213840
0.818235 0.208438 0.214633
0.862455 0.226963 0.216617
0.902556 0.249973 0.220157
0.945129 0.281010 0.227512
0.978302 0.311345 0.237308
1.000000 0.339788 0.249424
1.000000 0.365545 0.262638
1.000000 0.388403 0.276951
1.000000 0.409339 0.292271
1.000000 0.428840 0.308446
1.000000 0.447517 0.325689
1.000000 0.466499 0.344701
1.000000 0.485756 0.365545
1.000000 0.505699 0.388403
1.000000 0.526452 0.413153
1.000000 0.547906 0.439918
1.000000 0.570214 0.468238
0.106081 0.195163 0.214908
0.105745 0.195468 0.214755
0.104402 0.196719 0.214084
0.119203 0.197543 0.213382
0.143679 0.199100 0.212802
0.175509 0.202426 0.212222
0.217014 0.205692 0.212253
0.266911 0.208316 0.212528
0.327550 0.210269 0.212558
0.395697 0.210941 0.212253
0.470375 0.209751 0.211917
0.547112 0.207187 0.211429
0.623316 0.205173 0.210666
0.693629 0.206638 0.209964
0.756008 0.212528 0.209720
0.808743 0.224460 0.210147
0.853300 0.240146 0.211765
0.895720 0.261753 0.215030
0.935821 0.287877 0.220890
0.967956 0.313939 0.229587
0.994385 0.338903 0.240269
1.000000 0.362768 0.252323
1.000000 0.384771 0.266392
1.000000 0.405554 0.281743
1.000000 0.425666 0.298619
1.000000 0.445411 0.316899
1.000000 0.465217 0.337285
1.000000 0.485237 0.359258
1.000000 0.505486 0.383154
1.000000 0.526177 0.408423
1.000000 0.547143 0.435096
1.000000 0.568444 0.462715
0.098695 0.208621 0.219150
0.098177 0.209018 0.218875
0.094759 0.211154 0.217502
0.103120 0.214054 0.215671
0.142000 0.215244 0.213779
0.183780 0.215122 0.212345
0.222934 0.218662 0.211398
0.266911 0.221561 0.210178
0.323705 0.224704 0.209354
0.388708 0.226963 0.208835
0.459754 0.227970 0.207980
0.534569 0.227909 0.207004
0.609186 0.228061 0.205722
0.679774 0.230320 0.204623
0.743221 0.236851 0.203494
0.797421 0.247440 0.203464
0.844083 0.260929 0.204501
0.890166 0.281285 0.207553
0.929168 0.303624 0.212985
0.961303 0.325963 0.220920
0.987915 0.348425 0.230777
1.000000 0.369787 0.243107
1.000000 0.389990 0.256626
1.000000 0.409827 0.272343
1.000000 0.429297 0.289891
1.000000 0.448463 0.308873
1.000000 0.467506 0.329564
1.000000 0.486793 0.351904
1.000000 0.506340 0.375799
1.000000 0.526268 0.401221
1.000000 0.546502 0.427771
1.000000 0.567376 0.455695
0.062409 0.234440 0.226383
0.059449 0.235050 0.226078
0.043030 0.237797 0.224155
0.009613 0.243839 0.220310
0.110018 0.246708 0.217166
0.179965 0.246342 0.213535
0.238499 0.241398 0.210941
0.284642 0.243595 0.209354
0.334752 0.245823 0.207401
0.390112 0.248203 0.205264
0.458350 0.251194 0.203189
0.530755 0.254032 0.200626
0.603418 0.256535 0.198520
0.672938 0.260838 0.196628
0.736233 0.267796 0.194705
0.791165 0.277562 0.193881
0.840909 0.291051 0.194583
0.887816 0.309087 0.197238
0.926085 0.327825 0.202640
0.957855 0.347143 0.210422
0.984649 0.366522 0.220462
1.000000 0.385473 0.233005
1.000000 0.448493 0.279698
1.000000 0.465583 0.299504
1.000000 0.481727 0.319951
1.000000 0.497688 0.340856
1.000000 0.513603 0.362921
1.000000 0.529625 0.385473
1.000000 0.546197 0.409339
1.000000 0.563226 0.433967
1.000000 0.580621 0.459480
1.000000 0.598199 0.485176
0.000000 0.288121 0.242161
0.000000 0.289311 0.241459
0.000000 0.292973 0.238804
0.000000 0.301488 0.232670
0.000000 0.313146 0.225559
0.142855 0.310369 0.218540
0.250156 0.305394 0.211490
0.331579 0.290166 0.206577
0.385382 0.289403 0.203922
0.441016 0.289311 0.200870
0.497780 0.289494 0.197421
0.560327 0.291508 0.193759
0.630610 0.296300 0.190188
0.695888 0.303044 0.186496
0.754269 0.311223 0.182589
0.805142 0.321202 0.179843
0.860410 0.338354 0.178836
0.904082 0.354528 0.182620
0.940307 0.371374 0.189181
0.971527 0.388861 0.199832
0.998383 0.407263 0.213626
1.000000 0.426032 0.230747
1.000000 0.445197 0.251194
1.000000 0.463844 0.273442
1.000000 0.481575 0.296971
1.000000 0.498085 0.320500
1.000000 0.513390 0.343908
1.000000 0.528618 0.367224
1.000000 0.544244 0.391852
1.000000 0.560174 0.416754
1.000000 0.576745 0.442634
1.000000 0.593835 0.469245
0.000000 0.344732 0.259586
0.000000 0.345403 0.259159
0.000000 0.349554 0.256138
0.000000 0.358038 0.249393
0.000000 0.370855 0.237217
0.000000 0.377996 0.229435
0.198520 0.372015 0.219425
0.319219 0.362982 0.208774
0.407568 0.342260 0.201938
0.466835 0.335088 0.198428
0.522210 0.333104 0.194339
0.575860 0.332006 0.190097
0.626856 0.331762 0.185092
0.683070 0.335576 0.180850
0.743435 0.344274 0.176669
0.802640 0.357580 0.172549
0.851347 0.370550 0.170352
0.892119 0.383032 0.170871
0.927459 0.396155 0.173526
0.958740 0.410437 0.178500
0.986419 0.425177 0.191531
1.000000 0.440772 0.208621
1.000000 0.456886 0.228977
1.000000 0.473030 0.251804
1.000000 0.488746 0.276005
1.000000 0.503349 0.299870
1.000000 0.517296 0.323980
1.000000 0.531334 0.348913
1.000000 0.545861 0.374182
1.000000 0.560815 0.400214
1.000000 0.576562 0.426947
1.000000 0.592889 0.454414
0.000000 0.411048 0.283726
0.000000 0.412207 0.283055
0.000000 0.415625 0.280156
0.000000 0.423316 0.273747
0.000000 0.435401 0.261448
0.000000 0.452064 0.248325
0.000000 0.449134 0.235630
0.273106 0.439887 0.221134
0.396948 0.427314 0.205875
0.488045 0.402777 0.195377
0.551415 0.388769 0.190799
0.602899 0.385046 0.185702
0.650690 0.382238 0.180453
0.702632 0.385138 0.173312
0.748959 0.388342 0.166262
0.797971 0.395758 0.162448
0.843290 0.404944 0.161074
0.882322 0.414343 0.162020
0.917144 0.424384 0.165469
0.948394 0.435859 0.170779
0.976349 0.448157 0.179294
1.000000 0.461128 0.190219
1.000000 0.474311 0.204440
1.000000 0.487739 0.228214
1.000000 0.500847 0.253513
1.000000 0.513329 0.278813
1.000000 0.525658 0.304295
1.000000 0.538170 0.330022
1.000000 0.551202 0.356420
1.000000 0.564874 0.383520
1.000000 0.579461 0.411414
1.000000 0.594690 0.439887
0.000000 0.482734 0.316197
0.000000 0.483406 0.315312
0.000000 0.486061 0.312566
0.000000 0.492561 0.305943
0.000000 0.502556 0.294865
0.000000 0.516899 0.276219
0.000000 0.528954 0.264744
0.178439 0.519493 0.245914
0.354620 0.506798 0.225467
0.474281 0.491402 0.204562
0.565881 0.467079 0.188327
0.633845 0.449622 0.181308
0.683558 0.447150 0.174502
0.727749 0.444923 0.167849
0.767056 0.442603 0.161440
0.802060 0.441047 0.155123
0.833982 0.440497 0.148714
0.872923 0.447639 0.150057
0.908232 0.455940 0.154330
0.939574 0.465126 0.160983
0.967254 0.474464 0.170382
0.991241 0.484047 0.181827
1.000000 0.493751 0.195743
1.000000 0.503624 0.210269
1.000000 0.513054 0.225467
1.000000 0.522881 0.251316
1.000000 0.533135 0.277775
1.000000 0.544091 0.305364
1.000000 0.555993 0.333532
1.000000 0.568750 0.362127
1.000000 0.582483 0.391852
1.000000 0.597101 0.422095
0.000000 0.548028 0.353216
0.000000 0.548730 0.352361
0.000000 0.551568 0.350042
0.000000 0.557580 0.344366
0.000000 0.566827 0.334966
0.000000 0.579644 0.319799
0.000000 0.595697 0.303532
0.000000 0.598352 0.287877
0.301946 0.592004 0.265690
0.450141 0.582574 0.239506
0.565332 0.569146 0.209842
0.654566 0.548577 0.180941
0.710658 0.517021 0.173526
0.749233 0.508751 0.166903
0.783780 0.501549 0.160433
0.815152 0.495613 0.154635
0.843900 0.490883 0.148653
0.870512 0.487465 0.143221
0.896696 0.486885 0.138857
0.928252 0.493599 0.147616
0.956115 0.500603 0.158328
0.980621 0.507927 0.170962
1.000000 0.515801 0.185733
1.000000 0.523613 0.201511
1.000000 0.531518 0.217716
1.000000 0.539147 0.234195
1.000000 0.546868 0.252750
1.000000 0.556023 0.282078
1.000000 0.566064 0.311833
1.000000 0.577264 0.342443
1.000000 0.589532 0.373388
1.000000 0.602838 0.405188
0.000000 0.619715 0.403571
0.000000 0.620478 0.402991
0.000000 0.623072 0.401221
0.000000 0.628504 0.397772
0.000000 0.637263 0.390967
0.000000 0.648829 0.380285
0.000000 0.664240 0.363439
0.000000 0.680232 0.356970
0.261204 0.674617 0.333440
0.420996 0.665187 0.304753
0.539544 0.652674 0.271122
0.637964 0.637903 0.233524
0.771267 0.669917 0.217105
0.816648 0.623774 0.196323
0.844541 0.608759 0.187289
0.869871 0.595514 0.178592
0.892943 0.583917 0.170932
0.914611 0.574517 0.163302
0.934844 0.566888 0.157015
0.953704 0.561028 0.151247
0.973541 0.558953 0.155398
0.994965 0.562249 0.175387
1.000000 0.565820 0.194583
1.000000 0.569970 0.213962
1.000000 0.574121 0.232181
1.000000 0.578271 0.249180
1.000000 0.582330 0.265446
1.000000 0.586755 0.280919
1.000000 0.593103 0.308049
1.000000 0.601007 0.339086
1.000000 0.610224 0.370397
1.000000 0.620874 0.402289
0.290898 0.712032 0.495308
0.289616 0.712093 0.494759
0.285161 0.712795 0.492195
0.277195 0.715633 0.487922
0.264561 0.719814 0.480751
0.246098 0.726101 0.470497
0.224826 0.735317 0.457191
0.224216 0.746487 0.444282
0.308843 0.753201 0.435187
0.430365 0.746059 0.407324
0.535729 0.738369 0.375921
0.631403 0.729305 0.340459
0.717769 0.718105 0.299168
0.794705 0.703975 0.249912
0.841917 0.660426 0.222171
0.867887 0.645075 0.211734
0.890532 0.631189 0.201389
0.911101 0.618402 0.191409
0.930266 0.607752 0.183291
0.948058 0.598627 0.176516
0.964874 0.591119 0.170443
0.981018 0.585321 0.165438
0.998962 0.584588 0.175875
1.000000 0.587335 0.196506
1.000000 0.590356 0.216007
1.000000 0.593591 0.234775
1.000000 0.597009 0.252720
1.000000 0.600732 0.269780
1.000000 0.605005 0.286412
1.000000 0.610742 0.311315
1.000000 0.618647 0.344976
1.000000 0.627955 0.379187
0.396063 0.753323 0.548425
0.394995 0.753109 0.547601
0.390906 0.753384 0.544884
0.384344 0.754635 0.540398
0.375921 0.757137 0.534081
0.365087 0.761196 0.525536
0.353552 0.767697 0.514885
0.341772 0.776425 0.501671
0.362676 0.786404 0.496681
0.429877 0.786618 0.480232
0.514397 0.780667 0.453315
0.597345 0.773709 0.422705
0.677363 0.764920 0.386114
0.751644 0.753872 0.344152
0.819791 0.739620 0.293462
0.862669 0.699397 0.256901
0.888121 0.678004 0.240879
0.907897 0.663325 0.229160
0.926543 0.650202 0.218357
0.943725 0.638636 0.208652
0.960021 0.628626 0.200778
0.975769 0.620539 0.194339
0.990875 0.614008 0.188540
1.000000 0.608789 0.183291
1.000000 0.609644 0.200320
1.000000 0.611902 0.221256
1.000000 0.614252 0.240299
1.000000 0.617060 0.258854
1.000000 0.620417 0.277073
1.000000 0.624353 0.294408
1.000000 0.629572 0.318181
1.000000 0.637476 0.355016
0.472328 0.786191 0.594659
0.471626 0.786160 0.594079
0.468849 0.786252 0.591913
0.463600 0.787015 0.587915
0.456947 0.788449 0.582147
0.449317 0.791135 0.575097
0.441596 0.795712 0.566735
0.434607 0.802243 0.557061
0.433021 0.810666 0.547509
0.459571 0.819516 0.547967
0.519066 0.815122 0.526085
0.583337 0.809903 0.500328
0.649439 0.803372 0.469734
0.715724 0.794583 0.433234
0.779812 0.783383 0.388922
0.840024 0.769131 0.337224
0.879881 0.733028 0.295018
0.905303 0.707851 0.274083
0.923247 0.693019 0.260685
0.940002 0.679438 0.248936
0.955840 0.667536 0.238315
0.971191 0.657435 0.229679
0.985931 0.648737 0.221592
1.000000 0.641627 0.215152
1.000000 0.635615 0.208499
1.000000 0.631067 0.205295
1.000000 0.632715 0.226658
1.000000 0.634974 0.248081
1.000000 0.637842 0.267857
1.000000 0.641382 0.287388
1.000000 0.645624 0.306889
1.000000 0.651148 0.332830
0.527489 0.811307 0.631922
0.527459 0.811673 0.631861
0.526513 0.812070 0.630823
0.524407 0.813077 0.628717
0.521233 0.814878 0.625360
0.517632 0.817746 0.620905
0.514549 0.822080 0.616114
0.511894 0.827787 0.610224
0.509636 0.834897 0.602991
0.520439 0.842252 0.600427
0.547601 0.845548 0.594018
0.591211 0.840696 0.571923
0.639582 0.834592 0.545464
0.691676 0.826719 0.513207
0.745449 0.817105 0.474556
0.800443 0.805325 0.428687
0.854887 0.791531 0.376257
0.892424 0.760037 0.331853
0.918456 0.732692 0.306798
0.935088 0.718196 0.292546
0.950988 0.705348 0.280156
0.966339 0.694026 0.269596
0.981018 0.684260 0.260349
0.995270 0.675654 0.251926
1.000000 0.668299 0.244877
1.000000 0.662104 0.238163
1.000000 0.656977 0.232731
1.000000 0.654719 0.237003
1.000000 0.656703 0.258946
1.000000 0.659266 0.279850
1.000000 0.662318 0.300023
1.000000 0.665797 0.319524
0.572595 0.831907 0.664363
0.572351 0.832059 0.664149
0.571496 0.832486 0.663264
0.570245 0.833494 0.661799
0.568750 0.835080 0.659632
0.566796 0.837522 0.656733
0.564813 0.840970 0.653101
0.562982 0.845487 0.648676
0.561517 0.850919 0.643214
0.561028 0.857267 0.636927
0.576532 0.863218 0.637934
0.603571 0.862333 0.625330
0.639155 0.857633 0.604150
0.679194 0.851621 0.578668
0.723140 0.844175 0.547601
0.769833 0.835050 0.511070
0.818570 0.824308 0.467140
0.867979 0.812039 0.417609
0.904265 0.785122 0.371435
0.930602 0.756130 0.342748
0.946197 0.742580 0.328374
0.961364 0.730159 0.315282
0.975921 0.719203 0.303777
0.989990 0.709560 0.293767
1.000000 0.701045 0.284794
1.000000 0.693721 0.276890
1.000000 0.687434 0.270024
1.000000 0.682155 0.264195
1.000000 0.678035 0.259190
1.000000 0.677913 0.271580
1.000000 0.680262 0.293828
1.000000 0.683009 0.314702
0.615198 0.851255 0.696345
0.615656 0.851530 0.696529
0.648981 0.866087 0.721584
0.648493 0.866789 0.720699
0.647272 0.868009 0.719020
0.645838 0.869627 0.716732
0.644312 0.871885 0.713924
0.642756 0.874937 0.710384
0.641779 0.878660 0.706569
0.640803 0.883238 0.701747
0.645472 0.887846 0.699214
0.657038 0.891814 0.698726
0.676814 0.887938 0.681056
0.701472 0.882994 0.660060
0.730861 0.876829 0.634852
0.764553 0.869383 0.604913
0.802335 0.860441 0.569390
0.843290 0.850156 0.527855
0.886351 0.838621 0.480110
0.920439 0.815488 0.431342
0.946410 0.785183 0.396429
0.960571 0.771725 0.379217
0.974273 0.759304 0.364294
0.987579 0.747982 0.350530
1.000000 0.737423 0.337682
1.000000 0.727993 0.325628
1.000000 0.719661 0.315251
1.000000 0.712520 0.306401
1.000000 0.706722 0.298833
1.000000 0.702235 0.292912
1.000000 0.698787 0.288212
1.000000 0.700252 0.308354
0.660578 0.870695 0.731044
0.663233 0.871885 0.733028
0.665980 0.873350 0.734920
0.667994 0.875029 0.736049
0.669154 0.876768 0.736324
0.668910 0.878508 0.735164
0.667964 0.880491 0.733059
0.666590 0.882933 0.730159
0.665461 0.886015 0.726894
0.664546 0.889647 0.722957
0.663813 0.893889 0.718318
0.671870 0.897704 0.718257
0.683436 0.898650 0.711910
0.701198 0.894804 0.694514
0.723293 0.890135 0.674250
0.749844 0.884367 0.650263
0.780697 0.877562 0.622522
0.815396 0.869688 0.590051
0.853483 0.860807 0.552880
0.893675 0.850980 0.510369
0.927123 0.831785 0.464820
0.953857 0.802335 0.429023
0.967651 0.789639 0.412696
0.980804 0.777951 0.397223
0.993561 0.766995 0.382300
1.000000 0.756924 0.368688
1.000000 0.747768 0.356695
1.000000 0.739773 0.345800
1.000000 0.733089 0.337041
1.000000 0.727657 0.329625
1.000000 0.723384 0.324224
1.000000 0.719966 0.319280
0.684779 0.881132 0.749996
0.687221 0.882200 0.751888
0.689784 0.883543 0.753719
0.691798 0.885039 0.754940
0.692988 0.886625 0.755367
0.693111 0.888090 0.754635
0.692317 0.889769 0.752987
0.691279 0.891783 0.750668
0.690272 0.894285 0.747982
0.689479 0.897215 0.744839
0.688624 0.900725 0.740963
0.690639 0.904326 0.738186
0.698116 0.907622 0.738125
0.709773 0.906188 0.727230
0.725704 0.902525 0.710719
0.745449 0.898100 0.691402
0.769375 0.892790 0.668727
0.797269 0.886625 0.642756
0.829007 0.879637 0.613092
0.863951 0.871824 0.579370
0.901274 0.863127 0.540795
0.933928 0.847532 0.498939
0.958953 0.820829 0.464820
0.974121 0.806210 0.445319
0.986664 0.795132 0.429358
0.998962 0.784726 0.414374
1.000000 0.775082 0.400244
1.000000 0.766506 0.387976
1.000000 0.759121 0.377661
1.000000 0.752987 0.369146
1.000000 0.747951 0.362493
1.000000 0.743801 0.356451
0.708003 0.891142 0.768490
0.710048 0.891997 0.770016
0.712062 0.893065 0.771481
0.713649 0.894285 0.772457
0.714748 0.895537 0.772885
0.714809 0.896818 0.772274
0.714229 0.898222 0.770962
0.713436 0.899931 0.769162
0.712581 0.902037 0.766995
0.711940 0.904540 0.764462
0.711299 0.907439 0.761440
0.710536 0.910704 0.757778
0.714961 0.913725 0.756710
0.722072 0.916136 0.755367
0.733364 0.913298 0.742000
0.747921 0.909972 0.726558
0.766262 0.906126 0.709041
0.788510 0.901671 0.688899
0.814450 0.896696 0.666407
0.843931 0.891112 0.641077
0.876341 0.884916 0.612726
0.911162 0.878019 0.580133
0.943786 0.866697 0.543206
0.966430 0.842405 0.513024
0.982635 0.827115 0.492958
0.994842 0.817197 0.478096
1.000000 0.807828 0.464057
1.000000 0.799283 0.451057
1.000000 0.791775 0.440375
1.000000 0.785275 0.431037
1.000000 0.779690 0.423224
1.000000 0.774685 0.415686
0.740841 0.904875 0.794522
0.741604 0.905180 0.795071
0.741939 0.905608 0.795285
0.742153 0.906096 0.795224
0.741939 0.906737 0.794736
0.741268 0.907500 0.793668
0.740536 0.908507 0.792386
0.739803 0.909850 0.790890
0.738949 0.911589 0.789029
0.738491 0.913695 0.787106
0.738094 0.916106 0.784878
0.737667 0.918853 0.782132
0.737881 0.921721 0.779294
0.743221 0.924254 0.779232
0.749935 0.924712 0.774105
0.759762 0.922087 0.761593
0.772488 0.919005 0.747280
0.788510 0.915435 0.730831
0.807950 0.911376 0.712154
0.831022 0.906737 0.691066
0.857359 0.901518 0.666957
0.886656 0.895689 0.639918
0.918364 0.889158 0.609155
0.950225 0.880247 0.574151
0.970642 0.857084 0.544396
0.987640 0.840818 0.522545
0.999390 0.831662 0.508904
1.000000 0.823270 0.496223
1.000000 0.815610 0.484718
1.000000 0.808865 0.474556
1.000000 0.802762 0.465553
1.000000 0.797208 0.456733
0.758816 0.912749 0.809110
0.759304 0.912993 0.809476
0.759701 0.913359 0.809720
0.759945 0.913787 0.809751
0.759731 0.914366 0.809262
0.759304 0.915038 0.808530
0.758755 0.915923 0.807492
0.758114 0.917082 0.806241
0.757534 0.918578 0.804837
0.757198 0.920348 0.803311
0.756802 0.922454 0.801450
0.756527 0.924804 0.799313
0.755947 0.927367 0.796536
0.758389 0.929839 0.795346
0.763272 0.932250 0.795254
0.770260 0.931151 0.787472
0.779629 0.928832 0.776181
0.791562 0.926116 0.763119
0.806332 0.923033 0.748287
0.824216 0.919463 0.731441
0.845274 0.915465 0.712276
0.869322 0.910918 0.690791
0.896239 0.905821 0.666163
0.925597 0.900084 0.638270
0.955413 0.891112 0.598077
0.974060 0.869322 0.569818
0.991852 0.852506 0.547723
1.000000 0.844297 0.535271
1.000000 0.836728 0.523949
1.000000 0.829770 0.513237
1.000000 0.823606 0.504173
1.000000 0.818051 0.495521
0.780667 0.922179 0.826810
0.781460 0.922545 0.827390
0.781704 0.922820 0.827512
0.781491 0.923033 0.827237
0.780819 0.923278 0.826444
0.779782 0.923613 0.825284
0.778531 0.924071 0.823850
0.777279 0.924712 0.822232
0.775937 0.925689 0.820401
0.774807 0.926909 0.818479
0.773648 0.928374 0.816281
0.772610 0.930175 0.813931
0.771633 0.932189 0.811276
0.770474 0.934417 0.808072
0.773831 0.936278 0.807431
0.777829 0.937835 0.805722
0.784207 0.935760 0.795773
0.792966 0.933471 0.784756
0.804410 0.930968 0.772641
0.818662 0.928222 0.758968
0.835660 0.925139 0.743832
0.855436 0.921569 0.726284
0.877836 0.917449 0.706020
0.902770 0.912657 0.682734
0.930114 0.907225 0.655756
0.959625 0.901030 0.624628
0.977935 0.881865 0.597681
0.996368 0.864378 0.574060
1.000000 0.856535 0.561608
1.000000 0.849485 0.550439
1.000000 0.843168 0.540673
1.000000 0.837675 0.532403
0.792416 0.927672 0.836606
0.793057 0.927977 0.837095
0.793515 0.928252 0.837400
0.793454 0.928557 0.837247
0.793210 0.928893 0.836851
0.792813 0.929351 0.836240
0.792325 0.929961 0.835477
0.791806 0.930816 0.834562
0.791348 0.931853 0.833524
0.790982 0.933135 0.832395
0.790494 0.934569 0.830961
0.789944 0.936217 0.829282
0.789303 0.938018 0.827268
0.788418 0.939971 0.824735
0.788937 0.941833 0.822812
0.792020 0.943572 0.822171
0.796048 0.943847 0.818051
0.802243 0.941985 0.808988
0.810605 0.940002 0.799069
0.821286 0.937835 0.788052
0.834409 0.935393 0.775845
0.849943 0.932677 0.762051
0.867979 0.929564 0.746181
0.888518 0.925933 0.727932
0.911498 0.921813 0.706935
0.936889 0.917113 0.682612
0.964538 0.911833 0.654902
0.982757 0.895232 0.629511
1.000000 0.877958 0.606897
1.000000 0.871153 0.596307
1.000000 0.865019 0.586755
1.000000 0.859586 0.578363
0.807370 0.934417 0.848966
0.807736 0.934569 0.849180
0.807797 0.934752 0.849210
0.807767 0.934936 0.849088
0.807401 0.935210 0.848661
0.807034 0.935576 0.848112
0.806516 0.936095 0.847349
0.805966 0.936736 0.846494
0.805447 0.937591 0.845518
0.805020 0.938659 0.844511
0.804532 0.939940 0.843259
0.804135 0.941344 0.841917
0.803586 0.942931 0.840208
0.802884 0.944640 0.838193
0.801938 0.946410 0.835660
0.803799 0.948028 0.834714
0.806790 0.949676 0.834226
0.811063 0.948943 0.828214
0.817227 0.947387 0.820035
0.825406 0.945678 0.811124
0.835538 0.943816 0.801205
0.847715 0.941680 0.790005
0.861967 0.939178 0.777249
0.878447 0.936278 0.762417
0.897307 0.932952 0.745266
0.918547 0.929198 0.725612
0.942351 0.924956 0.703151
0.968505 0.920226 0.677424
0.986572 0.905821 0.653712
1.000000 0.889677 0.632685
1.000000 0.882933 0.622889
1.000000 0.877775 0.615137
0.819638 0.940032 0.859129
0.819821 0.940185 0.859281
0.820005 0.940337 0.859403
0.820066 0.940551 0.859342
0.820066 0.940887 0.859220
0.820218 0.941375 0.859098
0.820615 0.942138 0.859159
0.821225 0.943053 0.859281
0.822049 0.944244 0.859434
0.822934 0.945586 0.859556
0.823850 0.947112 0.859648
0.824735 0.948730 0.859495
0.825437 0.950408 0.859098
0.825834 0.952148 0.858244
0.825895 0.953887 0.856962
0.826108 0.955535 0.855436
0.828550 0.957000 0.855192
0.831510 0.958282 0.854520
0.835752 0.957183 0.848173
0.841398 0.955962 0.841245
0.848600 0.954620 0.833616
0.857481 0.953063 0.825132
0.867918 0.951293 0.815366
0.880278 0.949218 0.804318
0.894652 0.946838 0.791653
0.911284 0.944091 0.776974
0.930327 0.940978 0.760128
0.951843 0.937560 0.741054
0.975708 0.933806 0.719387
0.992920 0.921874 0.698970
1.000000 0.908080 0.681453
1.000000 0.901183 0.672114
0.839719 0.948394 0.875395
0.839689 0.948425 0.875364
0.839536 0.948486 0.875242
0.839414 0.948577 0.875059
0.839170 0.948760 0.874723
0.838956 0.949035 0.874388
0.838743 0.949462 0.873991
0.838590 0.950011 0.873564
0.838468 0.950744 0.873106
0.838468 0.951598 0.872618
0.838468 0.952636 0.872068
0.838529 0.953765 0.871427
0.838468 0.955016 0.870573
0.838346 0.956359 0.869505
