20 Preset/Japan Style/【3】LUT video cho PR-AE-FCPX/LUT VIDEO (2)/Japan Style LUT (31).cube
# Created by Adobe Lightroom plugin Export LUT (1.24.0)
# www.johnrellis.com/lightroom/exportlut.htm
# Preset: 31日系胶片（素材江湖）
# Color profile: C:\Program Files (x86)\Common Files\Adobe\Color\Profiles\Recommended\VideoHD.icc
LUT_3D_SIZE 32
DOMAIN_MIN 0.0 0.0 0.0
DOMAIN_MAX 1.0 1.0 1.0
0.035645 0.092042 0.112490
0.033661 0.092134 0.112490
0.025788 0.090852 0.111391
0.022187 0.088563 0.109407
0.036652 0.086000 0.106844
0.094148 0.086580 0.104341
0.155795 0.085939 0.102083
0.249729 0.055848 0.099458
0.363500 0.000000 0.094697
0.484688 0.000000 0.085695
0.602747 0.000000 0.057099
0.706874 0.000000 0.017487
0.793393 0.000000 0.000000
0.861967 0.000000 0.000000
0.915465 0.000000 0.000000
0.957336 0.108431 0.000000
0.990997 0.194797 0.000000
1.000000 0.255253 0.000000
1.000000 0.306859 0.000000
1.000000 0.350774 0.028840
1.000000 0.387976 0.109163
1.000000 0.420722 0.148043
1.000000 0.449592 0.181003
1.000000 0.476173 0.212497
1.000000 0.500969 0.244358
1.000000 0.524620 0.275517
1.000000 0.546868 0.306096
1.000000 0.568231 0.337377
1.000000 0.588891 0.368658
1.000000 0.608606 0.399603
1.000000 0.627680 0.430701
1.000000 0.646052 0.461677
0.035981 0.091249 0.111604
0.035676 0.091249 0.111940
0.025605 0.089570 0.111849
0.022614 0.088136 0.109773
0.038636 0.085847 0.106844
0.095369 0.088258 0.104555
0.156710 0.088258 0.101869
0.248661 0.063966 0.098787
0.362249 0.000000 0.093935
0.482582 0.000000 0.084169
0.599817 0.000000 0.054444
0.703975 0.000000 0.013825
0.790860 0.000000 0.000000
0.859586 0.000000 0.000000
0.913359 0.000000 0.000000
0.955810 0.114839 0.000000
0.989654 0.197299 0.000000
1.000000 0.256260 0.000000
1.000000 0.307012 0.000000
1.000000 0.349981 0.013306
1.000000 0.386755 0.102815
1.000000 0.419074 0.142977
1.000000 0.447852 0.176303
1.000000 0.474403 0.208286
1.000000 0.499245 0.240177
1.000000 0.522759 0.271702
1.000000 0.545159 0.303227
1.000000 0.566613 0.334325
1.000000 0.587335 0.365850
1.000000 0.607233 0.397131
1.000000 0.626429 0.428443
1.000000 0.644923 0.459510
0.036469 0.085237 0.107912
0.036469 0.085237 0.107912
0.032898 0.084749 0.108309
0.025452 0.085145 0.109926
0.043427 0.089021 0.107576
0.099733 0.093965 0.104189
0.162844 0.096559 0.101015
0.254765 0.087770 0.096956
0.365576 0.020203 0.090150
0.483436 0.000000 0.072969
0.599084 0.000000 0.036835
0.702510 0.000000 0.000000
0.788479 0.000000 0.000000
0.857084 0.000000 0.000000
0.911131 0.000000 0.000000
0.953674 0.145510 0.000000
0.987762 0.212497 0.000000
1.000000 0.266087 0.000000
1.000000 0.313359 0.000000
1.000000 0.354070 0.000000
1.000000 0.389593 0.082551
1.000000 0.421118 0.130800
1.000000 0.449134 0.167178
1.000000 0.475196 0.201022
1.000000 0.499611 0.233616
1.000000 0.522789 0.266270
1.000000 0.544854 0.297337
1.000000 0.566247 0.329351
1.000000 0.586877 0.361303
1.000000 0.606806 0.393256
1.000000 0.625879 0.424842
1.000000 0.644434 0.456428
0.033082 0.082155 0.104738
0.033082 0.082155 0.104738
0.032380 0.082918 0.104707
0.033661 0.083528 0.104646
0.059266 0.095430 0.104402
0.110414 0.106203 0.102693
0.175692 0.115114 0.098116
0.265324 0.116548 0.091310
0.373785 0.104921 0.076356
0.488075 0.053010 0.042634
0.600885 0.000000 0.000000
0.700954 0.000000 0.000000
0.785916 0.000000 0.000000
0.853696 0.023041 0.000000
0.907378 0.135012 0.000000
0.950072 0.192447 0.000000
0.984497 0.240970 0.000000
1.000000 0.286107 0.000000
1.000000 0.326787 0.000000
1.000000 0.363226 0.000000
1.000000 0.395636 0.000000
1.000000 0.425177 0.099947
1.000000 0.452033 0.146456
1.000000 0.477089 0.184787
1.000000 0.500969 0.220554
1.000000 0.523980 0.255131
1.000000 0.545953 0.288426
1.000000 0.567102 0.321477
1.000000 0.587640 0.355108
1.000000 0.607294 0.387640
1.000000 0.626062 0.419409
1.000000 0.644312 0.451301
0.005737 0.105135 0.112428
0.005921 0.105501 0.111421
0.006470 0.107240 0.108949
0.018860 0.107210 0.107546
0.040040 0.112673 0.105623
0.124910 0.142794 0.094301
0.193637 0.146395 0.090059
0.281163 0.154238 0.074769
0.383551 0.157992 0.040131
0.492317 0.157076 0.000000
0.599573 0.151217 0.000000
0.697353 0.148348 0.000000
0.780392 0.159365 0.000000
0.848081 0.182193 0.000000
0.901793 0.212741 0.000000
0.944579 0.247074 0.000000
0.979736 0.280766 0.000000
1.000000 0.315557 0.000000
1.000000 0.348852 0.000000
1.000000 0.379889 0.000000
1.000000 0.408453 0.000000
1.000000 0.434791 0.000000
1.000000 0.459388 0.110384
1.000000 0.482826 0.160403
1.000000 0.505425 0.201450
1.000000 0.527367 0.238712
1.000000 0.548608 0.275364
1.000000 0.569146 0.310338
1.000000 0.588891 0.344274
1.000000 0.608118 0.378241
1.000000 0.626642 0.411292
1.000000 0.644465 0.443580
0.000000 0.181491 0.145449
0.000000 0.182528 0.144381
0.000000 0.185580 0.136934
0.000000 0.187747 0.130709
0.000000 0.182162 0.123171
0.078401 0.193698 0.115511
0.230106 0.243595 0.026734
0.316686 0.227481 0.000000
0.397894 0.215915 0.000000
0.502098 0.221592 0.000000
0.603754 0.226413 0.000000
0.696376 0.234684 0.000000
0.776059 0.247868 0.000000
0.841520 0.265446 0.000000
0.894682 0.285405 0.000000
0.938262 0.305608 0.000000
0.973999 0.328923 0.000000
1.000000 0.354101 0.000000
1.000000 0.379126 0.000000
1.000000 0.403815 0.000000
1.000000 0.427436 0.000000
1.000000 0.449958 0.000000
1.000000 0.482002 0.041932
1.000000 0.502556 0.139315
1.000000 0.522637 0.188540
1.000000 0.542321 0.230686
1.000000 0.561517 0.268803
1.000000 0.580285 0.305730
1.000000 0.598596 0.341009
1.000000 0.616419 0.375311
1.000000 0.633783 0.409033
1.000000 0.650568 0.441627
0.000000 0.329747 0.213993
0.000000 0.330999 0.211887
0.000000 0.333867 0.201541
0.000000 0.341802 0.186770
0.000000 0.331426 0.172396
0.000000 0.314183 0.153506
0.186893 0.329412 0.134463
0.382330 0.385290 0.000000
0.466621 0.349279 0.000000
0.524743 0.304662 0.000000
0.614801 0.302983 0.000000
0.702541 0.311467 0.000000
0.778347 0.322393 0.000000
0.840970 0.334691 0.000000
0.892271 0.348425 0.000000
0.934478 0.363684 0.000000
0.970489 0.381415 0.000000
1.000000 0.400031 0.000000
1.000000 0.419013 0.000000
1.000000 0.437385 0.000000
1.000000 0.455756 0.000000
1.000000 0.474281 0.000000
1.000000 0.493019 0.000000
1.000000 0.511620 0.000000
1.000000 0.529992 0.140444
1.000000 0.548241 0.195285
1.000000 0.565942 0.240543
1.000000 0.583398 0.281376
1.000000 0.600763 0.319738
1.000000 0.617823 0.356847
1.000000 0.634516 0.392279
1.000000 0.650813 0.426703
0.000000 0.489509 0.309300
0.000000 0.489937 0.307134
0.000000 0.492958 0.297581
0.000000 0.499214 0.276616
0.000000 0.495247 0.263859
0.013611 0.477455 0.237919
0.211460 0.454902 0.208377
0.336065 0.469825 0.182376
0.520653 0.513909 0.000000
0.596796 0.474128 0.000000
0.646754 0.420203 0.000000
0.697047 0.384100 0.000000
0.770840 0.390997 0.000000
0.832029 0.398505 0.000000
0.883421 0.407080 0.000000
0.926116 0.417090 0.000000
0.961700 0.428656 0.000000
0.991547 0.441260 0.000000
1.000000 0.454719 0.000000
1.000000 0.468544 0.000000
1.000000 0.482612 0.000000
1.000000 0.496498 0.000000
1.000000 0.510582 0.000000
1.000000 0.525566 0.000000
1.000000 0.541253 0.000000
1.000000 0.556909 0.141573
1.000000 0.572808 0.202304
1.000000 0.588678 0.250553
1.000000 0.604669 0.293462
1.000000 0.620539 0.333227
1.000000 0.636378 0.371649
1.000000 0.652155 0.408850
0.203494 0.621820 0.425940
0.204196 0.622675 0.424567
0.201694 0.624109 0.417609
0.197696 0.628077 0.402045
0.252323 0.630671 0.390814
0.290043 0.617365 0.364538
0.336126 0.599359 0.332341
0.388220 0.576654 0.293675
0.486915 0.589685 0.270817
0.631342 0.615869 0.000000
0.700649 0.583398 0.000000
0.741054 0.529808 0.000000
0.771054 0.472633 0.000000
0.822751 0.461921 0.000000
0.873930 0.465736 0.000000
0.916136 0.470375 0.000000
0.951904 0.476417 0.000000
0.982116 0.484077 0.000000
1.000000 0.492866 0.000000
1.000000 0.502556 0.000000
1.000000 0.512566 0.000000
1.000000 0.523339 0.000000
1.000000 0.534325 0.000000
1.000000 0.545647 0.000000
1.000000 0.557061 0.000000
1.000000 0.568902 0.000000
1.000000 0.582361 0.142885
1.000000 0.596246 0.208164
1.000000 0.610498 0.259586
1.000000 0.625086 0.305516
1.000000 0.639734 0.347112
1.000000 0.654444 0.386786
0.439734 0.712245 0.545190
0.439643 0.712367 0.543877
0.438788 0.713222 0.539086
0.438453 0.715236 0.528862
0.448463 0.717952 0.517571
0.466743 0.712764 0.501823
0.479774 0.701106 0.473335
0.501518 0.686671 0.438758
0.530816 0.667231 0.396429
0.604639 0.677089 0.377874
0.711666 0.691341 0.223606
0.774136 0.667414 0.000000
0.807919 0.617670 0.000000
0.834501 0.564599 0.000000
0.861357 0.521355 0.000000
0.904204 0.521508 0.000000
0.940490 0.523583 0.000000
0.971618 0.527214 0.000000
0.997559 0.532036 0.000000
1.000000 0.537987 0.000000
1.000000 0.544457 0.000000
1.000000 0.551659 0.000000
1.000000 0.559564 0.000000
1.000000 0.568231 0.000000
1.000000 0.577081 0.000000
1.000000 0.586114 0.000000
1.000000 0.595209 0.008942
1.000000 0.605402 0.143099
1.000000 0.617731 0.213565
1.000000 0.630640 0.268070
1.000000 0.643977 0.315862
1.000000 0.657649 0.359960
0.578729 0.771023 0.645045
0.578882 0.771206 0.644526
0.578790 0.771908 0.641505
0.578698 0.773159 0.635248
0.578882 0.775326 0.625238
0.594934 0.774746 0.620203
0.597955 0.767483 0.599725
0.604700 0.758114 0.573541
0.616724 0.746487 0.540856
0.635004 0.731746 0.500969
0.689845 0.739467 0.485176
0.767788 0.746822 0.357427
0.824674 0.730007 0.183780
0.853910 0.686519 0.000000
0.878080 0.637507 0.000000
0.898100 0.587457 0.000000
0.928099 0.569390 0.000000
0.959869 0.569451 0.000000
0.986542 0.570794 0.000000
1.000000 0.573266 0.000000
1.000000 0.576532 0.000000
1.000000 0.580774 0.000000
1.000000 0.586236 0.000000
1.000000 0.592340 0.000000
1.000000 0.599054 0.000000
1.000000 0.606195 0.000000
1.000000 0.613581 0.000000
1.000000 0.621027 0.114168
1.000000 0.628351 0.157687
1.000000 0.638605 0.221439
1.000000 0.650233 0.278141
1.000000 0.662470 0.328008
0.669032 0.814817 0.721920
0.669093 0.814969 0.721523
0.668940 0.815427 0.719478
0.669184 0.816251 0.715846
0.669520 0.817685 0.709682
0.677760 0.818753 0.705867
0.681941 0.815091 0.694759
0.684230 0.808682 0.677089
0.688869 0.800626 0.654627
0.696864 0.790494 0.626825
0.708522 0.777829 0.591516
0.749447 0.784390 0.579797
0.814694 0.794369 0.486366
0.865812 0.783810 0.348547
0.892180 0.747524 0.179721
0.915190 0.704616 0.000000
0.934630 0.658595 0.000000
0.953002 0.617456 0.000000
0.979553 0.615351 0.000000
1.000000 0.614343 0.000000
1.000000 0.614649 0.000000
1.000000 0.616083 0.000000
1.000000 0.618555 0.000000
1.000000 0.622156 0.000000
1.000000 0.626429 0.000000
1.000000 0.631342 0.000000
1.000000 0.636347 0.000000
1.000000 0.641871 0.119631
1.000000 0.647578 0.163516
1.000000 0.653254 0.195773
1.000000 0.660121 0.234714
1.000000 0.670466 0.293248
0.737484 0.849943 0.784115
0.737392 0.850034 0.783810
0.737118 0.850095 0.782315
0.736934 0.850614 0.779690
0.736568 0.851225 0.775204
0.738216 0.851957 0.770260
0.744594 0.850858 0.766110
0.744503 0.846281 0.753567
0.745846 0.840665 0.738247
0.749172 0.833738 0.719295
0.755245 0.825437 0.696193
0.764309 0.815488 0.668544
0.795773 0.821225 0.660243
0.839384 0.822385 0.571832
0.886351 0.816678 0.454871
0.911223 0.787198 0.321080
0.933623 0.750729 0.136873
0.953033 0.709529 0.000000
0.969604 0.666438 0.000000
0.989075 0.647242 0.000000
1.000000 0.645014 0.000000
1.000000 0.644282 0.000000
1.000000 0.644709 0.000000
1.000000 0.646204 0.000000
1.000000 0.648646 0.000000
1.000000 0.651911 0.000000
1.000000 0.655604 0.000000
1.000000 0.659693 0.106050
1.000000 0.664088 0.156558
1.000000 0.668666 0.191440
1.000000 0.673182 0.218418
1.000000 0.677943 0.243534
0.780880 0.872679 0.823423
0.780850 0.872709 0.823239
0.780697 0.872740 0.822232
0.780301 0.872923 0.820279
0.779812 0.873259 0.817166
0.779446 0.873869 0.812833
0.784939 0.874113 0.811276
0.785183 0.871183 0.803555
0.785000 0.867124 0.792813
0.785855 0.862150 0.779477
0.788418 0.856229 0.763333
0.792996 0.849119 0.743862
0.799893 0.840604 0.720119
0.824857 0.845396 0.713741
0.858793 0.845121 0.640497
0.899474 0.841367 0.543603
0.923430 0.818265 0.427680
0.944915 0.787533 0.294347
0.964446 0.751522 0.049683
0.981353 0.712642 0.000000
0.996612 0.675166 0.000000
1.000000 0.672389 0.000000
1.000000 0.671107 0.000000
1.000000 0.670863 0.000000
1.000000 0.671565 0.000000
1.000000 0.673182 0.000000
1.000000 0.675410 0.000000
1.000000 0.678157 0.085145
1.000000 0.681422 0.149325
1.000000 0.684840 0.187289
1.000000 0.688533 0.217502
1.000000 0.692134 0.240818
0.813382 0.890105 0.852384
0.813352 0.890105 0.852201
0.813199 0.890135 0.851621
0.812833 0.890257 0.850156
0.812406 0.890440 0.847929
0.811978 0.890776 0.844846
0.813687 0.891051 0.842344
0.816648 0.890135 0.839414
0.815763 0.887053 0.831846
0.815488 0.883360 0.822477
0.816159 0.879026 0.811337
0.818082 0.873777 0.797604
0.821439 0.867613 0.781125
0.826596 0.860166 0.760861
0.846769 0.864225 0.754940
0.873533 0.863005 0.693324
0.907317 0.859251 0.612848
0.930846 0.842100 0.514977
0.951507 0.816312 0.398962
0.970855 0.785397 0.264347
0.988403 0.751003 0.000000
1.000000 0.715145 0.000000
1.000000 0.697108 0.000000
1.000000 0.695308 0.000000
1.000000 0.694453 0.000000
1.000000 0.694606 0.000000
1.000000 0.695521 0.000000
1.000000 0.697108 0.023529
1.000000 0.699184 0.138949
1.000000 0.701717 0.183413
1.000000 0.704585 0.216312
1.000000 0.707454 0.242039
0.837949 0.903593 0.873991
0.837949 0.903655 0.873869
0.837888 0.903716 0.873442
0.837705 0.903838 0.872526
0.837461 0.904021 0.871000
0.837156 0.904295 0.868925
0.837064 0.904814 0.866331
0.841123 0.904906 0.865782
0.840757 0.902861 0.860838
0.839994 0.900053 0.854246
0.839597 0.896666 0.846006
0.839811 0.892638 0.836149
0.840909 0.887846 0.824186
0.843168 0.882170 0.809689
0.846830 0.875456 0.792172
0.863249 0.878813 0.786954
0.884642 0.876890 0.734005
0.912688 0.873167 0.666743
0.935363 0.860349 0.584253
0.954650 0.838743 0.484565
0.973846 0.812772 0.371038
0.992065 0.783261 0.235813
1.000000 0.751431 0.000000
1.000000 0.719417 0.000000
1.000000 0.717311 0.000000
1.000000 0.716121 0.000000
1.000000 0.715877 0.000000
1.000000 0.716274 0.000000
1.000000 0.717281 0.127077
1.000000 0.718776 0.177920
1.000000 0.720638 0.213382
1.000000 0.722713 0.241459
0.857176 0.914458 0.890593
0.857176 0.914458 0.890471
0.857084 0.914519 0.890166
0.856992 0.914611 0.889525
0.856748 0.914763 0.888426
0.856596 0.915007 0.886961
0.856413 0.915343 0.884977
0.858152 0.915557 0.883726
0.859831 0.914824 0.881712
0.858824 0.912627 0.876768
0.858030 0.909972 0.870726
0.857572 0.906889 0.863493
0.857603 0.903166 0.854795
0.858274 0.898802 0.844266
0.859892 0.893675 0.831632
0.862669 0.887633 0.816464
0.876280 0.890440 0.811795
0.893400 0.888090 0.766659
0.916930 0.884489 0.709468
0.938567 0.874846 0.639185
0.956054 0.857023 0.556603
0.974823 0.835203 0.457862
0.993286 0.810117 0.346563
1.000000 0.782284 0.209781
1.000000 0.752804 0.000000
1.000000 0.737331 0.000000
1.000000 0.735897 0.000000
1.000000 0.735225 0.000000
1.000000 0.735348 0.110780
1.000000 0.735927 0.170871
1.000000 0.736995 0.211124
1.000000 0.738338 0.242222
0.872679 0.923308 0.903746
0.872679 0.923308 0.903685
0.875059 0.924712 0.905486
0.874998 0.924773 0.904997
0.874815 0.924895 0.904204
0.874601 0.925017 0.903014
0.874357 0.925261 0.901579
0.874479 0.925475 0.899901
0.877043 0.925505 0.899474
0.876371 0.923857 0.895933
0.875334 0.921752 0.891386
0.874449 0.919249 0.885924
0.873808 0.916289 0.879362
0.873472 0.912810 0.871519
0.873716 0.908721 0.862181
0.874723 0.904021 0.851164
0.876738 0.898650 0.837980
0.887785 0.900664 0.833310
0.901335 0.898070 0.794888
0.920989 0.894591 0.746273
0.941466 0.887572 0.686610
0.957183 0.872557 0.617304
0.974640 0.854429 0.534569
0.992920 0.833066 0.437781
1.000000 0.809018 0.327947
1.000000 0.782895 0.186679
1.000000 0.755978 0.000000
1.000000 0.754238 0.000000
1.000000 0.753292 0.086854
1.000000 0.753079 0.163760
1.000000 0.753353 0.208072
1.000000 0.753994 0.242130
0.885679 0.930724 0.914519
0.885893 0.930785 0.914611
0.886046 0.930938 0.914611
0.886137 0.931090 0.914366
0.886076 0.931243 0.913848
0.886015 0.931395 0.913054
0.885740 0.931548 0.911833
0.885466 0.931762 0.910307
0.886931 0.931823 0.909606
0.887816 0.931182 0.908049
0.886809 0.929473 0.904479
0.885771 0.927459 0.900267
0.884886 0.925078 0.895171
0.884215 0.922271 0.889158
0.883848 0.919066 0.882109
0.884031 0.915343 0.873808
0.884764 0.911070 0.863951
0.886900 0.906645 0.853056
0.896056 0.908080 0.848539
0.907286 0.905516 0.815213
0.924102 0.902312 0.773678
0.943542 0.897490 0.722866
0.957702 0.884611 0.663813
0.973693 0.869261 0.593957
0.991089 0.851286 0.511254
1.000000 0.830564 0.415839
1.000000 0.807706 0.306371
1.000000 0.783322 0.156954
1.000000 0.770657 0.001953
1.000000 0.769680 0.151369
1.000000 0.769314 0.203769
1.000000 0.769467 0.242252
0.895628 0.936370 0.922637
0.895781 0.936461 0.922728
0.895933 0.936584 0.922728
0.895995 0.936675 0.922545
0.895995 0.936828 0.922148
0.895872 0.936950 0.921508
0.895689 0.937072 0.920592
0.895445 0.937224 0.919371
0.895750 0.937346 0.918273
0.897551 0.937316 0.917876
0.896788 0.936034 0.915221
0.895842 0.934356 0.911894
0.894835 0.932433 0.907927
0.893950 0.930205 0.903227
0.893278 0.927611 0.897734
0.892943 0.924620 0.891386
0.892973 0.921233 0.883940
0.893584 0.917357 0.875212
0.895689 0.913695 0.866026
0.903380 0.914702 0.861631
0.912688 0.912169 0.832609
0.927001 0.909178 0.797024
0.945342 0.905974 0.753506
0.958129 0.894896 0.702754
0.972686 0.881743 0.643305
0.988861 0.866484 0.573327
1.000000 0.848936 0.491188
1.000000 0.829191 0.397436
1.000000 0.807675 0.288823
1.000000 0.786069 0.138857
1.000000 0.785183 0.200046
1.000000 0.784848 0.242863
0.904265 0.941222 0.929534
0.904387 0.941314 0.929625
0.904448 0.941405 0.929595
0.904509 0.941497 0.929473
0.904509 0.941588 0.929137
0.904387 0.941680 0.928588
0.904234 0.941772 0.927886
0.904021 0.941894 0.926909
0.903746 0.942046 0.925780
0.904936 0.942046 0.925261
0.905577 0.941558 0.924132
0.904601 0.940215 0.921416
0.903593 0.938598 0.918242
0.902647 0.936797 0.914549
0.901823 0.934661 0.910246
0.901183 0.932280 0.905303
0.900847 0.929564 0.899535
0.900877 0.926482 0.892912
0.901457 0.923064 0.885283
0.903563 0.920043 0.877623
0.910063 0.920745 0.873503
0.917906 0.918334 0.848295
0.930053 0.915618 0.817685
0.946197 0.912779 0.780758
0.958648 0.904173 0.737484
0.971893 0.892943 0.687068
0.986725 0.879973 0.628199
1.000000 0.865263 0.559594
1.000000 0.848539 0.479835
1.000000 0.830137 0.389471
1.000000 0.810513 0.284459
1.000000 0.800778 0.248875
0.912444 0.945800 0.935973
0.912474 0.945830 0.936004
0.912505 0.945861 0.935943
0.912444 0.945892 0.935760
0.912352 0.945953 0.935454
0.912230 0.945983 0.934997
0.912047 0.946044 0.934386
0.911864 0.946136 0.933654
0.911620 0.946258 0.932708
0.911925 0.946319 0.931914
0.913237 0.946288 0.931579
0.912657 0.945312 0.929656
0.911681 0.944030 0.927123
0.910735 0.942535 0.924163
0.909850 0.940795 0.920714
0.909056 0.938842 0.916777
0.908385 0.936614 0.912200
0.908019 0.934142 0.907012
0.908049 0.931334 0.901061
0.908476 0.928191 0.894255
0.910430 0.925628 0.887572
0.915862 0.925994 0.883635
0.922393 0.923644 0.861295
0.932799 0.921050 0.834562
0.946899 0.918517 0.802762
0.959045 0.911894 0.765774
0.971099 0.902159 0.722438
0.984680 0.891081 0.672602
0.999786 0.878538 0.615015
1.000000 0.864561 0.548852
1.000000 0.848631 0.470100
1.000000 0.830900 0.379126
0.918944 0.949371 0.941039
0.919005 0.949401 0.941070
0.919005 0.949432 0.940978
0.918975 0.949432 0.940856
0.918914 0.949462 0.940612
0.918791 0.949523 0.940246
0.918669 0.949554 0.939727
0.918456 0.949645 0.939117
0.918273 0.949737 0.938354
0.918029 0.949828 0.937438
0.918914 0.949859 0.937102
0.919493 0.949523 0.936278
0.918608 0.948455 0.934234
0.917662 0.947234 0.931823
0.916747 0.945800 0.929076
0.915892 0.944213 0.925902
0.915190 0.942382 0.922301
0.914641 0.940368 0.918151
0.914244 0.938109 0.913451
0.914275 0.935546 0.908141
0.914672 0.932738 0.902068
0.916472 0.930541 0.896330
0.921141 0.930724 0.892638
0.926665 0.928527 0.872953
0.935454 0.925902 0.848966
0.947845 0.923644 0.821469
0.959625 0.918608 0.789883
0.970428 0.910307 0.753353
0.982879 0.900816 0.711177
0.996765 0.889952 0.661769
1.000000 0.877714 0.604486
1.000000 0.864073 0.537804
0.925078 0.952636 0.945678
0.925170 0.952636 0.945708
0.925109 0.952697 0.945647
0.925078 0.952697 0.945525
0.925017 0.952697 0.945281
0.924865 0.952697 0.944976
0.924681 0.952728 0.944549
0.924468 0.952758 0.943999
0.924254 0.952819 0.943328
0.924010 0.952880 0.942565
0.924163 0.952911 0.941924
0.925078 0.952880 0.941619
0.924712 0.952178 0.940215
0.923796 0.951141 0.938231
0.922881 0.949950 0.935943
0.921996 0.948608 0.933349
0.921141 0.947112 0.930358
0.920439 0.945434 0.927001
0.919921 0.943572 0.923247
0.919677 0.941497 0.919005
0.919646 0.939239 0.914244
0.920012 0.936675 0.908812
0.921721 0.934844 0.903838
0.925750 0.934874 0.900420
0.930419 0.932769 0.882872
0.938170 0.930541 0.862242
0.949065 0.928527 0.838621
0.960327 0.924834 0.811490
0.970001 0.917418 0.779904
0.981292 0.909056 0.743252
0.994018 0.899718 0.701198
1.000000 0.889494 0.653742
0.930144 0.955261 0.949462
0.930175 0.955291 0.949462
0.930205 0.955291 0.949432
0.930175 0.955322 0.949340
0.930083 0.955352 0.949157
0.930053 0.955352 0.948943
0.929900 0.955413 0.948608
0.929778 0.955444 0.948180
0.929625 0.955505 0.947662
0.929442 0.955566 0.947082
0.929229 0.955657 0.946349
0.929870 0.955657 0.946014
0.930419 0.955505 0.945556
0.929625 0.954650 0.943938
0.928771 0.953674 0.942077
0.927886 0.952575 0.939971
0.927062 0.951354 0.937560
0.926299 0.949981 0.934844
0.925719 0.948455 0.931823
0.925231 0.946777 0.928435
0.925017 0.944945 0.924681
0.925017 0.942901 0.920409
0.925353 0.940642 0.915679
0.927031 0.939086 0.911376
0.930449 0.939086 0.908385
0.934325 0.937072 0.892821
0.940917 0.934936 0.874601
0.950378 0.933043 0.853788
0.961120 0.930449 0.830381
0.969696 0.924132 0.804135
0.979736 0.917052 0.773983
0.991058 0.909300 0.739864
0.935088 0.957733 0.953063
0.935058 0.957733 0.953063
0.935088 0.957733 0.953033
0.935058 0.957733 0.952911
0.934997 0.957763 0.952789
0.934936 0.957794 0.952605
0.934813 0.957824 0.952331
0.934691 0.957855 0.951965
0.934539 0.957916 0.951568
0.934417 0.957977 0.951080
0.934234 0.958038 0.950500
0.934295 0.958099 0.949981
0.935027 0.958068 0.949767
0.934936 0.957641 0.948882
0.934173 0.956847 0.947356
0.933379 0.955962 0.945617
0.932586 0.954955 0.943694
0.931823 0.953857 0.941527
0.931212 0.952636 0.939117
0.930663 0.951293 0.936431
0.930297 0.949798 0.933440
0.930083 0.948180 0.930083
0.930053 0.946319 0.926238
0.930266 0.944274 0.921935
0.931701 0.942870 0.918059
0.934539 0.942718 0.915190
0.937743 0.940826 0.901244
0.943450 0.938842 0.885069
0.951720 0.937133 0.867002
0.962005 0.935576 0.847227
0.969543 0.930297 0.825742
0.978241 0.924498 0.801877
0.939605 0.959930 0.956298
0.939605 0.959930 0.956298
0.939635 0.959930 0.956298
0.939605 0.959930 0.956237
0.939574 0.959960 0.956115
0.939544 0.959991 0.955993
0.939513 0.960052 0.955810
0.939483 0.960082 0.955566
0.939483 0.960174 0.955291
0.939422 0.960235 0.954986
0.939391 0.960357 0.954559
0.939330 0.960449 0.954101
0.939788 0.960510 0.953887
0.940520 0.960510 0.953765
0.939910 0.959930 0.952605
0.939208 0.959228 0.951263
0.938445 0.958434 0.949706
0.937713 0.957519 0.947936
0.937041 0.956542 0.945983
0.936431 0.955444 0.943786
0.935912 0.954253 0.941375
0.935515 0.952911 0.938689
0.935271 0.951446 0.935698
0.935241 0.949828 0.932341
0.935485 0.948089 0.928618
0.936736 0.946899 0.925261
0.939055 0.946624 0.922545
0.941711 0.944884 0.910338
0.946532 0.943084 0.896361
0.953582 0.941558 0.881041
0.962768 0.940673 0.865049
0.969574 0.936828 0.848417
0.944518 0.962127 0.959716
0.944518 0.962127 0.959716
0.944488 0.962127 0.959655
0.944488 0.962127 0.959625
0.944427 0.962158 0.959533
0.944396 0.962158 0.959411
0.944335 0.962188 0.959228
0.944274 0.962219 0.959045
0.944182 0.962249 0.958770
0.944121 0.962310 0.958495
0.944030 0.962371 0.958129
0.943908 0.962432 0.957733
0.943877 0.962524 0.957305
0.944427 0.962524 0.957183
