20 Preset/Japan Style/【3】LUT video cho PR-AE-FCPX/LUT VIDEO (2)/Japan Style LUT (16).cube
# Created by Adobe Lightroom plugin Export LUT (1.24.0)
# www.johnrellis.com/lightroom/exportlut.htm
# Preset: 16日系暖色（素材江湖）
# Color profile: C:\Program Files (x86)\Common Files\Adobe\Color\Profiles\Recommended\VideoHD.icc
LUT_3D_SIZE 32
DOMAIN_MIN 0.0 0.0 0.0
DOMAIN_MAX 1.0 1.0 1.0
0.000000 0.033356 0.036652
0.000000 0.033356 0.036652
0.000000 0.034119 0.038758
0.000000 0.036591 0.040528
0.002502 0.041871 0.045045
0.057191 0.046723 0.050080
0.109407 0.048646 0.054627
0.154391 0.043488 0.059266
0.211368 0.017762 0.061616
0.280156 0.000000 0.063600
0.360693 0.000000 0.061707
0.450965 0.000000 0.055421
0.548180 0.000000 0.045411
0.647730 0.000000 0.027710
0.741360 0.000000 0.005432
0.824094 0.000000 0.000000
0.895750 0.000000 0.000000
0.956023 0.000000 0.000000
1.000000 0.000000 0.000000
1.000000 0.000000 0.000000
1.000000 0.000000 0.000000
1.000000 0.000000 0.000000
1.000000 0.000000 0.000000
1.000000 0.000000 0.000000
1.000000 0.000000 0.000000
1.000000 0.000000 0.035279
1.000000 0.000000 0.100435
1.000000 0.127871 0.134066
1.000000 0.195682 0.165774
1.000000 0.243717 0.196506
1.000000 0.283696 0.227115
1.000000 0.319158 0.258061
0.000000 0.034546 0.037629
0.000000 0.034546 0.037629
0.000000 0.036500 0.038453
0.000000 0.038788 0.040223
0.003082 0.044038 0.044739
0.055756 0.049134 0.049775
0.109010 0.051026 0.054322
0.153414 0.046357 0.058991
0.210452 0.022034 0.061189
0.278752 0.000000 0.063203
0.358465 0.000000 0.061280
0.448707 0.000000 0.055055
0.545190 0.000000 0.043915
0.644923 0.000000 0.027436
0.738369 0.000000 0.003693
0.821622 0.000000 0.000000
0.893645 0.000000 0.000000
0.954253 0.000000 0.000000
1.000000 0.000000 0.000000
1.000000 0.000000 0.000000
1.000000 0.000000 0.000000
1.000000 0.000000 0.000000
1.000000 0.000000 0.000000
1.000000 0.000000 0.000000
1.000000 0.000000 0.000000
1.000000 0.000000 0.023987
1.000000 0.000000 0.097230
1.000000 0.125307 0.131136
1.000000 0.193942 0.163455
1.000000 0.242161 0.194430
1.000000 0.282261 0.225223
1.000000 0.317845 0.256260
0.000000 0.042725 0.044526
0.000000 0.043946 0.044373
0.000000 0.043488 0.042084
0.000000 0.049378 0.040009
0.000671 0.054444 0.043366
0.054322 0.060487 0.049378
0.108461 0.063600 0.052644
0.153079 0.058900 0.057313
0.209903 0.036011 0.059358
0.277653 0.000000 0.059846
0.357244 0.000000 0.058625
0.446845 0.000000 0.051728
0.543023 0.000000 0.039796
0.642237 0.000000 0.021118
0.735866 0.000000 0.000000
0.819089 0.000000 0.000000
0.891356 0.000000 0.000000
0.952026 0.000000 0.000000
1.000000 0.000000 0.000000
1.000000 0.000000 0.000000
1.000000 0.000000 0.000000
1.000000 0.000000 0.000000
1.000000 0.000000 0.000000
1.000000 0.000000 0.000000
1.000000 0.000000 0.000000
1.000000 0.000000 0.009339
1.000000 0.000000 0.091279
1.000000 0.139101 0.127993
1.000000 0.201144 0.160128
1.000000 0.247349 0.191562
1.000000 0.285527 0.222782
1.000000 0.320439 0.254582
0.000000 0.061036 0.056825
0.000000 0.061036 0.056825
0.000000 0.060822 0.055695
0.000000 0.063569 0.050660
0.000000 0.076387 0.045014
0.053315 0.081971 0.046204
0.107851 0.084688 0.050446
0.153231 0.082948 0.053651
0.209842 0.068666 0.054932
0.277104 0.027161 0.054536
0.356298 0.000000 0.052125
0.444709 0.000000 0.044038
0.540826 0.000000 0.030182
0.639033 0.000000 0.009155
0.732174 0.000000 0.000000
0.815335 0.000000 0.000000
0.887541 0.000000 0.000000
0.948272 0.000000 0.000000
0.999756 0.000000 0.000000
1.000000 0.000000 0.000000
1.000000 0.000000 0.000000
1.000000 0.000000 0.000000
1.000000 0.000000 0.000000
1.000000 0.000000 0.000000
1.000000 0.000000 0.000000
1.000000 0.000000 0.000000
1.000000 0.067201 0.075593
1.000000 0.166140 0.121798
1.000000 0.217350 0.155856
1.000000 0.258915 0.188693
1.000000 0.294530 0.220340
1.000000 0.327489 0.252049
0.000000 0.087617 0.076417
0.000000 0.088136 0.076265
0.000000 0.087465 0.072999
0.000000 0.086915 0.069581
0.000000 0.089509 0.062745
0.037934 0.096864 0.052033
0.105074 0.102602 0.044221
0.151858 0.103822 0.046509
0.208286 0.101411 0.046601
0.275334 0.091341 0.044709
0.353460 0.038209 0.039307
0.441474 0.000000 0.028565
0.536187 0.000000 0.011963
0.634302 0.000000 0.000000
0.727230 0.000000 0.000000
0.809903 0.000000 0.000000
0.882628 0.000000 0.000000
0.943999 0.000000 0.000000
0.995575 0.000000 0.000000
1.000000 0.000000 0.000000
1.000000 0.000000 0.000000
1.000000 0.000000 0.000000
1.000000 0.000000 0.000000
1.000000 0.000000 0.000000
1.000000 0.000000 0.000000
1.000000 0.005280 0.000000
1.000000 0.147860 0.036255
1.000000 0.200229 0.111574
1.000000 0.241215 0.149264
1.000000 0.276402 0.183444
1.000000 0.308354 0.216190
1.000000 0.338537 0.248722
0.000000 0.104219 0.090578
0.000000 0.104494 0.090517
0.000000 0.104067 0.089296
0.000000 0.102785 0.086885
0.000000 0.104067 0.082795
0.007904 0.107301 0.074098
0.093324 0.118837 0.057435
0.146365 0.127413 0.039551
0.205783 0.130922 0.031891
0.273411 0.128969 0.027253
0.351171 0.119539 0.018708
0.438636 0.096529 0.003815
0.532464 0.000000 0.000000
0.629389 0.000000 0.000000
0.721706 0.000000 0.000000
0.804776 0.000000 0.000000
0.877165 0.000000 0.000000
0.939361 0.000000 0.000000
0.990906 0.000000 0.000000
1.000000 0.000000 0.000000
1.000000 0.000000 0.000000
1.000000 0.000000 0.000000
1.000000 0.000000 0.000000
1.000000 0.014343 0.000000
1.000000 0.134798 0.000000
1.000000 0.182559 0.000000
1.000000 0.219974 0.014130
1.000000 0.252354 0.108461
1.000000 0.282200 0.149264
1.000000 0.309850 0.185153
1.000000 0.336248 0.218418
1.000000 0.362036 0.251774
0.000000 0.127535 0.102571
0.000000 0.127993 0.102815
0.000000 0.127657 0.101778
0.000000 0.126558 0.097505
0.000000 0.124392 0.097017
0.000000 0.127840 0.091646
0.053529 0.133761 0.083101
0.137240 0.150484 0.059083
0.200687 0.161654 0.028992
0.273350 0.170962 0.000000
0.352575 0.171237 0.000000
0.440162 0.167239 0.000000
0.533776 0.157412 0.000000
0.629877 0.140139 0.000000
0.721096 0.113649 0.000000
0.802548 0.060914 0.000000
0.875181 0.000000 0.000000
0.937499 0.000000 0.000000
0.988739 0.000000 0.000000
1.000000 0.000000 0.000000
1.000000 0.069215 0.000000
1.000000 0.121584 0.000000
1.000000 0.156802 0.000000
1.000000 0.187625 0.000000
1.000000 0.215030 0.000000
1.000000 0.241489 0.000000
1.000000 0.265263 0.000000
1.000000 0.288731 0.078096
1.000000 0.312047 0.133333
1.000000 0.334417 0.173495
1.000000 0.356847 0.209689
1.000000 0.379309 0.244785
0.000000 0.157443 0.117952
0.000000 0.157778 0.118166
0.000000 0.157290 0.116732
0.000000 0.156039 0.112367
0.000000 0.153719 0.108949
0.000000 0.153902 0.106691
0.000000 0.159243 0.099733
0.109957 0.167697 0.090150
0.188754 0.189944 0.055634
0.262943 0.204349 0.005982
0.344335 0.217807 0.000000
0.431922 0.227604 0.000000
0.524987 0.230167 0.000000
0.620050 0.230106 0.000000
0.710567 0.226810 0.000000
0.792660 0.221714 0.000000
0.865537 0.218021 0.000000
0.927520 0.215152 0.000000
0.979217 0.215152 0.000000
1.000000 0.219669 0.000000
1.000000 0.227237 0.000000
1.000000 0.237675 0.000000
1.000000 0.250004 0.000000
1.000000 0.264042 0.000000
1.000000 0.279606 0.000000
1.000000 0.294987 0.000000
1.000000 0.311345 0.000000
1.000000 0.327855 0.000000
1.000000 0.345190 0.111635
1.000000 0.363134 0.159426
1.000000 0.381292 0.199435
1.000000 0.400275 0.235935
0.000000 0.195956 0.137606
0.000000 0.196353 0.137728
0.000000 0.195438 0.135286
0.000000 0.194369 0.131044
0.000000 0.192050 0.124178
0.000000 0.188174 0.124575
0.000000 0.192782 0.118654
0.056458 0.200198 0.108980
0.159243 0.211460 0.094911
0.250980 0.239963 0.039002
0.334874 0.258640 0.000000
0.423774 0.275761 0.000000
0.516045 0.292515 0.000000
0.609613 0.302464 0.000000
0.700160 0.307042 0.000000
0.782345 0.308904 0.000000
0.854612 0.309056 0.000000
0.916350 0.308721 0.000000
0.968200 0.308721 0.000000
1.000000 0.310155 0.000000
1.000000 0.312749 0.000000
1.000000 0.316991 0.000000
1.000000 0.322332 0.000000
1.000000 0.329137 0.000000
1.000000 0.337530 0.000000
1.000000 0.346868 0.000000
1.000000 0.357153 0.000000
1.000000 0.368719 0.000000
1.000000 0.381201 0.063416
1.000000 0.394568 0.141360
1.000000 0.409277 0.186801
1.000000 0.424506 0.226474
0.000000 0.243809 0.161807
0.000000 0.243778 0.161624
0.000000 0.242985 0.159121
0.000000 0.241489 0.154116
0.000000 0.239445 0.147066
0.000000 0.235660 0.142580
0.000000 0.233280 0.141726
0.000000 0.242008 0.132021
0.124880 0.251438 0.118563
0.218662 0.266392 0.097536
0.322545 0.300725 0.004334
0.413428 0.322454 0.000000
0.507256 0.342107 0.000000
0.600610 0.361089 0.000000
0.687953 0.376654 0.000000
0.769162 0.382513 0.000000
0.841245 0.384527 0.000000
0.903593 0.385168 0.000000
0.956176 0.384863 0.000000
0.999512 0.384619 0.000000
1.000000 0.384222 0.000000
1.000000 0.384344 0.000000
1.000000 0.385443 0.000000
1.000000 0.387854 0.000000
1.000000 0.391089 0.000000
1.000000 0.395850 0.000000
1.000000 0.401770 0.000000
1.000000 0.409064 0.000000
1.000000 0.417639 0.000000
1.000000 0.427436 0.112520
1.000000 0.438514 0.169955
1.000000 0.450813 0.214694
0.000000 0.300114 0.191379
0.000000 0.300023 0.190951
0.000000 0.299443 0.188357
0.000000 0.297826 0.182834
0.000000 0.295628 0.174838
0.000000 0.292638 0.164675
0.000000 0.287327 0.165957
0.000000 0.290745 0.160555
0.045869 0.301549 0.146914
0.184298 0.313573 0.128756
0.288792 0.332341 0.098482
0.402625 0.370855 0.000000
0.498024 0.394049 0.000000
0.592004 0.414038 0.000000
0.678462 0.430457 0.000000
0.756283 0.444129 0.000000
0.826230 0.452064 0.000000
0.889036 0.452674 0.000000
0.942168 0.451972 0.000000
0.986236 0.449928 0.000000
1.000000 0.447517 0.000000
1.000000 0.445197 0.000000
1.000000 0.443610 0.000000
1.000000 0.442695 0.000000
1.000000 0.442725 0.000000
1.000000 0.444190 0.000000
1.000000 0.446693 0.000000
1.000000 0.450446 0.000000
1.000000 0.455451 0.000000
1.000000 0.461891 0.043671
1.000000 0.469947 0.148470
1.000000 0.479103 0.200412
0.000000 0.364508 0.228153
0.000000 0.364385 0.227237
0.000000 0.363531 0.224491
0.000000 0.362310 0.219059
0.000000 0.360418 0.210788
0.000000 0.357458 0.199374
0.000000 0.353216 0.193729
0.000000 0.347021 0.195468
0.000000 0.357977 0.182956
0.144778 0.370703 0.165713
0.253696 0.384039 0.141268
0.366644 0.405249 0.100404
0.500267 0.455787 0.000000
0.596124 0.478218 0.000000
0.682582 0.493690 0.000000
0.759457 0.505180 0.000000
0.826474 0.513909 0.000000
0.884642 0.520409 0.000000
0.935973 0.520378 0.000000
0.979126 0.516808 0.000000
1.000000 0.512169 0.000000
1.000000 0.507561 0.000000
1.000000 0.503136 0.000000
1.000000 0.499672 0.000000
1.000000 0.496956 0.000000
1.000000 0.495094 0.000000
1.000000 0.494087 0.000000
1.000000 0.494697 0.000000
1.000000 0.496590 0.000000
1.000000 0.499763 0.000000
1.000000 0.504326 0.124788
1.000000 0.510674 0.186679
0.000000 0.439887 0.276493
0.000000 0.439765 0.275639
0.000000 0.438758 0.272892
0.000000 0.437385 0.266850
0.000000 0.435065 0.257816
0.000000 0.431708 0.245151
0.000000 0.427771 0.230961
0.000000 0.421729 0.232425
0.000000 0.421057 0.229313
0.056062 0.433906 0.213413
0.224643 0.448341 0.192020
0.335058 0.463294 0.162814
0.456001 0.486641 0.114595
0.578546 0.524315 0.000000
0.667567 0.542687 0.000000
0.745357 0.553887 0.000000
0.812894 0.561303 0.000000
0.871092 0.566217 0.000000
0.920195 0.569940 0.000000
0.962280 0.570275 0.000000
0.998688 0.564538 0.000000
1.000000 0.558587 0.000000
1.000000 0.552880 0.000000
1.000000 0.547539 0.000000
1.000000 0.542718 0.000000
1.000000 0.538903 0.000000
1.000000 0.535912 0.000000
1.000000 0.534112 0.000000
1.000000 0.533532 0.000000
1.000000 0.534417 0.000000
1.000000 0.536553 0.061402
1.000000 0.540368 0.165164
0.000000 0.510002 0.326879
0.000000 0.509789 0.326085
0.000000 0.508995 0.323278
0.000000 0.507378 0.317174
0.000000 0.504906 0.307866
0.000000 0.501762 0.295567
0.000000 0.497902 0.279789
0.000000 0.492409 0.272465
0.000000 0.485542 0.274083
0.000000 0.492042 0.264836
0.183719 0.505882 0.246921
0.303960 0.520256 0.223941
0.414557 0.534600 0.192630
0.535943 0.556176 0.146029
0.650324 0.587030 0.000000
0.730587 0.600458 0.000000
0.798489 0.607172 0.000000
0.856901 0.610742 0.000000
0.906767 0.612512 0.000000
0.948272 0.612665 0.000000
0.983062 0.611749 0.000000
1.000000 0.606561 0.000000
1.000000 0.599725 0.000000
1.000000 0.593103 0.000000
1.000000 0.586877 0.000000
1.000000 0.581384 0.000000
1.000000 0.576593 0.000000
1.000000 0.572808 0.000000
1.000000 0.570214 0.000000
1.000000 0.568963 0.000000
1.000000 0.569024 0.000000
1.000000 0.570581 0.135836
0.000000 0.576318 0.379980
0.000000 0.576226 0.379492
0.000000 0.575525 0.376776
0.000000 0.574029 0.371038
0.000000 0.571801 0.362127
0.000000 0.568841 0.350134
0.000000 0.565393 0.335271
0.000000 0.561395 0.318425
0.000000 0.554803 0.319280
0.000000 0.548821 0.320195
0.142519 0.561212 0.305638
0.277409 0.573999 0.286961
0.385840 0.586633 0.263310
0.492164 0.598474 0.232883
0.608789 0.616999 0.192264
0.712917 0.641077 0.130068
0.783688 0.650202 0.000000
0.842374 0.653407 0.000000
0.892454 0.653803 0.000000
0.934691 0.652491 0.000000
0.970092 0.650263 0.000000
1.000000 0.647822 0.000000
1.000000 0.643610 0.000000
1.000000 0.636072 0.000000
1.000000 0.628687 0.000000
1.000000 0.621820 0.000000
1.000000 0.615717 0.000000
1.000000 0.610498 0.000000
1.000000 0.606226 0.000000
1.000000 0.603235 0.000000
1.000000 0.601587 0.000000
1.000000 0.601312 0.093568
0.000000 0.634180 0.433326
0.000000 0.634180 0.433051
0.000000 0.633631 0.430335
0.000000 0.632624 0.425666
0.000000 0.631098 0.418219
0.000000 0.628809 0.407507
0.000000 0.626368 0.394507
0.000000 0.623163 0.377874
0.000000 0.618524 0.370367
0.000000 0.612207 0.371588
0.125216 0.612299 0.366918
0.261631 0.623072 0.351568
0.365240 0.633722 0.332738
0.464424 0.643763 0.309606
0.562585 0.652583 0.279789
0.670893 0.667628 0.245426
0.765072 0.686366 0.204410
0.826383 0.691829 0.068635
0.876951 0.692226 0.000000
0.919829 0.690120 0.000000
0.956207 0.687129 0.000000
0.987457 0.683467 0.000000
1.000000 0.679835 0.000000
1.000000 0.675929 0.000000
1.000000 0.668147 0.000000
1.000000 0.660456 0.000000
1.000000 0.653315 0.000000
1.000000 0.646754 0.000000
1.000000 0.641138 0.000000
1.000000 0.636652 0.000000
1.000000 0.633265 0.000000
1.000000 0.631281 0.000000
0.000000 0.683894 0.485298
0.000000 0.683680 0.484535
0.000000 0.683406 0.482948
0.000000 0.682582 0.478553
0.000000 0.681331 0.472450
0.000000 0.679652 0.463233
0.000000 0.677516 0.451759
0.000000 0.674922 0.437690
0.000000 0.671687 0.421729
0.000000 0.666224 0.422461
0.149752 0.659937 0.423560
0.263615 0.665431 0.414313
0.355962 0.674586 0.399237
0.444770 0.683223 0.380682
0.534813 0.691127 0.358221
0.625513 0.697902 0.330510
0.724727 0.710231 0.301183
0.807797 0.724239 0.272557
0.860868 0.726925 0.195895
0.904234 0.725063 0.000000
0.941527 0.721828 0.000000
0.973693 0.717617 0.000000
1.000000 0.713130 0.000000
1.000000 0.708309 0.000000
1.000000 0.703487 0.000000
1.000000 0.696590 0.000000
1.000000 0.688594 0.000000
1.000000 0.681239 0.000000
1.000000 0.674647 0.000000
1.000000 0.668940 0.000000
1.000000 0.664240 0.000000
1.000000 0.660792 0.000000
0.000000 0.726375 0.535271
0.000000 0.726375 0.535119
0.000000 0.731441 0.540337
0.000000 0.730800 0.536919
0.000000 0.729793 0.531609
0.000000 0.728389 0.524224
0.000000 0.726650 0.514458
0.000000 0.724422 0.502281
0.000000 0.721981 0.488502
0.000000 0.717861 0.481361
0.218906 0.712398 0.481788
0.303136 0.707759 0.481147
0.373358 0.715236 0.468849
0.447211 0.722316 0.453773
0.524254 0.728725 0.436011
0.603998 0.734340 0.414862
0.685176 0.738918 0.388678
0.773709 0.748318 0.363134
0.844907 0.757717 0.341985
0.889982 0.757992 0.278813
0.927489 0.754757 0.200015
0.960052 0.750515 0.000000
0.988403 0.745510 0.000000
1.000000 0.740047 0.000000
1.000000 0.734279 0.000000
1.000000 0.728450 0.000000
1.000000 0.721889 0.000000
1.000000 0.713771 0.000000
1.000000 0.706325 0.000000
1.000000 0.699702 0.000000
1.000000 0.693996 0.000000
1.000000 0.689418 0.000000
0.000000 0.762875 0.583459
0.000000 0.763272 0.584009
0.000000 0.763485 0.583124
0.000000 0.763363 0.580957
0.000000 0.762875 0.576959
0.000000 0.761929 0.571130
0.037598 0.760525 0.562951
0.113161 0.758724 0.552941
0.147890 0.756619 0.541039
0.182742 0.754116 0.527977
0.274662 0.749538 0.528252
0.341039 0.744320 0.528801
0.396155 0.744076 0.524010
0.455146 0.750240 0.512627
0.518822 0.755947 0.498970
0.587182 0.760922 0.482582
0.658350 0.765194 0.463050
0.730953 0.768582 0.439460
0.809903 0.776059 0.417853
0.871763 0.782589 0.401038
0.910735 0.781582 0.345525
0.944030 0.778134 0.281895
0.973236 0.773526 0.203555
0.998962 0.768124 0.000000
1.000000 0.762234 0.000000
1.000000 0.756130 0.000000
1.000000 0.749874 0.000000
1.000000 0.743343 0.000000
1.000000 0.735683 0.000000
1.000000 0.728481 0.000000
1.000000 0.722011 0.000000
1.000000 0.716518 0.000000
0.238865 0.791073 0.624720
0.240604 0.791348 0.624872
0.244877 0.791592 0.624537
0.249546 0.791562 0.622858
0.255192 0.791257 0.619745
0.261326 0.790463 0.614679
0.269139 0.789425 0.608331
0.278111 0.788022 0.600092
0.288670 0.786343 0.590173
0.300023 0.784421 0.578729
0.335698 0.781308 0.572839
0.386389 0.776913 0.573083
0.431495 0.771878 0.573144
0.476661 0.775113 0.565576
0.527672 0.779934 0.554986
0.583612 0.784360 0.542504
0.644068 0.788083 0.527550
0.707027 0.791104 0.509941
0.771237 0.793484 0.489357
0.840543 0.799222 0.470802
0.893645 0.803555 0.457801
0.927367 0.801633 0.407202
0.957183 0.797910 0.351781
0.983642 0.793118 0.288731
1.000000 0.787686 0.208225
1.000000 0.781735 0.000000
1.000000 0.775418 0.000000
1.000000 0.768948 0.000000
1.000000 0.762356 0.000000
1.000000 0.755276 0.000000
1.000000 0.748379 0.000000
1.000000 0.742275 0.000000
0.354833 0.814542 0.662928
0.356023 0.814755 0.662989
0.357763 0.814878 0.662562
0.360754 0.814847 0.661311
0.363500 0.814572 0.658656
0.367193 0.814023 0.654841
0.371191 0.813199 0.649470
0.375952 0.812131 0.642695
0.381781 0.810880 0.634668
0.388739 0.809384 0.625330
0.396155 0.807553 0.614282
0.435462 0.803891 0.614496
0.472297 0.799802 0.614282
0.507408 0.796597 0.613123
0.547021 0.800748 0.604791
0.591791 0.804471 0.595239
0.641199 0.807797 0.584131
0.694545 0.810575 0.570703
0.750118 0.812772 0.555535
0.806699 0.814420 0.537713
0.866636 0.818845 0.521996
0.912169 0.821622 0.512474
0.941436 0.819181 0.467353
0.968231 0.815549 0.417914
0.992523 0.810880 0.362921
1.000000 0.805509 0.298466
1.000000 0.799619 0.214359
1.000000 0.793362 0.000000
1.000000 0.786862 0.000000
1.000000 0.780301 0.000000
1.000000 0.773739 0.000000
1.000000 0.767330 0.000000
0.448341 0.834806 0.700099
0.448981 0.834897 0.700130
0.449928 0.834836 0.699702
0.450752 0.834684 0.698238
0.452186 0.834348 0.696010
0.453742 0.833829 0.692561
0.456092 0.833188 0.688197
0.459083 0.832364 0.682704
0.462562 0.831357 0.676051
0.466835 0.830228 0.668452
0.472023 0.828885 0.659785
0.488685 0.826688 0.654444
0.518120 0.823301 0.654353
0.546960 0.819516 0.654108
0.576532 0.819089 0.650782
0.610925 0.822232 0.643122
0.650141 0.824918 0.634333
0.693141 0.827268 0.624292
0.739315 0.829099 0.612360
0.787350 0.830472 0.598444
0.836179 0.831418 0.582361
0.887602 0.834775 0.568353
0.926635 0.836332 0.560510
0.952209 0.833555 0.519249
0.976318 0.829953 0.474708
0.998749 0.825498 0.425147
1.000000 0.820279 0.367559
1.000000 0.814572 0.298924
1.000000 0.808499 0.204807
1.000000 0.801999 0.000000
1.000000 0.795712 0.000000
1.000000 0.789425 0.000000
0.518364 0.849790 0.730617
0.519493 0.849851 0.730892
0.521843 0.849760 0.730922
0.522637 0.849668 0.729915
0.523552 0.849393 0.727993
0.524743 0.849027 0.725399
0.526390 0.848508 0.721889
0.528008 0.847898 0.717372
0.530571 0.847166 0.712062
0.533501 0.846281 0.705776
0.536767 0.845304 0.698695
0.540581 0.844114 0.690547
0.562646 0.841459 0.689723
0.586236 0.838407 0.689570
0.609552 0.835080 0.689509
0.635401 0.836606 0.684565
0.665888 0.838956 0.677790
0.699977 0.840970 0.669947
0.737331 0.842679 0.660761
0.777157 0.843992 0.650141
0.818509 0.844968 0.637842
0.860319 0.845640 0.623529
0.904845 0.848264 0.611017
0.938598 0.849180 0.604852
0.960845 0.845853 0.565423
0.982757 0.842405 0.525078
1.000000 0.838285 0.480262
1.000000 0.833494 0.429267
1.000000 0.828092 0.367742
1.000000 0.822171 0.291020
1.000000 0.815579 0.170352
1.000000 0.809323 0.000000
0.581659 0.862486 0.759152
0.582849 0.862516 0.759426
0.585626 0.862455 0.759884
0.587640 0.862303 0.759426
0.587884 0.862058 0.757839
0.588434 0.861723 0.755581
0.588983 0.861265 0.752590
0.589899 0.860746 0.748836
0.591119 0.860075 0.744350
0.592828 0.859342 0.739254
0.594598 0.858488 0.733150
0.597131 0.857542 0.726436
0.605554 0.855985 0.721614
0.624384 0.853422 0.721279
0.643275 0.850614 0.720851
0.662531 0.848386 0.719875
0.685512 0.850370 0.714412
0.711971 0.852171 0.708217
0.741543 0.853758 0.701167
0.773831 0.855070 0.693019
0.808133 0.856107 0.683680
0.843687 0.856901 0.672663
0.879850 0.857420 0.659846
0.918425 0.859648 0.648615
0.947997 0.860105 0.643458
0.968200 0.857176 0.608698
0.988067 0.853880 0.572107
1.000000 0.850095 0.531731
1.000000 0.845701 0.485420
1.000000 0.840391 0.428748
1.000000 0.834257 0.356359
1.000000 0.827573 0.257237
0.632868 0.872404 0.782773
0.633875 0.872435 0.782986
0.636194 0.872404 0.783413
0.640314 0.872221 0.783993
0.640833 0.872068 0.782803
0.641352 0.871824 0.781125
0.642054 0.871550 0.778897
0.642847 0.871153 0.775998
0.643854 0.870726 0.772549
0.645411 0.870207 0.768582
0.646967 0.869566 0.763912
0.648890 0.868833 0.758602
0.650874 0.868040 0.752712
0.663661 0.866178 0.751217
0.678859 0.863890 0.750820
0.694453 0.861418 0.750515
0.711025 0.860838 0.748287
0.730892 0.862455 0.743435
0.753689 0.863951 0.738033
0.778897 0.865293 0.731807
0.806394 0.866361 0.724605
0.835508 0.867338 0.716365
0.865904 0.868009 0.706722
0.897093 0.868559 0.695460
0.930510 0.870512 0.685573
0.956481 0.870787 0.681514
0.974548 0.868009 0.650263
0.992676 0.864897 0.617212
1.000000 0.861265 0.579828
1.000000 0.856962 0.536461
1.000000 0.851896 0.483894
1.000000 0.846036 0.417212
0.680140 0.881346 0.804715
0.680659 0.881376 0.804837
0.682460 0.881285 0.805142
0.685817 0.881132 0.805661
0.688960 0.880949 0.805692
0.689265 0.880766 0.804318
0.689570 0.880522 0.802487
0.690120 0.880217 0.800229
0.690913 0.879850 0.797513
0.691920 0.879454 0.794369
0.693080 0.878935 0.790677
0.694392 0.878416 0.786404
0.695979 0.877775 0.781765
0.700099 0.876860 0.777737
0.712612 0.874968 0.777462
0.725307 0.872984 0.777218
0.738155 0.870848 0.777005
0.752712 0.871550 0.774044
0.769863 0.872984 0.769955
0.789303 0.874357 0.765286
0.810788 0.875547 0.759915
0.834134 0.876585 0.753719
0.858854 0.877501 0.746639
0.884886 0.878264 0.738277
0.911742 0.878813 0.728389
0.940673 0.880491 0.718898
0.963470 0.880522 0.715084
0.979614 0.877623 0.686244
0.996124 0.874449 0.655055
1.000000 0.871214 0.621363
1.000000 0.867308 0.581567
1.000000 0.862638 0.533288
0.721126 0.889372 0.823972
0.721553 0.889372 0.824094
0.723018 0.889311 0.824308
0.725887 0.889189 0.824826
0.730251 0.889006 0.825589
0.731594 0.888853 0.824887
0.732265 0.888731 0.823697
0.733181 0.888579 0.822202
0.734279 0.888396 0.820340
0.735592 0.888182 0.818173
0.736965 0.887877 0.815640
0.738521 0.887572 0.812711
0.740139 0.887175 0.809354
0.741817 0.886687 0.805539
0.748928 0.885588 0.804074
0.759182 0.884031 0.804074
0.769589 0.882383 0.803983
0.780209 0.880919 0.803769
0.792752 0.882353 0.800870
0.807126 0.883726 0.797513
0.823056 0.884977 0.793484
0.840665 0.886046 0.788754
0.859800 0.886992 0.783169
0.880339 0.887816 0.776761
0.902129 0.888487 0.769009
0.925109 0.889036 0.760006
0.950195 0.890654 0.751614
0.970001 0.890440 0.747860
0.984405 0.887633 0.721950
0.999176 0.884520 0.693965
1.000000 0.881712 0.664057
1.000000 0.878202 0.628534
0.761471 0.897612 0.843107
0.761654 0.897612 0.843168
0.762783 0.897520 0.843320
0.764920 0.897429 0.843717
0.768338 0.897276 0.844327
0.771908 0.897063 0.844785
0.772335 0.896910 0.843809
0.772763 0.896788 0.842527
0.773373 0.896605 0.841032
0.774075 0.896391 0.839200
0.774960 0.896147 0.837156
0.775967 0.895872 0.834806
0.776974 0.895537 0.832090
0.778012 0.895109 0.829038
