20 Preset/Japan Style/【3】LUT video cho PR-AE-FCPX/LUT VIDEO (2)/Japan Style LUT (29).cube
# Created by Adobe Lightroom plugin Export LUT (1.24.0)
# www.johnrellis.com/lightroom/exportlut.htm
# Preset: 29日系绿色背景（素材江湖）
# Color profile: C:\Program Files (x86)\Common Files\Adobe\Color\Profiles\Recommended\VideoHD.icc
LUT_3D_SIZE 32
DOMAIN_MIN 0.0 0.0 0.0
DOMAIN_MAX 1.0 1.0 1.0
0.000000 0.000000 0.000000
0.004944 0.000519 0.000946
0.020813 0.000916 0.002869
0.052491 0.003876 0.008606
0.094240 0.010468 0.017853
0.124269 0.019654 0.028138
0.166537 0.022644 0.038117
0.217990 0.014923 0.047303
0.276310 0.000000 0.054932
0.340795 0.000000 0.060945
0.411963 0.000000 0.063630
0.487373 0.000000 0.066712
0.564904 0.000000 0.067933
0.641047 0.000000 0.068849
0.712917 0.000000 0.071809
0.777462 0.000000 0.077363
0.833036 0.115145 0.087892
0.880400 0.177890 0.097627
0.921050 0.226902 0.111482
0.954864 0.270817 0.128878
0.983032 0.308934 0.148684
1.000000 0.343267 0.169162
1.000000 0.373938 0.191165
1.000000 0.402777 0.214176
1.000000 0.429389 0.238376
1.000000 0.454627 0.263890
1.000000 0.478523 0.289769
1.000000 0.501244 0.316411
1.000000 0.523033 0.343694
1.000000 0.544152 0.371405
1.000000 0.564477 0.399054
1.000000 0.584344 0.427070
0.001648 0.001953 0.003082
0.003235 0.002930 0.001801
0.020356 0.004303 0.003540
0.052064 0.007263 0.009277
0.094087 0.013825 0.018555
0.123964 0.024231 0.028656
0.166354 0.027222 0.038666
0.217685 0.019715 0.046693
0.276432 0.000000 0.055146
0.341070 0.000000 0.060975
0.411994 0.000000 0.064363
0.487861 0.000000 0.065797
0.565209 0.000000 0.066560
0.641535 0.000000 0.068299
0.713100 0.000000 0.069398
0.777859 0.000000 0.076539
0.833219 0.123690 0.086275
0.880735 0.182193 0.097230
0.921202 0.230564 0.111635
0.955016 0.273411 0.129122
0.983093 0.311467 0.148562
1.000000 0.345068 0.169528
1.000000 0.375769 0.191592
1.000000 0.404303 0.214542
1.000000 0.431067 0.238743
1.000000 0.455879 0.264195
1.000000 0.479530 0.290562
1.000000 0.502251 0.317266
1.000000 0.523919 0.344182
1.000000 0.544823 0.371710
1.000000 0.565240 0.399817
1.000000 0.585016 0.427558
0.009430 0.011933 0.012848
0.008728 0.013153 0.012726
0.020020 0.015412 0.006531
0.054292 0.018158 0.010010
0.091829 0.027802 0.022400
0.122896 0.039185 0.031220
0.165011 0.046021 0.039643
0.216587 0.040925 0.048524
0.274388 0.028779 0.054994
0.338903 0.006836 0.059785
0.410315 0.000000 0.062257
0.486183 0.000000 0.063661
0.563622 0.000000 0.064057
0.639826 0.000000 0.064485
0.711727 0.000000 0.066011
0.776272 0.082918 0.070741
0.831907 0.147982 0.083864
0.879393 0.197971 0.096162
0.920012 0.242435 0.110628
0.953918 0.282597 0.128389
0.982055 0.318944 0.148470
1.000000 0.351751 0.169253
1.000000 0.381415 0.191409
1.000000 0.409064 0.215030
1.000000 0.435065 0.239353
1.000000 0.459419 0.264958
1.000000 0.482826 0.290898
1.000000 0.505180 0.317571
1.000000 0.526452 0.345068
1.000000 0.547234 0.372503
1.000000 0.567163 0.400214
1.000000 0.586786 0.428290
0.022400 0.032136 0.034699
0.022004 0.033356 0.033417
0.022858 0.035523 0.031952
0.052796 0.045960 0.019806
0.099336 0.058015 0.016754
0.122683 0.069429 0.032776
0.161654 0.081117 0.044068
0.211978 0.086488 0.049256
0.270298 0.087312 0.055177
0.334508 0.083558 0.058259
0.406012 0.071321 0.059663
0.481636 0.050355 0.060029
0.559472 0.039673 0.058747
0.635706 0.058808 0.057069
0.707912 0.101534 0.058442
0.772854 0.142458 0.062409
0.828763 0.184115 0.077211
0.876341 0.225681 0.092226
0.917266 0.264530 0.107790
0.951293 0.300847 0.126864
0.979767 0.333745 0.147463
1.000000 0.364385 0.169253
1.000000 0.392309 0.191531
1.000000 0.418433 0.215549
1.000000 0.443091 0.240208
1.000000 0.466560 0.265507
1.000000 0.489082 0.292058
1.000000 0.510582 0.318730
1.000000 0.531121 0.345861
1.000000 0.551263 0.373449
1.000000 0.570916 0.401282
1.000000 0.590204 0.429419
0.036042 0.074342 0.064790
0.036347 0.074342 0.063661
0.035828 0.076753 0.059968
0.044556 0.081758 0.052033
0.090883 0.096132 0.033021
0.140291 0.108156 0.016358
0.172732 0.110048 0.031037
0.207980 0.114626 0.048432
0.263157 0.121157 0.053285
0.327581 0.126162 0.054414
0.398871 0.129366 0.053773
0.474861 0.132235 0.052399
0.552453 0.136995 0.049958
0.629450 0.147860 0.047120
0.701625 0.167788 0.045930
0.766445 0.196017 0.047242
0.823117 0.227329 0.062501
0.871244 0.260655 0.086488
0.912352 0.294041 0.104067
0.946807 0.325383 0.124147
0.975647 0.355261 0.146090
0.999481 0.382574 0.168643
1.000000 0.407904 0.191653
1.000000 0.432013 0.215976
1.000000 0.454994 0.241184
1.000000 0.477119 0.266972
1.000000 0.498207 0.293034
1.000000 0.518700 0.320348
1.000000 0.538506 0.347509
1.000000 0.557885 0.375097
1.000000 0.576776 0.402869
1.000000 0.595392 0.430854
0.044831 0.105470 0.091249
0.042420 0.105898 0.090761
0.040955 0.105653 0.088289
0.044038 0.105959 0.084077
0.060365 0.115724 0.070130
0.113954 0.137179 0.038605
0.194278 0.159792 0.000000
0.232944 0.156497 0.016114
0.273320 0.158389 0.033997
0.317754 0.164584 0.053010
0.387945 0.173312 0.046937
0.463905 0.181827 0.041810
0.541924 0.191653 0.037018
0.618769 0.205051 0.030854
0.691341 0.223239 0.026642
0.757504 0.246250 0.027863
0.814328 0.272435 0.040925
0.863401 0.300359 0.072755
0.905150 0.328435 0.098299
0.940185 0.355352 0.120424
0.969604 0.381415 0.144289
0.993988 0.405615 0.167819
1.000000 0.425391 0.189273
1.000000 0.447517 0.214176
1.000000 0.468544 0.239872
1.000000 0.489082 0.266087
1.000000 0.508812 0.292912
1.000000 0.528008 0.320043
1.000000 0.546838 0.347662
1.000000 0.565240 0.375402
1.000000 0.583368 0.403174
1.000000 0.601312 0.431525
0.036927 0.137057 0.108278
0.035554 0.137087 0.107576
0.031006 0.137026 0.104585
0.032471 0.136385 0.100771
0.039918 0.135103 0.096071
0.076509 0.155520 0.082521
0.142367 0.184268 0.035340
0.252201 0.219425 0.000000
0.301274 0.213657 0.000000
0.347112 0.212619 0.000610
0.395605 0.216831 0.029297
0.450874 0.226413 0.056641
0.527550 0.239322 0.039796
0.603479 0.254185 0.019745
0.676722 0.272374 0.007324
0.743496 0.293767 0.004273
0.802029 0.317052 0.017731
0.852232 0.340948 0.049653
0.894682 0.364782 0.090974
0.930694 0.388128 0.116243
0.960937 0.410315 0.141146
0.986053 0.430823 0.165743
1.000000 0.450416 0.190738
1.000000 0.469490 0.216037
1.000000 0.488136 0.242161
1.000000 0.506554 0.268650
1.000000 0.524437 0.295567
1.000000 0.542077 0.322820
1.000000 0.559625 0.350774
1.000000 0.576684 0.378485
1.000000 0.593805 0.406653
1.000000 0.610773 0.434852
0.022889 0.174075 0.128878
0.021485 0.174105 0.128359
0.015015 0.173434 0.125093
0.013489 0.172366 0.120333
0.020447 0.170108 0.115236
0.033387 0.174624 0.107332
0.097536 0.201999 0.092164
0.178286 0.237217 0.028412
0.307805 0.280247 0.000000
0.380560 0.279911 0.000000
0.430579 0.276982 0.000000
0.481636 0.280308 0.000000
0.533715 0.288640 0.040772
0.594018 0.302251 0.072633
0.666438 0.320531 0.049683
0.732570 0.340887 0.030213
0.790463 0.362127 0.017914
0.840543 0.383154 0.027192
0.884031 0.403845 0.081086
0.920958 0.424048 0.112062
0.951995 0.443030 0.139834
0.978027 0.460456 0.166293
1.000000 0.477302 0.192203
1.000000 0.493843 0.218296
1.000000 0.510399 0.244968
1.000000 0.526482 0.271916
1.000000 0.542596 0.299138
1.000000 0.558556 0.326635
1.000000 0.574365 0.354284
1.000000 0.590265 0.382574
1.000000 0.605982 0.410437
1.000000 0.621851 0.438636
0.014405 0.214115 0.152377
0.012757 0.213901 0.151827
0.008331 0.213138 0.148898
0.000000 0.211765 0.143160
0.001984 0.208927 0.137606
0.015625 0.204929 0.130220
0.042634 0.219150 0.120699
0.124758 0.252720 0.101534
0.221836 0.293217 0.022766
0.364904 0.339635 0.000000
0.466011 0.352789 0.000000
0.517540 0.348272 0.000000
0.568109 0.350042 0.000000
0.617456 0.357244 0.000000
0.665553 0.369299 0.081544
0.721309 0.386694 0.097902
0.779110 0.405951 0.095949
0.829374 0.424689 0.099855
0.872740 0.443000 0.107393
0.909972 0.460334 0.119814
0.941588 0.476417 0.139528
0.968383 0.491371 0.167391
0.991394 0.505821 0.194553
1.000000 0.520104 0.221439
1.000000 0.534356 0.248692
1.000000 0.548577 0.276036
1.000000 0.562646 0.303319
1.000000 0.576989 0.331151
1.000000 0.591150 0.358953
1.000000 0.605524 0.387030
1.000000 0.619989 0.415076
1.000000 0.634577 0.443122
0.017243 0.256382 0.177859
0.014923 0.256138 0.177096
0.005524 0.255497 0.174594
0.000000 0.253330 0.168399
0.000000 0.250217 0.162234
0.000000 0.245640 0.154635
0.018799 0.239109 0.145205
0.082399 0.267735 0.134371
0.162448 0.306554 0.112306
0.274876 0.351781 0.019135
0.425422 0.401068 0.000000
0.552544 0.429633 0.000000
0.602167 0.423713 0.000000
0.648981 0.424018 0.000000
0.693294 0.429419 0.000000
0.733883 0.438270 0.059358
0.771176 0.449683 0.122683
0.816770 0.465431 0.137362
0.860746 0.481514 0.144930
0.898497 0.496742 0.155642
0.930663 0.510460 0.168887
0.957885 0.523033 0.183017
0.981537 0.535149 0.198703
1.000000 0.547509 0.225834
1.000000 0.559808 0.253666
1.000000 0.572107 0.281193
1.000000 0.584558 0.309087
1.000000 0.597040 0.336980
1.000000 0.609644 0.364996
1.000000 0.622461 0.392798
1.000000 0.635462 0.420874
1.000000 0.648768 0.448768
0.034577 0.300450 0.204044
0.032197 0.300389 0.203647
0.021332 0.299351 0.201053
0.000000 0.297124 0.195254
0.000000 0.293614 0.187869
0.000000 0.288365 0.180087
0.003052 0.281132 0.170199
0.031434 0.282231 0.159701
0.117983 0.318883 0.147829
0.209812 0.362676 0.122560
0.334813 0.411841 0.016327
0.489296 0.464210 0.000000
0.632136 0.506035 0.000000
0.676967 0.498085 0.000000
0.717708 0.495583 0.000000
0.755215 0.497261 0.000000
0.789303 0.502129 0.057343
0.820554 0.509728 0.135012
0.848875 0.519463 0.177310
0.886015 0.532616 0.189944
0.918761 0.544396 0.201694
0.946715 0.555200 0.214786
0.971069 0.565728 0.228946
0.992615 0.575647 0.243076
1.000000 0.585626 0.259770
1.000000 0.596338 0.287633
1.000000 0.607080 0.315618
1.000000 0.618006 0.343420
1.000000 0.629114 0.371344
1.000000 0.640436 0.399298
1.000000 0.652155 0.427436
1.000000 0.664088 0.455085
0.080629 0.344793 0.230777
0.077516 0.344518 0.230167
0.059510 0.343236 0.227390
0.033600 0.341283 0.222568
0.000000 0.337621 0.214084
0.000000 0.332036 0.206271
0.000244 0.324376 0.196109
0.019532 0.314794 0.184024
0.082887 0.330205 0.174014
0.160555 0.371527 0.160433
0.264134 0.418830 0.132021
0.395605 0.470161 0.018219
0.546044 0.520745 0.000000
0.697230 0.572839 0.000000
0.736263 0.562615 0.000000
0.771511 0.557214 0.000000
0.803372 0.555627 0.000000
0.832639 0.557336 0.085756
0.858824 0.561700 0.153262
0.882444 0.568017 0.196994
0.904417 0.575830 0.232883
0.933288 0.585351 0.244755
0.958679 0.594354 0.257450
0.981018 0.603296 0.271489
1.000000 0.611902 0.285771
1.000000 0.620325 0.300175
1.000000 0.629206 0.322026
1.000000 0.638788 0.350134
1.000000 0.648585 0.377996
1.000000 0.658686 0.406012
1.000000 0.669032 0.433845
1.000000 0.679896 0.461769
0.112428 0.387945 0.257603
0.110964 0.387671 0.256870
0.106172 0.386694 0.254765
0.093477 0.384192 0.249271
0.051667 0.380377 0.241093
0.022950 0.374670 0.231907
0.025544 0.367010 0.222049
0.033387 0.357305 0.210056
0.056977 0.345586 0.196201
0.124178 0.378485 0.187716
0.209628 0.423529 0.172641
0.320958 0.473091 0.142947
0.455299 0.524865 0.037964
0.601709 0.577020 0.000000
0.741543 0.627100 0.000000
0.788083 0.622187 0.000000
0.818265 0.614221 0.000000
0.845426 0.609918 0.000000
0.869810 0.608545 0.118288
0.891691 0.609888 0.178988
0.910857 0.612726 0.223667
0.928099 0.617639 0.261601
0.946563 0.624445 0.289982
0.969604 0.632074 0.302434
0.989990 0.639460 0.315770
1.000000 0.646693 0.329381
1.000000 0.653712 0.343114
1.000000 0.660822 0.359167
1.000000 0.669306 0.387182
1.000000 0.678065 0.414801
1.000000 0.687221 0.442451
1.000000 0.696864 0.470100
0.146426 0.431159 0.285283
0.146120 0.431006 0.284916
0.141085 0.429938 0.282475
0.130434 0.427588 0.277440
0.113161 0.423590 0.269169
0.092103 0.418402 0.259342
0.083803 0.410620 0.249210
0.080049 0.400824 0.236942
0.084138 0.388861 0.222782
0.100252 0.385687 0.209506
0.169802 0.428504 0.201511
0.263676 0.476051 0.186252
0.380804 0.526574 0.156435
0.514366 0.577874 0.082948
0.649134 0.626398 0.000000
0.777401 0.673213 0.000000
0.830259 0.673365 0.000000
0.855802 0.663539 0.000000
0.878874 0.656916 0.007080
0.899290 0.653132 0.154879
0.917327 0.651575 0.210086
0.933623 0.652338 0.252567
0.948486 0.655390 0.290013
0.962036 0.660121 0.323980
0.978363 0.666285 0.346777
0.996979 0.672511 0.359503
1.000000 0.678584 0.372320
1.000000 0.684382 0.385077
1.000000 0.689967 0.397192
1.000000 0.697658 0.424964
1.000000 0.705684 0.452155
1.000000 0.714260 0.479744
0.181765 0.473365 0.313634
0.180941 0.473060 0.313115
0.176669 0.471992 0.310704
0.168795 0.469795 0.305974
0.154269 0.465949 0.298039
0.133059 0.460731 0.287144
0.123507 0.453437 0.276982
0.116060 0.444007 0.264897
0.111269 0.432197 0.250431
0.109895 0.418341 0.234165
0.141909 0.433112 0.223911
0.220737 0.478492 0.216281
0.320806 0.527031 0.201266
0.440558 0.577417 0.173190
0.566949 0.625360 0.117372
0.689784 0.669459 0.000000
0.807462 0.712673 0.000000
0.864042 0.716579 0.000000
0.885985 0.705257 0.000000
0.905486 0.696986 0.119539
0.922667 0.691310 0.192660
0.938262 0.688411 0.242039
0.952483 0.687861 0.283055
0.965454 0.689387 0.319219
0.977142 0.692592 0.352972
0.987793 0.697444 0.384497
1.000000 0.702754 0.402350
1.000000 0.707729 0.414038
1.000000 0.712551 0.425483
1.000000 0.717159 0.436378
1.000000 0.724117 0.462867
1.000000 0.731563 0.489876
0.218173 0.514214 0.342382
0.217594 0.514000 0.341924
0.213901 0.512810 0.339513
0.206363 0.510674 0.334936
0.193729 0.507042 0.327337
0.176089 0.502098 0.316899
0.160922 0.495155 0.305455
0.152865 0.486213 0.293553
0.144411 0.475013 0.279362
0.138094 0.461738 0.263096
0.134524 0.446113 0.244907
0.188876 0.480629 0.239414
0.274601 0.527550 0.232273
0.379919 0.576379 0.218051
0.495888 0.623438 0.194888
0.612451 0.667323 0.155612
0.724910 0.707240 0.032502
0.831388 0.745541 0.000000
0.891325 0.753048 0.000000
0.910063 0.740688 0.016297
0.926757 0.731380 0.171969
0.941894 0.724941 0.229465
0.955657 0.721035 0.275456
0.968200 0.719417 0.314031
0.979492 0.719753 0.349493
0.989807 0.721767 0.381872
0.999054 0.725399 0.412818
1.000000 0.730190 0.442176
1.000000 0.734493 0.454414
1.000000 0.738521 0.464851
1.000000 0.742428 0.474830
1.000000 0.748898 0.500999
0.256107 0.553460 0.371740
0.254887 0.553155 0.371069
0.252354 0.552331 0.369146
0.245243 0.550195 0.364477
0.234958 0.547021 0.357610
0.219364 0.542351 0.347570
0.199832 0.535943 0.334966
0.191226 0.527550 0.323278
0.180758 0.516991 0.309117
0.171725 0.504570 0.293126
0.163882 0.489784 0.274815
0.168704 0.483650 0.258488
0.240238 0.528435 0.256321
0.331151 0.575189 0.250065
0.436622 0.621454 0.238834
0.545678 0.664698 0.221469
0.652399 0.704250 0.194553
0.754269 0.739437 0.148775
0.848295 0.770535 0.000000
0.913298 0.783230 0.000000
0.929686 0.770993 0.146792
0.944579 0.761349 0.217411
0.958038 0.754543 0.266911
0.970245 0.749966 0.308965
0.981384 0.747494 0.345373
0.991394 0.746944 0.379400
1.000000 0.748013 0.410651
1.000000 0.750637 0.440650
1.000000 0.754513 0.468940
1.000000 0.759152 0.493416
1.000000 0.762509 0.502556
1.000000 0.765927 0.513237
0.293645 0.590539 0.400916
0.293492 0.590387 0.400702
0.289128 0.588281 0.397528
0.283085 0.586419 0.393378
0.273503 0.583429 0.386664
0.260472 0.579370 0.377539
0.241978 0.573816 0.365270
0.229221 0.565972 0.352697
0.218540 0.556481 0.339269
0.207156 0.544854 0.323217
0.197116 0.531426 0.305425
0.187625 0.515709 0.285527
0.215274 0.528771 0.275547
0.293278 0.573785 0.274266
0.386938 0.618555 0.270146
0.487343 0.660883 0.262913
0.588312 0.700191 0.250950
0.686336 0.735531 0.232395
0.778073 0.766201 0.205600
0.862058 0.792020 0.160769
0.929320 0.807828 0.123781
0.946166 0.796811 0.203433
0.959472 0.787381 0.258701
0.971557 0.780270 0.303624
0.982483 0.775326 0.342229
0.992523 0.772335 0.376623
1.000000 0.771206 0.408850
1.000000 0.771725 0.439246
1.000000 0.773526 0.467536
1.000000 0.776547 0.494575
1.000000 0.780453 0.519585
1.000000 0.784360 0.537713
0.333959 0.624292 0.430854
0.332952 0.623957 0.430060
0.330053 0.623102 0.428046
0.324712 0.621424 0.424201
0.316228 0.618769 0.417823
0.304234 0.615198 0.409155
0.287053 0.610315 0.397375
0.271336 0.603876 0.384283
0.259922 0.595422 0.371008
0.248081 0.585290 0.355657
0.235996 0.573114 0.338262
0.224918 0.558953 0.318914
0.214420 0.542687 0.297459
0.267704 0.575189 0.295140
0.349676 0.618158 0.295964
0.441444 0.659449 0.294560
0.535363 0.698054 0.290990
0.628046 0.733059 0.283970
0.717342 0.764065 0.272953
0.800473 0.790585 0.256291
0.876738 0.813077 0.229801
0.939544 0.828031 0.211032
0.960540 0.819699 0.252628
0.972503 0.810361 0.299748
0.983368 0.803250 0.339666
0.993286 0.798123 0.375006
1.000000 0.794888 0.407935
1.000000 0.793332 0.438849
1.000000 0.793240 0.467445
1.000000 0.794430 0.494209
1.000000 0.796689 0.519188
1.000000 0.799771 0.542626
0.375494 0.656458 0.461585
0.374914 0.656245 0.461189
0.372290 0.655482 0.459205
0.367407 0.654078 0.455604
0.360143 0.651881 0.450019
0.349126 0.648737 0.441657
0.334264 0.644648 0.430762
0.316045 0.639246 0.417029
0.305028 0.632197 0.404639
0.292576 0.623499 0.389868
0.279332 0.613092 0.372930
0.265965 0.600793 0.353887
0.253117 0.586419 0.332738
0.252842 0.579187 0.314214
0.324010 0.620264 0.318090
0.406104 0.659907 0.320775
0.492653 0.697414 0.322271
0.579583 0.731960 0.321630
0.664240 0.762631 0.319127
0.744991 0.789364 0.313176
0.820279 0.812253 0.302983
0.889372 0.831693 0.285710
0.948669 0.846098 0.272740
0.972930 0.839902 0.297551
0.983764 0.830808 0.338567
0.993683 0.823789 0.374792
1.000000 0.818631 0.407813
1.000000 0.815183 0.438575
1.000000 0.813321 0.467689
1.000000 0.812772 0.494118
1.000000 0.813443 0.519280
1.000000 0.815030 0.542260
0.417884 0.686976 0.493507
0.416907 0.686763 0.492897
0.415045 0.686122 0.491310
0.410803 0.684871 0.487984
0.404150 0.683040 0.482673
0.394842 0.680507 0.475319
0.381781 0.676967 0.465156
0.365087 0.672572 0.452369
0.351781 0.666804 0.439765
0.339452 0.659358 0.425696
0.325536 0.650538 0.409308
0.312108 0.640314 0.391211
0.297368 0.628107 0.370581
0.284001 0.614130 0.348119
0.308721 0.624933 0.338872
0.381598 0.662806 0.344366
0.459815 0.698756 0.349340
0.540368 0.732448 0.352972
0.619898 0.762448 0.355322
0.697078 0.788998 0.355413
0.769955 0.811887 0.353307
0.837858 0.831479 0.346715
0.900450 0.848234 0.335027
0.956817 0.862181 0.324437
0.983581 0.857603 0.338048
0.993500 0.848875 0.374945
1.000000 0.842008 0.408209
1.000000 0.836881 0.439002
1.000000 0.833341 0.467659
1.000000 0.831235 0.494514
1.000000 0.830381 0.519036
1.000000 0.830594 0.542077
0.459541 0.715297 0.525353
0.458991 0.715145 0.524895
0.457343 0.714717 0.523583
0.453895 0.713832 0.520836
0.447822 0.712276 0.515923
0.439490 0.710079 0.509209
0.428595 0.707240 0.500298
0.414282 0.703639 0.488838
0.398840 0.698848 0.475532
0.387518 0.692866 0.462806
0.374212 0.685451 0.447425
0.359930 0.676875 0.430091
0.345647 0.666804 0.410559
0.330938 0.655146 0.388952
0.316838 0.641749 0.365148
0.366857 0.668086 0.366827
0.437385 0.702510 0.373968
0.510735 0.734768 0.380743
0.584619 0.764034 0.386694
0.657252 0.789944 0.391211
0.727169 0.812680 0.393896
0.792782 0.832242 0.393530
0.854154 0.849088 0.389685
0.910887 0.863523 0.381323
0.964446 0.877134 0.372503
0.993164 0.873838 0.377386
1.000000 0.865476 0.411048
1.000000 0.858824 0.441718
1.000000 0.853819 0.470161
1.000000 0.850278 0.496315
1.000000 0.848051 0.521019
1.000000 0.846983 0.543938
0.500908 0.742611 0.558007
0.500328 0.742458 0.557549
0.498939 0.742061 0.556390
0.495857 0.741299 0.553735
0.491096 0.740108 0.549798
0.484260 0.738399 0.543908
0.474922 0.736019 0.536034
0.462379 0.733059 0.525658
0.447333 0.729397 0.512993
0.436469 0.724453 0.501183
0.424048 0.718532 0.487282
0.410498 0.711482 0.471168
0.396002 0.703212 0.452705
0.381231 0.693660 0.432166
0.366674 0.682734 0.409705
0.362921 0.676814 0.390051
0.425330 0.709346 0.399207
0.491310 0.739834 0.407935
0.559045 0.767788 0.416083
0.626520 0.792813 0.423285
0.692256 0.814908 0.429145
0.754849 0.834134 0.432898
0.813962 0.850797 0.434241
0.869017 0.865202 0.431983
0.920623 0.877806 0.425696
0.971496 0.891081 0.417517
1.000000 0.888640 0.415839
1.000000 0.880735 0.446235
1.000000 0.874357 0.474189
1.000000 0.869505 0.500008
1.000000 0.866056 0.524529
1.000000 0.863737 0.546929
0.540185 0.767910 0.589776
0.539910 0.767758 0.589471
0.538811 0.767514 0.588586
0.536126 0.766842 0.586145
0.532036 0.765927 0.582666
0.526238 0.764553 0.577569
0.518517 0.762844 0.570886
0.508537 0.760525 0.562158
0.496040 0.757656 0.551171
0.484627 0.753902 0.539879
0.474006 0.749203 0.527672
0.461860 0.743771 0.513451
0.448341 0.737301 0.496895
0.434028 0.729824 0.478065
0.419471 0.721157 0.457099
0.405158 0.711269 0.434058
0.424323 0.719631 0.425879
0.483223 0.748165 0.436011
0.544121 0.774350 0.445716
0.605737 0.798093 0.454841
0.666407 0.819120 0.462715
0.724941 0.837644 0.469184
0.780819 0.853849 0.473762
0.833463 0.868040 0.475349
0.882902 0.880400 0.473854
0.929778 0.891203 0.468208
0.977050 0.903227 0.460517
1.000000 0.901946 0.455329
1.000000 0.894774 0.479652
1.000000 0.888792 0.505425
1.000000 0.884154 0.529107
1.000000 0.880400 0.550164
0.579675 0.792172 0.622309
0.579248 0.792050 0.622004
0.578210 0.791806 0.621057
0.576165 0.791379 0.619196
0.572778 0.790585 0.616083
0.568048 0.789548 0.611810
0.561486 0.788144 0.605982
0.553033 0.786343 0.598413
0.542565 0.784115 0.588952
0.531151 0.781277 0.578088
0.522148 0.777676 0.567681
0.511559 0.773373 0.555230
0.500175 0.768429 0.541039
0.487526 0.762692 0.524681
0.474189 0.756100 0.506065
0.460182 0.748592 0.485145
0.446174 0.739986 0.461799
0.485359 0.759213 0.466041
0.539544 0.783413 0.476722
0.594751 0.805447 0.486824
0.649928 0.825223 0.495979
0.703700 0.842802 0.503655
0.755367 0.858274 0.509697
0.804685 0.871977 0.513725
0.851469 0.884001 0.515343
0.895964 0.894621 0.513939
0.938476 0.903960 0.508721
0.981415 0.913939 0.501335
1.000000 0.914214 0.496193
1.000000 0.907897 0.512322
1.000000 0.901915 0.534203
1.000000 0.897063 0.554253
0.618097 0.814725 0.654566
0.617853 0.814664 0.654322
0.616876 0.814450 0.653468
0.615198 0.814145 0.651881
0.612543 0.813596 0.649470
0.608515 0.812833 0.645716
0.602899 0.811765 0.640589
0.596124 0.810483 0.634363
0.587488 0.808804 0.626276
0.577142 0.806851 0.616602
0.568994 0.804105 0.607355
0.560113 0.800900 0.596796
0.550469 0.797238 0.584710
0.539788 0.792996 0.570855
0.528496 0.788083 0.555077
0.516564 0.782589 0.537316
0.504082 0.776394 0.517296
0.499886 0.773709 0.499947
0.546471 0.795621 0.510643
0.594659 0.815702 0.520745
0.643427 0.833860 0.530236
0.691524 0.850156 0.538628
0.738460 0.864652 0.545525
0.783780 0.877623 0.550988
0.827207 0.889128 0.554559
0.868681 0.899382 0.555596
0.908598 0.908476 0.554009
0.947173 0.916442 0.549065
0.985992 0.924498 0.540856
1.000000 0.925719 0.533959
1.000000 0.919707 0.541192
1.000000 0.913848 0.560113
0.656123 0.836088 0.687007
0.655848 0.836027 0.686763
0.654932 0.835904 0.686000
0.653651 0.835660 0.684749
0.651362 0.835264 0.682551
0.648035 0.834653 0.679408
0.643702 0.833921 0.675319
0.638056 0.832914 0.669917
0.630854 0.831693 0.663111
0.622461 0.830289 0.655055
0.614466 0.828336 0.646540
0.607080 0.826017 0.637568
0.599023 0.823331 0.627436
0.589960 0.820279 0.615717
0.580529 0.816831 0.602533
0.570459 0.812955 0.587671
0.560113 0.808652 0.571130
0.549554 0.803799 0.552514
0.563104 0.810208 0.547021
0.604242 0.828153 0.556939
0.646235 0.844511 0.566125
0.688472 0.859342 0.574578
0.730098 0.872679 0.581872
0.770809 0.884764 0.588006
0.810056 0.895537 0.592340
0.847837 0.905058 0.594385
0.884459 0.913573 0.594202
0.920104 0.921111 0.591211
0.955016 0.927764 0.584955
0.990234 0.934234 0.575830
1.000000 0.936278 0.567498
1.000000 0.930419 0.566827
0.692256 0.856046 0.718563
0.692103 0.856016 0.718441
0.691524 0.855955 0.717861
0.690517 0.855802 0.716884
0.688685 0.855528 0.715114
0.686122 0.855131 0.712642
0.682826 0.854673 0.709377
0.678340 0.854032 0.704982
0.672938 0.853269 0.699672
0.666316 0.852354 0.693141
0.659327 0.851194 0.685786
0.653681 0.849638 0.678737
0.647272 0.847868 0.670619
0.640284 0.845884 0.661311
