20 Preset/Japan Style/【3】LUT video cho PR-AE-FCPX/LUT VIDEO (2)/Japan Style LUT (48).cube
# Created by Adobe Lightroom plugin Export LUT (1.24.0)
# www.johnrellis.com/lightroom/exportlut.htm
# Preset: 48日系自然（素材江湖）
# Color profile: C:\Program Files (x86)\Common Files\Adobe\Color\Profiles\Recommended\VideoHD.icc
LUT_3D_SIZE 5
DOMAIN_MIN 0.000000 0.000000 0.000000
DOMAIN_MAX 0.903226 0.903226 0.903226
0.122896 0.122896 0.122896
0.253422 0.136233 0.123445
0.609583 0.196536 0.087098
0.979126 0.285954 0.000000
1.000000 0.356085 0.110384
0.105837 0.242283 0.147524
0.246250 0.257816 0.131746
0.577630 0.319799 0.072236
0.966766 0.398383 0.000000
1.000000 0.430304 0.143954
0.000000 0.574517 0.215305
0.000000 0.568536 0.214054
0.595422 0.631189 0.051972
0.927367 0.637018 0.000000
1.000000 0.609735 0.209018
0.000000 0.849119 0.418036
0.172732 0.849027 0.420233
0.464637 0.851347 0.402045
0.809476 0.853422 0.312108
1.000000 0.806912 0.317937
0.624292 0.951171 0.704921
0.633356 0.951019 0.706050
0.642206 0.946410 0.688441
0.751034 0.950469 0.671901
0.915892 0.949920 0.620905
0.015320 0.126802 0.239750
0.239994 0.119295 0.239963
0.564385 0.000000 0.246860
0.955413 0.208316 0.251652
1.000000 0.345830 0.287114
0.124239 0.250919 0.239322
0.245487 0.245487 0.245487
0.565698 0.281193 0.247074
0.939727 0.355749 0.250828
1.000000 0.419623 0.294682
0.000000 0.550439 0.308659
0.177951 0.550378 0.307439
0.556420 0.584955 0.258488
0.893950 0.608301 0.257939
1.000000 0.611109 0.340307
0.246281 0.842405 0.481910
0.307225 0.843137 0.484932
0.489693 0.845121 0.476722
0.808133 0.848173 0.400946
1.000000 0.806546 0.409735
0.648859 0.948699 0.725704
0.655848 0.948425 0.725917
0.689967 0.948425 0.731411
0.773098 0.951110 0.713924
0.921477 0.951568 0.671565
0.000000 0.140566 0.573175
0.109224 0.109926 0.566674
0.543175 0.000000 0.542901
0.871061 0.000000 0.562737
1.000000 0.171481 0.523003
0.000000 0.335668 0.582910
0.000000 0.246799 0.576257
0.548882 0.189639 0.548852
0.884123 0.152438 0.557336
1.000000 0.374151 0.545129
0.000000 0.594354 0.557153
0.206058 0.587060 0.556512
0.554162 0.554162 0.554162
0.873411 0.610468 0.588861
1.000000 0.669886 0.637446
0.498787 0.822507 0.647547
0.531121 0.818021 0.651179
0.603449 0.821530 0.653834
0.810361 0.833371 0.625452
0.993927 0.814359 0.641993
0.706416 0.939605 0.779721
0.713985 0.939971 0.781308
0.740597 0.940734 0.785061
0.796750 0.943206 0.779995
0.923125 0.945800 0.747799
0.000000 0.165866 0.856870
0.000000 0.142123 0.854704
0.466926 0.000000 0.843168
0.823117 0.000000 0.823026
1.000000 0.000000 0.781064
0.000000 0.335424 0.855375
0.000000 0.262821 0.854765
0.444923 0.211276 0.840726
0.816251 0.000000 0.816098
1.000000 0.177768 0.774655
0.000000 0.658656 0.848173
0.000000 0.645167 0.844480
0.433326 0.550988 0.835050
0.808621 0.504814 0.808499
1.000000 0.550286 0.773556
0.441199 0.847166 0.809262
0.487160 0.842374 0.807675
0.636835 0.829374 0.807675
0.800717 0.800717 0.800717
0.960235 0.840940 0.832853
0.754757 0.933532 0.841764
0.764706 0.933410 0.844511
0.804898 0.934112 0.857145
0.843015 0.936309 0.862211
0.929473 0.941100 0.846403
0.000000 0.201511 0.979950
0.000000 0.192935 0.979004
0.151278 0.152804 0.975311
0.668025 0.000000 0.967163
0.958007 0.000000 0.957855
0.000000 0.327947 0.977539
0.000000 0.285618 0.977874
0.122347 0.269932 0.973968
0.665614 0.228611 0.965637
0.956146 0.188540 0.956054
0.000000 0.643275 0.964202
0.021088 0.627466 0.964446
0.330816 0.555261 0.965881
0.680812 0.531609 0.958038
0.948760 0.509972 0.948699
0.525444 0.857145 0.949432
0.559228 0.856931 0.949279
0.671077 0.855009 0.948913
0.770932 0.811002 0.945830
0.936339 0.781247 0.936339
0.739071 0.954437 0.930083
0.750515 0.953643 0.930449
0.794766 0.950774 0.932341
0.861418 0.945464 0.935027
0.932036 0.932036 0.932036
