20 Preset/Japan Style/【3】LUT video cho PR-AE-FCPX/LUT VIDEO (2)/Japan Style LUT (27).cube
# Created by Adobe Lightroom plugin Export LUT (1.24.0)
# www.johnrellis.com/lightroom/exportlut.htm
# Preset: 27日系胶片（素材江湖）
# Color profile: C:\Program Files (x86)\Common Files\Adobe\Color\Profiles\Recommended\VideoHD.icc
LUT_3D_SIZE 8
DOMAIN_MIN 0.000000 0.000000 0.000000
DOMAIN_MAX 0.903226 0.903226 0.903226
0.000000 0.089082 0.122438
0.008637 0.090150 0.123903
0.102754 0.094575 0.126925
0.213474 0.094331 0.128481
0.379431 0.018555 0.126284
0.585534 0.000000 0.115755
0.801144 0.000000 0.085664
0.956878 0.000000 0.000000
0.000000 0.101228 0.132204
0.000000 0.100923 0.130617
0.107942 0.109682 0.124788
0.218387 0.114290 0.125429
0.382727 0.095247 0.122316
0.585534 0.000000 0.109957
0.786740 0.000000 0.069276
0.945342 0.000000 0.000000
0.000000 0.169375 0.165011
0.000000 0.170596 0.153811
0.064393 0.166476 0.154116
0.259892 0.200992 0.125368
0.457893 0.210330 0.089998
0.664454 0.203738 0.000000
0.842985 0.207584 0.000000
0.975769 0.238254 0.000000
0.000000 0.340856 0.233127
0.000000 0.341375 0.216464
0.000000 0.341772 0.190585
0.256260 0.345647 0.204654
0.527733 0.402197 0.129397
0.761501 0.428901 0.000000
0.889220 0.432380 0.000000
0.993378 0.439704 0.000000
0.000000 0.571527 0.344671
0.000000 0.570886 0.331182
0.000000 0.568902 0.275059
0.264958 0.562768 0.248875
0.505730 0.556542 0.282048
0.715175 0.591150 0.222171
0.886320 0.603143 0.000000
0.999664 0.608057 0.000000
0.000000 0.742031 0.507622
0.000000 0.746395 0.508446
0.000000 0.746914 0.445106
0.313237 0.737942 0.404730
0.553796 0.727108 0.391974
0.708553 0.724697 0.441932
0.847807 0.749325 0.445289
0.973602 0.756191 0.253056
0.452705 0.851957 0.694057
0.466712 0.852323 0.693477
0.460395 0.852232 0.664637
0.498390 0.849973 0.621180
0.613642 0.840757 0.579309
0.737484 0.836210 0.596765
0.830533 0.836484 0.645655
0.913115 0.854246 0.683345
0.694148 0.927367 0.837095
0.697993 0.927245 0.836484
0.702632 0.927703 0.828824
0.698085 0.929595 0.804562
0.727871 0.922423 0.777493
0.793942 0.919615 0.756985
0.862425 0.919615 0.787045
0.914183 0.919554 0.814176
0.000000 0.090852 0.134279
0.000000 0.091371 0.133669
0.096651 0.095766 0.133059
0.205905 0.104738 0.131136
0.372107 0.092409 0.123293
0.572198 0.000000 0.112459
0.770779 0.000000 0.083162
0.931121 0.000000 0.000000
0.000000 0.100526 0.140169
0.000000 0.103517 0.141207
0.101320 0.109834 0.137972
0.215763 0.119112 0.132723
0.383886 0.116762 0.120638
0.583398 0.000000 0.104891
0.769802 0.000000 0.059541
0.925689 0.000000 0.000000
0.000000 0.166506 0.179965
0.000000 0.170138 0.174472
0.065431 0.168490 0.168185
0.259403 0.198062 0.139528
0.442329 0.201602 0.113313
0.640864 0.201480 0.026551
0.811917 0.207034 0.000000
0.952331 0.227939 0.000000
0.000000 0.326909 0.245487
0.000000 0.328862 0.238529
0.000000 0.330694 0.205570
0.237919 0.326604 0.214572
0.486946 0.372992 0.153384
0.718654 0.394629 0.000000
0.855650 0.401038 0.000000
0.972564 0.423316 0.000000
0.000000 0.562127 0.357610
0.000000 0.560815 0.348699
0.000000 0.557641 0.288334
0.248814 0.546868 0.258457
0.483467 0.537163 0.286992
0.696376 0.574273 0.229099
0.873228 0.588861 0.000000
0.989136 0.594293 0.000000
0.000000 0.732692 0.509331
0.000000 0.732753 0.504631
0.000000 0.733577 0.451545
0.292454 0.727138 0.406317
0.542321 0.717769 0.393194
0.701320 0.718074 0.444892
0.842130 0.743282 0.444953
0.968841 0.749477 0.254856
0.434699 0.845853 0.689052
0.443183 0.844724 0.685389
0.449195 0.844053 0.660578
0.480934 0.842985 0.614313
0.604059 0.835508 0.577142
0.730343 0.830900 0.591913
0.823819 0.830106 0.638025
0.908354 0.847868 0.672389
0.684199 0.924224 0.833097
0.690089 0.924651 0.833646
0.698970 0.924712 0.827665
0.691646 0.926940 0.801877
0.735103 0.924681 0.787167
0.795499 0.920378 0.762631
0.861631 0.919005 0.788052
0.913512 0.918883 0.814847
0.000000 0.096223 0.172519
0.000000 0.097292 0.172213
0.085664 0.098756 0.176181
0.227970 0.078309 0.175357
0.373602 0.018921 0.161685
0.586542 0.000000 0.145113
0.790738 0.000000 0.100496
0.948486 0.000000 0.000000
0.000000 0.110231 0.183688
0.000000 0.110384 0.183780
0.091981 0.114015 0.186069
0.228367 0.100862 0.176822
0.382391 0.086519 0.165805
0.591852 0.000000 0.146822
0.787747 0.000000 0.098848
0.944457 0.072419 0.000000
0.000000 0.163394 0.211551
0.000000 0.167239 0.212528
0.083528 0.183627 0.216342
0.261723 0.190127 0.199191
0.446540 0.187442 0.178531
0.645167 0.176394 0.146426
0.817990 0.194522 0.067597
0.959716 0.260380 0.000000
0.000000 0.336065 0.309545
0.000000 0.339666 0.306706
0.000000 0.349706 0.280369
0.268162 0.347143 0.273716
0.523857 0.384863 0.213657
0.722255 0.384161 0.130739
0.860929 0.391089 0.000000
0.977996 0.418677 0.000000
0.000000 0.563561 0.425238
0.000000 0.563775 0.419440
0.000000 0.566369 0.391394
0.277501 0.560174 0.329595
0.510582 0.553735 0.355413
0.712673 0.584619 0.296544
0.881132 0.588830 0.043427
0.989380 0.587823 0.000000
0.000000 0.731563 0.561852
0.000000 0.732113 0.558709
0.219669 0.731197 0.540673
0.324285 0.727901 0.469245
0.549248 0.717067 0.444282
0.703426 0.718654 0.495003
0.842100 0.744900 0.488167
0.969848 0.750088 0.320592
0.465644 0.847196 0.719661
0.473426 0.846189 0.716640
0.509453 0.843778 0.706325
0.506371 0.843809 0.653803
0.612512 0.836301 0.619287
0.734279 0.831968 0.625299
0.826963 0.833738 0.671717
0.911040 0.853117 0.699916
0.688624 0.924468 0.843839
0.691646 0.924102 0.842710
0.707820 0.923674 0.840299
0.713161 0.925841 0.823545
0.739467 0.924865 0.802182
0.797665 0.921416 0.781003
0.863584 0.920317 0.801114
0.914733 0.920409 0.826505
0.000000 0.104707 0.251652
0.000000 0.105959 0.254459
0.071290 0.113558 0.259556
0.236637 0.102113 0.272282
0.461707 0.000000 0.277226
0.608362 0.000000 0.218997
0.757839 0.000000 0.198672
0.930083 0.000000 0.157412
0.000000 0.121401 0.266667
0.000000 0.123384 0.268101
0.084840 0.133089 0.272496
0.249851 0.125277 0.283330
0.465431 0.000000 0.279789
0.607813 0.000000 0.219120
0.764828 0.000000 0.201877
0.932647 0.000000 0.158328
0.000000 0.184726 0.290013
0.000000 0.187350 0.291325
0.034119 0.199802 0.303197
0.276280 0.210117 0.313054
0.472602 0.166751 0.286259
0.625879 0.136110 0.250340
0.811795 0.132662 0.219089
0.956817 0.194125 0.161044
0.000000 0.315862 0.358068
0.000000 0.319005 0.358160
0.051331 0.335637 0.361486
0.302403 0.367529 0.367895
0.523369 0.362615 0.325750
0.697414 0.354742 0.284886
0.845029 0.359838 0.234867
0.970764 0.383917 0.160739
0.000000 0.574792 0.531914
0.000000 0.574212 0.527611
0.092409 0.575647 0.512535
0.327245 0.581353 0.462409
0.543664 0.574212 0.462348
0.735988 0.593744 0.395331
0.884031 0.580194 0.285588
0.985992 0.573632 0.200259
0.222049 0.738643 0.652674
0.268437 0.742000 0.654749
0.354192 0.739986 0.641444
0.457435 0.738491 0.607813
0.575982 0.728145 0.542809
0.715450 0.728206 0.585840
0.846433 0.750912 0.560937
0.973053 0.748867 0.408820
0.504417 0.848112 0.764797
0.514275 0.848234 0.764034
0.549096 0.847562 0.758511
0.606043 0.846036 0.745205
0.638025 0.842985 0.694606
0.743740 0.836545 0.682002
0.830838 0.838254 0.720027
0.914031 0.857908 0.733364
0.699916 0.926909 0.865385
0.703548 0.926757 0.864836
0.718837 0.926329 0.862608
0.747005 0.925933 0.858274
0.750027 0.926726 0.830228
0.800595 0.923278 0.810819
0.865629 0.921965 0.821073
0.917052 0.923095 0.845762
0.000000 0.122042 0.378149
0.000000 0.123873 0.382208
0.000000 0.132235 0.392706
0.277440 0.148745 0.412177
0.485908 0.000000 0.429450
0.744259 0.000000 0.450202
0.844053 0.000000 0.358221
0.939574 0.000000 0.274876
0.000000 0.141695 0.391150
0.000000 0.144320 0.395331
0.000000 0.153689 0.405310
0.287877 0.173281 0.421881
0.496223 0.102388 0.438483
0.743496 0.000000 0.452155
0.842039 0.000000 0.358526
0.935546 0.000000 0.280583
0.000000 0.215091 0.415656
0.000000 0.217990 0.420844
0.000000 0.223636 0.431312
0.310948 0.255100 0.450446
0.518975 0.235080 0.463539
0.725154 0.174319 0.448798
0.827329 0.000000 0.354253
0.917327 0.000000 0.298039
0.000000 0.328771 0.455695
0.000000 0.331426 0.456214
0.000000 0.343633 0.460456
0.312688 0.381201 0.489693
0.550805 0.407355 0.511711
0.705989 0.352026 0.450782
0.805997 0.314183 0.377569
0.946197 0.318730 0.324224
0.000000 0.514061 0.549310
0.000000 0.517388 0.550591
0.175265 0.528740 0.553857
0.396063 0.550744 0.561242
0.553582 0.575830 0.564935
0.720394 0.558923 0.504021
0.850950 0.537652 0.441138
0.966949 0.528099 0.369757
0.325872 0.727474 0.721004
0.344884 0.727535 0.719478
0.403754 0.724971 0.709926
0.490455 0.722530 0.691524
0.573266 0.723507 0.646601
0.714168 0.725490 0.660060
0.848936 0.742855 0.615167
0.972076 0.727901 0.490700
0.537072 0.845731 0.811856
0.541558 0.845029 0.809842
0.564141 0.843687 0.803799
0.615808 0.843442 0.794705
0.673762 0.841947 0.771786
0.739986 0.834531 0.727687
0.829618 0.837308 0.761410
0.915709 0.855222 0.753780
0.685969 0.924498 0.883207
0.689906 0.924315 0.882689
0.706661 0.923827 0.880613
0.741482 0.924834 0.879088
0.779812 0.924437 0.871855
0.798917 0.923613 0.842344
0.862608 0.920989 0.838682
0.916075 0.922271 0.861631
0.000000 0.153689 0.551324
0.000000 0.156161 0.555169
0.000000 0.163577 0.565606
0.315190 0.177676 0.589410
0.550439 0.185916 0.614740
0.746242 0.000000 0.627436
0.925353 0.142184 0.648219
1.000000 0.000000 0.553948
0.000000 0.172061 0.550591
0.000000 0.174319 0.553216
0.000000 0.182620 0.564324
0.314214 0.199252 0.586664
0.545647 0.215702 0.610925
0.739803 0.126436 0.624323
0.917876 0.189090 0.644038
0.998352 0.000000 0.549371
0.000000 0.241184 0.576623
0.000000 0.244266 0.579065
0.000000 0.257328 0.590570
0.333318 0.282322 0.607935
0.568017 0.328985 0.634760
0.747005 0.295628 0.644007
0.905760 0.328985 0.649348
0.989441 0.228733 0.551934
0.000000 0.355688 0.582147
0.000000 0.359319 0.586175
0.000000 0.379980 0.607660
0.338720 0.413092 0.641535
0.593622 0.484840 0.675105
0.754696 0.481453 0.683223
0.885191 0.476295 0.661769
0.975219 0.376715 0.553552
0.000000 0.515068 0.644312
0.000000 0.516533 0.644312
0.000000 0.523735 0.645472
0.291722 0.537591 0.648798
0.559136 0.583917 0.681666
0.735317 0.617639 0.705501
0.845182 0.561181 0.639796
0.933654 0.485939 0.529961
0.272007 0.677821 0.724880
0.304143 0.680964 0.727047
0.387732 0.685969 0.728084
0.501152 0.696376 0.730922
0.620203 0.713039 0.737118
0.724727 0.732815 0.742428
0.843778 0.714931 0.689387
0.950530 0.691157 0.621881
0.593042 0.839597 0.852323
0.602655 0.841184 0.853788
0.632654 0.844877 0.856931
0.666651 0.848722 0.855436
0.710567 0.847898 0.843809
0.751614 0.844755 0.810575
0.836088 0.843229 0.814969
0.926574 0.854612 0.785519
0.713710 0.924498 0.914092
0.715175 0.924193 0.913329
0.724941 0.924102 0.911345
0.746090 0.924865 0.908110
0.778317 0.925200 0.901701
0.819272 0.924712 0.889677
0.859129 0.921508 0.863035
0.917662 0.923674 0.885130
0.000000 0.200229 0.724788
0.000000 0.203342 0.729397
0.000000 0.210391 0.735805
0.363226 0.228061 0.751064
0.595178 0.276646 0.770077
0.761532 0.301366 0.778958
0.901518 0.273472 0.779324
1.000000 0.374609 0.775601
0.000000 0.212894 0.714168
0.000000 0.216648 0.719661
0.000000 0.224460 0.726711
0.348943 0.241154 0.740078
0.580163 0.285649 0.758633
0.745754 0.307591 0.766262
0.886076 0.272374 0.765194
0.990448 0.360204 0.761776
0.000000 0.280217 0.728817
0.000000 0.282902 0.730526
0.000000 0.293004 0.735622
0.358923 0.317174 0.748013
0.583917 0.367529 0.764279
0.748043 0.409155 0.775662
0.885679 0.396063 0.779538
0.985779 0.472328 0.782467
0.000000 0.401007 0.737392
0.000000 0.403021 0.738735
0.000000 0.401099 0.746334
0.353002 0.431098 0.760891
0.588251 0.487861 0.778561
0.755703 0.556054 0.797208
0.877470 0.548241 0.800870
0.970581 0.588617 0.802213
0.000000 0.505821 0.732021
0.000000 0.503319 0.729122
0.000000 0.500694 0.724575
0.221042 0.525353 0.745113
0.544182 0.575036 0.774868
0.740505 0.652522 0.802457
0.853819 0.651759 0.808103
0.949981 0.659876 0.802152
0.000000 0.661341 0.785641
0.000000 0.662348 0.785855
0.173648 0.664942 0.785550
0.358099 0.670069 0.784878
0.505119 0.675929 0.782681
0.713893 0.724514 0.812955
0.846647 0.762539 0.837064
0.929686 0.715541 0.790005
0.497993 0.797086 0.846799
0.509514 0.798642 0.847868
0.544274 0.801022 0.848264
0.606104 0.806699 0.849851
0.681788 0.814542 0.851591
0.764706 0.827207 0.855955
0.836790 0.841917 0.859983
0.924315 0.822171 0.815152
0.719326 0.910552 0.925536
0.723751 0.911254 0.926055
0.743618 0.914916 0.928862
0.773861 0.919768 0.932280
0.807340 0.926696 0.935821
0.835752 0.927703 0.929503
0.864805 0.926726 0.910857
0.921233 0.926329 0.913085
0.000000 0.273381 0.853422
0.000000 0.276799 0.855253
0.212924 0.283146 0.855772
0.438758 0.306828 0.862333
0.624018 0.357397 0.870237
0.779629 0.447913 0.878264
0.891081 0.453346 0.880613
0.988495 0.444648 0.876677
0.000000 0.282170 0.847623
0.000000 0.285740 0.849607
0.197604 0.293767 0.851835
0.429084 0.316106 0.857816
0.616297 0.365118 0.865995
0.773312 0.452827 0.874479
0.884520 0.456703 0.876066
0.982696 0.443763 0.871580
0.000000 0.333745 0.846525
0.000000 0.336492 0.847562
0.165927 0.345312 0.849241
0.427405 0.376013 0.858915
0.611933 0.422797 0.865507
0.766293 0.500755 0.872770
0.876188 0.516197 0.875792
0.972900 0.502983 0.872404
0.000000 0.418128 0.844816
0.000000 0.416541 0.846647
0.000000 0.426368 0.849363
0.393103 0.455634 0.856596
0.597803 0.504814 0.865293
0.758572 0.577935 0.874937
0.867094 0.610132 0.880949
0.959380 0.597772 0.879423
0.000000 0.509453 0.831846
0.000000 0.512016 0.834073
0.000000 0.516197 0.838102
0.291844 0.541070 0.849454
0.543786 0.573449 0.860319
0.732174 0.638544 0.872740
0.853178 0.694484 0.884947
0.942657 0.687556 0.886961
0.000000 0.638514 0.849699
0.000000 0.636042 0.848051
0.000000 0.629145 0.843503
0.000000 0.619501 0.837949
0.379644 0.631708 0.846311
0.686061 0.699397 0.874876
0.850858 0.783749 0.900755
0.933379 0.788205 0.906859
0.348638 0.788510 0.894865
0.358190 0.788235 0.894469
0.396674 0.787503 0.893095
0.467506 0.788113 0.891783
0.555138 0.788815 0.889677
0.650355 0.788418 0.886442
0.819608 0.826108 0.904753
0.924071 0.860227 0.921202
0.646693 0.885435 0.929168
0.649897 0.885405 0.928954
0.666468 0.886412 0.928954
0.700679 0.889647 0.929870
0.746609 0.894224 0.930816
0.801328 0.900633 0.932006
0.864012 0.910826 0.934752
0.918639 0.921965 0.937316
