20 Preset/Japan Style/【3】LUT video cho PR-AE-FCPX/LUT VIDEO (2)/Japan Style LUT (14).cube
# Created by Adobe Lightroom plugin Export LUT (1.24.0)
# www.johnrellis.com/lightroom/exportlut.htm
# Preset: 14日系清新（素材江湖）
# Color profile: C:\Program Files (x86)\Common Files\Adobe\Color\Profiles\Recommended\VideoHD.icc
LUT_3D_SIZE 5
DOMAIN_MIN 0.000000 0.000000 0.000000
DOMAIN_MAX 0.903226 0.903226 0.903226
0.162783 0.151125 0.167880
0.273472 0.165011 0.165499
0.661769 0.263737 0.105165
0.952789 0.355901 0.000000
1.000000 0.402136 0.000000
0.118776 0.268345 0.202182
0.269291 0.278630 0.169528
0.647578 0.390173 0.000000
0.935851 0.442023 0.000000
1.000000 0.456733 0.000000
0.000000 0.651698 0.435462
0.321294 0.651362 0.449592
0.574121 0.644404 0.259678
0.884062 0.639063 0.000000
1.000000 0.622431 0.000000
0.560784 0.819211 0.686061
0.586023 0.819730 0.687953
0.684596 0.817990 0.704707
0.736507 0.812222 0.511131
0.972259 0.792538 0.153750
0.752529 0.888121 0.815763
0.758846 0.888090 0.816220
0.791409 0.885832 0.823789
0.813291 0.888090 0.809689
0.847166 0.892454 0.714839
0.167849 0.149416 0.255253
0.269688 0.141146 0.251438
0.651423 0.191592 0.258824
0.937499 0.333898 0.238315
1.000000 0.399786 0.233646
0.120027 0.260380 0.292332
0.283085 0.276493 0.280766
0.642237 0.358343 0.237461
0.924956 0.421698 0.213931
1.000000 0.451606 0.220859
0.258091 0.633631 0.505974
0.350805 0.640406 0.494942
0.575769 0.632898 0.369787
0.876860 0.630121 0.155398
1.000000 0.616175 0.146181
0.593317 0.815763 0.709895
0.615839 0.816861 0.711330
0.713375 0.816739 0.735103
0.747951 0.810269 0.567102
0.969177 0.791043 0.289677
0.761990 0.887785 0.823697
0.767941 0.887785 0.824002
0.799374 0.887175 0.831662
0.823575 0.888548 0.822202
0.853758 0.892699 0.736110
0.182284 0.115938 0.578546
0.338903 0.093690 0.567956
0.633539 0.000000 0.561334
0.945556 0.244877 0.540917
1.000000 0.509850 0.603632
0.000000 0.274296 0.589532
0.275608 0.264836 0.580377
0.640528 0.277653 0.567132
0.915160 0.402716 0.559716
1.000000 0.538323 0.598291
0.000000 0.568231 0.625971
0.220920 0.589715 0.632471
0.625422 0.616693 0.620233
0.857115 0.629694 0.547417
0.997192 0.634943 0.561303
0.627955 0.801694 0.761929
0.669093 0.801450 0.767178
0.738247 0.811124 0.774411
0.783658 0.805081 0.704189
0.954192 0.787900 0.549004
0.784939 0.886107 0.847593
0.791043 0.886503 0.847776
0.813626 0.887816 0.849485
0.851164 0.888457 0.855833
0.869169 0.890959 0.787594
0.225437 0.114534 0.810788
0.352605 0.111086 0.807401
0.618952 0.130404 0.791257
0.899657 0.207736 0.786313
1.000000 0.487770 0.747799
0.128237 0.268345 0.809049
0.319524 0.270817 0.805325
0.612818 0.290929 0.789548
0.883818 0.359686 0.779355
1.000000 0.551293 0.757046
0.000000 0.529137 0.797055
0.285283 0.538293 0.793759
0.603479 0.571466 0.782193
0.839322 0.613428 0.772274
0.954559 0.691676 0.784390
0.434974 0.754360 0.806851
0.486458 0.758236 0.806943
0.653559 0.779721 0.810513
0.818967 0.795041 0.812833
0.930083 0.792386 0.773159
0.741909 0.884916 0.866545
0.758938 0.884825 0.867857
0.818143 0.885649 0.875273
0.869841 0.891173 0.883635
0.891295 0.890867 0.851896
0.303380 0.191775 0.916838
0.376654 0.198245 0.915068
0.576928 0.236057 0.908904
0.809018 0.326268 0.895109
1.000000 0.427497 0.890929
0.300816 0.287297 0.913176
0.376410 0.293431 0.911620
0.578546 0.324010 0.905241
0.806027 0.395270 0.891356
0.993408 0.483803 0.886870
0.309117 0.493385 0.906310
0.407568 0.508476 0.903624
0.605585 0.539635 0.896086
0.799527 0.573266 0.883482
0.957580 0.639979 0.879820
0.430823 0.685786 0.896422
0.472206 0.690120 0.895171
0.611170 0.712032 0.891783
0.797391 0.752560 0.885130
0.923339 0.791897 0.885344
0.636439 0.849546 0.897185
0.654627 0.851225 0.897063
0.724392 0.859525 0.898009
0.815122 0.872282 0.899992
0.910246 0.888273 0.906188
