20 Preset/Japan Style/【3】LUT video cho PR-AE-FCPX/LUT VIDEO (2)/Japan Style LUT (40).cube
# Created by Adobe Lightroom plugin Export LUT (1.24.0)
# www.johnrellis.com/lightroom/exportlut.htm
# Preset: 40日系自然（素材江湖）
# Color profile: C:\Program Files (x86)\Common Files\Adobe\Color\Profiles\Recommended\VideoHD.icc
LUT_3D_SIZE 8
DOMAIN_MIN 0.000000 0.000000 0.000000
DOMAIN_MAX 0.903226 0.903226 0.903226
0.120760 0.156497 0.138705
0.138918 0.159335 0.140230
0.238132 0.165774 0.142824
0.479530 0.154971 0.135073
0.742641 0.131807 0.109865
0.907439 0.187991 0.084657
1.000000 0.281621 0.128847
1.000000 0.384161 0.233280
0.117830 0.174472 0.142306
0.137728 0.179355 0.139925
0.235966 0.190951 0.139315
0.465827 0.205020 0.126802
0.726070 0.211765 0.092470
0.896483 0.244938 0.030457
1.000000 0.306676 0.108644
1.000000 0.393133 0.220676
0.000000 0.282689 0.145846
0.000000 0.287541 0.140749
0.251133 0.314794 0.102663
0.488014 0.348058 0.000000
0.716548 0.372900 0.000000
0.887144 0.389929 0.000000
0.996948 0.416114 0.018341
1.000000 0.466316 0.226139
0.000000 0.527733 0.151522
0.000000 0.526940 0.150881
0.161593 0.537804 0.000000
0.519036 0.557977 0.000000
0.741299 0.546014 0.000000
0.880491 0.536431 0.000000
0.979309 0.533532 0.000000
1.000000 0.554742 0.221897
0.000000 0.697505 0.315343
0.000000 0.696468 0.320806
0.282139 0.697688 0.278172
0.493355 0.698756 0.150179
0.713710 0.691981 0.000000
0.861875 0.651179 0.000000
0.960357 0.638849 0.000000
1.000000 0.646326 0.209140
0.439734 0.788968 0.495644
0.458869 0.790585 0.503685
0.493111 0.790555 0.489906
0.557671 0.791165 0.430365
0.673671 0.788876 0.315892
0.828153 0.782742 0.000000
0.949248 0.745327 0.000000
1.000000 0.745785 0.218540
0.616205 0.863554 0.640986
0.622705 0.863737 0.643824
0.639216 0.863188 0.642451
0.662959 0.864164 0.612055
0.711513 0.864256 0.554742
0.796292 0.863859 0.455604
0.908202 0.861479 0.356512
1.000000 0.839445 0.280552
0.737392 0.925261 0.755978
0.740078 0.925109 0.756954
0.751614 0.924712 0.761593
0.764034 0.926329 0.747219
0.780911 0.925200 0.711757
0.828946 0.926848 0.694026
0.890898 0.928161 0.669642
0.961395 0.928466 0.630884
0.122499 0.162264 0.157992
0.138338 0.164706 0.155428
0.237949 0.165469 0.155337
0.459541 0.178805 0.142580
0.719448 0.198795 0.097871
0.892149 0.230838 0.043305
0.998810 0.291997 0.108370
1.000000 0.377478 0.213169
0.116335 0.180972 0.160250
0.141329 0.183200 0.159701
0.241215 0.195010 0.156466
0.461097 0.217105 0.136934
0.714046 0.247471 0.069551
0.886595 0.273838 0.000000
0.992096 0.317998 0.091402
1.000000 0.389899 0.204959
0.000000 0.297826 0.171664
0.060334 0.296544 0.174990
0.256748 0.317876 0.140078
0.485786 0.345892 0.087678
0.707973 0.376837 0.000000
0.874174 0.394171 0.000000
0.982696 0.413275 0.000000
1.000000 0.457710 0.204105
0.000000 0.526482 0.200443
0.000000 0.525292 0.206851
0.188083 0.535210 0.157870
0.506554 0.547295 0.000000
0.721492 0.532952 0.000000
0.862577 0.527550 0.000000
0.965301 0.524773 0.000000
1.000000 0.544640 0.195132
0.112612 0.695216 0.347631
0.185061 0.693751 0.351629
0.315923 0.693141 0.327245
0.494545 0.692683 0.225406
0.705257 0.684810 0.000000
0.853330 0.645136 0.000000
0.954009 0.633570 0.000000
1.000000 0.640284 0.188876
0.453254 0.785000 0.507469
0.466133 0.784756 0.511192
0.503288 0.784512 0.507530
0.563165 0.785824 0.454108
0.673335 0.784421 0.352270
0.824765 0.779629 0.113375
0.946532 0.741909 0.000000
1.000000 0.741634 0.204471
0.617182 0.859983 0.643000
0.621393 0.859281 0.643793
0.640009 0.858396 0.646998
0.663264 0.859739 0.618677
0.711757 0.860899 0.566552
0.794186 0.860533 0.472999
0.905486 0.857572 0.340398
1.000000 0.834379 0.259068
0.735409 0.923247 0.755032
0.739071 0.923430 0.756924
0.750423 0.922972 0.761410
0.763790 0.924407 0.749905
0.787106 0.926268 0.724117
0.829984 0.927214 0.695338
0.890684 0.927764 0.668025
0.961486 0.927977 0.628534
0.070222 0.175998 0.277104
0.133913 0.177981 0.274510
0.253788 0.192782 0.262760
0.484169 0.187961 0.290623
0.756558 0.177493 0.273594
0.901061 0.286198 0.253147
0.997284 0.354223 0.224033
1.000000 0.406592 0.219242
0.062440 0.209934 0.281437
0.129488 0.207065 0.279698
0.263981 0.226871 0.271122
0.496864 0.236240 0.295689
0.748013 0.247135 0.272496
0.893736 0.322240 0.252781
0.991272 0.371344 0.218387
1.000000 0.417243 0.211795
0.000000 0.332799 0.300389
0.000000 0.338201 0.301823
0.311986 0.368383 0.313115
0.532006 0.376898 0.290593
0.738918 0.400671 0.269230
0.882536 0.425666 0.244907
0.981506 0.446693 0.214664
1.000000 0.472572 0.208255
0.016541 0.559442 0.362005
0.222599 0.562066 0.373877
0.336461 0.562768 0.375372
0.545312 0.568841 0.292546
0.738674 0.550866 0.244724
0.866972 0.545647 0.232334
0.965209 0.545525 0.213993
1.000000 0.554284 0.206271
0.362890 0.700710 0.464149
0.379950 0.700191 0.465156
0.458656 0.697932 0.483070
0.553124 0.698878 0.431769
0.719875 0.692561 0.311925
0.855070 0.655329 0.209262
0.951598 0.644251 0.199619
1.000000 0.644038 0.199588
0.530541 0.785214 0.574365
0.540490 0.785214 0.577508
0.576532 0.784115 0.588800
0.618067 0.784482 0.563989
0.695918 0.783566 0.492714
0.824552 0.779629 0.369268
0.941619 0.745846 0.196384
1.000000 0.742611 0.214481
0.652430 0.860868 0.679530
0.656214 0.860319 0.680293
0.673487 0.859037 0.685328
0.696864 0.859037 0.675563
0.733639 0.859922 0.634546
0.803067 0.860136 0.564935
0.905760 0.858640 0.440223
1.000000 0.835508 0.269383
0.749142 0.923217 0.771664
0.751247 0.922942 0.772152
0.762020 0.922484 0.776242
0.779568 0.923400 0.777127
0.798764 0.925261 0.754665
0.834836 0.927153 0.717647
0.892576 0.928344 0.669490
0.963531 0.928527 0.629786
0.000000 0.204776 0.507988
0.000000 0.209262 0.509422
0.283726 0.231235 0.506310
0.510704 0.291997 0.501183
0.712123 0.320867 0.511467
0.871885 0.438636 0.531029
0.966949 0.495064 0.523339
1.000000 0.526513 0.506737
0.000000 0.248844 0.513787
0.000000 0.254246 0.513481
0.297551 0.279240 0.511345
0.520073 0.338231 0.507927
0.716518 0.366186 0.518395
0.869017 0.468482 0.538628
0.963684 0.507103 0.523796
1.000000 0.535332 0.507500
0.000000 0.393713 0.513848
0.000000 0.399359 0.516747
0.325078 0.412329 0.523919
0.543053 0.463935 0.523796
0.730953 0.497963 0.545464
0.866178 0.547967 0.559380
0.956176 0.562097 0.539666
1.000000 0.574884 0.517967
0.000000 0.570092 0.545251
0.000000 0.572656 0.546227
0.378973 0.584863 0.553735
0.612634 0.613489 0.579156
0.743984 0.607355 0.556207
0.850645 0.609491 0.542107
0.940734 0.614893 0.528923
1.000000 0.621759 0.509880
0.422522 0.711086 0.583154
0.457649 0.710597 0.588067
0.571740 0.710750 0.612573
0.650507 0.712886 0.629969
0.740536 0.708736 0.568994
0.844968 0.687221 0.529564
0.930999 0.684108 0.519646
1.000000 0.687282 0.505547
0.636255 0.789700 0.674311
0.642542 0.791470 0.676326
0.655299 0.791806 0.674250
0.696529 0.791958 0.686885
0.738155 0.791043 0.651240
0.827207 0.786007 0.578210
0.925078 0.762692 0.505608
1.000000 0.764553 0.498116
0.694942 0.862272 0.728206
0.697444 0.862577 0.728450
0.713863 0.862577 0.733791
0.743587 0.862516 0.744961
0.769314 0.862913 0.725063
0.818021 0.862486 0.677394
0.901213 0.860319 0.597986
0.994659 0.840177 0.477333
0.770535 0.924834 0.799222
0.772915 0.924712 0.799954
0.782925 0.924315 0.803464
0.801816 0.923857 0.810849
0.819120 0.924743 0.801968
0.846006 0.926665 0.772702
0.894621 0.928405 0.725582
0.965972 0.929473 0.643153
0.000000 0.283482 0.691920
0.000000 0.291539 0.692653
0.289128 0.322789 0.691463
0.524041 0.387121 0.690150
0.706783 0.477485 0.689204
0.825437 0.499977 0.683253
0.924193 0.577874 0.694209
0.990204 0.650202 0.722469
0.000000 0.332006 0.692103
0.000000 0.339544 0.693202
0.316564 0.366918 0.692439
0.533410 0.422461 0.690089
0.709194 0.502647 0.690578
0.824613 0.521935 0.685939
0.922148 0.591577 0.697963
0.988495 0.658534 0.725429
0.201633 0.472053 0.688808
0.238285 0.470069 0.689570
0.378485 0.479896 0.690272
0.563104 0.520439 0.691371
0.716182 0.573297 0.693477
0.820859 0.586145 0.693111
0.915129 0.635523 0.709407
0.981964 0.686763 0.733913
0.269352 0.582300 0.681697
0.314916 0.585229 0.681788
0.460060 0.600397 0.688411
0.611566 0.623590 0.700801
0.738125 0.658442 0.708797
0.828946 0.670497 0.716365
0.912230 0.699794 0.731624
0.985565 0.698970 0.713130
0.420478 0.696101 0.703334
0.446021 0.697322 0.704280
0.533867 0.702266 0.707576
0.652461 0.713710 0.716548
0.768490 0.735775 0.735744
0.836454 0.729458 0.719081
0.908843 0.729335 0.706355
0.980316 0.733761 0.694087
0.564172 0.788998 0.709651
0.580224 0.789029 0.711971
0.636652 0.788907 0.720485
0.720455 0.791653 0.740566
0.775387 0.796628 0.755825
0.830076 0.793790 0.716304
0.906096 0.782681 0.687007
0.976257 0.787625 0.679194
0.725551 0.860746 0.778408
0.731441 0.860472 0.779782
0.754696 0.860502 0.786496
0.768856 0.862974 0.785031
0.801572 0.864927 0.795682
0.830716 0.864134 0.767056
0.895079 0.860655 0.712367
0.973754 0.847135 0.653010
0.789578 0.922515 0.828275
0.790799 0.922545 0.828122
0.796262 0.922728 0.827817
0.812100 0.923980 0.832212
0.838468 0.923735 0.842557
0.857908 0.925292 0.826871
0.894896 0.927001 0.791348
0.957488 0.927947 0.731716
0.172671 0.415045 0.804227
0.236545 0.422217 0.804257
0.383917 0.447425 0.802060
0.551415 0.496162 0.800626
0.703883 0.557244 0.798978
0.818235 0.616632 0.798276
0.890410 0.622858 0.793515
0.966155 0.680293 0.808194
0.232944 0.444800 0.799405
0.276219 0.450141 0.799069
0.402533 0.471717 0.797696
0.557244 0.513207 0.796445
0.703761 0.567498 0.795285
0.816068 0.623590 0.795712
0.887816 0.629938 0.791958
0.964141 0.684535 0.807309
0.367956 0.537377 0.797116
0.391943 0.540581 0.796994
0.477546 0.554498 0.796567
0.595514 0.578698 0.794583
0.720058 0.616968 0.794980
0.819669 0.661189 0.797635
0.887083 0.667597 0.797208
0.960876 0.711696 0.813199
0.484962 0.631220 0.790616
0.503807 0.633906 0.790677
0.574365 0.646754 0.792966
0.647822 0.656062 0.797299
0.747372 0.683192 0.800992
0.829862 0.717067 0.806332
0.891020 0.724208 0.810239
0.958587 0.755795 0.825223
0.519036 0.695277 0.784695
0.533227 0.696590 0.784604
0.584894 0.702235 0.784970
0.669764 0.715877 0.789914
0.759670 0.736233 0.802487
0.836118 0.765805 0.811978
0.895903 0.774380 0.819333
0.957336 0.796902 0.831449
0.589258 0.776944 0.797635
0.600366 0.778225 0.798672
0.636988 0.780789 0.799893
0.696712 0.786679 0.803281
0.770138 0.797971 0.810849
0.852445 0.821561 0.829648
0.903716 0.817258 0.817411
0.960937 0.818753 0.807736
0.642481 0.864073 0.806729
0.649470 0.864775 0.807279
0.683589 0.864958 0.810849
0.741665 0.866026 0.818906
0.812772 0.869657 0.834897
0.859525 0.875120 0.848844
0.897063 0.869413 0.812070
0.958923 0.862333 0.786404
0.775753 0.924102 0.853269
0.779507 0.923857 0.853819
0.796994 0.923369 0.857389
0.829709 0.923430 0.866239
0.851469 0.924834 0.868742
0.878019 0.926085 0.877226
0.900084 0.927550 0.856107
0.950469 0.927977 0.813993
0.457954 0.554711 0.881559
0.475929 0.558892 0.881590
0.535943 0.572107 0.880156
0.629328 0.596857 0.878172
0.730251 0.629633 0.875486
0.822080 0.670039 0.873106
0.891569 0.711391 0.872129
0.942748 0.711177 0.872129
0.472908 0.567559 0.878416
0.489631 0.571527 0.878660
0.545525 0.583062 0.877501
0.632715 0.604517 0.875395
0.730434 0.635065 0.872953
0.820401 0.673213 0.870634
0.889128 0.712917 0.869657
0.939635 0.711910 0.869047
0.532219 0.616632 0.875669
0.543542 0.618555 0.875486
0.586786 0.626276 0.874418
0.659144 0.642084 0.873014
0.743679 0.665858 0.871183
0.825406 0.698512 0.870268
0.890501 0.735378 0.871275
0.937102 0.735470 0.870481
0.611872 0.683955 0.871336
0.616052 0.683162 0.871122
0.635218 0.681636 0.871153
0.690272 0.691737 0.871092
0.761685 0.710384 0.870756
0.833951 0.737881 0.871794
0.893156 0.770108 0.874632
0.936248 0.771328 0.874876
0.618372 0.727199 0.863523
0.626123 0.727901 0.863310
0.658564 0.732540 0.863737
0.714473 0.743374 0.866178
0.769253 0.751766 0.869047
0.837705 0.775204 0.871855
0.894621 0.804532 0.876890
0.938964 0.811093 0.881987
0.637415 0.781918 0.863706
0.643366 0.782437 0.863706
0.667048 0.784390 0.863462
0.708705 0.788418 0.863279
0.767727 0.796933 0.865202
0.840848 0.816770 0.876097
0.901457 0.846738 0.885283
0.944945 0.854826 0.891508
0.671656 0.850797 0.873716
0.676905 0.851316 0.873991
0.696590 0.852293 0.874113
0.733242 0.854826 0.874846
0.783719 0.859525 0.876646
0.844694 0.869169 0.881956
0.911254 0.889952 0.897002
0.950622 0.886076 0.887022
0.706050 0.925261 0.883757
0.710048 0.925444 0.883757
0.727047 0.926329 0.884062
0.756954 0.927611 0.883787
0.815427 0.927245 0.889311
0.879240 0.928435 0.901335
0.917845 0.932250 0.912932
0.947295 0.930602 0.885466
0.664363 0.679591 0.940215
0.671077 0.681361 0.940124
0.694759 0.686671 0.938933
0.738216 0.698787 0.937377
0.793027 0.716701 0.935027
0.850431 0.740291 0.932097
0.903258 0.770291 0.929351
0.943633 0.799313 0.927245
0.667597 0.684291 0.938933
0.674220 0.686122 0.938872
0.697627 0.691432 0.937926
0.739590 0.702724 0.936370
0.793393 0.719905 0.934112
0.850156 0.742885 0.931304
0.902464 0.771817 0.928527
0.942748 0.800168 0.926421
0.684810 0.706416 0.936919
0.690211 0.707668 0.936767
0.710780 0.711971 0.935882
0.750149 0.722774 0.934997
0.799222 0.737270 0.932891
0.852476 0.757321 0.930236
0.902800 0.783993 0.927947
0.942046 0.810666 0.926390
0.707485 0.741146 0.934325
0.710597 0.741146 0.934417
0.726406 0.743160 0.933959
0.760891 0.751400 0.933074
0.806363 0.764096 0.931548
0.856413 0.781765 0.929717
0.904234 0.805356 0.928130
0.941802 0.829862 0.927398
0.726314 0.782589 0.930938
0.730892 0.783474 0.931029
0.747311 0.785885 0.930816
0.769314 0.785702 0.931121
0.807706 0.792203 0.930388
0.856992 0.807553 0.929107
0.904509 0.828977 0.928435
0.941863 0.852750 0.928954
0.714748 0.818021 0.927977
0.718166 0.817990 0.927825
0.733608 0.818631 0.927520
0.764096 0.821530 0.927642
0.808377 0.828397 0.928618
0.854643 0.837125 0.930205
0.906218 0.858610 0.931121
0.944274 0.881834 0.933257
0.730617 0.866789 0.931579
0.733303 0.866789 0.931426
0.744991 0.866941 0.930938
0.768185 0.867826 0.930266
0.802090 0.869596 0.929351
0.847105 0.874022 0.929015
0.904601 0.888487 0.933928
0.947631 0.910979 0.938231
0.754421 0.919677 0.937469
0.756741 0.919677 0.937377
0.767453 0.919890 0.937194
0.788815 0.920592 0.937072
0.819883 0.921782 0.936797
0.859281 0.923919 0.936614
0.905150 0.928771 0.937896
0.954406 0.942504 0.946746
