20 Preset/Japan Style/【3】LUT video cho PR-AE-FCPX/LUT VIDEO (2)/Japan Style LUT (11).cube
# Created by Adobe Lightroom plugin Export LUT (1.24.0)
# www.johnrellis.com/lightroom/exportlut.htm
# Preset: 11日系清新（素材江湖）
# Color profile: C:\Program Files (x86)\Common Files\Adobe\Color\Profiles\Recommended\VideoHD.icc
LUT_3D_SIZE 8
DOMAIN_MIN 0.000000 0.000000 0.000000
DOMAIN_MAX 0.903226 0.903226 0.903226
0.000000 0.011994 0.014374
0.018769 0.025086 0.023316
0.259525 0.000000 0.040894
0.571466 0.000000 0.024262
0.860258 0.000000 0.000000
1.000000 0.000000 0.000000
1.000000 0.000000 0.000000
1.000000 0.000000 0.128084
0.000000 0.082704 0.072938
0.000000 0.084413 0.060731
0.246372 0.096437 0.023407
0.551507 0.000000 0.000000
0.842954 0.000000 0.000000
1.000000 0.000000 0.000000
1.000000 0.000000 0.000000
1.000000 0.150790 0.107210
0.000000 0.208927 0.160739
0.000000 0.198093 0.168551
0.159548 0.216373 0.133364
0.513512 0.285527 0.000000
0.805905 0.282628 0.000000
0.995056 0.270726 0.000000
1.000000 0.294682 0.000000
1.000000 0.339452 0.000000
0.000000 0.421790 0.321752
0.009064 0.418494 0.336309
0.274479 0.363745 0.359655
0.395789 0.446143 0.268162
0.750790 0.525902 0.000000
0.946990 0.523980 0.000000
1.000000 0.509514 0.000000
1.000000 0.504143 0.000000
0.092988 0.625086 0.505058
0.228397 0.622553 0.513634
0.379706 0.596612 0.525231
0.465736 0.563134 0.544915
0.611810 0.642115 0.440833
0.866636 0.678462 0.261326
1.000000 0.668544 0.000000
1.000000 0.649500 0.000000
0.418891 0.752163 0.649592
0.454017 0.752163 0.656703
0.538476 0.742123 0.669978
0.609125 0.709255 0.680720
0.631861 0.714168 0.673732
0.758267 0.761715 0.599756
0.931945 0.780514 0.479255
1.000000 0.766934 0.232059
0.607019 0.830472 0.754757
0.622034 0.829648 0.757839
0.674739 0.825071 0.769223
0.709804 0.810636 0.770138
0.755367 0.783108 0.784482
0.760952 0.805966 0.764309
0.854032 0.831235 0.712856
0.965820 0.839109 0.632227
0.751217 0.876616 0.831327
0.758267 0.876005 0.832822
0.786069 0.873747 0.839506
0.813016 0.868315 0.844175
0.832456 0.855772 0.845884
0.854398 0.843595 0.855650
0.861112 0.864317 0.837858
0.919310 0.879149 0.804501
0.000000 0.035157 0.091981
0.000000 0.039368 0.081788
0.251377 0.000000 0.074739
0.538201 0.000000 0.010376
0.834257 0.000000 0.000000
1.000000 0.000000 0.000000
1.000000 0.000000 0.000000
1.000000 0.098665 0.107301
0.000000 0.095369 0.104952
0.000000 0.101137 0.105501
0.243503 0.104707 0.093111
0.532860 0.000000 0.006104
0.824918 0.000000 0.000000
1.000000 0.000000 0.000000
1.000000 0.000000 0.000000
1.000000 0.178103 0.080476
0.000000 0.227970 0.181430
0.000000 0.226749 0.191958
0.176120 0.233524 0.173373
0.511437 0.287877 0.000000
0.795468 0.293797 0.000000
0.982208 0.293065 0.000000
1.000000 0.305791 0.000000
1.000000 0.342229 0.000000
0.000000 0.429755 0.331456
0.000000 0.427405 0.342290
0.278386 0.385382 0.370825
0.394690 0.446845 0.297124
0.736049 0.517388 0.000000
0.934051 0.514885 0.000000
1.000000 0.506371 0.000000
1.000000 0.501518 0.000000
0.000000 0.628992 0.509209
0.190524 0.626093 0.515984
0.381048 0.604669 0.532830
0.473823 0.562158 0.553216
0.607294 0.639124 0.455268
0.859617 0.674952 0.290837
1.000000 0.665705 0.000000
1.000000 0.647791 0.000000
0.401984 0.752163 0.648524
0.435370 0.750607 0.653346
0.535668 0.742580 0.671260
0.605829 0.711238 0.679927
0.633448 0.712673 0.677302
0.756832 0.761135 0.608331
0.928985 0.779995 0.493202
1.000000 0.766262 0.262242
0.596399 0.829953 0.752682
0.610193 0.828611 0.754818
0.664424 0.824033 0.765805
0.706844 0.810513 0.769314
0.753872 0.784024 0.783658
0.760525 0.804837 0.765652
0.852079 0.830137 0.715053
0.963806 0.838132 0.635767
0.744503 0.876371 0.829587
0.752407 0.875944 0.831388
0.780758 0.873564 0.837949
0.811673 0.868406 0.843992
0.834562 0.857725 0.847715
0.856535 0.844144 0.857237
0.861723 0.864378 0.839292
0.919249 0.879240 0.806638
0.000000 0.081117 0.205081
0.000000 0.081575 0.200839
0.186252 0.084810 0.182681
0.529259 0.000000 0.195529
0.841276 0.000000 0.178683
1.000000 0.000000 0.111269
1.000000 0.126741 0.000000
1.000000 0.231174 0.062776
0.000000 0.119387 0.224155
0.000000 0.125032 0.227390
0.201328 0.134401 0.208682
0.534691 0.000000 0.213626
0.829740 0.000000 0.191043
1.000000 0.000000 0.123110
1.000000 0.197910 0.000000
1.000000 0.265202 0.003754
0.000000 0.250065 0.280888
0.000000 0.257633 0.283116
0.217197 0.285924 0.292912
0.528191 0.299962 0.268406
0.802365 0.311284 0.222416
0.978759 0.331914 0.145968
1.000000 0.358801 0.000000
1.000000 0.378943 0.000000
0.000000 0.481392 0.405829
0.000000 0.480812 0.407691
0.267369 0.472358 0.429633
0.429145 0.486336 0.410346
0.745327 0.531823 0.274571
0.932647 0.528099 0.204746
1.000000 0.526055 0.046174
1.000000 0.519310 0.000000
0.000000 0.655665 0.543969
0.000000 0.653559 0.547234
0.367254 0.644648 0.569390
0.525231 0.596429 0.599878
0.625788 0.658991 0.536828
0.857328 0.685542 0.410163
0.996063 0.672969 0.229862
1.000000 0.656855 0.000000
0.356023 0.764370 0.662531
0.394659 0.762966 0.666011
0.514092 0.756435 0.681544
0.615473 0.734524 0.695857
0.657649 0.719631 0.703883
0.761929 0.767269 0.650752
0.923247 0.784817 0.556390
1.000000 0.770748 0.371923
0.576440 0.836149 0.758358
0.591211 0.834867 0.760067
0.647822 0.830106 0.768795
0.715755 0.819852 0.780484
0.759854 0.796078 0.789792
0.771481 0.807919 0.780697
0.855070 0.833494 0.738918
0.961395 0.841520 0.669764
0.730220 0.879454 0.830137
0.737881 0.878721 0.831388
0.768399 0.876219 0.837461
0.815518 0.872313 0.849271
0.836820 0.862425 0.850950
0.862943 0.846525 0.861936
0.866423 0.865934 0.846799
0.920531 0.881010 0.818021
0.000000 0.114900 0.383642
0.000000 0.117311 0.383764
0.200198 0.119509 0.377874
0.418524 0.118746 0.361547
0.768124 0.000000 0.399359
0.997253 0.000000 0.368811
1.000000 0.246891 0.363745
1.000000 0.317388 0.281712
0.000000 0.150546 0.405127
0.000000 0.159426 0.406958
0.209873 0.164889 0.400305
0.430091 0.175814 0.383001
0.770748 0.135134 0.414984
0.993225 0.000000 0.387060
1.000000 0.294285 0.373236
1.000000 0.346197 0.289982
0.000000 0.268132 0.442359
0.000000 0.272984 0.444434
0.169436 0.299351 0.461707
0.451942 0.328313 0.447578
0.775875 0.337743 0.466285
0.967071 0.386725 0.461250
1.000000 0.431250 0.414496
1.000000 0.442267 0.323674
0.000000 0.469429 0.519677
0.000000 0.473793 0.520714
0.000000 0.493843 0.528099
0.467659 0.533562 0.546777
0.740230 0.546136 0.525109
0.913909 0.556146 0.494881
1.000000 0.563348 0.448585
1.000000 0.557763 0.364538
0.000000 0.697963 0.629541
0.000000 0.697810 0.629328
0.007568 0.689845 0.627558
0.537407 0.674556 0.646845
0.649683 0.684718 0.637873
0.851499 0.698238 0.548791
0.979522 0.690242 0.494026
1.000000 0.677455 0.425757
0.208591 0.787930 0.699855
0.285069 0.787503 0.702388
0.445991 0.780972 0.707576
0.619074 0.769680 0.726406
0.705287 0.735256 0.745357
0.773526 0.779141 0.711330
0.916411 0.792416 0.639704
1.000000 0.777218 0.501488
0.519615 0.847196 0.770443
0.538720 0.846220 0.771908
0.606928 0.841825 0.777951
0.706538 0.834012 0.792538
0.769467 0.817441 0.802274
0.791867 0.813230 0.804990
0.859709 0.838621 0.774136
0.957885 0.846036 0.716701
0.695216 0.886442 0.832700
0.704677 0.885710 0.833829
0.741268 0.882811 0.838956
0.798581 0.878264 0.849821
0.842557 0.871122 0.858885
0.868254 0.856748 0.866423
0.874418 0.868437 0.859068
0.923156 0.884337 0.836393
0.000000 0.165896 0.573693
0.000000 0.167971 0.574212
0.132753 0.171756 0.571923
0.447730 0.172763 0.566735
0.654139 0.200534 0.554131
0.900328 0.306615 0.579797
1.000000 0.340703 0.565911
1.000000 0.435126 0.562676
0.000000 0.202304 0.585992
0.000000 0.204227 0.586328
0.143679 0.209171 0.583825
0.453040 0.215946 0.577478
0.657649 0.247593 0.564630
0.897826 0.342229 0.588251
1.000000 0.373816 0.574975
1.000000 0.464637 0.576104
0.000000 0.297490 0.600275
0.000000 0.300023 0.604273
0.000000 0.323980 0.615991
0.456641 0.341894 0.610925
0.661555 0.383307 0.598840
0.884306 0.450752 0.617426
1.000000 0.476814 0.607874
1.000000 0.547723 0.612177
0.000000 0.459144 0.639063
0.000000 0.461830 0.639338
0.000000 0.474128 0.641657
0.423987 0.514427 0.658930
0.661006 0.557733 0.654444
0.868040 0.590478 0.667994
0.992309 0.622492 0.671748
1.000000 0.623316 0.624170
0.000000 0.645502 0.688930
0.000000 0.647730 0.689601
0.000000 0.656641 0.692103
0.413642 0.674647 0.698878
0.665370 0.702358 0.714015
0.837278 0.707973 0.700679
0.955291 0.710780 0.677699
1.000000 0.704158 0.633661
0.000000 0.797513 0.750668
0.000000 0.797787 0.751217
0.189822 0.798245 0.752804
0.500008 0.791653 0.752224
0.704555 0.778561 0.764828
0.781247 0.787655 0.763394
0.910948 0.794369 0.706783
1.000000 0.784787 0.657771
0.365820 0.862608 0.795682
0.394476 0.861357 0.795468
0.490272 0.856748 0.795682
0.629480 0.848356 0.800565
0.763119 0.837308 0.816220
0.816678 0.815305 0.828550
0.863706 0.843259 0.808438
0.954772 0.849058 0.760067
0.587182 0.897459 0.835203
0.602472 0.896513 0.835966
0.659541 0.892729 0.839597
0.746426 0.886931 0.848661
0.829557 0.880430 0.863035
0.870359 0.869657 0.871122
0.883757 0.870207 0.872770
0.925536 0.887602 0.855833
0.000000 0.236210 0.728389
0.000000 0.238132 0.728176
0.103212 0.242527 0.725338
0.446754 0.249973 0.720882
0.671717 0.271305 0.713313
0.822232 0.334997 0.693996
0.964416 0.492073 0.707851
1.000000 0.530602 0.704768
0.000000 0.263706 0.728939
0.000000 0.264988 0.728328
0.103487 0.269749 0.725978
0.443885 0.277440 0.721004
0.667933 0.300694 0.713252
0.818082 0.361547 0.696010
0.960113 0.506737 0.710536
1.000000 0.542321 0.707668
0.000000 0.336950 0.734676
0.000000 0.338842 0.736019
0.000000 0.364416 0.737728
0.437842 0.375982 0.732570
0.663813 0.404364 0.726375
0.810727 0.462867 0.713161
0.948669 0.569421 0.728542
1.000000 0.594507 0.725002
0.000000 0.467262 0.739864
0.000000 0.468299 0.739101
0.000000 0.476936 0.740475
0.409583 0.518120 0.752468
0.653101 0.548547 0.749660
0.799008 0.598352 0.743526
0.933959 0.655879 0.757900
1.000000 0.668666 0.752193
0.000000 0.619104 0.762478
0.000000 0.620356 0.762203
0.000000 0.625849 0.761379
0.331853 0.637720 0.760922
0.620264 0.672908 0.771695
0.785946 0.707210 0.772976
0.922179 0.730068 0.783444
1.000000 0.742611 0.781125
0.000000 0.755673 0.788632
0.000000 0.756954 0.789151
0.000000 0.759915 0.789395
0.407050 0.765927 0.790921
0.616541 0.776608 0.795743
0.791043 0.796902 0.809812
0.906004 0.799649 0.801175
0.985870 0.796658 0.781186
0.000000 0.864652 0.832822
0.000000 0.864591 0.833127
0.321202 0.863737 0.833555
0.509880 0.862486 0.835019
0.682277 0.857420 0.836454
0.822110 0.844511 0.843748
0.871061 0.849943 0.843320
0.954711 0.852354 0.805173
0.423957 0.913024 0.859556
0.444923 0.912108 0.859342
0.523003 0.908537 0.859220
0.638544 0.902037 0.860136
0.762722 0.892821 0.864897
0.864622 0.884550 0.879271
0.899535 0.872251 0.888884
0.930236 0.893065 0.878660
0.000000 0.330266 0.835264
0.000000 0.333776 0.836362
0.240635 0.337011 0.833188
0.473518 0.346319 0.828702
0.668818 0.363348 0.821012
0.831601 0.396277 0.813779
0.925444 0.468727 0.788327
0.999634 0.597864 0.787289
0.000000 0.340063 0.827085
0.000000 0.344182 0.828855
0.216373 0.347509 0.826139
0.456428 0.354070 0.820920
0.653132 0.368566 0.812894
0.816312 0.397101 0.804440
0.912718 0.462928 0.778714
0.993133 0.587091 0.778225
0.000000 0.395544 0.831601
0.000000 0.405859 0.831388
0.191867 0.418494 0.828153
0.447242 0.425696 0.823056
0.643397 0.439368 0.814633
0.807675 0.471351 0.807218
0.906462 0.536248 0.790646
0.985443 0.641779 0.795163
0.000000 0.494118 0.830289
0.000000 0.494392 0.829770
0.000000 0.499702 0.829068
0.422156 0.535393 0.829038
0.630549 0.550835 0.822904
0.797513 0.583642 0.817319
0.894926 0.634394 0.808774
0.971771 0.705318 0.813840
0.000000 0.605737 0.829038
0.000000 0.603601 0.826993
0.000000 0.601465 0.823026
0.194980 0.602899 0.818845
0.578485 0.645136 0.824674
0.764553 0.668055 0.821378
0.872862 0.708064 0.818173
0.962127 0.756497 0.830350
0.000000 0.724758 0.837186
0.000000 0.725368 0.837125
0.000000 0.726772 0.836057
0.259953 0.729793 0.834195
0.511406 0.733974 0.831357
0.738491 0.761837 0.839506
0.867308 0.792569 0.843626
0.957824 0.808865 0.851225
0.000000 0.828336 0.853605
0.000000 0.829191 0.854124
0.095430 0.829496 0.853758
0.402075 0.830655 0.853727
0.586145 0.832334 0.853819
0.744930 0.837522 0.856931
0.872374 0.852018 0.868772
0.952331 0.854948 0.864622
0.157778 0.910857 0.886961
0.222263 0.910582 0.887053
0.376898 0.909819 0.888060
0.530144 0.907195 0.888396
0.676844 0.903807 0.889220
0.803738 0.900145 0.891417
0.902586 0.892424 0.899168
0.936278 0.899901 0.901884
0.217136 0.433234 0.898192
0.261326 0.435431 0.898283
0.370733 0.434485 0.895018
0.520073 0.441016 0.891630
0.673365 0.451484 0.885679
0.814633 0.471412 0.876860
0.927642 0.500816 0.871641
0.981323 0.560113 0.844785
0.182864 0.437324 0.894285
0.235538 0.439765 0.894530
0.357092 0.440742 0.892180
0.508598 0.445686 0.888457
0.664240 0.455421 0.882597
0.807248 0.474556 0.874022
0.921233 0.501274 0.868132
0.976684 0.557916 0.841276
0.000000 0.475288 0.891356
0.183352 0.481086 0.890959
0.327031 0.481025 0.888426
0.495583 0.491585 0.886992
0.651240 0.498299 0.880613
0.793973 0.513024 0.871641
0.909819 0.539544 0.866117
0.967895 0.590570 0.842679
0.000000 0.513146 0.887846
0.000000 0.515892 0.888029
0.120729 0.523491 0.886717
0.453437 0.557366 0.883421
0.624537 0.566003 0.878630
0.774960 0.580560 0.871672
0.893919 0.606500 0.866423
0.955535 0.649531 0.849027
0.000000 0.589349 0.882170
0.000000 0.589776 0.882200
0.000000 0.586053 0.880430
0.230442 0.597375 0.879545
0.562371 0.633875 0.875822
0.735866 0.645258 0.870146
0.869505 0.670832 0.864958
0.939788 0.711696 0.856168
0.000000 0.695186 0.883116
0.000000 0.693477 0.882170
0.000000 0.688991 0.879515
0.000000 0.684321 0.875975
0.345464 0.679683 0.871489
0.684321 0.723079 0.874357
0.848234 0.750912 0.874174
0.929046 0.788327 0.873167
0.000000 0.801511 0.890196
0.000000 0.801236 0.889860
0.000000 0.800229 0.888548
0.000000 0.799893 0.886870
0.430426 0.799619 0.884398
0.629114 0.800626 0.881804
0.824979 0.821653 0.886809
0.923766 0.845212 0.890379
0.000000 0.881285 0.902464
0.000000 0.880980 0.902251
0.098695 0.880491 0.901976
0.393378 0.880247 0.902220
0.573724 0.879728 0.902434
0.723507 0.880125 0.903197
0.843931 0.884977 0.906645
0.935271 0.900328 0.917876
