20 Preset/Japan Style/【3】LUT video cho PR-AE-FCPX/LUT VIDEO (2)/Japan Style LUT (21).cube
# Created by Adobe Lightroom plugin Export LUT (1.24.0)
# www.johnrellis.com/lightroom/exportlut.htm
# Preset: 21日系街道（素材江湖）
# Color profile: C:\Program Files (x86)\Common Files\Adobe\Color\Profiles\Recommended\VideoHD.icc
LUT_3D_SIZE 8
DOMAIN_MIN 0.000000 0.000000 0.000000
DOMAIN_MAX 0.903226 0.903226 0.903226
0.014343 0.021424 0.013733
0.151156 0.030274 0.011749
0.518914 0.000000 0.000000
0.832975 0.000000 0.000000
0.992645 0.000000 0.000000
1.000000 0.000000 0.000000
1.000000 0.127016 0.000000
1.000000 0.240116 0.000000
0.000000 0.166476 0.032258
0.108461 0.175631 0.004547
0.503990 0.168063 0.000000
0.807675 0.000000 0.000000
0.973388 0.000000 0.000000
1.000000 0.148775 0.000000
1.000000 0.225711 0.000000
1.000000 0.280644 0.000000
0.000000 0.507652 0.090913
0.000000 0.502251 0.150881
0.357336 0.485939 0.000000
0.731960 0.498695 0.000000
0.942504 0.488136 0.000000
1.000000 0.454871 0.000000
1.000000 0.437873 0.000000
1.000000 0.430121 0.000000
0.000000 0.753445 0.374609
0.101015 0.749660 0.393439
0.460487 0.740230 0.458320
0.628687 0.721675 0.202945
0.845151 0.688655 0.000000
0.992065 0.658045 0.000000
1.000000 0.611688 0.000000
1.000000 0.575280 0.000000
0.421698 0.840330 0.571252
0.454444 0.838529 0.578912
0.559655 0.833127 0.612238
0.637263 0.826871 0.602197
0.722957 0.808103 0.405463
0.878447 0.766110 0.000000
0.999390 0.740169 0.000000
1.000000 0.702327 0.122957
0.575708 0.885588 0.672999
0.592645 0.886381 0.680049
0.636347 0.883452 0.694087
0.702785 0.878538 0.719631
0.724239 0.872892 0.676631
0.781308 0.860502 0.551110
0.918273 0.839506 0.260349
1.000000 0.807706 0.282628
0.661616 0.919646 0.737331
0.668391 0.919493 0.739834
0.690761 0.917540 0.746853
0.730373 0.914214 0.761074
0.772122 0.909789 0.774014
0.782650 0.907134 0.726986
0.829465 0.900389 0.646906
0.935790 0.888304 0.475410
0.730495 0.947570 0.791836
0.733669 0.947295 0.792874
0.747494 0.946258 0.797818
0.773312 0.944457 0.807980
0.799252 0.939361 0.815366
0.822019 0.938567 0.813931
0.838376 0.939574 0.780087
0.880919 0.937896 0.725368
0.023743 0.037934 0.128206
0.149905 0.036011 0.121675
0.477455 0.000000 0.127047
0.787686 0.000000 0.118593
0.967132 0.000000 0.090394
1.000000 0.000000 0.091890
1.000000 0.195621 0.127047
1.000000 0.268284 0.171359
0.000000 0.182773 0.134096
0.144503 0.185306 0.139315
0.479347 0.174533 0.117098
0.781643 0.110201 0.080507
0.957122 0.150240 0.000000
1.000000 0.216556 0.017914
1.000000 0.264836 0.106447
1.000000 0.303960 0.156802
0.000000 0.497658 0.229221
0.000000 0.496590 0.236423
0.375891 0.482673 0.161379
0.724575 0.496468 0.000000
0.925719 0.485573 0.000000
1.000000 0.457527 0.000000
1.000000 0.440650 0.024384
1.000000 0.434485 0.160220
0.000000 0.736629 0.395911
0.143374 0.733852 0.413214
0.472084 0.726894 0.487129
0.611170 0.702541 0.273716
0.823667 0.670314 0.000000
0.975189 0.647059 0.000000
1.000000 0.604974 0.000000
1.000000 0.572229 0.156161
0.434546 0.835843 0.582544
0.463722 0.833799 0.588586
0.562585 0.827970 0.618097
0.640650 0.820157 0.614771
0.716030 0.799802 0.427802
0.869596 0.758572 0.000000
0.991974 0.735744 0.118013
1.000000 0.700282 0.200595
0.576776 0.882078 0.675044
0.589044 0.881498 0.678798
0.633631 0.878874 0.693172
0.701045 0.874723 0.719326
0.725338 0.869383 0.682612
0.780056 0.857572 0.565148
0.913603 0.835721 0.292912
1.000000 0.805295 0.312627
0.659388 0.917205 0.736568
0.664179 0.916442 0.737606
0.686702 0.914458 0.744472
0.727443 0.911467 0.759365
0.772915 0.907774 0.775875
0.782254 0.904845 0.729213
0.826810 0.897185 0.648219
0.932067 0.884062 0.474128
0.727291 0.946166 0.790127
0.731655 0.946136 0.792020
0.745418 0.945068 0.796811
0.771542 0.943328 0.807095
0.805142 0.940642 0.821317
0.826139 0.939055 0.819181
0.839933 0.939269 0.783841
0.881315 0.937407 0.729458
0.000000 0.071473 0.375250
0.112947 0.044007 0.361852
0.428840 0.000000 0.345403
0.755428 0.000000 0.351568
0.941375 0.000000 0.388464
1.000000 0.279240 0.403876
1.000000 0.365698 0.414740
1.000000 0.405798 0.423774
0.000000 0.225498 0.395300
0.000000 0.200320 0.385931
0.433234 0.199283 0.354864
0.749355 0.157595 0.367834
0.929564 0.257816 0.400580
1.000000 0.340764 0.398993
1.000000 0.389837 0.404730
1.000000 0.419989 0.414679
0.000000 0.494423 0.401038
0.000000 0.497292 0.402106
0.445350 0.499733 0.432715
0.735592 0.506249 0.383185
0.906615 0.503960 0.387793
1.000000 0.500008 0.394263
1.000000 0.498909 0.403998
1.000000 0.499519 0.416602
0.223362 0.730434 0.533440
0.355413 0.729671 0.548211
0.519188 0.729702 0.572137
0.635279 0.711391 0.496925
0.830198 0.682063 0.352270
0.967498 0.663874 0.392432
1.000000 0.631342 0.408331
1.000000 0.607568 0.423621
0.523033 0.829160 0.647639
0.536004 0.828855 0.648249
0.601770 0.826749 0.663539
0.695155 0.822507 0.694820
0.730922 0.803098 0.569512
0.867643 0.763394 0.347204
0.982513 0.744350 0.403632
1.000000 0.716182 0.436011
0.617273 0.879271 0.707668
0.623743 0.879332 0.708736
0.659083 0.877531 0.718898
0.718929 0.874235 0.740963
0.749691 0.868772 0.725246
0.788144 0.856321 0.634302
0.905638 0.832914 0.432258
1.000000 0.810391 0.466163
0.683436 0.917266 0.757321
0.686458 0.916747 0.757443
0.706172 0.914824 0.763088
0.742916 0.912047 0.775906
0.789181 0.908659 0.795438
0.797971 0.905486 0.758175
0.835599 0.898253 0.691402
0.931334 0.886778 0.558923
0.740871 0.946441 0.802853
0.743435 0.946044 0.803433
0.756374 0.945068 0.807919
0.782650 0.943908 0.818692
0.814725 0.941527 0.832181
0.839597 0.939940 0.836545
0.850462 0.940185 0.804135
0.887266 0.938323 0.754177
0.000000 0.090974 0.611872
0.000000 0.073823 0.606958
0.427527 0.000000 0.572412
0.675502 0.000000 0.567742
0.896788 0.000000 0.546838
1.000000 0.286687 0.556481
1.000000 0.451820 0.588647
1.000000 0.549706 0.630549
0.000000 0.214176 0.627558
0.000000 0.215152 0.620233
0.437629 0.213718 0.587213
0.678676 0.201785 0.575586
0.893767 0.203281 0.557214
0.990692 0.366247 0.567803
1.000000 0.494697 0.602777
1.000000 0.551354 0.623468
0.000000 0.516869 0.631952
0.000000 0.516808 0.631678
0.393347 0.488533 0.625147
0.671778 0.477272 0.596063
0.863218 0.505516 0.599329
0.950652 0.573053 0.629389
1.000000 0.598413 0.634821
1.000000 0.606989 0.633936
0.000000 0.716670 0.630274
0.000000 0.715206 0.629419
0.409033 0.712032 0.634943
0.677180 0.713924 0.671382
0.821836 0.700984 0.626825
0.921294 0.688655 0.628016
0.992432 0.678065 0.628656
1.000000 0.668727 0.629236
0.490333 0.823545 0.687251
0.525292 0.822019 0.691890
0.634913 0.818601 0.714443
0.720485 0.821439 0.738125
0.757229 0.806699 0.696376
0.858518 0.774777 0.593957
0.961425 0.768765 0.626886
1.000000 0.749691 0.634363
0.673457 0.875181 0.756771
0.684047 0.876371 0.760525
0.701625 0.876341 0.761379
0.743862 0.876219 0.773159
0.791867 0.873594 0.786831
0.806607 0.858274 0.718898
0.893858 0.830106 0.588098
0.985290 0.823423 0.630579
0.722957 0.915251 0.791745
0.726070 0.915312 0.792325
0.737667 0.915251 0.793881
0.766567 0.914305 0.802762
0.809232 0.912230 0.820401
0.824979 0.908446 0.803677
0.849119 0.899840 0.747372
0.931365 0.889128 0.650202
0.771756 0.947082 0.830228
0.773312 0.946990 0.830350
0.780331 0.946654 0.831357
0.800229 0.945586 0.838041
0.830076 0.943694 0.850217
0.861326 0.941802 0.863951
0.866911 0.941772 0.835264
0.897093 0.940093 0.792050
0.000000 0.136233 0.758480
0.000000 0.133791 0.756344
0.437476 0.120363 0.741329
0.666651 0.150820 0.710536
0.836973 0.153628 0.713588
0.961486 0.246220 0.672297
1.000000 0.401801 0.654658
1.000000 0.531334 0.677150
0.000000 0.239567 0.760983
0.000000 0.240024 0.759091
0.436713 0.237217 0.744778
0.664454 0.250889 0.713344
0.832456 0.260410 0.713802
0.955505 0.319951 0.672969
1.000000 0.447395 0.661524
1.000000 0.557275 0.684901
0.000000 0.516014 0.759884
0.000000 0.508659 0.758572
0.379736 0.462898 0.750851
0.646082 0.462440 0.723445
0.805295 0.473854 0.710567
0.926238 0.497597 0.675837
0.987884 0.578149 0.689601
1.000000 0.634180 0.710628
0.000000 0.690089 0.748745
0.000000 0.689448 0.748226
0.388495 0.690059 0.747005
0.633051 0.691005 0.744198
0.777768 0.681392 0.726436
0.879423 0.694850 0.727230
0.946929 0.714900 0.740688
1.000000 0.716579 0.740871
0.129519 0.808347 0.731502
0.255467 0.807340 0.731960
0.460395 0.803067 0.733822
0.663233 0.799771 0.747555
0.778927 0.803281 0.772061
0.852995 0.787045 0.734066
0.934539 0.781216 0.739284
0.995361 0.770291 0.737514
0.584680 0.865415 0.755856
0.601190 0.864927 0.758358
0.656977 0.862486 0.767239
0.737819 0.860716 0.786618
0.797177 0.865476 0.806546
0.820188 0.855894 0.779263
0.888243 0.833310 0.711177
0.973724 0.834897 0.736446
0.711666 0.911254 0.805814
0.717983 0.910765 0.807218
0.744289 0.909636 0.814481
0.779232 0.910155 0.824186
0.815122 0.911284 0.835569
0.850126 0.910002 0.845609
0.860166 0.899168 0.794888
0.927794 0.882506 0.710506
0.783383 0.944945 0.849058
0.788510 0.944701 0.851011
0.795499 0.944549 0.851560
0.812345 0.945281 0.855863
0.837461 0.944823 0.864012
0.871916 0.943694 0.879850
0.882841 0.942657 0.866239
0.904631 0.939849 0.825650
0.000000 0.211276 0.844175
0.199405 0.213413 0.842649
0.448432 0.219120 0.833402
0.649683 0.247959 0.817319
0.797024 0.304143 0.790860
0.919432 0.317296 0.792721
0.997009 0.398199 0.748745
1.000000 0.493782 0.726467
0.000000 0.279271 0.839139
0.184573 0.280369 0.837186
0.439185 0.284550 0.828794
0.640131 0.302861 0.812711
0.787991 0.342626 0.786221
0.910521 0.357610 0.788052
0.989624 0.427710 0.746700
1.000000 0.514611 0.728145
0.010864 0.491981 0.836057
0.167697 0.478035 0.835203
0.418006 0.470405 0.828153
0.619226 0.472694 0.810941
0.769223 0.487312 0.785550
0.885252 0.505486 0.783108
0.965911 0.549157 0.752010
1.000000 0.604578 0.746181
0.161013 0.685176 0.828305
0.255894 0.685664 0.827207
0.465461 0.683345 0.822293
0.620478 0.667720 0.814725
0.753719 0.664820 0.793606
0.848722 0.674098 0.784543
0.933959 0.684596 0.770077
0.992096 0.711513 0.779141
0.322301 0.781216 0.810483
0.365850 0.781064 0.810086
0.489754 0.781033 0.808896
0.630243 0.782834 0.807919
0.746120 0.785519 0.807706
0.832670 0.776944 0.796292
0.907500 0.780911 0.799405
0.966979 0.788388 0.808133
0.451881 0.858427 0.794583
0.477333 0.858305 0.795712
0.549798 0.855497 0.796750
0.649500 0.851987 0.800320
0.759487 0.851347 0.812345
0.840604 0.858183 0.835142
0.898558 0.846311 0.807523
0.963714 0.842405 0.813260
0.646265 0.909117 0.816403
0.656245 0.909117 0.818173
0.689693 0.908080 0.823239
0.745541 0.906828 0.833707
0.812619 0.906859 0.851652
0.862303 0.911406 0.869963
0.876768 0.902800 0.846250
0.932341 0.886839 0.793393
0.740261 0.946624 0.850584
0.744533 0.946258 0.851347
0.764675 0.945403 0.856291
0.802457 0.944671 0.867582
0.846738 0.944518 0.882628
0.876829 0.945708 0.892790
0.904570 0.945830 0.901884
0.915587 0.941558 0.865293
0.255741 0.281102 0.901427
0.316289 0.285344 0.900877
0.464485 0.295933 0.894987
0.625818 0.323461 0.884123
0.762997 0.366308 0.866392
0.870298 0.412604 0.844480
0.968658 0.418677 0.845029
1.000000 0.484108 0.801205
0.245640 0.323491 0.895567
0.306828 0.327428 0.895354
0.456580 0.335576 0.889769
0.616541 0.354620 0.878660
0.754360 0.388037 0.860899
0.861906 0.425574 0.838132
0.960021 0.428748 0.838407
1.000000 0.486427 0.795834
0.250309 0.472358 0.890959
0.304601 0.473274 0.889769
0.446448 0.475807 0.884031
0.602319 0.484596 0.873350
0.738003 0.499306 0.855985
0.845396 0.521477 0.832670
0.940490 0.534173 0.835325
0.999023 0.578485 0.802792
0.400000 0.666255 0.880919
0.429603 0.665949 0.879423
0.521508 0.664790 0.874479
0.606439 0.644404 0.867765
0.725582 0.644221 0.852720
0.825193 0.648035 0.832120
0.910185 0.659663 0.832761
0.974762 0.678645 0.812894
0.386664 0.762753 0.869688
0.409247 0.762203 0.868559
0.494484 0.763180 0.866148
0.612390 0.765316 0.862730
0.717128 0.751064 0.853635
0.807675 0.743618 0.835111
0.881804 0.748562 0.830411
0.955749 0.756558 0.824674
0.452125 0.837217 0.857389
0.470832 0.837186 0.857359
0.534844 0.836576 0.856931
0.623804 0.835813 0.856535
0.716396 0.835111 0.856352
0.808042 0.837095 0.858213
0.879240 0.832486 0.850706
0.942504 0.836637 0.854978
0.537346 0.903502 0.850004
0.549767 0.903410 0.850645
0.590143 0.901762 0.851347
0.655604 0.899321 0.853269
0.730678 0.896422 0.856260
0.822416 0.897032 0.868009
0.892363 0.904509 0.889525
0.942382 0.896727 0.872099
0.668574 0.947417 0.863096
0.675715 0.947265 0.864073
0.705135 0.946990 0.868833
0.751278 0.945800 0.876127
0.808804 0.944549 0.887236
0.870603 0.944854 0.904448
0.916075 0.948852 0.922515
0.928954 0.945068 0.905974
0.358923 0.343572 0.946990
0.390112 0.346990 0.946471
0.484993 0.356054 0.942046
0.610925 0.380468 0.934966
0.732570 0.417151 0.923339
0.838102 0.461189 0.906767
0.926177 0.494820 0.893034
1.000000 0.491127 0.892454
0.354314 0.371923 0.943450
0.385382 0.375341 0.942992
0.480690 0.383825 0.939117
0.605798 0.403845 0.931945
0.727626 0.435554 0.920470
0.833585 0.474311 0.904082
0.921508 0.503563 0.889799
1.000000 0.498329 0.889097
0.353002 0.478431 0.936767
0.381811 0.479988 0.936034
0.472786 0.484108 0.932219
0.597620 0.500450 0.926482
0.716335 0.517876 0.915129
0.820920 0.540551 0.898924
0.908385 0.561425 0.884337
0.991852 0.558526 0.884672
0.440925 0.636927 0.925109
0.450874 0.633722 0.925017
0.488411 0.618616 0.923308
0.595636 0.623285 0.917510
0.705165 0.629236 0.907836
0.804746 0.636255 0.893828
0.889830 0.645167 0.878447
0.968902 0.646937 0.880705
0.405341 0.737331 0.918547
0.431189 0.737667 0.918212
0.506798 0.735927 0.915587
0.624994 0.741543 0.909545
0.694667 0.723690 0.902739
0.787350 0.720760 0.890318
0.869932 0.720638 0.874296
0.945678 0.727382 0.878660
0.414496 0.812650 0.909819
0.428779 0.812161 0.909270
0.486671 0.811398 0.907652
0.577386 0.811856 0.905791
0.677302 0.811917 0.903807
0.777127 0.802609 0.897765
0.861845 0.801999 0.886351
0.930968 0.811521 0.888212
0.498573 0.887755 0.907774
0.509514 0.887510 0.907652
0.551537 0.886595 0.907256
0.620996 0.885740 0.907317
0.701167 0.884672 0.907530
0.781308 0.883238 0.907774
0.863493 0.882841 0.908354
0.924651 0.880858 0.902953
0.571923 0.949615 0.903807
0.578882 0.949218 0.903746
0.609522 0.947906 0.904295
0.664607 0.946105 0.906157
0.731838 0.943694 0.908934
0.803128 0.941344 0.913024
0.881071 0.941192 0.922271
0.941009 0.947173 0.940307
