20 Preset/Japan Style/【3】LUT video cho PR-AE-FCPX/LUT VIDEO (2)/Japan Style LUT (42).cube
# Created by Adobe Lightroom plugin Export LUT (1.24.0)
# www.johnrellis.com/lightroom/exportlut.htm
# Preset: 42日系青绿（素材江湖）
# Color profile: C:\Program Files (x86)\Common Files\Adobe\Color\Profiles\Recommended\VideoHD.icc
LUT_3D_SIZE 8
DOMAIN_MIN 0.000000 0.000000 0.000000
DOMAIN_MAX 0.903226 0.903226 0.903226
0.000000 0.000000 0.000000
0.108614 0.035309 0.000000
0.524102 0.000000 0.000000
0.811887 0.000000 0.000000
0.955138 0.305882 0.000000
1.000000 0.445380 0.035462
1.000000 0.522942 0.269749
1.000000 0.567651 0.382238
0.000000 0.128389 0.091981
0.000000 0.179782 0.035431
0.540032 0.224826 0.000000
0.807370 0.264683 0.000000
0.944335 0.382147 0.000000
1.000000 0.479530 0.145327
1.000000 0.540642 0.297642
1.000000 0.579126 0.401068
0.000000 0.442359 0.294774
0.000000 0.443427 0.313970
0.408392 0.537407 0.197482
0.774563 0.571466 0.204837
0.913787 0.571679 0.256962
0.994965 0.587488 0.333867
1.000000 0.607965 0.415259
1.000000 0.624781 0.482185
0.373297 0.653376 0.545983
0.405035 0.652369 0.552239
0.496193 0.657435 0.563134
0.678950 0.700649 0.487343
0.866819 0.706752 0.515862
0.959625 0.697902 0.532830
1.000000 0.690150 0.558404
1.000000 0.688441 0.589471
0.598840 0.739773 0.678767
0.608576 0.739284 0.680934
0.643671 0.738186 0.690425
0.698665 0.748653 0.682490
0.803403 0.775326 0.641382
0.915312 0.775235 0.655238
0.975158 0.765438 0.667689
1.000000 0.753414 0.680446
0.720058 0.797665 0.754299
0.726650 0.797971 0.757229
0.743832 0.797360 0.761959
0.771084 0.796750 0.771054
0.808438 0.810269 0.754940
0.874632 0.831235 0.728054
0.940490 0.825834 0.740841
0.969512 0.812680 0.754269
0.800748 0.847807 0.813077
0.805844 0.847776 0.816526
0.816556 0.847288 0.821164
0.831724 0.846616 0.826169
0.849302 0.848295 0.829129
0.872740 0.857939 0.816373
0.909239 0.868803 0.799435
0.937377 0.856107 0.808652
0.855680 0.877409 0.861265
0.858305 0.877226 0.863249
0.868315 0.876616 0.871092
0.874815 0.875883 0.873503
0.881529 0.874022 0.875395
0.888151 0.874174 0.874205
0.897063 0.876280 0.867643
0.909575 0.877501 0.860380
0.000000 0.001312 0.097017
0.108888 0.042084 0.110079
0.503868 0.000000 0.100801
0.789548 0.206668 0.104952
0.933989 0.370214 0.149996
1.000000 0.477119 0.247654
1.000000 0.540581 0.348699
1.000000 0.579553 0.431006
0.000000 0.146273 0.104494
0.033814 0.190707 0.145144
0.510521 0.252720 0.141054
0.785031 0.328710 0.140139
0.926024 0.428412 0.190646
1.000000 0.506096 0.279545
1.000000 0.556664 0.370153
1.000000 0.589990 0.446204
0.000000 0.454353 0.349859
0.000000 0.456001 0.367803
0.430304 0.544732 0.291173
0.760433 0.577203 0.317052
0.899687 0.580774 0.346777
0.983978 0.596765 0.398108
1.000000 0.615381 0.457313
1.000000 0.631220 0.511223
0.386236 0.652491 0.560693
0.415412 0.651728 0.566522
0.500328 0.657099 0.576532
0.676234 0.698939 0.510460
0.858488 0.705196 0.538293
0.952026 0.698390 0.553918
1.000000 0.692103 0.575525
1.000000 0.691096 0.602777
0.602594 0.739803 0.683528
0.612177 0.739254 0.685817
0.645777 0.738003 0.694514
0.698512 0.747860 0.686641
0.801663 0.774350 0.647730
0.912474 0.774441 0.662348
0.972747 0.765927 0.674708
1.000000 0.754513 0.686549
0.719844 0.797238 0.755123
0.726558 0.797147 0.758480
0.743709 0.796597 0.763149
0.770871 0.796139 0.772183
0.808042 0.809628 0.756924
0.874144 0.830930 0.731319
0.939483 0.825681 0.744228
0.968627 0.813077 0.757259
0.799649 0.847349 0.812711
0.804410 0.847135 0.815915
0.815976 0.846647 0.821286
0.831235 0.846098 0.826383
0.849119 0.847898 0.829801
0.872496 0.857572 0.817227
0.908965 0.868467 0.800381
0.937194 0.856046 0.809659
0.854582 0.877348 0.860502
0.857359 0.877195 0.862638
0.867521 0.876555 0.870512
0.874662 0.875822 0.873625
0.881926 0.874113 0.876219
0.888365 0.874205 0.874968
0.897093 0.876280 0.868345
0.909483 0.877531 0.861143
0.000000 0.060548 0.290227
0.112337 0.037964 0.315862
0.464302 0.156405 0.331884
0.759243 0.257725 0.345953
0.904051 0.433204 0.397955
0.983520 0.534112 0.462531
1.000000 0.586023 0.515465
1.000000 0.614954 0.554314
0.000000 0.201999 0.331731
0.094514 0.219974 0.358953
0.448585 0.288548 0.378973
0.750271 0.369818 0.383215
0.893675 0.481880 0.425513
0.976776 0.556207 0.480934
1.000000 0.597192 0.525261
1.000000 0.622889 0.562676
0.000000 0.489204 0.403784
0.109285 0.498390 0.469886
0.462989 0.552483 0.471534
0.731044 0.583764 0.495705
0.872404 0.602441 0.513542
0.960479 0.623316 0.540276
1.000000 0.641718 0.571191
1.000000 0.655268 0.599115
0.408881 0.662226 0.594232
0.462013 0.662562 0.618738
0.530236 0.665248 0.629511
0.688075 0.702510 0.594812
0.849454 0.711330 0.617792
0.937713 0.707881 0.626978
0.992493 0.705226 0.638911
1.000000 0.704829 0.654170
0.613184 0.743130 0.697078
0.630243 0.742855 0.706142
0.661189 0.742000 0.713924
0.708431 0.750790 0.709438
0.809049 0.777371 0.681483
0.908324 0.777157 0.695338
0.966247 0.771633 0.706233
0.996307 0.761379 0.714351
0.724636 0.799069 0.762112
0.733150 0.799039 0.767208
0.751461 0.798581 0.773587
0.776761 0.798184 0.781613
0.811276 0.810666 0.768948
0.875578 0.831998 0.747524
0.936584 0.826993 0.760830
0.964385 0.816342 0.772854
0.800381 0.848600 0.815457
0.805081 0.848386 0.818540
0.819730 0.847868 0.827146
0.834318 0.847288 0.831754
0.851469 0.848539 0.835782
0.873655 0.858061 0.824308
0.908843 0.869047 0.809293
0.934874 0.856779 0.818967
0.852445 0.877836 0.859892
0.855192 0.877623 0.861906
0.865751 0.876951 0.869871
0.875731 0.876188 0.875944
0.882841 0.874479 0.878386
0.889128 0.874266 0.877836
0.897368 0.876310 0.871672
0.909087 0.877531 0.865019
0.000000 0.126345 0.518975
0.000000 0.130892 0.536919
0.477211 0.226413 0.524254
0.713985 0.383581 0.556847
0.865293 0.457282 0.562371
0.956420 0.558892 0.594629
1.000000 0.615839 0.626337
1.000000 0.647974 0.651850
0.000000 0.264591 0.540581
0.129152 0.278630 0.556115
0.487434 0.354253 0.551354
0.699214 0.441169 0.573419
0.859373 0.500175 0.577203
0.951385 0.579309 0.605524
1.000000 0.627222 0.634089
1.000000 0.654994 0.657191
0.000000 0.523095 0.579553
0.000000 0.528557 0.588525
0.487373 0.562402 0.614832
0.693996 0.573083 0.612329
0.843748 0.610620 0.625971
0.936370 0.643336 0.644068
0.993896 0.667842 0.664118
1.000000 0.681270 0.678157
0.373144 0.678096 0.616449
0.436469 0.677668 0.636286
0.568719 0.679072 0.684535
0.701472 0.704616 0.676265
0.839811 0.715999 0.689815
0.920592 0.716182 0.693080
0.977234 0.719051 0.700862
1.000000 0.720912 0.709346
0.612818 0.750271 0.709834
0.631312 0.749874 0.718471
0.683223 0.749447 0.741787
0.724269 0.755764 0.742367
0.815763 0.778866 0.727474
0.903532 0.781765 0.739681
0.957000 0.778500 0.746883
0.986358 0.771054 0.751369
0.729885 0.803494 0.772427
0.738705 0.803769 0.777432
0.764797 0.803525 0.791287
0.788113 0.803311 0.798154
0.818326 0.813779 0.789883
0.880369 0.834287 0.774838
0.932464 0.829587 0.786984
0.957824 0.821653 0.796689
0.797543 0.850889 0.817777
0.802579 0.850797 0.820920
0.821592 0.850401 0.833158
0.839567 0.850004 0.841306
0.856107 0.850095 0.846799
0.875853 0.859159 0.836698
0.909270 0.869780 0.824277
0.931182 0.857908 0.833463
0.846067 0.879149 0.857237
0.849149 0.878904 0.859403
0.861021 0.877989 0.867918
0.877470 0.876890 0.880095
0.884245 0.875181 0.882231
0.890379 0.874357 0.882811
0.897734 0.876402 0.877348
0.908324 0.877592 0.871611
0.000000 0.227817 0.672297
0.248051 0.238865 0.679713
0.607172 0.290532 0.704402
0.725338 0.467140 0.670954
0.830808 0.551843 0.682063
0.919921 0.596796 0.694881
0.989563 0.639887 0.704067
1.000000 0.675990 0.722438
0.113344 0.338964 0.676692
0.295811 0.349859 0.683436
0.604364 0.396735 0.706538
0.717769 0.517845 0.679011
0.823667 0.571588 0.687495
0.920806 0.604425 0.694636
0.986999 0.649012 0.708248
1.000000 0.681636 0.725673
0.186648 0.536645 0.679957
0.313542 0.547204 0.687526
0.572900 0.580652 0.711543
0.700832 0.620020 0.703487
0.801083 0.624872 0.703456
0.914763 0.648981 0.708095
0.977478 0.681239 0.723873
1.000000 0.702358 0.737575
0.344305 0.690272 0.706416
0.404089 0.690547 0.709651
0.565148 0.695552 0.725765
0.710475 0.701228 0.735195
0.821225 0.707424 0.736568
0.906157 0.718563 0.742367
0.964019 0.729427 0.750973
0.996521 0.735866 0.757809
0.592950 0.759121 0.720821
0.613642 0.758785 0.728573
0.682826 0.758328 0.757198
0.741054 0.761257 0.777279
0.822293 0.779599 0.772030
0.899626 0.786435 0.781857
0.948455 0.782193 0.782437
0.977539 0.778225 0.784787
0.719478 0.808103 0.776883
0.728450 0.807950 0.781308
0.760891 0.807584 0.798001
0.796536 0.807828 0.814572
0.823148 0.815427 0.812161
0.880858 0.833249 0.804257
0.928466 0.832120 0.814694
0.951446 0.825925 0.820645
0.786435 0.854185 0.817441
0.791196 0.853910 0.820096
0.809689 0.853239 0.830716
0.841886 0.852903 0.850919
0.859495 0.852628 0.856931
0.877317 0.859831 0.851102
0.910063 0.870268 0.841794
0.927184 0.858946 0.849454
0.824277 0.881773 0.845670
0.828519 0.881376 0.848386
0.844755 0.880034 0.858946
0.869078 0.878264 0.875883
0.885374 0.876280 0.886809
0.891875 0.874418 0.889067
0.898070 0.876463 0.884245
0.907561 0.877623 0.879332
0.346136 0.349248 0.758572
0.419898 0.359533 0.761563
0.624537 0.406378 0.773800
0.773678 0.504936 0.771725
0.843839 0.610193 0.752255
0.910948 0.644617 0.758206
0.960662 0.683436 0.777157
1.000000 0.707271 0.781186
0.370306 0.421088 0.757107
0.433967 0.429755 0.759976
0.620233 0.468238 0.771786
0.764309 0.542229 0.770718
0.839414 0.625483 0.755001
0.907042 0.652338 0.760281
0.959411 0.687129 0.777523
0.998566 0.711177 0.782712
0.402777 0.571862 0.754391
0.452522 0.577630 0.757412
0.607782 0.599786 0.770352
0.750393 0.631952 0.776364
0.828367 0.669978 0.767330
0.895872 0.681849 0.770748
0.959716 0.701686 0.778836
0.991791 0.728756 0.791012
0.435615 0.676661 0.753262
0.468147 0.676265 0.754177
0.595483 0.689021 0.770169
0.751583 0.712978 0.793362
0.815793 0.719417 0.785000
0.891173 0.720241 0.784085
0.952361 0.740505 0.794827
0.980072 0.757992 0.805753
0.566155 0.763302 0.774899
0.585718 0.763149 0.776608
0.655879 0.763760 0.784543
0.755856 0.773373 0.805539
0.830289 0.780545 0.813107
0.892790 0.782254 0.812955
0.940185 0.787015 0.817105
0.965881 0.790372 0.821592
0.702693 0.817563 0.784421
0.712978 0.817441 0.788693
0.748501 0.816739 0.804013
0.800504 0.817014 0.829160
0.832853 0.820523 0.839628
0.883482 0.834592 0.836973
0.924834 0.835996 0.844388
0.944945 0.828428 0.843351
0.775448 0.859281 0.821195
0.780850 0.859129 0.823941
0.801053 0.858305 0.834257
0.833707 0.857481 0.852140
0.864347 0.857481 0.869657
0.879820 0.861326 0.869017
0.908507 0.869474 0.863157
0.921843 0.861112 0.868406
0.810575 0.884520 0.843626
0.814145 0.884184 0.845579
0.828641 0.882902 0.853849
0.852476 0.880705 0.868132
0.880064 0.877897 0.886381
0.893492 0.875944 0.894621
0.898711 0.876616 0.892729
0.906706 0.877653 0.889158
0.516625 0.471809 0.827024
0.552239 0.479347 0.828367
0.668574 0.508690 0.833127
0.823270 0.562402 0.843595
0.865019 0.628779 0.816220
0.924071 0.688930 0.812222
0.960693 0.715175 0.817594
0.975708 0.748714 0.831540
0.520867 0.512779 0.824552
0.553948 0.519066 0.825986
0.665766 0.543175 0.831052
0.816617 0.585443 0.842100
0.861418 0.641047 0.816800
0.920989 0.694575 0.813321
0.958373 0.718532 0.818448
0.974243 0.751034 0.832456
0.532128 0.610742 0.820615
0.559716 0.613825 0.821988
0.657649 0.626154 0.828031
0.798581 0.650629 0.840726
0.854337 0.684138 0.823087
0.913146 0.719081 0.821317
0.951507 0.737148 0.826352
0.967712 0.766232 0.840208
0.528496 0.686641 0.815335
0.552911 0.688533 0.817227
0.642054 0.697810 0.825010
0.771969 0.715724 0.839933
0.847532 0.736995 0.835355
0.902251 0.754025 0.834318
0.940795 0.765805 0.839048
0.961700 0.783658 0.845853
0.567468 0.767117 0.826139
0.581781 0.765835 0.826047
0.635767 0.761349 0.826444
0.727535 0.760159 0.833280
0.841794 0.784665 0.851408
0.888762 0.788052 0.847196
0.932464 0.794461 0.849638
0.950713 0.809140 0.856352
0.657008 0.827970 0.833555
0.666529 0.827543 0.834348
0.702907 0.825986 0.837644
0.762661 0.824521 0.845060
0.833494 0.829313 0.859831
0.885222 0.834928 0.867613
0.919982 0.837491 0.868803
0.932891 0.838834 0.870939
0.747616 0.865476 0.830167
0.753475 0.865446 0.831662
0.776242 0.865171 0.837705
0.818997 0.863951 0.853758
0.860502 0.862791 0.875029
0.884703 0.863645 0.887114
0.906676 0.869566 0.884855
0.915862 0.864347 0.886534
0.798611 0.887358 0.845731
0.802792 0.886992 0.847776
0.819089 0.885466 0.856077
0.845243 0.882628 0.869841
0.873777 0.879545 0.886107
0.895048 0.877592 0.900053
0.899992 0.876982 0.901518
0.904875 0.877501 0.899565
0.645747 0.589471 0.889372
0.664179 0.592279 0.889708
0.730648 0.603357 0.890715
0.832395 0.625788 0.893431
0.922148 0.661921 0.892821
0.943084 0.712032 0.865690
0.959503 0.757992 0.859800
0.960815 0.783078 0.862455
0.645899 0.607385 0.887968
0.663661 0.609857 0.888365
0.728511 0.619074 0.889647
0.828672 0.638697 0.892485
0.919005 0.671107 0.892424
0.940887 0.717708 0.866423
0.957855 0.761349 0.860838
0.959472 0.785550 0.863462
0.644434 0.659327 0.885191
0.660639 0.660731 0.885588
0.720912 0.666651 0.887083
0.816495 0.681025 0.890623
0.908721 0.704341 0.892424
0.933349 0.739864 0.870298
0.951324 0.776150 0.865873
0.953429 0.796536 0.867979
0.633478 0.715236 0.882292
0.648524 0.716182 0.882780
0.704829 0.720180 0.884550
0.794491 0.730007 0.888396
0.893126 0.748653 0.893645
0.921508 0.773190 0.877470
0.940673 0.799893 0.874418
0.943053 0.814603 0.875669
0.606653 0.768429 0.881376
0.617548 0.767178 0.881285
0.661524 0.763760 0.881590
0.756100 0.771603 0.885954
0.856779 0.787564 0.892241
0.907073 0.807340 0.886259
0.928313 0.825101 0.883879
0.930480 0.835569 0.884977
0.639673 0.844022 0.889708
0.648066 0.842954 0.889647
0.681544 0.838743 0.889494
0.738430 0.830991 0.889342
0.807614 0.820584 0.889372
0.895659 0.840574 0.897826
0.915404 0.850278 0.893858
0.916167 0.858122 0.895964
0.700923 0.885100 0.882048
0.707393 0.884581 0.882506
0.733181 0.882536 0.884489
0.776883 0.878935 0.888243
0.828794 0.874479 0.893462
0.876280 0.871031 0.899382
0.904875 0.870603 0.902129
0.907530 0.871824 0.902464
0.771115 0.889891 0.862852
0.775814 0.889464 0.863859
0.794614 0.887816 0.868284
0.826474 0.884916 0.876616
0.862181 0.881590 0.887846
0.891356 0.878843 0.900328
0.902831 0.878111 0.907652
0.902892 0.878141 0.907683
