20 Preset/Japan Style/【3】LUT video cho PR-AE-FCPX/LUT VIDEO (2)/Japan Style LUT (43).cube
# Created by Adobe Lightroom plugin Export LUT (1.24.0)
# www.johnrellis.com/lightroom/exportlut.htm
# Preset: 43日系深绿（素材江湖）
# Color profile: C:\Program Files (x86)\Common Files\Adobe\Color\Profiles\Recommended\VideoHD.icc
LUT_3D_SIZE 32
DOMAIN_MIN 0.0 0.0 0.0
DOMAIN_MAX 1.0 1.0 1.0
0.003784 0.029297 0.048981
0.005768 0.029084 0.048981
0.012696 0.029389 0.049928
0.029816 0.030762 0.051667
0.058869 0.032959 0.055299
0.092103 0.034363 0.059876
0.112306 0.037110 0.063874
0.137942 0.034974 0.067720
0.169192 0.028595 0.071962
0.205936 0.012482 0.075654
0.247654 0.000000 0.077485
0.294408 0.000000 0.077974
0.345800 0.000000 0.078065
0.402441 0.000000 0.075959
0.463081 0.000000 0.071534
0.526299 0.000000 0.066255
0.589746 0.000000 0.057740
0.651209 0.000000 0.046387
0.708766 0.000000 0.034699
0.762081 0.000000 0.021485
0.811124 0.000000 0.006836
0.855436 0.000000 0.000000
0.895293 0.000000 0.000000
0.932067 0.000000 0.000000
0.966552 0.000000 0.000000
0.998657 0.000000 0.000000
1.000000 0.000000 0.000000
1.000000 0.000000 0.000000
1.000000 0.000000 0.000000
1.000000 0.000000 0.000000
1.000000 0.000000 0.000000
1.000000 0.000000 0.042725
0.004028 0.031495 0.049805
0.004334 0.031495 0.048676
0.013245 0.031556 0.049622
0.030396 0.032929 0.051362
0.059419 0.035126 0.054994
0.092073 0.037720 0.059419
0.113039 0.039063 0.063569
0.139101 0.037690 0.068391
0.171450 0.029206 0.071595
0.208804 0.011994 0.075227
0.250828 0.000000 0.076722
0.298222 0.000000 0.078309
0.350561 0.000000 0.078065
0.407660 0.000000 0.074739
0.468666 0.000000 0.070954
0.531731 0.000000 0.064302
0.595117 0.000000 0.055512
0.656458 0.000000 0.044923
0.713710 0.000000 0.032868
0.766690 0.000000 0.019471
0.815518 0.000000 0.004303
0.859586 0.000000 0.000000
0.899290 0.000000 0.000000
0.935821 0.000000 0.000000
0.970031 0.000000 0.000000
1.000000 0.000000 0.000000
1.000000 0.000000 0.000000
1.000000 0.000000 0.000000
1.000000 0.000000 0.000000
1.000000 0.000000 0.000000
1.000000 0.000000 0.000000
1.000000 0.000000 0.045563
0.000000 0.044251 0.054963
0.000397 0.044038 0.054932
0.008515 0.044343 0.051362
0.030518 0.045258 0.049683
0.060548 0.046265 0.052338
0.092500 0.048859 0.056733
0.114412 0.049775 0.060883
0.141726 0.047486 0.065675
0.174502 0.039307 0.069825
0.212039 0.021180 0.073426
0.255100 0.000000 0.074861
0.303288 0.000000 0.076143
0.355657 0.000000 0.075563
0.413336 0.000000 0.072755
0.474739 0.000000 0.067231
0.538048 0.000000 0.061097
0.601312 0.000000 0.051881
0.661982 0.000000 0.039521
0.718746 0.000000 0.027253
0.771176 0.000000 0.014252
0.819577 0.000000 0.000000
0.863005 0.000000 0.000000
0.902159 0.000000 0.000000
0.938415 0.000000 0.000000
0.972229 0.000000 0.000000
1.000000 0.000000 0.000000
1.000000 0.000000 0.000000
1.000000 0.000000 0.000000
1.000000 0.000000 0.000000
1.000000 0.000000 0.000000
1.000000 0.000000 0.000000
1.000000 0.000000 0.040742
0.000000 0.070314 0.071870
0.000000 0.070314 0.069612
0.000000 0.068452 0.067445
0.018555 0.069825 0.057832
0.057130 0.073579 0.049805
0.092958 0.072358 0.052399
0.116274 0.072572 0.057649
0.144350 0.069612 0.061280
0.178683 0.060853 0.065217
0.217594 0.041474 0.068574
0.261418 0.011353 0.070588
0.309667 0.000000 0.071168
0.363470 0.000000 0.069917
0.421912 0.000000 0.066285
0.483803 0.000000 0.059937
0.547662 0.000000 0.052583
0.610681 0.000000 0.042115
0.671229 0.000000 0.029633
0.727718 0.000000 0.016022
0.779599 0.000000 0.002045
0.827237 0.000000 0.000000
0.869749 0.000000 0.000000
0.907866 0.000000 0.000000
0.942992 0.000000 0.000000
0.975860 0.000000 0.000000
1.000000 0.000000 0.000000
1.000000 0.000000 0.000000
1.000000 0.000000 0.000000
1.000000 0.000000 0.000000
1.000000 0.000000 0.000000
1.000000 0.000000 0.000000
1.000000 0.000000 0.028351
0.000000 0.095399 0.087739
0.000000 0.095338 0.087037
0.000000 0.094362 0.082887
0.003479 0.091493 0.082612
0.033997 0.095277 0.070802
0.092164 0.099611 0.051881
0.119142 0.097780 0.048615
0.150088 0.095247 0.053590
0.186618 0.091829 0.057130
0.226658 0.083742 0.059632
0.271702 0.055818 0.062104
0.321599 0.008331 0.060578
0.376135 0.000000 0.058137
0.435554 0.000000 0.054261
0.497505 0.000000 0.046387
0.560235 0.000000 0.037690
0.622278 0.000000 0.026337
0.681331 0.000000 0.012787
0.736263 0.000000 0.000000
0.787350 0.000000 0.000000
0.833829 0.000000 0.000000
0.875212 0.000000 0.000000
0.912200 0.000000 0.000000
0.946654 0.000000 0.000000
0.978698 0.000000 0.000000
1.000000 0.000000 0.000000
1.000000 0.000000 0.000000
1.000000 0.000000 0.000000
1.000000 0.000000 0.000000
1.000000 0.000000 0.000000
1.000000 0.000000 0.000000
1.000000 0.000000 0.007080
0.000000 0.118013 0.095857
0.000000 0.117952 0.095491
0.000000 0.116060 0.091310
0.000000 0.112642 0.090089
0.005158 0.110140 0.089052
0.049989 0.118318 0.078767
0.116701 0.129732 0.052064
0.154574 0.125124 0.047913
0.193423 0.120485 0.044312
0.235691 0.114961 0.044373
0.282200 0.106264 0.044770
0.333288 0.091005 0.044221
0.388922 0.033143 0.040284
0.448768 0.000000 0.033753
0.510613 0.000000 0.025391
0.572869 0.000000 0.015259
0.633417 0.000000 0.002167
0.691127 0.000000 0.000000
0.744656 0.000000 0.000000
0.794217 0.000000 0.000000
0.839536 0.000000 0.000000
0.879484 0.000000 0.000000
0.896910 0.000000 0.000000
0.932341 0.000000 0.000000
0.965545 0.000000 0.000000
0.996735 0.000000 0.000000
1.000000 0.000000 0.000000
1.000000 0.000000 0.000000
1.000000 0.000000 0.000000
1.000000 0.000000 0.000000
1.000000 0.000000 0.000000
1.000000 0.000000 0.000000
0.000000 0.143618 0.103029
0.000000 0.143099 0.102419
0.000000 0.141817 0.100099
0.000000 0.138033 0.094697
0.000000 0.131716 0.094636
0.000000 0.132357 0.092164
0.066468 0.144991 0.081117
0.144198 0.163485 0.045991
0.191653 0.159182 0.039124
0.236454 0.152285 0.035554
0.284062 0.143679 0.030945
0.335515 0.135195 0.020478
0.391577 0.120668 0.013153
0.451301 0.094362 0.006470
0.513298 0.000000 0.000000
0.575372 0.000000 0.000000
0.635889 0.000000 0.000000
0.692958 0.000000 0.000000
0.745449 0.000000 0.000000
0.793973 0.000000 0.000000
0.837095 0.000000 0.000000
0.874998 0.000000 0.000000
0.909514 0.000000 0.000000
0.941955 0.000000 0.000000
0.972686 0.000000 0.000000
1.000000 0.000000 0.000000
1.000000 0.000000 0.000000
1.000000 0.000000 0.000000
1.000000 0.000000 0.000000
1.000000 0.000000 0.000000
1.000000 0.000000 0.000000
1.000000 0.000000 0.000000
0.000000 0.178317 0.111696
0.000000 0.178286 0.111696
0.000000 0.176913 0.110079
0.000000 0.172457 0.101961
0.000000 0.165866 0.099886
0.000000 0.156130 0.100526
0.000000 0.163119 0.095674
0.092317 0.181125 0.080323
0.176516 0.203616 0.032532
0.244846 0.205325 0.012238
0.297734 0.195407 0.008148
0.352605 0.184237 0.001343
0.411078 0.170413 0.000000
0.472389 0.156741 0.000000
0.534874 0.137697 0.000000
0.596368 0.103426 0.000000
0.655421 0.000000 0.000000
0.710414 0.000000 0.000000
0.761135 0.000000 0.000000
0.807553 0.000000 0.000000
0.848295 0.000000 0.000000
0.884520 0.000000 0.000000
0.917540 0.000000 0.000000
0.948730 0.000000 0.000000
0.978393 0.000000 0.000000
1.000000 0.000000 0.000000
1.000000 0.000000 0.000000
1.000000 0.000000 0.000000
1.000000 0.000000 0.000000
1.000000 0.000000 0.000000
1.000000 0.000000 0.000000
1.000000 0.120851 0.000000
0.000000 0.217716 0.122103
0.000000 0.217441 0.121645
0.000000 0.216373 0.120729
0.000000 0.212558 0.114137
0.000000 0.205661 0.105135
0.000000 0.195254 0.105989
0.000000 0.182803 0.106508
0.000000 0.198795 0.098421
0.114412 0.222171 0.076387
0.213687 0.247654 0.008026
0.307897 0.259586 0.000000
0.368658 0.246525 0.000000
0.430091 0.232731 0.000000
0.492500 0.216800 0.000000
0.555047 0.200198 0.000000
0.615717 0.185000 0.000000
0.673518 0.168582 0.000000
0.726864 0.148287 0.000000
0.775570 0.121645 0.000000
0.819333 0.087556 0.000000
0.858122 0.000000 0.000000
0.892607 0.000000 0.000000
0.924468 0.000000 0.000000
0.954589 0.000000 0.000000
0.983215 0.000000 0.000000
1.000000 0.000000 0.000000
1.000000 0.000000 0.000000
1.000000 0.000000 0.000000
1.000000 0.081300 0.000000
1.000000 0.136202 0.000000
1.000000 0.177951 0.000000
1.000000 0.216373 0.000000
0.000000 0.260472 0.133303
0.000000 0.260258 0.133120
0.000000 0.259495 0.132326
0.000000 0.256168 0.127413
0.000000 0.249546 0.115908
0.000000 0.239078 0.111482
0.000000 0.225742 0.112337
0.000000 0.214725 0.112032
0.000000 0.238712 0.100252
0.145296 0.267430 0.064240
0.261265 0.299443 0.000000
0.383978 0.322271 0.000000
0.450507 0.305974 0.000000
0.514305 0.290135 0.000000
0.576257 0.273716 0.000000
0.635401 0.256291 0.000000
0.690272 0.243229 0.000000
0.740871 0.233371 0.000000
0.787594 0.225040 0.000000
0.829496 0.216983 0.000000
0.866758 0.205936 0.000000
0.900237 0.195254 0.000000
0.931212 0.187076 0.000000
0.960632 0.181918 0.000000
0.988708 0.179965 0.000000
1.000000 0.183200 0.000000
1.000000 0.191226 0.000000
1.000000 0.203372 0.000000
1.000000 0.219272 0.000000
1.000000 0.238346 0.000000
1.000000 0.260014 0.000000
1.000000 0.284367 0.000000
0.000000 0.307866 0.146090
0.000000 0.307652 0.145937
0.000000 0.306401 0.144778
0.000000 0.303807 0.142702
0.000000 0.296788 0.131014
0.000000 0.286442 0.117189
0.000000 0.272099 0.118135
0.000000 0.255558 0.118532
0.000000 0.251713 0.115755
0.000000 0.280858 0.100038
0.183841 0.314794 0.041627
0.314855 0.352422 0.000000
0.464607 0.389349 0.000000
0.531609 0.370794 0.000000
0.593652 0.353765 0.000000
0.651179 0.337896 0.000000
0.704555 0.322789 0.000000
0.754147 0.308293 0.000000
0.798764 0.301213 0.000000
0.838682 0.295598 0.000000
0.874479 0.290929 0.000000
0.906950 0.286564 0.000000
0.936858 0.281285 0.000000
0.965179 0.277043 0.000000
0.992248 0.275456 0.000000
1.000000 0.276860 0.000000
1.000000 0.281010 0.000000
1.000000 0.288029 0.000000
1.000000 0.297795 0.000000
1.000000 0.310338 0.000000
1.000000 0.325383 0.000000
1.000000 0.342962 0.000000
0.000000 0.354772 0.159609
0.000000 0.354284 0.159213
0.000000 0.353063 0.158083
0.000000 0.350683 0.156313
0.000000 0.344518 0.147372
0.000000 0.333867 0.129793
0.000000 0.319768 0.123384
0.000000 0.301854 0.123964
0.000000 0.281468 0.124086
0.000000 0.289281 0.117800
0.079988 0.323308 0.097383
0.226749 0.362310 0.009186
0.353155 0.390814 0.000000
0.515587 0.438666 0.000000
0.585199 0.424048 0.000000
0.643793 0.407568 0.000000
0.697017 0.392737 0.000000
0.746731 0.379644 0.000000
0.791928 0.367010 0.000000
0.832212 0.355871 0.000000
0.867857 0.350713 0.000000
0.900389 0.346807 0.000000
0.930938 0.344640 0.000000
0.959777 0.343542 0.000000
0.987060 0.342046 0.000000
1.000000 0.342290 0.000000
1.000000 0.344671 0.000000
1.000000 0.349676 0.000000
1.000000 0.356939 0.000000
1.000000 0.366247 0.000000
1.000000 0.377966 0.000000
1.000000 0.391730 0.000000
0.000000 0.394781 0.171664
0.000000 0.394842 0.171786
0.000000 0.393591 0.170687
0.000000 0.391485 0.168765
0.000000 0.386877 0.163058
0.000000 0.376928 0.145754
0.000000 0.363867 0.128481
0.000000 0.346593 0.128664
0.000000 0.326146 0.128939
0.000000 0.302434 0.128511
0.000000 0.324041 0.117922
0.126131 0.361669 0.092775
0.268009 0.402960 0.000000
0.414435 0.446418 0.000000
0.577417 0.499397 0.000000
0.656123 0.496834 0.000000
0.709102 0.480140 0.000000
0.757412 0.465095 0.000000
0.800626 0.451331 0.000000
0.839567 0.438209 0.000000
0.874693 0.425727 0.000000
0.906554 0.417182 0.000000
0.935973 0.413550 0.000000
0.963958 0.411902 0.000000
0.990509 0.412573 0.000000
1.000000 0.412207 0.000000
1.000000 0.412940 0.000000
1.000000 0.415442 0.000000
1.000000 0.419837 0.000000
1.000000 0.426215 0.000000
1.000000 0.434363 0.000000
1.000000 0.444678 0.000000
0.000000 0.443000 0.187991
0.000000 0.442786 0.187442
0.000000 0.442023 0.186770
0.000000 0.439948 0.185061
0.000000 0.436042 0.181918
0.000000 0.426703 0.165072
0.000000 0.413764 0.142580
0.000000 0.396582 0.134340
0.000000 0.375586 0.133852
0.000000 0.351232 0.133211
0.000000 0.326116 0.131807
0.000000 0.363592 0.117433
0.175174 0.405890 0.082795
0.321630 0.451392 0.000000
0.471748 0.498573 0.000000
0.627375 0.554833 0.000000
0.715816 0.567803 0.000000
0.762722 0.550378 0.000000
0.804837 0.534112 0.000000
0.842496 0.518853 0.000000
0.876677 0.504387 0.000000
0.908354 0.491737 0.000000
0.938354 0.480995 0.000000
0.965667 0.476387 0.000000
0.991363 0.474586 0.000000
1.000000 0.474891 0.000000
1.000000 0.475654 0.000000
1.000000 0.476234 0.000000
1.000000 0.478340 0.000000
1.000000 0.482185 0.000000
1.000000 0.487709 0.000000
1.000000 0.495155 0.000000
0.000000 0.489693 0.205447
0.000000 0.489204 0.204837
0.000000 0.488502 0.204105
0.000000 0.486397 0.202304
0.000000 0.482856 0.199161
0.000000 0.474678 0.185763
0.000000 0.462013 0.162722
0.000000 0.445716 0.140780
0.000000 0.424720 0.139498
0.000000 0.400397 0.138003
0.000000 0.372961 0.136568
0.000000 0.361303 0.132448
0.000000 0.403449 0.114961
0.226566 0.449683 0.058778
0.376135 0.498482 0.000000
0.525139 0.548913 0.000000
0.666987 0.602991 0.000000
0.763943 0.631952 0.000000
0.805173 0.613123 0.000000
0.842191 0.595880 0.000000
0.875792 0.579797 0.000000
0.907073 0.565759 0.000000
0.936614 0.553826 0.000000
0.964446 0.543450 0.000000
0.990723 0.535393 0.000000
1.000000 0.533410 0.000000
1.000000 0.532647 0.000000
1.000000 0.533257 0.000000
1.000000 0.533318 0.000000
1.000000 0.534569 0.000000
1.000000 0.537591 0.000000
1.000000 0.542077 0.000000
0.000000 0.535271 0.224521
0.000000 0.534936 0.224063
0.000000 0.533928 0.223239
0.000000 0.531548 0.221012
0.000000 0.527703 0.217411
0.000000 0.520775 0.208011
0.000000 0.508385 0.184848
0.000000 0.492622 0.156252
0.000000 0.472175 0.145418
0.000000 0.448463 0.143313
0.000000 0.421057 0.140932
0.000000 0.390875 0.138643
0.000000 0.396704 0.131838
0.100465 0.443305 0.111147
0.280400 0.493355 0.023224
0.430762 0.545312 0.000000
0.575006 0.598291 0.000000
0.701503 0.647639 0.000000
0.803861 0.686976 0.000000
0.840024 0.667872 0.000000
0.873167 0.650599 0.000000
0.904021 0.635370 0.000000
0.933074 0.622187 0.000000
0.960540 0.610407 0.000000
0.986450 0.600366 0.000000
1.000000 0.591730 0.000000
1.000000 0.586542 0.000000
1.000000 0.584955 0.000000
1.000000 0.584497 0.000000
1.000000 0.584192 0.000000
1.000000 0.585107 0.000000
1.000000 0.587579 0.000000
0.000000 0.579644 0.246159
0.000000 0.579309 0.245853
0.000000 0.578302 0.244755
0.000000 0.575921 0.242466
0.000000 0.572168 0.238804
0.000000 0.566491 0.233127
0.000000 0.554498 0.209506
0.000000 0.539178 0.180117
0.000000 0.520317 0.153567
0.000000 0.497353 0.150271
0.000000 0.470741 0.146731
0.000000 0.440925 0.143343
0.000000 0.407935 0.140017
0.000000 0.433661 0.130343
0.170779 0.483864 0.105653
0.335058 0.536645 0.000000
0.482429 0.590265 0.000000
0.617304 0.643061 0.000000
0.733791 0.688655 0.000000
0.836790 0.732326 0.000000
0.869657 0.714839 0.000000
0.900267 0.698665 0.000000
0.928862 0.684565 0.000000
0.955810 0.671870 0.000000
0.981292 0.660670 0.000000
1.000000 0.650996 0.000000
1.000000 0.642420 0.000000
1.000000 0.635157 0.000000
1.000000 0.631647 0.000000
1.000000 0.630304 0.000000
1.000000 0.629541 0.000000
1.000000 0.629969 0.000000
0.000000 0.621027 0.269200
0.000000 0.620661 0.268956
0.000000 0.611383 0.262577
0.000000 0.609339 0.260441
0.000000 0.605737 0.256504
0.000000 0.600610 0.251530
0.000000 0.590814 0.233127
0.000000 0.576532 0.203647
0.000000 0.559350 0.169070
0.000000 0.537804 0.156710
0.000000 0.512902 0.152102
0.000000 0.484413 0.147951
0.000000 0.452888 0.143618
0.000000 0.418524 0.139712
0.000000 0.466377 0.126894
0.225742 0.519097 0.099001
0.382208 0.573419 0.000000
0.524071 0.627710 0.000000
0.649165 0.677607 0.000000
0.757961 0.720027 0.000000
0.855680 0.761501 0.000000
0.893858 0.753079 0.000000
0.922423 0.738460 0.000000
0.949218 0.725460 0.000000
0.974578 0.713863 0.000000
0.998657 0.703517 0.000000
1.000000 0.694514 0.000000
1.000000 0.686458 0.000000
1.000000 0.679347 0.000000
1.000000 0.673152 0.000000
1.000000 0.670985 0.000000
1.000000 0.670039 0.000000
0.000000 0.658320 0.292424
0.000000 0.657465 0.292027
0.000000 0.655726 0.290013
0.000000 0.652674 0.286595
0.000000 0.649012 0.282628
0.000000 0.643885 0.276982
0.000000 0.635340 0.262181
0.000000 0.622522 0.233677
0.000000 0.606226 0.198245
0.000000 0.587030 0.168734
0.000000 0.563012 0.161563
0.000000 0.535973 0.155459
0.000000 0.504845 0.149111
0.000000 0.471382 0.143954
0.000000 0.453986 0.137881
0.016144 0.507042 0.123476
0.286412 0.562371 0.090059
0.437263 0.617670 0.000000
0.570123 0.669947 0.000000
0.685023 0.714900 0.000000
0.785306 0.752956 0.000000
0.876677 0.791379 0.000000
0.918456 0.789700 0.000000
0.944640 0.776181 0.000000
0.969512 0.763943 0.000000
0.993164 0.752956 0.000000
1.000000 0.743282 0.000000
1.000000 0.734340 0.000000
1.000000 0.726375 0.000000
1.000000 0.719112 0.000000
1.000000 0.712642 0.000000
1.000000 0.707820 0.000000
0.000000 0.698268 0.321172
0.000000 0.697383 0.320439
0.000000 0.695644 0.318273
0.000000 0.693050 0.314977
0.000000 0.689509 0.310582
0.000000 0.684932 0.304967
0.000000 0.678157 0.294163
0.000000 0.666957 0.266117
0.000000 0.652613 0.230961
0.000000 0.635218 0.189731
0.000000 0.612787 0.173831
0.000000 0.586969 0.165164
0.000000 0.557824 0.156405
0.000000 0.525078 0.148440
0.000000 0.489204 0.142000
0.000000 0.493629 0.134218
0.166598 0.549676 0.117617
0.346624 0.606470 0.078370
0.489876 0.660761 0.000000
0.612085 0.708278 0.000000
0.718318 0.748470 0.000000
0.810300 0.782498 0.000000
0.896300 0.818051 0.000000
0.940276 0.821561 0.000000
0.964477 0.809079 0.000000
0.987640 0.797726 0.000000
1.000000 0.787350 0.000000
1.000000 0.777951 0.000000
1.000000 0.769314 0.000000
1.000000 0.761440 0.000000
1.000000 0.754208 0.000000
1.000000 0.747555 0.000000
0.000000 0.735348 0.351934
0.000000 0.734676 0.351263
0.000000 0.733181 0.349004
0.000000 0.730922 0.345830
0.000000 0.727810 0.341314
0.000000 0.723568 0.335027
0.000000 0.718257 0.327367
0.000000 0.709071 0.301793
0.000000 0.696864 0.267277
0.000000 0.681788 0.225528
0.000000 0.662684 0.190127
0.000000 0.639277 0.178531
0.000000 0.611933 0.166873
0.000000 0.580713 0.155764
0.000000 0.546075 0.145937
0.000000 0.508263 0.137942
0.000000 0.536675 0.128511
0.242924 0.594446 0.110018
0.405341 0.650477 0.062287
0.537407 0.700099 0.000000
0.649836 0.741970 0.000000
0.747311 0.777462 0.000000
0.831449 0.807309 0.000000
0.909941 0.837919 0.000000
0.957946 0.847379 0.000000
0.980499 0.835721 0.000000
1.000000 0.824918 0.000000
1.000000 0.815091 0.000000
1.000000 0.806027 0.000000
1.000000 0.797604 0.000000
1.000000 0.789914 0.000000
1.000000 0.782803 0.000000
0.000000 0.766812 0.381415
0.000000 0.766293 0.380591
0.000000 0.765499 0.379248
0.000000 0.763912 0.376440
0.000000 0.761532 0.372473
0.000000 0.758053 0.366522
0.000000 0.753597 0.359228
0.000000 0.746395 0.338781
0.000000 0.736080 0.304601
0.000000 0.723568 0.264134
0.000000 0.708064 0.214481
0.000000 0.688014 0.196262
0.000000 0.664027 0.181186
0.000000 0.635523 0.166201
0.000000 0.603143 0.152499
0.000000 0.567407 0.140841
0.000000 0.527825 0.131044
0.000000 0.582208 0.120546
0.312444 0.640467 0.102480
0.461463 0.692683 0.081941
0.583246 0.737148 0.055451
0.686793 0.774319 0.050690
0.776486 0.805783 0.035798
0.853666 0.832151 0.000000
0.924102 0.857603 0.000000
0.975494 0.871946 0.000000
0.996612 0.861112 0.000000
1.000000 0.851041 0.000000
1.000000 0.841703 0.000000
1.000000 0.833066 0.000000
1.000000 0.825040 0.000000
1.000000 0.817563 0.000000
0.000000 0.800076 0.417365
0.000000 0.799649 0.416571
0.000000 0.798886 0.415076
0.000000 0.797543 0.412696
0.000000 0.795407 0.408576
0.000000 0.792416 0.402930
0.000000 0.788449 0.395422
0.000000 0.782620 0.379065
0.000000 0.774411 0.347051
0.000000 0.764279 0.308782
0.000000 0.751614 0.260685
0.000000 0.735561 0.222660
0.000000 0.715572 0.204074
0.000000 0.691463 0.184329
0.000000 0.663539 0.165499
0.000000 0.630762 0.147768
0.000000 0.593774 0.132906
0.000000 0.574334 0.121065
0.194827 0.633722 0.110964
0.382086 0.687984 0.104585
0.516808 0.734066 0.112184
0.628046 0.772610 0.129091
0.723018 0.804990 0.147189
0.804257 0.832059 0.161624
0.875517 0.855894 0.172610
0.938170 0.876493 0.159091
0.989868 0.892546 0.122225
1.000000 0.883879 0.000000
1.000000 0.874418 0.000000
1.000000 0.865599 0.000000
1.000000 0.857359 0.000000
1.000000 0.849607 0.000000
0.000000 0.829984 0.453010
0.000000 0.829618 0.452430
0.000000 0.828977 0.451179
0.000000 0.827726 0.448463
0.000000 0.826139 0.445106
0.000000 0.823880 0.440192
0.000000 0.820768 0.433692
0.000000 0.816373 0.422339
0.000000 0.810025 0.392584
0.000000 0.802213 0.356725
0.000000 0.792538 0.312108
0.000000 0.780606 0.258274
0.000000 0.764523 0.237491
0.000000 0.745663 0.215427
0.000000 0.723110 0.191440
0.000000 0.696559 0.167025
0.000000 0.665156 0.143038
0.000000 0.628717 0.121614
0.000000 0.635309 0.109682
0.297337 0.690364 0.112093
0.453468 0.736843 0.130434
0.574212 0.775845 0.157412
0.674403 0.808438 0.186221
0.759884 0.835813 0.213016
0.832822 0.858549 0.233616
0.895598 0.877379 0.245457
0.951843 0.894377 0.243626
1.000000 0.909606 0.227390
1.000000 0.903838 0.181216
1.000000 0.895079 0.102937
1.000000 0.886809 0.000000
1.000000 0.879026 0.000000
0.000000 0.861753 0.496925
0.000000 0.861326 0.496010
0.000000 0.860807 0.495033
0.000000 0.859800 0.492805
0.000000 0.858244 0.489113
0.000000 0.856138 0.484413
0.000000 0.853330 0.478187
0.000000 0.849424 0.469337
0.000000 0.844388 0.442695
0.000000 0.838102 0.408728
0.000000 0.830503 0.367468
0.000000 0.821164 0.316533
0.000000 0.809079 0.280095
0.000000 0.793912 0.256992
0.000000 0.776089 0.230869
0.000000 0.755550 0.203372
0.000000 0.731197 0.174014
0.000000 0.702571 0.142489
0.000000 0.668574 0.110628
0.180636 0.697414 0.112093
0.388678 0.743618 0.138369
0.521538 0.781888 0.173404
0.628351 0.814115 0.209018
0.717586 0.840909 0.242710
0.793301 0.863127 0.271580
0.857969 0.881559 0.293858
0.913787 0.896818 0.306523
0.964660 0.910979 0.308171
1.000000 0.924895 0.294682
1.000000 0.921111 0.257267
1.000000 0.912932 0.206699
1.000000 0.904936 0.119753
0.000000 0.890440 0.542260
0.000000 0.890227 0.541894
0.000000 0.889738 0.540551
0.000000 0.888975 0.538811
0.000000 0.887724 0.535668
0.000000 0.886046 0.531670
0.000000 0.883696 0.525841
0.000000 0.880644 0.518334
0.000000 0.876890 0.497078
0.000000 0.872282 0.466651
0.000000 0.866667 0.428962
0.000000 0.859892 0.383093
0.000000 0.851469 0.333806
0.000000 0.839811 0.311040
0.000000 0.826169 0.285985
0.000000 0.810605 0.258518
0.000000 0.792386 0.228183
0.000000 0.771176 0.194553
0.000000 0.746456 0.157900
0.000000 0.717128 0.115328
0.327764 0.760006 0.152468
0.477333 0.796017 0.194095
0.590204 0.826200 0.235050
0.682918 0.851499 0.273655
0.760464 0.872343 0.308537
0.826139 0.889647 0.337621
0.882597 0.904021 0.359075
0.931945 0.916014 0.371038
0.977630 0.927428 0.372625
1.000000 0.940032 0.359625
1.000000 0.937041 0.321263
1.000000 0.928771 0.270573
0.000000 0.917967 0.593439
0.000000 0.917754 0.592950
0.000000 0.917388 0.591943
0.000000 0.916747 0.590387
0.000000 0.915679 0.587762
0.000000 0.914092 0.583734
0.000000 0.911955 0.578393
0.000000 0.909148 0.571221
0.000000 0.905974 0.554253
0.000000 0.902373 0.526390
0.000000 0.898009 0.492287
0.000000 0.892790 0.450568
0.000000 0.886717 0.400244
0.000000 0.877958 0.369635
0.000000 0.867491 0.346044
0.000000 0.855558 0.319890
0.000000 0.842008 0.291752
0.000000 0.826444 0.260777
0.000000 0.808316 0.226658
0.000000 0.787503 0.188907
0.259739 0.779843 0.169497
0.435248 0.812741 0.215030
0.555352 0.840360 0.259434
0.650904 0.863401 0.300938
0.729854 0.882475 0.339086
0.796475 0.898375 0.371984
0.853452 0.911620 0.398474
0.902831 0.922667 0.416449
0.946532 0.931853 0.424323
0.987671 0.940612 0.420356
1.000000 0.951934 0.400855
1.000000 0.949340 0.355779
0.000000 0.940551 0.642145
0.000000 0.940520 0.642023
0.000000 0.940276 0.641535
0.000000 0.939818 0.640497
0.000000 0.939086 0.638636
0.000000 0.937926 0.635889
0.000000 0.936400 0.632166
0.000000 0.934447 0.627192
0.000000 0.932341 0.615564
0.000000 0.930236 0.592615
0.000000 0.927733 0.564874
0.000000 0.924712 0.530388
0.000000 0.921141 0.488716
0.000000 0.916228 0.450416
