20 Preset/Japan Style/【3】LUT video cho PR-AE-FCPX/LUT VIDEO (2)/Japan Style LUT (46).cube
# Created by Adobe Lightroom plugin Export LUT (1.24.0)
# www.johnrellis.com/lightroom/exportlut.htm
# Preset: 46日系自然（素材江湖）
# Color profile: C:\Program Files (x86)\Common Files\Adobe\Color\Profiles\Recommended\VideoHD.icc
LUT_3D_SIZE 32
DOMAIN_MIN 0.0 0.0 0.0
DOMAIN_MAX 1.0 1.0 1.0
0.171786 0.191318 0.171176
0.171786 0.191318 0.171176
0.171786 0.191318 0.171176
0.172305 0.191409 0.171145
0.177157 0.191226 0.171054
0.192844 0.190738 0.170809
0.217807 0.190005 0.170291
0.249821 0.188602 0.169528
0.290288 0.186343 0.168368
0.336461 0.183383 0.166659
0.386297 0.179019 0.164614
0.437842 0.173953 0.161715
0.489845 0.166720 0.158480
0.541558 0.158053 0.154360
0.591821 0.147555 0.149844
0.640040 0.134066 0.145022
0.685756 0.117311 0.139925
0.728847 0.095277 0.134646
0.769619 0.037629 0.129152
0.807919 0.000000 0.123690
0.842741 0.000000 0.118563
0.877531 0.000000 0.113436
0.910002 0.000000 0.109010
0.938903 0.000000 0.105348
0.964782 0.000000 0.102296
0.988190 0.000000 0.099947
1.000000 0.000000 0.097749
1.000000 0.000000 0.096193
1.000000 0.000000 0.095216
1.000000 0.000000 0.094453
1.000000 0.000000 0.094636
1.000000 0.000000 0.095491
0.171786 0.191318 0.171176
0.171786 0.191318 0.171176
0.171786 0.191318 0.171176
0.172610 0.191379 0.171145
0.177340 0.191348 0.171054
0.192905 0.191012 0.170748
0.217227 0.190372 0.170260
0.248600 0.189120 0.169497
0.288518 0.187167 0.168307
0.334051 0.184482 0.166629
0.383215 0.180697 0.164584
0.434424 0.175509 0.161746
0.486244 0.169070 0.158480
0.537774 0.160586 0.154452
0.587945 0.150332 0.149966
0.636378 0.137911 0.145113
0.682338 0.122286 0.140017
0.725704 0.101137 0.134768
0.766476 0.056397 0.129305
0.804898 0.000000 0.124025
0.839780 0.000000 0.118502
0.874266 0.000000 0.113558
0.906249 0.000000 0.109285
0.934813 0.000000 0.105562
0.960632 0.000000 0.102571
0.984100 0.000000 0.099947
1.000000 0.000000 0.097902
1.000000 0.000000 0.096315
1.000000 0.000000 0.094392
1.000000 0.000000 0.093751
1.000000 0.000000 0.093751
1.000000 0.000000 0.094148
0.171695 0.191470 0.171145
0.171695 0.191470 0.171145
0.171695 0.191470 0.171145
0.172976 0.191653 0.171084
0.178256 0.192020 0.170932
0.193973 0.192508 0.170504
0.217868 0.192355 0.169924
0.248692 0.191775 0.169070
0.287907 0.190768 0.167758
0.332799 0.188785 0.166171
0.381689 0.185733 0.163851
0.432593 0.181613 0.160922
0.484047 0.175753 0.157656
0.535119 0.168704 0.153506
0.585321 0.159426 0.149233
0.633539 0.148470 0.144350
0.679561 0.134554 0.139254
0.723018 0.117098 0.133944
0.763973 0.094240 0.128481
0.802579 0.032837 0.122805
0.837797 0.000000 0.117586
0.872496 0.000000 0.112428
0.904082 0.000000 0.108339
0.932525 0.000000 0.104768
0.958190 0.000000 0.101900
0.981811 0.000000 0.099092
1.000000 0.000000 0.096956
1.000000 0.000000 0.094972
1.000000 0.000000 0.093507
1.000000 0.000000 0.092378
1.000000 0.000000 0.092653
1.000000 0.000000 0.092622
0.171603 0.192355 0.171176
0.171908 0.192325 0.171176
0.172396 0.192416 0.171145
0.173190 0.192935 0.171054
0.179324 0.194095 0.170565
0.196170 0.196048 0.169863
0.219883 0.196872 0.169100
0.249882 0.197360 0.168276
0.288884 0.197543 0.166781
0.333196 0.196750 0.164828
0.381415 0.195193 0.162295
0.431342 0.192294 0.159426
0.482521 0.188022 0.155734
0.533104 0.182467 0.151675
0.582513 0.175143 0.147280
0.630549 0.166018 0.142336
0.676112 0.154971 0.137392
0.719173 0.141573 0.132052
0.760006 0.125124 0.126528
0.798459 0.104616 0.121126
0.833738 0.063874 0.115908
0.868620 0.000000 0.111116
0.899809 0.000000 0.106905
0.928313 0.000000 0.103365
0.954589 0.000000 0.100160
0.978851 0.000000 0.097505
1.000000 0.000000 0.095247
1.000000 0.000000 0.093599
1.000000 0.000000 0.091676
1.000000 0.000000 0.091035
1.000000 0.000000 0.090578
1.000000 0.000000 0.091341
0.172000 0.197787 0.170443
0.172274 0.197757 0.170443
0.173434 0.197665 0.170626
0.176028 0.198398 0.170260
0.181582 0.200107 0.169863
0.194888 0.202335 0.169192
0.220951 0.205570 0.167758
0.251377 0.206210 0.166659
0.289250 0.207980 0.164889
0.332799 0.209110 0.162753
0.379797 0.209079 0.159976
0.429297 0.207858 0.156649
0.479469 0.205325 0.152926
0.529961 0.201602 0.148775
0.579400 0.196048 0.144167
0.627070 0.189609 0.139132
0.673152 0.180606 0.133944
0.716426 0.170199 0.128664
0.757443 0.158083 0.122866
0.796048 0.143221 0.117678
0.832059 0.126040 0.112459
0.866728 0.104494 0.107637
0.897459 0.066560 0.103853
0.925994 0.000000 0.100099
0.952422 0.000000 0.097292
0.976867 0.000000 0.094209
0.999756 0.000000 0.092714
1.000000 0.000000 0.090303
1.000000 0.000000 0.088899
1.000000 0.000000 0.088167
1.000000 0.000000 0.088319
1.000000 0.000000 0.088472
0.172549 0.211093 0.168978
0.173098 0.211032 0.169162
0.175357 0.210575 0.169375
0.179690 0.210575 0.169284
0.186831 0.212619 0.168551
0.198337 0.215061 0.167483
0.215793 0.215976 0.166476
0.251316 0.221561 0.163851
0.291783 0.224155 0.161685
0.335210 0.225589 0.159213
0.381415 0.227146 0.156222
0.430121 0.227970 0.152560
0.479683 0.227085 0.148653
0.529473 0.225071 0.144076
0.578607 0.221408 0.139254
0.626398 0.216129 0.134127
0.671962 0.209689 0.128573
0.715419 0.201450 0.123140
0.756374 0.191867 0.117372
0.794949 0.180453 0.112245
0.832364 0.168093 0.106935
0.866423 0.154391 0.102052
0.918242 0.134951 0.095064
0.946288 0.115297 0.092287
0.971588 0.090608 0.090120
0.994629 0.027955 0.089235
1.000000 0.000000 0.088441
1.000000 0.000000 0.088045
1.000000 0.000000 0.088380
1.000000 0.000000 0.089631
1.000000 0.000000 0.090974
1.000000 0.000000 0.092683
0.173983 0.232822 0.167086
0.174838 0.232731 0.167269
0.178103 0.232029 0.167697
0.184146 0.230961 0.168338
0.192905 0.232609 0.167422
0.206088 0.235569 0.165713
0.224643 0.239231 0.163821
0.247074 0.239170 0.162356
0.293187 0.248264 0.157473
0.344335 0.253910 0.152651
0.392309 0.253880 0.149599
0.441291 0.254398 0.145571
0.490578 0.254887 0.141085
0.539574 0.254063 0.136049
0.587762 0.251530 0.130800
0.634150 0.247318 0.125521
0.678981 0.241794 0.119722
0.721431 0.235019 0.114168
0.761776 0.226963 0.108583
0.801694 0.217990 0.102968
0.841123 0.208072 0.097353
0.876402 0.197024 0.092653
0.908598 0.184573 0.089235
0.938323 0.171450 0.084779
0.965179 0.156893 0.081575
0.989227 0.141909 0.080018
1.000000 0.123507 0.079286
1.000000 0.101869 0.079744
1.000000 0.063020 0.080873
1.000000 0.000000 0.083101
1.000000 0.000000 0.085237
1.000000 0.000000 0.088136
0.177890 0.259678 0.165560
0.178531 0.259556 0.165774
0.182528 0.258885 0.166201
0.189914 0.257572 0.167269
0.199710 0.257084 0.167880
0.213443 0.260441 0.165591
0.232273 0.264866 0.162753
0.256840 0.269688 0.159243
0.281743 0.267979 0.157717
0.332616 0.278172 0.150423
0.388922 0.285527 0.142550
0.440070 0.286381 0.137179
0.489601 0.283726 0.133272
0.537804 0.283360 0.128023
0.585168 0.281956 0.122164
0.630976 0.279026 0.116457
0.675196 0.274815 0.110628
0.717494 0.269169 0.104860
0.758450 0.262333 0.098909
0.800198 0.255436 0.092409
0.837949 0.246952 0.085817
0.872282 0.237613 0.078889
0.903990 0.227085 0.072511
0.933471 0.216251 0.067384
0.960357 0.204959 0.062593
0.984619 0.192752 0.061280
1.000000 0.180179 0.062257
1.000000 0.166629 0.063203
1.000000 0.152468 0.065309
1.000000 0.136934 0.070008
1.000000 0.118990 0.073854
1.000000 0.098390 0.079805
0.183536 0.294133 0.164736
0.184970 0.293950 0.164950
0.189059 0.293400 0.165377
0.197513 0.292027 0.166690
0.209384 0.289860 0.168612
0.223606 0.292027 0.167056
0.242466 0.296056 0.163790
0.266697 0.301274 0.159518
0.295537 0.306828 0.154360
0.320989 0.302159 0.152895
0.374578 0.312779 0.142855
0.432410 0.320348 0.130800
0.488106 0.322545 0.120882
0.536828 0.318944 0.116060
0.584497 0.314092 0.110750
0.629664 0.312016 0.104433
0.673243 0.308446 0.098116
0.716182 0.303960 0.091646
0.758846 0.298589 0.082277
0.798947 0.292058 0.068238
0.835477 0.284520 0.056611
0.868986 0.276036 0.048341
0.900206 0.266911 0.043549
0.929503 0.257023 0.038697
0.956329 0.246983 0.037232
0.980652 0.236484 0.037751
1.000000 0.225528 0.042023
1.000000 0.214481 0.044434
1.000000 0.202945 0.048493
1.000000 0.191196 0.053712
1.000000 0.178775 0.060182
1.000000 0.166110 0.067445
0.191257 0.333471 0.163088
0.192782 0.333196 0.163363
0.197391 0.332464 0.164065
0.206577 0.331029 0.165438
0.219638 0.328985 0.167453
0.234928 0.327642 0.168856
0.253849 0.331243 0.165164
0.277043 0.335973 0.160464
0.305150 0.341375 0.154879
0.337377 0.346960 0.148013
0.361822 0.339055 0.146914
0.415839 0.348669 0.135286
0.474189 0.355932 0.119356
0.531701 0.358801 0.102632
0.581018 0.355108 0.093690
0.627497 0.348547 0.087343
0.673823 0.343267 0.073884
0.717708 0.339757 0.054932
0.759274 0.334691 0.038178
0.798154 0.328588 0.025452
0.833463 0.321202 0.016358
0.865751 0.312993 0.010803
0.895872 0.304234 0.009888
0.924254 0.295232 0.008087
0.950500 0.285649 0.009094
0.974701 0.275975 0.011048
0.997284 0.265782 0.016419
1.000000 0.255558 0.020905
1.000000 0.245304 0.026368
1.000000 0.234836 0.034272
1.000000 0.224491 0.041657
1.000000 0.213962 0.051301
0.201114 0.373541 0.162203
0.202182 0.373449 0.162203
0.207218 0.372900 0.163058
0.217288 0.371679 0.164401
0.230900 0.369848 0.166781
0.247715 0.367407 0.170077
0.266789 0.369146 0.168185
0.289281 0.373388 0.163119
0.316289 0.378271 0.156985
0.347601 0.383917 0.148959
0.382208 0.389075 0.139712
0.404944 0.378424 0.139406
0.458137 0.386236 0.126101
0.516258 0.392737 0.104921
0.574609 0.395758 0.072206
0.627893 0.393469 0.024933
0.673732 0.386358 0.009491
0.717525 0.376959 0.000000
0.758175 0.370367 0.000000
0.795865 0.364233 0.000000
0.830228 0.356939 0.000000
0.861997 0.348852 0.000000
0.891905 0.340490 0.000000
0.920104 0.331609 0.000000
0.946380 0.322454 0.000000
0.970672 0.313085 0.000000
0.993378 0.303532 0.000000
1.000000 0.293828 0.000000
1.000000 0.284215 0.004761
1.000000 0.274510 0.014557
1.000000 0.264988 0.023926
1.000000 0.255253 0.035676
0.213962 0.416052 0.162570
0.215366 0.415930 0.162783
0.220310 0.415412 0.163455
0.230045 0.414374 0.165164
0.244022 0.412940 0.167941
0.261753 0.410620 0.171756
0.281834 0.409216 0.174411
0.303532 0.412879 0.169039
0.329259 0.417273 0.162173
0.358923 0.422278 0.153902
0.392493 0.427649 0.143465
0.429969 0.433783 0.130953
0.469368 0.435309 0.127474
0.521813 0.439826 0.112551
0.581353 0.445106 0.070069
0.638483 0.445441 0.000000
0.691981 0.441352 0.000000
0.735714 0.432013 0.000000
0.776120 0.420539 0.000000
0.812985 0.407263 0.000000
0.845518 0.398932 0.000000
0.875639 0.390204 0.000000
0.903929 0.381018 0.000000
0.930419 0.371771 0.000000
0.955047 0.362310 0.000000
0.977996 0.352605 0.000000
0.999420 0.342748 0.000000
1.000000 0.333074 0.000000
1.000000 0.323522 0.000000
1.000000 0.313848 0.008301
1.000000 0.304540 0.021729
1.000000 0.295262 0.034577
0.233249 0.464820 0.167819
0.234195 0.464668 0.167849
0.239261 0.463905 0.168856
0.248966 0.462715 0.170443
0.262821 0.460700 0.173465
0.280339 0.458137 0.177707
0.300816 0.455299 0.183200
0.322698 0.457313 0.181613
0.347997 0.462196 0.174807
0.377325 0.467781 0.166201
0.411261 0.474464 0.155428
0.449165 0.481910 0.141909
0.489845 0.488441 0.124971
0.515557 0.477150 0.123232
0.563256 0.477333 0.111330
0.620356 0.480659 0.050599
0.674128 0.479072 0.000000
0.724392 0.473487 0.000000
0.767941 0.463844 0.000000
0.804013 0.451148 0.000000
0.837369 0.437018 0.000000
0.868345 0.423804 0.000000
0.896635 0.414801 0.000000
0.923278 0.405646 0.000000
0.948272 0.396124 0.000000
0.971496 0.386664 0.000000
0.993408 0.377081 0.000000
1.000000 0.367468 0.000000
1.000000 0.358007 0.000000
1.000000 0.348791 0.000000
1.000000 0.339452 0.002472
1.000000 0.330541 0.018219
0.254643 0.508415 0.177737
0.255406 0.508232 0.177829
0.259983 0.507561 0.178897
0.268925 0.506310 0.180606
0.282200 0.504509 0.183566
0.299260 0.502373 0.187686
0.319585 0.499763 0.193515
0.341466 0.497871 0.198062
0.364538 0.501518 0.191379
0.391394 0.506126 0.183658
0.422339 0.511589 0.173800
0.457130 0.517754 0.162173
0.495705 0.524254 0.146883
0.535760 0.529534 0.128237
0.559991 0.516838 0.125185
0.602228 0.512627 0.115267
0.654963 0.513146 0.063630
0.705379 0.509972 0.000000
0.752682 0.503288 0.000000
0.795285 0.493080 0.000000
0.828611 0.479652 0.000000
0.860105 0.465522 0.000000
0.889952 0.450843 0.000000
0.917479 0.438758 0.000000
0.942565 0.429389 0.000000
0.966125 0.419959 0.000000
0.988281 0.410468 0.000000
1.000000 0.400916 0.000000
1.000000 0.391455 0.000000
1.000000 0.382238 0.000000
1.000000 0.373236 0.000000
1.000000 0.364385 0.003723
0.278325 0.549615 0.192355
0.279484 0.549432 0.192416
0.283330 0.548730 0.193149
0.291173 0.547417 0.194827
0.303624 0.545434 0.197513
0.319249 0.543023 0.201511
0.338170 0.540429 0.206546
0.359808 0.537560 0.213046
0.381750 0.538354 0.211704
0.406073 0.542199 0.204593
0.434150 0.546777 0.196048
0.466102 0.551934 0.185977
0.501122 0.557397 0.173465
0.539269 0.562829 0.157717
0.578271 0.566461 0.138308
0.600519 0.552544 0.134768
0.637690 0.544915 0.126162
0.686488 0.543542 0.094820
0.734218 0.539025 0.000000
0.777646 0.530938 0.000000
0.817502 0.519982 0.000000
0.851957 0.506920 0.000000
0.881895 0.492866 0.000000
0.910246 0.478218 0.000000
0.936889 0.462989 0.000000
0.960937 0.452338 0.000000
0.983429 0.442817 0.000000
1.000000 0.433478 0.000000
1.000000 0.424140 0.000000
1.000000 0.415015 0.000000
1.000000 0.406195 0.000000
1.000000 0.397559 0.000000
0.302495 0.585779 0.209445
0.303593 0.585779 0.209659
0.307256 0.585290 0.210452
0.314397 0.584344 0.211917
0.325597 0.582940 0.214633
0.340368 0.581079 0.218357
0.358495 0.579034 0.223270
0.379156 0.576837 0.229587
0.401556 0.574945 0.235813
0.423621 0.578027 0.229374
0.448859 0.581537 0.221988
0.477211 0.585321 0.212894
0.508537 0.589227 0.202060
0.542504 0.593072 0.188846
0.578698 0.596643 0.172702
0.615595 0.598627 0.153597
0.636286 0.583886 0.148867
0.668910 0.573754 0.141604
0.714382 0.570886 0.118959
0.758755 0.565209 0.061677
0.799924 0.556603 0.000000
0.838346 0.545739 0.000000
0.873960 0.533104 0.000000
0.902708 0.519127 0.000000
0.929747 0.504570 0.000000
0.955322 0.489693 0.000000
0.979339 0.474891 0.000000
1.000000 0.465431 0.000000
1.000000 0.456123 0.000000
1.000000 0.446967 0.000000
1.000000 0.437964 0.000000
1.000000 0.429236 0.000000
0.326909 0.618402 0.228672
0.327977 0.618189 0.228855
0.331121 0.617853 0.229526
0.337560 0.617090 0.230961
0.347784 0.615900 0.233524
0.361120 0.614496 0.236698
0.377722 0.612634 0.241306
0.397009 0.610590 0.247196
0.418463 0.608240 0.254124
0.439490 0.608667 0.253941
0.462226 0.611536 0.247410
0.487709 0.614710 0.239689
0.516014 0.617975 0.230381
0.546654 0.621180 0.219455
0.579736 0.624262 0.206210
0.615076 0.626978 0.190249
0.650568 0.628199 0.172152
0.670283 0.613428 0.166934
0.698909 0.601404 0.160830
0.740444 0.596735 0.146120
0.782284 0.590600 0.114107
0.821897 0.581750 0.046540
0.858762 0.570947 0.000000
0.893065 0.558282 0.000000
0.922423 0.544274 0.000000
0.948333 0.529961 0.000000
0.972869 0.515282 0.000000
0.996246 0.500389 0.000000
1.000000 0.487343 0.000000
1.000000 0.478157 0.000000
1.000000 0.469123 0.000000
1.000000 0.460334 0.000000
0.353155 0.649561 0.250675
0.353704 0.649653 0.250919
0.366705 0.660273 0.260594
0.372686 0.659571 0.261997
0.381567 0.658534 0.264042
0.393744 0.657099 0.267247
0.408850 0.655299 0.271092
0.426581 0.653193 0.276127
0.446448 0.650904 0.282292
0.467872 0.648646 0.288914
0.487861 0.650843 0.283085
0.510613 0.653193 0.276341
0.535698 0.655451 0.267979
0.563165 0.657557 0.258213
0.592706 0.659388 0.246952
0.624170 0.661006 0.233616
0.657649 0.662257 0.218021
0.691127 0.661921 0.200717
0.708644 0.646418 0.194491
0.732723 0.631891 0.188632
0.770535 0.625513 0.179538
0.809903 0.618463 0.153750
0.847044 0.609094 0.122225
0.881559 0.597589 0.076783
0.913634 0.584253 0.000000
0.943053 0.569543 0.000000
0.967254 0.555047 0.000000
0.990417 0.540337 0.000000
1.000000 0.525536 0.000000
1.000000 0.510796 0.000000
1.000000 0.499550 0.000000
1.000000 0.490578 0.000000
0.382086 0.681147 0.276646
0.383703 0.682002 0.277592
0.387427 0.682734 0.279240
0.393439 0.683009 0.281285
0.402075 0.682765 0.283879
0.413245 0.681819 0.286839
0.426856 0.680354 0.290654
0.443030 0.678462 0.294896
0.461189 0.676356 0.300359
0.481361 0.673915 0.306950
0.500847 0.673732 0.307469
0.520714 0.675654 0.301671
0.543023 0.677485 0.294316
0.567590 0.679225 0.286107
0.594049 0.680873 0.276555
0.622705 0.682307 0.265507
0.653285 0.683619 0.252598
0.685725 0.684779 0.238224
0.718257 0.684413 0.222721
0.735409 0.669642 0.216648
0.756741 0.654444 0.211337
0.792599 0.648066 0.206363
0.830350 0.641016 0.183902
0.865660 0.631525 0.158633
0.898528 0.619989 0.128054
0.929290 0.606806 0.084382
0.958129 0.592218 0.000000
0.982910 0.577539 0.000000
1.000000 0.563287 0.000000
1.000000 0.548913 0.000000
1.000000 0.534630 0.000000
1.000000 0.520195 0.000000
0.406317 0.704829 0.298985
0.407843 0.705623 0.300084
0.411292 0.706355 0.301640
0.416693 0.706752 0.303716
0.424567 0.706661 0.306096
0.434668 0.705837 0.308965
0.446784 0.704616 0.312108
0.461555 0.702876 0.316167
0.478187 0.700984 0.321172
0.496437 0.698848 0.326970
0.516258 0.696498 0.333562
0.533898 0.698024 0.328344
0.553643 0.699519 0.322087
0.575555 0.701045 0.314824
0.599420 0.702449 0.306676
0.625177 0.703822 0.297246
0.652857 0.705013 0.286351
0.682399 0.706050 0.274022
0.713863 0.707057 0.260624
0.745235 0.706538 0.246098
0.761654 0.692256 0.240177
0.780392 0.676509 0.234958
0.814511 0.670161 0.231083
0.849760 0.662715 0.213718
0.883268 0.653132 0.191470
0.914733 0.641688 0.165713
0.944305 0.628626 0.134981
0.972290 0.614343 0.090455
0.998230 0.599298 0.000000
1.000000 0.585412 0.000000
1.000000 0.571557 0.000671
1.000000 0.557610 0.012879
0.431464 0.727535 0.322698
0.432776 0.728267 0.323735
0.435706 0.728817 0.325322
0.440711 0.729091 0.327245
0.447669 0.729000 0.329320
0.456611 0.728328 0.331823
0.467628 0.727199 0.334661
0.480751 0.725765 0.338415
0.495888 0.724117 0.342809
0.512840 0.722194 0.348180
0.531121 0.720058 0.354253
0.548821 0.719509 0.355474
0.566247 0.720790 0.349859
0.585626 0.722072 0.343633
0.607050 0.723415 0.336675
0.630335 0.724697 0.328496
0.655512 0.726040 0.319738
0.682856 0.727352 0.309636
0.711940 0.728756 0.298863
0.742947 0.730159 0.286717
0.773739 0.729976 0.274510
0.790066 0.716701 0.269383
0.807187 0.701167 0.264164
0.839231 0.694392 0.261936
0.872129 0.686824 0.249485
0.904112 0.677394 0.230198
0.934264 0.666133 0.208621
0.962860 0.653407 0.183993
0.990051 0.639490 0.154330
1.000000 0.624292 0.111940
1.000000 0.610101 0.098207
1.000000 0.596521 0.101747
0.463142 0.753475 0.353979
0.464118 0.753719 0.354467
0.466041 0.753811 0.355200
0.469612 0.753597 0.356237
0.475349 0.753048 0.357733
0.482856 0.752193 0.359503
0.492378 0.751095 0.362036
0.504295 0.749722 0.365270
0.517876 0.748226 0.369024
0.533318 0.746578 0.374029
0.550256 0.744717 0.379644
0.568200 0.742672 0.386023
0.583825 0.743618 0.381750
0.600855 0.744747 0.376196
0.619684 0.745815 0.369879
0.640406 0.746914 0.362737
0.662776 0.747921 0.354833
0.687037 0.748959 0.346075
0.713039 0.749966 0.336492
0.740871 0.750912 0.325902
0.770382 0.751797 0.314153
0.799313 0.751125 0.302312
0.814389 0.737881 0.296391
0.830198 0.722530 0.290349
0.858671 0.714412 0.287907
0.889250 0.706722 0.278599
0.919860 0.697475 0.260899
0.948943 0.686671 0.241459
0.976745 0.674403 0.219333
1.000000 0.660945 0.193698
1.000000 0.646113 0.160189
1.000000 0.630915 0.126040
0.489052 0.773404 0.379553
0.489693 0.773587 0.380041
0.491707 0.773587 0.380774
0.495003 0.773465 0.381689
0.499916 0.773007 0.383124
0.506615 0.772305 0.384833
0.515221 0.771328 0.387030
0.525811 0.770169 0.389960
0.538079 0.768887 0.393530
0.552209 0.767453 0.398108
0.567681 0.765835 0.403235
0.584344 0.764004 0.409125
0.600153 0.763272 0.410803
0.615259 0.764309 0.405982
0.631952 0.765316 0.400641
0.650385 0.766293 0.394476
0.670436 0.767361 0.387762
0.692195 0.768368 0.380255
0.715663 0.769345 0.371954
0.740810 0.770260 0.362860
0.767514 0.771176 0.353033
0.795773 0.771939 0.342382
0.823453 0.771054 0.331060
0.837766 0.758328 0.325139
0.850431 0.741634 0.314916
0.876036 0.732662 0.312291
0.904814 0.725124 0.306065
0.934173 0.716365 0.289952
0.962432 0.706020 0.271763
0.989502 0.694331 0.251408
1.000000 0.681392 0.228214
1.000000 0.667109 0.198825
0.519066 0.794278 0.410010
0.520012 0.794553 0.410803
0.521599 0.794583 0.411475
0.524285 0.794278 0.411994
0.528161 0.793637 0.412726
0.533654 0.792721 0.413855
0.540703 0.791592 0.415290
0.549523 0.790249 0.417395
0.560113 0.788754 0.420050
0.572198 0.787198 0.423529
0.585809 0.785397 0.427527
0.600671 0.783566 0.432502
0.616510 0.781491 0.437964
0.629725 0.781827 0.434272
0.644007 0.782437 0.428901
0.659846 0.783047 0.422980
0.677394 0.783749 0.416449
0.696620 0.784512 0.409552
0.717586 0.785397 0.402258
0.740291 0.786374 0.394629
0.764462 0.787381 0.386175
0.790280 0.788205 0.376989
0.817227 0.788815 0.366522
0.843442 0.787655 0.355627
0.856718 0.775174 0.348699
0.870603 0.760769 0.341863
0.893462 0.751034 0.338506
0.920226 0.743618 0.335058
0.948486 0.735103 0.319432
0.975677 0.725185 0.302617
1.000000 0.714046 0.283574
1.000000 0.701656 0.261784
0.543053 0.810483 0.434516
0.543969 0.810758 0.435187
0.545525 0.810788 0.435981
0.548028 0.810605 0.436713
0.551781 0.810208 0.437659
0.556939 0.809598 0.439002
0.563622 0.808865 0.440864
0.571984 0.807950 0.443183
0.581811 0.806912 0.446113
0.593164 0.805753 0.449805
0.605768 0.804379 0.453895
0.619562 0.802853 0.458747
0.634211 0.801175 0.463966
0.648035 0.800168 0.465949
0.660456 0.800717 0.461067
0.674250 0.801266 0.455726
0.689540 0.801785 0.449866
0.706416 0.802457 0.443702
0.724941 0.803220 0.437171
0.745113 0.804074 0.430365
0.766842 0.804959 0.422980
0.789914 0.805814 0.415015
0.814328 0.806516 0.406195
0.840055 0.807004 0.396246
0.864897 0.805783 0.385901
0.877623 0.793942 0.379278
0.890959 0.780392 0.372259
0.911528 0.770352 0.369116
0.936706 0.763485 0.368872
0.963775 0.755520 0.355138
0.990051 0.746273 0.340002
1.000000 0.735653 0.322454
0.570703 0.827451 0.463142
0.571191 0.827604 0.463447
0.572381 0.827573 0.463935
0.574517 0.827390 0.464546
0.577722 0.826963 0.465431
0.582269 0.826413 0.466590
0.588128 0.825711 0.468086
0.595422 0.824887 0.470130
0.604150 0.823941 0.472847
0.614282 0.822843 0.476143
0.625666 0.821622 0.479835
0.638239 0.820279 0.484230
0.651545 0.818814 0.489143
0.665644 0.817105 0.494484
0.677150 0.817227 0.491646
0.689052 0.817716 0.486793
0.702358 0.818235 0.481666
0.717189 0.818845 0.475990
0.733516 0.819547 0.470314
0.751308 0.820371 0.464210
0.770626 0.821195 0.457771
0.791287 0.822019 0.450752
0.813138 0.822721 0.443030
0.836301 0.823239 0.434302
0.860594 0.823575 0.424689
0.884092 0.822232 0.414435
0.896117 0.810880 0.407568
0.908812 0.798001 0.400397
0.927398 0.787655 0.396735
0.951446 0.781399 0.398108
0.977050 0.774166 0.387671
1.000000 0.765591 0.373816
0.596796 0.842924 0.490486
0.597314 0.842985 0.490791
0.598383 0.842985 0.491249
0.600458 0.842863 0.491981
0.603540 0.842649 0.493050
0.607935 0.842344 0.494575
0.613916 0.842069 0.496956
0.621302 0.841764 0.499916
0.630182 0.841398 0.503655
0.640223 0.840970 0.507958
0.651514 0.840482 0.512902
0.663722 0.839811 0.518273
0.676661 0.838926 0.523949
0.689998 0.837858 0.529808
0.702571 0.837217 0.532860
0.712978 0.837827 0.528985
0.724453 0.838407 0.524681
0.737118 0.839017 0.519890
0.751186 0.839719 0.515007
0.766598 0.840513 0.509819
0.783352 0.841306 0.504326
0.801297 0.842069 0.498360
0.820432 0.842741 0.491524
0.840757 0.843290 0.484108
0.862211 0.843626 0.475807
0.884855 0.843870 0.466468
0.906767 0.842496 0.456825
0.918090 0.831846 0.449958
0.930053 0.819760 0.442634
0.946380 0.809323 0.438514
0.968902 0.803647 0.440986
0.992676 0.797238 0.434638
0.631922 0.860990 0.528222
0.632105 0.860990 0.528252
0.632868 0.860868 0.528466
0.634333 0.860685 0.528832
0.636835 0.860380 0.529564
0.640345 0.859983 0.530602
0.645075 0.859525 0.532219
0.650904 0.858976 0.534203
0.658045 0.858366 0.536858
0.666346 0.857633 0.539971
0.675715 0.856840 0.543664
0.686000 0.855985 0.547753
0.697139 0.854978 0.552392
0.708919 0.853849 0.557305
