20 Preset/Japan Style/【3】LUT video cho PR-AE-FCPX/LUT VIDEO (2)/Japan Style LUT (5).cube
# Created by Adobe Lightroom plugin Export LUT (1.24.0)
# www.johnrellis.com/lightroom/exportlut.htm
# Preset: 05日系胶片（素材江湖）
# Color profile: C:\Program Files (x86)\Common Files\Adobe\Color\Profiles\Recommended\VideoHD.icc
LUT_3D_SIZE 8
DOMAIN_MIN 0.000000 0.000000 0.000000
DOMAIN_MAX 0.903226 0.903226 0.903226
0.266850 0.238346 0.245060
0.267521 0.238254 0.245060
0.308324 0.236728 0.244358
0.460914 0.226841 0.239933
0.677607 0.202365 0.228397
0.888212 0.161868 0.209415
1.000000 0.110933 0.190372
1.000000 0.040497 0.183108
0.266270 0.240360 0.244907
0.268620 0.239933 0.244907
0.301335 0.245304 0.243626
0.448188 0.250858 0.237583
0.664729 0.245914 0.224643
0.877012 0.228244 0.205020
1.000000 0.201236 0.186740
1.000000 0.176059 0.181918
0.240024 0.308629 0.234989
0.261692 0.310582 0.234257
0.323278 0.294652 0.238132
0.434760 0.317571 0.236973
0.632441 0.357519 0.223301
0.850706 0.374670 0.200229
1.000000 0.368048 0.186160
1.000000 0.345129 0.195865
0.000000 0.493446 0.186618
0.126253 0.495979 0.184604
0.335882 0.488685 0.189761
0.486336 0.458961 0.217075
0.636896 0.476967 0.239506
0.808682 0.525597 0.260380
0.975311 0.540734 0.262272
1.000000 0.519890 0.281712
0.000000 0.703212 0.000000
0.000000 0.704891 0.000000
0.182681 0.711727 0.000000
0.490944 0.687068 0.113954
0.668055 0.650477 0.217105
0.809293 0.644404 0.294011
0.939788 0.672175 0.355871
1.000000 0.683345 0.444282
0.000000 0.856992 0.000000
0.000000 0.858305 0.000000
0.000000 0.859739 0.000000
0.392767 0.852171 0.000000
0.636072 0.831174 0.209598
0.809232 0.804807 0.314885
0.925292 0.780758 0.430976
0.986053 0.776181 0.527276
0.000000 0.926757 0.211612
0.000000 0.926421 0.216129
0.000000 0.924651 0.229984
0.289311 0.920897 0.259037
0.554406 0.908995 0.330999
0.735348 0.893980 0.413733
0.874174 0.877440 0.503868
0.952850 0.852964 0.627893
0.000000 0.947662 0.421027
0.000000 0.947204 0.423011
0.016846 0.945220 0.432959
0.365026 0.941314 0.452583
0.537804 0.934051 0.489937
0.690150 0.923369 0.560998
0.812253 0.911498 0.643580
0.898405 0.900755 0.725521
0.266941 0.238285 0.246098
0.268589 0.238071 0.246098
0.309667 0.232029 0.248356
0.460548 0.205539 0.244327
0.674342 0.162966 0.236149
0.883940 0.076967 0.221530
1.000000 0.000000 0.206363
1.000000 0.000000 0.200870
0.266148 0.239780 0.246769
0.269230 0.240330 0.246616
0.313573 0.240879 0.246189
0.461006 0.235569 0.242344
0.672297 0.218936 0.232609
0.879820 0.190585 0.217075
1.000000 0.156527 0.202762
1.000000 0.132296 0.198947
0.229923 0.304875 0.241062
0.252537 0.307042 0.240208
0.324865 0.295140 0.245396
0.438514 0.318303 0.248814
0.638331 0.351019 0.238071
0.850736 0.362341 0.219974
1.000000 0.353826 0.209262
1.000000 0.333135 0.216709
0.000000 0.485389 0.203738
0.045716 0.487861 0.202579
0.327001 0.485054 0.206455
0.482155 0.454017 0.235111
0.630884 0.471962 0.259464
0.800565 0.520317 0.283787
0.971405 0.533715 0.280858
1.000000 0.514855 0.298314
0.000000 0.697688 0.090517
0.000000 0.699214 0.088045
0.153109 0.706996 0.061433
0.485756 0.682856 0.163424
0.664210 0.645472 0.244144
0.805661 0.641474 0.313664
0.936614 0.670710 0.374578
1.000000 0.681544 0.454841
0.000000 0.853849 0.000000
0.000000 0.854307 0.000000
0.000000 0.856046 0.000000
0.388159 0.850034 0.138949
0.634455 0.829221 0.242893
0.808225 0.803250 0.337407
0.923613 0.780148 0.446265
0.984192 0.776425 0.539269
0.000000 0.925597 0.244541
0.000000 0.925109 0.246738
0.000000 0.923369 0.259220
0.290745 0.919890 0.286015
0.555749 0.908263 0.351904
0.735744 0.893248 0.429938
0.873686 0.876616 0.515312
0.951476 0.852506 0.634485
0.000000 0.947021 0.435920
0.000000 0.946563 0.438575
0.112703 0.944579 0.448127
0.373388 0.940673 0.467781
0.545647 0.933562 0.508110
0.694179 0.922911 0.575463
0.813748 0.911162 0.653803
0.898436 0.900572 0.732357
0.271733 0.236332 0.281193
0.283452 0.234592 0.283299
0.327276 0.227634 0.285557
0.455909 0.196292 0.288426
0.671656 0.000000 0.308812
0.888518 0.000000 0.312749
1.000000 0.000000 0.284672
1.000000 0.000000 0.285924
0.258671 0.238865 0.284855
0.274479 0.237278 0.286534
0.329625 0.231632 0.286290
0.465583 0.202396 0.288060
0.677089 0.085512 0.306981
0.890043 0.000000 0.286503
1.000000 0.000000 0.284031
1.000000 0.000000 0.285924
0.246586 0.284855 0.296208
0.257145 0.288975 0.298558
0.331090 0.296208 0.294896
0.474434 0.307713 0.299840
0.678706 0.307988 0.297673
0.879606 0.300206 0.293248
1.000000 0.289433 0.291508
1.000000 0.281010 0.297459
0.009308 0.463630 0.333410
0.075196 0.468574 0.315587
0.285771 0.482979 0.282444
0.487617 0.455146 0.310185
0.641230 0.479438 0.341985
0.819577 0.518944 0.361547
0.983612 0.521935 0.361395
1.000000 0.504417 0.375402
0.000000 0.682063 0.268254
0.000000 0.684749 0.254337
0.000000 0.693385 0.258366
0.475135 0.683711 0.286717
0.668086 0.646662 0.341680
0.810208 0.647730 0.397009
0.934325 0.677516 0.458656
1.000000 0.682185 0.512139
0.000000 0.847196 0.260899
0.000000 0.847898 0.263554
0.000000 0.849882 0.273808
0.377386 0.849454 0.298650
0.635096 0.828183 0.355200
0.808896 0.802335 0.424720
0.920287 0.782712 0.513176
0.976440 0.782528 0.598901
0.000000 0.923156 0.360784
0.000000 0.922698 0.363134
0.000000 0.920928 0.372900
0.322210 0.917388 0.394751
0.567163 0.907103 0.440558
0.741756 0.892271 0.503685
0.874174 0.876280 0.576928
0.945190 0.854704 0.680842
0.000000 0.944335 0.506126
0.000000 0.943847 0.507897
0.254276 0.941863 0.516686
0.422614 0.937957 0.536126
0.571588 0.931426 0.568811
0.709804 0.920989 0.628168
0.820981 0.909758 0.696010
0.898558 0.900023 0.761746
0.290806 0.227054 0.398047
0.311376 0.223301 0.402197
0.394934 0.203830 0.416724
0.501152 0.167941 0.419043
0.652186 0.000000 0.398322
0.862394 0.000000 0.415076
1.000000 0.000000 0.435370
1.000000 0.000000 0.461585
0.269902 0.230838 0.403662
0.294499 0.227237 0.406775
0.389014 0.208865 0.420447
0.503716 0.177737 0.420172
0.658961 0.000000 0.394202
0.866789 0.000000 0.415808
1.000000 0.000000 0.439155
1.000000 0.000000 0.470344
0.170413 0.293431 0.404089
0.188540 0.287175 0.408148
0.331792 0.263005 0.425177
0.499550 0.258915 0.418280
0.682033 0.210941 0.401129
0.879973 0.169192 0.434424
1.000000 0.175021 0.464668
1.000000 0.194797 0.446571
0.140414 0.408331 0.436042
0.177005 0.412757 0.438636
0.296483 0.432136 0.449897
0.488624 0.447547 0.443030
0.665705 0.472236 0.461707
0.857481 0.480232 0.469245
1.000000 0.480446 0.477729
1.000000 0.476478 0.487251
0.000000 0.640833 0.514702
0.000000 0.643061 0.510063
0.200626 0.654353 0.484596
0.447456 0.679286 0.449195
0.670222 0.643915 0.485542
0.811887 0.658412 0.530816
0.929015 0.689723 0.582635
1.000000 0.680568 0.599207
0.000000 0.825467 0.518639
0.000000 0.828153 0.508782
0.000000 0.835691 0.461219
0.370489 0.841123 0.473762
0.639673 0.827726 0.508873
0.810788 0.801602 0.554223
0.913054 0.788724 0.619440
0.960357 0.795834 0.694148
0.000000 0.915526 0.525689
0.000000 0.915892 0.519615
0.000000 0.915312 0.518090
0.383154 0.912016 0.539452
0.595666 0.904723 0.572961
0.755520 0.890257 0.618769
0.874815 0.875273 0.673121
0.934295 0.858518 0.748928
0.292973 0.938781 0.613886
0.316258 0.938293 0.615839
0.395941 0.936309 0.624384
0.506828 0.932372 0.641596
0.624109 0.926574 0.667536
0.739162 0.917327 0.709926
0.833616 0.907408 0.758602
0.899107 0.899138 0.805692
0.322698 0.204929 0.563378
0.346593 0.199130 0.567071
0.436072 0.169070 0.580713
0.589075 0.000000 0.607630
0.712459 0.000000 0.601526
0.841672 0.000000 0.551385
1.000000 0.000000 0.527214
1.000000 0.000000 0.532830
0.299107 0.210819 0.566278
0.326238 0.205173 0.569970
0.424781 0.177066 0.583307
0.585199 0.018250 0.608972
0.713252 0.000000 0.601984
0.845090 0.000000 0.549584
1.000000 0.000000 0.528893
1.000000 0.000000 0.537102
0.000000 0.250553 0.570428
0.162539 0.247318 0.573327
0.351629 0.231998 0.586053
0.559472 0.197421 0.610254
0.708400 0.165774 0.599634
0.853330 0.000000 0.541466
1.000000 0.000000 0.542229
1.000000 0.164248 0.562219
0.000000 0.398566 0.567010
0.000000 0.398047 0.568566
0.000000 0.396307 0.576165
0.468086 0.382574 0.606989
0.680903 0.401495 0.591241
0.861723 0.377111 0.567498
1.000000 0.412421 0.602777
1.000000 0.474128 0.640070
0.000000 0.556329 0.604791
0.000000 0.560082 0.607233
0.225437 0.575677 0.616815
0.441260 0.607782 0.635737
0.660182 0.626337 0.630701
0.816983 0.655360 0.658412
0.949584 0.662898 0.673884
1.000000 0.663386 0.686793
0.000000 0.786007 0.690791
0.000000 0.787320 0.689143
0.106172 0.791745 0.681453
0.447730 0.800778 0.665980
0.632868 0.820798 0.654994
0.808438 0.795010 0.686427
0.899351 0.797024 0.734890
0.939239 0.813718 0.787076
0.301030 0.896208 0.718898
0.337255 0.895781 0.719509
0.402899 0.896574 0.710933
0.465003 0.900175 0.683650
0.631617 0.897642 0.702724
0.774716 0.886625 0.735073
0.875547 0.873198 0.767697
0.922301 0.862882 0.813107
0.522087 0.926482 0.751247
0.526726 0.926421 0.750027
0.546960 0.926024 0.745602
0.590326 0.924834 0.742031
0.685328 0.919524 0.764065
0.774838 0.912718 0.790768
0.848569 0.904631 0.819760
0.899870 0.898100 0.847501
0.362585 0.162417 0.734890
0.385595 0.153414 0.737514
0.471931 0.097932 0.746761
0.612299 0.000000 0.765652
0.795865 0.000000 0.792599
0.907774 0.000000 0.774502
0.995666 0.000000 0.695552
1.000000 0.000000 0.623835
0.339605 0.172519 0.733730
0.364843 0.164523 0.735866
0.457038 0.118593 0.745541
0.603418 0.000000 0.763912
0.791165 0.000000 0.790799
0.905425 0.000000 0.772488
0.995422 0.000000 0.693660
1.000000 0.000000 0.621790
0.176974 0.220493 0.734829
0.235447 0.215457 0.737057
0.383551 0.191714 0.746487
0.566339 0.123964 0.763882
0.776181 0.000000 0.790921
0.901366 0.000000 0.771450
0.998230 0.000000 0.691768
1.000000 0.000000 0.629603
0.000000 0.374243 0.722255
0.000000 0.365576 0.725856
0.000000 0.322759 0.742245
0.461799 0.321599 0.762905
0.736049 0.332128 0.790280
0.884428 0.345098 0.769528
0.995575 0.317632 0.693416
1.000000 0.362676 0.669673
0.000000 0.528222 0.729213
0.000000 0.528710 0.730343
0.000000 0.531273 0.734951
0.214267 0.537407 0.744564
0.628016 0.549950 0.777371
0.838437 0.582422 0.761868
0.965606 0.576287 0.731838
1.000000 0.633814 0.760098
0.000000 0.699519 0.762661
0.000000 0.702327 0.764370
0.000000 0.712459 0.769650
0.388769 0.732845 0.779873
0.605798 0.766171 0.796445
0.801724 0.782376 0.799283
0.893523 0.801968 0.823606
0.944274 0.806546 0.834989
0.000000 0.883726 0.822049
0.000000 0.883726 0.821256
0.261662 0.883238 0.818051
0.505272 0.881468 0.815854
0.701961 0.878416 0.825437
0.799100 0.882628 0.831479
0.877287 0.871366 0.846311
0.911009 0.870085 0.868772
0.569665 0.919432 0.831754
0.582666 0.918791 0.832700
0.634943 0.916014 0.837858
0.718471 0.910948 0.850187
0.753536 0.910369 0.845304
0.812009 0.907256 0.856138
0.865019 0.902129 0.870695
0.901061 0.897368 0.882872
0.409003 0.044495 0.879545
0.429664 0.000000 0.881559
0.504326 0.000000 0.884550
0.625849 0.000000 0.891508
0.778744 0.000000 0.901122
0.953002 0.000000 0.912139
1.000000 0.000000 0.886564
1.000000 0.000000 0.790036
0.387243 0.098787 0.873259
0.409308 0.069245 0.875853
0.488106 0.000000 0.879240
0.613336 0.000000 0.885954
0.769070 0.000000 0.895720
0.944976 0.000000 0.906859
1.000000 0.000000 0.880491
1.000000 0.000000 0.784482
0.275700 0.171725 0.875395
0.310094 0.164431 0.876249
0.421241 0.126741 0.878904
0.573754 0.000000 0.885527
0.747158 0.000000 0.894621
0.934417 0.000000 0.906249
1.000000 0.000000 0.881315
1.000000 0.000000 0.787015
0.000000 0.287968 0.874540
0.000000 0.285527 0.874876
0.130343 0.275273 0.877348
0.470222 0.258640 0.885008
0.698299 0.243168 0.894530
0.909972 0.268772 0.906035
1.000000 0.292821 0.880980
1.000000 0.310094 0.790036
0.000000 0.511223 0.849912
0.000000 0.508659 0.848814
0.000000 0.486976 0.854429
0.000000 0.438025 0.869932
0.577996 0.448127 0.883268
0.850675 0.499397 0.895171
0.973938 0.532280 0.872129
1.000000 0.536156 0.799832
0.000000 0.645319 0.858000
0.000000 0.645747 0.858457
0.000000 0.646754 0.859831
0.000000 0.649866 0.862577
0.368566 0.657313 0.866545
0.759335 0.704189 0.883299
0.908019 0.753872 0.871946
0.961669 0.757198 0.849577
0.000000 0.803891 0.871305
0.000000 0.805600 0.872068
0.000000 0.810513 0.873136
0.385168 0.820920 0.875486
0.598932 0.836393 0.878691
0.772152 0.854643 0.884794
0.874998 0.865385 0.890043
0.908232 0.872557 0.898772
0.386267 0.920775 0.892607
0.411688 0.920165 0.892149
0.504692 0.917479 0.891020
0.626062 0.912291 0.889433
0.748318 0.905394 0.891112
0.839200 0.900206 0.898711
0.876432 0.900572 0.902342
0.902220 0.897002 0.906828
0.438788 0.000000 0.948577
0.454261 0.000000 0.948974
0.512657 0.000000 0.949035
0.610681 0.000000 0.950408
0.735134 0.000000 0.952209
0.876402 0.000000 0.954192
1.000000 0.000000 0.956207
1.000000 0.000000 0.931273
0.422950 0.000000 0.947021
0.439124 0.000000 0.947478
0.500725 0.000000 0.947906
0.601984 0.000000 0.949218
0.729274 0.000000 0.951110
0.872587 0.000000 0.953155
1.000000 0.000000 0.955047
1.000000 0.000000 0.929870
0.344915 0.110719 0.946105
0.367590 0.098451 0.946319
0.445747 0.000000 0.946654
0.565515 0.000000 0.948882
0.706264 0.000000 0.950347
0.858610 0.000000 0.951904
1.000000 0.000000 0.953460
1.000000 0.000000 0.928222
0.000000 0.233921 0.944518
0.000000 0.230777 0.944884
0.274784 0.217227 0.945403
0.473030 0.189700 0.946929
0.653681 0.146273 0.948608
0.828763 0.113466 0.949950
0.994995 0.196475 0.950500
1.000000 0.222751 0.925780
0.000000 0.410101 0.937926
0.000000 0.402655 0.938750
0.000000 0.366491 0.940795
0.096407 0.350286 0.942779
0.539605 0.351781 0.944030
0.770748 0.376593 0.944762
0.956023 0.450172 0.943847
1.000000 0.484657 0.921233
0.000000 0.591791 0.928435
0.000000 0.590112 0.928130
0.000000 0.583917 0.927611
0.000000 0.570672 0.928161
0.025360 0.521965 0.935332
0.670344 0.567224 0.936858
0.898558 0.670863 0.933165
0.972503 0.724910 0.916899
0.000000 0.724300 0.928344
0.000000 0.724331 0.928252
0.000000 0.724636 0.927916
0.000000 0.727016 0.927520
0.249393 0.734218 0.926574
0.569329 0.755734 0.924193
0.846799 0.819181 0.920531
0.916411 0.851286 0.914549
0.167208 0.857053 0.921721
0.210697 0.857511 0.921538
0.336522 0.859892 0.920897
0.492958 0.865293 0.919829
0.645686 0.873442 0.918456
0.776852 0.882567 0.917327
0.861509 0.890227 0.917937
0.901213 0.894804 0.920043
