20 Preset/Japan Style/【3】LUT video cho PR-AE-FCPX/LUT VIDEO (2)/Japan Style LUT (11).cube
# Created by Adobe Lightroom plugin Export LUT (1.24.0)
# www.johnrellis.com/lightroom/exportlut.htm
# Preset: 11日系清新（素材江湖）
# Color profile: C:\Program Files (x86)\Common Files\Adobe\Color\Profiles\Recommended\VideoHD.icc
LUT_3D_SIZE 32
DOMAIN_MIN 0.0 0.0 0.0
DOMAIN_MAX 1.0 1.0 1.0
0.000000 0.011994 0.014374
0.000000 0.013184 0.015381
0.000000 0.014405 0.016358
0.000000 0.019501 0.018982
0.018769 0.025086 0.023316
0.092287 0.028534 0.030182
0.137819 0.026001 0.035096
0.194369 0.006287 0.038819
0.259525 0.000000 0.040894
0.330846 0.000000 0.040528
0.408484 0.000000 0.039033
0.489296 0.000000 0.033082
0.571466 0.000000 0.024262
0.652857 0.000000 0.010620
0.730556 0.000000 0.000000
0.799954 0.000000 0.000000
0.860258 0.000000 0.000000
0.912413 0.000000 0.000000
0.957946 0.000000 0.000000
0.997406 0.000000 0.000000
1.000000 0.000000 0.000000
1.000000 0.000000 0.000000
1.000000 0.000000 0.000000
1.000000 0.000000 0.000000
1.000000 0.000000 0.000000
1.000000 0.000000 0.000000
1.000000 0.000000 0.039826
1.000000 0.000000 0.099123
1.000000 0.000000 0.128084
1.000000 0.148531 0.156558
1.000000 0.205570 0.184604
1.000000 0.248997 0.212650
0.000000 0.014374 0.017487
0.000000 0.014405 0.016358
0.000000 0.018006 0.015900
0.000000 0.022889 0.018524
0.018616 0.028473 0.022858
0.091585 0.032166 0.028595
0.136538 0.030060 0.034668
0.192813 0.011017 0.038392
0.257450 0.000000 0.040528
0.328527 0.000000 0.040253
0.404913 0.000000 0.037598
0.485664 0.000000 0.032898
0.567742 0.000000 0.022919
0.649195 0.000000 0.009369
0.726772 0.000000 0.000000
0.796628 0.000000 0.000000
0.857420 0.000000 0.000000
0.910063 0.000000 0.000000
0.955749 0.000000 0.000000
0.995331 0.000000 0.000000
1.000000 0.000000 0.000000
1.000000 0.000000 0.000000
1.000000 0.000000 0.000000
1.000000 0.000000 0.000000
1.000000 0.000000 0.000000
1.000000 0.000000 0.000000
1.000000 0.000000 0.032471
1.000000 0.000000 0.095369
1.000000 0.000000 0.125429
1.000000 0.143435 0.153872
1.000000 0.201938 0.181888
1.000000 0.246128 0.210269
0.000000 0.025177 0.026368
0.000000 0.025177 0.027497
0.000000 0.026398 0.023926
0.000000 0.035889 0.018006
0.013764 0.042451 0.022156
0.089509 0.047333 0.027771
0.135561 0.047425 0.032410
0.191135 0.029297 0.036164
0.255070 0.000000 0.038209
0.325628 0.000000 0.037690
0.402167 0.000000 0.035767
0.482460 0.000000 0.028321
0.564172 0.000000 0.019165
0.645197 0.000000 0.003754
0.723232 0.000000 0.000000
0.793088 0.000000 0.000000
0.854398 0.000000 0.000000
0.907164 0.000000 0.000000
0.953155 0.000000 0.000000
0.993133 0.000000 0.000000
1.000000 0.000000 0.000000
1.000000 0.000000 0.000000
1.000000 0.000000 0.000000
1.000000 0.000000 0.000000
1.000000 0.000000 0.000000
1.000000 0.000000 0.000000
1.000000 0.000000 0.019654
1.000000 0.000000 0.090150
1.000000 0.000000 0.121431
1.000000 0.151736 0.151278
1.000000 0.206760 0.179538
1.000000 0.249088 0.207797
0.000000 0.047547 0.046174
0.000000 0.048524 0.047150
0.000000 0.044678 0.049866
0.000000 0.050263 0.040040
0.000000 0.068452 0.027924
0.085145 0.079103 0.025788
0.133181 0.080079 0.029145
0.188388 0.067567 0.031373
0.252384 0.030945 0.032685
0.322454 0.000000 0.031342
0.398749 0.000000 0.028443
0.477943 0.000000 0.021271
0.559625 0.000000 0.009430
0.640162 0.000000 0.000000
0.717769 0.000000 0.000000
0.787961 0.000000 0.000000
0.849241 0.000000 0.000000
0.902312 0.000000 0.000000
0.948669 0.000000 0.000000
0.988830 0.000000 0.000000
1.000000 0.000000 0.000000
1.000000 0.000000 0.000000
1.000000 0.000000 0.000000
1.000000 0.000000 0.000000
1.000000 0.000000 0.000000
1.000000 0.000000 0.000000
1.000000 0.000000 0.000000
1.000000 0.000000 0.077119
1.000000 0.099184 0.116030
1.000000 0.172122 0.147494
1.000000 0.219791 0.176211
1.000000 0.258610 0.205234
0.000000 0.082704 0.072938
0.000000 0.083192 0.073915
0.000000 0.080476 0.076600
0.000000 0.075380 0.079072
0.000000 0.084413 0.060731
0.055818 0.096681 0.041596
0.126589 0.105531 0.023316
0.183108 0.104463 0.023194
0.246372 0.096437 0.023407
0.316197 0.064912 0.020661
0.391302 0.000000 0.015381
0.470527 0.000000 0.006256
0.551507 0.000000 0.000000
0.632227 0.000000 0.000000
0.710079 0.000000 0.000000
0.780392 0.000000 0.000000
0.842954 0.000000 0.000000
0.896605 0.000000 0.000000
0.943542 0.000000 0.000000
0.984344 0.000000 0.000000
1.000000 0.000000 0.000000
1.000000 0.000000 0.000000
1.000000 0.000000 0.000000
1.000000 0.000000 0.000000
1.000000 0.000000 0.000000
1.000000 0.000000 0.000000
1.000000 0.000000 0.000000
1.000000 0.034424 0.043671
1.000000 0.150790 0.107210
1.000000 0.200351 0.141115
1.000000 0.239353 0.171756
1.000000 0.273381 0.201297
0.000000 0.105135 0.092958
0.000000 0.105013 0.093782
0.000000 0.103883 0.095430
0.000000 0.098787 0.097200
0.000000 0.099062 0.095216
0.006622 0.106569 0.082216
0.105592 0.122560 0.055818
0.171084 0.132692 0.024537
0.239078 0.135897 0.005798
0.309056 0.128878 0.000885
0.384131 0.113008 0.000000
0.463111 0.072114 0.000000
0.543786 0.000000 0.000000
0.624018 0.000000 0.000000
0.702113 0.000000 0.000000
0.773342 0.000000 0.000000
0.835935 0.000000 0.000000
0.890623 0.000000 0.000000
0.938079 0.000000 0.000000
0.979217 0.000000 0.000000
1.000000 0.000000 0.000000
1.000000 0.000000 0.000000
1.000000 0.000000 0.000000
1.000000 0.000000 0.000000
1.000000 0.000000 0.000000
1.000000 0.039063 0.000000
1.000000 0.140566 0.000000
1.000000 0.184817 0.041016
1.000000 0.221378 0.109987
1.000000 0.252445 0.145205
1.000000 0.280980 0.177005
1.000000 0.307713 0.207095
0.000000 0.134096 0.111452
0.000000 0.134218 0.112032
0.000000 0.133944 0.114778
0.000000 0.128450 0.115511
0.000000 0.119692 0.120699
0.000000 0.125582 0.112093
0.057008 0.137301 0.096651
0.152529 0.157809 0.070008
0.226841 0.169924 0.023133
0.304143 0.177646 0.000000
0.381476 0.175631 0.000000
0.461097 0.166995 0.000000
0.542168 0.151705 0.000000
0.622553 0.128420 0.000000
0.700099 0.092805 0.000000
0.770535 0.000000 0.000000
0.832975 0.000000 0.000000
0.887388 0.000000 0.000000
0.934661 0.000000 0.000000
0.977386 0.000000 0.000000
1.000000 0.000000 0.000000
1.000000 0.000000 0.000000
1.000000 0.000000 0.000000
1.000000 0.093568 0.000000
1.000000 0.141207 0.000000
1.000000 0.177462 0.000000
1.000000 0.206180 0.000000
1.000000 0.233371 0.000000
1.000000 0.259007 0.088045
1.000000 0.282597 0.131624
1.000000 0.305608 0.166537
1.000000 0.328161 0.198184
0.000000 0.168399 0.133242
0.000000 0.168429 0.134188
0.000000 0.167941 0.136812
0.000000 0.164279 0.138735
0.000000 0.155276 0.141329
0.039673 0.145998 0.147555
0.027314 0.159060 0.132479
0.112764 0.173404 0.112734
0.201389 0.197910 0.088899
0.281987 0.212558 0.020050
0.365332 0.222629 0.000000
0.447486 0.228763 0.000000
0.527184 0.227695 0.000000
0.607507 0.221561 0.000000
0.685267 0.213199 0.000000
0.756649 0.202670 0.000000
0.819883 0.191531 0.000000
0.875395 0.180697 0.000000
0.924254 0.172702 0.000000
0.967895 0.170504 0.000000
1.000000 0.173983 0.000000
1.000000 0.182864 0.000000
1.000000 0.195254 0.000000
1.000000 0.210788 0.000000
1.000000 0.228244 0.000000
1.000000 0.245243 0.000000
1.000000 0.262760 0.000000
1.000000 0.280430 0.000000
1.000000 0.298466 0.019806
1.000000 0.316442 0.112947
1.000000 0.334569 0.153719
1.000000 0.353216 0.189029
0.000000 0.208927 0.160739
0.000000 0.208804 0.161501
0.000000 0.208560 0.163851
0.000000 0.206546 0.167849
0.000000 0.198093 0.168551
0.082399 0.185702 0.175540
0.093751 0.183627 0.175448
0.100435 0.199405 0.157382
0.159548 0.216373 0.133364
0.255833 0.245182 0.104646
0.342077 0.263218 0.021729
0.428504 0.275914 0.000000
0.513512 0.285527 0.000000
0.593164 0.289036 0.000000
0.669581 0.291112 0.000000
0.741604 0.287724 0.000000
0.805905 0.282628 0.000000
0.862638 0.277501 0.000000
0.913024 0.273014 0.000000
0.957031 0.270817 0.000000
0.995056 0.270726 0.000000
1.000000 0.273655 0.000000
1.000000 0.278416 0.000000
1.000000 0.285740 0.000000
1.000000 0.294682 0.000000
1.000000 0.304570 0.000000
1.000000 0.315068 0.000000
1.000000 0.326909 0.000000
1.000000 0.339452 0.000000
1.000000 0.352483 0.082338
1.000000 0.366766 0.138216
1.000000 0.381353 0.177432
0.000000 0.255222 0.192935
0.000000 0.255192 0.193637
0.000000 0.254856 0.195926
0.000000 0.254002 0.201785
0.000000 0.246647 0.202182
0.091859 0.234928 0.205356
0.137819 0.219638 0.215885
0.131502 0.227359 0.207309
0.147341 0.245975 0.186099
0.210788 0.265415 0.158297
0.314122 0.298283 0.125887
0.403174 0.318456 0.038544
0.490791 0.332738 0.000000
0.575036 0.343694 0.000000
0.654688 0.351843 0.000000
0.726101 0.354376 0.000000
0.790372 0.355871 0.000000
0.848966 0.352941 0.000000
0.899992 0.349432 0.000000
0.944610 0.346715 0.000000
0.983337 0.344884 0.000000
1.000000 0.344396 0.000000
1.000000 0.345312 0.000000
1.000000 0.347875 0.000000
1.000000 0.351934 0.000000
1.000000 0.357031 0.000000
1.000000 0.363317 0.000000
1.000000 0.370550 0.000000
1.000000 0.379339 0.000000
1.000000 0.388952 0.000000
1.000000 0.399603 0.114626
1.000000 0.411139 0.163180
0.000000 0.305821 0.229770
0.000000 0.305882 0.230411
0.000000 0.305608 0.232853
0.000000 0.304662 0.238132
0.000000 0.299962 0.241459
0.100282 0.289372 0.242618
0.155459 0.274662 0.250523
0.188479 0.257389 0.262791
0.173007 0.277501 0.243870
0.197787 0.298863 0.219669
0.267308 0.320409 0.187228
0.375158 0.355535 0.152987
0.465614 0.377295 0.085206
0.552758 0.392279 0.000000
0.635462 0.404059 0.000000
0.710780 0.413092 0.000000
0.776425 0.416022 0.000000
0.833829 0.416144 0.000000
0.884459 0.415137 0.000000
0.929900 0.411566 0.000000
0.969482 0.408423 0.000000
1.000000 0.405951 0.000000
1.000000 0.404822 0.000000
1.000000 0.404578 0.000000
1.000000 0.405554 0.000000
1.000000 0.407568 0.000000
1.000000 0.410742 0.000000
1.000000 0.415045 0.000000
1.000000 0.420203 0.000000
1.000000 0.426734 0.000000
1.000000 0.434363 0.071992
1.000000 0.442786 0.144350
0.000000 0.360571 0.271977
0.000000 0.360571 0.272679
0.000000 0.360113 0.274754
0.000000 0.359503 0.279850
0.000000 0.357061 0.286259
0.114168 0.347234 0.286137
0.167605 0.334173 0.289586
0.213901 0.317052 0.301793
0.226810 0.310582 0.305913
0.219791 0.332830 0.284855
0.252506 0.355749 0.257603
0.326635 0.379004 0.222629
0.450416 0.425605 0.193332
0.543175 0.449134 0.126528
0.629511 0.464698 0.000000
0.706630 0.474556 0.000000
0.773404 0.479957 0.000000
0.831296 0.482368 0.000000
0.881437 0.480507 0.000000
0.925566 0.478584 0.000000
0.964538 0.475563 0.000000
0.998260 0.471504 0.000000
1.000000 0.467964 0.000000
1.000000 0.465461 0.000000
1.000000 0.463935 0.000000
1.000000 0.462928 0.000000
1.000000 0.462654 0.000000
1.000000 0.463722 0.000000
1.000000 0.465919 0.000000
1.000000 0.469093 0.000000
1.000000 0.473457 0.000000
1.000000 0.478889 0.128756
0.000000 0.421790 0.321752
0.000000 0.421668 0.322118
0.000000 0.421057 0.324224
0.000000 0.420050 0.328557
0.009064 0.418494 0.336309
0.137423 0.410285 0.336614
0.189578 0.397803 0.337835
0.236606 0.382116 0.345861
0.274479 0.363745 0.359655
0.272160 0.370306 0.354284
0.274571 0.395361 0.332433
0.316014 0.421027 0.304601
0.395789 0.446143 0.268162
0.511589 0.483650 0.235721
0.602045 0.506584 0.172152
0.681727 0.519432 0.022675
0.750790 0.525902 0.000000
0.810575 0.528435 0.000000
0.862333 0.528923 0.000000
0.907469 0.527092 0.000000
0.946990 0.523980 0.000000
0.981445 0.521019 0.000000
1.000000 0.516747 0.000000
1.000000 0.512749 0.000000
1.000000 0.509514 0.000000
1.000000 0.506859 0.000000
1.000000 0.505028 0.000000
1.000000 0.504204 0.000000
1.000000 0.504143 0.000000
1.000000 0.505333 0.000000
1.000000 0.507530 0.000000
1.000000 0.510948 0.091859
0.000000 0.477607 0.369268
0.000000 0.477455 0.369574
0.000000 0.476967 0.371557
0.000000 0.475868 0.375189
0.060639 0.474495 0.382055
0.166445 0.469001 0.385870
0.213809 0.458076 0.385718
0.255680 0.444282 0.389136
0.299809 0.427161 0.401190
0.332158 0.407446 0.415808
0.318822 0.428107 0.400366
0.328496 0.453620 0.377813
0.375280 0.479103 0.348730
0.456153 0.503532 0.311803
0.570336 0.538659 0.281895
0.654139 0.558038 0.222507
0.725582 0.567071 0.143343
0.787289 0.570855 0.000000
0.841306 0.571466 0.000000
0.888212 0.570611 0.000000
0.929259 0.568811 0.000000
0.965209 0.565057 0.000000
0.996551 0.561730 0.000000
1.000000 0.557824 0.000000
1.000000 0.553368 0.000000
1.000000 0.549615 0.000000
1.000000 0.546258 0.000000
1.000000 0.543755 0.000000
1.000000 0.542107 0.000000
1.000000 0.541436 0.000000
1.000000 0.541833 0.000000
1.000000 0.543328 0.000000
0.000000 0.532036 0.417426
0.000000 0.532036 0.417823
0.000000 0.531487 0.419257
0.000000 0.530175 0.422461
0.125429 0.528374 0.428260
0.204318 0.525017 0.434943
0.243198 0.515282 0.433570
0.281987 0.503075 0.434974
0.322179 0.487922 0.441901
0.360723 0.469673 0.455116
0.378332 0.459236 0.463386
0.366766 0.484260 0.444800
0.383642 0.509239 0.421851
0.434028 0.533776 0.392950
0.514031 0.556329 0.355657
0.622431 0.587243 0.329595
0.698146 0.602564 0.273838
0.762295 0.609003 0.208743
0.818265 0.610712 0.109957
0.867338 0.610346 0.000000
0.910307 0.608453 0.000000
0.948119 0.606287 0.000000
0.980957 0.602960 0.000000
1.000000 0.598993 0.000000
1.000000 0.595056 0.000000
1.000000 0.590143 0.000000
1.000000 0.585779 0.000000
1.000000 0.582055 0.000000
1.000000 0.579248 0.000000
1.000000 0.577173 0.000000
1.000000 0.576196 0.000000
1.000000 0.576226 0.000000
0.000000 0.581537 0.462867
0.000000 0.581384 0.463203
0.000000 0.581048 0.464698
0.083589 0.580102 0.467567
0.176455 0.578546 0.472755
0.242283 0.576623 0.480507
0.280278 0.569177 0.480995
0.314305 0.558862 0.481300
0.348699 0.546105 0.484565
0.388220 0.530114 0.494972
0.420783 0.511620 0.508110
0.422278 0.513817 0.506462
0.417243 0.537682 0.487556
0.438697 0.561120 0.464088
0.489509 0.582788 0.434882
0.565728 0.602350 0.398840
0.666529 0.628351 0.376349
0.734585 0.640589 0.324559
0.792538 0.645106 0.266545
0.843961 0.645960 0.194949
0.889220 0.645167 0.036439
0.929198 0.643061 0.000000
0.964141 0.640467 0.000000
0.994629 0.637598 0.000000
1.000000 0.633204 0.000000
1.000000 0.628809 0.000000
1.000000 0.623865 0.000000
1.000000 0.619165 0.000000
1.000000 0.615106 0.000000
1.000000 0.611810 0.000000
1.000000 0.609400 0.000000
1.000000 0.607904 0.000000
0.092988 0.625086 0.505058
0.105745 0.625025 0.505516
0.134554 0.624537 0.506554
0.179721 0.623804 0.509331
0.228397 0.622553 0.513634
0.280827 0.620783 0.520378
0.321355 0.616052 0.524254
0.349767 0.607385 0.523705
0.379706 0.596612 0.525231
0.412848 0.583154 0.531090
0.448096 0.566888 0.542473
0.475563 0.548333 0.555291
0.465736 0.563134 0.544915
0.466011 0.585351 0.526085
0.490639 0.606287 0.503227
0.540459 0.625391 0.475166
0.611810 0.642115 0.440833
0.703914 0.664302 0.421668
0.766201 0.674281 0.374914
0.819242 0.677699 0.321599
0.866636 0.678462 0.261326
0.908659 0.677272 0.184115
0.945464 0.675044 0.000000
0.977783 0.672023 0.000000
1.000000 0.668544 0.000000
1.000000 0.664393 0.000000
1.000000 0.659480 0.000000
1.000000 0.654322 0.000000
1.000000 0.649500 0.000000
1.000000 0.645258 0.000000
1.000000 0.641688 0.000000
1.000000 0.639033 0.000000
0.211307 0.663722 0.545312
0.214786 0.663722 0.545647
0.246250 0.670954 0.555169
0.269535 0.670161 0.557427
0.302251 0.668788 0.561364
0.341100 0.667140 0.567163
0.381781 0.664393 0.573968
0.403754 0.656977 0.572869
0.428260 0.648096 0.573449
0.454261 0.637232 0.576165
0.485481 0.623804 0.584375
0.513756 0.607996 0.594873
0.530602 0.594446 0.603235
0.517845 0.614649 0.588220
0.521935 0.633814 0.569940
0.546777 0.651575 0.547753
0.593408 0.667567 0.520623
0.658289 0.681361 0.488045
0.740536 0.699641 0.470039
0.797574 0.707729 0.428504
0.845914 0.710262 0.379095
0.888945 0.710323 0.324926
0.927123 0.708583 0.261631
0.960632 0.705776 0.178988
0.990082 0.702022 0.000000
1.000000 0.697749 0.000000
1.000000 0.693111 0.000000
1.000000 0.687709 0.000000
1.000000 0.682124 0.000000
1.000000 0.677058 0.000000
1.000000 0.672663 0.000000
1.000000 0.668940 0.000000
0.295933 0.698939 0.584985
0.299413 0.699580 0.586023
0.309850 0.699855 0.587762
0.328832 0.699641 0.590570
0.354253 0.699001 0.594476
0.385626 0.697566 0.599695
0.422461 0.695460 0.606653
0.444221 0.690059 0.607416
0.463935 0.682582 0.607141
0.485695 0.673732 0.608667
0.509514 0.662837 0.612696
0.537407 0.649805 0.621668
0.560418 0.634394 0.631220
0.564080 0.632471 0.631922
0.556359 0.650660 0.617975
0.563775 0.667811 0.601007
0.589502 0.683589 0.580407
0.633417 0.697749 0.555718
0.693263 0.710079 0.525902
0.768490 0.726497 0.509636
0.821164 0.733516 0.473182
0.865537 0.736019 0.428046
0.905150 0.735836 0.378424
0.940154 0.734005 0.322515
0.971191 0.730861 0.255161
0.998810 0.726986 0.159335
1.000000 0.722499 0.000000
1.000000 0.717556 0.000000
1.000000 0.712245 0.000000
1.000000 0.706630 0.000000
1.000000 0.701595 0.000000
1.000000 0.697139 0.000000
0.361212 0.726802 0.618341
0.364294 0.727260 0.619257
0.372473 0.727596 0.620935
0.385779 0.727504 0.623255
0.405951 0.726955 0.626795
0.431586 0.725643 0.631189
0.460945 0.723903 0.636988
0.485664 0.720302 0.640467
0.501671 0.714137 0.639857
0.519402 0.706691 0.640284
0.538689 0.697810 0.642359
0.562280 0.687129 0.648402
0.585107 0.674403 0.656458
0.603784 0.660182 0.665309
0.598596 0.667933 0.659846
0.594812 0.684047 0.646784
0.604700 0.699275 0.630945
0.630274 0.713130 0.612238
0.671382 0.725704 0.589960
0.726253 0.736660 0.563134
0.794278 0.750973 0.547784
0.842161 0.756893 0.516167
0.882719 0.758907 0.474006
0.918822 0.758541 0.428260
0.951080 0.756588 0.377264
0.979919 0.753445 0.318212
1.000000 0.749386 0.243778
1.000000 0.744808 0.122927
1.000000 0.739834 0.000000
1.000000 0.734401 0.000000
1.000000 0.728878 0.000000
1.000000 0.723964 0.000000
0.418891 0.752163 0.649592
0.421057 0.752560 0.650263
0.427161 0.752804 0.651667
0.438483 0.752651 0.653742
0.454017 0.752163 0.656703
0.474708 0.751034 0.660456
0.499550 0.749355 0.665278
0.525444 0.747158 0.670680
0.538476 0.742123 0.669978
0.553338 0.735866 0.669886
0.569543 0.728511 0.670954
0.587121 0.719844 0.673854
0.609125 0.709255 0.680720
0.627985 0.697322 0.688136
0.642542 0.684627 0.695857
0.632197 0.699702 0.685695
0.631861 0.714168 0.673732
0.643885 0.727901 0.659571
0.669368 0.740505 0.642969
0.708248 0.751858 0.623194
0.758267 0.761715 0.599756
0.819486 0.774289 0.586145
0.862425 0.779110 0.559625
0.899046 0.780911 0.521233
0.931945 0.780514 0.479255
0.961669 0.778531 0.432593
0.988586 0.775418 0.379065
1.000000 0.771450 0.315343
1.000000 0.766934 0.232059
1.000000 0.761868 0.000000
1.000000 0.756161 0.000000
1.000000 0.750881 0.000000
0.477058 0.777615 0.681880
0.478614 0.777676 0.682307
0.482765 0.777584 0.683070
0.490547 0.777218 0.684413
0.502861 0.776455 0.686580
0.519310 0.775265 0.689509
0.539330 0.773800 0.693507
0.562524 0.772030 0.698604
0.576806 0.768154 0.699275
0.588922 0.763119 0.698970
0.602258 0.757107 0.699458
0.616968 0.749935 0.701015
0.634607 0.741329 0.705348
0.653040 0.731380 0.711666
0.668544 0.720027 0.718410
0.673396 0.716182 0.720607
0.666438 0.729610 0.711055
0.668574 0.742367 0.699947
0.681483 0.754330 0.686976
0.705989 0.765194 0.671748
0.741573 0.774807 0.653681
0.786618 0.783078 0.632197
0.840696 0.793515 0.618982
0.878904 0.797055 0.595972
0.911620 0.798367 0.561089
0.941619 0.797879 0.522606
0.969329 0.795895 0.478920
0.994781 0.792935 0.429694
1.000000 0.789181 0.371832
1.000000 0.784817 0.299779
1.000000 0.779721 0.193790
1.000000 0.773983 0.000000
0.523400 0.797513 0.708064
0.524407 0.797543 0.708339
0.528038 0.797452 0.709071
0.534508 0.797086 0.710231
0.544427 0.796414 0.711971
0.557977 0.795438 0.714473
0.574762 0.794156 0.717830
0.594598 0.792538 0.722103
0.611170 0.789944 0.724819
0.621332 0.785763 0.724269
0.632410 0.780850 0.724331
0.644800 0.774929 0.725185
0.657954 0.768032 0.727169
0.675227 0.759640 0.732509
0.690822 0.750332 0.738369
0.703761 0.739864 0.744686
0.701869 0.743343 0.742306
0.697749 0.755367 0.733516
0.701869 0.766690 0.723293
0.715419 0.777127 0.711421
0.738949 0.786557 0.697597
0.771695 0.794797 0.681331
0.812222 0.801724 0.661860
0.860075 0.810422 0.649714
0.893095 0.812131 0.628016
0.922484 0.813107 0.596338
0.950103 0.812680 0.560937
0.975799 0.811002 0.521386
1.000000 0.808255 0.475196
1.000000 0.804746 0.421241
1.000000 0.800565 0.355535
1.000000 0.795621 0.265751
0.568994 0.816129 0.733730
0.570306 0.816220 0.734096
0.573022 0.816129 0.734646
0.578302 0.815702 0.735592
0.586328 0.814969 0.736934
0.597223 0.813931 0.738827
0.610925 0.812650 0.741421
0.627314 0.811063 0.744839
0.645289 0.809140 0.748806
0.653162 0.805600 0.747982
0.662104 0.801328 0.747494
0.672206 0.796323 0.747677
0.683162 0.790555 0.748745
0.696345 0.783627 0.751705
0.710842 0.775631 0.756497
0.723598 0.766690 0.761715
0.734157 0.756863 0.767361
0.727535 0.766262 0.761105
0.725612 0.776883 0.752926
0.731197 0.786862 0.743526
0.744991 0.796017 0.732631
0.767300 0.804105 0.719875
0.797208 0.811032 0.704921
0.833494 0.816800 0.687037
0.875883 0.824002 0.675135
0.906249 0.825834 0.658167
0.932616 0.826474 0.628962
0.957946 0.826169 0.597070
0.981994 0.824674 0.560601
1.000000 0.822324 0.518273
1.000000 0.819028 0.467475
1.000000 0.815061 0.405737
0.607019 0.830472 0.754757
0.608087 0.830594 0.755123
0.610559 0.830503 0.755703
0.615045 0.830198 0.756558
0.622034 0.829648 0.757839
0.631495 0.828824 0.759640
0.643458 0.827817 0.762051
0.657954 0.826566 0.765225
0.674739 0.825071 0.769223
0.684504 0.822538 0.769924
0.692103 0.819181 0.769528
0.700557 0.815244 0.769497
0.709804 0.810636 0.770138
0.719692 0.805234 0.771572
0.732601 0.798672 0.775296
0.744778 0.791287 0.779660
0.755367 0.783108 0.784482
0.760250 0.778470 0.787045
0.754574 0.788205 0.780484
0.754513 0.797421 0.772976
0.760952 0.805966 0.764309
0.774502 0.813718 0.754421
0.794919 0.820523 0.742824
0.821836 0.826322 0.729030
0.854032 0.831235 0.712856
0.891661 0.837339 0.701595
0.918700 0.838651 0.687068
0.942443 0.839170 0.660639
0.965820 0.839109 0.632227
0.988190 0.838041 0.599573
1.000000 0.836118 0.561517
1.000000 0.833127 0.514275
0.645716 0.843748 0.775692
0.646204 0.843778 0.775875
0.648280 0.843687 0.776303
0.652003 0.843412 0.777005
0.657710 0.842893 0.778103
0.665736 0.842161 0.779629
0.676051 0.841215 0.781735
0.688228 0.840116 0.784390
0.702449 0.838834 0.787808
0.714290 0.837003 0.790005
0.720607 0.834257 0.789517
0.727596 0.831022 0.789334
0.735348 0.827268 0.789609
0.743526 0.822965 0.790463
0.753323 0.817746 0.792599
0.764614 0.811734 0.796262
0.774777 0.805081 0.800320
0.783505 0.797787 0.804685
0.783505 0.798703 0.804074
0.779873 0.807095 0.798093
0.781216 0.815030 0.791287
0.788144 0.822324 0.783536
0.800870 0.828885 0.774411
0.819455 0.834684 0.763821
0.843442 0.839658 0.751247
0.872099 0.843870 0.736416
0.905486 0.849180 0.725612
0.929686 0.850095 0.713222
0.951171 0.850523 0.689021
0.972869 0.850797 0.663905
0.993713 0.849973 0.634211
1.000000 0.847959 0.597681
0.680720 0.855192 0.794491
0.681270 0.855192 0.794644
0.682918 0.855100 0.795010
0.686275 0.854856 0.795682
0.691310 0.854459 0.796750
0.698390 0.853910 0.798245
0.707576 0.853239 0.800290
0.718624 0.852476 0.802945
0.731502 0.851560 0.806241
0.745266 0.850462 0.809903
0.751034 0.848478 0.809842
0.757382 0.846098 0.809964
0.764218 0.843290 0.810330
0.771389 0.840024 0.811124
0.778958 0.836179 0.812375
0.788540 0.831479 0.815183
0.797879 0.826230 0.818570
0.806302 0.820462 0.822232
0.813413 0.814237 0.826230
0.810269 0.819242 0.823178
0.808347 0.826352 0.817990
0.810575 0.833036 0.812039
0.817350 0.839170 0.805203
0.828916 0.844694 0.797147
0.845365 0.849607 0.787869
0.866270 0.853941 0.776822
0.891234 0.857664 0.763790
0.920348 0.862364 0.753902
0.941680 0.862943 0.743435
0.960510 0.862943 0.720790
0.980133 0.863035 0.697078
0.999359 0.862181 0.669368
0.719234 0.866850 0.814603
0.719448 0.866819 0.814664
0.720851 0.866667 0.814908
0.723384 0.866453 0.815427
0.727443 0.866087 0.816220
0.733181 0.865537 0.817411
0.740536 0.864927 0.819059
0.749477 0.864134 0.821103
0.759854 0.863218 0.823667
0.771511 0.862242 0.826780
0.778439 0.860624 0.827634
0.783230 0.858579 0.827481
0.788693 0.856199 0.827543
0.794461 0.853452 0.827939
