20 Preset/Japan Style/【3】LUT video cho PR-AE-FCPX/LUT VIDEO (2)/Japan Style LUT (38).cube
# Created by Adobe Lightroom plugin Export LUT (1.24.0)
# www.johnrellis.com/lightroom/exportlut.htm
# Preset: 38日系胶片（素材江湖）
# Color profile: C:\Program Files (x86)\Common Files\Adobe\Color\Profiles\Recommended\VideoHD.icc
LUT_3D_SIZE 5
DOMAIN_MIN 0.000000 0.000000 0.000000
DOMAIN_MAX 0.903226 0.903226 0.903226
0.001190 0.037751 0.038849
0.146365 0.076234 0.062440
0.547967 0.000000 0.037385
0.955108 0.262730 0.160616
1.000000 0.492378 0.320897
0.000000 0.161990 0.155398
0.054597 0.179873 0.175967
0.518517 0.254063 0.182437
0.925689 0.393286 0.270237
1.000000 0.562036 0.400214
0.000000 0.557183 0.500267
0.000000 0.576318 0.509667
0.450721 0.608942 0.574609
0.834043 0.672358 0.533562
1.000000 0.728389 0.606653
0.000000 0.840848 0.773068
0.000000 0.840848 0.776425
0.491157 0.834104 0.788296
0.774655 0.824521 0.826413
0.956847 0.863432 0.777127
0.596460 0.922698 0.875944
0.644007 0.920653 0.878019
0.764248 0.913207 0.884459
0.883909 0.912047 0.905669
0.917967 0.924376 0.903624
0.000000 0.128359 0.370947
0.000000 0.163821 0.383764
0.312718 0.291142 0.387610
0.800687 0.483040 0.585168
1.000000 0.621027 0.652247
0.000000 0.230716 0.438605
0.000000 0.248692 0.452705
0.369238 0.386328 0.476875
0.792294 0.541711 0.620325
1.000000 0.659358 0.677913
0.000000 0.532403 0.618189
0.000000 0.547173 0.624781
0.244999 0.617243 0.664698
0.774960 0.705104 0.729793
0.965057 0.768429 0.760311
0.000000 0.825772 0.807980
0.000000 0.832120 0.814054
0.387976 0.840879 0.826902
0.777401 0.844450 0.847196
0.936858 0.868681 0.837949
0.556451 0.927947 0.887266
0.611170 0.925597 0.888365
0.757504 0.919341 0.894591
0.880735 0.916533 0.909545
0.923766 0.924376 0.915923
0.000000 0.327459 0.816220
0.000000 0.348333 0.819333
0.339513 0.469764 0.820401
0.685603 0.616236 0.796750
0.834104 0.769741 0.837247
0.000000 0.407965 0.828092
0.000000 0.417823 0.828061
0.274510 0.513970 0.830869
0.683467 0.641199 0.813870
0.837675 0.783230 0.845151
0.000000 0.592279 0.855253
0.000000 0.597742 0.854246
0.000000 0.624414 0.852415
0.664668 0.722103 0.856046
0.855863 0.825956 0.869139
0.000000 0.784909 0.884398
0.000000 0.786587 0.883360
0.270298 0.800412 0.883268
0.675471 0.824918 0.885924
0.895750 0.879881 0.903349
0.340307 0.923186 0.912627
0.444373 0.923369 0.913817
0.670497 0.924315 0.918334
0.849912 0.925231 0.924346
0.935210 0.928710 0.934386
0.000000 0.570336 0.935454
0.000000 0.588190 0.934325
0.419806 0.653040 0.928191
0.708705 0.738399 0.918120
0.854520 0.807614 0.911772
0.000000 0.599847 0.934600
0.000000 0.612360 0.933227
0.399023 0.665827 0.927764
0.705074 0.748775 0.918303
0.854398 0.813077 0.912840
0.000000 0.675868 0.932921
0.000000 0.681025 0.931579
0.306065 0.710231 0.927764
0.674708 0.771572 0.920836
0.864866 0.838651 0.918853
0.000000 0.788235 0.934325
0.133181 0.790951 0.933623
0.448157 0.804074 0.931579
0.689631 0.829557 0.928649
0.890532 0.877806 0.929076
0.378424 0.885191 0.943481
0.432959 0.886717 0.943023
0.596887 0.893553 0.941344
0.803159 0.907286 0.941131
0.920836 0.928099 0.946960
0.483101 0.746120 0.962524
0.528130 0.755795 0.961395
0.670344 0.793484 0.957549
0.820127 0.846006 0.952850
0.886992 0.870207 0.950408
0.481819 0.752712 0.962310
0.527276 0.761959 0.961273
0.669001 0.797360 0.957641
0.815274 0.845548 0.953155
0.888334 0.872770 0.950713
0.449256 0.771542 0.963165
0.498024 0.778622 0.962158
0.648402 0.807065 0.958587
0.805844 0.849516 0.954406
0.897032 0.884550 0.952789
0.475593 0.812375 0.962707
0.505486 0.815183 0.962219
0.614740 0.828000 0.960510
0.784756 0.859403 0.957610
0.914458 0.905791 0.957671
0.496193 0.862425 0.962707
0.528862 0.864500 0.962402
0.647272 0.874327 0.961608
0.798184 0.894774 0.960906
0.925444 0.931151 0.964141
