20 Preset/Japan Style/【3】LUT video cho PR-AE-FCPX/LUT VIDEO (2)/Japan Style LUT (2).cube
# Created by Adobe Lightroom plugin Export LUT (1.24.0)
# www.johnrellis.com/lightroom/exportlut.htm
# Preset: 02日系清新（素材江湖）
# Color profile: C:\Program Files (x86)\Common Files\Adobe\Color\Profiles\Recommended\VideoHD.icc
LUT_3D_SIZE 32
DOMAIN_MIN 0.0 0.0 0.0
DOMAIN_MAX 1.0 1.0 1.0
0.000000 0.120607 0.176669
0.000000 0.120790 0.176822
0.000000 0.121004 0.177218
0.029023 0.122469 0.178012
0.092378 0.124117 0.179294
0.133425 0.125917 0.181003
0.177920 0.127260 0.182742
0.225467 0.126619 0.183932
0.275639 0.123629 0.185031
0.328771 0.117708 0.185763
0.386023 0.107118 0.185977
0.445991 0.089509 0.186007
0.508080 0.030274 0.185367
0.570947 0.000000 0.184329
0.632837 0.000000 0.182773
0.692287 0.000000 0.180697
0.748440 0.000000 0.177584
0.799344 0.000000 0.174350
0.845151 0.000000 0.170871
0.886107 0.000000 0.166903
0.922606 0.000000 0.163149
0.956390 0.086976 0.159304
0.987427 0.138338 0.155825
1.000000 0.175082 0.153017
1.000000 0.205570 0.151278
1.000000 0.232670 0.150515
1.000000 0.256748 0.151308
1.000000 0.278660 0.153536
1.000000 0.299107 0.157443
1.000000 0.318700 0.163058
1.000000 0.337041 0.170443
1.000000 0.355169 0.179690
0.000000 0.121736 0.177066
0.000000 0.121981 0.176730
0.000000 0.122805 0.177432
0.025910 0.123659 0.178073
0.090852 0.125582 0.179507
0.131624 0.127413 0.181216
0.176181 0.128878 0.182803
0.223178 0.128481 0.183993
0.273136 0.125826 0.185092
0.326024 0.120668 0.185794
0.382635 0.111269 0.186069
0.442359 0.094911 0.185946
0.504173 0.046632 0.185519
0.566888 0.000000 0.184329
0.628687 0.000000 0.182864
0.688441 0.000000 0.180575
0.744961 0.000000 0.177646
0.796262 0.000000 0.174502
0.842252 0.000000 0.170840
0.883360 0.000000 0.167147
0.919921 0.000000 0.163241
0.953674 0.089357 0.159457
0.984283 0.138979 0.155764
1.000000 0.173861 0.153109
1.000000 0.204257 0.151034
1.000000 0.230198 0.150362
1.000000 0.254124 0.151003
1.000000 0.276341 0.152987
1.000000 0.296818 0.156680
1.000000 0.316350 0.162142
1.000000 0.335027 0.169314
1.000000 0.353094 0.178500
0.000000 0.128267 0.181155
0.000000 0.128481 0.180972
0.000000 0.128969 0.179110
0.015106 0.129915 0.178897
0.082277 0.131594 0.180667
0.127352 0.134127 0.182284
0.172457 0.135866 0.183536
0.220035 0.135866 0.184543
0.270146 0.134340 0.185428
0.323156 0.130129 0.185946
0.379828 0.122347 0.186191
0.439673 0.109316 0.186069
0.501396 0.089723 0.185397
0.563806 0.028199 0.184329
0.625818 0.000000 0.182589
0.685542 0.000000 0.180270
0.742123 0.000000 0.177279
0.793606 0.000000 0.173861
0.839811 0.000000 0.170199
0.881163 0.000000 0.166384
0.917998 0.041566 0.162264
0.951904 0.116091 0.158480
0.982269 0.153445 0.155062
1.000000 0.184482 0.152285
1.000000 0.211917 0.150210
1.000000 0.236149 0.149447
1.000000 0.259373 0.150088
1.000000 0.280461 0.152010
1.000000 0.300420 0.155764
1.000000 0.319341 0.161135
1.000000 0.337285 0.168490
1.000000 0.355169 0.177401
0.000000 0.140444 0.189944
0.000000 0.140597 0.190219
0.000000 0.141054 0.189090
0.000000 0.142763 0.186557
0.076661 0.145754 0.183841
0.119692 0.146242 0.187045
0.166537 0.148623 0.186313
0.214694 0.149996 0.185702
0.266148 0.149508 0.186160
0.319860 0.147066 0.186435
0.377081 0.142000 0.186404
0.436652 0.133394 0.186007
0.498726 0.121523 0.185183
0.561059 0.105562 0.183780
0.622583 0.080873 0.181949
0.682216 0.034180 0.179416
0.738460 0.005035 0.176150
0.789639 0.008484 0.172580
0.835813 0.039124 0.168826
0.877073 0.093416 0.164797
0.914000 0.121736 0.160983
0.948089 0.151278 0.156771
0.978180 0.178622 0.153353
1.000000 0.203708 0.150515
1.000000 0.227359 0.148684
1.000000 0.250004 0.147646
1.000000 0.271305 0.148440
1.000000 0.291112 0.150729
1.000000 0.309789 0.154360
1.000000 0.327733 0.160037
1.000000 0.344793 0.167239
1.000000 0.361364 0.176516
0.000000 0.162264 0.202914
0.000000 0.162570 0.203037
0.000000 0.163272 0.203464
0.000000 0.163119 0.200504
0.000000 0.166506 0.195590
0.121584 0.172335 0.188174
0.163851 0.169009 0.191623
0.207034 0.168490 0.193545
0.259434 0.169100 0.191836
0.313787 0.168765 0.190158
0.371191 0.166690 0.188266
0.431495 0.163149 0.186343
0.493660 0.157046 0.184665
0.556573 0.149355 0.182986
0.618585 0.140780 0.180606
0.678096 0.134829 0.177737
0.735012 0.131594 0.174289
0.786526 0.135012 0.170413
0.832761 0.144320 0.166110
0.874205 0.157443 0.161929
0.911162 0.174197 0.157870
0.945495 0.193393 0.153750
0.975250 0.213291 0.150027
1.000000 0.232883 0.147524
1.000000 0.252354 0.145571
1.000000 0.271733 0.144808
1.000000 0.290074 0.145693
1.000000 0.307805 0.147951
1.000000 0.324590 0.152102
1.000000 0.340642 0.157992
1.000000 0.356268 0.165713
1.000000 0.371618 0.174990
0.000000 0.193698 0.219486
0.000000 0.193912 0.219577
0.000000 0.194430 0.219608
0.000000 0.195377 0.218784
0.000000 0.194125 0.214176
0.024781 0.199496 0.205783
0.164462 0.209598 0.191958
0.212741 0.200626 0.196170
0.256107 0.195987 0.200809
0.308690 0.195377 0.200626
0.367346 0.194522 0.197940
0.428443 0.192844 0.195377
0.490883 0.190158 0.192844
0.553796 0.187228 0.190158
0.615778 0.184360 0.186618
0.675837 0.182650 0.182773
0.732418 0.184176 0.178042
0.784146 0.189120 0.173159
0.830503 0.197299 0.167727
0.871794 0.208194 0.162325
0.909636 0.222202 0.156405
0.943664 0.238041 0.150240
0.990051 0.269139 0.142733
1.000000 0.285527 0.140352
1.000000 0.301335 0.139620
1.000000 0.316808 0.140414
1.000000 0.331365 0.142855
1.000000 0.345373 0.146883
1.000000 0.359014 0.152407
1.000000 0.372168 0.160006
1.000000 0.385077 0.168795
1.000000 0.397864 0.179355
0.000000 0.237461 0.241947
0.000000 0.237766 0.241886
0.000000 0.238071 0.241672
0.000000 0.239078 0.241642
0.000000 0.239261 0.236790
0.000000 0.236515 0.233249
0.089845 0.243717 0.220371
0.199680 0.249821 0.202121
0.271641 0.246464 0.201694
0.320531 0.237858 0.207797
0.370764 0.232761 0.213291
0.434119 0.232822 0.210117
0.497749 0.232120 0.206638
0.561028 0.231205 0.202823
0.622522 0.230716 0.198550
0.681270 0.231327 0.194034
0.736965 0.234226 0.188785
0.787411 0.238743 0.183658
0.832700 0.245853 0.178042
0.874174 0.255070 0.172457
0.914122 0.267979 0.166323
0.949035 0.282231 0.160281
0.979736 0.297246 0.154757
1.000000 0.313146 0.148623
1.000000 0.329320 0.142489
1.000000 0.344854 0.136324
1.000000 0.357275 0.137362
1.000000 0.368811 0.142123
1.000000 0.380224 0.148379
1.000000 0.391363 0.156100
1.000000 0.402441 0.165438
1.000000 0.413550 0.176303
0.000000 0.284184 0.265904
0.000000 0.284276 0.265995
0.000000 0.284489 0.265599
0.000000 0.285283 0.265476
0.000000 0.285954 0.265415
0.000000 0.285252 0.255222
0.000000 0.281956 0.254917
0.127138 0.290898 0.237705
0.235935 0.297276 0.216281
0.326909 0.298558 0.208743
0.380682 0.286595 0.216464
0.432990 0.279728 0.223331
0.490578 0.277317 0.225345
0.554070 0.277714 0.220218
0.615686 0.278325 0.215061
0.674403 0.279667 0.209628
0.729793 0.282628 0.203830
0.780179 0.286625 0.197940
0.825742 0.291905 0.192111
0.869139 0.300237 0.186282
0.907774 0.310033 0.180331
0.942046 0.320867 0.174594
0.972534 0.332341 0.169192
0.999908 0.345037 0.163699
1.000000 0.358282 0.158206
1.000000 0.371069 0.152346
1.000000 0.383459 0.146517
1.000000 0.395514 0.139590
1.000000 0.405310 0.143374
1.000000 0.414527 0.152163
1.000000 0.423713 0.162295
1.000000 0.433265 0.173922
0.000000 0.337957 0.293706
0.000000 0.338109 0.293584
0.000000 0.338231 0.293431
0.000000 0.338781 0.293065
0.000000 0.339269 0.292576
0.000000 0.339788 0.292393
0.000000 0.338231 0.278294
0.000000 0.334386 0.279698
0.167300 0.345159 0.258030
0.277928 0.352392 0.232700
0.385260 0.360021 0.214633
0.442725 0.345129 0.224063
0.497169 0.335515 0.232395
0.549340 0.329870 0.239963
0.609308 0.330083 0.236179
0.668086 0.331579 0.229557
0.723354 0.333989 0.222721
0.774105 0.337407 0.216251
0.821103 0.342351 0.209781
0.863310 0.348058 0.203647
0.901152 0.354833 0.197848
0.934874 0.362585 0.192386
0.965209 0.371344 0.187076
0.992645 0.380896 0.181918
1.000000 0.391302 0.176394
1.000000 0.401526 0.171023
1.000000 0.411597 0.165652
1.000000 0.421576 0.159762
1.000000 0.431586 0.153292
1.000000 0.441047 0.147982
1.000000 0.448554 0.159182
1.000000 0.456214 0.171511
0.000000 0.398352 0.324468
0.000000 0.398291 0.324254
0.000000 0.398199 0.323980
0.000000 0.398383 0.323400
0.000000 0.398749 0.322698
0.000000 0.398871 0.322118
0.000000 0.398474 0.317082
0.000000 0.396612 0.304784
0.105653 0.393286 0.304784
0.211276 0.404089 0.279423
0.322393 0.412177 0.250217
0.443122 0.426184 0.218601
0.502983 0.408087 0.230442
0.557641 0.396521 0.239811
0.609430 0.389044 0.248417
0.660243 0.385809 0.253849
0.717464 0.388800 0.246128
0.769070 0.391608 0.238834
0.815244 0.394476 0.231876
0.856718 0.397986 0.225437
0.893889 0.401984 0.219150
0.926879 0.406470 0.213504
0.956634 0.411963 0.208072
0.983581 0.418463 0.202548
1.000000 0.425574 0.197269
1.000000 0.433173 0.192020
1.000000 0.440925 0.186954
1.000000 0.448981 0.181308
1.000000 0.457252 0.175479
1.000000 0.465614 0.169100
1.000000 0.473945 0.161990
1.000000 0.480934 0.169162
0.000000 0.460700 0.356817
0.000000 0.460761 0.356664
0.000000 0.460914 0.356512
0.000000 0.461036 0.355871
0.000000 0.461372 0.355169
0.000000 0.461585 0.354467
0.000000 0.461585 0.354101
0.000000 0.461067 0.343145
0.000000 0.458747 0.333623
0.164706 0.457069 0.331304
0.260929 0.467109 0.302037
0.370397 0.475166 0.269017
0.496437 0.491341 0.227237
0.563073 0.475166 0.234867
0.617823 0.462104 0.246098
0.668452 0.453559 0.256413
0.714748 0.447852 0.266087
0.761379 0.446296 0.266575
0.806882 0.447181 0.258701
0.847837 0.448188 0.251347
0.884642 0.449439 0.244541
0.917510 0.451392 0.238346
0.947387 0.454597 0.232731
0.974578 0.458381 0.226993
0.999176 0.463081 0.221530
1.000000 0.468574 0.216495
1.000000 0.474220 0.211215
1.000000 0.480385 0.205875
1.000000 0.486732 0.200259
1.000000 0.493324 0.194491
1.000000 0.500206 0.188144
1.000000 0.506950 0.180911
0.000000 0.526177 0.392889
0.000000 0.526238 0.392798
0.000000 0.526299 0.392462
0.000000 0.526421 0.391974
0.000000 0.526635 0.391333
0.000000 0.526604 0.390509
0.000000 0.526757 0.389776
0.000000 0.526268 0.389776
0.000000 0.525750 0.370855
0.001434 0.523003 0.366003
0.225834 0.522759 0.360204
0.316899 0.532677 0.328283
0.441169 0.556329 0.296788
0.557580 0.563378 0.250950
0.643122 0.560815 0.242832
0.694148 0.543908 0.257786
0.738796 0.531090 0.271275
0.779049 0.521752 0.283391
0.815305 0.515129 0.295354
0.853910 0.512993 0.289006
0.889036 0.511589 0.281315
0.920439 0.510613 0.274296
0.948882 0.510491 0.267552
0.974701 0.511498 0.261570
0.998047 0.513298 0.255741
1.000000 0.515496 0.250065
1.000000 0.518090 0.244205
1.000000 0.521294 0.238621
1.000000 0.524956 0.233158
1.000000 0.528954 0.227237
1.000000 0.533349 0.220951
1.000000 0.538018 0.213687
0.000000 0.597681 0.437507
0.000000 0.597650 0.437385
0.000000 0.597192 0.436927
0.000000 0.596887 0.436072
0.000000 0.596338 0.435157
0.000000 0.596124 0.434302
0.000000 0.596033 0.433661
0.000000 0.595758 0.433600
0.000000 0.595850 0.429145
0.000000 0.596429 0.406836
0.199588 0.594598 0.408515
0.302922 0.597223 0.399512
0.389166 0.606531 0.364141
0.491798 0.613123 0.323491
0.594202 0.612696 0.276799
0.690608 0.619074 0.251835
0.736507 0.599359 0.268772
0.776455 0.583703 0.283513
0.812070 0.571832 0.296941
0.844022 0.562982 0.309911
0.874235 0.557122 0.317357
0.906035 0.554345 0.309026
0.934966 0.552392 0.301427
0.961395 0.551446 0.294163
0.985412 0.551354 0.287419
1.000000 0.551934 0.281285
1.000000 0.552941 0.275242
1.000000 0.554528 0.269261
1.000000 0.556695 0.263340
1.000000 0.559380 0.257481
1.000000 0.562371 0.251072
1.000000 0.565820 0.244663
0.000000 0.658717 0.482246
0.000000 0.658473 0.482063
0.000000 0.658045 0.481605
0.000000 0.657374 0.480568
0.000000 0.656428 0.479438
0.000000 0.655512 0.478279
0.000000 0.654505 0.477089
0.000000 0.653407 0.476417
0.000000 0.652277 0.476783
0.000000 0.652125 0.464240
0.123751 0.652399 0.445899
0.289708 0.650141 0.449805
0.369177 0.652796 0.435981
0.446326 0.659480 0.398291
0.538811 0.663386 0.355077
0.633082 0.661646 0.305852
0.729946 0.669398 0.265110
0.771054 0.647883 0.283146
0.807248 0.630701 0.298741
0.839048 0.617029 0.313115
0.867582 0.606500 0.326696
0.893828 0.599054 0.339818
0.920989 0.594965 0.340093
0.947967 0.592493 0.331853
0.972503 0.590784 0.324163
0.994598 0.589899 0.317021
1.000000 0.589349 0.310063
1.000000 0.589380 0.303593
1.000000 0.590021 0.297246
1.000000 0.591241 0.290929
1.000000 0.592981 0.284886
1.000000 0.595148 0.278325
0.000000 0.709041 0.525963
0.000000 0.708888 0.525872
0.000000 0.708400 0.525292
0.000000 0.707515 0.524346
0.000000 0.706294 0.523033
0.000000 0.704860 0.521721
0.000000 0.703426 0.520531
0.000000 0.702022 0.520043
0.000000 0.700496 0.520195
0.118563 0.699031 0.522271
0.181033 0.699641 0.501793
0.269017 0.699123 0.490394
0.369146 0.696712 0.494484
0.430823 0.699245 0.475044
0.498329 0.703670 0.434852
0.580255 0.705440 0.389899
0.666224 0.703029 0.338811
0.763333 0.713161 0.282597
0.800473 0.690639 0.300969
0.832883 0.672389 0.317052
0.861662 0.657832 0.331731
0.887968 0.646784 0.345556
0.911986 0.638758 0.359106
0.934142 0.633417 0.372442
0.958740 0.630304 0.365209
0.981353 0.627924 0.356878
1.000000 0.626093 0.349096
1.000000 0.624994 0.342077
1.000000 0.624445 0.335149
1.000000 0.624598 0.328771
1.000000 0.625360 0.322637
1.000000 0.626520 0.316381
0.000000 0.749844 0.567010
0.000000 0.749874 0.567010
0.000000 0.749599 0.566766
0.000000 0.749020 0.566247
0.000000 0.748196 0.565606
0.000000 0.747127 0.564935
0.000000 0.746151 0.564691
0.000000 0.744930 0.564965
0.000000 0.743526 0.566003
0.121340 0.741878 0.568139
0.267887 0.740566 0.564080
0.293126 0.740749 0.542870
0.364874 0.738705 0.537835
0.438911 0.735286 0.540826
0.485298 0.737026 0.514733
0.543084 0.739467 0.472847
0.616052 0.739925 0.425910
0.693690 0.737331 0.374548
0.785245 0.746487 0.315709
0.824338 0.727443 0.321660
0.854124 0.709285 0.337682
0.881041 0.694942 0.352392
0.905425 0.683925 0.366735
0.927733 0.675746 0.380316
0.948028 0.669947 0.394141
0.967559 0.666163 0.402197
0.988586 0.663386 0.393652
1.000000 0.661006 0.385382
1.000000 0.659266 0.377600
1.000000 0.658198 0.370428
1.000000 0.657588 0.363470
1.000000 0.657527 0.356573
0.000000 0.783688 0.605646
0.000000 0.783597 0.605524
0.000000 0.783383 0.605463
0.000000 0.782925 0.605219
0.000000 0.782254 0.604944
0.000000 0.781338 0.604791
0.000000 0.780270 0.604913
0.000000 0.778927 0.605554
0.000000 0.777401 0.606867
0.154849 0.775570 0.609216
0.310002 0.773434 0.612940
0.354345 0.772824 0.601740
0.372686 0.772824 0.581689
0.439429 0.769863 0.582818
0.497902 0.766384 0.585229
0.533898 0.768185 0.554498
0.583764 0.769711 0.512047
0.647974 0.769619 0.465095
0.718288 0.767147 0.413642
0.797391 0.770169 0.356939
0.845579 0.760739 0.345739
0.873198 0.743099 0.361456
0.897978 0.729183 0.375952
0.920500 0.718196 0.390021
0.940978 0.709834 0.403876
0.959472 0.703609 0.417975
0.976196 0.699336 0.431983
0.993896 0.696284 0.433051
1.000000 0.693660 0.424445
1.000000 0.691615 0.416327
1.000000 0.690059 0.408667
1.000000 0.689021 0.401312
0.000000 0.812619 0.643214
0.000000 0.812680 0.643305
0.000000 0.820493 0.655055
0.000000 0.820066 0.654994
0.000000 0.819333 0.655055
0.000000 0.818326 0.655207
0.000000 0.817105 0.655665
0.000000 0.815518 0.656611
0.000000 0.813840 0.658350
0.254246 0.811826 0.660914
0.356420 0.809628 0.664271
0.430518 0.807248 0.667201
0.442908 0.806943 0.650202
0.464088 0.805875 0.635462
0.514946 0.802365 0.636805
0.560174 0.798611 0.638025
0.586755 0.799924 0.603632
0.628290 0.800290 0.561761
0.682673 0.799344 0.514305
0.744930 0.796780 0.461952
0.812497 0.795377 0.405341
0.867399 0.793332 0.378149
0.892180 0.776486 0.392248
0.914519 0.762692 0.406104
0.934691 0.751278 0.419318
0.952819 0.742275 0.432288
0.969329 0.735225 0.445289
0.984405 0.730159 0.458686
0.998108 0.726986 0.472755
1.000000 0.724178 0.466651
1.000000 0.721798 0.458076
1.000000 0.719905 0.449775
0.000000 0.838407 0.681147
0.000000 0.839048 0.682124
0.000000 0.839475 0.683375
0.000000 0.839628 0.684413
0.000000 0.839445 0.685420
0.000000 0.838712 0.686122
0.000000 0.837552 0.687037
0.000000 0.836088 0.688014
0.166323 0.834409 0.689662
0.291997 0.832547 0.691951
0.376104 0.830503 0.694911
0.444892 0.828214 0.698665
0.483223 0.826658 0.694392
0.493507 0.826261 0.678798
0.519951 0.824613 0.670344
0.562036 0.821439 0.671534
0.598779 0.818509 0.670497
0.621759 0.819944 0.636957
0.658869 0.820340 0.598230
0.707301 0.819638 0.553857
0.763455 0.817746 0.503166
0.822690 0.814694 0.447639
0.882902 0.818357 0.406348
0.905608 0.802487 0.419654
0.926085 0.789120 0.432410
0.944518 0.777981 0.445075
0.961181 0.769009 0.457740
0.976410 0.761959 0.470893
0.990356 0.756832 0.484413
1.000000 0.753475 0.498543
1.000000 0.751553 0.509392
1.000000 0.749111 0.500542
0.000000 0.856962 0.710994
0.000000 0.857450 0.711971
0.000000 0.857847 0.713161
0.000000 0.858000 0.714382
0.000000 0.857816 0.715480
0.000000 0.857145 0.716426
0.000000 0.856107 0.717250
0.126741 0.854765 0.718379
0.256168 0.853178 0.720027
0.337591 0.851469 0.722042
0.405066 0.849516 0.724727
0.464363 0.847410 0.728023
0.517479 0.845060 0.731899
0.532403 0.844450 0.721706
0.540887 0.844083 0.707668
0.570764 0.841978 0.704585
0.605829 0.839170 0.705684
0.634272 0.837217 0.700649
0.655055 0.838437 0.669825
0.687770 0.838743 0.634058
0.730678 0.838102 0.592798
0.780819 0.836576 0.545281
0.834928 0.834318 0.491218
0.896605 0.840299 0.436500
0.917327 0.825376 0.448463
0.935973 0.812619 0.460395
0.952880 0.801846 0.472358
0.968292 0.793088 0.484749
0.982422 0.786252 0.497871
0.995392 0.781216 0.511345
1.000000 0.777890 0.525811
1.000000 0.776028 0.540612
0.000000 0.873259 0.739162
0.000000 0.873625 0.740047
0.000000 0.873899 0.741024
0.000000 0.873991 0.742061
0.000000 0.873747 0.743099
0.000000 0.873136 0.743984
0.167727 0.872190 0.744930
0.256199 0.870970 0.746120
0.324010 0.869627 0.747677
0.383825 0.868009 0.749630
0.438392 0.866209 0.752102
0.488655 0.864317 0.755093
0.535485 0.862211 0.758633
0.569787 0.860472 0.758907
0.576806 0.860197 0.747677
0.584771 0.859922 0.735622
0.616175 0.857664 0.736934
0.646021 0.855344 0.738308
0.668605 0.854520 0.730892
0.687495 0.855863 0.703456
0.716640 0.856443 0.671565
0.754635 0.856168 0.634668
0.799039 0.855131 0.591485
0.848173 0.853696 0.541253
0.907012 0.860258 0.487007
0.929198 0.847776 0.486030
0.946044 0.835874 0.497536
0.961425 0.825895 0.509331
0.975463 0.817777 0.522026
0.988434 0.811398 0.535119
1.000000 0.806668 0.548791
1.000000 0.803403 0.562829
0.068910 0.889677 0.769558
0.094362 0.889799 0.769863
0.125856 0.889769 0.770260
0.166567 0.889494 0.770626
0.210025 0.889036 0.771176
0.254490 0.888304 0.771725
0.299931 0.887388 0.772519
0.345373 0.886259 0.773617
0.390814 0.884947 0.775051
0.435706 0.883543 0.777005
0.479133 0.881926 0.779355
0.521233 0.880186 0.782162
0.561364 0.878325 0.785275
0.599207 0.876280 0.788785
0.614496 0.875486 0.783871
0.620203 0.875242 0.774014
0.632868 0.874388 0.767178
0.658656 0.872313 0.768154
0.683284 0.870298 0.769284
0.700130 0.869963 0.759091
0.716518 0.870909 0.734218
0.741451 0.871214 0.704982
0.774228 0.870787 0.670588
0.813199 0.869627 0.630304
0.857481 0.868467 0.583581
0.909911 0.872587 0.531670
0.937591 0.865141 0.517174
0.953124 0.854032 0.528283
0.967407 0.844724 0.539940
0.980529 0.837125 0.552087
0.992615 0.831113 0.564904
1.000000 0.826596 0.578332
0.277501 0.901366 0.791592
0.280522 0.901457 0.791867
0.288548 0.901396 0.792203
0.302770 0.901183 0.792599
0.322789 0.900755 0.793118
0.347662 0.900145 0.793729
0.376776 0.899260 0.794553
0.408942 0.898283 0.795621
0.443214 0.897124 0.797055
0.478981 0.895811 0.798917
0.514824 0.894377 0.801083
0.550408 0.892790 0.803616
0.584924 0.891112 0.806424
0.618158 0.889372 0.809537
0.646723 0.887724 0.811765
0.651240 0.887572 0.804135
0.656214 0.887449 0.795773
0.672175 0.886290 0.793149
0.693965 0.884550 0.794125
0.714900 0.882811 0.795224
0.727474 0.883055 0.783352
0.741909 0.883909 0.761593
0.763638 0.884154 0.735622
0.792172 0.883848 0.704677
0.825193 0.881773 0.664240
0.865293 0.880949 0.621271
0.912139 0.883330 0.572656
0.944701 0.880308 0.547051
0.959228 0.869932 0.557702
0.972564 0.861295 0.569055
0.984863 0.854276 0.581415
0.996216 0.848783 0.594354
0.379767 0.912413 0.813107
0.382696 0.912505 0.813504
0.387243 0.912444 0.813779
0.395697 0.912169 0.814023
0.407752 0.911711 0.814237
0.423896 0.911009 0.814603
0.443641 0.910094 0.815122
0.466743 0.909056 0.815854
0.492622 0.907866 0.816861
0.520287 0.906554 0.818265
0.549126 0.905119 0.819883
0.578698 0.903593 0.821958
0.607965 0.902007 0.824247
0.636561 0.900328 0.826810
0.664179 0.898558 0.829618
0.677333 0.897673 0.827207
0.680903 0.897459 0.820249
0.684901 0.897307 0.812833
0.703365 0.895842 0.813291
0.722164 0.894377 0.814328
0.740230 0.892943 0.815457
0.749538 0.893614 0.802304
0.762356 0.894316 0.783017
0.781338 0.894499 0.759670
0.806332 0.894133 0.731441
0.836759 0.893156 0.697505
0.872801 0.892515 0.658106
0.914519 0.893584 0.612696
0.951263 0.894041 0.577478
0.964782 0.884459 0.587793
0.977264 0.876493 0.599268
0.988708 0.870207 0.612024
0.443000 0.920623 0.828855
0.445136 0.920684 0.829191
0.448798 0.920653 0.829465
0.455360 0.920439 0.829801
0.465309 0.920073 0.830198
0.478218 0.919524 0.830747
0.494453 0.918853 0.831479
0.513664 0.918029 0.832456
0.535271 0.917082 0.833677
0.558740 0.915984 0.835203
0.583185 0.914794 0.836912
0.608515 0.913481 0.838926
0.633845 0.912108 0.841123
0.658778 0.910643 0.843503
0.682887 0.909117 0.846006
0.705196 0.907591 0.848356
0.707881 0.907408 0.842893
0.710933 0.907286 0.837003
0.718105 0.906828 0.832822
0.734249 0.905547 0.833585
0.750118 0.904295 0.834501
0.765469 0.903075 0.835508
0.771817 0.904082 0.821561
0.783108 0.904723 0.804807
0.799588 0.904936 0.784695
0.821439 0.904692 0.760250
0.848264 0.903990 0.730587
0.880552 0.903624 0.695949
0.917601 0.903960 0.655146
0.957427 0.907500 0.613886
0.969970 0.898894 0.624659
0.981506 0.891447 0.635065
0.501335 0.928527 0.844266
0.502342 0.928557 0.844419
0.505119 0.928466 0.844633
0.510094 0.928252 0.844907
0.517540 0.927916 0.845243
0.527886 0.927398 0.845762
0.540764 0.926787 0.846433
0.556085 0.926055 0.847288
0.573877 0.925170 0.848417
0.593317 0.924193 0.849821
0.614130 0.923095 0.851408
0.635737 0.921965 0.853239
0.657618 0.920714 0.855283
0.679316 0.919432 0.857450
0.700710 0.918059 0.859800
0.721340 0.916716 0.862303
0.731716 0.916014 0.861082
0.734066 0.915923 0.856352
0.736904 0.915831 0.851408
0.746883 0.915160 0.850004
0.760708 0.914092 0.850767
0.774289 0.913024 0.851621
0.785672 0.912322 0.850217
0.791348 0.913268 0.837980
0.801328 0.913817 0.823392
0.815702 0.914061 0.805875
0.834897 0.913909 0.784726
0.858549 0.913390 0.758999
0.887419 0.913268 0.729000
0.920989 0.913878 0.694026
0.960052 0.918425 0.655573
0.974182 0.910857 0.655451
0.548394 0.935332 0.857359
0.549340 0.935332 0.857511
0.551476 0.935302 0.857664
0.555718 0.935119 0.857969
0.562310 0.934844 0.858396
0.571160 0.934478 0.859068
0.582818 0.934051 0.860014
0.596857 0.933501 0.861234
0.612787 0.932891 0.862669
0.630213 0.932219 0.864378
0.649012 0.931426 0.866331
0.668177 0.930602 0.868437
0.687709 0.929686 0.870665
0.706935 0.928679 0.872984
0.725734 0.927642 0.875364
0.743862 0.926513 0.877745
0.760403 0.925444 0.879881
0.762387 0.925414 0.876341
0.764614 0.925383 0.872618
0.767178 0.925444 0.868742
0.778744 0.924590 0.869383
0.790127 0.923735 0.870085
0.801297 0.922850 0.870756
0.809232 0.922667 0.867765
0.814237 0.923491 0.857603
0.822721 0.924071 0.845579
0.834989 0.924346 0.831296
0.851041 0.924285 0.813901
0.871092 0.923857 0.792599
0.895811 0.923735 0.767422
0.925505 0.924529 0.738125
0.961273 0.928771 0.705653
0.600641 0.942596 0.871977
0.601038 0.942565 0.872007
0.602533 0.942473 0.872099
0.605646 0.942321 0.872282
0.610529 0.942046 0.872618
0.617426 0.941650 0.873106
0.626276 0.941192 0.873777
0.637049 0.940642 0.874662
0.649439 0.940002 0.875761
0.663416 0.939300 0.877073
0.678523 0.938476 0.878569
0.694423 0.937652 0.880278
0.710811 0.936767 0.882139
0.727382 0.935821 0.884123
