20 Preset/Japan Style/【3】LUT video cho PR-AE-FCPX/LUT VIDEO (2)/Japan Style LUT (38).cube
# Created by Adobe Lightroom plugin Export LUT (1.24.0)
# www.johnrellis.com/lightroom/exportlut.htm
# Preset: 38日系胶片（素材江湖）
# Color profile: C:\Program Files (x86)\Common Files\Adobe\Color\Profiles\Recommended\VideoHD.icc
LUT_3D_SIZE 8
DOMAIN_MIN 0.000000 0.000000 0.000000
DOMAIN_MAX 0.903226 0.903226 0.903226
0.001190 0.037751 0.038849
0.054383 0.049378 0.047517
0.182376 0.080201 0.065309
0.403479 0.045167 0.056397
0.691096 0.000000 0.045441
0.915923 0.220768 0.136110
1.000000 0.373327 0.232944
1.000000 0.492378 0.320897
0.000000 0.088655 0.082704
0.027802 0.096590 0.078218
0.171572 0.114229 0.079255
0.384741 0.126040 0.088991
0.669764 0.145357 0.109407
0.893950 0.256382 0.167391
1.000000 0.385840 0.248356
1.000000 0.500450 0.330266
0.000000 0.201511 0.196628
0.000000 0.206912 0.199557
0.101381 0.217685 0.231846
0.372992 0.280491 0.200961
0.654597 0.332372 0.236606
0.874357 0.407355 0.285740
1.000000 0.499580 0.356359
1.000000 0.581445 0.423316
0.000000 0.425696 0.393347
0.000000 0.434058 0.397589
0.000000 0.461280 0.411566
0.317052 0.491463 0.462623
0.655665 0.576532 0.396002
0.828367 0.591852 0.452979
0.959319 0.636591 0.501823
1.000000 0.682399 0.547997
0.000000 0.663416 0.593500
0.000000 0.667048 0.595727
0.000000 0.681300 0.605737
0.092622 0.691402 0.621393
0.561181 0.691676 0.665949
0.793851 0.752865 0.574884
0.903838 0.750240 0.626764
0.980529 0.771633 0.664698
0.000000 0.810971 0.739773
0.000000 0.815061 0.744839
0.000000 0.816526 0.749172
0.239780 0.814084 0.755917
0.590021 0.811276 0.773556
0.739925 0.805875 0.803067
0.884184 0.854856 0.747860
0.962402 0.847349 0.755642
0.000000 0.888365 0.830106
0.000000 0.887938 0.830930
0.292363 0.884764 0.832212
0.519036 0.879637 0.836484
0.685542 0.873594 0.844999
0.806241 0.870848 0.862852
0.849821 0.872374 0.870085
0.933562 0.905516 0.838621
0.596460 0.922698 0.875944
0.609522 0.922118 0.876432
0.660029 0.920012 0.878874
0.735836 0.916930 0.884215
0.803433 0.912016 0.889220
0.870268 0.911620 0.901854
0.902007 0.910246 0.909514
0.917967 0.924376 0.903624
0.000000 0.085176 0.163516
0.000000 0.094148 0.162448
0.105074 0.126558 0.163149
0.318334 0.162692 0.243229
0.665187 0.134249 0.284550
0.883391 0.264103 0.326909
1.000000 0.401099 0.376440
1.000000 0.517113 0.430243
0.000000 0.113130 0.190463
0.000000 0.118898 0.197848
0.108278 0.153658 0.202396
0.319066 0.191287 0.264225
0.655665 0.196048 0.302373
0.872557 0.300267 0.342077
0.997345 0.418463 0.386999
1.000000 0.526207 0.436988
0.000000 0.214969 0.285985
0.000000 0.222568 0.291630
0.000000 0.256870 0.313817
0.325566 0.308385 0.350439
0.630213 0.355261 0.376898
0.845914 0.427375 0.410712
0.976806 0.512444 0.455146
1.000000 0.596033 0.503105
0.000000 0.398779 0.423529
0.000000 0.405921 0.426978
0.000000 0.450904 0.455360
0.194430 0.514611 0.496223
0.584436 0.556512 0.489815
0.792172 0.587366 0.522393
0.932860 0.635035 0.558465
1.000000 0.685603 0.595300
0.000000 0.650843 0.616541
0.000000 0.653620 0.617762
0.000000 0.669032 0.627588
0.000000 0.696986 0.650477
0.543023 0.701839 0.676997
0.762264 0.744808 0.626154
0.879149 0.747524 0.666682
0.969390 0.773159 0.694209
0.000000 0.801938 0.748104
0.000000 0.803311 0.749630
0.000000 0.808377 0.755947
0.000000 0.814908 0.768124
0.556023 0.812741 0.779751
0.738979 0.811398 0.807645
0.871214 0.852140 0.770626
0.953246 0.846891 0.774807
0.000000 0.888701 0.835752
0.000000 0.887572 0.835294
0.171756 0.884337 0.835813
0.480629 0.879484 0.839170
0.667353 0.873930 0.846769
0.795987 0.870787 0.861875
0.850065 0.867643 0.873533
0.928191 0.903075 0.843778
0.573419 0.922911 0.876768
0.590021 0.922515 0.877592
0.643427 0.920256 0.879667
0.724056 0.917052 0.884581
0.804288 0.914122 0.892241
0.869352 0.912871 0.903044
0.902739 0.911406 0.910613
0.918456 0.923674 0.906340
0.000000 0.148165 0.445411
0.000000 0.152651 0.451362
0.000000 0.196139 0.461463
0.286473 0.268376 0.444007
0.421729 0.375006 0.478828
0.636591 0.555657 0.618433
0.891112 0.596826 0.685847
1.000000 0.659846 0.718044
0.000000 0.181094 0.462135
0.000000 0.185275 0.466560
0.000000 0.222599 0.486183
0.280491 0.288640 0.473060
0.436164 0.394354 0.501457
0.628107 0.562463 0.621881
0.886015 0.600214 0.686000
1.000000 0.664149 0.719448
0.000000 0.281071 0.520256
0.000000 0.285313 0.523125
0.000000 0.303136 0.535027
0.202518 0.372534 0.567956
0.477699 0.479011 0.570947
0.639460 0.608331 0.657252
0.880522 0.644007 0.714199
0.990143 0.700679 0.742855
0.000000 0.448035 0.611200
0.000000 0.453346 0.615839
0.000000 0.471321 0.625360
0.000000 0.509758 0.645350
0.492042 0.585290 0.678218
0.661860 0.678187 0.713893
0.874754 0.710323 0.758480
0.967407 0.752255 0.775051
0.000000 0.628077 0.707912
0.000000 0.630640 0.708888
0.000000 0.642939 0.714229
0.000000 0.668696 0.727413
0.423682 0.705562 0.748501
0.690517 0.748623 0.780056
0.853330 0.780758 0.800534
0.941466 0.804746 0.809140
0.000000 0.772183 0.786862
0.000000 0.774197 0.788022
0.000000 0.780423 0.791623
0.000000 0.791989 0.799283
0.460456 0.812955 0.817258
0.708949 0.833280 0.839506
0.839689 0.850217 0.844266
0.925475 0.855192 0.843442
0.000000 0.885618 0.858915
0.000000 0.885100 0.858854
0.000000 0.883940 0.859434
0.409003 0.882963 0.862486
0.628077 0.883055 0.868925
0.776608 0.879881 0.874784
0.863005 0.879637 0.886839
0.920592 0.904540 0.877958
0.527855 0.928985 0.890074
0.543938 0.928252 0.890105
0.606744 0.925689 0.891112
0.701686 0.922210 0.894377
0.790524 0.918517 0.899229
0.862455 0.916930 0.907286
0.907958 0.917601 0.916899
0.923857 0.922789 0.917967
0.000000 0.254887 0.719966
0.000000 0.260807 0.723812
0.000000 0.286015 0.731838
0.152743 0.367895 0.737301
0.498116 0.455055 0.724666
0.635340 0.570214 0.713771
0.732998 0.665248 0.753994
0.852110 0.777951 0.830716
0.000000 0.289921 0.731136
0.000000 0.294072 0.733364
0.000000 0.314336 0.740352
0.049714 0.389929 0.748501
0.494301 0.471382 0.735378
0.639094 0.580499 0.722988
0.732265 0.670527 0.757687
0.851255 0.781613 0.832853
0.000000 0.372473 0.751339
0.000000 0.375067 0.751461
0.000000 0.385473 0.752926
0.000000 0.426459 0.763210
0.463966 0.522026 0.764584
0.654475 0.619440 0.762570
0.751980 0.706447 0.788022
0.857542 0.800412 0.846006
0.000000 0.505608 0.790494
0.000000 0.506584 0.789731
0.000000 0.514000 0.789273
0.000000 0.531884 0.790921
0.342473 0.584436 0.799924
0.648219 0.669795 0.803616
0.768795 0.745754 0.814572
0.867247 0.818784 0.858885
0.000000 0.644160 0.825010
0.000000 0.645075 0.824765
0.000000 0.651759 0.826047
0.000000 0.667720 0.829038
0.289097 0.691859 0.831754
0.598291 0.726955 0.838621
0.795743 0.796017 0.846830
0.886778 0.845121 0.877897
0.000000 0.763577 0.856626
0.000000 0.766842 0.858091
0.000000 0.770535 0.857816
0.000000 0.779477 0.858671
0.402869 0.792477 0.860655
0.635920 0.810147 0.865507
0.802518 0.837827 0.877043
0.912291 0.872496 0.896117
0.000000 0.860472 0.881132
0.000000 0.860960 0.881376
0.000000 0.862364 0.881956
0.350988 0.864988 0.883391
0.575616 0.869017 0.886046
0.737636 0.876097 0.891508
0.848081 0.889830 0.902495
0.911711 0.902220 0.909331
0.445991 0.931182 0.908476
0.467720 0.930724 0.908537
0.545373 0.929015 0.909026
0.655573 0.926604 0.910552
0.761837 0.925078 0.913725
0.847105 0.924010 0.917876
0.905058 0.924254 0.924010
0.933928 0.924804 0.931273
0.000000 0.401678 0.874876
0.000000 0.408606 0.876097
0.000000 0.429999 0.875608
0.000000 0.486275 0.874815
0.477638 0.565972 0.868315
0.659449 0.630457 0.857572
0.768124 0.702419 0.848600
0.840055 0.770748 0.859373
0.000000 0.426520 0.877562
0.000000 0.432746 0.878843
0.000000 0.450935 0.878294
0.000000 0.493538 0.876188
0.472297 0.575494 0.869780
0.657099 0.637263 0.859495
0.768582 0.706996 0.851133
0.840604 0.774350 0.860685
0.000000 0.483467 0.880461
0.000000 0.486275 0.880461
0.000000 0.497841 0.879362
0.000000 0.528527 0.877317
0.442512 0.605097 0.873228
0.641199 0.657282 0.864317
0.767391 0.722225 0.858701
0.841581 0.785977 0.864469
0.000000 0.564660 0.885008
0.000000 0.566308 0.884581
0.000000 0.574640 0.883635
0.000000 0.590356 0.881712
0.332555 0.635370 0.880095
0.626276 0.702205 0.876524
0.771267 0.754452 0.872496
0.850736 0.809781 0.873777
0.000000 0.664454 0.892058
0.000000 0.666102 0.891936
0.000000 0.672023 0.891051
0.000000 0.684230 0.889311
0.264347 0.701350 0.886687
0.566003 0.734005 0.885222
0.776150 0.791806 0.884855
0.865232 0.838102 0.885466
0.000000 0.753994 0.897490
0.000000 0.755093 0.897429
0.000000 0.758083 0.896422
0.000000 0.765377 0.894987
0.373968 0.779019 0.894163
0.595972 0.798550 0.894774
0.764981 0.826200 0.897276
0.888701 0.869169 0.903899
0.000000 0.841398 0.908598
0.000000 0.841581 0.908232
0.000000 0.843229 0.907134
0.320317 0.847715 0.906554
0.540398 0.853849 0.906737
0.699580 0.862364 0.907652
0.814328 0.874846 0.910918
0.899168 0.895811 0.919371
0.239048 0.912779 0.919097
0.283330 0.912718 0.919097
0.410956 0.912474 0.919249
0.569177 0.913115 0.920623
0.705653 0.914488 0.922362
0.813107 0.919341 0.926360
0.887541 0.927459 0.932982
0.933837 0.932555 0.938445
0.000000 0.548699 0.930541
0.000000 0.554376 0.930419
0.000000 0.571710 0.928313
0.239445 0.609918 0.924773
0.533074 0.673518 0.918425
0.675837 0.713802 0.912505
0.779568 0.755306 0.906828
0.855772 0.803006 0.904204
0.000000 0.552270 0.928283
0.000000 0.555932 0.927916
0.000000 0.572351 0.926238
0.190280 0.607752 0.923064
0.512322 0.667872 0.917662
0.669886 0.713954 0.911833
0.776089 0.755337 0.906432
0.854276 0.803006 0.903990
0.000000 0.590631 0.929015
0.000000 0.593286 0.928588
0.000000 0.606500 0.927062
0.143893 0.632166 0.923430
0.482734 0.676387 0.919097
0.669398 0.731685 0.913237
0.776761 0.768917 0.908659
0.856901 0.812131 0.906706
0.000000 0.640223 0.928893
0.000000 0.641749 0.928466
0.000000 0.650629 0.927214
0.000000 0.675074 0.925231
0.467506 0.709804 0.921721
0.663508 0.756619 0.917296
0.784756 0.795010 0.913481
0.865202 0.829892 0.911955
0.000000 0.701717 0.927611
0.000000 0.703304 0.927337
0.000000 0.709865 0.926360
0.000000 0.722591 0.924712
0.403418 0.739040 0.922148
0.623957 0.771633 0.918853
0.788724 0.817624 0.916777
0.872221 0.845731 0.915129
0.000000 0.767483 0.927825
0.000000 0.769345 0.927855
0.000000 0.773373 0.927153
0.287297 0.781125 0.925841
0.471626 0.792355 0.923980
0.629145 0.809751 0.922301
0.781949 0.837430 0.921660
0.887816 0.870451 0.922454
0.165560 0.832639 0.932738
0.212253 0.833555 0.932738
0.315587 0.835996 0.932250
0.441932 0.840848 0.931212
0.572930 0.848264 0.929686
0.705379 0.859129 0.928374
0.808804 0.872618 0.928588
0.891691 0.893065 0.932097
0.340887 0.889921 0.939147
0.356329 0.890166 0.938903
0.420386 0.891630 0.938201
0.523766 0.895109 0.937102
0.652277 0.899992 0.935821
0.781643 0.906767 0.936950
0.868193 0.916899 0.939879
0.922789 0.929046 0.944793
0.000000 0.657343 0.950927
0.071168 0.662318 0.950744
0.292271 0.676478 0.949126
0.457069 0.704036 0.946288
0.603021 0.740871 0.942168
0.732631 0.785977 0.936980
0.801602 0.807340 0.933593
0.857908 0.830320 0.930785
0.000000 0.656977 0.949828
0.000000 0.662104 0.949706
0.270024 0.675624 0.948211
0.440009 0.700954 0.945342
0.589075 0.736416 0.941283
0.723659 0.782284 0.935912
0.794583 0.803494 0.932403
0.853574 0.827359 0.929656
0.000000 0.679011 0.949950
0.000000 0.681849 0.949645
0.273594 0.692531 0.948089
0.438575 0.714382 0.945373
0.584619 0.745235 0.941466
0.720760 0.788144 0.936767
0.802060 0.814786 0.933776
0.860594 0.837675 0.932006
0.000000 0.708400 0.950256
0.000000 0.709957 0.949828
0.258976 0.718349 0.948394
0.433539 0.737301 0.946075
0.583093 0.763821 0.942626
0.715663 0.798459 0.939117
0.814939 0.832425 0.936248
0.869383 0.851255 0.935027
0.000000 0.742397 0.948943
0.000000 0.742824 0.948608
0.239384 0.747433 0.947631
0.385687 0.758022 0.946227
0.551934 0.779355 0.943481
0.700191 0.808865 0.940307
0.813901 0.842588 0.938445
0.879332 0.865751 0.938231
0.263798 0.786404 0.948272
0.285893 0.787564 0.948180
0.357610 0.791775 0.947631
0.459144 0.799863 0.946685
0.572778 0.811887 0.945220
0.692744 0.829770 0.943572
0.813260 0.856260 0.942077
0.893706 0.883970 0.942779
0.405341 0.830533 0.949248
0.418799 0.831388 0.949218
0.464759 0.834195 0.948821
0.542016 0.839902 0.948089
0.635004 0.848417 0.947021
0.732876 0.860655 0.945922
0.819425 0.876249 0.945556
0.901305 0.899657 0.947204
0.458656 0.872984 0.953399
0.470222 0.873533 0.953368
0.518029 0.876158 0.953307
0.590021 0.880522 0.952880
0.677089 0.887205 0.952056
0.768521 0.897276 0.951232
0.857755 0.911650 0.951751
0.919738 0.927947 0.954833
0.483101 0.746120 0.962524
0.497017 0.749111 0.962249
0.543725 0.759365 0.960998
0.624201 0.780117 0.958862
0.716793 0.808011 0.956176
0.800015 0.837583 0.953460
0.854917 0.858915 0.951690
0.886992 0.870207 0.950408
0.479072 0.746609 0.962280
0.493050 0.749691 0.962036
0.541161 0.760159 0.960876
0.621515 0.780423 0.958770
0.714199 0.807828 0.956115
0.797421 0.836851 0.953460
0.854215 0.858915 0.951568
0.886168 0.869902 0.950225
0.480568 0.754818 0.962280
0.493507 0.757351 0.962036
0.541222 0.767056 0.960906
0.624323 0.787228 0.959014
0.712642 0.811246 0.956329
0.794491 0.838102 0.953796
0.857359 0.863035 0.951995
0.888457 0.873350 0.950744
0.471382 0.766903 0.962768
0.485023 0.769192 0.962493
0.533654 0.777707 0.961395
0.614435 0.794278 0.959442
0.706966 0.816739 0.956909
0.792538 0.842435 0.954559
0.862303 0.869749 0.953124
0.894133 0.880613 0.952056
0.428656 0.778836 0.963409
0.439857 0.780209 0.963256
0.487709 0.785702 0.962432
0.579675 0.800107 0.960571
0.686305 0.821225 0.957977
0.782895 0.846036 0.955596
0.855497 0.870878 0.954498
0.901244 0.889708 0.953826
0.461128 0.804593 0.962707
0.468727 0.805264 0.962554
0.501884 0.808469 0.961975
0.563622 0.815579 0.960998
0.645899 0.827176 0.959655
0.764950 0.851377 0.957488
0.853910 0.877653 0.956573
0.913237 0.903593 0.957031
0.498421 0.832151 0.962432
0.506279 0.832822 0.962310
0.538415 0.835660 0.961852
0.597467 0.841672 0.961089
0.674617 0.851164 0.960052
0.759457 0.864927 0.959014
0.841581 0.884062 0.958648
0.916136 0.911864 0.959808
0.496193 0.862425 0.962707
0.504479 0.862943 0.962615
0.540978 0.865354 0.962341
0.606989 0.870603 0.961883
0.689479 0.878813 0.961303
0.776486 0.890929 0.960906
0.859312 0.908415 0.961517
0.925444 0.931151 0.964141
