20 Preset/Japan Style/【3】LUT video cho PR-AE-FCPX/LUT VIDEO (2)/Japan Style LUT (16).cube
# Created by Adobe Lightroom plugin Export LUT (1.24.0)
# www.johnrellis.com/lightroom/exportlut.htm
# Preset: 16日系暖色（素材江湖）
# Color profile: C:\Program Files (x86)\Common Files\Adobe\Color\Profiles\Recommended\VideoHD.icc
LUT_3D_SIZE 5
DOMAIN_MIN 0.000000 0.000000 0.000000
DOMAIN_MAX 0.903226 0.903226 0.903226
0.000000 0.033356 0.036652
0.154391 0.043488 0.059266
0.741360 0.000000 0.005432
1.000000 0.000000 0.000000
1.000000 0.195682 0.165774
0.000000 0.157443 0.117952
0.109957 0.167697 0.090150
0.710567 0.226810 0.000000
1.000000 0.237675 0.000000
1.000000 0.345190 0.111635
0.000000 0.576318 0.379980
0.000000 0.561395 0.318425
0.608789 0.616999 0.192264
1.000000 0.647822 0.000000
1.000000 0.606226 0.000000
0.448341 0.834806 0.700099
0.459083 0.832364 0.682704
0.576532 0.819089 0.650782
0.887602 0.834775 0.568353
1.000000 0.808499 0.204807
0.793515 0.905058 0.858915
0.805264 0.904356 0.859648
0.806699 0.902037 0.844511
0.858610 0.901122 0.837034
0.966369 0.909239 0.802274
0.000000 0.069123 0.122744
0.116762 0.080903 0.119112
0.716487 0.000000 0.076783
1.000000 0.000000 0.000000
1.000000 0.271214 0.132052
0.000000 0.171542 0.169833
0.144839 0.199161 0.171572
0.703639 0.243717 0.027100
1.000000 0.327581 0.000000
1.000000 0.378088 0.012177
0.000000 0.584436 0.434119
0.000000 0.584588 0.419684
0.620508 0.626246 0.325383
0.995087 0.644007 0.000000
1.000000 0.614343 0.000000
0.456672 0.835386 0.714473
0.522576 0.833371 0.715328
0.605554 0.819242 0.682399
0.886442 0.836606 0.618799
1.000000 0.810880 0.328313
0.789151 0.905547 0.860380
0.810330 0.904601 0.864347
0.819638 0.902922 0.853666
0.863828 0.901701 0.845548
0.965789 0.910491 0.815824
0.000000 0.117006 0.347417
0.107027 0.118349 0.351690
0.592554 0.000000 0.387121
1.000000 0.000000 0.394965
1.000000 0.374151 0.307378
0.000000 0.207645 0.398932
0.099062 0.233249 0.425238
0.634333 0.287175 0.451301
1.000000 0.384131 0.463600
1.000000 0.456550 0.333135
0.000000 0.584344 0.577752
0.000000 0.618311 0.600122
0.646754 0.659266 0.599481
0.969787 0.666468 0.518669
1.000000 0.646540 0.402838
0.442725 0.839872 0.762692
0.533104 0.837430 0.765774
0.688869 0.830808 0.762539
0.884337 0.843076 0.743069
1.000000 0.818143 0.561578
0.752865 0.908537 0.864286
0.780545 0.907256 0.867796
0.850309 0.904631 0.878172
0.876036 0.901884 0.868223
0.963470 0.913207 0.850309
0.000000 0.198764 0.687129
0.000000 0.197696 0.687922
0.592920 0.171328 0.689967
0.951507 0.373632 0.691890
1.000000 0.554955 0.695613
0.000000 0.278050 0.701625
0.000000 0.298131 0.706020
0.603906 0.312718 0.709407
0.937804 0.490791 0.713649
1.000000 0.612329 0.718135
0.000000 0.537835 0.735439
0.000000 0.545373 0.734829
0.591577 0.619928 0.757870
0.898772 0.703426 0.772122
1.000000 0.760433 0.793698
0.286076 0.821927 0.816007
0.417151 0.826719 0.820249
0.692103 0.839445 0.835294
0.877134 0.846250 0.837400
1.000000 0.833219 0.796384
0.689876 0.915343 0.885710
0.719600 0.914000 0.886503
0.811582 0.910338 0.890929
0.898680 0.908843 0.898802
0.963226 0.919738 0.894133
0.214878 0.377844 0.887541
0.355322 0.377386 0.885679
0.649409 0.383398 0.880613
0.926940 0.423163 0.873442
1.000000 0.633448 0.835630
0.169497 0.433295 0.883238
0.333806 0.434333 0.881895
0.634852 0.442969 0.877226
0.912779 0.482521 0.870512
1.000000 0.665400 0.839475
0.000000 0.531456 0.874937
0.000000 0.538811 0.874662
0.578790 0.612055 0.873014
0.868345 0.646052 0.868254
0.985595 0.764553 0.860044
0.000000 0.763943 0.884794
0.000000 0.763302 0.883330
0.459510 0.765377 0.879332
0.821622 0.807767 0.883513
0.964233 0.855711 0.895323
0.537438 0.899809 0.907805
0.583612 0.899382 0.908019
0.733425 0.900084 0.911070
0.875303 0.909911 0.921324
0.960357 0.924041 0.931792
