20 Preset/Japan Style/【3】LUT video cho PR-AE-FCPX/LUT VIDEO (2)/Japan Style LUT (8).cube
# Created by Adobe Lightroom plugin Export LUT (1.24.0)
# www.johnrellis.com/lightroom/exportlut.htm
# Preset: 08日系清新（素材江湖）
# Color profile: C:\Program Files (x86)\Common Files\Adobe\Color\Profiles\Recommended\VideoHD.icc
LUT_3D_SIZE 32
DOMAIN_MIN 0.0 0.0 0.0
DOMAIN_MAX 1.0 1.0 1.0
0.000000 0.000000 0.000000
0.052338 0.001923 0.000000
0.126528 0.001587 0.000000
0.185061 0.016541 0.000000
0.257023 0.036286 0.000000
0.338506 0.058076 0.000000
0.411719 0.092897 0.000000
0.474708 0.109163 0.000000
0.528985 0.124239 0.000000
0.576928 0.139864 0.000000
0.620874 0.153689 0.000000
0.661433 0.167697 0.000000
0.698939 0.180545 0.000000
0.733486 0.194064 0.021393
0.765011 0.207034 0.057954
0.792111 0.220737 0.095949
0.815244 0.234836 0.119265
0.835233 0.249424 0.143252
0.854276 0.263188 0.163363
0.872282 0.277867 0.183627
0.890532 0.292699 0.203952
0.908446 0.307897 0.223728
0.924071 0.321874 0.242130
0.938354 0.334752 0.258274
0.951507 0.346502 0.273014
0.963806 0.357519 0.286473
0.975433 0.367712 0.298802
0.986603 0.377050 0.310307
0.997406 0.385779 0.320775
1.000000 0.394141 0.330541
1.000000 0.401587 0.339391
1.000000 0.408728 0.347906
0.000000 0.035767 0.014405
0.021271 0.038911 0.002197
0.123384 0.046448 0.006500
0.184054 0.053010 0.003510
0.256382 0.076143 0.000000
0.336858 0.094484 0.000000
0.409796 0.107515 0.000000
0.472267 0.120760 0.000000
0.526635 0.134035 0.000000
0.574548 0.148074 0.000000
0.618311 0.161440 0.000000
0.658930 0.173526 0.000000
0.696529 0.185611 0.000275
0.731106 0.197848 0.025269
0.762722 0.210819 0.061524
0.790158 0.223819 0.097292
0.813535 0.237644 0.120760
0.833738 0.251347 0.143465
0.852750 0.264988 0.163912
0.870726 0.279057 0.184085
0.888853 0.293675 0.203708
0.906462 0.307927 0.222904
0.921874 0.321843 0.241032
0.936065 0.334386 0.256840
0.949279 0.345953 0.271366
0.961639 0.356512 0.284520
0.973480 0.366369 0.296605
0.984771 0.375891 0.308263
0.995758 0.384558 0.318761
1.000000 0.392737 0.328435
1.000000 0.400458 0.337560
1.000000 0.407477 0.345892
0.000000 0.111635 0.069123
0.000000 0.112428 0.069581
0.103426 0.122316 0.008698
0.182284 0.126802 0.007385
0.255161 0.135409 0.020752
0.335393 0.147463 0.008850
0.408057 0.156344 0.000000
0.470222 0.163394 0.000000
0.524285 0.172213 0.000000
0.572290 0.179324 0.000000
0.616327 0.187808 0.000000
0.657099 0.196078 0.000000
0.694514 0.205722 0.015625
0.729061 0.216037 0.043549
0.760830 0.226413 0.080140
0.788235 0.237766 0.105348
0.811704 0.249699 0.127413
0.831937 0.262181 0.149508
0.851072 0.274418 0.168948
0.869169 0.287419 0.188174
0.887449 0.300938 0.207492
0.904814 0.314733 0.226322
0.920165 0.327550 0.243717
0.934386 0.339269 0.259220
0.947539 0.350225 0.273381
0.960021 0.360021 0.285985
0.971832 0.369940 0.298375
0.983307 0.378882 0.309453
0.994415 0.387213 0.319493
1.000000 0.395239 0.329351
1.000000 0.402380 0.338140
1.000000 0.409369 0.346441
0.000000 0.165560 0.118227
0.000000 0.165530 0.118471
0.000000 0.172641 0.095186
0.155978 0.184878 0.020874
0.259800 0.203311 0.000000
0.334752 0.210208 0.038056
0.406378 0.216770 0.037293
0.467720 0.220737 0.024994
0.522210 0.223301 0.019440
0.570245 0.226200 0.016419
0.614405 0.230106 0.019013
0.654810 0.234409 0.030854
0.692378 0.240421 0.052186
0.726802 0.247471 0.084352
0.758236 0.254856 0.101656
0.785458 0.263676 0.121767
0.808804 0.272587 0.141909
0.828946 0.282811 0.161471
0.848051 0.293065 0.180240
0.866148 0.303929 0.198093
0.884398 0.315312 0.215763
0.901366 0.327367 0.233463
0.916716 0.338567 0.249760
0.931121 0.349126 0.264439
0.944732 0.359045 0.277775
0.957488 0.368627 0.290745
0.969726 0.377905 0.302892
0.981537 0.386175 0.313725
0.992920 0.393988 0.323552
1.000000 0.401434 0.332952
1.000000 0.408209 0.341588
1.000000 0.414496 0.349279
0.000000 0.230350 0.157595
0.000000 0.230014 0.157046
0.000000 0.230533 0.151583
0.003021 0.244511 0.110231
0.213504 0.259159 0.023194
0.332708 0.280766 0.000000
0.400824 0.281041 0.000000
0.463508 0.280186 0.076478
0.517723 0.280217 0.067872
0.566125 0.280308 0.068574
0.610163 0.280461 0.075319
0.650874 0.281865 0.088075
0.688350 0.284306 0.099672
0.722957 0.288273 0.112703
0.754452 0.293034 0.128023
0.781491 0.299260 0.145998
0.805173 0.304997 0.162570
0.825528 0.312261 0.180545
0.844846 0.320043 0.197024
0.863249 0.328344 0.213535
0.881529 0.337957 0.230228
0.898375 0.347326 0.245853
0.913695 0.356725 0.260929
0.928313 0.365484 0.274418
0.942016 0.374090 0.287175
0.954986 0.382605 0.299443
0.967376 0.390387 0.310552
0.979309 0.397772 0.320684
0.990723 0.404700 0.330114
1.000000 0.411200 0.338842
1.000000 0.417182 0.346868
1.000000 0.422858 0.354345
0.000000 0.292851 0.194858
0.000000 0.292576 0.194888
0.000000 0.290593 0.193759
0.000000 0.299107 0.161013
0.097078 0.312749 0.119173
0.265446 0.325902 0.009735
0.390784 0.349004 0.000000
0.453437 0.344152 0.000000
0.510491 0.340795 0.072053
0.562371 0.338750 0.115084
0.606592 0.336492 0.118898
0.647486 0.335454 0.125551
0.684840 0.335607 0.136355
0.719417 0.336889 0.148592
0.750637 0.339055 0.161501
0.777798 0.341588 0.176059
0.801114 0.345006 0.190707
0.821805 0.349035 0.205844
0.841337 0.353857 0.220279
0.860380 0.360021 0.235233
0.878630 0.367071 0.250095
0.895415 0.374304 0.264012
0.921477 0.391028 0.289769
0.935668 0.398291 0.302586
0.948882 0.405035 0.314000
0.961212 0.411597 0.324773
0.972869 0.417639 0.334813
0.984039 0.423285 0.343450
0.994690 0.428687 0.351629
1.000000 0.433783 0.359258
1.000000 0.438575 0.366369
1.000000 0.442756 0.372381
0.000000 0.354498 0.236973
0.000000 0.354162 0.236698
0.000000 0.352728 0.235904
0.000000 0.353277 0.227359
0.000000 0.366278 0.172396
0.161044 0.377417 0.136477
0.312779 0.388312 0.034852
0.442969 0.412329 0.000000
0.501488 0.405737 0.000000
0.555352 0.401129 0.095735
0.605646 0.398566 0.151156
0.648676 0.396979 0.176181
0.686030 0.394598 0.184421
0.720211 0.393164 0.193637
0.750362 0.392096 0.203891
0.776303 0.391485 0.215518
0.799008 0.391485 0.227085
0.819699 0.392584 0.239261
0.839689 0.395209 0.251957
0.860044 0.399664 0.265812
0.879057 0.404700 0.279179
0.896757 0.410224 0.292271
0.913054 0.416083 0.305303
0.928405 0.421851 0.317144
0.942626 0.427222 0.328008
0.955596 0.432532 0.338079
0.967773 0.436896 0.346441
0.979126 0.441291 0.354650
0.990021 0.445411 0.361944
1.000000 0.449226 0.368658
1.000000 0.452827 0.374792
1.000000 0.456123 0.380468
0.000000 0.402289 0.275212
0.000000 0.402106 0.275395
0.000000 0.401007 0.274571
0.000000 0.398871 0.273869
0.000000 0.406439 0.242527
0.000000 0.417548 0.198184
0.215579 0.427131 0.164096
0.350072 0.436133 0.103365
0.476814 0.458595 0.000000
0.535546 0.455116 0.006470
0.586877 0.450752 0.131197
0.634089 0.448463 0.181674
0.677150 0.448554 0.224002
0.712337 0.445991 0.236942
0.742306 0.442512 0.244358
0.768246 0.439216 0.252964
0.791012 0.436896 0.262150
0.812375 0.435401 0.271702
0.833677 0.436164 0.282811
0.853666 0.437751 0.293919
0.872465 0.440101 0.304540
0.890166 0.443030 0.315129
0.906615 0.446326 0.325994
0.922087 0.449866 0.336095
0.936492 0.453590 0.345678
0.949767 0.456794 0.354040
0.962127 0.459846 0.361791
0.973877 0.462531 0.368353
0.985046 0.465248 0.374701
0.995666 0.468055 0.380835
1.000000 0.470344 0.385992
1.000000 0.472755 0.390967
0.000000 0.444831 0.313878
0.000000 0.444678 0.313756
0.000000 0.443885 0.313420
0.000000 0.442267 0.313085
0.000000 0.443366 0.303471
0.000000 0.454078 0.255711
0.098634 0.462562 0.229618
0.265049 0.471046 0.197086
0.382757 0.478889 0.147799
0.503349 0.497414 0.000000
0.566217 0.499763 0.096681
0.614923 0.495827 0.162875
0.659632 0.493446 0.211032
0.699672 0.492683 0.252171
0.733608 0.492500 0.287907
0.759487 0.487251 0.293553
0.782895 0.482826 0.300359
0.805478 0.480293 0.308629
0.826780 0.478401 0.316350
0.846769 0.477577 0.324590
0.865599 0.477485 0.332891
0.883299 0.478218 0.341527
0.899809 0.479438 0.350378
0.915465 0.480903 0.358526
0.930083 0.482490 0.366217
0.943603 0.484016 0.373175
0.956237 0.485481 0.379614
0.968200 0.486854 0.385260
0.979553 0.488319 0.390723
0.990509 0.489570 0.395483
1.000000 0.490913 0.400153
1.000000 0.492073 0.404120
0.000000 0.483497 0.350683
0.000000 0.483162 0.350530
0.000000 0.482460 0.350317
0.000000 0.481178 0.350103
0.000000 0.479103 0.349798
0.000000 0.485908 0.322911
0.000000 0.495155 0.282383
0.186191 0.502708 0.259983
0.306584 0.510033 0.229892
0.412848 0.516869 0.186954
0.524651 0.532311 0.102358
0.592706 0.539147 0.135500
0.639124 0.535271 0.192386
0.681056 0.532738 0.237766
0.717311 0.530449 0.277897
0.748348 0.529625 0.315129
0.774746 0.528649 0.340337
0.797726 0.524224 0.345861
0.819242 0.520653 0.351324
0.839384 0.517937 0.357458
0.858274 0.515740 0.363287
0.875792 0.514183 0.369543
0.892180 0.513146 0.375891
0.907744 0.512505 0.381750
0.922362 0.512047 0.387396
0.936065 0.511864 0.392767
0.948943 0.511833 0.398077
0.961273 0.511864 0.402655
0.973053 0.512047 0.407050
0.984314 0.512383 0.411383
0.995148 0.512718 0.415167
1.000000 0.512963 0.418616
0.000000 0.517571 0.383948
0.000000 0.517418 0.383917
0.000000 0.516991 0.383856
0.000000 0.515953 0.383642
0.085481 0.514397 0.383612
0.093904 0.516136 0.373846
0.000000 0.524712 0.338720
0.107179 0.532525 0.310430
0.242191 0.539452 0.288701
0.343908 0.546197 0.259983
0.441627 0.552056 0.220951
0.544366 0.564782 0.158114
0.617426 0.575372 0.166354
0.662165 0.571893 0.218906
0.700710 0.568261 0.263279
0.733303 0.564965 0.303258
0.761868 0.562951 0.338720
0.788052 0.563195 0.371160
0.810727 0.561242 0.386206
0.830991 0.556847 0.389929
0.850004 0.553002 0.393896
0.867643 0.549828 0.398138
0.884276 0.547295 0.402686
0.900053 0.544976 0.406989
0.914885 0.543084 0.411261
0.928771 0.541588 0.415442
0.941985 0.540185 0.419257
0.954498 0.538994 0.422919
0.966522 0.537987 0.426276
0.978027 0.537133 0.429480
0.989105 0.536461 0.432563
0.999817 0.535698 0.435065
0.000000 0.550134 0.415564
0.000000 0.549981 0.415534
0.015534 0.549615 0.415381
0.091920 0.548882 0.415442
0.127596 0.547723 0.415320
0.162936 0.545922 0.415625
0.117647 0.552697 0.391485
0.000000 0.561120 0.353033
0.188693 0.567407 0.336461
0.286992 0.573785 0.315373
0.377966 0.580133 0.288365
0.468208 0.585931 0.253605
0.572778 0.605432 0.210361
0.650965 0.618982 0.204898
0.691066 0.613214 0.255955
0.725032 0.607416 0.299626
0.755123 0.603326 0.338018
0.782742 0.601343 0.371649
0.807645 0.601099 0.402625
0.830137 0.602167 0.430243
0.849058 0.598169 0.436866
0.866239 0.593225 0.438972
0.882444 0.588708 0.440925
0.897612 0.584802 0.443519
0.911986 0.581231 0.445747
0.925536 0.577844 0.447852
0.938354 0.574609 0.449561
0.950530 0.571740 0.451331
0.962127 0.569268 0.453315
0.973358 0.566857 0.454871
0.984283 0.564660 0.456275
0.994934 0.562585 0.457465
0.115602 0.584222 0.448707
0.117647 0.584131 0.448676
0.127535 0.583612 0.448554
0.142733 0.582757 0.448219
0.163455 0.581476 0.448005
0.187930 0.579828 0.447883
0.185763 0.582330 0.437842
0.144961 0.589746 0.410163
0.152316 0.597375 0.381445
0.245914 0.603784 0.365454
0.329717 0.610498 0.345495
0.413031 0.616968 0.320806
0.497993 0.622675 0.288975
0.588281 0.630945 0.244999
0.668605 0.645472 0.228275
0.705043 0.638422 0.276982
0.736965 0.632380 0.318242
0.766018 0.628199 0.354589
0.792294 0.625696 0.387060
0.815915 0.624720 0.416693
0.837156 0.624750 0.443427
0.855985 0.625360 0.466255
0.872343 0.619989 0.467201
0.887877 0.615045 0.468147
0.902586 0.610437 0.469245
0.916411 0.606256 0.470375
0.929534 0.602319 0.471504
0.942107 0.598566 0.472328
0.954101 0.595148 0.473213
0.965698 0.592035 0.474128
0.976867 0.589105 0.474922
0.987701 0.586358 0.475654
0.161135 0.613031 0.477119
0.161715 0.612909 0.477058
0.167575 0.612451 0.476905
0.177157 0.611658 0.476539
0.191867 0.610468 0.476234
0.209781 0.609003 0.476081
0.229038 0.607599 0.475380
0.201236 0.613458 0.454047
0.162570 0.620722 0.423224
0.212070 0.626978 0.403693
0.287877 0.632929 0.387854
0.363287 0.638788 0.368872
0.440253 0.644038 0.345220
0.518975 0.648157 0.315648
0.601801 0.653315 0.276158
0.682826 0.667628 0.249577
0.717311 0.660578 0.295171
0.748013 0.654780 0.334417
0.775967 0.650568 0.369482
0.801083 0.647730 0.400977
0.823636 0.646082 0.429633
0.843961 0.645594 0.455726
0.862211 0.646052 0.479500
0.878538 0.644892 0.493996
0.893431 0.639612 0.494057
0.907530 0.634699 0.494179
0.920928 0.629969 0.494148
0.933654 0.625513 0.494331
0.945922 0.621332 0.494453
0.957702 0.617517 0.494545
0.969116 0.613916 0.494759
0.980194 0.610559 0.494820
0.195315 0.638727 0.502831
0.196017 0.638605 0.502770
0.199252 0.638178 0.502525
0.206241 0.637354 0.502098
0.216861 0.636164 0.501640
0.230869 0.634699 0.501244
0.247440 0.633051 0.501152
0.242557 0.635279 0.490730
0.215854 0.641169 0.467109
0.193698 0.647913 0.437324
0.259190 0.652949 0.424689
0.325628 0.658015 0.409308
0.393713 0.662684 0.390936
0.464363 0.666621 0.368231
0.537194 0.669429 0.339849
0.613397 0.672175 0.303777
0.692042 0.684077 0.269902
0.729000 0.680995 0.311284
0.758755 0.675319 0.349126
0.785489 0.671015 0.383154
0.809506 0.667903 0.413886
0.831327 0.665919 0.441566
0.850889 0.664912 0.466926
0.868498 0.664759 0.489937
0.884337 0.665187 0.510826
0.898650 0.662196 0.518090
0.912230 0.656977 0.517388
0.925170 0.652064 0.516899
0.937713 0.647395 0.516411
0.949767 0.643153 0.516045
0.961395 0.639185 0.515923
0.972747 0.635370 0.515679
0.226383 0.660029 0.525353
0.227176 0.659998 0.525414
0.230106 0.659724 0.525322
0.235019 0.659205 0.525109
0.243107 0.658412 0.524865
0.254246 0.657343 0.524773
0.267735 0.656214 0.524926
0.279698 0.655634 0.523461
0.260563 0.660578 0.505241
0.236698 0.666316 0.480354
0.247044 0.671534 0.458442
0.301579 0.675593 0.445472
0.359777 0.679347 0.430091
0.421180 0.682643 0.411505
0.485237 0.685145 0.388952
0.552361 0.686793 0.362005
0.623194 0.688197 0.327886
0.700282 0.698878 0.287114
0.739834 0.699336 0.325200
0.768490 0.693874 0.362249
0.794369 0.689693 0.395300
0.817807 0.686549 0.425391
0.838895 0.684382 0.452705
0.857939 0.683070 0.477302
0.874998 0.682399 0.499855
0.890257 0.682307 0.520317
0.903777 0.682734 0.539147
0.916808 0.678126 0.540246
0.929442 0.672999 0.538994
0.941588 0.668208 0.537987
0.953368 0.663630 0.536950
0.964752 0.659236 0.535943
0.256992 0.678096 0.545830
0.257481 0.678035 0.545800
0.259495 0.677821 0.545739
0.263462 0.677424 0.545647
0.269841 0.676814 0.545556
0.278233 0.676020 0.545556
0.289372 0.675044 0.545708
0.302586 0.673915 0.546105
0.297063 0.676234 0.536126
0.279088 0.680964 0.516686
0.257298 0.686305 0.490517
0.289738 0.690150 0.476478
0.337163 0.693507 0.463630
0.389197 0.696529 0.448463
0.444862 0.699245 0.430152
0.504173 0.701411 0.408362
0.566766 0.702907 0.382300
0.632837 0.703670 0.350652
0.707515 0.713741 0.309850
0.750668 0.716793 0.339147
0.778378 0.711696 0.374884
0.803586 0.707485 0.407202
0.826261 0.704280 0.436439
0.846708 0.701839 0.463020
0.865019 0.700099 0.487129
0.881437 0.698970 0.509239
0.896056 0.698390 0.529290
0.909209 0.698238 0.547509
0.921111 0.697719 0.561730
0.933379 0.692561 0.560021
0.945220 0.687648 0.558495
0.956725 0.682887 0.556970
0.287877 0.694331 0.565576
0.288365 0.694331 0.565667
0.301213 0.699275 0.572381
0.304021 0.699001 0.572320
0.308721 0.698451 0.572290
0.315221 0.697780 0.572290
0.323766 0.696834 0.572381
0.333776 0.695766 0.572595
0.340642 0.695552 0.570459
0.326360 0.699458 0.554925
0.309911 0.703914 0.534722
0.300847 0.708522 0.512108
0.335210 0.711543 0.500969
0.375647 0.714473 0.487770
0.421149 0.717037 0.472236
0.471473 0.719234 0.454139
0.525933 0.720882 0.432380
0.584222 0.721981 0.406958
0.646021 0.722377 0.376806
0.716762 0.730983 0.338781
0.763943 0.736019 0.356176
0.790555 0.730800 0.390631
0.814694 0.726375 0.421485
0.836240 0.722683 0.449866
0.855528 0.719600 0.475471
0.872831 0.717128 0.498512
0.888334 0.715236 0.519249
0.902220 0.713893 0.538354
0.914733 0.713100 0.555840
0.925994 0.712825 0.571984
0.936980 0.710689 0.579950
0.948547 0.705684 0.577874
0.318914 0.710689 0.586084
0.320226 0.711116 0.586633
0.322301 0.711482 0.587274
0.325811 0.711604 0.587823
0.330419 0.711513 0.588281
0.336095 0.711025 0.588495
0.343359 0.710231 0.588647
0.351781 0.709255 0.588861
0.362036 0.708125 0.589288
0.355535 0.710445 0.579706
0.341497 0.714412 0.563439
0.325017 0.718898 0.542504
0.332189 0.722621 0.525719
0.363684 0.725490 0.514549
0.400824 0.728237 0.501549
0.443183 0.730678 0.486275
0.490272 0.732845 0.468482
0.541527 0.734524 0.447883
0.596887 0.735775 0.423835
0.655726 0.736446 0.395361
0.723201 0.744198 0.360143
0.774197 0.751369 0.367163
0.800046 0.746273 0.400977
0.823301 0.741756 0.431281
0.844114 0.737758 0.458564
0.862699 0.734401 0.483497
0.879362 0.731563 0.505943
0.894285 0.729335 0.526574
0.907744 0.727657 0.545312
0.919890 0.726497 0.562524
0.930877 0.725856 0.578393
0.940856 0.725490 0.592828
0.341344 0.724117 0.602258
0.342504 0.724514 0.602838
0.344396 0.724941 0.603479
0.347448 0.725124 0.604089
0.351446 0.725093 0.604547
0.356420 0.724666 0.604822
0.362280 0.723995 0.604944
0.369696 0.723110 0.605188
0.378393 0.722103 0.605585
0.382238 0.722164 0.602808
0.370123 0.725673 0.589410
0.355901 0.729702 0.572381
0.339513 0.734127 0.550378
0.360662 0.737087 0.539635
0.390051 0.739834 0.528527
0.424689 0.742458 0.515557
0.464454 0.744808 0.500511
0.508690 0.746853 0.483131
0.557275 0.748562 0.463264
0.609735 0.749813 0.440131
0.665888 0.750484 0.412970
0.730068 0.757351 0.380102
0.784604 0.766293 0.377417
0.809628 0.761135 0.410681
0.831968 0.756435 0.440192
0.852049 0.752224 0.466835
0.869932 0.748531 0.491096
0.885985 0.745388 0.513146
0.900450 0.742855 0.533532
0.913512 0.740902 0.552056
0.925322 0.739467 0.569085
0.936004 0.738369 0.584466
0.362249 0.737606 0.618250
0.363165 0.738003 0.618769
0.364874 0.738338 0.619318
0.367529 0.738491 0.619898
0.370855 0.738460 0.620294
0.375128 0.738094 0.620539
0.380224 0.737514 0.620661
0.386664 0.736721 0.620935
0.394079 0.735836 0.621302
0.402869 0.734768 0.621851
0.395789 0.737179 0.612696
0.383642 0.740780 0.598688
0.369329 0.744808 0.580804
0.363745 0.748684 0.562890
0.386481 0.751400 0.553277
0.414160 0.754086 0.542168
0.447059 0.756710 0.529595
0.484871 0.759182 0.515038
0.527153 0.761440 0.498756
0.573663 0.763394 0.479805
0.623896 0.764981 0.458106
0.677852 0.765988 0.432776
0.739040 0.772061 0.402014
0.795010 0.780972 0.391730
0.821195 0.777493 0.423957
0.842741 0.772671 0.453132
0.861936 0.768246 0.479347
0.879057 0.764370 0.503380
0.894377 0.761074 0.525444
0.908232 0.758328 0.545525
0.920684 0.756100 0.563745
0.931884 0.754360 0.580377
0.386725 0.753567 0.637140
0.387182 0.753689 0.637354
0.388220 0.753750 0.637537
0.389868 0.753628 0.637690
0.392370 0.753353 0.637751
0.395697 0.752865 0.637781
0.400122 0.752255 0.637903
0.405524 0.751522 0.638056
0.411902 0.750668 0.638331
0.419532 0.749783 0.638819
0.421820 0.750118 0.635859
0.411200 0.753414 0.624201
0.398810 0.757046 0.609552
0.384863 0.761013 0.591180
0.390875 0.764218 0.578088
0.412360 0.766812 0.568444
0.438666 0.769345 0.557366
0.469764 0.771786 0.544915
0.505364 0.774105 0.530694
0.545434 0.776120 0.514488
0.589563 0.777890 0.495918
0.637385 0.779202 0.474647
0.688655 0.779934 0.449744
0.746822 0.784848 0.420111
0.802670 0.792630 0.402106
0.830808 0.791226 0.432319
0.851530 0.786160 0.461097
0.870024 0.781582 0.487190
0.886595 0.777493 0.510979
0.901427 0.773983 0.532738
0.914794 0.771023 0.552483
0.926757 0.768521 0.570642
0.404669 0.766629 0.652033
0.405005 0.766720 0.652216
0.406012 0.766751 0.652369
0.407385 0.766659 0.652522
0.409461 0.766445 0.652583
0.412360 0.766049 0.652613
0.416114 0.765499 0.652674
0.420722 0.764858 0.652796
0.426337 0.764157 0.653040
0.432959 0.763363 0.653437
0.440284 0.762478 0.653956
0.433356 0.764950 0.645441
0.422919 0.768246 0.633326
0.411017 0.771878 0.618280
0.397986 0.775814 0.599786
0.414405 0.778408 0.591455
0.435279 0.781003 0.581933
0.460639 0.783536 0.571130
0.490425 0.785946 0.558892
0.524559 0.788174 0.545068
0.562860 0.790188 0.529381
0.604944 0.791867 0.511406
0.650813 0.793149 0.490730
0.699977 0.793912 0.466682
0.754238 0.796719 0.435767
0.810056 0.803555 0.410224
0.840146 0.804105 0.439307
0.860105 0.798917 0.467872
0.878080 0.794125 0.493751
0.894163 0.789914 0.517388
0.908537 0.786282 0.539239
0.921447 0.783169 0.559045
0.422889 0.781003 0.667903
0.423377 0.781216 0.668147
0.424140 0.781247 0.668299
0.425177 0.781033 0.668269
0.426734 0.780667 0.668147
0.428901 0.780148 0.667903
0.431769 0.779477 0.667750
0.435431 0.778714 0.667536
0.439857 0.777859 0.667445
0.445197 0.776974 0.667506
0.451362 0.775967 0.667659
0.452064 0.776394 0.664210
0.442939 0.779202 0.653834
0.432532 0.782315 0.641108
0.420691 0.785733 0.625391
0.417639 0.788876 0.610925
0.434272 0.791196 0.602502
0.454719 0.793606 0.593072
0.479316 0.796017 0.582391
0.508232 0.798428 0.570459
0.541222 0.800687 0.557061
0.578119 0.802670 0.541711
0.618524 0.804257 0.524010
0.662409 0.805325 0.503655
0.709560 0.805875 0.479744
0.762509 0.809018 0.451789
0.818173 0.814878 0.418860
0.850095 0.817075 0.446754
0.869322 0.811612 0.474800
0.886595 0.806668 0.500481
0.902098 0.802304 0.524071
0.915831 0.798520 0.545434
0.435401 0.792935 0.680110
0.435767 0.793118 0.680385
0.436500 0.793179 0.680537
0.437537 0.793088 0.680598
0.439094 0.792874 0.680598
0.441169 0.792538 0.680537
0.443915 0.792142 0.680537
0.447272 0.791623 0.680598
0.451575 0.791043 0.680659
0.456519 0.790433 0.680873
0.462043 0.789700 0.681086
0.468391 0.788846 0.681483
0.461646 0.791226 0.673365
0.452888 0.794034 0.662654
0.442756 0.797147 0.649531
0.431525 0.800504 0.633570
0.438392 0.803067 0.623377
0.455207 0.805325 0.615351
0.475837 0.807645 0.606348
0.500053 0.809995 0.596216
0.528038 0.812314 0.584649
0.559655 0.814450 0.571435
0.594934 0.816312 0.556481
0.633722 0.817838 0.539178
0.675776 0.818906 0.519371
0.721218 0.819486 0.496254
0.771908 0.822049 0.469215
0.825895 0.827390 0.437171
0.861295 0.831052 0.456947
0.879698 0.825528 0.485206
0.896086 0.820340 0.510430
0.910460 0.815518 0.532158
0.448524 0.805936 0.693233
0.448737 0.806027 0.693324
0.449226 0.806027 0.693385
0.450111 0.805936 0.693416
0.451362 0.805722 0.693355
0.453132 0.805417 0.693294
0.455573 0.805020 0.693263
0.458564 0.804562 0.693202
0.462135 0.804044 0.693263
0.466529 0.803464 0.693385
0.471534 0.802792 0.693538
0.476997 0.802090 0.693782
0.477150 0.802762 0.690364
0.469581 0.805325 0.681209
0.460945 0.808164 0.670039
0.451240 0.811215 0.656641
0.442512 0.814420 0.641413
0.456886 0.816587 0.634577
0.474403 0.818814 0.627039
0.495155 0.821103 0.618463
0.519219 0.823392 0.608850
0.546624 0.825559 0.597894
0.577111 0.827573 0.585138
0.610925 0.829313 0.570336
0.648127 0.830716 0.553399
0.688533 0.831724 0.533806
0.732387 0.832242 0.511101
0.781064 0.834257 0.484779
0.833188 0.839139 0.453895
0.871885 0.844053 0.464454
0.889128 0.838041 0.491127
0.904479 0.832578 0.514580
0.459480 0.818326 0.705135
0.459785 0.818387 0.705196
0.460243 0.818418 0.705257
0.461036 0.818357 0.705348
0.462287 0.818265 0.705409
0.464118 0.818143 0.705501
0.466682 0.818082 0.705776
0.469886 0.817990 0.706142
0.473823 0.817899 0.706630
0.478309 0.817807 0.707210
0.483558 0.817655 0.707881
0.489265 0.817411 0.708614
0.495460 0.817075 0.709346
0.489418 0.819638 0.701900
0.482185 0.822446 0.692622
0.473945 0.825345 0.681331
0.465003 0.828458 0.667903
0.465461 0.831205 0.656703
0.480720 0.833341 0.650568
0.498695 0.835538 0.643641
0.519554 0.837705 0.635889
0.543389 0.839841 0.627039
0.569848 0.841855 0.616785
0.599359 0.843656 0.605066
0.631739 0.845243 0.591363
0.667170 0.846525 0.575189
0.705837 0.847379 0.556085
0.747524 0.847715 0.533654
0.793576 0.848997 0.507683
0.842710 0.852781 0.477607
0.883299 0.858183 0.478523
0.900023 0.852598 0.503380
0.476020 0.833188 0.720363
0.476081 0.833188 0.720363
0.476448 0.833127 0.720333
0.477058 0.833005 0.720333
0.478096 0.832883 0.720302
0.479622 0.832639 0.720302
0.481697 0.832425 0.720363
0.484260 0.832151 0.720455
0.487526 0.831846 0.720668
0.491341 0.831540 0.720912
0.495796 0.831174 0.721279
0.500816 0.830777 0.721736
0.506401 0.830289 0.722255
0.506279 0.831174 0.718959
