20 Preset/Japan Style/【3】LUT video cho PR-AE-FCPX/LUT VIDEO (2)/Japan Style LUT (21).cube
# Created by Adobe Lightroom plugin Export LUT (1.24.0)
# www.johnrellis.com/lightroom/exportlut.htm
# Preset: 21日系街道（素材江湖）
# Color profile: C:\Program Files (x86)\Common Files\Adobe\Color\Profiles\Recommended\VideoHD.icc
LUT_3D_SIZE 32
DOMAIN_MIN 0.0 0.0 0.0
DOMAIN_MAX 1.0 1.0 1.0
0.014343 0.021424 0.013733
0.026856 0.022248 0.013367
0.066133 0.021180 0.013886
0.104738 0.026001 0.014008
0.151156 0.030274 0.011749
0.232456 0.000000 0.009094
0.328099 0.000000 0.002167
0.424567 0.000000 0.000000
0.518914 0.000000 0.000000
0.608423 0.000000 0.000000
0.692042 0.000000 0.000000
0.767575 0.000000 0.000000
0.832975 0.000000 0.000000
0.885344 0.000000 0.000000
0.928557 0.000000 0.000000
0.963500 0.000000 0.000000
0.992645 0.000000 0.000000
1.000000 0.000000 0.000000
1.000000 0.000000 0.000000
1.000000 0.000000 0.000000
1.000000 0.000000 0.000000
1.000000 0.000000 0.000000
1.000000 0.000000 0.000000
1.000000 0.016480 0.000000
1.000000 0.127016 0.000000
1.000000 0.166751 0.000000
1.000000 0.195560 0.000000
1.000000 0.219211 0.000000
1.000000 0.240116 0.000000
1.000000 0.258946 0.067567
1.000000 0.276738 0.113863
1.000000 0.294011 0.143252
0.013031 0.031556 0.015778
0.017304 0.031128 0.014618
0.061982 0.033967 0.013367
0.103792 0.037568 0.012482
0.150576 0.041840 0.010254
0.230533 0.010681 0.006073
0.324620 0.000000 0.000732
0.419196 0.000000 0.000000
0.512840 0.000000 0.000000
0.601831 0.000000 0.000000
0.684627 0.000000 0.000000
0.760433 0.000000 0.000000
0.826658 0.000000 0.000000
0.879911 0.000000 0.000000
0.923735 0.000000 0.000000
0.959564 0.000000 0.000000
0.989258 0.000000 0.000000
1.000000 0.000000 0.000000
1.000000 0.000000 0.000000
1.000000 0.000000 0.000000
1.000000 0.000000 0.000000
1.000000 0.000000 0.000000
1.000000 0.000000 0.000000
1.000000 0.000000 0.000000
1.000000 0.121035 0.000000
1.000000 0.159945 0.000000
1.000000 0.189242 0.000000
1.000000 0.213718 0.000000
1.000000 0.234562 0.000000
1.000000 0.253605 0.033936
1.000000 0.272007 0.101778
1.000000 0.289250 0.134127
0.008026 0.069978 0.020783
0.017365 0.068849 0.023011
0.039399 0.074372 0.017334
0.098207 0.084199 0.008270
0.151919 0.088441 0.004028
0.232731 0.073304 0.000000
0.324956 0.000000 0.000000
0.418128 0.000000 0.000000
0.509911 0.000000 0.000000
0.597742 0.000000 0.000000
0.680201 0.000000 0.000000
0.755764 0.000000 0.000000
0.821866 0.000000 0.000000
0.875303 0.000000 0.000000
0.919463 0.000000 0.000000
0.955566 0.000000 0.000000
0.985657 0.000000 0.000000
1.000000 0.000000 0.000000
1.000000 0.000000 0.000000
1.000000 0.000000 0.000000
1.000000 0.000000 0.000000
1.000000 0.000000 0.000000
1.000000 0.000000 0.000000
1.000000 0.091798 0.000000
1.000000 0.142458 0.000000
1.000000 0.173342 0.000000
1.000000 0.199954 0.000000
1.000000 0.221561 0.000000
1.000000 0.240543 0.000000
1.000000 0.258671 0.010925
1.000000 0.275151 0.093568
1.000000 0.291844 0.127749
0.000793 0.107942 0.033326
0.006470 0.107729 0.034455
0.035187 0.106386 0.041260
0.080232 0.113710 0.022217
0.141817 0.127016 0.000000
0.232486 0.132601 0.000000
0.328191 0.120577 0.000000
0.419043 0.085023 0.000000
0.509667 0.000000 0.000000
0.596002 0.000000 0.000000
0.677241 0.000000 0.000000
0.751217 0.000000 0.000000
0.816953 0.000000 0.000000
0.869841 0.000000 0.000000
0.913787 0.000000 0.000000
0.949889 0.000000 0.000000
0.980102 0.000000 0.000000
1.000000 0.000000 0.000000
1.000000 0.000000 0.000000
1.000000 0.000000 0.000000
1.000000 0.000000 0.000000
1.000000 0.000000 0.000000
1.000000 0.109499 0.000000
1.000000 0.149722 0.000000
1.000000 0.177951 0.000000
1.000000 0.201663 0.000000
1.000000 0.222538 0.000000
1.000000 0.240391 0.000000
1.000000 0.256413 0.000000
1.000000 0.272313 0.000000
1.000000 0.286961 0.088197
1.000000 0.301091 0.123476
0.000000 0.166476 0.032258
0.000000 0.166140 0.033509
0.000000 0.164370 0.043153
0.012268 0.165652 0.039765
0.108461 0.175631 0.004547
0.200870 0.186526 0.000000
0.303288 0.194003 0.000000
0.412329 0.187716 0.000000
0.503990 0.168063 0.000000
0.589166 0.140291 0.000000
0.668971 0.099611 0.000000
0.742397 0.000000 0.000000
0.807675 0.000000 0.000000
0.861143 0.000000 0.000000
0.905577 0.000000 0.000000
0.942229 0.000000 0.000000
0.973388 0.000000 0.000000
0.999969 0.000000 0.000000
1.000000 0.076783 0.000000
1.000000 0.120272 0.000000
1.000000 0.148775 0.000000
1.000000 0.171939 0.000000
1.000000 0.192447 0.000000
1.000000 0.209964 0.000000
1.000000 0.225711 0.000000
1.000000 0.241550 0.000000
1.000000 0.255131 0.000000
1.000000 0.268070 0.000000
1.000000 0.280644 0.000000
1.000000 0.292790 0.000000
1.000000 0.304387 0.075776
1.000000 0.316289 0.118257
0.000000 0.245579 0.004730
0.000000 0.245670 0.006622
0.000000 0.243503 0.019654
0.000000 0.240299 0.045319
0.000000 0.245121 0.008515
0.152285 0.251102 0.000000
0.260929 0.254887 0.000000
0.368658 0.261234 0.000000
0.478523 0.262150 0.000000
0.585199 0.256992 0.000000
0.664027 0.244175 0.000000
0.736629 0.235813 0.000000
0.800809 0.230076 0.000000
0.853574 0.226169 0.000000
0.897978 0.224155 0.000000
0.935210 0.222324 0.000000
0.966461 0.222965 0.000000
0.993591 0.225010 0.000000
1.000000 0.230900 0.000000
1.000000 0.238193 0.000000
1.000000 0.246036 0.000000
1.000000 0.254582 0.000000
1.000000 0.289555 0.000000
1.000000 0.297612 0.000000
1.000000 0.305058 0.000000
1.000000 0.312688 0.000000
1.000000 0.319951 0.000000
1.000000 0.327306 0.000000
1.000000 0.334874 0.040589
1.000000 0.342657 0.107485
1.000000 0.350652 0.137972
1.000000 0.358679 0.162264
0.000000 0.345556 0.000000
0.000000 0.345403 0.000000
0.000000 0.343664 0.000000
0.000000 0.341100 0.032349
0.000000 0.337224 0.083955
0.079133 0.340490 0.000000
0.219730 0.340917 0.000000
0.326726 0.330999 0.000000
0.441688 0.340581 0.000000
0.553002 0.348516 0.000000
0.657313 0.353979 0.000000
0.745724 0.358434 0.000000
0.806149 0.353826 0.000000
0.856168 0.348699 0.000000
0.898528 0.343023 0.000000
0.933867 0.336797 0.000000
0.964355 0.331640 0.000000
0.992859 0.329320 0.000000
1.000000 0.330114 0.000000
1.000000 0.330541 0.000000
1.000000 0.332158 0.000000
1.000000 0.334936 0.000000
1.000000 0.338720 0.000000
1.000000 0.342748 0.000000
1.000000 0.346929 0.000000
1.000000 0.351293 0.000000
1.000000 0.354772 0.000000
1.000000 0.358831 0.000000
1.000000 0.363073 0.000000
1.000000 0.367651 0.092012
1.000000 0.372747 0.126375
1.000000 0.378332 0.153140
0.000000 0.428168 0.000000
0.000000 0.427985 0.000000
0.000000 0.426734 0.011353
0.000000 0.424811 0.069306
0.000000 0.420813 0.113252
0.000000 0.418921 0.104646
0.174441 0.418860 0.000000
0.286229 0.414801 0.000000
0.385657 0.402197 0.000000
0.492287 0.405035 0.000000
0.599817 0.418952 0.000000
0.697017 0.431403 0.000000
0.780056 0.439796 0.000000
0.840787 0.438056 0.000000
0.883757 0.429816 0.000000
0.919860 0.420813 0.000000
0.952819 0.414282 0.000000
0.982879 0.408667 0.000000
1.000000 0.403235 0.000000
1.000000 0.399054 0.000000
1.000000 0.395544 0.000000
1.000000 0.393347 0.000000
1.000000 0.392279 0.000000
1.000000 0.391852 0.000000
1.000000 0.392157 0.000000
1.000000 0.392493 0.000000
1.000000 0.393011 0.000000
1.000000 0.393683 0.000000
1.000000 0.394965 0.000000
1.000000 0.397162 0.068360
1.000000 0.399603 0.116793
1.000000 0.402960 0.146365
0.000000 0.507652 0.090913
0.000000 0.507530 0.094087
0.000000 0.506676 0.104982
0.000000 0.505089 0.124910
0.000000 0.502251 0.150881
0.000000 0.498054 0.182712
0.163699 0.496132 0.140841
0.262852 0.492866 0.000000
0.357336 0.485939 0.000000
0.448096 0.471870 0.000000
0.541039 0.465949 0.000000
0.641779 0.483986 0.000000
0.731960 0.498695 0.000000
0.804379 0.504326 0.000000
0.863676 0.503471 0.000000
0.908812 0.497719 0.000000
0.942504 0.488136 0.000000
0.971801 0.478859 0.000000
0.997803 0.469825 0.000000
1.000000 0.461799 0.000000
1.000000 0.454871 0.000000
1.000000 0.449165 0.000000
1.000000 0.444648 0.000000
1.000000 0.440864 0.000000
1.000000 0.437873 0.000000
1.000000 0.435187 0.000000
1.000000 0.432898 0.000000
1.000000 0.431067 0.000000
1.000000 0.430121 0.000000
1.000000 0.429603 0.038422
1.000000 0.429938 0.111025
1.000000 0.430854 0.142550
0.000000 0.581201 0.158297
0.000000 0.580774 0.159640
0.000000 0.579828 0.166140
0.000000 0.578454 0.179721
0.000000 0.575921 0.198642
0.000000 0.572412 0.223697
0.202792 0.568322 0.239841
0.269627 0.565179 0.183108
0.347265 0.558984 0.083497
0.428656 0.549737 0.000000
0.508629 0.535180 0.000000
0.587457 0.523857 0.000000
0.678614 0.539391 0.000000
0.761044 0.554162 0.000000
0.828183 0.559625 0.000000
0.882689 0.558221 0.000000
0.927611 0.552148 0.000000
0.960113 0.541680 0.000000
0.986481 0.530541 0.000000
1.000000 0.520165 0.000000
1.000000 0.510399 0.000000
1.000000 0.501640 0.000000
1.000000 0.493965 0.000000
1.000000 0.487190 0.000000
1.000000 0.481025 0.000000
1.000000 0.475685 0.000000
1.000000 0.471107 0.000000
1.000000 0.467140 0.000000
1.000000 0.464179 0.000000
1.000000 0.461952 0.001068
1.000000 0.460517 0.100954
1.000000 0.459785 0.137331
0.000000 0.643488 0.218906
0.000000 0.643366 0.219883
0.000000 0.642969 0.225345
0.000000 0.641840 0.235477
0.000000 0.640131 0.250797
0.000000 0.637690 0.271733
0.228916 0.634607 0.298375
0.307347 0.631434 0.286961
0.362585 0.626703 0.229435
0.428626 0.619409 0.146090
0.501610 0.611078 0.000000
0.572595 0.598901 0.000000
0.643641 0.588281 0.000000
0.717983 0.593042 0.000000
0.789090 0.602502 0.000000
0.847868 0.604883 0.000000
0.896330 0.601343 0.000000
0.937621 0.594293 0.000000
0.973022 0.585046 0.000000
0.997436 0.572839 0.000000
1.000000 0.561181 0.000000
1.000000 0.550378 0.000000
1.000000 0.540917 0.000000
1.000000 0.532006 0.000000
1.000000 0.523980 0.000000
1.000000 0.516930 0.000000
1.000000 0.510430 0.000000
1.000000 0.504875 0.000000
1.000000 0.499947 0.000000
1.000000 0.495979 0.000000
1.000000 0.492897 0.096590
1.000000 0.490517 0.136324
0.000000 0.696681 0.283940
0.000000 0.696468 0.284703
0.000000 0.696101 0.288518
0.000000 0.695308 0.296941
0.000000 0.693996 0.309636
0.030121 0.692561 0.328191
0.261814 0.691218 0.351476
0.361242 0.689174 0.380316
0.400366 0.687037 0.343114
0.447761 0.683101 0.287602
0.504906 0.676478 0.213352
0.566400 0.667109 0.054719
0.654597 0.677913 0.000000
0.712001 0.661433 0.000000
0.773373 0.657954 0.000000
0.833555 0.661799 0.000000
0.882902 0.659113 0.000000
0.924743 0.652399 0.000000
0.960601 0.643122 0.000000
0.991943 0.632288 0.000000
1.000000 0.620264 0.000000
1.000000 0.607446 0.000000
1.000000 0.595453 0.000000
1.000000 0.584710 0.000000
1.000000 0.574823 0.000000
1.000000 0.565545 0.000000
1.000000 0.556878 0.000000
1.000000 0.549157 0.000000
1.000000 0.542443 0.000000
1.000000 0.536461 0.100252
1.000000 0.531395 0.136690
1.000000 0.527214 0.165194
0.000000 0.753445 0.374609
0.000000 0.753262 0.374975
0.000000 0.752438 0.377905
0.000000 0.751400 0.384009
0.101015 0.749660 0.393439
0.242374 0.747402 0.407141
0.331914 0.745052 0.425483
0.406622 0.742428 0.448127
0.460487 0.740230 0.458320
0.485298 0.737881 0.414405
0.524437 0.734463 0.361059
0.573632 0.729305 0.294713
0.628687 0.721675 0.202945
0.684901 0.710964 0.000000
0.736080 0.694392 0.000000
0.791043 0.686793 0.000000
0.845151 0.688655 0.000000
0.890227 0.684871 0.000000
0.928923 0.677790 0.000000
0.962463 0.668605 0.000000
0.992065 0.658045 0.000000
1.000000 0.646815 0.000000
1.000000 0.634882 0.000000
1.000000 0.622858 0.000000
1.000000 0.611688 0.000000
1.000000 0.601495 0.000000
1.000000 0.591943 0.000000
1.000000 0.583246 0.000000
1.000000 0.575280 0.000000
1.000000 0.568322 0.092866
1.000000 0.562127 0.135134
1.000000 0.556909 0.165988
0.000000 0.784146 0.436988
0.000000 0.783902 0.437049
0.117037 0.783078 0.438972
0.184390 0.781796 0.443030
0.250217 0.779934 0.449897
0.312322 0.777737 0.459907
0.374609 0.775265 0.474250
0.433356 0.772732 0.491646
0.489937 0.770230 0.513420
0.516991 0.768582 0.501366
0.537499 0.766537 0.460273
0.570123 0.763302 0.410468
0.612696 0.758206 0.347265
0.661036 0.750820 0.265995
0.711604 0.740505 0.133516
0.759396 0.725399 0.000000
0.807431 0.713161 0.000000
0.854795 0.711543 0.000000
0.896422 0.707271 0.000000
0.932494 0.700099 0.000000
0.964385 0.691157 0.000000
0.992889 0.681239 0.000000
1.000000 0.670649 0.000000
1.000000 0.659571 0.000000
1.000000 0.648035 0.000000
1.000000 0.636957 0.000000
1.000000 0.626459 0.000000
1.000000 0.616815 0.000000
1.000000 0.607904 0.000000
1.000000 0.600031 0.095735
1.000000 0.592950 0.138399
1.000000 0.586755 0.169894
0.264164 0.807614 0.490150
0.268101 0.807431 0.490578
0.278996 0.806790 0.491676
0.302220 0.805539 0.494514
0.335149 0.803830 0.499580
0.375067 0.801694 0.507439
0.418616 0.799435 0.518151
0.465492 0.797055 0.532708
0.512383 0.794797 0.550408
0.558221 0.792721 0.570977
0.565515 0.791806 0.541314
0.581415 0.790005 0.502220
0.608026 0.786893 0.454963
0.644190 0.781765 0.395300
0.686763 0.774350 0.319188
0.732448 0.764218 0.215061
0.777432 0.750454 0.000000
0.824765 0.740291 0.000000
0.863645 0.731777 0.000000
0.902281 0.727108 0.000000
0.936400 0.720150 0.000000
0.966949 0.711788 0.000000
0.994415 0.702388 0.000000
1.000000 0.692317 0.000000
1.000000 0.681788 0.000000
1.000000 0.670893 0.000000
1.000000 0.659846 0.000000
1.000000 0.649592 0.000000
1.000000 0.640101 0.000000
1.000000 0.631647 0.110842
1.000000 0.624109 0.152682
1.000000 0.617426 0.185000
0.356481 0.825589 0.534325
0.358953 0.825559 0.534813
0.366705 0.825162 0.536309
0.381384 0.824369 0.539086
0.403601 0.823270 0.543908
0.432319 0.821775 0.550896
0.465553 0.820188 0.560357
0.502129 0.818509 0.572534
0.539910 0.816739 0.586572
0.577478 0.814969 0.602441
0.602747 0.813382 0.606256
0.607355 0.811948 0.577325
0.618830 0.809537 0.540215
0.639338 0.805692 0.493324
0.669032 0.800046 0.435798
0.706203 0.792447 0.364569
0.748013 0.782773 0.271672
0.790372 0.770504 0.117861
0.837888 0.762661 0.000000
0.870848 0.749294 0.000000
0.907500 0.744839 0.000000
0.940429 0.738460 0.000000
0.969940 0.730709 0.000000
0.996643 0.721950 0.000000
1.000000 0.712428 0.000000
1.000000 0.702480 0.000000
1.000000 0.692317 0.000000
1.000000 0.681819 0.000000
1.000000 0.671717 0.049409
1.000000 0.662470 0.129000
1.000000 0.654017 0.165438
1.000000 0.646509 0.195956
0.421698 0.840330 0.571252
0.423102 0.840238 0.571557
0.428077 0.839933 0.572625
0.438514 0.839384 0.575006
0.454444 0.838529 0.578912
0.475288 0.837461 0.584375
0.500725 0.836149 0.591974
0.529412 0.834653 0.601282
0.559655 0.833127 0.612238
0.590997 0.831479 0.624781
0.622309 0.829770 0.638605
0.632959 0.828519 0.628717
0.637263 0.826871 0.602197
0.647272 0.824308 0.568597
0.664424 0.820493 0.525292
0.689845 0.815122 0.471199
0.722957 0.808103 0.405463
0.761410 0.799313 0.323064
0.801724 0.788418 0.209720
0.845060 0.778958 0.000000
0.878447 0.766110 0.000000
0.913573 0.761837 0.000000
0.945037 0.755795 0.000000
0.973571 0.748470 0.000000
0.999390 0.740169 0.000000
1.000000 0.731258 0.000000
1.000000 0.721859 0.000000
1.000000 0.712184 0.087709
1.000000 0.702327 0.122957
1.000000 0.692622 0.151003
1.000000 0.683650 0.184634
1.000000 0.675502 0.213718
0.473671 0.853880 0.603571
0.474891 0.853910 0.604028
0.503746 0.860380 0.621302
0.510704 0.859922 0.623102
0.521355 0.859251 0.625879
0.535698 0.858274 0.629969
0.553399 0.857115 0.635248
0.574182 0.855802 0.641993
0.597284 0.854368 0.650141
0.622065 0.852842 0.659724
0.647333 0.851225 0.670314
0.671778 0.849546 0.680995
0.671290 0.848142 0.661402
0.674067 0.846067 0.636988
0.681727 0.843076 0.606836
0.695186 0.839017 0.568750
0.715480 0.833707 0.519463
0.743404 0.826963 0.458595
0.777737 0.818662 0.384436
0.815549 0.808682 0.290288
0.855406 0.798062 0.143679
0.889860 0.785519 0.000000
0.922789 0.780850 0.000000
0.952361 0.774655 0.000000
0.979248 0.767147 0.000000
1.000000 0.758785 0.083467
1.000000 0.749874 0.126101
1.000000 0.740627 0.153384
1.000000 0.731167 0.174075
1.000000 0.721828 0.193423
1.000000 0.712520 0.210025
1.000000 0.703700 0.232425
0.520928 0.867460 0.634821
0.523705 0.867948 0.636225
0.528557 0.868376 0.638514
0.536065 0.868498 0.641199
0.546014 0.868315 0.644495
0.558190 0.867674 0.648280
0.573022 0.866728 0.652796
0.590143 0.865537 0.658259
0.609461 0.864256 0.665034
0.630488 0.862882 0.672786
0.652308 0.861418 0.681514
0.674525 0.859892 0.691066
0.687678 0.858396 0.691005
0.688014 0.856901 0.672602
0.691005 0.854826 0.649744
0.698390 0.851987 0.621820
0.710994 0.848264 0.587152
0.729732 0.843534 0.543481
0.755245 0.837675 0.487922
0.787076 0.830533 0.421424
0.823148 0.821958 0.338994
0.860960 0.811948 0.227390
0.898619 0.803159 0.000000
0.928161 0.795346 0.000000
0.956664 0.789303 0.067872
0.982605 0.782132 0.130861
1.000000 0.774197 0.161532
1.000000 0.765774 0.185824
1.000000 0.757137 0.206058
1.000000 0.748348 0.224002
1.000000 0.739620 0.241489
1.000000 0.730953 0.258457
0.549737 0.876677 0.654597
0.552148 0.877104 0.655970
0.556359 0.877531 0.657954
0.562554 0.877714 0.660365
0.570825 0.877623 0.663203
0.581048 0.877104 0.666499
0.592889 0.876341 0.670161
0.607172 0.875334 0.674769
0.623438 0.874144 0.680201
0.641077 0.872953 0.686580
0.659876 0.871611 0.693782
0.679377 0.870237 0.701778
0.698909 0.868711 0.710170
0.703700 0.867430 0.701778
0.704555 0.865934 0.684413
0.708034 0.863920 0.663355
0.714992 0.861234 0.637232
0.726772 0.857847 0.605768
0.744137 0.853605 0.566949
0.767361 0.848478 0.517784
0.796628 0.842191 0.457160
0.830655 0.834775 0.384283
0.867491 0.826169 0.289799
0.907256 0.820218 0.165499
0.933928 0.809323 0.117586
0.961303 0.803525 0.158999
0.986358 0.796658 0.188205
1.000000 0.789181 0.211521
1.000000 0.781308 0.232547
1.000000 0.773251 0.252201
1.000000 0.765133 0.269749
1.000000 0.756954 0.287236
0.575708 0.885588 0.672999
0.577661 0.885985 0.674159
0.580926 0.886320 0.675654
0.585901 0.886503 0.677699
0.592645 0.886381 0.680049
0.600916 0.885954 0.682643
0.610895 0.885283 0.685756
0.622797 0.884428 0.689570
0.636347 0.883452 0.694087
0.651667 0.882383 0.699489
0.668116 0.881163 0.705653
0.685267 0.879911 0.712428
0.702785 0.878538 0.719631
0.718959 0.877104 0.725795
0.718593 0.876036 0.712062
0.720119 0.874632 0.695766
0.724239 0.872892 0.676631
0.731533 0.870665 0.653346
0.743069 0.867948 0.625696
0.759579 0.864591 0.592340
0.781308 0.860502 0.551110
0.808347 0.855528 0.499153
0.840299 0.849454 0.435523
0.876188 0.842496 0.356237
0.918273 0.839506 0.260349
0.942992 0.826413 0.208316
0.969177 0.820890 0.236667
0.993225 0.814542 0.260899
1.000000 0.807706 0.282628
1.000000 0.800504 0.303014
1.000000 0.793088 0.322362
1.000000 0.785672 0.341680
0.606683 0.896635 0.695308
0.607568 0.896788 0.695827
0.609339 0.896788 0.696529
0.612451 0.896666 0.697566
0.617273 0.896361 0.698970
0.623499 0.895842 0.700771
0.631556 0.895140 0.703182
0.641352 0.894377 0.706294
0.652827 0.893492 0.710048
0.665827 0.892576 0.714626
0.679927 0.891569 0.719814
0.695003 0.890440 0.725612
0.710597 0.889220 0.731899
0.726467 0.887877 0.738613
0.735134 0.886717 0.737606
0.735256 0.885710 0.724636
0.737179 0.884398 0.709377
0.741421 0.882719 0.691707
0.748684 0.880644 0.670832
0.759335 0.878141 0.645655
0.774289 0.875059 0.615595
0.793973 0.871305 0.579217
0.818540 0.866728 0.533318
0.848020 0.861173 0.475380
0.882170 0.855131 0.404547
0.922789 0.852262 0.320378
0.949248 0.839872 0.254154
0.974487 0.834775 0.280247
0.997711 0.828946 0.303838
1.000000 0.822599 0.326207
1.000000 0.815946 0.346990
1.000000 0.809110 0.367651
0.625971 0.904509 0.709865
0.626673 0.904601 0.710231
0.628290 0.904631 0.710872
0.630915 0.904509 0.711727
0.634913 0.904265 0.713008
0.640253 0.903838 0.714565
0.647089 0.903258 0.716670
0.655512 0.902586 0.719265
0.665339 0.901823 0.722530
0.676753 0.900999 0.726497
0.689174 0.900084 0.731014
0.702541 0.899107 0.736110
0.716457 0.898009 0.741604
0.730953 0.896818 0.747616
0.745602 0.895567 0.754025
0.748470 0.894804 0.747097
0.749233 0.893950 0.734829
0.751736 0.892851 0.720790
0.756435 0.891447 0.704677
0.763729 0.889738 0.685756
0.774258 0.887602 0.663539
0.788296 0.885008 0.636866
0.806638 0.881804 0.604974
0.829343 0.877897 0.565698
0.855009 0.871489 0.508843
0.887510 0.866423 0.445228
0.926116 0.863371 0.370306
0.955322 0.853269 0.297002
0.979736 0.848051 0.318334
1.000000 0.842679 0.343023
1.000000 0.836912 0.366155
1.000000 0.830625 0.387060
0.647852 0.913268 0.726436
0.648829 0.913451 0.727016
0.650111 0.913451 0.727535
0.652094 0.913268 0.728084
0.654932 0.912902 0.728756
0.658900 0.912383 0.729732
0.664118 0.911711 0.731075
0.670680 0.910887 0.732876
0.678706 0.910033 0.735317
0.688014 0.909117 0.738277
0.698360 0.908080 0.741726
0.709865 0.907042 0.745846
0.722133 0.905913 0.750454
0.734829 0.904692 0.755459
0.748013 0.903349 0.760861
0.759457 0.902068 0.764584
0.759030 0.901396 0.753994
0.760098 0.900603 0.742153
0.762997 0.899657 0.728847
0.768154 0.898497 0.713863
0.775784 0.897124 0.696712
0.786221 0.895354 0.676692
0.799649 0.893065 0.652491
0.816739 0.890227 0.623255
0.837766 0.886656 0.587823
0.863096 0.882353 0.543206
0.893706 0.878111 0.486763
0.930083 0.874968 0.419684
0.962554 0.868620 0.354833
0.985595 0.861631 0.358587
1.000000 0.856443 0.381598
1.000000 0.850950 0.404028
0.661616 0.919646 0.737331
0.662440 0.919799 0.737850
0.663691 0.919860 0.738399
0.665583 0.919768 0.739040
0.668391 0.919493 0.739834
0.672145 0.919127 0.740932
0.677119 0.918700 0.742458
0.683314 0.918151 0.744381
0.690761 0.917540 0.746853
0.699336 0.916838 0.749752
0.708827 0.916075 0.753109
0.719295 0.915190 0.756924
0.730373 0.914214 0.761074
0.741970 0.913146 0.765591
0.753841 0.911955 0.770382
0.765988 0.910674 0.775540
0.772122 0.909789 0.774014
0.772305 0.909300 0.764034
0.773892 0.908721 0.752987
0.777218 0.908019 0.740658
0.782650 0.907134 0.726986
0.790280 0.906004 0.711421
0.800412 0.904540 0.693446
0.813382 0.902708 0.672328
0.829465 0.900389 0.646906
0.849149 0.897551 0.616388
0.872770 0.894133 0.579156
0.901488 0.890990 0.533776
0.935790 0.888304 0.475410
0.970489 0.885527 0.420203
0.992523 0.877134 0.410376
1.000000 0.872404 0.433631
0.678126 0.926818 0.750301
0.678614 0.926879 0.750637
0.679530 0.926879 0.750973
0.681117 0.926726 0.751431
0.683467 0.926513 0.752132
0.686641 0.926146 0.753017
0.690913 0.925719 0.754299
0.696223 0.925231 0.755947
0.702632 0.924651 0.758053
0.710170 0.924010 0.760586
0.718654 0.923308 0.763546
0.727962 0.922515 0.766934
0.737911 0.921660 0.770687
0.748409 0.920684 0.774716
0.759365 0.919615 0.779110
0.770443 0.918456 0.783688
0.781888 0.917266 0.788724
0.783658 0.916869 0.782498
0.784451 0.916564 0.773190
0.786618 0.916228 0.763027
0.790433 0.915770 0.751736
0.796048 0.915160 0.739132
0.803616 0.914305 0.724880
0.813504 0.913146 0.708522
0.825895 0.911620 0.689601
0.841062 0.909667 0.667140
0.859556 0.907256 0.639887
0.881682 0.904387 0.607202
0.908659 0.901884 0.568261
0.941100 0.900206 0.520714
0.977111 0.900359 0.472694
0.998474 0.891386 0.453040
0.692439 0.933227 0.761837
0.692866 0.933288 0.762020
0.693660 0.933288 0.762387
0.695216 0.933227 0.762905
0.697505 0.933043 0.763699
0.700771 0.932891 0.764858
0.705287 0.932738 0.766537
0.710964 0.932525 0.768734
0.717586 0.932311 0.771420
0.725277 0.932036 0.774502
0.733761 0.931762 0.777981
0.742947 0.931365 0.781827
0.752621 0.930877 0.785885
0.762570 0.930266 0.790097
0.772793 0.929503 0.794430
0.782986 0.928618 0.798825
0.793393 0.927642 0.803433
0.802090 0.926818 0.806302
0.802426 0.926879 0.798764
0.803830 0.926879 0.790524
0.806424 0.926848 0.781491
0.810361 0.926635 0.771389
0.815793 0.926238 0.760006
0.823056 0.925658 0.747280
0.832303 0.924804 0.732876
0.843900 0.923644 0.716365
0.858122 0.922210 0.697383
0.875334 0.920470 0.675196
0.895720 0.918425 0.648920
0.920439 0.916808 0.618402
0.950530 0.916564 0.584344
0.985534 0.919158 0.550347
0.715328 0.941497 0.779599
0.715419 0.941497 0.779629
0.715938 0.941436 0.779751
0.717006 0.941314 0.780056
0.718715 0.941131 0.780606
0.721248 0.940887 0.781338
0.724575 0.940612 0.782467
0.728786 0.940276 0.783902
0.733944 0.939879 0.785763
0.740047 0.939483 0.788022
0.746883 0.938994 0.790616
0.754482 0.938445 0.793576
0.762661 0.937865 0.796811
0.771206 0.937163 0.800259
