20 Preset/Japan Style/【3】LUT video cho PR-AE-FCPX/LUT VIDEO (2)/Japan Style LUT (36).cube
# Created by Adobe Lightroom plugin Export LUT (1.24.0)
# www.johnrellis.com/lightroom/exportlut.htm
# Preset: 36日系胶片（素材江湖）
# Color profile: C:\Program Files (x86)\Common Files\Adobe\Color\Profiles\Recommended\VideoHD.icc
LUT_3D_SIZE 5
DOMAIN_MIN 0.000000 0.000000 0.000000
DOMAIN_MAX 0.903226 0.903226 0.903226
0.000000 0.000000 0.000000
0.524743 0.159915 0.000000
1.000000 0.291051 0.000000
1.000000 0.388556 0.000000
1.000000 0.433478 0.000000
0.000000 0.507774 0.138125
0.455909 0.531273 0.202121
1.000000 0.509483 0.000000
1.000000 0.495277 0.000000
1.000000 0.494820 0.000000
0.000000 0.881285 0.488441
0.380713 0.878233 0.506645
0.828916 0.863340 0.614954
1.000000 0.778988 0.308293
1.000000 0.661921 0.197604
0.611048 0.932189 0.715999
0.645045 0.931090 0.720058
0.756710 0.926696 0.740749
0.896941 0.917266 0.786069
1.000000 0.897337 0.705013
0.807614 0.950591 0.846616
0.813321 0.950774 0.847349
0.840116 0.950347 0.853513
0.891020 0.950195 0.872068
0.943114 0.950713 0.897520
0.000000 0.023865 0.413947
0.494881 0.000000 0.409613
1.000000 0.331304 0.350713
1.000000 0.451972 0.303410
1.000000 0.488746 0.275242
0.000000 0.482948 0.437140
0.479347 0.506493 0.448859
0.987549 0.518395 0.346349
1.000000 0.534539 0.315862
1.000000 0.538994 0.299260
0.397040 0.859892 0.626246
0.505608 0.862425 0.615961
0.831388 0.855680 0.688899
1.000000 0.777829 0.459571
1.000000 0.685542 0.380804
0.673182 0.924834 0.758877
0.686336 0.925383 0.754513
0.778073 0.922911 0.771786
0.899779 0.916320 0.809018
1.000000 0.899351 0.741299
0.822202 0.949126 0.858457
0.825467 0.949523 0.857847
0.852018 0.949889 0.865385
0.897185 0.950378 0.881651
0.945159 0.951537 0.905119
0.000000 0.111025 0.839384
0.445624 0.102968 0.831937
0.969085 0.195102 0.791714
1.000000 0.563043 0.678157
1.000000 0.719142 0.715389
0.000000 0.470802 0.826810
0.468788 0.475471 0.819944
0.925994 0.516686 0.780056
1.000000 0.676143 0.715938
1.000000 0.731533 0.713954
0.328649 0.832425 0.783993
0.545708 0.825681 0.779232
0.827451 0.828153 0.797299
0.970153 0.797818 0.737545
1.000000 0.786099 0.721431
0.708797 0.911498 0.812345
0.746059 0.909422 0.819730
0.819913 0.910063 0.832700
0.905821 0.912932 0.858579
0.983307 0.900420 0.818967
0.834775 0.946532 0.877134
0.851011 0.946075 0.883818
0.873320 0.947814 0.889433
0.909514 0.950317 0.902861
0.949615 0.953063 0.922118
0.177554 0.258946 0.948699
0.424262 0.278599 0.945129
0.791409 0.357458 0.929839
1.000000 0.522240 0.887449
1.000000 0.717922 0.820951
0.382391 0.481605 0.934813
0.512078 0.493019 0.931273
0.795285 0.540887 0.917052
1.000000 0.635767 0.879789
1.000000 0.755825 0.829435
0.557519 0.764034 0.899351
0.636194 0.772549 0.895201
0.802304 0.794400 0.883665
0.928405 0.801175 0.864225
0.973816 0.838865 0.854948
0.684413 0.901274 0.875883
0.718837 0.899138 0.874846
0.812955 0.894133 0.873594
0.903471 0.901610 0.888731
0.964996 0.897063 0.877714
0.813596 0.946654 0.892393
0.828305 0.946319 0.895689
0.876005 0.946227 0.908629
0.924132 0.950317 0.926299
0.955627 0.955932 0.941558
0.382940 0.367834 0.981964
0.471077 0.381903 0.979736
0.699306 0.447883 0.970642
0.911040 0.562097 0.953735
1.000000 0.695369 0.923919
0.476020 0.495979 0.972442
0.539391 0.506920 0.970367
0.721096 0.553277 0.961822
0.903838 0.632837 0.946685
1.000000 0.728603 0.921263
0.638483 0.732082 0.946990
0.687739 0.748348 0.943420
0.776516 0.761624 0.937926
0.887083 0.778531 0.930297
0.979858 0.820676 0.918730
0.681666 0.853056 0.930999
0.707546 0.854917 0.929992
0.794003 0.864958 0.927428
0.890257 0.885100 0.926513
0.955657 0.906279 0.930205
0.800656 0.947021 0.935363
0.814359 0.946929 0.935760
0.864805 0.947906 0.938811
0.920195 0.949004 0.942809
0.957488 0.955535 0.952697
