20 Preset/Japan Style/【3】LUT video cho PR-AE-FCPX/LUT VIDEO (2)/Japan Style LUT (39).cube
# Created by Adobe Lightroom plugin Export LUT (1.24.0)
# www.johnrellis.com/lightroom/exportlut.htm
# Preset: 39日系清新（素材江湖）
# Color profile: C:\Program Files (x86)\Common Files\Adobe\Color\Profiles\Recommended\VideoHD.icc
LUT_3D_SIZE 5
DOMAIN_MIN 0.000000 0.000000 0.000000
DOMAIN_MAX 0.903226 0.903226 0.903226
0.116060 0.110658 0.106447
0.200168 0.118318 0.108522
0.419165 0.144015 0.098756
0.692012 0.193271 0.022461
0.962646 0.255253 0.000000
0.127749 0.173587 0.136751
0.183505 0.192752 0.126986
0.435584 0.241978 0.094179
0.699611 0.282231 0.000000
0.965087 0.329076 0.000000
0.138888 0.310582 0.208072
0.156405 0.301915 0.201266
0.342290 0.376715 0.175509
0.695918 0.480690 0.014618
0.970642 0.520562 0.000000
0.116976 0.453925 0.284764
0.139376 0.445991 0.278325
0.219242 0.465034 0.260990
0.526024 0.588525 0.236332
0.922179 0.719814 0.148898
0.000000 0.704891 0.421668
0.000000 0.700038 0.415656
0.038056 0.677607 0.390417
0.410864 0.770840 0.396063
0.774807 0.864591 0.432074
0.115023 0.121645 0.173098
0.175845 0.122927 0.190066
0.422339 0.104219 0.202121
0.689693 0.130129 0.183932
0.960388 0.205692 0.159030
0.148196 0.199161 0.192721
0.219211 0.209445 0.201816
0.434913 0.223941 0.199008
0.696529 0.252750 0.183841
0.962646 0.298009 0.157443
0.196262 0.347112 0.257786
0.209201 0.337407 0.248234
0.362768 0.390051 0.227054
0.708339 0.478767 0.189151
0.970092 0.509575 0.165377
0.173434 0.480934 0.318639
0.187625 0.472450 0.311101
0.240665 0.472755 0.288884
0.538872 0.597406 0.275029
0.928222 0.720180 0.228489
0.000000 0.718044 0.444007
0.000000 0.712978 0.437415
0.147280 0.692287 0.411719
0.415778 0.771603 0.414405
0.780148 0.866361 0.455451
0.000000 0.152468 0.372747
0.122408 0.156344 0.389715
0.369604 0.155459 0.435828
0.695705 0.242008 0.466560
0.977966 0.000000 0.432990
0.147524 0.227207 0.381720
0.185885 0.227146 0.396002
0.389227 0.235080 0.440070
0.704219 0.289677 0.461555
0.978454 0.135500 0.409766
0.203922 0.411902 0.401648
0.268711 0.418036 0.407416
0.457130 0.439368 0.425971
0.712825 0.448829 0.417670
0.967590 0.464149 0.402014
0.311192 0.589319 0.461585
0.349401 0.586389 0.463600
0.379522 0.548028 0.425391
0.595148 0.633631 0.417548
0.949096 0.721218 0.433692
0.302678 0.772183 0.545342
0.305486 0.767117 0.537194
0.316960 0.745022 0.503532
0.428016 0.766140 0.476326
0.798001 0.869932 0.536828
0.000000 0.217166 0.643061
0.000000 0.220096 0.653834
0.265537 0.228580 0.695247
0.606226 0.229038 0.736172
0.962829 0.369268 0.753201
0.000000 0.274754 0.643580
0.000000 0.277195 0.653162
0.297734 0.287358 0.693019
0.616815 0.299535 0.735683
0.958404 0.432929 0.749752
0.250980 0.411475 0.613062
0.291752 0.421149 0.622095
0.411017 0.449714 0.667445
0.649958 0.480598 0.717342
0.938262 0.620203 0.746822
0.297032 0.665736 0.656611
0.346014 0.668818 0.659419
0.501671 0.682155 0.671534
0.725612 0.707301 0.693874
0.947997 0.711910 0.683894
0.502586 0.859800 0.723018
0.522362 0.857939 0.723049
0.591638 0.847532 0.720424
0.596155 0.803006 0.655268
0.841062 0.879789 0.693843
0.000000 0.323674 0.878965
0.000000 0.325109 0.881102
0.204227 0.334508 0.893523
0.449897 0.354162 0.914580
0.765652 0.398688 0.926116
0.000000 0.358892 0.873045
0.000000 0.360632 0.875822
0.248325 0.369604 0.888212
0.466651 0.389441 0.909819
0.770748 0.435096 0.922972
0.249760 0.485145 0.860410
0.263981 0.480476 0.862791
0.375067 0.488411 0.875547
0.538476 0.513176 0.898528
0.802304 0.571038 0.918883
0.377874 0.638056 0.844572
0.403723 0.635340 0.843748
0.511223 0.637568 0.848173
0.676387 0.700710 0.884092
0.872313 0.776547 0.920104
0.560754 0.879026 0.877012
0.579370 0.879545 0.877317
0.660243 0.885008 0.882078
0.784512 0.894530 0.890166
0.920226 0.912047 0.906065
