20 Preset/Japan Style/【3】LUT video cho PR-AE-FCPX/LUT VIDEO (2)/Japan Style LUT (37).cube
# Created by Adobe Lightroom plugin Export LUT (1.24.0)
# www.johnrellis.com/lightroom/exportlut.htm
# Preset: 37日系胶片（素材江湖）
# Color profile: C:\Program Files (x86)\Common Files\Adobe\Color\Profiles\Recommended\VideoHD.icc
LUT_3D_SIZE 8
DOMAIN_MIN 0.000000 0.000000 0.000000
DOMAIN_MAX 0.903226 0.903226 0.903226
0.000000 0.072663 0.108888
0.019074 0.077577 0.110750
0.111238 0.085359 0.116640
0.213138 0.079805 0.121370
0.364385 0.000000 0.122927
0.554467 0.000000 0.119173
0.762142 0.000000 0.106600
0.921599 0.000000 0.090852
0.000000 0.098543 0.123293
0.001343 0.100465 0.118715
0.116945 0.100099 0.114229
0.217960 0.099367 0.118746
0.367376 0.040101 0.119783
0.552972 0.000000 0.115145
0.750179 0.000000 0.101930
0.911223 0.000000 0.079927
0.000000 0.171206 0.157961
0.000000 0.173129 0.151583
0.095338 0.182467 0.138338
0.268254 0.179843 0.122194
0.436347 0.160616 0.105196
0.630976 0.113832 0.069978
0.811704 0.000000 0.000000
0.946319 0.000000 0.000000
0.000000 0.328099 0.213840
0.000000 0.328832 0.202335
0.000000 0.333898 0.184024
0.280980 0.370397 0.149874
0.555261 0.375067 0.062043
0.738582 0.330480 0.000000
0.867765 0.321416 0.000000
0.974029 0.325139 0.000000
0.000000 0.550347 0.299382
0.000000 0.550683 0.292607
0.000000 0.550896 0.257847
0.211917 0.555047 0.216159
0.533227 0.581506 0.148409
0.753811 0.575647 0.000000
0.885466 0.526421 0.000000
0.990204 0.502434 0.000000
0.000000 0.721492 0.438819
0.000000 0.726101 0.441169
0.000000 0.725704 0.406439
0.266117 0.720668 0.366064
0.514611 0.720790 0.316411
0.724483 0.736568 0.267826
0.888609 0.736995 0.183108
0.987427 0.697078 0.000000
0.373877 0.835111 0.625849
0.390234 0.835569 0.625940
0.396918 0.835508 0.601495
0.467506 0.832670 0.573419
0.568902 0.826444 0.521996
0.706722 0.830716 0.488106
0.845792 0.840970 0.457710
0.963653 0.845884 0.406928
0.634668 0.915526 0.783780
0.639063 0.915404 0.783413
0.649378 0.915740 0.777554
0.665034 0.916472 0.762203
0.690761 0.910033 0.727871
0.755642 0.908843 0.696651
0.841611 0.915740 0.689723
0.926421 0.921630 0.670771
0.000000 0.080262 0.129427
0.001221 0.081178 0.128206
0.102296 0.090486 0.127840
0.205112 0.093660 0.127810
0.357824 0.039887 0.120394
0.542107 0.000000 0.116213
0.734463 0.000000 0.104799
0.896941 0.000000 0.088350
0.000000 0.098451 0.137331
0.000000 0.100740 0.138918
0.106050 0.104799 0.135805
0.214023 0.106355 0.131167
0.367376 0.082216 0.121675
0.551781 0.000000 0.111849
0.734920 0.000000 0.099092
0.892424 0.000000 0.074891
0.000000 0.167361 0.175235
0.000000 0.171054 0.172488
0.091493 0.180087 0.158541
0.259770 0.175296 0.143618
0.420417 0.159701 0.127596
0.608667 0.118776 0.098878
0.781582 0.000000 0.008881
0.923033 0.000000 0.000000
0.000000 0.315282 0.228580
0.000000 0.317754 0.223911
0.000000 0.324315 0.202090
0.260136 0.348363 0.173953
0.510521 0.345373 0.127779
0.693538 0.304570 0.050843
0.832609 0.295628 0.000000
0.952331 0.308385 0.000000
0.000000 0.540887 0.314458
0.000000 0.540185 0.308141
0.000000 0.539422 0.273869
0.196506 0.537865 0.232883
0.509422 0.560876 0.177615
0.733394 0.556909 0.003632
0.870542 0.511162 0.000000
0.978180 0.489967 0.000000
0.000000 0.711879 0.443183
0.000000 0.712184 0.439765
0.000000 0.713008 0.408026
0.247135 0.709682 0.371618
0.502770 0.710903 0.324468
0.716640 0.729580 0.283146
0.881621 0.729824 0.206973
0.981537 0.689448 0.000000
0.354711 0.828580 0.621118
0.365332 0.827481 0.617914
0.387732 0.826780 0.599390
0.452155 0.825132 0.568322
0.560052 0.820890 0.522026
0.699031 0.824979 0.487709
0.838560 0.834531 0.455512
0.957702 0.839017 0.402991
0.624018 0.911955 0.779232
0.630671 0.912413 0.780209
0.646784 0.912261 0.777310
0.658564 0.913420 0.759731
0.698909 0.912413 0.739559
0.757748 0.909575 0.704860
0.840513 0.914916 0.693202
0.925261 0.920775 0.674556
0.000000 0.091951 0.178347
0.000000 0.093385 0.178042
0.085359 0.096590 0.179599
0.224735 0.083009 0.182650
0.354772 0.037934 0.169467
0.549920 0.000000 0.158206
0.752285 0.000000 0.131777
0.915740 0.000000 0.052796
0.000000 0.109590 0.189944
0.000000 0.109957 0.189822
0.089662 0.114260 0.189883
0.224277 0.105470 0.185946
0.362219 0.089052 0.174411
0.556634 0.000000 0.161013
0.750271 0.000000 0.132021
0.912657 0.000000 0.031006
0.000000 0.170748 0.216159
0.000000 0.173434 0.217166
0.081178 0.183474 0.221164
0.248051 0.181430 0.208621
0.418585 0.167117 0.191806
0.609949 0.122072 0.169314
0.783932 0.000000 0.133272
0.929656 0.043915 0.000000
0.000000 0.320104 0.288701
0.000000 0.324071 0.288548
0.000000 0.336339 0.278752
0.276982 0.355138 0.249729
0.520623 0.340093 0.217533
0.693263 0.309514 0.182040
0.834806 0.299504 0.132082
0.954894 0.308873 0.000000
0.000000 0.539666 0.383886
0.000000 0.540429 0.380346
0.000000 0.544884 0.363653
0.234867 0.545495 0.317632
0.524987 0.567071 0.279545
0.735744 0.554070 0.222019
0.871214 0.506218 0.152834
0.975921 0.490761 0.000000
0.000000 0.709346 0.501030
0.000000 0.710109 0.499306
0.000000 0.710262 0.487190
0.296269 0.708400 0.441810
0.508110 0.706081 0.394415
0.714351 0.725948 0.367468
0.875914 0.725032 0.315740
0.979309 0.687465 0.224460
0.400549 0.829160 0.658869
0.409186 0.828275 0.656306
0.448341 0.826108 0.648249
0.485237 0.824918 0.615961
0.574426 0.820523 0.574304
0.702205 0.824002 0.541222
0.838682 0.836118 0.521111
0.955200 0.841154 0.480476
0.631312 0.911833 0.793179
0.634760 0.911437 0.792203
0.652796 0.911101 0.790646
0.669886 0.913085 0.778531
0.705745 0.912169 0.759854
0.761593 0.910277 0.729885
0.841428 0.915435 0.717983
0.924468 0.921660 0.702510
0.000000 0.104158 0.260685
0.000000 0.106050 0.263157
0.057038 0.115267 0.267491
0.222202 0.109071 0.274418
0.443244 0.000000 0.291081
0.589166 0.000000 0.241032
0.715633 0.000000 0.216220
0.890715 0.000000 0.188144
0.000000 0.123262 0.274571
0.000000 0.125460 0.275914
0.071260 0.135317 0.279637
0.233127 0.131472 0.285039
0.447181 0.011902 0.294743
0.589837 0.000000 0.242313
0.723018 0.000000 0.220035
0.893828 0.000000 0.190158
0.000000 0.186252 0.295415
0.000000 0.188113 0.297551
0.014405 0.199222 0.308049
0.254246 0.209018 0.313268
0.456580 0.181003 0.305730
0.590997 0.141634 0.264378
0.772457 0.048920 0.241367
0.921050 0.000000 0.200778
0.000000 0.321355 0.355444
0.000000 0.323278 0.355840
0.000000 0.333440 0.359686
0.285771 0.353796 0.368688
0.487617 0.335637 0.338170
0.660273 0.315038 0.304479
0.812100 0.299626 0.265476
0.941772 0.299260 0.214054
0.000000 0.545403 0.484474
0.000000 0.545220 0.482948
0.110964 0.548455 0.478370
0.325139 0.557580 0.460365
0.539513 0.570459 0.421485
0.733181 0.544854 0.375708
0.861601 0.507225 0.320531
0.967071 0.491951 0.257267
0.171511 0.713680 0.598383
0.223514 0.717250 0.601709
0.310460 0.716243 0.593805
0.424811 0.716182 0.576318
0.537163 0.710964 0.519799
0.717647 0.727169 0.499947
0.867643 0.720150 0.456458
0.974029 0.682979 0.377050
0.456977 0.828733 0.712856
0.466804 0.828916 0.712673
0.501884 0.828672 0.709468
0.559442 0.827878 0.700710
0.609064 0.825406 0.662654
0.710658 0.824643 0.626307
0.836545 0.837034 0.613947
0.947662 0.840513 0.581415
0.648280 0.913909 0.820493
0.652369 0.913787 0.820218
0.669093 0.913451 0.818936
0.700191 0.913268 0.816403
0.721004 0.913298 0.796201
0.767636 0.911406 0.769711
0.841703 0.915557 0.755215
0.923186 0.923156 0.746395
0.000000 0.125765 0.385351
0.000000 0.128084 0.389136
0.000000 0.136965 0.398322
0.262394 0.154177 0.415351
0.444892 0.092683 0.423713
0.717708 0.000000 0.468696
0.820951 0.000000 0.387274
0.916197 0.000000 0.301946
0.000000 0.145907 0.397498
0.000000 0.148440 0.401251
0.000000 0.157900 0.409766
0.271031 0.176028 0.424109
0.455421 0.131350 0.432776
0.717372 0.000000 0.471015
0.819455 0.000000 0.388556
0.914244 0.000000 0.300969
0.000000 0.216403 0.421118
0.000000 0.216922 0.424903
0.000000 0.222690 0.433295
0.290013 0.249821 0.450416
0.478553 0.236759 0.458167
0.702510 0.203830 0.471962
0.806973 0.000000 0.388342
0.895933 0.000000 0.314305
0.000000 0.326787 0.453803
0.000000 0.327947 0.454475
0.000000 0.333654 0.458534
0.290654 0.366827 0.488594
0.510704 0.392401 0.504997
0.688014 0.365789 0.481697
0.788449 0.291691 0.393072
0.907042 0.282292 0.346258
0.000000 0.513695 0.536248
0.000000 0.515740 0.537316
0.000000 0.522179 0.540551
0.336828 0.534508 0.547021
0.525566 0.551415 0.556756
0.682246 0.522271 0.509850
0.817197 0.493874 0.455512
0.938048 0.471809 0.393805
0.292760 0.695827 0.662348
0.319982 0.696620 0.663661
0.397375 0.697139 0.664820
0.473884 0.697414 0.657893
0.562066 0.699641 0.639246
0.703517 0.714199 0.616236
0.847471 0.699794 0.576989
0.956329 0.665888 0.504204
0.508324 0.824002 0.766354
0.512261 0.823331 0.764828
0.532830 0.822385 0.760464
0.581384 0.823087 0.755825
0.643641 0.822507 0.743038
0.706600 0.817472 0.698817
0.827481 0.831449 0.692073
0.935363 0.829618 0.659632
0.640040 0.910185 0.842069
0.644160 0.910033 0.841733
0.661921 0.909667 0.840787
0.699184 0.911162 0.841947
0.740261 0.911101 0.837308
0.770596 0.910430 0.811948
0.835935 0.911925 0.790707
0.918120 0.920500 0.785183
0.000000 0.160311 0.552331
0.000000 0.162783 0.556023
0.000000 0.170413 0.564721
0.291112 0.184298 0.584192
0.524346 0.207950 0.612940
0.699916 0.100496 0.616876
0.883696 0.150423 0.642908
0.976501 0.072908 0.581262
0.000000 0.177462 0.551354
0.000000 0.179629 0.553429
0.000000 0.187839 0.562921
0.290867 0.203616 0.582940
0.520562 0.232242 0.609522
0.693996 0.154238 0.614008
0.877348 0.193332 0.640528
0.970733 0.133364 0.577325
0.000000 0.242283 0.575738
0.000000 0.244968 0.577630
0.000000 0.256626 0.588037
0.309087 0.278569 0.603265
0.540276 0.328954 0.630732
0.703548 0.291386 0.633814
0.872587 0.334691 0.656031
0.962036 0.272099 0.581750
0.000000 0.350652 0.585351
0.000000 0.353918 0.588678
0.000000 0.372351 0.607294
0.315282 0.399237 0.636072
0.560052 0.461311 0.665461
0.715602 0.461921 0.672450
0.860502 0.489326 0.682216
0.948150 0.402655 0.588342
0.000000 0.506676 0.631922
0.000000 0.507378 0.632074
0.000000 0.510063 0.633387
0.240208 0.514916 0.636835
0.527123 0.558282 0.672419
0.699641 0.594018 0.693111
0.824308 0.572930 0.668513
0.919982 0.472724 0.550713
0.000000 0.672145 0.704738
0.155917 0.674495 0.706783
0.293339 0.676631 0.707759
0.433173 0.681636 0.710323
0.567102 0.689815 0.714931
0.697505 0.707179 0.727565
0.810605 0.679500 0.683436
0.922972 0.649653 0.623102
0.534203 0.818540 0.809720
0.544976 0.819608 0.811093
0.580407 0.821164 0.813504
0.641474 0.824765 0.818814
0.687495 0.826108 0.815152
0.734829 0.823972 0.797147
0.824277 0.830381 0.776303
0.927306 0.819272 0.743587
0.682033 0.908537 0.880705
0.683406 0.908293 0.880034
0.692653 0.908354 0.878599
0.713069 0.909667 0.876768
0.745174 0.910674 0.872557
0.790066 0.910613 0.865110
0.830930 0.908446 0.834775
0.914549 0.919188 0.833646
0.000000 0.208652 0.719600
0.000000 0.211337 0.722866
0.000000 0.218875 0.728969
0.337499 0.235691 0.742214
0.560449 0.277287 0.759274
0.728603 0.322667 0.771450
0.862669 0.274784 0.770626
0.969635 0.364080 0.771328
0.000000 0.222751 0.714961
0.000000 0.225589 0.718502
0.000000 0.233555 0.724880
0.331670 0.250309 0.737026
0.553155 0.290867 0.753689
0.720424 0.335790 0.765530
0.853178 0.287297 0.763424
0.962341 0.366186 0.764370
0.000000 0.284062 0.725795
0.000000 0.286656 0.727352
0.000000 0.296422 0.732387
0.341650 0.319249 0.743832
0.557519 0.365332 0.759152
0.723110 0.423987 0.773434
0.851804 0.392981 0.774319
0.957397 0.459724 0.779263
0.000000 0.396216 0.733150
0.000000 0.398474 0.734585
0.000000 0.392462 0.741390
0.336126 0.422431 0.753780
0.560174 0.473396 0.770016
0.729976 0.551873 0.790066
0.844205 0.529351 0.790890
0.944488 0.572015 0.797757
0.000000 0.492958 0.724300
0.000000 0.490852 0.722591
0.000000 0.491371 0.724117
0.243961 0.518608 0.745327
0.525536 0.561395 0.770108
0.715023 0.632380 0.794430
0.826200 0.635859 0.800778
0.930877 0.667384 0.814878
0.000000 0.656794 0.773373
0.000000 0.657038 0.773465
0.000000 0.656977 0.773159
0.301274 0.656367 0.772396
0.465888 0.653681 0.770260
0.686671 0.700740 0.802121
0.820096 0.739559 0.824582
0.911986 0.721767 0.806729
0.422400 0.791867 0.828275
0.434699 0.792691 0.828977
0.475166 0.793606 0.829404
0.544182 0.796139 0.830838
0.628260 0.799771 0.832547
0.720027 0.806363 0.836301
0.813779 0.819333 0.844968
0.900084 0.790158 0.802945
0.661585 0.900999 0.900267
0.666773 0.901335 0.900694
0.689387 0.903166 0.902831
0.726711 0.905577 0.905730
0.777127 0.909392 0.910307
0.814694 0.912718 0.910155
0.847776 0.912444 0.898711
0.912505 0.918059 0.885191
0.000000 0.295323 0.853605
0.000000 0.298344 0.854795
0.244785 0.306737 0.856107
0.438880 0.330541 0.861479
0.610163 0.378363 0.868376
0.758419 0.458930 0.875853
0.867155 0.490761 0.879698
0.964782 0.460426 0.878386
0.000000 0.306249 0.850645
0.000000 0.309300 0.851957
0.240116 0.318700 0.854154
0.434699 0.341741 0.859190
0.606256 0.388495 0.866178
0.754971 0.467140 0.873930
0.863188 0.498451 0.877501
0.960540 0.466590 0.875700
0.000000 0.356634 0.850462
0.000000 0.359319 0.851255
0.232792 0.369055 0.853147
0.435828 0.397162 0.860014
0.604669 0.441718 0.866239
0.750637 0.512932 0.873381
0.857389 0.550408 0.878111
0.951965 0.520928 0.876768
0.000000 0.432898 0.849760
0.000000 0.434577 0.850889
0.169955 0.446052 0.853208
0.414801 0.472877 0.858976
0.595178 0.517357 0.866392
0.744839 0.582635 0.875120
0.851164 0.629114 0.882506
0.940093 0.603967 0.881804
0.000000 0.523735 0.840330
0.000000 0.525963 0.841825
0.000000 0.532097 0.845487
0.342077 0.551019 0.854582
0.554925 0.584344 0.863615
0.724117 0.641688 0.874571
0.842527 0.703822 0.887358
0.926329 0.684993 0.888029
0.000000 0.644160 0.849851
0.000000 0.642054 0.848844
0.000000 0.634791 0.845762
0.000000 0.621424 0.841398
0.436652 0.641993 0.853269
0.681331 0.696284 0.875364
0.834409 0.767666 0.896452
0.917357 0.772549 0.901976
0.296239 0.789181 0.885679
0.307866 0.788785 0.885374
0.353185 0.786893 0.884245
0.429053 0.784298 0.882811
0.519554 0.779263 0.880278
0.616846 0.769345 0.876036
0.802121 0.809689 0.898955
0.910155 0.846159 0.915862
0.593408 0.887816 0.919615
0.597436 0.887724 0.919493
0.615869 0.887968 0.919585
0.652522 0.889220 0.920317
0.702724 0.890990 0.921172
0.763272 0.893675 0.922271
0.832975 0.898711 0.924437
0.905760 0.909300 0.930144
