20 Preset/Japan Style/【3】LUT video cho PR-AE-FCPX/LUT VIDEO (2)/Japan Style LUT (18).cube
# Created by Adobe Lightroom plugin Export LUT (1.24.0)
# www.johnrellis.com/lightroom/exportlut.htm
# Preset: 18日系森林（素材江湖）
# Color profile: C:\Program Files (x86)\Common Files\Adobe\Color\Profiles\Recommended\VideoHD.icc
LUT_3D_SIZE 8
DOMAIN_MIN 0.000000 0.000000 0.000000
DOMAIN_MAX 0.903226 0.903226 0.903226
0.048096 0.067445 0.089662
0.039918 0.063996 0.088655
0.186893 0.063813 0.080415
0.485725 0.000000 0.027527
0.779019 0.000000 0.000000
0.959258 0.247654 0.000000
1.000000 0.401740 0.000000
1.000000 0.523674 0.198856
0.032532 0.073823 0.087617
0.049317 0.079957 0.085359
0.184726 0.094179 0.079469
0.467720 0.002136 0.026551
0.754788 0.071809 0.000000
0.940703 0.270603 0.000000
1.000000 0.409888 0.000000
1.000000 0.528710 0.203555
0.000000 0.261418 0.111269
0.000000 0.267491 0.101228
0.184543 0.278172 0.026673
0.494331 0.272343 0.000000
0.711147 0.274998 0.000000
0.907561 0.371862 0.000000
1.000000 0.476143 0.131807
1.000000 0.574273 0.260838
0.000000 0.560693 0.267552
0.000000 0.564080 0.263157
0.170809 0.577813 0.290898
0.499519 0.551049 0.159487
0.750362 0.533379 0.000000
0.880308 0.521141 0.122866
0.983581 0.552911 0.229374
1.000000 0.633692 0.332280
0.000000 0.763699 0.474281
0.000000 0.765255 0.474495
0.331029 0.772854 0.484565
0.557427 0.770382 0.495430
0.705562 0.735622 0.358953
0.871275 0.708583 0.150118
0.963745 0.697688 0.277440
1.000000 0.715389 0.402533
0.469978 0.868559 0.658076
0.494789 0.870207 0.662776
0.567590 0.872313 0.674098
0.679011 0.875669 0.708278
0.747127 0.866758 0.678340
0.822965 0.845579 0.566888
0.934783 0.825437 0.396338
1.000000 0.831540 0.479133
0.695460 0.929564 0.804013
0.703517 0.929931 0.805997
0.732082 0.930480 0.812589
0.779171 0.931884 0.826963
0.839750 0.932830 0.854734
0.853910 0.926390 0.815579
0.893584 0.915618 0.748501
0.965850 0.906157 0.643915
0.826871 0.969116 0.895018
0.829831 0.969177 0.895720
0.841855 0.969451 0.898985
0.863127 0.970214 0.905730
0.886870 0.970428 0.913756
0.911711 0.970825 0.921935
0.921050 0.969268 0.905272
0.943267 0.966888 0.878996
0.049897 0.067475 0.086519
0.037110 0.066621 0.087465
0.185031 0.043854 0.085145
0.469734 0.000000 0.061860
0.758145 0.000000 0.000000
0.943053 0.245457 0.000000
1.000000 0.395880 0.042847
1.000000 0.518151 0.216983
0.037171 0.067597 0.089326
0.048798 0.073030 0.088960
0.183444 0.091463 0.089296
0.461097 0.027131 0.067140
0.744472 0.107607 0.000000
0.932097 0.274937 0.000000
1.000000 0.408728 0.085481
1.000000 0.525078 0.223087
0.000000 0.244022 0.134249
0.000000 0.250156 0.126558
0.189792 0.261936 0.095430
0.479896 0.261997 0.026215
0.701534 0.274693 0.078279
0.898589 0.368292 0.082704
1.000000 0.468482 0.159457
1.000000 0.567773 0.270237
0.000000 0.535668 0.275181
0.000000 0.540093 0.271458
0.192813 0.557824 0.299351
0.485573 0.531060 0.182162
0.733150 0.514916 0.000000
0.867033 0.506310 0.151644
0.975708 0.543420 0.237369
1.000000 0.626398 0.334478
0.000000 0.755398 0.478767
0.000000 0.756985 0.478309
0.334112 0.764279 0.486183
0.555505 0.762325 0.498573
0.699580 0.726650 0.363012
0.866789 0.701717 0.171359
0.959716 0.690944 0.286992
1.000000 0.709773 0.405707
0.465797 0.864317 0.656947
0.486793 0.864988 0.659174
0.561181 0.867491 0.670344
0.672755 0.871733 0.703334
0.745480 0.863523 0.678645
0.821378 0.842710 0.569543
0.933440 0.822660 0.400214
1.000000 0.828550 0.482185
0.690730 0.927520 0.801907
0.697688 0.927550 0.802976
0.726711 0.928191 0.809415
0.775296 0.929808 0.824186
0.838987 0.931518 0.854368
0.852934 0.924926 0.815122
0.892271 0.913664 0.746731
0.965026 0.903838 0.640101
0.823941 0.968200 0.893675
0.827359 0.968383 0.894682
0.839567 0.968658 0.897887
0.861265 0.969482 0.904723
0.888029 0.970764 0.914946
0.912535 0.970947 0.923003
0.921172 0.969055 0.905760
0.943206 0.966613 0.879271
0.039582 0.068574 0.100038
0.044770 0.066682 0.101869
0.120668 0.041260 0.113039
0.483650 0.000000 0.118318
0.785794 0.000000 0.147829
0.951751 0.269535 0.176303
1.000000 0.416876 0.228061
1.000000 0.533288 0.310674
0.016724 0.066438 0.112764
0.035828 0.059358 0.116579
0.152193 0.054261 0.125154
0.500175 0.000000 0.145357
0.767178 0.115633 0.158602
0.939422 0.298497 0.184726
1.000000 0.428473 0.232547
1.000000 0.540215 0.314580
0.000000 0.196170 0.176547
0.000000 0.210178 0.179080
0.213870 0.229221 0.175418
0.466651 0.238499 0.179812
0.724697 0.294865 0.193454
0.908659 0.387121 0.215702
1.000000 0.483253 0.263645
1.000000 0.578027 0.344579
0.000000 0.502831 0.323247
0.000000 0.506249 0.332525
0.235782 0.527306 0.331365
0.499367 0.512444 0.268833
0.733089 0.500008 0.190341
0.864927 0.500053 0.256535
0.979889 0.556268 0.312200
1.000000 0.635737 0.394415
0.000000 0.734035 0.509453
0.153872 0.736416 0.508873
0.375036 0.746304 0.514397
0.582177 0.753628 0.545800
0.706172 0.719387 0.417670
0.867948 0.696345 0.270420
0.957397 0.686061 0.352514
1.000000 0.707027 0.450782
0.479469 0.855161 0.670405
0.499519 0.856107 0.672480
0.570489 0.859220 0.681971
0.673671 0.864927 0.708400
0.753231 0.859159 0.699977
0.822721 0.838163 0.595514
0.934051 0.819547 0.431861
1.000000 0.825498 0.517967
0.692409 0.924681 0.807645
0.699428 0.924773 0.808713
0.728450 0.925505 0.814420
0.776761 0.927367 0.827970
0.838865 0.929870 0.856046
0.856687 0.924041 0.825101
0.893950 0.912932 0.759792
0.966400 0.904051 0.656184
0.822049 0.967346 0.895079
0.824979 0.967376 0.895659
0.837552 0.967712 0.898741
0.860441 0.968780 0.905760
0.887877 0.970245 0.915862
0.915160 0.971008 0.926543
0.922972 0.969116 0.909636
0.944274 0.966552 0.883360
0.000000 0.073762 0.169741
0.000000 0.067689 0.173526
0.124086 0.029023 0.200412
0.324224 0.000000 0.213687
0.727779 0.000000 0.246250
0.981689 0.229984 0.321080
1.000000 0.416968 0.357580
1.000000 0.541741 0.421637
0.000000 0.061616 0.192172
0.000000 0.055512 0.198459
0.133272 0.011994 0.224949
0.358038 0.000000 0.228580
0.753384 0.000000 0.257420
0.971008 0.279942 0.328008
1.000000 0.435645 0.364202
1.000000 0.552056 0.427344
0.000000 0.138827 0.251621
0.000000 0.142824 0.257542
0.160006 0.156161 0.282200
0.471870 0.189151 0.290288
0.778012 0.297459 0.332830
0.933104 0.401801 0.354559
1.000000 0.503746 0.395727
1.000000 0.594141 0.454444
0.000000 0.417395 0.358679
0.000000 0.427588 0.362829
0.137881 0.463294 0.385260
0.514946 0.471199 0.376928
0.720394 0.464118 0.351324
0.869047 0.501946 0.379675
0.985351 0.572747 0.421271
1.000000 0.647486 0.484413
0.000000 0.702602 0.529534
0.000000 0.703456 0.533837
0.404791 0.708064 0.557733
0.600122 0.730678 0.589471
0.715816 0.702846 0.498817
0.865934 0.680293 0.394110
0.953216 0.675196 0.452003
1.000000 0.707637 0.525109
0.461738 0.839872 0.689387
0.505241 0.840635 0.696956
0.580926 0.844388 0.704829
0.682460 0.852842 0.725734
0.771725 0.854337 0.741604
0.827604 0.831815 0.643153
0.937621 0.817868 0.506065
1.000000 0.818967 0.579126
0.684871 0.918120 0.815640
0.693385 0.918578 0.817014
0.725582 0.920195 0.822660
0.777127 0.923125 0.835142
0.835843 0.927398 0.857542
0.864439 0.923125 0.843931
0.896513 0.911040 0.781186
0.969299 0.902983 0.678004
0.816159 0.966064 0.898222
0.819547 0.966155 0.898833
0.833341 0.966583 0.901701
0.857420 0.967620 0.907836
0.886748 0.969329 0.917571
0.919921 0.971252 0.933074
0.925963 0.969177 0.916411
0.946136 0.966491 0.890623
0.000000 0.080293 0.292912
0.000000 0.080232 0.295445
0.000000 0.028748 0.323247
0.313268 0.000000 0.358312
0.571832 0.000000 0.354772
0.884276 0.000000 0.403662
1.000000 0.196628 0.435279
1.000000 0.564813 0.568811
0.000000 0.062165 0.311284
0.000000 0.055879 0.317754
0.000000 0.003388 0.342596
0.329900 0.000000 0.376989
0.591241 0.000000 0.366278
0.896208 0.000000 0.413519
1.000000 0.309056 0.462287
1.000000 0.575311 0.572198
0.000000 0.101381 0.366735
0.000000 0.095888 0.374640
0.000000 0.078462 0.396979
0.405493 0.000000 0.433692
0.643275 0.000000 0.408759
0.928649 0.214664 0.448219
1.000000 0.515496 0.544488
1.000000 0.610651 0.582300
0.000000 0.304814 0.432746
0.000000 0.311681 0.436744
0.000000 0.341711 0.453834
0.481819 0.386023 0.487709
0.757107 0.462226 0.514336
0.901457 0.531029 0.532952
0.995666 0.596826 0.558648
1.000000 0.664485 0.599817
0.000000 0.607477 0.539025
0.000000 0.614282 0.543328
0.000000 0.638636 0.561395
0.556268 0.665583 0.603143
0.721767 0.668208 0.585290
0.854795 0.645808 0.530175
0.947478 0.658381 0.561608
1.000000 0.719570 0.616358
0.000000 0.816068 0.677028
0.000000 0.816281 0.680018
0.411383 0.816068 0.694514
0.655726 0.819425 0.728969
0.779934 0.839170 0.772915
0.830014 0.817685 0.692317
0.937133 0.804471 0.592035
0.998352 0.803281 0.647944
0.543847 0.912261 0.800778
0.567834 0.911772 0.803403
0.651942 0.910613 0.815732
0.754788 0.912169 0.836820
0.825437 0.919158 0.856870
0.872648 0.920500 0.865629
0.898589 0.906310 0.804013
0.974578 0.899107 0.702785
0.744991 0.965789 0.886198
0.755734 0.965332 0.888212
0.796017 0.963928 0.896727
0.842344 0.964355 0.907774
0.878813 0.966766 0.917449
0.914427 0.970001 0.931640
0.929259 0.968688 0.924956
0.947631 0.964996 0.897795
0.000000 0.085969 0.435126
0.000000 0.085908 0.436591
0.000000 0.034730 0.458442
0.215427 0.000000 0.503960
0.553216 0.000000 0.520104
0.780911 0.000000 0.508690
0.986694 0.000000 0.547997
1.000000 0.311070 0.588800
0.000000 0.084932 0.442054
0.000000 0.058473 0.447730
0.000000 0.017426 0.470100
0.257633 0.000000 0.512993
0.564904 0.000000 0.529229
0.786679 0.000000 0.513573
0.989654 0.000000 0.552483
1.000000 0.350317 0.594110
0.000000 0.041871 0.491859
0.000000 0.036652 0.496345
0.000000 0.000000 0.514824
0.245090 0.000000 0.551354
0.624323 0.000000 0.569421
0.814908 0.000000 0.543694
1.000000 0.224277 0.582544
1.000000 0.490333 0.630365
0.000000 0.225406 0.527306
0.000000 0.228336 0.530602
0.000000 0.242100 0.556023
0.306371 0.243503 0.600275
0.701564 0.274479 0.630854
0.841794 0.382391 0.599237
1.000000 0.527276 0.649287
1.000000 0.707149 0.745266
0.000000 0.493935 0.600122
0.000000 0.498726 0.602838
0.000000 0.517967 0.614466
0.348058 0.551019 0.637324
0.711391 0.602350 0.671229
0.870573 0.659693 0.695003
0.962493 0.701656 0.712612
1.000000 0.748531 0.741115
0.000000 0.746822 0.684749
0.000000 0.749203 0.685786
0.000000 0.760647 0.696071
0.379339 0.778378 0.718990
0.741512 0.795529 0.767269
0.836728 0.798276 0.754208
0.930632 0.775357 0.701503
0.996704 0.789487 0.733883
0.000000 0.899504 0.793118
0.000000 0.899962 0.795377
0.344732 0.900877 0.803922
0.608972 0.900633 0.822995
0.799832 0.902037 0.858030
0.880583 0.916808 0.887419
0.903563 0.900786 0.836118
0.978180 0.892058 0.763455
0.555444 0.968688 0.873320
0.574273 0.968078 0.874540
0.646662 0.965881 0.880644
0.751156 0.963073 0.894072
0.856535 0.961395 0.916838
0.905791 0.966522 0.930724
0.935576 0.968780 0.938109
0.950591 0.963378 0.909270
0.000000 0.091249 0.594171
0.000000 0.091157 0.597131
0.000000 0.042603 0.607416
0.000000 0.000000 0.646082
0.518578 0.000000 0.697536
0.779904 0.000000 0.683711
0.943084 0.000000 0.660334
1.000000 0.000000 0.668025
0.000000 0.090974 0.589380
0.000000 0.091310 0.593225
0.000000 0.034943 0.607965
0.000000 0.000000 0.643275
0.525689 0.000000 0.691890
0.771756 0.000000 0.675532
0.932372 0.000000 0.649531
1.000000 0.000000 0.658198
0.000000 0.039857 0.626307
0.000000 0.033204 0.630274
0.000000 0.000000 0.644648
0.024811 0.000000 0.674128
0.545037 0.000000 0.710201
0.802213 0.000000 0.700099
0.947997 0.000000 0.670710
1.000000 0.200595 0.686305
0.000000 0.129335 0.663142
0.000000 0.122194 0.666926
0.000000 0.082063 0.679835
0.000000 0.000000 0.705135
0.561242 0.000000 0.740475
0.847868 0.000000 0.743832
0.956176 0.262791 0.703731
1.000000 0.481727 0.729946
0.000000 0.371099 0.678889
0.000000 0.370703 0.678492
0.000000 0.374578 0.683162
0.000000 0.383490 0.701137
0.521996 0.391485 0.749905
0.845060 0.462440 0.771908
0.934569 0.554437 0.737514
1.000000 0.687160 0.789670
0.000000 0.634058 0.733425
0.000000 0.636316 0.735012
0.000000 0.644007 0.740627
0.000000 0.657374 0.752193
0.489235 0.678187 0.770840
0.817533 0.732296 0.807187
0.937896 0.796109 0.835508
0.996185 0.826108 0.850278
0.000000 0.854734 0.806699
0.000000 0.855863 0.807492
0.000000 0.857664 0.808316
0.000000 0.860960 0.811032
0.542260 0.869596 0.832425
0.833127 0.883146 0.871458
0.908049 0.886290 0.870298
0.973449 0.864958 0.833341
0.000000 0.963745 0.870695
0.000000 0.963500 0.871580
0.000000 0.962799 0.876249
0.473732 0.960235 0.884367
0.708125 0.957977 0.899443
0.869688 0.956939 0.925353
0.938201 0.967224 0.948211
0.954742 0.960204 0.924743
0.000000 0.100496 0.755642
0.000000 0.100435 0.757229
0.000000 0.100496 0.756039
0.000000 0.000000 0.775540
0.244480 0.000000 0.806943
0.746456 0.000000 0.841978
0.942321 0.000000 0.819272
1.000000 0.000000 0.788602
0.000000 0.099886 0.751980
0.000000 0.100191 0.753658
0.000000 0.100191 0.754208
0.000000 0.000000 0.774289
0.268254 0.000000 0.804959
0.748196 0.000000 0.839902
0.938415 0.000000 0.814755
1.000000 0.000000 0.783108
0.000000 0.101015 0.761898
0.000000 0.100984 0.762509
0.000000 0.071260 0.765408
0.000000 0.000000 0.790555
0.358434 0.000000 0.816037
0.770565 0.000000 0.846494
0.946319 0.000000 0.821622
1.000000 0.000000 0.787442
0.000000 0.101717 0.781399
0.000000 0.085084 0.784604
0.000000 0.004273 0.793332
0.000000 0.000000 0.811734
0.384161 0.000000 0.831662
0.762020 0.000000 0.858000
0.964019 0.000000 0.841032
1.000000 0.000000 0.801205
0.000000 0.244816 0.775479
0.000000 0.237186 0.778866
0.000000 0.198825 0.787900
0.000000 0.125856 0.810178
0.000000 0.000000 0.832761
0.718196 0.000000 0.860899
0.962219 0.000000 0.858183
1.000000 0.393164 0.819089
0.000000 0.487892 0.799771
0.000000 0.484596 0.798856
0.000000 0.474098 0.797787
0.000000 0.458808 0.800168
0.000000 0.435218 0.811337
0.597314 0.440009 0.861204
0.935027 0.571435 0.885100
0.999115 0.678187 0.854917
0.000000 0.749111 0.849027
0.000000 0.749355 0.849149
0.000000 0.750362 0.850309
0.000000 0.754086 0.854612
0.000000 0.758511 0.862669
0.516411 0.762234 0.871061
0.873869 0.809201 0.895842
0.976593 0.863127 0.907378
0.000000 0.947448 0.901640
0.000000 0.947143 0.901366
0.000000 0.946563 0.900999
0.000000 0.945373 0.901030
0.000000 0.940826 0.900633
0.564935 0.934020 0.904204
0.875914 0.940093 0.930846
0.956970 0.947539 0.942931
