20 Preset/Japan Style/【3】LUT video cho PR-AE-FCPX/LUT VIDEO (2)/Japan Style LUT (5).cube
# Created by Adobe Lightroom plugin Export LUT (1.24.0)
# www.johnrellis.com/lightroom/exportlut.htm
# Preset: 05日系胶片（素材江湖）
# Color profile: C:\Program Files (x86)\Common Files\Adobe\Color\Profiles\Recommended\VideoHD.icc
LUT_3D_SIZE 5
DOMAIN_MIN 0.000000 0.000000 0.000000
DOMAIN_MAX 0.903226 0.903226 0.903226
0.266850 0.238346 0.245060
0.288884 0.237430 0.244755
0.566857 0.216312 0.235142
0.934905 0.149660 0.204044
1.000000 0.040497 0.183108
0.252689 0.279393 0.239567
0.299077 0.270542 0.241093
0.531212 0.315709 0.229801
0.908843 0.335180 0.192966
1.000000 0.302556 0.188022
0.000000 0.600855 0.129397
0.216251 0.607233 0.119020
0.579950 0.556329 0.209842
0.847044 0.593500 0.285222
1.000000 0.604242 0.355108
0.000000 0.882811 0.000000
0.000000 0.883024 0.000000
0.503319 0.869078 0.178347
0.832364 0.830655 0.356970
0.978332 0.796811 0.548455
0.000000 0.947662 0.421027
0.000000 0.945892 0.429358
0.447791 0.938567 0.459815
0.723629 0.920439 0.581048
0.898405 0.900755 0.725521
0.269688 0.237247 0.265324
0.301091 0.232609 0.267521
0.561975 0.152834 0.284276
0.933837 0.000000 0.262211
1.000000 0.000000 0.256901
0.255711 0.265446 0.274784
0.304814 0.272343 0.273503
0.571649 0.279057 0.273442
0.923705 0.259922 0.260746
1.000000 0.237583 0.262272
0.000000 0.581567 0.243870
0.076143 0.590600 0.235874
0.577050 0.550317 0.293400
0.843778 0.594079 0.368811
1.000000 0.600397 0.417914
0.000000 0.878233 0.238163
0.000000 0.878782 0.249363
0.503349 0.868376 0.310155
0.832853 0.829770 0.434180
0.971679 0.800717 0.599268
0.000000 0.945190 0.487526
0.171664 0.943420 0.495308
0.486702 0.936156 0.529412
0.736568 0.918822 0.630457
0.898650 0.900298 0.754879
0.305791 0.217807 0.478523
0.388373 0.197787 0.492287
0.607752 0.014130 0.509331
0.895323 0.000000 0.466621
1.000000 0.000000 0.494972
0.166262 0.245548 0.487434
0.326513 0.232181 0.499153
0.608087 0.182101 0.509300
0.907317 0.000000 0.475319
1.000000 0.148959 0.524437
0.000000 0.482185 0.520348
0.216403 0.497810 0.530144
0.576013 0.537011 0.536797
0.878569 0.573236 0.569482
1.000000 0.573388 0.590326
0.000000 0.841428 0.630182
0.000000 0.845884 0.608759
0.509331 0.858854 0.578759
0.833463 0.826108 0.644099
0.944823 0.818845 0.749477
0.414893 0.933318 0.682063
0.440681 0.932952 0.677272
0.600641 0.926238 0.704005
0.778592 0.912840 0.759518
0.899351 0.898558 0.826139
0.373693 0.146670 0.775082
0.453864 0.094820 0.782712
0.699916 0.000000 0.811002
0.947845 0.000000 0.808835
1.000000 0.000000 0.668788
0.268345 0.192020 0.774258
0.385962 0.164370 0.781308
0.676326 0.000000 0.809812
0.943114 0.000000 0.806485
1.000000 0.000000 0.664363
0.000000 0.455085 0.746242
0.000000 0.437720 0.754086
0.522698 0.401068 0.795621
0.895476 0.442542 0.789578
1.000000 0.456580 0.706935
0.000000 0.731838 0.796994
0.000000 0.739254 0.800259
0.491493 0.771847 0.815091
0.826993 0.810849 0.830472
0.931090 0.829435 0.857481
0.542596 0.919738 0.844175
0.595941 0.917235 0.847135
0.751125 0.908110 0.864836
0.833677 0.905058 0.871855
0.901396 0.897246 0.889921
0.438788 0.000000 0.948577
0.493904 0.000000 0.948913
0.670375 0.000000 0.951354
0.913664 0.000000 0.954772
1.000000 0.000000 0.931273
0.374853 0.058045 0.946715
0.443244 0.000000 0.947265
0.643977 0.000000 0.949706
0.902373 0.000000 0.953033
1.000000 0.000000 0.929259
0.000000 0.296513 0.943175
0.000000 0.289006 0.943267
0.499458 0.265873 0.945159
0.848753 0.276158 0.947021
1.000000 0.362188 0.923552
0.000000 0.624231 0.929839
0.000000 0.620294 0.929412
0.000000 0.606012 0.929564
0.716701 0.635309 0.933257
0.954711 0.769833 0.916106
0.167208 0.857053 0.921721
0.300664 0.859037 0.921111
0.571374 0.869078 0.919127
0.803037 0.884672 0.917266
0.901213 0.894804 0.920043
