20 Preset/Japan Style/【3】LUT video cho PR-AE-FCPX/LUT VIDEO (2)/Japan Style LUT (2).cube
# Created by Adobe Lightroom plugin Export LUT (1.24.0)
# www.johnrellis.com/lightroom/exportlut.htm
# Preset: 02日系清新（素材江湖）
# Color profile: C:\Program Files (x86)\Common Files\Adobe\Color\Profiles\Recommended\VideoHD.icc
LUT_3D_SIZE 8
DOMAIN_MIN 0.000000 0.000000 0.000000
DOMAIN_MAX 0.903226 0.903226 0.903226
0.000000 0.120607 0.176669
0.092378 0.124117 0.179294
0.275639 0.123629 0.185031
0.508080 0.030274 0.185367
0.748440 0.000000 0.177584
0.922606 0.000000 0.163149
1.000000 0.205570 0.151278
1.000000 0.299107 0.157443
0.000000 0.162264 0.202914
0.000000 0.166506 0.195590
0.259434 0.169100 0.191836
0.493660 0.157046 0.184665
0.735012 0.131594 0.174289
0.911162 0.174197 0.157870
1.000000 0.252354 0.145571
1.000000 0.324590 0.152102
0.000000 0.337957 0.293706
0.000000 0.339269 0.292576
0.167300 0.345159 0.258030
0.497169 0.335515 0.232395
0.723354 0.333989 0.222721
0.901152 0.354833 0.197848
1.000000 0.391302 0.176394
1.000000 0.431586 0.153292
0.000000 0.597681 0.437507
0.000000 0.596338 0.435157
0.000000 0.595850 0.429145
0.389166 0.606531 0.364141
0.736507 0.599359 0.268772
0.874235 0.557122 0.317357
0.985412 0.551354 0.287419
1.000000 0.556695 0.263340
0.000000 0.783688 0.605646
0.000000 0.782254 0.604944
0.000000 0.777401 0.606867
0.372686 0.772824 0.581689
0.583764 0.769711 0.512047
0.845579 0.760739 0.345739
0.940978 0.709834 0.403876
1.000000 0.693660 0.424445
0.000000 0.873259 0.739162
0.000000 0.873747 0.743099
0.324010 0.869627 0.747677
0.535485 0.862211 0.758633
0.616175 0.857664 0.736934
0.716640 0.856443 0.671565
0.907012 0.860258 0.487007
0.975463 0.817777 0.522026
0.443000 0.920623 0.828855
0.465309 0.920073 0.830198
0.535271 0.917082 0.833677
0.633845 0.912108 0.841123
0.707881 0.907408 0.842893
0.750118 0.904295 0.834501
0.799588 0.904936 0.784695
0.917601 0.903960 0.655146
0.639216 0.948394 0.883024
0.647761 0.947936 0.883726
0.681361 0.946197 0.886900
0.734737 0.943420 0.893065
0.786709 0.938903 0.898589
0.804440 0.938537 0.892912
0.837125 0.936339 0.894347
0.860990 0.938415 0.861540
0.000000 0.130465 0.221042
0.082887 0.131106 0.218784
0.279789 0.112612 0.210208
0.490791 0.096071 0.219730
0.727260 0.000000 0.210300
0.905913 0.087556 0.193240
1.000000 0.218235 0.171725
1.000000 0.308721 0.152773
0.000000 0.163912 0.242008
0.000000 0.169955 0.243656
0.266941 0.174380 0.239170
0.488014 0.162051 0.232609
0.722621 0.137423 0.220310
0.900511 0.176669 0.201968
1.000000 0.254154 0.180514
1.000000 0.332464 0.151522
0.000000 0.336858 0.328527
0.000000 0.338445 0.327245
0.195254 0.341009 0.312688
0.480049 0.333867 0.291752
0.712215 0.333501 0.267155
0.886198 0.347662 0.242466
1.000000 0.378698 0.220249
1.000000 0.421302 0.196353
0.000000 0.586572 0.458198
0.000000 0.586053 0.456336
0.000000 0.584710 0.453040
0.386633 0.586938 0.400549
0.709682 0.576379 0.318456
0.854368 0.543053 0.342138
0.970947 0.538628 0.311101
1.000000 0.547662 0.285801
0.000000 0.778531 0.618250
0.000000 0.776638 0.616754
0.000000 0.770901 0.615686
0.399329 0.763149 0.600275
0.578271 0.759030 0.531823
0.833951 0.750027 0.381628
0.931914 0.703548 0.430915
1.000000 0.689723 0.438636
0.000000 0.869535 0.742245
0.000000 0.868650 0.743282
0.301976 0.864805 0.747311
0.523430 0.857969 0.757504
0.614740 0.853788 0.739528
0.715511 0.853117 0.683742
0.902647 0.856931 0.508598
0.970855 0.815396 0.541131
0.430182 0.918791 0.828580
0.449378 0.917845 0.828916
0.521752 0.914824 0.832059
0.624353 0.910033 0.839414
0.709102 0.905303 0.844572
0.748836 0.902556 0.834897
0.797665 0.902739 0.787106
0.915404 0.901946 0.659937
0.631464 0.947692 0.882261
0.641444 0.947356 0.883268
0.675471 0.945556 0.886290
0.730129 0.942779 0.892363
0.788876 0.939422 0.900389
0.807797 0.938506 0.895171
0.837858 0.936126 0.895384
0.861448 0.938048 0.863798
0.083406 0.146761 0.347692
0.145846 0.148013 0.346044
0.282841 0.149996 0.347295
0.533135 0.087343 0.350683
0.746609 0.000000 0.314580
0.896239 0.000000 0.310674
1.000000 0.192599 0.298528
1.000000 0.306401 0.276341
0.007446 0.188937 0.369635
0.138033 0.192142 0.368231
0.281895 0.202152 0.363958
0.521752 0.176761 0.365484
0.736263 0.000000 0.324681
0.888945 0.124147 0.321050
1.000000 0.237034 0.303899
1.000000 0.328771 0.281559
0.000000 0.305882 0.420142
0.000000 0.309789 0.420478
0.231113 0.324773 0.421637
0.498604 0.342504 0.414191
0.713130 0.324437 0.382269
0.878447 0.341039 0.359625
0.993133 0.376684 0.337926
1.000000 0.422309 0.314122
0.000000 0.575677 0.542473
0.000000 0.578943 0.543664
0.000000 0.589868 0.543664
0.446509 0.581994 0.527245
0.688106 0.567956 0.483833
0.846952 0.551263 0.451637
0.962707 0.547875 0.418891
1.000000 0.556695 0.389197
0.000000 0.774716 0.679744
0.000000 0.773465 0.678523
0.000000 0.768795 0.675135
0.459724 0.759487 0.675074
0.608759 0.754208 0.641688
0.817533 0.741054 0.531395
0.912139 0.709865 0.557671
0.996338 0.698360 0.522606
0.000000 0.866545 0.774044
0.000000 0.865873 0.774624
0.317784 0.862119 0.775967
0.520806 0.855253 0.780056
0.643763 0.849027 0.775204
0.725643 0.848264 0.741299
0.890410 0.851102 0.609613
0.956298 0.817044 0.633234
0.442054 0.918090 0.842832
0.459998 0.917235 0.843015
0.527001 0.914122 0.844724
0.624445 0.909270 0.849485
0.720638 0.903532 0.857420
0.759304 0.901610 0.848569
0.805142 0.901671 0.816800
0.913634 0.902831 0.715877
0.627741 0.947723 0.886961
0.636103 0.947204 0.887419
0.670588 0.945434 0.890013
0.727352 0.942748 0.895720
0.786648 0.939330 0.902770
0.818357 0.937804 0.902525
0.843565 0.936217 0.901122
0.865904 0.937804 0.875639
0.212436 0.164981 0.507042
0.248234 0.167056 0.508141
0.357000 0.176394 0.506188
0.517815 0.173739 0.516136
0.752377 0.130526 0.526085
0.920104 0.000000 0.486671
1.000000 0.000000 0.420844
1.000000 0.246128 0.407324
0.214023 0.210178 0.525200
0.250553 0.211826 0.524773
0.360845 0.219730 0.522271
0.518456 0.226719 0.527886
0.748226 0.212192 0.537285
0.913359 0.152743 0.495003
1.000000 0.000000 0.427527
1.000000 0.288334 0.416327
0.000000 0.272892 0.549096
0.000000 0.288365 0.553460
0.334417 0.340764 0.565515
0.506279 0.367376 0.562280
0.723537 0.387213 0.575982
0.887877 0.355291 0.530571
0.990204 0.334508 0.472023
1.000000 0.413031 0.453712
0.000000 0.493965 0.635431
0.000000 0.495247 0.634302
0.000000 0.502861 0.632197
0.427924 0.519615 0.630640
0.672023 0.579095 0.643610
0.831876 0.529778 0.580346
0.940948 0.538781 0.548211
1.000000 0.557092 0.517632
0.000000 0.721187 0.728908
0.000000 0.723018 0.729854
0.000000 0.732113 0.736080
0.422766 0.747005 0.745785
0.642908 0.742763 0.739040
0.779202 0.729397 0.705074
0.891112 0.715114 0.671015
0.978515 0.706264 0.631922
0.000000 0.863981 0.824521
0.117586 0.864927 0.826261
0.346075 0.861265 0.824491
0.523369 0.854856 0.822446
0.667048 0.846098 0.820981
0.747951 0.841764 0.812070
0.867399 0.840146 0.739986
0.932189 0.820066 0.746487
0.443580 0.916899 0.864775
0.462989 0.916350 0.865110
0.529839 0.913787 0.866117
0.624689 0.909331 0.868315
0.718532 0.903655 0.871916
0.778561 0.899840 0.870359
0.817014 0.899199 0.854063
0.912657 0.903380 0.783902
0.617212 0.948699 0.896117
0.626520 0.948241 0.896544
0.662776 0.946349 0.898436
0.720058 0.943297 0.902312
0.781613 0.939635 0.907683
0.834318 0.936553 0.913664
0.851804 0.936217 0.909575
0.873533 0.937407 0.892821
0.351476 0.192660 0.685603
0.374456 0.194888 0.686183
0.453681 0.203433 0.683925
0.572107 0.224613 0.680720
0.721096 0.232822 0.694118
0.876432 0.269474 0.684230
1.000000 0.340734 0.662379
1.000000 0.318669 0.593530
0.351110 0.234928 0.693629
0.374334 0.236667 0.694301
0.453346 0.243595 0.692287
0.571221 0.262394 0.688106
0.716854 0.277165 0.698543
0.870359 0.312322 0.689723
0.993927 0.373022 0.668513
1.000000 0.345586 0.598566
0.310430 0.341650 0.713619
0.340093 0.346654 0.714229
0.429236 0.354253 0.712398
0.555810 0.373022 0.708919
0.693111 0.404639 0.710445
0.841276 0.435645 0.707332
0.967895 0.471992 0.689540
1.000000 0.428138 0.614679
0.000000 0.414099 0.732174
0.000000 0.414679 0.730861
0.217685 0.426368 0.726253
0.509789 0.523125 0.742367
0.661830 0.558648 0.742367
0.796963 0.593439 0.747250
0.926482 0.597040 0.726253
1.000000 0.537987 0.641352
0.000000 0.638788 0.790280
0.000000 0.639979 0.789944
0.029511 0.644038 0.787778
0.406409 0.653376 0.783810
0.587060 0.667262 0.778195
0.752468 0.721706 0.789609
0.880247 0.693721 0.750546
0.964569 0.682246 0.705074
0.000000 0.799557 0.834928
0.000000 0.800137 0.834958
0.245609 0.801419 0.833799
0.447913 0.805386 0.832639
0.613306 0.821836 0.841367
0.749660 0.828000 0.843870
0.839414 0.822629 0.826291
0.916136 0.813718 0.804471
0.387549 0.910979 0.888609
0.407324 0.910613 0.888304
0.480323 0.909667 0.887816
0.593103 0.907622 0.888243
0.698177 0.901793 0.887694
0.783017 0.895293 0.887724
0.828519 0.893187 0.883299
0.903746 0.894408 0.840879
0.557244 0.950225 0.905608
0.569543 0.949645 0.905821
0.616266 0.947387 0.906859
0.689998 0.944030 0.909728
0.763790 0.939849 0.913390
0.826139 0.936126 0.917967
0.857542 0.935119 0.917266
0.880461 0.935607 0.908232
0.493568 0.254154 0.829465
0.507378 0.257328 0.829496
0.557183 0.267185 0.826413
0.639490 0.289281 0.821866
0.735439 0.328252 0.814481
0.850584 0.349310 0.821653
0.945434 0.409216 0.801633
1.000000 0.515343 0.794583
0.485420 0.284794 0.826230
0.498085 0.286534 0.825528
0.547784 0.294316 0.822690
0.629847 0.312779 0.818143
0.727443 0.348943 0.812009
0.842435 0.373022 0.819455
0.938689 0.428717 0.801663
1.000000 0.528435 0.795834
0.465705 0.381933 0.832334
0.478889 0.383246 0.831632
0.530602 0.390021 0.829496
0.613245 0.403906 0.823972
0.713313 0.435126 0.818997
0.821897 0.468452 0.823178
0.918730 0.513359 0.812253
1.000000 0.590478 0.809079
0.330480 0.446662 0.834134
0.360632 0.455787 0.833982
0.466499 0.497169 0.835203
0.581811 0.532036 0.836179
0.690242 0.559594 0.833829
0.789578 0.598230 0.832181
0.887572 0.628748 0.831662
0.977539 0.673884 0.828611
0.000000 0.566705 0.848631
0.000000 0.567254 0.847776
0.260563 0.569879 0.844633
0.416876 0.575433 0.838499
0.644953 0.667109 0.843259
0.756527 0.696010 0.843198
0.853391 0.725002 0.847257
0.949859 0.731350 0.834043
0.144076 0.739498 0.872526
0.202609 0.740841 0.872618
0.321965 0.743130 0.871092
0.453285 0.747829 0.868254
0.581353 0.755215 0.863890
0.704707 0.768032 0.859464
0.830564 0.814664 0.869810
0.917662 0.789456 0.838529
0.348363 0.864012 0.898497
0.368994 0.864591 0.898619
0.433967 0.866178 0.898253
0.532799 0.869413 0.897704
0.643610 0.874998 0.897276
0.752071 0.887236 0.902708
0.834165 0.885832 0.900816
0.891600 0.883421 0.888884
0.519890 0.946075 0.925048
0.529717 0.945830 0.924834
0.572076 0.945006 0.924346
0.644495 0.944030 0.923980
0.729427 0.941222 0.923888
0.809262 0.936492 0.925444
0.865843 0.933043 0.927886
0.890105 0.933684 0.924346
0.614893 0.353735 0.909728
0.624781 0.358526 0.910369
0.653986 0.366247 0.908049
0.707454 0.385046 0.904662
0.774685 0.413428 0.898894
0.844572 0.455665 0.891081
0.928832 0.469856 0.893889
0.981933 0.517205 0.869749
0.600488 0.363806 0.903471
0.611078 0.368902 0.904601
0.641169 0.375708 0.902586
0.694026 0.390234 0.898589
0.761898 0.415076 0.892576
0.832456 0.452369 0.884001
0.917632 0.464271 0.886076
0.974395 0.506554 0.861997
0.590173 0.440375 0.904845
0.597681 0.441718 0.904417
0.626398 0.445228 0.901823
0.679805 0.456275 0.897978
0.747463 0.474983 0.891722
0.820401 0.508782 0.884825
0.904112 0.534173 0.888304
0.963806 0.575280 0.871855
0.562005 0.542321 0.904845
0.568841 0.542046 0.903990
0.598566 0.543847 0.901488
0.656489 0.554864 0.898985
0.727810 0.570886 0.894255
0.803861 0.600214 0.889860
0.880491 0.630152 0.891173
0.943297 0.657832 0.881010
0.344640 0.531884 0.899443
0.364599 0.535485 0.898070
0.447456 0.558862 0.895781
0.575067 0.610620 0.894133
0.684932 0.651423 0.891539
0.770047 0.672694 0.888273
0.845518 0.704250 0.886778
0.919768 0.734035 0.888304
0.292699 0.678126 0.906828
0.310735 0.678737 0.906584
0.370825 0.679927 0.904997
0.459876 0.681819 0.901762
0.560906 0.682704 0.895720
0.742672 0.760861 0.895750
0.826871 0.787411 0.896269
0.899718 0.810849 0.899596
0.395392 0.812619 0.917784
0.410407 0.813687 0.917937
0.454688 0.815152 0.917082
0.529595 0.818692 0.915557
0.617578 0.823484 0.912749
0.709255 0.830747 0.909117
0.795254 0.841245 0.905547
0.889342 0.875486 0.913481
0.497658 0.906645 0.932280
0.507530 0.907012 0.932311
0.550286 0.909026 0.932769
0.611719 0.911650 0.932586
0.686122 0.915557 0.932097
0.766110 0.924010 0.933623
0.849149 0.931212 0.936431
0.897124 0.929351 0.935424
0.709682 0.469673 0.950164
0.715145 0.472663 0.950164
0.730831 0.474311 0.948089
0.764767 0.486763 0.945769
0.809689 0.504662 0.941772
0.859617 0.529473 0.936126
0.909117 0.566217 0.929808
0.974823 0.564294 0.932067
0.700923 0.472511 0.947570
0.706630 0.475685 0.947631
0.723964 0.479255 0.946105
0.757717 0.489570 0.943603
0.803403 0.506493 0.939696
0.854398 0.530571 0.934142
0.904417 0.564508 0.927550
0.970611 0.562249 0.929595
0.686702 0.512139 0.944518
0.691524 0.513359 0.944335
0.708675 0.515221 0.942687
0.746639 0.529961 0.941588
0.791775 0.541985 0.937438
0.842741 0.559991 0.931762
0.894530 0.591150 0.925841
0.959625 0.594476 0.927764
0.660822 0.573724 0.940673
0.666499 0.575463 0.940642
0.685389 0.577630 0.939391
0.722530 0.586297 0.937713
0.771389 0.598230 0.934600
0.825956 0.615137 0.930144
0.880064 0.642237 0.925292
0.942168 0.653925 0.926665
0.582177 0.603418 0.938323
0.593072 0.609094 0.938201
0.628748 0.625605 0.936339
0.683253 0.647395 0.933959
0.737575 0.655940 0.931121
0.798734 0.670253 0.927428
0.859190 0.695338 0.923857
0.920043 0.718807 0.925109
0.397345 0.620569 0.940154
0.402228 0.618494 0.939544
0.433783 0.615686 0.937285
0.533532 0.640162 0.933715
0.664912 0.694484 0.930175
0.770260 0.742061 0.927916
0.841703 0.769802 0.927031
0.899443 0.796933 0.927184
0.467201 0.774228 0.944244
0.473701 0.774289 0.943999
0.500298 0.774533 0.943053
0.548943 0.775265 0.941131
0.613642 0.776059 0.937835
0.686152 0.775265 0.932708
0.817533 0.829923 0.928710
0.881102 0.850034 0.927977
0.524620 0.870726 0.945769
0.529656 0.870787 0.945586
0.555383 0.871885 0.945129
0.606104 0.875029 0.944518
0.669490 0.879484 0.943389
0.737392 0.885252 0.941772
0.807248 0.893004 0.939849
0.871977 0.902342 0.937835
