20 Preset/Japan Style/【3】LUT video cho PR-AE-FCPX/LUT VIDEO (2)/Japan Style LUT (12).cube
# Created by Adobe Lightroom plugin Export LUT (1.24.0)
# www.johnrellis.com/lightroom/exportlut.htm
# Preset: 12日系清新（素材江湖）
# Color profile: C:\Program Files (x86)\Common Files\Adobe\Color\Profiles\Recommended\VideoHD.icc
LUT_3D_SIZE 8
DOMAIN_MIN 0.000000 0.000000 0.000000
DOMAIN_MAX 0.903226 0.903226 0.903226
0.000000 0.040620 0.026093
0.130312 0.042634 0.022248
0.458900 0.000000 0.000000
0.782101 0.000000 0.000000
0.981415 0.000000 0.000000
1.000000 0.000000 0.000000
1.000000 0.000000 0.000000
1.000000 0.000000 0.000000
0.000000 0.196201 0.025544
0.000000 0.197604 0.000000
0.462165 0.146700 0.000000
0.777493 0.000000 0.000000
0.974456 0.000000 0.000000
1.000000 0.000000 0.000000
1.000000 0.000000 0.000000
1.000000 0.000000 0.000000
0.000000 0.525597 0.000000
0.000000 0.523644 0.032288
0.304204 0.478218 0.000000
0.749325 0.422339 0.000000
0.959258 0.346715 0.000000
1.000000 0.273075 0.000000
1.000000 0.186038 0.000000
1.000000 0.000000 0.000000
0.000000 0.754818 0.284184
0.000000 0.752743 0.302312
0.262974 0.738674 0.314946
0.615106 0.678004 0.000000
0.873045 0.624201 0.000000
1.000000 0.530999 0.000000
1.000000 0.462684 0.000000
1.000000 0.394842 0.000000
0.000000 0.849363 0.483619
0.000000 0.847776 0.492012
0.406622 0.842161 0.526421
0.581079 0.823941 0.464790
0.764828 0.778470 0.224338
0.924285 0.717586 0.000000
1.000000 0.641627 0.000000
1.000000 0.560967 0.000000
0.440894 0.886748 0.614435
0.467384 0.886168 0.620172
0.545159 0.882750 0.637018
0.645289 0.876890 0.661707
0.703090 0.863157 0.568505
0.831998 0.833829 0.380987
0.957336 0.779232 0.146517
1.000000 0.714290 0.166201
0.605859 0.906340 0.698360
0.614893 0.905882 0.700801
0.646937 0.903899 0.709316
0.699825 0.900389 0.725582
0.738094 0.895903 0.717037
0.774960 0.887633 0.644068
0.869841 0.870176 0.501335
0.980407 0.827329 0.305333
0.704372 0.919402 0.758083
0.708034 0.919158 0.759182
0.723384 0.918029 0.763821
0.751095 0.915923 0.773037
0.784054 0.912810 0.783932
0.799374 0.910765 0.761868
0.828580 0.906920 0.708461
0.900481 0.898192 0.603876
0.000000 0.066041 0.157107
0.130251 0.038483 0.160067
0.451148 0.000000 0.146700
0.760647 0.000000 0.112337
0.968658 0.000000 0.012696
1.000000 0.000000 0.000000
1.000000 0.000000 0.000000
1.000000 0.000000 0.000000
0.000000 0.210269 0.159426
0.007568 0.209842 0.154147
0.447395 0.170748 0.136995
0.762051 0.000000 0.100038
0.965026 0.000000 0.000000
1.000000 0.000000 0.000000
1.000000 0.000000 0.000000
1.000000 0.000000 0.000000
0.000000 0.518486 0.208469
0.000000 0.517937 0.219059
0.324254 0.480018 0.119905
0.751583 0.422065 0.000000
0.949157 0.358648 0.000000
1.000000 0.292180 0.000000
1.000000 0.218906 0.000000
1.000000 0.099153 0.000000
0.000000 0.745998 0.340978
0.000000 0.744320 0.355718
0.303044 0.733547 0.382727
0.610224 0.672206 0.154940
0.866850 0.619257 0.000000
1.000000 0.534203 0.000000
1.000000 0.469703 0.000000
1.000000 0.405188 0.000000
0.000000 0.845975 0.508965
0.158022 0.844358 0.516258
0.429450 0.838773 0.547326
0.588098 0.821256 0.497658
0.761624 0.775448 0.282109
0.921447 0.715724 0.000000
1.000000 0.641932 0.091463
1.000000 0.566247 0.000000
0.460578 0.884550 0.625757
0.482124 0.883757 0.629725
0.556207 0.880552 0.646052
0.656458 0.875151 0.674372
0.707485 0.861723 0.586969
0.830869 0.832792 0.410285
0.955535 0.778561 0.215793
1.000000 0.714778 0.231601
0.613550 0.905119 0.703700
0.621210 0.904601 0.705501
0.652186 0.902678 0.713649
0.704067 0.899351 0.729671
0.743618 0.895018 0.724453
0.777523 0.886809 0.654200
0.868894 0.869261 0.515557
0.978576 0.826383 0.330541
0.707515 0.918853 0.760739
0.711543 0.918578 0.762020
0.726589 0.917510 0.766598
0.753750 0.915465 0.775570
0.788540 0.912688 0.788266
0.803342 0.910521 0.767575
0.830686 0.906615 0.715511
0.900450 0.897978 0.613855
0.000000 0.099489 0.425177
0.000000 0.073030 0.429511
0.431250 0.000000 0.428565
0.758419 0.000000 0.406317
0.952911 0.000000 0.362829
1.000000 0.000000 0.330663
1.000000 0.000000 0.310491
1.000000 0.000000 0.279240
0.000000 0.242802 0.418769
0.000000 0.224765 0.423468
0.435706 0.184115 0.424445
0.746700 0.000000 0.395544
0.942535 0.000000 0.355779
1.000000 0.043397 0.335363
1.000000 0.052430 0.310033
1.000000 0.000000 0.278935
0.000000 0.507408 0.413611
0.000000 0.506950 0.411078
0.368811 0.486915 0.398718
0.723934 0.452186 0.391089
0.921172 0.414313 0.367407
1.000000 0.376959 0.343267
1.000000 0.340215 0.318944
1.000000 0.293217 0.287602
0.000000 0.728359 0.509483
0.000000 0.727077 0.513756
0.404089 0.726467 0.527764
0.625879 0.674464 0.406043
0.873320 0.624964 0.366949
0.997650 0.565698 0.368444
1.000000 0.515190 0.343725
1.000000 0.463294 0.310765
0.335851 0.834958 0.596704
0.361913 0.834897 0.595087
0.508354 0.831052 0.617121
0.635584 0.819333 0.611627
0.764828 0.775937 0.449256
0.920134 0.718502 0.353429
1.000000 0.653101 0.385046
1.000000 0.595178 0.355566
0.536065 0.878752 0.670069
0.552148 0.878141 0.673457
0.610163 0.875456 0.686915
0.693385 0.871153 0.711360
0.732387 0.859525 0.655818
0.830106 0.831785 0.513176
0.950561 0.779355 0.383917
1.000000 0.721187 0.405402
0.653529 0.901976 0.730343
0.659815 0.901549 0.731868
0.685481 0.899901 0.738705
0.729458 0.897093 0.752193
0.769894 0.893278 0.756619
0.792966 0.885527 0.698329
0.869108 0.868986 0.582879
0.973541 0.827207 0.438941
0.727932 0.917205 0.776089
0.731014 0.916960 0.776913
0.744472 0.915953 0.781064
0.769375 0.914214 0.789517
0.800870 0.911772 0.800961
0.817472 0.909545 0.788113
0.839689 0.905852 0.742580
0.900908 0.897704 0.654200
0.000000 0.134005 0.653071
0.000000 0.121920 0.655238
0.407202 0.000000 0.659510
0.733455 0.000000 0.651545
0.934936 0.000000 0.621973
1.000000 0.000000 0.563867
1.000000 0.164828 0.518853
1.000000 0.295995 0.499977
0.000000 0.259770 0.649073
0.000000 0.254429 0.650324
0.409339 0.209415 0.655299
0.732357 0.000000 0.649134
0.927459 0.000000 0.616938
1.000000 0.134493 0.562799
1.000000 0.272251 0.524193
1.000000 0.351934 0.510002
0.000000 0.510460 0.626612
0.000000 0.509697 0.625727
0.369360 0.485054 0.633295
0.702846 0.452125 0.629480
0.889128 0.440375 0.599756
0.987915 0.453681 0.569268
1.000000 0.483436 0.559625
1.000000 0.467811 0.537285
0.000000 0.708827 0.621332
0.000000 0.706783 0.619898
0.347753 0.697871 0.621271
0.641169 0.670558 0.604761
0.847868 0.645411 0.608179
0.950927 0.619135 0.593896
1.000000 0.590906 0.575097
1.000000 0.557397 0.549157
0.378302 0.821622 0.667170
0.435828 0.819577 0.671901
0.587732 0.813291 0.691981
0.700771 0.813687 0.714687
0.770108 0.774655 0.613947
0.910033 0.729366 0.586175
0.993622 0.690486 0.600977
1.000000 0.650385 0.572869
0.641566 0.867155 0.735286
0.649256 0.867430 0.736202
0.672114 0.867460 0.736812
0.733120 0.865537 0.753140
0.774319 0.857572 0.739071
0.832456 0.830686 0.636225
0.940154 0.783627 0.563653
1.000000 0.739956 0.591974
0.709041 0.896269 0.769589
0.712245 0.896208 0.769924
0.724666 0.895964 0.771054
0.761379 0.894041 0.782498
0.805173 0.891752 0.798581
0.817655 0.884276 0.757076
0.871061 0.868284 0.668818
0.963470 0.829221 0.574517
0.760922 0.914488 0.801755
0.762417 0.914397 0.801846
0.770016 0.914000 0.803098
0.791012 0.912566 0.809934
0.818387 0.910582 0.819760
0.838468 0.908446 0.818265
0.853605 0.904875 0.781857
0.902495 0.897307 0.712306
0.000000 0.199985 0.786374
0.000000 0.193668 0.786862
0.405798 0.141726 0.787289
0.704768 0.000000 0.789334
0.910063 0.000000 0.779080
1.000000 0.000000 0.728969
1.000000 0.190311 0.674159
1.000000 0.306340 0.634333
0.000000 0.300267 0.782406
0.000000 0.295048 0.782956
0.410956 0.265019 0.784024
0.700923 0.159457 0.786099
0.904295 0.000000 0.775753
1.000000 0.164187 0.726070
1.000000 0.283635 0.674311
1.000000 0.358618 0.637781
0.000000 0.529137 0.764004
0.000000 0.521874 0.765316
0.399847 0.491432 0.768063
0.673518 0.454597 0.770932
0.873411 0.431586 0.759609
0.971771 0.445655 0.715602
1.000000 0.475563 0.678279
1.000000 0.499763 0.654353
0.000000 0.683680 0.746395
0.086244 0.682277 0.745663
0.437385 0.678370 0.743191
0.645258 0.666194 0.745205
0.820859 0.650172 0.736782
0.916381 0.647028 0.715114
0.976745 0.647974 0.702480
1.000000 0.647639 0.694453
0.000000 0.805875 0.729213
0.172610 0.804349 0.729030
0.434821 0.797879 0.728054
0.665766 0.788144 0.739712
0.775021 0.767666 0.723507
0.887419 0.753017 0.731167
0.951965 0.733639 0.721279
1.000000 0.710475 0.706386
0.569879 0.861448 0.748318
0.590814 0.860441 0.751064
0.660639 0.856321 0.761624
0.747738 0.851499 0.780026
0.808377 0.854673 0.798886
0.835966 0.827268 0.728145
0.925933 0.795682 0.708736
0.984710 0.773495 0.724514
0.718776 0.891539 0.792416
0.726436 0.891020 0.794400
0.755978 0.889189 0.802914
0.782315 0.889097 0.807889
0.819303 0.888701 0.819486
0.841428 0.883604 0.808957
0.874449 0.866819 0.742611
0.951110 0.833646 0.691981
0.789548 0.910887 0.827878
0.791836 0.910765 0.828397
0.797726 0.910613 0.828733
0.809781 0.910491 0.830381
0.832639 0.909361 0.837583
0.860227 0.907897 0.848692
0.868345 0.904204 0.821378
0.904662 0.896574 0.767147
0.000000 0.282048 0.858061
0.126589 0.278691 0.858091
0.416846 0.258793 0.857572
0.646326 0.200809 0.857359
0.842039 0.000000 0.856260
0.991821 0.000000 0.847288
1.000000 0.229923 0.789334
1.000000 0.322881 0.741543
0.000000 0.351171 0.853819
0.176455 0.347753 0.853727
0.423560 0.330327 0.853513
0.643153 0.287572 0.853391
0.836423 0.212741 0.852873
0.984833 0.210666 0.843473
1.000000 0.301579 0.787106
1.000000 0.367071 0.741451
0.203983 0.524681 0.841337
0.274937 0.522087 0.841337
0.445472 0.510460 0.841581
0.634028 0.485878 0.841825
0.816556 0.450904 0.842679
0.957610 0.447700 0.831296
1.000000 0.478035 0.782162
1.000000 0.502800 0.745418
0.391669 0.681788 0.820218
0.425574 0.681605 0.820188
0.536828 0.682094 0.820676
0.648280 0.666865 0.823636
0.791287 0.648310 0.826352
0.912230 0.640162 0.813901
0.969696 0.645197 0.782376
1.000000 0.647028 0.761013
0.414252 0.774685 0.810544
0.445686 0.774228 0.810178
0.546654 0.772457 0.808835
0.672816 0.770779 0.806302
0.776242 0.765866 0.806973
0.868803 0.757259 0.800351
0.927214 0.752743 0.789700
0.972107 0.747768 0.782376
0.460365 0.854185 0.792050
0.484749 0.853300 0.792325
0.561913 0.849302 0.792752
0.668025 0.842679 0.794644
0.783719 0.836912 0.806882
0.839902 0.823362 0.795102
0.911101 0.815854 0.802670
0.955566 0.803281 0.796506
0.659144 0.890257 0.801968
0.669642 0.889738 0.803586
0.707790 0.887510 0.809720
0.766079 0.884215 0.821286
0.826963 0.881651 0.837827
0.864134 0.884825 0.850828
0.879179 0.866239 0.803891
0.938994 0.846281 0.791409
0.757107 0.912230 0.829679
0.761929 0.911894 0.830869
0.781613 0.910552 0.836210
0.814481 0.908507 0.846281
0.845914 0.907286 0.856199
0.869322 0.907256 0.863676
0.884489 0.904784 0.858427
0.907652 0.896513 0.817380
0.248936 0.361425 0.899260
0.302861 0.361120 0.899718
0.440223 0.349645 0.899077
0.605890 0.325353 0.898650
0.767453 0.276188 0.898161
0.912139 0.225406 0.895720
1.000000 0.240787 0.888609
1.000000 0.329564 0.829984
0.262394 0.400427 0.893736
0.312200 0.400763 0.894469
0.441932 0.389471 0.894102
0.601129 0.364263 0.893553
0.760403 0.319127 0.893065
0.904845 0.270176 0.890410
1.000000 0.271305 0.882872
1.000000 0.338323 0.825010
0.364416 0.541558 0.885374
0.390387 0.539605 0.885374
0.478889 0.529564 0.884886
0.608179 0.511192 0.884703
0.749844 0.480446 0.884367
0.888029 0.450263 0.883085
1.000000 0.452918 0.876066
1.000000 0.488930 0.824643
0.529412 0.689387 0.870481
0.544945 0.689601 0.870085
0.569390 0.675990 0.870634
0.648524 0.666499 0.871214
0.749752 0.649012 0.871763
0.866178 0.630152 0.872587
0.966796 0.627344 0.864012
1.000000 0.635615 0.825681
0.543694 0.758785 0.856931
0.555138 0.758114 0.855955
0.609033 0.758907 0.853880
0.689754 0.761624 0.853666
0.758450 0.753323 0.855497
0.845548 0.739590 0.857877
0.927184 0.733822 0.849241
0.968658 0.738674 0.830106
0.540826 0.825101 0.849790
0.555779 0.824949 0.849729
0.608759 0.823850 0.849210
0.687282 0.822446 0.848325
0.768063 0.821134 0.846830
0.836667 0.819791 0.849119
0.898558 0.815976 0.846281
0.939208 0.813230 0.840238
0.579919 0.886656 0.837522
0.593317 0.886229 0.838132
0.634241 0.883696 0.838773
0.698756 0.879515 0.840482
0.767483 0.874266 0.842405
0.841489 0.870970 0.851438
0.880674 0.863005 0.846067
0.928496 0.858885 0.851530
0.700893 0.913237 0.838590
0.708217 0.912840 0.839719
0.737911 0.911437 0.844968
0.779934 0.908873 0.852506
0.826535 0.906096 0.862425
0.871061 0.904417 0.875303
0.899016 0.906371 0.886107
0.910613 0.896849 0.857603
0.354345 0.420264 0.923125
0.379156 0.419379 0.923278
0.457374 0.407935 0.922637
0.575830 0.388922 0.922606
0.705684 0.353185 0.922484
0.835477 0.289616 0.922515
0.954650 0.247990 0.920592
1.000000 0.243534 0.915923
0.362341 0.446082 0.920012
0.385962 0.445686 0.920226
0.461707 0.435615 0.919951
0.575311 0.416449 0.919890
0.702754 0.382788 0.919921
0.831632 0.325414 0.920104
0.950500 0.283085 0.918120
1.000000 0.271916 0.913359
0.418036 0.545647 0.912322
0.434211 0.544244 0.912352
0.490761 0.535241 0.912169
0.589349 0.525078 0.913024
0.700404 0.497536 0.913146
0.819944 0.454322 0.913481
0.936278 0.423194 0.912322
1.000000 0.411597 0.908263
0.521386 0.663478 0.900359
0.529625 0.662257 0.900603
0.562463 0.656703 0.900694
0.625879 0.647944 0.901305
0.709224 0.631434 0.902129
0.807858 0.605371 0.903288
0.914061 0.581720 0.903471
1.000000 0.571221 0.899779
0.576684 0.742428 0.888823
0.588464 0.743374 0.888975
0.623682 0.743801 0.888609
0.685115 0.746670 0.888365
0.731319 0.732418 0.889769
0.803677 0.716701 0.891295
0.892912 0.700679 0.893126
0.975677 0.698054 0.888731
0.576867 0.798245 0.882536
0.584314 0.797848 0.882109
0.618860 0.797421 0.880827
0.681605 0.799191 0.879271
0.753414 0.802945 0.879057
0.814878 0.802274 0.882597
0.882139 0.798978 0.887205
0.942840 0.800381 0.884306
0.611353 0.863188 0.883085
0.619654 0.862943 0.882994
0.652522 0.862119 0.882597
0.708309 0.861295 0.882353
0.768551 0.859800 0.881407
0.826413 0.858854 0.880461
0.874540 0.857359 0.882109
0.920897 0.854429 0.880674
0.634333 0.913451 0.872953
0.640558 0.912963 0.872953
0.668788 0.911101 0.873503
0.718502 0.908049 0.875181
0.774289 0.904234 0.877287
0.827115 0.900389 0.879728
0.878202 0.897704 0.884855
0.909697 0.893828 0.885435
