20 Preset/Japan Style/【3】LUT video cho PR-AE-FCPX/LUT VIDEO (2)/Japan Style LUT (43).cube
# Created by Adobe Lightroom plugin Export LUT (1.24.0)
# www.johnrellis.com/lightroom/exportlut.htm
# Preset: 43日系深绿（素材江湖）
# Color profile: C:\Program Files (x86)\Common Files\Adobe\Color\Profiles\Recommended\VideoHD.icc
LUT_3D_SIZE 5
DOMAIN_MIN 0.000000 0.000000 0.000000
DOMAIN_MAX 0.903226 0.903226 0.903226
0.003784 0.029297 0.048981
0.137942 0.034974 0.067720
0.463081 0.000000 0.071534
0.855436 0.000000 0.000000
1.000000 0.000000 0.000000
0.000000 0.178317 0.111696
0.092317 0.181125 0.080323
0.534874 0.137697 0.000000
0.884520 0.000000 0.000000
1.000000 0.000000 0.000000
0.000000 0.489693 0.205447
0.000000 0.445716 0.140780
0.376135 0.498482 0.000000
0.907073 0.565759 0.000000
1.000000 0.533318 0.000000
0.000000 0.766812 0.381415
0.000000 0.746395 0.338781
0.000000 0.603143 0.152499
0.686793 0.774319 0.050690
1.000000 0.841703 0.000000
0.000000 0.963256 0.702937
0.000000 0.958373 0.693019
0.000000 0.947112 0.542107
0.470283 0.893065 0.383612
0.904326 0.954437 0.560266
0.000000 0.028962 0.247288
0.144991 0.059449 0.177340
0.508476 0.000000 0.151675
0.880125 0.000000 0.098238
1.000000 0.000000 0.000000
0.000000 0.227848 0.282597
0.098756 0.220645 0.250553
0.550408 0.168215 0.197696
0.896300 0.000000 0.099184
1.000000 0.125887 0.000000
0.000000 0.569696 0.364752
0.000000 0.539879 0.329412
0.424689 0.523186 0.236576
0.909178 0.575097 0.151125
1.000000 0.544701 0.000000
0.000000 0.797055 0.492958
0.000000 0.780179 0.463416
0.000000 0.660731 0.259342
0.693233 0.777798 0.288884
1.000000 0.842802 0.279820
0.000000 0.967437 0.742031
0.000000 0.962829 0.734218
0.000000 0.948730 0.597375
0.468269 0.896300 0.425544
0.900114 0.953185 0.608942
0.000000 0.000000 0.758389
0.173617 0.000000 0.714504
0.549798 0.000000 0.508293
0.916197 0.000000 0.471595
1.000000 0.000000 0.372107
0.000000 0.191470 0.793668
0.000000 0.201541 0.757504
0.579339 0.241215 0.561975
0.905089 0.180850 0.508721
1.000000 0.230442 0.429694
0.000000 0.683589 0.807034
0.000000 0.677211 0.795499
0.537377 0.638056 0.731807
0.850431 0.597284 0.637507
1.000000 0.579095 0.529015
0.000000 0.881285 0.808316
0.000000 0.871824 0.796384
0.368688 0.819760 0.725704
0.704433 0.787930 0.634363
0.990600 0.847227 0.716854
0.000000 0.984466 0.853452
0.000000 0.980011 0.849638
0.414893 0.961730 0.826291
0.515679 0.922881 0.639033
0.892607 0.953979 0.762509
0.282933 0.000000 0.980285
0.455207 0.000000 0.973999
0.732906 0.000000 0.922667
0.875242 0.218479 0.837705
1.000000 0.422065 0.820493
0.260929 0.215213 0.983490
0.447883 0.191440 0.977935
0.734890 0.218448 0.938079
0.871946 0.365270 0.852628
1.000000 0.514122 0.835080
0.000000 0.633722 0.986145
0.000000 0.628107 0.984527
0.657160 0.647639 0.958831
0.824247 0.646265 0.875334
0.992859 0.689235 0.865141
0.000000 0.895415 0.962310
0.185397 0.894133 0.961151
0.574914 0.888365 0.955291
0.806302 0.871733 0.936492
0.953704 0.841001 0.896483
0.277501 1.000000 0.959503
0.366888 1.000000 0.957763
0.551873 0.989166 0.948760
0.729854 0.961669 0.923552
0.893400 0.953246 0.898436
0.619928 0.000000 1.000000
0.672633 0.000000 1.000000
0.830472 0.000000 1.000000
0.946563 0.497719 0.997925
1.000000 0.570520 0.976410
0.618616 0.273533 1.000000
0.668544 0.264744 1.000000
0.818967 0.228977 1.000000
0.937713 0.542290 0.997681
1.000000 0.609766 0.975250
0.541924 0.633265 1.000000
0.629908 0.667231 1.000000
0.764614 0.656428 1.000000
0.906920 0.681147 0.999451
0.984863 0.727443 0.974945
0.420325 0.849302 1.000000
0.486427 0.850095 1.000000
0.670253 0.856809 1.000000
0.863401 0.869108 0.999725
0.956481 0.863310 0.978759
0.536706 0.973693 0.999329
0.577874 0.973297 0.998932
0.707973 0.972869 0.997559
0.849180 0.973999 0.994965
0.954131 0.972564 0.989685
