20 Preset/Japan Style/【3】LUT video cho PR-AE-FCPX/LUT VIDEO (2)/Japan Style LUT (48).cube
# Created by Adobe Lightroom plugin Export LUT (1.24.0)
# www.johnrellis.com/lightroom/exportlut.htm
# Preset: 48日系自然（素材江湖）
# Color profile: C:\Program Files (x86)\Common Files\Adobe\Color\Profiles\Recommended\VideoHD.icc
LUT_3D_SIZE 32
DOMAIN_MIN 0.0 0.0 0.0
DOMAIN_MAX 1.0 1.0 1.0
0.122896 0.122896 0.122896
0.125124 0.122896 0.122835
0.131655 0.123201 0.123201
0.143984 0.124575 0.123293
0.163882 0.126375 0.123629
0.189548 0.128847 0.123537
0.219242 0.132143 0.123812
0.253422 0.136233 0.123445
0.292393 0.141115 0.122560
0.335637 0.147707 0.120760
0.383948 0.154452 0.118257
0.435950 0.163272 0.113466
0.491707 0.173037 0.107759
0.549920 0.184695 0.099092
0.609583 0.196536 0.087098
0.669215 0.209476 0.053773
0.728420 0.222629 0.011109
0.786618 0.235904 0.000000
0.840696 0.249027 0.000000
0.889464 0.261601 0.000000
0.932403 0.273167 0.000000
0.979126 0.285954 0.000000
1.000000 0.299077 0.000000
1.000000 0.310216 0.000000
1.000000 0.319982 0.000000
1.000000 0.329107 0.000000
1.000000 0.338109 0.000000
1.000000 0.346868 0.071138
1.000000 0.356085 0.110384
1.000000 0.365728 0.138827
1.000000 0.376349 0.165103
1.000000 0.387945 0.190921
0.122683 0.124544 0.123201
0.124178 0.124361 0.122927
0.131380 0.125154 0.123232
0.143618 0.125948 0.123384
0.163455 0.128023 0.123659
0.188663 0.130526 0.123598
0.217380 0.133516 0.123964
0.250034 0.137575 0.123690
0.288273 0.142397 0.122896
0.330724 0.148562 0.121309
0.377569 0.155795 0.118624
0.428717 0.163851 0.114534
0.483467 0.173404 0.108675
0.540887 0.184360 0.100710
0.599817 0.196414 0.089387
0.659602 0.209323 0.059846
0.718990 0.222293 0.019379
0.777371 0.235966 0.000000
0.832090 0.249058 0.000000
0.881651 0.261204 0.000000
0.925048 0.272740 0.000000
0.971588 0.285466 0.000000
1.000000 0.297917 0.000000
1.000000 0.308354 0.000000
1.000000 0.318181 0.000000
1.000000 0.326879 0.000000
1.000000 0.335332 0.000000
1.000000 0.344152 0.034333
1.000000 0.353094 0.096712
1.000000 0.362524 0.126040
1.000000 0.372747 0.154360
1.000000 0.384192 0.181155
0.123415 0.130404 0.124575
0.124147 0.130556 0.124788
0.130465 0.131655 0.124239
0.144015 0.132540 0.123812
0.163638 0.134707 0.124056
0.188174 0.137392 0.124208
0.216251 0.140566 0.124269
0.248417 0.144533 0.123720
0.285405 0.149660 0.122927
0.327123 0.155245 0.121462
0.373266 0.162539 0.118532
0.423682 0.170932 0.114107
0.477607 0.180209 0.108736
0.534020 0.191226 0.100954
0.592462 0.203281 0.089387
0.651698 0.215640 0.062196
0.711055 0.227848 0.023011
0.769680 0.240879 0.000000
0.825315 0.254032 0.000000
0.875486 0.266178 0.000000
0.919860 0.277073 0.000000
0.967590 0.289952 0.000000
1.000000 0.301946 0.000000
1.000000 0.312016 0.000000
1.000000 0.321233 0.000000
1.000000 0.329381 0.000000
1.000000 0.337621 0.000000
1.000000 0.345830 0.018402
1.000000 0.354437 0.088899
1.000000 0.363775 0.120974
1.000000 0.373419 0.149264
1.000000 0.384436 0.175875
0.124025 0.142123 0.127840
0.124819 0.142275 0.127810
0.128969 0.143191 0.127565
0.143252 0.145266 0.125887
0.165011 0.147799 0.124880
0.188663 0.150484 0.125032
0.216129 0.153597 0.125032
0.247379 0.157290 0.124788
0.284184 0.162325 0.123629
0.324834 0.168612 0.121157
0.370214 0.175509 0.118532
0.419165 0.184237 0.114076
0.472267 0.193698 0.108614
0.527550 0.204532 0.100526
0.584802 0.215152 0.090486
0.642847 0.227451 0.064637
0.701045 0.239170 0.026947
0.758480 0.251682 0.000000
0.813840 0.264347 0.000000
0.864500 0.275944 0.000000
0.909392 0.286290 0.000000
0.958495 0.298711 0.000000
0.997986 0.309728 0.000000
1.000000 0.318853 0.000000
1.000000 0.327520 0.000000
1.000000 0.335454 0.000000
1.000000 0.343816 0.000000
1.000000 0.351690 0.008484
1.000000 0.359838 0.087190
1.000000 0.368750 0.119448
1.000000 0.377813 0.147921
1.000000 0.387976 0.173953
0.123873 0.159884 0.132021
0.124666 0.160006 0.131991
0.128054 0.160464 0.132357
0.139345 0.162325 0.131014
0.160891 0.165011 0.128481
0.189303 0.167544 0.126040
0.215366 0.170443 0.125826
0.244785 0.174014 0.125063
0.280095 0.179171 0.123842
0.319768 0.185550 0.121584
0.363561 0.192721 0.118624
0.411444 0.201511 0.114382
0.462928 0.211002 0.109010
0.517754 0.221714 0.101228
0.574548 0.233005 0.090486
0.632593 0.244907 0.065553
0.691585 0.257023 0.023682
0.749844 0.269200 0.000000
0.806058 0.281468 0.000000
0.857481 0.291905 0.000000
0.905272 0.302495 0.000000
0.954101 0.314275 0.000000
0.992798 0.324132 0.000000
1.000000 0.332158 0.000000
1.000000 0.339910 0.000000
1.000000 0.347173 0.000000
1.000000 0.354528 0.000000
1.000000 0.361547 0.008759
1.000000 0.368933 0.086580
1.000000 0.376928 0.118135
1.000000 0.385168 0.146120
1.000000 0.394507 0.171847
0.122225 0.180880 0.136385
0.123415 0.180941 0.136599
0.126589 0.181216 0.136965
0.135012 0.182528 0.136294
0.154391 0.185367 0.133577
0.182528 0.188785 0.130037
0.217624 0.192355 0.125551
0.247227 0.196017 0.124880
0.280430 0.200961 0.124178
0.318242 0.207431 0.122316
0.361395 0.215091 0.118715
0.408637 0.224277 0.114046
0.459632 0.234226 0.108064
0.513695 0.245090 0.100130
0.570092 0.256474 0.089387
0.628565 0.268315 0.060517
0.687160 0.280583 0.017823
0.745785 0.292638 0.000000
0.802609 0.304051 0.000000
0.853941 0.314427 0.000000
0.906523 0.325902 0.000000
0.953613 0.336278 0.000000
1.000000 0.361883 0.000000
1.000000 0.369085 0.000000
1.000000 0.375280 0.000000
1.000000 0.381720 0.028595
1.000000 0.387274 0.098512
1.000000 0.393378 0.127047
1.000000 0.399969 0.151217
1.000000 0.407111 0.174807
1.000000 0.414893 0.197299
1.000000 0.423407 0.219120
0.115999 0.212680 0.142458
0.116884 0.212772 0.142428
0.121523 0.212802 0.142580
0.128878 0.213535 0.142733
0.148531 0.216281 0.140322
0.178195 0.219760 0.136599
0.215305 0.224430 0.131350
0.260472 0.229892 0.123629
0.295750 0.235355 0.121340
0.334356 0.241947 0.119478
0.377234 0.249760 0.116732
0.425422 0.259434 0.111513
0.477546 0.270024 0.103883
0.532189 0.281102 0.093843
0.588586 0.292729 0.072175
0.645563 0.304051 0.033051
0.703334 0.315648 0.000000
0.760830 0.326848 0.000000
0.815793 0.337499 0.000000
0.871061 0.348852 0.000000
0.928893 0.361364 0.000000
0.976654 0.371710 0.000000
1.000000 0.379950 0.000000
1.000000 0.386938 0.000000
1.000000 0.393133 0.000000
1.000000 0.398535 0.013611
1.000000 0.403265 0.091890
1.000000 0.408087 0.121859
1.000000 0.413214 0.146120
1.000000 0.418921 0.168673
1.000000 0.425269 0.191287
1.000000 0.432380 0.213107
0.105837 0.242283 0.147524
0.107301 0.242344 0.147707
0.111757 0.242496 0.147829
0.120607 0.243076 0.147555
0.136965 0.244450 0.146914
0.167819 0.248112 0.143221
0.203983 0.252567 0.138308
0.246250 0.257816 0.131746
0.295903 0.265202 0.122225
0.336187 0.271275 0.117769
0.377874 0.279088 0.114504
0.422797 0.287846 0.110292
0.470130 0.297063 0.104433
0.522728 0.308324 0.094087
0.577630 0.319799 0.072236
0.633692 0.330968 0.032410
0.690700 0.342687 0.000000
0.747982 0.353765 0.000000
0.805509 0.365118 0.000000
0.867369 0.378973 0.000000
0.920836 0.389837 0.000000
0.966766 0.398383 0.000000
1.000000 0.405127 0.000000
1.000000 0.410956 0.000000
1.000000 0.415656 0.000000
1.000000 0.419471 0.008911
1.000000 0.423011 0.089113
1.000000 0.426368 0.119448
1.000000 0.430304 0.143954
1.000000 0.434791 0.166690
1.000000 0.439734 0.189090
1.000000 0.445808 0.210513
0.085939 0.276341 0.153231
0.088228 0.276585 0.153140
0.094911 0.276585 0.153262
0.106691 0.276890 0.153262
0.122164 0.277501 0.153689
0.154421 0.280278 0.150820
0.192081 0.284367 0.145785
0.234470 0.289555 0.139528
0.280949 0.295506 0.131014
0.335058 0.304234 0.118654
0.381048 0.311620 0.110201
0.425788 0.320531 0.104158
0.472084 0.329717 0.098482
0.520104 0.339117 0.091005
0.570642 0.349279 0.070436
0.625605 0.360693 0.028351
0.682002 0.372381 0.000000
0.742214 0.385229 0.000000
0.806363 0.399969 0.000000
0.863584 0.411597 0.000000
0.914183 0.420874 0.000000
0.958526 0.428016 0.000000
0.996368 0.433387 0.000000
1.000000 0.437842 0.000000
1.000000 0.441413 0.000000
1.000000 0.443885 0.016144
1.000000 0.445960 0.092988
1.000000 0.448188 0.122591
1.000000 0.450843 0.146700
1.000000 0.453803 0.169284
1.000000 0.457832 0.191043
1.000000 0.462531 0.212284
0.006775 0.314183 0.159548
0.011749 0.314092 0.159365
0.031312 0.313939 0.159548
0.072450 0.314061 0.159548
0.102480 0.314397 0.159792
0.131899 0.315343 0.158907
0.176516 0.318883 0.153780
0.220829 0.323552 0.147585
0.267704 0.328832 0.139376
0.318242 0.335271 0.128664
0.375006 0.344305 0.112917
0.425940 0.352697 0.098390
0.472297 0.362280 0.087648
0.519615 0.371771 0.073854
0.569329 0.381750 0.047120
0.619959 0.391760 0.016754
0.680995 0.407141 0.000000
0.745602 0.422980 0.000000
0.805936 0.436225 0.000000
0.860197 0.446296 0.000000
0.908110 0.453803 0.000000
0.949798 0.459174 0.000000
0.985718 0.462593 0.000000
1.000000 0.465187 0.000000
1.000000 0.466896 0.000000
1.000000 0.468025 0.009308
1.000000 0.468971 0.088777
1.000000 0.470100 0.118807
1.000000 0.471778 0.145174
1.000000 0.473884 0.168673
1.000000 0.476875 0.191318
1.000000 0.480751 0.213382
0.000000 0.351934 0.165682
0.000000 0.352026 0.165805
0.000000 0.352209 0.165835
0.000000 0.352392 0.165835
0.038483 0.352758 0.165835
0.101961 0.353491 0.165988
0.154299 0.356451 0.162417
0.204379 0.361089 0.156405
0.254032 0.366583 0.148074
0.305608 0.372992 0.137697
0.360113 0.379583 0.123201
0.416968 0.387091 0.104005
0.474861 0.398230 0.067109
0.523888 0.408576 0.029297
0.578027 0.422187 0.000000
0.633631 0.435462 0.000000
0.689662 0.448188 0.000000
0.745113 0.459846 0.000000
0.800748 0.470954 0.000000
0.852415 0.479805 0.000000
0.898650 0.486030 0.000000
0.939452 0.490547 0.000000
0.975341 0.493263 0.000000
1.000000 0.494697 0.000000
1.000000 0.495186 0.000000
1.000000 0.495491 0.026795
1.000000 0.495369 0.096284
1.000000 0.495521 0.125978
1.000000 0.496071 0.150820
1.000000 0.497139 0.173373
1.000000 0.499153 0.196414
1.000000 0.501793 0.218265
0.000000 0.395666 0.173312
0.000000 0.395697 0.173281
0.000000 0.395911 0.172976
0.000000 0.396124 0.173587
0.000000 0.396765 0.173617
0.007874 0.397589 0.173983
0.114595 0.399237 0.172580
0.181949 0.403662 0.166293
0.238651 0.409064 0.158114
0.293095 0.415229 0.147768
0.348760 0.421942 0.133730
0.409339 0.432837 0.114260
0.509453 0.477333 0.038422
0.583734 0.493507 0.000000
0.641779 0.507042 0.000000
0.699092 0.519310 0.000000
0.753475 0.528832 0.000000
0.803708 0.535790 0.000000
0.849363 0.540185 0.000000
0.890837 0.542626 0.000000
0.931182 0.544793 0.000000
0.966003 0.545129 0.000000
0.996460 0.544060 0.000000
1.000000 0.542473 0.040284
1.000000 0.540337 0.103151
1.000000 0.538048 0.129671
1.000000 0.535393 0.150790
1.000000 0.533379 0.170718
1.000000 0.531853 0.190219
1.000000 0.531182 0.208988
1.000000 0.531273 0.227695
1.000000 0.532555 0.246647
0.000000 0.457649 0.185519
0.000000 0.457465 0.185611
0.000000 0.456886 0.185336
0.000000 0.456489 0.185397
0.000000 0.455604 0.185245
0.000000 0.455146 0.185306
0.000000 0.455604 0.185580
0.148196 0.461280 0.181247
0.221988 0.469459 0.173770
0.287510 0.479347 0.162722
0.352483 0.491493 0.148348
0.420020 0.505241 0.127443
0.490761 0.519738 0.094362
0.564569 0.533715 0.000000
0.642634 0.549157 0.000000
0.698817 0.560449 0.000000
0.750851 0.568261 0.000000
0.797421 0.572595 0.000000
0.840513 0.574731 0.000000
0.879454 0.575402 0.000000
0.914946 0.574731 0.000000
0.947692 0.573358 0.000000
0.979126 0.572015 0.000000
1.000000 0.569940 0.045899
1.000000 0.567346 0.103304
1.000000 0.564416 0.129976
1.000000 0.561486 0.152773
1.000000 0.558770 0.173556
1.000000 0.556634 0.192721
1.000000 0.555322 0.212284
1.000000 0.554589 0.231205
1.000000 0.555016 0.251255
0.000000 0.515740 0.199161
0.000000 0.515282 0.198825
0.000000 0.514702 0.199039
0.000000 0.514092 0.198764
0.000000 0.513512 0.198825
0.000000 0.513359 0.198856
0.000000 0.513878 0.199130
0.043183 0.515923 0.198154
0.190341 0.522148 0.190188
0.266148 0.530266 0.180179
0.335698 0.540642 0.166476
0.403967 0.552575 0.149355
0.473976 0.565393 0.124147
0.545495 0.578058 0.073701
0.618311 0.589197 0.000000
0.693660 0.601251 0.000000
0.745541 0.606104 0.000000
0.791012 0.609033 0.000000
0.832456 0.609857 0.000000
0.870085 0.609064 0.000000
0.904662 0.607141 0.000000
0.936431 0.604547 0.000000
0.965179 0.601434 0.000000
0.992767 0.598596 0.075257
1.000000 0.595666 0.111757
1.000000 0.592309 0.137179
1.000000 0.588830 0.159396
1.000000 0.585473 0.180362
1.000000 0.582574 0.199619
1.000000 0.580529 0.218906
1.000000 0.579156 0.238773
1.000000 0.578882 0.258701
0.000000 0.574517 0.215305
0.000000 0.574273 0.215305
0.000000 0.573297 0.214878
0.000000 0.571923 0.214298
0.000000 0.570184 0.213993
0.000000 0.568780 0.213748
0.000000 0.568231 0.213626
0.000000 0.568536 0.214054
0.136782 0.572442 0.208927
0.237339 0.579431 0.199588
0.313512 0.588434 0.187747
0.384558 0.599176 0.173129
0.454353 0.610529 0.153140
0.525414 0.621546 0.123018
0.595422 0.631189 0.051972
0.665217 0.638483 0.000000
0.736690 0.646571 0.000000
0.784726 0.646021 0.000000
0.825406 0.645563 0.000000
0.862577 0.643549 0.000000
0.896178 0.640528 0.000000
0.927367 0.637018 0.000000
0.955932 0.632868 0.000000
0.982055 0.628534 0.084260
1.000000 0.624079 0.120607
1.000000 0.620233 0.145052
1.000000 0.616449 0.167391
1.000000 0.612879 0.189090
1.000000 0.609735 0.209018
1.000000 0.607477 0.230167
1.000000 0.606043 0.251438
1.000000 0.605646 0.273442
0.000000 0.625666 0.232059
0.000000 0.625757 0.231998
0.000000 0.625452 0.231846
0.000000 0.624781 0.231540
0.000000 0.624048 0.231693
0.000000 0.623529 0.231662
0.000000 0.623835 0.231662
0.000000 0.625116 0.232731
0.000000 0.627405 0.232944
0.198917 0.633661 0.223819
0.288273 0.640436 0.213870
0.364050 0.647913 0.200229
0.434394 0.655360 0.183383
0.502220 0.662379 0.161868
0.569146 0.668360 0.131350
0.635370 0.673426 0.073640
0.701595 0.677607 0.000000
0.769833 0.683497 0.000000
0.815640 0.679133 0.000000
0.853056 0.676631 0.000000
0.887541 0.673213 0.000000
0.918822 0.669123 0.000000
0.947570 0.664637 0.000000
0.973938 0.659907 0.087617
0.998077 0.654871 0.128725
1.000000 0.649928 0.157443
1.000000 0.645197 0.181552
1.000000 0.641230 0.202060
1.000000 0.637720 0.222385
1.000000 0.634699 0.242588
1.000000 0.632441 0.263554
1.000000 0.631037 0.284398
0.000000 0.671687 0.250614
0.000000 0.671626 0.250614
0.000000 0.671351 0.250492
0.000000 0.671046 0.250523
0.000000 0.670588 0.250370
0.000000 0.670405 0.250187
0.000000 0.670649 0.250492
0.000000 0.671321 0.251499
0.000000 0.672755 0.252384
0.138338 0.676265 0.248692
0.255406 0.681544 0.239109
0.337163 0.687373 0.228397
0.409155 0.693202 0.215183
0.476844 0.698665 0.198489
0.542504 0.703517 0.176730
0.606867 0.707362 0.147890
0.670436 0.710689 0.104585
0.734218 0.713436 0.000000
0.801114 0.718715 0.000000
0.845060 0.710750 0.000000
0.879179 0.706783 0.000000
0.911070 0.701839 0.000000
0.939727 0.696590 0.000000
0.966186 0.691127 0.089845
0.990417 0.685542 0.134707
1.000000 0.680079 0.165621
1.000000 0.674769 0.191745
1.000000 0.669795 0.215091
1.000000 0.665553 0.236973
1.000000 0.662196 0.257481
1.000000 0.659480 0.278630
1.000000 0.657618 0.299931
0.000000 0.716121 0.275425
0.000000 0.716518 0.275853
0.000000 0.745815 0.298589
0.000000 0.745571 0.298375
0.000000 0.745144 0.298161
0.000000 0.744564 0.298283
0.000000 0.744106 0.298100
0.000000 0.743984 0.298466
0.000000 0.744381 0.299443
0.108003 0.745418 0.300542
0.246555 0.748775 0.292454
0.332097 0.752255 0.283787
0.405005 0.755154 0.272160
0.472114 0.757656 0.257816
0.535821 0.759457 0.241001
0.597498 0.760555 0.220798
0.658473 0.760861 0.194644
0.718410 0.760739 0.161563
0.778531 0.760281 0.112825
0.842618 0.763546 0.000000
0.882444 0.749935 0.000000
0.912139 0.742763 0.000000
0.939788 0.735348 0.036378
0.964904 0.727840 0.116243
0.987488 0.720272 0.156863
1.000000 0.713008 0.185000
1.000000 0.706111 0.208621
1.000000 0.699794 0.231205
1.000000 0.694301 0.251469
1.000000 0.689723 0.272740
1.000000 0.686275 0.293706
1.000000 0.683864 0.315496
0.000000 0.762600 0.311589
0.000000 0.764981 0.313481
0.000000 0.767453 0.316411
0.000000 0.769528 0.318608
0.000000 0.770871 0.320348
0.000000 0.771267 0.320836
0.000000 0.770993 0.320897
0.000000 0.770718 0.321141
0.000000 0.770687 0.321508
0.092500 0.771023 0.322942
0.214847 0.772702 0.319554
0.304784 0.775357 0.311803
0.377813 0.777676 0.302007
0.443427 0.779721 0.290349
0.505150 0.781338 0.277012
0.565423 0.782406 0.260441
0.624079 0.783108 0.241154
0.682338 0.783444 0.217899
0.740475 0.783627 0.190738
0.798856 0.783688 0.154513
0.859922 0.785885 0.094240
0.902373 0.773465 0.000977
0.930114 0.765743 0.095338
0.955596 0.757687 0.129397
0.978912 0.749416 0.157046
0.999878 0.741482 0.189670
1.000000 0.733974 0.215793
1.000000 0.727077 0.239353
1.000000 0.721065 0.260777
1.000000 0.715877 0.282261
1.000000 0.711727 0.304753
1.000000 0.708492 0.326879
0.000000 0.790158 0.337530
0.000000 0.792386 0.340093
0.000000 0.794736 0.342809
0.000000 0.796750 0.345373
0.000000 0.798123 0.347478
0.000000 0.798489 0.348302
0.000000 0.798337 0.348455
0.000000 0.797971 0.348699
0.000000 0.797757 0.349004
0.123995 0.797757 0.349737
0.199496 0.797940 0.351019
0.288426 0.799893 0.344060
0.359258 0.801633 0.335607
0.422797 0.803311 0.325719
0.482246 0.804623 0.314336
0.539513 0.805570 0.300938
0.595941 0.806119 0.285252
0.651637 0.806363 0.267460
0.707179 0.806485 0.247074
0.762905 0.806485 0.223087
0.818662 0.806271 0.195407
0.875822 0.806912 0.158694
0.919341 0.796963 0.132326
0.946319 0.787350 0.152285
0.969818 0.778683 0.175998
0.991577 0.769955 0.195132
1.000000 0.761685 0.221866
1.000000 0.754238 0.246494
1.000000 0.747585 0.270268
1.000000 0.741939 0.293156
1.000000 0.737240 0.315923
1.000000 0.733455 0.338598
0.000000 0.816098 0.367102
0.000000 0.817838 0.369665
0.000000 0.819730 0.372442
0.000000 0.821225 0.375158
0.000000 0.822263 0.377111
0.000000 0.822599 0.377630
0.000000 0.822507 0.377874
0.000000 0.822110 0.378241
0.092012 0.821988 0.378637
0.172122 0.821836 0.379522
0.224643 0.821836 0.380377
0.284245 0.822599 0.378363
0.349645 0.824002 0.370916
0.408881 0.825254 0.362524
0.465461 0.826413 0.352819
0.519677 0.827451 0.341772
0.573388 0.828458 0.329870
0.626856 0.829435 0.316472
0.680385 0.830442 0.302403
0.734279 0.831449 0.286687
0.788235 0.832364 0.269291
0.842741 0.832975 0.249668
0.896910 0.833127 0.226108
0.941039 0.825376 0.210422
0.967346 0.813962 0.222202
0.989075 0.804959 0.241642
1.000000 0.796262 0.259953
1.000000 0.788235 0.282109
1.000000 0.781277 0.307836
1.000000 0.775235 0.332219
1.000000 0.770230 0.355749
1.000000 0.766262 0.379767
0.000000 0.849119 0.418036
0.000000 0.849760 0.419287
0.000000 0.850187 0.420233
0.000000 0.850370 0.420996
0.000000 0.850309 0.421118
0.078889 0.849912 0.420569
0.132509 0.849454 0.420294
0.172732 0.849027 0.420233
0.208927 0.848722 0.420325
0.244663 0.848661 0.421393
0.278782 0.848661 0.422583
0.311772 0.848722 0.423987
0.363928 0.849668 0.417884
0.415259 0.850584 0.410529
0.464637 0.851347 0.402045
0.513298 0.852018 0.392828
0.561883 0.852506 0.381994
0.610498 0.852903 0.370245
0.659602 0.853239 0.357641
0.709071 0.853483 0.343816
0.759152 0.853544 0.328618
0.809476 0.853422 0.312108
0.860044 0.852964 0.293492
0.910826 0.852049 0.272068
0.953948 0.845182 0.255406
0.979553 0.832059 0.261112
0.999786 0.823117 0.279728
1.000000 0.814633 0.297795
1.000000 0.806912 0.317937
1.000000 0.800381 0.343755
1.000000 0.794827 0.368963
1.000000 0.790249 0.393133
0.171664 0.868345 0.453315
0.177096 0.868803 0.454627
0.184207 0.869169 0.455543
0.193545 0.869322 0.456001
0.204959 0.869291 0.456214
0.218906 0.869078 0.456184
0.234531 0.868711 0.455756
0.253666 0.868376 0.455879
0.275273 0.868132 0.455940
0.298833 0.868070 0.456977
0.323613 0.868009 0.458228
0.349218 0.868040 0.459693
0.382361 0.868406 0.458076
0.425299 0.869261 0.451789
0.468238 0.870024 0.445014
0.511192 0.870726 0.437018
0.554650 0.871366 0.428412
0.598840 0.871885 0.418647
0.643519 0.872313 0.408179
0.688991 0.872648 0.396674
0.735042 0.872831 0.384955
0.781674 0.872862 0.371527
0.829068 0.872557 0.357031
0.876585 0.871916 0.341070
0.921141 0.867094 0.308446
0.963897 0.861814 0.292760
0.989380 0.847623 0.294194
1.000000 0.838987 0.312718
1.000000 0.830930 0.331304
1.000000 0.823545 0.350591
1.000000 0.817563 0.376165
1.000000 0.812650 0.402899
0.302525 0.889647 0.502861
0.307164 0.890257 0.504753
0.310430 0.890471 0.505486
0.313085 0.890318 0.505180
0.315892 0.889860 0.504051
0.319951 0.889128 0.502586
0.325200 0.888243 0.500542
0.332494 0.887388 0.498512
0.343328 0.886503 0.496986
0.356420 0.885801 0.495979
0.371588 0.885100 0.495216
0.389441 0.884611 0.495216
0.408240 0.884062 0.495277
0.440070 0.884184 0.489113
0.474525 0.884337 0.481178
0.510033 0.884428 0.472419
0.547478 0.884550 0.463386
0.586419 0.884825 0.453956
0.626825 0.885252 0.444648
0.668757 0.885740 0.435706
0.711299 0.886229 0.425635
0.754635 0.886442 0.414862
0.798276 0.886229 0.401984
0.842252 0.885527 0.387488
0.886809 0.884276 0.370336
0.931762 0.882506 0.351049
0.974121 0.878599 0.333654
0.999023 0.863188 0.330694
1.000000 0.854582 0.347478
1.000000 0.846738 0.365789
1.000000 0.839780 0.385351
1.000000 0.834043 0.409430
0.362737 0.902098 0.534112
0.366522 0.902586 0.535973
0.369757 0.902892 0.537102
0.372747 0.902922 0.537530
0.376013 0.902770 0.537377
0.380285 0.902495 0.536828
0.386236 0.902220 0.536675
0.393652 0.901946 0.536156
0.403235 0.901732 0.536339
0.414740 0.901518 0.536736
0.427771 0.901305 0.537438
0.441932 0.901061 0.538079
0.457008 0.900755 0.538872
0.476051 0.900572 0.536645
0.502098 0.900755 0.529503
0.530114 0.900816 0.521599
0.560235 0.900908 0.513115
0.592432 0.901061 0.504509
0.626825 0.901396 0.496315
0.662928 0.901823 0.487922
0.700557 0.902190 0.479561
0.739101 0.902495 0.470222
0.778500 0.902495 0.459846
0.818631 0.902159 0.448096
0.859342 0.901396 0.434638
0.900877 0.900237 0.419226
0.943023 0.898711 0.402319
0.984924 0.896605 0.386725
1.000000 0.880705 0.380591
1.000000 0.872618 0.398566
1.000000 0.865324 0.417700
1.000000 0.859068 0.438514
0.435615 0.916014 0.576532
0.437201 0.916228 0.577295
0.438727 0.916320 0.577813
0.440345 0.916289 0.577813
0.442206 0.916106 0.577447
0.444984 0.915862 0.576989
0.448615 0.915587 0.576349
0.453529 0.915282 0.575891
0.460090 0.914977 0.575586
0.468391 0.914763 0.575799
0.477974 0.914519 0.576135
0.489143 0.914305 0.576898
0.500816 0.914061 0.577417
0.513237 0.913725 0.577844
0.532311 0.913787 0.572808
0.553857 0.913939 0.565606
0.577813 0.914031 0.558282
0.603967 0.914244 0.550256
0.632471 0.914549 0.542840
0.663172 0.914946 0.535668
0.695491 0.915404 0.528313
0.729213 0.915679 0.520287
0.763699 0.915770 0.511070
0.799313 0.915557 0.500359
0.835813 0.914977 0.488350
0.873136 0.914061 0.474861
0.911742 0.912810 0.459419
0.951232 0.911223 0.443000
0.992493 0.910826 0.427680
1.000000 0.895720 0.421729
1.000000 0.887297 0.438300
1.000000 0.880858 0.459724
0.491279 0.927245 0.612207
0.492531 0.927398 0.612909
0.494209 0.927489 0.613581
0.495979 0.927520 0.613977
0.498421 0.927581 0.614374
0.502312 0.927642 0.615167
0.508507 0.927947 0.617090
0.516625 0.928313 0.619684
0.526268 0.928801 0.622919
0.537255 0.929381 0.626703
0.549432 0.929961 0.630823
0.561822 0.930480 0.634791
0.574243 0.930938 0.638422
0.586297 0.931182 0.641444
0.599420 0.931426 0.642145
0.615198 0.931823 0.637598
0.632136 0.932128 0.632258
0.650935 0.932433 0.626368
0.671962 0.932799 0.620783
0.695064 0.933227 0.615167
0.719722 0.933654 0.609400
0.746029 0.933989 0.603265
0.773220 0.934112 0.595727
0.801694 0.934020 0.587335
0.831388 0.933623 0.577478
0.862333 0.932982 0.566186
0.894713 0.932067 0.553491
0.928405 0.930877 0.539666
0.963684 0.929503 0.524987
1.000000 0.930083 0.511620
1.000000 0.917144 0.507836
1.000000 0.908446 0.521294
0.576684 0.941985 0.670314
0.577020 0.941985 0.670497
0.577111 0.941924 0.670344
0.577508 0.941863 0.670069
0.578332 0.941741 0.669703
0.579675 0.941619 0.669398
0.582300 0.941497 0.669612
0.585565 0.941466 0.669825
0.590051 0.941436 0.670466
0.595789 0.941436 0.671595
0.602197 0.941436 0.672786
0.609461 0.941497 0.674189
0.617487 0.941497 0.675776
0.625757 0.941466 0.677180
