20 Preset/Japan Style/【3】LUT video cho PR-AE-FCPX/LUT VIDEO (2)/Japan Style LUT (37).cube
# Created by Adobe Lightroom plugin Export LUT (1.24.0)
# www.johnrellis.com/lightroom/exportlut.htm
# Preset: 37日系胶片（素材江湖）
# Color profile: C:\Program Files (x86)\Common Files\Adobe\Color\Profiles\Recommended\VideoHD.icc
LUT_3D_SIZE 5
DOMAIN_MIN 0.000000 0.000000 0.000000
DOMAIN_MAX 0.903226 0.903226 0.903226
0.000000 0.072663 0.108888
0.092744 0.083955 0.115206
0.282902 0.048402 0.122683
0.602899 0.000000 0.117067
0.921599 0.000000 0.090852
0.000000 0.146517 0.147616
0.056703 0.154757 0.133089
0.334234 0.144961 0.112154
0.662440 0.000000 0.088777
0.943816 0.000000 0.000000
0.000000 0.443671 0.252262
0.000000 0.440894 0.221408
0.412848 0.485115 0.143465
0.785061 0.443122 0.000000
0.982208 0.416571 0.000000
0.000000 0.759518 0.491310
0.000000 0.760220 0.462348
0.422431 0.751095 0.389868
0.760433 0.766629 0.312139
0.982086 0.739498 0.138369
0.634668 0.915526 0.783780
0.651545 0.915251 0.782498
0.666621 0.910582 0.739467
0.777005 0.910491 0.695155
0.926421 0.921630 0.670771
0.000000 0.089570 0.162692
0.043885 0.092988 0.162753
0.271458 0.087404 0.158022
0.597620 0.000000 0.136202
0.904540 0.000000 0.067659
0.000000 0.145785 0.191714
0.019257 0.155276 0.195529
0.314549 0.150057 0.176242
0.638453 0.000000 0.139803
0.923430 0.000000 0.000000
0.000000 0.426612 0.312383
0.000000 0.432136 0.296880
0.390051 0.458289 0.233005
0.758694 0.414221 0.142489
0.971527 0.405737 0.000000
0.000000 0.754910 0.537987
0.199466 0.755154 0.530297
0.440711 0.749386 0.453742
0.756802 0.762814 0.386236
0.977173 0.735409 0.259190
0.638819 0.914672 0.794736
0.654688 0.914244 0.793179
0.687526 0.914580 0.768307
0.782742 0.912535 0.721736
0.927062 0.924163 0.702785
0.000000 0.113466 0.317845
0.000000 0.121859 0.325536
0.323308 0.108309 0.342412
0.683009 0.000000 0.323644
0.875456 0.000000 0.241398
0.000000 0.182498 0.349889
0.000000 0.186069 0.356695
0.352789 0.195560 0.371496
0.677943 0.000000 0.327764
0.894163 0.000000 0.254124
0.000000 0.415991 0.442267
0.000000 0.423499 0.444831
0.409003 0.454597 0.459663
0.711116 0.413062 0.389380
0.941863 0.387976 0.300237
0.338140 0.744533 0.667872
0.382330 0.741726 0.661067
0.527092 0.742428 0.640101
0.746639 0.754116 0.584283
0.959411 0.717769 0.477638
0.640589 0.910765 0.828275
0.658381 0.910979 0.828305
0.716579 0.911040 0.824277
0.780606 0.909026 0.779141
0.919432 0.920470 0.761257
0.000000 0.168612 0.588281
0.000000 0.176242 0.598840
0.416907 0.204379 0.635401
0.742702 0.131716 0.655238
0.978088 0.210605 0.642145
0.000000 0.228946 0.603571
0.000000 0.238010 0.611933
0.427131 0.279637 0.645045
0.740841 0.270207 0.663355
0.966186 0.303044 0.641840
0.000000 0.406409 0.613245
0.000000 0.409339 0.616327
0.409857 0.466804 0.667659
0.727962 0.523186 0.696284
0.933745 0.484352 0.641627
0.237552 0.707973 0.742611
0.321569 0.708400 0.742031
0.521874 0.716365 0.746304
0.729763 0.737789 0.760403
0.914366 0.684688 0.670832
0.696101 0.908049 0.889982
0.704921 0.908476 0.889494
0.740291 0.911070 0.886992
0.806149 0.912139 0.874846
0.913848 0.918914 0.846403
0.000000 0.295323 0.853605
0.187930 0.303410 0.855467
0.526970 0.350622 0.864927
0.790799 0.484627 0.878019
0.964782 0.460426 0.878386
0.000000 0.342138 0.851286
0.181491 0.351171 0.853483
0.522759 0.399145 0.862699
0.784756 0.523308 0.876127
0.955688 0.508080 0.877745
0.000000 0.489326 0.846220
0.000000 0.494667 0.849149
0.484199 0.526207 0.859648
0.766049 0.626703 0.875517
0.932769 0.642878 0.883879
0.000000 0.686641 0.860899
0.000000 0.681758 0.858610
0.252140 0.662348 0.851438
0.711757 0.724392 0.879820
0.914946 0.791531 0.905089
0.593408 0.887816 0.919615
0.609552 0.887846 0.919493
0.676326 0.890074 0.920806
0.780056 0.894621 0.922698
0.905760 0.909300 0.930144
