20 Preset/Japan Style/【3】LUT video cho PR-AE-FCPX/LUT VIDEO (2)/Japan Style LUT (1).cube
# Created by Adobe Lightroom plugin Export LUT (1.24.0)
# www.johnrellis.com/lightroom/exportlut.htm
# Preset: 01日系清新（素材江湖）
# Color profile: C:\Program Files (x86)\Common Files\Adobe\Color\Profiles\Recommended\VideoHD.icc
LUT_3D_SIZE 32
DOMAIN_MIN 0.0 0.0 0.0
DOMAIN_MAX 1.0 1.0 1.0
0.000000 0.000000 0.000000
0.006928 0.000305 0.000946
0.029450 0.001007 0.004944
0.071778 0.001617 0.010803
0.107790 0.006744 0.020935
0.151614 0.006836 0.036347
0.212558 0.000000 0.046418
0.281376 0.000000 0.054108
0.355108 0.000000 0.061036
0.432319 0.000000 0.062806
0.511620 0.000000 0.061799
0.590417 0.000000 0.056764
0.665797 0.000000 0.051453
0.735500 0.000000 0.044343
0.796933 0.000000 0.038514
0.849241 0.000000 0.034699
0.894072 0.000000 0.038239
0.932799 0.000000 0.048219
0.966766 0.000000 0.066773
0.996551 0.000000 0.089509
1.000000 0.112032 0.109590
1.000000 0.186465 0.128695
1.000000 0.233341 0.148501
1.000000 0.270603 0.168246
1.000000 0.302037 0.189303
1.000000 0.329839 0.209812
1.000000 0.355535 0.232212
1.000000 0.379614 0.255161
1.000000 0.402777 0.279576
1.000000 0.425635 0.304692
1.000000 0.448341 0.331884
1.000000 0.471168 0.360754
0.001923 0.004120 0.003906
0.004211 0.003906 0.002777
0.031861 0.004150 0.002197
0.073915 0.004791 0.009186
0.108431 0.009888 0.019348
0.151858 0.012421 0.032166
0.211276 0.000000 0.044556
0.278904 0.000000 0.052644
0.351965 0.000000 0.058259
0.428260 0.000000 0.059052
0.506798 0.000000 0.058228
0.584955 0.000000 0.052613
0.660060 0.000000 0.048127
0.730007 0.000000 0.040436
0.791867 0.000000 0.036225
0.844968 0.000000 0.031189
0.890288 0.000000 0.031739
0.929503 0.000000 0.041138
0.963714 0.000000 0.060090
0.993744 0.000000 0.085664
1.000000 0.107393 0.104646
1.000000 0.181155 0.125124
1.000000 0.228550 0.143893
1.000000 0.265476 0.163851
1.000000 0.296880 0.184054
1.000000 0.324437 0.204776
1.000000 0.350103 0.226413
1.000000 0.374701 0.249668
1.000000 0.398077 0.273655
1.000000 0.421241 0.299657
1.000000 0.444282 0.327092
1.000000 0.467262 0.355840
0.003357 0.019135 0.018769
0.006348 0.019898 0.019745
0.026154 0.021302 0.011261
0.078035 0.023468 0.005432
0.111788 0.030091 0.010712
0.157351 0.031556 0.023316
0.216342 0.014771 0.035218
0.282444 0.000000 0.042664
0.353948 0.000000 0.047395
0.428870 0.000000 0.049928
0.506310 0.000000 0.046235
0.584009 0.000000 0.041047
0.658228 0.000000 0.033570
0.727443 0.000000 0.023865
0.789364 0.000000 0.014740
0.842283 0.000000 0.010468
0.887785 0.000000 0.008759
0.927153 0.000000 0.016022
0.961639 0.000000 0.033448
0.991821 0.000000 0.064668
1.000000 0.127962 0.096193
1.000000 0.191257 0.116915
1.000000 0.233982 0.136873
1.000000 0.269047 0.157565
1.000000 0.299107 0.177951
1.000000 0.325597 0.199619
1.000000 0.351049 0.221347
1.000000 0.375097 0.244816
1.000000 0.398199 0.269261
1.000000 0.421027 0.295201
1.000000 0.443732 0.323186
1.000000 0.466468 0.351690
0.008118 0.052308 0.048005
0.012085 0.051881 0.048005
0.024170 0.053925 0.046357
0.064637 0.063233 0.031891
0.113130 0.080507 0.017121
0.168399 0.084565 0.006409
0.227756 0.077211 0.014466
0.291661 0.043458 0.021485
0.361852 0.000000 0.025879
0.435279 0.000000 0.025422
0.511040 0.000000 0.021057
0.586175 0.000000 0.012207
0.659724 0.000000 0.001343
0.727413 0.000000 0.000000
0.787961 0.000000 0.000000
0.840208 0.000000 0.000000
0.885039 0.000000 0.000000
0.923980 0.000000 0.000000
0.958282 0.000000 0.000000
0.988769 0.075135 0.013489
1.000000 0.159548 0.060700
1.000000 0.208042 0.097780
1.000000 0.245212 0.121370
1.000000 0.277226 0.144747
1.000000 0.305516 0.167391
1.000000 0.331762 0.189853
1.000000 0.356298 0.213687
1.000000 0.379736 0.238163
1.000000 0.402472 0.264256
1.000000 0.424659 0.291051
1.000000 0.446601 0.318700
1.000000 0.468299 0.347234
0.000000 0.100618 0.080415
0.002319 0.100862 0.080293
0.017517 0.100679 0.080171
0.046540 0.104005 0.072602
0.102510 0.113649 0.049409
0.163729 0.125460 0.022980
0.230381 0.129213 0.004852
0.301884 0.124361 0.000000
0.370459 0.111818 0.000000
0.441962 0.088197 0.000000
0.515190 0.000000 0.000000
0.589075 0.000000 0.000000
0.660243 0.000000 0.000000
0.727047 0.000000 0.000000
0.786740 0.000000 0.000000
0.838315 0.000000 0.000000
0.883238 0.000000 0.000000
0.922210 0.000000 0.000000
0.956481 0.111635 0.000000
0.987823 0.162387 0.000000
1.000000 0.204379 0.000000
1.000000 0.239261 0.041444
1.000000 0.268894 0.097871
1.000000 0.296025 0.127443
1.000000 0.320958 0.153017
1.000000 0.344701 0.178927
1.000000 0.367163 0.203952
1.000000 0.388739 0.229526
1.000000 0.409918 0.256291
1.000000 0.430732 0.283696
1.000000 0.451484 0.312108
1.000000 0.472114 0.340978
0.000000 0.143954 0.096651
0.000000 0.144045 0.096590
0.000000 0.143709 0.096162
0.002960 0.143343 0.094850
0.070954 0.152621 0.084688
0.140658 0.167422 0.048676
0.221378 0.181979 0.005188
0.297093 0.183566 0.000000
0.376715 0.179965 0.000000
0.453315 0.170871 0.000000
0.525719 0.157992 0.000000
0.597925 0.144991 0.000000
0.667292 0.131746 0.000000
0.731991 0.123995 0.000000
0.789731 0.125338 0.000000
0.840238 0.135927 0.000000
0.884031 0.153750 0.000000
0.922545 0.176333 0.000000
0.956359 0.200137 0.000000
0.988312 0.227909 0.000000
1.000000 0.254826 0.000000
1.000000 0.279576 0.000000
1.000000 0.331701 0.088380
1.000000 0.352697 0.127901
1.000000 0.371923 0.159213
1.000000 0.390478 0.187900
1.000000 0.408270 0.215671
1.000000 0.425910 0.243046
1.000000 0.443458 0.269963
1.000000 0.461006 0.297795
1.000000 0.478889 0.326543
1.000000 0.496712 0.355138
0.000000 0.204166 0.115114
0.000000 0.204227 0.115053
0.000000 0.203586 0.114504
0.000000 0.202701 0.113252
0.000000 0.203098 0.109743
0.108278 0.217990 0.091646
0.193942 0.235935 0.031342
0.295750 0.253391 0.000000
0.380255 0.253849 0.000000
0.465339 0.251133 0.000000
0.550561 0.245579 0.000000
0.622858 0.239384 0.000000
0.689570 0.235416 0.000000
0.750881 0.235782 0.000000
0.804685 0.238956 0.000000
0.851713 0.244297 0.000000
0.893217 0.253025 0.000000
0.929870 0.264073 0.000000
0.964324 0.279637 0.000000
0.996429 0.298314 0.000000
1.000000 0.317601 0.000000
1.000000 0.336645 0.000000
1.000000 0.355627 0.000000
1.000000 0.374060 0.047761
1.000000 0.391119 0.121920
1.000000 0.407782 0.160891
1.000000 0.423072 0.193576
1.000000 0.438331 0.223270
1.000000 0.453834 0.252811
1.000000 0.469490 0.282475
1.000000 0.485481 0.311650
1.000000 0.501915 0.341375
0.000000 0.259525 0.135988
0.000000 0.259464 0.136446
0.000000 0.258640 0.135622
0.000000 0.257450 0.134249
0.000000 0.255467 0.132204
0.017853 0.261662 0.122896
0.151644 0.278508 0.099550
0.248173 0.297642 0.020478
0.361944 0.318334 0.000000
0.449042 0.319158 0.000000
0.534905 0.318608 0.000000
0.616968 0.317113 0.000000
0.691035 0.315923 0.000000
0.750088 0.314946 0.000000
0.802396 0.315618 0.000000
0.848081 0.317967 0.000000
0.888731 0.322484 0.000000
0.926360 0.329839 0.000000
0.961517 0.340612 0.000000
0.992309 0.352392 0.000000
1.000000 0.365026 0.000000
1.000000 0.377722 0.000000
1.000000 0.390723 0.000000
1.000000 0.404028 0.000000
1.000000 0.417609 0.013886
1.000000 0.430274 0.119753
1.000000 0.442786 0.163607
1.000000 0.455268 0.199649
1.000000 0.468513 0.233066
1.000000 0.482155 0.264866
1.000000 0.496193 0.296483
1.000000 0.511009 0.327672
0.000000 0.316594 0.162295
0.000000 0.316625 0.162264
0.000000 0.315892 0.161624
0.000000 0.314549 0.160494
0.000000 0.312352 0.158694
0.000000 0.309361 0.155734
0.111696 0.322362 0.140047
0.207889 0.340642 0.112062
0.309300 0.360632 0.025391
0.428717 0.383276 0.000000
0.518669 0.387243 0.000000
0.601587 0.388769 0.000000
0.677913 0.389807 0.000000
0.745785 0.390356 0.000000
0.800992 0.389319 0.000000
0.845548 0.388159 0.000000
0.887022 0.390478 0.000000
0.924865 0.395026 0.000000
0.958221 0.400244 0.000000
0.987945 0.406928 0.000000
1.000000 0.414405 0.000000
1.000000 0.422583 0.000000
1.000000 0.430884 0.000000
1.000000 0.439460 0.000000
1.000000 0.448371 0.000000
1.000000 0.457527 0.000000
1.000000 0.466804 0.119570
1.000000 0.476814 0.169162
1.000000 0.487190 0.208042
1.000000 0.498482 0.244663
1.000000 0.510552 0.278691
1.000000 0.523247 0.312078
0.000000 0.375067 0.191257
0.000000 0.374731 0.191196
0.000000 0.373907 0.190311
0.000000 0.372534 0.189181
0.000000 0.370245 0.187137
0.000000 0.366949 0.184421
0.052186 0.366918 0.178347
0.177157 0.383673 0.159152
0.271061 0.402136 0.129213
0.374334 0.422156 0.049775
0.492866 0.446113 0.000000
0.582300 0.452735 0.000000
0.659358 0.455787 0.000000
0.727932 0.457649 0.000000
0.788571 0.457710 0.000000
0.843076 0.458015 0.000000
0.885618 0.457496 0.000000
0.922179 0.457710 0.000000
0.954742 0.458961 0.000000
0.983825 0.461463 0.000000
1.000000 0.464607 0.000000
1.000000 0.468086 0.000000
1.000000 0.472267 0.000000
1.000000 0.476844 0.000000
1.000000 0.481483 0.000000
1.000000 0.486183 0.000000
1.000000 0.491951 0.000000
1.000000 0.499123 0.116762
1.000000 0.507195 0.172061
1.000000 0.516350 0.216617
1.000000 0.526329 0.255680
1.000000 0.537316 0.292485
0.000000 0.430915 0.221103
0.000000 0.430671 0.221042
0.000000 0.430121 0.220371
0.000000 0.428748 0.218906
0.000000 0.426856 0.217197
0.000000 0.423957 0.214786
0.000000 0.420203 0.211490
0.158663 0.427527 0.200534
0.247349 0.444923 0.179995
0.340276 0.464210 0.148440
0.442603 0.484047 0.088869
0.555840 0.508263 0.000000
0.643397 0.518669 0.000000
0.714260 0.522484 0.000000
0.775753 0.523583 0.000000
0.829526 0.522667 0.000000
0.876829 0.520470 0.000000
0.917937 0.517510 0.000000
0.949554 0.515160 0.000000
0.977966 0.513756 0.000000
1.000000 0.513237 0.000000
1.000000 0.513451 0.000000
1.000000 0.514611 0.000000
1.000000 0.516167 0.000000
1.000000 0.518242 0.000000
1.000000 0.520623 0.000000
1.000000 0.522972 0.000000
1.000000 0.525933 0.000000
1.000000 0.531426 0.122469
1.000000 0.537926 0.182040
1.000000 0.545769 0.228946
1.000000 0.554620 0.271183
0.000000 0.488106 0.253513
0.000000 0.488045 0.253727
0.000000 0.487495 0.252781
0.000000 0.486397 0.252049
0.000000 0.484565 0.249882
0.000000 0.481880 0.247715
0.000000 0.478645 0.243992
0.155093 0.474311 0.239994
0.236667 0.489082 0.224918
0.320714 0.507134 0.203220
0.414282 0.527550 0.172122
0.514244 0.548394 0.120089
0.646845 0.596979 0.000000
0.726986 0.606531 0.000000
0.786099 0.606165 0.000000
0.837980 0.603754 0.000000
0.883299 0.599634 0.000000
0.923369 0.594873 0.000000
0.958770 0.589319 0.000000
0.988312 0.583795 0.000000
1.000000 0.579126 0.000000
1.000000 0.575311 0.000000
1.000000 0.572351 0.000000
1.000000 0.570428 0.000000
1.000000 0.568933 0.000000
1.000000 0.567803 0.000000
1.000000 0.566796 0.000000
1.000000 0.566155 0.000000
1.000000 0.565820 0.026337
1.000000 0.568841 0.150759
1.000000 0.573358 0.207797
1.000000 0.579431 0.255192
0.000000 0.553643 0.295354
0.000000 0.553460 0.295140
0.000000 0.552453 0.294560
0.000000 0.550866 0.292760
0.000000 0.549096 0.291203
0.000000 0.546654 0.288823
0.000000 0.543938 0.285649
0.174380 0.540337 0.281773
0.250065 0.542626 0.275395
0.325872 0.560479 0.260014
0.410620 0.580529 0.239078
0.501701 0.601648 0.211124
0.595209 0.622492 0.168338
0.690608 0.644343 0.074464
0.765866 0.654231 0.000000
0.818204 0.652155 0.000000
0.863981 0.647974 0.000000
0.904356 0.642451 0.000000
0.940154 0.636255 0.000000
0.971893 0.629603 0.000000
1.000000 0.622339 0.000000
1.000000 0.616114 0.000000
1.000000 0.611048 0.000000
1.000000 0.606989 0.000000
1.000000 0.603601 0.000000
1.000000 0.600824 0.000000
1.000000 0.598505 0.000000
1.000000 0.596490 0.000000
1.000000 0.594903 0.040833
1.000000 0.593408 0.076600
1.000000 0.595178 0.159731
1.000000 0.599145 0.220645
0.000000 0.610224 0.336736
0.000000 0.609888 0.336431
0.000000 0.608850 0.335454
0.000000 0.607111 0.333837
0.000000 0.604669 0.331456
0.000000 0.601556 0.328435
0.083650 0.598047 0.324712
0.195834 0.594018 0.320378
0.264195 0.589899 0.315923
0.327947 0.598657 0.306065
0.400214 0.615808 0.291203
0.479103 0.633936 0.272465
0.561761 0.652125 0.246860
0.645228 0.669673 0.211948
0.727901 0.686000 0.156680
0.798917 0.695644 0.099611
0.844694 0.691524 0.033539
0.885283 0.686091 0.000000
0.921630 0.679774 0.000000
0.954009 0.672663 0.000000
0.983062 0.665156 0.000000
1.000000 0.657649 0.000000
1.000000 0.650263 0.000000
1.000000 0.644343 0.000000
1.000000 0.639368 0.000000
1.000000 0.635096 0.000000
1.000000 0.631250 0.000000
1.000000 0.627924 0.012024
1.000000 0.624903 0.068177
1.000000 0.622278 0.093324
1.000000 0.619745 0.102876
1.000000 0.620722 0.173739
0.000000 0.657618 0.377813
0.000000 0.657404 0.377508
0.000000 0.656397 0.376287
0.000000 0.654566 0.374273
0.000000 0.652033 0.371649
0.000000 0.648737 0.368017
0.157229 0.645228 0.364019
0.228153 0.641444 0.359838
0.285924 0.637415 0.355047
0.338872 0.633600 0.350347
0.399207 0.648127 0.339666
0.466560 0.663691 0.325933
0.537957 0.679591 0.308598
0.612085 0.695003 0.286168
0.686915 0.709499 0.255528
0.760830 0.722652 0.212985
0.826596 0.731106 0.174716
0.867277 0.725948 0.158053
0.903868 0.719661 0.138277
0.936736 0.712581 0.115938
0.966308 0.705043 0.086183
0.993469 0.697505 0.000000
1.000000 0.689845 0.000000
1.000000 0.682216 0.000000
1.000000 0.674891 0.000000
1.000000 0.669184 0.000000
1.000000 0.664057 0.000000
1.000000 0.659663 0.044495
1.000000 0.655726 0.094820
1.000000 0.652216 0.112734
1.000000 0.648951 0.122774
1.000000 0.645563 0.122469
0.000000 0.696254 0.416632
0.000000 0.696223 0.416693
0.000000 0.695613 0.415839
0.000000 0.694453 0.414435
0.103578 0.692683 0.412207
0.169833 0.690333 0.409491
0.223148 0.687831 0.406256
0.272160 0.684962 0.402625
0.319036 0.681727 0.398566
0.363500 0.678279 0.394018
0.409491 0.680140 0.387335
0.464454 0.692744 0.376745
0.524346 0.705623 0.363195
0.587915 0.718227 0.346502
0.653529 0.730343 0.324529
0.720211 0.741817 0.297368
0.787381 0.752712 0.260319
0.848508 0.760403 0.229923
0.885801 0.754971 0.217136
0.919219 0.748318 0.205081
0.949523 0.741360 0.191806
0.977386 0.734157 0.177005
1.000000 0.726864 0.159915
1.000000 0.719387 0.137667
1.000000 0.711757 0.106233
1.000000 0.704036 0.012848
1.000000 0.697353 0.024811
1.000000 0.691737 0.096162
1.000000 0.686702 0.118593
1.000000 0.682094 0.132326
1.000000 0.677638 0.140566
1.000000 0.673182 0.140017
0.160128 0.729213 0.454444
0.162661 0.729091 0.454200
0.172488 0.728603 0.453498
0.190555 0.727687 0.452430
0.215671 0.726253 0.450416
0.244724 0.724575 0.447974
0.277989 0.722408 0.445167
0.313451 0.719844 0.441749
0.349584 0.717037 0.437903
0.386297 0.713832 0.433509
0.423438 0.710384 0.428779
0.466896 0.717037 0.421088
0.517144 0.728267 0.410834
0.571710 0.739376 0.398108
0.629328 0.750210 0.382269
0.688991 0.760555 0.362371
0.749569 0.770352 0.337835
0.810788 0.779690 0.306676
0.867338 0.786435 0.281315
0.902861 0.781247 0.269841
0.933562 0.774838 0.259586
0.961883 0.767941 0.249271
0.987945 0.761013 0.237766
1.000000 0.753780 0.223941
1.000000 0.746426 0.208743
1.000000 0.738918 0.189639
1.000000 0.731197 0.163088
1.000000 0.723293 0.126986
1.000000 0.717220 0.142184
1.000000 0.711727 0.154238
1.000000 0.706447 0.160769
1.000000 0.701167 0.161044
0.263615 0.759609 0.493202
0.264622 0.759701 0.493416
0.305699 0.772000 0.510796
0.313329 0.771298 0.509880
0.324926 0.770138 0.508080
0.340246 0.768521 0.505638
0.359808 0.766537 0.502831
0.382452 0.764187 0.499214
0.408087 0.761685 0.495552
0.435615 0.758816 0.491035
0.464698 0.755520 0.486122
0.494942 0.752773 0.480415
0.534508 0.761807 0.472511
0.578790 0.770748 0.462074
0.626459 0.779416 0.449531
0.676967 0.787747 0.434211
0.729641 0.795560 0.415015
0.783474 0.802945 0.392248
0.838041 0.809964 0.365057
0.889281 0.815000 0.342046
0.922576 0.809659 0.329778
0.950317 0.802823 0.320287
0.976165 0.795712 0.309819
1.000000 0.788388 0.298772
1.000000 0.780697 0.285557
1.000000 0.772854 0.269841
1.000000 0.764828 0.251408
1.000000 0.756741 0.229099
1.000000 0.748531 0.201663
1.000000 0.740749 0.176303
1.000000 0.734676 0.182315
1.000000 0.728573 0.182162
0.345586 0.789639 0.536156
0.348943 0.790677 0.537530
0.355169 0.791501 0.539086
0.362921 0.791867 0.539574
0.373327 0.791684 0.539300
0.385290 0.790707 0.537591
0.400061 0.789090 0.535180
0.417121 0.787045 0.531945
0.437079 0.784787 0.528313
0.459419 0.782223 0.524132
0.483284 0.779446 0.519646
0.508629 0.776272 0.514641
0.537713 0.777554 0.508019
0.574487 0.785580 0.500175
0.614984 0.793515 0.490333
0.658930 0.801205 0.478492
0.705531 0.808621 0.464363
0.754116 0.815702 0.447425
0.804074 0.822568 0.427436
0.854704 0.829068 0.403845
0.902983 0.834012 0.383581
0.935515 0.829709 0.372503
0.961547 0.823209 0.363561
0.985748 0.816373 0.353857
1.000000 0.809140 0.342290
1.000000 0.801724 0.329351
1.000000 0.794095 0.314519
1.000000 0.786374 0.297551
1.000000 0.778531 0.277317
1.000000 0.770565 0.252293
1.000000 0.762264 0.220188
1.000000 0.754696 0.200473
0.397650 0.810941 0.567773
0.400702 0.811856 0.569238
0.405493 0.812680 0.570489
0.411841 0.813169 0.571435
0.419898 0.813077 0.571344
0.429297 0.812284 0.570031
0.440284 0.811002 0.567895
0.453803 0.809262 0.565118
0.469490 0.807340 0.561975
0.487221 0.805081 0.558160
0.506920 0.802609 0.554040
0.528099 0.799893 0.549584
0.550103 0.796689 0.544030
0.579339 0.801602 0.537896
0.613214 0.808682 0.530297
0.650538 0.815702 0.521172
0.690791 0.822477 0.510002
0.733425 0.829007 0.496590
0.778103 0.835325 0.481453
0.824033 0.841428 0.463447
0.870878 0.847196 0.442420
0.916167 0.851926 0.423987
0.947753 0.848203 0.413001
0.972045 0.841978 0.404791
0.994781 0.835325 0.394965
1.000000 0.828367 0.383673
1.000000 0.821164 0.371160
1.000000 0.813809 0.356451
1.000000 0.806424 0.339910
1.000000 0.798856 0.320531
1.000000 0.790951 0.296880
1.000000 0.782559 0.265354
0.444404 0.831022 0.598718
0.446906 0.831785 0.600031
0.450324 0.832395 0.600946
0.455390 0.832761 0.601678
0.461707 0.832731 0.601648
0.469062 0.832090 0.600549
0.477668 0.831022 0.598749
0.488441 0.829618 0.596429
0.501061 0.828031 0.593683
0.515587 0.826139 0.590448
0.531945 0.824033 0.586877
0.549645 0.821653 0.582879
0.568353 0.819059 0.578210
0.589136 0.817350 0.572992
0.617548 0.823728 0.567224
0.649012 0.830137 0.560174
0.683803 0.836545 0.552148
0.721340 0.842863 0.542504
0.760922 0.849119 0.531823
0.802335 0.855253 0.519463
0.845090 0.861173 0.504814
0.888579 0.866758 0.487831
0.931151 0.871519 0.471412
0.961639 0.868315 0.461646
0.984405 0.862547 0.454536
1.000000 0.856321 0.445716
1.000000 0.849760 0.435431
1.000000 0.842954 0.423590
1.000000 0.836088 0.410742
1.000000 0.828977 0.395331
1.000000 0.821500 0.376135
1.000000 0.813474 0.352361
0.498573 0.854185 0.636530
0.499550 0.854459 0.636957
0.501213 0.854551 0.637110
0.503838 0.854337 0.636805
0.507683 0.853880 0.635950
0.512688 0.853086 0.634607
0.519249 0.852049 0.632837
0.527337 0.850828 0.630640
0.537407 0.849424 0.628138
0.549126 0.847959 0.625513
0.562524 0.846250 0.622553
0.577264 0.844327 0.619196
0.592950 0.842161 0.615229
0.609766 0.839597 0.610590
0.630457 0.841032 0.605768
0.656580 0.846616 0.600153
0.685481 0.852140 0.593591
0.717128 0.857603 0.586206
0.751034 0.863035 0.577386
0.786984 0.868315 0.567285
0.824582 0.873442 0.555596
0.863371 0.878325 0.542077
0.903075 0.882872 0.525872
0.942870 0.887022 0.509575
0.971954 0.883848 0.499306
0.993317 0.878233 0.491737
1.000000 0.872313 0.483223
1.000000 0.866178 0.473426
1.000000 0.859800 0.462257
1.000000 0.853178 0.449195
1.000000 0.846281 0.433722
1.000000 0.838804 0.414282
0.535882 0.870878 0.664149
0.536767 0.871061 0.664546
0.538262 0.871122 0.664668
0.540398 0.871000 0.664485
0.543542 0.870603 0.663813
0.547570 0.870024 0.662715
0.552880 0.869169 0.661158
0.559533 0.868193 0.659358
0.567712 0.867063 0.657282
0.577508 0.865812 0.654963
0.588556 0.864439 0.652491
0.600977 0.862852 0.649653
0.614343 0.861082 0.646235
0.628901 0.859068 0.642573
0.644312 0.856840 0.638331
0.665461 0.860777 0.633967
0.689998 0.865843 0.629084
0.716854 0.870848 0.623163
0.746029 0.875822 0.616571
0.777340 0.880705 0.608667
0.810361 0.885435 0.599878
0.844846 0.890013 0.589502
0.880644 0.894316 0.577234
0.917205 0.898314 0.562768
0.953216 0.900542 0.541436
0.981140 0.897429 0.531090
1.000000 0.892180 0.524224
1.000000 0.886687 0.516411
1.000000 0.880919 0.507256
1.000000 0.874968 0.496773
1.000000 0.868681 0.484413
1.000000 0.861997 0.468757
0.577111 0.888609 0.695216
0.578302 0.888884 0.695827
0.579370 0.888975 0.695918
0.580682 0.888701 0.695369
0.582422 0.888151 0.694331
0.585016 0.887388 0.692836
0.588312 0.886381 0.690883
0.592889 0.885222 0.688655
0.598688 0.883970 0.686275
0.605921 0.882628 0.683711
0.614343 0.881102 0.680781
0.624170 0.879576 0.677790
0.634974 0.877836 0.674403
0.646876 0.875914 0.670680
0.659724 0.873747 0.666377
0.674403 0.872862 0.662043
0.694575 0.877104 0.657313
0.717281 0.881468 0.652369
0.742397 0.885985 0.646876
0.769680 0.890562 0.640803
0.798856 0.895079 0.633906
0.829526 0.899382 0.625940
0.861448 0.903410 0.616052
0.894408 0.907073 0.604425
0.928283 0.910369 0.590173
0.963928 0.914122 0.574395
0.989685 0.910735 0.564050
1.000000 0.905760 0.556451
1.000000 0.900481 0.548791
1.000000 0.894987 0.540032
1.000000 0.889311 0.530205
1.000000 0.882994 0.516655
0.606439 0.901701 0.717952
0.607446 0.901976 0.718532
0.608545 0.902068 0.718776
0.609949 0.901976 0.718563
0.611810 0.901640 0.717922
0.614282 0.901183 0.716976
0.617670 0.900603 0.715816
0.622065 0.899901 0.714412
0.627527 0.899138 0.712917
0.634058 0.898283 0.711208
0.641505 0.897215 0.709071
0.650080 0.896086 0.706905
0.659419 0.894804 0.704219
0.669520 0.893278 0.701106
0.680385 0.891539 0.697536
0.692103 0.889616 0.693629
0.707179 0.890898 0.689631
0.725948 0.894743 0.685328
0.747005 0.898711 0.680751
0.770199 0.902800 0.675837
0.795346 0.906859 0.670192
0.821988 0.910826 0.663905
0.850095 0.914611 0.656367
0.879393 0.918090 0.647333
0.909819 0.921324 0.636683
0.941161 0.924254 0.624048
0.974334 0.927428 0.609216
0.998932 0.924559 0.599969
1.000000 0.920073 0.593011
1.000000 0.915190 0.586481
1.000000 0.909667 0.577386
1.000000 0.903624 0.565545
0.639216 0.915740 0.743404
0.639734 0.915862 0.743709
0.640375 0.915892 0.743709
0.641474 0.915740 0.743435
0.642847 0.915465 0.742855
0.644892 0.915068 0.742061
0.647456 0.914549 0.740902
0.651026 0.913939 0.739742
0.655421 0.913268 0.738308
0.660761 0.912535 0.736721
0.667048 0.911681 0.735012
0.674189 0.910765 0.733089
0.682124 0.909758 0.730892
0.690791 0.908537 0.728328
0.700160 0.907134 0.725399
0.710201 0.905577 0.722042
0.721187 0.903960 0.718563
0.736538 0.907012 0.714961
0.754177 0.910582 0.711147
0.773831 0.914214 0.707057
0.795285 0.917906 0.702510
0.818387 0.921538 0.697322
0.842771 0.924987 0.691249
0.868528 0.928252 0.683955
0.895506 0.931212 0.675288
0.923522 0.933989 0.665095
0.952758 0.936492 0.653101
0.983154 0.938872 0.639368
1.000000 0.936614 0.630213
1.000000 0.932097 0.621973
1.000000 0.927001 0.614252
1.000000 0.921477 0.604547
0.668452 0.928313 0.766354
0.668788 0.928405 0.766506
0.669459 0.928435 0.766567
0.670497 0.928374 0.766445
0.671962 0.928252 0.766232
0.674159 0.928130 0.765896
0.677424 0.928069 0.765805
0.681514 0.928008 0.765743
0.686519 0.927977 0.765652
0.692378 0.927947 0.765621
0.699001 0.927855 0.765408
0.706172 0.927672 0.765011
0.713924 0.927337 0.764309
0.722011 0.926818 0.763119
0.730556 0.926116 0.761563
0.739284 0.925109 0.759304
0.748684 0.924010 0.756832
0.759548 0.924071 0.754086
0.773800 0.927153 0.751125
0.789761 0.930358 0.747951
0.807340 0.933562 0.744381
0.826413 0.936736 0.740414
0.846799 0.939757 0.735561
0.868498 0.942626 0.729915
0.891386 0.945281 0.723201
0.915404 0.947662 0.714992
0.940490 0.949737 0.705104
0.966827 0.951568 0.693660
0.994385 0.953155 0.680232
1.000000 0.950652 0.670008
1.000000 0.945983 0.661494
1.000000 0.940734 0.653285
0.707118 0.943664 0.796017
0.707149 0.943664 0.795956
0.707424 0.943603 0.795834
0.707973 0.943481 0.795560
0.708949 0.943297 0.795163
0.710353 0.943053 0.794614
0.712276 0.942840 0.794064
0.714900 0.942565 0.793454
0.718227 0.942290 0.792844
0.722225 0.941985 0.792111
0.726925 0.941619 0.791318
0.732265 0.941253 0.790463
0.738216 0.940826 0.789395
0.744717 0.940276 0.788144
