20 Preset/Japan Style/【3】LUT video cho PR-AE-FCPX/LUT VIDEO (2)/Japan Style LUT (17).cube
# Created by Adobe Lightroom plugin Export LUT (1.24.0)
# www.johnrellis.com/lightroom/exportlut.htm
# Preset: 17日系窗户（素材江湖）
# Color profile: C:\Program Files (x86)\Common Files\Adobe\Color\Profiles\Recommended\VideoHD.icc
LUT_3D_SIZE 8
DOMAIN_MIN 0.000000 0.000000 0.000000
DOMAIN_MAX 0.903226 0.903226 0.903226
0.000000 0.011994 0.014374
0.280522 0.045716 0.098665
0.869139 0.278233 0.297642
0.982055 0.524651 0.513420
1.000000 0.650477 0.637812
0.998138 0.717220 0.708309
0.994446 0.750515 0.745876
0.989715 0.772427 0.772580
0.000000 0.380591 0.275700
0.225345 0.348669 0.000000
0.899504 0.393439 0.134371
0.992065 0.532341 0.452155
1.000000 0.646113 0.608057
1.000000 0.711727 0.691554
0.996735 0.745541 0.734768
0.991424 0.769314 0.766018
0.000000 0.785153 0.685328
0.000000 0.778012 0.685908
0.647303 0.724697 0.293187
1.000000 0.685634 0.290837
1.000000 0.687373 0.523125
1.000000 0.725399 0.656458
1.000000 0.753872 0.720638
0.994537 0.772976 0.757534
0.591455 0.862608 0.818967
0.625116 0.859586 0.820493
0.651179 0.858061 0.818784
0.818021 0.831876 0.617365
0.975341 0.801602 0.617212
1.000000 0.758480 0.564599
1.000000 0.766323 0.677424
1.000000 0.777066 0.732021
0.756283 0.879606 0.861631
0.772793 0.877867 0.863279
0.781186 0.877104 0.862882
0.769436 0.877409 0.840879
0.867796 0.860929 0.726650
0.960754 0.834257 0.709346
1.000000 0.803037 0.656184
1.000000 0.787625 0.684047
0.828458 0.884977 0.880766
0.837491 0.884459 0.882322
0.844724 0.883726 0.882933
0.847532 0.883360 0.882353
0.824399 0.884459 0.854093
0.891081 0.874632 0.792752
0.953124 0.854459 0.770382
0.987304 0.828061 0.713863
0.868437 0.888212 0.892393
0.871672 0.887938 0.892943
0.878019 0.887297 0.893858
0.878630 0.887144 0.893462
0.878782 0.886870 0.892699
0.859983 0.888182 0.867979
0.904417 0.882414 0.833188
0.948974 0.866270 0.805020
0.892576 0.890288 0.899840
0.893919 0.890166 0.900053
0.898955 0.889738 0.901030
0.900298 0.889616 0.901122
0.898192 0.889372 0.900114
0.896818 0.889433 0.898131
0.888273 0.890349 0.882628
0.915251 0.887449 0.858610
0.000000 0.085939 0.227695
0.254826 0.024414 0.194064
0.831510 0.320226 0.322057
0.985595 0.514214 0.444984
1.000000 0.640040 0.602655
1.000000 0.707393 0.687373
0.996948 0.742306 0.731838
0.991669 0.766720 0.763912
0.000000 0.344915 0.354894
0.277012 0.346502 0.311101
0.831205 0.475502 0.376806
0.990967 0.549218 0.419409
1.000000 0.644770 0.581720
1.000000 0.707332 0.676448
0.998566 0.740719 0.724514
0.993042 0.764797 0.758602
0.000000 0.768704 0.685237
0.370184 0.754269 0.695369
0.651820 0.714046 0.468574
0.964172 0.719814 0.525383
1.000000 0.691920 0.521141
1.000000 0.719234 0.637598
1.000000 0.747036 0.706966
0.996155 0.768124 0.749294
0.577600 0.856626 0.812680
0.628290 0.852140 0.815763
0.663783 0.850492 0.815946
0.804074 0.821866 0.639063
0.961913 0.801968 0.652338
1.000000 0.769253 0.618616
1.000000 0.759884 0.660883
1.000000 0.772946 0.723659
0.752468 0.878660 0.860472
0.767819 0.876890 0.861814
0.783963 0.875059 0.862272
0.774350 0.874815 0.843412
0.863584 0.857664 0.731502
0.955688 0.834318 0.722286
0.992737 0.808957 0.688075
1.000000 0.785702 0.678004
0.824155 0.884520 0.879606
0.830961 0.883848 0.880522
0.842588 0.882719 0.881804
0.846464 0.882475 0.881529
0.826017 0.883360 0.855344
0.890196 0.873716 0.796902
0.950439 0.854948 0.778378
0.982422 0.831083 0.731136
0.865110 0.888029 0.891508
0.867613 0.887694 0.891814
0.875975 0.886809 0.893065
0.877043 0.886717 0.892790
0.878264 0.886503 0.892332
0.859556 0.887755 0.868009
0.903593 0.881743 0.832853
0.947967 0.865904 0.806363
0.890440 0.890288 0.899290
0.892149 0.890135 0.899626
0.897459 0.889677 0.900603
0.899626 0.889494 0.900877
0.899931 0.889403 0.900633
0.898131 0.889372 0.898711
0.888945 0.890227 0.883299
0.915282 0.887358 0.860014
0.000000 0.175143 0.582116
0.220401 0.174929 0.573907
0.710292 0.279301 0.546075
0.889830 0.615839 0.656977
0.959747 0.710048 0.707271
0.992950 0.729458 0.705959
0.999237 0.745998 0.725368
0.992828 0.768795 0.761379
0.000000 0.351263 0.595850
0.258244 0.388464 0.607446
0.692226 0.472816 0.594293
0.859953 0.675380 0.695033
0.955505 0.722408 0.713069
0.989288 0.736690 0.709926
1.000000 0.744747 0.718379
0.993988 0.767453 0.756832
0.000000 0.733974 0.718563
0.310552 0.734249 0.716457
0.663569 0.702388 0.677699
0.882444 0.755734 0.730373
0.948455 0.770260 0.740841
0.980011 0.765866 0.728328
1.000000 0.750454 0.700618
0.997101 0.769345 0.746059
0.591058 0.855802 0.818570
0.639063 0.851835 0.821469
0.740047 0.841184 0.827878
0.812955 0.820951 0.739376
0.934234 0.824521 0.773831
0.963653 0.810788 0.764706
0.989105 0.788571 0.730617
1.000000 0.775051 0.722591
0.758480 0.877501 0.862028
0.772915 0.876005 0.863371
0.815427 0.871336 0.867674
0.823941 0.871183 0.865415
0.867979 0.857633 0.786099
0.939055 0.845212 0.791867
0.966003 0.832029 0.781491
0.997925 0.798245 0.715297
0.827207 0.884062 0.880430
0.833555 0.883482 0.881254
0.854154 0.881285 0.884001
0.859586 0.880949 0.884184
0.848661 0.881071 0.868315
0.891630 0.872892 0.822782
0.940276 0.860349 0.816464
0.964202 0.844999 0.794095
0.866606 0.888060 0.892088
0.869047 0.887755 0.892393
0.878447 0.886717 0.893767
0.883391 0.886198 0.894285
0.884764 0.886076 0.893980
0.870665 0.886839 0.875639
0.905364 0.881682 0.848692
0.941192 0.869780 0.832853
0.889433 0.890410 0.899260
0.890715 0.890288 0.899443
0.896239 0.889769 0.900420
0.901946 0.889342 0.901488
0.902342 0.889311 0.901305
0.902129 0.889189 0.900511
0.893553 0.889921 0.887114
0.916106 0.887327 0.867979
0.000000 0.310094 0.746456
0.242130 0.326116 0.745266
0.635279 0.388678 0.733364
0.848997 0.542809 0.713161
0.929717 0.705440 0.756283
0.936522 0.786954 0.804837
0.962524 0.790555 0.797208
0.988769 0.774655 0.767239
0.000000 0.425147 0.749203
0.317845 0.455329 0.748562
0.637568 0.499306 0.740414
0.834806 0.609430 0.730007
0.920958 0.728939 0.769528
0.935729 0.791592 0.807553
0.960906 0.794156 0.799771
0.987060 0.778012 0.769894
0.217014 0.646845 0.768673
0.359564 0.650202 0.763882
0.631891 0.678950 0.758511
0.811429 0.725673 0.767605
0.891875 0.794797 0.812284
0.932830 0.811215 0.820768
0.954223 0.812192 0.815274
0.980438 0.792844 0.782986
0.538201 0.836576 0.830625
0.580804 0.836881 0.831113
0.713588 0.832547 0.828489
0.812009 0.812558 0.805112
0.904845 0.835813 0.837095
0.929473 0.835752 0.836698
0.948089 0.829679 0.827085
0.971710 0.811276 0.797299
0.757259 0.877806 0.864744
0.770901 0.876188 0.865629
0.814878 0.870817 0.869108
0.853300 0.866361 0.872923
0.873045 0.856718 0.835447
0.923217 0.858427 0.850523
0.940185 0.853269 0.847379
0.958953 0.836759 0.822110
0.833707 0.883940 0.882689
0.840970 0.883543 0.883848
0.857694 0.881559 0.885771
0.876890 0.879423 0.888212
0.877592 0.879423 0.884672
0.895445 0.872679 0.853391
0.929442 0.867887 0.855802
0.945068 0.861173 0.849638
0.865965 0.888334 0.892546
0.868894 0.888060 0.893004
0.878813 0.887083 0.894469
0.892363 0.885740 0.896635
0.894347 0.885710 0.896666
0.887510 0.885771 0.886961
0.907866 0.881651 0.866758
0.933593 0.874510 0.860624
0.887236 0.890898 0.899229
0.888823 0.890745 0.899504
0.894835 0.890166 0.900481
0.903441 0.889403 0.902037
0.906279 0.889158 0.902434
0.906767 0.889067 0.902220
0.899718 0.889555 0.892271
0.917296 0.887358 0.878416
0.308934 0.463325 0.825803
0.395789 0.473762 0.824643
0.605219 0.508385 0.817136
0.805142 0.573114 0.807828
0.905943 0.677058 0.796902
0.937957 0.761929 0.810880
0.938262 0.810758 0.835538
0.943389 0.829313 0.847105
0.369848 0.534112 0.823392
0.437507 0.541466 0.822782
0.616968 0.566125 0.817014
0.799466 0.616297 0.808682
0.899901 0.698451 0.801907
0.932708 0.773159 0.816648
0.934783 0.816709 0.840116
0.942992 0.830625 0.847929
0.370977 0.638300 0.815610
0.443183 0.646906 0.816220
0.634668 0.684138 0.817746
0.787320 0.709895 0.815335
0.881376 0.756344 0.816648
0.916442 0.803952 0.833249
0.923980 0.834684 0.853971
0.941894 0.834745 0.850065
0.547784 0.785275 0.843809
0.576135 0.785183 0.842344
0.664912 0.784939 0.836667
0.786709 0.793942 0.833097
0.869596 0.819211 0.842985
0.902281 0.842222 0.859922
0.924193 0.847715 0.862943
0.940276 0.843717 0.855802
0.709712 0.866270 0.869718
0.726070 0.866178 0.870054
0.780056 0.864378 0.870085
0.842069 0.861448 0.869535
0.869505 0.850675 0.856962
0.911925 0.862608 0.873320
0.925322 0.861418 0.871855
0.938201 0.855070 0.863035
0.819791 0.883848 0.881468
0.825681 0.883207 0.882048
0.844236 0.880827 0.883604
0.868589 0.877562 0.885863
0.886076 0.875761 0.887999
0.895964 0.870787 0.869535
0.923156 0.873106 0.878172
0.933776 0.870237 0.875944
0.858885 0.888914 0.892149
0.861204 0.888609 0.892393
0.870512 0.887572 0.893492
0.886320 0.885985 0.895781
0.899382 0.884733 0.897734
0.899321 0.884794 0.895293
0.909209 0.881102 0.878569
0.928588 0.877745 0.878080
0.872648 0.892241 0.897185
0.875181 0.891997 0.897551
0.884398 0.891051 0.898894
0.897765 0.889891 0.901152
0.908507 0.888945 0.903075
0.910033 0.888884 0.903197
0.905730 0.889097 0.897307
0.918059 0.887175 0.886076
0.510246 0.593774 0.870420
0.542168 0.598901 0.869535
0.644587 0.614466 0.864744
0.779446 0.648951 0.858610
0.886137 0.685756 0.854429
0.927214 0.748165 0.838163
0.938506 0.800656 0.844297
0.939879 0.829404 0.856809
0.525689 0.621637 0.865751
0.552789 0.624659 0.864805
0.648219 0.637964 0.861204
0.773800 0.663478 0.855344
0.879332 0.696132 0.852110
0.922728 0.754879 0.838529
0.935760 0.804166 0.845579
0.938415 0.831174 0.857847
0.545739 0.687526 0.862364
0.574609 0.692439 0.861784
0.672999 0.713161 0.859373
0.772915 0.723720 0.854978
0.866789 0.747524 0.853422
0.910002 0.789914 0.847654
0.926329 0.823819 0.856229
0.932097 0.842832 0.866361
0.600122 0.770199 0.864805
0.614710 0.770108 0.863401
0.670008 0.771145 0.858213
0.785122 0.793668 0.859892
0.860502 0.809293 0.860685
0.899504 0.830564 0.863157
0.917113 0.847929 0.871366
0.924346 0.859281 0.879149
0.699763 0.838804 0.875547
0.711299 0.838834 0.875090
0.752499 0.839139 0.873381
0.805722 0.839292 0.870146
0.857694 0.842039 0.867979
0.894804 0.853849 0.874174
0.911925 0.864012 0.882322
0.924559 0.866178 0.883421
0.797604 0.877226 0.887053
0.805173 0.877104 0.887236
0.826230 0.876616 0.887480
0.855741 0.875456 0.887449
0.882872 0.874296 0.887449
0.896025 0.868864 0.881132
0.919036 0.876066 0.890562
0.926574 0.874449 0.888609
0.854887 0.889403 0.893400
0.858244 0.889220 0.893675
0.868345 0.888304 0.894591
0.882719 0.886748 0.896239
0.896971 0.885069 0.897948
0.906737 0.884031 0.899199
0.911162 0.881132 0.888945
0.925414 0.881651 0.892393
0.865629 0.893248 0.897093
0.867521 0.893034 0.897307
0.875731 0.892149 0.898344
0.888731 0.890898 0.900145
0.902556 0.889555 0.902281
0.912932 0.888640 0.904051
0.912932 0.888701 0.902708
0.919097 0.887175 0.893492
0.629664 0.680354 0.891112
0.645136 0.683284 0.890776
0.696010 0.689784 0.888487
0.775509 0.703182 0.884672
0.857420 0.722469 0.879423
0.920806 0.745022 0.876982
0.934325 0.789975 0.860655
0.939544 0.821317 0.862211
0.632380 0.690730 0.888518
0.647272 0.693599 0.888334
0.696132 0.699001 0.886290
0.772183 0.709438 0.882658
0.853300 0.726986 0.877623
0.917113 0.747921 0.875456
0.932036 0.790677 0.859739
0.938384 0.821042 0.861448
0.638300 0.724392 0.886290
0.656825 0.729549 0.885557
0.710231 0.740261 0.883207
0.776089 0.747463 0.880400
0.848051 0.760403 0.876463
0.906126 0.778653 0.875303
0.924010 0.812009 0.865843
0.932311 0.835264 0.869169
0.639063 0.768276 0.883268
0.652583 0.769528 0.882750
0.707149 0.777646 0.881193
0.788663 0.796384 0.879210
0.846799 0.804562 0.877195
0.894987 0.817685 0.877409
0.915618 0.837339 0.874723
0.925658 0.851255 0.878294
0.697841 0.821714 0.886229
0.704494 0.821592 0.885588
0.733822 0.822141 0.883482
0.777096 0.822599 0.879606
0.845212 0.834226 0.878965
0.887846 0.842374 0.879637
0.910246 0.854337 0.881346
0.921355 0.864256 0.886290
0.771054 0.861051 0.891478
0.776913 0.861143 0.891356
0.797696 0.861326 0.890745
0.827604 0.861509 0.889586
0.857084 0.860990 0.887510
0.887846 0.862699 0.886351
0.909850 0.870268 0.890227
0.919066 0.876097 0.894713
0.830808 0.884703 0.897642
0.834623 0.884611 0.897704
0.847013 0.884184 0.897704
0.866117 0.883635 0.897826
0.885801 0.883330 0.898161
0.902892 0.882811 0.898344
0.911070 0.879881 0.895079
0.923064 0.883299 0.899535
0.857420 0.893584 0.899382
0.860044 0.893370 0.899504
0.870420 0.892576 0.900084
0.884916 0.891417 0.900999
0.898924 0.890196 0.902403
0.909789 0.889097 0.903929
0.916838 0.888426 0.904967
0.920012 0.887297 0.899626
0.712398 0.741115 0.903258
0.719783 0.742336 0.903044
0.745174 0.744411 0.901762
0.791348 0.751186 0.899626
0.845975 0.761685 0.896483
0.897551 0.776364 0.892515
0.931731 0.790616 0.888121
0.938720 0.817685 0.876310
0.713344 0.746059 0.902129
0.720668 0.747341 0.901915
0.746120 0.749691 0.900816
0.790799 0.755550 0.898741
0.844633 0.765286 0.895720
0.895781 0.779232 0.891905
0.930083 0.792538 0.887694
0.937621 0.818601 0.876219
0.720089 0.766140 0.899931
0.732906 0.770871 0.899260
0.755612 0.772854 0.898253
0.797086 0.779019 0.896757
0.844511 0.785763 0.894194
0.891051 0.795987 0.890959
0.924224 0.807614 0.888151
0.932982 0.828824 0.878935
0.700435 0.781460 0.898894
0.711757 0.784054 0.898558
0.751278 0.793576 0.896880
0.806119 0.808408 0.894499
0.846220 0.813169 0.892821
0.886351 0.820218 0.890776
0.917327 0.829007 0.890013
0.927001 0.844022 0.883879
0.692988 0.809323 0.898558
0.700801 0.810117 0.898253
0.725338 0.811582 0.896788
0.783902 0.820554 0.894469
0.846403 0.835325 0.892546
0.881712 0.839780 0.891356
0.910857 0.846799 0.891630
0.922301 0.857969 0.889128
0.737819 0.845304 0.899657
0.742641 0.845335 0.899413
0.762722 0.845945 0.898466
0.795834 0.847288 0.896880
0.830838 0.848295 0.894469
0.880552 0.858061 0.894041
0.907744 0.864134 0.894835
0.919982 0.871275 0.895354
0.794186 0.873136 0.902220
0.798489 0.873198 0.902129
0.814847 0.873503 0.901823
0.840238 0.874174 0.901335
0.865568 0.874815 0.900633
0.886473 0.874937 0.899535
0.906371 0.876219 0.898711
0.919127 0.880339 0.900053
0.830137 0.890227 0.904234
0.833310 0.890105 0.904204
0.845945 0.889616 0.904173
0.865690 0.889006 0.904234
0.885588 0.888487 0.904387
0.901823 0.888243 0.904631
0.913909 0.887999 0.904845
0.919951 0.886900 0.903777
