20 Preset/Japan Style/【3】LUT video cho PR-AE-FCPX/LUT VIDEO (2)/Japan Style LUT (10).cube
# Created by Adobe Lightroom plugin Export LUT (1.24.0)
# www.johnrellis.com/lightroom/exportlut.htm
# Preset: 10日系清新（素材江湖）
# Color profile: C:\Program Files (x86)\Common Files\Adobe\Color\Profiles\Recommended\VideoHD.icc
LUT_3D_SIZE 5
DOMAIN_MIN 0.000000 0.000000 0.000000
DOMAIN_MAX 0.903226 0.903226 0.903226
0.000000 0.000000 0.000000
0.356390 0.000000 0.000000
0.660304 0.000000 0.021118
0.865446 0.151400 0.162997
0.987579 0.246220 0.256352
0.000000 0.306279 0.211276
0.279057 0.328801 0.139742
0.637598 0.346380 0.147219
0.848539 0.339300 0.218784
0.976562 0.353491 0.290623
0.175418 0.565148 0.438148
0.267613 0.553979 0.440925
0.491768 0.591058 0.346868
0.802365 0.559075 0.322454
0.932860 0.571618 0.396582
0.348150 0.726528 0.600946
0.379095 0.722713 0.603296
0.476936 0.706050 0.618555
0.630335 0.744350 0.500816
0.906615 0.671077 0.424201
0.523003 0.833585 0.731289
0.534661 0.832212 0.732937
0.577234 0.825711 0.739895
0.608270 0.830076 0.727840
0.752407 0.853056 0.649622
0.000000 0.000000 0.374304
0.346746 0.000000 0.373846
0.636866 0.136477 0.359014
0.836515 0.250736 0.372412
0.965820 0.323430 0.397253
0.000000 0.355138 0.371221
0.303014 0.353552 0.370550
0.612207 0.358953 0.375830
0.822538 0.375250 0.390753
0.956023 0.399481 0.414191
0.240299 0.587274 0.491188
0.335454 0.579004 0.497993
0.491768 0.591821 0.450507
0.779202 0.587518 0.446967
0.918029 0.588190 0.481605
0.396704 0.732937 0.628077
0.421332 0.729519 0.629358
0.502831 0.714321 0.639582
0.632807 0.744289 0.553857
0.893339 0.688075 0.499428
0.538537 0.835843 0.741085
0.549310 0.834501 0.742458
0.590906 0.829068 0.749599
0.624537 0.829953 0.742794
0.755550 0.853544 0.672480
0.000000 0.048188 0.672663
0.268956 0.104952 0.670924
0.591943 0.183658 0.664485
0.809201 0.278202 0.621546
0.935882 0.381384 0.594049
0.000000 0.354681 0.665217
0.269932 0.356847 0.663844
0.573877 0.365148 0.658503
0.789120 0.397162 0.624018
0.921050 0.455055 0.606744
0.000000 0.616114 0.648920
0.189609 0.615290 0.647730
0.524010 0.613275 0.644038
0.728725 0.614221 0.641688
0.877958 0.622492 0.647181
0.344121 0.756771 0.672175
0.410498 0.753262 0.678553
0.568658 0.742031 0.703487
0.646418 0.745571 0.680751
0.851713 0.741512 0.673487
0.572107 0.844907 0.770871
0.592798 0.843595 0.775296
0.627070 0.838743 0.778225
0.682521 0.828580 0.788754
0.764401 0.853635 0.736263
0.000000 0.194400 0.829953
0.213657 0.213016 0.828824
0.493812 0.264836 0.823239
0.729763 0.323400 0.814328
0.910460 0.392737 0.782864
0.123842 0.367590 0.822843
0.268070 0.371984 0.821683
0.498268 0.389136 0.817166
0.720699 0.417395 0.809384
0.897246 0.457923 0.780972
0.225376 0.578332 0.804257
0.320897 0.582696 0.801419
0.516197 0.601892 0.796414
0.689052 0.600855 0.788754
0.858701 0.612818 0.777340
0.239750 0.758206 0.790524
0.321355 0.757931 0.789853
0.498421 0.757504 0.787930
0.676020 0.756893 0.784878
0.823789 0.758846 0.784085
0.419287 0.868406 0.786862
0.458930 0.866697 0.789883
0.581842 0.859983 0.802518
0.723415 0.849332 0.827604
0.782620 0.856382 0.814511
0.000000 0.259922 0.911070
0.209201 0.267979 0.909972
0.426246 0.300664 0.907378
0.627710 0.345251 0.901854
0.817380 0.393469 0.894987
0.179843 0.363531 0.904845
0.261387 0.367437 0.904112
0.439368 0.383795 0.901640
0.627375 0.408881 0.896513
0.811765 0.441840 0.890684
0.330571 0.558404 0.891905
0.374640 0.562951 0.890318
0.483742 0.564569 0.887938
0.632685 0.567468 0.883696
0.800595 0.583215 0.882017
0.305730 0.698268 0.882597
0.351415 0.699275 0.881376
0.490852 0.707759 0.878935
0.656550 0.728206 0.876555
0.800839 0.743374 0.880217
0.316503 0.854826 0.878202
0.361547 0.854643 0.877775
0.503532 0.856077 0.878019
0.660792 0.857298 0.877623
0.804288 0.859068 0.877958
