20 Preset/Japan Style/【3】LUT video cho PR-AE-FCPX/LUT VIDEO (2)/Japan Style LUT (18).cube
# Created by Adobe Lightroom plugin Export LUT (1.24.0)
# www.johnrellis.com/lightroom/exportlut.htm
# Preset: 18日系森林（素材江湖）
# Color profile: C:\Program Files (x86)\Common Files\Adobe\Color\Profiles\Recommended\VideoHD.icc
LUT_3D_SIZE 5
DOMAIN_MIN 0.000000 0.000000 0.000000
DOMAIN_MAX 0.903226 0.903226 0.903226
0.048096 0.067445 0.089662
0.133577 0.071290 0.083680
0.639887 0.000000 0.000000
0.988586 0.291966 0.000000
1.000000 0.523674 0.198856
0.000000 0.195621 0.100618
0.131136 0.211521 0.053193
0.597894 0.205570 0.000000
0.954528 0.375952 0.000000
1.000000 0.563134 0.248081
0.000000 0.678065 0.372259
0.000000 0.687129 0.370703
0.620813 0.657130 0.258152
0.903777 0.615686 0.160525
1.000000 0.663447 0.367834
0.543389 0.887785 0.701991
0.597650 0.889250 0.710872
0.758175 0.892760 0.766690
0.845060 0.866514 0.618250
1.000000 0.856352 0.503471
0.826871 0.969116 0.895018
0.837888 0.969329 0.897856
0.872953 0.969696 0.908049
0.913176 0.970520 0.918486
0.943267 0.966888 0.878996
0.045991 0.067414 0.092653
0.094087 0.052766 0.100282
0.645045 0.000000 0.113710
0.974609 0.304417 0.146487
1.000000 0.526879 0.281376
0.000000 0.148135 0.141543
0.152255 0.173342 0.138918
0.602930 0.219425 0.149569
0.947051 0.382940 0.180667
1.000000 0.562860 0.311498
0.000000 0.641413 0.406744
0.155398 0.654810 0.403632
0.614618 0.632746 0.314336
0.894041 0.599969 0.249302
1.000000 0.665980 0.409125
0.549706 0.880827 0.710658
0.603235 0.882963 0.718929
0.761959 0.889067 0.773953
0.845670 0.863005 0.637263
1.000000 0.852873 0.529900
0.824979 0.968231 0.895995
0.836210 0.968475 0.898711
0.874968 0.969970 0.910796
0.916075 0.970977 0.922515
0.944640 0.967346 0.883909
0.000000 0.077394 0.228305
0.000000 0.045502 0.250675
0.449989 0.000000 0.281804
1.000000 0.000000 0.343633
1.000000 0.549462 0.489723
0.000000 0.093599 0.293462
0.000000 0.073091 0.316533
0.527184 0.000000 0.329412
0.984344 0.396704 0.434302
1.000000 0.587732 0.507927
0.000000 0.517082 0.450965
0.000000 0.547112 0.469093
0.633448 0.579034 0.483711
0.880522 0.568597 0.463050
1.000000 0.684047 0.552728
0.431830 0.856931 0.718105
0.565087 0.855497 0.734920
0.747829 0.869261 0.774716
0.849790 0.850950 0.701106
0.995972 0.837675 0.620813
0.797726 0.964599 0.895506
0.818997 0.964538 0.900328
0.866850 0.966918 0.911833
0.922576 0.970550 0.933196
0.946410 0.965423 0.893004
0.000000 0.086824 0.470466
0.000000 0.049195 0.484016
0.399634 0.000000 0.564782
0.823972 0.000000 0.545800
1.000000 0.225284 0.610651
0.000000 0.041230 0.510765
0.000000 0.000000 0.528130
0.427802 0.000000 0.595453
0.844724 0.000000 0.567346
1.000000 0.389532 0.632166
0.000000 0.321477 0.576806
0.000000 0.334447 0.585321
0.484169 0.372534 0.649653
0.875273 0.493568 0.647395
1.000000 0.734920 0.771756
0.000000 0.777462 0.719112
0.000000 0.782345 0.721462
0.539910 0.808957 0.760739
0.857816 0.823880 0.789059
0.989166 0.803799 0.757382
0.459419 0.969451 0.871763
0.551629 0.967590 0.876585
0.774594 0.961791 0.900389
0.913909 0.966888 0.935149
0.951537 0.962860 0.912840
0.000000 0.100496 0.755642
0.000000 0.100496 0.755856
0.000000 0.000000 0.791348
0.813840 0.000000 0.843107
1.000000 0.000000 0.788602
0.000000 0.100710 0.760128
0.000000 0.100679 0.760922
0.000000 0.000000 0.798215
0.823209 0.000000 0.843046
1.000000 0.000000 0.789029
0.000000 0.132631 0.787991
0.000000 0.085237 0.794278
0.000000 0.000000 0.818235
0.821714 0.000000 0.863584
1.000000 0.164462 0.807401
0.000000 0.559136 0.815396
0.000000 0.553338 0.814664
0.000000 0.536584 0.819486
0.688289 0.549798 0.869017
0.987366 0.725277 0.861723
0.000000 0.947448 0.901640
0.000000 0.946715 0.901061
0.000000 0.943694 0.900908
0.674189 0.933562 0.908995
0.956970 0.947539 0.942931
