20 Preset/Japan Style/【3】LUT video cho PR-AE-FCPX/LUT VIDEO (2)/Japan Style LUT (40).cube
# Created by Adobe Lightroom plugin Export LUT (1.24.0)
# www.johnrellis.com/lightroom/exportlut.htm
# Preset: 40日系自然（素材江湖）
# Color profile: C:\Program Files (x86)\Common Files\Adobe\Color\Profiles\Recommended\VideoHD.icc
LUT_3D_SIZE 32
DOMAIN_MIN 0.0 0.0 0.0
DOMAIN_MAX 1.0 1.0 1.0
0.120760 0.156497 0.138705
0.121584 0.156619 0.138674
0.123842 0.157015 0.139040
0.129030 0.157931 0.139498
0.138918 0.159335 0.140230
0.153750 0.161044 0.141238
0.174228 0.162753 0.142061
0.201450 0.164553 0.142580
0.238132 0.165774 0.142824
0.285344 0.166354 0.142397
0.343328 0.164981 0.140963
0.408759 0.161379 0.138552
0.479530 0.154971 0.135073
0.551934 0.146059 0.130312
0.621851 0.136629 0.124697
0.685695 0.130861 0.117800
0.742641 0.131807 0.109865
0.792477 0.139559 0.101656
0.836027 0.151858 0.094453
0.873930 0.169162 0.088716
0.907439 0.187991 0.084657
0.941222 0.211276 0.088685
0.968994 0.234592 0.096468
0.993194 0.257908 0.110658
1.000000 0.281621 0.128847
1.000000 0.306096 0.150118
1.000000 0.330877 0.174319
1.000000 0.356970 0.202304
1.000000 0.384161 0.233280
1.000000 0.413123 0.268620
1.000000 0.443671 0.307988
1.000000 0.476204 0.351934
0.120668 0.157076 0.138827
0.120974 0.157229 0.138796
0.123812 0.157595 0.138949
0.129152 0.158297 0.139437
0.138827 0.159884 0.140352
0.153536 0.161807 0.141360
0.173465 0.163577 0.142184
0.200168 0.165255 0.142702
0.236362 0.166659 0.142763
0.282933 0.167453 0.142336
0.339849 0.166934 0.140871
0.404944 0.163485 0.138308
0.475074 0.157565 0.134920
0.546929 0.149996 0.130129
0.616785 0.141482 0.124300
0.681300 0.135500 0.117739
0.738918 0.135439 0.109957
0.789120 0.143313 0.101625
0.832883 0.155215 0.094057
0.871183 0.170687 0.088228
0.904875 0.189364 0.083009
0.938140 0.211124 0.086915
0.965667 0.233555 0.095094
0.989715 0.256535 0.107546
1.000000 0.279179 0.124971
1.000000 0.302770 0.145907
1.000000 0.327123 0.169741
1.000000 0.353155 0.197665
1.000000 0.380041 0.227909
1.000000 0.408850 0.263371
1.000000 0.439368 0.302190
1.000000 0.472084 0.346441
0.120211 0.159396 0.139406
0.121035 0.159518 0.139376
0.123354 0.160128 0.139010
0.129091 0.160952 0.139223
0.139193 0.162509 0.140169
0.153567 0.164767 0.141085
0.173709 0.166659 0.141878
0.200107 0.168856 0.142092
0.235721 0.170840 0.142306
0.282109 0.172183 0.141543
0.337987 0.172396 0.140017
0.402441 0.170382 0.137758
0.472084 0.166537 0.133669
0.543664 0.160830 0.128969
0.613245 0.154971 0.122866
0.677607 0.151553 0.115358
0.735409 0.151919 0.107637
0.786007 0.158236 0.099184
0.830137 0.168399 0.091249
0.868681 0.182559 0.082704
0.903075 0.199100 0.078737
0.935973 0.219699 0.080049
0.963317 0.240391 0.090364
0.987518 0.261357 0.104891
1.000000 0.283268 0.121859
1.000000 0.305486 0.142611
1.000000 0.329229 0.166476
1.000000 0.354223 0.194400
1.000000 0.380529 0.224765
1.000000 0.409064 0.260166
1.000000 0.438941 0.299260
1.000000 0.471077 0.342809
0.119844 0.164797 0.140566
0.120333 0.164767 0.140566
0.122438 0.165499 0.140414
0.128756 0.167025 0.139590
0.139742 0.168582 0.139803
0.154299 0.170901 0.140688
0.174136 0.173068 0.141176
0.200626 0.175814 0.141299
0.236210 0.178805 0.141268
0.282017 0.181613 0.140230
0.337896 0.183566 0.138369
0.400824 0.183963 0.135500
0.470069 0.182589 0.131167
0.540703 0.180270 0.125704
0.609430 0.177768 0.118715
0.673487 0.176577 0.110933
0.730709 0.178683 0.101747
0.781033 0.184360 0.092988
0.825376 0.193088 0.081392
0.864073 0.204013 0.067414
0.899229 0.217807 0.058900
0.931395 0.235172 0.063691
0.958892 0.252598 0.079652
0.983276 0.271733 0.097017
1.000000 0.291386 0.115938
1.000000 0.312902 0.138430
1.000000 0.335485 0.162966
1.000000 0.359747 0.191684
1.000000 0.385412 0.223239
1.000000 0.412696 0.258030
1.000000 0.441932 0.297490
1.000000 0.472969 0.340887
0.117830 0.174472 0.142306
0.118288 0.174441 0.142550
0.120485 0.175143 0.142153
0.125826 0.176791 0.141299
0.137728 0.179355 0.139925
0.155795 0.180728 0.139284
0.175448 0.183536 0.139620
0.201633 0.186984 0.139773
0.235966 0.190951 0.139315
0.281224 0.195651 0.137819
0.335729 0.199741 0.135470
0.398322 0.202945 0.131899
0.465827 0.205020 0.126802
0.536217 0.206302 0.119966
0.604425 0.207156 0.112154
0.668208 0.209079 0.102846
0.726070 0.211765 0.092470
0.776822 0.217105 0.076539
0.821286 0.224643 0.053407
0.860258 0.233463 0.037720
0.896483 0.244938 0.030457
0.928191 0.258518 0.034760
0.955505 0.273411 0.052949
0.980285 0.289036 0.088411
1.000000 0.306676 0.108644
1.000000 0.326024 0.133333
1.000000 0.346593 0.159060
1.000000 0.368963 0.188235
1.000000 0.393133 0.220676
1.000000 0.419104 0.256291
1.000000 0.446906 0.295445
1.000000 0.476631 0.338415
0.112825 0.188235 0.144228
0.113313 0.188205 0.144472
0.115908 0.188663 0.143893
0.121248 0.190463 0.142794
0.132448 0.193332 0.141085
0.151797 0.197147 0.138979
0.178164 0.199100 0.136934
0.205417 0.203372 0.136751
0.240543 0.208927 0.135470
0.285039 0.215335 0.133547
0.337346 0.221530 0.130465
0.398810 0.227787 0.125673
0.465766 0.233188 0.119020
0.534508 0.237613 0.110811
0.602167 0.241764 0.100618
0.665736 0.245335 0.088624
0.723018 0.249668 0.062348
0.773739 0.254704 0.033448
0.818387 0.260410 0.010925
0.857450 0.267857 0.000000
0.894530 0.277379 0.000000
0.925902 0.288121 0.000000
0.970672 0.313725 0.039185
0.994507 0.328862 0.090608
1.000000 0.345006 0.119478
1.000000 0.362646 0.147005
1.000000 0.381537 0.176852
1.000000 0.401953 0.208408
1.000000 0.424506 0.242832
1.000000 0.448890 0.280369
1.000000 0.475044 0.320867
1.000000 0.502953 0.364263
0.098543 0.210819 0.145754
0.099123 0.210788 0.145968
0.103120 0.210910 0.145907
0.110109 0.213199 0.143984
0.123354 0.216373 0.141451
0.145144 0.220798 0.138308
0.175418 0.226535 0.134554
0.213596 0.230198 0.130495
0.252995 0.237156 0.128115
0.299565 0.245548 0.124422
0.354009 0.253941 0.119600
0.414557 0.262364 0.112490
0.478737 0.269902 0.103731
0.545647 0.276707 0.091890
0.611414 0.282811 0.065705
0.672419 0.287724 0.030304
0.727749 0.292424 0.000000
0.777035 0.297093 0.000000
0.820432 0.302068 0.000000
0.862119 0.309117 0.000000
0.899443 0.317662 0.000000
0.931762 0.327276 0.000000
0.960266 0.338201 0.000000
0.985931 0.350896 0.042329
1.000000 0.364935 0.102632
1.000000 0.380407 0.135683
1.000000 0.396765 0.168002
1.000000 0.414893 0.201480
1.000000 0.435004 0.236240
1.000000 0.457008 0.273808
1.000000 0.481453 0.314855
1.000000 0.507774 0.358221
0.035828 0.240726 0.146639
0.038788 0.240787 0.146822
0.054536 0.240299 0.147127
0.079927 0.242588 0.145083
0.103090 0.245914 0.141695
0.130831 0.251041 0.137148
0.165469 0.257206 0.130892
0.207889 0.264897 0.124269
0.255436 0.270085 0.117586
0.305791 0.277928 0.111421
0.359899 0.288212 0.103883
0.419226 0.298222 0.093050
0.482063 0.307408 0.071962
0.545647 0.315190 0.035554
0.607538 0.321599 0.000000
0.665858 0.327306 0.000000
0.720577 0.332311 0.000000
0.769741 0.336522 0.000000
0.815030 0.341527 0.000000
0.856809 0.347234 0.000000
0.893065 0.353521 0.000000
0.925078 0.360204 0.000000
0.953643 0.368261 0.000000
0.979522 0.377874 0.000000
1.000000 0.389288 0.079408
1.000000 0.401801 0.123201
1.000000 0.415564 0.159091
1.000000 0.431098 0.194186
1.000000 0.448981 0.230838
1.000000 0.469093 0.269505
1.000000 0.491432 0.310399
1.000000 0.516136 0.354498
0.000000 0.282689 0.145846
0.000000 0.282628 0.146059
0.000000 0.282231 0.146578
0.000000 0.284001 0.144747
0.000000 0.287541 0.140749
0.095735 0.292515 0.134798
0.145693 0.298619 0.127291
0.196658 0.306126 0.116762
0.251133 0.314794 0.102663
0.307439 0.319219 0.089906
0.367773 0.327001 0.062379
0.426307 0.338140 0.024750
0.488014 0.348058 0.000000
0.549401 0.356512 0.000000
0.609277 0.363409 0.000000
0.665095 0.368719 0.000000
0.716548 0.372900 0.000000
0.765133 0.377142 0.000000
0.811093 0.381628 0.000000
0.851530 0.385748 0.000000
0.887144 0.389929 0.000000
0.918791 0.394629 0.000000
0.947234 0.400610 0.000000
0.973327 0.407721 0.000000
0.996948 0.416114 0.018341
1.000000 0.426123 0.109163
1.000000 0.437537 0.150149
1.000000 0.450690 0.187778
1.000000 0.466316 0.226139
1.000000 0.484199 0.266056
1.000000 0.504540 0.307530
1.000000 0.527489 0.352697
0.000000 0.335851 0.143099
0.000000 0.335515 0.143221
0.000000 0.335241 0.143923
0.000000 0.336004 0.142947
0.000000 0.338964 0.137575
0.000000 0.343542 0.130556
0.098329 0.348852 0.120302
0.173648 0.355688 0.106416
0.238865 0.363073 0.086061
0.304143 0.371191 0.025818
0.366430 0.374273 0.000000
0.431952 0.379248 0.000000
0.492317 0.389502 0.000000
0.552270 0.398383 0.000000
0.610803 0.405158 0.000000
0.665248 0.410498 0.000000
0.717952 0.415503 0.000000
0.765896 0.419196 0.000000
0.808408 0.421881 0.000000
0.846342 0.423957 0.000000
0.881254 0.426490 0.000000
0.912261 0.428901 0.000000
0.940276 0.432410 0.000000
0.965942 0.437049 0.000000
0.989471 0.442786 0.000000
1.000000 0.450263 0.084871
1.000000 0.459358 0.136690
1.000000 0.470344 0.178470
1.000000 0.483986 0.219272
1.000000 0.500008 0.260899
1.000000 0.518730 0.304601
1.000000 0.539971 0.349737
0.000000 0.394324 0.139284
0.000000 0.394385 0.139467
0.000000 0.394232 0.140352
0.000000 0.394079 0.141115
0.000000 0.396979 0.134310
0.000000 0.400916 0.124819
0.000000 0.405859 0.110933
0.130678 0.411597 0.091310
0.219211 0.418006 0.030884
0.293584 0.425055 0.000000
0.366155 0.431830 0.000000
0.431922 0.433448 0.000000
0.499123 0.432929 0.000000
0.557458 0.440955 0.000000
0.615534 0.448524 0.000000
0.670375 0.454078 0.000000
0.720546 0.457771 0.000000
0.765927 0.459876 0.000000
0.806607 0.460975 0.000000
0.843076 0.461463 0.000000
0.875761 0.461524 0.000000
0.905119 0.462165 0.000000
0.933318 0.464118 0.000000
0.959289 0.466896 0.000000
0.983154 0.470924 0.000000
1.000000 0.476570 0.024567
1.000000 0.483803 0.123873
1.000000 0.492958 0.172030
1.000000 0.504509 0.214755
1.000000 0.518791 0.258457
1.000000 0.535668 0.303044
1.000000 0.555261 0.349706
0.000000 0.458045 0.138582
0.000000 0.457862 0.139132
0.000000 0.457832 0.139925
0.000000 0.457496 0.142397
0.000000 0.459693 0.135470
0.000000 0.462898 0.123568
0.000000 0.466987 0.104524
0.000000 0.471687 0.065339
0.189609 0.476661 0.000000
0.278996 0.482033 0.000000
0.358038 0.486946 0.000000
0.433661 0.492164 0.000000
0.524743 0.508965 0.000000
0.587884 0.502129 0.000000
0.644648 0.505882 0.000000
0.696254 0.509026 0.000000
0.742611 0.510307 0.000000
0.785000 0.510002 0.000000
0.822812 0.508812 0.000000
0.856687 0.507256 0.000000
0.887266 0.505669 0.000000
0.914855 0.504479 0.000000
0.940276 0.504173 0.000000
0.963897 0.505364 0.000000
0.986786 0.507805 0.000000
1.000000 0.511711 0.038209
1.000000 0.517113 0.134829
1.000000 0.524468 0.183200
1.000000 0.534112 0.226993
1.000000 0.546380 0.271214
1.000000 0.561181 0.316106
1.000000 0.579004 0.363195
0.000000 0.527733 0.151522
0.000000 0.527825 0.151461
0.000000 0.527245 0.153323
0.000000 0.526635 0.155276
0.000000 0.526940 0.150881
0.000000 0.528588 0.138033
0.000000 0.530907 0.117464
0.000000 0.533532 0.084627
0.161593 0.537804 0.000000
0.270603 0.543023 0.000000
0.358221 0.548516 0.000000
0.440375 0.553643 0.000000
0.519036 0.557977 0.000000
0.593439 0.560784 0.000000
0.646357 0.548791 0.000000
0.697047 0.546197 0.000000
0.741299 0.546014 0.000000
0.781491 0.544457 0.000000
0.817777 0.542107 0.000000
0.850645 0.539300 0.000000
0.880491 0.536431 0.000000
0.907897 0.534142 0.000000
0.933410 0.532738 0.000000
0.957183 0.532525 0.000000
0.979309 0.533532 0.000000
0.999725 0.536034 0.000000
1.000000 0.540246 0.118135
1.000000 0.546441 0.174441
1.000000 0.554742 0.221897
1.000000 0.565576 0.267887
1.000000 0.579187 0.314641
1.000000 0.595575 0.362890
0.000000 0.582238 0.179721
0.000000 0.582208 0.179568
0.000000 0.581872 0.180941
0.000000 0.581292 0.183413
0.000000 0.581140 0.182589
0.000000 0.582422 0.170809
0.000000 0.584131 0.153597
0.000000 0.586267 0.127993
0.153628 0.588922 0.087892
0.265904 0.591913 0.000000
0.352972 0.595056 0.000000
0.432654 0.597986 0.000000
0.509453 0.600366 0.000000
0.581994 0.601831 0.000000
0.650263 0.602319 0.000000
0.695888 0.587549 0.000000
0.740078 0.579400 0.000000
0.778439 0.576959 0.000000
0.813626 0.573785 0.000000
0.845579 0.570153 0.000000
0.874723 0.566583 0.000000
0.902129 0.563378 0.000000
0.927642 0.561212 0.000000
0.951568 0.559960 0.000000
0.973877 0.559991 0.000000
0.994537 0.561425 0.000000
1.000000 0.564324 0.097505
1.000000 0.569329 0.167117
1.000000 0.576501 0.218631
1.000000 0.586175 0.266636
1.000000 0.598444 0.314733
1.000000 0.613519 0.364019
0.000000 0.630060 0.222385
0.000000 0.629816 0.222263
0.000000 0.629541 0.223056
0.000000 0.628870 0.224857
0.000000 0.627955 0.227604
0.000000 0.628168 0.216922
0.000000 0.628717 0.201602
0.000000 0.629786 0.182010
0.176425 0.631067 0.155001
0.274693 0.632807 0.117281
0.354009 0.634546 0.000000
0.428504 0.636286 0.000000
0.499794 0.637537 0.000000
0.568811 0.638025 0.000000
0.634882 0.637446 0.000000
0.696986 0.635920 0.000000
0.737545 0.620081 0.000000
0.776455 0.608057 0.000000
0.810239 0.604181 0.000000
0.841306 0.599969 0.000000
0.870085 0.595789 0.000000
0.897215 0.592035 0.000000
0.922545 0.589136 0.000000
0.946471 0.587121 0.000000
0.968811 0.586267 0.000000
0.989685 0.586664 0.000000
1.000000 0.588769 0.038361
1.000000 0.592767 0.156497
1.000000 0.599115 0.216068
1.000000 0.608026 0.267918
1.000000 0.619715 0.318822
1.000000 0.634211 0.370092
0.000000 0.667140 0.268406
0.000000 0.667079 0.268772
0.000000 0.666896 0.269749
0.000000 0.666499 0.271153
0.000000 0.665888 0.274296
0.000000 0.665858 0.268528
0.000000 0.666560 0.255650
0.139742 0.667323 0.240513
0.228824 0.668299 0.219547
0.300786 0.669245 0.194095
0.366583 0.670100 0.158938
0.431128 0.670588 0.101808
0.494972 0.670466 0.000000
0.557031 0.669917 0.000000
0.618158 0.668482 0.000000
0.677333 0.666499 0.000000
0.734371 0.663844 0.000000
0.771420 0.648096 0.000000
0.806638 0.632685 0.000000
0.837003 0.628077 0.000000
0.865568 0.623743 0.000000
0.892515 0.619837 0.000000
0.917937 0.616571 0.000000
0.942016 0.614099 0.000000
0.964538 0.612634 0.000000
0.985595 0.612543 0.000000
1.000000 0.613886 0.000000
1.000000 0.617090 0.145480
1.000000 0.622522 0.212039
1.000000 0.630365 0.268101
1.000000 0.640925 0.321965
1.000000 0.654231 0.374548
0.000000 0.697505 0.315343
0.000000 0.697414 0.315343
0.000000 0.697261 0.316228
0.000000 0.696956 0.317815
0.000000 0.696468 0.320806
0.128695 0.696345 0.318944
0.181827 0.696681 0.307988
0.232578 0.697169 0.294804
0.282139 0.697688 0.278172
0.332586 0.698207 0.256992
0.384558 0.698726 0.230594
0.438300 0.698970 0.197269
0.493355 0.698756 0.150179
0.548547 0.698024 0.026429
0.604456 0.696590 0.000000
0.659693 0.694545 0.000000
0.713710 0.691981 0.000000
0.766384 0.689052 0.000000
0.801328 0.673854 0.000000
0.833524 0.656641 0.000000
0.861875 0.651179 0.000000
0.888548 0.646937 0.000000
0.913848 0.643427 0.000000
0.937865 0.640620 0.000000
0.960357 0.638849 0.000000
0.981506 0.638148 0.000000
1.000000 0.638941 0.000000
1.000000 0.641535 0.135286
1.000000 0.646326 0.209140
1.000000 0.653407 0.268711
1.000000 0.663111 0.324712
1.000000 0.675593 0.380163
0.193851 0.724239 0.363684
0.195071 0.724361 0.363928
0.246799 0.732143 0.381231
0.258335 0.731868 0.382788
0.275181 0.731441 0.385199
0.294896 0.730983 0.386938
0.312016 0.731075 0.377356
0.334356 0.731258 0.365270
0.361517 0.731594 0.351049
0.393408 0.731838 0.332708
0.429572 0.732082 0.311833
0.469642 0.732021 0.286290
0.512200 0.731502 0.253391
0.558007 0.730434 0.212436
0.605646 0.728756 0.154574
0.654261 0.726436 0.000000
0.703273 0.723598 0.000000
0.752132 0.720302 0.000000
0.799924 0.716640 0.000000
0.832822 0.702113 0.000000
0.862394 0.684718 0.000000
0.888853 0.676722 0.000000
0.913359 0.672663 0.000000
0.936645 0.669306 0.000000
0.958556 0.666590 0.000000
0.979095 0.665187 0.000000
0.998322 0.665126 0.000000
1.000000 0.666835 0.128359
1.000000 0.670588 0.207279
1.000000 0.676844 0.270146
1.000000 0.685573 0.327611
1.000000 0.696956 0.384527
0.312535 0.749813 0.415137
0.316625 0.750454 0.416999
0.322972 0.751064 0.419104
0.332952 0.751492 0.421942
0.346136 0.751522 0.425086
0.361334 0.751339 0.428595
0.373144 0.751369 0.421759
0.387304 0.751461 0.411139
0.405859 0.751705 0.398993
0.428504 0.751919 0.383642
0.455146 0.752102 0.365118
0.486122 0.752163 0.343877
0.520562 0.751766 0.317449
0.558312 0.751064 0.285161
0.599084 0.749874 0.246098
0.642176 0.748135 0.194400
0.686610 0.745968 0.109590
0.732235 0.743313 0.000000
0.777920 0.740414 0.000000
0.822965 0.737331 0.000000
0.855070 0.724422 0.000000
0.883543 0.708003 0.000000
0.909148 0.698360 0.000000
0.932280 0.694789 0.000000
0.954101 0.691920 0.000000
0.974670 0.690089 0.000000
0.993896 0.689662 0.000000
1.000000 0.690791 0.115511
1.000000 0.693996 0.203403
1.000000 0.699428 0.269444
1.000000 0.707332 0.329351
1.000000 0.717678 0.387701
0.381933 0.769680 0.456001
0.384497 0.770352 0.457649
0.389624 0.770962 0.459693
0.397467 0.771389 0.462562
0.407141 0.771572 0.465461
0.418952 0.771359 0.468696
0.428321 0.771267 0.465675
0.438087 0.771420 0.456458
0.450904 0.771603 0.446052
0.466590 0.771786 0.432654
0.486488 0.771969 0.416846
0.509941 0.772061 0.398505
0.536553 0.771908 0.376318
0.567437 0.771481 0.349798
0.601099 0.770657 0.318761
0.637720 0.769467 0.281254
0.676844 0.767788 0.233219
0.717769 0.765743 0.166537
0.759915 0.763394 0.000000
0.802609 0.760769 0.000000
0.844877 0.757992 0.000000
0.876066 0.746822 0.000000
0.903227 0.731441 0.000000
0.928252 0.720119 0.000000
0.949950 0.717037 0.000000
0.970397 0.715084 0.000000
0.989563 0.714199 0.000000
1.000000 0.714900 0.100893
1.000000 0.717494 0.200992
1.000000 0.722286 0.270573
1.000000 0.729305 0.332769
1.000000 0.738674 0.392523
0.439734 0.788968 0.495644
0.441962 0.789517 0.496986
0.445686 0.790097 0.498848
0.451545 0.790433 0.501152
0.458869 0.790585 0.503685
0.468086 0.790433 0.506584
0.476875 0.790219 0.506371
0.483955 0.790402 0.499092
0.493111 0.790555 0.489906
0.504601 0.790829 0.478706
0.519188 0.790982 0.464790
0.536858 0.791165 0.449378
0.557671 0.791165 0.430365
0.581811 0.790951 0.408270
0.609613 0.790524 0.382757
0.640070 0.789853 0.352239
0.673671 0.788876 0.315892
0.709987 0.787655 0.272160
0.748135 0.786191 0.215671
0.787808 0.784573 0.126223
0.828153 0.782742 0.000000
0.868101 0.780850 0.000000
0.898802 0.771908 0.000000
0.924620 0.757626 0.000000
0.949248 0.745327 0.000000
0.969696 0.743404 0.000000
0.988708 0.742641 0.000000
1.000000 0.743374 0.124971
1.000000 0.745785 0.218540
1.000000 0.750179 0.288975
1.000000 0.756588 0.352270
1.000000 0.765072 0.412482
0.499947 0.811093 0.541131
0.500847 0.811307 0.541741
0.502831 0.811398 0.542565
0.506126 0.811368 0.543603
0.511223 0.811215 0.545220
0.517510 0.810880 0.546990
0.525719 0.810422 0.549157
0.530541 0.810513 0.542718
0.537163 0.810697 0.534813
0.545800 0.811002 0.525383
0.556512 0.811246 0.514244
0.570001 0.811521 0.501274
0.585870 0.811643 0.485512
0.604700 0.811612 0.466773
0.626246 0.811368 0.444648
0.651057 0.810941 0.419593
0.678828 0.810239 0.389929
0.709133 0.809354 0.354894
0.742184 0.808194 0.313390
0.777249 0.806851 0.261387
0.813779 0.805234 0.191745
0.851194 0.803433 0.000000
0.887541 0.801602 0.000000
0.917906 0.794614 0.000000
0.941466 0.780514 0.000000
0.965515 0.767514 0.000000
0.984588 0.766567 0.000000
1.000000 0.766934 0.121492
1.000000 0.768948 0.222385
1.000000 0.772671 0.294347
1.000000 0.778286 0.359014
1.000000 0.785702 0.419745
0.542412 0.828824 0.575982
0.542992 0.828977 0.576257
0.544823 0.829068 0.577173
0.547662 0.829099 0.578210
0.551446 0.828946 0.579431
0.556756 0.828672 0.581048
0.563561 0.828305 0.583246
0.568353 0.828336 0.579583
0.573541 0.828550 0.573083
0.580255 0.828824 0.565026
0.588678 0.829099 0.555627
0.598993 0.829435 0.544427
0.611475 0.829679 0.531243
0.626459 0.829801 0.515526
0.643854 0.829862 0.497627
0.663996 0.829709 0.477058
0.687129 0.829465 0.452491
0.712612 0.829038 0.423529
0.740902 0.828367 0.390753
0.771389 0.827543 0.351415
0.804105 0.826535 0.302922
0.838193 0.825284 0.241550
0.872374 0.823941 0.195102
0.906188 0.822507 0.131655
0.934478 0.815885 0.000000
0.956023 0.802335 0.000000
0.979370 0.790463 0.000000
0.997528 0.789151 0.117311
1.000000 0.790677 0.223972
1.000000 0.793881 0.298711
1.000000 0.798825 0.364691
1.000000 0.805386 0.427131
0.585107 0.847898 0.612757
0.586267 0.848173 0.613672
0.587518 0.848264 0.614252
0.589319 0.848142 0.614710
0.592004 0.847837 0.615381
0.595758 0.847379 0.616266
0.600732 0.846799 0.617548
0.605127 0.846403 0.615930
0.608331 0.846311 0.609430
0.612848 0.846372 0.602258
0.618860 0.846403 0.593591
0.626490 0.846525 0.583398
0.636164 0.846616 0.571984
0.647547 0.846647 0.558190
0.661128 0.846555 0.542351
0.677241 0.846372 0.524041
0.695827 0.846128 0.503288
0.717220 0.845884 0.479316
0.741146 0.845579 0.451545
0.767758 0.845212 0.419959
0.796536 0.844724 0.382422
0.827176 0.844022 0.337316
0.858488 0.843046 0.308843
0.889860 0.841825 0.275731
0.921050 0.840391 0.236301
0.950439 0.837400 0.184268
0.969879 0.824582 0.164492
0.991882 0.814298 0.160647
1.000000 0.812100 0.229435
1.000000 0.814572 0.304753
1.000000 0.818631 0.371862
1.000000 0.824277 0.434791
0.616205 0.863554 0.640986
0.617090 0.863798 0.641657
0.618402 0.863890 0.642329
0.620142 0.863890 0.643061
0.622705 0.863737 0.643824
0.626246 0.863523 0.644923
0.630884 0.863218 0.646448
0.636072 0.863005 0.647456
0.639216 0.863188 0.642451
0.643397 0.863401 0.636774
0.648676 0.863676 0.629847
0.655146 0.863920 0.621607
0.662959 0.864164 0.612055
0.672389 0.864317 0.600916
0.683345 0.864378 0.587640
0.696315 0.864317 0.572198
0.711513 0.864256 0.554742
0.728969 0.864164 0.534783
0.749050 0.864103 0.512047
0.771420 0.864012 0.485756
0.796292 0.863859 0.455604
0.823087 0.863523 0.425391
0.850980 0.863035 0.405432
0.879515 0.862333 0.382605
0.908202 0.861479 0.356512
0.936980 0.860502 0.326360
0.965454 0.859434 0.291264
0.983062 0.847715 0.278141
1.000000 0.839445 0.280552
1.000000 0.836942 0.322484
1.000000 0.840238 0.389197
1.000000 0.844846 0.451575
0.648402 0.880095 0.670832
0.648890 0.880217 0.671229
0.649866 0.880217 0.671656
0.651209 0.880186 0.672114
0.653285 0.880034 0.672786
0.656184 0.879789 0.673701
0.659998 0.879515 0.674891
0.664698 0.879271 0.676509
0.667750 0.879332 0.672999
0.671138 0.879576 0.667994
0.675441 0.879759 0.662074
0.680873 0.880064 0.655268
0.687373 0.880339 0.647211
0.695064 0.880583 0.637751
0.704250 0.880705 0.626673
0.714900 0.880797 0.613855
0.727504 0.880858 0.599329
0.742031 0.880919 0.582483
0.758755 0.881041 0.563684
0.777829 0.881163 0.542077
0.798978 0.881224 0.517479
0.822507 0.881132 0.501854
0.846921 0.880888 0.486854
0.872129 0.880491 0.469795
0.897917 0.879942 0.450141
0.923919 0.879301 0.428717
0.950134 0.878599 0.403754
0.976165 0.877836 0.376013
0.993072 0.868376 0.364660
1.000000 0.861906 0.371191
1.000000 0.859159 0.402502
1.000000 0.862943 0.464790
0.676692 0.895171 0.697749
0.677028 0.895262 0.698024
0.677821 0.895323 0.698360
0.679103 0.895323 0.698939
0.681178 0.895293 0.699763
0.684077 0.895262 0.700893
0.688014 0.895323 0.702632
0.693019 0.895445 0.704952
0.697292 0.895872 0.704311
0.701289 0.896513 0.701320
0.705989 0.897215 0.697444
0.711391 0.897948 0.692653
0.717678 0.898650 0.686946
0.724697 0.899229 0.680079
0.732845 0.899687 0.671778
0.741817 0.900023 0.661646
0.752193 0.900267 0.650111
0.764248 0.900511 0.636866
0.778134 0.900755 0.621790
0.793881 0.901061 0.604883
0.812161 0.901213 0.593469
0.831846 0.901274 0.583520
0.852476 0.901244 0.572412
0.873838 0.901091 0.560143
0.895811 0.900847 0.546380
0.918364 0.900511 0.530877
0.941314 0.900114 0.513573
0.964385 0.899687 0.494362
0.987549 0.899321 0.472541
1.000000 0.891875 0.462776
1.000000 0.887022 0.472297
1.000000 0.884154 0.495827
0.711208 0.912169 0.730648
0.711360 0.912139 0.730709
0.711696 0.912108 0.730800
0.712612 0.912016 0.731044
0.714137 0.911894 0.731563
0.716213 0.911742 0.732235
0.719142 0.911589 0.733364
0.722652 0.911437 0.734707
0.726284 0.911437 0.734951
0.728908 0.911772 0.731594
0.732174 0.912139 0.727687
0.736141 0.912535 0.723079
0.740932 0.912963 0.717769
0.746426 0.913390 0.711452
