20 Preset/Japan Style/【3】LUT video cho PR-AE-FCPX/LUT VIDEO (2)/Japan Style LUT (15).cube
# Created by Adobe Lightroom plugin Export LUT (1.24.0)
# www.johnrellis.com/lightroom/exportlut.htm
# Preset: 15日系海边（素材江湖）
# Color profile: C:\Program Files (x86)\Common Files\Adobe\Color\Profiles\Recommended\VideoHD.icc
LUT_3D_SIZE 8
DOMAIN_MIN 0.000000 0.000000 0.000000
DOMAIN_MAX 0.903226 0.903226 0.903226
0.000000 0.011994 0.014374
0.025238 0.044495 0.022797
0.312322 0.086091 0.016052
0.647669 0.116640 0.000000
0.897856 0.260258 0.000000
1.000000 0.405188 0.000000
1.000000 0.498421 0.000000
1.000000 0.568109 0.120882
0.000000 0.079835 0.057679
0.000000 0.087739 0.065827
0.294926 0.150515 0.000000
0.612451 0.195346 0.000000
0.871244 0.297795 0.000000
1.000000 0.413062 0.000000
1.000000 0.497902 0.000000
1.000000 0.567651 0.079835
0.000000 0.201968 0.131258
0.004425 0.196048 0.139651
0.114168 0.220676 0.144320
0.585107 0.401526 0.000000
0.858274 0.459785 0.000000
1.000000 0.516625 0.000000
1.000000 0.572686 0.000000
1.000000 0.618494 0.156924
0.000000 0.394598 0.242008
0.039673 0.387091 0.247654
0.251194 0.373846 0.267857
0.312261 0.443885 0.283299
0.786038 0.656855 0.000000
0.975860 0.661494 0.000000
1.000000 0.668299 0.000000
1.000000 0.683803 0.200015
0.068727 0.590448 0.387640
0.198947 0.585595 0.391821
0.367010 0.570672 0.412634
0.446601 0.578332 0.429725
0.496376 0.624048 0.435676
0.852201 0.765133 0.322850
0.999115 0.762722 0.180056
1.000000 0.755947 0.240970
0.360174 0.728237 0.534844
0.399908 0.730739 0.544518
0.489387 0.720668 0.555688
0.591821 0.703365 0.577874
0.614557 0.716548 0.576196
0.655818 0.747402 0.585595
0.902892 0.834195 0.532952
1.000000 0.832883 0.461280
0.562982 0.817716 0.667414
0.577356 0.816953 0.670253
0.620417 0.810666 0.674983
0.684596 0.800168 0.686213
0.728450 0.792416 0.694606
0.742702 0.802060 0.693172
0.771542 0.819486 0.702052
0.921660 0.867369 0.673548
0.723171 0.868437 0.773404
0.728359 0.867674 0.774014
0.749844 0.864866 0.777432
0.785367 0.860136 0.784848
0.812863 0.848753 0.784512
0.831937 0.850919 0.790738
0.843320 0.857725 0.793149
0.859831 0.867491 0.799496
0.000000 0.022309 0.100404
0.000000 0.047395 0.089784
0.272679 0.067292 0.106844
0.579400 0.117952 0.100374
0.855253 0.249302 0.000000
1.000000 0.385046 0.000000
1.000000 0.481086 0.010559
1.000000 0.556390 0.180941
0.000000 0.092775 0.106966
0.000000 0.103151 0.108217
0.267918 0.139559 0.112062
0.573632 0.188815 0.091279
0.845426 0.292973 0.000000
0.997742 0.405463 0.000000
1.000000 0.489021 0.000000
1.000000 0.559197 0.167239
0.000000 0.213443 0.156222
0.000000 0.217716 0.169589
0.142611 0.236484 0.179171
0.570581 0.377874 0.000000
0.828916 0.438025 0.000000
0.980255 0.498512 0.000000
1.000000 0.553643 0.011292
1.000000 0.605798 0.196475
0.000000 0.391699 0.246250
0.000000 0.390143 0.264775
0.260258 0.375128 0.288334
0.305669 0.428199 0.293767
0.751156 0.619593 0.054963
0.949828 0.632898 0.000000
1.000000 0.647364 0.079377
1.000000 0.670314 0.218204
0.000000 0.590692 0.396063
0.173648 0.585626 0.402289
0.356420 0.567773 0.418891
0.439185 0.566766 0.432410
0.483009 0.608515 0.433845
0.839353 0.751431 0.326024
0.993133 0.752316 0.198917
1.000000 0.749233 0.263218
0.338293 0.722713 0.533806
0.370733 0.720516 0.536950
0.468452 0.710903 0.548669
0.577813 0.695094 0.572137
0.606622 0.708553 0.574121
0.651514 0.742641 0.586816
0.900450 0.831144 0.533837
1.000000 0.829191 0.462379
0.544091 0.813260 0.661250
0.554467 0.810880 0.660853
0.600305 0.804288 0.665339
0.670161 0.794217 0.678035
0.721859 0.787442 0.690639
0.736385 0.797543 0.689296
0.763943 0.814725 0.696101
0.918791 0.864134 0.664973
0.711238 0.866423 0.768276
0.718685 0.866117 0.770199
0.740780 0.863127 0.773373
0.778225 0.858335 0.781033
0.817838 0.851621 0.791104
0.834440 0.851865 0.794369
0.843229 0.857359 0.794003
0.859525 0.867033 0.799954
0.000000 0.038880 0.255772
0.000000 0.053223 0.242771
0.211948 0.106386 0.210239
0.550378 0.118685 0.264622
0.835721 0.253330 0.308690
0.989624 0.412146 0.334783
1.000000 0.516381 0.362341
1.000000 0.590295 0.395544
0.000000 0.091371 0.266880
0.000000 0.106294 0.263951
0.222416 0.150637 0.229496
0.540642 0.182864 0.276677
0.822629 0.294835 0.308751
0.978912 0.427100 0.329595
1.000000 0.520317 0.351934
1.000000 0.591791 0.386236
0.000000 0.236393 0.289097
0.000000 0.246342 0.291081
0.240391 0.283787 0.293919
0.542626 0.346105 0.305821
0.814481 0.431708 0.316106
0.966491 0.509239 0.331060
1.000000 0.573022 0.357153
1.000000 0.626612 0.393103
0.000000 0.426856 0.348638
0.000000 0.432166 0.351446
0.280613 0.443763 0.382696
0.384894 0.482612 0.398047
0.788754 0.611261 0.314458
0.940520 0.632166 0.334478
1.000000 0.658259 0.368688
1.000000 0.685451 0.406256
0.000000 0.609583 0.448951
0.000000 0.610742 0.452735
0.354406 0.609766 0.487678
0.491249 0.597314 0.510277
0.534874 0.638758 0.515435
0.852598 0.751125 0.436072
0.988525 0.750057 0.378241
1.000000 0.754147 0.421912
0.255222 0.732601 0.553429
0.308354 0.733333 0.559197
0.469825 0.728176 0.590204
0.586297 0.711269 0.607874
0.628809 0.716304 0.614038
0.670985 0.749081 0.625849
0.901457 0.829007 0.581872
1.000000 0.827787 0.525963
0.507286 0.821073 0.667872
0.531975 0.819303 0.673823
0.605341 0.812863 0.690669
0.675105 0.802029 0.699825
0.734829 0.791226 0.712825
0.749477 0.801572 0.712642
0.778073 0.819547 0.721523
0.925048 0.867399 0.695033
0.690181 0.869718 0.768032
0.702144 0.868620 0.771817
0.736477 0.865446 0.781064
0.777584 0.861112 0.789517
0.818418 0.854307 0.798611
0.840360 0.853544 0.804501
0.849363 0.859312 0.804807
0.865110 0.868956 0.810330
0.000000 0.051972 0.466499
0.000000 0.058228 0.461341
0.212955 0.096407 0.424109
0.439033 0.173312 0.397070
0.769039 0.273716 0.469703
0.950713 0.409796 0.521996
1.000000 0.547356 0.562432
1.000000 0.626093 0.579980
0.000000 0.099794 0.484413
0.000000 0.109804 0.477974
0.223087 0.139956 0.442725
0.450019 0.215885 0.414038
0.770382 0.313420 0.482643
0.942901 0.443610 0.537041
1.000000 0.557549 0.563043
1.000000 0.631952 0.579919
0.000000 0.206363 0.492409
0.000000 0.207401 0.491829
0.164858 0.254307 0.490425
0.464149 0.337255 0.456580
0.762722 0.426246 0.518761
0.925963 0.536400 0.568170
1.000000 0.616846 0.586481
1.000000 0.668452 0.595789
0.000000 0.433997 0.522118
0.000000 0.439918 0.522698
0.000000 0.466651 0.527794
0.488655 0.518517 0.536889
0.745418 0.575616 0.552880
0.900450 0.627192 0.565148
0.986999 0.671962 0.578790
1.000000 0.707301 0.591363
0.000000 0.643549 0.583703
0.000000 0.643763 0.581811
0.205692 0.647913 0.580835
0.538140 0.650690 0.610010
0.620783 0.682277 0.616510
0.871794 0.743923 0.577691
0.965972 0.753170 0.585534
1.000000 0.764920 0.598199
0.155764 0.753231 0.632715
0.256168 0.756741 0.638758
0.421057 0.755032 0.645258
0.605646 0.749874 0.675929
0.680568 0.740719 0.687098
0.712734 0.766781 0.693080
0.907134 0.827176 0.658778
0.999237 0.824643 0.615961
0.462257 0.828122 0.699092
0.485878 0.827848 0.701869
0.565881 0.825864 0.712551
0.684535 0.819486 0.740017
0.754788 0.806577 0.751003
0.775021 0.810636 0.752407
0.798611 0.826261 0.757839
0.934173 0.870878 0.734340
0.653407 0.875822 0.775113
0.664088 0.875212 0.776944
0.705226 0.872984 0.785428
0.775692 0.867765 0.806027
0.819730 0.860563 0.813199
0.849912 0.856199 0.820584
0.858793 0.862150 0.821225
0.874693 0.872404 0.827268
0.000000 0.058015 0.658961
0.000000 0.058686 0.656306
0.000000 0.066712 0.635859
0.461250 0.166598 0.594446
0.663478 0.279026 0.584466
0.885283 0.441047 0.629358
0.983825 0.562860 0.668879
1.000000 0.681239 0.728511
0.000000 0.108248 0.666377
0.000000 0.111391 0.664332
0.000000 0.124544 0.645350
0.467384 0.202274 0.603449
0.666011 0.310094 0.591577
0.882017 0.461982 0.635126
0.980102 0.575647 0.673823
1.000000 0.688777 0.732326
0.000000 0.178195 0.668727
0.000000 0.180575 0.670954
0.000000 0.235660 0.665888
0.472724 0.306004 0.630610
0.664240 0.406714 0.610101
0.863493 0.523033 0.648676
0.965332 0.616083 0.688167
1.000000 0.699794 0.727474
0.000000 0.375677 0.681544
0.000000 0.377142 0.680629
0.000000 0.383948 0.678584
0.434607 0.459144 0.675288
0.668086 0.553307 0.652369
0.848325 0.625299 0.687282
0.942931 0.692683 0.723384
1.000000 0.730617 0.727260
0.000000 0.602838 0.689113
0.000000 0.606561 0.689723
0.000000 0.620111 0.690883
0.359747 0.646265 0.694057
0.673396 0.683467 0.699611
0.833463 0.716701 0.709895
0.932738 0.746822 0.716976
0.992615 0.769589 0.720668
0.000000 0.754055 0.710475
0.000000 0.754726 0.711116
0.144869 0.754757 0.711788
0.491615 0.754116 0.710780
0.689296 0.752010 0.729671
0.753964 0.779110 0.739162
0.914763 0.816464 0.723934
0.980896 0.820737 0.724422
0.306279 0.834775 0.745968
0.338323 0.833677 0.745022
0.446754 0.830594 0.744198
0.601984 0.827268 0.752743
0.745174 0.820859 0.778164
0.792966 0.814572 0.784848
0.814267 0.829740 0.788907
0.937835 0.866819 0.767239
0.522576 0.880827 0.779080
0.540551 0.880003 0.780209
0.607752 0.876921 0.785794
0.710964 0.873411 0.801907
0.806699 0.867460 0.825589
0.853300 0.859190 0.834165
0.865782 0.863127 0.835966
0.880552 0.873289 0.840543
0.000000 0.075288 0.798062
0.000000 0.073915 0.796414
0.000000 0.072511 0.784390
0.455756 0.139345 0.765743
0.672389 0.304051 0.726772
0.818540 0.415442 0.716396
0.940246 0.587854 0.741726
0.994965 0.685084 0.773556
0.000000 0.113802 0.792721
0.000000 0.115511 0.790280
0.000000 0.123140 0.779904
0.443763 0.171695 0.759152
0.662531 0.316716 0.721248
0.810422 0.426093 0.712673
0.935149 0.590997 0.739651
0.992615 0.685664 0.772061
0.000000 0.179934 0.798764
0.000000 0.192386 0.798825
0.000000 0.229374 0.791958
0.434211 0.276646 0.769314
0.665522 0.393591 0.734066
0.805844 0.499611 0.724605
0.925872 0.631952 0.751736
0.984863 0.710109 0.781857
0.000000 0.320500 0.794430
0.000000 0.319677 0.792996
0.000000 0.330114 0.795682
0.382422 0.425177 0.791867
0.672938 0.520592 0.763363
0.804501 0.612329 0.751400
0.914611 0.698543 0.776516
0.974334 0.751736 0.801297
0.000000 0.533959 0.796323
0.000000 0.535271 0.795529
0.000000 0.541039 0.792844
0.000000 0.552422 0.788876
0.627131 0.628809 0.781369
0.788418 0.700160 0.767910
0.901061 0.748501 0.791775
0.961761 0.788876 0.817075
0.000000 0.716060 0.789731
0.000000 0.719234 0.790890
0.000000 0.725154 0.790097
0.200717 0.736843 0.789364
0.577325 0.753902 0.789914
0.792477 0.782681 0.798123
0.898802 0.805325 0.808164
0.962463 0.820829 0.811582
0.000000 0.844633 0.813260
0.000000 0.844846 0.813718
0.090425 0.843259 0.812894
0.482399 0.840177 0.812955
0.680415 0.835904 0.812924
0.811917 0.829709 0.822690
0.847410 0.841337 0.825315
0.949096 0.863920 0.814481
0.353826 0.889921 0.825772
0.377111 0.889067 0.824979
0.467842 0.886229 0.823514
0.597498 0.881743 0.823484
0.732631 0.875486 0.828916
0.844327 0.869505 0.849912
0.877806 0.866270 0.856138
0.892119 0.877012 0.860319
0.000000 0.096773 0.880522
0.000000 0.098268 0.880491
0.000000 0.104189 0.874479
0.431281 0.150576 0.863249
0.669703 0.272343 0.842069
0.814084 0.435279 0.812894
0.903990 0.537865 0.797635
0.965087 0.675471 0.807309
0.000000 0.122347 0.874449
0.000000 0.124697 0.874876
0.000000 0.132631 0.869169
0.413367 0.171359 0.857023
0.655604 0.278599 0.835416
0.801083 0.432624 0.804562
0.894041 0.530083 0.789334
0.960754 0.665248 0.799680
0.000000 0.185428 0.878080
0.000000 0.198428 0.876982
0.000000 0.219730 0.870848
0.391516 0.258946 0.859007
0.646143 0.346319 0.837369
0.795224 0.487373 0.806271
0.890654 0.580072 0.797757
0.955962 0.700832 0.811765
0.000000 0.264866 0.876768
0.000000 0.263737 0.875914
0.000000 0.294438 0.873533
0.308080 0.377325 0.865202
0.626429 0.452644 0.845823
0.792813 0.572015 0.817319
0.883696 0.654231 0.811063
0.947539 0.743160 0.825040
0.000000 0.446143 0.867826
0.000000 0.443885 0.866056
0.000000 0.439399 0.862425
0.000000 0.444495 0.860838
0.541650 0.551781 0.850309
0.771756 0.638758 0.824979
0.867460 0.713527 0.817350
0.941039 0.779690 0.837583
0.000000 0.640406 0.863096
0.000000 0.641352 0.863035
0.000000 0.643824 0.862119
0.000000 0.649042 0.859220
0.296666 0.657374 0.853208
0.738705 0.726833 0.845609
0.864347 0.786435 0.837797
0.938933 0.819059 0.854612
0.000000 0.795560 0.856992
0.000000 0.797055 0.857298
0.000000 0.799557 0.856291
0.000000 0.804898 0.854826
0.459480 0.811582 0.852384
0.711971 0.821683 0.851713
0.867887 0.840299 0.858091
0.940917 0.855192 0.864958
0.000000 0.893095 0.867521
0.000000 0.893400 0.868009
0.000000 0.894865 0.870665
0.362188 0.892058 0.870756
0.624231 0.884977 0.869139
0.786526 0.879301 0.869200
0.885496 0.875425 0.877562
0.910185 0.884276 0.882658
0.000000 0.127718 0.933227
0.000000 0.131136 0.932921
0.000000 0.142611 0.928710
0.429969 0.188113 0.922148
0.656519 0.285771 0.909789
0.815885 0.429450 0.889342
0.906981 0.561730 0.870359
0.952850 0.645136 0.852873
0.000000 0.143648 0.930510
0.000000 0.146914 0.930297
0.000000 0.159396 0.926757
0.415564 0.200229 0.919890
0.647272 0.291630 0.907622
0.809751 0.430304 0.887297
0.902129 0.559747 0.867552
0.949859 0.642115 0.850278
0.000000 0.196017 0.929351
0.000000 0.205020 0.928649
0.000000 0.218753 0.924926
0.381659 0.260960 0.919677
0.629633 0.338170 0.906828
0.798856 0.459754 0.886168
0.894102 0.583825 0.865904
0.944335 0.662104 0.851194
0.000000 0.215640 0.928008
0.000000 0.225742 0.927947
0.000000 0.268559 0.925689
0.249454 0.339117 0.919036
0.585840 0.408362 0.907073
0.781308 0.515221 0.887724
0.882933 0.631250 0.866056
0.936858 0.701534 0.855833
0.000000 0.342473 0.922210
0.000000 0.341558 0.922576
0.000000 0.334051 0.921935
0.000000 0.351080 0.920287
0.462348 0.478492 0.908141
0.737575 0.568231 0.889525
0.865599 0.677974 0.865843
0.927977 0.745693 0.861662
0.000000 0.531029 0.917479
0.000000 0.529076 0.916777
0.000000 0.522972 0.914641
0.000000 0.513420 0.911894
0.000000 0.506554 0.909178
0.646143 0.640406 0.896910
0.854154 0.736049 0.877653
0.922850 0.799405 0.873899
0.000000 0.714260 0.911040
0.000000 0.714137 0.910735
0.000000 0.713924 0.909606
0.000000 0.715755 0.908110
0.000000 0.720455 0.905119
0.421454 0.731685 0.899107
0.817411 0.793973 0.890501
0.917235 0.839902 0.883818
0.000000 0.854185 0.905058
0.000000 0.854246 0.904753
0.000000 0.855222 0.903960
0.000000 0.857664 0.902800
0.045686 0.859800 0.900664
0.602106 0.861936 0.898009
0.809140 0.868132 0.897154
0.923949 0.885069 0.904082
