20 Preset/Japan Style/【3】LUT video cho PR-AE-FCPX/LUT VIDEO (2)/Japan Style LUT (24).cube
# Created by Adobe Lightroom plugin Export LUT (1.24.0)
# www.johnrellis.com/lightroom/exportlut.htm
# Preset: 24日系胶片（素材江湖）
# Color profile: C:\Program Files (x86)\Common Files\Adobe\Color\Profiles\Recommended\VideoHD.icc
LUT_3D_SIZE 5
DOMAIN_MIN 0.000000 0.000000 0.000000
DOMAIN_MAX 0.903226 0.903226 0.903226
0.105989 0.187930 0.211521
0.271153 0.194888 0.215488
0.784451 0.184634 0.216709
1.000000 0.375097 0.273960
1.000000 0.517479 0.404150
0.000000 0.344732 0.259586
0.319219 0.362982 0.208774
0.743435 0.344274 0.176669
1.000000 0.440772 0.208621
1.000000 0.545861 0.374182
0.472328 0.786191 0.594659
0.434607 0.802243 0.557061
0.779812 0.783383 0.388922
0.971191 0.657435 0.229679
1.000000 0.637842 0.267857
0.740841 0.904875 0.794522
0.739803 0.909850 0.790890
0.749935 0.924712 0.774105
0.886656 0.895689 0.639918
1.000000 0.815610 0.484718
0.851377 0.953491 0.885008
0.851041 0.955108 0.883970
0.841184 0.959075 0.871824
0.861265 0.963592 0.856107
0.944518 0.952300 0.785855
0.107454 0.191653 0.255161
0.238529 0.195193 0.262821
0.732204 0.228092 0.301457
0.989563 0.387396 0.334203
1.000000 0.505364 0.388556
0.183413 0.277714 0.285863
0.287663 0.328252 0.301762
0.726070 0.349187 0.286778
0.974945 0.443122 0.316808
1.000000 0.535760 0.382513
0.538750 0.728969 0.609339
0.524132 0.753964 0.593530
0.744778 0.743984 0.450416
0.942718 0.635462 0.312291
1.000000 0.642145 0.357275
0.758145 0.896269 0.803799
0.758419 0.901976 0.801968
0.764858 0.920714 0.791836
0.883177 0.891966 0.669856
1.000000 0.815793 0.527214
0.857359 0.951446 0.888945
0.856809 0.952972 0.887816
0.856718 0.959869 0.883970
0.870603 0.964691 0.868956
0.946777 0.954314 0.805386
0.069368 0.206607 0.511711
0.358526 0.211429 0.533135
0.744778 0.267094 0.560021
0.962768 0.501396 0.602319
1.000000 0.637537 0.647974
0.000000 0.330022 0.520012
0.344457 0.344671 0.544549
0.746090 0.432959 0.584802
0.932555 0.569421 0.616876
1.000000 0.650568 0.641993
0.548577 0.612421 0.593469
0.613672 0.625238 0.612665
0.718593 0.703700 0.638697
0.898558 0.652552 0.562951
1.000000 0.690578 0.600153
0.773678 0.862730 0.808713
0.782345 0.866087 0.811795
0.801236 0.892393 0.819211
0.874479 0.881224 0.749325
0.990326 0.812131 0.629969
0.864927 0.940764 0.893736
0.872313 0.943023 0.897673
0.874540 0.951659 0.897276
0.882017 0.962646 0.891020
0.944427 0.950896 0.831357
0.313024 0.268742 0.767117
0.474067 0.285405 0.773739
0.789364 0.423224 0.794339
0.937652 0.551324 0.776059
1.000000 0.694331 0.780636
0.311162 0.381842 0.759060
0.469123 0.400580 0.764645
0.770901 0.516564 0.785306
0.918181 0.609644 0.775143
0.996918 0.714473 0.782528
0.337041 0.605646 0.723690
0.417517 0.605097 0.723598
0.692256 0.652857 0.753811
0.873838 0.729763 0.778958
0.963806 0.776150 0.795621
0.734035 0.797238 0.776791
0.749752 0.798947 0.780056
0.802731 0.817105 0.803067
0.854673 0.854612 0.815122
0.959106 0.807187 0.752438
0.853208 0.918334 0.885405
0.858183 0.920928 0.888365
0.879850 0.932341 0.901610
0.905333 0.952941 0.916106
0.944610 0.948791 0.877104
0.521569 0.387945 0.897948
0.589319 0.404181 0.897337
0.774563 0.494270 0.897307
0.931518 0.656336 0.897581
0.996979 0.696223 0.870237
0.513176 0.454261 0.889281
0.580926 0.469612 0.889372
0.763424 0.545830 0.890349
0.920256 0.682765 0.893217
0.988037 0.718166 0.869932
0.385626 0.585351 0.866331
0.487343 0.597467 0.867094
0.710475 0.652735 0.872862
0.886656 0.749935 0.883909
0.964752 0.789487 0.877165
0.510369 0.777890 0.849241
0.531334 0.775235 0.848508
0.616114 0.767697 0.849424
0.823026 0.806394 0.872129
0.944213 0.868009 0.895232
0.789914 0.887846 0.868986
0.798489 0.888609 0.870390
0.835508 0.894865 0.879759
0.890196 0.907469 0.898100
0.935332 0.936278 0.919677
