20 Preset/Japan Style/【3】LUT video cho PR-AE-FCPX/LUT VIDEO (2)/Japan Style LUT (11).cube
# Created by Adobe Lightroom plugin Export LUT (1.24.0)
# www.johnrellis.com/lightroom/exportlut.htm
# Preset: 11日系清新（素材江湖）
# Color profile: C:\Program Files (x86)\Common Files\Adobe\Color\Profiles\Recommended\VideoHD.icc
LUT_3D_SIZE 5
DOMAIN_MIN 0.000000 0.000000 0.000000
DOMAIN_MAX 0.903226 0.903226 0.903226
0.000000 0.011994 0.014374
0.194369 0.006287 0.038819
0.730556 0.000000 0.000000
1.000000 0.000000 0.000000
1.000000 0.000000 0.128084
0.000000 0.168399 0.133242
0.112764 0.173404 0.112734
0.685267 0.213199 0.000000
1.000000 0.182864 0.000000
1.000000 0.298466 0.019806
0.000000 0.532036 0.417426
0.281987 0.503075 0.434974
0.514031 0.556329 0.355657
0.948119 0.606287 0.000000
1.000000 0.579248 0.000000
0.477058 0.777615 0.681880
0.562524 0.772030 0.698604
0.668544 0.720027 0.718410
0.786618 0.783078 0.632197
1.000000 0.789181 0.371832
0.751217 0.876616 0.831327
0.777127 0.874449 0.837217
0.819150 0.861906 0.842466
0.851896 0.849241 0.852079
0.919310 0.879149 0.804501
0.000000 0.067628 0.169192
0.138338 0.074159 0.149874
0.707118 0.000000 0.144839
1.000000 0.000000 0.000000
1.000000 0.201755 0.079225
0.000000 0.202121 0.225895
0.160281 0.228855 0.233738
0.679896 0.238804 0.177249
1.000000 0.273991 0.000000
1.000000 0.334539 0.000000
0.000000 0.562463 0.455390
0.251652 0.553521 0.478676
0.524895 0.571038 0.442786
0.937499 0.605859 0.126467
1.000000 0.587152 0.000000
0.445838 0.785946 0.690120
0.538384 0.780728 0.703304
0.677516 0.739406 0.728237
0.789883 0.787259 0.666224
1.000000 0.792355 0.445197
0.738369 0.879149 0.831388
0.765988 0.876829 0.836851
0.825589 0.867094 0.848631
0.859281 0.851194 0.858335
0.921172 0.881315 0.816312
0.000000 0.138277 0.481758
0.000000 0.143832 0.480018
0.540978 0.151461 0.461830
0.995300 0.176333 0.482155
1.000000 0.389715 0.451667
0.000000 0.248447 0.514733
0.000000 0.269139 0.529442
0.559442 0.311223 0.512108
0.980682 0.358831 0.522484
1.000000 0.465156 0.472816
0.000000 0.566827 0.615290
0.000000 0.579339 0.619043
0.578515 0.631067 0.643427
0.905608 0.644556 0.609522
1.000000 0.638911 0.521050
0.166751 0.816648 0.740444
0.377386 0.810666 0.741024
0.681514 0.792203 0.761898
0.802029 0.800809 0.752712
0.997101 0.799588 0.608759
0.652735 0.890745 0.832578
0.695155 0.887846 0.836820
0.812650 0.878843 0.855619
0.875090 0.858061 0.871000
0.923644 0.885344 0.844846
0.000000 0.255802 0.756802
0.000000 0.261173 0.755093
0.561151 0.276829 0.745480
0.851530 0.366979 0.719539
1.000000 0.552209 0.730373
0.000000 0.324559 0.760311
0.000000 0.346471 0.759884
0.555291 0.368200 0.751827
0.841489 0.454383 0.730617
1.000000 0.592798 0.741451
0.000000 0.534234 0.764218
0.000000 0.535119 0.760128
0.499977 0.583948 0.769436
0.803830 0.643061 0.760250
1.000000 0.703304 0.777096
0.000000 0.778134 0.808713
0.000000 0.779599 0.808377
0.512169 0.787991 0.810452
0.814847 0.813352 0.827207
0.975311 0.812924 0.806149
0.367529 0.916320 0.868193
0.454017 0.914183 0.868315
0.678218 0.902068 0.868406
0.874723 0.886534 0.884428
0.931762 0.894743 0.884611
0.217136 0.433234 0.898192
0.337957 0.433997 0.895903
0.597650 0.445960 0.889097
0.846586 0.480079 0.874571
0.981323 0.560113 0.844785
0.151522 0.468666 0.892821
0.305669 0.470192 0.891081
0.578210 0.479805 0.884489
0.831693 0.509880 0.870634
0.971832 0.585107 0.843992
0.000000 0.546960 0.885283
0.000000 0.549248 0.883513
0.502953 0.591455 0.877958
0.787503 0.610773 0.866331
0.947326 0.677546 0.851316
0.000000 0.727504 0.886503
0.000000 0.724544 0.884459
0.205722 0.718410 0.878447
0.718044 0.747555 0.875547
0.926970 0.804074 0.877317
0.000000 0.881285 0.902464
0.000000 0.880613 0.902007
0.488411 0.880034 0.902403
0.756588 0.880766 0.903716
0.935271 0.900328 0.917876
