20 Preset/Japan Style/【3】LUT video cho PR-AE-FCPX/LUT VIDEO (2)/Japan Style LUT (24).cube
# Created by Adobe Lightroom plugin Export LUT (1.24.0)
# www.johnrellis.com/lightroom/exportlut.htm
# Preset: 24日系胶片（素材江湖）
# Color profile: C:\Program Files (x86)\Common Files\Adobe\Color\Profiles\Recommended\VideoHD.icc
LUT_3D_SIZE 8
DOMAIN_MIN 0.000000 0.000000 0.000000
DOMAIN_MAX 0.903226 0.903226 0.903226
0.105989 0.187930 0.211521
0.134951 0.190494 0.213291
0.338048 0.194430 0.215946
0.653071 0.175113 0.216190
0.876402 0.222141 0.220371
1.000000 0.347692 0.258885
1.000000 0.440955 0.323430
1.000000 0.517479 0.404150
0.098695 0.208621 0.219150
0.142000 0.215244 0.213779
0.323705 0.224704 0.209354
0.609186 0.228061 0.205722
0.844083 0.260929 0.204501
0.987915 0.348425 0.230777
1.000000 0.429297 0.289891
1.000000 0.506340 0.375799
0.000000 0.411048 0.283726
0.000000 0.435401 0.261448
0.396948 0.427314 0.205875
0.650690 0.382238 0.180453
0.843290 0.404944 0.161074
0.976349 0.448157 0.179294
1.000000 0.500847 0.253513
1.000000 0.551202 0.356420
0.290898 0.712032 0.495308
0.264561 0.719814 0.480751
0.308843 0.753201 0.435187
0.717769 0.718105 0.299168
0.890532 0.631189 0.201389
0.964874 0.591119 0.170443
1.000000 0.590356 0.216007
1.000000 0.605005 0.286412
0.572595 0.831907 0.664363
0.568750 0.835080 0.659632
0.561517 0.850919 0.643214
0.639155 0.857633 0.604150
0.818570 0.824308 0.467140
0.946197 0.742580 0.328374
1.000000 0.701045 0.284794
1.000000 0.678035 0.259190
0.708003 0.891142 0.768490
0.714748 0.895537 0.772885
0.712581 0.902037 0.766995
0.714961 0.913725 0.756710
0.766262 0.906126 0.709041
0.876341 0.884916 0.612726
0.982635 0.827115 0.492958
1.000000 0.791775 0.440375
0.792416 0.927672 0.836606
0.793210 0.928893 0.836851
0.791348 0.931853 0.833524
0.789303 0.938018 0.827268
0.796048 0.943847 0.818051
0.834409 0.935393 0.775845
0.911498 0.921813 0.706935
1.000000 0.877958 0.606897
0.851377 0.953491 0.885008
0.851194 0.953857 0.884672
0.851102 0.955779 0.883665
0.851621 0.959564 0.881926
0.841154 0.962127 0.869291
0.855283 0.964355 0.861723
0.886717 0.960204 0.833921
0.944518 0.952300 0.785855
0.107240 0.189517 0.219883
0.129915 0.190433 0.219852
0.300999 0.196689 0.228000
0.585962 0.201205 0.229679
0.833555 0.238712 0.226017
0.976806 0.329625 0.236362
1.000000 0.411505 0.283238
1.000000 0.489174 0.365362
0.113954 0.202426 0.223575
0.138216 0.212131 0.227634
0.308629 0.224155 0.227604
0.581109 0.236240 0.225864
0.824247 0.273106 0.221256
0.965209 0.347082 0.230198
1.000000 0.414984 0.264805
1.000000 0.485481 0.345708
0.129427 0.373419 0.306462
0.013519 0.395361 0.295048
0.374182 0.404913 0.242618
0.621576 0.369787 0.212772
0.811612 0.387549 0.199710
0.948760 0.429725 0.213230
1.000000 0.476661 0.249516
1.000000 0.526970 0.321294
0.300572 0.659510 0.477516
0.282750 0.669642 0.467292
0.283513 0.715908 0.433234
0.672541 0.670497 0.303136
0.844663 0.585809 0.219638
0.928588 0.554070 0.189059
1.000000 0.562463 0.222599
1.000000 0.585779 0.284062
0.575891 0.818418 0.661616
0.570336 0.820768 0.655879
0.558801 0.835782 0.637507
0.621759 0.842557 0.594293
0.800626 0.805081 0.454871
0.930694 0.724849 0.327947
0.991913 0.686976 0.287022
1.000000 0.666194 0.260227
0.701625 0.882963 0.761868
0.701717 0.884855 0.761166
0.700557 0.892271 0.756039
0.704219 0.905760 0.747036
0.758419 0.899779 0.703151
0.871336 0.879606 0.611414
0.977325 0.821744 0.493935
1.000000 0.785885 0.438819
0.786374 0.922789 0.831235
0.784665 0.923064 0.829526
0.782528 0.926116 0.825956
0.781674 0.933074 0.820584
0.790921 0.940764 0.814389
0.829770 0.932067 0.771481
0.907042 0.917174 0.698756
0.997650 0.871672 0.594934
0.846952 0.950835 0.881407
0.847837 0.951629 0.881926
0.847532 0.953491 0.880766
0.848203 0.957519 0.879118
0.847898 0.962982 0.874784
0.858061 0.964630 0.865080
0.886503 0.959716 0.834928
0.943938 0.951568 0.786618
0.105409 0.192721 0.279240
0.157717 0.193332 0.282292
0.302342 0.198062 0.291722
0.629053 0.192721 0.324590
0.843595 0.288670 0.351232
0.971618 0.394415 0.377264
1.000000 0.472023 0.404639
1.000000 0.530083 0.434730
0.073121 0.219944 0.289860
0.152590 0.221866 0.295048
0.322759 0.235813 0.305333
0.604242 0.256870 0.329442
0.831113 0.315068 0.343908
0.959289 0.401556 0.365332
1.000000 0.469978 0.389776
1.000000 0.527337 0.421820
0.225284 0.319097 0.321080
0.266056 0.330022 0.332921
0.362921 0.385412 0.342840
0.614893 0.374548 0.315068
0.825376 0.416724 0.327794
0.948608 0.465736 0.348730
1.000000 0.514031 0.378546
1.000000 0.558221 0.414801
0.441535 0.615351 0.526207
0.467384 0.628321 0.536065
0.477668 0.677668 0.529168
0.673121 0.665766 0.434821
0.836576 0.592126 0.349737
0.924254 0.564019 0.309636
1.000000 0.586603 0.353216
1.000000 0.611231 0.398077
0.635309 0.794095 0.689509
0.633600 0.798367 0.687648
0.630182 0.816770 0.680171
0.659083 0.839048 0.659998
0.802182 0.805570 0.548913
0.921172 0.730373 0.432166
0.983246 0.692195 0.379828
1.000000 0.675990 0.361212
0.728328 0.872496 0.776577
0.729000 0.874846 0.776608
0.728267 0.882414 0.773190
0.727687 0.896452 0.764187
0.767514 0.895079 0.731472
0.867369 0.875334 0.649775
0.967285 0.821866 0.549523
1.000000 0.789517 0.498085
0.802976 0.919524 0.841947
0.801816 0.919921 0.840696
0.799100 0.922667 0.837125
0.797421 0.929320 0.831937
0.802914 0.938628 0.827451
0.836362 0.931212 0.790707
0.907836 0.917754 0.727871
0.993347 0.875975 0.637995
0.854856 0.948943 0.886748
0.854185 0.949187 0.886046
0.853880 0.951080 0.885039
0.855985 0.955718 0.884825
0.855955 0.961334 0.881163
0.865232 0.964660 0.874784
0.891020 0.960052 0.847044
0.944793 0.952209 0.801999
0.074250 0.199557 0.418860
0.177554 0.200656 0.428901
0.394842 0.208469 0.450507
0.613916 0.217807 0.463203
0.859586 0.317662 0.507530
0.948272 0.459113 0.537346
1.000000 0.544427 0.561761
1.000000 0.592737 0.574640
0.000000 0.234867 0.436591
0.173342 0.238468 0.442725
0.407202 0.257023 0.463478
0.628931 0.277317 0.478157
0.853941 0.370092 0.516808
0.935119 0.496040 0.551751
1.000000 0.549035 0.557183
1.000000 0.595850 0.571283
0.000000 0.355688 0.439460
0.138064 0.358709 0.444068
0.374273 0.375525 0.470741
0.637903 0.426886 0.504723
0.811887 0.497444 0.537438
0.926085 0.545647 0.546929
0.997894 0.595789 0.565606
1.000000 0.627680 0.577020
0.457221 0.531426 0.515312
0.483650 0.535424 0.521294
0.557336 0.573907 0.558495
0.648157 0.629419 0.559228
0.793576 0.576196 0.484871
0.903471 0.594446 0.496986
0.981903 0.623865 0.521630
1.000000 0.651423 0.546868
0.656489 0.756588 0.697200
0.662501 0.759792 0.699855
0.691402 0.776822 0.714199
0.707332 0.817105 0.718807
0.798459 0.798795 0.648981
0.900328 0.736538 0.560906
0.965484 0.700587 0.502953
1.000000 0.700374 0.513054
0.756924 0.858579 0.793942
0.765499 0.863035 0.799710
0.774929 0.869413 0.803281
0.776669 0.885100 0.800961
0.794308 0.894621 0.785458
0.866239 0.873136 0.713863
0.952728 0.824704 0.630823
1.000000 0.794491 0.580011
0.822080 0.911131 0.853574
0.824949 0.912200 0.855070
0.825223 0.916381 0.854643
0.825895 0.924224 0.852964
0.826993 0.934783 0.848142
0.849760 0.931518 0.823514
0.908202 0.917388 0.767727
0.984924 0.879118 0.691676
0.871031 0.946410 0.897887
0.870878 0.946838 0.897642
0.870634 0.948821 0.896941
0.870939 0.952941 0.895933
0.871092 0.958740 0.893217
0.876829 0.964752 0.890593
0.897734 0.960418 0.865629
0.946471 0.953368 0.826871
0.126314 0.217227 0.601282
0.229038 0.218784 0.608515
0.451362 0.227634 0.624262
0.701961 0.297612 0.653040
0.835782 0.354986 0.644709
0.950683 0.500237 0.664118
0.990509 0.590997 0.671138
1.000000 0.676722 0.707332
0.123262 0.258122 0.607996
0.233799 0.262181 0.615381
0.459632 0.278691 0.630945
0.701350 0.350195 0.655787
0.832975 0.401465 0.649897
0.942931 0.525475 0.667536
0.984863 0.604456 0.674617
1.000000 0.687037 0.712276
0.000000 0.376898 0.598291
0.165560 0.379828 0.605310
0.433356 0.402899 0.627985
0.682734 0.477180 0.657008
0.810056 0.519402 0.656641
0.909087 0.584771 0.666255
0.962036 0.642176 0.680415
1.000000 0.687465 0.698421
0.288548 0.548516 0.607874
0.325994 0.550439 0.609583
0.446845 0.560754 0.619013
0.625116 0.586877 0.644923
0.780453 0.638422 0.669398
0.868742 0.665492 0.676081
0.944884 0.683528 0.676692
1.000000 0.701930 0.680934
0.625483 0.680964 0.661219
0.638270 0.683986 0.665248
0.682795 0.694331 0.680323
0.722805 0.734798 0.714443
0.770230 0.762081 0.702754
0.858915 0.712093 0.635523
0.936156 0.708705 0.627649
0.997864 0.723445 0.643671
0.738094 0.813626 0.770840
0.741878 0.816007 0.773220
0.754116 0.823239 0.779873
0.779599 0.839139 0.794003
0.793210 0.869657 0.799924
0.853452 0.857694 0.753780
0.931518 0.815152 0.688014
0.987335 0.785611 0.637659
0.812863 0.893339 0.846464
0.814023 0.893767 0.846799
0.821134 0.897032 0.850126
0.839963 0.905882 0.860227
0.843381 0.920409 0.860533
0.855924 0.927306 0.849058
0.903746 0.911498 0.797696
0.972473 0.873747 0.728969
0.857816 0.935760 0.890013
0.859464 0.936248 0.890806
0.866911 0.938476 0.894499
0.880980 0.944518 0.902464
0.882506 0.951843 0.902037
0.885344 0.960540 0.900206
0.901335 0.958892 0.882506
0.944823 0.950744 0.844541
0.289616 0.260472 0.749996
0.348028 0.264500 0.752804
0.513970 0.283085 0.757595
0.712825 0.356695 0.771725
0.858885 0.472267 0.784939
0.928099 0.531395 0.762387
0.987366 0.638422 0.769314
1.000000 0.697444 0.770779
0.284031 0.295506 0.739437
0.339422 0.299077 0.740932
0.504723 0.318303 0.747585
0.701045 0.384863 0.762325
0.846006 0.487892 0.775021
0.918425 0.541772 0.756283
0.980774 0.641505 0.765133
1.000000 0.697993 0.767880
0.276738 0.412512 0.739925
0.336797 0.417670 0.741604
0.507134 0.442908 0.749813
0.690547 0.499092 0.759609
0.830076 0.586389 0.775051
0.901457 0.619776 0.763668
0.962860 0.685908 0.772030
0.994781 0.726253 0.776120
0.252903 0.550866 0.719051
0.289860 0.549706 0.718379
0.443824 0.559716 0.726040
0.663294 0.616938 0.755550
0.814572 0.696803 0.783597
0.883330 0.717128 0.782101
0.938415 0.745968 0.785397
0.976257 0.769436 0.791714
0.507866 0.691310 0.720607
0.521447 0.692195 0.721218
0.573175 0.697078 0.724788
0.651789 0.707271 0.733059
0.746120 0.721645 0.748989
0.846067 0.756771 0.768002
0.907164 0.771481 0.773922
0.964111 0.781613 0.777035
0.715084 0.775326 0.754726
0.723171 0.778439 0.758358
0.744869 0.782712 0.764797
0.778897 0.793301 0.778988
0.806363 0.820798 0.802945
0.841733 0.840970 0.797787
0.906676 0.799557 0.741756
0.967468 0.795834 0.737911
0.811673 0.868498 0.839048
0.814420 0.870390 0.841093
0.821683 0.875059 0.845914
0.835874 0.884337 0.855283
0.857084 0.898100 0.868498
0.869352 0.919829 0.875029
0.902312 0.907591 0.836851
0.960204 0.873014 0.782437
0.853544 0.922667 0.886595
0.854215 0.922942 0.886809
0.859251 0.925353 0.889555
0.871275 0.931273 0.896605
0.889921 0.939879 0.907225
0.898650 0.951751 0.911437
0.909148 0.958373 0.905486
0.944579 0.949187 0.870176
0.420935 0.319646 0.838071
0.457099 0.326299 0.840146
0.565820 0.348455 0.841428
0.713069 0.410193 0.845792
0.845151 0.519005 0.850553
0.927337 0.586969 0.850767
0.968505 0.631006 0.825742
1.000000 0.706844 0.823789
0.411170 0.343084 0.828763
0.447700 0.349889 0.831388
0.557092 0.370703 0.833433
0.702327 0.424964 0.837461
0.835325 0.524895 0.842863
0.918425 0.587488 0.842985
0.961334 0.626337 0.818021
1.000000 0.699611 0.816861
0.416266 0.442634 0.825162
0.448157 0.447150 0.825772
0.553094 0.466377 0.827359
0.694484 0.514672 0.831937
0.821836 0.592615 0.838315
0.904509 0.647730 0.841978
0.949859 0.680293 0.825101
0.990021 0.739437 0.828244
0.364202 0.551995 0.809415
0.399145 0.554040 0.809659
0.520897 0.572107 0.814145
0.670527 0.612573 0.823026
0.800534 0.672572 0.833951
0.887114 0.728084 0.844785
0.933318 0.748562 0.835691
0.973877 0.781369 0.837919
0.409064 0.668086 0.789487
0.420386 0.666011 0.788083
0.473610 0.663050 0.787167
0.560021 0.658717 0.788876
0.744747 0.712184 0.813962
0.861875 0.778653 0.837919
0.912718 0.792386 0.836912
0.956420 0.814298 0.842954
0.595270 0.776364 0.792966
0.602197 0.777005 0.793606
0.628504 0.778744 0.795499
0.673884 0.782162 0.799405
0.732357 0.786404 0.805020
0.814054 0.800748 0.821225
0.893614 0.833219 0.840696
0.936797 0.845579 0.848203
0.763516 0.839902 0.819913
0.767758 0.841032 0.821408
0.781521 0.843229 0.824796
0.806882 0.848234 0.832303
0.839628 0.855802 0.843870
0.865324 0.876951 0.864408
0.890929 0.892119 0.862638
0.940093 0.854887 0.813413
0.849943 0.899565 0.876616
0.851347 0.900481 0.877653
0.857969 0.904936 0.882597
0.868406 0.911772 0.890013
0.883268 0.921569 0.900420
0.903441 0.934905 0.914153
0.919524 0.953429 0.924559
0.944671 0.947448 0.898711
0.521569 0.387945 0.897948
0.542626 0.393622 0.898497
0.611292 0.410834 0.897093
0.718471 0.458106 0.897337
0.827024 0.535943 0.897002
0.914061 0.630945 0.897093
0.970733 0.662837 0.895598
0.996979 0.696223 0.870237
0.515038 0.403479 0.893217
0.536309 0.409155 0.893889
0.606531 0.427131 0.893492
0.713100 0.470985 0.893645
0.821988 0.544671 0.893767
0.909850 0.635798 0.894438
0.966705 0.665278 0.892729
0.993896 0.696193 0.867613
0.507561 0.472816 0.886412
0.527581 0.477028 0.886595
0.597009 0.492592 0.886198
0.706447 0.536492 0.888792
0.811734 0.594995 0.889281
0.898589 0.669764 0.890776
0.955596 0.698634 0.890562
0.984833 0.723323 0.869047
0.468513 0.557733 0.874937
0.493629 0.563012 0.875761
0.567773 0.575616 0.876432
0.679774 0.607965 0.878965
0.790524 0.656672 0.882383
0.881468 0.719478 0.887388
0.939849 0.751278 0.890196
0.971801 0.768612 0.874754
0.241489 0.620203 0.853483
0.292058 0.622248 0.854765
0.421790 0.627039 0.857267
0.597375 0.654932 0.863249
0.743008 0.699092 0.870451
0.852964 0.754910 0.879698
0.921996 0.797818 0.888914
0.958282 0.813504 0.881926
0.450141 0.746639 0.845975
0.455665 0.745113 0.845335
0.483558 0.740597 0.844144
0.539757 0.734096 0.844297
0.617609 0.723171 0.846403
0.806210 0.785092 0.869993
0.909728 0.850217 0.895048
0.947509 0.860472 0.894255
0.644556 0.843137 0.855772
0.648371 0.843137 0.855863
0.664973 0.843351 0.856626
0.698238 0.844999 0.859159
0.740993 0.845823 0.861662
0.790524 0.846220 0.865202
0.866087 0.858366 0.879301
0.934386 0.889311 0.897887
0.789914 0.887846 0.868986
0.791958 0.887907 0.869169
0.801968 0.889036 0.871122
0.822324 0.892424 0.876188
0.849882 0.897581 0.883848
0.881712 0.905028 0.894652
0.911467 0.919768 0.912016
0.935332 0.936278 0.919677
