20 Preset/Japan Style/【3】LUT video cho PR-AE-FCPX/LUT VIDEO (2)/Japan Style LUT (14).cube
# Created by Adobe Lightroom plugin Export LUT (1.24.0)
# www.johnrellis.com/lightroom/exportlut.htm
# Preset: 14日系清新（素材江湖）
# Color profile: C:\Program Files (x86)\Common Files\Adobe\Color\Profiles\Recommended\VideoHD.icc
LUT_3D_SIZE 8
DOMAIN_MIN 0.000000 0.000000 0.000000
DOMAIN_MAX 0.903226 0.903226 0.903226
0.162783 0.151125 0.167880
0.181094 0.152712 0.168215
0.319585 0.172976 0.162875
0.540368 0.228672 0.136233
0.768002 0.295598 0.014405
0.925231 0.346166 0.000000
1.000000 0.378943 0.000000
1.000000 0.402136 0.000000
0.163119 0.169345 0.174838
0.181918 0.173861 0.170779
0.322515 0.214084 0.155947
0.532036 0.268254 0.125704
0.756435 0.329107 0.000000
0.913512 0.371038 0.000000
1.000000 0.396857 0.000000
1.000000 0.415778 0.000000
0.075227 0.315709 0.221256
0.165103 0.316289 0.221134
0.309209 0.325872 0.171054
0.527672 0.378271 0.072114
0.747280 0.446967 0.000000
0.900908 0.466041 0.000000
0.998688 0.472480 0.000000
1.000000 0.474495 0.000000
0.000000 0.554650 0.352270
0.000000 0.556054 0.343084
0.329625 0.558862 0.358526
0.500572 0.556146 0.209873
0.728084 0.567193 0.000000
0.876585 0.587488 0.000000
0.975250 0.586175 0.000000
1.000000 0.567437 0.000000
0.270298 0.719234 0.518883
0.295781 0.719753 0.517082
0.434485 0.719966 0.540490
0.515251 0.720821 0.500572
0.629572 0.708248 0.324407
0.831113 0.692378 0.000000
0.938842 0.684962 0.000000
1.000000 0.671046 0.000000
0.514122 0.803281 0.656458
0.525994 0.804593 0.658900
0.570184 0.804471 0.666926
0.657710 0.802792 0.694972
0.654627 0.803128 0.620630
0.717769 0.796139 0.475135
0.878202 0.782071 0.200839
0.982177 0.768185 0.022980
0.657618 0.853513 0.750210
0.661738 0.853727 0.750820
0.676020 0.853819 0.751797
0.719966 0.852415 0.765621
0.749844 0.851987 0.765011
0.748226 0.853635 0.709529
0.787442 0.852110 0.609674
0.901244 0.845792 0.418189
0.752529 0.888121 0.815763
0.754177 0.888090 0.815854
0.761257 0.888121 0.816464
0.780545 0.887602 0.821683
0.807401 0.885191 0.829496
0.813535 0.887205 0.816922
0.817868 0.890562 0.780636
0.847166 0.892454 0.714839
0.164370 0.151095 0.184237
0.183047 0.151034 0.183291
0.316899 0.152285 0.183841
0.526513 0.211185 0.170809
0.754940 0.281773 0.131044
0.912566 0.336309 0.064637
1.000000 0.372930 0.000641
1.000000 0.398871 0.023438
0.160555 0.170413 0.191348
0.186587 0.174990 0.189914
0.319982 0.203159 0.181186
0.525902 0.255741 0.162417
0.750027 0.318517 0.116915
0.906676 0.363043 0.016083
1.000000 0.391760 0.000000
1.000000 0.412787 0.000000
0.150118 0.312932 0.258579
0.178744 0.315801 0.246769
0.310033 0.324102 0.208133
0.524559 0.373816 0.134279
0.737972 0.435584 0.000000
0.892119 0.456855 0.000000
0.990051 0.465370 0.000000
1.000000 0.470192 0.000000
0.000000 0.540826 0.375830
0.089113 0.543053 0.367346
0.347448 0.548608 0.386389
0.491798 0.542779 0.247105
0.713008 0.553674 0.000000
0.864408 0.577111 0.000000
0.966918 0.577874 0.000000
1.000000 0.562310 0.000000
0.300023 0.714443 0.532708
0.320989 0.714748 0.530419
0.437690 0.715358 0.546563
0.523095 0.714961 0.516472
0.626764 0.701472 0.346777
0.825376 0.686152 0.000000
0.934722 0.680812 0.000000
1.000000 0.668238 0.000000
0.520012 0.800198 0.661006
0.528557 0.800534 0.661402
0.568658 0.801053 0.667384
0.656916 0.799954 0.695766
0.658747 0.800412 0.629145
0.719051 0.793942 0.490120
0.877134 0.780056 0.230808
0.980255 0.766171 0.137331
0.658656 0.851774 0.751553
0.661677 0.851652 0.751369
0.675746 0.851774 0.752193
0.718685 0.850828 0.765377
0.752285 0.850706 0.767971
0.750057 0.852232 0.713680
0.787503 0.850248 0.614649
0.900267 0.843687 0.425818
0.752438 0.887297 0.816159
0.754604 0.887419 0.816587
0.761593 0.887449 0.817105
0.780087 0.887083 0.821836
0.810117 0.885832 0.832120
0.816495 0.887327 0.820249
0.819638 0.890318 0.783841
0.848295 0.892149 0.719112
0.169100 0.147616 0.293339
0.207401 0.144320 0.289647
0.312993 0.134310 0.287327
0.556756 0.030030 0.300542
0.760830 0.217563 0.300175
0.912474 0.313664 0.292821
1.000000 0.370275 0.288792
1.000000 0.404761 0.287449
0.123934 0.178317 0.303685
0.186984 0.174746 0.300206
0.321965 0.176242 0.293309
0.544457 0.172854 0.289158
0.753597 0.273045 0.295811
0.905425 0.343786 0.288212
0.998260 0.387762 0.281773
1.000000 0.417090 0.282048
0.080903 0.300511 0.337316
0.153628 0.312383 0.341955
0.326696 0.321965 0.323552
0.530877 0.366094 0.282444
0.743587 0.411627 0.271550
0.893492 0.440955 0.264256
0.988220 0.459113 0.264408
1.000000 0.470771 0.270268
0.193973 0.529778 0.464790
0.260868 0.532677 0.463691
0.370489 0.546288 0.452155
0.504997 0.543938 0.371374
0.721248 0.554131 0.241398
0.866880 0.573968 0.220188
0.967254 0.570886 0.222477
1.000000 0.560357 0.242466
0.390692 0.705318 0.589441
0.406928 0.706447 0.587823
0.468391 0.711513 0.585779
0.580835 0.713954 0.597742
0.643549 0.702083 0.453040
0.826780 0.686122 0.243198
0.933562 0.679805 0.228519
1.000000 0.668238 0.209903
0.561517 0.795987 0.691249
0.569116 0.796536 0.691585
0.597772 0.798123 0.692988
0.671168 0.798611 0.713985
0.688685 0.798337 0.675044
0.732265 0.791867 0.556329
0.879576 0.779477 0.338262
0.977386 0.765774 0.295354
0.680720 0.850828 0.768673
0.683558 0.850767 0.768551
0.696132 0.850950 0.768856
0.729152 0.850950 0.776730
0.771664 0.850614 0.788266
0.766964 0.851835 0.740658
0.798642 0.849973 0.655512
0.903655 0.844694 0.490150
0.762966 0.887114 0.825071
0.764370 0.887083 0.824979
0.771054 0.887144 0.825406
0.785946 0.887480 0.828122
0.815183 0.886442 0.838071
0.826688 0.887449 0.831876
0.828550 0.890288 0.798672
0.854520 0.891936 0.739925
0.176699 0.130617 0.478553
0.229129 0.124971 0.476204
0.358343 0.110964 0.461341
0.520073 0.055634 0.465126
0.794308 0.000000 0.493965
0.921538 0.208957 0.452186
0.981903 0.404547 0.501579
1.000000 0.455360 0.499458
0.097993 0.171298 0.487037
0.194247 0.168826 0.483650
0.355413 0.165377 0.468757
0.523186 0.159152 0.467018
0.788113 0.148196 0.489174
0.911681 0.280613 0.462898
0.978912 0.420752 0.499763
1.000000 0.465888 0.497688
0.000000 0.312657 0.493446
0.000000 0.313939 0.492439
0.311009 0.311009 0.484901
0.540063 0.324926 0.481422
0.751369 0.363256 0.480323
0.879973 0.444343 0.498024
0.970489 0.486976 0.498177
1.000000 0.510338 0.494881
0.000000 0.486549 0.541100
0.000000 0.491463 0.542504
0.314031 0.515282 0.542473
0.532952 0.531090 0.529351
0.715389 0.545525 0.457710
0.855192 0.565148 0.459205
0.952331 0.573632 0.466957
1.000000 0.576806 0.471138
0.359319 0.690669 0.645045
0.400427 0.690669 0.645808
0.526879 0.692622 0.654078
0.625360 0.706538 0.665644
0.673060 0.698878 0.588098
0.824369 0.684504 0.445136
0.925322 0.682490 0.443793
0.999695 0.673335 0.437995
0.610834 0.788449 0.735012
0.619532 0.790005 0.736080
0.643885 0.792386 0.735622
0.687922 0.797391 0.740017
0.737240 0.798489 0.741421
0.756741 0.790219 0.650660
0.885283 0.779294 0.476234
0.968841 0.767208 0.467811
0.708248 0.848142 0.793454
0.711513 0.848417 0.793668
0.724117 0.849424 0.794217
0.746883 0.851347 0.796445
0.792111 0.852171 0.811460
0.794400 0.852293 0.782101
0.815610 0.849332 0.712978
0.909514 0.845182 0.577630
0.780148 0.887236 0.840696
0.781582 0.887266 0.840665
0.787900 0.887449 0.840848
0.799924 0.887938 0.841794
0.822995 0.887816 0.847929
0.843870 0.887968 0.851102
0.842893 0.890349 0.822232
0.864714 0.891783 0.772488
0.189181 0.102998 0.663935
0.244694 0.096071 0.662440
0.385321 0.055299 0.652918
0.547265 0.025147 0.634668
0.733303 0.000000 0.644709
0.926635 0.182162 0.642054
0.991180 0.363226 0.611261
1.000000 0.491066 0.634668
0.124453 0.162936 0.666560
0.210849 0.160220 0.665217
0.375097 0.152743 0.656153
0.546502 0.152132 0.637263
0.731746 0.138582 0.643458
0.922637 0.254917 0.644221
0.984314 0.396979 0.617182
1.000000 0.517418 0.646754
0.000000 0.311254 0.670954
0.000000 0.305333 0.669947
0.320378 0.306340 0.661952
0.537255 0.313115 0.643824
0.728725 0.334844 0.644007
0.889525 0.417334 0.642817
0.956542 0.496895 0.638392
0.987182 0.595331 0.682704
0.000000 0.467720 0.663844
0.000000 0.469947 0.662867
0.290105 0.481544 0.659724
0.507652 0.502434 0.651453
0.716365 0.531579 0.651942
0.829679 0.580072 0.660914
0.918212 0.611902 0.665949
0.983001 0.630335 0.666468
0.000000 0.637415 0.694667
0.136599 0.640467 0.695460
0.342046 0.657893 0.700221
0.572015 0.670558 0.695094
0.699489 0.683345 0.693233
0.809354 0.676875 0.622553
0.904540 0.685817 0.627466
0.974731 0.686580 0.634913
0.516320 0.774838 0.752102
0.535210 0.774899 0.752743
0.602014 0.774685 0.755276
0.695125 0.776791 0.764675
0.759579 0.789914 0.778531
0.778042 0.784024 0.728328
0.879515 0.773434 0.619196
0.954009 0.769284 0.621241
0.699397 0.842557 0.810666
0.706111 0.842435 0.811460
0.733364 0.842618 0.815640
0.761685 0.845853 0.818021
0.793515 0.850767 0.822568
0.822202 0.852110 0.822416
0.832334 0.847349 0.766995
0.918120 0.843229 0.654078
0.790433 0.885283 0.856382
0.791958 0.885344 0.856291
0.798520 0.885740 0.856077
0.812100 0.887053 0.857053
0.829404 0.888426 0.858824
0.858915 0.888853 0.868894
0.859220 0.890227 0.848661
0.875303 0.890837 0.806058
0.216220 0.107576 0.789639
0.261540 0.105623 0.788724
0.387854 0.097993 0.783230
0.544549 0.101228 0.773922
0.707607 0.141634 0.758114
0.875914 0.169070 0.765255
0.984009 0.358129 0.739773
1.000000 0.492287 0.725673
0.187411 0.167758 0.787198
0.240848 0.167239 0.786007
0.377722 0.165591 0.781125
0.539086 0.170047 0.771328
0.703914 0.197696 0.755642
0.870176 0.228214 0.761532
0.978485 0.388617 0.740627
1.000000 0.508934 0.728115
0.000000 0.307347 0.788693
0.147463 0.307927 0.787472
0.348394 0.311131 0.782742
0.529595 0.319432 0.772030
0.701137 0.343236 0.756680
0.856443 0.386328 0.757565
0.959869 0.498573 0.751400
0.998962 0.575982 0.742977
0.000000 0.473365 0.785550
0.000000 0.475929 0.784665
0.313512 0.482918 0.781003
0.530877 0.500542 0.773587
0.699275 0.516991 0.760189
0.838010 0.557855 0.761196
0.924956 0.621363 0.764004
0.969207 0.661463 0.765621
0.245884 0.599939 0.771633
0.284672 0.602289 0.770993
0.398291 0.612238 0.768887
0.540917 0.630854 0.764889
0.676722 0.653040 0.758541
0.809354 0.678370 0.761196
0.879789 0.709285 0.772610
0.940520 0.729030 0.779751
0.383673 0.734768 0.788113
0.404974 0.736660 0.788785
0.472633 0.742184 0.789425
0.582086 0.759640 0.793698
0.722316 0.765011 0.790585
0.800381 0.777035 0.794034
0.871061 0.768826 0.745510
0.937621 0.775265 0.751980
0.621881 0.837522 0.828611
0.632288 0.837644 0.828946
0.669245 0.837644 0.829770
0.729824 0.838437 0.833005
0.799130 0.841764 0.842069
0.842100 0.852079 0.852079
0.851286 0.846860 0.819608
0.919402 0.841001 0.748806
0.754116 0.885039 0.863157
0.758083 0.884916 0.863432
0.775326 0.884794 0.865293
0.806607 0.885252 0.869993
0.838895 0.887022 0.875120
0.861143 0.890196 0.878080
0.879606 0.891508 0.878111
0.887938 0.890776 0.842771
0.258762 0.147860 0.867460
0.290990 0.149935 0.867582
0.390936 0.154757 0.864469
0.527428 0.171633 0.859190
0.676875 0.207309 0.850217
0.823239 0.264164 0.840452
0.957580 0.323888 0.841367
1.000000 0.470802 0.805661
0.245609 0.188602 0.862821
0.280217 0.190829 0.863310
0.384009 0.194949 0.860410
0.521660 0.207492 0.854612
0.671107 0.235691 0.845274
0.816190 0.282811 0.834440
0.949096 0.335088 0.834623
1.000000 0.471504 0.800992
0.227665 0.312383 0.863035
0.265934 0.313725 0.862425
0.377722 0.318181 0.859037
0.521386 0.330480 0.853147
0.671138 0.353429 0.843229
0.812833 0.393256 0.831876
0.936431 0.445502 0.832700
0.993103 0.555901 0.812161
0.223178 0.459266 0.861204
0.267857 0.461402 0.860197
0.410742 0.480659 0.855863
0.544030 0.492256 0.850736
0.681117 0.508263 0.841886
0.808835 0.535790 0.830716
0.914305 0.581872 0.831815
0.970550 0.653315 0.826078
0.280064 0.584680 0.851102
0.303807 0.585748 0.849912
0.394110 0.594385 0.847501
0.524163 0.612757 0.844388
0.679652 0.635096 0.836057
0.793393 0.647181 0.826139
0.887785 0.682429 0.828885
0.945769 0.731044 0.835904
0.422431 0.691615 0.839841
0.438483 0.693355 0.839719
0.495399 0.699763 0.838743
0.583215 0.711604 0.837034
0.682185 0.727565 0.834257
0.778897 0.747768 0.831662
0.871489 0.772549 0.837644
0.921263 0.791104 0.843534
0.537621 0.799832 0.850645
0.548058 0.801144 0.851072
0.582971 0.804318 0.851255
0.642115 0.810605 0.852110
0.715236 0.821378 0.854185
0.809384 0.831510 0.855589
0.865537 0.842039 0.860166
0.913878 0.836179 0.830076
0.684260 0.883482 0.881804
0.690547 0.883452 0.881834
0.716793 0.883757 0.882353
0.757687 0.883665 0.882750
0.808072 0.884123 0.884611
0.860502 0.886656 0.891020
0.893858 0.893187 0.898894
0.900999 0.891264 0.877989
0.303380 0.191775 0.916838
0.325353 0.194308 0.916747
0.399969 0.200931 0.914366
0.513054 0.220371 0.911254
0.643275 0.255192 0.905760
0.776547 0.308843 0.897490
0.898894 0.371984 0.891997
1.000000 0.427497 0.890929
0.299260 0.219272 0.914580
0.321904 0.221805 0.914549
0.397864 0.228275 0.912627
0.511254 0.245243 0.909300
0.641688 0.276707 0.903777
0.774533 0.326085 0.895537
0.895720 0.383307 0.889586
1.000000 0.435279 0.888273
0.302068 0.315007 0.911955
0.324743 0.316747 0.911650
0.401038 0.322454 0.909575
0.518029 0.341283 0.907225
0.645991 0.366705 0.901213
0.774197 0.404547 0.892485
0.890562 0.451270 0.886412
0.989136 0.499062 0.885008
0.347356 0.450416 0.907378
0.367742 0.452430 0.907164
0.435218 0.457801 0.905303
0.540459 0.471412 0.902220
0.658930 0.491066 0.896941
0.776516 0.517784 0.889311
0.882658 0.553674 0.882689
0.969360 0.594995 0.881926
0.277928 0.547784 0.903899
0.310399 0.550347 0.903746
0.402228 0.556695 0.901854
0.549248 0.585351 0.897398
0.669520 0.607599 0.891539
0.773892 0.623285 0.884916
0.869749 0.647669 0.877470
0.946014 0.687922 0.879728
0.380682 0.655329 0.896635
0.392615 0.656062 0.896147
0.443580 0.660945 0.894621
0.532586 0.673762 0.892668
0.641840 0.694301 0.890288
0.774685 0.725643 0.885161
0.862242 0.745144 0.881498
0.927703 0.776242 0.884947
0.542168 0.764889 0.894255
0.550256 0.765896 0.894072
0.583032 0.770138 0.893400
0.638300 0.777981 0.892058
0.706538 0.788998 0.890227
0.777249 0.802060 0.888365
0.848508 0.816403 0.885893
0.913176 0.836057 0.889067
0.636439 0.849546 0.897185
0.640955 0.849912 0.897093
0.661677 0.851926 0.897063
0.700587 0.856535 0.897612
0.749386 0.862760 0.898344
0.801755 0.870207 0.899535
0.864836 0.880613 0.901946
0.910246 0.888273 0.906188
