20 Preset/Japan Style/【3】LUT video cho PR-AE-FCPX/LUT VIDEO (2)/Japan Style LUT (6).cube
# Created by Adobe Lightroom plugin Export LUT (1.24.0)
# www.johnrellis.com/lightroom/exportlut.htm
# Preset: 06日系逆光（素材江湖）
# Color profile: C:\Program Files (x86)\Common Files\Adobe\Color\Profiles\Recommended\VideoHD.icc
LUT_3D_SIZE 32
DOMAIN_MIN 0.0 0.0 0.0
DOMAIN_MAX 1.0 1.0 1.0
0.037964 0.036866 0.006653
0.041230 0.037629 0.006500
0.054414 0.037263 0.006287
0.083772 0.038056 0.006683
0.108003 0.038422 0.006470
0.140688 0.033143 0.007904
0.183291 0.018830 0.007111
0.232578 0.000000 0.006622
0.286351 0.000000 0.004944
0.344121 0.000000 0.001434
0.406561 0.000000 0.000000
0.472419 0.000000 0.000000
0.541497 0.000000 0.000000
0.613336 0.000000 0.000000
0.686275 0.000000 0.000000
0.758145 0.000000 0.000000
0.824918 0.000000 0.000000
0.885557 0.000000 0.000000
0.940124 0.000000 0.000000
0.987457 0.000000 0.000000
1.000000 0.000000 0.000000
1.000000 0.000000 0.000000
1.000000 0.000000 0.000000
1.000000 0.000000 0.000000
1.000000 0.000000 0.000000
1.000000 0.000000 0.000000
1.000000 0.000000 0.000000
1.000000 0.000000 0.000000
1.000000 0.000000 0.000000
1.000000 0.000000 0.000000
1.000000 0.000000 0.000000
1.000000 0.076509 0.000000
0.037812 0.040253 0.006195
0.039796 0.040040 0.006195
0.056275 0.040436 0.005829
0.084138 0.040253 0.006348
0.108156 0.040620 0.006134
0.140658 0.036530 0.007446
0.182834 0.021454 0.006836
0.231418 0.000000 0.006348
0.284916 0.000000 0.004730
0.342290 0.000000 0.001129
0.403693 0.000000 0.000000
0.469245 0.000000 0.000000
0.538140 0.000000 0.000000
0.609522 0.000000 0.000000
0.682216 0.000000 0.000000
0.754330 0.000000 0.000000
0.821317 0.000000 0.000000
0.882444 0.000000 0.000000
0.937163 0.000000 0.000000
0.984833 0.000000 0.000000
1.000000 0.000000 0.000000
1.000000 0.000000 0.000000
1.000000 0.000000 0.000000
1.000000 0.000000 0.000000
1.000000 0.000000 0.000000
1.000000 0.000000 0.000000
1.000000 0.000000 0.000000
1.000000 0.000000 0.000000
1.000000 0.000000 0.000000
1.000000 0.000000 0.000000
1.000000 0.000000 0.000000
1.000000 0.034058 0.000000
0.041321 0.052155 0.006775
0.043305 0.051911 0.006775
0.056794 0.051575 0.005432
0.086275 0.053346 0.004517
0.109651 0.053468 0.005432
0.142397 0.050172 0.005432
0.184298 0.034882 0.004791
0.232364 0.003113 0.004486
0.284916 0.000000 0.002594
0.341436 0.000000 0.000000
0.402594 0.000000 0.000000
0.467536 0.000000 0.000000
0.535882 0.000000 0.000000
0.606592 0.000000 0.000000
0.679164 0.000000 0.000000
0.751034 0.000000 0.000000
0.818173 0.000000 0.000000
0.879393 0.000000 0.000000
0.934478 0.000000 0.000000
0.982361 0.000000 0.000000
1.000000 0.000000 0.000000
1.000000 0.000000 0.000000
1.000000 0.000000 0.000000
1.000000 0.000000 0.000000
1.000000 0.000000 0.000000
1.000000 0.000000 0.000000
1.000000 0.000000 0.000000
1.000000 0.000000 0.000000
1.000000 0.000000 0.000000
1.000000 0.000000 0.000000
1.000000 0.000000 0.000000
1.000000 0.062654 0.000000
0.049622 0.076905 0.007752
0.051606 0.076661 0.007752
0.064393 0.077516 0.006256
0.089570 0.078248 0.003235
0.113832 0.079927 0.002533
0.147158 0.077729 0.001221
0.188418 0.061769 0.001678
0.234867 0.032868 0.000000
0.286687 0.000000 0.000000
0.342443 0.000000 0.000000
0.402564 0.000000 0.000000
0.466407 0.000000 0.000000
0.534142 0.000000 0.000000
0.604211 0.000000 0.000000
0.675624 0.000000 0.000000
0.747005 0.000000 0.000000
0.813809 0.000000 0.000000
0.874632 0.000000 0.000000
0.929747 0.000000 0.000000
0.977844 0.000000 0.000000
1.000000 0.000000 0.000000
1.000000 0.000000 0.000000
1.000000 0.000000 0.000000
1.000000 0.000000 0.000000
1.000000 0.000000 0.000000
1.000000 0.000000 0.000000
1.000000 0.000000 0.000000
1.000000 0.000000 0.000000
1.000000 0.000000 0.000000
1.000000 0.000000 0.000000
1.000000 0.000000 0.000000
1.000000 0.111574 0.000000
0.059968 0.099184 0.008942
0.063935 0.099031 0.008911
0.078737 0.098817 0.008698
0.094820 0.099489 0.004395
0.117128 0.100099 0.000000
0.153109 0.100526 0.000000
0.193027 0.096223 0.000000
0.238041 0.086244 0.000000
0.288365 0.049592 0.000000
0.342626 0.000000 0.000000
0.401404 0.000000 0.000000
0.464424 0.000000 0.000000
0.530938 0.000000 0.000000
0.600214 0.000000 0.000000
0.671168 0.000000 0.000000
0.741848 0.000000 0.000000
0.809201 0.000000 0.000000
0.870237 0.000000 0.000000
0.925597 0.000000 0.000000
0.974182 0.000000 0.000000
1.000000 0.000000 0.000000
1.000000 0.000000 0.000000
1.000000 0.000000 0.000000
1.000000 0.000000 0.000000
1.000000 0.000000 0.000000
1.000000 0.000000 0.000000
1.000000 0.000000 0.000000
1.000000 0.000000 0.000000
1.000000 0.000000 0.000000
1.000000 0.000000 0.000000
1.000000 0.000000 0.000000
1.000000 0.150759 0.000000
0.061830 0.123323 0.008515
0.065827 0.123201 0.008484
0.083101 0.122683 0.007263
0.099367 0.122713 0.004242
0.122286 0.124056 0.000000
0.155245 0.124666 0.000000
0.200534 0.125185 0.000000
0.244846 0.119417 0.000000
0.291875 0.109895 0.000000
0.345220 0.093874 0.000000
0.402655 0.037995 0.000000
0.464637 0.000000 0.000000
0.529992 0.000000 0.000000
0.598322 0.000000 0.000000
0.668513 0.000000 0.000000
0.739071 0.000000 0.000000
0.805692 0.000000 0.000000
0.867033 0.000000 0.000000
0.922332 0.000000 0.000000
0.970916 0.000000 0.000000
1.000000 0.000000 0.000000
1.000000 0.000000 0.000000
1.000000 0.000000 0.000000
1.000000 0.000000 0.000000
1.000000 0.000000 0.000000
1.000000 0.000000 0.000000
1.000000 0.000000 0.000000
1.000000 0.000000 0.000000
1.000000 0.000000 0.000000
1.000000 0.100679 0.000000
1.000000 0.172274 0.000000
1.000000 0.221347 0.000000
0.051392 0.156283 0.002594
0.057343 0.156161 0.002564
0.081971 0.155428 0.001465
0.105043 0.154482 0.000000
0.128481 0.155886 0.000000
0.161593 0.157473 0.000000
0.204471 0.158541 0.000000
0.258213 0.160433 0.000000
0.306218 0.154818 0.000000
0.356725 0.146548 0.000000
0.411841 0.134646 0.000000
0.473213 0.117983 0.000000
0.538231 0.088594 0.000000
0.605859 0.000000 0.000000
0.675227 0.000000 0.000000
0.744015 0.000000 0.000000
0.809293 0.000000 0.000000
0.869444 0.000000 0.000000
0.923705 0.000000 0.000000
0.971893 0.000000 0.000000
1.000000 0.000000 0.000000
1.000000 0.000000 0.000000
1.000000 0.000000 0.000000
1.000000 0.000000 0.000000
1.000000 0.000000 0.000000
1.000000 0.000000 0.000000
1.000000 0.000000 0.000000
1.000000 0.000000 0.000000
1.000000 0.123964 0.000000
1.000000 0.174563 0.000000
1.000000 0.215152 0.000000
1.000000 0.251347 0.000000
0.039124 0.192020 0.000000
0.047059 0.191897 0.000000
0.077150 0.191440 0.000000
0.106203 0.190402 0.000000
0.133455 0.190158 0.000000
0.165866 0.192630 0.000000
0.206180 0.195224 0.000000
0.254704 0.197421 0.000000
0.314611 0.202518 0.000000
0.364691 0.198215 0.000000
0.417914 0.193027 0.000000
0.473701 0.185428 0.000000
0.534691 0.176944 0.000000
0.600977 0.165866 0.000000
0.669032 0.150912 0.000000
0.736965 0.129793 0.000000
0.801511 0.100191 0.000000
0.861479 0.014954 0.000000
0.915953 0.000000 0.000000
0.964843 0.000000 0.000000
1.000000 0.000000 0.000000
1.000000 0.000000 0.000000
1.000000 0.000000 0.000000
1.000000 0.000000 0.000000
1.000000 0.027741 0.000000
1.000000 0.109590 0.000000
1.000000 0.145296 0.000000
1.000000 0.175784 0.000000
1.000000 0.204288 0.000000
1.000000 0.231724 0.000000
1.000000 0.258244 0.000000
1.000000 0.285527 0.000000
0.013428 0.233982 0.000000
0.023346 0.233890 0.000000
0.059815 0.233371 0.000000
0.103731 0.232578 0.000000
0.137087 0.230991 0.000000
0.170047 0.233433 0.000000
0.208530 0.236820 0.000000
0.255009 0.240940 0.000000
0.308202 0.244938 0.000000
0.373266 0.253666 0.000000
0.426886 0.251133 0.000000
0.482246 0.249058 0.000000
0.539635 0.245396 0.000000
0.598322 0.239750 0.000000
0.663783 0.235416 0.000000
0.730739 0.229648 0.000000
0.794766 0.221836 0.000000
0.854063 0.212863 0.000000
0.908965 0.203342 0.000000
0.960266 0.197452 0.000000
1.000000 0.193301 0.000000
1.000000 0.192172 0.000000
1.000000 0.195071 0.000000
1.000000 0.201907 0.000000
1.000000 0.211337 0.000000
1.000000 0.222629 0.000000
1.000000 0.235782 0.000000
1.000000 0.250156 0.000000
1.000000 0.265721 0.000000
1.000000 0.282902 0.000000
1.000000 0.301732 0.000000
1.000000 0.321935 0.000000
0.000000 0.282567 0.000000
0.000000 0.282383 0.000000
0.011414 0.281926 0.000000
0.092897 0.280949 0.000000
0.133333 0.279484 0.000000
0.171725 0.279301 0.000000
0.210513 0.283330 0.000000
0.254795 0.288334 0.000000
0.305730 0.293614 0.000000
0.363317 0.299351 0.000000
0.433967 0.311894 0.000000
0.489815 0.310521 0.000000
0.546960 0.309300 0.000000
0.605158 0.308934 0.000000
0.664729 0.305974 0.000000
0.724056 0.301640 0.000000
0.787289 0.299290 0.000000
0.848081 0.296391 0.000000
0.904875 0.293523 0.000000
0.954772 0.290379 0.000000
0.997650 0.287297 0.000000
1.000000 0.284794 0.000000
1.000000 0.284306 0.000000
1.000000 0.285740 0.000000
1.000000 0.288701 0.000000
1.000000 0.293431 0.000000
1.000000 0.299779 0.000000
1.000000 0.307683 0.000000
1.000000 0.317540 0.000000
1.000000 0.329107 0.000000
1.000000 0.342596 0.000000
1.000000 0.358038 0.000000
0.000000 0.335088 0.000000
0.000000 0.335027 0.000000
0.000000 0.334691 0.000000
0.029633 0.333715 0.000000
0.119997 0.332555 0.000000
0.168338 0.330755 0.000000
0.209903 0.334386 0.000000
0.254032 0.339818 0.000000
0.304082 0.346166 0.000000
0.359899 0.352972 0.000000
0.421851 0.359930 0.000000
0.497536 0.375647 0.000000
0.555566 0.374670 0.000000
0.614038 0.373754 0.000000
0.672755 0.373602 0.000000
0.730678 0.372778 0.000000
0.787381 0.369512 0.000000
0.843351 0.366491 0.000000
0.898375 0.364813 0.000000
0.947234 0.361913 0.000000
0.989502 0.358526 0.000000
1.000000 0.355291 0.000000
1.000000 0.353338 0.000000
1.000000 0.352087 0.000000
1.000000 0.352453 0.000000
1.000000 0.354009 0.000000
1.000000 0.356695 0.000000
1.000000 0.360784 0.000000
1.000000 0.366552 0.000000
1.000000 0.374090 0.000000
1.000000 0.383581 0.000000
1.000000 0.395209 0.000000
0.000000 0.392401 0.000000
0.000000 0.392462 0.000000
0.000000 0.392065 0.000000
0.000000 0.391424 0.000000
0.082979 0.390417 0.000000
0.154452 0.388739 0.000000
0.205722 0.389136 0.000000
0.252232 0.394781 0.000000
0.302373 0.401556 0.000000
0.357702 0.408759 0.000000
0.418433 0.416297 0.000000
0.484169 0.424384 0.000000
0.577478 0.453071 0.000000
0.641413 0.454414 0.000000
0.702174 0.454231 0.000000
0.760037 0.452949 0.000000
0.813809 0.450599 0.000000
0.863828 0.445808 0.000000
0.909209 0.439582 0.000000
0.954131 0.435096 0.000000
0.994354 0.430945 0.000000
1.000000 0.426825 0.000000
1.000000 0.423041 0.000000
1.000000 0.420203 0.000000
1.000000 0.418280 0.000000
1.000000 0.416876 0.000000
1.000000 0.416297 0.000000
1.000000 0.417121 0.000000
1.000000 0.419623 0.000000
1.000000 0.423438 0.000000
1.000000 0.429267 0.000000
1.000000 0.437140 0.000000
0.000000 0.458198 0.000000
0.000000 0.458137 0.000000
0.000000 0.457557 0.000000
0.000000 0.456611 0.000000
0.000000 0.455116 0.000000
0.128542 0.453162 0.000000
0.198581 0.450935 0.000000
0.250584 0.454658 0.000000
0.302525 0.461219 0.000000
0.359350 0.469398 0.000000
0.421973 0.479408 0.000000
0.490150 0.490059 0.000000
0.563531 0.500755 0.000000
0.651850 0.520012 0.000000
0.713069 0.518730 0.000000
0.768612 0.514946 0.000000
0.819791 0.510216 0.000000
0.866941 0.505150 0.000000
0.909697 0.499031 0.000000
0.947936 0.490944 0.000000
0.982696 0.482795 0.000000
1.000000 0.478096 0.000000
1.000000 0.473640 0.000000
1.000000 0.469703 0.000000
1.000000 0.466194 0.000000
1.000000 0.463600 0.000000
1.000000 0.461738 0.000000
1.000000 0.460883 0.000000
1.000000 0.461280 0.000000
1.000000 0.463172 0.000000
1.000000 0.466651 0.000000
1.000000 0.472267 0.000000
0.000000 0.517876 0.000000
0.000000 0.517845 0.000000
0.000000 0.517357 0.000000
0.000000 0.516503 0.000000
0.000000 0.515221 0.000000
0.085176 0.513848 0.000000
0.184970 0.512108 0.000000
0.248173 0.512383 0.000000
0.303502 0.519036 0.000000
0.361089 0.526696 0.000000
0.423224 0.535424 0.000000
0.490089 0.544701 0.000000
0.561547 0.553979 0.000000
0.636042 0.562707 0.000000
0.720882 0.577356 0.000000
0.776272 0.572656 0.000000
0.825345 0.565942 0.000000
0.869902 0.558953 0.000000
0.910399 0.551995 0.000000
0.946654 0.544762 0.000000
0.979339 0.535424 0.000000
1.000000 0.526818 0.000000
1.000000 0.520378 0.000000
1.000000 0.515770 0.000000
1.000000 0.511559 0.000000
1.000000 0.508049 0.000000
1.000000 0.504967 0.000000
1.000000 0.502739 0.000000
1.000000 0.501488 0.000000
1.000000 0.501793 0.000000
1.000000 0.503563 0.000000
1.000000 0.507012 0.000000
0.000000 0.578302 0.000000
0.000000 0.578088 0.000000
0.000000 0.577630 0.000000
0.000000 0.576532 0.000000
0.000000 0.574945 0.000000
0.000000 0.573114 0.000000
0.176028 0.571069 0.000000
0.249668 0.568780 0.000000
0.307774 0.572503 0.000000
0.366430 0.578882 0.000000
0.427192 0.585992 0.000000
0.492134 0.593652 0.000000
0.560082 0.601251 0.000000
0.631098 0.608331 0.000000
0.703212 0.614618 0.000000
0.782040 0.625147 0.000000
0.831022 0.618372 0.000000
0.873442 0.609827 0.000000
0.911711 0.601068 0.000000
0.946166 0.592462 0.000000
0.977325 0.584497 0.000000
1.000000 0.575677 0.000000
1.000000 0.567132 0.000000
1.000000 0.558984 0.000000
1.000000 0.554009 0.000000
1.000000 0.549706 0.000000
1.000000 0.545800 0.000000
1.000000 0.542748 0.000000
1.000000 0.540581 0.000000
1.000000 0.539696 0.000000
1.000000 0.540124 0.000000
1.000000 0.542260 0.000000
0.000000 0.629480 0.000000
0.000000 0.629480 0.000000
0.000000 0.629206 0.000000
0.000000 0.628351 0.000000
0.000000 0.627314 0.000000
0.009491 0.625696 0.000000
0.182742 0.624231 0.000000
0.257115 0.622339 0.000000
0.319738 0.622004 0.000000
0.376593 0.627070 0.000000
0.435706 0.632502 0.000000
0.497169 0.638087 0.000000
0.561456 0.643610 0.000000
0.627497 0.648829 0.000000
0.694728 0.653315 0.000000
0.761959 0.657313 0.000000
0.833066 0.664515 0.000000
0.875975 0.656550 0.000000
0.912444 0.646815 0.000000
0.945373 0.637110 0.000000
0.975341 0.628260 0.000000
1.000000 0.620294 0.000000
1.000000 0.612146 0.000000
1.000000 0.603693 0.000000
1.000000 0.595666 0.000000
1.000000 0.589349 0.000000
1.000000 0.585107 0.000000
1.000000 0.581201 0.000000
1.000000 0.578119 0.000000
1.000000 0.576074 0.000000
1.000000 0.575219 0.000000
1.000000 0.575647 0.000000
0.000000 0.673518 0.000000
0.000000 0.673396 0.000000
0.000000 0.673030 0.000000
0.000000 0.672450 0.000000
0.000000 0.671504 0.000000
0.109682 0.670253 0.000000
0.204471 0.668757 0.000000
0.273808 0.666896 0.000000
0.333867 0.664851 0.000000
0.388830 0.667201 0.000000
0.444923 0.671534 0.000000
0.502953 0.676020 0.000000
0.563317 0.680415 0.000000
0.625422 0.684504 0.000000
0.688533 0.688197 0.000000
0.751949 0.691402 0.000000
0.814084 0.694179 0.000000
0.875853 0.698238 0.000000
0.914183 0.690089 0.000000
0.945342 0.679652 0.000000
0.974121 0.670192 0.000000
1.000000 0.661280 0.000000
1.000000 0.653468 0.000000
1.000000 0.645472 0.000000
1.000000 0.637232 0.000000
1.000000 0.629389 0.000000
1.000000 0.622187 0.000000
1.000000 0.617609 0.000000
1.000000 0.613916 0.000000
1.000000 0.610986 0.000000
1.000000 0.609125 0.000000
1.000000 0.608515 0.000000
0.000000 0.712856 0.000000
0.000000 0.712856 0.000000
0.000000 0.721706 0.000000
0.000000 0.721187 0.000000
0.123720 0.720272 0.000000
0.196719 0.719081 0.000000
0.256626 0.717494 0.000000
0.312871 0.715511 0.000000
0.366583 0.713497 0.000000
0.419562 0.712215 0.000000
0.470954 0.715328 0.000000
0.524895 0.718532 0.000000
0.580407 0.721462 0.000000
0.637629 0.724086 0.000000
0.695521 0.726314 0.000000
0.753414 0.728115 0.000000
0.810636 0.729580 0.000000
0.866056 0.730831 0.000000
0.917296 0.731655 0.000000
0.950225 0.723354 0.000000
0.976623 0.712612 0.000000
1.000000 0.702937 0.000000
1.000000 0.694118 0.000000
1.000000 0.685908 0.000000
1.000000 0.677455 0.000000
1.000000 0.669001 0.000000
1.000000 0.661097 0.000000
1.000000 0.653712 0.000000
1.000000 0.648066 0.000000
1.000000 0.644465 0.000000
1.000000 0.641749 0.000000
1.000000 0.640070 0.000000
0.036530 0.749447 0.000000
0.072511 0.750179 0.000000
0.115328 0.750759 0.000000
0.158785 0.750881 0.000000
0.202304 0.750668 0.000000
0.247929 0.749783 0.000000
0.294682 0.748379 0.000000
0.341405 0.746700 0.000000
0.389532 0.744564 0.000000
0.437720 0.742245 0.000000
0.485145 0.743252 0.000000
0.534295 0.745724 0.000000
0.585351 0.747860 0.000000
0.637781 0.749966 0.000000
0.691279 0.751736 0.000000
0.745266 0.753201 0.000000
0.799100 0.754452 0.000000
0.851499 0.755550 0.000000
0.901793 0.756680 0.000000
0.945892 0.756374 0.000000
0.975036 0.748531 0.000000
0.998535 0.738735 0.000000
1.000000 0.729397 0.000000
1.000000 0.720729 0.000000
1.000000 0.712551 0.000000
1.000000 0.704280 0.000000
1.000000 0.696132 0.000000
1.000000 0.688594 0.000000
1.000000 0.681666 0.000000
1.000000 0.675563 0.000000
1.000000 0.672206 0.000000
1.000000 0.669886 0.000000
0.205173 0.777615 0.098329
0.209781 0.778286 0.102358
0.223270 0.778805 0.103243
0.242924 0.779080 0.102876
0.270512 0.778897 0.098360
0.302678 0.778103 0.087495
0.338048 0.776944 0.051240
0.377020 0.775296 0.000000
0.418769 0.773404 0.000000
0.461707 0.771206 0.000000
0.505516 0.769589 0.000000
0.549493 0.771420 0.000000
0.595758 0.773098 0.000000
0.643915 0.774685 0.000000
0.692958 0.775998 0.000000
0.742794 0.777157 0.000000
0.792447 0.778073 0.000000
0.841245 0.778866 0.000000
0.888579 0.779690 0.000000
0.933196 0.780667 0.000000
0.970550 0.779263 0.000000
0.996155 0.771817 0.000000
1.000000 0.762448 0.000000
1.000000 0.753506 0.000000
1.000000 0.745022 0.000000
1.000000 0.737087 0.000000
1.000000 0.728939 0.000000
1.000000 0.721218 0.000000
1.000000 0.714168 0.000000
1.000000 0.707729 0.000000
1.000000 0.702113 0.000000
1.000000 0.698421 0.000000
0.287663 0.803189 0.188022
0.291173 0.803677 0.189212
0.299413 0.804105 0.190585
0.313481 0.804196 0.190127
0.332860 0.803952 0.188052
0.356634 0.803311 0.183597
0.385016 0.802243 0.176425
0.417151 0.800809 0.167971
0.452155 0.799161 0.156100
0.489784 0.797208 0.142153
0.529290 0.794888 0.122164
0.569238 0.795010 0.080842
0.610590 0.796292 0.000000
0.653864 0.797391 0.000000
0.698451 0.798459 0.000000
0.744045 0.799344 0.000000
0.789761 0.800168 0.000000
0.835538 0.800900 0.000000
0.879728 0.801755 0.000000
0.922057 0.802731 0.000000
0.961395 0.803983 0.000000
0.993164 0.801999 0.000000
1.000000 0.794919 0.000000
1.000000 0.786130 0.000000
1.000000 0.777676 0.000000
1.000000 0.769619 0.000000
1.000000 0.761868 0.000000
1.000000 0.754238 0.000000
1.000000 0.747219 0.000000
1.000000 0.740749 0.000000
1.000000 0.734890 0.000000
1.000000 0.729763 0.000000
0.370459 0.828916 0.264988
0.372015 0.829099 0.265202
0.376867 0.829068 0.265324
0.385687 0.828855 0.264347
0.399084 0.828336 0.261845
0.416693 0.827512 0.258000
0.438849 0.826444 0.253391
0.464668 0.825132 0.247074
0.493935 0.823575 0.239658
0.526024 0.821866 0.231113
0.560266 0.819883 0.220188
0.596094 0.818143 0.207218
0.632563 0.819028 0.185458
0.670985 0.819791 0.157107
0.710719 0.820493 0.110506
0.751431 0.821042 0.000000
0.792691 0.821439 0.000000
0.833829 0.821836 0.000000
0.874266 0.822263 0.000000
0.913176 0.822751 0.000000
0.949859 0.823484 0.000000
0.983978 0.824430 0.000000
1.000000 0.821439 0.000000
1.000000 0.814237 0.000000
1.000000 0.805570 0.000000
1.000000 0.797421 0.000000
1.000000 0.789639 0.000000
1.000000 0.782223 0.000000
1.000000 0.775235 0.000000
1.000000 0.768704 0.000000
1.000000 0.762814 0.000000
1.000000 0.757443 0.000000
0.435126 0.848508 0.325444
0.436439 0.848631 0.325597
0.440528 0.848600 0.325780
0.447303 0.848386 0.324834
0.457710 0.847929 0.322637
0.471351 0.847227 0.319799
0.489021 0.846311 0.315953
0.510033 0.845182 0.311101
0.534325 0.843839 0.305364
0.561700 0.842313 0.298558
0.591089 0.840574 0.290562
0.622614 0.838590 0.281529
0.654810 0.838193 0.268193
0.688502 0.838773 0.251041
0.723598 0.839231 0.230320
0.759884 0.839658 0.203830
0.796872 0.839994 0.166629
0.834043 0.840269 0.107546
0.870787 0.840574 0.000000
0.906340 0.840940 0.000000
0.940429 0.841459 0.000000
0.972534 0.842191 0.000000
1.000000 0.843076 0.000000
1.000000 0.839475 0.000000
1.000000 0.831144 0.000000
1.000000 0.822782 0.000000
1.000000 0.815030 0.000000
1.000000 0.807675 0.000000
1.000000 0.800748 0.000000
1.000000 0.794247 0.000000
1.000000 0.788357 0.000000
1.000000 0.782986 0.000000
0.502770 0.867063 0.389471
0.504417 0.867216 0.390570
0.507225 0.867216 0.390356
0.512230 0.866880 0.388891
0.519463 0.866392 0.386969
0.529717 0.865599 0.383764
0.542657 0.864591 0.379644
0.558984 0.863401 0.374548
0.578210 0.862028 0.369085
0.600153 0.860472 0.362768
0.624292 0.858762 0.355108
0.650782 0.856870 0.346777
0.678798 0.855100 0.336828
0.707362 0.855314 0.323522
0.737575 0.855467 0.306981
0.768948 0.855589 0.287816
0.801450 0.855650 0.265110
0.834379 0.855802 0.236820
0.867430 0.856016 0.201175
0.899992 0.856352 0.148318
0.931426 0.856809 0.000000
0.961547 0.857328 0.000000
0.989990 0.858000 0.000000
1.000000 0.858701 0.000000
1.000000 0.854582 0.000000
1.000000 0.847349 0.000000
1.000000 0.839109 0.000000
1.000000 0.831632 0.000000
1.000000 0.824521 0.000000
1.000000 0.818051 0.000000
1.000000 0.812131 0.000000
1.000000 0.806760 0.000000
0.557092 0.881407 0.442084
0.558404 0.881559 0.442817
0.560845 0.881559 0.442634
0.564965 0.881346 0.442176
0.571252 0.880980 0.440620
0.579797 0.880430 0.438514
0.590875 0.879728 0.435828
0.604608 0.878843 0.432044
0.620844 0.877806 0.427863
0.639490 0.876646 0.423255
0.660060 0.875273 0.417365
0.682673 0.873716 0.411353
0.706661 0.871977 0.403815
0.731380 0.871305 0.393835
0.757015 0.871397 0.380987
0.783902 0.871458 0.366033
0.811643 0.871489 0.348516
0.840269 0.871580 0.328252
0.869169 0.871733 0.304784
0.898009 0.872007 0.276280
0.926268 0.872374 0.241093
0.953765 0.872831 0.193423
0.980255 0.873350 0.109834
1.000000 0.873991 0.000000
1.000000 0.874632 0.000000
1.000000 0.870176 0.000000
1.000000 0.863096 0.000000
1.000000 0.855039 0.000000
1.000000 0.847929 0.000000
1.000000 0.841459 0.000000
1.000000 0.835508 0.000000
1.000000 0.830045 0.000000
0.612360 0.895201 0.496681
0.613031 0.895262 0.497200
0.614893 0.895201 0.496956
0.618036 0.895018 0.496254
0.622736 0.894682 0.495094
0.629572 0.894194 0.493019
0.638392 0.893584 0.490486
0.649256 0.892821 0.487373
0.662318 0.891936 0.483711
0.677455 0.890898 0.479774
0.694697 0.889738 0.474830
0.713558 0.888396 0.469459
0.733822 0.886900 0.463172
0.755154 0.885435 0.455604
0.776730 0.885496 0.445289
0.799344 0.885557 0.433112
0.823026 0.885588 0.419440
0.847471 0.885710 0.403326
0.872404 0.885863 0.384955
0.897551 0.886137 0.363958
0.922606 0.886473 0.338811
0.947417 0.886870 0.308415
0.971618 0.887297 0.270481
0.995148 0.887755 0.219211
1.000000 0.888273 0.134066
1.000000 0.888853 0.000000
1.000000 0.884062 0.000000
1.000000 0.876951 0.000000
1.000000 0.868986 0.000000
1.000000 0.862425 0.000000
1.000000 0.856504 0.000000
1.000000 0.851102 0.000000
0.661707 0.907286 0.547417
0.662226 0.907317 0.547692
0.663722 0.907286 0.547662
0.666407 0.907134 0.547326
0.670497 0.906920 0.546410
0.676326 0.906615 0.545281
0.684199 0.906279 0.544182
0.693996 0.905882 0.542870
0.705592 0.905394 0.541405
0.718898 0.904784 0.539391
0.733913 0.904082 0.536919
0.750118 0.903288 0.534081
0.767453 0.902312 0.530266
0.785489 0.901183 0.525139
0.803708 0.900816 0.518151
0.822080 0.900999 0.508934
0.841367 0.901152 0.497902
0.861295 0.901335 0.485359
0.881956 0.901549 0.470985
0.903014 0.901854 0.454688
0.924346 0.902190 0.435859
0.945708 0.902586 0.413611
0.966979 0.902983 0.386603
0.987976 0.903410 0.353613
1.000000 0.903807 0.312139
1.000000 0.904234 0.257359
1.000000 0.904692 0.173587
1.000000 0.899565 0.000580
1.000000 0.892302 0.000000
1.000000 0.884276 0.000000
1.000000 0.878447 0.000000
1.000000 0.873014 0.000000
0.716670 0.919921 0.606561
0.716884 0.919921 0.606561
0.717708 0.919829 0.606317
0.719509 0.919707 0.605707
0.722347 0.919493 0.604639
0.726497 0.919158 0.603296
0.731960 0.918791 0.601678
0.738857 0.918334 0.599725
0.747219 0.917815 0.597559
0.757046 0.917205 0.594995
0.768246 0.916503 0.592187
0.780575 0.915709 0.588586
0.794095 0.914824 0.584649
0.808499 0.913817 0.579919
