20 Preset/Japan Style/【3】LUT video cho PR-AE-FCPX/LUT VIDEO (2)/Japan Style LUT (12).cube
# Created by Adobe Lightroom plugin Export LUT (1.24.0)
# www.johnrellis.com/lightroom/exportlut.htm
# Preset: 12日系清新（素材江湖）
# Color profile: C:\Program Files (x86)\Common Files\Adobe\Color\Profiles\Recommended\VideoHD.icc
LUT_3D_SIZE 32
DOMAIN_MIN 0.0 0.0 0.0
DOMAIN_MAX 1.0 1.0 1.0
0.000000 0.040620 0.026093
0.006317 0.040925 0.025910
0.037415 0.038575 0.025635
0.088746 0.039826 0.025452
0.130312 0.042634 0.022248
0.199741 0.021210 0.017914
0.282933 0.000000 0.009033
0.370550 0.000000 0.000000
0.458900 0.000000 0.000000
0.546227 0.000000 0.000000
0.631342 0.000000 0.000000
0.710475 0.000000 0.000000
0.782101 0.000000 0.000000
0.845579 0.000000 0.000000
0.898833 0.000000 0.000000
0.943694 0.000000 0.000000
0.981415 0.000000 0.000000
1.000000 0.000000 0.000000
1.000000 0.000000 0.000000
1.000000 0.000000 0.000000
1.000000 0.000000 0.000000
1.000000 0.000000 0.000000
1.000000 0.000000 0.000000
1.000000 0.000000 0.000000
1.000000 0.000000 0.000000
1.000000 0.000000 0.000000
1.000000 0.000000 0.000000
1.000000 0.000000 0.000000
1.000000 0.000000 0.000000
1.000000 0.000000 0.000000
1.000000 0.000000 0.000000
1.000000 0.000000 0.000000
0.000000 0.053407 0.026703
0.000000 0.052949 0.026673
0.031983 0.050355 0.025238
0.087282 0.051423 0.023926
0.130343 0.054963 0.020569
0.199649 0.038117 0.015625
0.282200 0.000000 0.006928
0.368872 0.000000 0.000000
0.457557 0.000000 0.000000
0.544732 0.000000 0.000000
0.629175 0.000000 0.000000
0.708309 0.000000 0.000000
0.779934 0.000000 0.000000
0.843503 0.000000 0.000000
0.897032 0.000000 0.000000
0.942260 0.000000 0.000000
0.980163 0.000000 0.000000
1.000000 0.000000 0.000000
1.000000 0.000000 0.000000
1.000000 0.000000 0.000000
1.000000 0.000000 0.000000
1.000000 0.000000 0.000000
1.000000 0.000000 0.000000
1.000000 0.000000 0.000000
1.000000 0.000000 0.000000
1.000000 0.000000 0.000000
1.000000 0.000000 0.000000
1.000000 0.000000 0.000000
1.000000 0.000000 0.000000
1.000000 0.000000 0.000000
1.000000 0.000000 0.000000
1.000000 0.000000 0.000000
0.000000 0.091737 0.031556
0.000000 0.091951 0.033661
0.001434 0.093111 0.027131
0.067781 0.094118 0.020935
0.129122 0.095399 0.013764
0.200656 0.092470 0.006256
0.283909 0.049287 0.000000
0.370214 0.000000 0.000000
0.457984 0.000000 0.000000
0.544579 0.000000 0.000000
0.628779 0.000000 0.000000
0.707881 0.000000 0.000000
0.779080 0.000000 0.000000
0.842252 0.000000 0.000000
0.895811 0.000000 0.000000
0.940856 0.000000 0.000000
0.978851 0.000000 0.000000
1.000000 0.000000 0.000000
1.000000 0.000000 0.000000
1.000000 0.000000 0.000000
1.000000 0.000000 0.000000
1.000000 0.000000 0.000000
1.000000 0.000000 0.000000
1.000000 0.000000 0.000000
1.000000 0.000000 0.000000
1.000000 0.000000 0.000000
1.000000 0.000000 0.000000
1.000000 0.000000 0.000000
1.000000 0.000000 0.000000
1.000000 0.000000 0.000000
1.000000 0.000000 0.000000
1.000000 0.000000 0.000000
0.000000 0.128511 0.039918
0.000000 0.128634 0.040894
0.000000 0.128237 0.044038
0.000000 0.132387 0.025879
0.112367 0.140047 0.006348
0.202701 0.134524 0.000000
0.287205 0.124849 0.000000
0.372595 0.098695 0.000000
0.460456 0.000000 0.000000
0.546502 0.000000 0.000000
0.630274 0.000000 0.000000
0.708003 0.000000 0.000000
0.778775 0.000000 0.000000
0.841367 0.000000 0.000000
0.894255 0.000000 0.000000
0.939117 0.000000 0.000000
0.976867 0.000000 0.000000
1.000000 0.000000 0.000000
1.000000 0.000000 0.000000
1.000000 0.000000 0.000000
1.000000 0.000000 0.000000
1.000000 0.000000 0.000000
1.000000 0.000000 0.000000
1.000000 0.000000 0.000000
1.000000 0.000000 0.000000
1.000000 0.000000 0.000000
1.000000 0.000000 0.000000
1.000000 0.000000 0.000000
1.000000 0.000000 0.000000
1.000000 0.000000 0.000000
1.000000 0.000000 0.000000
1.000000 0.000000 0.000000
0.000000 0.196201 0.025544
0.000000 0.195621 0.027070
0.000000 0.194553 0.035492
0.000000 0.195102 0.026886
0.000000 0.197604 0.000000
0.164431 0.202518 0.000000
0.275944 0.193393 0.000000
0.374792 0.172244 0.000000
0.462165 0.146700 0.000000
0.547875 0.099489 0.000000
0.630365 0.000000 0.000000
0.707576 0.000000 0.000000
0.777493 0.000000 0.000000
0.839567 0.000000 0.000000
0.892058 0.000000 0.000000
0.936461 0.000000 0.000000
0.974456 0.000000 0.000000
1.000000 0.000000 0.000000
1.000000 0.000000 0.000000
1.000000 0.000000 0.000000
1.000000 0.000000 0.000000
1.000000 0.000000 0.000000
1.000000 0.000000 0.000000
1.000000 0.000000 0.000000
1.000000 0.000000 0.000000
1.000000 0.000000 0.000000
1.000000 0.000000 0.000000
1.000000 0.000000 0.000000
1.000000 0.000000 0.000000
1.000000 0.000000 0.000000
1.000000 0.000000 0.000000
1.000000 0.000000 0.000000
0.000000 0.279026 0.000000
0.000000 0.279057 0.000000
0.000000 0.277440 0.000000
0.000000 0.275700 0.006989
0.000000 0.274846 0.000000
0.039338 0.270939 0.000000
0.221439 0.268894 0.000000
0.344610 0.259129 0.000000
0.462470 0.229404 0.000000
0.550652 0.205386 0.000000
0.632563 0.173678 0.000000
0.708705 0.130190 0.000000
0.777462 0.005035 0.000000
0.838407 0.000000 0.000000
0.890196 0.000000 0.000000
0.934478 0.000000 0.000000
0.971710 0.000000 0.000000
1.000000 0.000000 0.000000
1.000000 0.000000 0.000000
1.000000 0.000000 0.000000
1.000000 0.000000 0.000000
1.000000 0.000000 0.000000
1.000000 0.000000 0.000000
1.000000 0.000000 0.000000
1.000000 0.000000 0.000000
1.000000 0.000000 0.000000
1.000000 0.000000 0.000000
1.000000 0.000000 0.000000
1.000000 0.000000 0.000000
1.000000 0.000000 0.000000
1.000000 0.000000 0.000000
1.000000 0.000000 0.000000
0.000000 0.368475 0.000000
0.000000 0.368627 0.000000
0.000000 0.367651 0.000000
0.000000 0.366186 0.000000
0.000000 0.363073 0.000000
0.000000 0.356573 0.000000
0.143282 0.346624 0.000000
0.286381 0.336492 0.000000
0.414099 0.328862 0.000000
0.535454 0.305638 0.000000
0.640864 0.271977 0.000000
0.715541 0.250736 0.000000
0.782712 0.227787 0.000000
0.841520 0.203738 0.000000
0.891539 0.175357 0.000000
0.934386 0.141817 0.000000
0.970764 0.095521 0.000000
1.000000 0.000000 0.000000
1.000000 0.000000 0.000000
1.000000 0.000000 0.000000
1.000000 0.000000 0.000000
1.000000 0.000000 0.000000
1.000000 0.000000 0.000000
1.000000 0.000000 0.000000
1.000000 0.000000 0.000000
1.000000 0.000000 0.000000
1.000000 0.000000 0.000000
1.000000 0.000000 0.000000
1.000000 0.000000 0.000000
1.000000 0.000000 0.000000
1.000000 0.000000 0.000000
1.000000 0.000000 0.000000
0.000000 0.449744 0.000000
0.000000 0.449592 0.000000
0.000000 0.448951 0.000000
0.000000 0.448127 0.000000
0.000000 0.446113 0.000000
0.000000 0.439796 0.000000
0.000000 0.429511 0.000000
0.222904 0.414496 0.000000
0.347082 0.397314 0.000000
0.475959 0.392248 0.000000
0.595789 0.375830 0.000000
0.703609 0.347356 0.000000
0.780148 0.324987 0.000000
0.837369 0.308598 0.000000
0.886625 0.291722 0.000000
0.928954 0.273320 0.000000
0.964996 0.254032 0.000000
0.995850 0.233127 0.000000
1.000000 0.210422 0.000000
1.000000 0.185458 0.000000
1.000000 0.158511 0.000000
1.000000 0.122927 0.000000
1.000000 0.049622 0.000000
1.000000 0.000000 0.000000
1.000000 0.000000 0.000000
1.000000 0.000000 0.000000
1.000000 0.000000 0.000000
1.000000 0.000000 0.000000
1.000000 0.000000 0.000000
1.000000 0.000000 0.000000
1.000000 0.000000 0.000000
1.000000 0.000000 0.000000
0.000000 0.525597 0.000000
0.000000 0.525811 0.000000
0.000000 0.525261 0.000000
0.000000 0.524895 0.000000
0.000000 0.523644 0.032288
0.000000 0.520012 0.067475
0.000000 0.510033 0.000000
0.116548 0.496315 0.000000
0.304204 0.478218 0.000000
0.415167 0.457527 0.000000
0.536065 0.451881 0.000000
0.649409 0.441474 0.000000
0.749325 0.422339 0.000000
0.833036 0.393194 0.000000
0.881407 0.378607 0.000000
0.923247 0.363134 0.000000
0.959258 0.346715 0.000000
0.989593 0.329320 0.000000
1.000000 0.311040 0.000000
1.000000 0.292210 0.000000
1.000000 0.273075 0.000000
1.000000 0.253239 0.000000
1.000000 0.232120 0.000000
1.000000 0.210208 0.000000
1.000000 0.186038 0.000000
1.000000 0.158480 0.000000
1.000000 0.123445 0.000000
1.000000 0.045136 0.000000
1.000000 0.000000 0.000000
1.000000 0.000000 0.000000
1.000000 0.000000 0.000000
1.000000 0.000000 0.000000
0.000000 0.595514 0.034730
0.000000 0.595422 0.042542
0.000000 0.595117 0.068788
0.000000 0.594507 0.099702
0.000000 0.593774 0.123903
0.000000 0.592218 0.152773
0.000000 0.584741 0.125490
0.000000 0.572747 0.000000
0.260136 0.556359 0.000000
0.386908 0.535973 0.000000
0.485817 0.514611 0.000000
0.591089 0.505913 0.000000
0.696162 0.499702 0.000000
0.786435 0.486397 0.000000
0.862119 0.463416 0.000000
0.917052 0.438849 0.000000
0.952148 0.423011 0.000000
0.982300 0.406104 0.000000
1.000000 0.388769 0.000000
1.000000 0.371099 0.000000
1.000000 0.353063 0.000000
1.000000 0.334997 0.000000
1.000000 0.316869 0.000000
1.000000 0.298497 0.000000
1.000000 0.279179 0.000000
1.000000 0.259861 0.000000
1.000000 0.239231 0.000000
1.000000 0.216739 0.000000
1.000000 0.191775 0.000000
1.000000 0.161593 0.000000
1.000000 0.120729 0.000000
1.000000 0.000000 0.000000
0.000000 0.655756 0.150179
0.000000 0.655604 0.151064
0.000000 0.655543 0.157259
0.000000 0.655055 0.167605
0.000000 0.654475 0.182925
0.000000 0.653346 0.202884
0.000000 0.650568 0.218479
0.000000 0.640162 0.173007
0.228611 0.626581 0.097932
0.368963 0.609369 0.000000
0.468482 0.587793 0.000000
0.554253 0.567315 0.000000
0.641871 0.555077 0.000000
0.738247 0.551629 0.000000
0.818357 0.540002 0.000000
0.885313 0.520623 0.000000
0.940429 0.492500 0.000000
0.974121 0.471962 0.000000
0.999878 0.454841 0.000000
1.000000 0.437446 0.000000
1.000000 0.419684 0.000000
1.000000 0.401953 0.000000
1.000000 0.384588 0.000000
1.000000 0.366796 0.000000
1.000000 0.349126 0.000000
1.000000 0.331579 0.000000
1.000000 0.313481 0.000000
1.000000 0.294865 0.000000
1.000000 0.275181 0.000000
1.000000 0.253819 0.000000
1.000000 0.230930 0.000000
1.000000 0.203922 0.000000
0.000000 0.708248 0.216800
0.000000 0.708248 0.217960
0.000000 0.708095 0.220798
0.000000 0.707637 0.228794
0.000000 0.707027 0.240299
0.000000 0.705837 0.256229
0.000000 0.704555 0.275517
0.000000 0.698543 0.264530
0.228946 0.687526 0.219425
0.366339 0.673426 0.155276
0.464820 0.655634 0.000000
0.544366 0.634455 0.000000
0.626215 0.619684 0.000000
0.698177 0.604730 0.000000
0.782925 0.601007 0.000000
0.853391 0.589807 0.000000
0.911192 0.571313 0.000000
0.958892 0.545769 0.000000
0.996551 0.516442 0.000000
1.000000 0.498909 0.000000
1.000000 0.481178 0.000000
1.000000 0.463539 0.000000
1.000000 0.445899 0.000000
1.000000 0.428687 0.000000
1.000000 0.411505 0.000000
1.000000 0.394141 0.000000
1.000000 0.376623 0.000000
1.000000 0.358892 0.000000
1.000000 0.341131 0.000000
1.000000 0.322240 0.000000
1.000000 0.302342 0.000000
1.000000 0.280613 0.000000
0.000000 0.754818 0.284184
0.000000 0.754818 0.284489
0.000000 0.754360 0.287846
0.000000 0.753780 0.293126
0.000000 0.752743 0.302312
0.000000 0.751461 0.314641
0.000000 0.749722 0.330205
0.000000 0.747524 0.350286
0.262974 0.738674 0.314946
0.378058 0.727535 0.269108
0.469581 0.713954 0.209812
0.547875 0.697597 0.113527
0.615106 0.678004 0.000000
0.673457 0.655207 0.000000
0.734310 0.638849 0.000000
0.810208 0.635004 0.000000
0.873045 0.624201 0.000000
0.924437 0.606592 0.000000
0.967041 0.583398 0.000000
1.000000 0.555230 0.000000
1.000000 0.530999 0.000000
1.000000 0.513573 0.000000
1.000000 0.496468 0.000000
1.000000 0.479469 0.000000
1.000000 0.462684 0.000000
1.000000 0.445960 0.000000
1.000000 0.429053 0.000000
1.000000 0.412116 0.000000
1.000000 0.394842 0.000000
1.000000 0.377264 0.000000
1.000000 0.358892 0.000000
1.000000 0.339635 0.000000
0.000000 0.788296 0.341497
0.000000 0.788205 0.341527
0.000000 0.787808 0.343938
0.000000 0.787076 0.348180
0.000000 0.785946 0.354894
0.000000 0.784482 0.365240
0.000000 0.782681 0.378363
0.132052 0.780545 0.394079
0.298863 0.776211 0.392615
0.388281 0.767575 0.356054
0.467750 0.756954 0.310826
0.540246 0.743923 0.254490
0.606592 0.728359 0.175540
0.665339 0.710018 0.000000
0.716579 0.688136 0.000000
0.765682 0.668544 0.000000
0.833585 0.664088 0.000000
0.889036 0.653101 0.000000
0.935119 0.636286 0.000000
0.973632 0.614771 0.000000
1.000000 0.588983 0.000000
1.000000 0.559655 0.000000
1.000000 0.541619 0.000000
1.000000 0.524987 0.000000
1.000000 0.508415 0.000000
1.000000 0.492134 0.000000
1.000000 0.475715 0.000000
1.000000 0.459358 0.000000
1.000000 0.442695 0.000000
1.000000 0.425879 0.000000
1.000000 0.408576 0.000000
1.000000 0.390509 0.000000
0.000000 0.813962 0.393927
0.000000 0.813870 0.394141
0.000000 0.813565 0.395758
0.000000 0.812772 0.399329
0.000000 0.811734 0.404913
0.000000 0.810239 0.413092
0.000000 0.808560 0.423774
0.218967 0.806546 0.437415
0.338994 0.804318 0.453468
0.408026 0.798520 0.431678
0.471412 0.790494 0.395361
0.534478 0.780667 0.350866
0.595636 0.768734 0.296086
0.653681 0.754269 0.225101
0.706630 0.737026 0.102602
0.753109 0.716701 0.000000
0.792813 0.694270 0.000000
0.853178 0.689052 0.000000
0.903014 0.677546 0.000000
0.944366 0.661280 0.000000
0.979339 0.641016 0.000000
1.000000 0.617578 0.000000
1.000000 0.591119 0.000000
1.000000 0.566125 0.000000
1.000000 0.549828 0.000000
1.000000 0.533837 0.000000
1.000000 0.517723 0.000000
1.000000 0.501854 0.000000
1.000000 0.485725 0.000000
1.000000 0.469520 0.000000
1.000000 0.453040 0.000000
1.000000 0.436011 0.000000
0.000000 0.833738 0.441169
0.000000 0.833707 0.441627
0.000000 0.833402 0.443000
0.000000 0.832853 0.445991
0.000000 0.831968 0.451087
0.000000 0.830777 0.457954
0.157504 0.829343 0.466987
0.286381 0.827634 0.478614
0.373632 0.825681 0.492683
0.439338 0.822904 0.498695
0.484382 0.816800 0.469123
0.533928 0.809201 0.432746
0.585992 0.799954 0.388434
0.638911 0.788724 0.335149
0.690333 0.775326 0.268162
0.738857 0.759426 0.173373
0.783047 0.740780 0.000000
0.818173 0.718441 0.000000
0.869474 0.710384 0.000000
0.914275 0.698665 0.000000
0.951965 0.682979 0.000000
0.984405 0.663996 0.000000
1.000000 0.642420 0.000000
1.000000 0.618189 0.000000
1.000000 0.591485 0.000000
1.000000 0.571893 0.000000
1.000000 0.556359 0.000000
1.000000 0.540581 0.000000
1.000000 0.524956 0.000000
1.000000 0.509239 0.000000
1.000000 0.493141 0.000000
1.000000 0.476783 0.000000
0.000000 0.849363 0.483619
0.000000 0.849302 0.483864
0.000000 0.849058 0.485145
0.000000 0.848600 0.487800
0.000000 0.847776 0.492012
0.170230 0.846799 0.497688
0.266667 0.845518 0.505241
0.341802 0.843931 0.515221
0.406622 0.842161 0.526421
0.466072 0.840208 0.539788
0.505455 0.836545 0.529442
0.540459 0.830961 0.500175
0.581079 0.823941 0.464790
0.625666 0.815457 0.422187
0.672450 0.805142 0.370397
0.719600 0.792813 0.307012
0.764828 0.778470 0.224338
0.807126 0.761654 0.013214
0.841855 0.741390 0.000000
0.883574 0.729213 0.000000
0.924285 0.717586 0.000000
0.959167 0.702327 0.000000
0.989105 0.684413 0.000000
1.000000 0.664118 0.000000
1.000000 0.641627 0.000000
1.000000 0.617121 0.000000
1.000000 0.591577 0.000000
1.000000 0.576226 0.000000
1.000000 0.560967 0.000000
1.000000 0.545678 0.000000
1.000000 0.530083 0.000000
1.000000 0.514183 0.000000
0.113313 0.861997 0.522362
0.121981 0.861967 0.522576
0.192233 0.863584 0.530480
0.224216 0.863188 0.532494
0.264897 0.862516 0.535882
0.309972 0.861570 0.540673
0.356786 0.860380 0.547021
0.405280 0.858946 0.554864
0.452735 0.857359 0.564263
0.499580 0.855497 0.575280
0.543725 0.853452 0.586542
0.563958 0.849516 0.562890
0.590723 0.844419 0.534142
0.623682 0.838041 0.499855
0.661463 0.830198 0.458564
0.702815 0.820737 0.408972
0.745571 0.809506 0.348425
0.788144 0.796353 0.272953
0.828641 0.781155 0.162997
0.863249 0.762997 0.000000
0.897520 0.747494 0.000000
0.934569 0.735622 0.000000
0.966552 0.720577 0.000000
0.994141 0.703273 0.000000
1.000000 0.683925 0.000000
1.000000 0.662715 0.000000
1.000000 0.639765 0.000000
1.000000 0.614923 0.000000
1.000000 0.594232 0.000000
1.000000 0.579370 0.000000
1.000000 0.564111 0.000000
1.000000 0.548760 0.000000
0.293309 0.872313 0.558251
0.297337 0.872404 0.559167
0.307683 0.872343 0.560723
0.325231 0.872129 0.562982
0.348699 0.871611 0.566278
0.377691 0.870848 0.570489
0.410956 0.869810 0.575891
0.446479 0.868559 0.582452
0.484138 0.867063 0.590387
0.522271 0.865446 0.599603
0.559930 0.863706 0.609949
0.586542 0.861295 0.607599
0.603052 0.857633 0.584344
0.625360 0.853025 0.556725
0.653559 0.847318 0.524041
0.687007 0.840208 0.484535
0.724514 0.831724 0.437354
0.764218 0.821653 0.380285
0.804685 0.809873 0.310521
0.843992 0.796353 0.218296
0.879179 0.780392 0.000000
0.908354 0.762783 0.000000
0.942504 0.750942 0.000000
0.972198 0.736233 0.000000
0.998016 0.719539 0.000000
1.000000 0.701167 0.000000
1.000000 0.681117 0.000000
1.000000 0.659571 0.000000
1.000000 0.636378 0.000000
1.000000 0.611322 0.000000
1.000000 0.595636 0.000000
1.000000 0.580652 0.000000
0.377966 0.880064 0.587945
0.380682 0.880125 0.588647
0.386999 0.880095 0.589868
0.398199 0.879881 0.591913
0.414405 0.879454 0.594720
0.435035 0.878782 0.598352
0.458869 0.877897 0.602777
0.486152 0.876799 0.608301
0.515740 0.875486 0.615015
0.546441 0.874083 0.622553
0.578027 0.872496 0.631159
0.609552 0.870848 0.640803
0.622736 0.868315 0.626886
0.636744 0.864988 0.605097
0.655543 0.860807 0.578546
0.679835 0.855650 0.546777
0.709651 0.849302 0.509117
0.743648 0.841672 0.464271
0.780545 0.832700 0.411048
0.819028 0.822171 0.345953
0.857206 0.810086 0.263462
0.893187 0.796414 0.145113
0.918151 0.777066 0.000000
0.949859 0.765103 0.016724
0.977356 0.750790 0.075746
1.000000 0.734615 0.098543
1.000000 0.716945 0.105684
1.000000 0.697932 0.101106
1.000000 0.677546 0.082856
1.000000 0.655726 0.005280
1.000000 0.632166 0.000000
1.000000 0.610407 0.000000
0.440894 0.886748 0.614435
0.442969 0.886778 0.615106
0.447669 0.886717 0.616175
0.455634 0.886534 0.617853
0.467384 0.886168 0.620172
0.482460 0.885557 0.623163
0.500694 0.884825 0.626886
0.521752 0.883848 0.631464
0.545159 0.882750 0.637018
0.570336 0.881468 0.643427
0.596735 0.880064 0.650752
0.623499 0.878569 0.658808
0.645289 0.876890 0.661707
0.653407 0.874479 0.644373
0.665400 0.871458 0.623529
0.681758 0.867765 0.598688
0.703090 0.863157 0.568505
0.729732 0.857572 0.532952
0.760800 0.850919 0.491432
0.795438 0.842985 0.441016
0.831998 0.833829 0.380987
0.869291 0.823178 0.306279
0.906065 0.811978 0.210025
0.928099 0.791226 0.126650
0.957336 0.779232 0.146517
0.983001 0.765133 0.158633
1.000000 0.749416 0.165286
1.000000 0.732448 0.168765
1.000000 0.714290 0.166201
1.000000 0.694911 0.155154
1.000000 0.674220 0.132815
1.000000 0.651942 0.092683
0.496895 0.892943 0.640589
0.497871 0.892943 0.640925
0.500694 0.892851 0.641566
0.506065 0.892638 0.642664
0.514397 0.892271 0.644373
0.525444 0.891722 0.646693
0.539513 0.891020 0.649836
0.556023 0.890227 0.653620
0.574701 0.889250 0.658259
0.595392 0.888151 0.663691
0.617304 0.886931 0.669947
0.639979 0.885588 0.676783
0.663020 0.884184 0.684382
0.674372 0.882506 0.678187
0.681086 0.880369 0.661463
0.691402 0.877653 0.641871
0.705623 0.874327 0.618250
0.724422 0.870268 0.590295
0.748013 0.865324 0.556939
0.776303 0.859373 0.517144
0.808469 0.852293 0.469886
0.843168 0.844083 0.413672
0.879088 0.834592 0.344213
0.916564 0.825528 0.258030
0.936278 0.803830 0.180087
0.963439 0.791806 0.192996
0.987549 0.777951 0.202152
1.000000 0.762661 0.206149
1.000000 0.746334 0.208164
1.000000 0.728939 0.204807
1.000000 0.710414 0.194614
1.000000 0.690700 0.176913
0.538170 0.897917 0.661555
0.538903 0.897917 0.661738
0.541344 0.897826 0.662409
0.545556 0.897612 0.663325
0.551965 0.897307 0.664790
0.560723 0.896849 0.666804
0.571893 0.896269 0.669398
0.585199 0.895537 0.672633
0.600610 0.894682 0.676631
0.617700 0.893706 0.681331
0.635981 0.892668 0.686610
0.655390 0.891478 0.692653
0.675227 0.890196 0.699123
0.695033 0.888884 0.705806
0.698482 0.887358 0.692317
0.704463 0.885435 0.676570
0.713466 0.883055 0.657832
0.726223 0.880125 0.635981
0.743130 0.876555 0.609644
0.764401 0.872221 0.578424
0.790219 0.867002 0.541222
0.820096 0.860777 0.497139
0.853056 0.853513 0.444465
0.887755 0.845151 0.380407
0.924010 0.836606 0.299413
0.943908 0.815915 0.221439
0.969146 0.803616 0.230533
0.991791 0.790158 0.238315
1.000000 0.775296 0.241581
1.000000 0.759487 0.242557
1.000000 0.742763 0.239139
1.000000 0.724849 0.227817
0.576226 0.902495 0.681819
0.577081 0.902495 0.682094
0.578729 0.902434 0.682521
0.582025 0.902251 0.683253
0.586847 0.901946 0.684382
0.593683 0.901518 0.685969
0.602106 0.900999 0.687953
0.612665 0.900328 0.690578
0.625177 0.899535 0.693904
0.638911 0.898680 0.697688
0.654047 0.897704 0.702022
0.670222 0.896635 0.706966
0.687068 0.895506 0.712428
0.704372 0.894316 0.718379
0.715633 0.893065 0.717433
0.718868 0.891661 0.704616
0.724056 0.889921 0.689265
0.732174 0.887816 0.671534
0.743679 0.885252 0.650690
0.759152 0.882078 0.626459
0.778744 0.878264 0.597498
0.802487 0.873716 0.562463
0.830320 0.868254 0.521019
0.861509 0.861814 0.471809
0.894957 0.854398 0.411658
0.930236 0.846738 0.339055
0.951934 0.828733 0.269932
0.974670 0.815335 0.266361
0.996185 0.802060 0.273289
1.000000 0.787686 0.276249
1.000000 0.772244 0.274510
1.000000 0.755886 0.267460
0.605859 0.906340 0.698360
0.606500 0.906340 0.698604
0.608148 0.906249 0.699123
0.610742 0.906126 0.699733
0.614893 0.905882 0.700801
0.620417 0.905516 0.702174
0.627680 0.905089 0.704067
0.636561 0.904540 0.706416
0.646937 0.903899 0.709316
0.658686 0.903166 0.712703
0.671595 0.902312 0.716548
0.685359 0.901366 0.720851
0.699825 0.900389 0.725582
0.714809 0.899321 0.730678
0.730037 0.898222 0.736049
0.735012 0.897154 0.729244
0.738094 0.895903 0.717037
0.743099 0.894377 0.702846
0.750423 0.892576 0.686213
0.760922 0.890349 0.666835
0.774960 0.887633 0.644068
0.792782 0.884337 0.617395
0.814633 0.880400 0.585321
0.840482 0.875700 0.546899
0.869841 0.870176 0.501335
0.901946 0.863767 0.446540
0.936004 0.856779 0.379370
0.959411 0.841489 0.317144
0.980407 0.827329 0.305333
1.000000 0.814145 0.309697
1.000000 0.799985 0.309758
1.000000 0.785061 0.305364
0.633722 0.909972 0.714473
0.634119 0.909972 0.714595
0.635248 0.909911 0.714931
0.637446 0.909758 0.715511
0.640742 0.909545 0.716396
0.645167 0.909239 0.717525
0.651179 0.908843 0.719142
0.658381 0.908385 0.721096
0.666926 0.907836 0.723476
0.676814 0.907164 0.726406
0.687709 0.906432 0.729702
0.699489 0.905608 0.733425
0.711940 0.904753 0.737514
0.724819 0.903807 0.741878
0.738308 0.902800 0.746639
0.750027 0.901823 0.749630
0.751949 0.900938 0.739895
0.755154 0.899870 0.728573
0.760037 0.898558 0.715419
0.767086 0.897032 0.700069
0.776730 0.895140 0.682124
0.789517 0.892882 0.661067
0.805814 0.890074 0.636530
0.826078 0.886717 0.607385
0.849973 0.882750 0.572290
0.877531 0.878111 0.530144
0.908293 0.872587 0.479469
0.941131 0.866209 0.416938
0.965576 0.852964 0.358312
0.984985 0.838163 0.336095
1.000000 0.825406 0.339788
1.000000 0.811917 0.338384
0.657740 0.913298 0.728908
0.658076 0.913298 0.729000
0.659052 0.913237 0.729305
0.660883 0.913115 0.729854
0.663630 0.912963 0.730617
0.667628 0.912718 0.731777
0.672938 0.912383 0.733333
0.679316 0.912016 0.735286
0.687007 0.911528 0.737667
0.695644 0.911009 0.740414
0.705318 0.910399 0.743618
0.715633 0.909728 0.747066
0.726650 0.908995 0.750851
0.737972 0.908202 0.754818
0.749752 0.907347 0.759152
0.761593 0.906462 0.763577
0.768276 0.905669 0.761868
0.770321 0.904967 0.752804
0.773709 0.904143 0.742702
0.778561 0.903105 0.730922
0.785275 0.901854 0.717311
0.794186 0.900359 0.701350
0.805356 0.898497 0.681880
0.819883 0.896147 0.659266
0.837919 0.893339 0.632380
0.859800 0.889952 0.600153
0.885527 0.885893 0.561120
0.914641 0.881193 0.514000
0.946349 0.875853 0.457435
0.971283 0.864561 0.403510
0.989593 0.849821 0.375189
1.000000 0.837675 0.377264
0.683742 0.916594 0.744869
0.683833 0.916594 0.744869
0.684504 0.916533 0.745113
0.685939 0.916442 0.745480
0.688136 0.916289 0.746090
0.691279 0.916075 0.747036
0.695460 0.915770 0.748226
0.700526 0.915404 0.749752
0.706630 0.915007 0.751675
0.713649 0.914519 0.753872
0.721553 0.913939 0.756435
0.730159 0.913359 0.759335
0.739437 0.912688 0.762509
0.749203 0.911986 0.765927
