20 Preset/Japan Style/【3】LUT video cho PR-AE-FCPX/LUT VIDEO (2)/Japan Style LUT (36).cube
# Created by Adobe Lightroom plugin Export LUT (1.24.0)
# www.johnrellis.com/lightroom/exportlut.htm
# Preset: 36日系胶片（素材江湖）
# Color profile: C:\Program Files (x86)\Common Files\Adobe\Color\Profiles\Recommended\VideoHD.icc
LUT_3D_SIZE 8
DOMAIN_MIN 0.000000 0.000000 0.000000
DOMAIN_MAX 0.903226 0.903226 0.903226
0.000000 0.000000 0.000000
0.194553 0.098573 0.000000
0.638178 0.172488 0.000000
0.968994 0.249271 0.000000
1.000000 0.326543 0.000000
1.000000 0.378943 0.000000
1.000000 0.411810 0.000000
1.000000 0.433478 0.000000
0.000000 0.236057 0.071656
0.157107 0.249302 0.096986
0.637568 0.300481 0.000000
0.956512 0.342382 0.000000
1.000000 0.382452 0.000000
1.000000 0.412757 0.000000
1.000000 0.433906 0.000000
1.000000 0.449317 0.000000
0.000000 0.595697 0.172305
0.000000 0.605310 0.176425
0.548791 0.618341 0.253117
0.936004 0.625971 0.000000
1.000000 0.550103 0.000000
1.000000 0.529778 0.000000
1.000000 0.519768 0.000000
1.000000 0.514488 0.000000
0.000000 0.834470 0.379492
0.000000 0.834714 0.386969
0.426886 0.835355 0.423102
0.782834 0.826413 0.517632
0.990906 0.809751 0.350134
1.000000 0.695705 0.000000
1.000000 0.636866 0.000000
1.000000 0.610437 0.131289
0.306889 0.905241 0.572198
0.359503 0.904570 0.574762
0.515160 0.901701 0.591089
0.702052 0.894896 0.627741
0.855680 0.884855 0.680293
0.969665 0.878874 0.636194
1.000000 0.800626 0.397345
1.000000 0.716579 0.263798
0.569146 0.928283 0.691402
0.582666 0.928252 0.693446
0.631708 0.926574 0.700374
0.707973 0.923766 0.713497
0.806027 0.917662 0.737850
0.890043 0.911894 0.768429
0.957885 0.912993 0.775296
1.000000 0.871733 0.625605
0.702693 0.940642 0.774166
0.705592 0.940734 0.773861
0.725277 0.939971 0.777249
0.760555 0.938781 0.784390
0.806363 0.937255 0.794980
0.866239 0.933928 0.813931
0.916899 0.932280 0.835904
0.957519 0.935760 0.858000
0.807614 0.950591 0.846616
0.808621 0.950713 0.846494
0.816312 0.950744 0.848173
0.833005 0.950683 0.853208
0.852537 0.950378 0.857603
0.882414 0.950317 0.868620
0.915557 0.950103 0.882872
0.943114 0.950713 0.897520
0.000000 0.015503 0.194217
0.207462 0.014008 0.196139
0.599359 0.131014 0.165774
0.944457 0.246525 0.070253
1.000000 0.339361 0.000000
1.000000 0.393835 0.000000
1.000000 0.426154 0.000000
1.000000 0.446296 0.000000
0.000000 0.239658 0.214420
0.184176 0.255314 0.218387
0.613947 0.287480 0.161196
0.938842 0.341375 0.024445
1.000000 0.393042 0.000000
1.000000 0.426307 0.000000
1.000000 0.447395 0.000000
1.000000 0.461463 0.000000
0.000000 0.580163 0.325139
0.000000 0.592309 0.295872
0.556298 0.610376 0.349493
0.921965 0.609979 0.090974
1.000000 0.550042 0.000000
1.000000 0.535210 0.000000
1.000000 0.527214 0.039857
1.000000 0.522820 0.105531
0.000000 0.822385 0.454444
0.000000 0.824796 0.439857
0.455482 0.827085 0.471443
0.779629 0.819028 0.550072
0.983978 0.803342 0.392584
1.000000 0.690364 0.168368
1.000000 0.638911 0.170230
1.000000 0.614801 0.206302
0.385992 0.900145 0.604242
0.403723 0.900328 0.598810
0.538262 0.897704 0.613397
0.707851 0.891691 0.644831
0.855039 0.882353 0.692317
0.966857 0.877012 0.647761
1.000000 0.800351 0.428138
1.000000 0.716457 0.295262
0.588434 0.925505 0.704219
0.593011 0.925689 0.701900
0.640040 0.924193 0.708583
0.713741 0.921752 0.721614
0.808164 0.916289 0.744991
0.890318 0.911101 0.774807
0.956939 0.912413 0.779721
1.000000 0.872068 0.639490
0.708919 0.939208 0.779141
0.710262 0.939239 0.777920
0.727657 0.938750 0.780087
0.762753 0.937652 0.787320
0.808042 0.936431 0.798306
0.866941 0.933288 0.816739
0.916777 0.931701 0.837797
0.957305 0.935424 0.858457
0.808988 0.950011 0.848051
0.810513 0.950134 0.848264
0.817105 0.950286 0.849271
0.833738 0.950286 0.854307
0.856291 0.950378 0.861540
0.884367 0.950317 0.871366
0.916289 0.950072 0.884672
0.943420 0.950774 0.898985
0.000000 0.024445 0.493294
0.183200 0.000000 0.490913
0.595636 0.000000 0.482826
0.920623 0.116426 0.417853
1.000000 0.408728 0.416724
1.000000 0.467720 0.384009
1.000000 0.500542 0.366247
1.000000 0.513481 0.345556
0.000000 0.256962 0.502312
0.147555 0.254612 0.499031
0.599084 0.253666 0.486030
0.897520 0.324102 0.426795
1.000000 0.445350 0.412177
1.000000 0.494423 0.389227
1.000000 0.515038 0.366979
1.000000 0.524651 0.348150
0.000000 0.561273 0.510430
0.000000 0.564477 0.507561
0.568597 0.585046 0.525353
0.886870 0.568444 0.432166
1.000000 0.576410 0.414557
1.000000 0.577905 0.397070
1.000000 0.577203 0.383337
1.000000 0.573938 0.369421
0.090303 0.803799 0.591577
0.325017 0.803647 0.600427
0.549798 0.809720 0.607385
0.789670 0.811887 0.662501
0.965911 0.792538 0.545373
1.000000 0.692836 0.396338
1.000000 0.669368 0.407538
1.000000 0.651789 0.407141
0.540246 0.885679 0.694087
0.570947 0.884855 0.698695
0.614893 0.887022 0.688594
0.737484 0.885344 0.711086
0.860349 0.879820 0.746914
0.959319 0.875395 0.702083
1.000000 0.805936 0.546227
1.000000 0.738705 0.454017
0.663905 0.916564 0.755489
0.667231 0.916869 0.753719
0.685389 0.917540 0.748928
0.744747 0.916167 0.759579
0.821286 0.913054 0.777493
0.893339 0.909758 0.802029
0.953979 0.912047 0.801602
1.000000 0.876677 0.700923
0.745602 0.934783 0.806516
0.746731 0.934905 0.805509
0.753109 0.935393 0.802304
0.783169 0.934752 0.808438
0.822568 0.934295 0.818021
0.874418 0.932464 0.834257
0.919829 0.932067 0.853605
0.957061 0.936370 0.869932
0.824887 0.948455 0.860990
0.825559 0.948547 0.860655
0.829221 0.949035 0.860075
0.844022 0.949371 0.864469
0.864897 0.949767 0.871275
0.890562 0.950256 0.880644
0.920287 0.950439 0.893065
0.945312 0.951446 0.906310
0.000000 0.046326 0.762753
0.000000 0.017487 0.761166
0.563958 0.000000 0.749722
0.897398 0.000000 0.723842
1.000000 0.337926 0.632502
1.000000 0.550286 0.617884
1.000000 0.641779 0.636286
1.000000 0.641108 0.601373
0.000000 0.260899 0.762142
0.022217 0.261418 0.759670
0.566339 0.258000 0.749111
0.890074 0.270726 0.721706
1.000000 0.428870 0.639643
1.000000 0.605859 0.645380
1.000000 0.648737 0.635370
1.000000 0.649683 0.604791
0.000000 0.547845 0.750271
0.000000 0.549401 0.748379
0.551873 0.555200 0.738308
0.841428 0.568688 0.711208
0.954925 0.636896 0.674464
1.000000 0.682765 0.669184
1.000000 0.687312 0.644617
1.000000 0.683711 0.620172
0.000000 0.784268 0.729458
0.234897 0.782406 0.727138
0.560388 0.775570 0.720729
0.783902 0.786557 0.745541
0.930571 0.754055 0.670283
0.997375 0.746365 0.661097
1.000000 0.738125 0.647608
1.000000 0.728298 0.631678
0.526818 0.874083 0.745022
0.563775 0.872770 0.748745
0.677607 0.868772 0.764858
0.769375 0.871122 0.776761
0.863615 0.872831 0.801663
0.948882 0.868498 0.761013
1.000000 0.809171 0.667720
1.000000 0.785672 0.652247
0.691859 0.908446 0.791836
0.706477 0.907988 0.795499
0.751614 0.905699 0.806332
0.782162 0.907683 0.805447
0.838529 0.908171 0.818479
0.897704 0.907713 0.836973
0.950561 0.910826 0.829587
1.000000 0.881041 0.768582
0.771450 0.929870 0.832181
0.778439 0.929534 0.834440
0.796841 0.929076 0.838987
0.810208 0.930632 0.837217
0.843442 0.931304 0.845731
0.885100 0.931518 0.858671
0.924163 0.932616 0.874998
0.957061 0.937499 0.884825
0.845212 0.946563 0.878904
0.849058 0.946441 0.880552
0.852811 0.946990 0.880461
0.859403 0.948211 0.880064
0.877867 0.949004 0.886168
0.899504 0.950286 0.894285
0.926177 0.951049 0.905486
0.948394 0.952667 0.917388
0.000000 0.156558 0.887358
0.113283 0.159670 0.886137
0.506767 0.171023 0.879545
0.795895 0.204929 0.867216
1.000000 0.313909 0.833921
1.000000 0.495155 0.753597
1.000000 0.646601 0.733303
1.000000 0.747433 0.766812
0.000000 0.284306 0.883574
0.193973 0.286809 0.882475
0.517967 0.295750 0.876371
0.793942 0.319890 0.863890
0.994965 0.397650 0.830808
1.000000 0.542199 0.757198
1.000000 0.669154 0.741085
1.000000 0.760494 0.774868
0.221866 0.531273 0.868406
0.334203 0.536522 0.866789
0.554894 0.546532 0.860716
0.779995 0.562280 0.848814
0.948119 0.598993 0.818936
0.995789 0.670893 0.771023
1.000000 0.735836 0.766293
1.000000 0.783017 0.784726
0.332738 0.734676 0.844755
0.405188 0.736843 0.843381
0.592401 0.746853 0.837491
0.764920 0.758663 0.826902
0.884886 0.763668 0.809842
0.934905 0.787625 0.796750
0.979461 0.799252 0.792508
1.000000 0.797971 0.780453
0.494301 0.860044 0.819394
0.530755 0.858579 0.818509
0.641932 0.853117 0.815549
0.765103 0.847776 0.815702
0.855161 0.854673 0.830594
0.929320 0.836667 0.791043
0.974273 0.830411 0.785885
1.000000 0.826017 0.780667
0.667964 0.899290 0.816312
0.682002 0.898650 0.817929
0.730098 0.896361 0.823911
0.795590 0.893919 0.834958
0.844877 0.898039 0.844205
0.898253 0.902342 0.861479
0.948669 0.904906 0.847868
0.988617 0.876799 0.809110
0.757351 0.926970 0.843839
0.763546 0.926635 0.845029
0.787716 0.925597 0.850492
0.830014 0.924346 0.862547
0.856809 0.926909 0.867308
0.892149 0.929595 0.878691
0.927733 0.932494 0.893523
0.957824 0.937407 0.896391
0.820645 0.946960 0.875761
0.825650 0.946777 0.877501
0.845212 0.946105 0.884733
0.876371 0.945861 0.897856
0.888426 0.947936 0.900023
0.908507 0.949859 0.907683
0.931487 0.951659 0.917449
0.951354 0.953857 0.927947
0.106020 0.241032 0.940764
0.250034 0.246799 0.939788
0.479805 0.267369 0.935210
0.708736 0.310460 0.926574
0.906340 0.382300 0.912932
1.000000 0.489967 0.880247
1.000000 0.618006 0.823941
1.000000 0.724056 0.807950
0.217533 0.324437 0.936187
0.301061 0.328222 0.935180
0.498268 0.344213 0.930846
0.711849 0.377661 0.922179
0.901030 0.437751 0.908843
1.000000 0.528252 0.877226
1.000000 0.640406 0.824979
1.000000 0.734157 0.810422
0.413214 0.539971 0.921202
0.450446 0.542382 0.920226
0.572168 0.552575 0.916167
0.730800 0.571923 0.907897
0.882567 0.605249 0.895903
0.984588 0.654261 0.869291
1.000000 0.716609 0.831601
1.000000 0.773587 0.823117
0.513512 0.711757 0.901244
0.547204 0.716640 0.899718
0.654871 0.736049 0.893858
0.761837 0.751186 0.886961
0.859403 0.758450 0.879057
0.938231 0.771420 0.862028
0.969024 0.796201 0.842710
0.984558 0.822965 0.842191
0.583703 0.825010 0.880430
0.604913 0.825925 0.879698
0.676051 0.829282 0.876860
0.765530 0.834257 0.872343
0.842985 0.837766 0.866636
0.904417 0.839658 0.858427
0.937926 0.851102 0.855375
0.967437 0.861509 0.859007
0.658320 0.893523 0.865446
0.671901 0.892943 0.865324
0.716030 0.890349 0.864103
0.778134 0.886717 0.862821
0.841184 0.885130 0.865171
0.894347 0.892668 0.877836
0.941314 0.884398 0.859159
0.970367 0.885344 0.862394
0.747585 0.922881 0.865537
0.754513 0.922728 0.866545
0.779477 0.921965 0.869993
0.819669 0.921233 0.876768
0.864652 0.921782 0.887053
0.898161 0.926604 0.896513
0.931365 0.932586 0.910796
0.959869 0.936400 0.907897
0.813413 0.946777 0.887816
0.817075 0.946624 0.888640
0.832761 0.946197 0.892515
0.859800 0.945983 0.900175
0.894255 0.946471 0.912352
0.917021 0.949432 0.920806
0.937041 0.952575 0.929656
0.954742 0.955474 0.938994
0.298772 0.314183 0.967956
0.349096 0.321202 0.967468
0.486885 0.340856 0.964080
0.659998 0.382635 0.957580
0.824460 0.445686 0.947417
0.955383 0.524743 0.934020
1.000000 0.616327 0.906035
1.000000 0.704952 0.864622
0.332921 0.364019 0.963195
0.376623 0.370733 0.962860
0.501579 0.387152 0.959625
0.663142 0.420111 0.953216
0.821225 0.472724 0.943297
0.949950 0.538079 0.930175
1.000000 0.617731 0.902342
1.000000 0.699397 0.860746
0.483223 0.544274 0.950896
0.505394 0.546960 0.950164
0.583154 0.556146 0.947021
0.700984 0.576776 0.941009
0.824491 0.606806 0.931975
0.932158 0.647211 0.920775
1.000000 0.698238 0.898589
1.000000 0.754116 0.868467
0.616114 0.715480 0.931975
0.633600 0.719844 0.930755
0.689235 0.732784 0.926726
0.754879 0.739925 0.922728
0.831815 0.748531 0.916747
0.910399 0.762600 0.909880
0.968902 0.784482 0.895567
0.986725 0.811734 0.877379
0.636988 0.798489 0.917327
0.647883 0.799161 0.916411
0.695430 0.804898 0.913695
0.766781 0.816037 0.909514
0.832547 0.825193 0.904509
0.891997 0.828458 0.900481
0.943359 0.837644 0.892180
0.965698 0.857908 0.886595
0.675715 0.867857 0.904875
0.685817 0.868345 0.904723
0.721645 0.869932 0.903868
0.775784 0.872862 0.902556
0.833280 0.876524 0.901152
0.886931 0.882353 0.900908
0.928832 0.888457 0.900328
0.951873 0.899962 0.903349
0.737881 0.922606 0.903685
0.745724 0.922576 0.903960
0.769680 0.921447 0.903685
0.809354 0.920012 0.903929
0.853330 0.918853 0.904784
0.895567 0.920165 0.908965
0.930755 0.928710 0.921172
0.956847 0.927825 0.916808
0.808530 0.945922 0.905943
0.813046 0.945922 0.906706
0.832059 0.946075 0.910399
0.859251 0.946136 0.915557
0.890257 0.946746 0.922515
0.920256 0.948791 0.931518
0.941741 0.952972 0.940002
0.957763 0.956970 0.948241
0.382940 0.367834 0.981964
0.410620 0.373175 0.981445
0.498604 0.387366 0.978882
0.629694 0.422583 0.974060
0.766506 0.476417 0.966461
0.885496 0.542840 0.956481
0.976776 0.621302 0.945159
1.000000 0.695369 0.923919
0.404059 0.401495 0.979126
0.429847 0.406775 0.978637
0.512810 0.420722 0.976226
0.636255 0.451698 0.971496
0.767697 0.499550 0.964080
0.883421 0.559686 0.954406
0.973846 0.628779 0.943420
1.000000 0.696956 0.922484
0.502861 0.533379 0.969085
0.519463 0.536339 0.968566
0.577691 0.545220 0.966308
0.677607 0.573205 0.961883
0.782193 0.603662 0.955200
0.879423 0.642115 0.946654
0.960998 0.687373 0.937835
1.000000 0.736599 0.920165
0.627466 0.693019 0.952026
0.637446 0.695094 0.951629
0.670863 0.699245 0.949950
0.730831 0.710292 0.946685
0.802365 0.724544 0.942016
0.875151 0.741909 0.936431
0.943297 0.765133 0.930938
0.989807 0.795346 0.918914
0.635340 0.763394 0.942504
0.649195 0.766873 0.941924
0.690913 0.775723 0.939544
0.765133 0.799069 0.934234
0.815030 0.804532 0.931304
0.870665 0.811643 0.928130
0.928161 0.825071 0.925841
0.970459 0.847990 0.920378
0.659968 0.833524 0.932341
0.666621 0.833768 0.931945
0.697292 0.836271 0.930602
0.751644 0.842924 0.928588
0.815061 0.853696 0.926390
0.875822 0.869871 0.925475
0.923278 0.883543 0.928161
0.957733 0.898131 0.928710
0.728023 0.898772 0.928954
0.733822 0.899046 0.928862
0.757137 0.900359 0.928679
0.798550 0.903777 0.928985
0.847044 0.909392 0.930205
0.890501 0.915740 0.932128
0.926513 0.923064 0.934844
0.952697 0.929808 0.937255
0.800656 0.947021 0.935363
0.804044 0.946960 0.935424
0.819638 0.946960 0.935973
0.848325 0.947448 0.937652
0.881254 0.948058 0.939727
0.912902 0.948638 0.941985
0.939391 0.950713 0.945861
0.957488 0.955535 0.952697
