20 Preset/Japan Style/【3】LUT video cho PR-AE-FCPX/LUT VIDEO (2)/Japan Style LUT (7).cube
# Created by Adobe Lightroom plugin Export LUT (1.24.0)
# www.johnrellis.com/lightroom/exportlut.htm
# Preset: 07日系雪景（素材江湖）
# Color profile: C:\Program Files (x86)\Common Files\Adobe\Color\Profiles\Recommended\VideoHD.icc
LUT_3D_SIZE 32
DOMAIN_MIN 0.0 0.0 0.0
DOMAIN_MAX 1.0 1.0 1.0
0.108064 0.094575 0.063081
0.108064 0.094575 0.063081
0.112062 0.094026 0.063050
0.129915 0.092317 0.062287
0.156008 0.094667 0.058839
0.186740 0.096986 0.054017
0.218143 0.101137 0.047272
0.249973 0.106355 0.038758
0.282872 0.111971 0.028412
0.317021 0.118685 0.015534
0.352697 0.126864 0.000000
0.389960 0.136202 0.000000
0.429206 0.146914 0.000000
0.470436 0.158938 0.000000
0.513329 0.172457 0.000000
0.557763 0.187533 0.000000
0.603540 0.204227 0.000000
0.650172 0.222568 0.000000
0.696986 0.241093 0.000000
0.741329 0.259617 0.000000
0.782101 0.276921 0.000000
0.820157 0.293462 0.000000
0.855009 0.308690 0.000000
0.887327 0.322637 0.000000
0.917327 0.335332 0.000000
0.944976 0.346838 0.000000
0.970367 0.356939 0.000000
0.993622 0.365850 0.000000
1.000000 0.373388 0.000000
1.000000 0.379858 0.000000
1.000000 0.385229 0.000000
1.000000 0.389624 0.000000
0.108064 0.094575 0.063081
0.108064 0.094575 0.063081
0.113161 0.093874 0.063020
0.130922 0.094179 0.061494
0.156405 0.096498 0.058045
0.186893 0.099611 0.052949
0.218265 0.103609 0.046204
0.249943 0.108370 0.037842
0.283146 0.113741 0.027466
0.317174 0.120912 0.014282
0.352911 0.128847 0.000000
0.390265 0.137942 0.000000
0.429541 0.148684 0.000000
0.470710 0.160525 0.000000
0.513573 0.174044 0.000000
0.558129 0.188998 0.000000
0.603845 0.205814 0.000000
0.650538 0.223819 0.000000
0.697292 0.242466 0.000000
0.741512 0.260685 0.000000
0.782193 0.278202 0.000000
0.820249 0.294316 0.000000
0.855070 0.309636 0.000000
0.887419 0.323522 0.000000
0.917418 0.336248 0.000000
0.945037 0.347448 0.000000
0.970397 0.357488 0.000000
0.993622 0.366400 0.000000
1.000000 0.373907 0.000000
1.000000 0.380255 0.000000
1.000000 0.385687 0.000000
1.000000 0.390051 0.000000
0.105104 0.100282 0.061006
0.105470 0.100587 0.060853
0.113832 0.100984 0.060121
0.131106 0.103120 0.057832
0.157351 0.105745 0.054047
0.187533 0.108827 0.048798
0.218997 0.112306 0.042054
0.251041 0.116701 0.033539
0.284031 0.122408 0.022675
0.318090 0.128603 0.009644
0.353765 0.136385 0.000000
0.391211 0.145205 0.000000
0.430518 0.155337 0.000000
0.471687 0.167208 0.000000
0.514672 0.180423 0.000000
0.559197 0.195254 0.000000
0.605005 0.211765 0.000000
0.651575 0.229374 0.000000
0.698268 0.247745 0.000000
0.742275 0.265599 0.000000
0.782925 0.282628 0.000000
0.820798 0.298711 0.000000
0.855528 0.313542 0.000000
0.887785 0.327153 0.000000
0.917632 0.339544 0.000000
0.945251 0.350469 0.000000
0.970550 0.360479 0.000000
0.993713 0.369055 0.000000
1.000000 0.376410 0.000000
1.000000 0.382696 0.000000
1.000000 0.387732 0.000000
1.000000 0.392035 0.000000
0.103151 0.116243 0.053712
0.105379 0.116335 0.053529
0.114931 0.117128 0.052461
0.132784 0.118196 0.050477
0.157748 0.121065 0.046418
0.187808 0.124422 0.040711
0.220462 0.128603 0.032990
0.252201 0.132570 0.024323
0.285710 0.137362 0.013275
0.319890 0.143221 0.000000
0.355871 0.150393 0.000000
0.393225 0.158663 0.000000
0.432807 0.168734 0.000000
0.474067 0.180209 0.000000
0.516991 0.192844 0.000000
0.561608 0.207492 0.000000
0.607324 0.223301 0.000000
0.653773 0.240574 0.000000
0.700313 0.258396 0.000000
0.743862 0.275547 0.000000
0.784237 0.291661 0.000000
0.821927 0.307225 0.000000
0.856474 0.321416 0.000000
0.888487 0.334356 0.000000
0.918212 0.346075 0.000000
0.945586 0.356786 0.000000
0.970825 0.366278 0.000000
0.993896 0.374365 0.000000
1.000000 0.381231 0.000000
1.000000 0.387182 0.000000
1.000000 0.391974 0.000000
1.000000 0.396002 0.000000
0.102907 0.138521 0.040711
0.105745 0.138521 0.040528
0.116854 0.139010 0.039460
0.134615 0.140047 0.037293
0.158663 0.141512 0.033875
0.185855 0.143313 0.029175
0.217166 0.147127 0.021515
0.250889 0.151949 0.011414
0.287114 0.157656 0.000000
0.322820 0.163668 0.000000
0.358770 0.170260 0.000000
0.396521 0.178286 0.000000
0.436194 0.187686 0.000000
0.477699 0.198672 0.000000
0.520745 0.211276 0.000000
0.565179 0.225498 0.000000
0.610895 0.240757 0.000000
0.657343 0.257237 0.000000
0.703456 0.274266 0.000000
0.746365 0.290288 0.000000
0.786404 0.305730 0.000000
0.823758 0.320073 0.000000
0.857816 0.333410 0.000000
0.889616 0.345373 0.000000
0.919036 0.356359 0.000000
0.946288 0.366400 0.000000
0.971221 0.375036 0.000000
0.994110 0.382544 0.000000
1.000000 0.388830 0.000000
1.000000 0.394263 0.000000
1.000000 0.398566 0.000000
1.000000 0.402167 0.000000
0.103639 0.161715 0.029297
0.105837 0.161776 0.029114
0.117159 0.161959 0.028168
0.134981 0.162783 0.023743
0.158633 0.164004 0.019196
0.185672 0.165530 0.012238
0.213169 0.166964 0.006714
0.246189 0.171633 0.000000
0.281315 0.177707 0.000000
0.319249 0.185031 0.000000
0.359380 0.193454 0.000000
0.401129 0.203037 0.000000
0.440894 0.212375 0.000000
0.482551 0.223178 0.000000
0.525689 0.235325 0.000000
0.570275 0.248875 0.000000
0.615778 0.263584 0.000000
0.662196 0.279301 0.000000
0.707637 0.295079 0.000000
0.749691 0.310002 0.000000
0.789303 0.324163 0.000000
0.826078 0.337499 0.000000
0.859770 0.349432 0.000000
0.891112 0.360479 0.000000
0.920195 0.370367 0.000000
0.947082 0.379339 0.000000
0.971832 0.387060 0.000000
0.994476 0.393713 0.000000
1.000000 0.399390 0.000000
1.000000 0.404028 0.000000
1.000000 0.407752 0.000000
1.000000 0.410681 0.000000
0.104189 0.185702 0.017792
0.107027 0.185702 0.016480
0.116945 0.186099 0.015412
0.135195 0.186740 0.012116
0.158145 0.187808 0.007599
0.185092 0.188937 0.000763
0.213443 0.190768 0.000000
0.241733 0.192355 0.000000
0.275242 0.197726 0.000000
0.312261 0.205142 0.000000
0.352117 0.213931 0.000000
0.394507 0.224216 0.000000
0.439551 0.236210 0.000000
0.487190 0.249912 0.000000
0.531701 0.262364 0.000000
0.576043 0.275334 0.000000
0.621668 0.289555 0.000000
0.667903 0.304692 0.000000
0.712062 0.319402 0.000000
0.753658 0.333288 0.000000
0.792752 0.346624 0.000000
0.828885 0.358679 0.000000
0.862089 0.369451 0.000000
0.892973 0.379187 0.000000
0.921660 0.387854 0.000000
0.948150 0.395666 0.000000
0.972503 0.402289 0.000000
0.994873 0.407965 0.000000
1.000000 0.412696 0.000000
1.000000 0.416480 0.000000
1.000000 0.419379 0.000000
1.000000 0.421698 0.000000
0.106233 0.211032 0.003754
0.109285 0.211154 0.004517
0.119173 0.211337 0.002472
0.136599 0.211887 0.000000
0.159030 0.212680 0.000000
0.185306 0.213931 0.000000
0.212863 0.215671 0.000000
0.242344 0.217624 0.000000
0.271061 0.219364 0.000000
0.304997 0.225040 0.000000
0.344182 0.234043 0.000000
0.386084 0.244602 0.000000
0.430762 0.256657 0.000000
0.477974 0.270146 0.000000
0.527733 0.285313 0.000000
0.579553 0.301976 0.000000
0.627680 0.317082 0.000000
0.673243 0.331121 0.000000
0.716518 0.344488 0.000000
0.757504 0.357122 0.000000
0.795865 0.369238 0.000000
0.831540 0.380285 0.000000
0.864225 0.390204 0.000000
0.894835 0.399573 0.000000
0.923217 0.408362 0.000000
0.949310 0.414923 0.000000
0.973266 0.420447 0.000000
0.995300 0.424903 0.000000
1.000000 0.428565 0.000000
1.000000 0.431403 0.000000
1.000000 0.433448 0.000000
1.000000 0.434882 0.000000
0.107912 0.238010 0.000000
0.110384 0.238132 0.000000
0.120089 0.238285 0.000000
0.137301 0.238773 0.000000
0.159487 0.239536 0.000000
0.185824 0.240696 0.000000
0.213169 0.242100 0.000000
0.242405 0.244083 0.000000
0.272313 0.246433 0.000000
0.301793 0.248234 0.000000
0.335637 0.253758 0.000000
0.376806 0.264652 0.000000
0.420935 0.276951 0.000000
0.467506 0.290684 0.000000
0.516716 0.306065 0.000000
0.568048 0.322698 0.000000
0.621210 0.340429 0.000000
0.674586 0.358556 0.000000
0.721553 0.373266 0.000000
0.761837 0.384649 0.000000
0.799557 0.395300 0.000000
0.834379 0.404913 0.000000
0.866514 0.413336 0.000000
0.896605 0.421393 0.000000
0.924529 0.428931 0.000000
0.950408 0.435676 0.000000
0.974121 0.441108 0.000000
0.995789 0.444434 0.000000
1.000000 0.446967 0.000000
1.000000 0.448676 0.000000
1.000000 0.449714 0.000000
1.000000 0.450233 0.000000
0.107118 0.266789 0.000000
0.109804 0.266819 0.000000
0.119387 0.267033 0.000000
0.137148 0.267430 0.000000
0.159243 0.268193 0.000000
0.185092 0.269230 0.000000
0.213321 0.270542 0.000000
0.242435 0.272313 0.000000
0.272587 0.274418 0.000000
0.303227 0.276982 0.000000
0.334081 0.279637 0.000000
0.366796 0.284031 0.000000
0.410010 0.296880 0.000000
0.455848 0.310948 0.000000
0.504448 0.326604 0.000000
0.555047 0.343114 0.000000
0.606928 0.360601 0.000000
0.660304 0.378759 0.000000
0.711910 0.396063 0.000000
0.760616 0.411841 0.000000
0.803525 0.424414 0.000000
0.837461 0.432288 0.000000
0.868956 0.439368 0.000000
0.898497 0.446021 0.000000
0.925933 0.452064 0.000000
0.951324 0.457496 0.000000
0.974701 0.462257 0.000000
0.996124 0.466102 0.000000
1.000000 0.467353 0.000000
1.000000 0.467994 0.000000
1.000000 0.467964 0.000000
1.000000 0.467506 0.000000
0.101076 0.297429 0.000000
0.103365 0.297459 0.000000
0.114778 0.297612 0.000000
0.133303 0.298039 0.000000
0.156313 0.298772 0.000000
0.183169 0.299687 0.000000
0.212497 0.300938 0.000000
0.242100 0.302525 0.000000
0.272618 0.304540 0.000000
0.303777 0.306950 0.000000
0.335393 0.309575 0.000000
0.367071 0.312779 0.000000
0.399207 0.316655 0.000000
0.443091 0.330236 0.000000
0.490303 0.345861 0.000000
0.539818 0.362585 0.000000
0.591333 0.380285 0.000000
0.644434 0.398657 0.000000
0.696376 0.416419 0.000000
0.745693 0.432319 0.000000
0.791958 0.446387 0.000000
0.834043 0.458320 0.000000
0.871519 0.468025 0.000000
0.900420 0.472938 0.000000
0.927337 0.477424 0.000000
0.952178 0.481514 0.000000
0.975158 0.484932 0.000000
0.996246 0.487861 0.000000
1.000000 0.489693 0.000000
1.000000 0.489113 0.000000
1.000000 0.488106 0.000000
1.000000 0.486580 0.000000
0.087709 0.329747 0.000000
0.091768 0.329808 0.000000
0.104463 0.329992 0.000000
0.125490 0.330327 0.000000
0.150790 0.330999 0.000000
0.179141 0.331945 0.000000
0.209323 0.333135 0.000000
0.240452 0.334600 0.000000
0.271763 0.336431 0.000000
0.303655 0.338598 0.000000
0.335760 0.341192 0.000000
0.367926 0.344121 0.000000
0.400000 0.347173 0.000000
0.432136 0.350683 0.000000
0.474891 0.363531 0.000000
0.523735 0.380865 0.000000
0.574548 0.398840 0.000000
0.627039 0.417700 0.000000
0.679347 0.435981 0.000000
0.729091 0.452369 0.000000
0.776242 0.466804 0.000000
0.819638 0.479103 0.000000
0.859312 0.489357 0.000000
0.895415 0.497841 0.000000
0.928008 0.504631 0.000000
0.953002 0.507408 0.000000
0.975494 0.509361 0.000000
0.996185 0.511070 0.000000
1.000000 0.512169 0.000000
1.000000 0.511772 0.000000
1.000000 0.509575 0.000000
1.000000 0.507012 0.000000
0.036896 0.363745 0.000000
0.043427 0.363836 0.000000
0.082826 0.363897 0.000000
0.111238 0.364324 0.000000
0.140932 0.364874 0.000000
0.172061 0.365728 0.000000
0.204288 0.366796 0.000000
0.236912 0.368231 0.000000
0.269474 0.369909 0.000000
0.302068 0.371832 0.000000
0.334874 0.373938 0.000000
0.367590 0.376410 0.000000
0.400122 0.379126 0.000000
0.432563 0.382238 0.000000
0.464912 0.385595 0.000000
0.506401 0.397436 0.000000
0.556451 0.416083 0.000000
0.608423 0.435462 0.000000
0.660853 0.454444 0.000000
0.711147 0.471534 0.000000
0.758816 0.486488 0.000000
0.803677 0.499489 0.000000
0.844907 0.510216 0.000000
0.882444 0.518975 0.000000
0.916411 0.525750 0.000000
0.946838 0.530938 0.000000
0.974060 0.534691 0.000000
0.995911 0.535821 0.000000
1.000000 0.535668 0.000000
1.000000 0.535271 0.000000
1.000000 0.532433 0.000000
1.000000 0.528832 0.000000
0.000000 0.398993 0.000000
0.000000 0.398962 0.000000
0.004944 0.399268 0.000000
0.083986 0.399542 0.000000
0.124697 0.400061 0.000000
0.160616 0.400732 0.000000
0.195956 0.401678 0.000000
0.230716 0.402686 0.000000
0.264836 0.404120 0.000000
0.298772 0.405737 0.000000
0.332341 0.407721 0.000000
0.365881 0.409918 0.000000
0.399359 0.412421 0.000000
0.432532 0.415290 0.000000
0.465553 0.418494 0.000000
0.498024 0.421515 0.000000
0.537438 0.431464 0.000000
0.588434 0.451392 0.000000
0.640864 0.471412 0.000000
0.691615 0.489357 0.000000
0.740078 0.505089 0.000000
0.786343 0.519036 0.000000
0.829129 0.530632 0.000000
0.868193 0.539849 0.000000
0.903563 0.546960 0.000000
0.935332 0.552209 0.000000
0.963745 0.555840 0.000000
0.989014 0.558007 0.000000
1.000000 0.559106 0.000000
1.000000 0.558770 0.000000
1.000000 0.556329 0.000000
1.000000 0.551720 0.000000
0.000000 0.434485 0.000000
0.000000 0.434577 0.000000
0.000000 0.434730 0.000000
0.000000 0.434943 0.000000
0.097108 0.435401 0.000000
0.143496 0.436042 0.000000
0.183658 0.436835 0.000000
0.221683 0.437873 0.000000
0.257877 0.439094 0.000000
0.293767 0.440589 0.000000
0.328557 0.442329 0.000000
0.363226 0.444373 0.000000
0.397375 0.446693 0.000000
0.431281 0.449317 0.000000
0.465126 0.452247 0.000000
0.498573 0.455421 0.000000
0.530907 0.457984 0.000000
0.567651 0.465461 0.000000
0.619654 0.486244 0.000000
0.670893 0.505516 0.000000
0.720180 0.522423 0.000000
0.767666 0.537591 0.000000
0.812039 0.550286 0.000000
0.852659 0.560266 0.000000
0.889494 0.567864 0.000000
0.922728 0.573358 0.000000
0.952392 0.577020 0.000000
0.978759 0.579065 0.000000
1.000000 0.579858 0.000000
1.000000 0.579767 0.000000
1.000000 0.578943 0.000000
1.000000 0.575433 0.000000
0.000000 0.470649 0.000000
0.000000 0.470649 0.000000
0.000000 0.470863 0.000000
0.000000 0.471046 0.000000
0.000000 0.471473 0.000000
0.115389 0.471992 0.000000
0.165866 0.472786 0.000000
0.208530 0.473732 0.000000
0.248325 0.474861 0.000000
0.286137 0.476265 0.000000
0.322820 0.477760 0.000000
0.358648 0.479622 0.000000
0.394049 0.481727 0.000000
0.428931 0.484108 0.000000
0.463355 0.486671 0.000000
0.497505 0.489570 0.000000
0.531456 0.492836 0.000000
0.563622 0.494697 0.000000
0.600244 0.501762 0.000000
0.648737 0.519585 0.000000
0.698848 0.538109 0.000000
0.747555 0.554650 0.000000
0.793576 0.568750 0.000000
0.835813 0.579858 0.000000
0.874266 0.588190 0.000000
0.908965 0.594202 0.000000
0.939971 0.598077 0.000000
0.967590 0.600092 0.000000
0.992187 0.600763 0.000000
1.000000 0.600427 0.000000
1.000000 0.599207 0.000000
1.000000 0.596704 0.000000
0.000000 0.507317 0.000000
0.000000 0.507317 0.000000
0.000000 0.507408 0.000000
0.000000 0.507652 0.000000
0.000000 0.507988 0.000000
0.027710 0.508537 0.000000
0.139223 0.509178 0.000000
0.191135 0.510033 0.000000
0.235477 0.511009 0.000000
0.276127 0.512291 0.000000
0.314916 0.513725 0.000000
0.352453 0.515435 0.000000
0.389136 0.517296 0.000000
0.424994 0.519341 0.000000
0.460365 0.521691 0.000000
0.495369 0.524285 0.000000
0.529839 0.527092 0.000000
0.564019 0.530114 0.000000
0.596612 0.532189 0.000000
0.631830 0.537469 0.000000
0.676478 0.551843 0.000000
0.726314 0.570031 0.000000
0.773831 0.585809 0.000000
0.817807 0.598230 0.000000
0.857847 0.607660 0.000000
0.894072 0.614374 0.000000
0.926604 0.618677 0.000000
0.955505 0.620996 0.000000
0.981262 0.621668 0.000000
1.000000 0.621180 0.000000
1.000000 0.619776 0.000000
1.000000 0.617609 0.000000
0.000000 0.544121 0.000000
0.000000 0.544091 0.000000
0.000000 0.544213 0.000000
0.000000 0.544427 0.000000
0.000000 0.544762 0.000000
0.000000 0.545190 0.000000
0.092348 0.545830 0.000000
0.166598 0.546563 0.000000
0.218204 0.547448 0.000000
0.263401 0.548577 0.000000
0.304814 0.549798 0.000000
0.344335 0.551232 0.000000
0.382330 0.552880 0.000000
0.419562 0.554559 0.000000
0.455787 0.556542 0.000000
0.491432 0.558679 0.000000
0.526604 0.560906 0.000000
0.561089 0.563439 0.000000
0.595209 0.566033 0.000000
0.628168 0.568322 0.000000
0.662806 0.572625 0.000000
0.703883 0.583520 0.000000
0.752865 0.601099 0.000000
0.798520 0.615229 0.000000
0.840299 0.625940 0.000000
0.878141 0.633631 0.000000
0.912200 0.638697 0.000000
0.942535 0.641444 0.000000
0.969574 0.642329 0.000000
0.993683 0.641840 0.000000
1.000000 0.640314 0.000000
1.000000 0.637964 0.000000
0.000000 0.580652 0.000000
0.000000 0.580713 0.000000
0.000000 0.580774 0.000000
0.000000 0.580896 0.000000
0.000000 0.581140 0.000000
0.000000 0.581537 0.000000
0.000000 0.582025 0.000000
0.130190 0.582635 0.000000
0.195987 0.583368 0.000000
0.247166 0.584283 0.000000
0.291966 0.585382 0.000000
0.333867 0.586542 0.000000
0.373877 0.587854 0.000000
0.412329 0.589319 0.000000
0.449653 0.590997 0.000000
0.486152 0.592706 0.000000
0.522026 0.594659 0.000000
0.557092 0.596704 0.000000
0.591760 0.598901 0.000000
0.625727 0.601190 0.000000
0.659052 0.603479 0.000000
0.693294 0.607202 0.000000
0.730709 0.614496 0.000000
0.778012 0.630549 0.000000
0.821469 0.642878 0.000000
0.861173 0.651850 0.000000
0.896788 0.657893 0.000000
0.928649 0.661280 0.000000
0.956970 0.662593 0.000000
0.982361 0.662318 0.000000
1.000000 0.660761 0.000000
1.000000 0.658320 0.000000
0.000000 0.616846 0.000000
0.000000 0.616846 0.000000
0.000000 0.616938 0.000000
0.000000 0.617090 0.000000
0.000000 0.617304 0.000000
0.000000 0.617578 0.000000
0.000000 0.618006 0.000000
0.021363 0.618494 0.000000
0.165713 0.619074 0.000000
0.226352 0.619837 0.000000
0.276677 0.620630 0.000000
0.321630 0.621607 0.000000
0.363653 0.622675 0.000000
0.403815 0.623865 0.000000
0.442390 0.625147 0.000000
0.479835 0.626612 0.000000
0.516411 0.628229 0.000000
0.552300 0.629816 0.000000
0.587427 0.631617 0.000000
0.621912 0.633539 0.000000
0.655848 0.635523 0.000000
0.689143 0.637537 0.000000
0.722988 0.640772 0.000000
0.757015 0.644556 0.000000
0.801633 0.658289 0.000000
0.843015 0.668849 0.000000
0.880400 0.676051 0.000000
0.913848 0.680354 0.000000
0.943694 0.682246 0.000000
0.970336 0.682307 0.000000
0.994293 0.680995 0.000000
1.000000 0.678645 0.000000
0.000000 0.652522 0.000000
0.000000 0.652522 0.000000
0.000000 0.652613 0.000000
0.000000 0.652674 0.000000
0.000000 0.652857 0.000000
0.000000 0.653101 0.000000
0.000000 0.653437 0.000000
0.000000 0.653803 0.000000
0.119203 0.654292 0.000000
0.200504 0.654871 0.000000
0.258091 0.655451 0.000000
0.307042 0.656245 0.000000
0.351720 0.657130 0.000000
0.393591 0.658015 0.000000
0.433875 0.659083 0.000000
0.472419 0.660212 0.000000
0.509850 0.661402 0.000000
0.546502 0.662715 0.000000
0.582208 0.664088 0.000000
0.617182 0.665492 0.000000
0.651423 0.666957 0.000000
0.684993 0.668421 0.000000
0.717922 0.669978 0.000000
0.751369 0.672633 0.000000
0.784115 0.675074 0.000000
0.823941 0.684413 0.000000
0.863066 0.693050 0.000000
0.898253 0.698512 0.000000
0.929595 0.701259 0.000000
0.957671 0.701869 0.000000
0.982879 0.700862 0.000000
1.000000 0.698665 0.000000
0.000000 0.687434 0.000000
0.000000 0.687434 0.000000
0.000000 0.687495 0.000000
0.000000 0.687526 0.000000
0.000000 0.687678 0.000000
0.000000 0.687831 0.000000
0.000000 0.688075 0.000000
0.000000 0.688380 0.000000
0.000000 0.688655 0.000000
0.166415 0.689143 0.000000
0.235355 0.689570 0.000000
0.289982 0.690089 0.000000
0.338018 0.690761 0.000000
0.382086 0.691310 0.000000
0.423896 0.692042 0.000000
0.463661 0.692836 0.000000
0.502037 0.693599 0.000000
0.539269 0.694392 0.000000
0.575494 0.695308 0.000000
0.610895 0.696193 0.000000
0.645594 0.697139 0.000000
0.679438 0.698116 0.000000
0.712581 0.699123 0.000000
0.745052 0.700160 0.000000
0.778225 0.702449 0.000000
0.809506 0.703548 0.000000
0.844907 0.708736 0.000000
0.881773 0.715602 0.000000
0.914855 0.719417 0.000000
0.944366 0.720760 0.000000
0.970855 0.720272 0.000000
0.994781 0.718441 0.000000
0.000000 0.720607 0.000000
0.000000 0.720638 0.000000
0.000000 0.720668 0.000000
0.000000 0.720729 0.000000
0.000000 0.720790 0.000000
0.000000 0.720912 0.000000
0.000000 0.721004 0.000000
0.000000 0.721157 0.000000
0.000000 0.721401 0.000000
0.116335 0.721614 0.000000
0.208713 0.721889 0.000000
0.270634 0.722133 0.000000
0.322362 0.722469 0.000000
0.368963 0.722774 0.000000
0.412268 0.723140 0.000000
0.453254 0.723568 0.000000
0.492592 0.723995 0.000000
0.530602 0.724453 0.000000
0.567437 0.724910 0.000000
0.603265 0.725399 0.000000
0.638300 0.725917 0.000000
0.672450 0.726436 0.000000
0.705928 0.726925 0.000000
0.738552 0.727504 0.000000
0.770504 0.728023 0.000000
0.803464 0.730129 0.000000
0.833310 0.729885 0.000000
0.864500 0.731563 0.000000
0.899382 0.736660 0.000000
0.930480 0.739010 0.000000
0.958434 0.739193 0.000000
0.983673 0.737819 0.000000
0.000000 0.751583 0.000000
0.000000 0.751553 0.000000
0.000000 0.751583 0.000000
0.000000 0.751614 0.000000
0.000000 0.751614 0.000000
0.000000 0.751675 0.000000
0.000000 0.751675 0.000000
0.000000 0.751736 0.000000
0.000000 0.751766 0.000000
0.000000 0.751858 0.000000
0.174716 0.751949 0.000000
0.247990 0.752041 0.000000
0.304753 0.752132 0.000000
0.353918 0.752224 0.000000
0.399207 0.752346 0.000000
0.441566 0.752468 0.000000
0.482033 0.752560 0.000000
0.520684 0.752682 0.000000
0.558068 0.752804 0.000000
0.594415 0.752926 0.000000
0.629694 0.753017 0.000000
0.664118 0.753140 0.000000
0.697810 0.753231 0.000000
0.730617 0.753353 0.000000
0.762753 0.753475 0.000000
0.794125 0.753597 0.000000
0.826780 0.755489 0.000000
0.855558 0.754330 0.000000
0.883299 0.752926 0.000000
0.916106 0.756527 0.000000
0.945586 0.757626 0.000000
0.972168 0.756924 0.000000
0.000000 0.780117 0.000000
0.000000 0.780117 0.000000
0.000000 0.780117 0.000000
0.000000 0.780117 0.000000
0.000000 0.780087 0.000000
0.000000 0.780087 0.000000
0.000000 0.780026 0.000000
0.000000 0.779995 0.000000
0.000000 0.779934 0.000000
0.000000 0.779904 0.000000
0.127352 0.779843 0.000000
0.221592 0.779751 0.000000
0.284581 0.779690 0.000000
0.337560 0.779568 0.000000
0.384802 0.779446 0.000000
0.428687 0.779294 0.000000
0.470008 0.779171 0.000000
0.509575 0.778988 0.000000
0.547509 0.778805 0.000000
0.584222 0.778622 0.000000
0.619989 0.778378 0.000000
0.654719 0.778134 0.000000
0.688472 0.777951 0.000000
0.721523 0.777707 0.000000
0.753780 0.777462 0.000000
0.785306 0.777218 0.000000
0.816098 0.777005 0.000000
0.848234 0.778500 0.000000
0.876555 0.777035 0.000000
0.902251 0.774136 0.000000
0.932403 0.775509 0.000000
0.959960 0.775235 0.000000
0.000000 0.806332 0.000000
0.000000 0.806332 0.000000
0.000000 0.806302 0.000000
0.000000 0.806271 0.000000
0.000000 0.806210 0.000000
0.000000 0.806149 0.000000
0.000000 0.806058 0.000000
0.000000 0.805966 0.000000
0.000000 0.805814 0.000000
0.000000 0.805692 0.000000
0.000000 0.805478 0.000000
0.190188 0.805264 0.000000
0.262669 0.805051 0.000000
0.319524 0.804776 0.000000
0.369451 0.804440 0.000000
0.414466 0.804135 0.000000
0.456977 0.803769 0.000000
0.497353 0.803372 0.000000
0.535882 0.802976 0.000000
0.573022 0.802548 0.000000
0.609033 0.802060 0.000000
0.644099 0.801602 0.000000
0.678065 0.801083 0.000000
0.711330 0.800565 0.000000
0.743801 0.800076 0.000000
0.775418 0.799588 0.000000
0.806455 0.799039 0.000000
0.836759 0.798581 0.000000
0.868223 0.799680 0.000000
0.896574 0.798459 0.000000
0.920775 0.794400 0.000000
0.946990 0.792630 0.000000
0.000000 0.830289 0.000000
0.000000 0.830259 0.000000
0.000000 0.830259 0.000000
0.000000 0.830198 0.000000
0.000000 0.830137 0.000000
0.000000 0.830014 0.000000
0.000000 0.829923 0.000000
0.000000 0.829770 0.000000
0.000000 0.829557 0.000000
0.000000 0.829282 0.000000
0.000000 0.829038 0.000000
0.148409 0.828733 0.000000
0.237400 0.828367 0.000000
0.299626 0.827970 0.000000
0.352117 0.827512 0.000000
0.399268 0.827054 0.000000
0.442756 0.826535 0.000000
0.483925 0.825986 0.000000
0.523095 0.825406 0.000000
0.560815 0.824796 0.000000
0.597192 0.824155 0.000000
0.632532 0.823484 0.000000
0.666743 0.822782 0.000000
0.700252 0.822080 0.000000
0.732784 0.821378 0.000000
0.764706 0.820706 0.000000
0.795987 0.820005 0.000000
0.826444 0.819394 0.000000
0.856382 0.818784 0.000000
0.886595 0.818997 0.000000
0.914214 0.817380 0.000000
0.936858 0.812222 0.000000
0.000000 0.852171 0.000000
0.000000 0.852171 0.000000
0.000000 0.852140 0.000000
0.000000 0.852079 0.000000
0.000000 0.852018 0.000000
0.000000 0.851865 0.000000
0.000000 0.851743 0.000000
0.000000 0.851530 0.000000
0.000000 0.851286 0.000000
0.000000 0.851011 0.000000
0.000000 0.850675 0.000000
0.055756 0.850278 0.000000
0.205997 0.849851 0.000000
0.276799 0.849363 0.000000
