20 Preset/Japan Style/【3】LUT video cho PR-AE-FCPX/LUT VIDEO (2)/Japan Style LUT (3).cube
# Created by Adobe Lightroom plugin Export LUT (1.24.0)
# www.johnrellis.com/lightroom/exportlut.htm
# Preset: 03日系清新（素材江湖）
# Color profile: C:\Program Files (x86)\Common Files\Adobe\Color\Profiles\Recommended\VideoHD.icc
LUT_3D_SIZE 5
DOMAIN_MIN 0.000000 0.000000 0.000000
DOMAIN_MAX 0.903226 0.903226 0.903226
0.000000 0.120607 0.176669
0.195712 0.128725 0.183841
0.541405 0.050782 0.186069
0.867948 0.017456 0.178805
1.000000 0.265904 0.172854
0.000000 0.267491 0.263951
0.001587 0.267887 0.255802
0.513878 0.260197 0.236271
0.851560 0.279545 0.224949
1.000000 0.365454 0.216190
0.000000 0.665064 0.520226
0.000000 0.658869 0.511986
0.388769 0.657801 0.499489
0.797543 0.624201 0.388891
0.982971 0.609247 0.395666
0.000000 0.873594 0.754788
0.000000 0.870848 0.757046
0.462348 0.860014 0.768734
0.685603 0.850492 0.766720
0.917479 0.856596 0.597864
0.482582 0.952880 0.878141
0.535851 0.950958 0.880583
0.667628 0.943236 0.886778
0.808011 0.937896 0.904784
0.851408 0.938262 0.898528
0.070466 0.145388 0.341711
0.221164 0.152682 0.337621
0.547387 0.098817 0.345892
0.841733 0.000000 0.318791
1.000000 0.221714 0.306706
0.000000 0.244266 0.395087
0.103395 0.253330 0.396826
0.521416 0.279973 0.396612
0.820279 0.247013 0.357641
1.000000 0.339788 0.335515
0.000000 0.631861 0.589746
0.000000 0.637049 0.588495
0.421454 0.635981 0.579675
0.755062 0.608301 0.527794
0.968200 0.610498 0.486030
0.000000 0.870146 0.787991
0.000000 0.867826 0.789059
0.456153 0.857694 0.793240
0.696773 0.847227 0.791684
0.903166 0.851316 0.682216
0.479622 0.952636 0.884947
0.532311 0.950713 0.886809
0.677058 0.944762 0.895109
0.810819 0.938994 0.909392
0.861326 0.939025 0.908324
0.318364 0.185153 0.653590
0.388495 0.193759 0.653437
0.580774 0.231083 0.652705
0.814054 0.260258 0.651423
1.000000 0.328374 0.619379
0.278294 0.297612 0.679530
0.357519 0.302281 0.678096
0.563500 0.331670 0.675013
0.786130 0.376989 0.672480
1.000000 0.417609 0.641749
0.000000 0.495064 0.739101
0.000000 0.496925 0.736172
0.381506 0.510918 0.727718
0.721218 0.622248 0.751736
0.943297 0.610346 0.698909
0.000000 0.797238 0.835935
0.000000 0.797421 0.834318
0.388983 0.807553 0.836301
0.691585 0.832639 0.849790
0.864378 0.834134 0.832914
0.417365 0.952972 0.906798
0.485145 0.951110 0.907652
0.653193 0.944823 0.911131
0.800381 0.938262 0.918151
0.874632 0.937224 0.922515
0.555657 0.312047 0.877836
0.584375 0.321569 0.877348
0.678065 0.354406 0.871946
0.803342 0.421851 0.863066
0.937774 0.472663 0.859617
0.536065 0.385382 0.876799
0.563470 0.390143 0.875456
0.659205 0.413947 0.870787
0.787808 0.470039 0.862974
0.926421 0.521294 0.863890
0.357488 0.476600 0.874754
0.421180 0.497261 0.873045
0.593927 0.567163 0.871580
0.738155 0.602350 0.865751
0.896483 0.660212 0.879179
0.154208 0.697688 0.901823
0.249577 0.698604 0.900237
0.442115 0.706538 0.895689
0.642267 0.724178 0.885893
0.865202 0.816373 0.898039
0.362310 0.910399 0.933104
0.408972 0.911986 0.932738
0.556207 0.919615 0.931609
0.758206 0.933227 0.936217
0.885893 0.934478 0.937865
0.748013 0.546654 0.961120
0.757504 0.549615 0.960266
0.796719 0.567681 0.957610
0.857206 0.599145 0.952483
0.922728 0.650172 0.945953
0.737270 0.570855 0.958465
0.747280 0.573846 0.957794
0.786801 0.588220 0.955352
0.848692 0.615900 0.950622
0.916838 0.665309 0.945006
0.709895 0.654627 0.954467
0.719112 0.654902 0.953704
0.760159 0.663539 0.951659
0.826658 0.684230 0.948089
0.902983 0.731502 0.945403
0.572564 0.689693 0.960937
0.596338 0.697475 0.959808
0.687922 0.734188 0.955505
0.804776 0.789456 0.949401
0.884977 0.814511 0.945617
0.587823 0.857450 0.960571
0.601038 0.858518 0.960174
0.661189 0.865812 0.959075
0.752438 0.878691 0.956420
0.860136 0.896574 0.951293
