20 Preset/Japan Style/【3】LUT video cho PR-AE-FCPX/LUT VIDEO (2)/Japan Style LUT (6).cube
# Created by Adobe Lightroom plugin Export LUT (1.24.0)
# www.johnrellis.com/lightroom/exportlut.htm
# Preset: 06日系逆光（素材江湖）
# Color profile: C:\Program Files (x86)\Common Files\Adobe\Color\Profiles\Recommended\VideoHD.icc
LUT_3D_SIZE 5
DOMAIN_MIN 0.000000 0.000000 0.000000
DOMAIN_MAX 0.903226 0.903226 0.903226
0.037964 0.036866 0.006653
0.232578 0.000000 0.006622
0.686275 0.000000 0.000000
1.000000 0.000000 0.000000
1.000000 0.000000 0.000000
0.039124 0.192020 0.000000
0.254704 0.197421 0.000000
0.669032 0.150912 0.000000
1.000000 0.000000 0.000000
1.000000 0.204288 0.000000
0.000000 0.578302 0.000000
0.249668 0.568780 0.000000
0.703212 0.614618 0.000000
1.000000 0.575677 0.000000
1.000000 0.540581 0.000000
0.370459 0.828916 0.264988
0.464668 0.825132 0.247074
0.710719 0.820493 0.110506
0.983978 0.824430 0.000000
1.000000 0.775235 0.000000
0.758145 0.930266 0.653773
0.775845 0.929137 0.648646
0.837552 0.923003 0.616327
0.939849 0.925261 0.544915
1.000000 0.928038 0.297856
0.080446 0.087007 0.140505
0.220554 0.058900 0.127993
0.672755 0.000000 0.092012
1.000000 0.000000 0.000000
1.000000 0.000000 0.000000
0.104555 0.201144 0.163485
0.269749 0.216403 0.160647
0.668513 0.188632 0.038727
1.000000 0.192264 0.000000
1.000000 0.264866 0.000000
0.000000 0.590997 0.201755
0.245823 0.585351 0.154269
0.695308 0.610834 0.000000
0.995636 0.568505 0.000000
1.000000 0.550408 0.000000
0.403052 0.830167 0.398199
0.486793 0.826871 0.386938
0.715602 0.819547 0.326635
0.980041 0.825437 0.000000
1.000000 0.776730 0.000000
0.767697 0.929625 0.690272
0.783688 0.928527 0.685664
0.845579 0.924559 0.667140
0.938811 0.926055 0.609064
1.000000 0.929595 0.425849
0.000000 0.139376 0.432319
0.227848 0.135103 0.428626
0.570245 0.066133 0.420813
0.987396 0.125002 0.422248
1.000000 0.327489 0.374640
0.000000 0.230747 0.449195
0.225803 0.238071 0.464668
0.599390 0.256870 0.457984
0.990387 0.327977 0.454414
1.000000 0.413886 0.382757
0.000000 0.558892 0.543938
0.157809 0.570459 0.548486
0.657557 0.617151 0.570062
0.967376 0.616114 0.518456
1.000000 0.598322 0.382727
0.479164 0.829068 0.668788
0.549981 0.826505 0.665064
0.733639 0.819852 0.644923
0.951202 0.828824 0.602289
1.000000 0.788144 0.444160
0.800656 0.927092 0.791073
0.804868 0.927550 0.783261
0.853086 0.924712 0.772580
0.930632 0.924376 0.745693
1.000000 0.930388 0.666163
0.000000 0.244144 0.752438
0.146822 0.246128 0.751064
0.559930 0.249668 0.742458
0.892088 0.294743 0.738582
1.000000 0.567559 0.726436
0.000000 0.296727 0.752987
0.114107 0.318547 0.754574
0.558923 0.331792 0.747005
0.890898 0.389441 0.744259
1.000000 0.607446 0.739223
0.000000 0.524254 0.757290
0.000000 0.524285 0.755825
0.547784 0.564263 0.769894
0.890013 0.624933 0.772976
1.000000 0.722896 0.784939
0.359686 0.787625 0.809293
0.444343 0.788785 0.809110
0.676295 0.796994 0.812253
0.907469 0.824399 0.828550
1.000000 0.826322 0.808133
0.776089 0.929503 0.869627
0.793027 0.928923 0.868894
0.852689 0.927550 0.866514
0.927642 0.926207 0.861601
1.000000 0.934234 0.844388
0.439368 0.517205 0.928649
0.500511 0.519829 0.927306
0.686885 0.532280 0.921965
0.898833 0.564630 0.911711
1.000000 0.625635 0.902464
0.420783 0.541680 0.927337
0.503685 0.555627 0.925505
0.687251 0.565881 0.920500
0.896147 0.594812 0.910765
1.000000 0.652125 0.902159
0.315648 0.627771 0.923980
0.410163 0.630976 0.923064
0.679927 0.666346 0.917754
0.886503 0.687648 0.909575
1.000000 0.734157 0.903044
0.468482 0.784298 0.921111
0.503685 0.783078 0.920470
0.627619 0.777981 0.917754
0.866361 0.798428 0.912932
0.995148 0.836423 0.909697
0.751308 0.909941 0.926360
0.766934 0.910185 0.926177
0.825040 0.912169 0.925689
0.907836 0.918395 0.925139
0.985382 0.938201 0.930632
