20 Preset/Japan Style/【3】LUT video cho PR-AE-FCPX/LUT VIDEO (2)/Japan Style LUT (29).cube
# Created by Adobe Lightroom plugin Export LUT (1.24.0)
# www.johnrellis.com/lightroom/exportlut.htm
# Preset: 29日系绿色背景（素材江湖）
# Color profile: C:\Program Files (x86)\Common Files\Adobe\Color\Profiles\Recommended\VideoHD.icc
LUT_3D_SIZE 8
DOMAIN_MIN 0.000000 0.000000 0.000000
DOMAIN_MAX 0.903226 0.903226 0.903226
0.000000 0.000000 0.000000
0.094240 0.010468 0.017853
0.276310 0.000000 0.054932
0.564904 0.000000 0.067933
0.833036 0.115145 0.087892
0.983032 0.308934 0.148684
1.000000 0.429389 0.238376
1.000000 0.523033 0.343694
0.036042 0.074342 0.064790
0.090883 0.096132 0.033021
0.263157 0.121157 0.053285
0.552453 0.136995 0.049958
0.823117 0.227329 0.062501
0.975647 0.355261 0.146090
1.000000 0.454994 0.241184
1.000000 0.538506 0.347509
0.014405 0.214115 0.152377
0.001984 0.208927 0.137606
0.221836 0.293217 0.022766
0.568109 0.350042 0.000000
0.779110 0.405951 0.095949
0.941588 0.476417 0.139528
1.000000 0.534356 0.248692
1.000000 0.591150 0.358953
0.112428 0.387945 0.257603
0.051667 0.380377 0.241093
0.056977 0.345586 0.196201
0.455299 0.524865 0.037964
0.818265 0.614221 0.000000
0.910857 0.612726 0.223667
0.989990 0.639460 0.315770
1.000000 0.669306 0.387182
0.256107 0.553460 0.371740
0.234958 0.547021 0.357610
0.180758 0.516991 0.309117
0.240238 0.528435 0.256321
0.652399 0.704250 0.194553
0.929686 0.770993 0.146792
0.981384 0.747494 0.345373
1.000000 0.754513 0.468940
0.417884 0.686976 0.493507
0.404150 0.683040 0.482673
0.351781 0.666804 0.439765
0.297368 0.628107 0.370581
0.459815 0.698756 0.349340
0.769955 0.811887 0.353307
0.983581 0.857603 0.338048
1.000000 0.833341 0.467659
0.579675 0.792172 0.622309
0.572778 0.790585 0.616083
0.542565 0.784115 0.588952
0.500175 0.768429 0.541039
0.446174 0.739986 0.461799
0.649928 0.825223 0.495979
0.851469 0.884001 0.515343
1.000000 0.914214 0.496193
0.728786 0.875669 0.751034
0.726009 0.875334 0.748257
0.713985 0.873991 0.736110
0.693538 0.870634 0.712703
0.671046 0.865141 0.678401
0.683711 0.873259 0.649561
0.799100 0.912718 0.669642
0.913481 0.940124 0.669581
0.011231 0.011719 0.096742
0.096040 0.011475 0.092866
0.294835 0.000000 0.105257
0.565148 0.001556 0.123720
0.825742 0.193271 0.123445
0.976257 0.340795 0.145602
1.000000 0.445472 0.239414
1.000000 0.530938 0.345892
0.029999 0.090578 0.103029
0.102083 0.102937 0.115969
0.281834 0.135012 0.126619
0.557183 0.170413 0.134249
0.818326 0.260594 0.135103
0.969665 0.377142 0.159731
1.000000 0.467811 0.241703
1.000000 0.545251 0.349187
0.131167 0.238132 0.198398
0.131106 0.242679 0.193271
0.239261 0.300389 0.143160
0.561181 0.356298 0.150668
0.784543 0.418860 0.185397
0.941558 0.487190 0.215061
1.000000 0.542718 0.265599
1.000000 0.595727 0.361334
0.212039 0.415259 0.303471
0.188571 0.407568 0.286656
0.145876 0.371588 0.231693
0.466194 0.529534 0.164004
0.815732 0.615534 0.123079
0.907225 0.618189 0.286259
0.988861 0.646174 0.355322
1.000000 0.673365 0.402411
0.316411 0.570245 0.405219
0.298070 0.563836 0.391333
0.235599 0.534356 0.337560
0.259129 0.528801 0.278935
0.656275 0.705898 0.245823
0.926879 0.771206 0.240055
0.977813 0.750027 0.386999
1.000000 0.758602 0.496529
0.454047 0.695186 0.516869
0.441382 0.691615 0.506645
0.385687 0.675685 0.461494
0.328405 0.637507 0.390967
0.465949 0.698268 0.366430
0.771054 0.812192 0.380896
0.980865 0.857816 0.381109
1.000000 0.834958 0.494789
0.597406 0.795560 0.635584
0.590967 0.794125 0.629694
0.561822 0.787716 0.603265
0.517205 0.772213 0.554589
0.461860 0.743862 0.475624
0.652430 0.824796 0.506950
0.852171 0.884245 0.530999
1.000000 0.914641 0.519829
0.736416 0.876860 0.757412
0.733577 0.876493 0.754604
0.721798 0.875120 0.742733
0.700587 0.871855 0.719081
0.676631 0.865751 0.683925
0.685023 0.872374 0.653315
0.800107 0.912474 0.675166
0.913817 0.940154 0.677119
0.000000 0.037507 0.252293
0.091402 0.027985 0.254643
0.293248 0.000000 0.258671
0.612634 0.000000 0.284611
0.852049 0.171756 0.300511
0.976715 0.371893 0.336187
1.000000 0.482185 0.373144
1.000000 0.555322 0.408087
0.000000 0.120394 0.266117
0.078523 0.126314 0.271672
0.307439 0.149508 0.277897
0.609186 0.148775 0.294804
0.841428 0.267063 0.313939
0.968841 0.409308 0.347692
1.000000 0.501915 0.380804
1.000000 0.568902 0.416052
0.022705 0.285496 0.278172
0.146548 0.294102 0.285069
0.314000 0.326085 0.315587
0.570520 0.375891 0.329717
0.801694 0.440986 0.349218
0.940856 0.510918 0.377050
1.000000 0.569818 0.411353
1.000000 0.617975 0.446418
0.347997 0.461097 0.395666
0.357275 0.465736 0.398688
0.363989 0.469978 0.385901
0.494667 0.538293 0.333715
0.793210 0.610742 0.371130
0.892027 0.631952 0.435370
0.981292 0.664515 0.468757
1.000000 0.692988 0.502495
0.454414 0.614649 0.499947
0.457374 0.614710 0.498390
0.427680 0.600427 0.463905
0.339452 0.536980 0.361730
0.665675 0.707729 0.383642
0.911223 0.769528 0.428443
0.961028 0.758297 0.510002
1.000000 0.770718 0.574456
0.563317 0.723537 0.595117
0.563989 0.722744 0.593103
0.520836 0.707973 0.554498
0.441688 0.673091 0.474983
0.487068 0.692378 0.426581
0.774807 0.812222 0.473121
0.968597 0.857969 0.509209
1.000000 0.840085 0.580560
0.660792 0.808133 0.684352
0.655360 0.806699 0.679347
0.630091 0.800259 0.655787
0.579126 0.785824 0.605371
0.521324 0.757870 0.529320
0.660151 0.821012 0.545312
0.853422 0.883848 0.583856
1.000000 0.915343 0.595758
0.764248 0.881041 0.780697
0.761868 0.880705 0.778378
0.751064 0.879179 0.767605
0.726955 0.875883 0.742885
0.702083 0.869505 0.708949
0.690517 0.868528 0.668177
0.803647 0.911192 0.695430
0.914763 0.940154 0.704982
0.000000 0.071351 0.475532
0.000000 0.068879 0.480262
0.377050 0.078035 0.500145
0.627588 0.093477 0.509819
0.874113 0.255344 0.535576
0.990204 0.371771 0.515496
1.000000 0.523064 0.545739
1.000000 0.609644 0.572686
0.000000 0.155673 0.481788
0.000000 0.162051 0.486366
0.381231 0.187808 0.506401
0.630030 0.215183 0.518029
0.865934 0.319127 0.539818
0.982300 0.409461 0.521416
1.000000 0.543877 0.552483
1.000000 0.621668 0.578088
0.000000 0.322087 0.474708
0.000000 0.323339 0.478950
0.327001 0.353429 0.513329
0.625147 0.412604 0.540124
0.833524 0.467323 0.549157
0.943969 0.536858 0.553796
1.000000 0.611902 0.575891
1.000000 0.662715 0.595880
0.238193 0.526482 0.498787
0.287114 0.530755 0.502831
0.429450 0.547845 0.519707
0.592767 0.577569 0.553124
0.767117 0.621759 0.568475
0.891142 0.661128 0.588403
0.969360 0.695613 0.608148
1.000000 0.723720 0.625422
0.597467 0.666011 0.608087
0.600702 0.667597 0.609308
0.610834 0.671809 0.611231
0.602808 0.663508 0.587182
0.684565 0.711788 0.552544
0.880095 0.767636 0.608911
0.931395 0.772305 0.646143
0.990723 0.788540 0.665827
0.655451 0.754910 0.672694
0.656123 0.754574 0.671778
0.658289 0.753323 0.667506
0.632441 0.738582 0.632898
0.534264 0.679164 0.516716
0.781857 0.812284 0.594415
0.947997 0.857755 0.649928
0.983673 0.848234 0.686213
0.718746 0.824308 0.735653
0.719234 0.824033 0.735042
0.720943 0.822965 0.731930
0.691920 0.812436 0.700252
0.625483 0.786404 0.626490
0.672572 0.812284 0.603052
0.856413 0.883421 0.661219
0.990539 0.915831 0.697871
0.798184 0.888029 0.811307
0.799008 0.888121 0.811398
0.800229 0.888121 0.809995
0.779721 0.884154 0.789456
0.748379 0.877745 0.754421
0.715724 0.867765 0.704219
0.809506 0.908537 0.728298
0.916960 0.940276 0.748714
0.000000 0.133059 0.686427
0.108003 0.136019 0.688808
0.433478 0.153658 0.699916
0.702907 0.247807 0.719570
0.862211 0.320470 0.718868
0.969329 0.482216 0.704921
1.000000 0.576074 0.690730
1.000000 0.646143 0.691951
0.000000 0.206516 0.685786
0.134188 0.210849 0.688228
0.435035 0.232822 0.699672
0.698268 0.314366 0.719753
0.856626 0.377203 0.720424
0.961913 0.516350 0.708919
1.000000 0.594507 0.694850
1.000000 0.657771 0.696376
0.000000 0.361151 0.674647
0.000000 0.364935 0.679713
0.396277 0.390906 0.694423
0.671015 0.465858 0.716762
0.832578 0.528313 0.724727
0.935821 0.617121 0.723537
0.996796 0.653742 0.708827
1.000000 0.702571 0.715511
0.000000 0.550256 0.659968
0.000000 0.551080 0.661341
0.293339 0.553338 0.667140
0.592126 0.592676 0.697871
0.793057 0.665583 0.725765
0.897520 0.701869 0.728878
0.964599 0.722744 0.724178
1.000000 0.757443 0.735439
0.479835 0.709621 0.677699
0.499123 0.711208 0.679469
0.569055 0.717678 0.686793
0.669032 0.730159 0.700893
0.756649 0.745846 0.720394
0.851194 0.772091 0.731167
0.927794 0.791775 0.742397
0.983825 0.807401 0.750820
0.755550 0.794186 0.753902
0.756527 0.794736 0.754330
0.759579 0.796262 0.755215
0.760952 0.795621 0.751919
0.748379 0.784543 0.728389
0.795071 0.814359 0.707942
0.925048 0.856352 0.756710
0.961486 0.856962 0.773892
0.778134 0.844175 0.788785
0.778531 0.844266 0.788663
0.779568 0.844266 0.787381
0.781338 0.843168 0.783474
0.763088 0.832395 0.756893
0.690883 0.795224 0.664057
0.862303 0.883848 0.740688
0.975799 0.916075 0.785061
0.819760 0.894743 0.834775
0.820676 0.895018 0.835080
0.824674 0.895964 0.836362
0.830198 0.896788 0.836790
0.815885 0.892729 0.818631
0.777279 0.881559 0.771878
0.816129 0.903777 0.766323
0.921080 0.941039 0.798917
0.249821 0.218997 0.817350
0.316594 0.224308 0.818112
0.495949 0.251469 0.821744
0.696864 0.329015 0.828275
0.863951 0.475929 0.836027
0.953979 0.526146 0.829343
0.999359 0.631739 0.802853
1.000000 0.705837 0.797513
0.267124 0.276249 0.816251
0.327916 0.281498 0.817105
0.499397 0.307103 0.820859
0.694972 0.377325 0.827481
0.858915 0.510430 0.835264
0.948089 0.555505 0.829496
0.994202 0.650111 0.805325
1.000000 0.715816 0.800137
0.242161 0.411658 0.807919
0.309911 0.417243 0.809018
0.485237 0.442390 0.813199
0.678981 0.502464 0.820737
0.839109 0.604761 0.830900
0.926207 0.643488 0.829282
0.975982 0.708278 0.813718
1.000000 0.748989 0.808743
0.000000 0.545800 0.780941
0.027283 0.549706 0.782986
0.408148 0.570977 0.791379
0.636225 0.620569 0.805417
0.806332 0.695796 0.821744
0.896788 0.736690 0.829038
0.952544 0.776699 0.826352
0.997894 0.791135 0.819638
0.371801 0.712673 0.776059
0.395148 0.713283 0.776516
0.475319 0.715633 0.778317
0.585229 0.718563 0.781888
0.747127 0.749538 0.802792
0.869444 0.803098 0.827481
0.932128 0.821836 0.831205
0.981292 0.826993 0.825895
0.641657 0.814603 0.787076
0.649775 0.815152 0.787839
0.681392 0.817716 0.791104
0.732784 0.822873 0.797543
0.793820 0.831266 0.807858
0.844877 0.839841 0.819516
0.906462 0.856718 0.828031
0.959930 0.868284 0.835142
0.831022 0.866545 0.835813
0.834012 0.867247 0.837156
0.845640 0.870329 0.842802
0.848356 0.872282 0.844175
0.848722 0.872190 0.841764
0.835752 0.861723 0.820981
0.871519 0.885222 0.812589
0.961425 0.915526 0.850980
0.857298 0.905150 0.867857
0.857816 0.905455 0.868101
0.859648 0.906462 0.868864
0.862303 0.907958 0.869413
0.865904 0.909392 0.868833
0.858274 0.905852 0.854826
0.822995 0.893217 0.803098
0.927153 0.942473 0.849332
0.433845 0.326177 0.899351
0.465614 0.333501 0.899962
0.567071 0.360388 0.899809
0.706050 0.422400 0.899718
0.838499 0.523766 0.898863
0.935729 0.646357 0.898375
0.992584 0.665034 0.891844
1.000000 0.726009 0.863554
0.435492 0.361547 0.895048
0.466407 0.368658 0.895872
0.565667 0.393225 0.895964
0.701503 0.448402 0.895720
0.832914 0.541100 0.895171
0.930266 0.654780 0.895140
0.987274 0.670893 0.888579
1.000000 0.727779 0.861204
0.449775 0.478645 0.889799
0.476051 0.483467 0.889799
0.568200 0.503380 0.889586
0.697749 0.548363 0.889769
0.822324 0.618830 0.890227
0.917174 0.708156 0.892882
0.972686 0.725063 0.889403
1.000000 0.768246 0.868925
0.420813 0.596002 0.877134
0.452644 0.600916 0.877287
0.554223 0.620233 0.878325
0.683436 0.654780 0.880491
0.805905 0.706844 0.884031
0.900175 0.772427 0.891203
0.953582 0.790494 0.891569
0.985260 0.816892 0.879118
0.318486 0.692287 0.856046
0.338811 0.690974 0.855406
0.415991 0.687861 0.854612
0.602838 0.711452 0.860899
0.767239 0.760250 0.871244
0.876341 0.812924 0.884092
0.934936 0.837675 0.890990
0.972442 0.859525 0.889677
0.555779 0.811887 0.850309
0.564782 0.812222 0.850614
0.598718 0.812985 0.851438
0.654994 0.814237 0.853117
0.724727 0.814847 0.855558
0.836759 0.839536 0.872282
0.920806 0.879118 0.893614
0.963012 0.891051 0.896941
0.731472 0.879301 0.858152
0.736477 0.879911 0.858915
0.753597 0.881102 0.860624
0.784909 0.883940 0.864469
0.824735 0.888304 0.870146
0.868040 0.895171 0.878721
0.904936 0.902586 0.888670
0.950591 0.916167 0.897673
0.870146 0.915557 0.889555
0.872374 0.916045 0.890471
0.881804 0.918517 0.894774
0.897734 0.922576 0.902190
0.910063 0.927153 0.909087
0.912322 0.929473 0.909880
0.905608 0.925505 0.898070
0.934936 0.944549 0.896788
0.536400 0.444892 0.947997
0.554833 0.447181 0.948119
0.619440 0.452705 0.947356
0.717250 0.490852 0.945434
0.820676 0.559533 0.941833
0.908629 0.644770 0.937560
0.971740 0.727047 0.934569
1.000000 0.735836 0.929808
0.543511 0.446387 0.946899
0.560601 0.451728 0.946838
0.621271 0.470405 0.945525
0.716274 0.511192 0.943267
0.818418 0.575067 0.939910
0.905852 0.655573 0.936065
0.969024 0.734005 0.933349
1.000000 0.740627 0.928588
0.555047 0.532708 0.941009
0.570550 0.536553 0.940856
0.626886 0.551415 0.939635
0.717647 0.586603 0.938445
0.813565 0.636011 0.935698
0.897673 0.699794 0.932860
0.960815 0.767788 0.931853
1.000000 0.770321 0.928038
0.556786 0.631891 0.932250
0.571862 0.635065 0.932250
0.625635 0.646632 0.931579
0.711086 0.671717 0.930785
0.803861 0.709560 0.929778
0.886015 0.757504 0.929290
0.949432 0.810788 0.931029
0.989746 0.814176 0.928832
0.446418 0.689265 0.921904
0.470680 0.692134 0.922148
0.550103 0.701930 0.922148
0.678614 0.734981 0.921935
0.780514 0.764797 0.922606
0.868681 0.802457 0.924712
0.936370 0.845975 0.929808
0.976287 0.856291 0.930694
0.463386 0.786526 0.909483
0.471168 0.785733 0.909239
0.505608 0.783139 0.908751
0.569238 0.779049 0.908721
0.704433 0.793484 0.911864
0.841764 0.838590 0.919707
0.923705 0.879667 0.930358
0.966461 0.898772 0.936828
0.645014 0.875303 0.905638
0.649683 0.875303 0.905699
0.668940 0.875364 0.905913
0.705989 0.876310 0.907134
0.755550 0.877867 0.909209
0.809812 0.879118 0.912505
0.899138 0.901122 0.926818
0.959716 0.931090 0.942901
0.788571 0.927886 0.912779
0.791196 0.927977 0.912963
0.802853 0.928801 0.914214
0.825650 0.930938 0.917205
0.855772 0.934264 0.921721
0.889799 0.939086 0.927977
0.925231 0.945922 0.936614
0.954284 0.953338 0.946258
