20 Preset/Japan Style/【3】LUT video cho PR-AE-FCPX/LUT VIDEO (2)/Japan Style LUT (36).cube
# Created by Adobe Lightroom plugin Export LUT (1.24.0)
# www.johnrellis.com/lightroom/exportlut.htm
# Preset: 36日系胶片（素材江湖）
# Color profile: C:\Program Files (x86)\Common Files\Adobe\Color\Profiles\Recommended\VideoHD.icc
LUT_3D_SIZE 32
DOMAIN_MIN 0.0 0.0 0.0
DOMAIN_MAX 1.0 1.0 1.0
0.000000 0.000000 0.000000
0.016724 0.002564 0.000458
0.074037 0.011810 0.000000
0.122988 0.044770 0.000000
0.194553 0.098573 0.000000
0.297673 0.124941 0.000000
0.410163 0.145205 0.000000
0.524743 0.159915 0.000000
0.638178 0.172488 0.000000
0.743069 0.187625 0.000000
0.834836 0.205295 0.000000
0.910460 0.227085 0.000000
0.968994 0.249271 0.000000
1.000000 0.270909 0.000000
1.000000 0.291051 0.000000
1.000000 0.309758 0.000000
1.000000 0.326543 0.000000
1.000000 0.341711 0.000000
1.000000 0.355322 0.000000
1.000000 0.368048 0.000000
1.000000 0.378943 0.000000
1.000000 0.388556 0.000000
1.000000 0.397131 0.000000
1.000000 0.404883 0.000000
1.000000 0.411810 0.000000
1.000000 0.418158 0.000000
1.000000 0.423835 0.000000
1.000000 0.428901 0.000000
1.000000 0.433478 0.000000
1.000000 0.437598 0.000000
1.000000 0.440955 0.000000
1.000000 0.443977 0.000000
0.000000 0.019318 0.004211
0.005676 0.018189 0.005310
0.071382 0.029938 0.001312
0.122744 0.063844 0.000000
0.195346 0.105806 0.000000
0.297642 0.132662 0.000000
0.409216 0.151156 0.000000
0.522362 0.165347 0.000000
0.635706 0.178195 0.000000
0.740444 0.193027 0.000000
0.831815 0.210941 0.000000
0.907866 0.231724 0.000000
0.966766 0.253147 0.000000
1.000000 0.273655 0.000000
1.000000 0.293645 0.000000
1.000000 0.311955 0.000000
1.000000 0.328679 0.000000
1.000000 0.343145 0.000000
1.000000 0.356603 0.000000
1.000000 0.368750 0.000000
1.000000 0.379767 0.000000
1.000000 0.388983 0.000000
1.000000 0.397589 0.000000
1.000000 0.405066 0.000000
1.000000 0.412146 0.000000
1.000000 0.418189 0.000000
1.000000 0.423835 0.000000
1.000000 0.428962 0.000000
1.000000 0.433417 0.000000
1.000000 0.437415 0.000000
1.000000 0.440986 0.000000
1.000000 0.443915 0.000000
0.000000 0.087037 0.020600
0.000000 0.088655 0.023346
0.037201 0.089082 0.029023
0.119783 0.112459 0.002533
0.198581 0.135683 0.000000
0.300847 0.160006 0.000000
0.411536 0.177432 0.000000
0.523400 0.190646 0.000000
0.635035 0.203494 0.000000
0.738827 0.216312 0.000000
0.829770 0.232486 0.000000
0.905791 0.250858 0.000000
0.964477 0.269474 0.000000
1.000000 0.288334 0.000000
1.000000 0.305974 0.000000
1.000000 0.322789 0.000000
1.000000 0.337682 0.000000
1.000000 0.351141 0.000000
1.000000 0.363531 0.000000
1.000000 0.375006 0.000000
1.000000 0.384985 0.000000
1.000000 0.393927 0.000000
1.000000 0.401862 0.000000
1.000000 0.409003 0.000000
1.000000 0.415534 0.000000
1.000000 0.421180 0.000000
1.000000 0.426703 0.000000
1.000000 0.431586 0.000000
1.000000 0.435859 0.000000
1.000000 0.439734 0.000000
1.000000 0.442908 0.000000
1.000000 0.445747 0.000000
0.000000 0.148257 0.047761
0.000000 0.149294 0.044526
0.000000 0.153475 0.049409
0.092470 0.157015 0.066407
0.200839 0.197726 0.000000
0.309087 0.209689 0.000000
0.417212 0.221592 0.000000
0.526574 0.233921 0.000000
0.636988 0.245640 0.000000
0.738643 0.257481 0.000000
0.828489 0.271061 0.000000
0.902922 0.285313 0.000000
0.961608 0.300267 0.000000
1.000000 0.315435 0.000000
1.000000 0.329595 0.000000
1.000000 0.343481 0.000000
1.000000 0.355474 0.000000
1.000000 0.367102 0.000000
1.000000 0.377691 0.000000
1.000000 0.387213 0.000000
1.000000 0.395605 0.000000
1.000000 0.403357 0.000000
1.000000 0.410315 0.000000
1.000000 0.416663 0.000000
1.000000 0.422461 0.000000
1.000000 0.427832 0.000000
1.000000 0.432898 0.000000
1.000000 0.437201 0.000000
1.000000 0.441047 0.000000
1.000000 0.444556 0.000000
1.000000 0.447486 0.000000
1.000000 0.450050 0.000000
0.000000 0.236057 0.071656
0.000000 0.236851 0.061311
0.000000 0.240482 0.065888
0.000000 0.245212 0.078401
0.157107 0.249302 0.096986
0.294743 0.285191 0.000824
0.429816 0.298985 0.000000
0.529931 0.290501 0.000000
0.637568 0.300481 0.000000
0.737087 0.311101 0.000000
0.824887 0.321111 0.000000
0.898650 0.332158 0.000000
0.956512 0.342382 0.000000
1.000000 0.352850 0.000000
1.000000 0.363348 0.000000
1.000000 0.373754 0.000000
1.000000 0.382452 0.000000
1.000000 0.391150 0.000000
1.000000 0.399207 0.000000
1.000000 0.406134 0.000000
1.000000 0.412757 0.000000
1.000000 0.418647 0.000000
1.000000 0.424109 0.000000
1.000000 0.429145 0.000000
1.000000 0.433906 0.000000
1.000000 0.438422 0.000000
1.000000 0.442451 0.000000
1.000000 0.446052 0.000000
1.000000 0.449317 0.000000
1.000000 0.452247 0.000000
1.000000 0.454566 0.000000
1.000000 0.456703 0.000000
0.000000 0.325078 0.091035
0.000000 0.326024 0.081880
0.000000 0.328344 0.085817
0.000000 0.333928 0.089174
0.044282 0.338262 0.103029
0.247868 0.341100 0.123903
0.389258 0.372259 0.102815
0.554681 0.398138 0.000000
0.649683 0.384283 0.000000
0.737270 0.373663 0.000000
0.823026 0.381048 0.000000
0.894652 0.388159 0.000000
0.951476 0.394110 0.000000
0.996674 0.400183 0.000000
1.000000 0.406439 0.000000
1.000000 0.412024 0.000000
1.000000 0.417487 0.000000
1.000000 0.422553 0.000000
1.000000 0.427192 0.000000
1.000000 0.431586 0.000000
1.000000 0.435676 0.000000
1.000000 0.439582 0.000000
1.000000 0.447303 0.000000
1.000000 0.450599 0.000000
1.000000 0.453651 0.000000
1.000000 0.456611 0.000000
1.000000 0.459236 0.000000
1.000000 0.461646 0.000000
1.000000 0.463874 0.000000
1.000000 0.465888 0.000000
1.000000 0.467445 0.000000
1.000000 0.468696 0.000000
0.000000 0.419196 0.112947
0.000000 0.420050 0.105959
0.000000 0.422034 0.105684
0.000000 0.426886 0.109377
0.000000 0.433722 0.115023
0.206424 0.435676 0.135653
0.353582 0.438605 0.160037
0.494301 0.466072 0.174411
0.665248 0.502525 0.000000
0.760586 0.487861 0.000000
0.832486 0.465888 0.000000
0.895323 0.453986 0.000000
0.949859 0.455146 0.000000
0.993561 0.456245 0.000000
1.000000 0.457527 0.000000
1.000000 0.458412 0.000000
1.000000 0.459602 0.000000
1.000000 0.461189 0.000000
1.000000 0.462593 0.000000
1.000000 0.463905 0.000000
1.000000 0.465400 0.000000
1.000000 0.466926 0.000000
1.000000 0.468757 0.000000
1.000000 0.470588 0.000000
1.000000 0.472267 0.000000
1.000000 0.474098 0.000000
1.000000 0.475410 0.000000
1.000000 0.476692 0.000000
1.000000 0.477943 0.000000
1.000000 0.478950 0.000000
1.000000 0.479744 0.000000
1.000000 0.480323 0.000000
0.000000 0.507774 0.138125
0.000000 0.508476 0.133669
0.000000 0.510369 0.132845
0.000000 0.514397 0.135683
0.000000 0.520165 0.140414
0.000000 0.525750 0.153109
0.318029 0.528344 0.175540
0.455909 0.531273 0.202121
0.583093 0.550927 0.231052
0.737789 0.588800 0.000000
0.837369 0.580346 0.000000
0.894316 0.551995 0.000000
0.942046 0.525200 0.000000
0.983825 0.512627 0.000000
1.000000 0.509483 0.000000
1.000000 0.506279 0.000000
1.000000 0.503899 0.000000
1.000000 0.501274 0.000000
1.000000 0.499031 0.000000
1.000000 0.497353 0.000000
1.000000 0.496193 0.000000
1.000000 0.495277 0.000000
1.000000 0.494697 0.000000
1.000000 0.494514 0.000000
1.000000 0.494636 0.000000
1.000000 0.494697 0.000000
1.000000 0.494728 0.000000
1.000000 0.494728 0.000000
1.000000 0.494820 0.000000
1.000000 0.494972 0.000000
1.000000 0.494697 0.000000
1.000000 0.494514 0.000000
0.000000 0.595697 0.172305
0.000000 0.596551 0.166323
0.000000 0.597803 0.168307
0.000000 0.600977 0.171115
0.000000 0.605310 0.176425
0.000000 0.611292 0.183932
0.247074 0.613977 0.202090
0.423896 0.615900 0.225742
0.548791 0.618341 0.253117
0.661555 0.629999 0.284794
0.794797 0.664576 0.167697
0.889586 0.658778 0.000000
0.936004 0.625971 0.000000
0.975219 0.595300 0.000000
1.000000 0.567529 0.000000
1.000000 0.556756 0.000000
1.000000 0.550103 0.000000
1.000000 0.543999 0.000000
1.000000 0.538415 0.000000
1.000000 0.533776 0.000000
1.000000 0.529778 0.000000
1.000000 0.526543 0.000000
1.000000 0.523766 0.000000
1.000000 0.521508 0.000000
1.000000 0.519768 0.000000
1.000000 0.518181 0.000000
1.000000 0.516777 0.000000
1.000000 0.515557 0.000000
1.000000 0.514488 0.000000
1.000000 0.513390 0.000000
1.000000 0.512352 0.000000
1.000000 0.511192 0.000000
0.000000 0.675502 0.213413
0.000000 0.675807 0.210208
0.000000 0.676600 0.212131
0.000000 0.678645 0.215000
0.000000 0.681788 0.219669
0.000000 0.685786 0.227176
0.053956 0.690181 0.237247
0.374487 0.690883 0.258549
0.516625 0.691188 0.283879
0.627893 0.692042 0.311986
0.724025 0.696559 0.344121
0.833677 0.724269 0.288548
0.914488 0.715389 0.000000
0.963134 0.687800 0.000000
0.997131 0.655726 0.000000
1.000000 0.625208 0.000000
1.000000 0.597131 0.000000
1.000000 0.587762 0.000000
1.000000 0.579431 0.000000
1.000000 0.571984 0.000000
1.000000 0.565362 0.000000
1.000000 0.559564 0.000000
1.000000 0.554681 0.000000
1.000000 0.550439 0.000000
1.000000 0.546746 0.000000
1.000000 0.543511 0.000000
1.000000 0.540612 0.000000
1.000000 0.537987 0.000000
1.000000 0.535790 0.000000
1.000000 0.533654 0.000000
1.000000 0.531670 0.000000
1.000000 0.529686 0.000000
0.000000 0.741421 0.261814
0.000000 0.741695 0.260075
0.000000 0.742367 0.261601
0.000000 0.743496 0.264561
0.000000 0.745327 0.269444
0.000000 0.747677 0.276310
0.000000 0.750515 0.285618
0.316686 0.751675 0.300786
0.477394 0.750607 0.323156
0.595087 0.749660 0.348730
0.691432 0.748959 0.377539
0.771115 0.749294 0.409491
0.861387 0.771847 0.393866
0.930877 0.762325 0.251774
0.980743 0.737606 0.000000
1.000000 0.705165 0.000000
1.000000 0.673884 0.000000
1.000000 0.644282 0.000000
1.000000 0.620600 0.000000
1.000000 0.610590 0.000000
1.000000 0.601617 0.000000
1.000000 0.593683 0.000000
1.000000 0.586908 0.000000
1.000000 0.580713 0.000000
1.000000 0.575250 0.000000
1.000000 0.570611 0.000000
1.000000 0.566400 0.000000
1.000000 0.562493 0.000000
1.000000 0.559106 0.000000
1.000000 0.555901 0.000000
1.000000 0.553002 0.000000
1.000000 0.550134 0.003449
0.000000 0.792569 0.316930
0.000000 0.792813 0.315831
0.000000 0.793057 0.316808
0.000000 0.793637 0.320104
0.000000 0.794614 0.324468
0.000000 0.795621 0.331212
0.000000 0.797055 0.339330
0.276219 0.798550 0.350134
0.442237 0.797482 0.369299
0.563409 0.795560 0.392401
0.660670 0.793606 0.418402
0.741054 0.792020 0.446937
0.814969 0.798001 0.490120
0.884886 0.814084 0.502831
0.943938 0.804349 0.381323
0.992737 0.781399 0.237705
1.000000 0.750332 0.150637
1.000000 0.719234 0.000000
1.000000 0.689387 0.000000
1.000000 0.661189 0.000000
1.000000 0.641566 0.000000
1.000000 0.631556 0.000000
1.000000 0.622553 0.000000
1.000000 0.614679 0.000000
1.000000 0.607568 0.000000
1.000000 0.601190 0.000000
1.000000 0.595300 0.000000
1.000000 0.590173 0.028199
1.000000 0.585504 0.082368
1.000000 0.581079 0.100954
1.000000 0.577081 0.113710
1.000000 0.573266 0.122133
0.000000 0.834470 0.379492
0.000000 0.834531 0.379095
0.000000 0.834440 0.380316
0.000000 0.834653 0.382849
0.000000 0.834714 0.386969
0.000000 0.834867 0.392584
0.000000 0.835203 0.400031
0.302068 0.835416 0.410285
0.426886 0.835355 0.423102
0.543664 0.832761 0.443488
0.638209 0.830381 0.466316
0.716915 0.828244 0.491402
0.782834 0.826413 0.517632
0.837369 0.824979 0.544793
0.892180 0.836515 0.578210
0.945556 0.830076 0.472419
0.990906 0.809751 0.350134
1.000000 0.781796 0.255039
1.000000 0.752193 0.195560
1.000000 0.723507 0.126436
1.000000 0.695705 0.000000
1.000000 0.669551 0.000000
1.000000 0.654658 0.000000
1.000000 0.645319 0.000000
1.000000 0.636866 0.000000
1.000000 0.629328 0.032898
1.000000 0.622431 0.096407
1.000000 0.616144 0.116335
1.000000 0.610437 0.131289
1.000000 0.605280 0.143954
1.000000 0.600458 0.153964
1.000000 0.596033 0.162295
0.000000 0.862028 0.437018
0.000000 0.862028 0.436316
0.000000 0.861875 0.437354
0.000000 0.861631 0.439002
0.000000 0.861265 0.442115
0.000000 0.860868 0.446571
0.204929 0.860441 0.453010
0.336370 0.860014 0.460670
0.432929 0.859586 0.470314
0.526329 0.857908 0.484688
0.615167 0.855070 0.503655
0.690517 0.852293 0.524773
0.754910 0.849729 0.547387
0.809018 0.847532 0.570153
0.854215 0.845670 0.593317
0.898039 0.852598 0.625605
0.944762 0.850004 0.547814
0.986542 0.832761 0.442145
1.000000 0.808042 0.333288
1.000000 0.780362 0.282475
1.000000 0.753017 0.232303
1.000000 0.726436 0.181003
1.000000 0.701106 0.121218
1.000000 0.676722 0.000000
1.000000 0.666316 0.057313
1.000000 0.657771 0.113466
1.000000 0.649805 0.136446
1.000000 0.642603 0.153964
1.000000 0.636011 0.167086
1.000000 0.630060 0.178805
1.000000 0.624628 0.188144
1.000000 0.619562 0.195804
0.000000 0.881285 0.488441
0.000000 0.881315 0.487556
0.000000 0.881163 0.488075
0.000000 0.880797 0.489387
0.000000 0.880308 0.491646
0.190433 0.879637 0.495338
0.296483 0.878996 0.500023
0.380713 0.878233 0.506645
0.454475 0.877470 0.514275
0.522820 0.876707 0.523766
0.600610 0.874052 0.539330
0.670954 0.871092 0.556909
0.731533 0.868315 0.575647
0.784146 0.865690 0.595178
0.828916 0.863340 0.614954
0.866728 0.861234 0.633997
0.903410 0.865354 0.659083
0.942870 0.865568 0.610559
0.981109 0.851408 0.518334
1.000000 0.829862 0.416510
1.000000 0.804440 0.353643
1.000000 0.778988 0.308293
1.000000 0.753902 0.264744
1.000000 0.729549 0.222263
1.000000 0.705928 0.178561
1.000000 0.685847 0.145357
1.000000 0.677058 0.166659
1.000000 0.669184 0.184146
1.000000 0.661921 0.197604
1.000000 0.655329 0.209323
1.000000 0.649439 0.219821
1.000000 0.644038 0.228824
0.114626 0.895079 0.532647
0.118135 0.895109 0.532128
0.151583 0.894987 0.532647
0.200259 0.894743 0.533867
0.256321 0.894285 0.536126
0.313268 0.893736 0.539147
0.371099 0.893065 0.543542
0.428473 0.892332 0.549004
0.485084 0.891478 0.555779
0.539879 0.890501 0.563775
0.595575 0.889097 0.573602
0.658534 0.886107 0.587945
0.714443 0.883177 0.603204
0.763760 0.880308 0.619013
0.806455 0.877684 0.634791
0.843717 0.875273 0.650690
0.876249 0.873136 0.666255
0.907256 0.875395 0.686213
0.940856 0.877592 0.659754
0.975280 0.866331 0.581903
1.000000 0.848051 0.492531
1.000000 0.825376 0.417762
1.000000 0.801938 0.374914
1.000000 0.778470 0.333745
1.000000 0.755337 0.294926
1.000000 0.732815 0.258152
1.000000 0.711025 0.222873
1.000000 0.695644 0.211185
1.000000 0.687739 0.225925
1.000000 0.680659 0.237858
1.000000 0.674220 0.248814
1.000000 0.668330 0.258488
0.306889 0.905241 0.572198
0.307164 0.905272 0.571588
0.314885 0.905211 0.571832
0.333196 0.904936 0.572930
0.359503 0.904570 0.574762
0.392615 0.904051 0.577356
0.430488 0.903380 0.580835
0.472297 0.902586 0.585504
0.515160 0.901701 0.591089
0.558892 0.900725 0.597589
0.602350 0.899687 0.604944
0.651484 0.897673 0.615229
0.702052 0.894896 0.627741
0.747372 0.892119 0.640681
0.787930 0.889525 0.653803
0.823972 0.887083 0.667018
0.855680 0.884855 0.680293
0.883787 0.882902 0.693507
0.910491 0.883818 0.709499
0.939391 0.887297 0.699245
0.969665 0.878874 0.636194
1.000000 0.863584 0.558343
1.000000 0.843717 0.476356
1.000000 0.822324 0.436439
1.000000 0.800626 0.397345
1.000000 0.779019 0.360418
1.000000 0.757687 0.325994
1.000000 0.736782 0.293553
1.000000 0.716579 0.263798
1.000000 0.705837 0.265721
1.000000 0.699031 0.277958
1.000000 0.692958 0.289189
0.403754 0.913054 0.608148
0.404181 0.913054 0.608087
0.424598 0.914366 0.615015
0.434638 0.914153 0.615930
0.450324 0.913787 0.617456
0.471199 0.913298 0.619562
0.496040 0.912657 0.622248
0.524834 0.911925 0.625605
0.556329 0.911070 0.629969
0.589654 0.910155 0.634913
0.623560 0.909148 0.640497
0.657710 0.908110 0.646845
0.699825 0.905699 0.656275
0.740047 0.903075 0.666438
0.776638 0.900542 0.676844
0.809873 0.898100 0.687556
0.839963 0.895811 0.698238
0.866911 0.893736 0.708888
0.891051 0.891875 0.719753
0.913939 0.891875 0.732387
0.938933 0.896117 0.733791
0.965454 0.889769 0.682002
0.993042 0.877592 0.619104
1.000000 0.860533 0.546777
1.000000 0.840940 0.496101
1.000000 0.821073 0.459907
1.000000 0.801083 0.424689
1.000000 0.781033 0.391028
1.000000 0.761288 0.359960
1.000000 0.742061 0.331853
1.000000 0.723629 0.306828
1.000000 0.717372 0.319921
0.475868 0.919402 0.641413
0.477363 0.919493 0.641810
0.480507 0.919615 0.642054
0.489052 0.919493 0.643336
0.500999 0.919249 0.645014
0.516228 0.918883 0.646723
0.535363 0.918334 0.649042
0.557122 0.917693 0.651667
0.581750 0.916930 0.655055
0.608515 0.916106 0.659205
0.636286 0.915251 0.663722
0.664881 0.914275 0.668849
0.695521 0.912963 0.674861
0.731655 0.910613 0.683467
0.765255 0.908354 0.692317
0.796506 0.906065 0.701534
0.825132 0.903960 0.710811
0.851286 0.901976 0.720333
0.875090 0.900145 0.729824
0.896513 0.898589 0.739467
0.916625 0.898100 0.750057
0.937926 0.902342 0.760433
0.962066 0.898314 0.717220
0.986603 0.888609 0.665797
1.000000 0.874388 0.604791
1.000000 0.856840 0.547845
1.000000 0.838987 0.515160
1.000000 0.820768 0.483162
1.000000 0.802518 0.452857
1.000000 0.784390 0.424262
1.000000 0.766567 0.398199
1.000000 0.749111 0.374945
0.526299 0.924193 0.667536
0.527428 0.924254 0.667872
0.529473 0.924376 0.667933
0.535637 0.924315 0.669001
0.544762 0.924102 0.670436
0.556664 0.923766 0.672053
0.570794 0.923308 0.673762
0.587976 0.922759 0.676051
0.607446 0.922087 0.678828
0.628687 0.921355 0.682002
0.651484 0.920592 0.685695
0.675319 0.919738 0.689967
0.699458 0.918853 0.694453
0.728084 0.917296 0.700771
0.758541 0.915221 0.708309
0.787076 0.913176 0.716152
0.813931 0.911192 0.724178
0.838712 0.909361 0.732265
0.861601 0.907622 0.740688
0.882597 0.906096 0.749233
0.901732 0.904753 0.757778
0.919310 0.903929 0.766720
0.937804 0.907561 0.779721
0.959503 0.905791 0.747250
0.981231 0.898131 0.705043
1.000000 0.886442 0.654841
1.000000 0.871397 0.599420
1.000000 0.855344 0.568170
1.000000 0.839109 0.540063
1.000000 0.822751 0.513390
1.000000 0.806546 0.488746
1.000000 0.790616 0.466377
0.569146 0.928283 0.691402
0.570214 0.928374 0.691798
0.571557 0.928466 0.691707
0.575830 0.928435 0.692409
0.582666 0.928252 0.693446
0.591730 0.927977 0.694728
0.602869 0.927611 0.696223
0.616266 0.927123 0.698146
0.631708 0.926574 0.700374
0.649042 0.925933 0.703090
0.667842 0.925231 0.706233
0.687678 0.924498 0.709773
0.707973 0.923766 0.713497
0.728634 0.922972 0.717586
0.755428 0.921202 0.723995
0.781338 0.919432 0.730709
0.806027 0.917662 0.737850
0.829374 0.916014 0.745174
0.851133 0.914488 0.752712
0.871397 0.913115 0.760464
0.890043 0.911894 0.768429
0.907195 0.910918 0.776394
0.922667 0.910094 0.784329
0.939330 0.913176 0.795865
0.957885 0.912993 0.775296
0.976898 0.907073 0.741329
0.996796 0.897795 0.701839
1.000000 0.885557 0.658289
1.000000 0.871733 0.625605
1.000000 0.857786 0.602991
1.000000 0.843687 0.581262
1.000000 0.829831 0.561822
0.611048 0.932189 0.715999
0.611536 0.932219 0.716152
0.612207 0.932280 0.715908
0.614313 0.932250 0.715846
0.619226 0.932067 0.716487
0.625971 0.931792 0.717403
0.634638 0.931487 0.718593
0.645045 0.931090 0.720058
0.657313 0.930632 0.721950
0.671260 0.930114 0.724208
0.686488 0.929534 0.726833
0.702815 0.928923 0.729824
0.719905 0.928252 0.733028
0.737484 0.927581 0.736599
0.756710 0.926696 0.740749
0.779843 0.925109 0.746517
0.802182 0.923552 0.752590
0.823423 0.922057 0.758907
0.843595 0.920684 0.765408
0.862669 0.919371 0.772183
0.880430 0.918242 0.779049
0.896941 0.917266 0.786069
0.912200 0.916442 0.793210
0.926085 0.915801 0.800259
0.940887 0.918212 0.810147
0.956909 0.919066 0.798337
0.973541 0.914549 0.770718
0.990906 0.907225 0.739528
1.000000 0.897337 0.705013
1.000000 0.885710 0.673762
1.000000 0.874113 0.657465
1.000000 0.862364 0.641505
0.643793 0.935302 0.736202
0.644129 0.935302 0.736263
0.644770 0.935332 0.736141
0.645869 0.935363 0.735805
0.649744 0.935210 0.736324
0.655085 0.935027 0.737148
0.661952 0.934752 0.738125
0.670314 0.934417 0.739345
0.680262 0.934051 0.740993
0.691615 0.933623 0.742885
0.704158 0.933165 0.745144
0.717800 0.932616 0.747768
0.732021 0.932097 0.750484
0.747036 0.931579 0.753628
0.762478 0.930999 0.757015
0.780789 0.929992 0.761440
0.800900 0.928649 0.766751
0.820249 0.927367 0.772366
0.838834 0.926146 0.778134
0.856535 0.925017 0.784146
0.873350 0.924010 0.790433
0.889097 0.923125 0.796780
0.903777 0.922393 0.803250
0.917327 0.921874 0.809812
0.929564 0.921141 0.815335
0.942657 0.923095 0.823941
0.956542 0.924712 0.818936
0.970977 0.921416 0.796841
0.986084 0.915709 0.772396
1.000000 0.907927 0.745907
1.000000 0.898528 0.719722
1.000000 0.888548 0.705104
0.676234 0.938170 0.756771
0.676844 0.938170 0.757076
0.677302 0.938201 0.756985
0.677852 0.938262 0.756497
0.680171 0.938170 0.756527
0.684138 0.937987 0.757015
0.689143 0.937774 0.757595
0.695583 0.937469 0.758480
0.703334 0.937163 0.759640
0.712245 0.936797 0.761074
0.722225 0.936400 0.762814
0.733303 0.935973 0.764889
0.745205 0.935515 0.767208
0.757717 0.935058 0.769711
0.770779 0.934600 0.772519
0.784115 0.934142 0.775509
0.801541 0.933043 0.779934
0.818967 0.931914 0.784848
0.836027 0.930846 0.790005
0.852415 0.929900 0.795468
0.868070 0.929015 0.801144
0.882994 0.928283 0.807034
0.897002 0.927642 0.812924
0.910033 0.927153 0.818875
0.922179 0.926787 0.824887
0.933379 0.926604 0.830991
0.944823 0.928161 0.838529
0.956756 0.930266 0.838621
0.969268 0.927947 0.821073
0.982086 0.923613 0.802365
0.995270 0.917357 0.781582
1.000000 0.909850 0.761349
0.702693 0.940642 0.774166
0.703029 0.940673 0.774350
0.703639 0.940673 0.774411
0.704219 0.940703 0.774075
0.705592 0.940734 0.773861
0.709041 0.940581 0.774441
0.713344 0.940398 0.775174
0.718807 0.940215 0.776089
0.725277 0.939971 0.777249
0.732815 0.939727 0.778714
0.741238 0.939422 0.780362
0.750576 0.939117 0.782284
0.760555 0.938781 0.784390
0.771206 0.938445 0.786709
0.782223 0.938079 0.789120
0.793698 0.937713 0.791806
0.806363 0.937255 0.794980
0.821714 0.936309 0.799283
0.836973 0.935424 0.803891
0.851865 0.934630 0.808804
0.866239 0.933928 0.813931
0.879973 0.933349 0.819242
0.893034 0.932860 0.824704
0.905394 0.932494 0.830289
0.916899 0.932280 0.835904
0.927672 0.932189 0.841672
0.937591 0.932280 0.847471
0.947539 0.933623 0.854459
0.957519 0.935760 0.858000
0.968109 0.934234 0.843961
0.978820 0.930938 0.829313
0.989563 0.926299 0.814267
0.729305 0.943114 0.792050
0.729580 0.943114 0.792172
0.729854 0.943145 0.792081
0.730404 0.943145 0.791867
0.731075 0.943206 0.791501
0.733577 0.943114 0.791897
0.737148 0.942992 0.792508
0.741482 0.942870 0.793271
0.746792 0.942687 0.794278
0.752956 0.942473 0.795560
0.760006 0.942260 0.797024
0.767758 0.942046 0.798734
0.776181 0.941802 0.800626
0.785061 0.941558 0.802670
0.794614 0.941283 0.804990
0.804379 0.941039 0.807401
0.814633 0.940826 0.810117
0.826780 0.940337 0.813535
0.840330 0.939635 0.817685
0.853635 0.938994 0.822141
0.866667 0.938476 0.826841
0.879271 0.938018 0.831754
0.891325 0.937652 0.836790
0.902800 0.937407 0.841947
0.913603 0.937285 0.847227
0.923735 0.937316 0.852598
0.933104 0.937377 0.857725
0.941741 0.937530 0.862791
0.950225 0.938506 0.868498
0.957946 0.940185 0.874327
0.967437 0.939727 0.863340
0.976196 0.937407 0.852506
0.754055 0.945495 0.809049
0.754299 0.945495 0.809171
0.754543 0.945525 0.809110
0.755032 0.945556 0.808988
0.755764 0.945617 0.808774
0.757565 0.945617 0.808988
0.760800 0.945556 0.809781
0.764858 0.945464 0.810849
0.769711 0.945403 0.812161
0.775326 0.945281 0.813687
0.781643 0.945190 0.815488
0.788540 0.945098 0.817411
0.795956 0.944976 0.819486
0.803738 0.944854 0.821653
0.811887 0.944732 0.824002
0.820218 0.944640 0.826352
0.828916 0.944549 0.828916
0.837888 0.944488 0.831662
0.849180 0.944030 0.835355
0.860807 0.943603 0.839414
0.872190 0.943267 0.843687
0.883330 0.942992 0.848203
0.893950 0.942779 0.852628
0.903990 0.942596 0.856992
0.913512 0.942504 0.861387
0.922576 0.942504 0.865873
0.931121 0.942596 0.870359
0.939086 0.942779 0.874937
0.946471 0.943084 0.879515
0.953460 0.943847 0.884367
0.959777 0.945220 0.889555
0.967102 0.945403 0.883543
0.782467 0.948150 0.828763
0.782498 0.948150 0.828794
0.782681 0.948150 0.828733
0.782956 0.948180 0.828611
0.783505 0.948211 0.828397
0.784329 0.948272 0.828214
0.786770 0.948211 0.828794
0.789761 0.948180 0.829557
0.793454 0.948119 0.830503
0.797757 0.948058 0.831693
0.802701 0.947967 0.833036
0.808164 0.947906 0.834592
0.814115 0.947875 0.836332
0.820554 0.947814 0.838224
