20 Preset/Japan Style/【3】LUT video cho PR-AE-FCPX/LUT VIDEO (2)/Japan Style LUT (31).cube
# Created by Adobe Lightroom plugin Export LUT (1.24.0)
# www.johnrellis.com/lightroom/exportlut.htm
# Preset: 31日系胶片（素材江湖）
# Color profile: C:\Program Files (x86)\Common Files\Adobe\Color\Profiles\Recommended\VideoHD.icc
LUT_3D_SIZE 8
DOMAIN_MIN 0.000000 0.000000 0.000000
DOMAIN_MAX 0.903226 0.903226 0.903226
0.035645 0.092042 0.112490
0.036652 0.086000 0.106844
0.363500 0.000000 0.094697
0.793393 0.000000 0.000000
0.990997 0.194797 0.000000
1.000000 0.387976 0.109163
1.000000 0.500969 0.244358
1.000000 0.588891 0.368658
0.005737 0.105135 0.112428
0.040040 0.112673 0.105623
0.383551 0.157992 0.040131
0.780392 0.159365 0.000000
0.979736 0.280766 0.000000
1.000000 0.408453 0.000000
1.000000 0.505425 0.201450
1.000000 0.588891 0.344274
0.203494 0.621820 0.425940
0.252323 0.630671 0.390814
0.486915 0.589685 0.270817
0.771054 0.472633 0.000000
0.951904 0.476417 0.000000
1.000000 0.512566 0.000000
1.000000 0.557061 0.000000
1.000000 0.610498 0.259586
0.737484 0.849943 0.784115
0.736568 0.851225 0.775204
0.745846 0.840665 0.738247
0.795773 0.821225 0.660243
0.933623 0.750729 0.136873
1.000000 0.645014 0.000000
1.000000 0.648646 0.000000
1.000000 0.664088 0.156558
0.857176 0.914458 0.890593
0.856748 0.914763 0.888426
0.859831 0.914824 0.881712
0.857603 0.903166 0.854795
0.876280 0.890440 0.811795
0.956054 0.857023 0.556603
1.000000 0.752804 0.000000
1.000000 0.735348 0.110780
0.904265 0.941222 0.929534
0.904509 0.941588 0.929137
0.903746 0.942046 0.925780
0.903593 0.938598 0.918242
0.900847 0.929564 0.899535
0.910063 0.920745 0.873503
0.958648 0.904173 0.737484
1.000000 0.848539 0.479835
0.930144 0.955261 0.949462
0.930083 0.955352 0.949157
0.929625 0.955505 0.947662
0.930419 0.955505 0.945556
0.927062 0.951354 0.937560
0.925017 0.944945 0.924681
0.930449 0.939086 0.908385
0.961120 0.930449 0.830381
0.948547 0.963897 0.962463
0.948486 0.963928 0.962341
0.948333 0.964050 0.961761
0.948089 0.964294 0.960632
0.947448 0.963317 0.958190
0.945312 0.960754 0.953033
0.944274 0.957000 0.945251
0.947265 0.953399 0.934661
0.031037 0.084108 0.109010
0.052125 0.080415 0.110079
0.364813 0.000000 0.117128
0.774258 0.000000 0.052979
0.975738 0.268132 0.000000
1.000000 0.404700 0.000000
1.000000 0.500084 0.199649
1.000000 0.584619 0.345006
0.004395 0.107820 0.130892
0.061128 0.125154 0.127840
0.394873 0.155154 0.107210
0.773617 0.205570 0.000000
0.969299 0.325017 0.000000
1.000000 0.430304 0.000000
1.000000 0.508476 0.156008
1.000000 0.586450 0.322881
0.344549 0.599573 0.465248
0.346563 0.611902 0.434516
0.506340 0.582666 0.330510
0.761593 0.460151 0.000000
0.944335 0.482185 0.000000
1.000000 0.521721 0.000000
1.000000 0.565362 0.119661
1.000000 0.607965 0.235691
0.740932 0.841611 0.784970
0.740719 0.843168 0.777615
0.748745 0.835019 0.744381
0.791379 0.814237 0.665522
0.923644 0.739742 0.203372
1.000000 0.642573 0.000000
1.000000 0.649287 0.000000
1.000000 0.666896 0.218265
0.859007 0.912718 0.891752
0.858518 0.912932 0.889647
0.861265 0.913481 0.883207
0.857847 0.901396 0.856291
0.875059 0.888273 0.812955
0.952422 0.853758 0.566430
1.000000 0.748531 0.000000
1.000000 0.736385 0.187137
0.904753 0.940429 0.929839
0.904631 0.940551 0.929137
0.903990 0.941070 0.925933
0.903929 0.937957 0.918730
0.901030 0.928954 0.900359
0.910002 0.920226 0.874754
0.957275 0.903075 0.741451
1.000000 0.847105 0.488502
0.930327 0.954894 0.949584
0.930144 0.954925 0.949187
0.929625 0.955077 0.947723
0.930632 0.955230 0.945769
0.927367 0.951141 0.937926
0.925170 0.944701 0.925139
0.930327 0.938720 0.908721
0.960540 0.929717 0.830991
0.948577 0.963745 0.962524
0.948608 0.963806 0.962432
0.948425 0.963928 0.961852
0.948180 0.964172 0.960723
0.948150 0.963500 0.958831
0.945830 0.960876 0.953582
0.944549 0.957061 0.945708
0.947417 0.953429 0.935149
0.000000 0.088319 0.282231
0.000000 0.091524 0.278660
0.401007 0.000000 0.269657
0.793362 0.222660 0.327489
0.958312 0.402472 0.347265
1.000000 0.509361 0.370367
1.000000 0.576715 0.399542
1.000000 0.623926 0.428107
0.000000 0.151919 0.308232
0.000000 0.170901 0.306126
0.444892 0.189700 0.294102
0.781979 0.333745 0.343999
0.950958 0.433661 0.338994
1.000000 0.523796 0.364538
1.000000 0.582879 0.392462
1.000000 0.628168 0.423560
0.455299 0.574090 0.539391
0.459663 0.570367 0.524102
0.527764 0.551080 0.419379
0.774777 0.493202 0.279850
0.933471 0.531945 0.299290
1.000000 0.577081 0.334752
1.000000 0.617853 0.376287
1.000000 0.652796 0.415534
0.763363 0.825406 0.802792
0.764492 0.826841 0.798367
0.770138 0.829221 0.777951
0.795438 0.807095 0.704067
0.907836 0.715908 0.346746
0.990753 0.663325 0.267826
1.000000 0.677150 0.341283
1.000000 0.695674 0.397681
0.867185 0.907866 0.897642
0.867002 0.908263 0.896208
0.866850 0.910124 0.889830
0.865568 0.900237 0.869535
0.877470 0.886717 0.828855
0.942809 0.847013 0.616205
1.000000 0.748226 0.272526
1.000000 0.749813 0.365148
0.909056 0.938720 0.932830
0.908965 0.938903 0.932280
0.908507 0.939452 0.929595
0.908446 0.937560 0.923552
0.904387 0.928435 0.906432
0.911162 0.919463 0.881651
0.952758 0.900084 0.760586
1.000000 0.843534 0.530022
0.933043 0.954437 0.951476
0.932860 0.954467 0.951141
0.932433 0.954620 0.949798
0.932525 0.954925 0.947570
0.930114 0.951354 0.940978
0.927398 0.944915 0.928893
0.931609 0.938903 0.913054
0.958862 0.928832 0.840482
0.949981 0.963684 0.963531
0.949920 0.963714 0.963409
0.949798 0.963836 0.962921
0.949676 0.964141 0.961944
0.949920 0.963836 0.960388
0.947570 0.961273 0.955474
0.946075 0.957519 0.947967
0.948455 0.953857 0.937743
0.000000 0.144015 0.584405
0.000000 0.160464 0.585138
0.456794 0.219455 0.579095
0.800412 0.250095 0.529137
0.936156 0.500908 0.562188
0.978820 0.640894 0.631922
1.000000 0.670405 0.620356
1.000000 0.700465 0.624628
0.000000 0.231785 0.590723
0.000000 0.272801 0.591943
0.496254 0.336522 0.586786
0.798611 0.362188 0.539330
0.922545 0.550042 0.583581
0.977173 0.645930 0.626459
1.000000 0.675135 0.617609
1.000000 0.703731 0.622522
0.257053 0.543603 0.652644
0.326238 0.540673 0.637720
0.541039 0.547082 0.596887
0.764462 0.586511 0.590814
0.890867 0.643458 0.614466
0.970459 0.669062 0.604944
1.000000 0.697292 0.610163
1.000000 0.718654 0.616632
0.778256 0.816739 0.822171
0.777127 0.814603 0.817655
0.765438 0.794430 0.784298
0.781674 0.777279 0.713069
0.879179 0.697597 0.533806
0.956847 0.708980 0.553277
1.000000 0.724941 0.574456
1.000000 0.740230 0.592828
0.872221 0.901640 0.904051
0.872099 0.900206 0.901884
0.871916 0.898711 0.895171
0.871641 0.895750 0.881834
0.876616 0.880125 0.841611
0.928008 0.828580 0.660945
0.991119 0.769100 0.518425
1.000000 0.774563 0.558068
0.913664 0.934722 0.935851
0.913878 0.935088 0.935668
0.913603 0.935729 0.933715
0.914946 0.936950 0.930419
0.909209 0.927550 0.915007
0.912352 0.917601 0.890532
0.945922 0.893370 0.783291
1.000000 0.832486 0.574182
0.936309 0.952972 0.953765
0.936309 0.953063 0.953582
0.936095 0.953338 0.952636
0.935729 0.953918 0.950591
0.934630 0.951781 0.945892
0.930938 0.945220 0.934752
0.933257 0.938781 0.919249
0.956237 0.926268 0.852567
0.952300 0.963500 0.965240
0.952270 0.963531 0.965148
0.952178 0.963684 0.964721
0.952087 0.963989 0.963897
0.952605 0.964416 0.962860
0.950378 0.962005 0.958556
0.948486 0.958312 0.951598
0.950195 0.954589 0.941924
0.000000 0.298405 0.784512
0.000000 0.321935 0.783993
0.492317 0.388617 0.779141
0.762142 0.492866 0.766110
0.919799 0.526879 0.707515
0.970886 0.652338 0.716945
0.985016 0.735195 0.757198
1.000000 0.772396 0.775418
0.000000 0.368872 0.781643
0.180301 0.412085 0.780606
0.527550 0.464912 0.776913
0.762997 0.544335 0.765133
0.911467 0.564935 0.711940
0.962982 0.671382 0.724910
0.978271 0.747402 0.765866
1.000000 0.773465 0.773526
0.249241 0.557092 0.776699
0.299168 0.552514 0.768673
0.583429 0.613703 0.766751
0.761440 0.658106 0.761715
0.883207 0.665126 0.728359
0.936431 0.726772 0.749935
0.966552 0.767727 0.772244
1.000000 0.776974 0.764248
0.676417 0.774838 0.827573
0.683803 0.773190 0.822873
0.705409 0.762295 0.799680
0.759182 0.747036 0.759487
0.846921 0.765591 0.767239
0.915862 0.768215 0.753017
0.964111 0.776669 0.747585
1.000000 0.785397 0.745815
0.873960 0.893706 0.906554
0.875700 0.893675 0.906126
0.870970 0.889158 0.899168
0.860777 0.874174 0.876127
0.863188 0.858518 0.833799
0.907012 0.791928 0.692561
0.959197 0.794858 0.703548
0.998230 0.800504 0.712612
0.913176 0.931456 0.938109
0.913146 0.930907 0.937407
0.912230 0.928008 0.933684
0.911009 0.926299 0.928252
0.909545 0.922911 0.919280
0.909483 0.911101 0.893797
0.937591 0.876616 0.789944
0.988739 0.830198 0.674403
0.937255 0.951141 0.955444
0.937285 0.950958 0.955169
0.937469 0.950134 0.954040
0.937591 0.950652 0.952575
0.938628 0.951812 0.950561
0.933623 0.944823 0.940063
0.933867 0.937316 0.924102
0.953155 0.920226 0.859709
0.953185 0.963012 0.966552
0.953338 0.962982 0.966522
0.953918 0.962829 0.966247
0.954101 0.963287 0.965728
0.954223 0.963958 0.964691
0.953643 0.962982 0.962127
0.951110 0.959106 0.955627
0.951843 0.955047 0.946014
0.280919 0.481086 0.879973
0.377111 0.500328 0.878569
0.566003 0.543084 0.874022
0.750454 0.615503 0.866667
0.877501 0.650599 0.851469
0.955352 0.671290 0.809110
0.981598 0.736172 0.804227
0.991058 0.788754 0.824643
0.327947 0.516991 0.875029
0.427283 0.545312 0.872923
0.586847 0.580407 0.868956
0.752865 0.638727 0.862821
0.873350 0.667353 0.848814
0.950225 0.684138 0.809140
0.977111 0.744076 0.806577
0.988220 0.792996 0.826658
0.419623 0.613245 0.864103
0.472724 0.624140 0.863249
0.637751 0.674495 0.859312
0.764218 0.707454 0.856077
0.863859 0.723842 0.845670
0.933837 0.730892 0.813931
0.961303 0.775479 0.818997
0.977386 0.811460 0.837278
0.646265 0.762692 0.872740
0.652125 0.760952 0.869627
0.670344 0.750515 0.854673
0.770169 0.771084 0.847807
0.852842 0.783963 0.842924
0.908751 0.791836 0.828214
0.939544 0.816342 0.838346
0.961700 0.837491 0.852384
0.814694 0.864866 0.898985
0.816678 0.864317 0.897490
0.822934 0.860868 0.890593
0.826658 0.848203 0.871244
0.838346 0.825071 0.836759
0.886870 0.831022 0.837125
0.928801 0.833158 0.833066
0.964263 0.837125 0.831937
0.912016 0.925780 0.938109
0.913176 0.925933 0.938140
0.915038 0.925322 0.936950
0.909606 0.919677 0.930053
0.901274 0.908904 0.915038
0.898863 0.895171 0.886534
0.925719 0.844450 0.791714
0.964935 0.846983 0.800870
0.937713 0.950286 0.957549
0.937865 0.950164 0.957366
0.938048 0.949371 0.956420
0.937621 0.947326 0.953887
0.936522 0.945129 0.949920
0.935515 0.943572 0.944671
0.932708 0.933715 0.926970
0.949584 0.907408 0.859434
0.953460 0.962921 0.967987
0.953582 0.962921 0.967956
0.954162 0.962860 0.967773
0.955108 0.962646 0.967376
0.955779 0.962432 0.966400
0.956725 0.963745 0.965576
0.954192 0.960204 0.960174
0.953704 0.955505 0.950622
0.529503 0.620050 0.924712
0.569543 0.635554 0.923949
0.651820 0.655512 0.920745
0.761990 0.692317 0.915923
0.856809 0.738216 0.910094
0.929473 0.738613 0.897673
0.971130 0.750454 0.864683
0.987243 0.786099 0.853666
0.522911 0.624262 0.919677
0.569879 0.644038 0.918883
0.653742 0.665888 0.915862
0.758297 0.697200 0.911254
0.852018 0.739101 0.905791
0.924468 0.736873 0.892668
0.967651 0.746517 0.859129
0.985168 0.781674 0.848508
0.551965 0.673945 0.914641
0.579706 0.681758 0.913787
0.685267 0.721096 0.908934
0.770077 0.741329 0.905791
0.851072 0.770748 0.901732
0.915496 0.767910 0.890318
0.957397 0.776059 0.863462
0.975250 0.806577 0.859495
0.623438 0.752285 0.908843
0.626795 0.750088 0.906706
0.675135 0.756069 0.901793
0.780392 0.790860 0.898955
0.850462 0.810819 0.897704
0.904204 0.811002 0.889494
0.942779 0.814298 0.870115
0.961212 0.835233 0.871702
0.772488 0.846403 0.917266
0.772702 0.844816 0.915648
0.777096 0.840055 0.909941
0.781399 0.826871 0.896605
0.836057 0.833616 0.887541
0.888396 0.838987 0.883665
0.924559 0.843687 0.874632
0.947906 0.860197 0.882811
0.867491 0.903990 0.931731
0.868528 0.903899 0.931304
0.871672 0.902861 0.929076
0.875151 0.899138 0.923400
0.873136 0.887419 0.909087
0.877409 0.868101 0.884428
0.911437 0.874479 0.886809
0.941253 0.877043 0.886625
0.930632 0.943389 0.954742
0.931365 0.943603 0.954833
0.933562 0.943999 0.954864
0.937438 0.944518 0.954772
0.935698 0.941497 0.951171
0.926482 0.930419 0.938720
0.923491 0.920653 0.920043
0.942565 0.884337 0.861692
0.954101 0.962127 0.968994
0.954284 0.962219 0.969024
0.955138 0.962615 0.969299
0.956054 0.962707 0.969116
0.956664 0.962005 0.968170
0.955901 0.959838 0.965576
0.957031 0.960967 0.964324
0.954620 0.954925 0.954192
0.642359 0.700252 0.947448
0.666163 0.711604 0.946410
0.706783 0.719509 0.944121
0.774289 0.739162 0.940887
0.844511 0.766079 0.936522
0.902098 0.798154 0.931762
0.954986 0.785458 0.922484
0.980652 0.795407 0.896757
0.634211 0.699519 0.945434
0.658259 0.710597 0.944488
0.707454 0.725093 0.942016
0.772885 0.742763 0.938903
0.842496 0.768307 0.934752
0.900267 0.799313 0.930297
0.952850 0.785794 0.920745
0.979156 0.795010 0.895079
0.619409 0.710811 0.942138
0.642359 0.719753 0.941131
0.715969 0.750668 0.936919
0.779904 0.769009 0.934997
0.842557 0.788144 0.931518
0.896941 0.812985 0.927794
0.946075 0.801389 0.918853
0.972747 0.808804 0.896025
0.606317 0.740444 0.936034
0.625116 0.745357 0.935576
0.686397 0.761959 0.933074
0.781949 0.799313 0.928710
0.840635 0.814755 0.926818
0.892729 0.835050 0.925078
0.936004 0.828122 0.917662
0.962951 0.832914 0.899840
0.699245 0.813260 0.936004
0.702449 0.813016 0.935454
0.707759 0.807950 0.932036
0.734066 0.803555 0.924010
0.829465 0.835752 0.920775
0.884001 0.852598 0.921080
0.924926 0.853544 0.916808
0.953155 0.857969 0.904967
0.816831 0.882719 0.941741
0.817197 0.882139 0.941222
0.819760 0.880156 0.939117
0.824796 0.875853 0.934630
0.826047 0.863584 0.924926
0.872526 0.871153 0.918608
0.917205 0.882780 0.920500
0.942931 0.882567 0.911772
0.896483 0.928435 0.953002
0.896971 0.928405 0.952850
0.899107 0.928222 0.952087
0.902800 0.927611 0.950439
0.905821 0.924956 0.946685
0.903838 0.915953 0.937285
0.906706 0.900999 0.920287
0.934112 0.905882 0.921111
0.942565 0.955169 0.965606
0.942901 0.955261 0.965606
0.944671 0.955779 0.965820
0.948241 0.956970 0.966369
0.952544 0.958312 0.966949
0.956542 0.959106 0.967102
0.951293 0.953033 0.961028
0.947448 0.945464 0.949615
