20 Preset/Japan Style/【3】LUT video cho PR-AE-FCPX/LUT VIDEO (2)/Japan Style LUT (1).cube
# Created by Adobe Lightroom plugin Export LUT (1.24.0)
# www.johnrellis.com/lightroom/exportlut.htm
# Preset: 01日系清新（素材江湖）
# Color profile: C:\Program Files (x86)\Common Files\Adobe\Color\Profiles\Recommended\VideoHD.icc
LUT_3D_SIZE 5
DOMAIN_MIN 0.000000 0.000000 0.000000
DOMAIN_MAX 0.903226 0.903226 0.903226
0.000000 0.000000 0.000000
0.281376 0.000000 0.054108
0.796933 0.000000 0.038514
1.000000 0.186465 0.128695
1.000000 0.402777 0.279576
0.000000 0.259525 0.135988
0.248173 0.297642 0.020478
0.802396 0.315618 0.000000
1.000000 0.377722 0.000000
1.000000 0.468513 0.233066
0.000000 0.657618 0.377813
0.228153 0.641444 0.359838
0.686915 0.709499 0.255528
0.993469 0.697505 0.000000
1.000000 0.655726 0.094820
0.498573 0.854185 0.636530
0.527337 0.850828 0.630640
0.630457 0.841032 0.605768
0.863371 0.878325 0.542077
1.000000 0.859800 0.462257
0.736049 0.955413 0.818173
0.743343 0.954833 0.816739
0.765103 0.949218 0.803006
0.834257 0.955047 0.790249
0.961303 0.968750 0.747280
0.000000 0.081910 0.243137
0.245182 0.000000 0.243900
0.731044 0.000000 0.298100
1.000000 0.302403 0.329656
1.000000 0.433204 0.344640
0.000000 0.266850 0.287633
0.254032 0.289220 0.297551
0.743038 0.328313 0.308324
1.000000 0.417975 0.327337
1.000000 0.494301 0.348425
0.234470 0.653620 0.490394
0.317266 0.648341 0.461860
0.666133 0.688014 0.401007
0.971374 0.688930 0.348211
1.000000 0.672694 0.374670
0.555718 0.853696 0.685359
0.561578 0.852079 0.671199
0.645502 0.838437 0.647272
0.858946 0.876127 0.604211
1.000000 0.862486 0.551781
0.749050 0.955322 0.831662
0.753109 0.954833 0.828702
0.781430 0.952667 0.823026
0.841550 0.956146 0.809628
0.962127 0.970184 0.774807
0.183963 0.251652 0.660304
0.408942 0.258091 0.659693
0.736751 0.244999 0.649561
0.962554 0.473030 0.656092
1.000000 0.614069 0.685969
0.316991 0.462043 0.674525
0.446357 0.455390 0.672023
0.719600 0.431922 0.659205
0.936553 0.559106 0.671901
1.000000 0.653864 0.699794
0.380774 0.674189 0.682582
0.472694 0.675807 0.681514
0.655604 0.675257 0.671626
0.896849 0.712184 0.692226
1.000000 0.739590 0.702022
0.608728 0.856199 0.774899
0.634730 0.853574 0.773220
0.703670 0.849027 0.761105
0.849424 0.871244 0.745785
1.000000 0.868956 0.729549
0.773434 0.953948 0.867308
0.788846 0.954009 0.870603
0.805844 0.953918 0.861967
0.849485 0.951202 0.849607
0.959045 0.968444 0.831113
0.533013 0.505882 0.871092
0.597162 0.514641 0.870420
0.771206 0.536767 0.866331
0.936339 0.557092 0.857633
1.000000 0.702907 0.839017
0.587243 0.624964 0.868559
0.629999 0.625574 0.867643
0.766079 0.627161 0.863706
0.917052 0.627192 0.855283
1.000000 0.731991 0.843442
0.635157 0.771817 0.859800
0.664820 0.773556 0.858701
0.755184 0.774411 0.858701
0.869017 0.757961 0.849363
0.984283 0.807248 0.859281
0.675746 0.862852 0.866789
0.694850 0.862882 0.866300
0.760983 0.865202 0.866300
0.837034 0.858946 0.855741
0.977569 0.877775 0.869108
0.763973 0.957458 0.908171
0.776608 0.957488 0.908782
0.822934 0.958068 0.911650
0.879576 0.957610 0.910582
0.959838 0.968658 0.902281
0.686671 0.687037 0.950622
0.707759 0.681697 0.950164
0.789761 0.677607 0.949279
0.908110 0.689113 0.946319
1.000000 0.698146 0.942016
0.699825 0.714351 0.947356
0.719051 0.714870 0.946899
0.791043 0.718166 0.945617
0.900023 0.721614 0.943114
1.000000 0.724300 0.939696
0.738705 0.815579 0.943206
0.754360 0.817380 0.942870
0.800931 0.814084 0.941650
0.883238 0.807309 0.939391
0.981811 0.804807 0.939544
0.749081 0.882750 0.941894
0.760708 0.883604 0.941527
0.810025 0.891356 0.943023
0.883452 0.897581 0.947723
0.966400 0.900175 0.951904
0.782254 0.948455 0.953124
0.792844 0.949035 0.953460
0.837827 0.953399 0.956695
0.900237 0.960052 0.961395
0.953521 0.960876 0.959716
