20 Preset/Japan Style/【3】LUT video cho PR-AE-FCPX/LUT VIDEO (2)/Japan Style LUT (9).cube
# Created by Adobe Lightroom plugin Export LUT (1.24.0)
# www.johnrellis.com/lightroom/exportlut.htm
# Preset: 09日系清新（素材江湖）
# Color profile: C:\Program Files (x86)\Common Files\Adobe\Color\Profiles\Recommended\VideoHD.icc
LUT_3D_SIZE 8
DOMAIN_MIN 0.000000 0.000000 0.000000
DOMAIN_MAX 0.903226 0.903226 0.903226
0.091341 0.095827 0.110750
0.090211 0.093721 0.108095
0.270146 0.036500 0.103517
0.559136 0.000000 0.095949
0.816922 0.000000 0.082765
0.981140 0.000000 0.106966
1.000000 0.246281 0.174228
1.000000 0.388464 0.270634
0.055818 0.112093 0.107973
0.105653 0.121309 0.105043
0.321813 0.145235 0.090089
0.591119 0.000000 0.067414
0.825925 0.000000 0.031891
0.975769 0.161257 0.090730
1.000000 0.296941 0.167483
1.000000 0.412604 0.267948
0.000000 0.345373 0.143038
0.000000 0.344244 0.121920
0.343359 0.391852 0.094484
0.721218 0.421637 0.000000
0.864775 0.441016 0.000000
0.979797 0.439246 0.000000
1.000000 0.469337 0.174929
1.000000 0.521660 0.288151
0.000000 0.617639 0.277653
0.000000 0.614984 0.260502
0.000000 0.604395 0.255619
0.647944 0.659236 0.253605
0.920775 0.682704 0.223270
0.981537 0.663416 0.193362
1.000000 0.664057 0.217960
1.000000 0.664393 0.331823
0.000000 0.772396 0.442481
0.000000 0.771115 0.434272
0.000000 0.766873 0.404303
0.494240 0.758358 0.441138
0.787106 0.792020 0.457557
0.974426 0.809903 0.479255
1.000000 0.787594 0.443153
1.000000 0.787747 0.460517
0.365759 0.853635 0.589990
0.382971 0.853849 0.588769
0.429816 0.851286 0.576532
0.535576 0.844297 0.577478
0.696712 0.844358 0.607202
0.860594 0.863249 0.631159
0.981537 0.882536 0.662928
1.000000 0.871580 0.667201
0.602197 0.905028 0.724849
0.606958 0.904875 0.724208
0.623377 0.903624 0.719509
0.654139 0.901488 0.712764
0.725551 0.895384 0.731350
0.818357 0.901579 0.753628
0.908446 0.914031 0.775631
0.982238 0.929412 0.806149
0.770504 0.945190 0.843107
0.772183 0.945098 0.842954
0.779477 0.944915 0.842557
0.793637 0.944732 0.842649
0.814054 0.942718 0.843626
0.853544 0.941497 0.860594
0.904326 0.950805 0.876066
0.951659 0.960845 0.892363
0.092439 0.095827 0.107485
0.086183 0.095613 0.107912
0.245212 0.026825 0.127108
0.540948 0.000000 0.129671
0.801022 0.000000 0.136324
0.965545 0.000000 0.156466
1.000000 0.227512 0.205570
1.000000 0.376410 0.287999
0.059388 0.104494 0.117403
0.101778 0.111421 0.121096
0.302068 0.117739 0.124483
0.578668 0.000000 0.126528
0.815213 0.000000 0.129610
0.966522 0.143160 0.151369
1.000000 0.285466 0.203342
1.000000 0.403204 0.287205
0.000000 0.340429 0.188052
0.000000 0.343053 0.179934
0.341161 0.377935 0.162875
0.702449 0.409125 0.091279
0.853849 0.422309 0.000000
0.971283 0.424445 0.128115
1.000000 0.455238 0.209049
1.000000 0.510704 0.304234
0.000000 0.608881 0.315435
0.000000 0.606867 0.299657
0.000000 0.598596 0.279820
0.637232 0.645350 0.284306
0.908507 0.668666 0.254704
0.972503 0.652277 0.224277
1.000000 0.651972 0.243748
1.000000 0.655116 0.342870
0.000000 0.769833 0.464088
0.000000 0.768429 0.455940
0.154757 0.763638 0.426001
0.493782 0.752346 0.453193
0.783047 0.786618 0.468513
0.970428 0.805264 0.489845
1.000000 0.783810 0.452461
1.000000 0.784543 0.466163
0.382788 0.851377 0.599359
0.394965 0.850828 0.596429
0.439673 0.848386 0.584070
0.536736 0.842069 0.581292
0.695399 0.841550 0.611810
0.859403 0.861479 0.636652
0.980285 0.880949 0.668238
1.000000 0.870054 0.669612
0.604028 0.903502 0.727504
0.607233 0.903075 0.725734
0.623346 0.901793 0.720760
0.654597 0.899748 0.714260
0.724971 0.894194 0.731899
0.817105 0.900114 0.754330
0.907408 0.912596 0.775509
0.981781 0.928099 0.805356
0.769192 0.944305 0.842924
0.771450 0.944335 0.843137
0.778592 0.944121 0.842588
0.792874 0.943938 0.842618
0.816831 0.943297 0.846708
0.854765 0.941711 0.862272
0.904295 0.950500 0.876768
0.951629 0.960632 0.892912
0.022004 0.098054 0.169375
0.037446 0.094759 0.174563
0.218936 0.008179 0.191745
0.527733 0.000000 0.249058
0.770169 0.000000 0.280827
0.952789 0.000000 0.276280
1.000000 0.178622 0.313451
1.000000 0.361486 0.374975
0.000000 0.097444 0.200656
0.000000 0.090150 0.211460
0.279850 0.012207 0.227451
0.544884 0.000000 0.273747
0.793301 0.000000 0.259037
0.954162 0.000000 0.280217
1.000000 0.248631 0.313420
1.000000 0.389075 0.374975
0.000000 0.307408 0.287297
0.000000 0.323613 0.293004
0.355383 0.345525 0.313909
0.662348 0.368170 0.290013
0.844602 0.361089 0.283085
0.963806 0.383429 0.293156
1.000000 0.430365 0.327214
1.000000 0.496193 0.389776
0.000000 0.605859 0.395392
0.000000 0.609003 0.403540
0.304631 0.610834 0.405310
0.643305 0.635462 0.410224
0.893217 0.655634 0.384131
0.960021 0.644038 0.348394
1.000000 0.634943 0.365698
1.000000 0.644556 0.426795
0.000000 0.768246 0.528099
0.207431 0.767697 0.535058
0.371069 0.763973 0.522087
0.532860 0.752377 0.518578
0.785702 0.782925 0.541497
0.960327 0.801083 0.557366
1.000000 0.781094 0.516350
1.000000 0.782864 0.516808
0.466255 0.849119 0.650050
0.476814 0.848661 0.647822
0.509361 0.846311 0.635248
0.565545 0.841703 0.616480
0.702968 0.836881 0.645563
0.859098 0.858701 0.669947
0.976440 0.878752 0.701350
1.000000 0.868986 0.695796
0.634272 0.902342 0.753109
0.637385 0.901946 0.751614
0.650965 0.900633 0.746151
0.677943 0.898558 0.738491
0.734920 0.893950 0.747372
0.820127 0.898405 0.769986
0.908202 0.912108 0.791257
0.981445 0.928710 0.820340
0.777859 0.943877 0.851926
0.779232 0.943755 0.851530
0.785946 0.943542 0.850706
0.800198 0.943572 0.850828
0.819944 0.943359 0.851926
0.857877 0.941985 0.867155
0.905638 0.950347 0.881956
0.952483 0.960784 0.897704
0.000000 0.102602 0.319707
0.000000 0.102937 0.323583
0.175051 0.000000 0.376654
0.518212 0.000000 0.389899
0.801907 0.000000 0.426368
0.916228 0.000000 0.476692
1.000000 0.174136 0.484382
1.000000 0.293675 0.483772
0.000000 0.092775 0.351476
0.000000 0.085023 0.363195
0.203464 0.000000 0.410590
0.563043 0.000000 0.419471
0.807614 0.000000 0.442542
0.912322 0.142000 0.487068
1.000000 0.199527 0.472938
1.000000 0.334051 0.487495
0.000000 0.210697 0.420478
0.000000 0.213443 0.430304
0.138430 0.213993 0.482673
0.657588 0.257053 0.497597
0.807401 0.328954 0.503410
0.937041 0.307683 0.472145
1.000000 0.373938 0.473304
1.000000 0.462135 0.507988
0.000000 0.569574 0.529961
0.000000 0.577447 0.534020
0.060304 0.605432 0.549981
0.660487 0.611933 0.583886
0.850248 0.623621 0.547478
0.940520 0.599359 0.514427
1.000000 0.595453 0.511559
1.000000 0.616785 0.538018
0.000000 0.767330 0.590723
0.000000 0.766751 0.594507
0.391608 0.764828 0.616388
0.621485 0.760372 0.633326
0.791196 0.775387 0.648951
0.942199 0.791318 0.648737
0.986786 0.773922 0.606134
1.000000 0.771145 0.598566
0.392309 0.850278 0.678248
0.437110 0.850034 0.683803
0.562127 0.846555 0.701900
0.649531 0.842161 0.702602
0.725307 0.833097 0.704494
0.860899 0.855375 0.726864
0.971435 0.875395 0.755093
1.000000 0.866209 0.737606
0.616205 0.902922 0.769253
0.631861 0.902281 0.772641
0.688167 0.899840 0.786282
0.718654 0.897856 0.781949
0.753719 0.895079 0.776577
0.825986 0.895689 0.796902
0.909606 0.910887 0.816129
0.982025 0.929595 0.842496
0.775814 0.944854 0.860838
0.782071 0.944549 0.862669
0.801541 0.943633 0.867887
0.813596 0.943450 0.866453
0.830747 0.943389 0.865568
0.862791 0.942596 0.875608
0.907561 0.949706 0.890471
0.954070 0.961120 0.905913
0.000000 0.109499 0.510765
0.000000 0.109438 0.513725
0.000000 0.023377 0.551568
0.506706 0.000000 0.627039
0.789151 0.000000 0.603632
0.966461 0.000000 0.596460
1.000000 0.198489 0.618494
1.000000 0.421027 0.669276
0.000000 0.110140 0.528191
0.000000 0.089143 0.538262
0.000000 0.000000 0.576837
0.525078 0.000000 0.642512
0.806912 0.000000 0.618372
0.964111 0.000000 0.604181
1.000000 0.264591 0.624445
1.000000 0.443824 0.673793
0.000000 0.130495 0.588495
0.000000 0.117617 0.598596
0.000000 0.072511 0.627558
0.533928 0.000000 0.680293
0.846891 0.000000 0.661433
0.944366 0.318669 0.632898
0.988647 0.423102 0.647974
1.000000 0.499184 0.674037
0.000000 0.430091 0.637629
0.000000 0.434546 0.642237
0.000000 0.454231 0.661738
0.548943 0.497505 0.708553
0.840818 0.574731 0.714900
0.899687 0.582971 0.692897
0.981476 0.555627 0.657832
1.000000 0.570520 0.650172
0.000000 0.739467 0.702510
0.000000 0.742031 0.704402
0.000000 0.750301 0.712001
0.585962 0.760433 0.729671
0.801846 0.760830 0.756771
0.911925 0.767300 0.734890
0.968505 0.741085 0.694545
1.000000 0.731289 0.688075
0.000000 0.850004 0.718135
0.000000 0.849119 0.720485
0.414313 0.844938 0.730800
0.640497 0.839200 0.754757
0.765194 0.836484 0.771359
0.863188 0.848783 0.787228
0.961639 0.866026 0.799161
0.995178 0.856535 0.774746
0.503563 0.905730 0.778164
0.524743 0.904875 0.780056
0.600397 0.901976 0.788998
0.715114 0.897704 0.810788
0.785031 0.894682 0.820066
0.830777 0.890379 0.825101
0.910948 0.907988 0.842954
0.981842 0.926207 0.866026
0.704677 0.948333 0.851347
0.714504 0.947784 0.853239
0.751827 0.945800 0.861540
0.810697 0.943542 0.877989
0.843137 0.942870 0.883330
0.866178 0.943053 0.885069
0.907988 0.947570 0.899657
0.955261 0.960327 0.914427
0.000000 0.119478 0.693019
0.000000 0.119753 0.694423
0.000000 0.066072 0.709804
0.255161 0.000000 0.754604
0.766110 0.000000 0.799008
0.955322 0.000000 0.763516
1.000000 0.000000 0.729183
1.000000 0.351385 0.739193
0.000000 0.119905 0.699092
0.000000 0.120211 0.699825
0.000000 0.029816 0.721340
0.326787 0.000000 0.762112
0.771756 0.000000 0.802396
0.958740 0.000000 0.767086
1.000000 0.000000 0.730648
1.000000 0.381109 0.741054
0.000000 0.050385 0.740902
0.000000 0.032105 0.744350
0.000000 0.000000 0.758663
0.347662 0.000000 0.786069
0.784787 0.000000 0.824674
0.970001 0.000000 0.785550
1.000000 0.350011 0.745663
1.000000 0.489235 0.755489
0.000000 0.301366 0.741756
0.000000 0.299870 0.746914
0.000000 0.295384 0.769650
0.250462 0.270817 0.803647
0.780606 0.337377 0.836149
0.948577 0.487953 0.808255
0.986328 0.583307 0.777676
1.000000 0.619898 0.781674
0.000000 0.618341 0.778775
0.000000 0.620417 0.780392
0.000000 0.628901 0.787076
0.321172 0.645716 0.800473
0.745113 0.690517 0.826047
0.903868 0.744564 0.832212
0.939147 0.727749 0.810605
0.994965 0.708370 0.792599
0.000000 0.835874 0.806729
0.000000 0.836484 0.807706
0.000000 0.837003 0.810330
0.497780 0.837827 0.817105
0.746456 0.841032 0.832181
0.874327 0.843198 0.852689
0.944549 0.846281 0.838926
0.987060 0.828031 0.815274
0.121462 0.911437 0.810849
0.238376 0.910643 0.812253
0.430274 0.907164 0.817441
0.615595 0.901549 0.829252
0.768673 0.896757 0.850034
0.854765 0.895384 0.865202
0.915282 0.905608 0.876829
0.979675 0.920836 0.888945
0.589899 0.954040 0.855863
0.602869 0.953399 0.856931
0.653773 0.951110 0.862028
0.733425 0.947723 0.872892
0.822416 0.944274 0.891417
0.879179 0.943664 0.905150
0.909148 0.944366 0.912413
0.957671 0.959808 0.926909
0.000000 0.135164 0.839597
0.000000 0.135592 0.842130
0.000000 0.135805 0.843412
0.000000 0.000000 0.864286
0.594720 0.000000 0.889982
0.921691 0.000000 0.903136
1.000000 0.000000 0.871427
1.000000 0.000000 0.822263
0.000000 0.134279 0.834226
0.000000 0.134951 0.837308
0.000000 0.116670 0.840482
0.000000 0.000000 0.860380
0.604639 0.000000 0.885222
0.916350 0.000000 0.896086
1.000000 0.000000 0.862699
1.000000 0.000000 0.813382
0.000000 0.137514 0.853574
0.000000 0.122774 0.854978
0.000000 0.013153 0.862425
0.000000 0.000000 0.877317
0.671626 0.000000 0.896300
0.921141 0.000000 0.903075
1.000000 0.000000 0.872374
1.000000 0.305272 0.825437
0.000000 0.158175 0.872984
0.000000 0.143374 0.874266
0.000000 0.070710 0.878019
0.000000 0.000000 0.887877
0.606775 0.000000 0.901305
0.927276 0.000000 0.915892
1.000000 0.325383 0.881010
1.000000 0.560021 0.840909
0.000000 0.466316 0.851194
0.000000 0.462013 0.849973
0.000000 0.449134 0.850095
0.000000 0.433875 0.864530
0.519402 0.434821 0.887480
0.875792 0.544060 0.903319
0.981170 0.647547 0.878843
1.000000 0.712673 0.858610
0.000000 0.732509 0.861234
0.000000 0.732937 0.861814
0.000000 0.733303 0.863401
0.000000 0.733455 0.866880
0.512566 0.739193 0.872740
0.830930 0.783719 0.891203
0.940978 0.828580 0.896696
0.967407 0.816373 0.882658
0.000000 0.901884 0.875395
0.000000 0.901976 0.876036
0.000000 0.899779 0.876585
0.333989 0.895842 0.878721
0.654108 0.892363 0.883818
0.831785 0.895689 0.896117
0.922576 0.900542 0.912932
0.969268 0.902037 0.903532
0.100862 0.962982 0.875303
0.223728 0.962219 0.876188
0.424628 0.959442 0.880827
0.598230 0.953948 0.887846
0.743069 0.947906 0.898711
0.853910 0.944854 0.915282
0.919890 0.946868 0.930968
0.960876 0.958556 0.942412
0.000000 0.154086 0.930755
0.000000 0.154269 0.931609
0.000000 0.154086 0.930755
0.000000 0.074067 0.935119
0.000000 0.000000 0.945647
0.766140 0.000000 0.956237
1.000000 0.000000 0.958801
1.000000 0.000000 0.935515
0.000000 0.153292 0.928191
0.000000 0.153719 0.929168
0.000000 0.153719 0.929198
0.000000 0.044739 0.933684
0.000000 0.000000 0.944030
0.768917 0.000000 0.954803
1.000000 0.000000 0.956512
1.000000 0.000000 0.932219
0.000000 0.154482 0.932097
0.000000 0.154696 0.932341
0.000000 0.154482 0.931914
0.000000 0.000000 0.939971
0.291722 0.000000 0.947845
0.790036 0.000000 0.956909
1.000000 0.000000 0.957488
1.000000 0.000000 0.932341
0.000000 0.156771 0.940002
0.000000 0.156985 0.940520
0.000000 0.129397 0.941405
0.000000 0.000000 0.947906
0.424689 0.000000 0.954955
0.807706 0.000000 0.962341
1.000000 0.000000 0.961730
1.000000 0.000000 0.933715
0.000000 0.313237 0.935698
0.000000 0.300572 0.937102
0.000000 0.240879 0.939818
0.000000 0.106752 0.945495
0.000000 0.000000 0.950225
0.721767 0.000000 0.956756
0.992187 0.000000 0.960540
1.000000 0.417121 0.928557
0.000000 0.581659 0.919371
0.000000 0.576715 0.918730
0.000000 0.558312 0.917479
0.000000 0.523064 0.917449
0.000000 0.469551 0.925994
0.592798 0.472419 0.941283
0.928618 0.623255 0.948150
1.000000 0.734157 0.928191
0.000000 0.810788 0.918578
0.000000 0.809964 0.918395
0.000000 0.806668 0.917876
0.000000 0.801389 0.918090
0.000000 0.791684 0.918608
0.555566 0.788571 0.920317
0.878660 0.836820 0.934813
0.969512 0.880461 0.938354
0.000000 0.965637 0.930632
0.000000 0.965026 0.930510
0.000000 0.962646 0.930724
0.000000 0.956085 0.930907
0.466102 0.945861 0.931060
0.742184 0.939086 0.934051
0.890410 0.941833 0.943389
0.962341 0.950774 0.958862
