20 Preset/Japan Style/【3】LUT video cho PR-AE-FCPX/LUT VIDEO (2)/Japan Style LUT (13).cube
# Created by Adobe Lightroom plugin Export LUT (1.24.0)
# www.johnrellis.com/lightroom/exportlut.htm
# Preset: 13日系清新（素材江湖）
# Color profile: C:\Program Files (x86)\Common Files\Adobe\Color\Profiles\Recommended\VideoHD.icc
LUT_3D_SIZE 32
DOMAIN_MIN 0.0 0.0 0.0
DOMAIN_MAX 1.0 1.0 1.0
0.029145 0.032685 0.028840
0.037659 0.033967 0.028504
0.074006 0.032136 0.028046
0.104738 0.035676 0.026215
0.141848 0.040955 0.023682
0.196933 0.035981 0.018585
0.262394 0.011963 0.011597
0.332403 0.000000 0.001312
0.402564 0.000000 0.000000
0.472023 0.000000 0.000000
0.541344 0.000000 0.000000
0.608972 0.000000 0.000000
0.673487 0.000000 0.000000
0.733272 0.000000 0.000000
0.787411 0.000000 0.000000
0.835752 0.000000 0.000000
0.877287 0.000000 0.000000
0.913298 0.000000 0.000000
0.944793 0.000000 0.000000
0.971679 0.000000 0.000000
0.994659 0.000000 0.000000
1.000000 0.112886 0.000000
1.000000 0.151766 0.000000
1.000000 0.179416 0.000000
1.000000 0.201785 0.000000
1.000000 0.219760 0.000000
1.000000 0.235203 0.000000
1.000000 0.248203 0.000000
1.000000 0.259892 0.000000
1.000000 0.270146 0.000000
1.000000 0.279088 0.000000
1.000000 0.287114 0.000000
0.027253 0.040650 0.031189
0.031128 0.041413 0.028748
0.070863 0.043702 0.026520
0.104128 0.044831 0.026154
0.141939 0.052094 0.023285
0.196567 0.049744 0.017914
0.262058 0.024720 0.011048
0.330999 0.000000 0.000732
0.400916 0.000000 0.000000
0.470527 0.000000 0.000000
0.539330 0.000000 0.000000
0.606867 0.000000 0.000000
0.671412 0.000000 0.000000
0.731411 0.000000 0.000000
0.785428 0.000000 0.000000
0.834043 0.000000 0.000000
0.875883 0.000000 0.000000
0.911955 0.000000 0.000000
0.943572 0.000000 0.000000
0.970550 0.000000 0.000000
0.993561 0.021668 0.000000
1.000000 0.118837 0.000000
1.000000 0.155825 0.000000
1.000000 0.182223 0.000000
1.000000 0.203128 0.000000
1.000000 0.220920 0.000000
1.000000 0.235599 0.000000
1.000000 0.249058 0.000000
1.000000 0.260288 0.000000
1.000000 0.270603 0.000000
1.000000 0.279698 0.000000
1.000000 0.287449 0.000000
0.023438 0.070863 0.044068
0.027008 0.071595 0.042786
0.044587 0.077821 0.031434
0.099794 0.084230 0.025086
0.141207 0.090578 0.020111
0.196658 0.092897 0.013519
0.261967 0.086275 0.005463
0.330999 0.052796 0.000000
0.400488 0.000000 0.000000
0.469337 0.000000 0.000000
0.538201 0.000000 0.000000
0.605707 0.000000 0.000000
0.670039 0.000000 0.000000
0.729580 0.000000 0.000000
0.783841 0.000000 0.000000
0.832090 0.000000 0.000000
0.874113 0.000000 0.000000
0.910277 0.000000 0.000000
0.941955 0.000000 0.000000
0.969085 0.000000 0.000000
0.992187 0.108339 0.000000
1.000000 0.147951 0.000000
1.000000 0.176303 0.000000
1.000000 0.198215 0.000000
1.000000 0.216831 0.000000
1.000000 0.231327 0.000000
1.000000 0.245396 0.000000
1.000000 0.257176 0.000000
1.000000 0.267979 0.000000
1.000000 0.277348 0.000000
1.000000 0.285100 0.000000
1.000000 0.292546 0.000000
0.014588 0.104067 0.074311
0.016175 0.104372 0.073030
0.020294 0.105684 0.061067
0.077028 0.110597 0.037354
0.135897 0.120302 0.018585
0.195132 0.129274 0.005219
0.262669 0.131502 0.000000
0.330571 0.126497 0.000000
0.400305 0.114809 0.000000
0.469215 0.094759 0.000000
0.537774 0.031098 0.000000
0.604547 0.000000 0.000000
0.668696 0.000000 0.000000
0.727718 0.000000 0.000000
0.781430 0.000000 0.000000
0.829587 0.000000 0.000000
0.871336 0.000000 0.000000
0.907286 0.000000 0.000000
0.938933 0.100740 0.000000
0.966125 0.139345 0.000000
0.989471 0.165621 0.000000
1.000000 0.190036 0.000000
1.000000 0.208713 0.000000
1.000000 0.224704 0.000000
1.000000 0.239506 0.000000
1.000000 0.252201 0.000000
1.000000 0.263706 0.000000
1.000000 0.273625 0.000000
1.000000 0.282048 0.000000
1.000000 0.290135 0.000000
1.000000 0.297032 0.000000
1.000000 0.303441 0.000000
0.000000 0.150088 0.099763
0.000000 0.150057 0.098238
0.000000 0.150668 0.094881
0.000000 0.155062 0.062928
0.094514 0.159976 0.032380
0.180606 0.167361 0.000000
0.250156 0.178012 0.000000
0.327031 0.182681 0.000000
0.398291 0.179355 0.000000
0.467048 0.172732 0.000000
0.535302 0.162203 0.000000
0.602075 0.150362 0.000000
0.665675 0.138582 0.000000
0.724575 0.130373 0.000000
0.777981 0.131472 0.000000
0.825711 0.142336 0.000000
0.867674 0.156161 0.000000
0.903716 0.174777 0.000000
0.935271 0.193301 0.000000
0.962646 0.209659 0.000000
0.986175 0.224857 0.000000
1.000000 0.238743 0.000000
1.000000 0.250767 0.000000
1.000000 0.262028 0.000000
1.000000 0.272038 0.000000
1.000000 0.281621 0.000000
1.000000 0.289616 0.000000
1.000000 0.297093 0.000000
1.000000 0.303563 0.000000
1.000000 0.309606 0.000000
1.000000 0.314977 0.000000
1.000000 0.319615 0.000000
0.000000 0.211917 0.127169
0.000000 0.212131 0.126040
0.000000 0.212619 0.121462
0.000000 0.214237 0.111879
0.000000 0.219577 0.053681
0.111360 0.221012 0.004761
0.227512 0.222660 0.000000
0.304082 0.230900 0.000000
0.383551 0.237552 0.000000
0.464973 0.240818 0.000000
0.533288 0.236057 0.000000
0.599847 0.232090 0.000000
0.663020 0.228367 0.000000
0.721340 0.227146 0.000000
0.774319 0.230045 0.000000
0.822019 0.236667 0.000000
0.863279 0.244877 0.000000
0.899382 0.254246 0.000000
0.931090 0.264500 0.000000
0.958404 0.273625 0.000000
0.982147 0.282933 0.000000
1.000000 0.291356 0.000000
1.000000 0.304631 0.000000
1.000000 0.311254 0.000000
1.000000 0.316930 0.000000
1.000000 0.322393 0.000000
1.000000 0.326696 0.000000
1.000000 0.331334 0.000000
1.000000 0.335180 0.000000
1.000000 0.339025 0.000000
1.000000 0.341985 0.000000
1.000000 0.344823 0.000000
0.000000 0.286809 0.166903
0.000000 0.287175 0.166232
0.000000 0.287907 0.161898
0.000000 0.289738 0.153353
0.000000 0.292760 0.119203
0.000000 0.293614 0.035340
0.138582 0.289830 0.000000
0.268132 0.279606 0.000000
0.358221 0.288762 0.000000
0.440467 0.297948 0.000000
0.523430 0.304662 0.000000
0.601434 0.308690 0.000000
0.664057 0.307836 0.000000
0.721645 0.308782 0.000000
0.773526 0.311803 0.000000
0.819852 0.316320 0.000000
0.860685 0.321050 0.000000
0.896178 0.326696 0.000000
0.927489 0.332341 0.000000
0.955169 0.338140 0.000000
0.979248 0.343114 0.000000
1.000000 0.347173 0.000000
1.000000 0.350958 0.000000
1.000000 0.354528 0.000000
1.000000 0.357397 0.000000
1.000000 0.359991 0.000000
1.000000 0.361822 0.000000
1.000000 0.363714 0.000000
1.000000 0.365637 0.000000
1.000000 0.366888 0.000000
1.000000 0.368139 0.000000
1.000000 0.369116 0.000000
0.000000 0.361089 0.214786
0.000000 0.360998 0.214755
0.000000 0.361944 0.210849
0.000000 0.363989 0.203738
0.000000 0.366552 0.193057
0.000000 0.368536 0.119844
0.000000 0.364630 0.038941
0.176150 0.356176 0.000000
0.307042 0.338476 0.000000
0.406531 0.343023 0.000000
0.489448 0.355047 0.000000
0.570977 0.365148 0.000000
0.648432 0.374426 0.000000
0.714046 0.380957 0.000000
0.765805 0.383307 0.000000
0.811856 0.386389 0.000000
0.852323 0.389319 0.000000
0.887968 0.391821 0.000000
0.919860 0.394476 0.000000
0.947631 0.396918 0.000000
0.971588 0.398230 0.000000
0.992645 0.398993 0.000000
1.000000 0.399268 0.000000
1.000000 0.399695 0.000000
1.000000 0.399969 0.000000
1.000000 0.399878 0.000000
1.000000 0.399542 0.000000
1.000000 0.398840 0.000000
1.000000 0.398444 0.000000
1.000000 0.397955 0.000000
1.000000 0.397314 0.000000
1.000000 0.396643 0.000000
0.000000 0.435798 0.271336
0.000000 0.436164 0.270420
0.000000 0.436896 0.267948
0.000000 0.438880 0.262303
0.000000 0.441688 0.254337
0.000000 0.444465 0.229404
0.000000 0.442634 0.145754
0.000000 0.434943 0.086305
0.223148 0.422461 0.000000
0.352209 0.401740 0.000000
0.453742 0.396277 0.000000
0.535332 0.410559 0.000000
0.614405 0.423163 0.000000
0.687037 0.434943 0.000000
0.752041 0.446571 0.000000
0.803128 0.452216 0.000000
0.843412 0.453315 0.000000
0.879423 0.454108 0.000000
0.911315 0.454170 0.000000
0.938994 0.453254 0.000000
0.963043 0.451820 0.000000
0.984314 0.449866 0.000000
1.000000 0.447456 0.000000
1.000000 0.445197 0.000000
1.000000 0.443122 0.000000
1.000000 0.440589 0.000000
1.000000 0.438056 0.000000
1.000000 0.435798 0.000000
1.000000 0.433265 0.000000
1.000000 0.430945 0.000000
1.000000 0.428626 0.000000
1.000000 0.426337 0.000000
0.000000 0.509636 0.332311
0.000000 0.509911 0.331884
0.000000 0.510552 0.330022
0.000000 0.512291 0.325261
0.000000 0.514977 0.319097
0.000000 0.518486 0.310277
0.000000 0.518975 0.259586
0.000000 0.513939 0.183352
0.000000 0.502342 0.124086
0.276463 0.486580 0.000000
0.399817 0.463752 0.000000
0.498207 0.446540 0.000000
0.577539 0.462318 0.000000
0.652003 0.476661 0.000000
0.719478 0.489937 0.000000
0.779843 0.502037 0.000000
0.831662 0.510979 0.000000
0.870146 0.511803 0.000000
0.901976 0.509667 0.000000
0.929656 0.506371 0.000000
0.953857 0.502586 0.000000
0.975250 0.498116 0.000000
0.994568 0.493538 0.000000
1.000000 0.489296 0.000000
1.000000 0.484962 0.000000
1.000000 0.480598 0.000000
1.000000 0.476295 0.000000
1.000000 0.471992 0.000000
1.000000 0.468116 0.000000
1.000000 0.464210 0.000000
1.000000 0.460456 0.000000
1.000000 0.456794 0.000000
0.000000 0.578119 0.394568
0.000000 0.578424 0.394324
0.000000 0.579217 0.393072
0.000000 0.580652 0.389502
0.000000 0.583185 0.384680
0.000000 0.586481 0.378058
0.000000 0.590509 0.367254
0.000000 0.587854 0.286931
0.000000 0.579370 0.224521
0.150057 0.565850 0.164553
0.336461 0.547173 0.020966
0.448615 0.523735 0.000000
0.544060 0.505364 0.000000
0.616632 0.510735 0.000000
0.686183 0.525994 0.000000
0.748989 0.539635 0.000000
0.803372 0.549615 0.000000
0.850645 0.556176 0.000000
0.891478 0.559716 0.000000
0.919524 0.555200 0.000000
0.943938 0.549401 0.000000
0.965576 0.543297 0.000000
0.985290 0.537377 0.000000
1.000000 0.531395 0.000000
1.000000 0.525322 0.000000
1.000000 0.519585 0.000000
1.000000 0.513848 0.000000
1.000000 0.508232 0.000000
1.000000 0.502922 0.000000
1.000000 0.497780 0.000000
1.000000 0.492805 0.000000
1.000000 0.487922 0.000000
0.000000 0.640467 0.457282
0.000000 0.640650 0.457008
0.000000 0.641260 0.455940
0.000000 0.642573 0.453529
0.000000 0.644739 0.449805
0.000000 0.647303 0.444648
0.000000 0.651240 0.438392
0.000000 0.652430 0.404639
0.000000 0.648890 0.314488
0.000000 0.637598 0.267460
0.257542 0.622461 0.207370
0.398199 0.603235 0.119509
0.507256 0.586267 0.000000
0.590326 0.561822 0.000000
0.660121 0.562005 0.000000
0.724910 0.577020 0.000000
0.781338 0.588159 0.000000
0.830289 0.595605 0.000000
0.872831 0.599695 0.000000
0.908721 0.600336 0.000000
0.938689 0.597528 0.000000
0.960082 0.589807 0.000000
0.979644 0.582025 0.000000
0.997314 0.574609 0.000000
1.000000 0.567041 0.000000
1.000000 0.559686 0.000000
1.000000 0.552361 0.000000
1.000000 0.545342 0.000000
1.000000 0.538659 0.000000
1.000000 0.532097 0.000000
1.000000 0.525872 0.000000
1.000000 0.519799 0.000000
0.000000 0.697383 0.519493
0.000000 0.697444 0.519219
0.000000 0.697688 0.518151
0.000000 0.698726 0.516289
0.000000 0.700069 0.513420
0.000000 0.702083 0.509575
0.000000 0.704860 0.504631
0.000000 0.708095 0.499458
0.000000 0.706905 0.443458
0.000000 0.701869 0.364324
0.163668 0.690425 0.315038
0.349371 0.675654 0.255467
0.464271 0.656611 0.176669
0.552850 0.632807 0.000000
0.623072 0.604700 0.000000
0.689723 0.599054 0.000000
0.749081 0.612482 0.000000
0.800473 0.621637 0.000000
0.845396 0.627497 0.000000
0.883848 0.629725 0.000000
0.916716 0.628687 0.000000
0.945342 0.625513 0.000000
0.968933 0.619776 0.000000
0.987091 0.611292 0.000000
1.000000 0.602930 0.000000
1.000000 0.594751 0.000000
1.000000 0.586725 0.000000
1.000000 0.578851 0.000000
1.000000 0.571283 0.000000
1.000000 0.563928 0.000000
1.000000 0.556756 0.000000
1.000000 0.549859 0.000000
0.000000 0.740658 0.569421
0.000000 0.740627 0.569360
0.000000 0.740871 0.568353
0.000000 0.741329 0.566918
0.000000 0.742153 0.564355
0.000000 0.743374 0.561547
0.000000 0.745174 0.557702
0.047883 0.747341 0.553765
0.153262 0.748989 0.538109
0.000000 0.746975 0.471656
0.000000 0.740719 0.407874
0.295079 0.729183 0.358740
0.418463 0.714595 0.299504
0.514397 0.696345 0.225101
0.592859 0.673945 0.105653
0.654047 0.644739 0.000000
0.715602 0.631250 0.000000
0.769467 0.642725 0.000000
0.816800 0.650446 0.000000
0.857939 0.654688 0.000000
0.893187 0.655329 0.000000
0.924041 0.653468 0.000000
0.951171 0.649836 0.000000
0.974945 0.644800 0.000000
0.993805 0.637201 0.000000
1.000000 0.628382 0.000000
1.000000 0.619532 0.000000
1.000000 0.611048 0.000000
1.000000 0.602716 0.000000
1.000000 0.594598 0.000000
1.000000 0.586847 0.000000
1.000000 0.579187 0.000000
0.000000 0.774472 0.610254
0.000000 0.774533 0.609979
0.000000 0.774594 0.609552
0.000000 0.774868 0.608270
0.000000 0.775326 0.606287
0.085969 0.776059 0.603998
0.180301 0.777157 0.601251
0.245365 0.778622 0.598505
0.300023 0.780484 0.595605
0.271763 0.780453 0.564324
0.154421 0.778866 0.497322
0.266453 0.771450 0.449470
0.378607 0.760586 0.400397
0.473365 0.746639 0.342046
0.555383 0.729244 0.270054
0.625788 0.708156 0.172274
0.683345 0.681361 0.000000
0.741665 0.665370 0.000000
0.787686 0.669123 0.000000
0.831357 0.675532 0.000000
0.869139 0.678279 0.000000
0.902159 0.678096 0.000000
0.931090 0.675715 0.000000
0.956664 0.671504 0.000000
0.979065 0.665980 0.000000
0.998871 0.659449 0.000000
1.000000 0.650843 0.000000
1.000000 0.641810 0.000000
1.000000 0.632898 0.000000
1.000000 0.624323 0.000000
1.000000 0.615991 0.000000
1.000000 0.607843 0.000000
0.201511 0.800015 0.643275
0.204440 0.800107 0.643214
0.212619 0.800198 0.642878
0.226963 0.800381 0.642176
0.248844 0.800748 0.640955
0.275090 0.801297 0.639460
0.306188 0.802213 0.637842
0.340276 0.803250 0.636164
0.376562 0.804562 0.634791
0.408698 0.805936 0.631769
0.352117 0.805142 0.587823
0.294041 0.803159 0.527153
0.364385 0.795499 0.487404
0.440620 0.785367 0.438911
0.516503 0.772335 0.381140
0.587823 0.756374 0.312413
0.652644 0.736629 0.223545
0.707027 0.712306 0.007355
0.763333 0.697200 0.000000
0.803464 0.692134 0.000000
0.843961 0.697505 0.000000
0.879484 0.699397 0.000000
0.910460 0.698665 0.000000
0.937835 0.695674 0.000000
0.961913 0.691005 0.000000
0.983093 0.685176 0.000000
1.000000 0.678492 0.000000
1.000000 0.671138 0.000000
1.000000 0.661830 0.000000
1.000000 0.652857 0.000000
1.000000 0.643946 0.000000
1.000000 0.635309 0.000000
0.328679 0.819730 0.671260
0.330083 0.819730 0.671229
0.333532 0.819760 0.670954
0.341039 0.819944 0.670375
0.353368 0.820218 0.669734
0.369085 0.820645 0.668879
0.388800 0.821225 0.667872
0.412512 0.821866 0.667018
0.438025 0.822721 0.666255
0.465583 0.823728 0.665797
0.461891 0.824155 0.650507
0.411872 0.823606 0.607263
0.387793 0.820829 0.558404
0.431373 0.813901 0.520134
0.488380 0.804654 0.473457
0.551080 0.792966 0.417792
0.614374 0.778500 0.350622
0.674250 0.761044 0.268894
0.726925 0.739467 0.151827
0.778866 0.722408 0.000000
0.818265 0.713497 0.000000
0.856199 0.717678 0.000000
0.889250 0.718746 0.000000
0.918425 0.717250 0.000000
0.944121 0.713680 0.000000
0.966735 0.708705 0.000000
0.986816 0.702571 0.000000
1.000000 0.695644 0.000000
1.000000 0.688228 0.000000
1.000000 0.680110 0.000000
1.000000 0.670924 0.000000
1.000000 0.661830 0.000000
0.413947 0.835477 0.695979
0.414405 0.835538 0.695979
0.429816 0.837888 0.699825
0.434760 0.837980 0.699580
0.441810 0.838193 0.699031
0.452308 0.838407 0.698451
0.465522 0.838712 0.697871
0.481575 0.839139 0.697322
0.499886 0.839689 0.696956
0.520012 0.840330 0.696773
0.541741 0.841032 0.697139
0.514366 0.840879 0.671199
0.470497 0.840391 0.629999
0.463447 0.837003 0.591760
0.490364 0.830808 0.554620
0.531640 0.822599 0.510491
0.583032 0.811978 0.456733
0.638331 0.799008 0.392737
0.693507 0.783291 0.316075
0.744686 0.764309 0.215396
0.793851 0.746853 0.000000
0.833677 0.734401 0.000000
0.868589 0.737240 0.000000
0.899351 0.737179 0.000000
0.926452 0.734707 0.000000
0.950286 0.730556 0.000000
0.971557 0.725032 0.000000
0.990509 0.718563 0.000000
1.000000 0.711482 0.000000
1.000000 0.703944 0.000000
1.000000 0.696101 0.000000
1.000000 0.687404 0.000000
0.480171 0.848692 0.718288
0.481483 0.848905 0.718563
0.484199 0.849119 0.718837
0.488655 0.849332 0.718929
0.495064 0.849577 0.718959
0.502922 0.849790 0.718624
0.513237 0.850034 0.718318
0.525048 0.850340 0.717891
0.539422 0.850706 0.717769
0.555352 0.851133 0.717769
0.572992 0.851621 0.718196
0.579156 0.851987 0.712551
0.545861 0.851804 0.683101
0.505852 0.851499 0.643397
0.511376 0.847654 0.614130
0.530510 0.842222 0.578790
0.563043 0.835019 0.536553
0.606470 0.825711 0.486305
0.656092 0.814237 0.426154
0.707637 0.800290 0.353460
0.757137 0.783719 0.262882
0.804288 0.766629 0.118868
0.846006 0.751858 0.000000
0.878569 0.753658 0.000000
0.907408 0.752804 0.000000
0.932891 0.749874 0.000000
0.955444 0.745296 0.000000
0.975586 0.739590 0.000000
0.993713 0.733028 0.000000
1.000000 0.725887 0.000000
1.000000 0.718349 0.000000
1.000000 0.710384 0.000000
0.528618 0.858824 0.736324
0.529656 0.859007 0.736568
0.531945 0.859190 0.736843
0.535454 0.859373 0.737057
0.540429 0.859586 0.737148
0.546899 0.859709 0.737057
0.554650 0.859892 0.736873
0.564263 0.860075 0.736690
0.575677 0.860288 0.736690
0.588556 0.860563 0.736873
0.602625 0.860868 0.737270
0.617975 0.861204 0.738125
0.605249 0.861357 0.723171
0.573999 0.861387 0.694514
0.546502 0.860594 0.660975
0.551049 0.857084 0.634241
0.565545 0.852323 0.601465
0.591028 0.846067 0.561486
0.627741 0.837919 0.513970
0.671901 0.827787 0.456825
0.719753 0.815427 0.388403
0.767300 0.800839 0.305241
0.812802 0.784207 0.188907
0.860105 0.774594 0.000000
0.887877 0.768856 0.000000
0.915007 0.767361 0.000000
0.938994 0.763912 0.000000
0.960357 0.759091 0.000000
0.979583 0.753170 0.000000
0.996948 0.746548 0.000000
1.000000 0.739376 0.030854
1.000000 0.731777 0.053285
0.569604 0.867460 0.752651
0.570397 0.867613 0.752865
0.572076 0.867735 0.753079
0.574914 0.867887 0.753262
0.578943 0.868009 0.753384
0.584039 0.868101 0.753384
0.590417 0.868223 0.753384
0.598077 0.868315 0.753323
0.607111 0.868498 0.753384
0.617487 0.868650 0.753628
0.628901 0.868864 0.754025
0.641321 0.869169 0.754696
0.651026 0.869413 0.753719
0.627955 0.869474 0.732937
0.599298 0.869566 0.705470
0.581842 0.868376 0.677546
0.584527 0.865324 0.652461
0.595697 0.861204 0.621881
0.616449 0.855833 0.584863
0.647425 0.848844 0.539971
0.686763 0.840116 0.487037
0.731044 0.829435 0.423163
0.776730 0.816648 0.345220
0.821775 0.801877 0.243381
0.871214 0.794675 0.000000
0.897765 0.784176 0.000000
0.923156 0.782010 0.000000
0.945800 0.778042 0.000000
0.965972 0.772976 0.013794
0.984314 0.766873 0.088380
1.000000 0.760159 0.108278
1.000000 0.752895 0.120516
0.607752 0.875486 0.768765
0.608179 0.875547 0.768856
0.609125 0.875578 0.768887
0.610925 0.875608 0.768887
0.613733 0.875669 0.768826
0.617548 0.875669 0.768826
0.622492 0.875731 0.768765
0.628443 0.875822 0.768734
0.635523 0.875883 0.768734
0.643946 0.876005 0.769009
0.653040 0.876188 0.769284
0.663233 0.876341 0.769833
0.673915 0.876555 0.770504
0.670161 0.876707 0.762509
0.648463 0.876829 0.742184
0.622187 0.877012 0.715938
0.613031 0.875456 0.693385
0.613886 0.872801 0.669429
0.622309 0.869200 0.640955
0.639277 0.864469 0.606470
0.665309 0.858366 0.564202
0.699794 0.850675 0.513939
0.740475 0.841184 0.453407
0.784054 0.829801 0.379950
0.828519 0.816861 0.286809
0.876555 0.809201 0.152651
0.906035 0.797482 0.000000
0.929931 0.794797 0.000000
0.951415 0.790585 0.057557
0.970764 0.785275 0.108400
0.988312 0.779110 0.129427
1.000000 0.772366 0.143648
0.635828 0.881804 0.781460
0.636042 0.881834 0.781491
0.636835 0.881865 0.781521
0.638422 0.881895 0.781613
0.640650 0.881926 0.781582
0.643641 0.881956 0.781521
0.647608 0.881987 0.781521
0.652399 0.882017 0.781430
0.658137 0.882109 0.781460
0.665187 0.882170 0.781704
0.672724 0.882292 0.781949
0.681025 0.882414 0.782284
0.690059 0.882567 0.782864
0.699550 0.882719 0.783597
0.684718 0.882872 0.769131
0.664729 0.883085 0.749599
0.642359 0.883207 0.725490
0.638605 0.881468 0.706844
0.638483 0.879210 0.683986
0.645014 0.876066 0.657282
0.659205 0.871946 0.624964
0.681453 0.866697 0.585779
0.712032 0.859983 0.538384
0.749294 0.851682 0.481727
0.790280 0.841184 0.410681
0.833768 0.829923 0.323888
0.880858 0.822141 0.210269
0.913725 0.809934 0.000000
0.936522 0.806851 0.071626
0.956970 0.802426 0.117861
0.975555 0.797024 0.142123
0.992493 0.790921 0.159548
0.660670 0.887633 0.793301
0.661128 0.887694 0.793423
0.661677 0.887694 0.793423
0.662776 0.887724 0.793362
0.664363 0.887694 0.793271
0.666682 0.887663 0.793179
0.669734 0.887633 0.793027
0.673487 0.887663 0.792935
0.678096 0.887633 0.792844
0.683528 0.887663 0.792874
0.689693 0.887663 0.792996
0.696559 0.887724 0.793179
0.704067 0.887785 0.793545
0.711971 0.887846 0.793973
0.712795 0.887938 0.790005
0.696651 0.888151 0.774563
0.677363 0.888426 0.755276
0.661738 0.888151 0.734829
0.658503 0.886625 0.717220
0.658473 0.884611 0.695949
0.663630 0.881926 0.670466
0.675776 0.878355 0.640162
0.695430 0.873747 0.603632
0.722713 0.867826 0.558801
0.756863 0.860533 0.505180
0.796078 0.851591 0.439948
0.838407 0.841825 0.358709
0.884520 0.834165 0.256474
0.921599 0.822477 0.084962
0.943175 0.818692 0.124300
0.962768 0.814145 0.151675
0.980529 0.808713 0.173129
0.679469 0.892424 0.802670
0.679744 0.892454 0.802731
0.680415 0.892454 0.802823
0.681392 0.892485 0.802823
0.682826 0.892485 0.802792
0.684840 0.892454 0.802701
0.687465 0.892485 0.802701
0.690822 0.892485 0.802640
0.694820 0.892515 0.802640
0.699519 0.892515 0.802701
0.704829 0.892546 0.802853
0.710750 0.892576 0.803006
0.717159 0.892607 0.803311
0.724025 0.892638 0.803647
0.731197 0.892668 0.804105
0.723079 0.892851 0.794827
0.707729 0.893156 0.779751
0.689815 0.893523 0.761166
0.680110 0.892943 0.744350
0.677241 0.891630 0.727657
0.677455 0.889860 0.707790
0.681636 0.887572 0.683742
0.691951 0.884520 0.655451
0.709194 0.880522 0.621363
0.733577 0.875456 0.579675
0.764889 0.869139 0.529290
0.801846 0.861387 0.468452
0.842985 0.852964 0.393194
0.888090 0.845914 0.299168
0.930144 0.839292 0.177371
0.950378 0.830961 0.164706
0.968780 0.825864 0.183871
0.696742 0.896880 0.811460
0.696895 0.896880 0.811521
0.697200 0.896910 0.811460
0.698054 0.896910 0.811490
0.699275 0.896880 0.811460
0.701015 0.896880 0.811460
0.703182 0.896849 0.811368
0.705989 0.896849 0.811307
0.709346 0.896818 0.811276
0.713313 0.896818 0.811276
0.717800 0.896818 0.811337
0.722896 0.896818 0.811490
0.728298 0.896849 0.811643
0.734188 0.896849 0.811887
0.740566 0.896849 0.812284
0.743893 0.896910 0.810788
0.731624 0.897215 0.798856
0.717006 0.897612 0.784085
0.700069 0.898070 0.765988
0.695430 0.897276 0.752285
0.693324 0.896147 0.736690
0.693751 0.894652 0.718105
0.697719 0.892668 0.695888
0.706569 0.890105 0.668940
0.721889 0.886687 0.637140
0.743893 0.882353 0.598505
0.772732 0.876951 0.551232
0.807462 0.870298 0.494881
0.847135 0.863127 0.425605
0.891020 0.856626 0.337743
0.936919 0.853971 0.230289
0.956909 0.842069 0.191440
0.711055 0.900816 0.819028
0.711208 0.900816 0.819089
0.711513 0.900816 0.819059
0.712245 0.900847 0.819089
0.713375 0.900816 0.819089
0.714931 0.900847 0.819089
0.716976 0.900847 0.819120
0.719661 0.900877 0.819211
0.722896 0.900877 0.819333
0.726528 0.900908 0.819486
0.730709 0.900938 0.819669
0.735256 0.900969 0.819852
0.740291 0.900999 0.820157
0.745510 0.901030 0.820401
0.751034 0.901030 0.820737
0.756741 0.901030 0.821103
0.753140 0.901244 0.815427
0.741390 0.901640 0.803738
0.728054 0.902159 0.789761
0.715602 0.902464 0.774319
0.712428 0.901762 0.761929
0.711086 0.900847 0.747555
0.711727 0.899626 0.730495
0.715419 0.898039 0.710109
0.723201 0.895933 0.685481
0.736568 0.893217 0.656367
0.756069 0.889586 0.620966
0.781949 0.884977 0.577874
0.813962 0.879362 0.524865
0.851560 0.873136 0.460243
0.894224 0.867399 0.378485
0.940093 0.865476 0.287175
0.725917 0.904723 0.826871
0.725948 0.904723 0.826871
0.726253 0.904723 0.826871
0.726741 0.904692 0.826841
0.727596 0.904692 0.826780
0.728878 0.904692 0.826749
0.730556 0.904662 0.826749
0.732631 0.904631 0.826719
0.735164 0.904631 0.826719
0.738155 0.904601 0.826749
0.741573 0.904601 0.826749
0.745327 0.904570 0.826841
0.749508 0.904570 0.826963
0.754055 0.904540 0.827146
