20 Preset/Japan Style/【3】LUT video cho PR-AE-FCPX/LUT VIDEO (2)/Japan Style LUT (27).cube
# Created by Adobe Lightroom plugin Export LUT (1.24.0)
# www.johnrellis.com/lightroom/exportlut.htm
# Preset: 27日系胶片（素材江湖）
# Color profile: C:\Program Files (x86)\Common Files\Adobe\Color\Profiles\Recommended\VideoHD.icc
LUT_3D_SIZE 32
DOMAIN_MIN 0.0 0.0 0.0
DOMAIN_MAX 1.0 1.0 1.0
0.000000 0.089082 0.122438
0.000000 0.089082 0.122438
0.000000 0.088899 0.122713
0.000000 0.089387 0.123171
0.008637 0.090150 0.123903
0.024781 0.091096 0.124544
0.049836 0.092103 0.125429
0.081453 0.093568 0.126223
0.102754 0.094575 0.126925
0.125185 0.095613 0.127535
0.151339 0.096071 0.127962
0.180484 0.095583 0.128511
0.213474 0.094331 0.128481
0.249943 0.090852 0.128450
0.289982 0.081147 0.128115
0.333165 0.055787 0.127626
0.379431 0.018555 0.126284
0.428748 0.000000 0.124910
0.479988 0.000000 0.122286
0.532769 0.000000 0.119631
0.585534 0.000000 0.115755
0.644739 0.000000 0.110597
0.701839 0.000000 0.103975
0.754177 0.000000 0.096345
0.801144 0.000000 0.085664
0.843748 0.000000 0.065492
0.883330 0.000000 0.039918
0.920928 0.000000 0.013245
0.956878 0.000000 0.000000
0.991363 0.000000 0.000000
1.000000 0.000000 0.000000
1.000000 0.000000 0.000000
0.000000 0.089540 0.122957
0.000000 0.089540 0.122683
0.000000 0.089723 0.122652
0.000000 0.089845 0.123140
0.007935 0.090608 0.123842
0.026062 0.091463 0.124514
0.049104 0.092561 0.125399
0.080385 0.093660 0.125948
0.101900 0.095094 0.126894
0.124056 0.096162 0.127504
0.149752 0.096803 0.127932
0.178408 0.096529 0.128206
0.211185 0.095094 0.128511
0.247288 0.091646 0.128511
0.286870 0.084108 0.128176
0.329778 0.062043 0.127413
0.375860 0.025391 0.126131
0.424811 0.000000 0.124514
0.475868 0.000000 0.122530
0.528161 0.000000 0.119661
0.580468 0.000000 0.115877
0.638331 0.000000 0.111055
0.694179 0.000000 0.104982
0.745571 0.000000 0.097200
0.792325 0.000000 0.087984
0.834928 0.000000 0.069429
0.874784 0.000000 0.044343
0.912840 0.000000 0.018738
0.949584 0.000000 0.000000
0.984771 0.000000 0.000000
1.000000 0.000000 0.000000
1.000000 0.000000 0.000000
0.000000 0.091157 0.124178
0.000000 0.091157 0.124178
0.000000 0.091066 0.123903
0.000000 0.092012 0.123232
0.008362 0.092683 0.123659
0.026459 0.093538 0.124331
0.049836 0.094575 0.124941
0.081453 0.095918 0.125734
0.102449 0.097322 0.126680
0.124544 0.098421 0.127016
0.150118 0.099062 0.127443
0.179171 0.099031 0.127687
0.211490 0.098116 0.127962
0.247288 0.095308 0.127932
0.286717 0.089601 0.127565
0.329564 0.074830 0.126741
0.375433 0.039826 0.125704
0.424353 0.000000 0.124056
0.475257 0.000000 0.121736
0.527428 0.000000 0.118807
0.579675 0.000000 0.115297
0.637568 0.000000 0.110018
0.692042 0.000000 0.103670
0.742824 0.000000 0.096254
0.789090 0.000000 0.086610
0.831266 0.000000 0.068299
0.871214 0.000000 0.041810
0.909392 0.000000 0.015412
0.946197 0.000000 0.000000
0.981598 0.000000 0.000000
1.000000 0.000000 0.000000
1.000000 0.000000 0.000000
0.000000 0.095186 0.127596
0.000000 0.095186 0.127321
0.000000 0.095521 0.126772
0.000000 0.094881 0.126802
0.002228 0.096742 0.126040
0.026490 0.098238 0.123323
0.051240 0.099153 0.124483
0.083803 0.100343 0.125032
0.105318 0.101808 0.125673
0.127352 0.103059 0.126497
0.153109 0.104219 0.126864
0.181888 0.104799 0.127047
0.214237 0.104128 0.127260
0.250431 0.102266 0.126864
0.289250 0.098268 0.126650
0.331731 0.090364 0.125795
0.377173 0.067475 0.124361
0.425147 0.022553 0.122652
0.475654 0.000000 0.120424
0.526818 0.000000 0.117556
0.578393 0.000000 0.113649
0.635248 0.000000 0.108248
0.688075 0.000000 0.101930
0.738277 0.000000 0.094179
0.785031 0.000000 0.082368
0.828458 0.000000 0.059876
0.869291 0.000000 0.032410
0.908232 0.000000 0.005890
0.945495 0.000000 0.000000
0.980896 0.000000 0.000000
1.000000 0.000000 0.000000
1.000000 0.000000 0.000000
0.000000 0.101228 0.132204
0.000000 0.101167 0.132204
0.000000 0.101564 0.130617
0.000000 0.101656 0.130068
0.000000 0.100923 0.130617
0.010468 0.102876 0.129610
0.042695 0.106020 0.126497
0.087465 0.108125 0.123903
0.107942 0.109682 0.124788
0.130831 0.111574 0.124971
0.156558 0.113069 0.125551
0.185794 0.113924 0.125643
0.218387 0.114290 0.125429
0.254826 0.112917 0.125490
0.294347 0.110384 0.124788
0.336797 0.105043 0.123690
0.382727 0.095247 0.122316
0.431220 0.070558 0.120333
0.481331 0.014710 0.117617
0.532403 0.000000 0.114290
0.585534 0.000000 0.109957
0.640040 0.000000 0.104341
0.691432 0.000000 0.097444
0.740719 0.000000 0.088472
0.786740 0.000000 0.069276
0.829801 0.000000 0.041993
0.870237 0.000000 0.016297
0.908598 0.000000 0.000000
0.945342 0.000000 0.000000
0.980255 0.000000 0.000000
1.000000 0.000000 0.000000
1.000000 0.009277 0.000000
0.000000 0.110140 0.137667
0.000000 0.110140 0.137667
0.000000 0.110506 0.135500
0.000000 0.110597 0.134463
0.000000 0.110536 0.134188
0.000000 0.109499 0.134981
0.019043 0.112001 0.134127
0.069886 0.116976 0.129854
0.109682 0.121706 0.125734
0.136965 0.124971 0.123690
0.164126 0.126589 0.123293
0.194461 0.128145 0.123201
0.227848 0.129091 0.123049
0.264805 0.129061 0.122530
0.305058 0.127321 0.121614
0.348455 0.123873 0.120394
0.394690 0.117037 0.118349
0.443458 0.105928 0.115877
0.493721 0.088350 0.112886
0.544091 0.030579 0.109041
0.598871 0.000000 0.103517
0.651911 0.000000 0.096712
0.748196 0.000000 0.064851
0.795315 0.000000 0.034302
0.837797 0.000000 0.007172
0.876768 0.000000 0.000000
0.912963 0.000000 0.000000
0.947326 0.000000 0.000000
0.979675 0.000000 0.000000
1.000000 0.077974 0.000000
1.000000 0.137240 0.000000
1.000000 0.180575 0.000000
0.000000 0.125490 0.145480
0.000000 0.125734 0.145235
0.000000 0.126009 0.143435
0.000000 0.126467 0.140414
0.000000 0.126589 0.139162
0.000000 0.125704 0.139406
0.008118 0.123964 0.140444
0.042878 0.127047 0.140169
0.101167 0.135042 0.134554
0.139986 0.141787 0.128634
0.180667 0.147982 0.122988
0.214359 0.150332 0.121004
0.250767 0.152926 0.118410
0.289860 0.153475 0.116762
0.331548 0.152346 0.115541
0.375738 0.149569 0.113466
0.422339 0.144564 0.110964
0.471015 0.136477 0.107668
0.520836 0.125704 0.103578
0.575433 0.110811 0.097200
0.633448 0.090455 0.088869
0.688716 0.043458 0.068727
0.741665 0.002930 0.037079
0.790463 0.000000 0.006073
0.834714 0.000000 0.000000
0.874388 0.000000 0.000000
0.910430 0.031281 0.000000
0.944182 0.087251 0.000000
0.976104 0.119326 0.000000
1.000000 0.149660 0.000000
1.000000 0.179782 0.000000
1.000000 0.211582 0.000000
0.000000 0.144472 0.154116
0.000000 0.144656 0.153872
0.000000 0.144900 0.152010
0.000000 0.145388 0.147066
0.000000 0.145663 0.145693
0.000000 0.145846 0.143984
0.000000 0.144167 0.144961
0.025483 0.142184 0.146609
0.078096 0.145388 0.147921
0.125154 0.155703 0.139895
0.169924 0.164279 0.132204
0.217136 0.171908 0.124331
0.262791 0.176761 0.117830
0.303136 0.178561 0.114015
0.346166 0.179629 0.109377
0.391638 0.180026 0.103914
0.438331 0.177066 0.100435
0.486580 0.171969 0.096407
0.537774 0.165835 0.089906
0.592920 0.158511 0.076692
0.646693 0.150942 0.051453
0.698665 0.144350 0.022766
0.748379 0.139986 0.000000
0.794675 0.138796 0.000000
0.837034 0.142092 0.000000
0.875364 0.148043 0.000000
0.910704 0.156680 0.000000
0.943511 0.168399 0.000000
0.974823 0.183536 0.000000
1.000000 0.202304 0.000000
1.000000 0.223667 0.000000
1.000000 0.247684 0.000000
0.000000 0.169375 0.165011
0.000000 0.169528 0.164828
0.000000 0.169894 0.162905
0.000000 0.170352 0.157290
0.000000 0.170596 0.153811
0.000000 0.170657 0.152010
0.000000 0.170108 0.150668
0.000671 0.168368 0.152193
0.064393 0.166476 0.154116
0.106966 0.169284 0.157351
0.155673 0.181827 0.147097
0.206271 0.192294 0.136385
0.259892 0.200992 0.125368
0.316106 0.208133 0.113191
0.364080 0.210056 0.105318
0.409827 0.210300 0.098756
0.457893 0.210330 0.089998
0.509606 0.210727 0.068330
0.562646 0.209995 0.038270
0.614160 0.206729 0.014374
0.664454 0.203738 0.000000
0.713008 0.202396 0.000000
0.759487 0.202762 0.000000
0.802853 0.204196 0.000000
0.842985 0.207584 0.000000
0.879606 0.212009 0.000000
0.913603 0.218784 0.000000
0.945403 0.227298 0.000000
0.975769 0.238254 0.000000
1.000000 0.251102 0.000000
1.000000 0.267613 0.000000
1.000000 0.286412 0.000000
0.000000 0.200290 0.178012
0.000000 0.200259 0.177676
0.000000 0.200656 0.176272
0.000000 0.200900 0.170413
0.000000 0.201297 0.163821
0.000000 0.201114 0.161837
0.000000 0.200748 0.158999
0.000000 0.199710 0.158724
0.037232 0.197818 0.160891
0.103853 0.195712 0.163363
0.139315 0.199252 0.166873
0.190188 0.212955 0.156435
0.246891 0.224918 0.142092
0.305943 0.234440 0.126650
0.368017 0.242161 0.108919
0.432136 0.248631 0.087678
0.483955 0.249485 0.062562
0.535729 0.250706 0.027161
0.587152 0.252293 0.000000
0.637201 0.255039 0.000000
0.684962 0.258183 0.000000
0.729061 0.257877 0.000000
0.770565 0.258396 0.000000
0.809934 0.260288 0.000000
0.846677 0.262364 0.000000
0.881193 0.265843 0.000000
0.913787 0.270451 0.000000
0.944823 0.276829 0.000000
0.974640 0.285313 0.000000
1.000000 0.296056 0.000000
1.000000 0.309300 0.000000
1.000000 0.325078 0.000000
0.000000 0.235782 0.192264
0.000000 0.235752 0.192111
0.000000 0.236271 0.190951
0.000000 0.236576 0.185550
0.000000 0.237156 0.176761
0.000000 0.237247 0.173068
0.000000 0.237064 0.170260
0.000000 0.237064 0.166690
0.000000 0.235508 0.168246
0.096437 0.233707 0.170840
0.139406 0.231662 0.174044
0.177066 0.234684 0.178134
0.232609 0.250675 0.167788
0.297307 0.265507 0.148989
0.364446 0.276768 0.127749
0.433082 0.286046 0.101686
0.501854 0.293797 0.037751
0.561425 0.298039 0.000000
0.609979 0.299168 0.000000
0.656519 0.301183 0.000000
0.701228 0.304204 0.000000
0.743313 0.308782 0.000000
0.783322 0.314794 0.000000
0.819974 0.315648 0.000000
0.854734 0.316960 0.000000
0.887510 0.319615 0.000000
0.918669 0.322972 0.000000
0.948363 0.327581 0.000000
0.976989 0.334020 0.000000
1.000000 0.342229 0.000000
1.000000 0.352850 0.000000
1.000000 0.365942 0.000000
0.000000 0.278843 0.209354
0.000000 0.279118 0.209018
0.000000 0.279515 0.207736
0.000000 0.279850 0.202945
0.000000 0.280430 0.193912
0.000000 0.280674 0.186404
0.000000 0.280583 0.183017
0.000000 0.280583 0.178958
0.000000 0.280064 0.175906
0.045991 0.279393 0.178805
0.140230 0.278599 0.182681
0.185550 0.277867 0.186831
0.250553 0.300511 0.197726
0.318364 0.321569 0.187045
0.393713 0.338323 0.158877
0.468452 0.350683 0.124941
0.540337 0.359838 0.062226
0.607660 0.367803 0.000000
0.669612 0.375525 0.000000
0.715206 0.377600 0.000000
0.753933 0.378119 0.000000
0.790005 0.379492 0.000000
0.824277 0.382361 0.000000
0.856962 0.386664 0.000000
0.887694 0.390478 0.000000
0.916014 0.390265 0.000000
0.942718 0.390784 0.000000
0.968444 0.392340 0.000000
0.993408 0.395697 0.000000
1.000000 0.400610 0.000000
1.000000 0.407782 0.000000
1.000000 0.417090 0.000000
0.000000 0.340856 0.233127
0.000000 0.341070 0.232761
0.000000 0.341100 0.231449
0.000000 0.341405 0.226383
0.000000 0.341375 0.216464
0.000000 0.341711 0.203799
0.000000 0.341650 0.200229
0.000000 0.341344 0.195590
0.000000 0.341772 0.190585
0.000000 0.342138 0.189364
0.136904 0.343084 0.193362
0.204074 0.344488 0.198611
0.256260 0.345647 0.204654
0.303624 0.348241 0.211795
0.377173 0.372412 0.204227
0.454200 0.389990 0.170535
0.527733 0.402197 0.129397
0.595697 0.410864 0.039063
0.657679 0.418036 0.000000
0.713405 0.424323 0.000000
0.761501 0.428901 0.000000
0.795560 0.427466 0.000000
0.828000 0.427466 0.000000
0.859312 0.429267 0.000000
0.889220 0.432380 0.000000
0.917449 0.436561 0.000000
0.943786 0.437934 0.000000
0.968872 0.438178 0.000000
0.993378 0.439704 0.000000
1.000000 0.443397 0.000000
1.000000 0.448737 0.000000
1.000000 0.456123 0.000000
0.000000 0.402106 0.257481
0.000000 0.401770 0.257176
0.000000 0.401465 0.255619
0.000000 0.401007 0.250065
0.000000 0.400000 0.239902
0.000000 0.399481 0.226047
0.000000 0.398657 0.216953
0.000000 0.397589 0.211887
0.000000 0.396979 0.206027
0.000000 0.397009 0.199588
0.096162 0.397925 0.201236
0.198184 0.399298 0.206699
0.263920 0.400671 0.212894
0.318059 0.401648 0.220096
0.364630 0.401221 0.227787
0.438422 0.425025 0.224826
0.512779 0.441657 0.185977
0.581537 0.452888 0.139834
0.644831 0.461219 0.039979
0.701320 0.466926 0.000000
0.751369 0.470924 0.000000
0.796933 0.474739 0.000000
0.834012 0.475990 0.000000
0.864103 0.475257 0.000000
0.892851 0.475959 0.000000
0.920073 0.477852 0.000000
0.946044 0.481025 0.000000
0.970855 0.484352 0.000000
0.994476 0.484657 0.000000
1.000000 0.486397 0.000000
1.000000 0.490211 0.000000
1.000000 0.495857 0.000000
0.000000 0.462226 0.284398
0.000000 0.462074 0.283635
0.000000 0.461646 0.281987
0.000000 0.460700 0.277317
0.000000 0.459266 0.266606
0.000000 0.457862 0.251347
0.000000 0.456825 0.235752
0.000000 0.455299 0.230472
0.000000 0.454139 0.224216
0.000000 0.453742 0.217075
0.000000 0.453681 0.210025
0.185489 0.455116 0.215824
0.266239 0.456703 0.222202
0.329747 0.457496 0.229892
0.383459 0.457404 0.237797
0.429145 0.455695 0.246250
0.498238 0.476570 0.249912
0.567834 0.492195 0.207584
0.631983 0.502495 0.158297
0.689235 0.509117 0.082216
0.740261 0.513146 0.000000
0.786618 0.516075 0.000000
0.828885 0.518791 0.000000
0.867643 0.521721 0.000000
0.896788 0.521050 0.000000
0.923003 0.520623 0.000000
0.948150 0.521508 0.000000
0.972595 0.524315 0.000000
0.996460 0.528923 0.000000
1.000000 0.530541 0.000000
1.000000 0.533349 0.000000
1.000000 0.537926 0.000000
0.000000 0.518700 0.312932
0.000000 0.518853 0.312749
0.000000 0.518761 0.311223
0.000000 0.518486 0.307897
0.000000 0.517784 0.297398
0.000000 0.517235 0.282750
0.000000 0.517327 0.262455
0.000000 0.516503 0.254582
0.000000 0.515679 0.248081
0.000000 0.514763 0.240909
0.000000 0.513573 0.232120
0.169619 0.512444 0.227665
0.267308 0.512352 0.234409
0.337530 0.511742 0.241611
0.395392 0.510307 0.249607
0.445319 0.508202 0.257908
0.489052 0.505821 0.267033
0.551812 0.523796 0.279332
0.616419 0.538506 0.235294
0.675105 0.547662 0.185580
0.727596 0.553185 0.120974
0.775540 0.556817 0.000000
0.818997 0.559564 0.000000
0.858976 0.561730 0.000000
0.895048 0.563806 0.000000
0.927123 0.565545 0.000000
0.951507 0.564721 0.000000
0.975189 0.565484 0.000000
0.998260 0.568017 0.000000
1.000000 0.572534 0.000000
1.000000 0.575067 0.000000
1.000000 0.577813 0.000000
0.000000 0.571527 0.344671
0.000000 0.571527 0.344549
0.000000 0.571496 0.342931
0.000000 0.571405 0.340429
0.000000 0.570886 0.331182
0.000000 0.570703 0.316655
0.000000 0.570611 0.297124
0.000000 0.570214 0.281346
0.000000 0.568902 0.275059
0.000000 0.567559 0.267430
0.000000 0.566003 0.258793
0.136049 0.563836 0.248234
0.264958 0.562768 0.248875
0.342382 0.562005 0.256016
0.405432 0.560693 0.264286
0.459022 0.558679 0.272709
0.505730 0.556542 0.282048
0.547021 0.554314 0.292149
0.604730 0.570550 0.308782
0.661860 0.583062 0.269810
0.715175 0.591150 0.222171
0.764096 0.596063 0.164645
0.808530 0.599390 0.042267
0.849363 0.601556 0.000000
0.886320 0.603143 0.000000
0.920104 0.604517 0.000000
0.951141 0.606348 0.000000
0.977264 0.607202 0.000000
0.999664 0.608057 0.000000
1.000000 0.610559 0.000000
1.000000 0.614649 0.000000
1.000000 0.617884 0.000000
0.000000 0.622950 0.381964
0.000000 0.623194 0.381781
0.000000 0.644556 0.398657
0.000000 0.644465 0.396307
0.000000 0.644099 0.387610
0.000000 0.643549 0.373999
0.000000 0.643244 0.354681
0.000000 0.643000 0.329747
0.000000 0.641199 0.322637
0.000000 0.639185 0.314885
0.000000 0.636744 0.305303
0.166171 0.633783 0.294560
0.296757 0.629572 0.281468
0.375067 0.627497 0.287755
0.437812 0.624994 0.295689
0.491188 0.622095 0.303990
0.537438 0.618677 0.312627
0.578607 0.615259 0.321996
0.614923 0.611963 0.332311
0.665126 0.624811 0.350469
0.713344 0.633997 0.320500
0.760983 0.640223 0.273411
0.804746 0.643824 0.221073
0.844755 0.645563 0.154879
0.880980 0.645869 0.000000
0.914122 0.645777 0.000000
0.944762 0.645777 0.000000
0.973419 0.646357 0.000000
1.000000 0.648066 0.000000
1.000000 0.649012 0.000000
1.000000 0.651179 0.000000
1.000000 0.654871 0.000000
0.000000 0.673426 0.427619
0.000000 0.675227 0.428779
0.000000 0.676997 0.429603
0.000000 0.678492 0.429297
0.000000 0.679500 0.424018
0.000000 0.679713 0.411383
0.000000 0.679561 0.394415
0.000000 0.679377 0.371496
0.000000 0.678157 0.356725
0.000000 0.676051 0.348943
0.000000 0.673671 0.339879
0.150607 0.670893 0.329778
0.286748 0.667018 0.317357
0.373724 0.663142 0.308202
0.437720 0.661189 0.316533
0.492592 0.658747 0.324743
0.540764 0.656336 0.333715
0.583795 0.653773 0.343664
0.622431 0.651514 0.354284
0.657282 0.649622 0.365972
0.703639 0.661555 0.385290
0.747127 0.670619 0.366918
0.791501 0.676783 0.322087
0.831937 0.679957 0.273869
0.868803 0.681270 0.217380
0.902739 0.681422 0.141573
0.934081 0.681300 0.000000
0.963317 0.681453 0.000000
0.990845 0.682246 0.000000
1.000000 0.683955 0.000000
1.000000 0.686122 0.000000
1.000000 0.688258 0.000000
0.000000 0.708919 0.465614
0.000000 0.710475 0.467475
0.000000 0.712184 0.468482
0.000000 0.713466 0.468452
0.000000 0.714504 0.464942
0.000000 0.714839 0.454139
0.000000 0.714870 0.438972
0.000000 0.714717 0.418616
0.000000 0.714321 0.397009
0.000000 0.712184 0.389136
0.000000 0.709804 0.380743
0.173709 0.707179 0.370459
0.293614 0.703731 0.358984
0.376593 0.699825 0.345830
0.443214 0.696651 0.342901
0.497749 0.694820 0.351446
0.546227 0.692714 0.360479
0.589593 0.690517 0.370062
0.628840 0.688594 0.380682
0.664607 0.687007 0.392523
0.696956 0.685695 0.404913
0.738125 0.695674 0.425269
0.777707 0.705287 0.418555
0.818479 0.710964 0.375708
0.855802 0.713802 0.329992
0.890257 0.714961 0.279515
0.922118 0.715450 0.220859
0.952026 0.715602 0.138033
0.980285 0.716182 0.000000
1.000000 0.717250 0.000000
1.000000 0.718959 0.000000
1.000000 0.721096 0.000000
0.000000 0.742031 0.507622
0.000000 0.743313 0.509453
0.000000 0.744594 0.510369
0.000000 0.745724 0.510491
0.000000 0.746395 0.508446
0.000000 0.746731 0.499001
0.000000 0.746853 0.485267
0.000000 0.746792 0.467781
0.000000 0.746914 0.445106
0.000000 0.745449 0.433448
0.000000 0.743252 0.424964
0.220310 0.740871 0.415747
0.313237 0.737942 0.404730
0.386023 0.734524 0.392370
0.450904 0.730404 0.378027
0.505547 0.728450 0.382391
0.553796 0.727108 0.391974
0.597803 0.725948 0.402930
0.637934 0.725154 0.414618
0.674891 0.724666 0.427497
0.708553 0.724697 0.441932
0.739162 0.724941 0.457252
0.774685 0.733303 0.479500
0.810391 0.743679 0.484840
0.847807 0.749325 0.445289
0.882414 0.752560 0.403296
0.914702 0.754238 0.358404
0.944976 0.755306 0.309361
0.973602 0.756191 0.253056
1.000000 0.757107 0.178256
1.000000 0.758206 0.000000
1.000000 0.759548 0.000000
0.000000 0.779477 0.563806
0.000000 0.779934 0.564508
0.000000 0.780179 0.564446
0.064637 0.780209 0.563684
0.130861 0.780087 0.561578
0.124666 0.779904 0.553368
0.096162 0.779782 0.541100
0.004913 0.779690 0.525505
0.000000 0.779812 0.505638
0.013611 0.779477 0.487617
0.211612 0.777707 0.480293
0.292058 0.775631 0.471290
0.357275 0.773098 0.460914
0.415625 0.770108 0.449134
0.470527 0.766690 0.435737
0.522148 0.763058 0.423255
0.568017 0.761593 0.432624
0.609888 0.760250 0.442756
0.648219 0.759152 0.454017
0.683680 0.758206 0.466163
0.715969 0.757565 0.479164
0.745510 0.757229 0.493172
0.772091 0.757107 0.507652
0.801541 0.762631 0.528405
0.832700 0.772671 0.543267
0.867002 0.778286 0.506584
0.899504 0.781857 0.467964
0.930205 0.784298 0.427527
0.959380 0.786007 0.384405
0.986999 0.787411 0.337377
1.000000 0.788693 0.282719
1.000000 0.789883 0.212894
0.261509 0.805417 0.608453
0.264195 0.805722 0.609033
0.270329 0.805966 0.608911
0.279789 0.806027 0.608148
0.293034 0.805875 0.606714
0.295354 0.805753 0.600885
0.288975 0.805722 0.590967
0.279362 0.805722 0.577295
0.268650 0.805936 0.560662
0.257023 0.806302 0.540337
0.304051 0.804990 0.532097
0.353216 0.803281 0.523827
0.400458 0.801266 0.514519
0.446601 0.798886 0.503807
0.492256 0.796139 0.491707
0.537041 0.793057 0.478553
0.581018 0.790524 0.472999
0.621057 0.789456 0.483284
0.657984 0.788540 0.494636
0.692073 0.787839 0.506767
0.723507 0.787350 0.519677
0.752285 0.787137 0.533501
0.778439 0.787106 0.547814
0.801968 0.787320 0.562463
0.823392 0.787686 0.573693
0.850889 0.797879 0.596612
0.882658 0.803861 0.565332
0.913146 0.808103 0.532280
0.942473 0.811154 0.496620
0.970489 0.813626 0.459083
0.997284 0.815793 0.419593
1.000000 0.817655 0.375952
0.382361 0.832456 0.658045
0.385473 0.832914 0.658961
0.388678 0.833097 0.658991
0.393317 0.832853 0.658015
0.399420 0.832334 0.656001
0.402136 0.831754 0.651331
0.396307 0.831235 0.642359
0.388190 0.830838 0.630152
0.380163 0.830564 0.615778
0.370703 0.830411 0.597711
0.380041 0.829526 0.583276
0.412329 0.827695 0.575555
0.446021 0.825650 0.566613
0.480629 0.823331 0.556176
0.516381 0.820584 0.544701
0.552941 0.817655 0.531579
0.590784 0.814450 0.517144
0.628382 0.812497 0.518090
0.663386 0.811673 0.528954
0.696590 0.811124 0.541131
0.727138 0.810910 0.553796
0.755154 0.810788 0.566918
0.780606 0.810758 0.580194
0.803586 0.810636 0.592981
0.824155 0.810483 0.605921
0.844846 0.812741 0.621027
0.868620 0.822599 0.649561
0.897520 0.828519 0.623224
0.925689 0.833066 0.595544
0.953002 0.836790 0.567254
0.979431 0.839994 0.537438
1.000000 0.842832 0.506035
0.452705 0.851957 0.694057
0.454810 0.852384 0.694911
0.457771 0.852567 0.695064
0.461463 0.852567 0.694606
0.466712 0.852323 0.693477
0.473243 0.851987 0.691585
0.469703 0.851957 0.684627
0.465217 0.852079 0.675715
0.460395 0.852232 0.664637
0.455024 0.852537 0.650965
0.449836 0.852811 0.634607
0.473182 0.851499 0.628290
0.498390 0.849973 0.621180
0.524956 0.848112 0.612512
0.553002 0.845914 0.602808
0.582574 0.843412 0.591608
0.613642 0.840757 0.579309
0.646113 0.838010 0.566125
0.678279 0.837034 0.574121
0.708919 0.836484 0.585168
0.737484 0.836210 0.596765
0.764004 0.836149 0.608820
0.788357 0.836210 0.621180
0.810452 0.836332 0.633448
0.830533 0.836484 0.645655
0.848692 0.836759 0.657557
0.866331 0.838315 0.671138
0.888060 0.847868 0.697414
0.913115 0.854246 0.683345
0.938720 0.859464 0.663294
0.963470 0.863676 0.642695
0.987152 0.867094 0.620874
0.522423 0.872465 0.732937
0.523430 0.872648 0.733211
0.525139 0.872709 0.733120
0.527794 0.872587 0.732723
0.531518 0.872374 0.731685
0.536797 0.872007 0.730373
0.535698 0.871916 0.725338
0.531945 0.871946 0.717983
0.527947 0.872068 0.708949
0.523491 0.872313 0.697993
0.518212 0.872648 0.684169
0.527001 0.872160 0.675074
0.545800 0.870939 0.669154
0.566400 0.869474 0.662257
0.588647 0.867674 0.654047
0.612085 0.865721 0.644770
0.637598 0.863523 0.634546
0.664668 0.861295 0.623651
0.693294 0.859403 0.616297
0.721462 0.858915 0.626246
0.747951 0.858671 0.636713
0.772732 0.858579 0.647639
0.795560 0.858610 0.658595
0.816587 0.858671 0.669795
0.835843 0.858793 0.680751
0.853391 0.859007 0.691463
0.869505 0.859373 0.702510
0.884428 0.860197 0.713588
0.904448 0.869322 0.737087
0.925719 0.875608 0.732113
0.948577 0.880858 0.717250
0.970733 0.885466 0.702846
0.579767 0.890288 0.766720
0.580560 0.890440 0.766964
0.581964 0.890501 0.767117
0.584344 0.890471 0.766903
0.587762 0.890440 0.766445
0.592798 0.890440 0.765896
0.595758 0.890776 0.763760
0.595239 0.891417 0.759426
0.594385 0.892241 0.753719
0.593591 0.893217 0.746883
0.592248 0.894316 0.738003
0.593378 0.895201 0.728786
0.609155 0.894896 0.725734
0.625696 0.894316 0.721675
0.643214 0.893431 0.716548
0.661402 0.892180 0.710109
0.680995 0.890684 0.702510
0.701961 0.889128 0.694270
0.724605 0.887572 0.685451
0.748653 0.886595 0.685023
0.771786 0.886412 0.694148
0.793698 0.886320 0.703670
0.813993 0.886351 0.713130
0.832853 0.886412 0.722591
0.850248 0.886503 0.731807
0.866270 0.886595 0.740841
0.880919 0.886625 0.749508
0.894408 0.886778 0.758175
0.906767 0.887114 0.766751
0.923644 0.894499 0.784848
0.940917 0.900450 0.787015
0.960632 0.905791 0.777951
0.647242 0.911498 0.807614
0.647395 0.911498 0.807553
0.648066 0.911437 0.807340
0.649378 0.911315 0.807004
0.651606 0.911162 0.806455
0.654780 0.910979 0.805722
0.658015 0.910857 0.804440
0.656153 0.911101 0.800168
0.654383 0.911406 0.795071
0.652186 0.911833 0.788693
0.649897 0.912352 0.781125
0.647303 0.912963 0.772000
0.654353 0.912810 0.766629
0.666560 0.912169 0.762905
