20 Preset/Japan Style/【3】LUT video cho PR-AE-FCPX/LUT VIDEO (2)/Japan Style LUT (14).cube
# Created by Adobe Lightroom plugin Export LUT (1.24.0)
# www.johnrellis.com/lightroom/exportlut.htm
# Preset: 14日系清新（素材江湖）
# Color profile: C:\Program Files (x86)\Common Files\Adobe\Color\Profiles\Recommended\VideoHD.icc
LUT_3D_SIZE 32
DOMAIN_MIN 0.0 0.0 0.0
DOMAIN_MAX 1.0 1.0 1.0
0.162783 0.151125 0.167880
0.163455 0.151034 0.167880
0.165560 0.150973 0.168032
0.170474 0.151553 0.168063
0.181094 0.152712 0.168215
0.201328 0.154849 0.168032
0.233066 0.158968 0.167178
0.273472 0.165011 0.165499
0.319585 0.172976 0.162875
0.369390 0.184024 0.159091
0.423499 0.196963 0.153475
0.480629 0.212222 0.146059
0.540368 0.228672 0.136233
0.601831 0.246372 0.122805
0.661769 0.263737 0.105165
0.717250 0.279942 0.078309
0.768002 0.295598 0.014405
0.813779 0.309819 0.000000
0.854002 0.322332 0.000000
0.892546 0.335119 0.000000
0.925231 0.346166 0.000000
0.952789 0.355901 0.000000
0.976349 0.364202 0.000000
0.996948 0.372045 0.000000
1.000000 0.378943 0.000000
1.000000 0.385534 0.000000
1.000000 0.391424 0.000000
1.000000 0.397040 0.000000
1.000000 0.402136 0.000000
1.000000 0.407324 0.000000
1.000000 0.412085 0.000000
1.000000 0.416510 0.000000
0.162905 0.151278 0.168215
0.163272 0.151247 0.168032
0.165743 0.151766 0.167941
0.170779 0.152132 0.167971
0.181277 0.153506 0.167941
0.201572 0.155978 0.167697
0.232670 0.160189 0.166842
0.272679 0.166293 0.165347
0.318334 0.174685 0.162692
0.367956 0.185397 0.158755
0.421210 0.198703 0.153109
0.478035 0.213382 0.145846
0.537713 0.229648 0.136294
0.599054 0.247044 0.123079
0.658808 0.264652 0.105440
0.714504 0.280827 0.078950
0.765560 0.296391 0.015412
0.811643 0.310216 0.000000
0.851926 0.323247 0.000000
0.890288 0.335424 0.000000
0.922606 0.346471 0.000000
0.950225 0.355749 0.000000
0.973785 0.364263 0.000000
0.994507 0.371923 0.000000
1.000000 0.379065 0.000000
1.000000 0.385229 0.000000
1.000000 0.391241 0.000000
1.000000 0.396826 0.000000
1.000000 0.402075 0.000000
1.000000 0.407141 0.000000
1.000000 0.411872 0.000000
1.000000 0.416419 0.000000
0.163363 0.153231 0.169223
0.163729 0.153170 0.169039
0.165438 0.153597 0.168612
0.171176 0.155062 0.167971
0.182742 0.157076 0.167483
0.203464 0.160708 0.166903
0.234592 0.165774 0.165866
0.273838 0.172885 0.164004
0.318456 0.182010 0.161349
0.367468 0.192447 0.157534
0.420356 0.205417 0.152041
0.476875 0.220005 0.144625
0.536004 0.236118 0.134646
0.596643 0.253361 0.121462
0.656580 0.270512 0.103395
0.712062 0.286595 0.072511
0.763272 0.301701 0.008667
0.809415 0.315435 0.000000
0.850278 0.327825 0.000000
0.888304 0.339910 0.000000
0.920684 0.350256 0.000000
0.948241 0.359625 0.000000
0.971923 0.367651 0.000000
0.992798 0.374975 0.000000
1.000000 0.381842 0.000000
1.000000 0.387671 0.000000
1.000000 0.393622 0.000000
1.000000 0.398962 0.000000
1.000000 0.404242 0.000000
1.000000 0.409125 0.000000
1.000000 0.413581 0.000000
1.000000 0.417914 0.000000
0.163790 0.157839 0.171115
0.164034 0.157992 0.170932
0.166079 0.157931 0.171237
0.170260 0.159396 0.169955
0.184237 0.163455 0.167880
0.206363 0.169528 0.166354
0.238529 0.177310 0.164462
0.276524 0.185306 0.162356
0.320531 0.194797 0.159457
0.368383 0.205936 0.155123
0.420661 0.219028 0.149233
0.475959 0.233371 0.141695
0.534722 0.249485 0.131075
0.594781 0.266270 0.117159
0.653925 0.282841 0.097932
0.709041 0.298314 0.056825
0.760006 0.312474 0.000000
0.806027 0.325566 0.000000
0.847410 0.337560 0.000000
0.884611 0.348638 0.000000
0.916594 0.358221 0.000000
0.944182 0.366766 0.000000
0.968200 0.374365 0.000000
0.989624 0.381109 0.000000
1.000000 0.387335 0.000000
1.000000 0.393133 0.000000
1.000000 0.398718 0.000000
1.000000 0.403845 0.000000
1.000000 0.408606 0.000000
1.000000 0.413214 0.000000
1.000000 0.417456 0.000000
1.000000 0.421546 0.000000
0.163119 0.169345 0.174838
0.163210 0.169345 0.174502
0.166171 0.169375 0.174624
0.170626 0.170474 0.173861
0.181918 0.173861 0.170779
0.208103 0.180484 0.166690
0.239536 0.190402 0.164004
0.278508 0.202243 0.160250
0.322515 0.214084 0.155947
0.369207 0.225620 0.151125
0.419959 0.238346 0.145052
0.474617 0.252689 0.136812
0.532036 0.268254 0.125704
0.591638 0.284977 0.109895
0.650416 0.300999 0.088411
0.705226 0.315862 0.030884
0.756435 0.329107 0.000000
0.802701 0.341466 0.000000
0.844755 0.352789 0.000000
0.881559 0.362524 0.000000
0.913512 0.371038 0.000000
0.941161 0.378637 0.000000
0.965332 0.385351 0.000000
0.987091 0.391241 0.000000
1.000000 0.396857 0.000000
1.000000 0.402228 0.000000
1.000000 0.407050 0.000000
1.000000 0.411688 0.000000
1.000000 0.415778 0.000000
1.000000 0.419898 0.000000
1.000000 0.423682 0.000000
1.000000 0.427314 0.000000
0.156771 0.191379 0.180148
0.157382 0.191501 0.179965
0.160464 0.191257 0.178805
0.171023 0.190829 0.180453
0.181125 0.194766 0.176242
0.202548 0.199252 0.170565
0.237705 0.205295 0.164370
0.278752 0.218967 0.159365
0.321996 0.233188 0.153841
0.370153 0.249241 0.146365
0.421118 0.264439 0.137911
0.474922 0.278599 0.128450
0.531456 0.293980 0.115785
0.590173 0.309972 0.097444
0.648188 0.325383 0.054475
0.702846 0.339300 0.000000
0.753567 0.351690 0.000000
0.800320 0.363165 0.000000
0.842588 0.373083 0.000000
0.879118 0.381567 0.000000
0.910948 0.388952 0.000000
0.938659 0.395361 0.000000
0.975769 0.406073 0.000000
0.996246 0.410803 0.000000
1.000000 0.414984 0.000000
1.000000 0.418891 0.000000
1.000000 0.422431 0.000000
1.000000 0.425940 0.000000
1.000000 0.429236 0.000000
1.000000 0.432380 0.000000
1.000000 0.435340 0.000000
1.000000 0.438239 0.000000
0.141665 0.227268 0.189242
0.142306 0.227268 0.188632
0.145998 0.227329 0.186252
0.162264 0.227054 0.187778
0.181186 0.227909 0.188052
0.201389 0.232517 0.179049
0.234073 0.236820 0.169833
0.273320 0.238682 0.160922
0.325322 0.256474 0.151614
0.373022 0.272801 0.143252
0.425208 0.290806 0.132052
0.480720 0.310552 0.116457
0.537957 0.328222 0.096651
0.596002 0.343633 0.054658
0.652613 0.357794 0.000000
0.705653 0.370245 0.000000
0.755703 0.381292 0.000000
0.803769 0.391974 0.000000
0.845304 0.400427 0.000000
0.881773 0.407568 0.000000
0.913909 0.413642 0.000000
0.942260 0.418769 0.000000
0.967315 0.423224 0.000000
0.989502 0.427222 0.000000
1.000000 0.430732 0.000000
1.000000 0.433906 0.000000
1.000000 0.436561 0.000000
1.000000 0.439063 0.000000
1.000000 0.441627 0.000000
1.000000 0.443885 0.000000
1.000000 0.446204 0.000000
1.000000 0.448310 0.000000
0.118776 0.268345 0.202182
0.120241 0.268498 0.201602
0.125032 0.268650 0.198856
0.145846 0.268650 0.199039
0.177554 0.268070 0.203555
0.200046 0.271061 0.196506
0.229282 0.275334 0.183291
0.269291 0.278630 0.169528
0.312047 0.278508 0.156924
0.370092 0.295598 0.141848
0.421149 0.313634 0.129549
0.475593 0.333013 0.112459
0.532677 0.353368 0.085481
0.591424 0.373999 0.000000
0.647578 0.390173 0.000000
0.700465 0.401678 0.000000
0.751888 0.412726 0.000000
0.798154 0.421363 0.000000
0.839109 0.428107 0.000000
0.875242 0.433692 0.000000
0.907317 0.438270 0.000000
0.935851 0.442023 0.000000
0.961273 0.445045 0.000000
0.983948 0.447730 0.000000
1.000000 0.450172 0.000000
1.000000 0.452094 0.000000
1.000000 0.453590 0.000000
1.000000 0.455177 0.000000
1.000000 0.456733 0.000000
1.000000 0.458167 0.000000
1.000000 0.459571 0.000000
1.000000 0.461006 0.000000
0.075227 0.315709 0.221256
0.080903 0.315892 0.220584
0.091890 0.316228 0.218021
0.118898 0.316625 0.216251
0.165103 0.316289 0.221134
0.205356 0.316533 0.225864
0.228367 0.320439 0.209598
0.264805 0.323705 0.190768
0.309209 0.325872 0.171054
0.355962 0.324681 0.152010
0.417853 0.338689 0.127962
0.471504 0.358251 0.108339
0.527672 0.378271 0.072114
0.585290 0.398413 0.000000
0.642878 0.417914 0.000000
0.697200 0.435035 0.000000
0.747280 0.446967 0.000000
0.792386 0.454017 0.000000
0.832700 0.459297 0.000000
0.868742 0.463233 0.000000
0.900908 0.466041 0.000000
0.929503 0.468482 0.000000
0.955230 0.470222 0.000000
0.978210 0.471473 0.000000
0.998688 0.472480 0.000000
1.000000 0.473091 0.000000
1.000000 0.473610 0.000000
1.000000 0.474098 0.000000
1.000000 0.474495 0.000000
1.000000 0.474922 0.000000
1.000000 0.475471 0.000000
1.000000 0.475929 0.000000
0.000000 0.368933 0.245853
0.000000 0.368933 0.245335
0.000000 0.369177 0.243198
0.030213 0.370001 0.238468
0.141176 0.369940 0.243595
0.198581 0.369909 0.251255
0.233768 0.371588 0.245853
0.263798 0.374640 0.225071
0.304997 0.376623 0.201419
0.352575 0.377295 0.175113
0.402258 0.375219 0.147555
0.462562 0.382971 0.112215
0.523033 0.405188 0.059052
0.580926 0.425940 0.000000
0.637171 0.444434 0.000000
0.690455 0.460517 0.000000
0.740291 0.474739 0.000000
0.785702 0.486732 0.000000
0.826169 0.493050 0.000000
0.862089 0.495460 0.000000
0.894072 0.496895 0.000000
0.922667 0.497414 0.000000
0.948272 0.497536 0.000000
0.971313 0.497414 0.000000
0.992004 0.496925 0.000000
1.000000 0.496162 0.000000
1.000000 0.495552 0.000000
1.000000 0.494728 0.000000
1.000000 0.494209 0.000000
1.000000 0.493690 0.000000
1.000000 0.493294 0.000000
1.000000 0.492866 0.000000
0.000000 0.425208 0.274601
0.000000 0.425269 0.274113
0.000000 0.425788 0.272038
0.000000 0.426734 0.267552
0.094484 0.427283 0.270054
0.180453 0.427893 0.277714
0.243198 0.428351 0.287999
0.268620 0.431098 0.268528
0.303960 0.433143 0.243076
0.349523 0.434638 0.214237
0.400549 0.434119 0.180880
0.452949 0.431800 0.143526
0.509667 0.432593 0.093202
0.575830 0.454566 0.000000
0.630976 0.472419 0.000000
0.683314 0.487800 0.000000
0.732540 0.500999 0.000000
0.777646 0.511955 0.000000
0.817868 0.520623 0.000000
0.853788 0.527398 0.000000
0.885954 0.529290 0.000000
0.914824 0.528405 0.000000
0.940856 0.527214 0.000000
0.964324 0.525597 0.000000
0.985534 0.523735 0.000000
1.000000 0.521813 0.000000
1.000000 0.519890 0.000000
1.000000 0.518029 0.000000
1.000000 0.516320 0.000000
1.000000 0.514702 0.000000
1.000000 0.513298 0.000000
1.000000 0.511925 0.000000
0.000000 0.486152 0.307866
0.000000 0.486244 0.307530
0.000000 0.486854 0.305638
0.000000 0.487984 0.302068
0.000000 0.489357 0.301396
0.152010 0.490150 0.309148
0.231998 0.491676 0.319493
0.282261 0.493507 0.320684
0.309911 0.495613 0.294926
0.349248 0.496681 0.264927
0.397009 0.496040 0.229984
0.449226 0.493568 0.190463
0.515892 0.502678 0.143191
0.569818 0.495888 0.039063
0.640253 0.514702 0.000000
0.692012 0.528679 0.000000
0.739864 0.540185 0.000000
0.783230 0.548913 0.000000
0.822080 0.555413 0.000000
0.856809 0.560235 0.000000
0.888060 0.563622 0.000000
0.915709 0.566003 0.000000
0.940948 0.563989 0.000000
0.963775 0.560327 0.000000
0.984436 0.556512 0.000000
1.000000 0.552758 0.000000
1.000000 0.548943 0.000000
1.000000 0.545556 0.000000
1.000000 0.542290 0.000000
1.000000 0.539300 0.000000
1.000000 0.536553 0.000000
1.000000 0.534020 0.000000
0.000000 0.554650 0.352270
0.000000 0.554650 0.351812
0.000000 0.554742 0.349950
0.000000 0.555444 0.346715
0.000000 0.556054 0.343084
0.129427 0.556146 0.350347
0.227970 0.556634 0.360235
0.299260 0.557366 0.372992
0.329625 0.558862 0.358526
0.358068 0.559808 0.328405
0.398108 0.560113 0.294316
0.446967 0.559167 0.255009
0.500572 0.556146 0.209873
0.555871 0.550713 0.153323
0.606439 0.539361 0.037751
0.680262 0.555962 0.000000
0.728084 0.567193 0.000000
0.771511 0.575341 0.000000
0.810391 0.581018 0.000000
0.845212 0.584955 0.000000
0.876585 0.587488 0.000000
0.904997 0.589105 0.000000
0.930663 0.589899 0.000000
0.953857 0.590173 0.000000
0.975250 0.586175 0.000000
0.994720 0.581323 0.000000
1.000000 0.576440 0.000000
1.000000 0.571862 0.000000
1.000000 0.567437 0.000000
1.000000 0.563439 0.000000
1.000000 0.559686 0.000000
1.000000 0.556146 0.000000
0.000000 0.606744 0.393164
0.000000 0.606622 0.392584
0.000000 0.606683 0.391211
0.000000 0.606867 0.388281
0.000000 0.607294 0.384375
0.133791 0.607202 0.389105
0.231937 0.607294 0.398291
0.303166 0.607599 0.409857
0.360693 0.608484 0.420050
0.375128 0.609674 0.392065
0.402228 0.610193 0.359655
0.440681 0.609583 0.323125
0.487709 0.607538 0.280735
0.539452 0.603449 0.232364
0.593500 0.596857 0.171969
0.644312 0.585229 0.065278
0.712093 0.592859 0.000000
0.759304 0.602472 0.000000
0.798672 0.607691 0.000000
0.833799 0.610834 0.000000
0.865568 0.612634 0.000000
0.894530 0.613519 0.000000
0.920775 0.613703 0.000000
0.944701 0.613184 0.000000
0.966400 0.612238 0.000000
0.986084 0.611017 0.000000
1.000000 0.605432 0.000000
1.000000 0.599725 0.000000
1.000000 0.594232 0.000000
1.000000 0.589136 0.000000
1.000000 0.584344 0.000000
1.000000 0.579889 0.000000
0.000000 0.651698 0.435462
0.000000 0.651606 0.435004
0.000000 0.651606 0.433936
0.000000 0.651637 0.431861
0.101869 0.651759 0.429053
0.180728 0.651698 0.430579
0.256352 0.651362 0.438758
0.321294 0.651362 0.449592
0.380194 0.651698 0.462837
0.410895 0.652552 0.457374
0.423133 0.653407 0.427893
0.447028 0.653529 0.393835
0.481483 0.652369 0.355352
0.525017 0.649409 0.311162
0.574121 0.644404 0.259678
0.625788 0.637110 0.198001
0.676081 0.625788 0.108125
0.737545 0.627375 0.000000
0.786740 0.634943 0.000000
0.822324 0.637629 0.000000
0.854704 0.638819 0.000000
0.884062 0.639063 0.000000
0.910796 0.638453 0.000000
0.935210 0.637263 0.000000
0.957427 0.635554 0.000000
0.977752 0.633570 0.000000
0.996429 0.631342 0.000000
1.000000 0.628992 0.000000
1.000000 0.622431 0.000000
1.000000 0.616297 0.000000
1.000000 0.610651 0.000000
1.000000 0.605280 0.000000
0.171511 0.688502 0.477821
0.174594 0.688563 0.477790
0.182193 0.688655 0.477150
0.195346 0.688838 0.475929
0.216190 0.689143 0.474525
0.246403 0.689479 0.474159
0.301335 0.689448 0.482124
0.354528 0.689509 0.492012
0.406256 0.689631 0.504082
0.456336 0.690028 0.518120
0.463081 0.690730 0.496895
0.471870 0.690944 0.465858
0.490730 0.690181 0.430152
0.520104 0.688075 0.389471
0.558312 0.684260 0.343206
0.603265 0.678645 0.291112
0.652430 0.671168 0.228794
0.701503 0.660670 0.147127
0.757717 0.657710 0.000000
0.809995 0.664332 0.000000
0.842985 0.665309 0.000000
0.873106 0.665126 0.000000
0.900542 0.664057 0.000000
0.925536 0.662257 0.000000
0.948363 0.659937 0.000000
0.969268 0.657313 0.000000
0.988525 0.654475 0.000000
1.000000 0.651484 0.000000
1.000000 0.648463 0.000000
1.000000 0.644770 0.000000
1.000000 0.637934 0.000000
1.000000 0.631525 0.000000
0.270298 0.719234 0.518883
0.271183 0.719234 0.518669
0.274937 0.719295 0.518334
0.283360 0.719478 0.517906
0.295781 0.719753 0.517082
0.312444 0.720241 0.516136
0.348974 0.720211 0.521691
0.391547 0.720058 0.530297
0.434485 0.719966 0.540490
0.477760 0.719966 0.552422
0.507927 0.720302 0.555901
0.508232 0.720943 0.530602
0.515251 0.720821 0.500572
0.530510 0.719783 0.465339
0.555077 0.717494 0.423560
0.588586 0.713680 0.376928
0.629572 0.708248 0.324407
0.675471 0.701259 0.263920
0.722927 0.691798 0.188510
0.774838 0.685603 0.000000
0.831113 0.692378 0.000000
0.861845 0.691707 0.000000
0.889921 0.690150 0.000000
0.915557 0.687831 0.000000
0.938842 0.684962 0.000000
0.960296 0.681758 0.000000
0.980102 0.678279 0.000000
0.998474 0.674678 0.000000
1.000000 0.671046 0.000000
1.000000 0.667506 0.000000
1.000000 0.663905 0.000000
1.000000 0.659022 0.000000
0.346197 0.745846 0.558038
0.346929 0.745907 0.558038
0.366979 0.751766 0.567224
0.372259 0.751888 0.567041
0.380560 0.752102 0.566522
0.392065 0.752346 0.566217
0.413672 0.752285 0.569024
0.445228 0.751949 0.576074
0.479561 0.751614 0.584680
0.515373 0.751339 0.594842
0.551232 0.751064 0.606226
0.559960 0.751431 0.595972
0.558404 0.751553 0.571008
0.562585 0.750973 0.541344
0.573938 0.749477 0.506889
0.593347 0.746975 0.466560
0.621210 0.743038 0.419196
0.656886 0.737789 0.366308
0.698726 0.730983 0.306249
0.744015 0.722347 0.234714
0.792325 0.714137 0.132143
0.849577 0.718715 0.000000
0.880735 0.718624 0.000000
0.906523 0.715450 0.000000
0.930175 0.711604 0.000000
0.951751 0.707454 0.000000
0.971740 0.703182 0.000000
0.990326 0.698817 0.000000
1.000000 0.694514 0.000000
1.000000 0.690303 0.000000
1.000000 0.686152 0.000000
1.000000 0.681971 0.000000
0.414435 0.769528 0.596460
0.416175 0.770016 0.597223
0.419715 0.770565 0.597925
0.425391 0.771023 0.598596
0.432990 0.771481 0.599207
0.442267 0.771786 0.599359
0.455909 0.771969 0.600397
0.481331 0.771572 0.606317
0.509361 0.771115 0.613642
0.539147 0.770718 0.622095
0.569787 0.770352 0.631708
0.598871 0.770077 0.640803
0.593744 0.770535 0.620539
0.591852 0.770596 0.596460
0.594934 0.770047 0.568322
0.604456 0.768704 0.535363
0.621118 0.766415 0.496864
0.645472 0.763119 0.452125
0.677455 0.758633 0.400732
0.715999 0.752865 0.342901
0.759091 0.745541 0.275608
0.804257 0.736812 0.190158
0.860105 0.740810 0.000000
0.895079 0.741329 0.000000
0.919310 0.737087 0.000000
0.941588 0.732509 0.000000
0.962158 0.727687 0.000000
0.981201 0.722805 0.000000
0.998993 0.718044 0.000000
1.000000 0.713313 0.000000
1.000000 0.708705 0.000000
1.000000 0.704128 0.000000
0.467140 0.787411 0.627588
0.469032 0.787778 0.628443
0.471748 0.788296 0.629114
0.476387 0.788693 0.629938
0.482460 0.789090 0.630518
0.490059 0.789334 0.630976
0.499306 0.789548 0.631250
0.517876 0.789242 0.635492
0.540551 0.788815 0.641566
0.565026 0.788388 0.648524
0.590723 0.787961 0.656519
0.617304 0.787564 0.665370
0.629603 0.787533 0.663142
0.625208 0.787961 0.644221
0.623560 0.787900 0.621607
0.625788 0.787442 0.594812
0.633478 0.786252 0.563348
0.647639 0.784360 0.527031
0.669062 0.781582 0.485451
0.697414 0.777798 0.436744
0.732326 0.772885 0.380865
0.772671 0.766659 0.317052
0.816220 0.759426 0.240208
0.868864 0.761227 0.118990
0.908080 0.762722 0.000000
0.930907 0.757778 0.000000
0.952026 0.752529 0.000000
0.971710 0.747219 0.000000
0.990021 0.741939 0.000000
1.000000 0.736812 0.000000
1.000000 0.731838 0.000000
1.000000 0.726925 0.000000
0.514122 0.803281 0.656458
0.515312 0.803616 0.656977
0.517632 0.803952 0.657649
0.521141 0.804288 0.658350
0.525994 0.804593 0.658900
0.532006 0.804776 0.659327
0.539422 0.804959 0.659632
0.551843 0.804868 0.661952
0.570184 0.804471 0.666926
0.590539 0.804044 0.672816
0.612360 0.803586 0.679591
0.634821 0.803189 0.686976
0.657710 0.802792 0.694972
0.657465 0.803128 0.683986
0.653651 0.803433 0.666011
0.652369 0.803464 0.645045
0.654627 0.803128 0.620630
0.661189 0.802396 0.591485
0.673487 0.801083 0.558129
0.692317 0.799039 0.519524
0.717769 0.796139 0.475135
0.749447 0.792294 0.423194
0.786618 0.787320 0.362768
0.828519 0.781643 0.292241
0.878202 0.782071 0.200839
0.921721 0.785061 0.067353
0.943267 0.779477 0.050050
0.963409 0.773800 0.037446
0.982177 0.768185 0.022980
0.999756 0.762570 0.033997
1.000000 0.757168 0.042878
1.000000 0.751919 0.044678
0.560784 0.819211 0.686061
0.561425 0.819333 0.686275
0.562585 0.819425 0.686488
0.564782 0.819486 0.686641
0.568109 0.819577 0.686793
0.572625 0.819577 0.686976
0.578454 0.819669 0.687282
0.586023 0.819730 0.687953
0.600977 0.819364 0.692103
0.617731 0.818967 0.697047
0.635798 0.818570 0.702602
0.654902 0.818173 0.708919
0.674525 0.817746 0.715694
0.689235 0.817502 0.718776
0.684596 0.817990 0.704707
0.681392 0.818265 0.688167
0.680354 0.818326 0.668910
0.682277 0.818082 0.646326
0.687892 0.817472 0.619867
0.698299 0.816373 0.588800
0.714321 0.814664 0.552544
0.736507 0.812222 0.511131
0.764736 0.808865 0.462776
0.798489 0.804562 0.405554
0.837949 0.799954 0.339239
0.884520 0.799496 0.259281
0.931670 0.803433 0.155093
0.953002 0.798367 0.153719
0.972259 0.792538 0.153750
0.990356 0.786740 0.152926
1.000000 0.781033 0.155184
1.000000 0.775143 0.158572
0.596338 0.831662 0.709224
0.596826 0.831754 0.709438
0.597864 0.831815 0.709621
0.599756 0.831907 0.709773
0.602411 0.831968 0.709926
0.606012 0.831998 0.710109
0.610803 0.832059 0.710445
0.616571 0.832120 0.710780
0.627466 0.831907 0.713527
0.641474 0.831540 0.717678
0.656703 0.831174 0.722408
0.672877 0.830808 0.727718
0.689631 0.830411 0.733394
0.706966 0.830045 0.739590
0.711543 0.830198 0.735561
0.707668 0.830686 0.722560
0.705226 0.831052 0.707393
0.704555 0.831235 0.689754
0.706569 0.831174 0.669306
0.711788 0.830777 0.645197
0.721096 0.830045 0.617273
0.735042 0.828794 0.584283
0.754482 0.826932 0.545953
0.779751 0.824277 0.501396
0.809537 0.819791 0.446235
0.846342 0.816281 0.384039
0.889952 0.815396 0.311864
0.937011 0.818845 0.221683
0.961822 0.816312 0.208682
0.980316 0.810452 0.210636
0.997498 0.804257 0.211032
1.000000 0.798062 0.210330
0.630854 0.843748 0.732113
0.631342 0.843870 0.732326
0.632288 0.843931 0.732509
0.633539 0.843931 0.732509
0.635401 0.843870 0.732479
0.638056 0.843809 0.732418
0.641474 0.843717 0.732387
0.645899 0.843656 0.732509
0.652857 0.843473 0.733639
0.664118 0.843046 0.736843
0.676509 0.842588 0.740566
0.689967 0.842161 0.744839
0.704250 0.841672 0.749569
0.719020 0.841215 0.754665
0.734066 0.840726 0.760037
0.730678 0.841154 0.750088
0.727321 0.841611 0.737819
0.725246 0.841978 0.723659
0.725032 0.842252 0.707485
0.727169 0.842374 0.688746
0.732204 0.842222 0.667079
0.740688 0.841794 0.641810
0.753262 0.840879 0.611872
0.770413 0.839414 0.576318
0.792844 0.837278 0.534936
0.820768 0.834379 0.486702
0.854765 0.831754 0.430884
0.895537 0.830838 0.364172
0.941161 0.834348 0.286503
0.969818 0.833402 0.257603
0.987213 0.827115 0.258824
1.000000 0.820951 0.259892
0.657618 0.853513 0.750210
0.658137 0.853635 0.750454
0.658869 0.853696 0.750607
0.660029 0.853727 0.750729
0.661738 0.853727 0.750820
0.664210 0.853727 0.750942
0.667292 0.853758 0.751095
0.671229 0.853788 0.751369
0.676020 0.853819 0.751797
0.685451 0.853513 0.754604
0.696071 0.853178 0.757839
0.707698 0.852811 0.761563
0.719966 0.852415 0.765621
0.732692 0.852018 0.769955
0.745693 0.851591 0.774533
0.753292 0.851469 0.774868
0.749844 0.851987 0.765011
0.747219 0.852506 0.753841
0.745754 0.852964 0.741054
0.746029 0.853391 0.726467
0.748226 0.853635 0.709529
0.753048 0.853727 0.690181
0.760739 0.853574 0.667536
0.772030 0.853025 0.640864
0.787442 0.852110 0.609674
0.807462 0.850645 0.572473
0.832609 0.848600 0.529015
0.863676 0.846677 0.478340
0.901244 0.845792 0.418189
0.944579 0.849332 0.349096
0.977234 0.850431 0.308537
0.993530 0.844266 0.311131
0.683894 0.863096 0.768154
0.684138 0.863127 0.768246
0.684688 0.863188 0.768338
0.685634 0.863188 0.768429
0.687037 0.863188 0.768490
0.688991 0.863157 0.768551
0.691554 0.863157 0.768673
0.694820 0.863127 0.768887
0.698665 0.863188 0.769192
0.705226 0.863035 0.770748
0.714229 0.862699 0.773495
0.724117 0.862364 0.776669
0.734554 0.862028 0.780056
0.745602 0.861662 0.783780
0.757015 0.861234 0.787747
0.768582 0.860838 0.791928
0.769833 0.861143 0.787625
0.767208 0.861753 0.778775
0.765316 0.862394 0.768704
0.764492 0.863005 0.757168
0.765194 0.863554 0.744167
0.767666 0.864012 0.729183
0.772152 0.864317 0.711818
0.779141 0.864317 0.691432
0.789181 0.863981 0.667384
0.802731 0.863310 0.639033
0.820615 0.862211 0.605524
0.843137 0.860594 0.564996
0.871580 0.859342 0.519066
0.906157 0.858885 0.466041
0.947021 0.862638 0.405890
0.983185 0.866026 0.356237
0.707210 0.871733 0.784268
0.707424 0.871763 0.784360
0.707851 0.871794 0.784421
0.708766 0.871824 0.784573
0.710048 0.871855 0.784665
0.711849 0.871885 0.784848
0.714321 0.872038 0.785183
0.717525 0.872129 0.785702
0.721370 0.872313 0.786374
0.726101 0.872465 0.787320
0.734249 0.872374 0.790066
0.743069 0.872221 0.793088
0.752377 0.872068 0.796323
0.762051 0.871824 0.799680
0.772030 0.871580 0.803281
0.782162 0.871244 0.806943
0.791470 0.871000 0.809995
0.789090 0.871733 0.803189
0.787045 0.872404 0.795285
0.785763 0.873106 0.786374
0.785458 0.873777 0.776242
0.786282 0.874388 0.764675
0.788540 0.874846 0.751247
0.792599 0.875242 0.735805
0.798825 0.875425 0.717739
0.807736 0.875425 0.696651
0.819974 0.875090 0.671595
0.835966 0.874449 0.642237
0.856168 0.873442 0.607233
0.881621 0.872801 0.566522
0.913237 0.873350 0.521508
0.950103 0.876890 0.471565
0.732998 0.880949 0.802060
0.733028 0.880949 0.802029
0.733364 0.880919 0.802090
0.733944 0.880919 0.802121
0.734890 0.880919 0.802090
0.736263 0.880888 0.802182
0.738033 0.880888 0.802335
0.740322 0.880888 0.802518
0.743099 0.880919 0.802762
0.746365 0.880980 0.803098
0.752041 0.880797 0.804685
0.759121 0.880552 0.806943
0.766751 0.880247 0.809445
0.774838 0.879942 0.812161
