20 Preset/Japan Style/【3】LUT video cho PR-AE-FCPX/LUT VIDEO (2)/Japan Style LUT (10).cube
# Created by Adobe Lightroom plugin Export LUT (1.24.0)
# www.johnrellis.com/lightroom/exportlut.htm
# Preset: 10日系清新（素材江湖）
# Color profile: C:\Program Files (x86)\Common Files\Adobe\Color\Profiles\Recommended\VideoHD.icc
LUT_3D_SIZE 8
DOMAIN_MIN 0.000000 0.000000 0.000000
DOMAIN_MAX 0.903226 0.903226 0.903226
0.000000 0.000000 0.000000
0.181552 0.000000 0.000000
0.407385 0.000000 0.000000
0.582696 0.000000 0.000000
0.731380 0.028138 0.077516
0.843046 0.134463 0.147036
0.923888 0.195499 0.205936
0.987579 0.246220 0.256352
0.000000 0.161593 0.112825
0.154330 0.177218 0.057710
0.394018 0.199680 0.002441
0.573938 0.194278 0.024414
0.724300 0.198459 0.105531
0.836851 0.216800 0.163638
0.917906 0.245426 0.216709
0.983215 0.278752 0.263828
0.000000 0.349279 0.246983
0.111421 0.341405 0.249149
0.313542 0.372137 0.173770
0.556237 0.363867 0.139986
0.703914 0.391089 0.190158
0.819120 0.381384 0.226383
0.904662 0.378271 0.265537
0.972076 0.382727 0.302068
0.128481 0.500786 0.380957
0.175418 0.497047 0.381567
0.283696 0.481758 0.391394
0.439490 0.527153 0.297520
0.687892 0.487892 0.233402
0.789822 0.530236 0.305272
0.877287 0.523522 0.337896
0.948669 0.508965 0.361547
0.214908 0.621424 0.488899
0.236088 0.619196 0.489204
0.305394 0.610315 0.492805
0.352270 0.610437 0.475837
0.536278 0.643824 0.391943
0.771542 0.571374 0.300908
0.853574 0.602594 0.370855
0.915404 0.632227 0.435401
0.318822 0.707515 0.578729
0.329747 0.706966 0.579980
0.367864 0.702022 0.582727
0.429725 0.692103 0.591211
0.451759 0.704616 0.555962
0.612482 0.726375 0.479591
0.830594 0.658412 0.374060
0.908049 0.663294 0.428443
0.426856 0.775387 0.659876
0.432319 0.774807 0.660487
0.452857 0.771847 0.662440
0.489723 0.765957 0.667475
0.537987 0.756466 0.677150
0.548394 0.777737 0.630213
0.682307 0.793210 0.564202
0.870573 0.748135 0.463569
0.523003 0.833585 0.731289
0.526085 0.833219 0.731655
0.538964 0.831724 0.733639
0.563409 0.828855 0.738094
0.595148 0.822934 0.743984
0.606683 0.825620 0.735409
0.641077 0.842008 0.702113
0.752407 0.853056 0.649622
0.000000 0.000000 0.198734
0.190829 0.000000 0.199741
0.404150 0.000000 0.202335
0.571832 0.000000 0.206546
0.718685 0.123690 0.223301
0.831571 0.183322 0.247349
0.912871 0.231693 0.275792
0.979156 0.272953 0.306249
0.000000 0.195438 0.201450
0.168978 0.193851 0.201846
0.391424 0.194980 0.206241
0.564263 0.204074 0.216526
0.713466 0.220920 0.232944
0.826749 0.244694 0.256168
0.908537 0.272068 0.283055
0.975525 0.300999 0.311833
0.100465 0.370428 0.294652
0.192905 0.365179 0.299840
0.315679 0.376440 0.266209
0.543023 0.383062 0.253330
0.693904 0.397223 0.274266
0.809201 0.390570 0.292393
0.895048 0.389105 0.315404
0.964630 0.393988 0.340368
0.190097 0.509178 0.405524
0.219974 0.505730 0.405371
0.306462 0.491432 0.411231
0.437232 0.525658 0.341405
0.676326 0.494820 0.293523
0.778927 0.537804 0.350622
0.869078 0.526055 0.370581
0.942290 0.513573 0.389075
0.243595 0.625422 0.502312
0.261448 0.623194 0.502251
0.322240 0.614374 0.504448
0.373632 0.608667 0.494759
0.534783 0.642115 0.416358
0.764584 0.576165 0.338537
0.847196 0.608270 0.400885
0.910857 0.634333 0.455940
0.333471 0.708644 0.586023
0.342992 0.707515 0.586542
0.378851 0.702785 0.589014
0.437842 0.693233 0.596887
0.461097 0.703212 0.567590
0.612146 0.725643 0.495552
0.827817 0.659144 0.396857
0.903716 0.667597 0.449653
0.433417 0.775570 0.663478
0.438117 0.774746 0.663691
0.457923 0.771786 0.665431
0.493935 0.766110 0.670192
0.541314 0.757076 0.679713
0.552331 0.776761 0.636713
0.682033 0.792294 0.573358
0.868376 0.747890 0.476814
0.525750 0.833585 0.732967
0.529107 0.833310 0.733547
0.541650 0.831846 0.735378
0.565789 0.829007 0.739742
0.599023 0.824094 0.746761
0.613092 0.825437 0.740200
0.643519 0.841794 0.706477
0.752956 0.852903 0.655299
0.000000 0.000000 0.424567
0.171817 0.000000 0.424537
0.388190 0.000000 0.422644
0.560723 0.094148 0.409461
0.703212 0.178073 0.404700
0.810971 0.248814 0.408820
0.891569 0.303258 0.418738
0.960540 0.342473 0.431006
0.000000 0.199313 0.422583
0.138735 0.198032 0.422187
0.375769 0.202945 0.420508
0.550225 0.220859 0.411139
0.695338 0.251133 0.408545
0.804379 0.293095 0.413062
0.887755 0.330327 0.421759
0.957397 0.362066 0.433967
0.000000 0.399573 0.418830
0.000000 0.399115 0.418555
0.340154 0.398047 0.417670
0.521691 0.398260 0.417884
0.674220 0.404273 0.423163
0.788571 0.412390 0.430243
0.875547 0.422583 0.439521
0.946929 0.434272 0.450599
0.000000 0.540215 0.455818
0.184115 0.538262 0.460578
0.365209 0.529686 0.481147
0.446143 0.532616 0.460151
0.652155 0.533501 0.443641
0.760281 0.553491 0.467872
0.852415 0.543969 0.474647
0.926665 0.537957 0.483284
0.283726 0.643030 0.544610
0.315373 0.641505 0.548516
0.378180 0.634577 0.552300
0.446540 0.619776 0.557763
0.538567 0.645411 0.502678
0.745785 0.602319 0.455940
0.828183 0.636347 0.503288
0.897642 0.647364 0.531060
0.389197 0.717250 0.618982
0.396582 0.716335 0.619135
0.425055 0.712001 0.620111
0.473060 0.703182 0.624414
0.503075 0.702113 0.613977
0.615076 0.725948 0.555596
0.820005 0.665003 0.477424
0.888731 0.688167 0.528862
0.464637 0.780514 0.682887
0.468574 0.779782 0.682979
0.485420 0.776913 0.683772
0.516442 0.771511 0.686793
0.558831 0.763027 0.694057
0.572290 0.776303 0.665492
0.685542 0.792721 0.613519
0.863401 0.751614 0.534539
0.542657 0.836210 0.743832
0.545342 0.835813 0.744045
0.557031 0.834379 0.745602
0.579828 0.831846 0.749477
0.610773 0.827054 0.755459
0.637171 0.824247 0.757992
0.654536 0.841581 0.724422
0.755886 0.853147 0.678798
0.000000 0.000000 0.599908
0.081971 0.000000 0.599878
0.344335 0.067414 0.597559
0.531456 0.135134 0.593866
0.687892 0.191379 0.579767
0.796719 0.256657 0.554711
0.876463 0.321111 0.541344
0.941283 0.379187 0.542809
0.000000 0.206485 0.597986
0.058350 0.208682 0.597528
0.339422 0.218021 0.595666
0.525261 0.233799 0.592523
0.681666 0.258274 0.579461
0.790829 0.300969 0.556359
0.871275 0.351659 0.544915
0.936950 0.401282 0.547478
0.000000 0.393011 0.591455
0.000000 0.394598 0.590906
0.322850 0.397986 0.589288
0.502922 0.399512 0.586938
0.657893 0.404822 0.577722
0.768460 0.422461 0.564355
0.852628 0.448859 0.561669
0.921111 0.477394 0.567407
0.000000 0.555138 0.584833
0.000000 0.554650 0.584314
0.275486 0.553460 0.582910
0.467994 0.551904 0.580865
0.620172 0.550225 0.577996
0.732204 0.555230 0.580865
0.824918 0.561486 0.585504
0.901335 0.567498 0.590204
0.000000 0.669703 0.586938
0.115663 0.668238 0.588861
0.324529 0.662623 0.597833
0.488350 0.652613 0.618311
0.556176 0.649439 0.612085
0.712367 0.646021 0.596155
0.798978 0.671931 0.622156
0.876951 0.664607 0.623133
0.357000 0.733242 0.645197
0.377478 0.732723 0.648035
0.444190 0.728817 0.657374
0.522393 0.721675 0.669795
0.569055 0.709743 0.673732
0.624140 0.727657 0.638148
0.795926 0.693690 0.595422
0.863615 0.722194 0.634424
0.486152 0.789578 0.707851
0.495796 0.788998 0.709773
0.525536 0.786587 0.714809
0.551659 0.781888 0.715541
0.587976 0.774319 0.719295
0.607935 0.775814 0.709712
0.691737 0.793576 0.669825
0.855802 0.756954 0.615564
0.570367 0.841642 0.763485
0.572869 0.841337 0.763668
0.583215 0.840024 0.764553
0.603021 0.837430 0.766903
0.630610 0.832914 0.770962
0.664759 0.826627 0.778744
0.673732 0.841184 0.753506
0.761501 0.853758 0.716396
0.000000 0.111025 0.729030
0.000000 0.119020 0.728786
0.297887 0.149416 0.726833
0.478950 0.189700 0.723598
0.639521 0.228489 0.718563
0.776516 0.268559 0.703029
0.861204 0.328618 0.668269
0.929656 0.384039 0.647700
0.000000 0.226078 0.726802
0.000000 0.228824 0.726650
0.301823 0.240330 0.725032
0.477119 0.259281 0.721798
0.635370 0.281102 0.716915
0.771267 0.309606 0.701747
0.856626 0.357610 0.669001
0.925719 0.405371 0.649836
0.000000 0.396857 0.719539
0.134310 0.398535 0.719203
0.311009 0.401007 0.717769
0.469398 0.405219 0.714656
0.619318 0.411597 0.710140
0.749844 0.423407 0.696437
0.838163 0.448585 0.671901
0.909911 0.477089 0.657984
0.000000 0.534966 0.709804
0.052064 0.535973 0.709285
0.302464 0.540764 0.707485
0.462043 0.549248 0.704280
0.596155 0.550378 0.701106
0.715877 0.554467 0.691768
0.807980 0.563439 0.680079
0.884337 0.574212 0.673365
0.000000 0.664393 0.698360
0.000000 0.664332 0.698146
0.269108 0.663722 0.697169
0.439368 0.662959 0.695277
0.573724 0.662074 0.692714
0.682673 0.660426 0.689754
0.778531 0.662715 0.690150
0.858824 0.666590 0.692348
0.132845 0.752926 0.680323
0.195773 0.752041 0.681483
0.329808 0.747646 0.685847
0.463874 0.739590 0.693996
0.586877 0.731960 0.710933
0.641291 0.728450 0.710506
0.768307 0.728756 0.697932
0.839750 0.754330 0.721920
0.407263 0.803128 0.719417
0.419562 0.802426 0.720485
0.465400 0.799741 0.725246
0.542657 0.794919 0.736629
0.618860 0.788113 0.750546
0.656794 0.778683 0.754574
0.700557 0.794217 0.727047
0.846067 0.766476 0.694270
0.534661 0.850431 0.769131
0.542992 0.849973 0.770748
0.576226 0.848081 0.777523
0.628626 0.844999 0.789548
0.653498 0.840940 0.791226
0.684443 0.835264 0.796017
0.699428 0.840085 0.787320
0.768704 0.854154 0.758480
0.000000 0.180148 0.813596
0.000000 0.185946 0.813321
0.264958 0.206790 0.811673
0.430823 0.238804 0.808743
0.577691 0.272923 0.804166
0.714046 0.306920 0.798550
0.842649 0.339910 0.792538
0.915038 0.391974 0.756832
0.000000 0.254459 0.810880
0.001953 0.257633 0.810544
0.276616 0.269322 0.809140
0.432654 0.288121 0.806119
0.576104 0.312016 0.801846
0.710780 0.338445 0.796567
0.838254 0.365881 0.790860
0.911254 0.411109 0.756558
0.148775 0.403326 0.804135
0.196078 0.404211 0.803769
0.311498 0.407691 0.802518
0.441901 0.414160 0.799680
0.573236 0.424628 0.796048
0.700649 0.437812 0.791562
0.822538 0.453010 0.786191
0.897368 0.480873 0.757473
0.206699 0.529412 0.795010
0.244602 0.531670 0.794461
0.350774 0.541497 0.792508
0.462715 0.550072 0.790555
0.573297 0.554070 0.787869
0.686000 0.559167 0.784237
0.796719 0.564691 0.779538
0.874754 0.575647 0.760006
0.200320 0.638880 0.784512
0.237491 0.639796 0.784207
0.341192 0.643641 0.782925
0.462654 0.651118 0.780636
0.574090 0.659266 0.777707
0.670100 0.658717 0.775204
0.770779 0.657282 0.771237
0.851987 0.659083 0.760006
0.200320 0.741115 0.774197
0.236271 0.741238 0.774166
0.332525 0.741024 0.773495
0.444343 0.740688 0.772274
0.552453 0.740108 0.770535
0.656275 0.739834 0.768734
0.749264 0.739010 0.766445
0.829557 0.742519 0.768124
0.241062 0.820554 0.755367
0.264744 0.820310 0.755581
0.342687 0.818662 0.756649
0.454475 0.813870 0.761898
0.568841 0.806821 0.770382
0.675990 0.798154 0.785183
0.718593 0.796628 0.784054
0.825956 0.798398 0.777737
0.448676 0.864469 0.781064
0.458137 0.863981 0.781827
0.495918 0.861997 0.785428
0.559564 0.858366 0.792874
0.640833 0.852842 0.805966
0.708797 0.847074 0.819699
0.740902 0.840574 0.825101
0.779355 0.855772 0.803342
0.000000 0.233585 0.872740
0.014679 0.238956 0.873381
0.254093 0.253147 0.871824
0.398413 0.278264 0.869780
0.530602 0.307591 0.866331
0.655268 0.338781 0.861662
0.773159 0.369635 0.855985
0.885710 0.398352 0.850309
0.000000 0.277897 0.866728
0.114260 0.282353 0.867704
0.264164 0.291875 0.866423
0.398779 0.308324 0.863981
0.527092 0.329595 0.860319
0.648890 0.352941 0.855009
0.764981 0.376562 0.848722
0.876768 0.398535 0.842618
0.205173 0.406470 0.863554
0.231937 0.407507 0.863340
0.312871 0.410132 0.861570
0.420417 0.416815 0.859190
0.533806 0.425940 0.855131
0.648096 0.439002 0.850919
0.761257 0.457282 0.847501
0.871916 0.475776 0.844663
0.312169 0.538018 0.857053
0.330510 0.540124 0.856291
0.382513 0.542412 0.854215
0.460822 0.545739 0.852720
0.552605 0.548730 0.849668
0.653040 0.556115 0.847013
0.755276 0.566125 0.844602
0.858518 0.571344 0.842588
0.301640 0.622187 0.846281
0.316899 0.622004 0.845060
0.380102 0.626337 0.842863
0.473579 0.637110 0.840879
0.564477 0.645899 0.838010
0.648859 0.645716 0.835691
0.740749 0.647456 0.833860
0.841611 0.652796 0.835843
0.290013 0.710170 0.835966
0.309026 0.710964 0.835966
0.372045 0.713283 0.835447
0.460975 0.717525 0.834653
0.557092 0.722774 0.833219
0.656580 0.733181 0.832364
0.737728 0.734737 0.831815
0.824277 0.733455 0.829862
0.291783 0.801266 0.831144
0.311406 0.801877 0.831601
0.368566 0.801816 0.831144
0.454322 0.802121 0.830747
0.548852 0.801816 0.829374
0.643061 0.801846 0.828092
0.731930 0.803311 0.828061
0.811826 0.804654 0.828092
0.306645 0.876371 0.817105
0.322820 0.876249 0.817350
0.385016 0.876280 0.819181
0.466743 0.874723 0.820279
0.568048 0.869688 0.825437
0.667994 0.863005 0.833982
0.761746 0.856077 0.849088
0.793851 0.858030 0.846372
0.000000 0.259922 0.911070
0.109010 0.263249 0.911254
0.240970 0.271122 0.909575
0.365942 0.289311 0.908324
0.485115 0.312474 0.905974
0.599512 0.338018 0.902617
0.710780 0.367041 0.899290
0.817380 0.393469 0.894987
0.066163 0.290806 0.907774
0.140902 0.293889 0.908019
0.251682 0.300389 0.906950
0.369390 0.314000 0.905516
0.485451 0.332921 0.903258
0.598169 0.354467 0.899992
0.707759 0.377996 0.896330
0.813535 0.399908 0.891814
0.204318 0.390417 0.902831
0.226658 0.391608 0.902770
0.295079 0.393957 0.901579
0.394385 0.404974 0.901640
0.496773 0.413977 0.899046
0.600824 0.424537 0.895506
0.706081 0.439796 0.892363
0.809079 0.454688 0.888518
0.301061 0.507652 0.895506
0.314183 0.508751 0.895628
0.357702 0.509606 0.894835
0.430518 0.514061 0.894163
0.516899 0.518975 0.892546
0.609888 0.524407 0.890074
0.707027 0.533165 0.887755
0.804288 0.542290 0.885039
0.314794 0.592187 0.888640
0.331823 0.594690 0.888731
0.382879 0.599939 0.887419
0.468605 0.615442 0.885313
0.537255 0.615595 0.883818
0.617243 0.616175 0.881987
0.705867 0.620233 0.880766
0.798489 0.627405 0.880217
0.293309 0.672541 0.882017
0.305241 0.672297 0.881437
0.354955 0.673487 0.879911
0.437354 0.678859 0.878447
0.533471 0.688960 0.877440
0.632105 0.705562 0.877287
0.715816 0.713832 0.878843
0.800443 0.722683 0.880400
0.303899 0.764279 0.879728
0.317144 0.764431 0.879515
0.367102 0.765438 0.878843
0.447669 0.768673 0.878294
0.541894 0.774289 0.877806
0.638819 0.782925 0.877989
0.728725 0.793210 0.877409
0.798825 0.794034 0.877073
0.316503 0.854826 0.878202
0.328099 0.854673 0.877989
0.377539 0.854704 0.877745
0.458625 0.855558 0.877958
0.548699 0.856413 0.877897
0.638392 0.857084 0.877623
0.726009 0.858000 0.877653
0.804288 0.859068 0.877958
