20 Preset/Japan Style/【3】LUT video cho PR-AE-FCPX/LUT VIDEO (2)/Japan Style LUT (33).cube
# Created by Adobe Lightroom plugin Export LUT (1.24.0)
# www.johnrellis.com/lightroom/exportlut.htm
# Preset: 33日系胶片（素材江湖）
# Color profile: C:\Program Files (x86)\Common Files\Adobe\Color\Profiles\Recommended\VideoHD.icc
LUT_3D_SIZE 8
DOMAIN_MIN 0.000000 0.000000 0.000000
DOMAIN_MAX 0.903226 0.903226 0.903226
0.000000 0.011994 0.014374
0.043793 0.027741 0.026978
0.363287 0.000000 0.046845
0.768063 0.000000 0.010590
1.000000 0.000000 0.000000
1.000000 0.000000 0.119326
1.000000 0.252445 0.236179
1.000000 0.394720 0.344915
0.000000 0.096407 0.091859
0.000000 0.085603 0.088685
0.327337 0.104189 0.046479
0.730739 0.000000 0.000000
1.000000 0.000000 0.000000
1.000000 0.024872 0.113619
1.000000 0.301823 0.231540
1.000000 0.415961 0.342901
0.000000 0.290929 0.243565
0.000000 0.280919 0.243534
0.169100 0.238773 0.231601
0.669947 0.391852 0.034607
0.961547 0.417517 0.000000
1.000000 0.448859 0.159976
1.000000 0.490883 0.288945
1.000000 0.535302 0.393683
0.000000 0.587976 0.509972
0.000000 0.585016 0.517906
0.183658 0.542046 0.495460
0.457984 0.527459 0.519310
0.861357 0.680446 0.469825
1.000000 0.678157 0.349767
1.000000 0.667262 0.393408
1.000000 0.669306 0.472450
0.226963 0.788113 0.718593
0.332128 0.785550 0.722591
0.458808 0.772152 0.721462
0.567437 0.748348 0.703365
0.702815 0.734279 0.729946
0.901915 0.802457 0.708095
1.000000 0.796689 0.606073
1.000000 0.778622 0.576349
0.603845 0.865110 0.826474
0.634424 0.865171 0.830716
0.692653 0.860014 0.834501
0.722957 0.849180 0.829191
0.773434 0.838895 0.815915
0.839414 0.831357 0.837247
0.932464 0.862455 0.830869
1.000000 0.861082 0.776608
0.781949 0.903044 0.886015
0.791501 0.902678 0.887327
0.822538 0.900389 0.890929
0.835019 0.895842 0.889097
0.849973 0.887846 0.885710
0.876890 0.884123 0.878202
0.909209 0.879240 0.891325
0.954162 0.896880 0.886320
0.874846 0.934264 0.925170
0.878630 0.934051 0.925750
0.893400 0.933532 0.928374
0.905455 0.932158 0.929717
0.908110 0.926482 0.925994
0.918914 0.922118 0.924315
0.935027 0.920195 0.921050
0.948974 0.915404 0.927092
0.000000 0.037263 0.100160
0.009949 0.041444 0.090852
0.342748 0.000000 0.085908
0.711879 0.000000 0.009796
0.997528 0.000000 0.000000
1.000000 0.000000 0.106661
1.000000 0.279881 0.222110
1.000000 0.395514 0.330938
0.000000 0.106264 0.118624
0.003082 0.116030 0.120577
0.325475 0.123415 0.115663
0.701198 0.000000 0.041169
0.985260 0.000000 0.000000
1.000000 0.214328 0.105928
1.000000 0.328954 0.224765
1.000000 0.419409 0.332677
0.000000 0.307317 0.262760
0.000000 0.308568 0.275792
0.204318 0.273503 0.270970
0.669490 0.402472 0.184360
0.947204 0.430854 0.106600
1.000000 0.458900 0.147585
1.000000 0.488960 0.270390
1.000000 0.529320 0.377356
0.000000 0.585260 0.509575
0.000000 0.583703 0.517510
0.230930 0.553765 0.511803
0.459083 0.528252 0.523247
0.845457 0.666987 0.473304
1.000000 0.669429 0.383612
1.000000 0.656336 0.366888
1.000000 0.660426 0.452888
0.194797 0.787320 0.717739
0.308446 0.784329 0.720851
0.471992 0.771542 0.723873
0.567895 0.744076 0.704677
0.696956 0.729488 0.726284
0.898009 0.799008 0.707057
1.000000 0.795102 0.614710
1.000000 0.774868 0.565698
0.589014 0.863554 0.823545
0.613703 0.862333 0.825559
0.688319 0.857359 0.831968
0.720089 0.847044 0.827176
0.771572 0.836942 0.815244
0.839170 0.831113 0.837430
0.931914 0.862150 0.831510
1.000000 0.860777 0.779477
0.772793 0.901762 0.883635
0.780606 0.900877 0.884184
0.813016 0.898375 0.887785
0.831571 0.894102 0.887236
0.848417 0.886778 0.884642
0.875212 0.883024 0.877256
0.907439 0.877897 0.890013
0.953155 0.895598 0.884977
0.869932 0.933227 0.923583
0.874540 0.933257 0.924468
0.889708 0.932616 0.927031
0.904326 0.931365 0.929015
0.911254 0.928038 0.927855
0.920470 0.922942 0.925566
0.935393 0.920439 0.921508
0.949310 0.915740 0.927489
0.000000 0.089479 0.253025
0.000000 0.089845 0.248753
0.254887 0.083619 0.230167
0.708064 0.000000 0.256199
1.000000 0.000000 0.259037
1.000000 0.287083 0.268193
1.000000 0.390143 0.245212
1.000000 0.454719 0.353033
0.000000 0.138491 0.279911
0.000000 0.146975 0.286809
0.277256 0.160647 0.268070
0.711025 0.000000 0.281346
0.987121 0.163790 0.288853
1.000000 0.352056 0.295659
1.000000 0.420478 0.260380
1.000000 0.473487 0.355413
0.000000 0.325139 0.366552
0.000000 0.336461 0.371069
0.308751 0.379614 0.390295
0.691402 0.425605 0.399237
0.947601 0.477211 0.401221
1.000000 0.524071 0.396338
1.000000 0.544793 0.363928
1.000000 0.559777 0.393652
0.000000 0.632868 0.559838
0.000000 0.633753 0.567864
0.352941 0.630091 0.598413
0.547936 0.606317 0.610010
0.873564 0.703853 0.585901
1.000000 0.707393 0.566552
1.000000 0.699641 0.535485
1.000000 0.677028 0.469551
0.144411 0.802121 0.735653
0.285313 0.800046 0.738796
0.524681 0.792599 0.753323
0.636042 0.770474 0.751125
0.742123 0.763027 0.765469
0.908934 0.815244 0.752041
1.000000 0.811246 0.699153
1.000000 0.793606 0.652583
0.587549 0.868345 0.829770
0.611780 0.867277 0.831724
0.692561 0.862394 0.838560
0.753994 0.853696 0.840574
0.794217 0.843107 0.831754
0.853544 0.840421 0.849607
0.937316 0.868559 0.845640
1.000000 0.867552 0.806729
0.772091 0.904723 0.886625
0.779934 0.903899 0.887205
0.811398 0.901244 0.890257
0.846921 0.897398 0.893523
0.860960 0.890623 0.890684
0.885130 0.886839 0.885008
0.915221 0.883818 0.896971
0.957610 0.901030 0.892790
0.865568 0.934722 0.924071
0.869383 0.934386 0.924529
0.885222 0.933623 0.927031
0.909606 0.933227 0.931792
0.916014 0.930114 0.930602
0.924895 0.925261 0.929320
0.938811 0.923369 0.925139
0.952300 0.919188 0.930968
0.000000 0.130190 0.480171
0.000000 0.132845 0.482551
0.275853 0.131350 0.480903
0.560204 0.136721 0.474586
0.928801 0.184787 0.520806
1.000000 0.292210 0.502739
1.000000 0.488899 0.535393
1.000000 0.535729 0.501213
0.000000 0.178500 0.508934
0.000000 0.190494 0.512474
0.291875 0.198550 0.509911
0.576989 0.226352 0.502892
0.927916 0.281529 0.540581
1.000000 0.369879 0.528222
1.000000 0.523461 0.554131
1.000000 0.559258 0.518364
0.000000 0.341344 0.555291
0.000000 0.347265 0.557855
0.256748 0.384527 0.582635
0.603265 0.435554 0.578943
0.918181 0.496803 0.610681
1.000000 0.585962 0.630915
1.000000 0.644495 0.634089
1.000000 0.646204 0.589197
0.000000 0.609491 0.656764
0.000000 0.614282 0.658167
0.179049 0.636896 0.667781
0.640558 0.682490 0.694240
0.868589 0.716426 0.710384
0.975891 0.739467 0.716609
1.000000 0.749142 0.708644
1.000000 0.739925 0.672023
0.000000 0.828397 0.768948
0.104585 0.827115 0.770291
0.481453 0.819181 0.780331
0.713436 0.809049 0.800778
0.795560 0.800656 0.810056
0.925872 0.833951 0.805325
0.992950 0.831968 0.792264
1.000000 0.821378 0.766629
0.588769 0.879240 0.844205
0.617609 0.878935 0.847074
0.692226 0.873960 0.851682
0.793576 0.867308 0.861662
0.833433 0.856626 0.860502
0.878264 0.856687 0.869902
0.947570 0.879515 0.867247
1.000000 0.877592 0.841642
0.761501 0.909972 0.890745
0.771237 0.909422 0.891691
0.805783 0.907195 0.895109
0.856748 0.904051 0.901457
0.883543 0.899107 0.902678
0.901549 0.894285 0.898436
0.926513 0.892943 0.907378
0.963989 0.908995 0.903624
0.855558 0.938537 0.925566
0.860105 0.938262 0.926146
0.877653 0.937285 0.928618
0.905089 0.936217 0.933257
0.924285 0.934386 0.935973
0.932036 0.930022 0.934539
0.943633 0.928069 0.930785
0.957244 0.925200 0.936889
0.000000 0.200381 0.696468
0.000000 0.203433 0.697932
0.259495 0.209110 0.697169
0.593683 0.224186 0.696040
0.821317 0.307836 0.688808
1.000000 0.496803 0.710903
1.000000 0.563928 0.703243
1.000000 0.642390 0.712581
0.000000 0.251225 0.709133
0.000000 0.254704 0.710536
0.271855 0.263310 0.709560
0.598962 0.283757 0.706233
0.822568 0.365850 0.699794
0.996765 0.530694 0.720851
1.000000 0.589929 0.714015
1.000000 0.663325 0.725246
0.000000 0.380102 0.722713
0.000000 0.383337 0.726436
0.239872 0.416449 0.737148
0.602472 0.451575 0.737148
0.814603 0.529534 0.732723
0.973632 0.627527 0.750454
1.000000 0.668849 0.748348
1.000000 0.722621 0.760739
0.000000 0.585748 0.763424
0.000000 0.588495 0.763302
0.000000 0.602625 0.764431
0.594263 0.654108 0.779873
0.810056 0.707668 0.785153
0.947997 0.747005 0.799771
1.000000 0.775357 0.807950
1.000000 0.784085 0.796506
0.000000 0.781521 0.811124
0.000000 0.783200 0.811704
0.387976 0.788998 0.813809
0.644190 0.801083 0.820432
0.827146 0.821653 0.836088
0.924376 0.834470 0.844511
0.982422 0.840635 0.845182
1.000000 0.837888 0.833890
0.505882 0.882628 0.856657
0.535393 0.882078 0.857176
0.630274 0.879820 0.858732
0.752102 0.874662 0.864836
0.854551 0.868467 0.875975
0.895048 0.868070 0.884123
0.958587 0.887694 0.884825
0.999725 0.885588 0.875059
0.726406 0.917082 0.894713
0.735225 0.916228 0.895048
0.770657 0.913329 0.897063
0.831724 0.909453 0.902708
0.891783 0.906157 0.910765
0.912718 0.899901 0.910338
0.935760 0.901183 0.916442
0.970520 0.916075 0.913176
0.813535 0.942901 0.923156
0.820096 0.942412 0.923766
0.845396 0.940703 0.926390
0.885008 0.939208 0.932036
0.922332 0.937957 0.938598
0.938506 0.935149 0.940032
0.948852 0.932250 0.937255
0.961425 0.930663 0.942290
0.000000 0.311192 0.838468
0.000000 0.314702 0.838560
0.326909 0.324315 0.835874
0.602686 0.350744 0.833677
0.826474 0.411597 0.829557
0.947448 0.519585 0.813565
1.000000 0.676478 0.817472
1.000000 0.714809 0.815885
0.000000 0.345983 0.836759
0.000000 0.348272 0.836240
0.325505 0.357977 0.834287
0.597131 0.382544 0.831785
0.819120 0.440192 0.827329
0.940520 0.541650 0.813840
1.000000 0.685969 0.819120
1.000000 0.721950 0.817990
0.000000 0.446479 0.843809
0.000000 0.450294 0.844450
0.339910 0.486275 0.844358
0.599817 0.507958 0.839841
0.810666 0.558740 0.835904
0.924681 0.638849 0.827665
0.993103 0.736507 0.835233
1.000000 0.761044 0.834928
0.000000 0.602716 0.848936
0.000000 0.603967 0.847837
0.251591 0.617639 0.847349
0.611261 0.669856 0.853574
0.805112 0.704768 0.853086
0.908141 0.756008 0.851957
0.977813 0.801114 0.861112
1.000000 0.812436 0.861051
0.000000 0.756161 0.862516
0.153140 0.757351 0.862089
0.396338 0.762509 0.860960
0.599237 0.773068 0.859892
0.795865 0.802029 0.866880
0.899504 0.828763 0.872374
0.969574 0.845090 0.881010
1.000000 0.853300 0.883024
0.483192 0.858610 0.880827
0.512108 0.859220 0.881407
0.596490 0.859464 0.881651
0.713222 0.861082 0.882902
0.823178 0.866270 0.886778
0.911223 0.879850 0.897887
0.963714 0.889586 0.904234
0.997711 0.891966 0.902708
0.691707 0.919524 0.910063
0.704097 0.919341 0.910399
0.745327 0.918059 0.910826
0.808469 0.916808 0.912322
0.872831 0.915587 0.916381
0.926238 0.912627 0.923461
0.946715 0.912230 0.927672
0.979644 0.925505 0.926299
0.781369 0.950591 0.927245
0.787015 0.950042 0.927489
0.811307 0.948180 0.929107
0.851713 0.945525 0.932647
0.898680 0.942657 0.938109
0.941283 0.941436 0.945739
0.954742 0.937896 0.946075
0.966796 0.938170 0.949432
0.274876 0.454780 0.911467
0.326421 0.458778 0.911376
0.466926 0.469001 0.909331
0.644617 0.492561 0.905730
0.813321 0.532219 0.899779
0.938720 0.589319 0.894560
0.991608 0.668574 0.875700
1.000000 0.763210 0.871000
0.277287 0.476265 0.909087
0.327794 0.480476 0.909178
0.466011 0.489723 0.907256
0.639826 0.509850 0.903471
0.807340 0.546166 0.897704
0.932891 0.599390 0.892332
0.987030 0.674220 0.874266
1.000000 0.764797 0.870115
0.257084 0.545495 0.909422
0.335119 0.558343 0.908507
0.484688 0.577234 0.906004
0.645380 0.592859 0.902586
0.801633 0.620569 0.897337
0.920531 0.665217 0.892607
0.974731 0.726772 0.880308
1.000000 0.795743 0.880095
0.194736 0.645655 0.907317
0.268681 0.647883 0.906767
0.449104 0.662135 0.905455
0.655756 0.700954 0.902617
0.796933 0.719844 0.899077
0.905608 0.751888 0.895842
0.959869 0.792355 0.890867
0.996918 0.832975 0.894041
0.304051 0.755154 0.907195
0.335729 0.755093 0.906462
0.445472 0.757382 0.904295
0.590600 0.763210 0.901030
0.789364 0.797604 0.901884
0.892302 0.814908 0.901274
0.949462 0.840360 0.901671
0.991791 0.863951 0.908263
0.502373 0.844724 0.913024
0.520531 0.844999 0.912871
0.585992 0.845731 0.912169
0.683589 0.847379 0.910918
0.783963 0.850309 0.909300
0.889494 0.864988 0.913237
0.949310 0.883085 0.918059
0.989715 0.894621 0.923705
0.667475 0.900450 0.924559
0.678767 0.900542 0.924681
0.717281 0.900450 0.924681
0.778317 0.900969 0.924926
0.843748 0.902892 0.925628
0.903746 0.908049 0.928069
0.953521 0.919982 0.935546
0.984039 0.927703 0.939269
0.751766 0.951019 0.944274
0.758938 0.950774 0.944274
0.787564 0.949950 0.944457
0.830930 0.948669 0.944610
0.879210 0.947997 0.945373
0.923827 0.948119 0.948363
0.960388 0.947143 0.954711
0.972381 0.946715 0.957275
0.563867 0.626398 0.950530
0.580072 0.628595 0.950286
0.636500 0.633387 0.948577
0.730129 0.646479 0.945800
0.833341 0.667231 0.941527
0.922515 0.697108 0.935943
0.987457 0.729549 0.932586
1.000000 0.771511 0.915007
0.565026 0.637354 0.949157
0.581201 0.639551 0.948943
0.637324 0.644556 0.947448
0.728878 0.656062 0.944701
0.831113 0.675349 0.940581
0.919890 0.703761 0.935149
0.984771 0.734279 0.931731
1.000000 0.774350 0.914641
0.575525 0.681270 0.946838
0.597009 0.687007 0.946197
0.647700 0.690150 0.944823
0.734646 0.701228 0.942779
0.828763 0.715053 0.939025
0.912840 0.736446 0.934112
0.976226 0.762325 0.931090
1.000000 0.795254 0.916838
0.519402 0.714321 0.946410
0.542992 0.718196 0.946014
0.624048 0.732876 0.944091
0.740688 0.760800 0.940459
0.826261 0.770321 0.937652
0.904295 0.784848 0.934081
0.965057 0.803616 0.931670
0.994598 0.827359 0.922057
0.457923 0.771298 0.945098
0.476417 0.772274 0.944854
0.546807 0.775021 0.943542
0.689998 0.792050 0.941131
0.821164 0.818845 0.937835
0.895232 0.826810 0.935424
0.955108 0.840299 0.933410
0.986572 0.858762 0.928985
0.547906 0.840452 0.945892
0.558679 0.840299 0.945556
0.603937 0.840421 0.944457
0.681392 0.841733 0.942657
0.768704 0.844083 0.940276
0.888273 0.864897 0.940368
0.948699 0.876005 0.940246
0.981353 0.892424 0.939574
0.655970 0.891691 0.950744
0.664698 0.891691 0.950622
0.699367 0.891875 0.950134
0.757321 0.892882 0.949462
0.821530 0.894896 0.948608
0.880735 0.898131 0.947692
0.942687 0.909880 0.949340
0.977295 0.923796 0.950652
0.742153 0.932128 0.957183
0.748287 0.932158 0.957122
0.773465 0.932433 0.957092
0.815549 0.933562 0.957244
0.863005 0.935821 0.957519
0.907774 0.939483 0.958160
0.946502 0.945037 0.959625
0.976562 0.953613 0.963561
