20 Preset/Japan Style/【3】LUT video cho PR-AE-FCPX/LUT VIDEO (2)/Japan Style LUT (5).cube
# Created by Adobe Lightroom plugin Export LUT (1.24.0)
# www.johnrellis.com/lightroom/exportlut.htm
# Preset: 05日系胶片（素材江湖）
# Color profile: C:\Program Files (x86)\Common Files\Adobe\Color\Profiles\Recommended\VideoHD.icc
LUT_3D_SIZE 32
DOMAIN_MIN 0.0 0.0 0.0
DOMAIN_MAX 1.0 1.0 1.0
0.266850 0.238346 0.245060
0.266850 0.238346 0.245060
0.267033 0.238315 0.245060
0.267033 0.238315 0.245060
0.267521 0.238254 0.245060
0.270176 0.238102 0.245029
0.276585 0.238010 0.244999
0.288884 0.237430 0.244755
0.308324 0.236728 0.244358
0.335637 0.235386 0.243748
0.371252 0.233158 0.242863
0.413153 0.230686 0.241581
0.460914 0.226841 0.239933
0.512444 0.222141 0.237797
0.566857 0.216312 0.235142
0.622217 0.209873 0.232029
0.677607 0.202365 0.228397
0.732235 0.194095 0.224216
0.785977 0.183505 0.219760
0.837919 0.174441 0.214633
0.888212 0.161868 0.209415
0.934905 0.149660 0.204044
0.975494 0.137514 0.198917
1.000000 0.124758 0.194308
1.000000 0.110933 0.190372
1.000000 0.100221 0.186954
1.000000 0.084565 0.184817
1.000000 0.063691 0.183383
1.000000 0.040497 0.183108
1.000000 0.034028 0.183444
1.000000 0.026398 0.184756
1.000000 0.024811 0.186984
0.266850 0.238346 0.245060
0.266850 0.238346 0.245060
0.267033 0.238315 0.245060
0.267033 0.238315 0.245060
0.267521 0.238254 0.245060
0.270085 0.238224 0.245121
0.276371 0.238132 0.244968
0.288426 0.237827 0.244724
0.307836 0.237003 0.244327
0.334936 0.235752 0.243717
0.370153 0.233982 0.242802
0.412055 0.231296 0.241550
0.459541 0.227848 0.239872
0.510979 0.223514 0.237705
0.564904 0.218143 0.235019
0.620325 0.212131 0.231907
0.676234 0.204288 0.228305
0.730739 0.196170 0.224247
0.784268 0.187259 0.219669
0.836576 0.176333 0.214755
0.886595 0.165805 0.209384
0.933165 0.152621 0.204074
0.973632 0.140932 0.199130
1.000000 0.129244 0.194491
1.000000 0.116732 0.190494
1.000000 0.104616 0.187045
1.000000 0.092195 0.184787
1.000000 0.079774 0.183322
1.000000 0.055299 0.183017
1.000000 0.042481 0.183413
1.000000 0.036133 0.184695
1.000000 0.038239 0.186679
0.266850 0.238346 0.245060
0.266850 0.238346 0.245060
0.267033 0.238315 0.245060
0.267002 0.238315 0.245151
0.267430 0.238376 0.245151
0.269749 0.238590 0.245060
0.275944 0.238743 0.244907
0.287755 0.238682 0.244633
0.306584 0.238529 0.244175
0.333288 0.237797 0.243503
0.368261 0.236576 0.242527
0.410163 0.234714 0.241184
0.457343 0.231937 0.239445
0.508629 0.228305 0.237217
0.562554 0.224094 0.234562
0.618158 0.218326 0.231418
0.674006 0.211643 0.227726
0.728359 0.204990 0.223575
0.782345 0.196201 0.218997
0.834470 0.187991 0.213901
0.884825 0.177615 0.208560
0.931243 0.167330 0.203372
0.971801 0.156405 0.198459
1.000000 0.146731 0.193790
1.000000 0.135866 0.189822
1.000000 0.125856 0.186496
1.000000 0.116945 0.184207
1.000000 0.107668 0.182986
1.000000 0.101900 0.182559
1.000000 0.095155 0.183230
1.000000 0.090394 0.184756
1.000000 0.089601 0.186801
0.266880 0.238560 0.245121
0.266880 0.238560 0.245121
0.267033 0.238529 0.245121
0.267033 0.238529 0.245121
0.267735 0.238651 0.245090
0.269627 0.239170 0.244999
0.275212 0.239933 0.244755
0.286168 0.240665 0.244419
0.304631 0.241306 0.243839
0.330571 0.241733 0.243076
0.365454 0.241611 0.241947
0.406531 0.241032 0.240482
0.453742 0.239780 0.238682
0.505028 0.237613 0.236301
0.558923 0.234592 0.233524
0.614282 0.230991 0.230167
0.669947 0.226200 0.226444
0.724514 0.220676 0.222232
0.778225 0.214603 0.217563
0.830808 0.206912 0.212589
0.881163 0.199313 0.207340
0.927184 0.191897 0.201907
0.968109 0.182528 0.197116
1.000000 0.174197 0.192569
1.000000 0.165743 0.188510
1.000000 0.156802 0.185672
1.000000 0.149874 0.183474
1.000000 0.143557 0.182193
1.000000 0.136355 0.182315
1.000000 0.131258 0.183200
1.000000 0.127413 0.184939
1.000000 0.125216 0.187411
0.266270 0.240360 0.244907
0.266423 0.240330 0.244907
0.266880 0.240391 0.244907
0.267582 0.240177 0.244907
0.268620 0.239933 0.244907
0.270542 0.240330 0.244816
0.275395 0.241611 0.244633
0.284184 0.243259 0.244327
0.301335 0.245304 0.243626
0.326848 0.247105 0.242649
0.360388 0.248966 0.241306
0.401495 0.250187 0.239628
0.448188 0.250858 0.237583
0.499214 0.250980 0.235050
0.553216 0.250126 0.231998
0.608820 0.248386 0.228550
0.664729 0.245914 0.224643
0.719753 0.242435 0.220279
0.773648 0.238499 0.215488
0.826108 0.233707 0.210513
0.877012 0.228244 0.205020
0.923186 0.222385 0.199619
0.964202 0.216007 0.194919
1.000000 0.208377 0.190494
1.000000 0.201236 0.186740
1.000000 0.194644 0.183932
1.000000 0.188266 0.182193
1.000000 0.181796 0.181582
1.000000 0.176059 0.181918
1.000000 0.171176 0.183261
1.000000 0.167086 0.185458
1.000000 0.164370 0.188663
0.264439 0.246189 0.244175
0.264561 0.246281 0.244144
0.265660 0.246250 0.244114
0.267430 0.246128 0.244114
0.270085 0.245365 0.244144
0.272923 0.244480 0.244327
0.277379 0.244633 0.244419
0.286564 0.247013 0.243961
0.300481 0.250156 0.243381
0.322057 0.253941 0.242466
0.354955 0.258030 0.240818
0.395361 0.261692 0.238895
0.441932 0.264836 0.236515
0.492744 0.267460 0.233738
0.546685 0.269291 0.230381
0.602655 0.269993 0.226658
0.658564 0.270115 0.222477
0.713893 0.269139 0.217960
0.768154 0.267247 0.212985
0.821439 0.264591 0.207736
0.872374 0.261082 0.202396
0.918791 0.257084 0.197024
0.969940 0.252842 0.191073
1.000000 0.247807 0.187045
1.000000 0.241520 0.183902
1.000000 0.235752 0.181888
1.000000 0.229343 0.181094
1.000000 0.223117 0.181582
1.000000 0.218296 0.182834
1.000000 0.213169 0.185336
1.000000 0.208988 0.188418
1.000000 0.205417 0.192599
0.260197 0.258854 0.242435
0.260563 0.259007 0.242527
0.262181 0.259190 0.242466
0.265446 0.259495 0.242344
0.270420 0.258244 0.242405
0.276493 0.256321 0.242679
0.282841 0.254215 0.243137
0.290471 0.253483 0.243473
0.305364 0.257725 0.242802
0.326024 0.262821 0.241886
0.353155 0.269078 0.240909
0.390570 0.275731 0.238926
0.436805 0.281895 0.236118
0.487861 0.287297 0.232822
0.541802 0.292027 0.229038
0.597528 0.295476 0.225010
0.653681 0.298192 0.220401
0.709346 0.299321 0.215702
0.763882 0.299901 0.210544
0.818448 0.299596 0.204898
0.870390 0.298528 0.199161
0.917906 0.295872 0.193820
0.960510 0.292027 0.189303
0.998474 0.288029 0.185428
1.000000 0.283085 0.182620
1.000000 0.277379 0.181155
1.000000 0.271366 0.180941
1.000000 0.265385 0.182223
1.000000 0.259831 0.184421
1.000000 0.254643 0.187564
1.000000 0.249729 0.191745
1.000000 0.245609 0.196750
0.252689 0.279393 0.239567
0.253391 0.279301 0.239567
0.255589 0.279698 0.239445
0.260624 0.280339 0.239353
0.268132 0.279545 0.239292
0.278172 0.276860 0.239750
0.288640 0.273930 0.240299
0.299077 0.270542 0.241093
0.310674 0.268589 0.242069
0.331365 0.274235 0.241306
0.358801 0.281712 0.240146
0.391180 0.290043 0.238926
0.428901 0.299260 0.237522
0.477546 0.308049 0.234012
0.531212 0.315709 0.229801
0.587030 0.321965 0.225315
0.643275 0.327306 0.220249
0.699275 0.331273 0.215122
0.754879 0.333989 0.209659
0.809201 0.335546 0.204013
0.860899 0.336278 0.198215
0.908843 0.335180 0.192966
0.952209 0.332586 0.188663
0.990814 0.329412 0.185122
1.000000 0.325200 0.182773
1.000000 0.319951 0.182162
1.000000 0.314214 0.182895
1.000000 0.308171 0.184848
1.000000 0.302556 0.188022
1.000000 0.296666 0.192447
1.000000 0.291051 0.197696
1.000000 0.286687 0.203647
0.240024 0.308629 0.234989
0.241337 0.308751 0.234958
0.244114 0.308995 0.234836
0.251041 0.309941 0.234501
0.261692 0.310582 0.234257
0.276280 0.307561 0.234745
0.291752 0.303746 0.235538
0.307927 0.299351 0.236728
0.323278 0.294652 0.238132
0.339513 0.291539 0.239933
0.365057 0.297826 0.239567
0.397681 0.307317 0.238071
0.434760 0.317571 0.236973
0.475441 0.328466 0.235691
0.520195 0.340002 0.233982
0.575525 0.349462 0.228794
0.632441 0.357519 0.223301
0.688808 0.364019 0.217655
0.744350 0.368719 0.211856
0.798581 0.372503 0.205966
0.850706 0.374670 0.200229
0.898894 0.375372 0.195041
0.942809 0.374090 0.190768
0.982238 0.371740 0.187869
1.000000 0.368048 0.186160
1.000000 0.363195 0.186252
1.000000 0.357641 0.187900
1.000000 0.351537 0.191257
1.000000 0.345129 0.195865
1.000000 0.338964 0.201205
1.000000 0.333623 0.207492
1.000000 0.328222 0.214633
0.220188 0.345861 0.228092
0.221378 0.346044 0.228000
0.225589 0.346319 0.227970
0.235447 0.347173 0.227573
0.249058 0.348486 0.227085
0.268650 0.346899 0.227359
0.290562 0.342718 0.228397
0.312810 0.337804 0.229831
0.334539 0.332280 0.231815
0.354803 0.326116 0.234287
0.375586 0.321813 0.237125
0.404669 0.327428 0.237675
0.441260 0.338598 0.236271
0.481331 0.350378 0.235294
0.524529 0.362829 0.234409
0.570062 0.375647 0.233799
0.619959 0.387823 0.231388
0.676692 0.396796 0.225315
0.732174 0.403937 0.219089
0.786770 0.409583 0.213077
0.838956 0.413489 0.207156
0.887602 0.415381 0.202060
0.932036 0.415259 0.198245
0.971862 0.413916 0.195560
1.000000 0.410773 0.194491
1.000000 0.406439 0.195438
1.000000 0.401007 0.198123
1.000000 0.394476 0.202396
1.000000 0.388342 0.208042
1.000000 0.382025 0.214359
1.000000 0.375982 0.221744
1.000000 0.370306 0.230014
0.188022 0.389258 0.218570
0.189425 0.389319 0.218540
0.196475 0.389746 0.218418
0.210056 0.390600 0.217899
0.229221 0.392096 0.217197
0.253910 0.393225 0.216648
0.283024 0.389044 0.218051
0.312291 0.383978 0.219944
0.341100 0.377935 0.222293
0.368170 0.371496 0.225498
0.392981 0.364080 0.229282
0.416876 0.358373 0.233707
0.448676 0.362921 0.236362
0.488655 0.375494 0.234989
0.531029 0.388373 0.234348
0.575341 0.401587 0.234470
0.620813 0.414710 0.235019
0.666651 0.427771 0.236362
0.718166 0.438331 0.233463
0.772702 0.446082 0.227054
0.825223 0.451575 0.221012
0.874449 0.455177 0.215824
0.919768 0.456672 0.212222
0.960662 0.455909 0.209995
0.996612 0.453529 0.209598
1.000000 0.449683 0.211307
1.000000 0.444526 0.214572
1.000000 0.438422 0.219669
1.000000 0.431952 0.225864
1.000000 0.425208 0.233341
1.000000 0.418982 0.241398
1.000000 0.413153 0.250645
0.127382 0.437934 0.205447
0.130678 0.438117 0.205356
0.143526 0.438605 0.205142
0.165591 0.439368 0.204685
0.194308 0.441047 0.203830
0.229007 0.443000 0.202609
0.267582 0.441138 0.203311
0.305364 0.436072 0.205905
0.342016 0.430213 0.208927
0.376104 0.423682 0.212894
0.407752 0.416175 0.217594
0.436530 0.408148 0.223453
0.467109 0.404273 0.230014
0.502464 0.407965 0.236027
0.544823 0.421332 0.235264
0.588800 0.434821 0.235782
0.633417 0.448005 0.237491
0.678035 0.460883 0.240085
0.722835 0.473671 0.243839
0.766903 0.486213 0.248325
0.818509 0.494148 0.243992
0.867887 0.498939 0.238804
0.913176 0.501213 0.235019
0.953826 0.501244 0.233677
0.989532 0.499336 0.234043
1.000000 0.495460 0.236240
1.000000 0.489937 0.240024
1.000000 0.483589 0.245731
1.000000 0.476814 0.252689
1.000000 0.469886 0.260380
1.000000 0.463233 0.269352
1.000000 0.457191 0.278691
0.000000 0.493446 0.186618
0.000000 0.493568 0.186343
0.000000 0.493782 0.186374
0.000000 0.494697 0.185611
0.126253 0.495979 0.184604
0.185428 0.497841 0.183322
0.239658 0.499367 0.181949
0.290318 0.494179 0.185672
0.335882 0.488685 0.189761
0.378241 0.482124 0.194888
0.417578 0.475013 0.201144
0.453742 0.467384 0.208408
0.486336 0.458961 0.217075
0.515068 0.449775 0.227176
0.550103 0.450141 0.237766
0.593225 0.463783 0.238071
0.636896 0.476967 0.239506
0.680232 0.489479 0.243198
0.723842 0.501884 0.247776
0.766903 0.514092 0.253544
0.808682 0.525597 0.260380
0.850492 0.535943 0.267308
0.896666 0.540063 0.263645
0.938476 0.541588 0.261845
0.975311 0.540734 0.262272
1.000000 0.537652 0.264408
1.000000 0.532799 0.268772
1.000000 0.526696 0.274754
1.000000 0.519890 0.281712
1.000000 0.512993 0.290227
1.000000 0.506401 0.299260
1.000000 0.500145 0.309545
0.000000 0.547601 0.162264
0.000000 0.547662 0.162387
0.000000 0.547967 0.162081
0.000000 0.548577 0.161074
0.000000 0.549706 0.159945
0.094606 0.551293 0.158236
0.192599 0.553643 0.156069
0.261753 0.551141 0.158511
0.319768 0.545617 0.164614
0.370794 0.539452 0.171389
0.417243 0.532616 0.179721
0.459815 0.524865 0.189364
0.498604 0.516564 0.200046
0.533410 0.507713 0.212192
0.564019 0.497993 0.225620
0.598718 0.495277 0.241367
0.640314 0.506889 0.244450
0.682704 0.519158 0.247166
0.725399 0.531395 0.252415
0.767361 0.542992 0.259251
0.808316 0.554070 0.266880
0.847776 0.564599 0.276677
0.884764 0.574426 0.288609
0.922545 0.580560 0.295689
0.960235 0.580957 0.296117
0.992645 0.579004 0.298375
1.000000 0.574762 0.302617
1.000000 0.569055 0.308812
1.000000 0.562432 0.316045
1.000000 0.555627 0.324681
1.000000 0.549035 0.334478
1.000000 0.543053 0.345251
0.000000 0.600855 0.129397
0.000000 0.600916 0.129213
0.000000 0.601221 0.128756
0.000000 0.601678 0.127932
0.000000 0.602533 0.126406
0.000000 0.603937 0.124483
0.093050 0.606012 0.120974
0.216251 0.607233 0.119020
0.292729 0.601923 0.128725
0.354986 0.596033 0.139803
0.409216 0.589624 0.151553
0.458412 0.582391 0.164645
0.502861 0.574517 0.178470
0.543450 0.565789 0.193759
0.579950 0.556329 0.209842
0.611902 0.546105 0.226627
0.646601 0.541985 0.246525
0.685847 0.550134 0.254429
0.727535 0.561822 0.258610
0.768643 0.572961 0.265415
0.808560 0.583551 0.274357
0.847044 0.593500 0.285222
0.883116 0.602564 0.298070
0.916411 0.610620 0.312749
0.946227 0.617670 0.329717
0.977203 0.618738 0.336889
1.000000 0.615381 0.341375
1.000000 0.610346 0.347539
1.000000 0.604242 0.355108
1.000000 0.597772 0.363928
1.000000 0.591394 0.374456
1.000000 0.585657 0.385779
0.000000 0.653040 0.058137
0.000000 0.653162 0.058289
0.000000 0.653376 0.057404
0.000000 0.654017 0.052522
0.000000 0.654994 0.044617
0.000000 0.656489 0.035859
0.000000 0.658656 0.022675
0.129946 0.661280 0.006836
0.250919 0.658900 0.034394
0.329686 0.653315 0.086244
0.393652 0.647028 0.109682
0.450080 0.639887 0.131106
0.500633 0.632044 0.151095
0.546288 0.623407 0.171176
0.587579 0.613916 0.190951
0.624750 0.603815 0.211002
0.657679 0.593133 0.231235
0.692622 0.588312 0.254215
0.729244 0.592767 0.267735
0.769497 0.603479 0.273960
0.808957 0.613581 0.282139
0.846494 0.622889 0.294377
0.881712 0.631342 0.308324
0.914092 0.638666 0.324102
0.943145 0.644800 0.342138
0.968383 0.650050 0.362005
0.989502 0.654444 0.383948
1.000000 0.650294 0.390326
1.000000 0.644648 0.397864
1.000000 0.638697 0.407202
1.000000 0.632593 0.417762
1.000000 0.627100 0.429541
0.000000 0.703212 0.000000
0.000000 0.703212 0.000000
0.000000 0.703456 0.000000
0.000000 0.704067 0.000000
0.000000 0.704891 0.000000
0.000000 0.706355 0.000000
0.000000 0.708095 0.000000
0.000000 0.710445 0.000000
0.182681 0.711727 0.000000
0.292058 0.706630 0.000000
0.369635 0.700801 0.000000
0.434150 0.694362 0.067567
0.490944 0.687068 0.113954
0.541955 0.678920 0.143526
0.588342 0.670039 0.169680
0.630426 0.660487 0.193668
0.668055 0.650477 0.217105
0.702022 0.639887 0.240330
0.737118 0.634333 0.265415
0.770840 0.634638 0.285191
0.809293 0.644404 0.294011
0.846128 0.652888 0.304723
0.880400 0.660456 0.319493
0.911742 0.666865 0.336828
0.939788 0.672175 0.355871
0.964141 0.676387 0.376654
0.984588 0.679713 0.398993
1.000000 0.682612 0.423163
1.000000 0.683345 0.444282
1.000000 0.677882 0.453346
1.000000 0.672328 0.464271
1.000000 0.667262 0.476387
0.000000 0.749935 0.000000
0.000000 0.749935 0.000000
0.000000 0.755123 0.000000
0.000000 0.755612 0.000000
0.000000 0.756313 0.000000
0.000000 0.757229 0.000000
0.000000 0.758480 0.000000
0.000000 0.760189 0.000000
0.000000 0.762325 0.000000
0.240360 0.759640 0.000000
0.337560 0.754543 0.000000
0.412634 0.748562 0.000000
0.476448 0.741878 0.035737
0.533257 0.734463 0.113039
0.584436 0.726192 0.148745
0.630915 0.717311 0.178286
0.673426 0.707729 0.205142
0.711788 0.697658 0.231083
0.746242 0.687282 0.255711
0.781613 0.681453 0.282078
0.812253 0.677516 0.309636
0.847501 0.685023 0.320958
0.880522 0.691310 0.334600
0.910521 0.696407 0.352148
0.937194 0.700313 0.372045
0.960204 0.703182 0.393378
0.979492 0.705226 0.416266
0.995148 0.706935 0.440650
1.000000 0.708766 0.466590
1.000000 0.711269 0.493812
1.000000 0.709926 0.512596
1.000000 0.705379 0.524926
0.000000 0.792050 0.000000
0.000000 0.792508 0.000000
0.000000 0.793179 0.000000
0.000000 0.793790 0.000000
0.000000 0.794583 0.000000
0.000000 0.795377 0.000000
0.000000 0.796292 0.000000
0.000000 0.797513 0.000000
0.000000 0.798917 0.000000
0.158602 0.799405 0.000000
0.294072 0.795010 0.000000
0.381079 0.789975 0.000000
0.452461 0.784176 0.000000
0.513939 0.777768 0.087282
0.569360 0.770809 0.133516
0.620203 0.763088 0.167544
0.666590 0.754879 0.197330
0.709041 0.746212 0.224613
0.747951 0.737087 0.251102
0.783169 0.727749 0.276402
0.818967 0.722255 0.303563
0.846555 0.714961 0.337377
0.878416 0.720363 0.351751
0.907530 0.724300 0.368444
0.933318 0.727047 0.387243
0.955352 0.728817 0.409796
0.973754 0.729824 0.433509
0.988678 0.730465 0.458473
1.000000 0.731350 0.484504
1.000000 0.732876 0.511986
1.000000 0.735470 0.540764
1.000000 0.739559 0.571344
0.000000 0.827024 0.000000
0.000000 0.827359 0.000000
0.000000 0.827909 0.000000
0.000000 0.828397 0.000000
0.000000 0.829007 0.000000
0.000000 0.829526 0.000000
0.000000 0.830198 0.000000
0.000000 0.830930 0.000000
0.000000 0.831785 0.000000
0.000000 0.832822 0.000000
0.239719 0.830472 0.000000
0.345159 0.826169 0.000000
0.424170 0.821195 0.000000
0.490791 0.815824 0.077455
0.550286 0.809842 0.131380
0.604150 0.803342 0.167391
0.653651 0.796323 0.197879
0.699336 0.788846 0.225986
0.741512 0.781064 0.252720
0.780331 0.772976 0.278508
0.816098 0.764553 0.304204
0.851957 0.759854 0.330785
0.876310 0.749172 0.370611
0.904204 0.751980 0.387976
0.928923 0.753567 0.406836
0.950195 0.754116 0.427527
0.967773 0.753902 0.451575
0.982025 0.753567 0.476967
0.993286 0.753536 0.503868
1.000000 0.754116 0.531273
1.000000 0.755886 0.560479
1.000000 0.759182 0.591180
0.000000 0.856992 0.000000
0.000000 0.857267 0.000000
0.000000 0.857603 0.000000
0.000000 0.858000 0.000000
0.000000 0.858305 0.000000
0.000000 0.858640 0.000000
0.000000 0.858976 0.000000
0.000000 0.859342 0.000000
0.000000 0.859739 0.000000
0.000000 0.860227 0.000000
0.167544 0.859953 0.000000
0.305180 0.856199 0.000000
0.392767 0.852171 0.000000
0.464393 0.847532 0.104768
0.527306 0.842496 0.147250
0.583917 0.837034 0.180117
0.636072 0.831174 0.209598
0.684352 0.824949 0.237308
0.729091 0.818479 0.263737
0.770596 0.811826 0.289433
0.809232 0.804807 0.314885
0.844785 0.797726 0.340246
0.879149 0.792599 0.366674
0.902617 0.782284 0.407782
0.925292 0.780758 0.430976
0.945342 0.780026 0.452369
0.962066 0.778592 0.474922
0.975555 0.777157 0.500145
0.986053 0.776181 0.527276
0.993896 0.775998 0.555596
0.999115 0.777066 0.585534
1.000000 0.779751 0.616724
0.000000 0.882811 0.000000
0.000000 0.882872 0.000000
0.000000 0.882994 0.000000
0.000000 0.883024 0.000000
0.000000 0.883024 0.000000
0.000000 0.883055 0.000000
0.000000 0.883055 0.000000
0.000000 0.883024 0.000000
0.000000 0.883024 0.000000
0.000000 0.883024 0.000000
0.000000 0.882933 0.000000
0.262028 0.880797 0.020386
0.361151 0.877287 0.109499
0.438025 0.873350 0.146731
0.503319 0.869078 0.178347
0.562158 0.864469 0.206210
0.615656 0.859495 0.232334
0.665309 0.854185 0.258213
0.711452 0.848661 0.283146
0.754635 0.842863 0.307866
0.794980 0.836820 0.332433
0.832364 0.830655 0.356970
0.866911 0.824369 0.381415
0.899107 0.818540 0.406470
0.921355 0.808774 0.447364
0.939208 0.803677 0.475471
0.955108 0.801297 0.498390
0.968109 0.798856 0.522362
0.978332 0.796811 0.548455
0.985626 0.795895 0.577325
0.990417 0.796231 0.607599
0.992737 0.798245 0.639277
0.000000 0.901549 0.000000
0.000000 0.901549 0.000000
0.000000 0.901579 0.000855
0.000000 0.901579 0.005493
0.000000 0.901488 0.018189
0.000000 0.901366 0.031128
0.000000 0.901152 0.052674
0.000000 0.900908 0.077394
0.000000 0.900633 0.092439
0.000000 0.900267 0.106264
0.000000 0.899870 0.119661
0.220432 0.898924 0.135958
0.330785 0.895964 0.164401
0.411841 0.892607 0.189883
0.479286 0.888945 0.215122
0.539208 0.885008 0.238590
0.593805 0.880766 0.262272
0.644251 0.876280 0.285801
0.691249 0.871489 0.308934
0.735073 0.866575 0.332494
0.776303 0.861418 0.356115
0.814725 0.856168 0.379614
0.850431 0.850797 0.403632
0.883482 0.845365 0.427588
0.913359 0.839353 0.449653
0.933959 0.830167 0.489998
0.947936 0.822599 0.522087
0.960296 0.819364 0.546319
0.970031 0.816556 0.572259
0.977264 0.814633 0.599573
0.981567 0.814359 0.630488
0.983490 0.815763 0.662440
0.000000 0.916258 0.151003
0.000000 0.916320 0.151431
0.000000 0.916289 0.152255
0.000000 0.916167 0.153475
0.000000 0.915984 0.155947
0.000000 0.915709 0.158938
0.000000 0.915312 0.162600
0.000000 0.914855 0.167086
0.000000 0.914305 0.173220
0.000000 0.913664 0.179812
0.000000 0.912932 0.186923
0.184787 0.912108 0.196170
0.305577 0.910063 0.212375
0.388891 0.907073 0.232242
0.457404 0.903838 0.252720
0.517479 0.900359 0.273106
0.572259 0.896574 0.294041
0.622583 0.892638 0.315343
0.669825 0.888457 0.337194
0.713863 0.884154 0.359655
0.755154 0.879698 0.382208
0.793881 0.875120 0.405219
0.830045 0.870420 0.428229
0.863676 0.865660 0.451362
0.894652 0.860899 0.474617
0.923156 0.856107 0.497780
0.941955 0.847623 0.535912
0.952331 0.838743 0.572412
0.961517 0.835203 0.598077
0.968231 0.832700 0.625544
0.972473 0.831510 0.654749
0.974365 0.831846 0.684504
0.000000 0.926757 0.211612
0.000000 0.926787 0.212161
0.000000 0.926757 0.213046
0.000000 0.926635 0.213993
0.000000 0.926421 0.216129
0.000000 0.926116 0.217960
0.000000 0.925719 0.221134
0.000000 0.925261 0.225376
0.000000 0.924651 0.229984
0.000000 0.923919 0.235660
0.000000 0.923095 0.242222
0.170108 0.922118 0.249943
0.289311 0.920897 0.259037
0.372992 0.918273 0.276219
0.440833 0.915435 0.293584
0.500420 0.912322 0.312047
0.554406 0.908995 0.330999
0.604242 0.905455 0.350622
0.650813 0.901793 0.370947
0.694331 0.897948 0.392004
0.735348 0.893980 0.413733
0.773739 0.889921 0.436042
0.809659 0.885801 0.458503
0.843168 0.881590 0.481178
0.874174 0.877440 0.503868
0.902739 0.873289 0.527001
0.928710 0.869291 0.550195
0.945769 0.862119 0.587243
0.952850 0.852964 0.627893
0.958984 0.849851 0.654749
0.962951 0.847807 0.681819
0.964935 0.847257 0.709071
0.000000 0.934844 0.266300
0.000000 0.934844 0.266270
0.000000 0.934783 0.266789
0.000000 0.934630 0.267979
0.000000 0.934386 0.269291
0.000000 0.934081 0.271092
0.000000 0.933623 0.273594
0.000000 0.933104 0.277165
0.000000 0.932433 0.281071
0.000000 0.931670 0.285954
0.000000 0.930755 0.291722
0.178347 0.929717 0.298863
0.286412 0.928527 0.305852
0.364538 0.926604 0.318120
0.430579 0.924041 0.334142
0.488228 0.921263 0.350713
0.540703 0.918273 0.368475
0.589471 0.915099 0.387182
0.634730 0.911772 0.406348
0.677394 0.908324 0.426734
0.717586 0.904723 0.447730
0.755184 0.901091 0.469001
0.790433 0.897368 0.490791
0.823331 0.893645 0.512627
0.853941 0.889921 0.535180
0.882109 0.886229 0.558160
0.907805 0.882658 0.581506
0.930846 0.879240 0.605035
0.946075 0.873503 0.639429
0.950164 0.864652 0.681056
0.953979 0.862028 0.706722
0.955871 0.860899 0.732509
0.000000 0.940703 0.315831
0.000000 0.940673 0.315801
0.000000 0.940642 0.316350
0.000000 0.940490 0.317601
0.000000 0.940246 0.318822
0.000000 0.939940 0.320897
0.000000 0.939513 0.323613
0.000000 0.938994 0.327367
0.000000 0.938323 0.331853
0.000000 0.937560 0.336950
0.000000 0.936675 0.342931
0.217472 0.935637 0.349859
0.303563 0.934417 0.357641
0.369940 0.933074 0.365637
0.431525 0.930755 0.380774
0.486183 0.928222 0.396857
0.536065 0.925505 0.413733
0.582452 0.922637 0.431281
0.625910 0.919585 0.450233
0.666835 0.916442 0.469520
0.705318 0.913237 0.489570
0.741604 0.909911 0.510399
0.775631 0.906523 0.532006
0.807401 0.903166 0.553765
0.836790 0.899748 0.575677
0.863951 0.896361 0.597528
0.888640 0.893095 0.619593
0.910857 0.889952 0.641718
0.930388 0.887022 0.663661
0.943481 0.882902 0.694301
0.945342 0.875578 0.733394
0.946807 0.873564 0.759274
0.000000 0.945006 0.370306
0.000000 0.945006 0.370062
0.000000 0.944915 0.370581
0.000000 0.944762 0.371374
0.000000 0.944549 0.372351
0.000000 0.944213 0.374243
0.000000 0.943755 0.376593
0.000000 0.943206 0.379309
0.000000 0.942535 0.383154
0.000000 0.941741 0.387488
0.172824 0.940795 0.392309
0.263218 0.939727 0.398474
0.329137 0.938537 0.405066
0.385290 0.937194 0.412207
