20 Preset/Japan Style/【3】LUT video cho PR-AE-FCPX/LUT VIDEO (2)/Japan Style LUT (2).cube
# Created by Adobe Lightroom plugin Export LUT (1.24.0)
# www.johnrellis.com/lightroom/exportlut.htm
# Preset: 02日系清新（素材江湖）
# Color profile: C:\Program Files (x86)\Common Files\Adobe\Color\Profiles\Recommended\VideoHD.icc
LUT_3D_SIZE 5
DOMAIN_MIN 0.000000 0.000000 0.000000
DOMAIN_MAX 0.903226 0.903226 0.903226
0.000000 0.120607 0.176669
0.225467 0.126619 0.183932
0.632837 0.000000 0.182773
0.956390 0.086976 0.159304
1.000000 0.299107 0.157443
0.000000 0.284184 0.265904
0.127138 0.290898 0.237705
0.615686 0.278325 0.215061
0.942046 0.320867 0.174594
1.000000 0.405310 0.143374
0.000000 0.709041 0.525963
0.000000 0.702022 0.520043
0.498329 0.703670 0.434852
0.887968 0.646784 0.345556
1.000000 0.624445 0.335149
0.068910 0.889677 0.769558
0.345373 0.886259 0.773617
0.614496 0.875486 0.783871
0.741451 0.871214 0.704982
0.967407 0.844724 0.539940
0.639216 0.948394 0.883024
0.670558 0.946746 0.885832
0.757229 0.940612 0.894194
0.811704 0.938140 0.892760
0.860990 0.938415 0.861540
0.023560 0.142702 0.311406
0.228275 0.143771 0.310185
0.630152 0.000000 0.287327
0.929839 0.046387 0.276738
1.000000 0.305669 0.240177
0.000000 0.264591 0.371405
0.181765 0.280064 0.373449
0.607324 0.275364 0.344488
0.917327 0.304173 0.307958
1.000000 0.394537 0.269413
0.000000 0.696071 0.594018
0.000000 0.691493 0.586938
0.516472 0.680476 0.548333
0.858030 0.637995 0.476936
1.000000 0.628443 0.422583
0.160403 0.886595 0.792111
0.357397 0.883543 0.794644
0.630671 0.872038 0.806027
0.748775 0.867308 0.752346
0.954711 0.843320 0.622614
0.635065 0.948241 0.886900
0.666529 0.946563 0.889281
0.760433 0.941466 0.898955
0.819486 0.938445 0.899107
0.866209 0.938659 0.874174
0.281346 0.177096 0.597528
0.375586 0.184604 0.596857
0.628870 0.194003 0.608515
0.944762 0.231815 0.593835
1.000000 0.169314 0.470985
0.248081 0.298772 0.632837
0.360693 0.308019 0.631861
0.615229 0.344610 0.632776
0.917327 0.383948 0.620447
1.000000 0.324163 0.495094
0.000000 0.572381 0.722530
0.000000 0.577020 0.720150
0.514305 0.600916 0.714229
0.827024 0.638911 0.698970
0.995727 0.625086 0.620691
0.001434 0.871519 0.852140
0.316136 0.869749 0.851041
0.604608 0.865232 0.850767
0.775601 0.853880 0.844877
0.916564 0.838376 0.793210
0.590845 0.948943 0.899748
0.630335 0.947173 0.901335
0.740169 0.941344 0.907256
0.842496 0.935302 0.916686
0.875944 0.936156 0.899626
0.521141 0.272526 0.851133
0.563531 0.281956 0.849485
0.695613 0.321721 0.840909
0.872221 0.376440 0.842191
1.000000 0.513695 0.816495
0.502068 0.364355 0.850736
0.543999 0.370062 0.848814
0.678798 0.401068 0.841855
0.851682 0.457191 0.841550
0.999847 0.565576 0.823239
0.207614 0.461982 0.846189
0.348302 0.490761 0.844816
0.612970 0.587884 0.846616
0.784909 0.637171 0.839567
0.954620 0.706569 0.848569
0.254276 0.761776 0.887266
0.335637 0.763027 0.885771
0.529320 0.770932 0.881163
0.729824 0.788571 0.873106
0.907164 0.815885 0.863981
0.502220 0.943114 0.929808
0.543877 0.942443 0.929290
0.675441 0.940856 0.928069
0.821683 0.936034 0.928893
0.892851 0.933013 0.928191
0.709682 0.469673 0.950164
0.725216 0.473060 0.948669
0.786404 0.495338 0.944060
0.872465 0.537774 0.934661
0.974823 0.564294 0.932067
0.692805 0.501823 0.945861
0.709377 0.505180 0.944701
0.771572 0.522972 0.940276
0.860288 0.559411 0.931395
0.963867 0.588891 0.929259
0.642023 0.607507 0.938842
0.658534 0.607385 0.937438
0.726436 0.616846 0.933410
0.824765 0.640681 0.926024
0.931182 0.683284 0.925353
0.418036 0.667170 0.941985
0.441138 0.663935 0.940490
0.558434 0.670192 0.934569
0.782132 0.766323 0.928038
0.893431 0.810208 0.926543
0.524620 0.870726 0.945769
0.546502 0.871427 0.945251
0.637110 0.877195 0.944060
0.755001 0.887022 0.941314
0.871977 0.902342 0.937835
