20 Preset/Japan Style/【3】LUT video cho PR-AE-FCPX/LUT VIDEO (2)/Japan Style LUT (44).cube
# Created by Adobe Lightroom plugin Export LUT (1.24.0)
# www.johnrellis.com/lightroom/exportlut.htm
# Preset: 44日系清新（素材江湖）
# Color profile: C:\Program Files (x86)\Common Files\Adobe\Color\Profiles\Recommended\VideoHD.icc
LUT_3D_SIZE 32
DOMAIN_MIN 0.0 0.0 0.0
DOMAIN_MAX 1.0 1.0 1.0
0.085725 0.089082 0.083528
0.088991 0.089631 0.084047
0.098360 0.089387 0.084474
0.117708 0.089509 0.085084
0.149966 0.089479 0.087526
0.191470 0.088167 0.089326
0.239628 0.083589 0.089906
0.294133 0.067231 0.091157
0.356939 0.030335 0.090791
0.427832 0.000000 0.089052
0.505486 0.000000 0.086458
0.588098 0.000000 0.078584
0.671778 0.000000 0.064057
0.752010 0.000000 0.048554
0.825528 0.000000 0.031373
0.889921 0.000000 0.024445
0.945342 0.000000 0.026459
0.992218 0.000000 0.040131
1.000000 0.000000 0.068086
1.000000 0.000000 0.097749
1.000000 0.000000 0.119142
1.000000 0.000000 0.140169
1.000000 0.000000 0.161563
1.000000 0.000000 0.183200
1.000000 0.000000 0.204776
1.000000 0.000000 0.227176
1.000000 0.075532 0.250095
1.000000 0.164553 0.273777
1.000000 0.217136 0.299199
1.000000 0.261112 0.324956
1.000000 0.300725 0.352270
1.000000 0.338506 0.380804
0.084108 0.091676 0.083680
0.088045 0.091432 0.082948
0.099397 0.090913 0.084108
0.118929 0.090974 0.085389
0.151278 0.090852 0.087129
0.192599 0.089906 0.088594
0.239841 0.086976 0.090059
0.293950 0.074220 0.090822
0.356878 0.038300 0.090394
0.427283 0.000000 0.088685
0.504356 0.000000 0.085603
0.586358 0.000000 0.078614
0.669764 0.000000 0.063233
0.750118 0.000000 0.045014
0.823636 0.000000 0.030793
0.888182 0.000000 0.023377
0.943938 0.000000 0.023774
0.990784 0.000000 0.038849
1.000000 0.000000 0.067414
1.000000 0.000000 0.097078
1.000000 0.000000 0.116884
1.000000 0.000000 0.138552
1.000000 0.000000 0.159640
1.000000 0.000000 0.180606
1.000000 0.000000 0.203006
1.000000 0.000000 0.224887
1.000000 0.048341 0.247715
1.000000 0.159640 0.271702
1.000000 0.212589 0.296147
1.000000 0.257023 0.322118
1.000000 0.296818 0.349096
1.000000 0.335271 0.378119
0.079469 0.100862 0.083619
0.083680 0.100954 0.084932
0.095338 0.101808 0.082948
0.123354 0.099397 0.082399
0.155886 0.098573 0.085634
0.198001 0.099001 0.087007
0.245426 0.097566 0.088624
0.299901 0.092287 0.089082
0.362554 0.073610 0.089113
0.432624 0.015473 0.086610
0.509972 0.000000 0.081453
0.591821 0.000000 0.070192
0.673915 0.000000 0.055940
0.753353 0.000000 0.039765
0.826322 0.000000 0.023529
0.890074 0.000000 0.017243
0.945159 0.000000 0.019654
0.991669 0.000000 0.035676
1.000000 0.000000 0.062348
1.000000 0.000000 0.095216
1.000000 0.000000 0.116457
1.000000 0.000000 0.138003
1.000000 0.000000 0.159640
1.000000 0.000000 0.180392
1.000000 0.000000 0.202487
1.000000 0.000000 0.224033
1.000000 0.083314 0.247227
1.000000 0.164523 0.270787
1.000000 0.215732 0.295354
1.000000 0.259159 0.321660
1.000000 0.298222 0.348669
1.000000 0.335668 0.377234
0.057923 0.121706 0.083955
0.063569 0.121553 0.084657
0.087587 0.122377 0.083986
0.112947 0.125216 0.079896
0.159731 0.127779 0.076234
0.209232 0.117556 0.083253
0.257755 0.117556 0.084413
0.312688 0.115023 0.084077
0.376745 0.107271 0.082033
0.446784 0.089967 0.079500
0.524102 0.018128 0.068330
0.604059 0.000000 0.055573
0.685634 0.000000 0.040192
0.763210 0.000000 0.022095
0.833768 0.000000 0.008423
0.895628 0.000000 0.004730
0.949187 0.000000 0.009094
0.994263 0.000000 0.024781
1.000000 0.000000 0.057679
1.000000 0.000000 0.094240
1.000000 0.000000 0.115480
1.000000 0.000000 0.137636
1.000000 0.000000 0.158785
1.000000 0.000000 0.180789
1.000000 0.000000 0.202243
1.000000 0.000000 0.225010
1.000000 0.118593 0.248264
1.000000 0.180301 0.272282
1.000000 0.226230 0.296818
1.000000 0.266697 0.322820
1.000000 0.304265 0.349920
1.000000 0.339696 0.377661
0.000000 0.154879 0.081636
0.009827 0.154452 0.083131
0.052064 0.153201 0.085359
0.096468 0.159640 0.070863
0.139071 0.162203 0.063355
0.203799 0.171633 0.050477
0.273259 0.159060 0.056062
0.332921 0.148409 0.067659
0.397314 0.143984 0.064149
0.468391 0.135744 0.055879
0.544366 0.118624 0.043366
0.623743 0.082368 0.027924
0.702602 0.000000 0.011749
0.777676 0.000000 0.000000
0.845640 0.000000 0.000000
0.904936 0.000000 0.000000
0.956970 0.000000 0.000000
0.999939 0.000000 0.011444
1.000000 0.000000 0.051698
1.000000 0.000000 0.093874
1.000000 0.000000 0.116487
1.000000 0.000000 0.139498
1.000000 0.000000 0.161013
1.000000 0.000000 0.182559
1.000000 0.000000 0.204776
1.000000 0.089143 0.228031
1.000000 0.156435 0.251011
1.000000 0.202487 0.274846
1.000000 0.242649 0.299596
1.000000 0.278630 0.324865
1.000000 0.313573 0.351904
1.000000 0.347662 0.380041
0.000000 0.194736 0.074220
0.000000 0.194430 0.074311
0.000000 0.192477 0.078492
0.051057 0.190097 0.081819
0.116365 0.203525 0.045533
0.172091 0.207492 0.032074
0.253727 0.228763 0.000000
0.340734 0.219974 0.000000
0.429786 0.192630 0.022736
0.501274 0.187655 0.013672
0.576654 0.178378 0.000000
0.653986 0.162844 0.000000
0.729641 0.140139 0.000000
0.800565 0.105653 0.000000
0.864256 0.003479 0.000000
0.920409 0.000000 0.000000
0.968902 0.000000 0.000000
1.000000 0.000000 0.000000
1.000000 0.000000 0.043336
1.000000 0.000000 0.094514
1.000000 0.000000 0.119265
1.000000 0.000000 0.142672
1.000000 0.000000 0.178653
1.000000 0.098726 0.201663
1.000000 0.147585 0.224186
1.000000 0.186893 0.247379
1.000000 0.221775 0.271244
1.000000 0.253513 0.294316
1.000000 0.284489 0.318700
1.000000 0.315221 0.344182
1.000000 0.345373 0.370459
1.000000 0.375525 0.397925
0.000000 0.245640 0.051209
0.000000 0.245274 0.051453
0.000000 0.242893 0.057008
0.000000 0.239017 0.066987
0.040131 0.245304 0.042969
0.145205 0.259525 0.000000
0.214084 0.267277 0.000000
0.319951 0.302281 0.000000
0.423804 0.298711 0.000000
0.540124 0.276585 0.000000
0.628504 0.246250 0.000000
0.702632 0.235904 0.000000
0.773007 0.221958 0.000000
0.837644 0.205692 0.000000
0.895109 0.186038 0.000000
0.945006 0.164889 0.000000
0.987884 0.143069 0.000000
1.000000 0.124819 0.000000
1.000000 0.111116 0.049226
1.000000 0.106538 0.102327
1.000000 0.113008 0.130190
1.000000 0.128847 0.155459
1.000000 0.151308 0.180911
1.000000 0.176181 0.204440
1.000000 0.201846 0.228458
1.000000 0.228061 0.251957
1.000000 0.253452 0.275181
1.000000 0.279423 0.298863
1.000000 0.305821 0.323217
1.000000 0.332067 0.347753
1.000000 0.359075 0.373602
1.000000 0.386481 0.400305
0.000000 0.300694 0.010529
0.000000 0.300145 0.012329
0.000000 0.297642 0.017945
0.000000 0.293248 0.030274
0.000000 0.286687 0.046357
0.063783 0.309026 0.000000
0.181308 0.321660 0.000000
0.262181 0.332189 0.000000
0.386603 0.377996 0.000000
0.505669 0.378210 0.000000
0.628809 0.361364 0.000000
0.740566 0.317540 0.000000
0.808011 0.297551 0.000000
0.866361 0.283574 0.000000
0.918334 0.268620 0.000000
0.963256 0.253239 0.000000
1.000000 0.239475 0.000000
1.000000 0.227237 0.000000
1.000000 0.218265 0.044556
1.000000 0.212284 0.105745
1.000000 0.211398 0.135622
1.000000 0.215427 0.162264
1.000000 0.223484 0.187167
1.000000 0.236088 0.212161
1.000000 0.251896 0.235477
1.000000 0.269200 0.258640
1.000000 0.288548 0.282200
1.000000 0.308965 0.305760
1.000000 0.330114 0.328923
1.000000 0.353552 0.354253
1.000000 0.376898 0.379248
1.000000 0.401556 0.405463
0.000000 0.362402 0.000000
0.000000 0.361761 0.000000
0.000000 0.359594 0.000000
0.000000 0.355016 0.000000
0.000000 0.348089 0.000000
0.000000 0.352697 0.000000
0.109865 0.379828 0.000000
0.228305 0.390875 0.000000
0.319982 0.403815 0.000000
0.454170 0.450904 0.000000
0.590906 0.460029 0.000000
0.712673 0.444587 0.000000
0.823514 0.407202 0.000000
0.897398 0.358404 0.000000
0.943481 0.343084 0.000000
0.984619 0.329168 0.000000
1.000000 0.315068 0.000000
1.000000 0.302922 0.000000
1.000000 0.292515 0.052735
1.000000 0.285100 0.114504
1.000000 0.280766 0.144717
1.000000 0.280461 0.172732
1.000000 0.283330 0.198276
1.000000 0.290013 0.222568
1.000000 0.299596 0.246555
1.000000 0.311772 0.269688
1.000000 0.325566 0.292424
1.000000 0.341650 0.315526
1.000000 0.359380 0.339147
1.000000 0.378241 0.362890
1.000000 0.398474 0.387274
1.000000 0.420417 0.413092
0.000000 0.429114 0.000000
0.000000 0.428412 0.000000
0.000000 0.426368 0.000000
0.000000 0.421668 0.000000
0.000000 0.414679 0.000000
0.000000 0.405005 0.000000
0.000000 0.426398 0.000000
0.164523 0.451270 0.000000
0.285222 0.463508 0.000000
0.387030 0.477516 0.000000
0.524956 0.522576 0.000000
0.671626 0.536187 0.000000
0.784817 0.517754 0.000000
0.884184 0.483314 0.000000
0.963256 0.431006 0.000000
1.000000 0.399084 0.000000
1.000000 0.383703 0.000000
1.000000 0.369665 0.000000
1.000000 0.357733 0.084016
1.000000 0.348425 0.128481
1.000000 0.341802 0.160159
1.000000 0.338018 0.187167
1.000000 0.337255 0.212192
1.000000 0.339574 0.235813
1.000000 0.344549 0.258427
1.000000 0.352209 0.281254
1.000000 0.362127 0.303624
1.000000 0.373938 0.325872
1.000000 0.388373 0.349248
1.000000 0.404059 0.372503
1.000000 0.421790 0.397009
1.000000 0.440955 0.422034
0.000000 0.496254 0.000000
0.000000 0.495674 0.000000
0.000000 0.493843 0.000000
0.000000 0.489570 0.000000
0.000000 0.483070 0.000000
0.000000 0.474098 0.000000
0.000000 0.473884 0.000000
0.000000 0.502617 0.000000
0.232364 0.522759 0.000000
0.353002 0.535698 0.000000
0.461402 0.549584 0.000000
0.598138 0.590539 0.000000
0.748592 0.607050 0.000000
0.849882 0.584955 0.000000
0.934356 0.549371 0.000000
1.000000 0.501061 0.000000
1.000000 0.447730 0.000000
1.000000 0.431739 0.000000
1.000000 0.418067 0.110994
1.000000 0.406714 0.149813
1.000000 0.397620 0.179812
1.000000 0.391424 0.205875
1.000000 0.388281 0.230411
1.000000 0.387610 0.253300
1.000000 0.389197 0.275151
1.000000 0.393835 0.297215
1.000000 0.400580 0.319158
1.000000 0.409613 0.341405
1.000000 0.420203 0.363195
1.000000 0.433448 0.386450
1.000000 0.447883 0.409430
1.000000 0.464271 0.433509
0.000000 0.563043 0.000000
0.000000 0.562219 0.000000
0.000000 0.560693 0.000000
0.000000 0.557092 0.000000
0.000000 0.550866 0.000000
0.000000 0.542596 0.000000
0.000000 0.531792 0.000000
0.000000 0.548150 0.000000
0.137179 0.577966 0.000000
0.308263 0.592920 0.000000
0.428626 0.605737 0.000000
0.538384 0.618982 0.000000
0.684596 0.664424 0.000000
0.828794 0.681758 0.000000
0.913634 0.652674 0.000000
0.980591 0.612207 0.000000
1.000000 0.564263 0.000000
1.000000 0.512596 0.000000
1.000000 0.482612 0.165103
1.000000 0.469490 0.194888
1.000000 0.458839 0.221836
1.000000 0.450904 0.245548
1.000000 0.445289 0.267033
1.000000 0.442512 0.288182
1.000000 0.442023 0.308782
1.000000 0.443641 0.329137
1.000000 0.447089 0.348882
1.000000 0.452735 0.368597
1.000000 0.460639 0.389349
1.000000 0.470253 0.410132
1.000000 0.481849 0.431952
1.000000 0.495186 0.454261
0.000000 0.632563 0.000000
0.000000 0.632074 0.000000
0.000000 0.630243 0.000000
0.000000 0.626825 0.000000
0.000000 0.621332 0.000000
0.000000 0.613733 0.000000
0.000000 0.603723 0.000000
0.000000 0.598444 0.000000
0.000000 0.623682 0.000000
0.248692 0.649012 0.000000
0.390265 0.660700 0.000000
0.506584 0.672938 0.000000
0.614862 0.684901 0.000000
0.735134 0.710811 0.000000
0.871397 0.731350 0.000000
0.943420 0.697444 0.000000
1.000000 0.656275 0.000000
1.000000 0.610346 0.000000
1.000000 0.562646 0.000000
1.000000 0.522942 0.209751
1.000000 0.508263 0.249119
1.000000 0.498482 0.271092
1.000000 0.491096 0.291905
1.000000 0.486244 0.311864
1.000000 0.483314 0.330999
1.000000 0.482979 0.350591
1.000000 0.484504 0.369665
1.000000 0.487617 0.388037
1.000000 0.493202 0.407721
1.000000 0.500359 0.427405
1.000000 0.509361 0.447669
1.000000 0.520409 0.468940
0.000000 0.688808 0.000000
0.000000 0.688563 0.000000
0.000000 0.686641 0.000000
0.000000 0.683223 0.000000
0.000000 0.678187 0.000000
0.000000 0.671260 0.000000
0.000000 0.662226 0.000000
0.000000 0.651087 0.000000
0.000000 0.659266 0.000000
0.139620 0.682795 0.000000
0.330449 0.701595 0.000000
0.457038 0.711971 0.000000
0.567010 0.722194 0.000000
0.668605 0.732082 0.000000
0.776608 0.751553 0.000000
0.902617 0.773404 0.000000
0.964721 0.735714 0.000000
1.000000 0.693904 0.000000
1.000000 0.650111 0.000000
1.000000 0.606165 0.000000
1.000000 0.564599 0.200504
1.000000 0.545495 0.303014
1.000000 0.536584 0.322210
1.000000 0.529747 0.340124
1.000000 0.525292 0.358312
1.000000 0.522606 0.375616
1.000000 0.521996 0.393072
1.000000 0.523339 0.410712
1.000000 0.526696 0.429053
1.000000 0.531792 0.447425
1.000000 0.538537 0.466377
1.000000 0.547570 0.486671
0.000000 0.736324 0.000000
0.000000 0.735897 0.000000
0.000000 0.734463 0.000000
0.000000 0.731472 0.000000
0.000000 0.726589 0.000000
0.000000 0.720363 0.000000
0.000000 0.712398 0.000000
0.000000 0.702602 0.000000
0.000000 0.691951 0.000000
0.000000 0.712184 0.000000
0.256565 0.733364 0.000000
0.401038 0.746761 0.000000
0.514946 0.755550 0.000000
0.617151 0.763760 0.000000
0.711696 0.770993 0.000000
0.807645 0.784421 0.000000
0.923095 0.806302 0.000000
0.980285 0.768734 0.000000
1.000000 0.726619 0.000000
1.000000 0.684443 0.000000
1.000000 0.643641 0.097688
1.000000 0.605707 0.224033
1.000000 0.581048 0.327642
1.000000 0.573083 0.373480
1.000000 0.566644 0.389105
1.000000 0.562310 0.404608
1.000000 0.560052 0.420874
1.000000 0.559747 0.437293
1.000000 0.561151 0.453834
1.000000 0.564508 0.471107
1.000000 0.569818 0.489174
1.000000 0.576806 0.507897
0.000000 0.776181 0.000000
0.000000 0.775875 0.000000
0.000000 0.774746 0.000000
0.000000 0.772457 0.000000
0.000000 0.768673 0.000000
0.000000 0.763455 0.000000
0.000000 0.756893 0.000000
0.000000 0.748714 0.000000
0.000000 0.738857 0.000000
0.000000 0.740475 0.000000
0.165988 0.758846 0.000000
0.337346 0.777096 0.000000
0.460548 0.784878 0.000000
0.563684 0.791043 0.000000
0.656916 0.796506 0.000000
0.743526 0.801328 0.000000
0.830259 0.810513 0.000000
0.931609 0.828122 0.000000
0.991485 0.797116 0.000000
1.000000 0.755367 0.000000
1.000000 0.714900 0.000000
1.000000 0.676967 0.151217
1.000000 0.642603 0.256626
1.000000 0.612696 0.324987
1.000000 0.607874 0.423774
1.000000 0.602411 0.438178
1.000000 0.598596 0.452277
1.000000 0.596521 0.466835
1.000000 0.596124 0.481605
1.000000 0.597620 0.497047
1.000000 0.600580 0.512718
1.000000 0.605463 0.529534
0.000000 0.809506 0.000000
0.000000 0.809201 0.000000
0.000000 0.808377 0.000000
0.000000 0.806302 0.000000
0.000000 0.803464 0.000000
0.000000 0.799222 0.000000
0.000000 0.793668 0.000000
0.000000 0.786648 0.000000
0.000000 0.778195 0.000000
0.000000 0.768032 0.000000
0.000000 0.780362 0.000000
0.272526 0.795956 0.000000
0.400488 0.809415 0.000000
0.508537 0.814359 0.000000
0.602777 0.818875 0.000000
0.688624 0.822751 0.000000
0.768734 0.826017 0.000000
0.847227 0.832029 0.000000
0.936919 0.846830 0.000000
1.000000 0.822202 0.000000
1.000000 0.781704 0.000000
1.000000 0.742641 0.000000
1.000000 0.707240 0.193057
1.000000 0.675471 0.286870
1.000000 0.648280 0.352422
1.000000 0.635889 0.432807
1.000000 0.636469 0.485878
1.000000 0.632837 0.498238
1.000000 0.631067 0.511559
1.000000 0.630701 0.524712
1.000000 0.632013 0.538781
1.000000 0.635126 0.553857
0.000000 0.837461 0.000000
0.000000 0.837430 0.000000
0.000000 0.842222 0.000000
0.000000 0.840757 0.000000
0.000000 0.838224 0.000000
0.000000 0.834775 0.000000
0.000000 0.830198 0.000000
0.000000 0.824308 0.000000
0.000000 0.817197 0.000000
0.000000 0.808713 0.000000
0.000000 0.805722 0.000000
0.222416 0.818601 0.000000
0.351598 0.830961 0.000000
0.458564 0.839231 0.000000
0.554040 0.842405 0.000000
0.639460 0.845151 0.000000
0.718318 0.847379 0.000000
0.791775 0.849210 0.000000
0.863310 0.852598 0.000000
0.942290 0.864775 0.000000
1.000000 0.846281 0.000000
1.000000 0.806363 0.000000
1.000000 0.769253 0.000000
1.000000 0.735622 0.236454
1.000000 0.706294 0.321752
1.000000 0.681697 0.384558
1.000000 0.661555 0.435523
1.000000 0.668482 0.528862
1.000000 0.665797 0.543450
1.000000 0.663691 0.554253
1.000000 0.663600 0.566735
1.000000 0.664820 0.579522
0.000000 0.862058 0.072999
0.000000 0.862272 0.083192
0.000000 0.862181 0.088472
0.000000 0.861265 0.092226
0.000000 0.859556 0.098054
0.000000 0.856809 0.100343
0.000000 0.852934 0.103853
0.000000 0.848020 0.105684
0.000000 0.842161 0.111177
0.000000 0.835080 0.117464
0.000000 0.826780 0.123445
0.165896 0.832120 0.000000
0.305089 0.843015 0.000000
0.405890 0.853239 0.000000
0.501366 0.858244 0.000000
0.587854 0.860624 0.000000
0.666133 0.862669 0.000000
0.739040 0.864347 0.000000
0.807828 0.865660 0.000000
0.873899 0.867704 0.000000
0.944274 0.878355 0.000000
1.000000 0.866270 0.000000
1.000000 0.827604 0.000000
1.000000 0.791836 0.125917
1.000000 0.760098 0.267430
1.000000 0.732753 0.348913
1.000000 0.710140 0.410224
1.000000 0.691920 0.460945
1.000000 0.687984 0.528069
1.000000 0.695460 0.583612
1.000000 0.693721 0.593774
1.000000 0.693355 0.604517
0.000000 0.880613 0.172122
0.000000 0.880797 0.174624
0.000000 0.880735 0.176577
0.000000 0.880034 0.178561
0.000000 0.878630 0.178927
0.000000 0.876371 0.181643
0.000000 0.873259 0.181613
0.000000 0.869169 0.181704
0.000000 0.864286 0.183017
0.000000 0.858335 0.183383
0.000000 0.851469 0.185183
0.134371 0.845792 0.178439
0.272435 0.855222 0.084962
0.367834 0.864439 0.000000
0.452125 0.873014 0.000000
0.539635 0.875456 0.000000
0.618372 0.877195 0.000000
0.690425 0.878599 0.000000
0.757961 0.879728 0.000000
0.821988 0.880552 0.000000
0.883543 0.881376 0.000000
0.946105 0.890623 0.000000
1.000000 0.884520 0.000000
1.000000 0.846738 0.000000
1.000000 0.812619 0.178317
1.000000 0.782650 0.297887
1.000000 0.757137 0.375158
1.000000 0.736202 0.435492
1.000000 0.719509 0.485573
1.000000 0.706935 0.528405
1.000000 0.719387 0.608576
1.000000 0.721706 0.630549
0.000000 0.897154 0.232792
0.000000 0.897307 0.233921
0.000000 0.897185 0.235477
0.000000 0.896605 0.237064
0.000000 0.895384 0.237247
0.000000 0.893492 0.237919
0.000000 0.890867 0.237217
0.000000 0.887510 0.237247
0.000000 0.883452 0.237034
0.000000 0.878508 0.236545
0.000000 0.872679 0.235966
0.103700 0.865934 0.235019
0.258030 0.867063 0.209476
0.342046 0.875212 0.139071
0.419104 0.882994 0.000000
0.494331 0.889372 0.000000
0.573632 0.890806 0.000000
0.645838 0.892088 0.000000
0.712764 0.893126 0.000000
0.775418 0.893919 0.000000
0.835203 0.894469 0.000000
0.892607 0.894652 0.000000
0.951293 0.902190 0.000000
1.000000 0.901976 0.000000
1.000000 0.865690 0.000000
1.000000 0.833158 0.231907
1.000000 0.805081 0.335882
1.000000 0.781521 0.408881
1.000000 0.762692 0.468605
1.000000 0.747860 0.517754
1.000000 0.736965 0.560327
1.000000 0.738796 0.616693
0.000000 0.913207 0.291966
0.000000 0.913207 0.292332
0.000000 0.912993 0.292851
0.000000 0.912291 0.292363
0.000000 0.911131 0.291966
0.000000 0.909422 0.291691
0.000000 0.907164 0.291356
0.000000 0.904387 0.290318
0.000000 0.900877 0.288975
0.000000 0.896788 0.287846
0.000000 0.892058 0.287083
0.120363 0.886412 0.285222
0.267674 0.880003 0.283696
0.336492 0.886442 0.245426
0.400793 0.893400 0.185885
0.464393 0.899962 0.000000
0.533928 0.903990 0.000000
0.605493 0.904875 0.000000
0.670954 0.905608 0.000000
0.732631 0.906096 0.000000
0.790829 0.906401 0.000000
0.846525 0.906432 0.000000
0.900328 0.906157 0.000000
0.955230 0.911925 0.000000
1.000000 0.914549 0.000000
1.000000 0.882048 0.000000
1.000000 0.850980 0.267124
1.000000 0.824399 0.364355
1.000000 0.802487 0.436103
1.000000 0.784848 0.493874
1.000000 0.771389 0.542748
1.000000 0.761563 0.585016
0.000000 0.925536 0.338720
0.000000 0.925566 0.338872
0.000000 0.925292 0.338933
0.000000 0.924712 0.338872
0.000000 0.923766 0.338140
0.000000 0.922393 0.338201
0.000000 0.920470 0.336828
0.000000 0.918120 0.335393
0.000000 0.915251 0.334661
0.000000 0.911833 0.332891
0.000000 0.907866 0.331762
0.161624 0.903166 0.330053
0.274907 0.897826 0.327153
0.343877 0.896208 0.314244
0.395148 0.902434 0.276402
0.447761 0.908446 0.221805
0.502708 0.914092 0.127504
0.567895 0.916320 0.000000
0.633082 0.916869 0.000000
0.693629 0.917205 0.000000
0.750515 0.917418 0.000000
0.804623 0.917418 0.000000
0.856870 0.917205 0.000000
0.907530 0.916716 0.000000
0.958556 0.920653 0.000000
1.000000 0.923186 0.000000
1.000000 0.897246 0.126406
1.000000 0.867552 0.298833
1.000000 0.842222 0.391089
1.000000 0.821500 0.461006
1.000000 0.805203 0.518975
1.000000 0.792752 0.567041
0.000000 0.936950 0.385870
0.000000 0.936980 0.386999
0.000000 0.936797 0.386542
0.000000 0.936248 0.386664
0.000000 0.935363 0.385565
0.000000 0.934081 0.384161
0.000000 0.932464 0.382757
0.000000 0.930358 0.381201
0.000000 0.927855 0.379126
0.000000 0.924895 0.377264
0.000000 0.921416 0.374701
0.209995 0.917479 0.372595
0.294102 0.912932 0.369940
0.358129 0.907744 0.366461
0.400824 0.910430 0.341741
0.441871 0.915801 0.303197
0.486580 0.920989 0.250156
0.534295 0.925841 0.167025
0.597131 0.926604 0.143313
0.657038 0.926848 0.126223
0.712917 0.927001 0.094514
0.766049 0.926970 0.000000
0.816526 0.926757 0.000000
0.865476 0.926329 0.000000
0.913085 0.925658 0.000000
0.961852 0.929168 0.000000
1.000000 0.931640 0.000000
1.000000 0.911681 0.187716
1.000000 0.883085 0.329473
1.000000 0.859037 0.418341
1.000000 0.839536 0.486488
1.000000 0.824582 0.543511
0.000000 0.945953 0.424811
0.000000 0.945983 0.425513
0.000000 0.945800 0.425971
0.000000 0.945403 0.425879
0.000000 0.944701 0.425452
0.000000 0.943694 0.424750
0.000000 0.942351 0.423316
0.000000 0.940703 0.422492
0.000000 0.938659 0.421210
0.000000 0.936248 0.419654
0.185977 0.933410 0.417304
0.266087 0.930114 0.415503
0.326635 0.926390 0.413062
0.378912 0.922057 0.410315
0.422583 0.918608 0.403082
0.452033 0.923491 0.372503
0.485695 0.928252 0.333989
0.523217 0.932830 0.282902
0.567102 0.936584 0.220127
0.625879 0.936675 0.214328
0.680629 0.936675 0.205295
0.732204 0.936614 0.192081
0.781247 0.936431 0.170687
0.828519 0.936095 0.134005
0.874327 0.935576 0.003052
0.919310 0.934874 0.000000
0.965240 0.937713 0.000000
1.000000 0.940215 0.000000
1.000000 0.925902 0.244388
1.000000 0.898741 0.367376
1.000000 0.876280 0.451606
1.000000 0.858457 0.518242
0.000000 0.954437 0.466041
0.000000 0.954406 0.466041
0.000000 0.954253 0.466041
0.000000 0.953887 0.465736
0.000000 0.953277 0.465522
0.000000 0.952422 0.464759
0.000000 0.951293 0.463722
0.000000 0.949889 0.462593
0.132876 0.948150 0.461097
0.212955 0.946105 0.460121
0.269718 0.943694 0.458167
0.318334 0.940948 0.456184
0.362921 0.937804 0.454078
0.404273 0.934203 0.451392
0.443305 0.930144 0.447791
0.471778 0.930419 0.432074
0.495613 0.934813 0.401282
0.523400 0.939147 0.362432
0.555474 0.943328 0.311864
0.598413 0.945861 0.269932
0.652003 0.945769 0.266758
0.702174 0.945647 0.261143
0.749569 0.945434 0.251804
0.795377 0.945129 0.238041
0.839536 0.944732 0.216922
0.882506 0.944213 0.185977
0.925109 0.943481 0.129671
0.968505 0.945678 0.000000
1.000000 0.948211 0.014160
1.000000 0.939269 0.287907
1.000000 0.913573 0.400488
1.000000 0.892790 0.482887
0.000000 0.961975 0.503807
0.000000 0.961944 0.503807
0.000000 0.961822 0.503960
0.045350 0.961517 0.503746
0.117708 0.961028 0.503593
0.160189 0.960327 0.503441
0.200290 0.959442 0.503563
0.238621 0.958343 0.503441
0.275669 0.956970 0.503380
0.311803 0.955352 0.503319
0.347326 0.953491 0.503319
0.381689 0.951263 0.502892
0.415076 0.948760 0.502037
0.447333 0.945892 0.500725
0.478889 0.942657 0.498787
0.509087 0.939025 0.495674
0.525383 0.942321 0.472480
0.543572 0.946380 0.441840
0.565332 0.950439 0.403723
0.591272 0.954406 0.354742
0.632990 0.955871 0.330358
0.680964 0.955688 0.329259
0.726345 0.955474 0.325536
0.769741 0.955169 0.319524
0.811643 0.954803 0.310063
0.852506 0.954376 0.296239
0.892729 0.953796 0.276493
0.932403 0.953124 0.249393
0.972808 0.954772 0.209720
1.000000 0.957153 0.212589
1.000000 0.953460 0.350958
1.000000 0.929808 0.453590
0.284825 0.969696 0.548333
0.285893 0.969665 0.548516
0.288182 0.969543 0.548150
0.293950 0.969268 0.548180
0.302281 0.968811 0.547845
0.313359 0.968200 0.547173
0.328161 0.967376 0.546868
0.345159 0.966400 0.546349
0.364996 0.965148 0.545861
0.386450 0.963714 0.545190
0.409094 0.962005 0.544244
0.433173 0.960082 0.543542
0.457771 0.957916 0.542321
0.483009 0.955413 0.540917
