20 Preset/Japan Style/【3】LUT video cho PR-AE-FCPX/LUT VIDEO (2)/Japan Style LUT (9).cube
# Created by Adobe Lightroom plugin Export LUT (1.24.0)
# www.johnrellis.com/lightroom/exportlut.htm
# Preset: 09日系清新（素材江湖）
# Color profile: C:\Program Files (x86)\Common Files\Adobe\Color\Profiles\Recommended\VideoHD.icc
LUT_3D_SIZE 32
DOMAIN_MIN 0.0 0.0 0.0
DOMAIN_MAX 1.0 1.0 1.0
0.091341 0.095827 0.110750
0.090700 0.095888 0.110445
0.086915 0.095857 0.110170
0.082551 0.095003 0.109346
0.090211 0.093721 0.108095
0.114534 0.092622 0.106752
0.155398 0.089662 0.105623
0.208347 0.078340 0.104585
0.270146 0.036500 0.103517
0.337621 0.000000 0.102052
0.410010 0.000000 0.100526
0.484688 0.000000 0.098299
0.559136 0.000000 0.095949
0.631342 0.000000 0.092836
0.698421 0.000000 0.089052
0.759335 0.000000 0.085664
0.816922 0.000000 0.082765
0.868559 0.000000 0.082094
0.912108 0.000000 0.088228
0.949462 0.000000 0.095521
0.981140 0.000000 0.106966
1.000000 0.000000 0.120882
1.000000 0.142306 0.136904
1.000000 0.201114 0.154269
1.000000 0.246281 0.174228
1.000000 0.286381 0.195468
1.000000 0.322301 0.218845
1.000000 0.356176 0.243992
1.000000 0.388464 0.270634
1.000000 0.419928 0.299565
1.000000 0.450935 0.330205
1.000000 0.481270 0.363470
0.090974 0.095491 0.110475
0.090211 0.095552 0.110475
0.086763 0.095125 0.109926
0.083192 0.094606 0.109071
0.090974 0.093629 0.108095
0.115755 0.093263 0.106661
0.156405 0.090700 0.105470
0.208957 0.080812 0.104372
0.270481 0.041627 0.103273
0.337896 0.000000 0.101808
0.409766 0.000000 0.100160
0.484016 0.000000 0.098238
0.558373 0.000000 0.095430
0.630182 0.000000 0.092317
0.697047 0.000000 0.088930
0.758175 0.000000 0.084565
0.815488 0.000000 0.081025
0.866606 0.000000 0.081209
0.910002 0.000000 0.086305
0.947173 0.000000 0.094514
0.978943 0.000000 0.105043
1.000000 0.000000 0.118868
1.000000 0.141970 0.134981
1.000000 0.199863 0.152407
1.000000 0.245243 0.171969
1.000000 0.283940 0.193576
1.000000 0.320226 0.216342
1.000000 0.354223 0.241520
1.000000 0.386633 0.268132
1.000000 0.418158 0.296941
1.000000 0.449042 0.327764
1.000000 0.479622 0.360876
0.089784 0.092897 0.108858
0.089784 0.092897 0.108858
0.087251 0.093141 0.108858
0.086183 0.093233 0.108522
0.095888 0.094697 0.107210
0.122225 0.096986 0.106081
0.164584 0.096010 0.104921
0.217655 0.090181 0.103548
0.278935 0.062196 0.102052
0.345525 0.000000 0.100710
0.416541 0.000000 0.098634
0.489967 0.000000 0.096315
0.562951 0.000000 0.093568
0.633783 0.000000 0.090272
0.699825 0.000000 0.084535
0.760067 0.000000 0.080354
0.816587 0.000000 0.076692
0.866606 0.000000 0.076814
0.909392 0.000000 0.081483
0.946349 0.000000 0.091829
0.977935 0.000000 0.102510
1.000000 0.071382 0.116945
1.000000 0.160311 0.132906
1.000000 0.211551 0.150942
1.000000 0.253605 0.170504
1.000000 0.290349 0.192294
1.000000 0.325444 0.215274
1.000000 0.358618 0.240238
1.000000 0.389990 0.267124
1.000000 0.420996 0.296025
1.000000 0.451179 0.326879
1.000000 0.481422 0.359838
0.085847 0.094118 0.107424
0.086030 0.094118 0.107088
0.086030 0.094118 0.107088
0.089235 0.095796 0.106844
0.104860 0.100496 0.105684
0.136202 0.107942 0.104311
0.181308 0.112947 0.102266
0.235172 0.109712 0.100618
0.296574 0.098909 0.099336
0.362341 0.067781 0.097169
0.432288 0.000000 0.095094
0.503227 0.000000 0.091920
0.574853 0.000000 0.088350
0.643183 0.000000 0.082246
0.706813 0.000000 0.074922
0.765042 0.000000 0.066011
0.819944 0.000000 0.060334
0.867674 0.000000 0.060975
0.909117 0.000000 0.068818
0.944945 0.000000 0.085115
0.975921 0.006714 0.098451
1.000000 0.139528 0.113436
1.000000 0.190860 0.130190
1.000000 0.232486 0.148501
1.000000 0.269841 0.168490
1.000000 0.304356 0.191043
1.000000 0.337011 0.215061
1.000000 0.368566 0.240299
1.000000 0.398718 0.267185
1.000000 0.428504 0.296086
1.000000 0.457649 0.326940
1.000000 0.486641 0.359716
0.055818 0.112093 0.107973
0.056123 0.112093 0.107637
0.057893 0.112734 0.106203
0.076295 0.113375 0.106661
0.105653 0.121309 0.105043
0.158724 0.129824 0.101686
0.207034 0.138003 0.098573
0.261295 0.144808 0.094484
0.321813 0.145235 0.090089
0.386603 0.133455 0.087831
0.454200 0.114443 0.083406
0.523156 0.080995 0.077058
0.591119 0.000000 0.067414
0.656703 0.000000 0.056184
0.717403 0.000000 0.045960
0.773831 0.000000 0.038087
0.825925 0.000000 0.031891
0.871336 0.000000 0.033783
0.910948 0.000000 0.043030
0.945708 0.112673 0.066712
0.975769 0.161257 0.090730
1.000000 0.199069 0.108339
1.000000 0.233433 0.126711
1.000000 0.266148 0.146212
1.000000 0.296941 0.167483
1.000000 0.327214 0.190494
1.000000 0.356207 0.214694
1.000000 0.384649 0.240574
1.000000 0.412604 0.267948
1.000000 0.440375 0.296910
1.000000 0.467811 0.327764
1.000000 0.495583 0.360449
0.000000 0.151827 0.111513
0.000000 0.152041 0.111147
0.000000 0.152132 0.108858
0.000000 0.152407 0.107332
0.059785 0.157229 0.107881
0.138735 0.172366 0.102358
0.234592 0.184512 0.092683
0.301152 0.187716 0.083955
0.359594 0.192416 0.070741
0.420844 0.197818 0.047211
0.484413 0.195163 0.029969
0.550652 0.182620 0.021271
0.614801 0.169039 0.013458
0.676051 0.157137 0.005158
0.732937 0.149844 0.000000
0.786801 0.149538 0.000000
0.835050 0.157870 0.000000
0.877623 0.171481 0.000000
0.915190 0.190463 0.004608
0.948150 0.211826 0.032258
0.977020 0.235630 0.073548
1.000000 0.259831 0.101076
1.000000 0.300481 0.132296
1.000000 0.324254 0.154574
1.000000 0.347753 0.178286
1.000000 0.371679 0.202518
1.000000 0.395575 0.228000
1.000000 0.419715 0.253880
1.000000 0.444129 0.281682
1.000000 0.468513 0.311162
1.000000 0.493172 0.341802
1.000000 0.518059 0.374609
0.000000 0.211429 0.117861
0.000000 0.211521 0.117220
0.000000 0.211307 0.114534
0.000000 0.211643 0.108949
0.000000 0.210666 0.111696
0.057191 0.222141 0.108980
0.194583 0.242741 0.097047
0.323705 0.258000 0.060761
0.415717 0.259068 0.021454
0.474861 0.260624 0.000000
0.533349 0.264561 0.000000
0.590600 0.271305 0.000000
0.647700 0.271550 0.000000
0.703761 0.264317 0.000000
0.758328 0.262058 0.000000
0.807431 0.262364 0.000000
0.851408 0.266209 0.000000
0.890135 0.272831 0.000000
0.924651 0.283177 0.000000
0.955535 0.295781 0.000000
0.982849 0.310552 0.042634
1.000000 0.326940 0.096468
1.000000 0.344854 0.123903
1.000000 0.363684 0.149966
1.000000 0.383276 0.175387
1.000000 0.403388 0.201114
1.000000 0.423468 0.227237
1.000000 0.444160 0.253849
1.000000 0.465461 0.282017
1.000000 0.487129 0.311467
1.000000 0.509331 0.342809
1.000000 0.532280 0.375097
0.000000 0.276280 0.127321
0.000000 0.276158 0.126802
0.000000 0.275883 0.123354
0.000000 0.275975 0.117189
0.000000 0.275059 0.112978
0.000000 0.273075 0.121950
0.116060 0.293156 0.111910
0.263798 0.316258 0.091798
0.409400 0.334905 0.014679
0.525200 0.337102 0.000000
0.580987 0.336492 0.000000
0.632502 0.339269 0.000000
0.681758 0.346075 0.000000
0.728511 0.356207 0.000000
0.774319 0.359503 0.000000
0.818509 0.355871 0.000000
0.858366 0.354986 0.000000
0.894041 0.356085 0.000000
0.926238 0.359625 0.000000
0.955322 0.365972 0.000000
0.981292 0.374670 0.000000
1.000000 0.384558 0.076204
1.000000 0.396185 0.116487
1.000000 0.409583 0.145876
1.000000 0.424567 0.173922
1.000000 0.440040 0.201083
1.000000 0.456306 0.228061
1.000000 0.473396 0.255589
1.000000 0.491493 0.284123
1.000000 0.510430 0.313909
1.000000 0.529961 0.345006
1.000000 0.550652 0.377752
0.000000 0.345373 0.143038
0.000000 0.345556 0.142061
0.000000 0.345190 0.138705
0.000000 0.344976 0.132113
0.000000 0.344244 0.121920
0.000000 0.342351 0.127565
0.000000 0.345190 0.134524
0.189548 0.368017 0.119936
0.343359 0.391852 0.094484
0.494514 0.412604 0.000000
0.628717 0.421698 0.000000
0.677424 0.420539 0.000000
0.721218 0.421637 0.000000
0.761105 0.425696 0.000000
0.798032 0.431983 0.000000
0.831266 0.439796 0.000000
0.864775 0.441016 0.000000
0.897795 0.436957 0.000000
0.927916 0.435218 0.000000
0.955261 0.436225 0.000000
0.979797 0.439246 0.000000
1.000000 0.443854 0.038636
1.000000 0.450507 0.110536
1.000000 0.459052 0.144350
1.000000 0.469337 0.174929
1.000000 0.480659 0.202976
1.000000 0.493050 0.231418
1.000000 0.506828 0.259617
1.000000 0.521660 0.288151
1.000000 0.537255 0.318456
1.000000 0.554437 0.349462
1.000000 0.572381 0.382330
0.000000 0.416419 0.165927
0.000000 0.416327 0.165042
0.000000 0.415930 0.161837
0.000000 0.415412 0.154940
0.000000 0.414862 0.144442
0.000000 0.413275 0.138094
0.000000 0.410346 0.151278
0.000000 0.419867 0.152743
0.275914 0.443183 0.138094
0.428717 0.466835 0.112276
0.575860 0.489113 0.030640
0.699916 0.503044 0.000000
0.755093 0.499977 0.000000
0.790585 0.497993 0.000000
0.822049 0.497902 0.000000
0.850919 0.500008 0.000000
0.877714 0.504143 0.000000
0.902708 0.510033 0.000000
0.928710 0.509819 0.000000
0.954437 0.506096 0.000000
0.977600 0.503960 0.000000
0.998291 0.503716 0.003296
1.000000 0.505638 0.104311
1.000000 0.509545 0.143801
1.000000 0.515282 0.175814
1.000000 0.522606 0.206027
1.000000 0.531334 0.234897
1.000000 0.541741 0.263462
1.000000 0.553491 0.292882
1.000000 0.566491 0.323064
1.000000 0.580804 0.354772
1.000000 0.596429 0.388190
0.000000 0.484840 0.195071
0.000000 0.484810 0.194614
0.000000 0.484718 0.191196
0.000000 0.484413 0.185245
0.000000 0.483986 0.175662
0.000000 0.483284 0.162173
0.000000 0.480903 0.168826
0.000000 0.477607 0.184085
0.198520 0.493660 0.179904
0.366979 0.515251 0.166903
0.511437 0.536522 0.146914
0.643244 0.558221 0.117067
0.756405 0.574701 0.022400
0.815488 0.570947 0.000000
0.844053 0.565484 0.000000
0.869413 0.562341 0.000000
0.892668 0.561334 0.000000
0.914427 0.562280 0.000000
0.934874 0.565240 0.000000
0.953704 0.569574 0.000000
0.973846 0.567803 0.000000
0.993713 0.563409 0.000000
1.000000 0.561425 0.105867
1.000000 0.561303 0.147738
1.000000 0.563195 0.182101
1.000000 0.567102 0.212558
1.000000 0.572564 0.242222
1.000000 0.579644 0.271458
1.000000 0.588281 0.300786
1.000000 0.598474 0.331456
1.000000 0.610101 0.363134
1.000000 0.623255 0.396368
0.000000 0.551293 0.231968
0.000000 0.551171 0.230869
0.000000 0.550927 0.227909
0.000000 0.550622 0.222446
0.000000 0.550042 0.213413
0.000000 0.549187 0.201633
0.000000 0.547662 0.193088
0.000000 0.544091 0.207828
0.000000 0.542046 0.222110
0.308141 0.561089 0.215274
0.454444 0.580407 0.205631
0.582818 0.599573 0.193454
0.710872 0.630610 0.191867
0.807797 0.644099 0.172457
0.871153 0.643915 0.165194
0.893706 0.635401 0.140322
0.913878 0.629084 0.124514
0.932250 0.625269 0.120211
0.949523 0.623407 0.113649
0.965515 0.623072 0.106752
0.980377 0.623987 0.103243
0.994232 0.626307 0.100984
1.000000 0.623682 0.133577
1.000000 0.619776 0.171878
1.000000 0.618067 0.204044
1.000000 0.618250 0.233646
1.000000 0.619837 0.262119
1.000000 0.623499 0.290715
1.000000 0.628748 0.319493
1.000000 0.635706 0.348852
1.000000 0.644343 0.379950
1.000000 0.654658 0.412451
0.000000 0.617639 0.277653
0.000000 0.617578 0.277134
0.000000 0.616907 0.274235
0.000000 0.616266 0.268956
0.000000 0.614984 0.260502
0.000000 0.613550 0.249058
0.000000 0.611841 0.234714
0.000000 0.608453 0.240513
0.000000 0.604395 0.255619
0.254307 0.607752 0.264988
0.409613 0.624994 0.261418
0.535851 0.642237 0.257847
0.647944 0.659236 0.253605
0.748470 0.675746 0.248875
0.834623 0.688685 0.240513
0.901091 0.691951 0.242405
0.920775 0.682704 0.223270
0.938384 0.675074 0.204685
0.953826 0.669581 0.200351
0.968109 0.665736 0.196994
0.981537 0.663416 0.193362
0.994324 0.662867 0.191470
1.000000 0.663874 0.191531
1.000000 0.666529 0.194217
1.000000 0.664057 0.217960
1.000000 0.661555 0.246677
1.000000 0.660639 0.274968
1.000000 0.661616 0.303105
1.000000 0.664393 0.331823
1.000000 0.668940 0.361425
1.000000 0.675166 0.392096
1.000000 0.683284 0.424659
0.000000 0.666316 0.319280
0.000000 0.666194 0.318578
0.000000 0.665797 0.316320
0.000000 0.664881 0.311498
0.000000 0.663661 0.303990
0.000000 0.662348 0.294682
0.000000 0.660700 0.282292
0.000000 0.658534 0.273350
0.000000 0.654505 0.286625
0.208225 0.650141 0.301946
0.362249 0.658076 0.307530
0.487007 0.672847 0.307439
0.595911 0.687495 0.307408
0.693385 0.701869 0.307195
0.780850 0.715816 0.306859
0.856565 0.727108 0.304143
0.916960 0.731899 0.306035
0.941131 0.723140 0.294835
0.956359 0.714809 0.277165
0.969787 0.707881 0.267552
0.981964 0.702785 0.264286
0.993774 0.699611 0.261753
1.000000 0.698238 0.260258
1.000000 0.698482 0.261204
1.000000 0.700160 0.263798
1.000000 0.703334 0.269230
1.000000 0.701350 0.292668
1.000000 0.699886 0.320165
1.000000 0.700343 0.347631
1.000000 0.702602 0.376867
1.000000 0.706661 0.407416
1.000000 0.712673 0.439826
0.000000 0.707851 0.361364
0.000000 0.707820 0.361364
0.000000 0.707424 0.359472
0.000000 0.706538 0.354650
0.000000 0.705440 0.348577
0.000000 0.704097 0.340337
0.000000 0.702602 0.329686
0.000000 0.700984 0.317693
0.000000 0.697871 0.321630
0.194583 0.693751 0.335210
0.326879 0.689540 0.350561
0.448005 0.700923 0.353460
0.552514 0.713466 0.355718
0.646357 0.725948 0.358038
0.731075 0.737972 0.360296
0.807279 0.749447 0.362341
0.873899 0.759152 0.362737
0.928985 0.765499 0.364996
0.956176 0.757259 0.360784
0.969360 0.748379 0.343420
0.981628 0.740932 0.329351
0.992523 0.735653 0.326696
1.000000 0.732174 0.324559
1.000000 0.730343 0.323705
1.000000 0.730007 0.324743
1.000000 0.731075 0.328069
1.000000 0.733455 0.333532
1.000000 0.737118 0.341924
1.000000 0.735836 0.368444
1.000000 0.736294 0.396826
1.000000 0.738582 0.427405
1.000000 0.742855 0.459724
0.000000 0.742733 0.402502
0.000000 0.742763 0.402319
0.000000 0.742489 0.400855
0.000000 0.742000 0.397528
0.000000 0.741238 0.392859
0.000000 0.740261 0.385992
0.000000 0.739162 0.377691
0.000000 0.737942 0.367376
0.000000 0.736202 0.360113
0.201541 0.732479 0.371984
0.328405 0.728359 0.385382
0.419989 0.727047 0.397406
0.519188 0.737514 0.400458
0.607721 0.747829 0.403479
0.688167 0.757748 0.406470
0.761593 0.767453 0.410254
0.828580 0.776974 0.413672
0.886961 0.785245 0.416083
0.937835 0.792752 0.417945
0.966766 0.785428 0.421729
0.978637 0.776974 0.405097
0.990173 0.769955 0.390997
1.000000 0.764858 0.385779
1.000000 0.761410 0.384497
1.000000 0.759396 0.384649
1.000000 0.758816 0.386603
1.000000 0.759640 0.391089
1.000000 0.761685 0.397314
1.000000 0.764981 0.406531
1.000000 0.768978 0.420386
1.000000 0.769375 0.450080
1.000000 0.771939 0.481788
0.000000 0.772396 0.442481
0.000000 0.772305 0.441962
0.000000 0.772122 0.440620
0.000000 0.771725 0.438209
0.000000 0.771115 0.434272
0.000000 0.770321 0.428717
0.000000 0.769345 0.422004
0.000000 0.768215 0.413825
0.000000 0.766873 0.404303
0.223728 0.764157 0.407843
0.335821 0.760342 0.419532
0.415595 0.756283 0.432349
0.494240 0.758358 0.441138
0.576776 0.767086 0.444862
0.652979 0.775631 0.448981
0.723110 0.783932 0.453315
0.787106 0.792020 0.457557
0.845579 0.800015 0.462562
0.897337 0.807156 0.466377
0.942901 0.813596 0.468788
0.974426 0.809903 0.479255
0.985687 0.802121 0.464088
0.996338 0.795743 0.451148
1.000000 0.790890 0.443427
1.000000 0.787594 0.443153
1.000000 0.785702 0.444404
1.000000 0.785061 0.447272
1.000000 0.785763 0.452644
1.000000 0.787747 0.460517
1.000000 0.791073 0.471809
1.000000 0.795621 0.486366
1.000000 0.800381 0.508324
0.000000 0.797665 0.481147
0.000000 0.797665 0.480934
0.000000 0.801755 0.487098
0.000000 0.801419 0.485237
0.000000 0.800931 0.482155
0.000000 0.800137 0.477729
0.094240 0.799222 0.472084
0.172183 0.798093 0.465309
0.226169 0.796872 0.458015
0.279759 0.795193 0.451972
0.366186 0.791684 0.461921
0.435401 0.787808 0.472999
0.493660 0.783627 0.484993
0.562615 0.788083 0.490578
0.631678 0.795010 0.494820
0.696101 0.801846 0.499397
0.756039 0.808438 0.503593
0.811215 0.814969 0.508141
0.861540 0.821408 0.513298
0.906950 0.827604 0.517967
0.947295 0.833188 0.522454
0.977264 0.832242 0.532097
0.991089 0.825620 0.524346
1.000000 0.819699 0.512505
1.000000 0.814908 0.502983
1.000000 0.811704 0.502068
1.000000 0.809903 0.504021
1.000000 0.809354 0.507958
1.000000 0.810147 0.514611
1.000000 0.812345 0.524834
1.000000 0.815946 0.538537
1.000000 0.820401 0.554376
0.138064 0.820035 0.520287
0.145876 0.820371 0.521019
0.157412 0.820554 0.520623
0.175418 0.820615 0.519921
0.196139 0.820340 0.517571
0.220829 0.819852 0.514549
0.247196 0.819028 0.509941
0.274357 0.818051 0.504234
0.304204 0.816861 0.497993
0.334783 0.815549 0.491432
0.387549 0.813138 0.493812
0.447974 0.809720 0.503624
0.500969 0.805997 0.514183
0.549279 0.802518 0.524895
0.612360 0.808621 0.529473
0.672053 0.814603 0.534264
0.728054 0.820523 0.539239
0.780484 0.826322 0.544427
0.829099 0.832120 0.549798
0.873564 0.837919 0.555627
0.913909 0.843595 0.561669
0.950195 0.849088 0.567407
0.978851 0.850370 0.577081
0.994232 0.844755 0.576837
1.000000 0.839567 0.566491
1.000000 0.835477 0.558923
1.000000 0.832609 0.556756
1.000000 0.831266 0.560479
1.000000 0.831266 0.566613
1.000000 0.832609 0.575647
1.000000 0.835111 0.587457
1.000000 0.838315 0.600763
0.279088 0.837766 0.555261
0.281743 0.837980 0.555627
0.286870 0.838254 0.555840
0.294987 0.838254 0.555200
0.305058 0.838102 0.553582
0.317906 0.837644 0.550896
0.333410 0.837003 0.547509
0.350896 0.836088 0.543053
0.371344 0.835080 0.538293
0.392645 0.833921 0.532494
0.417792 0.832517 0.527581
0.469062 0.829465 0.536156
0.515831 0.826200 0.545525
0.558648 0.822721 0.555596
0.603479 0.822049 0.564172
0.657282 0.827329 0.568902
0.708675 0.832547 0.573785
0.757259 0.837705 0.579004
0.802853 0.842832 0.584405
0.845335 0.847959 0.590204
0.884459 0.853117 0.596338
0.920287 0.858274 0.602899
0.952789 0.863523 0.609918
0.980194 0.866636 0.619318
0.996338 0.862058 0.625818
1.000000 0.857664 0.617456
1.000000 0.854185 0.611719
1.000000 0.851957 0.609491
1.000000 0.851347 0.615595
1.000000 0.851835 0.623621
1.000000 0.853147 0.632990
1.000000 0.855619 0.645045
0.365759 0.853635 0.589990
0.367620 0.853849 0.590356
0.370977 0.854002 0.590570
0.376226 0.854002 0.590082
0.382971 0.853849 0.588769
0.391760 0.853483 0.586877
0.402594 0.852873 0.584039
0.415015 0.852171 0.580407
0.429816 0.851286 0.576532
0.446448 0.850278 0.572198
0.464332 0.849149 0.567712
0.495430 0.847135 0.569390
0.535576 0.844297 0.577478
0.573236 0.841245 0.586236
0.608453 0.838102 0.595544
0.650599 0.839689 0.602258
0.696712 0.844358 0.607202
0.741299 0.849058 0.612665
0.783536 0.853758 0.618402
0.823453 0.858488 0.624506
0.860594 0.863249 0.631159
0.894987 0.868009 0.638087
0.926543 0.872770 0.644984
0.955627 0.877867 0.653071
0.981537 0.882536 0.662928
0.997894 0.879026 0.675502
1.000000 0.875547 0.670100
1.000000 0.873106 0.667323
1.000000 0.871580 0.667201
1.000000 0.871153 0.672297
1.000000 0.871946 0.681147
1.000000 0.873838 0.692226
0.442847 0.869200 0.627893
0.443244 0.869291 0.627893
0.445258 0.869261 0.627710
0.447974 0.869139 0.627131
0.452552 0.868925 0.625849
0.458350 0.868467 0.623926
0.466102 0.867948 0.621790
0.475196 0.867308 0.618891
0.486030 0.866575 0.615534
0.498756 0.865721 0.612177
0.512810 0.864805 0.608606
0.527794 0.863737 0.604547
0.561273 0.861265 0.611444
0.593744 0.858671 0.619135
0.624598 0.855924 0.627131
0.653925 0.853117 0.635798
0.693202 0.856413 0.641047
0.732662 0.860502 0.646143
0.770779 0.864652 0.651423
0.807370 0.868772 0.657191
0.841886 0.872953 0.663172
0.874144 0.877134 0.669581
0.904143 0.881346 0.676112
0.931975 0.885557 0.683009
0.957977 0.890410 0.691737
0.982361 0.896361 0.701869
0.997375 0.893797 0.715877
1.000000 0.891020 0.715663
1.000000 0.889006 0.714076
1.000000 0.887999 0.715389
1.000000 0.888121 0.720699
1.000000 0.889555 0.731136
0.500938 0.882017 0.660761
0.501396 0.882048 0.660761
0.502800 0.882048 0.660761
0.504997 0.881956 0.660090
0.508324 0.881743 0.659297
0.512779 0.881407 0.657771
0.518486 0.880980 0.655848
0.525750 0.880430 0.653590
0.534386 0.879850 0.651148
0.544488 0.879149 0.648402
0.555718 0.878386 0.645563
0.567803 0.877501 0.642420
0.587762 0.876036 0.643580
0.615442 0.873777 0.650294
0.642512 0.871489 0.657527
0.668513 0.869078 0.665187
0.695186 0.867765 0.672694
0.730129 0.871427 0.677668
0.764248 0.875120 0.682918
0.797208 0.878874 0.688441
0.828702 0.882658 0.694514
0.858579 0.886473 0.700740
0.886687 0.890349 0.707362
0.912963 0.894255 0.714199
0.937041 0.897581 0.719417
0.960143 0.902251 0.728511
0.981567 0.907134 0.738155
0.996521 0.906859 0.750881
1.000000 0.904784 0.755703
1.000000 0.903624 0.756649
1.000000 0.903410 0.760098
1.000000 0.904265 0.766445
0.556207 0.894408 0.694697
0.556756 0.894499 0.694881
0.557885 0.894499 0.694850
0.559258 0.894377 0.694240
0.561456 0.894102 0.693263
0.564660 0.893767 0.691981
0.568902 0.893309 0.690394
0.574029 0.892821 0.688319
0.580438 0.892210 0.686091
0.587884 0.891569 0.683589
0.596429 0.890867 0.681056
0.606317 0.890074 0.678553
0.616724 0.889220 0.675807
0.639094 0.887388 0.680934
0.662104 0.885313 0.686976
0.684688 0.883238 0.693660
0.706630 0.881163 0.700618
0.732143 0.881498 0.706935
0.762234 0.884855 0.711940
0.791806 0.888304 0.717617
0.820310 0.891844 0.723476
0.847684 0.895384 0.729671
0.873564 0.898985 0.736049
0.897765 0.902312 0.741817
0.920562 0.905669 0.747768
0.941924 0.908995 0.753780
0.962341 0.913207 0.762081
0.981598 0.918059 0.772152
0.996063 0.919371 0.784482
1.000000 0.918090 0.793393
1.000000 0.917784 0.796323
1.000000 0.918456 0.801938
0.602197 0.905028 0.724849
0.602808 0.905089 0.725124
0.603784 0.905089 0.725124
0.604974 0.905028 0.724727
0.606958 0.904875 0.724208
0.609888 0.904631 0.723445
0.613489 0.904356 0.722377
0.618097 0.903990 0.721035
0.623377 0.903624 0.719509
0.629786 0.903166 0.717952
0.637171 0.902647 0.716243
0.645319 0.902068 0.714504
0.654139 0.901488 0.712764
0.667567 0.900420 0.713741
0.687068 0.898772 0.719142
0.706447 0.897093 0.724941
0.725551 0.895384 0.731350
0.744228 0.893767 0.738186
0.768154 0.895567 0.743801
0.793484 0.898558 0.748531
0.818357 0.901579 0.753628
0.842344 0.904692 0.758938
0.865415 0.907805 0.764370
0.887480 0.910918 0.769924
0.908446 0.914031 0.775631
0.928252 0.917205 0.781369
0.946960 0.920348 0.787228
0.964965 0.924407 0.795529
0.982238 0.929412 0.806149
0.995972 0.932189 0.818204
1.000000 0.931762 0.830014
1.000000 0.932372 0.834836
0.648920 0.915587 0.756649
0.649104 0.915618 0.756649
0.649805 0.915618 0.756649
0.650782 0.915526 0.756374
0.652430 0.915404 0.756008
0.654536 0.915251 0.755276
0.657435 0.915007 0.754513
0.661097 0.914763 0.753658
0.665553 0.914458 0.752682
0.670832 0.914122 0.751644
0.676997 0.913725 0.750607
0.683742 0.913329 0.749477
0.691249 0.912902 0.748501
0.698848 0.912322 0.747127
0.713649 0.911040 0.750790
0.729580 0.909636 0.755550
0.745602 0.908171 0.760769
0.761563 0.906706 0.766354
0.777066 0.905394 0.772366
0.798703 0.908110 0.776669
0.820249 0.910887 0.781277
0.841367 0.913725 0.786130
0.861784 0.916594 0.791135
0.881529 0.919463 0.796231
0.900450 0.922362 0.801389
0.918486 0.925292 0.806668
0.935760 0.928283 0.812100
0.952148 0.931273 0.817594
0.968139 0.935180 0.825437
0.983520 0.940337 0.836332
0.996460 0.944396 0.848325
1.000000 0.944793 0.861234
0.691188 0.925444 0.786343
0.691402 0.925475 0.786374
0.691951 0.925475 0.786404
0.692805 0.925414 0.786252
0.694179 0.925353 0.786038
0.696132 0.925261 0.785763
0.698878 0.925170 0.785519
0.702327 0.925078 0.785306
0.706447 0.924956 0.785000
0.711086 0.924834 0.784634
0.716518 0.924681 0.784360
0.722438 0.924498 0.784054
0.728786 0.924254 0.783719
0.735378 0.923980 0.783322
0.744381 0.923461 0.784421
0.757687 0.922393 0.788632
0.771084 0.921324 0.793210
0.784390 0.920256 0.798001
0.797635 0.919310 0.803250
0.812131 0.919371 0.808286
0.830076 0.921904 0.812406
0.847929 0.924498 0.816770
0.865354 0.927153 0.821225
0.882292 0.929870 0.825803
0.898741 0.932555 0.830442
0.914733 0.935332 0.835264
0.930083 0.938109 0.840116
0.944823 0.940917 0.845151
0.958831 0.943786 0.850340
0.972564 0.947448 0.857450
0.985992 0.952728 0.868345
0.997833 0.957855 0.879789
0.734096 0.935729 0.816861
0.734096 0.935729 0.816800
0.734340 0.935729 0.816709
0.734920 0.935668 0.816587
0.735988 0.935607 0.816403
0.737270 0.935485 0.816068
0.739193 0.935393 0.815824
0.741573 0.935271 0.815457
0.744503 0.935119 0.815091
0.748013 0.934997 0.814786
0.751949 0.934813 0.814389
0.756497 0.934661 0.814206
0.761440 0.934478 0.813931
0.766690 0.934264 0.813657
