20 Preset/Japan Style/【3】LUT video cho PR-AE-FCPX/LUT VIDEO (2)/Japan Style LUT (13).cube
# Created by Adobe Lightroom plugin Export LUT (1.24.0)
# www.johnrellis.com/lightroom/exportlut.htm
# Preset: 13日系清新（素材江湖）
# Color profile: C:\Program Files (x86)\Common Files\Adobe\Color\Profiles\Recommended\VideoHD.icc
LUT_3D_SIZE 8
DOMAIN_MIN 0.000000 0.000000 0.000000
DOMAIN_MAX 0.903226 0.903226 0.903226
0.029145 0.032685 0.028840
0.141848 0.040955 0.023682
0.402564 0.000000 0.000000
0.673487 0.000000 0.000000
0.877287 0.000000 0.000000
0.994659 0.000000 0.000000
1.000000 0.201785 0.000000
1.000000 0.259892 0.000000
0.000000 0.150088 0.099763
0.094514 0.159976 0.032380
0.398291 0.179355 0.000000
0.665675 0.138582 0.000000
0.867674 0.156161 0.000000
0.986175 0.224857 0.000000
1.000000 0.272038 0.000000
1.000000 0.303563 0.000000
0.000000 0.435798 0.271336
0.000000 0.441688 0.254337
0.223148 0.422461 0.000000
0.614405 0.423163 0.000000
0.843412 0.453315 0.000000
0.963043 0.451820 0.000000
1.000000 0.443122 0.000000
1.000000 0.433265 0.000000
0.000000 0.697383 0.519493
0.000000 0.700069 0.513420
0.000000 0.706905 0.443458
0.464271 0.656611 0.176669
0.749081 0.612482 0.000000
0.916716 0.628687 0.000000
1.000000 0.602930 0.000000
1.000000 0.571283 0.000000
0.328679 0.819730 0.671260
0.353368 0.820218 0.669734
0.438025 0.822721 0.666255
0.387793 0.820829 0.558404
0.614374 0.778500 0.350622
0.818265 0.713497 0.000000
0.944121 0.713680 0.000000
1.000000 0.688228 0.000000
0.569604 0.867460 0.752651
0.578943 0.868009 0.753384
0.607111 0.868498 0.753384
0.651026 0.869413 0.753719
0.584527 0.865324 0.652461
0.686763 0.840116 0.487037
0.871214 0.794675 0.000000
0.965972 0.772976 0.013794
0.679469 0.892424 0.802670
0.682826 0.892485 0.802792
0.694820 0.892515 0.802640
0.717159 0.892607 0.803311
0.707729 0.893156 0.779751
0.677455 0.889860 0.707790
0.733577 0.875456 0.579675
0.888090 0.845914 0.299168
0.737728 0.908080 0.833341
0.739284 0.908080 0.833310
0.745937 0.907988 0.833249
0.758694 0.907897 0.833524
0.773861 0.907408 0.833005
0.741543 0.909422 0.796048
0.736141 0.907591 0.746334
0.774655 0.900908 0.651179
0.021790 0.042512 0.150362
0.152285 0.016999 0.155337
0.397650 0.000000 0.147311
0.655207 0.000000 0.132113
0.863828 0.000000 0.098024
0.985931 0.000000 0.000000
1.000000 0.208530 0.000000
1.000000 0.268467 0.000000
0.002625 0.139742 0.147219
0.142275 0.167453 0.153933
0.393469 0.165347 0.141268
0.653590 0.127535 0.122896
0.858305 0.148501 0.062409
0.979400 0.224369 0.000000
1.000000 0.276982 0.000000
1.000000 0.310582 0.000000
0.000000 0.423133 0.329229
0.000000 0.430243 0.318700
0.264103 0.421546 0.189639
0.617853 0.424933 0.005249
0.835386 0.446876 0.000000
0.955383 0.447852 0.000000
1.000000 0.442206 0.000000
1.000000 0.435431 0.000000
0.000000 0.684108 0.540826
0.000000 0.687190 0.536004
0.216739 0.698482 0.507286
0.470161 0.648859 0.269535
0.743099 0.607019 0.000000
0.910216 0.624079 0.000000
0.996735 0.599908 0.000000
1.000000 0.570794 0.000000
0.380987 0.814420 0.681270
0.400336 0.814908 0.679896
0.470436 0.817655 0.676387
0.431830 0.816770 0.586633
0.616052 0.774594 0.393927
0.815305 0.711055 0.000000
0.941009 0.712245 0.018830
1.000000 0.688167 0.135714
0.583703 0.864866 0.757351
0.590906 0.865019 0.757382
0.617884 0.865782 0.757534
0.663264 0.867185 0.759884
0.600946 0.863310 0.667231
0.689723 0.838682 0.511833
0.870359 0.793179 0.159091
0.964080 0.772244 0.175662
0.685389 0.891173 0.805142
0.688136 0.891142 0.804990
0.699794 0.891203 0.804837
0.721859 0.891478 0.805631
0.718013 0.892088 0.786221
0.685878 0.888762 0.716365
0.736080 0.874296 0.592584
0.887327 0.844663 0.322332
0.741054 0.907530 0.834928
0.742855 0.907530 0.834989
0.749355 0.907469 0.834958
0.761898 0.907439 0.835233
0.778622 0.907286 0.835782
0.749233 0.908995 0.801358
0.741695 0.907134 0.752346
0.777493 0.900481 0.659785
0.000000 0.059876 0.407752
0.000000 0.018036 0.410834
0.389990 0.000000 0.414984
0.652918 0.000000 0.398840
0.851743 0.000000 0.379553
0.972045 0.000000 0.353185
1.000000 0.249241 0.349676
1.000000 0.318151 0.336614
0.000000 0.197665 0.397162
0.000000 0.182681 0.400702
0.386999 0.150942 0.407019
0.645136 0.073091 0.392432
0.843717 0.000000 0.372045
0.962951 0.215305 0.359136
1.000000 0.303349 0.347662
1.000000 0.350256 0.335149
0.000000 0.347570 0.384161
0.155184 0.360266 0.387152
0.371527 0.414099 0.404303
0.622980 0.418433 0.381445
0.819394 0.427741 0.370703
0.940459 0.442847 0.359991
1.000000 0.453132 0.351049
1.000000 0.456794 0.339544
0.171542 0.649805 0.593164
0.288426 0.651881 0.593194
0.433875 0.668788 0.589319
0.518944 0.647578 0.467536
0.754391 0.617731 0.353857
0.904021 0.626917 0.374212
0.983429 0.604211 0.366247
1.000000 0.581476 0.354253
0.495491 0.797147 0.713283
0.508476 0.798367 0.712520
0.558312 0.803403 0.710994
0.601434 0.809201 0.692622
0.640406 0.773159 0.533471
0.817014 0.715785 0.331090
0.935332 0.715358 0.368292
1.000000 0.693355 0.383520
0.635340 0.857542 0.777188
0.641138 0.857939 0.777279
0.663081 0.859281 0.777523
0.700435 0.861814 0.779629
0.666316 0.859312 0.722408
0.708034 0.836057 0.598474
0.865904 0.787137 0.335210
0.958282 0.773220 0.366674
0.714199 0.888151 0.818051
0.716518 0.888182 0.817899
0.726589 0.888426 0.817685
0.745663 0.889097 0.818296
0.758999 0.889891 0.812345
0.722377 0.886503 0.751492
0.752132 0.872679 0.648188
0.888457 0.844205 0.419440
0.758480 0.906096 0.843351
0.759762 0.906065 0.843259
0.765713 0.906126 0.843198
0.777401 0.906279 0.843534
0.792752 0.906401 0.844114
0.776089 0.907408 0.820188
0.763455 0.905730 0.775357
0.790311 0.899199 0.694820
0.000000 0.077852 0.639918
0.000000 0.041169 0.641321
0.351598 0.000000 0.643244
0.638727 0.000000 0.642634
0.831907 0.000000 0.627039
0.951781 0.000000 0.592554
1.000000 0.237827 0.555138
1.000000 0.356725 0.537560
0.000000 0.205356 0.633600
0.000000 0.201724 0.634394
0.354498 0.174960 0.637507
0.635187 0.002869 0.638758
0.826535 0.000000 0.622980
0.945159 0.181277 0.589502
1.000000 0.301671 0.555749
1.000000 0.393072 0.542016
0.000000 0.430304 0.607355
0.000000 0.437476 0.607294
0.338567 0.419043 0.614984
0.609705 0.396796 0.620386
0.799588 0.396643 0.605615
0.917082 0.423804 0.580896
0.987488 0.467018 0.565911
1.000000 0.499916 0.558282
0.161379 0.543816 0.596063
0.238163 0.548180 0.595666
0.400549 0.571618 0.601465
0.586908 0.620417 0.617151
0.753017 0.619471 0.592279
0.872892 0.616999 0.585229
0.954131 0.612329 0.576593
1.000000 0.603418 0.563561
0.414160 0.769436 0.734920
0.451026 0.769528 0.734157
0.566033 0.771115 0.733364
0.672267 0.783810 0.738796
0.684657 0.768093 0.667811
0.816220 0.725246 0.560723
0.921141 0.726986 0.588403
0.983246 0.703975 0.576532
0.669795 0.843595 0.796933
0.681514 0.844083 0.798245
0.701503 0.846616 0.798276
0.734981 0.851621 0.800320
0.752987 0.855161 0.790433
0.742153 0.832486 0.696193
0.859159 0.785367 0.521599
0.945861 0.777676 0.554314
0.744076 0.882414 0.833616
0.746548 0.882628 0.833616
0.756130 0.883452 0.833707
0.773434 0.885008 0.834440
0.796139 0.887205 0.836728
0.770993 0.884306 0.797177
0.779232 0.869963 0.718227
0.891539 0.842283 0.533196
0.781704 0.903899 0.855741
0.782925 0.903960 0.855680
0.788296 0.904143 0.855619
0.798337 0.904540 0.855711
0.812222 0.905058 0.856199
0.813840 0.905669 0.847257
0.794797 0.903990 0.808164
0.811124 0.897368 0.743648
0.000000 0.126375 0.781308
0.000000 0.118837 0.781552
0.353399 0.030701 0.781064
0.611017 0.000000 0.781247
0.804349 0.000000 0.777401
0.930694 0.000000 0.753384
1.000000 0.229618 0.710201
1.000000 0.348455 0.673091
0.000000 0.233036 0.776822
0.000000 0.229465 0.777249
0.360418 0.211185 0.777401
0.607446 0.152499 0.777676
0.799161 0.038361 0.774319
0.924590 0.179721 0.750271
0.995850 0.294377 0.708553
1.000000 0.385260 0.673548
0.000000 0.460761 0.758267
0.149142 0.455879 0.758999
0.357671 0.428321 0.761135
0.585840 0.409674 0.762234
0.773465 0.392767 0.760189
0.896757 0.412268 0.736385
0.970855 0.452735 0.702358
1.000000 0.494606 0.676478
0.196109 0.595911 0.735561
0.257816 0.598962 0.734951
0.407813 0.612390 0.732845
0.567407 0.614832 0.735286
0.732113 0.600824 0.737789
0.851438 0.602380 0.719509
0.929595 0.611719 0.701656
0.983459 0.623102 0.690486
0.381506 0.673487 0.720394
0.406561 0.675563 0.720211
0.490761 0.684901 0.720333
0.600427 0.705165 0.724300
0.717830 0.739010 0.734920
0.812894 0.733822 0.715175
0.895140 0.725948 0.708644
0.956237 0.715084 0.698695
0.547753 0.821103 0.802274
0.561913 0.822599 0.802976
0.619318 0.823758 0.801694
0.703639 0.825223 0.800717
0.775235 0.836637 0.809079
0.774868 0.826322 0.765835
0.854704 0.789944 0.677577
0.930694 0.789944 0.699763
0.723568 0.873716 0.840452
0.729244 0.873686 0.840604
0.751919 0.873899 0.841825
0.784024 0.875792 0.844480
0.808988 0.880369 0.846983
0.818112 0.882689 0.839170
0.806149 0.866606 0.775479
0.889708 0.832700 0.635187
0.796475 0.900084 0.866850
0.797787 0.900175 0.866758
0.803281 0.900633 0.866636
0.814023 0.901610 0.866880
0.828092 0.902861 0.867521
0.844450 0.904479 0.869505
0.826261 0.902831 0.840665
0.832731 0.895262 0.789334
0.000000 0.198642 0.857816
0.119051 0.196872 0.857725
0.371130 0.185000 0.856626
0.572045 0.152773 0.855283
0.743343 0.060334 0.853574
0.882444 0.105318 0.847929
0.984161 0.235233 0.826993
1.000000 0.342199 0.781827
0.000000 0.273198 0.853574
0.171359 0.271519 0.853422
0.379767 0.263035 0.852750
0.570886 0.242588 0.851591
0.738460 0.211521 0.850034
0.877012 0.219730 0.844846
0.978058 0.293187 0.823880
1.000000 0.375708 0.780209
0.202731 0.451759 0.841764
0.259556 0.450507 0.841672
0.404059 0.444800 0.841276
0.566369 0.433448 0.840116
0.721431 0.419898 0.839353
0.857023 0.419226 0.835355
0.955749 0.447852 0.814572
1.000000 0.486488 0.776516
0.355108 0.626673 0.819669
0.383642 0.626856 0.819455
0.479347 0.628870 0.819242
0.577600 0.616236 0.821195
0.701625 0.607538 0.821805
0.825956 0.599878 0.820127
0.918669 0.605402 0.801297
0.974487 0.615625 0.774472
0.439918 0.695552 0.804135
0.457649 0.697414 0.803738
0.520317 0.705287 0.802121
0.608789 0.719905 0.799466
0.703700 0.731044 0.799161
0.797757 0.719692 0.801144
0.881163 0.715694 0.788113
0.939483 0.715053 0.774685
0.526421 0.749233 0.791196
0.538323 0.750637 0.791196
0.578790 0.755184 0.790311
0.641810 0.764828 0.789975
0.712306 0.779538 0.791592
0.791775 0.804501 0.800198
0.855863 0.799161 0.785855
0.914214 0.791897 0.780362
0.631037 0.848844 0.842191
0.638788 0.849973 0.842618
0.667964 0.854398 0.844205
0.717647 0.861570 0.847196
0.783963 0.864103 0.847440
0.834928 0.872831 0.854490
0.831052 0.863859 0.822477
0.886473 0.837156 0.756313
0.756924 0.896178 0.871519
0.760616 0.896117 0.871519
0.776089 0.896086 0.871824
0.803555 0.896483 0.873228
0.835691 0.897978 0.876402
0.855070 0.901488 0.878752
0.860349 0.903166 0.872740
0.854429 0.894041 0.831235
0.230655 0.269902 0.902800
0.277714 0.271305 0.903227
0.398962 0.266911 0.902098
0.545892 0.259251 0.900725
0.686000 0.244511 0.898711
0.813626 0.225315 0.896208
0.923888 0.257847 0.890105
1.000000 0.323095 0.875364
0.246647 0.313787 0.897246
0.288975 0.315679 0.897948
0.402228 0.310674 0.897093
0.542565 0.300511 0.895567
0.680140 0.284367 0.893492
0.806760 0.262455 0.890715
0.917144 0.279149 0.884337
1.000000 0.328679 0.869139
0.335393 0.464393 0.889616
0.358770 0.463630 0.889464
0.438148 0.458015 0.888426
0.552117 0.449683 0.887205
0.673762 0.436500 0.885100
0.793668 0.422492 0.883330
0.903319 0.431800 0.879301
0.992737 0.461067 0.864866
0.481270 0.636011 0.873777
0.495064 0.636530 0.873289
0.511864 0.620081 0.873594
0.584009 0.613184 0.873381
0.675624 0.603204 0.872374
0.778195 0.593835 0.872038
0.880858 0.591821 0.869718
0.963531 0.597070 0.854490
0.497658 0.712703 0.856260
0.505455 0.713008 0.855222
0.546899 0.715816 0.853696
0.620081 0.718868 0.853666
0.687404 0.713039 0.854185
0.765743 0.703792 0.854551
0.856992 0.696132 0.853910
0.931762 0.699763 0.841886
0.544091 0.751858 0.844999
0.552911 0.753140 0.844907
0.585443 0.757870 0.844083
0.639796 0.767178 0.842649
0.704402 0.780423 0.840391
0.774258 0.791318 0.841123
0.842252 0.785061 0.843229
0.903807 0.780606 0.833646
0.601495 0.795651 0.837125
0.609216 0.796963 0.837369
0.633600 0.799985 0.836637
0.676417 0.806180 0.835599
0.727474 0.814572 0.834043
0.780117 0.826535 0.834989
0.838621 0.846128 0.842588
0.886931 0.842679 0.833677
0.677394 0.868559 0.871183
0.682734 0.869444 0.871458
0.705806 0.873381 0.872923
0.740963 0.879545 0.874937
0.784237 0.887694 0.878325
0.835813 0.891722 0.880003
0.875975 0.899229 0.887114
0.873320 0.893675 0.865171
0.317418 0.316899 0.928649
0.340673 0.317266 0.928740
0.413794 0.311192 0.927642
0.521935 0.304173 0.926818
0.637140 0.290684 0.925383
0.748684 0.269291 0.923552
0.855833 0.240909 0.921935
0.951415 0.267521 0.916747
0.326574 0.346990 0.925658
0.348821 0.347509 0.925780
0.418952 0.342748 0.925109
0.522606 0.334325 0.924224
0.635248 0.321050 0.922911
0.745754 0.300450 0.921202
0.852354 0.270817 0.919463
0.948089 0.286534 0.914244
0.376684 0.458076 0.918517
0.392401 0.457496 0.918486
0.446204 0.452125 0.917845
0.536767 0.449836 0.917906
0.635676 0.436561 0.916655
0.738277 0.416938 0.915007
0.841703 0.395056 0.913817
0.937285 0.397406 0.909331
0.454994 0.592432 0.906645
0.465400 0.592493 0.906737
0.499947 0.588678 0.906432
0.563104 0.584070 0.906279
0.642115 0.574701 0.905821
0.730465 0.560082 0.905119
0.825711 0.542718 0.904753
0.919310 0.536248 0.901610
0.522423 0.695003 0.892729
0.532830 0.696193 0.892882
0.564843 0.696956 0.892393
0.615808 0.697475 0.892027
0.660975 0.683833 0.892424
0.729519 0.672053 0.892302
0.811917 0.659449 0.892729
0.900145 0.653346 0.891417
0.539818 0.748043 0.881712
0.544366 0.748287 0.881254
0.567102 0.750851 0.879911
0.613825 0.758724 0.878233
0.682399 0.763333 0.878691
0.746944 0.764492 0.880308
0.813138 0.762295 0.882353
0.886046 0.760098 0.882994
0.591394 0.788266 0.876219
0.596216 0.788876 0.875975
0.616968 0.791745 0.875120
0.656916 0.798672 0.873991
0.708156 0.809049 0.872557
0.764065 0.822568 0.871427
0.820340 0.831144 0.873228
0.875456 0.827420 0.874876
0.653376 0.831327 0.872465
0.656764 0.831662 0.872221
0.673121 0.833921 0.871794
0.704891 0.839139 0.871550
0.745357 0.846220 0.871000
0.789364 0.854673 0.870420
0.833463 0.865385 0.871733
0.877440 0.881102 0.878660
