20 Preset/Japan Style/【3】LUT video cho PR-AE-FCPX/LUT VIDEO (2)/Japan Style LUT (39).cube
# Created by Adobe Lightroom plugin Export LUT (1.24.0)
# www.johnrellis.com/lightroom/exportlut.htm
# Preset: 39日系清新（素材江湖）
# Color profile: C:\Program Files (x86)\Common Files\Adobe\Color\Profiles\Recommended\VideoHD.icc
LUT_3D_SIZE 8
DOMAIN_MIN 0.000000 0.000000 0.000000
DOMAIN_MAX 0.903226 0.903226 0.903226
0.116060 0.110658 0.106447
0.139864 0.113039 0.107179
0.225925 0.120638 0.108156
0.348119 0.133944 0.104005
0.494362 0.155673 0.092042
0.652461 0.185183 0.042084
0.811246 0.218936 0.000000
0.962646 0.255253 0.000000
0.122011 0.131258 0.117403
0.137240 0.136507 0.114687
0.232792 0.150729 0.108095
0.352758 0.164767 0.102815
0.497017 0.186435 0.089784
0.653559 0.213260 0.034241
0.810117 0.243442 0.000000
0.961242 0.276677 0.000000
0.129519 0.191379 0.145357
0.134554 0.189761 0.143832
0.202976 0.216037 0.132418
0.360204 0.255222 0.106325
0.512963 0.279881 0.079500
0.664485 0.302403 0.005921
0.819547 0.326787 0.000000
0.965393 0.351781 0.000000
0.136416 0.270420 0.186252
0.141726 0.268223 0.184512
0.167300 0.276768 0.176730
0.294285 0.321538 0.160128
0.494423 0.382696 0.105196
0.676112 0.422797 0.000000
0.832273 0.444312 0.000000
0.969207 0.459846 0.000000
0.138064 0.350042 0.229252
0.143099 0.347539 0.227237
0.161593 0.338140 0.220157
0.226017 0.373022 0.210788
0.390478 0.432105 0.191135
0.621393 0.510796 0.123018
0.811887 0.561273 0.000000
0.972229 0.584344 0.000000
0.126040 0.430701 0.272740
0.131746 0.428992 0.271153
0.152438 0.419867 0.263859
0.183169 0.425208 0.252079
0.301640 0.479866 0.245853
0.496101 0.553979 0.226108
0.760098 0.652094 0.162539
0.932708 0.694728 0.125795
0.000000 0.534905 0.326116
0.000000 0.533074 0.324376
0.095674 0.524498 0.317144
0.148226 0.507317 0.303319
0.232578 0.550042 0.295689
0.402564 0.621454 0.291264
0.625818 0.703944 0.278355
0.889586 0.790951 0.267430
0.000000 0.704891 0.421668
0.000000 0.703639 0.420203
0.000000 0.698299 0.413611
0.000000 0.687648 0.400671
0.125856 0.693599 0.381811
0.358831 0.755154 0.392523
0.567681 0.815518 0.409064
0.774807 0.864591 0.432074
0.117220 0.114504 0.126497
0.132265 0.115175 0.130037
0.224704 0.114565 0.134585
0.350011 0.123201 0.133547
0.494423 0.143008 0.127626
0.650782 0.171572 0.114046
0.807034 0.205570 0.086549
0.959411 0.243412 0.000000
0.126650 0.136904 0.131899
0.147524 0.140932 0.135836
0.234043 0.147677 0.136660
0.354345 0.158907 0.134127
0.497597 0.177371 0.127352
0.652644 0.202487 0.112886
0.807523 0.232242 0.082338
0.958923 0.265934 0.000000
0.150912 0.204746 0.165164
0.156039 0.203067 0.163149
0.213107 0.222171 0.153170
0.366308 0.255406 0.138491
0.511833 0.275090 0.126925
0.661860 0.295720 0.107240
0.815305 0.318975 0.056489
0.962524 0.343725 0.000000
0.154482 0.281163 0.201175
0.159091 0.278874 0.199069
0.178500 0.281254 0.190707
0.300114 0.324926 0.176181
0.497169 0.382177 0.134615
0.675990 0.419135 0.101381
0.827848 0.438361 0.015961
0.966369 0.454475 0.000000
0.153323 0.358404 0.240360
0.157839 0.356146 0.238468
0.174075 0.346258 0.230564
0.231968 0.375616 0.221073
0.394385 0.434302 0.203586
0.623682 0.510948 0.146090
0.812863 0.559655 0.086824
0.970672 0.581201 0.000000
0.141543 0.437354 0.281407
0.146853 0.435218 0.279637
0.165133 0.426062 0.272160
0.190829 0.426581 0.259129
0.305089 0.481514 0.254520
0.499092 0.555810 0.236728
0.761990 0.652613 0.180667
0.933440 0.693904 0.155642
0.032502 0.539635 0.332830
0.062989 0.537285 0.330816
0.115023 0.528710 0.323369
0.158968 0.511559 0.309300
0.236423 0.550134 0.301030
0.403967 0.621729 0.297704
0.626795 0.704067 0.286412
0.889738 0.790402 0.277623
0.000000 0.706966 0.426398
0.000000 0.705898 0.425025
0.000000 0.700526 0.418280
0.000000 0.689876 0.405310
0.134401 0.694087 0.386358
0.360296 0.755337 0.397253
0.568383 0.815457 0.413855
0.775875 0.864683 0.437446
0.111849 0.124544 0.194614
0.123079 0.124636 0.200351
0.196689 0.126467 0.217380
0.335424 0.151553 0.231693
0.500389 0.089174 0.231144
0.656306 0.000000 0.208896
0.808530 0.130037 0.203769
0.961822 0.183108 0.190768
0.132967 0.148745 0.203159
0.141787 0.149081 0.207767
0.208896 0.152285 0.222660
0.345525 0.170840 0.234409
0.504326 0.122713 0.223270
0.653407 0.144015 0.213504
0.809018 0.175814 0.203494
0.961364 0.216831 0.190433
0.155673 0.224918 0.217929
0.176242 0.227756 0.220584
0.248325 0.237278 0.228855
0.370520 0.244388 0.228214
0.511620 0.254398 0.223758
0.662165 0.268956 0.215335
0.816129 0.289036 0.203555
0.963897 0.314305 0.190494
0.200290 0.320134 0.256809
0.217380 0.320439 0.259159
0.237797 0.311223 0.250340
0.328069 0.342260 0.237675
0.518364 0.386664 0.225956
0.677882 0.407233 0.220157
0.828611 0.423316 0.205783
0.967895 0.438758 0.194614
0.212619 0.396490 0.291112
0.216129 0.393866 0.288365
0.227787 0.383032 0.278202
0.259922 0.389563 0.265202
0.416358 0.449714 0.255467
0.642664 0.518547 0.218570
0.826261 0.559106 0.215305
0.971069 0.573175 0.211307
0.198703 0.469123 0.321843
0.201877 0.466835 0.319554
0.214237 0.456977 0.310735
0.233066 0.437476 0.294743
0.321874 0.491920 0.290043
0.514855 0.566827 0.280369
0.773831 0.658289 0.244572
0.940703 0.693874 0.244480
0.151125 0.564813 0.365179
0.156435 0.562554 0.363043
0.174105 0.553460 0.354437
0.201907 0.535424 0.338598
0.253513 0.554345 0.325505
0.412940 0.627649 0.326726
0.637324 0.710536 0.323003
0.895964 0.793606 0.324498
0.000000 0.721920 0.451789
0.000000 0.720485 0.449958
0.069154 0.714992 0.442634
0.140444 0.704372 0.428748
0.185153 0.690974 0.406409
0.365698 0.754757 0.415625
0.572686 0.816373 0.435157
0.781186 0.866148 0.462165
0.043519 0.140108 0.305547
0.091615 0.140963 0.310765
0.163363 0.144411 0.331151
0.304845 0.143496 0.354559
0.495338 0.168154 0.374273
0.660456 0.164523 0.385138
0.826200 0.000000 0.361700
0.976715 0.000000 0.306706
0.098939 0.163882 0.312596
0.117891 0.164523 0.316930
0.178256 0.168002 0.335058
0.312108 0.168734 0.357214
0.498695 0.197513 0.374853
0.663142 0.184634 0.382269
0.826413 0.000000 0.354589
0.973236 0.000000 0.310430
0.172488 0.228275 0.314702
0.187045 0.232883 0.319585
0.230198 0.242069 0.337957
0.338262 0.249088 0.361913
0.505760 0.290227 0.374670
0.670741 0.247562 0.363622
0.827512 0.186893 0.325444
0.964843 0.244602 0.321752
0.184695 0.345647 0.336309
0.204349 0.347570 0.338018
0.273960 0.355108 0.344915
0.383581 0.367712 0.355718
0.524987 0.373449 0.352605
0.671107 0.380804 0.346777
0.825376 0.391516 0.338109
0.967529 0.405554 0.328832
0.241611 0.454566 0.368536
0.257389 0.454139 0.369543
0.313298 0.452888 0.374945
0.350835 0.435279 0.361425
0.460945 0.477333 0.352453
0.672999 0.528557 0.347234
0.840024 0.551751 0.352117
0.970336 0.557305 0.345373
0.302037 0.537438 0.413519
0.304082 0.535271 0.410925
0.310643 0.523827 0.398291
0.321569 0.501366 0.376074
0.361791 0.512291 0.359503
0.548180 0.589044 0.361456
0.797055 0.667689 0.342565
0.953368 0.693599 0.365850
0.257450 0.617609 0.436103
0.259739 0.615351 0.433661
0.267948 0.605432 0.423072
0.281834 0.585657 0.403052
0.294194 0.561547 0.373602
0.432380 0.638727 0.381567
0.657801 0.722499 0.390112
0.907042 0.798367 0.403174
0.229160 0.752346 0.506035
0.231144 0.751003 0.504051
0.238712 0.745296 0.495705
0.252934 0.733852 0.479316
0.271733 0.714504 0.453681
0.375433 0.752193 0.449195
0.580224 0.817411 0.474250
0.791623 0.868925 0.508263
0.000000 0.167758 0.444678
0.000000 0.168887 0.448981
0.119020 0.172763 0.465492
0.246159 0.176577 0.498512
0.438544 0.169039 0.522576
0.668574 0.177890 0.543328
0.821714 0.291875 0.555322
0.974273 0.227451 0.541955
0.000000 0.189914 0.448157
0.000000 0.190768 0.451972
0.140841 0.193820 0.467842
0.255497 0.197513 0.499458
0.442786 0.193088 0.523247
0.670283 0.208530 0.542962
0.823148 0.304479 0.554772
0.974517 0.243198 0.538903
0.149752 0.259434 0.450782
0.155123 0.257633 0.454353
0.203281 0.260075 0.469154
0.291142 0.266972 0.498421
0.458839 0.271763 0.524041
0.673487 0.303593 0.538750
0.828092 0.347814 0.547967
0.974762 0.295018 0.524071
0.213504 0.342962 0.445716
0.229953 0.343816 0.447333
0.289006 0.349340 0.455726
0.361669 0.372137 0.487190
0.491157 0.387091 0.519768
0.673762 0.435370 0.531823
0.834226 0.408484 0.521721
0.976287 0.358282 0.479469
0.226780 0.481025 0.470314
0.243900 0.482521 0.471809
0.307286 0.488441 0.477333
0.407691 0.499580 0.487282
0.532769 0.513664 0.499397
0.679591 0.517906 0.494789
0.831662 0.522881 0.486946
0.965972 0.528527 0.477729
0.287785 0.603388 0.499580
0.301579 0.603082 0.500114
0.352667 0.600061 0.501427
0.431708 0.592828 0.504417
0.473091 0.566766 0.483131
0.601678 0.620569 0.481178
0.825467 0.676265 0.486091
0.964752 0.691402 0.508568
0.342412 0.692103 0.539513
0.351324 0.691005 0.539300
0.385077 0.686580 0.538476
0.411536 0.670161 0.522240
0.413031 0.634058 0.481971
0.467048 0.651118 0.462501
0.689906 0.739040 0.485664
0.922545 0.802579 0.503502
0.387488 0.797055 0.597772
0.387579 0.795773 0.595544
0.386511 0.790005 0.585412
0.386542 0.778775 0.566094
0.384741 0.758450 0.534264
0.391455 0.742641 0.495399
0.590478 0.816464 0.529686
0.807309 0.871977 0.573724
0.000000 0.205814 0.601312
0.000000 0.206760 0.604425
0.000000 0.209995 0.617029
0.201602 0.214939 0.642329
0.349279 0.218753 0.679438
0.574945 0.212314 0.696071
0.820401 0.224460 0.708186
0.960937 0.386450 0.716213
0.000000 0.224308 0.601587
0.000000 0.225040 0.604608
0.000000 0.227909 0.616907
0.213626 0.232242 0.641413
0.355169 0.236912 0.678157
0.577234 0.233555 0.695583
0.823636 0.248234 0.709224
0.959564 0.403754 0.715572
0.000000 0.283574 0.601953
0.000000 0.284367 0.604761
0.140749 0.287510 0.616327
0.258061 0.293736 0.639338
0.382422 0.303075 0.675837
0.590356 0.308659 0.695705
0.839078 0.331945 0.716487
0.955322 0.471687 0.715663
0.215427 0.369665 0.589258
0.229465 0.372595 0.592432
0.282017 0.385626 0.606775
0.336950 0.389715 0.631708
0.437263 0.405982 0.668605
0.616815 0.421485 0.694240
0.841337 0.463783 0.709957
0.949279 0.561639 0.715816
0.258152 0.477790 0.590417
0.273381 0.478401 0.591424
0.328527 0.481178 0.596216
0.418341 0.486641 0.605219
0.512291 0.521141 0.645411
0.652033 0.546227 0.683040
0.830961 0.604700 0.697230
0.956115 0.595575 0.685267
0.280400 0.626947 0.617060
0.295720 0.628199 0.618372
0.350927 0.632380 0.622248
0.438941 0.640467 0.629694
0.552575 0.652705 0.640620
0.688075 0.669062 0.655024
0.829831 0.672236 0.649683
0.953582 0.674952 0.642939
0.365270 0.765957 0.651881
0.375708 0.765591 0.652094
0.416144 0.763302 0.652491
0.485023 0.757961 0.653101
0.572473 0.746670 0.653681
0.600763 0.708644 0.615839
0.745480 0.766140 0.628962
0.937804 0.811948 0.656123
0.482063 0.847440 0.697627
0.487190 0.846799 0.697414
0.508690 0.844205 0.696864
0.547478 0.838041 0.695094
0.575158 0.823117 0.678859
0.548486 0.792203 0.624964
0.617914 0.813077 0.611872
0.832914 0.877714 0.666621
0.000000 0.258152 0.764340
0.000000 0.259739 0.767971
0.000000 0.262333 0.774166
0.113497 0.267948 0.788174
0.311376 0.275792 0.808316
0.455299 0.287419 0.833677
0.689265 0.297948 0.839200
0.912749 0.332189 0.831815
0.000000 0.268956 0.755184
0.000000 0.270665 0.759365
0.000000 0.273136 0.766079
0.133883 0.277440 0.779202
0.313542 0.284184 0.798917
0.453407 0.293980 0.823545
0.682368 0.301061 0.828244
0.904173 0.329229 0.820798
0.000000 0.323247 0.758480
0.000000 0.323827 0.760189
0.000000 0.325597 0.765347
0.209628 0.330449 0.777920
0.345678 0.338201 0.796353
0.476692 0.351934 0.822324
0.697230 0.368872 0.832486
0.921904 0.408698 0.833219
0.183108 0.416144 0.755428
0.188846 0.414527 0.756466
0.220645 0.410224 0.761715
0.309148 0.418708 0.775906
0.411017 0.430945 0.795529
0.529534 0.453010 0.823636
0.725887 0.478279 0.837064
0.941955 0.520226 0.844144
0.285771 0.483589 0.726955
0.294347 0.484291 0.726864
0.334539 0.492805 0.733547
0.411383 0.515129 0.751431
0.482826 0.528344 0.776028
0.585382 0.554070 0.806332
0.750423 0.583551 0.826047
0.945464 0.643946 0.841459
0.310460 0.615045 0.734096
0.322759 0.615656 0.735012
0.368963 0.617121 0.737697
0.447242 0.620233 0.743038
0.551537 0.625849 0.750515
0.669551 0.675990 0.789303
0.797086 0.715175 0.823209
0.930480 0.768338 0.833707
0.373938 0.766537 0.760159
0.387182 0.768093 0.761685
0.429664 0.770169 0.763516
0.506126 0.775204 0.768124
0.602594 0.782010 0.773953
0.711574 0.792477 0.783200
0.822995 0.808286 0.797513
0.932464 0.812894 0.795773
0.560052 0.892332 0.797665
0.565942 0.892241 0.798123
0.592004 0.892607 0.801205
0.630701 0.890318 0.802976
0.680507 0.884672 0.803037
0.737301 0.873838 0.800290
0.742733 0.840146 0.757870
0.870237 0.888090 0.783017
0.000000 0.323674 0.878965
0.000000 0.324895 0.880430
0.000000 0.325689 0.881987
0.007904 0.330968 0.888884
0.285374 0.338628 0.898528
0.418311 0.349920 0.910796
0.543359 0.369696 0.926452
0.765652 0.398688 0.926116
0.000000 0.330938 0.874388
0.000000 0.332372 0.876005
0.000000 0.333898 0.878630
0.086122 0.338231 0.885191
0.290593 0.345647 0.895079
0.420722 0.356756 0.907683
0.543755 0.374640 0.923003
0.763638 0.400885 0.922454
0.000000 0.370581 0.871031
0.000000 0.371283 0.872007
0.000000 0.372351 0.874327
0.194430 0.380133 0.883574
0.326696 0.386969 0.892576
0.443397 0.397467 0.904417
0.561761 0.417426 0.920348
0.771450 0.444709 0.920867
0.091829 0.436591 0.865415
0.125948 0.437934 0.866789
0.199252 0.440131 0.869780
0.291844 0.447120 0.877562
0.388800 0.457557 0.888182
0.491615 0.472572 0.901518
0.602075 0.496895 0.918212
0.791165 0.526543 0.920806
0.300511 0.520470 0.851835
0.312078 0.522972 0.853513
0.347570 0.528496 0.857115
0.386145 0.529107 0.866117
0.458198 0.539452 0.877440
0.548272 0.557671 0.892363
0.652888 0.588220 0.911162
0.818692 0.626154 0.918151
0.356939 0.597864 0.837613
0.362860 0.596246 0.836851
0.392065 0.591943 0.835691
0.449012 0.600946 0.842191
0.539086 0.631464 0.858274
0.631281 0.664759 0.881987
0.734096 0.709194 0.906950
0.862547 0.749966 0.920409
0.429084 0.742794 0.854093
0.435859 0.742641 0.854002
0.464424 0.742519 0.854063
0.521813 0.744869 0.856016
0.601434 0.749691 0.859495
0.698817 0.759792 0.865721
0.807370 0.811551 0.896208
0.899626 0.847776 0.918853
0.560754 0.879026 0.877012
0.565087 0.878996 0.876890
0.586847 0.879942 0.877653
0.631312 0.882994 0.880308
0.692256 0.887144 0.883909
0.764889 0.892729 0.888640
0.844327 0.900847 0.895781
0.920226 0.912047 0.906065
