20 Preset/Japan Style/【3】LUT video cho PR-AE-FCPX/LUT VIDEO (2)/Japan Style LUT (6).cube
# Created by Adobe Lightroom plugin Export LUT (1.24.0)
# www.johnrellis.com/lightroom/exportlut.htm
# Preset: 06日系逆光（素材江湖）
# Color profile: C:\Program Files (x86)\Common Files\Adobe\Color\Profiles\Recommended\VideoHD.icc
LUT_3D_SIZE 8
DOMAIN_MIN 0.000000 0.000000 0.000000
DOMAIN_MAX 0.903226 0.903226 0.903226
0.037964 0.036866 0.006653
0.108003 0.038422 0.006470
0.286351 0.000000 0.004944
0.541497 0.000000 0.000000
0.824918 0.000000 0.000000
1.000000 0.000000 0.000000
1.000000 0.000000 0.000000
1.000000 0.000000 0.000000
0.059968 0.099184 0.008942
0.117128 0.100099 0.000000
0.288365 0.049592 0.000000
0.530938 0.000000 0.000000
0.809201 0.000000 0.000000
1.000000 0.000000 0.000000
1.000000 0.000000 0.000000
1.000000 0.000000 0.000000
0.013428 0.233982 0.000000
0.137087 0.230991 0.000000
0.308202 0.244938 0.000000
0.539635 0.245396 0.000000
0.794766 0.221836 0.000000
1.000000 0.193301 0.000000
1.000000 0.211337 0.000000
1.000000 0.265721 0.000000
0.000000 0.458198 0.000000
0.000000 0.455116 0.000000
0.302525 0.461219 0.000000
0.563531 0.500755 0.000000
0.819791 0.510216 0.000000
0.982696 0.482795 0.000000
1.000000 0.466194 0.000000
1.000000 0.461280 0.000000
0.000000 0.673518 0.000000
0.000000 0.671504 0.000000
0.333867 0.664851 0.000000
0.563317 0.680415 0.000000
0.814084 0.694179 0.000000
0.974121 0.670192 0.000000
1.000000 0.637232 0.000000
1.000000 0.613916 0.000000
0.287663 0.803189 0.188022
0.332860 0.803952 0.188052
0.452155 0.799161 0.156100
0.610590 0.796292 0.000000
0.789761 0.800168 0.000000
0.961395 0.803983 0.000000
1.000000 0.777676 0.000000
1.000000 0.747219 0.000000
0.557092 0.881407 0.442084
0.571252 0.880980 0.440620
0.620844 0.877806 0.427863
0.706661 0.871977 0.403815
0.811643 0.871489 0.348516
0.926268 0.872374 0.241093
1.000000 0.874632 0.000000
1.000000 0.847929 0.000000
0.758145 0.930266 0.653773
0.762753 0.929931 0.652308
0.782498 0.928740 0.646967
0.819638 0.926543 0.636835
0.863737 0.923125 0.602777
0.923583 0.924773 0.559869
0.990326 0.926635 0.480140
1.000000 0.928038 0.297856
0.060883 0.058381 0.057465
0.110201 0.056397 0.046754
0.284184 0.000000 0.026581
0.519585 0.000000 0.000000
0.799100 0.000000 0.000000
1.000000 0.000000 0.000000
1.000000 0.000000 0.000000
1.000000 0.000000 0.000000
0.065156 0.104433 0.068666
0.126009 0.107546 0.065309
0.290013 0.085908 0.030213
0.520867 0.000000 0.000000
0.793668 0.000000 0.000000
1.000000 0.000000 0.000000
1.000000 0.000000 0.000000
1.000000 0.000000 0.000000
0.089998 0.243687 0.063355
0.148959 0.242130 0.039612
0.314672 0.251438 0.000000
0.534569 0.246616 0.000000
0.782864 0.243626 0.000000
0.991089 0.227787 0.000000
1.000000 0.230198 0.000000
1.000000 0.269688 0.000000
0.000000 0.458625 0.000000
0.000000 0.456306 0.000000
0.305760 0.459358 0.000000
0.554253 0.493019 0.000000
0.799741 0.495644 0.000000
0.965484 0.476112 0.000000
1.000000 0.462074 0.000000
1.000000 0.457343 0.000000
0.000000 0.673335 0.000000
0.000000 0.670985 0.000000
0.330877 0.663264 0.000000
0.555901 0.674342 0.000000
0.803891 0.687343 0.000000
0.966430 0.663661 0.000000
1.000000 0.634516 0.000000
1.000000 0.611414 0.000000
0.284245 0.800626 0.232273
0.323735 0.799619 0.227634
0.444831 0.795071 0.204074
0.604425 0.791775 0.135348
0.784329 0.796902 0.000000
0.958282 0.802090 0.000000
1.000000 0.775906 0.000000
1.000000 0.745571 0.000000
0.553063 0.879210 0.455421
0.564538 0.878172 0.451270
0.614069 0.875029 0.438880
0.701198 0.869444 0.417060
0.808408 0.869322 0.369940
0.923156 0.870512 0.275120
1.000000 0.872587 0.000000
1.000000 0.846006 0.000000
0.754910 0.928985 0.657191
0.760616 0.928862 0.657069
0.780056 0.927642 0.651545
0.817411 0.925475 0.641901
0.866606 0.923796 0.621149
0.923613 0.924956 0.577203
0.988952 0.926421 0.498695
1.000000 0.927886 0.331060
0.077028 0.092988 0.171633
0.132540 0.090517 0.168612
0.266545 0.054963 0.157168
0.496773 0.000000 0.150057
0.814603 0.000000 0.112917
1.000000 0.000000 0.000000
1.000000 0.000000 0.000000
1.000000 0.026337 0.000000
0.088350 0.123873 0.179507
0.143557 0.124788 0.182071
0.284977 0.119142 0.169284
0.512261 0.000000 0.159762
0.806577 0.000000 0.111666
1.000000 0.000000 0.000000
1.000000 0.000000 0.000000
1.000000 0.158663 0.000000
0.104524 0.243809 0.204044
0.161868 0.249027 0.204410
0.321080 0.267460 0.202243
0.544671 0.265904 0.167971
0.799741 0.253788 0.049897
0.996704 0.260929 0.000000
1.000000 0.295872 0.000000
1.000000 0.323461 0.000000
0.000000 0.478279 0.246281
0.033783 0.481880 0.241184
0.314611 0.485786 0.206577
0.568353 0.510094 0.118044
0.802213 0.499062 0.000000
0.974304 0.483131 0.000000
1.000000 0.479835 0.000000
1.000000 0.479957 0.000000
0.000000 0.685908 0.298894
0.000000 0.686061 0.273686
0.337957 0.679622 0.252171
0.563897 0.680659 0.197879
0.811887 0.696071 0.000000
0.966461 0.667231 0.000000
1.000000 0.637018 0.000000
1.000000 0.620172 0.000000
0.326909 0.804593 0.389044
0.359564 0.803799 0.386084
0.465827 0.799435 0.371740
0.614374 0.790677 0.341588
0.784085 0.797116 0.277836
0.954437 0.803769 0.117281
1.000000 0.777981 0.000000
1.000000 0.748745 0.000000
0.583459 0.879881 0.543847
0.593286 0.879026 0.540642
0.635798 0.875883 0.529717
0.713375 0.870390 0.510613
0.812131 0.868528 0.478248
0.920287 0.871061 0.420508
1.000000 0.874723 0.305760
1.000000 0.849577 0.000000
0.766567 0.928557 0.697475
0.770260 0.928191 0.695918
0.787900 0.927062 0.691188
0.823056 0.925383 0.684230
0.869230 0.922942 0.667903
0.922606 0.924865 0.635340
0.984100 0.926970 0.574914
1.000000 0.928832 0.452033
0.000000 0.120424 0.331670
0.114656 0.119814 0.331518
0.283513 0.109773 0.324437
0.465888 0.039796 0.317937
0.701930 0.078370 0.316228
0.988617 0.000000 0.304906
1.000000 0.000000 0.266056
1.000000 0.217411 0.156100
0.000000 0.145815 0.342596
0.126894 0.151919 0.346166
0.294377 0.147372 0.338964
0.478889 0.131594 0.331365
0.715480 0.158541 0.329229
0.991272 0.000000 0.313268
1.000000 0.154849 0.269322
1.000000 0.259525 0.155367
0.000000 0.250980 0.362005
0.094209 0.252720 0.363684
0.293706 0.266331 0.380621
0.508934 0.284703 0.370794
0.761440 0.320409 0.376135
0.994720 0.326665 0.362554
1.000000 0.362951 0.288548
1.000000 0.380285 0.158816
0.000000 0.456733 0.427192
0.000000 0.460639 0.428290
0.282994 0.479255 0.434516
0.543389 0.514763 0.445716
0.786221 0.517418 0.412970
0.964508 0.515343 0.361913
1.000000 0.512932 0.283665
1.000000 0.507103 0.135195
0.000000 0.692927 0.525841
0.000000 0.692866 0.522820
0.363165 0.693782 0.513390
0.574090 0.692042 0.487465
0.802609 0.703944 0.448890
0.949798 0.676234 0.379675
1.000000 0.652888 0.284977
1.000000 0.636652 0.127932
0.418738 0.808011 0.583459
0.449866 0.808957 0.585504
0.539239 0.806973 0.581659
0.644526 0.801450 0.554070
0.788174 0.799863 0.526116
0.941833 0.808621 0.481819
1.000000 0.785214 0.391089
1.000000 0.756924 0.236118
0.648829 0.878691 0.673335
0.655634 0.878630 0.671046
0.676417 0.877745 0.656397
0.739498 0.873503 0.644251
0.821805 0.868193 0.623194
0.914580 0.872587 0.592523
1.000000 0.877684 0.536584
1.000000 0.855467 0.428809
0.787991 0.929015 0.759762
0.791409 0.928771 0.758877
0.805753 0.927794 0.755276
0.833616 0.926085 0.748379
0.873350 0.923461 0.736202
0.920745 0.924590 0.715877
0.975586 0.927672 0.678584
1.000000 0.930571 0.603601
0.000000 0.161807 0.535363
0.000000 0.161624 0.535363
0.258549 0.157565 0.531365
0.468025 0.142550 0.524376
0.676295 0.118074 0.528038
0.879179 0.249241 0.517052
1.000000 0.316655 0.521263
1.000000 0.396551 0.508751
0.000000 0.184604 0.541466
0.000000 0.189700 0.544121
0.263493 0.187472 0.540459
0.473304 0.180697 0.532372
0.683314 0.177157 0.536492
0.881804 0.293309 0.525139
1.000000 0.350866 0.529290
1.000000 0.422156 0.517449
0.000000 0.274662 0.547906
0.000000 0.273625 0.551965
0.244755 0.286595 0.566400
0.483467 0.297948 0.561791
0.701198 0.323308 0.563043
0.883482 0.426001 0.553796
1.000000 0.457038 0.559258
1.000000 0.510552 0.553796
0.000000 0.437079 0.582940
0.000000 0.438727 0.583307
0.160586 0.445991 0.586664
0.474647 0.480201 0.609186
0.725551 0.519738 0.610834
0.901396 0.576837 0.616815
1.000000 0.594171 0.615991
1.000000 0.600702 0.569696
0.000000 0.642512 0.642298
0.000000 0.644800 0.643427
0.271641 0.653620 0.647181
0.530175 0.670710 0.656031
0.756039 0.695216 0.670710
0.909606 0.695369 0.652888
1.000000 0.692866 0.619440
1.000000 0.680354 0.554620
0.391150 0.804654 0.719936
0.419806 0.804379 0.719265
0.514641 0.802365 0.714595
0.649561 0.799741 0.708095
0.778042 0.795804 0.692744
0.914611 0.807431 0.681971
1.000000 0.792020 0.637049
1.000000 0.771176 0.558373
0.631312 0.878386 0.757107
0.640955 0.877806 0.756161
0.681788 0.876005 0.753780
0.758267 0.873533 0.754513
0.825345 0.870024 0.740780
0.903258 0.870787 0.725063
0.985931 0.878843 0.702571
1.000000 0.860563 0.632349
0.782650 0.928222 0.806394
0.788785 0.927886 0.806943
0.812863 0.926665 0.809598
0.840909 0.926482 0.807126
0.875029 0.924437 0.799283
0.917479 0.923003 0.787320
0.965545 0.927398 0.768307
1.000000 0.931334 0.729122
0.000000 0.224857 0.717556
0.000000 0.225620 0.717342
0.227115 0.225986 0.714504
0.458137 0.226413 0.711055
0.668391 0.232395 0.703548
0.858579 0.258396 0.705959
0.986145 0.412360 0.681849
1.000000 0.543145 0.698878
0.000000 0.244236 0.715480
0.000000 0.246525 0.715358
0.225559 0.247501 0.712856
0.454994 0.248783 0.708553
0.665553 0.257908 0.701900
0.856260 0.287388 0.705379
0.982910 0.433051 0.683223
1.000000 0.552850 0.700832
0.000000 0.313664 0.720516
0.000000 0.312047 0.721736
0.202884 0.331579 0.725551
0.453986 0.338445 0.719600
0.671504 0.358312 0.714107
0.860990 0.399115 0.718044
0.977966 0.521660 0.702205
1.000000 0.604334 0.719722
0.000000 0.447913 0.722042
0.000000 0.447303 0.721035
0.000000 0.451789 0.727230
0.441993 0.483925 0.741604
0.683619 0.511955 0.739315
0.868589 0.555566 0.743374
0.969909 0.644404 0.740108
1.000000 0.682124 0.752956
0.000000 0.610468 0.747433
0.000000 0.611231 0.747311
0.111421 0.614679 0.747158
0.420935 0.623255 0.747707
0.685237 0.656214 0.761563
0.870237 0.690517 0.767361
0.967712 0.736446 0.776913
1.000000 0.750484 0.780087
0.275944 0.762753 0.782010
0.316686 0.764126 0.782925
0.430426 0.766812 0.783810
0.583032 0.772549 0.786221
0.745113 0.782925 0.791714
0.886900 0.803677 0.805814
0.972198 0.807706 0.798276
1.000000 0.805203 0.777066
0.617334 0.877409 0.835111
0.631312 0.877501 0.835599
0.680079 0.877134 0.836362
0.753994 0.876158 0.836027
0.830198 0.874144 0.831266
0.898955 0.872465 0.823331
0.968261 0.881895 0.817807
1.000000 0.870176 0.786496
0.775021 0.929320 0.856748
0.779080 0.929015 0.856321
0.797208 0.928252 0.855283
0.831144 0.927337 0.854063
0.877867 0.926177 0.854490
0.916960 0.925048 0.848966
0.958068 0.927581 0.840482
1.000000 0.933501 0.825711
0.000000 0.330388 0.849790
0.000000 0.331426 0.849424
0.296300 0.334142 0.847166
0.486000 0.340002 0.843107
0.671839 0.351171 0.836576
0.845121 0.381598 0.828061
0.978546 0.430976 0.826780
1.000000 0.557183 0.796902
0.000000 0.346502 0.848631
0.000000 0.347539 0.848417
0.294102 0.350256 0.846281
0.483680 0.355657 0.842130
0.670100 0.367346 0.835843
0.843412 0.397528 0.827451
0.976257 0.446204 0.826200
1.000000 0.567681 0.797421
0.000000 0.383734 0.847898
0.000000 0.386725 0.847898
0.278080 0.412024 0.846494
0.478767 0.419257 0.842832
0.668818 0.433600 0.837125
0.842496 0.465003 0.829740
0.971862 0.512413 0.829465
1.000000 0.619837 0.806546
0.000000 0.489509 0.844175
0.000000 0.489021 0.844053
0.131106 0.490181 0.844816
0.463996 0.520958 0.844816
0.666804 0.536858 0.840330
0.841520 0.565789 0.834867
0.963714 0.609430 0.835538
1.000000 0.695003 0.821836
0.000000 0.613306 0.844907
0.000000 0.612757 0.844327
0.000000 0.610773 0.842496
0.370397 0.610803 0.841459
0.655146 0.645106 0.844907
0.837522 0.668849 0.841550
0.953521 0.707088 0.843503
1.000000 0.770901 0.841672
0.220523 0.742885 0.855100
0.255467 0.742977 0.854917
0.359258 0.743221 0.854002
0.494087 0.743374 0.852201
0.643946 0.744106 0.849210
0.835569 0.768338 0.853666
0.948089 0.799649 0.858366
0.999512 0.835355 0.865629
0.542565 0.846677 0.869688
0.555016 0.846860 0.869718
0.601953 0.847379 0.869596
0.682277 0.848783 0.869535
0.779965 0.852171 0.869993
0.875120 0.860441 0.872648
0.952117 0.878599 0.881773
1.000000 0.882231 0.876860
0.755367 0.928252 0.899260
0.761105 0.928161 0.899260
0.784451 0.927947 0.899382
0.824338 0.927794 0.899596
0.873106 0.928466 0.900328
0.915831 0.928710 0.897337
0.955138 0.929503 0.893767
0.993500 0.936980 0.890471
0.439368 0.517205 0.928649
0.456977 0.518212 0.928344
0.521050 0.520928 0.926787
0.625940 0.527428 0.923949
0.749874 0.538476 0.919524
0.871244 0.557702 0.913420
0.969574 0.591424 0.905943
1.000000 0.625635 0.902464
0.440345 0.526940 0.927855
0.457740 0.527855 0.927611
0.521508 0.530541 0.926146
0.625666 0.536431 0.923369
0.749203 0.547021 0.918975
0.870420 0.565637 0.912993
0.968231 0.598230 0.905577
1.000000 0.631891 0.902098
0.403143 0.545830 0.927184
0.433143 0.551843 0.926604
0.523735 0.567834 0.924468
0.627649 0.573632 0.922026
0.749294 0.582483 0.917876
0.868376 0.598993 0.912139
0.964202 0.628992 0.905119
1.000000 0.660761 0.901976
0.356817 0.595392 0.925170
0.381323 0.596643 0.924987
0.467536 0.602136 0.923919
0.625055 0.631220 0.920226
0.747127 0.639063 0.916503
0.864683 0.653529 0.911376
0.957549 0.679164 0.905180
1.000000 0.708064 0.902525
0.269322 0.667079 0.922148
0.299840 0.667048 0.922118
0.395941 0.666255 0.921691
0.550347 0.672908 0.920134
0.735683 0.702907 0.915801
0.855924 0.714199 0.911315
0.948547 0.735378 0.906126
1.000000 0.762295 0.904112
0.421668 0.761257 0.920897
0.432197 0.760800 0.920684
0.474739 0.758877 0.919890
0.549523 0.755245 0.918425
0.657282 0.750484 0.916197
0.842130 0.778775 0.913085
0.939269 0.796811 0.909270
0.997681 0.821744 0.908263
0.600275 0.845151 0.922148
0.607233 0.845060 0.922026
0.635523 0.844694 0.921477
0.687190 0.844114 0.920500
0.755917 0.843381 0.918791
0.831601 0.842618 0.916106
0.928771 0.857664 0.914855
0.988617 0.880278 0.915648
0.751308 0.909941 0.926360
0.755428 0.910002 0.926299
0.772641 0.910338 0.926146
0.804654 0.911315 0.925872
0.847471 0.913329 0.925475
0.895628 0.917052 0.925139
0.943694 0.924010 0.925658
0.985382 0.938201 0.930632
