20 Preset/Japan Style/【3】LUT video cho PR-AE-FCPX/LUT VIDEO (2)/Japan Style LUT (48).cube
# Created by Adobe Lightroom plugin Export LUT (1.24.0)
# www.johnrellis.com/lightroom/exportlut.htm
# Preset: 48日系自然（素材江湖）
# Color profile: C:\Program Files (x86)\Common Files\Adobe\Color\Profiles\Recommended\VideoHD.icc
LUT_3D_SIZE 8
DOMAIN_MIN 0.000000 0.000000 0.000000
DOMAIN_MAX 0.903226 0.903226 0.903226
0.122896 0.122896 0.122896
0.163882 0.126375 0.123629
0.292393 0.141115 0.122560
0.491707 0.173037 0.107759
0.728420 0.222629 0.011109
0.932403 0.273167 0.000000
1.000000 0.319982 0.000000
1.000000 0.356085 0.110384
0.123873 0.159884 0.132021
0.160891 0.165011 0.128481
0.280095 0.179171 0.123842
0.462928 0.211002 0.109010
0.691585 0.257023 0.023682
0.905272 0.302495 0.000000
1.000000 0.339910 0.000000
1.000000 0.368933 0.086580
0.085939 0.276341 0.153231
0.122164 0.277501 0.153689
0.280949 0.295506 0.131014
0.472084 0.329717 0.098482
0.682002 0.372381 0.000000
0.914183 0.420874 0.000000
1.000000 0.441413 0.000000
1.000000 0.450843 0.146700
0.000000 0.457649 0.185519
0.000000 0.455604 0.185245
0.221988 0.469459 0.173770
0.490761 0.519738 0.094362
0.750851 0.568261 0.000000
0.914946 0.574731 0.000000
1.000000 0.567346 0.103304
1.000000 0.556634 0.192721
0.000000 0.671687 0.250614
0.000000 0.670588 0.250370
0.000000 0.672755 0.252384
0.409155 0.693202 0.215183
0.670436 0.710689 0.104585
0.879179 0.706783 0.000000
0.990417 0.685542 0.134707
1.000000 0.665553 0.236973
0.000000 0.816098 0.367102
0.000000 0.822263 0.377111
0.092012 0.821988 0.378637
0.349645 0.824002 0.370916
0.573388 0.828458 0.329870
0.788235 0.832364 0.269291
0.967346 0.813962 0.222202
1.000000 0.781277 0.307836
0.362737 0.902098 0.534112
0.376013 0.902770 0.537377
0.403235 0.901732 0.536339
0.457008 0.900755 0.538872
0.560235 0.900908 0.513115
0.700557 0.902190 0.479561
0.859342 0.901396 0.434638
1.000000 0.880705 0.380591
0.624292 0.951171 0.704921
0.626337 0.951080 0.704921
0.637415 0.951080 0.707027
0.660731 0.951324 0.712856
0.664820 0.947143 0.686183
0.731106 0.949798 0.674922
0.815549 0.951568 0.657465
0.915892 0.949920 0.620905
0.112001 0.123903 0.160678
0.161288 0.122896 0.161349
0.275029 0.119081 0.159030
0.456214 0.147066 0.159518
0.686915 0.189181 0.144167
0.900542 0.244816 0.113344
1.000000 0.298558 0.117006
1.000000 0.341497 0.159457
0.126833 0.163729 0.159457
0.162936 0.162936 0.162936
0.273228 0.173037 0.163821
0.450111 0.195468 0.158877
0.675166 0.235569 0.141238
0.892668 0.283360 0.109743
1.000000 0.323491 0.108736
1.000000 0.356939 0.149508
0.129885 0.270481 0.184298
0.152438 0.272160 0.184695
0.276188 0.287175 0.170230
0.455329 0.315435 0.157443
0.660639 0.354437 0.134676
0.883513 0.399023 0.100862
1.000000 0.420294 0.119387
1.000000 0.436164 0.175235
0.000000 0.437293 0.212436
0.000000 0.437079 0.212680
0.217960 0.449714 0.207553
0.455879 0.481575 0.161288
0.688319 0.518730 0.082673
0.862638 0.537865 0.101808
0.998840 0.542840 0.138094
1.000000 0.540429 0.199008
0.000000 0.657710 0.273899
0.000000 0.654994 0.272465
0.000000 0.653346 0.271855
0.392828 0.666651 0.240269
0.643488 0.680842 0.158236
0.853727 0.684321 0.000000
0.973663 0.671229 0.168948
1.000000 0.655726 0.246616
0.000000 0.802609 0.370977
0.000000 0.803006 0.371893
0.029633 0.803616 0.374273
0.334417 0.807767 0.371771
0.562310 0.815366 0.336034
0.780484 0.823514 0.284886
0.959686 0.806577 0.241825
1.000000 0.775113 0.314946
0.340002 0.894102 0.524041
0.341588 0.892943 0.520623
0.371893 0.891691 0.519219
0.434668 0.891600 0.524132
0.548974 0.893980 0.507591
0.692561 0.895720 0.474556
0.852201 0.894102 0.425086
1.000000 0.873198 0.368078
0.608087 0.947509 0.694270
0.614313 0.947967 0.697200
0.624781 0.947845 0.698512
0.649531 0.948211 0.704799
0.683650 0.948730 0.705867
0.737942 0.949950 0.686671
0.815671 0.950561 0.661982
0.915282 0.948913 0.625299
0.000000 0.128359 0.280674
0.124331 0.124697 0.280705
0.276646 0.114351 0.276585
0.437140 0.056794 0.293858
0.688167 0.000000 0.289464
0.926848 0.000000 0.284306
1.000000 0.283116 0.320073
1.000000 0.363378 0.344854
0.000000 0.190219 0.282444
0.103914 0.165438 0.282689
0.277562 0.156069 0.277501
0.440314 0.136019 0.287846
0.684657 0.000000 0.271092
0.913878 0.214755 0.295567
1.000000 0.307225 0.310887
1.000000 0.373907 0.335210
0.107546 0.290318 0.275486
0.159579 0.289372 0.276951
0.281498 0.281498 0.281498
0.462745 0.299748 0.285252
0.690272 0.334691 0.290532
0.903593 0.379095 0.299840
1.000000 0.415778 0.317174
1.000000 0.449042 0.344366
0.162387 0.446143 0.314092
0.200198 0.449744 0.319646
0.268528 0.458595 0.318395
0.467018 0.485756 0.297124
0.697932 0.517205 0.292790
0.877134 0.538903 0.308263
1.000000 0.549187 0.330785
1.000000 0.555383 0.362463
0.000000 0.656062 0.370214
0.000000 0.655787 0.370092
0.221225 0.657374 0.370703
0.404059 0.669551 0.361761
0.654505 0.687098 0.315068
0.857359 0.684382 0.286870
0.970489 0.672908 0.338231
1.000000 0.665156 0.383581
0.145571 0.798795 0.448219
0.181735 0.799741 0.449744
0.268833 0.799832 0.450782
0.375555 0.800595 0.453620
0.569238 0.808469 0.424567
0.779446 0.817929 0.388190
0.952850 0.803464 0.367651
1.000000 0.779385 0.426612
0.440284 0.892790 0.585901
0.441352 0.891905 0.583307
0.456733 0.890043 0.578851
0.498207 0.889067 0.579217
0.579034 0.890440 0.568933
0.706752 0.893858 0.542657
0.857603 0.895048 0.507408
1.000000 0.876829 0.469429
0.640681 0.945525 0.721096
0.640833 0.945190 0.719844
0.649622 0.945068 0.720607
0.675532 0.946197 0.729000
0.703487 0.946380 0.732753
0.755276 0.948638 0.719692
0.826596 0.950011 0.699855
0.918853 0.949004 0.668055
0.000000 0.135103 0.465003
0.000000 0.129183 0.467445
0.265446 0.099367 0.457343
0.446998 0.000000 0.447181
0.626001 0.000000 0.462593
0.863584 0.000000 0.481788
1.000000 0.000000 0.451179
1.000000 0.268437 0.456458
0.000000 0.203769 0.475288
0.000000 0.170260 0.474830
0.255406 0.148409 0.464271
0.452857 0.098390 0.452827
0.632410 0.000000 0.463966
0.869780 0.000000 0.478737
1.000000 0.000000 0.449073
1.000000 0.338689 0.474586
0.000000 0.361791 0.478401
0.000000 0.350011 0.475319
0.183505 0.278508 0.467140
0.451606 0.256016 0.451484
0.653895 0.254063 0.468055
0.897002 0.264256 0.475380
1.000000 0.388037 0.493233
1.000000 0.522118 0.552514
0.000000 0.491524 0.460883
0.000000 0.489204 0.460548
0.278202 0.482155 0.462287
0.464637 0.464637 0.464637
0.685054 0.494514 0.479347
0.869322 0.529534 0.497414
0.990875 0.565393 0.522362
1.000000 0.597253 0.548791
0.256962 0.659907 0.497322
0.285618 0.658320 0.498909
0.379980 0.658656 0.511559
0.472847 0.667109 0.518730
0.664363 0.684932 0.496162
0.848295 0.684810 0.500359
0.957671 0.688899 0.533989
1.000000 0.696071 0.563836
0.439094 0.800046 0.591913
0.452399 0.805081 0.597040
0.461250 0.804654 0.586908
0.515831 0.805570 0.588342
0.614343 0.810147 0.578027
0.788632 0.816953 0.545769
0.941283 0.804685 0.536889
1.000000 0.793790 0.586389
0.554803 0.888243 0.669368
0.559930 0.888548 0.670558
0.575463 0.888701 0.671473
0.604883 0.888975 0.673548
0.646784 0.889097 0.673548
0.739223 0.892760 0.651698
0.865293 0.894347 0.622065
0.989227 0.879942 0.600336
0.699519 0.944427 0.770077
0.700710 0.944366 0.769894
0.706813 0.944213 0.769894
0.721218 0.944366 0.771664
0.741939 0.944427 0.773739
0.780117 0.946258 0.767147
0.841794 0.948577 0.752590
0.924620 0.949096 0.731380
0.000000 0.146609 0.678462
0.000000 0.138705 0.679774
0.091432 0.095186 0.670344
0.448280 0.000000 0.653864
0.640620 0.000000 0.640742
0.823758 0.000000 0.649012
0.970886 0.000000 0.630396
1.000000 0.000000 0.601678
0.000000 0.214694 0.684291
0.000000 0.178470 0.686580
0.000000 0.149233 0.677363
0.443763 0.002594 0.656458
0.645136 0.000000 0.645045
0.826566 0.000000 0.649531
0.972656 0.000000 0.629450
1.000000 0.179843 0.602747
0.000000 0.392004 0.685847
0.000000 0.374121 0.685023
0.000000 0.284428 0.678676
0.420508 0.254826 0.663172
0.645045 0.213565 0.645167
0.818662 0.198001 0.637751
0.971252 0.238376 0.622553
1.000000 0.358953 0.606439
0.000000 0.574212 0.689815
0.000000 0.570336 0.689601
0.000000 0.552178 0.688716
0.380957 0.463081 0.674128
0.650507 0.433692 0.650477
0.819089 0.443244 0.637324
0.968200 0.498451 0.637659
1.000000 0.578820 0.655177
0.000000 0.691127 0.649348
0.000000 0.690150 0.649775
0.286351 0.683650 0.649744
0.478859 0.669276 0.648737
0.640894 0.640894 0.640894
0.810727 0.669368 0.659419
0.930694 0.700252 0.682582
1.000000 0.727230 0.704829
0.427405 0.777188 0.636866
0.442390 0.777310 0.639490
0.491493 0.774380 0.646143
0.575097 0.773556 0.663783
0.641260 0.776547 0.670497
0.779995 0.795315 0.665736
0.913115 0.798642 0.680842
0.984955 0.805081 0.711696
0.620722 0.878202 0.732479
0.624018 0.877287 0.732326
0.644129 0.875364 0.736110
0.667628 0.877104 0.737758
0.701106 0.878630 0.740200
0.757198 0.881834 0.732570
0.865476 0.885679 0.710323
0.972503 0.875120 0.697536
0.731411 0.936645 0.802426
0.731075 0.936645 0.801389
0.732540 0.936736 0.798947
0.751308 0.938567 0.804746
0.770382 0.939239 0.807004
0.796719 0.940429 0.808072
0.849729 0.943664 0.796048
0.925444 0.944976 0.778103
0.000000 0.163241 0.839506
0.000000 0.157137 0.839536
0.000000 0.123445 0.833036
0.356420 0.000000 0.823087
0.615106 0.000000 0.814054
0.803342 0.000000 0.803189
0.962341 0.000000 0.793912
1.000000 0.000000 0.751369
0.000000 0.220066 0.831540
0.000000 0.190249 0.830900
0.000000 0.166812 0.825589
0.342962 0.099184 0.817624
0.605921 0.000000 0.805447
0.795071 0.000000 0.794827
0.954284 0.000000 0.786404
1.000000 0.000000 0.746273
0.000000 0.389899 0.837247
0.000000 0.374731 0.837034
0.000000 0.300633 0.836484
0.302953 0.274479 0.824002
0.597528 0.230808 0.808530
0.796017 0.179690 0.795895
0.953063 0.192935 0.784268
1.000000 0.275151 0.745083
0.000000 0.592065 0.839872
0.000000 0.586419 0.837827
0.000000 0.565972 0.833036
0.300023 0.484962 0.834257
0.601282 0.460914 0.820340
0.804227 0.434913 0.804166
0.946685 0.456001 0.785306
1.000000 0.502403 0.755550
0.000000 0.732265 0.818051
0.000000 0.730709 0.817624
0.213901 0.725185 0.817044
0.459846 0.715694 0.816617
0.603021 0.650996 0.803861
0.784726 0.620264 0.784604
0.909209 0.632502 0.768917
1.000000 0.685908 0.773373
0.356542 0.820218 0.779965
0.386481 0.821256 0.782467
0.458076 0.816617 0.782101
0.560418 0.808011 0.781582
0.668513 0.793912 0.779049
0.776242 0.776242 0.776242
0.893767 0.805814 0.799985
0.968505 0.828153 0.818509
0.645045 0.876860 0.781888
0.653040 0.877562 0.784482
0.673976 0.876951 0.788998
0.711116 0.876005 0.797452
0.759579 0.874937 0.809293
0.796811 0.875547 0.812894
0.871550 0.881437 0.801877
0.956786 0.881102 0.806516
0.752346 0.933989 0.834684
0.753414 0.933532 0.834440
0.763088 0.932982 0.836667
0.785611 0.933288 0.843931
0.806424 0.934081 0.847807
0.825620 0.935546 0.848508
0.861784 0.938994 0.845731
0.928618 0.941894 0.832883
0.000000 0.180240 0.920806
0.000000 0.176364 0.920714
0.000000 0.157870 0.918853
0.105196 0.107759 0.915221
0.505699 0.000000 0.907988
0.721340 0.000000 0.896941
0.889830 0.000000 0.889738
1.000000 0.000000 0.884184
0.000000 0.225956 0.919677
0.000000 0.205722 0.919951
0.000000 0.192050 0.918029
0.000000 0.158846 0.913787
0.501274 0.034058 0.906462
0.718502 0.000000 0.895140
0.887602 0.000000 0.887480
1.000000 0.000000 0.881224
0.000000 0.373968 0.918547
0.000000 0.362249 0.918547
0.000000 0.304753 0.918212
0.000000 0.290379 0.913725
0.490974 0.264042 0.906035
0.714382 0.216342 0.894865
0.887419 0.180026 0.887327
1.000000 0.214939 0.878996
0.000000 0.572747 0.912596
0.000000 0.565057 0.912108
0.000000 0.534844 0.911772
0.000000 0.468421 0.911559
0.495827 0.452338 0.904234
0.712581 0.425910 0.893614
0.885313 0.410925 0.885191
1.000000 0.437354 0.872160
0.000000 0.729061 0.906096
0.005005 0.727291 0.905394
0.311589 0.721035 0.903136
0.484260 0.708522 0.898863
0.555749 0.646998 0.897154
0.721675 0.621057 0.887053
0.877287 0.600244 0.877226
0.989929 0.622522 0.862760
0.408606 0.837613 0.890684
0.425757 0.837247 0.890715
0.486580 0.835569 0.890745
0.578393 0.832029 0.890745
0.680903 0.825986 0.890623
0.755734 0.784085 0.883146
0.870573 0.760311 0.870451
0.958282 0.769497 0.860044
0.594141 0.901762 0.869810
0.601892 0.901396 0.870024
0.630152 0.899413 0.870481
0.679225 0.895659 0.871458
0.740047 0.889616 0.871977
0.804105 0.880735 0.871244
0.865293 0.865293 0.865293
0.944945 0.886687 0.882994
0.761929 0.931670 0.863920
0.764614 0.931701 0.864591
0.776059 0.931945 0.867704
0.796139 0.932097 0.872953
0.823819 0.932372 0.880339
0.856626 0.932952 0.889311
0.882444 0.934661 0.892882
0.932677 0.939361 0.886625
0.000000 0.201511 0.979950
0.000000 0.199466 0.979797
0.000000 0.189853 0.978637
0.000000 0.169039 0.976715
0.377508 0.128450 0.973480
0.618006 0.000000 0.968597
0.807675 0.000000 0.962066
0.958007 0.000000 0.957855
0.000000 0.236790 0.979095
0.000000 0.224552 0.979217
0.000000 0.217166 0.978149
0.000000 0.201663 0.976165
0.374182 0.173678 0.972869
0.616724 0.117861 0.967956
0.806546 0.000000 0.961242
0.957000 0.000000 0.956847
0.000000 0.365942 0.976501
0.000000 0.356512 0.976623
0.000000 0.314580 0.976898
0.000000 0.308934 0.975097
0.371771 0.297032 0.971618
0.615015 0.276616 0.966491
0.804501 0.239658 0.959808
0.955322 0.238193 0.955169
0.000000 0.545190 0.969726
0.000000 0.540032 0.969909
0.000000 0.516960 0.970336
0.000000 0.467872 0.971221
0.405798 0.461189 0.967895
0.624475 0.447974 0.963104
0.803952 0.424689 0.956695
0.951781 0.423560 0.951781
0.278935 0.717220 0.959869
0.309361 0.717342 0.959625
0.399542 0.715969 0.958526
0.461402 0.693111 0.958679
0.514519 0.642969 0.959869
0.663569 0.627985 0.955688
0.810147 0.604486 0.949981
0.945190 0.597284 0.945098
0.479377 0.834806 0.951873
0.490028 0.834684 0.951812
0.532891 0.834592 0.951598
0.606287 0.831296 0.950469
0.691249 0.822782 0.948119
0.733272 0.783932 0.948119
0.831205 0.765530 0.943084
0.938048 0.750973 0.937957
0.628077 0.911284 0.941924
0.633722 0.911040 0.941955
0.656764 0.910124 0.941985
0.698543 0.908598 0.942290
0.753231 0.906249 0.942901
0.813931 0.902892 0.943969
0.857969 0.875731 0.940764
0.933043 0.857420 0.932982
0.739071 0.954437 0.930083
0.742061 0.954192 0.930144
0.754788 0.953368 0.930602
0.779080 0.951812 0.931640
0.812253 0.949523 0.933074
0.851164 0.946410 0.934661
0.892363 0.941985 0.935698
0.932036 0.932036 0.932036
