20 Preset/Japan Style/【3】LUT video cho PR-AE-FCPX/LUT VIDEO (2)/Japan Style LUT (4).cube
# Created by Adobe Lightroom plugin Export LUT (1.24.0)
# www.johnrellis.com/lightroom/exportlut.htm
# Preset: 04日系暖色（素材江湖）
# Color profile: C:\Program Files (x86)\Common Files\Adobe\Color\Profiles\Recommended\VideoHD.icc
LUT_3D_SIZE 5
DOMAIN_MIN 0.000000 0.000000 0.000000
DOMAIN_MAX 0.903226 0.903226 0.903226
0.091341 0.095827 0.110750
0.180423 0.085939 0.105348
0.629603 0.000000 0.093233
0.964477 0.000000 0.101900
1.000000 0.330571 0.223239
0.000000 0.240146 0.122133
0.224247 0.275364 0.096284
0.713497 0.315618 0.000000
0.967071 0.334844 0.000000
1.000000 0.443854 0.229221
0.000000 0.662226 0.314641
0.000000 0.655299 0.270359
0.688167 0.696956 0.298955
0.973358 0.699763 0.252262
1.000000 0.702998 0.286503
0.306889 0.846525 0.568719
0.356390 0.844358 0.557183
0.555138 0.831174 0.562402
0.851316 0.854398 0.600732
1.000000 0.866575 0.637263
0.696620 0.930907 0.793149
0.705165 0.930419 0.791653
0.733394 0.927581 0.783810
0.824521 0.925353 0.815000
0.937469 0.945159 0.850828
0.077272 0.096559 0.133150
0.143374 0.078828 0.142947
0.588098 0.000000 0.209079
0.939300 0.000000 0.220920
1.000000 0.295720 0.297765
0.000000 0.210117 0.204807
0.227390 0.236973 0.219944
0.686244 0.244633 0.206790
0.950256 0.285588 0.221622
1.000000 0.415442 0.304845
0.000000 0.655940 0.397650
0.000000 0.653773 0.383673
0.681178 0.681331 0.383307
0.960174 0.687282 0.340520
1.000000 0.689204 0.361456
0.392523 0.844114 0.611261
0.428717 0.842130 0.600366
0.575647 0.830686 0.590204
0.850767 0.851804 0.629236
1.000000 0.864775 0.658564
0.705989 0.930236 0.803372
0.713924 0.929717 0.801602
0.745876 0.928161 0.797391
0.827481 0.925170 0.823056
0.938628 0.945830 0.858152
0.000000 0.104250 0.367071
0.000000 0.075746 0.396918
0.595331 0.000000 0.445289
0.916594 0.000000 0.493477
1.000000 0.278233 0.543542
0.000000 0.114931 0.442084
0.000000 0.087129 0.474220
0.682826 0.000000 0.510765
0.904173 0.255283 0.524651
1.000000 0.316289 0.511620
0.000000 0.616907 0.577142
0.000000 0.635920 0.587732
0.703090 0.653620 0.631983
0.920836 0.644190 0.566033
1.000000 0.627924 0.551049
0.188174 0.842802 0.667231
0.406836 0.839292 0.678676
0.661769 0.830961 0.701869
0.851469 0.843931 0.721096
0.995148 0.855283 0.719692
0.663111 0.931975 0.812100
0.701472 0.930053 0.820859
0.769924 0.926665 0.830961
0.831601 0.923613 0.839750
0.939666 0.944244 0.873594
0.000000 0.118379 0.678492
0.000000 0.112062 0.683864
0.461830 0.000000 0.758877
0.941039 0.000000 0.748928
1.000000 0.174777 0.720882
0.000000 0.093477 0.708431
0.000000 0.015503 0.725032
0.523766 0.000000 0.780819
0.954833 0.000000 0.764126
1.000000 0.341588 0.728786
0.000000 0.384405 0.730587
0.000000 0.380468 0.734676
0.422461 0.383612 0.791470
0.920531 0.536919 0.787961
0.997711 0.605463 0.764858
0.000000 0.826261 0.795773
0.000000 0.827054 0.797208
0.529259 0.829496 0.807919
0.864561 0.832242 0.840146
0.976471 0.814908 0.795041
0.319036 0.943816 0.821927
0.432807 0.941161 0.826139
0.673671 0.932555 0.846067
0.851957 0.926299 0.879667
0.943755 0.942901 0.903044
0.000000 0.146792 0.901549
0.000000 0.146792 0.901335
0.000000 0.000000 0.913878
0.813687 0.000000 0.938354
1.000000 0.000000 0.911101
0.000000 0.146792 0.901671
0.000000 0.146761 0.901976
0.000000 0.000000 0.915190
0.825559 0.000000 0.937865
1.000000 0.000000 0.908843
0.000000 0.150576 0.917876
0.000000 0.123842 0.917632
0.000000 0.000000 0.925292
0.799069 0.000000 0.937652
1.000000 0.000000 0.908873
0.000000 0.612146 0.896330
0.000000 0.599603 0.894865
0.000000 0.550225 0.894743
0.615930 0.516014 0.919554
0.993927 0.726070 0.912291
0.000000 0.943877 0.909148
0.000000 0.942840 0.909026
0.000000 0.933928 0.908873
0.702113 0.919310 0.913329
0.946441 0.929595 0.940612
