20 Preset/Japan Style/【3】LUT video cho PR-AE-FCPX/LUT VIDEO (2)/Japan Style LUT (19).cube
# Created by Adobe Lightroom plugin Export LUT (1.24.0)
# www.johnrellis.com/lightroom/exportlut.htm
# Preset: 19日系校园（素材江湖）
# Color profile: C:\Program Files (x86)\Common Files\Adobe\Color\Profiles\Recommended\VideoHD.icc
LUT_3D_SIZE 32
DOMAIN_MIN 0.0 0.0 0.0
DOMAIN_MAX 1.0 1.0 1.0
0.013764 0.021424 0.015991
0.024964 0.021271 0.015808
0.056306 0.021088 0.016358
0.096864 0.025269 0.016815
0.129641 0.031952 0.016968
0.184146 0.022278 0.017823
0.254673 0.000000 0.016327
0.330053 0.000000 0.014710
0.406043 0.000000 0.010346
0.481575 0.000000 0.001923
0.556664 0.000000 0.000000
0.628840 0.000000 0.000000
0.696712 0.000000 0.000000
0.759304 0.000000 0.000000
0.815518 0.000000 0.000000
0.861753 0.000000 0.000000
0.900633 0.000000 0.000000
0.933898 0.000000 0.000000
0.962524 0.000000 0.000000
0.987610 0.000000 0.000000
1.000000 0.000000 0.000000
1.000000 0.000000 0.000000
1.000000 0.000000 0.000000
1.000000 0.000000 0.000000
1.000000 0.015473 0.000000
1.000000 0.133333 0.061402
1.000000 0.176822 0.106508
1.000000 0.209415 0.132143
1.000000 0.237339 0.155154
1.000000 0.262791 0.177554
1.000000 0.286351 0.200565
1.000000 0.309087 0.224063
0.011048 0.031800 0.015778
0.019684 0.029694 0.015900
0.053590 0.031464 0.016114
0.095491 0.034668 0.016754
0.128908 0.040162 0.017060
0.182803 0.032349 0.016632
0.252110 0.000000 0.015381
0.325994 0.000000 0.014069
0.401251 0.000000 0.008423
0.476051 0.000000 0.001617
0.550011 0.000000 0.000000
0.622156 0.000000 0.000000
0.690028 0.000000 0.000000
0.752834 0.000000 0.000000
0.809598 0.000000 0.000000
0.856901 0.000000 0.000000
0.896422 0.000000 0.000000
0.930327 0.000000 0.000000
0.959319 0.000000 0.000000
0.984619 0.000000 0.000000
1.000000 0.000000 0.000000
1.000000 0.000000 0.000000
1.000000 0.000000 0.000000
1.000000 0.000000 0.000000
1.000000 0.000000 0.000000
1.000000 0.121859 0.036530
1.000000 0.167056 0.096132
1.000000 0.201877 0.122927
1.000000 0.230228 0.147433
1.000000 0.256260 0.170352
1.000000 0.280583 0.193606
1.000000 0.303563 0.216770
0.004395 0.068269 0.017731
0.013306 0.068330 0.018647
0.041260 0.068605 0.016938
0.092195 0.073793 0.015015
0.129274 0.079500 0.013825
0.184482 0.073579 0.013062
0.253208 0.036133 0.012634
0.325780 0.000000 0.009796
0.399908 0.000000 0.004608
0.473701 0.000000 0.000000
0.547082 0.000000 0.000000
0.618982 0.000000 0.000000
0.686213 0.000000 0.000000
0.748531 0.000000 0.000000
0.805539 0.000000 0.000000
0.853025 0.000000 0.000000
0.892821 0.000000 0.000000
0.927092 0.000000 0.000000
0.956451 0.000000 0.000000
0.982300 0.000000 0.000000
1.000000 0.000000 0.000000
1.000000 0.000000 0.000000
1.000000 0.000000 0.000000
1.000000 0.000000 0.000000
1.000000 0.058839 0.000000
1.000000 0.136812 0.023102
1.000000 0.177005 0.089601
1.000000 0.208011 0.117952
1.000000 0.234989 0.142977
1.000000 0.259770 0.166323
1.000000 0.282475 0.189425
1.000000 0.305028 0.212985
0.000000 0.103853 0.022858
0.000702 0.104036 0.022705
0.029053 0.104402 0.024231
0.082826 0.105196 0.020508
0.124300 0.111147 0.014099
0.186893 0.114351 0.005585
0.257786 0.106081 0.001068
0.328435 0.084810 0.000000
0.401617 0.000000 0.000000
0.474311 0.000000 0.000000
0.546929 0.000000 0.000000
0.616785 0.000000 0.000000
0.683742 0.000000 0.000000
0.745083 0.000000 0.000000
0.801328 0.000000 0.000000
0.848447 0.000000 0.000000
0.888060 0.000000 0.000000
0.922179 0.000000 0.000000
0.951537 0.000000 0.000000
0.978302 0.000000 0.000000
1.000000 0.000000 0.000000
1.000000 0.000000 0.000000
1.000000 0.000000 0.000000
1.000000 0.027070 0.000000
1.000000 0.128176 0.000000
1.000000 0.168276 0.005646
1.000000 0.199832 0.082185
1.000000 0.226322 0.115450
1.000000 0.249760 0.140749
1.000000 0.272038 0.164645
1.000000 0.292912 0.188022
1.000000 0.312840 0.210910
0.000000 0.151522 0.018799
0.000000 0.151766 0.018463
0.000000 0.152346 0.020813
0.027527 0.152895 0.019196
0.110231 0.152224 0.011444
0.169314 0.155062 0.001373
0.246006 0.159060 0.000000
0.328618 0.152316 0.000000
0.400610 0.135256 0.000000
0.472145 0.108675 0.000000
0.543023 0.021546 0.000000
0.612604 0.000000 0.000000
0.678218 0.000000 0.000000
0.739590 0.000000 0.000000
0.795712 0.000000 0.000000
0.843015 0.000000 0.000000
0.883360 0.000000 0.000000
0.917784 0.000000 0.000000
0.947387 0.000000 0.000000
0.975311 0.000000 0.000000
1.000000 0.000000 0.000000
1.000000 0.034913 0.000000
1.000000 0.121370 0.000000
1.000000 0.157198 0.000000
1.000000 0.185794 0.000000
1.000000 0.210910 0.000000
1.000000 0.233036 0.070192
1.000000 0.253330 0.111177
1.000000 0.272526 0.138643
1.000000 0.290776 0.162325
1.000000 0.308537 0.186160
1.000000 0.326055 0.209354
0.000000 0.217990 0.000000
0.000000 0.218540 0.000000
0.000000 0.218784 0.000000
0.000000 0.220554 0.000000
0.024018 0.218082 0.000000
0.151064 0.212833 0.000000
0.220401 0.208103 0.000000
0.304082 0.212375 0.000000
0.390570 0.209049 0.000000
0.474006 0.198245 0.000000
0.544427 0.181796 0.000000
0.612970 0.163210 0.000000
0.677546 0.144656 0.000000
0.737972 0.127962 0.000000
0.793240 0.118318 0.000000
0.840146 0.113375 0.000000
0.879942 0.115572 0.000000
0.914458 0.124880 0.000000
0.944610 0.137514 0.000000
0.973053 0.157534 0.000000
0.997620 0.176181 0.000000
1.000000 0.194858 0.000000
1.000000 0.249424 0.000000
1.000000 0.264683 0.000000
1.000000 0.278843 0.017670
1.000000 0.292485 0.097200
1.000000 0.305699 0.129702
1.000000 0.318395 0.154177
1.000000 0.331365 0.177768
1.000000 0.344305 0.199649
1.000000 0.357214 0.221805
1.000000 0.370062 0.243168
0.000000 0.305089 0.000000
0.000000 0.305394 0.000000
0.000000 0.305882 0.000000
0.000000 0.307652 0.000000
0.000000 0.307012 0.000000
0.103578 0.298863 0.000000
0.211032 0.288182 0.000000
0.288212 0.277317 0.000000
0.373083 0.278904 0.000000
0.463905 0.279789 0.000000
0.554009 0.276768 0.000000
0.630884 0.270146 0.000000
0.693843 0.263096 0.000000
0.752071 0.259068 0.000000
0.803586 0.256870 0.000000
0.846891 0.254551 0.000000
0.884550 0.253696 0.000000
0.917266 0.254307 0.000000
0.949584 0.261387 0.000000
0.977966 0.268956 0.000000
1.000000 0.277958 0.000000
1.000000 0.287633 0.000000
1.000000 0.298589 0.000000
1.000000 0.309667 0.000000
1.000000 0.319829 0.000000
1.000000 0.330022 0.080903
1.000000 0.338720 0.119539
1.000000 0.347662 0.147646
1.000000 0.357244 0.172274
1.000000 0.366705 0.195102
1.000000 0.376654 0.216129
1.000000 0.387152 0.237705
0.000000 0.378485 0.000000
0.000000 0.378698 0.000000
0.000000 0.379278 0.000000
0.000000 0.380804 0.000000
0.000000 0.382574 0.000000
0.000000 0.377020 0.000000
0.172152 0.366094 0.000000
0.269108 0.352209 0.000000
0.341192 0.335332 0.000000
0.424537 0.336522 0.000000
0.515343 0.342077 0.000000
0.602380 0.345403 0.000000
0.682612 0.348119 0.000000
0.744472 0.347082 0.000000
0.795041 0.344579 0.000000
0.837827 0.341283 0.000000
0.875456 0.338293 0.000000
0.911437 0.339300 0.000000
0.942596 0.340185 0.000000
0.969909 0.341802 0.000000
0.994629 0.344762 0.000000
1.000000 0.348608 0.000000
1.000000 0.353368 0.000000
1.000000 0.358953 0.000000
1.000000 0.365026 0.000000
1.000000 0.370367 0.054200
1.000000 0.375921 0.113863
1.000000 0.381262 0.143069
1.000000 0.387396 0.168246
1.000000 0.394354 0.192233
1.000000 0.401373 0.213748
1.000000 0.409430 0.235691
0.000000 0.451514 0.000000
0.000000 0.451820 0.000000
0.000000 0.452277 0.000000
0.000000 0.453559 0.000000
0.000000 0.455238 0.000000
0.000000 0.455909 0.000000
0.096071 0.445167 0.000000
0.246036 0.431800 0.000000
0.331487 0.416083 0.000000
0.397742 0.395056 0.000000
0.475349 0.393927 0.000000
0.563806 0.403418 0.000000
0.646418 0.411353 0.000000
0.721614 0.418891 0.000000
0.786709 0.423285 0.000000
0.830350 0.419013 0.000000
0.870542 0.416785 0.000000
0.904997 0.413642 0.000000
0.935058 0.410254 0.000000
0.961913 0.407996 0.000000
0.986481 0.406531 0.000000
1.000000 0.406470 0.000000
1.000000 0.407111 0.000000
1.000000 0.408759 0.000000
1.000000 0.410773 0.000000
1.000000 0.412696 0.037354
1.000000 0.415106 0.111360
1.000000 0.417792 0.142611
1.000000 0.421241 0.168612
1.000000 0.425147 0.192508
1.000000 0.430060 0.214572
1.000000 0.435401 0.235996
0.000000 0.522637 0.000000
0.000000 0.522515 0.000000
0.000000 0.522728 0.000000
0.000000 0.523522 0.000000
0.000000 0.524712 0.000000
0.000000 0.526116 0.000000
0.000000 0.521233 0.000000
0.219730 0.509087 0.000000
0.319921 0.493996 0.000000
0.395178 0.476448 0.000000
0.456397 0.455146 0.000000
0.521202 0.446906 0.000000
0.605737 0.459266 0.000000
0.683589 0.471015 0.000000
0.756252 0.482124 0.000000
0.815793 0.486549 0.000000
0.863798 0.485969 0.000000
0.897673 0.479957 0.000000
0.927428 0.474128 0.000000
0.954192 0.468788 0.000000
0.978485 0.464149 0.000000
1.000000 0.460334 0.000000
1.000000 0.457160 0.000000
1.000000 0.455177 0.000000
1.000000 0.453529 0.000000
1.000000 0.452674 0.002258
1.000000 0.452247 0.101259
1.000000 0.452522 0.137057
1.000000 0.453864 0.165805
1.000000 0.455970 0.190433
1.000000 0.458930 0.214176
1.000000 0.462623 0.236423
0.000000 0.585595 0.000000
0.000000 0.585718 0.000000
0.000000 0.586023 0.000000
0.000000 0.586847 0.000000
0.000000 0.588037 0.000000
0.000000 0.589685 0.000000
0.000000 0.591760 0.000000
0.206180 0.581994 0.000000
0.316350 0.568750 0.000000
0.396521 0.553216 0.000000
0.461524 0.534905 0.000000
0.518059 0.516442 0.000000
0.570459 0.501579 0.000000
0.651850 0.517449 0.000000
0.725551 0.530663 0.000000
0.787167 0.537316 0.000000
0.839567 0.539055 0.000000
0.884001 0.536858 0.000000
0.918456 0.531029 0.000000
0.944976 0.523339 0.000000
0.969268 0.516320 0.000000
0.991608 0.510155 0.000000
1.000000 0.505119 0.000000
1.000000 0.500481 0.000000
1.000000 0.496620 0.000000
1.000000 0.493721 0.001068
1.000000 0.491371 0.103212
1.000000 0.489784 0.140352
1.000000 0.488960 0.168612
1.000000 0.489082 0.194003
1.000000 0.490150 0.217624
1.000000 0.492042 0.240452
0.000000 0.647059 0.000000
0.000000 0.647089 0.000000
0.000000 0.647486 0.000000
0.000000 0.648096 0.000000
0.000000 0.649195 0.000000
0.000000 0.650324 0.000000
0.000000 0.652094 0.000000
0.218265 0.650538 0.000000
0.329076 0.640986 0.000000
0.410742 0.629114 0.000000
0.477882 0.614496 0.000000
0.534295 0.597589 0.000000
0.613550 0.605493 0.000000
0.658350 0.588891 0.000000
0.723140 0.595727 0.000000
0.784329 0.602655 0.000000
0.835874 0.604364 0.000000
0.879728 0.601892 0.000000
0.917754 0.596826 0.000000
0.951354 0.590204 0.000000
0.976684 0.581384 0.000000
0.997742 0.572534 0.000000
1.000000 0.564446 0.000000
1.000000 0.557458 0.000000
1.000000 0.551263 0.050233
1.000000 0.545586 0.120302
1.000000 0.540459 0.152346
1.000000 0.536309 0.178592
1.000000 0.533104 0.201541
1.000000 0.530724 0.222995
1.000000 0.529351 0.243351
1.000000 0.528923 0.263279
0.000000 0.713436 0.002441
0.000000 0.713313 0.003876
0.000000 0.713100 0.014221
0.000000 0.713191 0.039368
0.000000 0.713130 0.081697
0.000000 0.713252 0.105837
0.000000 0.713893 0.130373
0.265934 0.714870 0.155428
0.362219 0.709621 0.143374
0.436439 0.700313 0.105592
0.501823 0.690028 0.000000
0.560113 0.678309 0.000000
0.611475 0.664668 0.000000
0.656001 0.648096 0.000000
0.699214 0.633936 0.000000
0.748592 0.631159 0.000000
0.803433 0.636072 0.000000
0.849882 0.635889 0.000000
0.889891 0.632502 0.000000
0.925078 0.627131 0.000000
0.956603 0.620325 0.000000
0.985016 0.612848 0.000000
1.000000 0.603723 0.000000
1.000000 0.595331 0.000000
1.000000 0.587762 0.048554
1.000000 0.581079 0.121614
1.000000 0.574945 0.155215
1.000000 0.569665 0.182071
1.000000 0.565240 0.204776
1.000000 0.561822 0.226810
1.000000 0.559197 0.247471
1.000000 0.557671 0.268101
0.000000 0.754696 0.173037
0.000000 0.754513 0.172457
0.000000 0.753994 0.174350
0.000000 0.753384 0.178164
0.000000 0.752560 0.183749
0.000000 0.751858 0.192691
0.125338 0.751492 0.205661
0.280430 0.751492 0.220798
0.375097 0.751308 0.235904
0.440772 0.743832 0.213962
0.501091 0.735439 0.186160
0.556573 0.725978 0.150240
0.607446 0.714870 0.091432
0.652979 0.701808 0.000000
0.693080 0.685908 0.000000
0.730983 0.670344 0.000000
0.770321 0.661616 0.000000
0.819425 0.664515 0.000000
0.861906 0.663416 0.000000
0.898985 0.659571 0.000000
0.932250 0.653986 0.000000
0.962341 0.647578 0.000000
0.989868 0.640467 0.000000
1.000000 0.632593 0.000000
1.000000 0.624109 0.084901
1.000000 0.616449 0.133089
1.000000 0.609308 0.164218
1.000000 0.603021 0.189670
1.000000 0.597467 0.212711
1.000000 0.593042 0.234195
1.000000 0.589349 0.254734
1.000000 0.586755 0.275578
0.000000 0.785885 0.245884
0.000000 0.785763 0.246342
0.000000 0.785245 0.246921
0.000000 0.784451 0.248661
0.000000 0.783474 0.251804
0.000000 0.782345 0.257847
0.192966 0.781582 0.266728
0.301488 0.781216 0.278599
0.383124 0.781308 0.293706
0.447669 0.778531 0.294591
0.501213 0.771725 0.274540
0.552544 0.764065 0.249668
0.600458 0.755337 0.220523
0.645472 0.744808 0.181460
0.686519 0.732235 0.121218
0.723079 0.717098 0.000000
0.755978 0.699916 0.000000
0.789609 0.688441 0.000000
0.834226 0.689815 0.000000
0.873289 0.688014 0.000000
0.908110 0.684077 0.000000
0.939757 0.678889 0.000000
0.968811 0.672663 0.000000
0.995453 0.665858 0.067292
1.000000 0.658534 0.115206
1.000000 0.650507 0.146975
1.000000 0.642725 0.176089
1.000000 0.635798 0.201602
1.000000 0.629633 0.224674
1.000000 0.624537 0.246830
1.000000 0.620417 0.268254
1.000000 0.617243 0.290105
0.000000 0.810147 0.304448
0.000000 0.810178 0.304997
0.000000 0.809934 0.306096
0.000000 0.809598 0.308354
0.000000 0.809018 0.311803
0.144350 0.808469 0.317479
0.252171 0.808194 0.325750
0.330938 0.808072 0.336980
0.399176 0.808225 0.350622
0.461189 0.808621 0.366583
0.507683 0.803525 0.353429
0.551751 0.796719 0.332586
0.594720 0.788754 0.307164
0.636133 0.779446 0.277470
0.675196 0.768612 0.240177
0.712001 0.756069 0.192782
0.746212 0.741787 0.123323
0.775998 0.724819 0.000000
0.805356 0.711208 0.000000
0.846738 0.711849 0.000000
0.883635 0.709987 0.000000
0.917113 0.706477 0.000000
0.947692 0.701747 0.089845
0.975860 0.696040 0.129213
1.000000 0.689693 0.156985
1.000000 0.682856 0.178927
1.000000 0.675746 0.197543
1.000000 0.668177 0.219211
1.000000 0.661341 0.240269
1.000000 0.655390 0.261692
1.000000 0.650233 0.281682
1.000000 0.645899 0.302129
0.000000 0.830594 0.356390
0.000000 0.830564 0.356481
0.000000 0.830381 0.357733
0.000000 0.830137 0.359411
0.154788 0.829770 0.363104
0.230930 0.829435 0.367926
0.296178 0.829160 0.375250
0.356573 0.828946 0.384527
0.413001 0.828855 0.395880
0.466651 0.829007 0.409400
0.514336 0.827878 0.416480
0.552117 0.822202 0.398932
0.589929 0.815671 0.378119
0.627375 0.808011 0.353277
0.664179 0.799100 0.324346
0.699916 0.788754 0.288853
0.733944 0.777157 0.247379
0.766354 0.764126 0.195712
0.795773 0.749142 0.118563
0.824674 0.736538 0.000000
0.859434 0.733150 0.000000
0.894591 0.731258 0.088380
0.926635 0.727932 0.132906
0.956146 0.723445 0.164706
0.983368 0.718135 0.189944
1.000000 0.712184 0.210361
1.000000 0.705806 0.228946
1.000000 0.699123 0.244511
1.000000 0.692226 0.258946
1.000000 0.685664 0.278691
1.000000 0.679866 0.298741
1.000000 0.674861 0.318669
0.169863 0.849729 0.407385
0.174685 0.849821 0.408087
0.254826 0.859129 0.436927
0.273838 0.858976 0.438514
0.301976 0.858640 0.441444
0.335882 0.858213 0.445289
0.373663 0.857755 0.450629
0.414557 0.857328 0.457923
0.456611 0.857084 0.466926
0.499702 0.856931 0.477943
0.542107 0.856870 0.490303
0.574975 0.853696 0.484901
0.604242 0.848051 0.466835
0.634821 0.841337 0.445014
0.666041 0.833555 0.419715
0.697658 0.824613 0.390295
0.729244 0.814420 0.355535
0.760250 0.803128 0.315953
0.790402 0.790646 0.270115
0.818875 0.776852 0.214725
0.848264 0.765774 0.149142
0.876738 0.757839 0.151308
0.909514 0.755398 0.182010
0.939666 0.751583 0.207004
0.967315 0.746670 0.228367
0.992981 0.740993 0.246159
1.000000 0.734798 0.260990
1.000000 0.728328 0.275700
1.000000 0.721706 0.288853
1.000000 0.715175 0.302281
1.000000 0.708736 0.317174
1.000000 0.702998 0.335851
0.288609 0.868956 0.461067
0.294713 0.869718 0.463661
0.306493 0.870451 0.467109
0.324071 0.871000 0.470710
0.346441 0.871305 0.474891
0.372625 0.871183 0.479011
0.402625 0.870848 0.483803
0.435828 0.870390 0.489815
0.471107 0.870054 0.497353
0.508080 0.869780 0.506523
0.545342 0.869627 0.517113
0.581964 0.869322 0.528008
0.605798 0.864652 0.512505
0.631403 0.859159 0.494453
0.658442 0.852842 0.473457
0.686732 0.845548 0.449409
0.715785 0.837308 0.421180
0.745357 0.828122 0.389471
0.775051 0.818051 0.353582
0.804227 0.807126 0.313176
0.832609 0.795010 0.265293
0.863676 0.786618 0.212345
0.887968 0.775906 0.201450
0.919341 0.773526 0.227024
0.948241 0.769772 0.248356
0.974975 0.765103 0.267277
0.999817 0.759762 0.283421
1.000000 0.754025 0.298711
1.000000 0.748104 0.312474
1.000000 0.742092 0.326604
1.000000 0.736019 0.340154
1.000000 0.729885 0.353552
0.346868 0.881987 0.496590
0.351751 0.882689 0.498909
0.360998 0.883421 0.502129
0.373785 0.883940 0.505730
0.391058 0.884276 0.509483
0.411444 0.884184 0.513298
0.434821 0.883909 0.517418
0.461799 0.883482 0.522606
0.491279 0.883116 0.529198
0.522393 0.882780 0.536889
0.554772 0.882506 0.545800
0.587488 0.882292 0.555596
0.614466 0.880461 0.555932
0.635248 0.876005 0.540887
0.657710 0.870848 0.523491
0.681727 0.864927 0.503258
0.707301 0.858152 0.480201
0.733944 0.850645 0.453498
0.761563 0.842313 0.424567
0.789731 0.833249 0.391394
0.817929 0.823423 0.354162
0.845792 0.812741 0.311467
0.877684 0.806058 0.263859
0.899260 0.793515 0.244236
0.929259 0.791135 0.266850
0.957092 0.787533 0.286442
0.982910 0.783139 0.303685
1.000000 0.778195 0.319646
1.000000 0.772915 0.335088
1.000000 0.767544 0.349889
1.000000 0.762020 0.364263
1.000000 0.756405 0.378698
0.397833 0.894530 0.530846
0.401801 0.895079 0.533104
0.408545 0.895689 0.535637
0.418524 0.896086 0.538689
0.431617 0.896361 0.541833
0.447608 0.896300 0.545006
0.466194 0.896056 0.548608
0.488045 0.895689 0.553002
0.512108 0.895354 0.558221
0.538415 0.895079 0.564477
0.566217 0.894774 0.571801
0.594629 0.894560 0.579950
0.623438 0.894347 0.588434
0.642908 0.891234 0.580621
0.661799 0.886992 0.567071
0.682155 0.882231 0.551293
0.704067 0.876982 0.532860
0.727626 0.871153 0.512016
0.752621 0.864805 0.488960
0.778927 0.857847 0.463264
0.806149 0.850340 0.434821
0.833860 0.842161 0.403143
0.861479 0.833249 0.366613
0.892515 0.826780 0.325872
0.914672 0.815183 0.299138
0.943542 0.812985 0.321050
0.970245 0.809720 0.340703
0.995148 0.805753 0.358618
1.000000 0.801389 0.375738
1.000000 0.796719 0.392248
1.000000 0.791836 0.408301
1.000000 0.786770 0.424018
0.457221 0.909850 0.573205
0.458900 0.910063 0.574121
0.462318 0.910185 0.575097
0.467994 0.910185 0.576257
0.476722 0.910063 0.577935
0.487800 0.909819 0.579644
0.502129 0.909453 0.582300
0.519036 0.909148 0.585534
0.538567 0.908812 0.589593
0.560327 0.908568 0.594812
0.583825 0.908324 0.600824
0.608362 0.908110 0.607446
0.633448 0.907866 0.614527
0.656703 0.906981 0.618585
0.672175 0.903532 0.607935
0.689143 0.899596 0.595575
0.707576 0.895171 0.581445
0.727443 0.890288 0.565332
0.748684 0.884977 0.546563
0.771420 0.879088 0.524743
0.795621 0.872679 0.500175
0.820981 0.865690 0.473396
0.847196 0.858030 0.442817
0.873808 0.849668 0.408484
0.903044 0.842893 0.370336
0.927092 0.833524 0.340948
0.953643 0.830045 0.357031
0.979492 0.827146 0.376776
1.000000 0.823636 0.395422
1.000000 0.819730 0.413062
1.000000 0.815488 0.430274
1.000000 0.811002 0.447059
0.491249 0.920775 0.599145
0.492561 0.920928 0.599695
0.495338 0.921050 0.600519
0.500298 0.921050 0.601740
0.507042 0.920958 0.602960
0.516289 0.920775 0.604669
0.528069 0.920470 0.606867
0.541955 0.920226 0.609430
0.558465 0.919951 0.612970
0.577173 0.919646 0.617456
0.597192 0.919463 0.622248
0.618647 0.919249 0.627955
0.640833 0.919005 0.633997
0.663783 0.918791 0.640558
0.681361 0.916991 0.638544
0.695857 0.913817 0.628748
0.711757 0.910307 0.617762
0.729000 0.906401 0.605310
0.747555 0.902129 0.590906
0.767605 0.897368 0.574670
0.789029 0.892241 0.556359
0.811734 0.886656 0.534691
0.835721 0.880552 0.510277
0.860807 0.873869 0.482734
0.884520 0.864195 0.443671
0.912383 0.857420 0.408118
0.939147 0.851316 0.381140
0.963195 0.846189 0.389715
0.988373 0.843656 0.410040
1.000000 0.840635 0.429175
1.000000 0.837247 0.448280
1.000000 0.833402 0.466011
0.528405 0.932921 0.627558
0.530175 0.933165 0.628626
0.532250 0.933257 0.629206
0.535485 0.933165 0.629603
0.540307 0.932891 0.630152
0.546868 0.932494 0.630854
0.555383 0.932006 0.631891
0.566125 0.931456 0.633356
0.579187 0.930907 0.635523
0.593988 0.930449 0.638392
0.610590 0.929931 0.641840
0.628809 0.929503 0.646021
0.648127 0.929046 0.650782
0.668116 0.928588 0.655818
0.688685 0.928099 0.661311
0.701076 0.925353 0.653285
0.714412 0.922240 0.643488
0.729305 0.918883 0.632898
0.745602 0.915373 0.621424
0.763607 0.911559 0.608637
0.782803 0.907500 0.594507
0.803342 0.902983 0.578332
0.824949 0.897948 0.559167
0.847654 0.892393 0.536828
0.871366 0.886198 0.510674
0.896147 0.879332 0.480781
0.922972 0.873136 0.448219
0.951537 0.869413 0.422553
0.973632 0.862882 0.424201
0.997803 0.860624 0.444709
1.000000 0.857725 0.463813
1.000000 0.854246 0.481453
0.550347 0.941741 0.645075
0.551904 0.941924 0.645930
0.553918 0.942046 0.646693
0.557000 0.942016 0.647364
0.561517 0.941894 0.648127
0.567742 0.941680 0.649287
0.575616 0.941436 0.650599
0.585565 0.941192 0.652461
0.597314 0.940887 0.654932
0.610834 0.940642 0.657923
0.625635 0.940307 0.661219
0.641871 0.939971 0.665095
0.659022 0.939635 0.669306
0.676905 0.939178 0.673793
0.695247 0.938689 0.678309
0.711269 0.937530 0.679011
0.722835 0.934966 0.671168
0.735561 0.932219 0.662440
0.749813 0.929351 0.653101
0.765377 0.926268 0.642786
0.782376 0.923003 0.631586
0.800595 0.919432 0.619135
0.819944 0.915557 0.604852
0.840482 0.911254 0.588556
0.862150 0.906493 0.569696
0.884916 0.901274 0.547997
0.908934 0.895628 0.522332
0.935393 0.890776 0.494179
0.965545 0.889494 0.472358
0.985840 0.882109 0.468910
1.000000 0.879637 0.488045
1.000000 0.876677 0.506371
0.576074 0.951385 0.665370
0.576715 0.951507 0.665675
0.578058 0.951537 0.666011
0.580682 0.951446 0.666560
0.584314 0.951324 0.667201
0.589349 0.951110 0.667964
0.596063 0.950866 0.669093
0.604395 0.950561 0.670588
0.614343 0.950256 0.672572
0.625910 0.949950 0.674983
0.638941 0.949645 0.677821
0.653193 0.949310 0.681086
0.668360 0.948943 0.684688
0.684291 0.948547 0.688533
0.701106 0.948028 0.692622
0.718135 0.947509 0.696803
0.730434 0.945861 0.693355
0.741634 0.943633 0.686122
0.754238 0.941314 0.678584
0.768063 0.938872 0.670314
0.783200 0.936278 0.661463
0.799466 0.933440 0.651423
0.816709 0.930388 0.640131
0.835172 0.927001 0.627344
0.854704 0.923247 0.612940
0.875364 0.919188 0.596551
0.897337 0.914794 0.577752
0.920409 0.909850 0.555749
0.945861 0.905730 0.531243
0.976715 0.906249 0.510613
0.995697 0.898497 0.503349
1.000000 0.896239 0.522606
0.596521 0.959991 0.681910
0.597192 0.960052 0.682246
0.598352 0.960113 0.682612
0.600793 0.960082 0.683192
0.604303 0.960021 0.683955
0.609339 0.959960 0.685115
0.616175 0.959991 0.686946
0.624689 0.960052 0.689296
0.634821 0.960113 0.692256
0.646235 0.960204 0.695583
0.658991 0.960296 0.699306
0.672602 0.960296 0.703334
0.687068 0.960235 0.707485
0.701869 0.960082 0.711574
0.717189 0.959777 0.715846
0.732631 0.959350 0.719814
0.747738 0.958770 0.723018
0.757504 0.957153 0.717494
0.768429 0.955444 0.711696
0.780423 0.953674 0.705379
0.793576 0.951781 0.698634
0.807767 0.949737 0.691249
0.822904 0.947509 0.682887
0.838865 0.944945 0.673274
0.855863 0.942077 0.662135
0.873991 0.938964 0.649500
0.893462 0.935515 0.635248
0.914122 0.931853 0.619409
0.936065 0.927947 0.601526
0.960174 0.924834 0.582788
0.990051 0.926574 0.567620
1.000000 0.920073 0.560449
0.628229 0.970550 0.706661
0.628382 0.970520 0.706691
0.629206 0.970489 0.706844
0.630793 0.970397 0.707057
0.633387 0.970275 0.707454
0.637110 0.970092 0.708064
0.642084 0.969940 0.709071
0.648463 0.969726 0.710414
0.656092 0.969543 0.712062
0.665156 0.969329 0.714260
0.675288 0.969085 0.716670
0.686458 0.968841 0.719448
0.698634 0.968536 0.722560
0.711513 0.968170 0.725795
