20 Preset/Japan Style/【3】LUT video cho PR-AE-FCPX/LUT VIDEO (2)/Japan Style LUT (44).cube
# Created by Adobe Lightroom plugin Export LUT (1.24.0)
# www.johnrellis.com/lightroom/exportlut.htm
# Preset: 44日系清新（素材江湖）
# Color profile: C:\Program Files (x86)\Common Files\Adobe\Color\Profiles\Recommended\VideoHD.icc
LUT_3D_SIZE 5
DOMAIN_MIN 0.000000 0.000000 0.000000
DOMAIN_MAX 0.903226 0.903226 0.903226
0.085725 0.089082 0.083528
0.294133 0.067231 0.091157
0.825528 0.000000 0.031373
1.000000 0.000000 0.140169
1.000000 0.217136 0.299199
0.000000 0.300694 0.010529
0.262181 0.332189 0.000000
0.918334 0.268620 0.000000
1.000000 0.215427 0.162264
1.000000 0.330114 0.328923
0.000000 0.736324 0.000000
0.000000 0.702602 0.000000
0.711696 0.770993 0.000000
1.000000 0.605707 0.224033
1.000000 0.561151 0.453834
0.000000 0.913207 0.291966
0.000000 0.904387 0.290318
0.400793 0.893400 0.185885
0.846525 0.906432 0.000000
1.000000 0.802487 0.436103
0.379217 0.976440 0.586053
0.418250 0.973663 0.584588
0.531731 0.961059 0.571344
0.644221 0.972259 0.411475
0.912230 0.969696 0.391119
0.139406 0.104524 0.210025
0.280919 0.098573 0.232456
0.760800 0.000000 0.265995
1.000000 0.149172 0.316869
1.000000 0.367468 0.424781
0.000000 0.323888 0.271122
0.315526 0.322972 0.236332
0.832670 0.303288 0.284794
1.000000 0.335027 0.348272
1.000000 0.435004 0.452094
0.000000 0.748226 0.293950
0.000000 0.719600 0.257267
0.715663 0.756863 0.000000
1.000000 0.641047 0.492988
1.000000 0.626734 0.571893
0.000000 0.911620 0.437995
0.000000 0.903441 0.432471
0.475441 0.885191 0.378759
0.854612 0.903502 0.201266
1.000000 0.816190 0.570550
0.472023 0.973724 0.638788
0.497139 0.971069 0.636469
0.587060 0.959991 0.627558
0.680049 0.968627 0.511650
0.918059 0.968811 0.488991
0.270756 0.119722 0.534569
0.419318 0.090303 0.591150
0.803586 0.060548 0.659236
1.000000 0.402014 0.641749
1.000000 0.538537 0.643366
0.235477 0.297734 0.535515
0.404425 0.329351 0.588190
0.799863 0.399847 0.665858
1.000000 0.504082 0.647211
1.000000 0.587152 0.658045
0.000000 0.777096 0.727718
0.347417 0.770657 0.720150
0.793179 0.732998 0.650141
0.977508 0.727047 0.728847
1.000000 0.735256 0.748623
0.579797 0.908080 0.742306
0.634363 0.898711 0.744900
0.678706 0.872068 0.688838
0.882414 0.892363 0.628748
1.000000 0.862486 0.809903
0.691096 0.965484 0.790799
0.689479 0.964202 0.782040
0.707607 0.956085 0.757931
0.770169 0.952483 0.715511
0.932769 0.963439 0.690578
0.433570 0.206943 0.810544
0.519219 0.221958 0.828244
0.786648 0.321447 0.880278
1.000000 0.487190 0.874815
1.000000 0.701381 0.847349
0.432013 0.353124 0.800290
0.518212 0.372381 0.817716
0.781643 0.469703 0.870146
0.986633 0.586633 0.869047
1.000000 0.728450 0.850156
0.284794 0.535424 0.763821
0.396338 0.539666 0.755673
0.762173 0.689021 0.832731
0.932280 0.766232 0.860594
1.000000 0.791440 0.854520
0.638270 0.908110 0.888304
0.686000 0.905028 0.886717
0.807645 0.897246 0.883177
0.911925 0.877104 0.855009
0.993194 0.873442 0.880247
0.748196 0.974853 0.880949
0.765347 0.972686 0.882353
0.819699 0.963500 0.885252
0.852049 0.942870 0.858274
0.951354 0.958099 0.850004
0.606622 0.433417 0.941588
0.644343 0.446387 0.943755
0.775998 0.506126 0.951995
0.940795 0.624750 0.963653
1.000000 0.708431 0.948577
0.615717 0.497414 0.934295
0.652888 0.510063 0.936736
0.781033 0.566186 0.945647
0.936919 0.674098 0.958526
1.000000 0.738827 0.945647
0.570520 0.592493 0.909331
0.643488 0.628779 0.911742
0.780087 0.686641 0.924895
0.922423 0.776638 0.944274
1.000000 0.815946 0.940703
0.504570 0.735470 0.914397
0.540246 0.734371 0.911345
0.649622 0.726772 0.896635
0.885557 0.836728 0.920623
0.977386 0.888121 0.940612
0.729946 0.967346 0.955596
0.751369 0.966766 0.955627
0.819913 0.965698 0.956420
0.900633 0.962310 0.955657
0.966766 0.952850 0.945922
