20 Preset/Japan Style/【3】LUT video cho PR-AE-FCPX/LUT VIDEO (2)/Japan Style LUT (46).cube
# Created by Adobe Lightroom plugin Export LUT (1.24.0)
# www.johnrellis.com/lightroom/exportlut.htm
# Preset: 46日系自然（素材江湖）
# Color profile: C:\Program Files (x86)\Common Files\Adobe\Color\Profiles\Recommended\VideoHD.icc
LUT_3D_SIZE 5
DOMAIN_MIN 0.000000 0.000000 0.000000
DOMAIN_MAX 0.903226 0.903226 0.903226
0.171786 0.191318 0.171176
0.249821 0.188602 0.169528
0.591821 0.147555 0.149844
0.877531 0.000000 0.113436
1.000000 0.000000 0.095216
0.177890 0.259678 0.165560
0.256840 0.269688 0.159243
0.585168 0.281956 0.122164
0.872282 0.237613 0.078889
1.000000 0.152468 0.065309
0.278325 0.549615 0.192355
0.359808 0.537560 0.213046
0.578271 0.566461 0.138308
0.851957 0.506920 0.000000
1.000000 0.424140 0.000000
0.463142 0.753475 0.353979
0.504295 0.749722 0.365270
0.619684 0.745815 0.369879
0.799313 0.751125 0.302312
0.976745 0.674403 0.219333
0.660334 0.875364 0.558740
0.677638 0.873838 0.564874
0.732784 0.864714 0.580377
0.813352 0.869200 0.563409
0.938293 0.871275 0.515282
0.132815 0.194064 0.256657
0.263981 0.176699 0.257053
0.577691 0.019593 0.269444
0.862364 0.000000 0.235935
1.000000 0.000000 0.226810
0.024659 0.292332 0.253147
0.253452 0.284367 0.252018
0.578759 0.262608 0.240604
0.856443 0.221439 0.228977
1.000000 0.174594 0.224765
0.239353 0.559533 0.284825
0.347356 0.549584 0.298558
0.560540 0.559411 0.273381
0.836423 0.498207 0.212589
1.000000 0.435706 0.222904
0.465614 0.756191 0.408637
0.507134 0.752865 0.418280
0.622980 0.745541 0.432959
0.793088 0.751217 0.377752
0.972320 0.679011 0.309453
0.662348 0.875853 0.579065
0.678981 0.874266 0.584192
0.740505 0.868711 0.606989
0.816983 0.870939 0.594842
0.936736 0.873655 0.552850
0.000000 0.218296 0.566979
0.082795 0.172061 0.565789
0.576135 0.000000 0.557336
0.845365 0.000000 0.525933
1.000000 0.210330 0.483314
0.000000 0.377325 0.556298
0.000000 0.299138 0.558984
0.569146 0.259464 0.551659
0.834012 0.275425 0.519493
1.000000 0.347570 0.492622
0.000000 0.607660 0.534600
0.000000 0.602289 0.532982
0.542290 0.580865 0.528466
0.796078 0.560662 0.517449
0.975555 0.538140 0.506279
0.387396 0.771847 0.524102
0.464973 0.766354 0.539635
0.627436 0.752193 0.574395
0.773709 0.754940 0.558740
0.955718 0.698329 0.508232
0.653346 0.878599 0.636378
0.671626 0.877317 0.640925
0.735409 0.871885 0.658106
0.815274 0.868772 0.666835
0.923980 0.873045 0.633906
0.000000 0.252293 0.771633
0.000000 0.201114 0.771969
0.421180 0.145113 0.767483
0.783169 0.000000 0.758419
0.990997 0.206363 0.711269
0.000000 0.376532 0.764096
0.000000 0.324193 0.765408
0.407294 0.288609 0.761379
0.776211 0.277775 0.751583
0.979767 0.333165 0.707271
0.000000 0.638575 0.737850
0.000000 0.630396 0.736690
0.432959 0.571344 0.738979
0.757168 0.556085 0.731136
0.945403 0.570031 0.704097
0.174929 0.792599 0.723690
0.301732 0.789456 0.722469
0.535210 0.779538 0.720729
0.749874 0.762325 0.717708
0.916350 0.747524 0.709255
0.546288 0.893004 0.698726
0.576562 0.891508 0.702235
0.678309 0.886229 0.718227
0.811154 0.874174 0.751766
0.908415 0.876036 0.740322
0.000000 0.281010 0.892210
0.000000 0.228397 0.892760
0.000000 0.211734 0.890715
0.613550 0.193423 0.885893
0.906676 0.213565 0.878813
0.000000 0.372869 0.887388
0.000000 0.338994 0.888212
0.000000 0.304997 0.887083
0.612726 0.304417 0.882048
0.903471 0.319371 0.875273
0.000000 0.628077 0.870115
0.000000 0.614038 0.870512
0.246647 0.551415 0.873625
0.625055 0.536431 0.869932
0.895903 0.537926 0.865599
0.051484 0.790127 0.856046
0.246220 0.789578 0.855283
0.485298 0.787320 0.853971
0.672358 0.745144 0.857542
0.892088 0.739376 0.856626
0.414740 0.908934 0.850431
0.454444 0.907530 0.850217
0.583764 0.902708 0.850492
0.740902 0.893706 0.850340
0.890837 0.881559 0.849577
