20 Preset/Japan Style/【3】LUT video cho PR-AE-FCPX/LUT VIDEO (2)/Japan Style LUT (15).cube
# Created by Adobe Lightroom plugin Export LUT (1.24.0)
# www.johnrellis.com/lightroom/exportlut.htm
# Preset: 15日系海边（素材江湖）
# Color profile: C:\Program Files (x86)\Common Files\Adobe\Color\Profiles\Recommended\VideoHD.icc
LUT_3D_SIZE 32
DOMAIN_MIN 0.0 0.0 0.0
DOMAIN_MAX 1.0 1.0 1.0
0.000000 0.011994 0.014374
0.000000 0.013184 0.015381
0.000000 0.018006 0.017029
0.000000 0.027710 0.019043
0.025238 0.044495 0.022797
0.104799 0.064698 0.026795
0.164645 0.080140 0.028107
0.235080 0.085634 0.024872
0.312322 0.086091 0.016052
0.393957 0.084108 0.000000
0.478828 0.083375 0.000000
0.564263 0.094118 0.000000
0.647669 0.116640 0.000000
0.724727 0.149233 0.000000
0.791775 0.186069 0.000000
0.849180 0.223606 0.000000
0.897856 0.260258 0.000000
0.938476 0.295232 0.000000
0.981476 0.336767 0.000000
1.000000 0.373541 0.000000
1.000000 0.405188 0.000000
1.000000 0.432898 0.000000
1.000000 0.456886 0.000000
1.000000 0.478553 0.000000
1.000000 0.498421 0.000000
1.000000 0.516869 0.000000
1.000000 0.534508 0.000000
1.000000 0.551537 0.013062
1.000000 0.568109 0.120882
1.000000 0.584558 0.165866
1.000000 0.600610 0.203250
1.000000 0.616480 0.237797
0.000000 0.014405 0.016358
0.000000 0.014405 0.016358
0.000000 0.021607 0.016602
0.000000 0.031067 0.018585
0.023804 0.046906 0.022492
0.103609 0.068544 0.025208
0.161837 0.082795 0.026764
0.230228 0.089052 0.023804
0.306371 0.090181 0.015442
0.386664 0.089509 0.000000
0.470192 0.090059 0.000000
0.554986 0.097841 0.000000
0.638087 0.118318 0.000000
0.715785 0.149111 0.000000
0.783536 0.184909 0.000000
0.842252 0.221622 0.000000
0.891997 0.258305 0.000000
0.933654 0.292882 0.000000
0.976349 0.333349 0.000000
1.000000 0.368933 0.000000
1.000000 0.400153 0.000000
1.000000 0.427253 0.000000
1.000000 0.451057 0.000000
1.000000 0.472663 0.000000
1.000000 0.492683 0.000000
1.000000 0.511131 0.000000
1.000000 0.529015 0.000000
1.000000 0.546441 0.000000
1.000000 0.563348 0.101839
1.000000 0.580041 0.152010
1.000000 0.596551 0.192111
1.000000 0.612726 0.228000
0.000000 0.023987 0.023102
0.000000 0.025177 0.025208
0.000000 0.026398 0.025086
0.000000 0.044068 0.020356
0.023896 0.061433 0.022766
0.103182 0.082765 0.025208
0.160983 0.092683 0.025147
0.228275 0.098268 0.021790
0.302647 0.101991 0.012970
0.381750 0.103365 0.000000
0.464454 0.106661 0.000000
0.548547 0.115450 0.000000
0.630976 0.134188 0.000000
0.708553 0.161715 0.000000
0.777005 0.194400 0.000000
0.836057 0.229068 0.000000
0.886595 0.263767 0.000000
0.928985 0.297215 0.000000
0.972015 0.336126 0.000000
1.000000 0.370489 0.000000
1.000000 0.400793 0.000000
1.000000 0.427588 0.000000
1.000000 0.450996 0.000000
1.000000 0.472267 0.000000
1.000000 0.491798 0.000000
1.000000 0.510094 0.000000
1.000000 0.527947 0.000000
1.000000 0.545312 0.000000
1.000000 0.562219 0.089906
1.000000 0.579004 0.145052
1.000000 0.595392 0.186435
1.000000 0.611566 0.222599
0.000000 0.045380 0.037415
0.000000 0.045167 0.038544
0.000000 0.044923 0.041932
0.000000 0.051698 0.043305
0.004791 0.087800 0.033478
0.103914 0.099733 0.024079
0.162081 0.108766 0.022797
0.227695 0.116365 0.018128
0.300969 0.122408 0.007996
0.378668 0.127413 0.000000
0.460273 0.133852 0.000000
0.542473 0.144228 0.000000
0.624353 0.161654 0.000000
0.701106 0.186069 0.000000
0.769162 0.214389 0.000000
0.828244 0.245426 0.000000
0.879118 0.276402 0.000000
0.922972 0.308507 0.000000
0.964569 0.343389 0.000000
0.996796 0.374517 0.000000
1.000000 0.402472 0.000000
1.000000 0.427893 0.000000
1.000000 0.450721 0.000000
1.000000 0.471992 0.000000
1.000000 0.492042 0.000000
1.000000 0.510948 0.000000
1.000000 0.529320 0.000000
1.000000 0.546960 0.000000
1.000000 0.563989 0.084474
1.000000 0.580682 0.143343
1.000000 0.596704 0.184512
1.000000 0.612299 0.219944
0.000000 0.079835 0.057679
0.000000 0.079683 0.058808
0.000000 0.079255 0.062165
0.000000 0.080964 0.065095
0.000000 0.087739 0.065827
0.058564 0.116884 0.045869
0.152132 0.134066 0.020264
0.223423 0.142885 0.008698
0.294926 0.150515 0.000000
0.370977 0.158328 0.000000
0.450538 0.166934 0.000000
0.531853 0.178897 0.000000
0.612451 0.195346 0.000000
0.689876 0.217136 0.000000
0.758755 0.242313 0.000000
0.818814 0.269718 0.000000
0.871244 0.297795 0.000000
0.917815 0.328099 0.000000
0.958770 0.359258 0.000000
0.991211 0.387243 0.000000
1.000000 0.413062 0.000000
1.000000 0.436530 0.000000
1.000000 0.458198 0.000000
1.000000 0.478523 0.000000
1.000000 0.497902 0.000000
1.000000 0.516411 0.000000
1.000000 0.534081 0.000000
1.000000 0.551171 0.000000
1.000000 0.567651 0.079835
1.000000 0.583642 0.140993
1.000000 0.599207 0.182132
1.000000 0.614313 0.217685
0.000000 0.102846 0.080568
0.000000 0.102693 0.081270
0.000000 0.101869 0.083497
0.000000 0.100374 0.087221
0.000000 0.103487 0.087770
0.000000 0.110201 0.087861
0.104677 0.153170 0.056245
0.198734 0.176394 0.013123
0.291875 0.188846 0.000000
0.367590 0.197940 0.000000
0.446143 0.208133 0.000000
0.526696 0.221286 0.000000
0.606592 0.237552 0.000000
0.683253 0.257786 0.000000
0.752224 0.280064 0.000000
0.813016 0.303838 0.000000
0.865568 0.328679 0.000000
0.914733 0.356634 0.000000
0.955200 0.383764 0.000000
0.987518 0.408667 0.000000
1.000000 0.431739 0.000000
1.000000 0.453040 0.000000
1.000000 0.505577 0.000000
1.000000 0.522850 0.000000
1.000000 0.538872 0.000000
1.000000 0.554131 0.000000
1.000000 0.568688 0.041321
1.000000 0.582727 0.127321
1.000000 0.596490 0.168307
1.000000 0.609979 0.202731
1.000000 0.623102 0.233585
1.000000 0.635737 0.261967
0.000000 0.133455 0.097261
0.000000 0.133364 0.097627
0.000000 0.132448 0.098878
0.000000 0.130831 0.101900
0.000000 0.130343 0.104677
0.000702 0.134920 0.104158
0.009613 0.145205 0.104402
0.148074 0.200504 0.070924
0.259861 0.236515 0.000000
0.370214 0.256016 0.000000
0.463020 0.268498 0.000000
0.544488 0.282048 0.000000
0.624048 0.298222 0.000000
0.698451 0.316320 0.000000
0.764370 0.335149 0.000000
0.821897 0.354406 0.000000
0.874571 0.376287 0.000000
0.924346 0.402350 0.000000
0.963409 0.425971 0.000000
0.994995 0.448005 0.000000
1.000000 0.469276 0.000000
1.000000 0.489784 0.000000
1.000000 0.509392 0.000000
1.000000 0.527947 0.000000
1.000000 0.544945 0.000000
1.000000 0.560418 0.000000
1.000000 0.574365 0.000000
1.000000 0.587732 0.117128
1.000000 0.600793 0.160616
1.000000 0.613397 0.195407
1.000000 0.625849 0.226383
1.000000 0.637995 0.255131
0.000000 0.165194 0.112184
0.000000 0.165072 0.112825
0.000000 0.164157 0.114168
0.000000 0.162417 0.116732
0.005158 0.159548 0.121096
0.030152 0.161868 0.122469
0.039155 0.167880 0.121767
0.063264 0.180575 0.122408
0.182406 0.242557 0.093446
0.306004 0.290806 0.000000
0.420661 0.316594 0.000000
0.531182 0.334356 0.000000
0.610498 0.348486 0.000000
0.684504 0.363714 0.000000
0.750729 0.379187 0.000000
0.808804 0.394842 0.000000
0.866331 0.416144 0.000000
0.913817 0.436011 0.000000
0.952514 0.454414 0.000000
0.984405 0.472419 0.000000
1.000000 0.490211 0.000000
1.000000 0.507713 0.000000
1.000000 0.524865 0.000000
1.000000 0.541283 0.000000
1.000000 0.556756 0.000000
1.000000 0.570703 0.000000
1.000000 0.583703 0.000000
1.000000 0.595972 0.110719
1.000000 0.608057 0.156161
1.000000 0.619928 0.192020
1.000000 0.631556 0.223087
1.000000 0.643061 0.252018
0.000000 0.201968 0.131258
0.000000 0.201877 0.131777
0.000000 0.200778 0.132906
0.000000 0.198978 0.135561
0.004425 0.196048 0.139651
0.088960 0.193179 0.144869
0.093507 0.198428 0.144167
0.100252 0.205295 0.143252
0.114168 0.220676 0.144320
0.220798 0.289097 0.112917
0.354864 0.349004 0.000000
0.471138 0.379614 0.000000
0.585107 0.401526 0.000000
0.672572 0.415808 0.000000
0.739040 0.427985 0.000000
0.802396 0.443702 0.000000
0.858274 0.459785 0.000000
0.904387 0.474342 0.000000
0.942748 0.488380 0.000000
0.974945 0.502342 0.000000
1.000000 0.516625 0.000000
1.000000 0.530999 0.000000
1.000000 0.545312 0.000000
1.000000 0.559350 0.000000
1.000000 0.572686 0.000000
1.000000 0.584924 0.000000
1.000000 0.596460 0.000000
1.000000 0.607538 0.111574
1.000000 0.618494 0.156924
1.000000 0.629206 0.192264
1.000000 0.639948 0.223362
1.000000 0.650477 0.251987
0.000000 0.243107 0.153414
0.000000 0.242679 0.153689
0.000000 0.241672 0.154849
0.000000 0.239658 0.157076
0.002350 0.236606 0.160922
0.104005 0.232425 0.166232
0.126467 0.232425 0.169039
0.131685 0.238682 0.168124
0.138735 0.246281 0.167025
0.153536 0.264225 0.168643
0.260319 0.336675 0.136538
0.401373 0.405158 0.000000
0.517510 0.438697 0.000000
0.627955 0.462959 0.000000
0.729213 0.480995 0.000000
0.793454 0.493355 0.000000
0.848478 0.504936 0.000000
0.894865 0.515709 0.000000
0.933715 0.526055 0.000000
0.966155 0.536553 0.000000
0.993042 0.546929 0.000000
1.000000 0.557305 0.000000
1.000000 0.567895 0.000000
1.000000 0.578576 0.000000
1.000000 0.588983 0.000000
1.000000 0.599145 0.000000
1.000000 0.609033 0.000000
1.000000 0.618921 0.103914
1.000000 0.628901 0.152560
1.000000 0.638911 0.189853
1.000000 0.648951 0.222110
1.000000 0.658900 0.251469
0.000000 0.285344 0.176516
0.000000 0.284977 0.176761
0.000000 0.284245 0.177981
0.000000 0.282353 0.180179
0.001678 0.279606 0.183871
0.114137 0.275792 0.189090
0.157137 0.271061 0.195956
0.165316 0.275914 0.196078
0.171267 0.283116 0.195254
0.178866 0.291905 0.194064
0.195743 0.312505 0.196262
0.302373 0.386877 0.164706
0.450202 0.462074 0.037446
0.570794 0.502251 0.000000
0.678676 0.528069 0.000000
0.770718 0.543175 0.000000
0.837644 0.551232 0.000000
0.883787 0.557763 0.000000
0.922698 0.564355 0.000000
0.955383 0.571069 0.000000
0.982727 0.577966 0.000000
1.000000 0.585290 0.000000
1.000000 0.593286 0.000000
1.000000 0.601434 0.000000
1.000000 0.609674 0.000000
1.000000 0.617975 0.000000
1.000000 0.626246 0.000000
1.000000 0.634607 0.110018
1.000000 0.643153 0.156802
1.000000 0.651881 0.193454
1.000000 0.660792 0.225345
1.000000 0.669734 0.254551
0.000000 0.332647 0.203738
0.000000 0.332494 0.203861
0.000000 0.331609 0.204959
0.000000 0.330083 0.207401
0.004486 0.327520 0.210971
0.125307 0.323888 0.215976
0.173465 0.319341 0.222629
0.201663 0.317357 0.228214
0.207248 0.324193 0.227298
0.214023 0.332311 0.226383
0.221897 0.341680 0.225071
0.242802 0.366430 0.230076
0.383856 0.475441 0.218418
0.543511 0.555962 0.141726
0.665400 0.597345 0.000000
0.761257 0.616907 0.000000
0.839109 0.626123 0.000000
0.901396 0.628382 0.000000
0.937469 0.629419 0.000000
0.966491 0.631189 0.000000
0.990723 0.633417 0.000000
1.000000 0.636347 0.000000
1.000000 0.639765 0.000000
1.000000 0.643977 0.000000
1.000000 0.648493 0.000000
1.000000 0.653223 0.044709
1.000000 0.658045 0.128786
1.000000 0.663264 0.167086
1.000000 0.668910 0.199130
1.000000 0.675013 0.227024
1.000000 0.681514 0.253574
1.000000 0.688350 0.278630
0.000000 0.394598 0.242008
0.000000 0.394263 0.242069
0.000000 0.392920 0.242954
0.000000 0.390570 0.244694
0.039673 0.387091 0.247654
0.144625 0.382574 0.251987
0.195895 0.377173 0.257969
0.236240 0.371405 0.265660
0.251194 0.373846 0.267857
0.259312 0.383673 0.268711
0.271366 0.397406 0.271122
0.285191 0.413031 0.274144
0.312261 0.443885 0.283299
0.429053 0.524834 0.259251
0.581628 0.599268 0.198367
0.700282 0.640772 0.113558
0.786038 0.656855 0.000000
0.855375 0.663355 0.000000
0.911070 0.664027 0.000000
0.950622 0.662013 0.000000
0.975860 0.661494 0.000000
0.997406 0.662013 0.000000
1.000000 0.663386 0.000000
1.000000 0.665553 0.000000
1.000000 0.668299 0.000000
1.000000 0.671565 0.035431
1.000000 0.675135 0.128328
1.000000 0.679255 0.168032
1.000000 0.683803 0.200015
1.000000 0.688930 0.229068
1.000000 0.694423 0.255619
1.000000 0.700343 0.281315
0.000000 0.441749 0.273503
0.000000 0.441321 0.273594
0.000000 0.439948 0.274296
0.000000 0.437507 0.275700
0.078706 0.434028 0.278202
0.156985 0.429938 0.282322
0.211063 0.426734 0.288975
0.255650 0.422797 0.297368
0.292149 0.419654 0.307134
0.300053 0.428962 0.308293
0.310094 0.440436 0.310094
0.322271 0.453620 0.312444
0.335851 0.468147 0.314794
0.363134 0.497780 0.324071
0.474586 0.571771 0.302586
0.615351 0.636927 0.251011
0.729641 0.677333 0.189883
0.806058 0.690150 0.118959
0.868498 0.695186 0.000000
0.918791 0.694972 0.000000
0.959686 0.691646 0.000000
0.984527 0.689601 0.000000
1.000000 0.689082 0.000000
1.000000 0.689448 0.000000
1.000000 0.690517 0.000000
1.000000 0.692256 0.054261
1.000000 0.694392 0.134096
1.000000 0.697078 0.173617
1.000000 0.700343 0.205325
1.000000 0.704311 0.233951
1.000000 0.708736 0.260624
1.000000 0.713680 0.286229
0.000000 0.496132 0.312474
0.000000 0.495827 0.312535
0.000000 0.494606 0.313115
0.000000 0.492409 0.314427
0.118685 0.489265 0.316960
0.182376 0.485237 0.320653
0.232822 0.480903 0.325872
0.277714 0.476173 0.332860
0.317540 0.471229 0.341711
0.340795 0.472541 0.347936
0.349523 0.482277 0.349371
0.359991 0.493721 0.351293
0.372259 0.506096 0.353277
0.385138 0.519158 0.354925
0.412177 0.546960 0.363775
0.515221 0.611963 0.344945
0.644892 0.669154 0.300328
0.755062 0.708553 0.250095
0.824002 0.719081 0.204623
0.880156 0.722835 0.147524
0.925963 0.722377 0.000000
0.963775 0.719417 0.000000
0.992554 0.715450 0.000000
1.000000 0.714046 0.000000
1.000000 0.713466 0.000000
1.000000 0.713619 0.084443
1.000000 0.714473 0.143465
1.000000 0.716030 0.182376
1.000000 0.718349 0.214206
1.000000 0.721401 0.243534
1.000000 0.725093 0.271366
1.000000 0.729305 0.297887
0.000000 0.546380 0.350988
0.000000 0.546288 0.351385
0.000000 0.545434 0.351995
0.092195 0.543664 0.353338
0.158938 0.540978 0.355749
0.211276 0.537621 0.359197
0.259312 0.533867 0.364324
0.303593 0.529870 0.371130
0.344640 0.525353 0.379583
0.381445 0.520714 0.389532
0.393256 0.526421 0.391852
0.401526 0.535180 0.392370
0.410803 0.544518 0.392828
0.420661 0.554101 0.392920
0.430640 0.563592 0.392096
0.455390 0.587610 0.399908
0.549187 0.644404 0.383459
0.668330 0.695125 0.344854
0.774166 0.732845 0.301793
0.838132 0.743008 0.266361
0.889799 0.746609 0.228489
0.932403 0.746670 0.183932
0.967590 0.744198 0.123110
0.997253 0.739956 0.000000
1.000000 0.737179 0.000000
1.000000 0.736110 0.111208
1.000000 0.735775 0.160647
1.000000 0.736110 0.196292
1.000000 0.737148 0.226963
1.000000 0.738918 0.254856
1.000000 0.741238 0.281102
1.000000 0.744106 0.306371
0.068727 0.590448 0.387640
0.088991 0.590143 0.387915
0.116274 0.589471 0.388403
0.156252 0.587915 0.389685
0.198947 0.585595 0.391821
0.242252 0.582666 0.394903
0.285283 0.579126 0.399451
0.327367 0.575067 0.405371
0.367010 0.570672 0.412634
0.403937 0.565820 0.421302
0.431464 0.563409 0.429053
0.438819 0.570642 0.429480
0.446601 0.578332 0.429725
0.454902 0.586297 0.429572
0.463691 0.594232 0.428840
0.472480 0.602136 0.427619
0.496376 0.624048 0.435676
0.581750 0.674037 0.422736
0.691493 0.719356 0.389319
0.788632 0.752438 0.353216
0.852201 0.765133 0.322850
0.899718 0.768551 0.293217
0.938720 0.768673 0.261357
0.971374 0.766567 0.225010
0.999115 0.762722 0.180056
1.000000 0.758206 0.134005
1.000000 0.756710 0.177432
1.000000 0.755947 0.211246
1.000000 0.755947 0.240970
1.000000 0.756649 0.267887
1.000000 0.757900 0.293736
1.000000 0.759792 0.318517
0.177432 0.631586 0.426368
0.180209 0.631708 0.426703
0.232975 0.652247 0.449470
0.252445 0.650935 0.450599
0.279026 0.648859 0.452399
0.310979 0.645960 0.455085
0.345434 0.642512 0.458686
0.381872 0.638361 0.463416
0.418036 0.634028 0.469520
0.453101 0.629206 0.476967
0.485451 0.624140 0.485634
0.500725 0.625360 0.489174
0.506523 0.630793 0.488472
0.512444 0.636255 0.487251
0.518669 0.641627 0.485451
0.524865 0.646906 0.483070
0.531029 0.652064 0.479957
0.552300 0.670375 0.487098
0.626856 0.711727 0.476143
0.724086 0.749233 0.446448
0.810727 0.776638 0.415442
0.871550 0.789822 0.388586
0.913024 0.792172 0.363317
0.947601 0.791562 0.336706
0.976806 0.788846 0.306920
1.000000 0.784695 0.273167
1.000000 0.779568 0.233158
1.000000 0.775937 0.230594
1.000000 0.774563 0.256870
1.000000 0.774105 0.282506
1.000000 0.774289 0.307103
1.000000 0.775143 0.331121
0.256809 0.673671 0.470619
0.262058 0.675380 0.472816
0.273808 0.676783 0.475532
0.292332 0.677272 0.478523
0.315679 0.676753 0.481605
0.342535 0.674830 0.484443
0.372900 0.671748 0.487709
0.404730 0.667933 0.491493
0.437507 0.663691 0.496590
0.469886 0.659113 0.502739
0.500938 0.654261 0.510124
0.529290 0.649042 0.518425
0.534295 0.653437 0.517632
0.539513 0.658167 0.516625
0.544945 0.662959 0.515190
0.550652 0.667689 0.513298
0.556481 0.672572 0.511070
0.562829 0.677729 0.508659
0.584405 0.695491 0.517174
0.652369 0.732479 0.509789
0.741726 0.766171 0.484535
0.821653 0.791012 0.458473
0.881865 0.805509 0.434730
0.919768 0.807614 0.413001
0.951568 0.807065 0.389258
0.978851 0.804715 0.363470
1.000000 0.801083 0.334844
1.000000 0.796536 0.303166
1.000000 0.791470 0.268376
1.000000 0.790066 0.292851
1.000000 0.789425 0.317082
1.000000 0.789456 0.340917
0.308873 0.701625 0.502373
0.313970 0.703212 0.504631
0.323857 0.704616 0.507347
0.338201 0.705287 0.510399
0.357610 0.705013 0.513329
0.380407 0.703273 0.516106
0.405524 0.700649 0.518791
0.433356 0.697261 0.522240
0.462684 0.693355 0.526482
0.492012 0.689113 0.531640
0.520928 0.684474 0.537804
0.548180 0.679622 0.544884
0.565270 0.677790 0.549157
0.569879 0.681849 0.548211
0.574670 0.686000 0.547112
0.579614 0.690242 0.545586
0.584863 0.694545 0.543694
0.590387 0.699001 0.541619
0.596674 0.703822 0.539727
0.617670 0.720363 0.548638
0.678584 0.752621 0.543908
0.759548 0.782315 0.522515
0.832578 0.804227 0.500084
0.891447 0.819333 0.478889
0.925933 0.821286 0.459510
0.955291 0.820920 0.438331
0.980743 0.818906 0.415351
1.000000 0.815793 0.390723
1.000000 0.811948 0.364202
1.000000 0.807523 0.335119
1.000000 0.804318 0.328252
1.000000 0.803586 0.351415
0.360174 0.728237 0.534844
0.364324 0.729519 0.536889
0.372198 0.730617 0.539300
0.384131 0.731106 0.541924
0.399908 0.730739 0.544518
0.418616 0.729274 0.546777
0.439979 0.726955 0.549126
0.463661 0.724056 0.552087
0.489387 0.720668 0.555688
0.515892 0.716823 0.560174
0.542535 0.712642 0.565423
0.568139 0.708186 0.571435
0.591821 0.703365 0.577874
0.600153 0.704768 0.578882
0.604578 0.708431 0.578058
0.609125 0.712337 0.577020
0.614557 0.716548 0.576196
0.620417 0.721126 0.575402
0.627008 0.726162 0.575006
0.634485 0.731563 0.574975
0.655818 0.747402 0.585595
0.710536 0.775479 0.584710
0.782986 0.801022 0.567681
0.848386 0.819913 0.550134
0.902892 0.834195 0.532952
0.935027 0.836942 0.517052
0.961517 0.836851 0.499825
0.984771 0.835355 0.481147
1.000000 0.832883 0.461280
1.000000 0.829679 0.439979
1.000000 0.825834 0.416693
1.000000 0.821439 0.391424
0.428199 0.760555 0.578576
0.430182 0.761013 0.579461
0.434668 0.761044 0.580407
0.442084 0.760586 0.581353
0.453010 0.759487 0.582513
0.466926 0.757717 0.583673
0.484016 0.755428 0.585351
0.503716 0.752773 0.587610
0.525658 0.749722 0.590570
0.549065 0.746487 0.594446
0.572839 0.742947 0.598993
0.596368 0.739040 0.604181
0.618708 0.734768 0.609674
0.636866 0.731228 0.614710
0.640345 0.734188 0.613825
0.644221 0.737331 0.612879
0.648432 0.740597 0.611810
0.653101 0.744106 0.610834
0.658167 0.747921 0.609979
0.663874 0.752010 0.609277
0.670069 0.756313 0.608637
0.689143 0.769741 0.618341
0.736080 0.792844 0.618036
0.799863 0.814206 0.602075
0.858030 0.830381 0.586389
0.907408 0.843076 0.571038
0.939910 0.847593 0.556847
0.964416 0.847898 0.542473
0.986114 0.846921 0.527245
1.000000 0.845029 0.510826
1.000000 0.842435 0.493172
1.000000 0.839170 0.474067
0.473548 0.781430 0.608515
0.475196 0.781704 0.609186
0.478981 0.781735 0.610010
0.485176 0.781369 0.610956
0.494057 0.780453 0.611933
0.505760 0.778988 0.613062
0.520134 0.777066 0.614527
0.536980 0.774746 0.616419
0.556085 0.772152 0.619043
0.576715 0.769314 0.622370
0.597925 0.766232 0.626307
0.619318 0.762814 0.630823
0.639918 0.759121 0.635676
0.659571 0.755154 0.640955
0.670039 0.754604 0.643427
0.673610 0.757321 0.642817
0.677546 0.760281 0.642267
0.681819 0.763394 0.641657
0.686427 0.766751 0.641138
0.691463 0.770291 0.640681
0.697047 0.774044 0.640467
0.702937 0.777951 0.640345
0.720607 0.789700 0.649897
0.761288 0.808927 0.651087
0.813657 0.824704 0.631037
0.865965 0.839048 0.617090
0.911254 0.850736 0.603906
0.943877 0.856809 0.591730
0.966735 0.857511 0.579797
0.987030 0.857084 0.567437
1.000000 0.855802 0.554620
1.000000 0.853849 0.541070
0.527398 0.803616 0.643915
0.529595 0.804074 0.644984
0.532525 0.804074 0.645594
0.536889 0.803433 0.645930
0.542901 0.802274 0.646052
0.551232 0.800595 0.646204
0.561547 0.798459 0.646448
0.574243 0.795956 0.647120
0.589227 0.793118 0.648341
0.605798 0.790127 0.650233
0.623224 0.786831 0.652613
0.641657 0.783383 0.655695
0.659846 0.779721 0.659297
0.677211 0.775753 0.663233
0.693538 0.771511 0.667384
0.697261 0.772671 0.666682
0.699886 0.774777 0.665522
0.703151 0.777218 0.664637
0.707179 0.780087 0.664149
0.711910 0.783291 0.664149
0.717098 0.786740 0.664302
0.722530 0.790249 0.664424
0.727840 0.793637 0.664363
0.743771 0.803738 0.673182
0.778653 0.819730 0.674617
0.828397 0.835294 0.661036
0.874601 0.847898 0.648432
0.915618 0.858488 0.636622
0.948089 0.865751 0.625635
0.969146 0.866758 0.615991
0.988006 0.866789 0.606287
1.000000 0.865873 0.595666
0.562982 0.817716 0.667414
0.564996 0.818051 0.668391
0.567651 0.818143 0.669184
0.571588 0.817746 0.669734
0.577356 0.816953 0.670253
0.585016 0.815824 0.670924
0.594751 0.814420 0.671870
0.606714 0.812680 0.673213
0.620417 0.810666 0.674983
0.635554 0.808499 0.677272
0.651484 0.805966 0.679866
0.668086 0.803189 0.682948
0.684596 0.800168 0.686213
0.700526 0.796811 0.689723
0.715541 0.793179 0.693233
0.726375 0.790799 0.695766
0.728450 0.792416 0.694606
0.731044 0.794339 0.693660
0.734371 0.796628 0.693172
0.738308 0.799222 0.693050
0.742702 0.802060 0.693172
0.747372 0.805020 0.693416
0.752285 0.807919 0.693629
0.757046 0.810849 0.693629
0.771542 0.819486 0.702052
0.801175 0.832761 0.704646
0.844266 0.846250 0.693172
0.884855 0.857481 0.682704
0.921660 0.867369 0.673548
0.953094 0.875761 0.665248
0.972137 0.877043 0.657862
0.989136 0.877287 0.649958
0.605158 0.832425 0.695216
0.606226 0.832609 0.695674
0.608087 0.832486 0.696040
0.611231 0.832090 0.696376
0.615686 0.831418 0.696742
0.621881 0.830411 0.697200
0.629877 0.829129 0.697902
0.639612 0.827604 0.698878
0.650996 0.825834 0.700282
0.663813 0.823880 0.702083
0.677638 0.821683 0.704219
0.692164 0.819303 0.706813
0.706722 0.816709 0.709682
0.721035 0.813870 0.712612
0.734798 0.810727 0.715724
0.747707 0.807431 0.719020
0.753353 0.807065 0.719631
0.755520 0.808621 0.718837
0.758267 0.810483 0.718318
0.761624 0.812650 0.718227
0.765408 0.815000 0.718379
0.769406 0.817472 0.718624
0.773526 0.819944 0.718776
0.777707 0.822354 0.718837
0.781888 0.824765 0.718715
0.794583 0.832120 0.726375
0.819486 0.843320 0.729549
0.857053 0.855222 0.719448
0.893095 0.865415 0.710597
0.926299 0.874784 0.703426
0.955200 0.882994 0.696712
0.974121 0.885649 0.691188
0.640986 0.844327 0.718868
0.641840 0.844419 0.719265
0.643458 0.844358 0.719661
0.646326 0.844114 0.720119
0.650538 0.843656 0.720760
0.656672 0.843015 0.721767
0.664851 0.842405 0.723415
0.674891 0.841642 0.725551
0.686427 0.840787 0.728237
0.699214 0.839811 0.731319
0.712856 0.838682 0.734768
0.726772 0.837339 0.738369
0.740719 0.835782 0.742031
0.754055 0.833951 0.745541
0.766720 0.831815 0.748959
0.778347 0.829343 0.752071
0.789090 0.826780 0.755306
0.790982 0.828061 0.754757
0.793301 0.829557 0.754543
0.796048 0.831266 0.754543
0.799069 0.833158 0.754757
0.802365 0.835111 0.755062
0.805631 0.837034 0.755215
0.809049 0.839017 0.755367
0.812406 0.840970 0.755398
0.815854 0.842954 0.755428
0.826383 0.848997 0.762173
0.845701 0.857939 0.765591
0.876249 0.867948 0.756985
0.905974 0.876707 0.749416
0.934203 0.885344 0.744472
0.959167 0.893187 0.740444
0.690974 0.858824 0.751858
0.691249 0.858793 0.751858
0.692103 0.858610 0.751888
0.693874 0.858305 0.751980
0.696773 0.857816 0.752224
0.700954 0.857145 0.752621
0.706538 0.856321 0.753262
0.713405 0.855344 0.754208
0.721553 0.854276 0.755520
0.730892 0.853025 0.757137
0.741024 0.851621 0.759060
0.751827 0.850126 0.761227
0.762936 0.848417 0.763638
0.774014 0.846586 0.766110
