20 Preset/Japan Style/【3】LUT video cho PR-AE-FCPX/LUT VIDEO (2)/Japan Style LUT (19).cube
# Created by Adobe Lightroom plugin Export LUT (1.24.0)
# www.johnrellis.com/lightroom/exportlut.htm
# Preset: 19日系校园（素材江湖）
# Color profile: C:\Program Files (x86)\Common Files\Adobe\Color\Profiles\Recommended\VideoHD.icc
LUT_3D_SIZE 5
DOMAIN_MIN 0.000000 0.000000 0.000000
DOMAIN_MAX 0.903226 0.903226 0.903226
0.013764 0.021424 0.015991
0.330053 0.000000 0.014710
0.815518 0.000000 0.000000
1.000000 0.000000 0.000000
1.000000 0.237339 0.155154
0.000000 0.378485 0.000000
0.269108 0.352209 0.000000
0.795041 0.344579 0.000000
1.000000 0.348608 0.000000
1.000000 0.387396 0.168246
0.000000 0.785885 0.245884
0.301488 0.781216 0.278599
0.686519 0.732235 0.121218
0.939757 0.678889 0.000000
1.000000 0.629633 0.224674
0.457221 0.909850 0.573205
0.519036 0.909148 0.585534
0.672175 0.903532 0.607935
0.820981 0.865690 0.473396
1.000000 0.823636 0.395422
0.648371 0.978088 0.722835
0.666651 0.977447 0.726619
0.723934 0.972930 0.733364
0.808103 0.967376 0.727840
0.916747 0.954223 0.667964
0.000000 0.059297 0.253208
0.291752 0.000000 0.248508
0.761898 0.000000 0.282383
0.999725 0.175692 0.320104
1.000000 0.336187 0.363195
0.000000 0.340154 0.290105
0.308598 0.351415 0.293889
0.762448 0.351751 0.289677
0.984405 0.386389 0.317021
1.000000 0.431617 0.369238
0.000000 0.759243 0.414984
0.343206 0.758999 0.439857
0.670924 0.714961 0.365362
0.923217 0.674372 0.333989
1.000000 0.644160 0.412299
0.516777 0.902403 0.631647
0.566155 0.902525 0.641749
0.701625 0.901091 0.670314
0.820676 0.863310 0.560204
0.995575 0.825406 0.494026
0.667720 0.976135 0.743587
0.684230 0.975494 0.746700
0.746792 0.973449 0.761410
0.822110 0.967956 0.757137
0.920928 0.955657 0.701625
0.000000 0.071870 0.614130
0.332708 0.053498 0.601434
0.684993 0.000000 0.596948
0.951659 0.213199 0.578332
1.000000 0.485206 0.630732
0.000000 0.330602 0.645686
0.351965 0.339391 0.632502
0.689021 0.345281 0.614160
0.930541 0.426093 0.604639
1.000000 0.579248 0.666011
0.000000 0.709285 0.660639
0.288640 0.708003 0.660182
0.690028 0.715450 0.678767
0.882322 0.706203 0.674678
1.000000 0.704891 0.685725
0.596826 0.878599 0.733364
0.639704 0.876921 0.740566
0.737697 0.884977 0.758663
0.828916 0.859464 0.717647
0.976471 0.835660 0.688167
0.706630 0.969299 0.796078
0.718868 0.969482 0.797635
0.775845 0.968536 0.811429
0.849882 0.965515 0.823026
0.924681 0.952514 0.767849
0.367620 0.177859 0.809232
0.471504 0.187869 0.805417
0.690059 0.240208 0.786221
0.894743 0.291386 0.784146
1.000000 0.427100 0.735195
0.377478 0.360632 0.809476
0.471565 0.363653 0.804807
0.680201 0.384039 0.785428
0.879515 0.415961 0.780880
1.000000 0.507164 0.738705
0.336034 0.644465 0.806790
0.440497 0.648890 0.804105
0.666987 0.664942 0.792050
0.825864 0.665217 0.774380
0.978424 0.700221 0.779141
0.483986 0.850797 0.811704
0.535119 0.848661 0.810727
0.678981 0.846006 0.812375
0.842374 0.856413 0.831907
0.967163 0.847440 0.827909
0.678370 0.963073 0.844846
0.701503 0.962524 0.848478
0.784146 0.961425 0.865476
0.874601 0.963195 0.887785
0.933959 0.951507 0.855192
0.533623 0.328008 0.923064
0.576226 0.336584 0.920287
0.706538 0.379950 0.911589
0.851865 0.448280 0.892699
1.000000 0.469764 0.894316
0.526085 0.418555 0.917235
0.567712 0.424323 0.914946
0.695583 0.451148 0.906188
0.840757 0.496101 0.887419
0.991943 0.515496 0.889525
0.507958 0.623102 0.911864
0.562402 0.634424 0.907958
0.675685 0.635859 0.899138
0.813596 0.639155 0.881102
0.963622 0.652216 0.885954
0.493782 0.790921 0.912718
0.527947 0.790311 0.911162
0.645624 0.793210 0.908782
0.803433 0.800809 0.901366
0.941436 0.810941 0.900694
0.550439 0.953094 0.923644
0.576318 0.952300 0.923491
0.676081 0.949523 0.923796
0.807950 0.944762 0.924346
0.941772 0.947814 0.938048
