20 Preset/Japan Style/【3】LUT video cho PR-AE-FCPX/LUT VIDEO (2)/Japan Style LUT (18).cube
# Created by Adobe Lightroom plugin Export LUT (1.24.0)
# www.johnrellis.com/lightroom/exportlut.htm
# Preset: 18日系森林（素材江湖）
# Color profile: C:\Program Files (x86)\Common Files\Adobe\Color\Profiles\Recommended\VideoHD.icc
LUT_3D_SIZE 32
DOMAIN_MIN 0.0 0.0 0.0
DOMAIN_MAX 1.0 1.0 1.0
0.048096 0.067445 0.089662
0.048096 0.067445 0.089662
0.042847 0.066926 0.089754
0.038605 0.065187 0.089448
0.039918 0.063996 0.088655
0.060639 0.063935 0.088075
0.097627 0.067384 0.085664
0.133577 0.071290 0.083680
0.186893 0.063813 0.080415
0.252995 0.037781 0.073365
0.327428 0.000000 0.062837
0.405554 0.000000 0.048524
0.485725 0.000000 0.027527
0.564782 0.000000 0.000580
0.639887 0.000000 0.000000
0.714931 0.000000 0.000000
0.779019 0.000000 0.000000
0.835477 0.000000 0.000000
0.883635 0.131960 0.000000
0.924559 0.196567 0.000000
0.959258 0.247654 0.000000
0.988586 0.291966 0.000000
1.000000 0.331365 0.000000
1.000000 0.367773 0.000000
1.000000 0.401740 0.000000
1.000000 0.433997 0.000000
1.000000 0.464881 0.106783
1.000000 0.494728 0.156130
1.000000 0.523674 0.198856
1.000000 0.551995 0.239994
1.000000 0.579675 0.281315
1.000000 0.606958 0.324834
0.048798 0.066255 0.089723
0.046815 0.066468 0.089723
0.043549 0.065705 0.089784
0.038605 0.065187 0.089448
0.039918 0.063996 0.088655
0.060212 0.065126 0.087312
0.096712 0.068818 0.085573
0.132723 0.071748 0.083680
0.185245 0.065156 0.080446
0.251194 0.040040 0.074586
0.324498 0.000000 0.062898
0.402411 0.000000 0.048646
0.482521 0.000000 0.027893
0.561608 0.000000 0.001343
0.636957 0.000000 0.000000
0.710780 0.000000 0.000000
0.775051 0.000000 0.000000
0.831693 0.000000 0.000000
0.879942 0.130190 0.000000
0.921202 0.193851 0.000000
0.956054 0.245243 0.000000
0.985748 0.289311 0.000000
1.000000 0.328527 0.000000
1.000000 0.364935 0.000000
1.000000 0.398932 0.000000
1.000000 0.431098 0.000000
1.000000 0.462165 0.101808
1.000000 0.492226 0.152041
1.000000 0.521324 0.194888
1.000000 0.549798 0.236393
1.000000 0.577600 0.278050
1.000000 0.605127 0.321508
0.047547 0.063081 0.089052
0.045563 0.063325 0.089052
0.043580 0.063539 0.089052
0.040620 0.062776 0.088716
0.043214 0.062562 0.087739
0.063783 0.065888 0.086488
0.098268 0.070558 0.085359
0.133394 0.075898 0.083284
0.184756 0.071168 0.079957
0.249668 0.049775 0.073610
0.322087 0.007446 0.062806
0.400061 0.000000 0.048310
0.479255 0.000000 0.027283
0.557458 0.000000 0.001465
0.633967 0.000000 0.000000
0.706569 0.000000 0.000000
0.770443 0.000000 0.000000
0.827176 0.000000 0.000000
0.875975 0.139193 0.000000
0.917510 0.199435 0.000000
0.953002 0.248600 0.000000
0.982879 0.291966 0.000000
1.000000 0.330480 0.000000
1.000000 0.366186 0.000000
1.000000 0.399847 0.000000
1.000000 0.431769 0.000000
1.000000 0.462623 0.102449
1.000000 0.492561 0.152987
1.000000 0.521538 0.194583
1.000000 0.550011 0.236240
1.000000 0.577752 0.278111
1.000000 0.605097 0.320958
0.043915 0.061372 0.087831
0.043915 0.061372 0.087831
0.042237 0.061585 0.087129
0.042237 0.061585 0.087129
0.047333 0.065492 0.086732
0.070161 0.070802 0.086000
0.099916 0.077852 0.084688
0.134615 0.082704 0.082399
0.185367 0.082643 0.079408
0.248692 0.070008 0.073304
0.320256 0.035248 0.062959
0.395941 0.000000 0.047639
0.474861 0.000000 0.026825
0.552392 0.000000 0.000153
0.629328 0.000000 0.000000
0.700649 0.000000 0.000000
0.763516 0.000000 0.000000
0.819669 0.089082 0.000000
0.868711 0.157351 0.000000
0.910735 0.209751 0.000000
0.946746 0.255222 0.000000
0.977264 0.296574 0.000000
1.000000 0.334020 0.000000
1.000000 0.369177 0.000000
1.000000 0.402686 0.000000
1.000000 0.434638 0.000000
1.000000 0.465522 0.108644
1.000000 0.495277 0.156252
1.000000 0.524193 0.198093
1.000000 0.552392 0.239048
1.000000 0.579797 0.280034
1.000000 0.606806 0.322667
0.032532 0.073823 0.087617
0.032532 0.073823 0.087617
0.034119 0.074800 0.086793
0.037659 0.075563 0.085969
0.049317 0.079957 0.085359
0.084565 0.087831 0.083833
0.107790 0.090639 0.082399
0.138460 0.092897 0.081758
0.184726 0.094179 0.079469
0.245914 0.092958 0.072267
0.315465 0.083162 0.062013
0.390570 0.050385 0.046296
0.467720 0.002136 0.026551
0.544854 0.000000 0.000549
0.621637 0.000000 0.000000
0.691493 0.000000 0.000000
0.754788 0.071809 0.000000
0.811154 0.136355 0.000000
0.861173 0.185000 0.000000
0.904082 0.229038 0.000000
0.940703 0.270603 0.000000
0.971954 0.308507 0.000000
0.998718 0.343908 0.000000
1.000000 0.377569 0.000000
1.000000 0.409888 0.000000
1.000000 0.441108 0.026032
1.000000 0.471077 0.118288
1.000000 0.500328 0.162783
1.000000 0.528710 0.203555
1.000000 0.556390 0.243748
1.000000 0.583368 0.283970
1.000000 0.609949 0.326146
0.004639 0.099153 0.090028
0.006622 0.099092 0.090028
0.008789 0.099397 0.088685
0.012268 0.100038 0.086824
0.033661 0.102510 0.085908
0.077272 0.106203 0.082887
0.116274 0.112856 0.078187
0.155703 0.117464 0.074525
0.198703 0.117037 0.072419
0.248661 0.114199 0.070283
0.311650 0.111116 0.061555
0.384741 0.107637 0.046082
0.460395 0.101503 0.026123
0.538231 0.096254 0.000000
0.613336 0.099153 0.000000
0.683009 0.115694 0.000000
0.746090 0.144564 0.000000
0.803098 0.180087 0.000000
0.853635 0.217594 0.000000
0.897124 0.255222 0.000000
0.934447 0.291844 0.000000
0.966308 0.326360 0.000000
1.000000 0.377539 0.000000
1.000000 0.407996 0.000000
1.000000 0.437476 0.017914
1.000000 0.466255 0.111421
1.000000 0.493996 0.153811
1.000000 0.521141 0.192874
1.000000 0.547692 0.230289
1.000000 0.573693 0.268498
1.000000 0.599145 0.307439
1.000000 0.624292 0.347936
0.000000 0.139315 0.094759
0.000000 0.139498 0.094331
0.000000 0.139895 0.092958
0.000000 0.141390 0.090028
0.000000 0.143038 0.090700
0.008057 0.147707 0.084901
0.098756 0.152834 0.074891
0.159701 0.156497 0.058991
0.225376 0.164553 0.043793
0.276890 0.160525 0.043824
0.331762 0.154879 0.042908
0.389105 0.148257 0.041901
0.462013 0.148226 0.026978
0.539544 0.153323 0.000519
0.614038 0.161837 0.000000
0.682246 0.176944 0.000000
0.744503 0.199527 0.000000
0.801114 0.227298 0.000000
0.851225 0.258915 0.000000
0.895048 0.291295 0.000000
0.932982 0.324285 0.000000
0.965881 0.356237 0.000000
0.994141 0.387518 0.000000
1.000000 0.417762 0.000000
1.000000 0.447028 0.070283
1.000000 0.475105 0.126406
1.000000 0.502129 0.165438
1.000000 0.528435 0.201724
1.000000 0.554162 0.237461
1.000000 0.579492 0.274632
1.000000 0.604395 0.312963
1.000000 0.628992 0.352941
0.000000 0.195621 0.100618
0.000000 0.195590 0.099886
0.000000 0.196292 0.098116
0.000000 0.198184 0.094636
0.000000 0.200748 0.091402
0.000000 0.204227 0.093233
0.000000 0.208530 0.080079
0.131136 0.211521 0.053193
0.208194 0.208621 0.028840
0.297734 0.221500 0.000000
0.356115 0.215396 0.000000
0.414343 0.209598 0.000000
0.473030 0.204776 0.000000
0.531029 0.199680 0.003693
0.597894 0.205570 0.000000
0.665431 0.219669 0.000000
0.728115 0.238621 0.000000
0.784909 0.262150 0.000000
0.836393 0.289250 0.000000
0.881407 0.317693 0.000000
0.920531 0.347021 0.000000
0.954528 0.375952 0.000000
0.984192 0.404456 0.000000
1.000000 0.432746 0.030671
1.000000 0.460334 0.107240
1.000000 0.487037 0.144350
1.000000 0.512840 0.179355
1.000000 0.538170 0.213504
1.000000 0.563134 0.248081
1.000000 0.587610 0.283787
1.000000 0.611872 0.321447
1.000000 0.635981 0.360845
0.000000 0.261418 0.111269
0.000000 0.261784 0.110445
0.000000 0.262516 0.108827
0.000000 0.264469 0.105409
0.000000 0.267491 0.101228
0.000000 0.270909 0.105592
0.000000 0.273930 0.100130
0.022583 0.276768 0.076692
0.184543 0.278172 0.026673
0.272648 0.273350 0.000000
0.375677 0.286259 0.000000
0.437720 0.279484 0.000000
0.494331 0.272343 0.000000
0.549462 0.266880 0.000000
0.602777 0.263401 0.000000
0.653223 0.262089 0.000000
0.711147 0.274998 0.000000
0.768765 0.296147 0.000000
0.821134 0.320165 0.000000
0.867308 0.345769 0.000000
0.907561 0.371862 0.000000
0.942626 0.398108 0.000000
0.973419 0.424231 0.032166
1.000000 0.450324 0.098238
1.000000 0.476143 0.131807
1.000000 0.501335 0.164187
1.000000 0.525994 0.195773
1.000000 0.550378 0.228244
1.000000 0.574273 0.260838
1.000000 0.597894 0.295689
1.000000 0.621454 0.332830
1.000000 0.644770 0.371160
0.000000 0.332677 0.132845
0.000000 0.333135 0.132357
0.000000 0.333959 0.130892
0.000000 0.336278 0.128023
0.000000 0.339788 0.124605
0.000000 0.344213 0.123018
0.000000 0.348028 0.139101
0.000000 0.349493 0.119020
0.148959 0.348913 0.091890
0.254185 0.345922 0.016510
0.342290 0.338476 0.000000
0.438819 0.343297 0.000000
0.511589 0.343053 0.000000
0.565545 0.335302 0.000000
0.616846 0.330327 0.000000
0.665003 0.327855 0.000000
0.710750 0.328435 0.000000
0.754116 0.331640 0.000000
0.804837 0.350286 0.003143
0.852201 0.373693 0.006012
0.893492 0.397406 0.026184
0.929595 0.420844 0.066712
0.961212 0.444373 0.101808
0.989288 0.468238 0.128054
1.000000 0.491981 0.154391
1.000000 0.515679 0.182559
1.000000 0.539178 0.212192
1.000000 0.562493 0.242252
1.000000 0.585718 0.274388
1.000000 0.608789 0.308385
1.000000 0.631678 0.344488
1.000000 0.654658 0.383398
0.000000 0.407294 0.167269
0.000000 0.407324 0.167056
0.000000 0.408576 0.165866
0.000000 0.410559 0.163607
0.000000 0.413550 0.161471
0.000000 0.417609 0.159670
0.000000 0.422522 0.167117
0.000000 0.424506 0.173373
0.114229 0.422827 0.149508
0.240543 0.419440 0.117342
0.331853 0.413062 0.046326
0.414191 0.403876 0.000000
0.500694 0.401129 0.000000
0.580743 0.407538 0.000000
0.630915 0.399695 0.000000
0.677058 0.394995 0.000000
0.720638 0.393072 0.000000
0.761990 0.393866 0.000000
0.800961 0.397009 0.014252
0.836667 0.401984 0.085817
0.877623 0.421241 0.100313
0.914916 0.442969 0.114809
0.947997 0.465187 0.133394
0.977325 0.487373 0.154147
1.000000 0.509941 0.177493
1.000000 0.532341 0.203403
1.000000 0.554772 0.230411
1.000000 0.577142 0.259403
1.000000 0.599451 0.290227
1.000000 0.621698 0.323583
1.000000 0.643885 0.359380
1.000000 0.666224 0.397772
0.000000 0.480598 0.211002
0.000000 0.480964 0.210727
0.000000 0.481849 0.209476
0.000000 0.483650 0.208103
0.000000 0.486610 0.206607
0.000000 0.490425 0.204959
0.000000 0.495583 0.205600
0.000000 0.499825 0.227176
0.108553 0.498665 0.215091
0.240787 0.494606 0.187625
0.331640 0.488441 0.153811
0.412207 0.479835 0.107515
0.505241 0.482582 0.000000
0.578698 0.473426 0.000000
0.659602 0.484688 0.000000
0.704433 0.476692 0.000000
0.745388 0.471351 0.000000
0.783902 0.468727 0.000000
0.819242 0.468147 0.000000
0.851652 0.469459 0.088869
0.881682 0.472023 0.125887
0.909270 0.476417 0.153872
0.941924 0.495613 0.170260
0.971313 0.516381 0.189609
0.997131 0.537102 0.210605
1.000000 0.557855 0.233799
1.000000 0.578454 0.259281
1.000000 0.599084 0.286534
1.000000 0.619776 0.316381
1.000000 0.640589 0.348516
1.000000 0.661372 0.383001
1.000000 0.682490 0.420172
0.000000 0.560693 0.267552
0.000000 0.560784 0.267674
0.000000 0.560998 0.266300
0.000000 0.562310 0.265293
0.000000 0.564080 0.263157
0.000000 0.566888 0.261662
0.000000 0.570794 0.261601
0.000000 0.575341 0.268101
0.170809 0.577813 0.290898
0.269749 0.573358 0.265812
0.352148 0.567803 0.236667
0.428107 0.560693 0.202396
0.499519 0.551049 0.159487
0.565698 0.538445 0.095247
0.628351 0.525566 0.000000
0.705074 0.537316 0.000000
0.750362 0.533379 0.000000
0.787289 0.527459 0.000000
0.821012 0.523430 0.000000
0.851896 0.521416 0.067720
0.880308 0.521141 0.122866
0.907073 0.522759 0.155886
0.932189 0.526421 0.183291
0.956207 0.532769 0.209598
0.983581 0.552911 0.229374
1.000000 0.573022 0.251530
1.000000 0.593256 0.276310
1.000000 0.613428 0.303166
1.000000 0.633692 0.332280
1.000000 0.654017 0.364141
1.000000 0.674464 0.398749
1.000000 0.695186 0.436133
0.000000 0.622827 0.319219
0.000000 0.622950 0.318669
0.000000 0.623255 0.318334
0.000000 0.623926 0.316655
0.000000 0.625422 0.315373
0.000000 0.627497 0.314000
0.000000 0.630854 0.314092
0.000000 0.634974 0.315953
0.170474 0.638636 0.335393
0.304692 0.638209 0.339788
0.372503 0.633082 0.313848
0.438911 0.626551 0.283787
0.503532 0.618067 0.249027
0.565087 0.607355 0.207431
0.622797 0.593896 0.153872
0.674586 0.576867 0.007385
0.742184 0.583825 0.000000
0.789487 0.585321 0.000000
0.822568 0.578424 0.000000
0.852079 0.573358 0.019196
0.879484 0.570062 0.120363
0.905303 0.569329 0.157931
0.929747 0.570794 0.188998
0.952850 0.574304 0.216800
0.974395 0.579644 0.243992
0.995209 0.588861 0.269841
1.000000 0.608667 0.293950
1.000000 0.628473 0.320623
1.000000 0.648280 0.349798
1.000000 0.668238 0.381231
1.000000 0.688289 0.415930
1.000000 0.708644 0.453651
0.000000 0.678065 0.372259
0.000000 0.678065 0.372320
0.000000 0.678309 0.371405
0.000000 0.678950 0.370428
0.000000 0.679896 0.369268
0.000000 0.681514 0.368566
0.000000 0.683864 0.368566
0.000000 0.687129 0.370703
0.174960 0.691218 0.375738
0.347539 0.693660 0.406989
0.406317 0.690120 0.391608
0.458808 0.684596 0.365087
0.513146 0.677455 0.334691
0.567803 0.668238 0.299443
0.620813 0.657130 0.258152
0.671168 0.643305 0.208225
0.716121 0.624689 0.140078
0.773526 0.625940 0.000000
0.822751 0.632136 0.000000
0.851957 0.624537 0.000000
0.878752 0.618860 0.113802
0.903777 0.615686 0.160525
0.927428 0.614801 0.195621
0.949798 0.615991 0.225803
0.970764 0.619226 0.254032
0.990387 0.624506 0.281407
1.000000 0.631434 0.309606
1.000000 0.643580 0.338231
1.000000 0.663447 0.367834
1.000000 0.683284 0.399817
1.000000 0.703395 0.435309
1.000000 0.722744 0.472267
0.000000 0.724392 0.424262
0.000000 0.724636 0.424384
0.000000 0.724849 0.424231
0.000000 0.725521 0.423896
0.000000 0.726558 0.423285
0.000000 0.728023 0.423468
0.000000 0.730312 0.424628
0.141665 0.733150 0.427100
0.261753 0.736477 0.432349
0.364477 0.739345 0.449195
0.453620 0.739895 0.469825
0.489876 0.734798 0.445289
0.531121 0.728511 0.417792
0.575280 0.720455 0.385779
0.620813 0.710628 0.349096
0.666499 0.698909 0.307836
0.711208 0.685481 0.260563
0.751827 0.668421 0.202396
0.801236 0.665217 0.096529
0.850156 0.673640 0.028046
0.876829 0.666377 0.120699
0.901946 0.661097 0.161288
0.924987 0.658289 0.201724
0.946777 0.657618 0.235080
0.967315 0.658900 0.265507
0.986542 0.662226 0.294163
1.000000 0.667475 0.323613
1.000000 0.674464 0.353521
1.000000 0.683375 0.385626
1.000000 0.698421 0.418891
1.000000 0.717708 0.453681
1.000000 0.736141 0.489784
0.000000 0.763699 0.474281
0.000000 0.763668 0.474342
0.000000 0.763882 0.474311
0.000000 0.764431 0.474434
0.000000 0.765255 0.474495
0.000000 0.766537 0.475319
0.173922 0.768215 0.476844
0.260899 0.770413 0.479561
0.331029 0.772854 0.484565
0.393866 0.775753 0.492348
0.479866 0.777157 0.518395
0.529473 0.775509 0.520653
0.557427 0.770382 0.495430
0.590417 0.763882 0.467231
0.626917 0.756100 0.435157
0.665705 0.746700 0.399054
0.705562 0.735622 0.358953
0.745144 0.722896 0.312932
0.782345 0.707607 0.259678
0.825345 0.701289 0.186221
0.871275 0.708583 0.150118
0.899199 0.705287 0.179690
0.922423 0.700710 0.209445
0.943786 0.698116 0.244663
0.963745 0.697688 0.277440
0.982483 0.699275 0.307836
0.999908 0.702785 0.338415
1.000000 0.708125 0.369909
1.000000 0.715389 0.402533
1.000000 0.724300 0.436652
1.000000 0.734096 0.471565
1.000000 0.749935 0.508568
0.048157 0.796963 0.523308
0.060456 0.797116 0.523400
0.170779 0.803220 0.533043
0.198276 0.803647 0.533318
0.234318 0.804196 0.534020
0.275853 0.805081 0.535119
0.319188 0.806149 0.537133
0.365393 0.807523 0.540215
0.412573 0.809232 0.545342
0.460761 0.811185 0.553124
0.515679 0.812741 0.567651
0.582025 0.813321 0.594934
0.603601 0.809812 0.579065
0.624018 0.804593 0.553521
0.648707 0.798276 0.524224
0.677577 0.790616 0.492042
0.709377 0.781552 0.455543
0.743160 0.771054 0.415229
0.777676 0.759182 0.370642
0.811368 0.745449 0.320317
0.849332 0.737423 0.258824
0.890745 0.742153 0.216220
0.920531 0.743771 0.236301
0.941650 0.739437 0.263462
0.961181 0.736904 0.292546
0.979095 0.736446 0.324895
0.995880 0.737942 0.356054
1.000000 0.741421 0.388128
1.000000 0.746700 0.421057
1.000000 0.753048 0.454078
1.000000 0.760891 0.489296
1.000000 0.770352 0.526665
0.290990 0.826230 0.572381
0.294347 0.826719 0.573480
0.303868 0.827390 0.574517
0.319646 0.828031 0.575799
0.339940 0.828733 0.577356
0.365270 0.829587 0.578790
0.396033 0.830381 0.581445
0.430060 0.831388 0.584771
0.466773 0.832547 0.589776
0.505150 0.833951 0.596521
0.544274 0.835630 0.605585
0.595972 0.836362 0.625391
0.639887 0.835843 0.640742
0.652857 0.831907 0.619532
0.669795 0.827237 0.595972
0.690394 0.821469 0.568444
0.714443 0.814694 0.536980
0.741756 0.806760 0.501854
0.771511 0.797635 0.463508
0.802548 0.787350 0.421393
0.833646 0.775631 0.373877
0.867735 0.767514 0.319921
0.906035 0.770352 0.271031
0.937377 0.776242 0.287327
0.956817 0.772580 0.312505
0.975006 0.770626 0.338964
0.991333 0.770657 0.372229
1.000000 0.772396 0.405310
1.000000 0.775357 0.437659
1.000000 0.779995 0.471260
1.000000 0.786252 0.506676
1.000000 0.794064 0.544579
0.390143 0.848783 0.615869
0.392828 0.849180 0.616663
0.399634 0.849699 0.618067
0.409918 0.850278 0.619348
0.424506 0.850889 0.621271
0.443000 0.851469 0.623011
0.464912 0.852049 0.625513
0.490730 0.852781 0.628840
0.519310 0.853635 0.633326
0.549798 0.854704 0.639277
0.581506 0.855924 0.646876
0.615564 0.857176 0.657465
0.662104 0.857298 0.679164
0.686000 0.855772 0.679622
0.696834 0.852201 0.660151
0.710780 0.847898 0.637751
0.728084 0.842802 0.612207
0.748501 0.836851 0.582849
0.771847 0.829923 0.550011
0.797757 0.822141 0.513268
0.825376 0.813291 0.473213
0.853727 0.803464 0.429053
0.884428 0.795346 0.380011
0.920165 0.796994 0.324804
0.952514 0.806210 0.339330
0.970336 0.803372 0.364721
0.986786 0.801663 0.390326
1.000000 0.801389 0.421363
1.000000 0.802823 0.454871
1.000000 0.805905 0.489113
1.000000 0.810697 0.525292
1.000000 0.816953 0.562890
0.469978 0.868559 0.658076
0.472297 0.868864 0.658930
0.476417 0.869291 0.659907
0.484108 0.869718 0.661280
0.494789 0.870207 0.662776
0.508446 0.870634 0.664729
0.525536 0.871092 0.667079
0.545159 0.871611 0.670008
0.567590 0.872313 0.674098
0.592218 0.873136 0.679377
0.618372 0.874052 0.685969
0.645380 0.875059 0.694148
0.679011 0.875669 0.708278
0.716213 0.875822 0.727657
0.726345 0.873503 0.716243
0.735195 0.870420 0.698360
0.747127 0.866758 0.678340
0.761898 0.862425 0.655085
0.779721 0.857542 0.629358
0.800168 0.851926 0.599878
0.822965 0.845579 0.566888
0.847532 0.838437 0.530053
0.873411 0.830381 0.488411
0.901061 0.823056 0.444190
0.934783 0.825437 0.396338
0.965087 0.833494 0.398352
0.982666 0.832822 0.422065
0.997223 0.831388 0.448524
1.000000 0.831540 0.479133
1.000000 0.833341 0.514702
1.000000 0.836698 0.551659
1.000000 0.841611 0.589410
0.543389 0.887785 0.701991
0.544366 0.887877 0.702358
0.546838 0.888029 0.702876
0.551873 0.888212 0.703578
0.559411 0.888365 0.704646
0.569512 0.888548 0.706172
0.582391 0.888884 0.708156
0.597650 0.889250 0.710872
0.615381 0.889769 0.714443
0.635431 0.890379 0.719173
0.656580 0.891081 0.724880
0.679011 0.891936 0.731838
0.701778 0.892882 0.740017
0.733211 0.893004 0.755795
0.758175 0.892760 0.766690
0.763333 0.890471 0.752682
0.770657 0.887724 0.736721
0.780484 0.884581 0.718837
0.792844 0.880919 0.698116
0.807828 0.876677 0.674617
0.825284 0.871916 0.648005
0.845060 0.866514 0.618250
0.866667 0.860441 0.584802
0.889494 0.853330 0.545373
0.914061 0.846433 0.503197
0.944945 0.848173 0.459052
0.973266 0.854704 0.451362
0.991547 0.857206 0.475471
1.000000 0.856352 0.503471
1.000000 0.856840 0.534112
1.000000 0.858946 0.571252
1.000000 0.862547 0.609064
0.599512 0.903044 0.738613
0.600366 0.903166 0.738827
0.602502 0.903227 0.739345
0.606317 0.903410 0.739956
0.612238 0.903502 0.741085
0.620142 0.903685 0.742428
0.630243 0.903929 0.744198
0.642756 0.904204 0.746761
0.657130 0.904601 0.750027
0.673335 0.905089 0.754055
0.690822 0.905699 0.759060
0.709346 0.906371 0.764950
0.728542 0.907134 0.771817
0.750362 0.907744 0.781460
0.776761 0.907897 0.795834
0.790372 0.907195 0.797055
0.794766 0.905272 0.785092
0.800961 0.903044 0.771389
0.809293 0.900450 0.755764
0.819699 0.897490 0.737911
0.832212 0.893858 0.716976
0.846952 0.889738 0.693202
0.863828 0.885008 0.665949
0.882719 0.879698 0.635187
0.902403 0.872740 0.597101
0.925078 0.867308 0.559594
0.953124 0.868559 0.520256
0.979706 0.874083 0.504784
0.998413 0.879332 0.529717
1.000000 0.878904 0.559564
1.000000 0.879942 0.591547
1.000000 0.882444 0.628199
0.652522 0.917540 0.774411
0.653407 0.917662 0.774716
0.654932 0.917723 0.775174
0.657923 0.917784 0.775662
0.662104 0.917815 0.776303
0.668238 0.917845 0.777371
0.675807 0.917937 0.778653
0.685267 0.918029 0.780606
0.696437 0.918212 0.783108
0.709224 0.918517 0.786343
0.723140 0.918914 0.790280
0.738308 0.919402 0.795041
0.754147 0.919951 0.800595
0.770169 0.920623 0.806851
0.790921 0.920867 0.817227
0.812375 0.921080 0.829191
0.817350 0.919768 0.823087
0.820737 0.917998 0.812436
0.825681 0.915953 0.800351
0.832334 0.913634 0.786404
0.841032 0.910979 0.770443
0.851713 0.907958 0.752255
0.864408 0.904448 0.731289
0.879118 0.900450 0.707210
0.895659 0.895903 0.679438
0.913939 0.890837 0.647822
0.934630 0.886595 0.614923
0.959899 0.887602 0.581842
0.985107 0.892454 0.560266
1.000000 0.899840 0.586267
1.000000 0.900053 0.617029
1.000000 0.901640 0.649897
0.695460 0.929564 0.804013
0.696254 0.929656 0.804379
0.697658 0.929747 0.804776
0.699947 0.929839 0.805325
0.703517 0.929931 0.805997
0.708644 0.929992 0.807095
0.715084 0.930114 0.808499
0.722896 0.930297 0.810330
0.732082 0.930480 0.812589
0.742489 0.930755 0.815366
0.753933 0.931090 0.818631
0.766232 0.931426 0.822568
0.779171 0.931884 0.826963
0.792477 0.932341 0.831968
0.806119 0.932830 0.837675
0.824643 0.932860 0.847440
0.839750 0.932830 0.854734
0.841398 0.931487 0.846677
0.844205 0.929992 0.837675
0.848295 0.928313 0.827359
0.853910 0.926390 0.815579
0.861173 0.924193 0.802182
0.870146 0.921691 0.786831
0.880919 0.918853 0.769009
0.893584 0.915618 0.748501
0.908141 0.911986 0.724880
0.924407 0.907988 0.697810
0.943114 0.904936 0.670405
0.965850 0.906157 0.643915
0.989502 0.910857 0.620050
1.000000 0.919432 0.647364
1.000000 0.921141 0.678920
0.733974 0.940612 0.830716
0.734310 0.940673 0.830838
0.735286 0.940703 0.831083
0.737118 0.940734 0.831510
0.739956 0.940795 0.832090
0.743832 0.940826 0.832914
0.748898 0.940887 0.834012
0.755154 0.941009 0.835477
0.762539 0.941131 0.837339
0.770993 0.941344 0.839628
0.780392 0.941588 0.842344
0.790524 0.941894 0.845579
0.801236 0.942260 0.849180
0.812284 0.942626 0.853269
0.823636 0.943084 0.857755
0.836820 0.943389 0.863951
0.852049 0.943511 0.872190
0.860502 0.943175 0.873869
0.861967 0.942077 0.867094
0.864439 0.940856 0.859464
0.867979 0.939513 0.850950
0.872770 0.937926 0.841215
0.878813 0.936156 0.830014
0.886412 0.934142 0.817227
0.895567 0.931853 0.802365
0.906432 0.929259 0.785428
0.919097 0.926421 0.765774
0.933471 0.923308 0.743160
0.950225 0.921202 0.720760
0.970428 0.922911 0.701381
0.991943 0.928222 0.685176
1.000000 0.936339 0.706538
0.766812 0.950439 0.853574
0.767147 0.950469 0.853727
0.767941 0.950530 0.853941
0.769467 0.950561 0.854307
0.771908 0.950622 0.854917
0.775265 0.950744 0.855741
0.779660 0.950896 0.856931
0.785153 0.951110 0.858488
0.791684 0.951354 0.860410
0.798947 0.951659 0.862669
0.807126 0.952056 0.865324
0.815824 0.952422 0.868254
0.824918 0.952850 0.871489
0.834257 0.953307 0.874998
0.843748 0.953765 0.878752
0.853300 0.954223 0.882780
0.865476 0.954406 0.888945
0.877897 0.954620 0.895720
0.881559 0.954131 0.893767
0.882963 0.953307 0.888334
0.885100 0.952422 0.882261
0.888121 0.951385 0.875456
0.892058 0.950225 0.867643
0.897093 0.948882 0.858762
0.903349 0.947356 0.848631
0.911040 0.945678 0.837034
0.920226 0.943816 0.823728
0.930968 0.941802 0.808530
0.943359 0.939635 0.791073
0.957824 0.938476 0.774472
0.975189 0.940917 0.763058
0.993866 0.946929 0.755917
0.800137 0.960571 0.876555
0.800290 0.960601 0.876585
0.800809 0.960571 0.876707
0.801938 0.960601 0.876951
0.803738 0.960601 0.877379
0.806210 0.960632 0.877928
0.809476 0.960693 0.878752
0.813565 0.960784 0.879820
0.818448 0.960906 0.881163
0.824063 0.961089 0.882780
0.830289 0.961273 0.884703
0.837125 0.961547 0.886900
0.844419 0.961791 0.889372
0.851987 0.962097 0.892088
