20 Preset/Japan Style/【3】LUT video cho PR-AE-FCPX/LUT VIDEO (2)/Japan Style LUT (4).cube
# Created by Adobe Lightroom plugin Export LUT (1.24.0)
# www.johnrellis.com/lightroom/exportlut.htm
# Preset: 04日系暖色（素材江湖）
# Color profile: C:\Program Files (x86)\Common Files\Adobe\Color\Profiles\Recommended\VideoHD.icc
LUT_3D_SIZE 32
DOMAIN_MIN 0.0 0.0 0.0
DOMAIN_MAX 1.0 1.0 1.0
0.091341 0.095827 0.110750
0.090578 0.095888 0.110750
0.088106 0.095796 0.110170
0.083619 0.094942 0.109651
0.087800 0.093965 0.108431
0.105379 0.092683 0.107271
0.137331 0.091524 0.106294
0.180423 0.085939 0.105348
0.232273 0.064790 0.104189
0.290776 0.019867 0.102937
0.354742 0.000000 0.101839
0.422675 0.000000 0.100191
0.492592 0.000000 0.098512
0.562463 0.000000 0.095674
0.629603 0.000000 0.093233
0.692317 0.000000 0.090120
0.752193 0.000000 0.087495
0.807004 0.000000 0.084260
0.855283 0.000000 0.084321
0.896941 0.000000 0.087495
0.933196 0.000000 0.093324
0.964477 0.000000 0.101900
0.991394 0.000000 0.112886
1.000000 0.076265 0.126192
1.000000 0.162020 0.141573
1.000000 0.214267 0.158541
1.000000 0.256535 0.178500
1.000000 0.295048 0.199741
1.000000 0.330571 0.223239
1.000000 0.364569 0.249363
1.000000 0.397436 0.277134
1.000000 0.429877 0.307164
0.090974 0.095491 0.110475
0.090211 0.095552 0.110475
0.088014 0.095033 0.109926
0.083009 0.094606 0.109377
0.088624 0.093874 0.108431
0.106722 0.093355 0.107179
0.138277 0.092164 0.106203
0.180972 0.087800 0.105196
0.232609 0.068940 0.103975
0.290837 0.024231 0.103090
0.354284 0.000000 0.101564
0.422248 0.000000 0.099916
0.491768 0.000000 0.098146
0.561120 0.000000 0.095796
0.628229 0.000000 0.092866
0.691096 0.000000 0.090150
0.750637 0.000000 0.086824
0.805051 0.000000 0.084260
0.852934 0.000000 0.082979
0.894469 0.000000 0.087068
0.930632 0.000000 0.092409
0.962005 0.000000 0.100282
0.988983 0.000000 0.111391
1.000000 0.071717 0.124178
1.000000 0.161227 0.139834
1.000000 0.211948 0.156802
1.000000 0.254490 0.175875
1.000000 0.292973 0.197543
1.000000 0.328588 0.221164
1.000000 0.362676 0.246738
1.000000 0.395575 0.274815
1.000000 0.427955 0.305028
0.090150 0.093263 0.109133
0.090150 0.093263 0.109133
0.088197 0.093080 0.109194
0.084932 0.093324 0.108522
0.091279 0.094392 0.107668
0.111513 0.095857 0.106447
0.144625 0.095735 0.105287
0.187564 0.093019 0.104372
0.239384 0.081575 0.103273
0.297185 0.041260 0.102174
0.360266 0.000000 0.100771
0.427466 0.000000 0.098848
0.496284 0.000000 0.096742
0.564874 0.000000 0.093996
0.631312 0.000000 0.091035
0.693233 0.000000 0.087953
0.751980 0.000000 0.083528
0.805264 0.000000 0.079713
0.852628 0.000000 0.079622
0.893828 0.000000 0.083375
0.929778 0.000000 0.089357
0.960998 0.000000 0.098329
0.987976 0.000000 0.109010
1.000000 0.108888 0.122591
1.000000 0.173770 0.138003
1.000000 0.220096 0.155154
1.000000 0.260777 0.175174
1.000000 0.297642 0.196506
1.000000 0.332555 0.220005
1.000000 0.365972 0.245579
1.000000 0.398047 0.273747
1.000000 0.430152 0.303624
0.086763 0.093233 0.107515
0.086763 0.093233 0.107515
0.086946 0.093233 0.107179
0.088075 0.094362 0.107027
0.098146 0.097536 0.106508
0.122072 0.103609 0.104921
0.157687 0.108186 0.103578
0.202060 0.106508 0.102266
0.254276 0.100618 0.101015
0.311589 0.086030 0.099794
0.374151 0.030182 0.097810
0.439612 0.000000 0.096010
0.507134 0.000000 0.093111
0.574334 0.000000 0.090272
0.638544 0.000000 0.086000
0.698909 0.000000 0.080751
0.755917 0.000000 0.074189
0.806943 0.000000 0.069306
0.852873 0.000000 0.068391
0.892882 0.000000 0.072724
0.928069 0.000000 0.082155
0.958892 0.000000 0.093874
0.985809 0.059266 0.105257
1.000000 0.148440 0.119478
1.000000 0.197330 0.135317
1.000000 0.237797 0.153811
1.000000 0.275059 0.173648
1.000000 0.309514 0.195773
1.000000 0.342473 0.219577
1.000000 0.374395 0.245487
1.000000 0.405371 0.273350
1.000000 0.435828 0.303502
0.068544 0.105531 0.107485
0.067842 0.105898 0.107424
0.070008 0.106172 0.106386
0.080232 0.106783 0.106569
0.099977 0.112428 0.105501
0.138735 0.119234 0.103151
0.177432 0.126497 0.101198
0.222812 0.132937 0.097963
0.275273 0.134218 0.095003
0.332677 0.125673 0.093477
0.393652 0.110842 0.091493
0.457923 0.085786 0.088960
0.523186 0.000000 0.084596
0.588098 0.000000 0.077974
0.650202 0.000000 0.069062
0.708553 0.000000 0.059846
0.762844 0.000000 0.050935
0.811887 0.000000 0.046174
0.855955 0.000000 0.045106
0.894591 0.000000 0.052003
0.928801 0.000000 0.066163
0.958953 0.107362 0.085756
0.985351 0.156313 0.099886
1.000000 0.195895 0.115511
1.000000 0.231662 0.132753
1.000000 0.265812 0.151797
1.000000 0.297276 0.172641
1.000000 0.328344 0.194766
1.000000 0.358190 0.219181
1.000000 0.387488 0.245274
1.000000 0.416693 0.273198
1.000000 0.445533 0.303471
0.005921 0.136324 0.110201
0.008209 0.136294 0.109865
0.010986 0.136507 0.108186
0.023651 0.136934 0.107027
0.071107 0.140658 0.107362
0.125521 0.152102 0.103700
0.199130 0.161959 0.097627
0.255009 0.166171 0.092714
0.306767 0.171054 0.087892
0.362310 0.176394 0.076417
0.421210 0.175021 0.061860
0.483833 0.163149 0.055879
0.546502 0.148531 0.048157
0.608240 0.132113 0.039979
0.667170 0.115389 0.029419
0.722957 0.103456 0.019867
0.773770 0.100649 0.012085
0.820371 0.106416 0.009552
0.862028 0.123598 0.009491
0.898802 0.145266 0.017517
0.931609 0.169863 0.037171
0.960479 0.196017 0.063264
0.997681 0.239811 0.099672
1.000000 0.265599 0.118532
1.000000 0.290684 0.138949
1.000000 0.316197 0.159640
1.000000 0.341375 0.182498
1.000000 0.366644 0.205570
1.000000 0.392462 0.230503
1.000000 0.418067 0.257053
1.000000 0.443793 0.285588
1.000000 0.469703 0.315740
0.000000 0.184573 0.115145
0.000000 0.184878 0.114748
0.000000 0.184634 0.112642
0.000000 0.184970 0.108644
0.000000 0.184512 0.110353
0.067994 0.193820 0.108614
0.167697 0.210758 0.100221
0.274144 0.223728 0.085267
0.354498 0.225681 0.060792
0.409857 0.228244 0.040375
0.465949 0.232242 0.017639
0.522606 0.238437 0.000000
0.580438 0.237705 0.000000
0.638148 0.229221 0.000000
0.694728 0.224002 0.000000
0.746181 0.220584 0.000000
0.793454 0.221012 0.000000
0.836332 0.224704 0.000000
0.874510 0.232547 0.000000
0.909026 0.242802 0.000000
0.940154 0.256962 0.000000
0.968048 0.273014 0.033570
0.993042 0.290532 0.084352
1.000000 0.309941 0.109804
1.000000 0.330114 0.133394
1.000000 0.351476 0.155795
1.000000 0.372320 0.179477
1.000000 0.393622 0.203708
1.000000 0.415930 0.229343
1.000000 0.438392 0.256352
1.000000 0.461463 0.284977
1.000000 0.485115 0.315343
0.000000 0.240146 0.122133
0.000000 0.240238 0.121828
0.000000 0.239963 0.119020
0.000000 0.240238 0.114351
0.000000 0.239628 0.111513
0.000000 0.238193 0.117769
0.100801 0.255283 0.110414
0.224247 0.275364 0.096284
0.349645 0.291783 0.053162
0.455238 0.293858 0.000000
0.510857 0.294530 0.000000
0.563653 0.297704 0.000000
0.615656 0.304051 0.000000
0.665339 0.313115 0.000000
0.713497 0.315618 0.000000
0.760342 0.310796 0.000000
0.803738 0.309331 0.000000
0.843168 0.309453 0.000000
0.878721 0.312016 0.000000
0.911040 0.317205 0.000000
0.940490 0.325231 0.000000
0.967071 0.334844 0.000000
0.991180 0.346502 0.043946
1.000000 0.359869 0.099245
1.000000 0.375097 0.126864
1.000000 0.391089 0.152377
1.000000 0.407813 0.177523
1.000000 0.425391 0.203067
1.000000 0.443854 0.229221
1.000000 0.463630 0.256535
1.000000 0.483619 0.285832
1.000000 0.504814 0.316228
0.000000 0.301884 0.133852
0.000000 0.302098 0.133272
0.000000 0.301946 0.130770
0.000000 0.301610 0.125032
0.000000 0.301183 0.117433
0.000000 0.299809 0.121920
0.000000 0.302617 0.127016
0.157321 0.322850 0.115267
0.292515 0.344305 0.094911
0.429603 0.363104 0.020691
0.558343 0.370550 0.000000
0.609888 0.370459 0.000000
0.656916 0.372717 0.000000
0.699855 0.377203 0.000000
0.739834 0.383917 0.000000
0.776852 0.392370 0.000000
0.813993 0.394476 0.000000
0.850156 0.390478 0.000000
0.883299 0.388800 0.000000
0.913603 0.389410 0.000000
0.941283 0.392279 0.000000
0.966491 0.397253 0.000000
0.989502 0.403754 0.000000
1.000000 0.412451 0.084932
1.000000 0.422675 0.121035
1.000000 0.434394 0.149874
1.000000 0.447089 0.177005
1.000000 0.461128 0.203861
1.000000 0.476265 0.230961
1.000000 0.492439 0.258732
1.000000 0.509819 0.288029
1.000000 0.528130 0.318944
0.000000 0.367254 0.150759
0.000000 0.367285 0.150515
0.000000 0.366979 0.147646
0.000000 0.366674 0.141939
0.000000 0.366094 0.133242
0.000000 0.364752 0.127871
0.000000 0.362463 0.138888
0.000000 0.371496 0.139376
0.229313 0.392889 0.125643
0.369909 0.415259 0.101961
0.510277 0.436164 0.017762
0.634852 0.448280 0.000000
0.693111 0.446662 0.000000
0.732265 0.446418 0.000000
0.767788 0.448219 0.000000
0.800381 0.451881 0.000000
0.830594 0.457221 0.000000
0.858549 0.464057 0.000000
0.887205 0.464302 0.000000
0.915679 0.460761 0.000000
0.941680 0.459022 0.000000
0.965332 0.459052 0.000000
0.987060 0.461036 0.000000
1.000000 0.465339 0.049500
1.000000 0.471138 0.113252
1.000000 0.478614 0.146273
1.000000 0.487648 0.175967
1.000000 0.498054 0.204166
1.000000 0.510094 0.232212
1.000000 0.523369 0.261234
1.000000 0.537987 0.290959
1.000000 0.553796 0.322301
0.000000 0.432441 0.173709
0.000000 0.432624 0.173281
0.000000 0.432471 0.170535
0.000000 0.432074 0.164492
0.000000 0.431830 0.156191
0.000000 0.431220 0.144717
0.000000 0.429480 0.150332
0.000000 0.426703 0.163485
0.143343 0.442115 0.158511
0.311040 0.462989 0.144289
0.449683 0.483833 0.121950
0.581781 0.504479 0.076844
0.697688 0.519921 0.000000
0.762203 0.518639 0.000000
0.794430 0.515404 0.000000
0.823056 0.514153 0.000000
0.849271 0.514427 0.000000
0.873747 0.516381 0.000000
0.896635 0.520287 0.000000
0.917845 0.525505 0.000000
0.940612 0.524315 0.000000
0.963104 0.520409 0.000000
0.984039 0.518853 0.000000
1.000000 0.519127 0.022980
1.000000 0.521111 0.109865
1.000000 0.525109 0.147066
1.000000 0.530877 0.178408
1.000000 0.538079 0.207950
1.000000 0.547021 0.236271
1.000000 0.557122 0.265995
1.000000 0.569055 0.296086
1.000000 0.582269 0.327977
0.000000 0.497719 0.202731
0.000000 0.497627 0.201541
0.000000 0.497627 0.199527
0.000000 0.497292 0.194400
0.000000 0.496834 0.186160
0.000000 0.495979 0.175174
0.000000 0.494759 0.167300
0.000000 0.491859 0.180514
0.000000 0.490181 0.193027
0.248020 0.509148 0.184909
0.393957 0.528374 0.172366
0.523644 0.547570 0.155825
0.657801 0.580041 0.142123
0.759274 0.593835 0.106630
0.828489 0.595575 0.078431
0.853696 0.588739 0.000000
0.876219 0.583612 0.000000
0.896849 0.580865 0.000000
0.916106 0.579767 0.000000
0.934295 0.580499 0.000000
0.951293 0.582452 0.000000
0.967254 0.585687 0.000000
0.985260 0.583459 0.000000
1.000000 0.579919 0.061097
1.000000 0.578546 0.125673
1.000000 0.578729 0.161776
1.000000 0.580438 0.192935
1.000000 0.584161 0.222171
1.000000 0.589563 0.250370
1.000000 0.596582 0.279240
1.000000 0.605066 0.309453
1.000000 0.615381 0.340978
0.000000 0.565087 0.240757
0.000000 0.564843 0.239872
0.000000 0.564172 0.237369
0.000000 0.563775 0.232609
0.000000 0.562524 0.225010
0.000000 0.561151 0.214328
0.000000 0.559533 0.200778
0.000000 0.556634 0.206027
0.000000 0.552972 0.219852
0.176913 0.556786 0.227604
0.347234 0.574792 0.221042
0.478676 0.593286 0.213413
0.595697 0.611292 0.204318
0.701289 0.628748 0.192416
0.792752 0.642267 0.175967
0.865202 0.646967 0.170932
0.887053 0.638849 0.149233
0.906493 0.632136 0.124758
0.923705 0.627375 0.120546
0.939971 0.624537 0.114076
0.955169 0.623194 0.107576
0.969757 0.623377 0.100893
0.983856 0.625208 0.096803
0.997436 0.628626 0.095155
1.000000 0.626581 0.131594
1.000000 0.624048 0.168582
1.000000 0.623316 0.200443
1.000000 0.624323 0.229801
1.000000 0.627222 0.258640
1.000000 0.631739 0.287755
1.000000 0.637842 0.317815
1.000000 0.645777 0.349737
0.000000 0.617029 0.277043
0.000000 0.616754 0.276158
0.000000 0.616327 0.273869
0.000000 0.615412 0.269291
0.000000 0.614252 0.262272
0.000000 0.612757 0.252750
0.000000 0.611261 0.240757
0.000000 0.609064 0.231693
0.000000 0.605554 0.244724
0.015686 0.601587 0.259190
0.292638 0.610437 0.262730
0.427802 0.626398 0.259312
0.543084 0.642145 0.255314
0.646021 0.657527 0.250706
0.739101 0.672450 0.246067
0.819913 0.684382 0.237278
0.886229 0.690364 0.234257
0.912963 0.682307 0.222232
0.929686 0.674678 0.203830
0.944762 0.668574 0.193668
0.958556 0.664240 0.190402
0.971923 0.661738 0.186770
0.984955 0.661036 0.183444
0.997559 0.661982 0.182132
1.000000 0.664363 0.183139
1.000000 0.668177 0.186770
1.000000 0.666133 0.213413
1.000000 0.664851 0.242039
1.000000 0.665187 0.270329
1.000000 0.667323 0.299596
1.000000 0.671321 0.329442
1.000000 0.677058 0.361059
0.000000 0.662226 0.314641
0.000000 0.662196 0.314702
0.000000 0.661799 0.312657
0.000000 0.660914 0.307897
0.000000 0.659754 0.301610
0.000000 0.658350 0.293431
0.000000 0.656916 0.282872
0.000000 0.655299 0.270359
0.000000 0.652308 0.273594
0.000000 0.648585 0.286809
0.242741 0.644465 0.301701
0.384283 0.656947 0.301976
0.497017 0.670558 0.301457
0.597436 0.684016 0.300389
0.688167 0.696956 0.298955
0.770108 0.709468 0.297459
0.842161 0.719936 0.293492
0.902586 0.727352 0.292119
0.932891 0.719814 0.287327
0.947509 0.711391 0.269383
0.961089 0.704463 0.254765
0.973358 0.699763 0.252262
0.985351 0.696803 0.250034
0.997070 0.695552 0.248051
1.000000 0.695674 0.247776
1.000000 0.697292 0.248814
1.000000 0.700160 0.252628
1.000000 0.704372 0.259373
1.000000 0.702998 0.286503
1.000000 0.703182 0.314946
1.000000 0.705257 0.345281
1.000000 0.709194 0.377264
0.000000 0.700710 0.352850
0.000000 0.700679 0.352544
0.000000 0.700343 0.350896
0.000000 0.699825 0.347448
0.000000 0.699031 0.341985
0.000000 0.698085 0.334966
0.000000 0.697017 0.325933
0.000000 0.695827 0.315862
0.000000 0.694118 0.307500
0.000000 0.690639 0.319127
0.231022 0.686488 0.332372
0.347845 0.685420 0.343542
0.459510 0.696742 0.344060
0.555932 0.708064 0.345068
0.642908 0.719020 0.345037
0.722438 0.729763 0.345800
0.795041 0.740322 0.345953
0.858854 0.749477 0.345159
0.915068 0.758053 0.343816
0.947814 0.751431 0.346166
0.960906 0.743160 0.329625
0.973480 0.736507 0.315404
0.985016 0.731685 0.310033
0.995941 0.728511 0.308324
1.000000 0.726833 0.307622
1.000000 0.726741 0.307988
1.000000 0.727840 0.310857
1.000000 0.730190 0.315373
1.000000 0.733883 0.322454
1.000000 0.738247 0.334386
1.000000 0.738308 0.363622
1.000000 0.740352 0.395392
0.000000 0.733639 0.390265
0.000000 0.733516 0.389624
0.000000 0.733364 0.388373
0.000000 0.732937 0.385534
0.000000 0.732357 0.381506
0.000000 0.731624 0.375555
0.000000 0.730526 0.367926
0.000000 0.729397 0.358740
0.000000 0.728115 0.348577
0.000000 0.725338 0.351141
0.226169 0.721584 0.362951
0.335729 0.717525 0.375738
0.428260 0.720089 0.383612
0.521080 0.729793 0.385260
0.604730 0.739345 0.387213
0.681147 0.748714 0.388861
0.751492 0.757748 0.390753
0.815579 0.766690 0.392950
0.872740 0.774746 0.394141
0.923064 0.781949 0.394079
0.959075 0.779049 0.403082
0.971527 0.771298 0.387488
0.983154 0.765072 0.374029
0.994171 0.760220 0.365209
1.000000 0.757046 0.364477
1.000000 0.755337 0.364874
1.000000 0.754910 0.366430
1.000000 0.755795 0.370062
1.000000 0.757992 0.376196
1.000000 0.761501 0.385107
1.000000 0.766262 0.397559
1.000000 0.771054 0.417639
0.000000 0.762570 0.427192
0.000000 0.762600 0.426947
0.000000 0.767391 0.433051
0.000000 0.767025 0.430610
0.000000 0.766506 0.427100
0.000000 0.765682 0.421942
0.000000 0.764767 0.415961
0.000000 0.763546 0.408148
0.000000 0.762295 0.399329
0.000000 0.760555 0.391882
0.252903 0.756985 0.402014
0.349676 0.752987 0.413153
0.421210 0.748684 0.425147
0.501457 0.753750 0.429664
0.579126 0.761563 0.432136
0.651026 0.769253 0.434668
0.717525 0.776761 0.436866
0.778744 0.784146 0.439429
0.834867 0.791379 0.442390
0.885618 0.798306 0.444862
0.930632 0.804501 0.446571
0.964874 0.804288 0.454780
0.980285 0.797543 0.446723
0.990997 0.791562 0.433936
1.000000 0.786648 0.423346
1.000000 0.783413 0.421454
1.000000 0.781521 0.422217
1.000000 0.780972 0.424689
1.000000 0.781704 0.429236
1.000000 0.783932 0.437263
1.000000 0.787503 0.448890
1.000000 0.791989 0.462562
0.000000 0.788571 0.464729
0.000000 0.788937 0.465400
0.000000 0.789181 0.464942
0.000000 0.789273 0.463691
0.000000 0.789090 0.461128
0.000000 0.788540 0.457557
0.000000 0.787686 0.452064
0.000000 0.786648 0.445838
0.030915 0.785428 0.438544
0.169650 0.783993 0.429999
0.268803 0.781491 0.431983
0.355657 0.777890 0.441596
0.423316 0.773922 0.452247
0.481514 0.770230 0.463233
0.554345 0.777188 0.466224
0.622370 0.783993 0.469429
0.685634 0.790707 0.472419
0.744533 0.797299 0.475776
0.799252 0.803799 0.479591
0.849393 0.810239 0.483833
0.895048 0.816587 0.487678
0.935882 0.822660 0.491829
0.968688 0.824582 0.499886
0.986175 0.818875 0.499062
0.996185 0.813413 0.486976
1.000000 0.809049 0.477577
1.000000 0.805997 0.474128
1.000000 0.804440 0.476417
1.000000 0.804196 0.480720
1.000000 0.805478 0.488167
1.000000 0.807797 0.498177
1.000000 0.810727 0.509697
0.000000 0.809323 0.498207
0.000000 0.809628 0.498726
0.000000 0.809934 0.498726
0.000000 0.809995 0.497719
0.000000 0.809873 0.495979
0.011994 0.809384 0.492622
0.128115 0.808713 0.488472
0.178256 0.807675 0.482918
0.220432 0.806607 0.476783
0.258640 0.805386 0.470100
0.298070 0.803891 0.463722
0.371954 0.800656 0.472358
0.432837 0.797116 0.481605
0.485817 0.793301 0.491676
0.539605 0.792599 0.500145
0.602380 0.798611 0.503838
0.661769 0.804501 0.507256
0.717433 0.810361 0.511162
0.769528 0.816098 0.515282
0.818082 0.821805 0.519646
0.862638 0.827512 0.524773
0.903441 0.833219 0.529656
0.940429 0.838956 0.534997
0.971740 0.842710 0.543603
0.990448 0.838041 0.549340
0.999786 0.833219 0.539208
1.000000 0.829404 0.531273
1.000000 0.826841 0.527031
1.000000 0.825895 0.531762
1.000000 0.826108 0.538231
1.000000 0.827054 0.546044
1.000000 0.829099 0.556268
0.184756 0.828092 0.531640
0.189181 0.828367 0.532219
0.195529 0.828550 0.532036
0.207095 0.828580 0.531426
0.221012 0.828458 0.529839
0.238285 0.828031 0.527306
0.256596 0.827420 0.523613
0.278691 0.826596 0.519341
0.302037 0.825681 0.514427
0.326787 0.824491 0.508507
0.352056 0.823301 0.502434
0.395697 0.821073 0.503746
0.449226 0.817929 0.512108
0.497169 0.814542 0.521263
0.540703 0.810910 0.531151
0.590906 0.812711 0.537316
0.645533 0.817990 0.541619
0.697597 0.823270 0.545892
0.746578 0.828519 0.550835
0.792844 0.833738 0.556115
0.835752 0.838956 0.561395
0.875425 0.844175 0.567102
0.911650 0.849393 0.573053
0.945068 0.854978 0.579919
0.974792 0.860258 0.588708
0.993927 0.856626 0.601129
1.000000 0.852659 0.593591
1.000000 0.849821 0.588861
1.000000 0.847807 0.586481
1.000000 0.846799 0.589532
1.000000 0.847044 0.596887
1.000000 0.848478 0.606622
0.306889 0.846525 0.568719
0.308324 0.846586 0.568933
0.310826 0.846586 0.568597
0.315190 0.846464 0.567559
0.322301 0.846159 0.566064
0.331243 0.845670 0.563684
0.342931 0.845090 0.560815
0.356390 0.844358 0.557183
0.371893 0.843473 0.552850
0.390143 0.842527 0.548486
0.408820 0.841428 0.543420
0.429175 0.840208 0.538231
0.474342 0.837400 0.545678
0.516228 0.834348 0.553674
0.555138 0.831174 0.562402
0.590936 0.827909 0.571710
0.638148 0.831571 0.576318
0.685267 0.836118 0.580652
0.730343 0.840696 0.585321
0.773190 0.845274 0.590021
0.813657 0.849790 0.595270
0.851316 0.854398 0.600732
0.886351 0.858946 0.606409
0.918517 0.863523 0.612390
0.948638 0.868772 0.620142
0.976837 0.875334 0.629053
0.994537 0.872587 0.643427
1.000000 0.869200 0.641138
1.000000 0.866575 0.637263
1.000000 0.864927 0.636103
1.000000 0.864469 0.639460
1.000000 0.865354 0.649012
0.383459 0.861387 0.601617
0.384283 0.861448 0.601831
0.386053 0.861418 0.601495
0.389349 0.861295 0.600763
0.393927 0.861051 0.599451
0.400702 0.860655 0.597711
0.408484 0.860136 0.595239
0.418677 0.859525 0.592340
0.430488 0.858793 0.589014
0.444068 0.857969 0.585473
0.458869 0.857023 0.581323
0.474739 0.855985 0.577142
0.500877 0.854246 0.577752
0.537194 0.851560 0.584863
0.571588 0.848814 0.592584
0.603754 0.845914 0.600793
0.636622 0.844175 0.608820
0.678981 0.848264 0.613123
0.719966 0.852354 0.617884
0.759426 0.856443 0.622766
0.796963 0.860594 0.627924
0.832456 0.864714 0.633448
0.865721 0.868864 0.639399
0.896666 0.873045 0.645563
0.924926 0.876646 0.649958
0.951843 0.881621 0.658137
0.976745 0.886748 0.667018
0.994415 0.886381 0.679988
1.000000 0.883696 0.683558
1.000000 0.881834 0.682185
1.000000 0.881041 0.683772
1.000000 0.881346 0.688685
0.450874 0.875669 0.636164
0.451972 0.875731 0.636255
0.453346 0.875700 0.636225
0.455543 0.875547 0.635554
0.458564 0.875303 0.634302
0.462562 0.874876 0.632410
0.468116 0.874296 0.630182
0.475135 0.873686 0.627588
0.483742 0.872953 0.624567
0.493690 0.872160 0.621210
0.505058 0.871244 0.617670
0.517388 0.870268 0.613886
0.530968 0.869200 0.610132
0.560235 0.866941 0.615320
0.590021 0.864439 0.622095
0.618494 0.861845 0.628992
0.645991 0.859220 0.636866
0.677272 0.859403 0.643183
0.714351 0.863066 0.647791
0.750240 0.866850 0.652735
0.784909 0.870634 0.658320
0.817960 0.874449 0.663966
0.849119 0.878264 0.669947
0.878202 0.881773 0.674891
0.905211 0.885283 0.680232
0.930571 0.888762 0.685451
0.954681 0.893156 0.693141
0.977264 0.898192 0.702907
0.994385 0.899535 0.715969
1.000000 0.897642 0.724941
1.000000 0.896757 0.726467
1.000000 0.897002 0.731441
0.504692 0.887694 0.666926
0.505241 0.887785 0.667048
0.506401 0.887785 0.666865
0.507988 0.887694 0.666438
0.510826 0.887480 0.665675
0.514366 0.887205 0.664363
0.519219 0.886839 0.662959
0.524987 0.886412 0.660883
0.532311 0.885863 0.658839
0.540673 0.885283 0.656397
0.550072 0.884581 0.653895
0.560327 0.883848 0.650965
0.571618 0.882994 0.648066
0.588861 0.881621 0.648371
0.614313 0.879515 0.654231
0.639277 0.877348 0.660639
0.663569 0.875090 0.667597
0.687007 0.872923 0.675074
0.716854 0.874754 0.680659
0.748531 0.877958 0.685145
0.779324 0.881132 0.689693
0.808957 0.884398 0.694575
0.837278 0.887633 0.699641
0.864286 0.890867 0.704707
0.889738 0.894133 0.710048
0.913664 0.897337 0.715419
0.936126 0.900633 0.721126
0.957671 0.904875 0.729305
0.978088 0.910094 0.740475
0.994415 0.913054 0.754299
1.000000 0.912230 0.768246
1.000000 0.912566 0.773159
0.557183 0.899565 0.699214
0.557824 0.899596 0.699489
0.558404 0.899596 0.699245
0.559838 0.899504 0.698848
0.561822 0.899321 0.698146
0.564843 0.899107 0.697353
0.568536 0.898772 0.696010
0.573358 0.898436 0.694667
0.579156 0.898009 0.693019
0.585809 0.897551 0.691127
0.593713 0.896971 0.689204
0.602350 0.896391 0.687190
0.611780 0.895750 0.685176
0.621149 0.894926 0.682490
0.640955 0.893156 0.686366
0.661860 0.891203 0.691646
0.682673 0.889189 0.697475
0.702876 0.887144 0.703578
0.722621 0.885191 0.710323
0.750393 0.888029 0.714443
0.777737 0.890929 0.718868
0.804349 0.893889 0.723568
0.830014 0.896849 0.728450
0.854765 0.899840 0.733608
0.878172 0.902831 0.738766
0.900481 0.905882 0.744106
0.921660 0.908965 0.749660
0.941588 0.912078 0.755459
0.960815 0.916228 0.764034
0.979217 0.921813 0.776547
0.994659 0.926360 0.791318
1.000000 0.926726 0.808072
0.605097 0.910338 0.730434
0.605463 0.910369 0.730495
0.606073 0.910369 0.730465
0.607263 0.910277 0.730190
0.609033 0.910185 0.729793
0.611536 0.910002 0.729213
0.614893 0.909850 0.728481
0.619287 0.909667 0.727810
0.624537 0.909392 0.726955
0.630518 0.909148 0.725978
0.637507 0.908812 0.725002
0.644862 0.908415 0.723812
0.652949 0.907958 0.722591
0.661341 0.907408 0.721096
0.672877 0.906554 0.721553
0.690761 0.904967 0.726528
0.708522 0.903380 0.731716
0.725917 0.901732 0.737240
0.743130 0.900145 0.743252
0.761837 0.899809 0.748959
0.785306 0.902464 0.753323
0.808408 0.905180 0.757809
0.830777 0.907927 0.762600
0.852537 0.910735 0.767453
0.873503 0.913573 0.772610
0.893645 0.916472 0.777890
0.912963 0.919402 0.783291
0.931182 0.922454 0.789090
0.948577 0.925536 0.795102
0.965332 0.929625 0.803708
0.981476 0.935637 0.817502
0.995727 0.941741 0.832792
0.654108 0.921141 0.763485
0.654292 0.921141 0.763577
0.654566 0.921111 0.763363
0.655268 0.921019 0.763027
0.656489 0.920928 0.762600
0.658442 0.920745 0.762203
0.660853 0.920592 0.761471
0.663996 0.920348 0.760769
0.667842 0.920104 0.759976
0.672267 0.919799 0.759030
0.677394 0.919493 0.758053
0.683192 0.919127 0.757107
0.689693 0.918700 0.756100
0.696468 0.918242 0.755001
