20 Preset/Japan Style/【3】LUT video cho PR-AE-FCPX/LUT VIDEO (2)/Japan Style LUT (19).cube
# Created by Adobe Lightroom plugin Export LUT (1.24.0)
# www.johnrellis.com/lightroom/exportlut.htm
# Preset: 19日系校园（素材江湖）
# Color profile: C:\Program Files (x86)\Common Files\Adobe\Color\Profiles\Recommended\VideoHD.icc
LUT_3D_SIZE 8
DOMAIN_MIN 0.000000 0.000000 0.000000
DOMAIN_MAX 0.903226 0.903226 0.903226
0.013764 0.021424 0.015991
0.129641 0.031952 0.016968
0.406043 0.000000 0.010346
0.696712 0.000000 0.000000
0.900633 0.000000 0.000000
1.000000 0.000000 0.000000
1.000000 0.015473 0.000000
1.000000 0.237339 0.155154
0.000000 0.151522 0.018799
0.110231 0.152224 0.011444
0.400610 0.135256 0.000000
0.678218 0.000000 0.000000
0.883360 0.000000 0.000000
1.000000 0.000000 0.000000
1.000000 0.185794 0.000000
1.000000 0.272526 0.138643
0.000000 0.451514 0.000000
0.000000 0.455238 0.000000
0.331487 0.416083 0.000000
0.646418 0.411353 0.000000
0.870542 0.416785 0.000000
0.986481 0.406531 0.000000
1.000000 0.410773 0.000000
1.000000 0.421241 0.168612
0.000000 0.713436 0.002441
0.000000 0.713130 0.081697
0.362219 0.709621 0.143374
0.611475 0.664668 0.000000
0.803433 0.636072 0.000000
0.956603 0.620325 0.000000
1.000000 0.587762 0.048554
1.000000 0.565240 0.204776
0.000000 0.830594 0.356390
0.154788 0.829770 0.363104
0.413001 0.828855 0.395880
0.589929 0.815671 0.378119
0.733944 0.777157 0.247379
0.859434 0.733150 0.000000
0.983368 0.718135 0.189944
1.000000 0.692226 0.258946
0.397833 0.894530 0.530846
0.431617 0.896361 0.541833
0.512108 0.895354 0.558221
0.623438 0.894347 0.588434
0.704067 0.876982 0.532860
0.806149 0.850340 0.434821
0.914672 0.815183 0.299138
1.000000 0.801389 0.375738
0.550347 0.941741 0.645075
0.561517 0.941894 0.648127
0.597314 0.940887 0.654932
0.659022 0.939635 0.669306
0.722835 0.934966 0.671168
0.782376 0.923003 0.631586
0.862150 0.906493 0.569696
0.965545 0.889494 0.472358
0.648371 0.978088 0.722835
0.653101 0.977905 0.723751
0.673426 0.977264 0.728237
0.711116 0.976135 0.737545
0.751217 0.972045 0.740658
0.796323 0.968566 0.732906
0.848844 0.962890 0.708064
0.916747 0.954223 0.667964
0.045167 0.037171 0.115541
0.128298 0.043244 0.113436
0.375708 0.000000 0.119356
0.655268 0.000000 0.125460
0.873381 0.000000 0.120699
0.993011 0.000000 0.134005
1.000000 0.136141 0.169711
1.000000 0.253391 0.217899
0.000000 0.149050 0.124025
0.123659 0.154665 0.123262
0.384009 0.142397 0.120180
0.656397 0.000000 0.114199
0.867643 0.000000 0.104799
0.985809 0.125917 0.122866
1.000000 0.219730 0.160678
1.000000 0.287083 0.208652
0.000000 0.429419 0.120241
0.000000 0.433906 0.133059
0.339849 0.409613 0.101778
0.640253 0.409888 0.000000
0.853117 0.412573 0.000000
0.968566 0.405127 0.050996
1.000000 0.407172 0.157351
1.000000 0.419837 0.223239
0.000000 0.690120 0.198520
0.000000 0.690700 0.210086
0.361700 0.693141 0.249393
0.587640 0.641016 0.123568
0.778073 0.613519 0.000000
0.935760 0.604517 0.000000
1.000000 0.576226 0.167544
1.000000 0.558251 0.242100
0.000000 0.822934 0.393530
0.187106 0.821683 0.398016
0.415961 0.819913 0.424384
0.585168 0.806394 0.409339
0.722591 0.765743 0.285222
0.848356 0.723476 0.148714
0.974060 0.711788 0.237827
1.000000 0.688380 0.293950
0.404852 0.888334 0.542535
0.429084 0.888243 0.546899
0.509850 0.887694 0.563348
0.621576 0.887694 0.594049
0.702419 0.871702 0.546899
0.802213 0.846159 0.455329
0.909361 0.810941 0.325536
1.000000 0.798062 0.394659
0.549096 0.937560 0.647059
0.556756 0.936919 0.647578
0.592584 0.935943 0.654047
0.655787 0.935180 0.669306
0.722835 0.931914 0.675776
0.780697 0.919707 0.636347
0.858000 0.902007 0.572351
0.959655 0.883574 0.471290
0.645045 0.976043 0.722225
0.651331 0.976135 0.724239
0.671443 0.975463 0.728450
0.709499 0.974487 0.737911
0.759060 0.972717 0.750546
0.800595 0.968688 0.741054
0.849821 0.962341 0.713680
0.916564 0.953582 0.673579
0.000000 0.065217 0.310185
0.131716 0.052979 0.303502
0.354620 0.000000 0.302098
0.635798 0.000000 0.301030
0.854520 0.000000 0.348058
0.976806 0.179934 0.377996
1.000000 0.310460 0.401740
1.000000 0.377111 0.425727
0.000000 0.158907 0.330755
0.134768 0.166262 0.323827
0.362890 0.165957 0.312840
0.634760 0.118105 0.318273
0.847105 0.167300 0.360235
0.967834 0.262211 0.375158
1.000000 0.338201 0.393713
1.000000 0.392065 0.418097
0.000000 0.404517 0.352392
0.000000 0.408240 0.352636
0.375555 0.417395 0.358923
0.646815 0.418280 0.351904
0.841733 0.429847 0.362249
0.953521 0.443519 0.378485
1.000000 0.459602 0.399573
1.000000 0.477455 0.425818
0.000000 0.670375 0.431739
0.000000 0.672145 0.438514
0.395300 0.682216 0.444923
0.603662 0.648768 0.396551
0.791135 0.628901 0.356451
0.928466 0.619715 0.391821
1.000000 0.601343 0.417029
1.000000 0.591180 0.443244
0.263096 0.810117 0.517906
0.322118 0.809873 0.522759
0.474098 0.810239 0.545800
0.622858 0.807431 0.566278
0.728023 0.769772 0.466865
0.849424 0.730709 0.381628
0.967437 0.721706 0.433845
1.000000 0.703792 0.469154
0.481331 0.880247 0.614710
0.498817 0.880552 0.618189
0.559869 0.880552 0.630091
0.650904 0.881224 0.652247
0.721614 0.869200 0.629145
0.802274 0.844053 0.556115
0.903624 0.811551 0.452705
1.000000 0.804166 0.511772
0.592157 0.934630 0.688991
0.598688 0.934173 0.689509
0.627558 0.933165 0.693874
0.681086 0.932494 0.705440
0.745327 0.931121 0.717769
0.793942 0.919432 0.684688
0.862119 0.903014 0.632807
0.956237 0.885130 0.551904
0.666987 0.974334 0.745418
0.670619 0.974029 0.745663
0.689052 0.973419 0.749416
0.726101 0.972930 0.759487
0.772366 0.971435 0.771206
0.813993 0.968261 0.767758
0.858000 0.962371 0.742092
0.919493 0.953887 0.704311
0.000000 0.064179 0.520928
0.097902 0.052033 0.519036
0.364141 0.033417 0.498726
0.586511 0.000000 0.508232
0.809873 0.000000 0.501274
0.944823 0.188602 0.520531
1.000000 0.371862 0.553796
1.000000 0.499245 0.607813
0.000000 0.178286 0.540307
0.142031 0.179965 0.535790
0.381872 0.184970 0.514977
0.594965 0.167605 0.519249
0.813840 0.118807 0.508812
0.939513 0.279271 0.530510
1.000000 0.415595 0.564843
1.000000 0.520867 0.614984
0.000000 0.393408 0.564569
0.000000 0.396857 0.565209
0.383307 0.400793 0.556207
0.594141 0.404486 0.539239
0.806485 0.421668 0.550683
0.916533 0.491554 0.581964
0.990539 0.548516 0.611322
1.000000 0.573510 0.621607
0.000000 0.637415 0.588373
0.000000 0.637232 0.587701
0.333867 0.639063 0.588159
0.616480 0.648341 0.604242
0.783597 0.641810 0.596216
0.889311 0.640070 0.603388
0.970977 0.641993 0.613123
1.000000 0.644892 0.623438
0.337194 0.791287 0.633692
0.390387 0.790127 0.637049
0.536492 0.788632 0.655207
0.660212 0.797696 0.677913
0.739101 0.772763 0.637781
0.846036 0.746548 0.596704
0.952911 0.747768 0.629175
1.000000 0.734615 0.637263
0.585382 0.868070 0.705501
0.598657 0.870329 0.709071
0.617578 0.872801 0.704463
0.690578 0.875608 0.721340
0.759792 0.872953 0.726375
0.811002 0.845640 0.670893
0.897124 0.817746 0.608331
0.993256 0.817655 0.646235
0.636103 0.929015 0.737850
0.642390 0.929290 0.739071
0.669184 0.929564 0.744656
0.716152 0.930205 0.755489
0.775723 0.931060 0.770748
0.816709 0.921416 0.749966
0.869261 0.903990 0.705379
0.949920 0.884154 0.639918
0.700526 0.972656 0.782681
0.704311 0.972534 0.783352
0.720424 0.971984 0.786587
0.751308 0.971221 0.793759
0.792905 0.969970 0.804074
0.835019 0.967803 0.809110
0.870634 0.962280 0.784543
0.924620 0.954528 0.750210
0.132662 0.092622 0.688533
0.232975 0.091676 0.687678
0.420020 0.090852 0.676661
0.594812 0.123323 0.654688
0.768063 0.093782 0.670192
0.905150 0.176394 0.645899
0.996124 0.327123 0.632654
1.000000 0.469306 0.657038
0.176028 0.195621 0.695369
0.257542 0.196597 0.694484
0.431769 0.198398 0.683864
0.599512 0.212314 0.660273
0.769039 0.208652 0.673762
0.902464 0.256718 0.647700
0.990814 0.374090 0.638270
1.000000 0.498085 0.664240
0.000000 0.385473 0.710231
0.226535 0.396277 0.708614
0.428382 0.396490 0.698512
0.603449 0.400244 0.677790
0.756283 0.408576 0.677516
0.884489 0.431495 0.651057
0.966491 0.510430 0.661341
1.000000 0.583185 0.688380
0.000000 0.598505 0.712398
0.095491 0.599268 0.712306
0.393256 0.605432 0.712978
0.606165 0.619074 0.708461
0.737514 0.622766 0.695247
0.853758 0.637263 0.695216
0.933745 0.666957 0.713497
0.999329 0.692714 0.733272
0.143404 0.761532 0.714595
0.246220 0.761227 0.714839
0.436072 0.759121 0.715267
0.612390 0.759060 0.719814
0.744472 0.765194 0.733059
0.841672 0.758602 0.725338
0.924254 0.754086 0.728054
0.995941 0.750607 0.731136
0.506920 0.847684 0.729122
0.526604 0.847562 0.731136
0.591577 0.846067 0.737697
0.683436 0.846677 0.752621
0.764309 0.858061 0.771756
0.814572 0.840208 0.745388
0.893919 0.822751 0.716670
0.984955 0.828000 0.740383
0.648676 0.917662 0.777554
0.655970 0.917235 0.778531
0.687221 0.916655 0.784543
0.726467 0.919707 0.789975
0.784115 0.923400 0.804379
0.835599 0.921111 0.807187
0.873503 0.901213 0.764004
0.945037 0.881651 0.716487
0.729824 0.965576 0.821408
0.731655 0.965637 0.820951
0.738094 0.966094 0.818692
0.762631 0.967376 0.822416
0.804776 0.966857 0.833280
0.852140 0.966217 0.847013
0.882200 0.961028 0.828061
0.927337 0.952422 0.792599
0.340764 0.162692 0.793912
0.378210 0.165255 0.793088
0.490578 0.174624 0.786374
0.628016 0.203708 0.775235
0.748867 0.254917 0.757015
0.878569 0.267277 0.769100
0.964782 0.346502 0.736690
1.000000 0.436042 0.717220
0.343999 0.231846 0.790433
0.378332 0.233005 0.788998
0.487556 0.238773 0.783017
0.622065 0.256718 0.771603
0.741543 0.292393 0.752865
0.871519 0.305638 0.765316
0.958343 0.374823 0.734218
1.000000 0.456611 0.717678
0.352819 0.408881 0.796475
0.385565 0.409277 0.795041
0.490211 0.411994 0.789548
0.617090 0.415961 0.776028
0.734646 0.431769 0.757565
0.857237 0.448676 0.765805
0.943450 0.494759 0.739406
1.000000 0.555138 0.734340
0.318944 0.588891 0.801083
0.358587 0.589441 0.799710
0.483833 0.597223 0.795926
0.624537 0.612757 0.788266
0.732021 0.614496 0.772641
0.832181 0.625116 0.771664
0.921935 0.641810 0.757931
0.995575 0.673548 0.766690
0.370397 0.721736 0.792294
0.401404 0.722499 0.792050
0.499550 0.726223 0.791653
0.620752 0.734432 0.792172
0.732570 0.743191 0.790005
0.813718 0.742458 0.780789
0.901579 0.747921 0.783322
0.974243 0.761685 0.796292
0.447852 0.833005 0.792050
0.470771 0.833494 0.793088
0.536950 0.831815 0.793057
0.629206 0.829984 0.793820
0.730312 0.831205 0.799039
0.825559 0.840696 0.814450
0.904173 0.836484 0.810330
0.973022 0.832456 0.812802
0.596704 0.908537 0.808591
0.607691 0.908904 0.810178
0.644862 0.908659 0.814115
0.707027 0.908934 0.822568
0.783627 0.911223 0.837827
0.850004 0.919768 0.855497
0.883818 0.903105 0.827817
0.950469 0.889189 0.801663
0.689479 0.963867 0.838041
0.694484 0.963500 0.838560
0.718105 0.962676 0.842649
0.762936 0.962036 0.852720
0.814603 0.962005 0.865080
0.859434 0.963287 0.875608
0.899168 0.961456 0.878111
0.932433 0.951568 0.842344
0.456428 0.245487 0.864652
0.478340 0.251194 0.865049
0.547387 0.262608 0.860655
0.647791 0.290166 0.853574
0.750210 0.329137 0.841367
0.840482 0.375738 0.824277
0.946624 0.382666 0.835264
1.000000 0.445502 0.799680
0.448981 0.282689 0.857755
0.471260 0.287694 0.858671
0.539788 0.296422 0.854643
0.638209 0.314977 0.846708
0.740414 0.344701 0.834134
0.829923 0.381659 0.815488
0.935760 0.384344 0.825956
0.998016 0.439155 0.790707
0.456336 0.424750 0.859983
0.474220 0.426062 0.859098
0.537194 0.428595 0.854368
0.631769 0.437537 0.846372
0.730587 0.451423 0.833127
0.820432 0.472877 0.815793
0.926146 0.487434 0.828397
0.989960 0.538170 0.800381
0.457588 0.582757 0.862821
0.483986 0.588617 0.860838
0.548974 0.594965 0.855558
0.634150 0.598138 0.848936
0.725032 0.600336 0.837125
0.810452 0.607630 0.822232
0.905638 0.620478 0.830991
0.974640 0.644282 0.811673
0.449256 0.699702 0.857633
0.462928 0.699092 0.856107
0.523980 0.702022 0.853758
0.620142 0.707149 0.850034
0.718410 0.713436 0.840543
0.796506 0.708461 0.825711
0.878813 0.714809 0.827329
0.961151 0.730404 0.823514
0.483833 0.796994 0.852354
0.498146 0.797513 0.852506
0.549126 0.798734 0.852537
0.626795 0.801450 0.852873
0.713802 0.805539 0.853544
0.805539 0.812985 0.853727
0.875944 0.814328 0.847837
0.953857 0.818814 0.851377
0.528862 0.895109 0.860319
0.541070 0.895445 0.860990
0.580072 0.894255 0.860838
0.645106 0.892851 0.861387
0.721492 0.890929 0.862089
0.805844 0.891783 0.866697
0.890440 0.901274 0.882719
0.955322 0.895506 0.878019
0.624506 0.958434 0.867552
0.632258 0.958434 0.868315
0.665095 0.958740 0.872404
0.715908 0.958007 0.877775
0.780240 0.956939 0.885954
0.852171 0.957031 0.900145
0.911437 0.960845 0.916869
0.938994 0.951476 0.893858
0.533623 0.328008 0.923064
0.546746 0.332189 0.923125
0.590570 0.339971 0.919219
0.664576 0.363836 0.914824
0.749020 0.397284 0.907164
0.831846 0.436774 0.895750
0.910735 0.474281 0.886198
1.000000 0.469764 0.894316
0.527977 0.349767 0.918791
0.541192 0.353918 0.918944
0.585931 0.361913 0.916045
0.659266 0.381018 0.911254
0.743801 0.410224 0.903593
0.826963 0.445594 0.892241
0.905211 0.477607 0.881621
0.997955 0.470771 0.889464
0.522789 0.444953 0.915465
0.534630 0.446784 0.915068
0.577661 0.450355 0.911894
0.652796 0.468818 0.909453
0.735164 0.484901 0.901061
0.817014 0.505089 0.888945
0.894896 0.530144 0.877867
0.987182 0.526421 0.886748
0.521996 0.573175 0.911894
0.534081 0.574792 0.911772
0.574823 0.576440 0.909178
0.644495 0.583825 0.905455
0.724880 0.592340 0.898558
0.805570 0.601587 0.888212
0.881743 0.614099 0.876219
0.972686 0.613031 0.887053
0.480079 0.666804 0.911437
0.495888 0.668727 0.911498
0.543603 0.670192 0.908965
0.637171 0.688380 0.903990
0.711391 0.687221 0.897154
0.789883 0.686580 0.887449
0.866300 0.689784 0.876066
0.955138 0.696193 0.887053
0.473640 0.763272 0.909636
0.482368 0.762509 0.908782
0.521416 0.761654 0.906798
0.592737 0.763760 0.905211
0.683009 0.766598 0.903166
0.783413 0.777768 0.898589
0.864012 0.781125 0.891844
0.945190 0.791318 0.899138
0.521569 0.860807 0.915465
0.529992 0.860685 0.915282
0.564233 0.860441 0.914641
0.625360 0.861479 0.914794
0.700954 0.863676 0.915557
0.783108 0.867582 0.917479
0.865843 0.869841 0.914336
0.931426 0.869444 0.907347
0.550439 0.953094 0.923644
0.556786 0.952819 0.923491
0.586419 0.951995 0.923430
0.642298 0.950530 0.923674
0.711849 0.948211 0.923735
0.788022 0.945403 0.924010
0.867582 0.943511 0.926238
0.941772 0.947814 0.938048
