20 Preset/Japan Style/【3】LUT video cho PR-AE-FCPX/LUT VIDEO (2)/Japan Style LUT (46).cube
# Created by Adobe Lightroom plugin Export LUT (1.24.0)
# www.johnrellis.com/lightroom/exportlut.htm
# Preset: 46日系自然（素材江湖）
# Color profile: C:\Program Files (x86)\Common Files\Adobe\Color\Profiles\Recommended\VideoHD.icc
LUT_3D_SIZE 8
DOMAIN_MIN 0.000000 0.000000 0.000000
DOMAIN_MAX 0.903226 0.903226 0.903226
0.171786 0.191318 0.171176
0.177157 0.191226 0.171054
0.290288 0.186343 0.168368
0.489845 0.166720 0.158480
0.685756 0.117311 0.139925
0.842741 0.000000 0.118563
0.964782 0.000000 0.102296
1.000000 0.000000 0.095216
0.172000 0.197787 0.170443
0.181582 0.200107 0.169863
0.289250 0.207980 0.164889
0.479469 0.205325 0.152926
0.673152 0.180606 0.133944
0.832059 0.126040 0.112459
0.952422 0.000000 0.097292
1.000000 0.000000 0.088899
0.183536 0.294133 0.164736
0.209384 0.289860 0.168612
0.295537 0.306828 0.154360
0.488106 0.322545 0.120882
0.673243 0.308446 0.098116
0.835477 0.284520 0.056611
0.956329 0.246983 0.037232
1.000000 0.202945 0.048493
0.233249 0.464820 0.167819
0.262821 0.460700 0.173465
0.347997 0.462196 0.174807
0.489845 0.488441 0.124971
0.674128 0.479072 0.000000
0.837369 0.437018 0.000000
0.948272 0.396124 0.000000
1.000000 0.358007 0.000000
0.326909 0.618402 0.228672
0.347784 0.615900 0.233524
0.418463 0.608240 0.254124
0.516014 0.617975 0.230381
0.650568 0.628199 0.172152
0.782284 0.590600 0.114107
0.922423 0.544274 0.000000
1.000000 0.487343 0.000000
0.431464 0.727535 0.322698
0.447669 0.729000 0.329320
0.495888 0.724117 0.342809
0.566247 0.720790 0.349859
0.655512 0.726040 0.319738
0.773739 0.729976 0.274510
0.872129 0.686824 0.249485
0.990051 0.639490 0.154330
0.543053 0.810483 0.434516
0.551781 0.810208 0.437659
0.581811 0.806912 0.446113
0.634211 0.801175 0.463966
0.689540 0.801785 0.449866
0.766842 0.804959 0.422980
0.864897 0.805783 0.385901
0.936706 0.763485 0.368872
0.660334 0.875364 0.558740
0.664851 0.874907 0.560174
0.683986 0.873350 0.567285
0.719051 0.870634 0.581903
0.752895 0.864836 0.580896
0.799161 0.868254 0.567498
0.861570 0.871489 0.547662
0.938293 0.871275 0.515282
0.168978 0.191623 0.180545
0.182528 0.190097 0.181003
0.285679 0.176242 0.187259
0.476112 0.137209 0.177279
0.670741 0.026093 0.166323
0.829526 0.000000 0.152895
0.948028 0.000000 0.142428
1.000000 0.000000 0.136172
0.161654 0.204196 0.181308
0.181918 0.203189 0.181430
0.289860 0.199924 0.179843
0.475441 0.186557 0.173495
0.667231 0.154879 0.161898
0.826169 0.088930 0.148348
0.941833 0.000000 0.138491
1.000000 0.000000 0.132082
0.167483 0.303380 0.184848
0.202945 0.299718 0.188815
0.294713 0.309117 0.180545
0.483558 0.312535 0.155306
0.665217 0.298772 0.140169
0.822812 0.274144 0.127718
0.939513 0.238834 0.122866
1.000000 0.198215 0.122988
0.219425 0.463600 0.196933
0.252720 0.460212 0.202090
0.342443 0.457893 0.210575
0.474952 0.477424 0.172641
0.654017 0.464729 0.113710
0.816159 0.423468 0.056733
0.930175 0.388861 0.085725
1.000000 0.354131 0.103670
0.320562 0.617273 0.252628
0.341588 0.614313 0.256199
0.412818 0.605341 0.273503
0.507195 0.610468 0.256565
0.637690 0.618952 0.206729
0.771878 0.584131 0.161776
0.913359 0.539300 0.030945
1.000000 0.485542 0.079652
0.425635 0.723964 0.334478
0.439033 0.722957 0.337896
0.488106 0.718410 0.350774
0.560449 0.714778 0.362066
0.649256 0.721157 0.334722
0.768063 0.726741 0.294835
0.867552 0.684840 0.269932
0.985840 0.637690 0.185794
0.537194 0.807065 0.437629
0.543999 0.805783 0.438605
0.574182 0.802426 0.446601
0.627710 0.797055 0.464759
0.685664 0.798398 0.455787
0.762387 0.801785 0.429786
0.859434 0.802090 0.392126
0.931853 0.760067 0.373358
0.654719 0.873167 0.557305
0.660426 0.873136 0.560052
0.679500 0.871458 0.566796
0.714961 0.868803 0.581231
0.757198 0.866453 0.592370
0.800381 0.868711 0.576135
0.860655 0.871000 0.553887
0.936889 0.870787 0.521843
0.087098 0.196506 0.299992
0.161959 0.186801 0.300572
0.307134 0.167147 0.298009
0.481636 0.120790 0.312108
0.673823 0.000000 0.304295
0.832364 0.000000 0.282139
0.947417 0.000000 0.274022
1.000000 0.000000 0.268650
0.028565 0.235843 0.296422
0.122438 0.209293 0.298100
0.304326 0.194705 0.295964
0.480568 0.168521 0.304112
0.669093 0.110018 0.293736
0.826658 0.056519 0.276127
0.941619 0.012177 0.269963
1.000000 0.000000 0.265019
0.000000 0.337560 0.291112
0.037781 0.335851 0.290898
0.291142 0.326177 0.289067
0.483986 0.315343 0.282719
0.669490 0.299687 0.275853
0.823728 0.280644 0.270726
0.937102 0.260960 0.267155
1.000000 0.240177 0.264012
0.000000 0.494209 0.276585
0.149844 0.492866 0.287663
0.340917 0.481727 0.314061
0.477638 0.491493 0.301457
0.667872 0.470100 0.269688
0.816403 0.432624 0.260166
0.928710 0.406165 0.261936
1.000000 0.378851 0.262577
0.300145 0.631128 0.337896
0.326818 0.628992 0.340856
0.411017 0.621149 0.353948
0.511406 0.618280 0.360266
0.639033 0.628016 0.327337
0.776242 0.593103 0.294438
0.910246 0.545159 0.261601
1.000000 0.501762 0.259495
0.427039 0.729732 0.398474
0.440711 0.728969 0.401282
0.490791 0.724300 0.411231
0.566430 0.715663 0.430732
0.647822 0.721553 0.409796
0.761898 0.727718 0.379736
0.864073 0.690455 0.357641
0.982971 0.644495 0.298985
0.544884 0.810666 0.482429
0.551568 0.809537 0.483314
0.580377 0.805814 0.489082
0.632013 0.800046 0.503349
0.689693 0.798428 0.504234
0.762020 0.802609 0.482582
0.856474 0.804562 0.452949
0.930602 0.766995 0.435584
0.657954 0.874357 0.580804
0.661982 0.873716 0.581567
0.680568 0.872038 0.587335
0.716762 0.869902 0.601648
0.761044 0.865995 0.617884
0.802609 0.869017 0.604547
0.860380 0.871824 0.585321
0.934020 0.872038 0.557214
0.000000 0.209232 0.482002
0.000000 0.187228 0.483742
0.284825 0.158297 0.480171
0.491371 0.088350 0.475074
0.664912 0.000000 0.471656
0.821195 0.000000 0.453285
0.931945 0.021454 0.428962
1.000000 0.210544 0.418708
0.000000 0.257298 0.481056
0.000000 0.224826 0.482216
0.266331 0.191806 0.479866
0.491371 0.150790 0.475410
0.665705 0.098421 0.469337
0.819089 0.085939 0.450721
0.928191 0.173465 0.428809
1.000000 0.255955 0.421332
0.000000 0.404395 0.467079
0.000000 0.394659 0.467292
0.190372 0.329808 0.470466
0.479652 0.312963 0.466072
0.661677 0.314092 0.460731
0.810575 0.324590 0.447730
0.920134 0.355627 0.441169
1.000000 0.374640 0.437232
0.000000 0.529137 0.460395
0.000000 0.527214 0.459602
0.217990 0.520470 0.457984
0.464302 0.506432 0.455512
0.644892 0.494301 0.448432
0.789273 0.481483 0.442542
0.903929 0.468513 0.437354
0.996521 0.453468 0.430610
0.000000 0.656184 0.437507
0.141176 0.654322 0.438483
0.339605 0.648798 0.448096
0.517052 0.635737 0.482582
0.633783 0.640162 0.471412
0.778073 0.610712 0.446937
0.897093 0.571893 0.431037
0.988220 0.548486 0.427131
0.423011 0.745113 0.494453
0.442054 0.745815 0.498939
0.495125 0.740566 0.504753
0.575860 0.732082 0.518578
0.654994 0.728817 0.521416
0.755154 0.734035 0.497810
0.859953 0.703700 0.475929
0.972625 0.661952 0.440467
0.550958 0.816464 0.548425
0.559075 0.815976 0.550134
0.589715 0.813291 0.556237
0.641596 0.808194 0.568017
0.702419 0.801480 0.582757
0.763760 0.805661 0.564691
0.849668 0.807889 0.539940
0.926146 0.776761 0.521569
0.663203 0.878477 0.621637
0.667536 0.878050 0.622614
0.685725 0.876310 0.627161
0.719387 0.873350 0.636988
0.763485 0.868894 0.651423
0.805661 0.869383 0.649134
0.859037 0.872801 0.633295
0.929198 0.874266 0.611139
0.000000 0.228031 0.640589
0.000000 0.193759 0.642023
0.000000 0.170809 0.639216
0.442359 0.104067 0.635096
0.650019 0.000000 0.629297
0.808164 0.000000 0.613458
0.920012 0.038270 0.577264
1.000000 0.211124 0.548852
0.000000 0.273259 0.638880
0.000000 0.244755 0.640681
0.000000 0.202518 0.639185
0.435065 0.162325 0.633967
0.649195 0.091402 0.628717
0.806485 0.065553 0.611658
0.917205 0.175479 0.576410
1.000000 0.256016 0.549798
0.000000 0.424628 0.627070
0.000000 0.410681 0.627863
0.000000 0.340826 0.630060
0.410101 0.317662 0.626947
0.640131 0.305119 0.620630
0.791623 0.311711 0.600580
0.902464 0.340581 0.572869
0.989502 0.374426 0.553002
0.000000 0.566583 0.612909
0.000000 0.565148 0.612390
0.000000 0.558495 0.611353
0.394568 0.504448 0.613977
0.627832 0.493233 0.609186
0.769558 0.497475 0.592645
0.879484 0.505638 0.577722
0.968078 0.516686 0.568597
0.000000 0.673976 0.600183
0.000000 0.673091 0.600122
0.199680 0.668330 0.599054
0.439887 0.659052 0.596979
0.612329 0.644251 0.592981
0.745815 0.633326 0.586358
0.859953 0.621668 0.579858
0.955047 0.608148 0.571862
0.239445 0.753109 0.564050
0.276646 0.752316 0.564965
0.382361 0.747829 0.567681
0.514916 0.740688 0.578332
0.646235 0.729213 0.606012
0.737606 0.734920 0.601282
0.851865 0.714534 0.584100
0.953338 0.681483 0.565118
0.480171 0.825406 0.589105
0.490700 0.824430 0.590265
0.546105 0.820493 0.603754
0.627253 0.814542 0.624903
0.697322 0.807187 0.638239
0.759274 0.804868 0.639857
0.836973 0.808377 0.621057
0.918730 0.783597 0.601465
0.643885 0.881163 0.657130
0.648615 0.880674 0.657832
0.668574 0.878782 0.661280
0.708156 0.876585 0.671717
0.755947 0.872099 0.683894
0.805447 0.867857 0.696101
0.853544 0.871855 0.682826
0.920104 0.873960 0.664057
0.000000 0.248631 0.753170
0.000000 0.221530 0.753872
0.000000 0.191867 0.751858
0.311131 0.157870 0.748531
0.573968 0.080690 0.745510
0.763577 0.000000 0.739528
0.908446 0.049561 0.723629
0.996765 0.217655 0.681514
0.000000 0.284855 0.747890
0.000000 0.263645 0.748165
0.000000 0.219150 0.747463
0.300084 0.197391 0.744717
0.568536 0.161959 0.740871
0.759274 0.133822 0.735256
0.903105 0.168612 0.719509
0.992309 0.254368 0.679255
0.000000 0.420508 0.741634
0.000000 0.409125 0.742000
0.000000 0.355200 0.743832
0.277531 0.330083 0.740414
0.560876 0.322576 0.735897
0.754208 0.319982 0.730343
0.892882 0.337804 0.713893
0.981353 0.376532 0.678889
0.000000 0.582452 0.728786
0.000000 0.579644 0.728206
0.136904 0.569543 0.727443
0.319860 0.511833 0.732509
0.562585 0.501274 0.729763
0.748989 0.497993 0.724269
0.874784 0.505638 0.707820
0.962646 0.519860 0.682918
0.000000 0.685023 0.712673
0.000000 0.684504 0.712367
0.182193 0.682948 0.711238
0.417609 0.680629 0.709743
0.567590 0.642725 0.711269
0.733944 0.633448 0.707454
0.846860 0.633478 0.695644
0.937346 0.634791 0.683040
0.000000 0.770718 0.700374
0.148226 0.770748 0.701106
0.309453 0.767483 0.700374
0.460426 0.761440 0.699123
0.598474 0.752346 0.697047
0.726040 0.742275 0.696132
0.832578 0.735286 0.692958
0.923949 0.725978 0.687617
0.385809 0.836332 0.675196
0.404028 0.836118 0.676173
0.463996 0.833707 0.677790
0.555413 0.829129 0.681758
0.658625 0.822507 0.690913
0.759396 0.811978 0.711971
0.827451 0.813504 0.704738
0.917113 0.796017 0.688685
0.564569 0.890898 0.683772
0.571191 0.890288 0.684321
0.600977 0.888426 0.688624
0.655024 0.885557 0.698939
0.738186 0.878965 0.723873
0.798367 0.872709 0.736446
0.849088 0.872099 0.739132
0.910796 0.875456 0.724758
0.000000 0.265995 0.829984
0.000000 0.247288 0.830777
0.000000 0.211521 0.830289
0.000000 0.194858 0.828611
0.453071 0.170596 0.825467
0.675196 0.140627 0.820981
0.842161 0.147616 0.815366
0.978637 0.194461 0.806119
0.000000 0.295720 0.826139
0.000000 0.280430 0.827115
0.000000 0.235142 0.827237
0.000000 0.223972 0.825132
0.449012 0.208560 0.821805
0.671260 0.189975 0.816922
0.837583 0.193606 0.810910
0.972595 0.225345 0.800961
0.000000 0.412451 0.821500
0.000000 0.403632 0.821775
0.000000 0.361303 0.822507
0.000000 0.335576 0.821317
0.446906 0.332952 0.817563
0.668788 0.329473 0.813046
0.835569 0.336980 0.808530
0.966247 0.358282 0.798550
0.000000 0.579614 0.810178
0.000000 0.574029 0.810025
0.000000 0.551141 0.810575
0.167758 0.502739 0.812924
0.464759 0.489937 0.810605
0.671168 0.488777 0.807065
0.831540 0.491585 0.803281
0.950652 0.500145 0.791409
0.000000 0.693904 0.796445
0.000000 0.692073 0.795865
0.197696 0.686397 0.795041
0.415167 0.677089 0.794644
0.505272 0.631312 0.797604
0.672908 0.621454 0.795224
0.822416 0.618494 0.792111
0.930175 0.623713 0.781949
0.000000 0.770840 0.786770
0.147341 0.770718 0.786740
0.296757 0.769833 0.786404
0.440833 0.768338 0.785763
0.575616 0.765713 0.784665
0.687770 0.737209 0.787320
0.819516 0.730831 0.785489
0.911650 0.729824 0.776486
0.310002 0.845914 0.780880
0.331456 0.845731 0.781155
0.399817 0.843656 0.780880
0.499733 0.839841 0.780606
0.608881 0.833707 0.779629
0.715846 0.825834 0.778408
0.814969 0.816831 0.777066
0.901762 0.810727 0.774166
0.462409 0.899290 0.757290
0.473945 0.898985 0.757595
0.519371 0.897826 0.759640
0.590112 0.894804 0.762295
0.673945 0.890257 0.766445
0.760708 0.884703 0.774380
0.845029 0.876463 0.793057
0.901610 0.878599 0.787839
0.000000 0.281010 0.892210
0.000000 0.267216 0.892668
0.000000 0.226566 0.892485
0.000000 0.217197 0.891508
0.301640 0.205997 0.889586
0.561334 0.195193 0.886687
0.758572 0.189609 0.883268
0.906676 0.213565 0.878813
0.000000 0.305516 0.890105
0.000000 0.293980 0.890562
0.000000 0.246769 0.891081
0.000000 0.240879 0.889891
0.299199 0.234073 0.887938
0.560296 0.228061 0.885008
0.756863 0.223911 0.881315
0.904601 0.241855 0.876707
0.000000 0.403845 0.885557
0.000000 0.396429 0.885832
0.000000 0.362219 0.886473
0.000000 0.335210 0.887205
0.303716 0.335302 0.884825
0.561456 0.334966 0.881468
0.755489 0.335760 0.877928
0.901946 0.346593 0.873564
0.000000 0.551995 0.876249
0.000000 0.547845 0.876616
0.000000 0.528649 0.877348
0.000000 0.487709 0.879454
0.340826 0.473426 0.878569
0.572808 0.473518 0.875822
0.756344 0.473426 0.872709
0.898466 0.477272 0.869047
0.000000 0.681819 0.864927
0.000000 0.681544 0.865080
0.215915 0.678492 0.864652
0.332830 0.657374 0.866056
0.418280 0.612573 0.868772
0.591455 0.601434 0.867277
0.757900 0.598749 0.864927
0.893980 0.599817 0.862455
0.000000 0.772000 0.856229
0.000000 0.771664 0.855924
0.231235 0.771115 0.855009
0.400488 0.766110 0.854643
0.550317 0.756558 0.855131
0.630243 0.720882 0.859403
0.768032 0.715755 0.859251
0.892668 0.714931 0.858030
0.273625 0.840574 0.852262
0.294072 0.840330 0.852110
0.364263 0.839384 0.851652
0.466529 0.838071 0.851316
0.578515 0.836301 0.850889
0.688746 0.834379 0.850828
0.781704 0.811368 0.854398
0.891203 0.805631 0.853147
0.414740 0.908934 0.850431
0.425299 0.908507 0.850309
0.468452 0.907073 0.850217
0.541283 0.904509 0.850431
0.627985 0.900511 0.850492
0.718318 0.895201 0.850340
0.807065 0.888914 0.850187
0.890837 0.881559 0.849577
