20 Preset/Japan Style/【3】LUT video cho PR-AE-FCPX/LUT VIDEO (2)/Japan Style LUT (7).cube
# Created by Adobe Lightroom plugin Export LUT (1.24.0)
# www.johnrellis.com/lightroom/exportlut.htm
# Preset: 07日系雪景（素材江湖）
# Color profile: C:\Program Files (x86)\Common Files\Adobe\Color\Profiles\Recommended\VideoHD.icc
LUT_3D_SIZE 8
DOMAIN_MIN 0.000000 0.000000 0.000000
DOMAIN_MAX 0.903226 0.903226 0.903226
0.108064 0.094575 0.063081
0.156008 0.094667 0.058839
0.282872 0.111971 0.028412
0.429206 0.146914 0.000000
0.603540 0.204227 0.000000
0.782101 0.276921 0.000000
0.917327 0.335332 0.000000
1.000000 0.373388 0.000000
0.102907 0.138521 0.040711
0.158663 0.141512 0.033875
0.287114 0.157656 0.000000
0.436194 0.187686 0.000000
0.610895 0.240757 0.000000
0.786404 0.305730 0.000000
0.919036 0.356359 0.000000
1.000000 0.388830 0.000000
0.107912 0.238010 0.000000
0.159487 0.239536 0.000000
0.272313 0.246433 0.000000
0.420935 0.276951 0.000000
0.621210 0.340429 0.000000
0.799557 0.395300 0.000000
0.924529 0.428931 0.000000
1.000000 0.446967 0.000000
0.036896 0.363745 0.000000
0.140932 0.364874 0.000000
0.269474 0.369909 0.000000
0.400122 0.379126 0.000000
0.556451 0.416083 0.000000
0.758816 0.486488 0.000000
0.916411 0.525750 0.000000
1.000000 0.535668 0.000000
0.000000 0.507317 0.000000
0.000000 0.507988 0.000000
0.235477 0.511009 0.000000
0.389136 0.517296 0.000000
0.529839 0.527092 0.000000
0.676478 0.551843 0.000000
0.857847 0.607660 0.000000
0.981262 0.621668 0.000000
0.000000 0.652522 0.000000
0.000000 0.652857 0.000000
0.119203 0.654292 0.000000
0.351720 0.657130 0.000000
0.509850 0.661402 0.000000
0.651423 0.666957 0.000000
0.784115 0.675074 0.000000
0.929595 0.701259 0.000000
0.000000 0.780117 0.000000
0.000000 0.780087 0.000000
0.000000 0.779934 0.000000
0.284581 0.779690 0.000000
0.470008 0.779171 0.000000
0.619989 0.778378 0.000000
0.753780 0.777462 0.000000
0.876555 0.777035 0.000000
0.000000 0.872374 0.000000
0.000000 0.872190 0.000000
0.000000 0.871397 0.000000
0.165713 0.869810 0.000000
0.410437 0.867460 0.000000
0.570672 0.864561 0.000000
0.708064 0.860075 0.000000
0.831296 0.854704 0.000000
0.116823 0.092378 0.122866
0.169223 0.093477 0.119783
0.282231 0.101930 0.101595
0.423529 0.140139 0.062257
0.597589 0.195712 0.000000
0.777096 0.267796 0.000000
0.915373 0.331029 0.000000
1.000000 0.377996 0.000000
0.109499 0.142489 0.118105
0.166018 0.142947 0.114534
0.282811 0.152071 0.101930
0.429114 0.177829 0.042145
0.603418 0.227085 0.000000
0.780484 0.292241 0.000000
0.916747 0.349065 0.000000
1.000000 0.391394 0.000000
0.110414 0.241459 0.099611
0.157321 0.243229 0.093416
0.276341 0.248936 0.061799
0.428229 0.276493 0.000000
0.625360 0.332860 0.000000
0.793301 0.380224 0.000000
0.921721 0.417029 0.000000
1.000000 0.442908 0.000000
0.000000 0.366796 0.000000
0.118776 0.367834 0.000000
0.265507 0.372442 0.000000
0.401740 0.380865 0.000000
0.562493 0.417548 0.000000
0.763760 0.484108 0.000000
0.919799 0.521630 0.000000
1.000000 0.529442 0.000000
0.000000 0.509117 0.000000
0.000000 0.509789 0.000000
0.223423 0.512718 0.000000
0.386267 0.518578 0.000000
0.530602 0.527977 0.000000
0.680507 0.553307 0.000000
0.860960 0.606561 0.000000
0.983307 0.619471 0.000000
0.000000 0.653437 0.000000
0.000000 0.653803 0.000000
0.048890 0.655146 0.000000
0.345586 0.657832 0.000000
0.507927 0.662013 0.000000
0.651637 0.667262 0.000000
0.785367 0.674830 0.000000
0.931365 0.700465 0.000000
0.000000 0.780484 0.000000
0.000000 0.780453 0.000000
0.000000 0.780301 0.000000
0.275181 0.779934 0.000000
0.466743 0.779355 0.000000
0.618738 0.778500 0.000000
0.753841 0.777462 0.000000
0.877256 0.776730 0.000000
0.000000 0.872526 0.000000
0.000000 0.872343 0.000000
0.000000 0.871550 0.000000
0.143771 0.869963 0.000000
0.405737 0.867613 0.000000
0.568505 0.864622 0.000000
0.707057 0.860136 0.000000
0.831296 0.854673 0.000000
0.143313 0.091951 0.253452
0.188113 0.090578 0.251316
0.299840 0.094148 0.241184
0.421454 0.111482 0.217838
0.565637 0.120668 0.188663
0.741512 0.184695 0.148867
0.896025 0.269352 0.000000
1.000000 0.334234 0.000000
0.132265 0.140047 0.249912
0.180240 0.140536 0.247654
0.294682 0.144289 0.238315
0.419409 0.155703 0.217624
0.564019 0.163333 0.187167
0.744717 0.221134 0.149294
0.898070 0.292760 0.000000
1.000000 0.350561 0.000000
0.113497 0.248783 0.240452
0.162325 0.248173 0.238468
0.278721 0.246769 0.229282
0.413214 0.256474 0.210605
0.583642 0.282628 0.187045
0.761715 0.327642 0.132418
0.905364 0.375250 0.000000
1.000000 0.411444 0.000000
0.000000 0.370581 0.225193
0.109560 0.371771 0.222843
0.247593 0.376135 0.204105
0.404669 0.383032 0.177859
0.582086 0.419867 0.143557
0.779324 0.475898 0.036622
0.914549 0.499641 0.000000
1.000000 0.508873 0.000000
0.000000 0.512749 0.178531
0.000000 0.513664 0.169009
0.159976 0.516777 0.142824
0.372564 0.521935 0.103822
0.532158 0.530114 0.000000
0.695247 0.558099 0.000000
0.871244 0.603418 0.000000
0.989960 0.613611 0.000000
0.000000 0.656245 0.000000
0.000000 0.656550 0.000000
0.000000 0.657710 0.000000
0.317754 0.659968 0.000000
0.499580 0.663478 0.000000
0.651881 0.667933 0.000000
0.791928 0.675532 0.000000
0.937743 0.697963 0.000000
0.000000 0.781521 0.000000
0.000000 0.781491 0.000000
0.000000 0.781216 0.000000
0.231571 0.780758 0.000000
0.452277 0.779934 0.000000
0.613519 0.778775 0.000000
0.753841 0.777371 0.000000
0.879789 0.775143 0.000000
0.000000 0.872953 0.000000
0.000000 0.872801 0.000000
0.000000 0.871977 0.000000
0.000000 0.870359 0.000000
0.387030 0.867948 0.000000
0.559991 0.864897 0.000000
0.703487 0.860105 0.000000
0.831327 0.854459 0.000000
0.014405 0.079408 0.477913
0.145541 0.078401 0.475715
0.287083 0.072358 0.466468
0.429847 0.076539 0.449866
0.567956 0.099641 0.418006
0.717037 0.113161 0.385565
0.851530 0.159976 0.327245
0.979431 0.272587 0.286503
0.000000 0.137148 0.473854
0.130037 0.136568 0.471809
0.280125 0.135164 0.463935
0.426398 0.135836 0.448371
0.566583 0.147433 0.417151
0.715358 0.159854 0.384161
0.849729 0.195804 0.326421
0.979828 0.295964 0.289555
0.000000 0.244816 0.467140
0.000000 0.242161 0.465492
0.247227 0.238712 0.458350
0.413245 0.243229 0.442756
0.560998 0.255192 0.412879
0.707576 0.270481 0.378180
0.851530 0.307378 0.335882
0.981903 0.373571 0.298253
0.000000 0.379431 0.455207
0.000000 0.378820 0.453407
0.196170 0.376623 0.445594
0.381781 0.374151 0.428412
0.544579 0.386999 0.401068
0.708980 0.411688 0.381811
0.868193 0.454810 0.360357
0.984405 0.485451 0.309026
0.000000 0.512993 0.433356
0.000000 0.513848 0.431952
0.044923 0.517021 0.425422
0.336492 0.521965 0.403723
0.521752 0.528557 0.370642
0.709010 0.564660 0.366400
0.874815 0.607752 0.379675
0.981994 0.612970 0.327733
0.000000 0.655329 0.407660
0.000000 0.655756 0.404028
0.000000 0.657740 0.387396
0.242710 0.660609 0.355200
0.476326 0.663416 0.326757
0.646357 0.667079 0.283604
0.803220 0.679988 0.224399
0.943328 0.697261 0.187106
0.000000 0.781247 0.319005
0.000000 0.781308 0.314672
0.000000 0.781308 0.300053
0.052674 0.780667 0.278233
0.422339 0.779690 0.240055
0.601343 0.778256 0.172122
0.751522 0.776486 0.000000
0.882414 0.771328 0.000000
0.000000 0.872953 0.128237
0.000000 0.872770 0.120882
0.000000 0.871946 0.066194
0.000000 0.870359 0.000000
0.350591 0.867979 0.000000
0.543938 0.864775 0.000000
0.696895 0.859739 0.000000
0.831449 0.853849 0.000000
0.000000 0.046326 0.704280
0.000000 0.043854 0.702937
0.212894 0.029725 0.697536
0.396124 0.005280 0.687190
0.554681 0.000000 0.668879
0.701930 0.042237 0.637842
0.836454 0.147463 0.595117
0.947967 0.240330 0.540368
0.000000 0.129274 0.701411
0.000000 0.128176 0.700252
0.200381 0.124239 0.695552
0.390906 0.118318 0.684932
0.551873 0.115877 0.667353
0.700374 0.131624 0.636713
0.834958 0.184970 0.594171
0.946319 0.263523 0.540002
0.000000 0.232914 0.694942
0.000000 0.232914 0.693721
0.126101 0.232456 0.688594
0.369085 0.233036 0.678065
0.540246 0.237919 0.661372
0.693843 0.251072 0.632441
0.828397 0.286595 0.589990
0.939208 0.341222 0.538811
0.000000 0.370703 0.682368
0.000000 0.369238 0.681239
0.000000 0.363806 0.676356
0.321782 0.361151 0.666255
0.517205 0.370062 0.650050
0.680079 0.384619 0.623529
0.814420 0.412970 0.581659
0.924559 0.451759 0.537499
0.000000 0.513909 0.663752
0.000000 0.513603 0.662684
0.000000 0.512566 0.658076
0.259617 0.511772 0.648310
0.478950 0.513573 0.631312
0.653590 0.528283 0.603876
0.799710 0.554284 0.579767
0.930877 0.594354 0.569299
0.000000 0.652369 0.640009
0.000000 0.652888 0.639094
0.000000 0.653742 0.633204
0.122499 0.653864 0.617975
0.435737 0.658625 0.597955
0.624323 0.661463 0.568597
0.800320 0.691493 0.569757
0.925414 0.718654 0.587304
0.000000 0.777493 0.583246
0.000000 0.777646 0.580529
0.000000 0.778073 0.568597
0.000000 0.777859 0.550896
0.383825 0.775937 0.537194
0.579950 0.775021 0.504662
0.740230 0.773617 0.458015
0.882597 0.771328 0.392737
0.000000 0.872190 0.457649
0.000000 0.871916 0.457221
0.000000 0.870573 0.457679
0.000000 0.867735 0.463233
0.307347 0.865843 0.433845
0.521599 0.862821 0.387579
0.684504 0.858091 0.313848
0.828336 0.852262 0.183139
0.000000 0.073732 0.836484
0.000000 0.073060 0.835721
0.045838 0.069184 0.832609
0.338567 0.067109 0.826658
0.502983 0.076204 0.817685
0.655024 0.103822 0.805173
0.803677 0.142153 0.788754
0.925963 0.232181 0.748653
0.000000 0.132265 0.834592
0.000000 0.131899 0.833890
0.000000 0.130953 0.831022
0.334051 0.130220 0.825406
0.500389 0.133883 0.816648
0.653285 0.149416 0.804196
0.802365 0.178164 0.788022
0.924620 0.254643 0.747738
0.000000 0.231266 0.829282
0.000000 0.231388 0.828702
0.000000 0.231968 0.826108
0.313939 0.234195 0.820890
0.489662 0.240452 0.812436
0.645899 0.254307 0.800259
0.797543 0.275059 0.784878
0.918669 0.330724 0.743679
0.000000 0.350134 0.821317
0.000000 0.349615 0.820737
0.000000 0.349798 0.818082
0.272526 0.354528 0.813016
0.469398 0.363165 0.804715
0.632471 0.377325 0.792599
0.788693 0.395361 0.778439
0.906554 0.439216 0.735012
0.000000 0.486885 0.809171
0.000000 0.486793 0.808591
0.000000 0.486793 0.806271
0.202487 0.488685 0.801358
0.440864 0.496437 0.793118
0.614740 0.509697 0.780514
0.778531 0.524224 0.765866
0.889097 0.556329 0.719234
0.000000 0.621607 0.792538
0.000000 0.621759 0.791989
0.000000 0.622858 0.789670
0.000000 0.625849 0.784756
0.396338 0.632746 0.776059
0.592248 0.644160 0.761135
0.751431 0.657832 0.735317
0.869993 0.686366 0.719783
0.000000 0.764126 0.777157
0.000000 0.764675 0.776394
0.000000 0.767117 0.773098
0.000000 0.771756 0.765499
0.300816 0.770687 0.744930
0.560418 0.767514 0.722713
0.722133 0.766751 0.700954
0.866148 0.785672 0.702419
0.000000 0.867155 0.696651
0.000000 0.867124 0.694697
0.000000 0.866697 0.686458
0.000000 0.865568 0.670436
0.210208 0.862058 0.658015
0.534539 0.855253 0.664637
0.678676 0.852384 0.628168
0.815976 0.848447 0.575982
0.000000 0.118135 0.909911
0.000000 0.120394 0.910582
0.000000 0.123964 0.908812
0.290349 0.133211 0.906218
0.451606 0.148043 0.901518
0.594598 0.172091 0.894408
0.731289 0.206546 0.884459
0.865476 0.247318 0.872221
0.000000 0.147219 0.904204
0.000000 0.149264 0.905303
0.000000 0.151369 0.903716
0.282109 0.156283 0.900511
0.444343 0.165743 0.895323
0.586603 0.182315 0.887144
0.722072 0.208255 0.876097
0.855650 0.240574 0.863005
0.000000 0.234806 0.904509
0.000000 0.235264 0.904204
0.000000 0.236393 0.901823
0.269841 0.240421 0.898344
0.437171 0.247379 0.892271
0.582208 0.261723 0.884825
0.721859 0.288151 0.876677
0.859586 0.322057 0.867033
0.000000 0.344549 0.902159
0.000000 0.344488 0.901457
0.000000 0.345068 0.898802
0.251255 0.350896 0.895933
0.429480 0.358648 0.890288
0.579370 0.374456 0.883848
0.720790 0.399390 0.875822
0.858610 0.425147 0.865690
0.000000 0.456641 0.890654
0.000000 0.455299 0.889281
0.000000 0.455360 0.886839
0.190433 0.461372 0.884367
0.403906 0.468238 0.879423
0.562341 0.480537 0.872129
0.707881 0.501183 0.863157
0.854459 0.530510 0.857420
0.000000 0.573632 0.877409
0.000000 0.574304 0.877317
0.000000 0.576196 0.876371
0.000000 0.581598 0.874449
0.379095 0.594476 0.870237
0.562921 0.616999 0.864530
0.707637 0.634882 0.855192
0.850675 0.648615 0.845121
0.000000 0.699336 0.865965
0.000000 0.700649 0.866239
0.000000 0.702754 0.864775
0.000000 0.708339 0.862119
0.329137 0.716884 0.856535
0.537896 0.730434 0.848020
0.699428 0.747616 0.836210
0.824460 0.759152 0.815671
0.000000 0.838773 0.856718
0.000000 0.839628 0.856504
0.000000 0.843839 0.856138
0.000000 0.849271 0.852171
0.000000 0.853910 0.841855
0.478614 0.849271 0.818936
0.683894 0.842924 0.803494
0.804288 0.841459 0.786221
0.000000 0.149874 0.948272
0.000000 0.151675 0.948425
0.000000 0.154086 0.946685
0.246738 0.163882 0.945220
0.400061 0.178744 0.942321
0.531914 0.200656 0.937896
0.658350 0.234958 0.932769
0.781155 0.277531 0.925689
0.000000 0.167056 0.945708
0.000000 0.168917 0.945953
0.000000 0.171542 0.944793
0.240909 0.178775 0.943023
0.396338 0.191592 0.940185
0.528710 0.211246 0.935821
0.654963 0.240452 0.930297
0.777890 0.279210 0.923095
0.000000 0.229740 0.943359
0.000000 0.230594 0.943236
0.000000 0.232120 0.941863
0.232151 0.241215 0.941436
0.391119 0.250340 0.938018
0.524407 0.264256 0.933104
0.652033 0.289494 0.927855
0.776120 0.324468 0.921050
0.000000 0.314733 0.940063
0.000000 0.315923 0.940093
0.000000 0.317876 0.938994
0.204227 0.324498 0.937591
0.380682 0.334234 0.934813
0.519554 0.348302 0.930510
0.650172 0.371862 0.925505
0.776181 0.405493 0.919097
0.000000 0.415198 0.934722
0.000000 0.416632 0.934874
0.000000 0.415198 0.933989
0.118807 0.418006 0.932586
0.355200 0.425940 0.929442
0.506462 0.439155 0.925139
0.644800 0.463752 0.920409
0.776486 0.503166 0.914916
0.000000 0.518456 0.927550
0.000000 0.517784 0.927031
0.000000 0.517205 0.925658
0.000000 0.521447 0.924193
0.330327 0.538109 0.922362
0.506157 0.560021 0.920134
0.654810 0.593011 0.916258
0.782773 0.626947 0.909789
0.000000 0.635401 0.921141
0.000000 0.635767 0.920867
0.000000 0.637659 0.919951
0.000000 0.644648 0.918639
0.302007 0.659663 0.916320
0.519097 0.688380 0.912749
0.666865 0.713100 0.905852
0.782376 0.727108 0.897002
0.000000 0.758968 0.910857
0.000000 0.759335 0.910491
0.000000 0.761807 0.909545
0.000000 0.768338 0.907958
0.214939 0.778622 0.904845
0.480446 0.792874 0.899657
0.654871 0.809934 0.892271
0.787228 0.825162 0.882322
