20 Preset/Japan Style/【3】LUT video cho PR-AE-FCPX/LUT VIDEO (2)/Japan Style LUT (39).cube
# Created by Adobe Lightroom plugin Export LUT (1.24.0)
# www.johnrellis.com/lightroom/exportlut.htm
# Preset: 39日系清新（素材江湖）
# Color profile: C:\Program Files (x86)\Common Files\Adobe\Color\Profiles\Recommended\VideoHD.icc
LUT_3D_SIZE 32
DOMAIN_MIN 0.0 0.0 0.0
DOMAIN_MAX 1.0 1.0 1.0
0.116060 0.110658 0.106447
0.116915 0.110872 0.106386
0.120058 0.111116 0.106630
0.127718 0.111666 0.107027
0.139864 0.113039 0.107179
0.156985 0.114199 0.107851
0.176974 0.116365 0.108461
0.200168 0.118318 0.108522
0.225925 0.120638 0.108156
0.253483 0.123445 0.107729
0.283238 0.126284 0.106813
0.314794 0.129915 0.105592
0.348119 0.133944 0.104005
0.383062 0.138735 0.101472
0.419165 0.144015 0.098756
0.456245 0.149569 0.095644
0.494362 0.155673 0.092042
0.532982 0.162692 0.086915
0.572381 0.169772 0.076112
0.612268 0.177249 0.059876
0.652461 0.185183 0.042084
0.692012 0.193271 0.022461
0.731258 0.201053 0.002441
0.770932 0.209873 0.000000
0.811246 0.218936 0.000000
0.851621 0.228244 0.000000
0.890288 0.237217 0.000000
0.927398 0.246403 0.000000
0.962646 0.255253 0.000000
0.996216 0.264775 0.000000
1.000000 0.273930 0.000000
1.000000 0.282902 0.000000
0.116365 0.111543 0.106996
0.116976 0.111482 0.106630
0.120455 0.112001 0.106844
0.127901 0.112886 0.107179
0.140200 0.113893 0.107393
0.157107 0.115358 0.108003
0.177249 0.117220 0.108339
0.200320 0.119417 0.108309
0.225803 0.121798 0.108309
0.253544 0.124788 0.107485
0.283330 0.127291 0.106630
0.314733 0.130953 0.105409
0.347936 0.134981 0.103822
0.382879 0.139712 0.101656
0.418891 0.145235 0.098878
0.456062 0.150912 0.095735
0.494118 0.156985 0.091707
0.532738 0.163760 0.086458
0.572076 0.171176 0.076204
0.611872 0.178164 0.060456
0.652064 0.186069 0.042664
0.691463 0.193942 0.022278
0.730404 0.202304 0.001862
0.769955 0.211063 0.000000
0.810269 0.219852 0.000000
0.850523 0.228885 0.000000
0.889311 0.237705 0.000000
0.926390 0.247044 0.000000
0.961730 0.256016 0.000000
0.995453 0.264866 0.000000
1.000000 0.274266 0.000000
1.000000 0.283177 0.000000
0.117189 0.114504 0.108553
0.117433 0.114748 0.108858
0.120027 0.115358 0.108370
0.128084 0.117067 0.107912
0.141665 0.118410 0.108003
0.158297 0.120089 0.108217
0.178439 0.122103 0.108522
0.201480 0.124422 0.108461
0.226963 0.126894 0.108064
0.254551 0.129458 0.107637
0.284184 0.132601 0.106630
0.315496 0.136049 0.105074
0.348638 0.140322 0.103365
0.383398 0.144839 0.101198
0.419348 0.150515 0.098665
0.456458 0.155917 0.095521
0.494453 0.162142 0.091371
0.532982 0.168826 0.085786
0.572381 0.175753 0.075288
0.611994 0.183200 0.058961
0.652247 0.190768 0.040009
0.691463 0.198642 0.021759
0.730312 0.206821 0.000244
0.769772 0.215122 0.000000
0.809903 0.223606 0.000000
0.850187 0.232547 0.000000
0.888884 0.241337 0.000000
0.926024 0.250462 0.000000
0.961364 0.259678 0.000000
0.995056 0.268406 0.000000
1.000000 0.276982 0.000000
1.000000 0.286198 0.000000
0.119997 0.120760 0.112367
0.119997 0.120760 0.112367
0.120974 0.121523 0.112245
0.126619 0.123629 0.111147
0.141634 0.127138 0.110201
0.160189 0.129702 0.109224
0.181125 0.131563 0.109102
0.203677 0.133913 0.108705
0.229313 0.136507 0.108217
0.256779 0.139254 0.107332
0.286229 0.142275 0.106264
0.317052 0.146334 0.104891
0.350347 0.150484 0.103059
0.384985 0.155184 0.100740
0.420661 0.160006 0.097902
0.457527 0.166110 0.094820
0.495338 0.171695 0.090700
0.533715 0.178561 0.084230
0.573022 0.185153 0.073823
0.612512 0.192599 0.055909
0.652369 0.199741 0.038300
0.691432 0.207218 0.020081
0.730037 0.214847 0.000000
0.769436 0.223026 0.000000
0.809659 0.231510 0.000000
0.849882 0.240116 0.000000
0.888731 0.248966 0.000000
0.925902 0.257511 0.000000
0.961273 0.266087 0.000000
0.994934 0.274784 0.000000
1.000000 0.283177 0.000000
1.000000 0.292088 0.000000
0.122011 0.131258 0.117403
0.122499 0.131197 0.117403
0.123445 0.131106 0.117403
0.126192 0.133333 0.116365
0.137240 0.136507 0.114687
0.158480 0.141543 0.112551
0.181094 0.145205 0.110719
0.207462 0.148135 0.109010
0.232792 0.150729 0.108095
0.259892 0.153689 0.107424
0.288884 0.156924 0.106233
0.320012 0.160861 0.104341
0.352758 0.164767 0.102815
0.387243 0.169741 0.099886
0.422919 0.174746 0.097108
0.459297 0.180575 0.094331
0.497017 0.186435 0.089784
0.535332 0.192538 0.082704
0.574304 0.199435 0.070527
0.613733 0.206271 0.052461
0.653559 0.213260 0.034241
0.692195 0.220554 0.014649
0.730648 0.227726 0.000000
0.769955 0.235416 0.000000
0.810117 0.243442 0.000000
0.850248 0.251804 0.000000
0.888884 0.260044 0.000000
0.925994 0.268223 0.000000
0.961242 0.276677 0.000000
0.994812 0.284855 0.000000
1.000000 0.292882 0.000000
1.000000 0.301061 0.000000
0.124880 0.143252 0.123079
0.124880 0.143252 0.123079
0.125826 0.143160 0.123049
0.127016 0.144167 0.122316
0.134371 0.147616 0.121004
0.150057 0.152438 0.118563
0.178195 0.159518 0.115053
0.204746 0.164553 0.112245
0.233890 0.168887 0.109712
0.264286 0.172793 0.107118
0.293217 0.175937 0.105806
0.323888 0.179751 0.104097
0.356512 0.183780 0.101961
0.390661 0.188632 0.099184
0.425849 0.193881 0.096040
0.462501 0.199039 0.093050
0.499672 0.205173 0.088106
0.537804 0.211307 0.079988
0.576593 0.217350 0.065064
0.615869 0.223880 0.048615
0.655360 0.231022 0.029358
0.693812 0.237675 0.009613
0.736721 0.245945 0.000000
0.776211 0.253391 0.000000
0.816495 0.260899 0.000000
0.856260 0.268864 0.000000
0.894408 0.276463 0.000000
0.930846 0.284489 0.000000
0.965576 0.292027 0.000000
0.998566 0.299535 0.000000
1.000000 0.307195 0.000000
1.000000 0.314702 0.000000
0.126528 0.157626 0.129610
0.126986 0.157565 0.129610
0.127687 0.157321 0.129366
0.129305 0.157015 0.129152
0.132937 0.160189 0.127443
0.144045 0.165164 0.125460
0.165652 0.171511 0.122713
0.201389 0.180758 0.117891
0.230564 0.187442 0.113283
0.262211 0.193088 0.110109
0.296941 0.198398 0.106203
0.329931 0.202670 0.103517
0.362341 0.207004 0.101320
0.396124 0.211704 0.098238
0.431128 0.216678 0.095216
0.467079 0.221988 0.090944
0.504326 0.227451 0.085664
0.542229 0.233371 0.076143
0.580621 0.239506 0.060060
0.619837 0.245853 0.041382
0.659236 0.252537 0.021302
0.697780 0.258946 0.001556
0.736629 0.265568 0.000000
0.776333 0.272679 0.000000
0.816678 0.280247 0.000000
0.856443 0.287633 0.000000
0.894316 0.294865 0.000000
0.930694 0.301915 0.000000
0.965179 0.309056 0.000000
0.998016 0.315953 0.000000
1.000000 0.322942 0.000000
1.000000 0.329900 0.000000
0.127749 0.173587 0.136751
0.128206 0.173556 0.136751
0.128908 0.173342 0.136538
0.130648 0.172885 0.136355
0.132326 0.173800 0.134707
0.140627 0.178958 0.133028
0.156771 0.185245 0.130556
0.183505 0.192752 0.126986
0.223880 0.203952 0.121126
0.257359 0.212131 0.115145
0.291661 0.219242 0.110719
0.327977 0.225803 0.106538
0.366705 0.232486 0.100740
0.400977 0.237125 0.097536
0.435584 0.241978 0.094179
0.471382 0.247105 0.089876
0.508110 0.252445 0.082582
0.545769 0.258122 0.069215
0.583948 0.263920 0.053498
0.622889 0.270115 0.033753
0.661433 0.276219 0.014923
0.699611 0.282231 0.000000
0.738125 0.288304 0.000000
0.777554 0.295201 0.000000
0.817777 0.302342 0.000000
0.857145 0.309300 0.000000
0.894835 0.316136 0.000000
0.930785 0.322698 0.000000
0.965087 0.329076 0.000000
0.997772 0.335546 0.000000
1.000000 0.341680 0.000000
1.000000 0.348211 0.000000
0.129519 0.191379 0.145357
0.129580 0.191379 0.145144
0.130709 0.191165 0.144930
0.132204 0.190616 0.144564
0.134554 0.189761 0.143832
0.138979 0.193759 0.141573
0.151003 0.199710 0.139559
0.172061 0.207523 0.136538
0.202976 0.216037 0.132418
0.245945 0.227512 0.125704
0.285771 0.238773 0.117617
0.322057 0.247288 0.110872
0.360204 0.255222 0.106325
0.400366 0.262882 0.100160
0.441016 0.269841 0.092714
0.476509 0.274693 0.088472
0.512963 0.279881 0.079500
0.550134 0.285405 0.064424
0.588067 0.290990 0.045319
0.626368 0.296757 0.026307
0.664485 0.302403 0.005921
0.702022 0.308263 0.000000
0.740352 0.313848 0.000000
0.779599 0.320012 0.000000
0.819547 0.326787 0.000000
0.858427 0.333562 0.000000
0.895689 0.339757 0.000000
0.931365 0.345647 0.000000
0.965393 0.351781 0.000000
0.997742 0.357336 0.000000
1.000000 0.363073 0.000000
1.000000 0.368566 0.000000
0.131044 0.210361 0.154604
0.131289 0.210239 0.154452
0.132113 0.209934 0.154299
0.134066 0.209445 0.153750
0.136538 0.208499 0.153109
0.138064 0.209110 0.150881
0.147585 0.215061 0.148989
0.164187 0.222354 0.146487
0.189639 0.230869 0.143221
0.223911 0.240604 0.138216
0.268925 0.252384 0.130953
0.314885 0.266789 0.120790
0.353429 0.276616 0.111604
0.392859 0.285618 0.106966
0.434211 0.294408 0.099458
0.477638 0.302708 0.090150
0.518090 0.309392 0.074617
0.555169 0.314641 0.057588
0.592615 0.319890 0.038880
0.630518 0.325383 0.017823
0.668025 0.330571 0.000000
0.705165 0.335729 0.000000
0.742855 0.341192 0.000000
0.781827 0.347112 0.000000
0.821195 0.353582 0.000000
0.859464 0.359594 0.000000
0.896330 0.365209 0.000000
0.931670 0.370855 0.000000
0.965484 0.376013 0.000000
0.997650 0.381231 0.000000
1.000000 0.386145 0.000000
1.000000 0.391119 0.000000
0.132906 0.229923 0.164614
0.132906 0.229923 0.164614
0.133913 0.229526 0.164309
0.135744 0.228885 0.163882
0.138369 0.227939 0.163119
0.141665 0.226505 0.161868
0.145480 0.230686 0.159152
0.159213 0.237675 0.157076
0.179355 0.246006 0.154147
0.208682 0.255680 0.150057
0.246433 0.266545 0.144778
0.292638 0.278508 0.137301
0.344854 0.296117 0.125643
0.385107 0.307042 0.113924
0.426001 0.316960 0.106386
0.468299 0.326543 0.098817
0.512444 0.335698 0.088045
0.557946 0.344488 0.057588
0.597681 0.350683 0.031006
0.634852 0.355749 0.008545
0.671687 0.360388 0.000000
0.708614 0.365057 0.000000
0.746273 0.370428 0.000000
0.784634 0.375952 0.000000
0.823758 0.381842 0.000000
0.861418 0.387518 0.000000
0.897795 0.392828 0.000000
0.932708 0.397498 0.000000
0.966094 0.402350 0.000000
0.997925 0.406806 0.000000
1.000000 0.411383 0.000000
1.000000 0.415503 0.000000
0.134615 0.249821 0.175143
0.134615 0.249821 0.175143
0.135683 0.249485 0.174685
0.137392 0.248692 0.174166
0.139773 0.247776 0.173312
0.143709 0.246464 0.172519
0.145144 0.246433 0.169375
0.155520 0.253208 0.167605
0.172610 0.261265 0.165438
0.196933 0.270726 0.162356
0.229587 0.281407 0.157717
0.269688 0.293370 0.152132
0.319371 0.307683 0.144350
0.377264 0.327520 0.131075
0.418738 0.339574 0.117983
0.461738 0.350774 0.106172
0.505211 0.361120 0.097810
0.550347 0.371160 0.082856
0.596643 0.380774 0.044068
0.643030 0.389441 0.000000
0.679622 0.393774 0.000000
0.716274 0.398047 0.000000
0.753567 0.402838 0.000000
0.791806 0.408179 0.000000
0.829862 0.413550 0.000000
0.866697 0.418341 0.000000
0.902159 0.422766 0.000000
0.936156 0.427039 0.000000
0.968780 0.430976 0.000000
0.999847 0.434852 0.000000
1.000000 0.438361 0.000000
1.000000 0.441993 0.000000
0.136416 0.270420 0.186252
0.136416 0.270420 0.186252
0.137545 0.270024 0.186007
0.139559 0.269413 0.185367
0.141726 0.268223 0.184512
0.145602 0.266667 0.183230
0.149752 0.264836 0.181857
0.153414 0.268864 0.178592
0.167300 0.276768 0.176730
0.187716 0.285832 0.174105
0.216007 0.296422 0.170748
0.251469 0.308385 0.166140
0.294285 0.321538 0.160128
0.344762 0.335729 0.151553
0.407630 0.357763 0.136629
0.450233 0.370672 0.122103
0.494423 0.382696 0.105196
0.538720 0.393805 0.095399
0.584344 0.404456 0.075196
0.630304 0.414099 0.033661
0.676112 0.422797 0.000000
0.719844 0.430060 0.000000
0.756954 0.434668 0.000000
0.794949 0.439582 0.000000
0.832273 0.444312 0.000000
0.868498 0.448859 0.000000
0.903471 0.452735 0.000000
0.937011 0.456397 0.000000
0.969207 0.459846 0.000000
0.999969 0.463203 0.000000
1.000000 0.466072 0.000000
1.000000 0.469154 0.000000
0.138033 0.290684 0.197269
0.138033 0.290532 0.197024
0.138827 0.290349 0.196902
0.140230 0.289464 0.196231
0.143038 0.288304 0.195163
0.146365 0.286748 0.194034
0.150607 0.284672 0.192416
0.153628 0.283726 0.189761
0.162783 0.291417 0.187289
0.179995 0.300237 0.185153
0.204288 0.310399 0.182467
0.235019 0.322026 0.179019
0.273228 0.334874 0.174136
0.317967 0.349004 0.167697
0.370062 0.364111 0.158877
0.436957 0.388830 0.141970
0.481575 0.401953 0.127077
0.526390 0.414710 0.107118
0.571954 0.426551 0.093263
0.617365 0.437354 0.069429
0.662837 0.447089 0.025452
0.709163 0.456550 0.000000
0.756435 0.465705 0.000000
0.798703 0.472206 0.000000
0.835233 0.476539 0.000000
0.870848 0.480476 0.000000
0.905211 0.483833 0.000000
0.938201 0.487068 0.000000
0.969818 0.489754 0.000000
1.000000 0.492439 0.000000
1.000000 0.494820 0.000000
1.000000 0.497230 0.000000
0.138888 0.310582 0.208072
0.138521 0.310460 0.207706
0.139437 0.310185 0.207614
0.140841 0.309392 0.207004
0.143771 0.308263 0.206027
0.147158 0.306462 0.204654
0.151217 0.304509 0.203037
0.156405 0.301915 0.201266
0.159426 0.305760 0.197452
0.173800 0.314336 0.195743
0.194461 0.324163 0.193881
0.221500 0.335363 0.190921
0.255131 0.347967 0.187137
0.295384 0.361761 0.182193
0.342290 0.376715 0.175509
0.395666 0.392706 0.166384
0.463020 0.417243 0.149386
0.512810 0.433356 0.132692
0.558495 0.446723 0.110994
0.604364 0.459022 0.090517
0.649653 0.470039 0.061982
0.695918 0.480690 0.014618
0.743252 0.491096 0.000000
0.790921 0.500908 0.000000
0.836637 0.508965 0.000000
0.873320 0.512993 0.000000
0.907042 0.515801 0.000000
0.939483 0.518334 0.000000
0.970642 0.520562 0.000000
1.000000 0.522637 0.000000
1.000000 0.524529 0.000000
1.000000 0.526299 0.000000
0.138308 0.330449 0.218753
0.138857 0.330236 0.218540
0.139651 0.329931 0.218235
0.141054 0.329198 0.217655
0.143648 0.327977 0.216678
0.147097 0.326482 0.215518
0.151705 0.324224 0.213718
0.156527 0.321721 0.211948
0.160098 0.319921 0.208988
0.168399 0.328283 0.206210
0.186038 0.337804 0.204440
0.209995 0.348486 0.202335
0.239811 0.360601 0.199405
0.275914 0.374090 0.195285
0.318029 0.388556 0.190005
0.366400 0.404242 0.183200
0.421210 0.421271 0.173800
0.488075 0.445289 0.157351
0.543908 0.464607 0.138186
0.589868 0.478523 0.115877
0.636194 0.491249 0.087404
0.682612 0.503319 0.053864
0.730129 0.515129 0.006195
0.778042 0.526329 0.000000
0.824308 0.535637 0.000000
0.868254 0.543084 0.000000
0.909087 0.548669 0.000000
0.940978 0.550439 0.000000
0.971527 0.552117 0.000000
1.000000 0.553521 0.000000
1.000000 0.554803 0.000000
1.000000 0.555932 0.000000
0.138064 0.350042 0.229252
0.138094 0.349706 0.229099
0.138857 0.349432 0.228794
0.140627 0.348638 0.228183
0.143099 0.347539 0.227237
0.146151 0.346075 0.226047
0.150790 0.343999 0.224399
0.155673 0.341253 0.222385
0.161593 0.338140 0.220157
0.163302 0.341650 0.215763
0.178836 0.350866 0.214511
0.199466 0.361212 0.212955
0.226017 0.373022 0.210788
0.258488 0.385840 0.207828
0.296849 0.400153 0.203616
0.340887 0.415564 0.198276
0.390478 0.432105 0.191135
0.446418 0.449775 0.181582
0.513115 0.473518 0.165560
0.575189 0.496162 0.144991
0.621393 0.510796 0.123018
0.669154 0.524620 0.091554
0.717006 0.537926 0.047059
0.765011 0.550561 0.000000
0.811887 0.561273 0.000000
0.856260 0.569909 0.000000
0.898253 0.576623 0.000000
0.937713 0.581506 0.000000
0.972229 0.584344 0.000000
1.000000 0.585077 0.000000
1.000000 0.585748 0.000000
1.000000 0.586236 0.000000
0.136751 0.369360 0.239811
0.136965 0.369299 0.239719
0.137850 0.369970 0.239963
0.139467 0.369421 0.239536
0.142092 0.368231 0.238621
0.145815 0.366613 0.237339
0.150057 0.364477 0.235508
0.154910 0.361822 0.233555
0.160769 0.358740 0.231327
0.165560 0.355779 0.228092
0.172183 0.364874 0.224918
0.190463 0.374914 0.223819
0.214664 0.386206 0.221958
0.244053 0.398810 0.219608
0.278691 0.412634 0.216587
0.318853 0.427588 0.212314
0.364660 0.443915 0.206821
0.416114 0.461311 0.199374
0.472786 0.479805 0.190005
0.539422 0.503166 0.174868
0.607874 0.529320 0.153170
0.655146 0.544976 0.130373
0.703883 0.559991 0.098634
0.753048 0.574212 0.041779
0.799863 0.586114 0.003388
0.844511 0.595880 0.000000
0.886839 0.603632 0.000000
0.926696 0.609491 0.000000
0.964019 0.613642 0.000000
0.998718 0.616358 0.000000
1.000000 0.617060 0.000000
1.000000 0.617029 0.000000
0.134859 0.389410 0.250675
0.135439 0.389349 0.250675
0.135958 0.389227 0.250401
0.137331 0.388556 0.249851
0.140444 0.387549 0.249058
0.144045 0.385992 0.247745
0.148226 0.383795 0.245975
0.153384 0.381384 0.244114
0.159152 0.378058 0.241703
0.165225 0.374456 0.238987
0.165866 0.377630 0.234287
0.182162 0.387366 0.233249
0.203555 0.398291 0.232090
0.229984 0.410468 0.230411
0.261692 0.423987 0.228000
0.298741 0.438666 0.224949
0.341009 0.454719 0.220676
0.388403 0.471931 0.215152
0.441382 0.490425 0.207919
0.499580 0.509941 0.198428
0.565148 0.532341 0.184390
0.640681 0.562676 0.161227
0.689204 0.579553 0.138705
0.738766 0.595422 0.108003
0.787045 0.609094 0.048432
0.832181 0.620203 0.023987
0.874968 0.629175 0.006653
0.915282 0.636103 0.000000
0.953124 0.641260 0.000000
0.988434 0.644770 0.016602
1.000000 0.646937 0.045533
1.000000 0.647852 0.087221
0.131777 0.409461 0.261448
0.131838 0.409461 0.261357
0.132723 0.409339 0.261173
0.134401 0.408637 0.260563
0.137270 0.407660 0.259922
0.140993 0.406104 0.258549
0.145327 0.404273 0.257115
0.150576 0.401465 0.254917
0.156649 0.398474 0.252537
0.162661 0.394842 0.249851
0.169833 0.390753 0.246891
0.174075 0.400641 0.242954
0.193240 0.411353 0.242161
0.217502 0.423224 0.241001
0.246921 0.436439 0.239200
0.281010 0.450904 0.236912
0.320195 0.466743 0.233799
0.364294 0.483680 0.229313
0.413581 0.502007 0.223636
0.467903 0.521324 0.216556
0.527092 0.541222 0.206943
0.592126 0.562951 0.194308
0.673060 0.597803 0.169162
0.724331 0.615290 0.148409
0.772976 0.630823 0.122560
0.819577 0.643488 0.089174
0.863127 0.653712 0.076600
0.903899 0.661830 0.081209
0.942290 0.667964 0.091768
0.978119 0.672419 0.102358
1.000000 0.675349 0.117189
1.000000 0.676997 0.134371
0.126040 0.430701 0.272740
0.126345 0.430762 0.272740
0.126986 0.430518 0.272435
0.129458 0.429908 0.271916
0.131746 0.428992 0.271153
0.135866 0.427375 0.269871
0.140749 0.425452 0.268315
0.146334 0.423011 0.266392
0.152438 0.419867 0.263859
0.158999 0.416388 0.261265
0.166049 0.412177 0.258122
0.165194 0.414862 0.252445
0.183169 0.425208 0.252079
0.205509 0.436927 0.251133
0.232975 0.449928 0.250034
0.264988 0.464240 0.248356
0.301640 0.479866 0.245853
0.343053 0.496803 0.242832
0.389471 0.515038 0.238590
0.440650 0.534173 0.233005
0.496101 0.553979 0.226108
0.556695 0.574823 0.217227
0.621881 0.596307 0.205295
0.705898 0.633692 0.180270
0.760098 0.652094 0.162539
0.807126 0.666621 0.141939
0.852018 0.678309 0.121431
0.893858 0.687556 0.114076
0.932708 0.694728 0.125795
0.968933 0.700160 0.138735
1.000000 0.703883 0.153780
1.000000 0.706264 0.171267
0.116976 0.453925 0.284764
0.117586 0.454017 0.284825
0.118135 0.453712 0.284581
0.120516 0.453101 0.284123
0.124056 0.452033 0.283268
0.128267 0.450599 0.281987
0.133272 0.448463 0.280339
0.139376 0.445991 0.278325
0.146151 0.442969 0.275944
0.153475 0.439307 0.273075
0.161227 0.435401 0.270146
0.168856 0.430640 0.266606
0.171939 0.440711 0.262211
0.193210 0.452247 0.261814
0.219242 0.465034 0.260990
0.249577 0.479255 0.259892
0.284459 0.494636 0.258305
0.323552 0.511528 0.255802
0.367651 0.529381 0.252567
0.415900 0.548150 0.248539
0.468910 0.567895 0.243198
0.526024 0.588525 0.236332
0.587793 0.609888 0.227634
0.653468 0.631800 0.216678
0.736019 0.667536 0.194980
0.793942 0.687373 0.180423
0.839170 0.700862 0.166232
0.881926 0.711574 0.154238
0.922179 0.719814 0.148898
0.958953 0.726223 0.164736
0.992889 0.730922 0.182376
1.000000 0.734157 0.202121
0.102480 0.478431 0.297429
0.102998 0.478431 0.297520
0.104341 0.478035 0.297124
0.106630 0.477577 0.296757
0.110994 0.476539 0.295964
0.115938 0.474922 0.294499
0.121981 0.472999 0.292943
0.129335 0.470466 0.290929
0.137118 0.467414 0.288457
0.145632 0.463966 0.285771
0.153597 0.459968 0.282567
0.162295 0.455207 0.278935
0.161135 0.457191 0.273136
0.179782 0.468757 0.272343
0.204807 0.481422 0.272038
0.234012 0.495613 0.271244
0.267613 0.511009 0.270237
0.305394 0.527642 0.268467
0.347662 0.545159 0.266361
0.393927 0.563745 0.263279
0.444495 0.583490 0.259281
0.498970 0.604028 0.254246
0.557977 0.625483 0.247898
0.620508 0.647303 0.239750
0.685664 0.668147 0.229953
0.765011 0.700710 0.213535
0.826413 0.722011 0.203342
0.869627 0.734432 0.195438
0.910552 0.744198 0.190524
0.948791 0.751553 0.190494
0.983490 0.757198 0.207950
1.000000 0.761318 0.230198
0.063905 0.505699 0.311376
0.063905 0.505699 0.311376
0.070649 0.505486 0.311131
0.078828 0.504662 0.310430
0.086549 0.503502 0.309514
0.094881 0.502037 0.308202
0.103334 0.499977 0.306584
0.112001 0.497475 0.304540
0.121675 0.494484 0.302159
0.131960 0.490944 0.299443
0.142061 0.486915 0.296147
0.152041 0.482155 0.292393
0.161807 0.476905 0.288518
0.163149 0.487098 0.283421
0.188144 0.499733 0.283299
0.217075 0.513695 0.282872
0.250553 0.528923 0.282231
0.287480 0.545159 0.281132
0.328557 0.562432 0.279881
0.373419 0.581018 0.277836
0.421942 0.600641 0.274937
0.474678 0.621180 0.271244
0.530999 0.642420 0.266606
0.590936 0.663966 0.260807
0.653346 0.684718 0.254307
0.717769 0.704555 0.247318
0.793637 0.733883 0.236606
0.858091 0.756374 0.231632
0.899443 0.767697 0.229648
0.938109 0.776547 0.232090
0.974090 0.783078 0.239139
1.000000 0.788052 0.257877
0.000000 0.534905 0.326116
0.000000 0.534905 0.326055
0.000000 0.534783 0.325933
0.000000 0.534173 0.325383
0.000000 0.533074 0.324376
0.018402 0.531609 0.323186
0.043732 0.529808 0.321660
0.077607 0.527306 0.319554
0.095674 0.524498 0.317144
0.109834 0.520989 0.314122
0.122957 0.516960 0.310826
0.136233 0.512566 0.307347
0.148226 0.507317 0.303319
0.148959 0.508507 0.297337
0.167483 0.521386 0.295750
0.198245 0.535149 0.295750
0.232578 0.550042 0.295689
0.270054 0.566094 0.295293
0.310521 0.583459 0.294377
0.354742 0.601892 0.293095
0.402564 0.621454 0.291264
0.453681 0.641932 0.288975
0.508171 0.663050 0.285832
0.565942 0.683803 0.282200
0.625818 0.703944 0.278355
0.687373 0.723262 0.274174
0.750088 0.741451 0.269902
0.822141 0.767422 0.265232
0.889586 0.790951 0.267430
0.928618 0.801297 0.272313
0.964874 0.809262 0.282139
0.997436 0.814450 0.295109
0.000000 0.567834 0.343297
0.000000 0.567864 0.343267
0.000000 0.567620 0.342962
0.000000 0.566949 0.342321
0.000000 0.566003 0.341588
0.000000 0.564599 0.340276
0.000000 0.562799 0.338567
0.000000 0.560571 0.336645
0.009125 0.557763 0.333989
0.055421 0.554528 0.331334
0.092775 0.550683 0.327916
0.111604 0.546410 0.324254
0.127169 0.541558 0.320165
0.141573 0.536126 0.315709
0.140169 0.546380 0.309728
0.175662 0.559930 0.310155
0.212528 0.574792 0.310460
0.251408 0.590906 0.310460
0.292912 0.608240 0.310369
0.337102 0.626642 0.309819
0.384588 0.646143 0.308904
0.435309 0.666499 0.307652
0.488563 0.686702 0.306249
0.544579 0.706600 0.304570
0.602167 0.725856 0.303197
0.661311 0.744350 0.301610
0.721614 0.761929 0.300633
0.782315 0.778286 0.299535
0.850340 0.800870 0.300725
0.918517 0.825803 0.309850
0.955077 0.833402 0.322271
0.987549 0.839414 0.336828
0.000000 0.605676 0.363470
0.000000 0.605554 0.363256
0.000000 0.605341 0.363134
0.000000 0.604761 0.362371
0.000000 0.604028 0.361700
0.000000 0.602747 0.360510
0.000000 0.601129 0.358862
0.000000 0.599084 0.356970
0.000000 0.596735 0.354711
0.000000 0.593866 0.351873
0.000000 0.590478 0.348760
0.046113 0.586664 0.345251
0.094392 0.582177 0.341161
0.116426 0.577173 0.336706
0.119661 0.577905 0.330510
0.144656 0.592126 0.328222
0.188907 0.607050 0.329107
0.231846 0.623255 0.329717
0.276097 0.640681 0.330236
0.321996 0.659236 0.330571
0.370428 0.678370 0.330694
0.421363 0.697627 0.331090
0.474281 0.716701 0.331548
0.529015 0.735439 0.332128
0.585077 0.753567 0.333043
0.642420 0.770993 0.334295
0.700343 0.787472 0.336156
0.758358 0.802792 0.338231
0.815946 0.816526 0.340764
0.878141 0.834470 0.346227
0.944610 0.859007 0.360601
0.978851 0.864256 0.381689
0.000000 0.651881 0.389166
0.000000 0.651698 0.388891
0.000000 0.651453 0.388739
0.000000 0.650996 0.388190
0.000000 0.650172 0.387366
0.000000 0.648920 0.386145
0.000000 0.647425 0.384527
0.000000 0.645472 0.382574
0.000000 0.643214 0.380163
0.000000 0.640558 0.377478
0.000000 0.637415 0.374334
0.000000 0.633753 0.370642
0.000000 0.629664 0.366644
0.054170 0.625025 0.362249
