20 Preset/Japan Style/【3】LUT video cho PR-AE-FCPX/LUT VIDEO (2)/Japan Style LUT (9).cube
# Created by Adobe Lightroom plugin Export LUT (1.24.0)
# www.johnrellis.com/lightroom/exportlut.htm
# Preset: 09日系清新（素材江湖）
# Color profile: C:\Program Files (x86)\Common Files\Adobe\Color\Profiles\Recommended\VideoHD.icc
LUT_3D_SIZE 5
DOMAIN_MIN 0.000000 0.000000 0.000000
DOMAIN_MAX 0.903226 0.903226 0.903226
0.091341 0.095827 0.110750
0.208347 0.078340 0.104585
0.698421 0.000000 0.089052
1.000000 0.000000 0.120882
1.000000 0.388464 0.270634
0.000000 0.276280 0.127321
0.263798 0.316258 0.091798
0.774319 0.359503 0.000000
1.000000 0.384558 0.076204
1.000000 0.491493 0.284123
0.000000 0.707851 0.361364
0.000000 0.700984 0.317693
0.731075 0.737972 0.360296
0.992523 0.735653 0.326696
1.000000 0.735836 0.368444
0.442847 0.869200 0.627893
0.475196 0.867308 0.618891
0.624598 0.855924 0.627131
0.874144 0.877134 0.669581
1.000000 0.889006 0.714076
0.770504 0.945190 0.843107
0.776913 0.944976 0.842588
0.798154 0.943328 0.839017
0.865934 0.943450 0.864469
0.951659 0.960845 0.892363
0.063081 0.096925 0.143709
0.164096 0.063844 0.156558
0.654322 0.000000 0.232120
0.984192 0.000000 0.250523
1.000000 0.364965 0.347021
0.000000 0.241917 0.231296
0.268956 0.273411 0.250797
0.748165 0.285130 0.232212
0.988373 0.341100 0.256016
1.000000 0.469398 0.359045
0.000000 0.701411 0.446418
0.194034 0.698421 0.434699
0.724849 0.723384 0.442542
0.979492 0.724880 0.407111
1.000000 0.724788 0.437446
0.501122 0.866636 0.666743
0.527306 0.864927 0.657832
0.642420 0.855283 0.652522
0.873716 0.874876 0.694636
1.000000 0.887694 0.732265
0.777829 0.944640 0.850828
0.783810 0.944366 0.850034
0.808194 0.943999 0.849393
0.868803 0.943450 0.870634
0.952850 0.961456 0.897734
0.000000 0.105684 0.414313
0.000000 0.062928 0.448493
0.667994 0.000000 0.501305
0.958160 0.000000 0.539574
1.000000 0.372137 0.593774
0.000000 0.120394 0.493843
0.000000 0.085725 0.528923
0.748440 0.000000 0.567590
0.939635 0.321752 0.570947
1.000000 0.406317 0.567468
0.000000 0.666590 0.627131
0.000000 0.682765 0.637354
0.745907 0.698268 0.684077
0.939391 0.687739 0.621698
1.000000 0.677150 0.616388
0.384680 0.866117 0.714168
0.513115 0.862364 0.726131
0.717159 0.854917 0.751736
0.875059 0.868132 0.773861
0.996582 0.880430 0.782895
0.747585 0.945800 0.855955
0.775723 0.944488 0.863523
0.826841 0.942779 0.873716
0.873136 0.942260 0.883055
0.954253 0.960388 0.909087
0.000000 0.122560 0.730831
0.000000 0.114656 0.735988
0.514031 0.000000 0.804715
0.984314 0.000000 0.793729
1.000000 0.310338 0.756558
0.000000 0.092927 0.758999
0.000000 0.000000 0.774197
0.574456 0.000000 0.823819
0.993164 0.000000 0.806149
1.000000 0.431128 0.765805
0.000000 0.420691 0.773800
0.000000 0.417334 0.777371
0.490578 0.431617 0.828153
0.940734 0.598779 0.824430
1.000000 0.665187 0.803738
0.000000 0.854887 0.827329
0.000000 0.854337 0.828641
0.612421 0.854032 0.839261
0.887785 0.858854 0.869902
0.980560 0.848020 0.839658
0.544244 0.955871 0.859556
0.602350 0.953613 0.863890
0.759762 0.947112 0.882750
0.889677 0.944579 0.911894
0.958434 0.959686 0.930571
0.000000 0.154086 0.930755
0.000000 0.154086 0.930755
0.000000 0.000000 0.940398
0.846952 0.000000 0.959472
1.000000 0.000000 0.935515
0.000000 0.154269 0.931640
0.000000 0.154482 0.931975
0.000000 0.000000 0.942046
0.859556 0.000000 0.959686
1.000000 0.000000 0.934051
0.000000 0.158267 0.945098
0.000000 0.128420 0.945159
0.000000 0.000000 0.950744
0.837705 0.000000 0.959930
1.000000 0.000000 0.931090
0.000000 0.647974 0.921386
0.000000 0.636591 0.920409
0.000000 0.591424 0.920195
0.693294 0.593256 0.936248
0.995361 0.782132 0.929625
0.000000 0.965637 0.930632
0.000000 0.963439 0.930602
0.000000 0.950713 0.930694
0.787839 0.938628 0.935668
0.962341 0.950774 0.958862
