20 Preset/Japan Style/【3】LUT video cho PR-AE-FCPX/LUT VIDEO (2)/Japan Style LUT (3).cube
# Created by Adobe Lightroom plugin Export LUT (1.24.0)
# www.johnrellis.com/lightroom/exportlut.htm
# Preset: 03日系清新（素材江湖）
# Color profile: C:\Program Files (x86)\Common Files\Adobe\Color\Profiles\Recommended\VideoHD.icc
LUT_3D_SIZE 32
DOMAIN_MIN 0.0 0.0 0.0
DOMAIN_MAX 1.0 1.0 1.0
0.000000 0.120607 0.176669
0.000000 0.120790 0.176822
0.000000 0.121126 0.177066
0.024811 0.122042 0.177890
0.082094 0.123903 0.179049
0.118837 0.125704 0.180697
0.156069 0.127749 0.182284
0.195712 0.128725 0.183841
0.237827 0.128298 0.185031
0.282109 0.126406 0.185977
0.329747 0.122560 0.186587
0.380224 0.116060 0.186954
0.432929 0.105715 0.187015
0.486946 0.090730 0.186740
0.541405 0.050782 0.186069
0.595026 0.002991 0.184909
0.647059 0.000000 0.183383
0.696895 0.000000 0.181430
0.744472 0.000000 0.179599
0.788174 0.000000 0.179263
0.827726 0.000000 0.179110
0.867948 0.017456 0.178805
0.904204 0.094911 0.178622
0.936095 0.130587 0.178256
0.964538 0.160616 0.177798
0.990173 0.188479 0.177066
1.000000 0.214969 0.176028
1.000000 0.240604 0.174716
1.000000 0.265904 0.172854
1.000000 0.290745 0.170840
1.000000 0.314672 0.168673
1.000000 0.335668 0.175174
0.000000 0.121523 0.176944
0.000000 0.121706 0.176730
0.000000 0.122316 0.177310
0.018952 0.123568 0.177951
0.078645 0.125124 0.179294
0.116732 0.127230 0.180911
0.153750 0.129122 0.182345
0.193362 0.129946 0.183963
0.235294 0.129732 0.185000
0.278996 0.128542 0.185916
0.326146 0.124971 0.186709
0.376135 0.119020 0.186954
0.428595 0.109438 0.187076
0.482582 0.096071 0.186801
0.536736 0.067750 0.186007
0.590539 0.021546 0.184848
0.642756 0.000000 0.183505
0.692958 0.000000 0.181491
0.740536 0.000000 0.180270
0.784298 0.000000 0.179995
0.823941 0.000000 0.179538
0.863828 0.020630 0.179294
0.899474 0.094423 0.179232
0.931090 0.128023 0.178805
0.959533 0.157687 0.178164
0.985351 0.184421 0.177371
1.000000 0.210697 0.176120
1.000000 0.236606 0.174655
1.000000 0.261845 0.172824
1.000000 0.286900 0.170474
1.000000 0.311406 0.167941
1.000000 0.332311 0.174014
0.000000 0.127565 0.179263
0.000000 0.127810 0.179416
0.000000 0.128573 0.177981
0.009277 0.129641 0.177462
0.061738 0.130678 0.180484
0.111177 0.133242 0.181888
0.149325 0.135103 0.183352
0.189029 0.136599 0.184390
0.230930 0.136904 0.185580
0.275303 0.135897 0.186191
0.322393 0.133120 0.186801
0.372625 0.127932 0.187228
0.424964 0.120729 0.186984
0.478706 0.110658 0.186679
0.533104 0.095949 0.186038
0.586786 0.073976 0.184848
0.639094 0.038544 0.183169
0.689204 0.007843 0.182559
0.736995 0.000000 0.181979
0.781216 0.000000 0.181674
0.821164 0.009796 0.181399
0.861234 0.070893 0.181033
0.896483 0.109529 0.180941
0.928038 0.137606 0.180514
0.956359 0.164401 0.179995
0.982300 0.189120 0.178836
1.000000 0.214359 0.177951
1.000000 0.239353 0.176211
1.000000 0.264256 0.174044
1.000000 0.288762 0.171878
1.000000 0.312657 0.169131
1.000000 0.333989 0.173037
0.000000 0.139406 0.188815
0.000000 0.139559 0.188937
0.000000 0.140169 0.189029
0.000000 0.140963 0.187228
0.048585 0.144900 0.182559
0.102022 0.144381 0.186160
0.140780 0.146365 0.187228
0.181857 0.148135 0.187015
0.225376 0.149111 0.186893
0.270054 0.149111 0.186984
0.317967 0.147677 0.187228
0.368048 0.144503 0.187381
0.420752 0.139620 0.187228
0.474525 0.132967 0.186862
0.528557 0.123659 0.186465
0.581994 0.112520 0.186496
0.633906 0.099702 0.186465
0.683650 0.088746 0.186435
0.731136 0.076387 0.186069
0.775357 0.079225 0.185641
0.815640 0.092317 0.185031
0.855680 0.110658 0.184817
0.890593 0.132021 0.184726
0.922332 0.154574 0.184207
0.951354 0.177768 0.183169
0.978149 0.200687 0.182315
1.000000 0.224399 0.181399
1.000000 0.248356 0.179507
1.000000 0.272099 0.177310
1.000000 0.295750 0.174990
1.000000 0.318730 0.172366
1.000000 0.340398 0.171969
0.000000 0.158755 0.201480
0.000000 0.159060 0.201450
0.000000 0.159701 0.202029
0.000000 0.160220 0.200534
0.000000 0.161257 0.198215
0.084932 0.165866 0.190127
0.135714 0.165316 0.191684
0.171054 0.163912 0.195438
0.215793 0.165255 0.194705
0.261997 0.165774 0.194339
0.310430 0.165072 0.193790
0.361334 0.163363 0.193454
0.413977 0.160159 0.193271
0.468116 0.155306 0.193057
0.522393 0.149416 0.193057
0.575891 0.142763 0.193118
0.628534 0.135348 0.192813
0.678676 0.129702 0.192599
0.726528 0.127169 0.192081
0.771145 0.128725 0.191592
0.812985 0.135988 0.191012
0.852018 0.148409 0.190463
0.886564 0.163760 0.190280
0.918395 0.181125 0.189639
0.947723 0.199985 0.188815
0.974823 0.220493 0.187839
0.999969 0.241154 0.186404
1.000000 0.262913 0.184604
1.000000 0.284794 0.182712
1.000000 0.306950 0.180179
1.000000 0.328557 0.177432
1.000000 0.349767 0.174380
0.000000 0.186404 0.217472
0.000000 0.186648 0.217411
0.000000 0.186984 0.217594
0.000000 0.188266 0.217746
0.000000 0.188907 0.214054
0.000000 0.189181 0.211429
0.103944 0.193759 0.200626
0.173037 0.194491 0.197635
0.211765 0.189792 0.202396
0.253391 0.188357 0.205417
0.303563 0.188418 0.204440
0.355535 0.187839 0.203616
0.408911 0.186252 0.203342
0.463325 0.183810 0.203128
0.518029 0.180301 0.202884
0.572259 0.176150 0.202701
0.624689 0.172702 0.202274
0.675319 0.170108 0.201755
0.723384 0.169528 0.200900
0.767971 0.172213 0.200015
0.811429 0.179110 0.199466
0.849912 0.188846 0.198795
0.910063 0.218509 0.199588
0.940917 0.234226 0.199313
0.968658 0.250919 0.198795
0.993835 0.268376 0.198093
1.000000 0.286351 0.197330
1.000000 0.304753 0.195895
1.000000 0.323949 0.194339
1.000000 0.342840 0.192691
1.000000 0.361425 0.190890
1.000000 0.379614 0.188388
0.000000 0.226200 0.240024
0.000000 0.226505 0.239872
0.000000 0.226841 0.239902
0.000000 0.227848 0.239689
0.000000 0.228946 0.239841
0.000000 0.228763 0.233646
0.000000 0.227970 0.231632
0.128695 0.233707 0.216556
0.217716 0.237797 0.205905
0.262669 0.228183 0.212680
0.305760 0.223270 0.219303
0.357549 0.222568 0.220890
0.413214 0.222080 0.219699
0.468788 0.220829 0.218692
0.523857 0.218936 0.217685
0.577447 0.216770 0.216861
0.629664 0.215274 0.215671
0.679622 0.214725 0.214664
0.727199 0.216159 0.213382
0.775235 0.220706 0.212375
0.819913 0.228428 0.211490
0.859922 0.238224 0.210910
0.896086 0.250034 0.210636
0.929229 0.263645 0.210178
0.959045 0.278447 0.209201
0.985504 0.293919 0.208591
1.000000 0.309331 0.206973
1.000000 0.325444 0.205844
1.000000 0.342321 0.204166
1.000000 0.359106 0.202396
1.000000 0.376135 0.200107
1.000000 0.392889 0.197757
0.000000 0.267491 0.263951
0.000000 0.267521 0.264134
0.000000 0.267796 0.263859
0.000000 0.268528 0.263584
0.000000 0.269474 0.263310
0.000000 0.270542 0.263584
0.000000 0.270207 0.256535
0.001587 0.267887 0.255802
0.149172 0.275303 0.238895
0.250828 0.282689 0.220127
0.307927 0.272129 0.225834
0.354681 0.264652 0.233646
0.401434 0.260990 0.240391
0.458106 0.260929 0.238224
0.513878 0.260197 0.236271
0.567987 0.259068 0.234257
0.620386 0.258488 0.232395
0.670771 0.258701 0.230503
0.721584 0.261570 0.228824
0.769253 0.265965 0.227390
0.812375 0.272038 0.226108
0.851560 0.279545 0.224949
0.887572 0.288548 0.224308
0.920623 0.299474 0.223301
0.950652 0.311528 0.222385
0.977508 0.324041 0.221164
1.000000 0.337102 0.219913
1.000000 0.350805 0.218021
1.000000 0.365454 0.216190
1.000000 0.380560 0.214481
1.000000 0.395544 0.212192
1.000000 0.410895 0.209812
0.000000 0.314488 0.292058
0.000000 0.314672 0.292027
0.000000 0.314855 0.291783
0.000000 0.315465 0.291447
0.000000 0.316075 0.291051
0.000000 0.316869 0.290867
0.000000 0.317479 0.291356
0.000000 0.317357 0.283177
0.080476 0.314488 0.282628
0.175753 0.322454 0.264591
0.270146 0.323949 0.243992
0.354894 0.325170 0.239353
0.405097 0.314092 0.248386
0.452216 0.307836 0.256687
0.503532 0.305760 0.259281
0.558587 0.305394 0.256107
0.612085 0.305364 0.253056
0.665736 0.307347 0.250675
0.716243 0.309972 0.247929
0.762661 0.313359 0.245701
0.804959 0.317815 0.243809
0.843626 0.323644 0.242283
0.879332 0.330541 0.241123
0.912352 0.338842 0.239811
0.942535 0.348333 0.238437
0.969696 0.358404 0.236851
0.994293 0.369207 0.235294
1.000000 0.380804 0.233341
1.000000 0.393225 0.231418
1.000000 0.406043 0.229374
1.000000 0.419440 0.227268
1.000000 0.432959 0.224949
0.000000 0.367437 0.322942
0.000000 0.367407 0.322728
0.000000 0.367407 0.322545
0.000000 0.367529 0.322087
0.000000 0.367956 0.321386
0.000000 0.368322 0.320806
0.000000 0.368750 0.320287
0.000000 0.369482 0.320562
0.000000 0.368902 0.311345
0.122713 0.366033 0.310155
0.206394 0.373632 0.292210
0.298650 0.375738 0.268711
0.400458 0.383093 0.252140
0.453407 0.368780 0.262303
0.502342 0.360113 0.271305
0.550958 0.356542 0.280552
0.605768 0.357549 0.278538
0.659297 0.358923 0.274937
0.709529 0.360967 0.271244
0.755428 0.363287 0.268162
0.796994 0.365942 0.265293
0.834745 0.369268 0.263005
0.869505 0.373602 0.260990
0.901854 0.379309 0.258824
0.931640 0.385779 0.256779
0.958892 0.393378 0.254795
0.984039 0.401801 0.252750
1.000000 0.411231 0.250553
1.000000 0.421912 0.248386
1.000000 0.433265 0.246464
1.000000 0.445136 0.244511
1.000000 0.457313 0.242435
0.000000 0.422126 0.354742
0.000000 0.422126 0.354650
0.000000 0.422309 0.354467
0.000000 0.422553 0.354040
0.000000 0.423011 0.353368
0.000000 0.423590 0.352758
0.000000 0.424109 0.351995
0.000000 0.424689 0.351659
0.000000 0.424964 0.352178
0.000000 0.424781 0.340826
0.164797 0.421698 0.339666
0.241917 0.429328 0.321721
0.332097 0.432868 0.296086
0.448157 0.447852 0.265934
0.506493 0.431678 0.276158
0.557092 0.421027 0.286656
0.603693 0.414649 0.296361
0.649287 0.411933 0.303319
0.699367 0.412970 0.298589
0.745022 0.413825 0.294194
0.786465 0.414588 0.290410
0.824186 0.416175 0.287114
0.859190 0.418860 0.284337
0.891783 0.422339 0.281468
0.921965 0.426856 0.278813
0.949523 0.432380 0.276493
0.975097 0.438788 0.274113
0.998718 0.446357 0.271672
1.000000 0.455024 0.269291
1.000000 0.464485 0.267124
1.000000 0.474708 0.265263
1.000000 0.485267 0.263035
0.000000 0.481209 0.389624
0.000000 0.481270 0.389532
0.000000 0.481361 0.389227
0.000000 0.481575 0.389044
0.000000 0.482094 0.388373
0.000000 0.482399 0.387671
0.000000 0.483131 0.386725
0.000000 0.483467 0.386023
0.000000 0.484688 0.386328
0.000000 0.485786 0.387793
0.000000 0.486427 0.373693
0.213779 0.484565 0.374243
0.306279 0.513115 0.368048
0.393927 0.516472 0.336980
0.497444 0.518822 0.303593
0.582849 0.518059 0.298131
0.632074 0.503288 0.310613
0.676295 0.493599 0.321477
0.716060 0.487037 0.332555
0.756069 0.484199 0.334691
0.796017 0.482673 0.329656
0.832212 0.481666 0.325048
0.865629 0.481300 0.320684
0.896605 0.482155 0.317174
0.925139 0.484047 0.313573
0.951385 0.486671 0.310094
0.975586 0.489998 0.306523
0.997894 0.494636 0.303258
1.000000 0.500328 0.300542
1.000000 0.506828 0.297734
1.000000 0.514214 0.295109
1.000000 0.522271 0.292454
0.000000 0.554528 0.436164
0.000000 0.554437 0.436072
0.000000 0.554131 0.435676
0.000000 0.553979 0.435065
0.000000 0.553704 0.434272
0.000000 0.553552 0.433143
0.000000 0.553704 0.432197
0.000000 0.553948 0.431556
0.000000 0.554711 0.431373
0.000000 0.555474 0.432136
0.013367 0.556634 0.434455
0.159548 0.559136 0.417365
0.280674 0.558618 0.420386
0.350347 0.565362 0.402960
0.431647 0.569482 0.370397
0.525963 0.569146 0.335210
0.623865 0.575921 0.312902
0.670283 0.557763 0.326207
0.710719 0.544793 0.338109
0.746639 0.535546 0.349737
0.779263 0.529351 0.360754
0.815000 0.526604 0.357977
0.849180 0.524895 0.352667
0.881010 0.524193 0.347631
0.910430 0.524346 0.343084
0.937438 0.525536 0.338933
0.962493 0.527611 0.334966
0.985687 0.530724 0.331121
1.000000 0.534997 0.327733
1.000000 0.540246 0.324743
1.000000 0.546197 0.321904
1.000000 0.552972 0.319585
0.000000 0.613458 0.478553
0.000000 0.613245 0.478340
0.000000 0.612634 0.477790
0.000000 0.611872 0.476631
0.000000 0.610895 0.475319
0.000000 0.609918 0.473915
0.000000 0.609369 0.472511
0.000000 0.608820 0.471199
0.000000 0.608820 0.470588
0.000000 0.609186 0.470771
0.000000 0.609888 0.472206
0.192386 0.610620 0.474983
0.229709 0.613001 0.454231
0.334813 0.611627 0.459113
0.397528 0.616236 0.441108
0.470100 0.618921 0.406317
0.555779 0.617365 0.368872
0.659022 0.628168 0.329625
0.702541 0.607538 0.343694
0.739864 0.592126 0.356481
0.773190 0.580865 0.368383
0.803861 0.573419 0.380041
0.833188 0.569238 0.389471
0.865782 0.567437 0.383429
0.895933 0.566339 0.377691
0.923766 0.566247 0.372595
0.949462 0.566918 0.367620
0.973236 0.568627 0.363287
0.995331 0.571435 0.359289
1.000000 0.575250 0.355871
1.000000 0.579889 0.353002
1.000000 0.585412 0.350378
0.000000 0.665064 0.520226
0.000000 0.664942 0.520073
0.000000 0.664332 0.519463
0.000000 0.663355 0.518181
0.000000 0.662135 0.516655
0.000000 0.660700 0.514977
0.000000 0.659663 0.513359
0.000000 0.658869 0.511986
0.000000 0.658320 0.511162
0.000000 0.658228 0.511070
0.000000 0.658412 0.512200
0.029206 0.658503 0.514733
0.267124 0.658686 0.514122
0.301640 0.660212 0.495033
0.388769 0.657801 0.499489
0.443061 0.660273 0.480964
0.506249 0.661921 0.444343
0.582849 0.659907 0.405859
0.675990 0.665126 0.363714
0.730770 0.652888 0.363561
0.765805 0.636194 0.376776
0.797543 0.624201 0.388891
0.826596 0.615869 0.400763
0.853605 0.610803 0.412329
0.880766 0.608209 0.416938
0.909300 0.606928 0.410559
0.935698 0.606592 0.404883
0.960174 0.607446 0.400000
0.982971 0.609247 0.395666
1.000000 0.612116 0.392096
1.000000 0.615961 0.389410
1.000000 0.620600 0.387091
0.000000 0.707790 0.558801
0.000000 0.707851 0.558831
0.000000 0.707607 0.558495
0.000000 0.707149 0.557824
0.000000 0.706447 0.556878
0.000000 0.705684 0.555810
0.000000 0.705165 0.555077
0.000000 0.704707 0.554437
0.000000 0.704280 0.554192
0.000000 0.703853 0.554314
0.000000 0.703151 0.554986
0.000000 0.702083 0.556298
0.247166 0.700557 0.558892
0.335668 0.699336 0.553582
0.367193 0.698939 0.536126
0.438422 0.695399 0.539574
0.484413 0.696620 0.520348
0.538689 0.697871 0.483406
0.606744 0.695857 0.444190
0.682795 0.692256 0.402960
0.755398 0.694057 0.385168
0.789334 0.677302 0.398474
0.819730 0.665095 0.411139
0.847532 0.656550 0.423194
0.873045 0.650935 0.435218
0.896666 0.648096 0.447242
0.921569 0.647028 0.448280
0.946685 0.646815 0.442298
0.969879 0.647608 0.437201
0.991119 0.649195 0.432959
1.000000 0.651575 0.429358
1.000000 0.654810 0.426551
0.000000 0.744320 0.594995
0.000000 0.744259 0.594873
0.000000 0.744076 0.594720
0.000000 0.743709 0.594263
0.000000 0.743221 0.593683
0.000000 0.742672 0.592950
0.000000 0.742031 0.592432
0.000000 0.741390 0.592096
0.000000 0.740749 0.591882
0.000000 0.739925 0.592096
0.000000 0.738979 0.592859
0.000000 0.737789 0.594263
0.209049 0.736080 0.596582
0.342901 0.733761 0.600000
0.396124 0.732540 0.591272
0.426764 0.731563 0.577264
0.485786 0.728145 0.580377
0.524620 0.728939 0.561822
0.570794 0.730190 0.525261
0.630762 0.728450 0.485878
0.700008 0.725948 0.444617
0.779080 0.732692 0.409766
0.811368 0.716152 0.423011
0.840299 0.703853 0.435737
0.866514 0.695094 0.447944
0.890532 0.689296 0.460334
0.912627 0.686091 0.472847
0.933013 0.685176 0.485908
0.955596 0.685298 0.483833
0.977264 0.686000 0.478889
0.997253 0.687434 0.474830
1.000000 0.689662 0.471534
0.000000 0.777249 0.630823
0.000000 0.777371 0.630915
0.000000 0.789029 0.645075
0.000000 0.788724 0.644739
0.000000 0.788174 0.644282
0.000000 0.787411 0.643793
0.000000 0.786526 0.643397
0.000000 0.785489 0.642939
0.000000 0.784451 0.643030
0.000000 0.783261 0.643549
0.000000 0.781827 0.644434
0.000000 0.780056 0.646052
0.235233 0.777737 0.647944
0.356695 0.774868 0.650721
0.439979 0.771481 0.653956
0.467933 0.770016 0.641352
0.494911 0.768002 0.629664
0.541711 0.764218 0.631342
0.572839 0.763943 0.613458
0.610071 0.764767 0.577600
0.661372 0.763302 0.537926
0.723171 0.761379 0.495857
0.801236 0.770077 0.451270
0.834897 0.755703 0.455726
0.861295 0.742824 0.467414
0.885100 0.733394 0.478737
0.906950 0.726833 0.490059
0.927062 0.722896 0.502129
0.945525 0.721279 0.515038
0.962371 0.721706 0.529198
0.982544 0.722255 0.524590
1.000000 0.723507 0.520714
0.000000 0.808560 0.667964
0.000000 0.809506 0.669154
0.000000 0.810391 0.670466
0.000000 0.810971 0.671412
0.000000 0.811154 0.672114
0.000000 0.810758 0.672267
0.000000 0.809964 0.672114
0.000000 0.808896 0.671901
0.000000 0.807767 0.672114
0.000000 0.806455 0.672633
0.000000 0.805020 0.673732
0.000000 0.803311 0.675410
0.225803 0.801114 0.677333
0.346715 0.798581 0.679835
0.429236 0.795743 0.682765
0.495888 0.792508 0.686275
0.509209 0.791958 0.670741
0.537011 0.790188 0.663172
0.578149 0.787137 0.665522
0.605554 0.787442 0.649470
0.638300 0.788724 0.617243
0.683894 0.788602 0.580896
0.739467 0.787686 0.540185
0.805509 0.790646 0.496223
0.851865 0.786801 0.483253
0.876555 0.774441 0.494545
0.898894 0.765225 0.505577
0.919371 0.758755 0.517388
0.938140 0.754818 0.529778
0.955230 0.753017 0.543328
0.970764 0.753231 0.558129
0.985565 0.754940 0.571252
0.000000 0.830961 0.695979
0.000000 0.831785 0.697169
0.000000 0.832609 0.698451
0.000000 0.833127 0.699550
0.000000 0.833341 0.700374
0.000000 0.832975 0.700710
0.000000 0.832242 0.700801
0.000000 0.831205 0.700923
0.000000 0.830014 0.701320
0.000000 0.828672 0.701991
0.000000 0.827176 0.703243
0.000000 0.825467 0.705013
0.241825 0.823453 0.707027
0.351568 0.821225 0.709346
0.429999 0.818723 0.712062
0.493751 0.816037 0.715206
0.540246 0.813565 0.715358
0.549798 0.813291 0.700679
0.578119 0.811551 0.696803
0.613764 0.809110 0.699245
0.637507 0.809567 0.684260
0.666011 0.811093 0.655360
0.706386 0.811643 0.622400
0.756008 0.811460 0.584894
0.811154 0.810575 0.541741
0.867430 0.815030 0.512902
0.890471 0.803311 0.523522
0.911406 0.794553 0.534569
0.930419 0.788296 0.546685
0.947814 0.784360 0.559564
0.963622 0.782528 0.573541
0.978119 0.782406 0.588190
0.000000 0.851499 0.723079
0.000000 0.852171 0.724086
0.000000 0.852781 0.725185
0.000000 0.853147 0.726192
0.000000 0.853208 0.727016
0.000000 0.852811 0.727474
0.000000 0.852110 0.727687
0.000000 0.851164 0.728115
0.000000 0.850034 0.728725
0.000000 0.848692 0.729732
0.000000 0.847166 0.731106
0.045045 0.845548 0.732876
0.272648 0.843748 0.734798
0.366766 0.841703 0.737057
0.438941 0.839475 0.739712
0.498909 0.837186 0.742733
0.551080 0.834897 0.746426
0.580987 0.833738 0.743343
0.590631 0.834104 0.731624
0.620081 0.832853 0.731746
0.651759 0.831418 0.735195
0.672541 0.832609 0.722133
0.697444 0.834409 0.697230
0.733089 0.835752 0.668696
0.776791 0.836454 0.635706
0.826078 0.836576 0.596979
0.884520 0.843961 0.556542
0.906279 0.833646 0.565423
0.925231 0.825620 0.577142
0.942473 0.819821 0.589471
0.958221 0.816098 0.602472
0.972564 0.814206 0.616449
0.000000 0.873594 0.754788
0.000000 0.873808 0.755154
0.000000 0.873899 0.755550
0.000000 0.873747 0.755825
0.000000 0.873350 0.756069
0.000000 0.872709 0.756191
0.000000 0.871855 0.756527
0.000000 0.870848 0.757046
0.000000 0.869688 0.757748
0.000000 0.868467 0.758938
0.000000 0.867094 0.760403
0.218692 0.865568 0.762173
0.324437 0.863890 0.764096
0.400122 0.862028 0.766262
0.462348 0.860014 0.768734
0.516167 0.857939 0.771511
0.563806 0.855772 0.774624
0.606531 0.853635 0.778256
0.622217 0.853239 0.771847
0.630213 0.853513 0.761563
0.658869 0.851926 0.763943
0.685603 0.850492 0.766720
0.702235 0.851469 0.753445
0.723110 0.852750 0.730770
0.753902 0.854185 0.704982
0.792447 0.855253 0.675166
0.836667 0.855955 0.640284
0.890318 0.862455 0.602258
0.917479 0.856596 0.597864
0.935088 0.849027 0.609186
0.951080 0.843595 0.621424
0.965667 0.839994 0.634516
0.000000 0.889220 0.777920
0.000000 0.889342 0.778256
0.000000 0.889372 0.778592
0.000000 0.889250 0.778958
0.000000 0.888884 0.779263
0.000000 0.888304 0.779568
0.000000 0.887510 0.779965
0.000000 0.886595 0.780545
0.000000 0.885557 0.781430
0.000000 0.884398 0.782589
0.178683 0.883146 0.784054
0.291936 0.881743 0.785763
0.368536 0.880217 0.787716
0.431617 0.878508 0.789883
0.486000 0.876799 0.792355
0.534386 0.874968 0.795102
0.578302 0.873167 0.798123
0.617975 0.871305 0.801572
0.652003 0.869718 0.804501
0.658778 0.870054 0.796384
0.669734 0.870115 0.790280
0.694362 0.868864 0.792691
0.717372 0.867704 0.795285
0.730739 0.868864 0.782559
0.745510 0.868315 0.758999
0.772396 0.869810 0.736233
0.806699 0.871305 0.709987
0.846250 0.872618 0.679438
0.892699 0.876432 0.644343
0.927398 0.876463 0.628138
0.943816 0.869505 0.639887
0.958770 0.864530 0.652430
0.000000 0.904540 0.801816
0.000000 0.904723 0.802365
0.000000 0.904753 0.802609
0.000000 0.904479 0.802731
0.000000 0.903960 0.802731
0.000000 0.903227 0.802670
0.000000 0.902281 0.802701
0.000000 0.901183 0.802914
0.000000 0.899962 0.803311
0.190555 0.898650 0.804044
0.283116 0.897215 0.804990
0.352361 0.895720 0.806271
0.410864 0.894102 0.807797
0.462287 0.892393 0.809537
0.509056 0.890562 0.811460
0.551598 0.888701 0.813626
0.591089 0.886839 0.816129
0.627588 0.885100 0.819120
0.661433 0.883513 0.822599
0.681941 0.882872 0.821988
0.688289 0.883360 0.815366
0.701808 0.883177 0.812619
0.722957 0.882109 0.814755
0.742489 0.881041 0.816800
0.752651 0.882109 0.803738
0.767666 0.882963 0.786038
0.790768 0.884428 0.766140
0.820890 0.886168 0.743282
0.856291 0.887816 0.716365
0.896086 0.889799 0.684840
0.936736 0.894499 0.659083
0.951873 0.887999 0.670466
0.000000 0.915496 0.818387
0.000000 0.915648 0.818814
0.000000 0.915679 0.819150
0.000000 0.915526 0.819394
0.000000 0.915129 0.819638
0.000000 0.914580 0.819913
0.000000 0.913939 0.820432
0.152224 0.913115 0.821012
0.240940 0.912169 0.821866
0.306462 0.911101 0.822934
0.362158 0.909941 0.824155
0.412940 0.908629 0.825650
0.458991 0.907225 0.827329
0.502007 0.905699 0.829099
0.541772 0.904051 0.830961
0.579034 0.902373 0.833036
0.613947 0.900664 0.835386
0.646571 0.899077 0.838102
0.677211 0.897642 0.841215
0.705653 0.896361 0.844785
0.714626 0.896483 0.841062
0.720119 0.897002 0.835660
0.735164 0.896513 0.835508
0.752895 0.895689 0.837430
0.769619 0.894865 0.839322
0.777279 0.896208 0.826902
0.790219 0.897154 0.812100
0.810056 0.898711 0.795834
0.836606 0.900908 0.777432
0.867887 0.903044 0.755856
0.902770 0.905028 0.729274
0.943816 0.911254 0.700893
0.000000 0.926268 0.835264
0.000000 0.926329 0.835447
0.072724 0.926268 0.835599
0.127169 0.926085 0.835843
0.171695 0.925719 0.836057
0.214939 0.925200 0.836362
0.257877 0.924559 0.836759
0.300420 0.923766 0.837339
0.342504 0.922881 0.838163
0.384070 0.921874 0.839200
0.424811 0.920745 0.840421
0.464240 0.919554 0.841886
0.502190 0.918273 0.843503
0.538323 0.916899 0.845243
0.572808 0.915404 0.847135
0.605432 0.913878 0.849149
0.636378 0.912383 0.851408
0.665827 0.910948 0.854002
0.693446 0.909667 0.856901
0.719478 0.908507 0.860166
0.738613 0.907866 0.861662
0.743221 0.908324 0.857389
0.748074 0.908751 0.853025
0.763882 0.908049 0.854643
0.778805 0.907347 0.856260
0.791806 0.906920 0.856443
0.798550 0.908171 0.845701
0.809689 0.909117 0.833188
0.826932 0.910643 0.819516
0.850156 0.912993 0.804288
0.877653 0.915282 0.786191
0.908873 0.917571 0.764248
0.280766 0.935393 0.849393
0.283574 0.935424 0.849546
0.289769 0.935393 0.849729
0.301122 0.935241 0.850004
0.317266 0.934966 0.850370
0.339086 0.934569 0.850950
0.365332 0.934203 0.851804
0.394873 0.933715 0.852964
0.426703 0.933165 0.854368
0.459602 0.932525 0.856046
0.493202 0.931792 0.857969
0.526299 0.930968 0.859983
0.558618 0.930053 0.862119
0.589593 0.929046 0.864286
0.619196 0.927886 0.866484
0.647059 0.926665 0.868650
0.673548 0.925414 0.870939
0.698695 0.924224 0.873411
0.722652 0.923186 0.876158
0.745388 0.922240 0.879149
0.766537 0.921447 0.882322
0.774685 0.921538 0.880888
0.778378 0.921965 0.877592
0.785367 0.922057 0.875853
0.797879 0.921508 0.877134
0.809720 0.920897 0.878233
0.818906 0.920806 0.876829
0.824338 0.921813 0.868070
0.833433 0.922637 0.857847
0.847379 0.923919 0.846769
0.867247 0.926452 0.835325
0.890806 0.928954 0.821744
0.409277 0.945342 0.866209
0.409918 0.945342 0.866239
0.412848 0.945251 0.866300
0.418708 0.945037 0.866453
0.427985 0.944732 0.866728
0.440772 0.944335 0.867094
0.456886 0.943816 0.867643
0.476112 0.943206 0.868406
0.497841 0.942535 0.869383
0.521630 0.941741 0.870573
0.546807 0.940856 0.871946
0.572595 0.939971 0.873503
0.598810 0.938964 0.875273
0.624567 0.937926 0.877134
