20 Preset/Natural Style/【3】LUT video cho PR-AE-FCPX/Natural 2 LUT (10).cube
# Created by Adobe Lightroom plugin Export LUT (1.24.0)
# www.johnrellis.com/lightroom/exportlut.htm
# Preset: 森系胶片-素材江湖10
# Color profile: E:\lut插件\exportlut.1.24\exportlut.lrplugin\color profiles\Rec709gamma2.4.icc
LUT_3D_SIZE 32
DOMAIN_MIN 0.0 0.0 0.0
DOMAIN_MAX 1.0 1.0 1.0
0.000000 0.000000 0.000000
0.006226 0.001495 0.000793
0.020508 0.007691 0.001953
0.044312 0.016144 0.003723
0.071168 0.030884 0.006836
0.094575 0.044099 0.009888
0.114137 0.053620 0.011841
0.138827 0.061860 0.013184
0.171847 0.061921 0.015167
0.211215 0.057191 0.015625
0.256748 0.043549 0.015290
0.307469 0.021393 0.013275
0.362554 0.000000 0.011292
0.420356 0.000000 0.008026
0.478676 0.000000 0.005493
0.535973 0.000000 0.005005
0.591547 0.000000 0.006714
0.644923 0.000000 0.014801
0.695521 0.000000 0.032563
0.743038 0.079652 0.065644
0.806729 0.167727 0.111269
0.852689 0.232883 0.151278
0.884550 0.286992 0.191470
0.907927 0.335454 0.233127
0.925231 0.379492 0.275151
0.937896 0.420630 0.317937
0.946929 0.461067 0.363226
0.952819 0.501396 0.411322
0.955718 0.542229 0.462562
0.955383 0.584100 0.517205
0.951843 0.626795 0.573541
0.946258 0.667964 0.627314
0.001404 0.006531 0.000214
0.003388 0.006317 0.000214
0.018402 0.011292 0.001495
0.044862 0.018311 0.003418
0.069764 0.033295 0.006531
0.093660 0.045533 0.009735
0.112306 0.055512 0.011719
0.136477 0.062013 0.013397
0.167361 0.064057 0.014313
0.205142 0.060822 0.015015
0.249058 0.048798 0.015137
0.298344 0.028382 0.013764
0.352178 0.000000 0.011353
0.408850 0.000000 0.008972
0.466773 0.000000 0.006500
0.524193 0.000000 0.004700
0.580316 0.000000 0.006683
0.634180 0.000000 0.011902
0.685328 0.000000 0.026734
0.733272 0.060029 0.056550
0.795651 0.155917 0.104128
0.841672 0.217685 0.140200
0.874296 0.269871 0.177371
0.898741 0.316411 0.215579
0.917418 0.359014 0.254826
0.931731 0.399786 0.295537
0.942626 0.440101 0.339208
0.950256 0.481025 0.386664
0.954803 0.522881 0.437995
0.955962 0.565942 0.493507
0.953643 0.610040 0.551720
0.948455 0.653620 0.608820
0.005280 0.026184 0.001984
0.010529 0.026703 0.001801
0.019043 0.027985 0.001465
0.041718 0.032074 0.003845
0.067750 0.042481 0.006439
0.093172 0.053498 0.009796
0.110994 0.062715 0.011963
0.135073 0.069429 0.013642
0.165042 0.072389 0.014588
0.201968 0.070497 0.015320
0.245182 0.060243 0.015534
0.293492 0.042756 0.013123
0.346166 0.016266 0.010864
0.402045 0.000000 0.007843
0.459297 0.000000 0.004273
0.516411 0.000000 0.003449
0.572290 0.000000 0.004486
0.626581 0.000000 0.008270
0.678096 0.000000 0.022675
0.727535 0.083314 0.051698
0.789517 0.157992 0.100313
0.835416 0.216403 0.134768
0.868437 0.265599 0.170687
0.893492 0.310643 0.207767
0.912688 0.351995 0.245426
0.927825 0.391241 0.284672
0.939574 0.431098 0.327581
0.948211 0.471687 0.374273
0.953643 0.513848 0.425696
0.955688 0.557244 0.481300
0.954192 0.601465 0.539757
0.949401 0.645777 0.598230
0.019196 0.052430 0.006043
0.023163 0.051972 0.006012
0.030426 0.052277 0.005829
0.041901 0.054322 0.006470
0.068360 0.061341 0.008392
0.093202 0.067994 0.010101
0.111666 0.077028 0.011109
0.135164 0.081758 0.012787
0.164981 0.084352 0.013581
0.201602 0.084047 0.014191
0.243656 0.080018 0.014130
0.291112 0.068818 0.012482
0.342321 0.047333 0.009064
0.396887 0.020691 0.005951
0.452674 0.000000 0.002777
0.508263 0.000000 0.000824
0.563073 0.000000 0.000793
0.616022 0.000000 0.004639
0.667109 0.027588 0.016175
0.719112 0.105806 0.043671
0.776669 0.161227 0.092500
0.822049 0.211704 0.124422
0.856382 0.257908 0.157809
0.883604 0.301488 0.193942
0.905211 0.343328 0.232334
0.922606 0.384649 0.273411
0.936187 0.426398 0.318822
0.946166 0.468605 0.367559
0.952361 0.511803 0.420508
0.954894 0.555322 0.476753
0.953857 0.598627 0.534508
0.949615 0.641321 0.591333
0.032959 0.080568 0.009644
0.034943 0.080446 0.009644
0.042206 0.080629 0.009461
0.054688 0.081147 0.009094
0.071412 0.082765 0.009552
0.093690 0.087068 0.010132
0.111543 0.089570 0.011597
0.134432 0.091859 0.012329
0.163668 0.094026 0.013001
0.198611 0.095613 0.013184
0.239292 0.095399 0.011658
0.285252 0.093172 0.009827
0.335424 0.088838 0.005829
0.389136 0.078798 0.002258
0.444465 0.061494 0.000000
0.500725 0.048676 0.000000
0.556390 0.050385 0.000000
0.610224 0.072755 0.000000
0.661677 0.101808 0.009705
0.717403 0.137484 0.038025
0.772122 0.181643 0.090059
0.816220 0.224735 0.120699
0.850645 0.266361 0.153872
0.878569 0.307225 0.189883
0.900999 0.347875 0.228489
0.919219 0.387915 0.270146
0.933440 0.428504 0.315038
0.943816 0.469673 0.363836
0.950500 0.511528 0.416083
0.953613 0.553643 0.471260
0.953124 0.595941 0.528466
0.949340 0.637873 0.585077
0.048432 0.096742 0.012329
0.050416 0.096681 0.012299
0.057649 0.096773 0.012116
0.072847 0.096559 0.011902
0.085267 0.097444 0.012360
0.095552 0.098787 0.012482
0.113954 0.103090 0.011749
0.137545 0.104799 0.012421
0.166751 0.107027 0.012787
0.201816 0.108888 0.011505
0.242039 0.110842 0.008881
0.287602 0.111513 0.005829
0.337438 0.111299 0.001404
0.390661 0.109987 0.000000
0.446052 0.109529 0.000000
0.501946 0.110140 0.000000
0.557671 0.115297 0.000000
0.611536 0.126528 0.000000
0.663050 0.144320 0.003998
0.722866 0.175845 0.037873
0.775143 0.212985 0.091829
0.817594 0.251164 0.124239
0.902495 0.379889 0.242954
0.920775 0.421180 0.289891
0.933684 0.459449 0.336522
0.942473 0.496254 0.383734
0.947814 0.531792 0.431495
0.950347 0.566400 0.479469
0.950164 0.601221 0.528435
0.947570 0.635889 0.576959
0.943572 0.668940 0.622126
0.939055 0.699062 0.662409
0.064088 0.120302 0.013428
0.066072 0.120241 0.013428
0.075288 0.120241 0.013214
0.088746 0.119936 0.014130
0.098665 0.119997 0.013550
0.111116 0.121401 0.013123
0.125124 0.123445 0.012055
0.153170 0.129824 0.010224
0.186313 0.132204 0.009125
0.225864 0.134981 0.007660
0.271305 0.137087 0.005615
0.320195 0.140383 0.000000
0.371527 0.143343 0.000000
0.424994 0.147066 0.000000
0.479438 0.150912 0.000000
0.533318 0.156924 0.000000
0.586358 0.166018 0.000000
0.637598 0.178988 0.000000
0.695521 0.202121 0.010529
0.757321 0.238285 0.076265
0.809049 0.279026 0.120424
0.850156 0.321904 0.164187
0.882170 0.365850 0.211765
0.906645 0.409644 0.262394
0.924315 0.451392 0.314366
0.935912 0.489570 0.364630
0.943175 0.524895 0.413458
0.947143 0.558526 0.461494
0.948394 0.592035 0.510063
0.947051 0.625422 0.558343
0.943847 0.658289 0.604761
0.939757 0.689082 0.646967
0.077272 0.142580 0.013062
0.080507 0.142275 0.013214
0.087495 0.142245 0.013001
0.096071 0.141939 0.012757
0.109224 0.140993 0.012573
0.122225 0.141909 0.012146
0.137545 0.143954 0.010559
0.155184 0.146914 0.010040
0.188998 0.155856 0.004700
0.227878 0.159243 0.003449
0.272160 0.163119 0.002045
0.321324 0.167025 0.000000
0.373999 0.170871 0.000000
0.425605 0.176364 0.000000
0.477729 0.182864 0.000000
0.529442 0.190799 0.000000
0.580865 0.200687 0.000000
0.633692 0.214542 0.000000
0.696803 0.240757 0.003265
0.752529 0.270329 0.069062
0.800778 0.304143 0.116854
0.840635 0.341070 0.159518
0.872679 0.379400 0.205173
0.897704 0.418524 0.254429
0.916472 0.456580 0.304845
0.929412 0.491920 0.354162
0.937987 0.524956 0.402350
0.943206 0.556939 0.449928
0.945556 0.589166 0.498634
0.945220 0.621424 0.547051
0.942748 0.653773 0.594293
0.939147 0.684474 0.637690
0.090730 0.170016 0.011536
0.092470 0.169772 0.011688
0.097444 0.169528 0.010498
0.107485 0.168978 0.010346
0.120607 0.167941 0.010315
0.136355 0.166537 0.009033
0.152285 0.168795 0.008881
0.170932 0.171878 0.006256
0.192355 0.175875 0.005341
0.231205 0.187411 0.000000
0.274998 0.192691 0.000000
0.323247 0.198672 0.000000
0.375280 0.204349 0.000000
0.429633 0.210849 0.000000
0.482979 0.217899 0.000000
0.533043 0.226261 0.000000
0.585168 0.237980 0.000000
0.645747 0.258152 0.000000
0.701289 0.280858 0.018799
0.751949 0.306676 0.069490
0.796963 0.336095 0.119326
0.834745 0.367803 0.161257
0.865873 0.401343 0.206241
0.890715 0.435767 0.253971
0.909789 0.469886 0.303288
0.923339 0.501854 0.351476
0.932738 0.532372 0.398871
0.938750 0.562310 0.446357
0.941924 0.592584 0.494514
0.942443 0.623133 0.542351
0.940551 0.654292 0.589593
0.937560 0.683955 0.632959
0.103273 0.202182 0.008179
0.105470 0.201541 0.007630
0.110536 0.201022 0.007874
0.120455 0.200229 0.008026
0.134371 0.198306 0.006714
0.150546 0.196445 0.006012
0.167666 0.196292 0.005341
0.186679 0.199222 0.004150
0.207919 0.203220 0.002075
0.232364 0.208438 0.000000
0.273869 0.222782 0.000000
0.320836 0.229465 0.000000
0.371130 0.237034 0.000000
0.424781 0.244999 0.000000
0.479896 0.254032 0.000000
0.541161 0.267002 0.012268
0.601770 0.284825 0.028077
0.657282 0.303593 0.049683
0.708827 0.324468 0.086885
0.755550 0.347448 0.110597
0.796017 0.372290 0.137850
0.829892 0.397681 0.169070
0.858305 0.424414 0.207736
0.881590 0.451789 0.251194
0.900267 0.479713 0.295720
0.914733 0.507012 0.340642
0.925444 0.534661 0.386542
0.933013 0.562707 0.433906
0.937560 0.591943 0.482826
0.939147 0.622248 0.532555
0.938170 0.653223 0.581628
0.935668 0.683192 0.627070
0.116854 0.234714 0.005158
0.118746 0.234409 0.005432
0.123232 0.234226 0.005341
0.133700 0.233158 0.004791
0.147951 0.231693 0.003143
0.164736 0.230137 0.003357
0.184176 0.227390 0.001099
0.203250 0.230503 0.000000
0.225223 0.235019 0.000000
0.250217 0.240452 0.000000
0.277501 0.247196 0.000000
0.321172 0.264744 0.000000
0.371283 0.273136 0.000000
0.426764 0.284459 0.000000
0.488045 0.299351 0.000000
0.549187 0.314885 0.022004
0.609033 0.330999 0.070893
0.665492 0.348577 0.104524
0.712367 0.366674 0.121126
0.755337 0.386145 0.140810
0.792630 0.406989 0.164920
0.824460 0.428656 0.192721
0.851804 0.451423 0.223941
0.874846 0.474983 0.258488
0.893675 0.499367 0.300023
0.908354 0.523857 0.344518
0.919524 0.548638 0.389746
0.927642 0.574243 0.436500
0.932830 0.601190 0.484688
0.935058 0.629541 0.533867
0.934722 0.658778 0.582361
0.932769 0.687343 0.627375
0.133059 0.274601 0.001068
0.134127 0.274632 0.002014
0.139315 0.274327 0.002075
0.149783 0.273411 0.000336
0.163821 0.272038 0.000000
0.181582 0.270085 0.000000
0.201541 0.267674 0.000000
0.222202 0.266911 0.000000
0.244938 0.271672 0.000000
0.270054 0.277867 0.000000
0.297826 0.285100 0.000000
0.331334 0.296788 0.000000
0.429847 0.365484 0.000000
0.495857 0.384283 0.009369
0.559625 0.401892 0.068360
0.620569 0.419196 0.109499
0.676905 0.436500 0.141665
0.727321 0.454292 0.175296
0.770687 0.472023 0.209964
0.805264 0.488960 0.242252
0.832059 0.504387 0.267735
0.854734 0.520256 0.295720
0.874083 0.536828 0.326146
0.890318 0.554070 0.358465
0.903471 0.571527 0.391852
0.913787 0.589075 0.426093
0.920745 0.607538 0.466072
0.925414 0.626856 0.505913
0.928008 0.647456 0.545983
0.928710 0.669642 0.586358
0.928130 0.692164 0.624750
0.926543 0.714839 0.661280
0.158755 0.337438 0.007446
0.160098 0.336828 0.007507
0.164706 0.335790 0.007111
0.175509 0.333562 0.005097
0.189517 0.330571 0.001953
0.207218 0.327031 0.000214
0.227298 0.322881 0.000000
0.249302 0.318608 0.000000
0.274937 0.323919 0.000000
0.305791 0.335790 0.000000
0.341314 0.350683 0.000000
0.381750 0.368505 0.000488
0.426123 0.388403 0.013092
0.484138 0.420752 0.014191
0.548486 0.439765 0.084047
0.607385 0.455665 0.118013
0.661677 0.470527 0.149996
0.709926 0.484810 0.180636
0.752438 0.499092 0.213107
0.788083 0.513024 0.247105
0.818204 0.527214 0.283116
0.841825 0.540581 0.312139
0.861601 0.553948 0.338567
0.878630 0.568444 0.367712
0.892760 0.583520 0.398352
0.904265 0.599084 0.430610
0.913176 0.615412 0.463783
0.919310 0.633265 0.501915
0.922881 0.652979 0.542840
0.924346 0.674403 0.584161
0.924437 0.696101 0.623133
0.923491 0.717891 0.659876
0.180392 0.386389 0.028107
0.181399 0.385840 0.027161
0.186648 0.384466 0.026825
0.196201 0.382849 0.024201
0.210330 0.380499 0.020356
0.228794 0.377569 0.017060
0.249577 0.374670 0.011505
0.272831 0.371588 0.005280
0.298100 0.369512 0.000763
0.326848 0.379583 0.005188
0.360235 0.392462 0.012604
0.398077 0.408301 0.027680
0.439063 0.425910 0.049134
0.481971 0.444587 0.081697
0.535271 0.473243 0.094362
0.592706 0.489235 0.125765
0.645380 0.501976 0.157015
0.692805 0.514061 0.186801
0.735134 0.526390 0.217990
0.771359 0.537835 0.250309
0.802335 0.549676 0.285191
0.828763 0.562432 0.321782
0.851072 0.575982 0.359472
0.868528 0.588342 0.387060
0.883238 0.601282 0.415412
0.895323 0.614954 0.445441
0.904967 0.629419 0.476844
0.912383 0.644984 0.509606
0.917235 0.662562 0.546288
0.919402 0.682429 0.587030
0.920165 0.702876 0.625666
0.919890 0.723598 0.662104
0.208927 0.443732 0.082826
0.209689 0.443214 0.081727
0.214389 0.441291 0.079591
0.222690 0.438575 0.076753
0.235325 0.434882 0.069459
0.251835 0.430060 0.059022
0.271641 0.425635 0.050599
0.294011 0.421302 0.041535
0.317937 0.417212 0.030365
0.344793 0.419379 0.029816
0.376287 0.431128 0.045747
0.412085 0.445350 0.068971
0.450538 0.461219 0.091981
0.490455 0.477821 0.107576
0.530663 0.494026 0.124208
0.578515 0.518486 0.136599
0.630060 0.532494 0.164889
0.677119 0.543236 0.194797
0.719356 0.553796 0.224704
0.755978 0.563500 0.257023
0.787716 0.573297 0.290532
0.815122 0.583917 0.325872
0.838468 0.595331 0.362707
0.858183 0.607904 0.401099
0.873991 0.620417 0.436011
0.886473 0.632288 0.464027
0.896696 0.645380 0.493965
0.904692 0.660060 0.526268
0.910491 0.676600 0.560754
0.914061 0.695064 0.597620
0.915312 0.715114 0.636927
0.915435 0.735317 0.673610
0.235569 0.489998 0.114290
0.236942 0.489937 0.113985
0.241032 0.488930 0.113283
0.248997 0.486946 0.110842
0.260960 0.483925 0.108522
0.276585 0.480323 0.104707
0.295811 0.476967 0.100679
0.317998 0.473213 0.096376
0.341772 0.469520 0.090822
0.366888 0.465431 0.083131
0.395941 0.472908 0.092195
0.428382 0.484108 0.102724
0.462501 0.496101 0.115267
0.497902 0.508537 0.128725
0.533532 0.520989 0.143038
0.568963 0.533135 0.157748
0.611810 0.553887 0.170962
0.658289 0.567102 0.198276
0.701442 0.576806 0.228550
0.739315 0.585962 0.260533
0.772671 0.595331 0.294896
0.801755 0.604974 0.330846
0.826474 0.615320 0.368139
0.847501 0.626612 0.406744
0.864714 0.638819 0.445991
0.878355 0.652064 0.485634
0.888884 0.665034 0.518975
0.897124 0.678401 0.549706
0.903288 0.693202 0.581659
0.907744 0.709102 0.613947
0.910460 0.725917 0.646387
0.911284 0.743801 0.680385
0.261448 0.530205 0.142763
0.262303 0.529931 0.142275
0.266117 0.528954 0.141817
0.273320 0.527245 0.139528
0.284062 0.524773 0.136934
0.298375 0.521996 0.134279
0.316289 0.518364 0.130526
0.336614 0.514611 0.125887
0.358862 0.510430 0.121096
0.382269 0.506096 0.115511
0.407599 0.503929 0.111666
0.437934 0.513787 0.122713
0.470283 0.524712 0.134463
0.503777 0.535943 0.147890
0.537438 0.547143 0.162264
0.570977 0.558221 0.176638
0.604028 0.569177 0.192355
0.643946 0.588190 0.207980
0.686152 0.601099 0.235142
0.724727 0.609308 0.267399
0.759091 0.617609 0.301579
0.789120 0.626184 0.337621
0.814969 0.635309 0.375006
0.837125 0.645289 0.413550
0.855406 0.656245 0.453223
0.869993 0.668269 0.493080
0.881346 0.681605 0.533288
0.889616 0.696132 0.572473
0.896239 0.709682 0.602960
0.901244 0.723934 0.632624
0.904784 0.739040 0.662104
0.906859 0.754757 0.691341
0.292241 0.571069 0.175937
0.293706 0.571252 0.175753
0.328588 0.606622 0.209964
0.334966 0.605097 0.208286
0.344030 0.602686 0.205661
0.356085 0.599542 0.201785
0.371221 0.595453 0.196933
0.389105 0.590967 0.191257
0.409094 0.586267 0.185092
0.430976 0.581140 0.178988
0.453498 0.575219 0.170871
0.480446 0.577661 0.174197
0.511040 0.586358 0.187076
0.542138 0.595087 0.200565
0.572992 0.603388 0.214542
0.603326 0.611566 0.229526
0.632319 0.619135 0.243961
0.660243 0.626642 0.258762
0.693324 0.640528 0.275853
0.727016 0.649256 0.303197
0.758724 0.654200 0.335698
0.786954 0.660060 0.370306
0.811582 0.666651 0.406409
0.832456 0.674006 0.442939
0.849729 0.681788 0.478859
0.863737 0.690669 0.514916
0.874784 0.700679 0.550408
0.883421 0.712123 0.585595
0.889952 0.725002 0.619928
0.894987 0.738521 0.651453
0.899138 0.751644 0.677729
0.902007 0.765469 0.703700
0.333837 0.618250 0.220462
0.337865 0.621149 0.223362
0.343877 0.623804 0.226169
0.352056 0.625513 0.227817
0.362341 0.625849 0.228092
0.373602 0.623896 0.225345
0.387304 0.620569 0.221073
0.402930 0.616144 0.215030
0.420600 0.611627 0.209171
0.440192 0.606592 0.202487
0.460883 0.601007 0.194644
0.482124 0.594598 0.185824
0.510643 0.601862 0.197421
0.539879 0.609796 0.210422
0.569482 0.617700 0.224674
0.598779 0.625452 0.239078
0.627131 0.632990 0.254215
0.654841 0.640620 0.270420
0.681758 0.648707 0.288304
0.713191 0.662348 0.307927
0.744045 0.671595 0.338079
0.773739 0.677211 0.373571
0.799710 0.683192 0.409796
0.821836 0.689693 0.446723
0.840116 0.696498 0.482979
0.855161 0.704128 0.518700
0.867185 0.712917 0.554284
0.876738 0.723049 0.589197
0.884245 0.734524 0.622950
0.889921 0.747189 0.655482
0.894102 0.760586 0.686152
0.897246 0.773831 0.712886
0.359228 0.643977 0.246647
0.363378 0.646784 0.249912
0.369146 0.649409 0.252964
0.377020 0.651331 0.255711
0.386267 0.651667 0.255711
0.396307 0.650385 0.253727
0.408270 0.647486 0.249485
0.422095 0.643732 0.243931
0.437842 0.639612 0.238132
0.455177 0.634852 0.230869
0.473945 0.629480 0.222507
0.493660 0.623682 0.214023
0.516045 0.621698 0.211734
0.544060 0.628931 0.224826
0.572229 0.636194 0.239536
0.600061 0.643336 0.254520
0.627344 0.650263 0.269902
0.653712 0.657313 0.286137
0.679530 0.664546 0.304204
0.704616 0.672175 0.323033
0.733455 0.684749 0.344793
0.760922 0.693874 0.376532
0.788144 0.699458 0.413672
0.811490 0.705287 0.451362
0.830900 0.711269 0.487770
0.846860 0.717891 0.523766
0.859800 0.725521 0.559014
0.870237 0.734401 0.593591
0.878538 0.744656 0.627161
0.885069 0.756130 0.659449
0.889982 0.768399 0.689784
0.893431 0.781155 0.718105
0.387243 0.669276 0.276005
0.390784 0.671748 0.279515
0.396124 0.673823 0.282139
0.402960 0.675288 0.284245
0.410773 0.675715 0.284916
0.419837 0.674403 0.282383
0.430091 0.672084 0.278386
0.442084 0.668910 0.273045
0.456397 0.665339 0.267308
0.471931 0.661189 0.260349
0.489082 0.656733 0.252842
0.507317 0.651453 0.243839
0.525750 0.645502 0.233890
0.550103 0.648463 0.240757
0.576928 0.655116 0.255833
0.603784 0.661860 0.271397
0.630762 0.669123 0.289220
0.657130 0.676722 0.308019
0.683131 0.684749 0.328710
0.708492 0.693263 0.351232
0.732998 0.702083 0.375799
0.760250 0.714961 0.403723
0.784543 0.724544 0.439704
0.808652 0.730800 0.481239
0.828336 0.737026 0.521569
0.844114 0.743618 0.559777
0.856840 0.750759 0.595148
0.867124 0.758846 0.628504
0.875395 0.768032 0.660060
0.881865 0.778073 0.689754
0.886717 0.788815 0.717464
0.890318 0.799802 0.742672
0.437507 0.707546 0.331731
0.439338 0.708339 0.332982
0.441840 0.708766 0.333837
0.445533 0.708492 0.333165
0.450477 0.707393 0.330846
0.456733 0.705592 0.327672
0.464668 0.703212 0.323003
0.474525 0.700404 0.317601
0.486458 0.697261 0.311315
0.500572 0.693965 0.304906
0.516136 0.690333 0.297704
0.532616 0.686183 0.289616
0.549615 0.681239 0.279484
0.567803 0.676814 0.271183
0.592798 0.682429 0.286473
0.617609 0.688136 0.302861
0.641993 0.693996 0.320104
0.666194 0.700069 0.338628
0.689784 0.706355 0.358587
0.712734 0.712947 0.379675
0.734707 0.719661 0.401526
0.755856 0.726650 0.424994
0.779202 0.737209 0.451301
0.799161 0.745022 0.484688
0.819669 0.750088 0.524743
0.836484 0.755825 0.563470
0.850340 0.762264 0.599786
0.861540 0.769619 0.633661
0.870603 0.777829 0.665400
0.877745 0.786893 0.694820
0.883238 0.796536 0.722042
0.887449 0.806424 0.746670
0.467262 0.728603 0.366033
0.468574 0.729244 0.367346
0.470985 0.729519 0.367742
0.474250 0.729366 0.367498
0.478553 0.728603 0.365728
0.483864 0.727260 0.362799
0.490761 0.725307 0.358343
0.499214 0.723049 0.353613
0.509758 0.720546 0.347906
0.522057 0.717861 0.341924
0.535851 0.714870 0.335088
0.550958 0.711604 0.327855
0.566705 0.707698 0.318822
0.583185 0.703334 0.308904
0.603326 0.703304 0.310918
0.626703 0.708553 0.327855
0.650141 0.714015 0.346258
0.673060 0.719631 0.365667
0.695521 0.725429 0.386206
0.717372 0.731472 0.407721
0.738338 0.737697 0.430488
0.758297 0.743984 0.454047
0.776944 0.750271 0.478096
0.797513 0.759670 0.505058
0.809781 0.760952 0.521263
0.827787 0.765499 0.560143
0.842954 0.771328 0.597894
0.855344 0.777859 0.632776
0.865385 0.785275 0.665248
0.873442 0.793576 0.695338
0.879698 0.802640 0.723415
0.884550 0.811978 0.748592
0.510826 0.756069 0.420172
0.513146 0.757107 0.422644
0.515007 0.757412 0.423285
0.516686 0.756771 0.421576
0.518639 0.755367 0.418006
0.521416 0.753353 0.413031
0.525109 0.750759 0.406683
0.530449 0.747860 0.399786
0.537469 0.744717 0.392035
0.546502 0.741482 0.384344
0.556817 0.737911 0.375433
0.569085 0.734249 0.366491
0.582361 0.730343 0.356817
0.596338 0.725856 0.345800
0.610651 0.720760 0.333104
0.630701 0.723018 0.344091
0.651759 0.726955 0.360327
0.673091 0.731502 0.378180
0.694484 0.736721 0.398505
0.715694 0.742550 0.420630
0.736355 0.748592 0.443915
0.755703 0.754543 0.467781
0.773556 0.760006 0.490822
0.789914 0.765042 0.512932
0.807462 0.772457 0.536675
0.821347 0.778592 0.565942
0.836637 0.782284 0.600946
0.849668 0.787411 0.634821
0.860472 0.793484 0.666468
0.869200 0.800595 0.696284
0.876127 0.808621 0.724117
0.881590 0.817136 0.749416
0.534447 0.771176 0.450813
0.536553 0.772122 0.453346
0.538567 0.772549 0.454444
0.540612 0.772366 0.453956
0.543114 0.771633 0.451759
0.546441 0.770565 0.449012
0.550866 0.769284 0.445350
0.556817 0.767697 0.440864
0.564263 0.766049 0.435889
0.573114 0.764248 0.430823
0.583154 0.762112 0.424720
0.594324 0.759792 0.417914
0.606439 0.756954 0.409888
0.619135 0.753628 0.400214
0.632441 0.749691 0.389410
0.647303 0.746944 0.382971
0.666529 0.749996 0.398779
0.685786 0.753536 0.416175
0.705318 0.757717 0.436011
0.724727 0.762478 0.457557
0.743648 0.767483 0.480507
0.761563 0.772580 0.503929
0.778195 0.777432 0.526970
0.793515 0.781979 0.549157
0.807431 0.786191 0.569757
0.822232 0.792416 0.592004
0.834043 0.798459 0.619196
0.846708 0.801907 0.650721
0.857816 0.807095 0.681788
0.866758 0.813138 0.710597
0.873899 0.819913 0.736812
0.879637 0.827329 0.760616
0.570794 0.791196 0.500237
0.571954 0.791623 0.501610
0.573083 0.791714 0.501793
0.574456 0.791440 0.500877
0.576196 0.790799 0.498756
0.578698 0.789883 0.495918
0.582025 0.788724 0.492164
0.586511 0.787411 0.487892
0.592401 0.786038 0.483497
0.599695 0.784573 0.478889
0.608057 0.782864 0.473152
0.617823 0.781094 0.467384
0.628473 0.779049 0.460761
0.639796 0.776608 0.452918
0.651698 0.773648 0.443336
0.664271 0.770321 0.432654
0.679896 0.770230 0.436927
0.697444 0.772946 0.453681
0.715267 0.776272 0.472663
0.733059 0.780117 0.493538
0.750362 0.784268 0.515587
0.766842 0.788418 0.537865
0.782132 0.792386 0.559319
0.796231 0.796109 0.579431
0.809049 0.799527 0.598047
0.820737 0.802701 0.615045
0.833158 0.807614 0.634058
0.843259 0.812833 0.658015
0.853788 0.816159 0.685725
0.863401 0.821378 0.714687
0.871153 0.827420 0.741146
0.877348 0.834043 0.764889
0.603265 0.807431 0.545220
0.604242 0.807767 0.546380
0.605463 0.807950 0.547051
0.606989 0.807919 0.546777
0.609247 0.807767 0.546410
0.612604 0.807736 0.546166
0.618006 0.808011 0.547082
0.624659 0.808438 0.548425
0.632898 0.809049 0.550317
0.642390 0.809781 0.552819
0.652949 0.810544 0.555474
0.663905 0.811154 0.557366
0.675257 0.811521 0.558404
0.686610 0.811368 0.557702
0.697871 0.810758 0.555047
0.708919 0.809445 0.549981
0.720424 0.807858 0.543877
0.734676 0.809293 0.557855
0.749111 0.811368 0.574365
0.763363 0.813779 0.591730
0.777218 0.816434 0.609400
0.790341 0.819089 0.626673
0.802426 0.821561 0.642634
0.813535 0.823880 0.657435
0.823667 0.826017 0.670893
0.833005 0.828000 0.683375
0.841550 0.829892 0.695186
0.850462 0.833066 0.708644
0.857877 0.837034 0.726925
0.865263 0.839719 0.747250
0.872374 0.844114 0.769375
0.877714 0.848936 0.789059
0.665187 0.832853 0.630091
0.665370 0.832853 0.630152
0.665553 0.832731 0.629603
0.665980 0.832486 0.628717
0.666804 0.832181 0.627466
0.668299 0.831785 0.626032
0.670619 0.831388 0.624659
0.673854 0.831052 0.623346
0.678187 0.830777 0.622248
0.683497 0.830533 0.621332
0.689754 0.830320 0.620600
0.696803 0.830106 0.619898
0.704616 0.829770 0.618738
0.712764 0.829313 0.617029
