20 Preset/Natural Style/【3】LUT video cho PR-AE-FCPX/Natural 2 LUT (6).cube
# Created by Adobe Lightroom plugin Export LUT (1.24.0)
# www.johnrellis.com/lightroom/exportlut.htm
# Preset: 森系胶片-素材江湖06
# Color profile: E:\lut插件\exportlut.1.24\exportlut.lrplugin\color profiles\Rec709gamma2.4.icc
LUT_3D_SIZE 8
DOMAIN_MIN 0.000000 0.000000 0.000000
DOMAIN_MAX 0.903226 0.903226 0.903226
0.067628 0.105806 0.105257
0.119387 0.105074 0.108309
0.268589 0.097444 0.119539
0.438300 0.092988 0.131258
0.653834 0.061982 0.145815
0.881743 0.000000 0.162417
1.000000 0.119631 0.208469
1.000000 0.216739 0.276371
0.049317 0.141238 0.124819
0.104585 0.150210 0.124483
0.257023 0.153933 0.116487
0.412757 0.161288 0.122744
0.615625 0.169497 0.135470
0.845884 0.166690 0.150179
1.000000 0.180911 0.191318
1.000000 0.232486 0.260227
0.000000 0.269200 0.212558
0.116060 0.278416 0.231724
0.209415 0.286259 0.208774
0.404150 0.276860 0.187686
0.608606 0.288670 0.187259
0.856840 0.303502 0.195346
1.000000 0.318212 0.227451
1.000000 0.342260 0.274052
0.098848 0.422980 0.317906
0.155825 0.430488 0.329900
0.290135 0.475502 0.384588
0.383154 0.462654 0.315068
0.626246 0.440650 0.272648
0.860136 0.450172 0.278050
1.000000 0.453162 0.300572
1.000000 0.462531 0.339940
0.218204 0.617212 0.435767
0.261997 0.625177 0.447120
0.422736 0.664454 0.505150
0.629999 0.749752 0.619226
0.589990 0.647547 0.417914
0.796750 0.589715 0.341405
0.964141 0.566918 0.356603
1.000000 0.581231 0.407996
0.474434 0.776120 0.572198
0.516991 0.786404 0.591272
0.620020 0.802792 0.638880
0.762295 0.833890 0.723018
0.840940 0.875486 0.788937
0.768795 0.791653 0.564660
0.930419 0.738735 0.459266
1.000000 0.700008 0.485603
0.719326 0.874388 0.721431
0.733181 0.876768 0.729885
0.775357 0.882658 0.756039
0.841611 0.895750 0.803464
0.899077 0.916350 0.855192
0.911803 0.926757 0.863828
0.879057 0.880034 0.711757
0.989837 0.850950 0.614679
0.859525 0.933318 0.837980
0.863676 0.933654 0.841001
0.880797 0.935546 0.854124
0.909575 0.939696 0.877867
0.934783 0.942748 0.899382
0.955444 0.950805 0.921843
0.952605 0.951293 0.914427
0.945617 0.940002 0.838071
0.071015 0.106905 0.127169
0.120485 0.107393 0.131167
0.255161 0.115389 0.138003
0.408087 0.143862 0.156497
0.611841 0.152865 0.164736
0.839048 0.148531 0.171695
1.000000 0.166659 0.193820
1.000000 0.213291 0.251652
0.010529 0.153201 0.150484
0.114839 0.158083 0.157473
0.249851 0.168246 0.163119
0.404273 0.180392 0.169650
0.604059 0.190341 0.176211
0.831876 0.191073 0.182040
1.000000 0.201114 0.199771
1.000000 0.235111 0.240513
0.069764 0.264897 0.214725
0.127413 0.273442 0.231357
0.215274 0.287785 0.232792
0.398383 0.281926 0.218082
0.594812 0.291539 0.218845
0.828214 0.301884 0.223545
1.000000 0.309422 0.240482
1.000000 0.331365 0.275792
0.112428 0.404028 0.308049
0.158053 0.411902 0.319829
0.291630 0.453315 0.375006
0.364721 0.442329 0.317571
0.577844 0.414038 0.278477
0.807248 0.428260 0.281651
0.983612 0.433478 0.296880
1.000000 0.445136 0.331029
0.209873 0.599084 0.425391
0.249149 0.605432 0.435187
0.394141 0.640558 0.486061
0.593194 0.721096 0.590936
0.564660 0.623346 0.411994
0.769650 0.570977 0.342962
0.945403 0.555352 0.356603
1.000000 0.569879 0.401953
0.438941 0.759609 0.553368
0.468086 0.764553 0.564599
0.576989 0.783322 0.611933
0.736172 0.817838 0.701015
0.833066 0.867308 0.780758
0.760678 0.783902 0.561089
0.921904 0.730282 0.458228
1.000000 0.692348 0.481178
0.693782 0.865171 0.703792
0.703151 0.865660 0.708614
0.749508 0.871946 0.735897
0.824521 0.886900 0.787564
0.891356 0.910765 0.846159
0.908049 0.923430 0.859281
0.870665 0.872465 0.700221
0.983673 0.839902 0.597986
0.848234 0.929564 0.828061
0.854276 0.930541 0.832731
0.872374 0.932555 0.846311
0.903410 0.937224 0.871611
0.936431 0.943816 0.901427
0.955718 0.950896 0.922118
0.952636 0.951171 0.914549
0.945037 0.939300 0.837369
0.100465 0.129946 0.208988
0.130953 0.132570 0.216739
0.251774 0.142519 0.234592
0.425086 0.165652 0.252842
0.655482 0.173709 0.274113
0.883391 0.185245 0.291356
1.000000 0.232883 0.311284
1.000000 0.288914 0.334813
0.092470 0.164492 0.229435
0.140108 0.181247 0.236057
0.252079 0.191348 0.250553
0.418585 0.210239 0.264775
0.640406 0.219150 0.282200
0.870085 0.226780 0.296941
1.000000 0.254215 0.311040
1.000000 0.300267 0.333562
0.000000 0.287968 0.275853
0.093599 0.291600 0.280217
0.246036 0.303868 0.296788
0.420630 0.316533 0.306218
0.640131 0.325139 0.314031
0.866514 0.332982 0.323095
1.000000 0.348333 0.337194
1.000000 0.377630 0.361242
0.129366 0.395117 0.307256
0.168460 0.402960 0.316594
0.289433 0.441474 0.368566
0.404944 0.467597 0.377722
0.625422 0.446326 0.351110
0.846036 0.458595 0.361059
1.000000 0.468513 0.380072
1.000000 0.487221 0.408820
0.209628 0.572839 0.411872
0.243778 0.581140 0.421973
0.374090 0.618952 0.470497
0.599145 0.697810 0.583215
0.603693 0.646418 0.468696
0.789456 0.582330 0.398993
0.956542 0.579248 0.419593
1.000000 0.599664 0.464240
0.407111 0.740963 0.535210
0.436866 0.746883 0.546410
0.543786 0.766842 0.591302
0.707637 0.802335 0.678859
0.832517 0.857847 0.776669
0.771237 0.785336 0.593164
0.920928 0.732723 0.499580
1.000000 0.710933 0.529686
0.676753 0.860533 0.693080
0.687343 0.861265 0.698482
0.734310 0.867002 0.725093
0.811795 0.881468 0.776638
0.887114 0.905303 0.839750
0.917113 0.925170 0.870359
0.879301 0.876860 0.723415
0.985504 0.847562 0.634150
0.838163 0.928161 0.820554
0.842161 0.928283 0.823239
0.861601 0.930236 0.837430
0.896757 0.935760 0.865721
0.932372 0.942535 0.897337
0.955474 0.950469 0.921630
0.955352 0.951843 0.918578
0.947204 0.940490 0.845945
0.140169 0.164797 0.296757
0.165164 0.170413 0.304967
0.252873 0.184146 0.331395
0.414191 0.195743 0.349737
0.638849 0.194217 0.374456
0.892515 0.206943 0.401923
1.000000 0.319219 0.431861
1.000000 0.391547 0.452308
0.148196 0.196750 0.313848
0.177859 0.210452 0.320958
0.261723 0.223514 0.344335
0.421942 0.231540 0.361669
0.646204 0.232822 0.383734
0.893706 0.254124 0.410437
1.000000 0.345220 0.437995
1.000000 0.408179 0.457618
0.084901 0.284520 0.345098
0.137484 0.286046 0.349310
0.270542 0.312566 0.367712
0.428870 0.329412 0.391669
0.669398 0.351263 0.418555
0.903593 0.402991 0.456062
1.000000 0.457862 0.482185
1.000000 0.491798 0.496101
0.000000 0.433051 0.398932
0.000000 0.435798 0.401953
0.245396 0.450202 0.417212
0.447120 0.479500 0.451026
0.677302 0.503014 0.470893
0.867063 0.518547 0.484749
0.997436 0.541039 0.503197
1.000000 0.568170 0.525048
0.179599 0.558099 0.429419
0.214603 0.560723 0.431647
0.325872 0.576776 0.445472
0.537743 0.646296 0.536919
0.662837 0.676417 0.560174
0.824216 0.621057 0.507439
0.966949 0.639399 0.537072
1.000000 0.662776 0.571221
0.349248 0.710872 0.505638
0.386694 0.722011 0.520195
0.491127 0.742824 0.561151
0.666712 0.783108 0.649805
0.826169 0.840055 0.763027
0.801724 0.799252 0.658656
0.924224 0.745449 0.576959
1.000000 0.748562 0.614740
0.617670 0.846220 0.659052
0.634821 0.848631 0.667659
0.695552 0.857084 0.700069
0.787594 0.873747 0.757931
0.876982 0.898070 0.828214
0.931487 0.929015 0.887663
0.890898 0.882567 0.757290
0.985138 0.854002 0.681209
0.818662 0.927703 0.807828
0.824033 0.928008 0.811368
0.845731 0.929686 0.826413
0.882841 0.933837 0.854398
0.923766 0.940520 0.889189
0.953948 0.949218 0.919432
0.960143 0.952758 0.925231
0.950774 0.942473 0.860166
0.198947 0.208713 0.387762
0.219394 0.214694 0.395117
0.290745 0.226658 0.418769
0.434424 0.242313 0.467872
0.637324 0.235203 0.481941
0.867765 0.227665 0.501366
1.000000 0.338872 0.519005
1.000000 0.505058 0.570825
0.205509 0.232120 0.398932
0.229770 0.243503 0.406897
0.300633 0.256199 0.429664
0.440467 0.270695 0.475135
0.644526 0.264530 0.489906
0.869780 0.265476 0.507134
1.000000 0.371862 0.526757
1.000000 0.527398 0.580804
0.178805 0.283391 0.421485
0.218021 0.290135 0.424353
0.312871 0.331304 0.449531
0.453010 0.356756 0.495979
0.654017 0.358312 0.512383
0.860136 0.376776 0.523033
1.000000 0.475563 0.556085
1.000000 0.596948 0.613947
0.014405 0.419867 0.463233
0.127626 0.421546 0.466590
0.263096 0.429023 0.482856
0.463447 0.471260 0.521630
0.676051 0.508690 0.563531
0.860349 0.550408 0.580407
0.979431 0.632807 0.628901
1.000000 0.675288 0.655299
0.000000 0.581994 0.521447
0.000000 0.585473 0.525017
0.247684 0.598108 0.538567
0.452796 0.622980 0.567407
0.672938 0.660395 0.614099
0.840421 0.691157 0.641840
0.953491 0.708217 0.657649
1.000000 0.724910 0.672847
0.257664 0.684138 0.534264
0.285130 0.686702 0.536797
0.375189 0.693202 0.545281
0.514305 0.710201 0.568078
0.724544 0.768795 0.671290
0.817411 0.800656 0.709377
0.922087 0.760311 0.659358
1.000000 0.784756 0.697719
0.445197 0.807553 0.580072
0.457557 0.807279 0.581476
0.537377 0.816617 0.612421
0.680079 0.839506 0.683253
0.822507 0.871885 0.777554
0.916625 0.912322 0.865415
0.896818 0.882628 0.784726
0.980346 0.849577 0.717586
0.732784 0.917082 0.752071
0.741024 0.917296 0.756558
0.774166 0.918914 0.775845
0.835904 0.925597 0.817350
0.896727 0.933562 0.864164
0.944854 0.944396 0.908537
0.964721 0.953521 0.931395
0.951232 0.941161 0.868528
0.276463 0.254887 0.493874
0.294652 0.260380 0.500938
0.356970 0.269657 0.523919
0.486702 0.286839 0.576318
0.679896 0.298100 0.630304
0.869352 0.290562 0.625147
1.000000 0.350103 0.612390
1.000000 0.518730 0.639399
0.273625 0.267765 0.492958
0.292851 0.276158 0.499367
0.355901 0.287999 0.522759
0.477638 0.303807 0.569177
0.667933 0.317235 0.624598
0.858732 0.311009 0.621332
1.000000 0.366735 0.611170
1.000000 0.526574 0.639918
0.270603 0.311315 0.515709
0.289616 0.319097 0.521233
0.371557 0.355261 0.547509
0.489723 0.377478 0.587060
0.676814 0.409033 0.650111
0.862547 0.409979 0.641108
0.991943 0.469764 0.633661
1.000000 0.602564 0.669917
0.160861 0.408606 0.553674
0.194430 0.407385 0.555627
0.307256 0.409705 0.568627
0.509606 0.487251 0.615625
0.696468 0.552636 0.681910
0.868009 0.571374 0.686732
0.975525 0.625391 0.686885
1.000000 0.713313 0.726680
0.000000 0.564263 0.592248
0.078614 0.565454 0.594629
0.264652 0.571160 0.605768
0.443580 0.584985 0.629908
0.672786 0.642359 0.672633
0.841520 0.695308 0.716030
0.946899 0.735470 0.730861
1.000000 0.791287 0.770962
0.000000 0.719448 0.645197
0.142580 0.723201 0.649439
0.303990 0.728237 0.656886
0.473640 0.738979 0.673060
0.655665 0.757504 0.700649
0.827848 0.796078 0.751583
0.932738 0.827237 0.783780
0.995575 0.838132 0.794858
0.430640 0.821378 0.669947
0.449470 0.823148 0.672724
0.506706 0.825071 0.678523
0.602472 0.829465 0.691371
0.719234 0.837980 0.715480
0.868376 0.877684 0.810208
0.912871 0.892302 0.830320
0.980468 0.863737 0.786374
0.645899 0.912932 0.727810
0.649287 0.912200 0.727169
0.672328 0.911498 0.729732
0.728481 0.913512 0.747433
0.827268 0.921691 0.809323
0.915709 0.934997 0.879210
0.961517 0.950713 0.926818
0.954223 0.941802 0.885252
0.359960 0.295537 0.612604
0.376715 0.301732 0.620020
0.429358 0.309728 0.639338
0.532525 0.326543 0.678492
0.680507 0.356115 0.730282
0.859464 0.379767 0.757351
0.996551 0.405035 0.729091
1.000000 0.481483 0.697536
0.351781 0.302464 0.606409
0.370397 0.310765 0.614618
0.424659 0.322057 0.634394
0.524163 0.337713 0.670741
0.670771 0.366064 0.721889
0.847532 0.388037 0.749264
0.985534 0.406165 0.721401
1.000000 0.474830 0.690303
0.340581 0.334997 0.620050
0.356939 0.342016 0.625147
0.425666 0.372808 0.644953
0.528405 0.396948 0.679957
0.671565 0.432227 0.727047
0.844205 0.471565 0.760830
0.980987 0.493996 0.738033
1.000000 0.561608 0.715694
0.256321 0.383368 0.641993
0.288548 0.386206 0.641718
0.383215 0.408698 0.652094
0.529595 0.481971 0.691127
0.679805 0.537835 0.737453
0.841459 0.605798 0.783719
0.966674 0.620813 0.766415
1.000000 0.669306 0.752224
0.000000 0.533043 0.674861
0.098299 0.530571 0.674220
0.252445 0.525139 0.678370
0.408698 0.517784 0.691585
0.661799 0.616724 0.729000
0.824277 0.699489 0.785672
0.941222 0.719173 0.787503
1.000000 0.763027 0.791012
0.000000 0.693721 0.716030
0.000000 0.694179 0.717372
0.259983 0.695186 0.721889
0.426154 0.698024 0.731350
0.603479 0.706538 0.747158
0.809354 0.766964 0.784787
0.926879 0.819608 0.826108
0.986572 0.848264 0.837766
0.311833 0.840055 0.770230
0.337255 0.841062 0.771939
0.411719 0.841337 0.774441
0.527916 0.843015 0.780819
0.660548 0.846036 0.791196
0.796445 0.856260 0.811460
0.912688 0.884123 0.851530
0.972992 0.904204 0.873960
0.619776 0.918212 0.797787
0.627070 0.918364 0.798703
0.659663 0.919921 0.803952
0.708705 0.920531 0.809873
0.772152 0.920958 0.818357
0.845274 0.922759 0.833066
0.938354 0.938659 0.899290
0.959228 0.944305 0.907958
0.456367 0.353979 0.754177
0.470100 0.361089 0.758083
0.509911 0.367895 0.766995
0.589166 0.387701 0.788968
0.700374 0.424170 0.818021
0.831235 0.489570 0.850004
0.974243 0.524376 0.855558
1.000000 0.562554 0.815305
0.447547 0.356237 0.748775
0.462257 0.364111 0.753017
0.506432 0.376623 0.763699
0.584863 0.395483 0.784970
0.696284 0.431678 0.814298
0.827604 0.496284 0.846769
0.969329 0.528771 0.852476
1.000000 0.562890 0.812650
0.426062 0.374640 0.749447
0.440040 0.381445 0.752438
0.497322 0.410681 0.762509
0.584985 0.440711 0.787167
0.696010 0.479225 0.814115
0.824338 0.542840 0.844694
0.958679 0.581140 0.854002
1.000000 0.607599 0.818967
0.369512 0.396338 0.750484
0.385840 0.403204 0.753780
0.448615 0.430793 0.763516
0.572961 0.499519 0.784939
0.694972 0.551415 0.813169
0.823056 0.618982 0.844572
0.943603 0.667567 0.860807
1.000000 0.683192 0.834165
0.000000 0.483864 0.773190
0.088563 0.481300 0.774594
0.234531 0.464729 0.774929
0.472847 0.494301 0.777859
0.672175 0.609216 0.804898
0.811734 0.683711 0.838956
0.924956 0.747555 0.867979
1.000000 0.757809 0.851865
0.000000 0.663172 0.805661
0.000000 0.660670 0.804562
0.204593 0.652461 0.802792
0.363317 0.640162 0.803891
0.527764 0.625269 0.809323
0.791867 0.738705 0.834775
0.915312 0.822538 0.879789
0.987427 0.839689 0.880003
0.366247 0.826200 0.850706
0.377752 0.825589 0.850523
0.425025 0.823392 0.850156
0.512566 0.821225 0.851530
0.624811 0.819059 0.854398
0.752712 0.820615 0.860990
0.898772 0.862058 0.879271
0.970062 0.898955 0.902495
0.609644 0.939361 0.892973
0.613733 0.939055 0.892760
0.635279 0.938293 0.893126
0.680079 0.937652 0.895079
0.740719 0.936278 0.897551
0.813046 0.934478 0.900877
0.893614 0.934203 0.907408
0.960449 0.942260 0.922728
