20 Preset/Natural Style/【3】LUT video cho PR-AE-FCPX/Natural 2 LUT (3).cube
# Created by Adobe Lightroom plugin Export LUT (1.24.0)
# www.johnrellis.com/lightroom/exportlut.htm
# Preset: 森系胶片-素材江湖03
# Color profile: E:\lut插件\exportlut.1.24\exportlut.lrplugin\color profiles\Rec709gamma2.4.icc
LUT_3D_SIZE 8
DOMAIN_MIN 0.000000 0.000000 0.000000
DOMAIN_MAX 0.903226 0.903226 0.903226
0.011475 0.021637 0.017151
0.087709 0.028931 0.024720
0.233707 0.000000 0.045472
0.477729 0.000000 0.060700
0.739040 0.000000 0.082521
0.890318 0.000000 0.122713
0.970062 0.000000 0.180117
1.000000 0.221195 0.253086
0.029694 0.101259 0.071778
0.089479 0.105165 0.069856
0.259800 0.089754 0.052247
0.497658 0.000000 0.061616
0.745571 0.000000 0.084627
0.889250 0.000000 0.124788
0.966491 0.000000 0.183017
1.000000 0.263249 0.257572
0.000000 0.269902 0.174014
0.140993 0.263035 0.186831
0.261479 0.283635 0.169558
0.566217 0.288029 0.031525
0.772366 0.261936 0.054627
0.889738 0.290043 0.137758
0.958556 0.339147 0.209842
1.000000 0.394903 0.290105
0.177615 0.508476 0.332647
0.252293 0.504143 0.341985
0.398810 0.489876 0.382696
0.528466 0.531151 0.334966
0.748074 0.559533 0.247471
0.877409 0.528008 0.195956
0.938933 0.524102 0.275883
0.983734 0.533532 0.355962
0.443061 0.671870 0.518669
0.466468 0.669856 0.523888
0.539361 0.663203 0.546960
0.605890 0.662837 0.566430
0.683558 0.682429 0.527642
0.803769 0.692226 0.474952
0.903838 0.669032 0.409491
0.958373 0.650568 0.455268
0.592248 0.755062 0.652827
0.601648 0.754940 0.656458
0.632898 0.752132 0.667475
0.676265 0.747768 0.688075
0.706355 0.753658 0.687373
0.755703 0.766140 0.664332
0.833341 0.773129 0.636652
0.916533 0.758511 0.588251
0.680140 0.813443 0.745357
0.684138 0.813260 0.746822
0.699184 0.811917 0.752132
0.724025 0.809781 0.762509
0.751553 0.807126 0.777462
0.769070 0.815396 0.768215
0.805509 0.824308 0.753964
0.860716 0.828946 0.736049
0.748196 0.859342 0.813596
0.750179 0.859190 0.814206
0.758419 0.858579 0.816922
0.773220 0.857542 0.822354
0.790860 0.855283 0.829191
0.806821 0.856352 0.834562
0.821836 0.862974 0.828000
0.849668 0.869505 0.818265
0.014099 0.036896 0.085206
0.083467 0.044343 0.085817
0.235843 0.006378 0.082856
0.482124 0.000000 0.076020
0.738979 0.000000 0.083528
0.886839 0.000000 0.123171
0.965423 0.000000 0.180179
1.000000 0.242618 0.252995
0.000000 0.108980 0.112764
0.094850 0.116030 0.115755
0.259129 0.112276 0.109529
0.501976 0.000000 0.093050
0.747280 0.000000 0.083467
0.887205 0.000000 0.125399
0.963012 0.145724 0.184146
1.000000 0.280369 0.258000
0.000000 0.284154 0.206821
0.134768 0.284276 0.215915
0.270848 0.293400 0.214328
0.562829 0.293431 0.150729
0.768643 0.283635 0.105928
0.886198 0.309850 0.136568
0.954620 0.350072 0.208011
1.000000 0.400000 0.288487
0.172396 0.513512 0.354742
0.244236 0.512932 0.360021
0.403571 0.499062 0.396796
0.527276 0.530938 0.362463
0.742885 0.556817 0.286046
0.870573 0.528588 0.230991
0.935943 0.524041 0.271366
0.981903 0.533349 0.352331
0.450141 0.673274 0.532891
0.462928 0.672175 0.531792
0.538170 0.665126 0.553124
0.607660 0.662135 0.576440
0.681300 0.681239 0.539300
0.800717 0.691463 0.491066
0.899809 0.669520 0.432959
0.957610 0.650050 0.453071
0.593164 0.755123 0.657557
0.598718 0.754757 0.657984
0.630701 0.752041 0.668971
0.675319 0.747890 0.689387
0.706447 0.753079 0.691493
0.754818 0.765896 0.669795
0.831937 0.773159 0.643427
0.914916 0.758785 0.595789
0.679194 0.813260 0.746304
0.682246 0.812894 0.746975
0.697536 0.811551 0.752193
0.722927 0.809537 0.762722
0.751217 0.807126 0.777890
0.768917 0.815030 0.769955
0.804746 0.823758 0.755764
0.859861 0.828489 0.738094
0.747189 0.859190 0.813657
0.749386 0.859129 0.814450
0.757687 0.858518 0.817136
0.772671 0.857511 0.822538
0.791623 0.856107 0.830472
0.807584 0.856657 0.835996
0.822080 0.863066 0.829191
0.849638 0.869566 0.819608
0.000000 0.071199 0.186007
0.041810 0.078950 0.192447
0.222202 0.089998 0.213169
0.446906 0.020172 0.225376
0.733639 0.000000 0.219089
0.880949 0.000000 0.218906
0.962127 0.214939 0.198337
1.000000 0.304417 0.264775
0.000000 0.124727 0.215671
0.054353 0.130037 0.224735
0.247593 0.153170 0.245182
0.471901 0.140047 0.250095
0.737606 0.000000 0.243595
0.878874 0.178683 0.235782
0.958953 0.261997 0.209659
1.000000 0.331670 0.269596
0.000000 0.280034 0.303532
0.000000 0.288060 0.308141
0.289220 0.320317 0.326299
0.543725 0.327459 0.321263
0.750484 0.337407 0.303990
0.872465 0.369970 0.287175
0.947509 0.398779 0.264347
0.998718 0.426642 0.298772
0.000000 0.538689 0.433173
0.000000 0.539544 0.435096
0.394141 0.540490 0.452125
0.542992 0.549493 0.460853
0.741970 0.564050 0.414466
0.852049 0.552453 0.392370
0.923857 0.549828 0.374792
0.980713 0.545220 0.362341
0.409400 0.681544 0.562554
0.439857 0.681025 0.566278
0.537133 0.679500 0.586877
0.623316 0.671015 0.618006
0.683406 0.688045 0.593835
0.796109 0.698054 0.559228
0.888334 0.678706 0.522576
0.951934 0.659144 0.489906
0.582971 0.758602 0.671138
0.593805 0.758450 0.674281
0.629450 0.757809 0.684596
0.676417 0.753811 0.701869
0.711574 0.755520 0.712917
0.754330 0.768093 0.694575
0.828916 0.776211 0.673518
0.907805 0.763943 0.638636
0.678096 0.815396 0.754635
0.683009 0.815274 0.756374
0.696742 0.814786 0.759762
0.723232 0.812711 0.769406
0.752773 0.810361 0.783658
0.771542 0.816464 0.780880
0.805203 0.825345 0.768368
0.859190 0.830655 0.753017
0.749538 0.860533 0.819303
0.751766 0.860441 0.819974
0.757351 0.860166 0.820676
0.773007 0.859281 0.826047
0.792447 0.857908 0.833646
0.810330 0.857572 0.841215
0.823697 0.863981 0.834897
0.850095 0.870390 0.825772
0.000000 0.100221 0.324254
0.000000 0.104219 0.333654
0.216495 0.121767 0.370916
0.462501 0.137606 0.411841
0.656855 0.209293 0.418769
0.847684 0.200259 0.415808
0.935576 0.317296 0.408026
0.991791 0.390234 0.393835
0.000000 0.144137 0.351781
0.000000 0.149935 0.360052
0.238376 0.172702 0.393591
0.481788 0.202029 0.433173
0.665736 0.262303 0.437232
0.846769 0.262272 0.430030
0.928557 0.369268 0.429664
0.987884 0.414832 0.406287
0.000000 0.263066 0.393164
0.000000 0.270359 0.397955
0.260868 0.310857 0.447547
0.525475 0.376165 0.495369
0.691585 0.411444 0.498177
0.839048 0.423590 0.481575
0.910979 0.484077 0.485878
0.974426 0.494820 0.453437
0.000000 0.494179 0.518486
0.000000 0.499550 0.521904
0.298985 0.521538 0.537041
0.545495 0.563775 0.568109
0.708156 0.581872 0.574609
0.812314 0.590692 0.566247
0.887510 0.597040 0.553643
0.951904 0.592554 0.524529
0.254795 0.696315 0.636194
0.313207 0.695613 0.636103
0.462379 0.693721 0.638025
0.613184 0.693507 0.654047
0.687434 0.698848 0.664759
0.790616 0.706508 0.645838
0.866148 0.696620 0.630976
0.926024 0.687221 0.610803
0.547112 0.765621 0.698054
0.560204 0.765805 0.700069
0.605310 0.765042 0.706447
0.672847 0.765194 0.724422
0.722530 0.761959 0.745235
0.755276 0.773251 0.732509
0.826230 0.781827 0.717739
0.897307 0.771420 0.696742
0.658137 0.818967 0.762264
0.663966 0.818936 0.763729
0.686641 0.818753 0.770016
0.722408 0.818936 0.782162
0.754635 0.816831 0.794034
0.776974 0.819547 0.799252
0.806180 0.828031 0.788449
0.858610 0.833982 0.775967
0.736355 0.863066 0.820340
0.739773 0.863035 0.821469
0.753445 0.862882 0.826200
0.772061 0.862821 0.832120
0.793240 0.861448 0.839322
0.814176 0.860075 0.848661
0.826658 0.865599 0.844724
0.851133 0.872007 0.836515
0.000000 0.133394 0.479683
0.000000 0.137819 0.487709
0.168582 0.154360 0.518456
0.478981 0.184298 0.573144
0.684688 0.254032 0.604944
0.781735 0.372137 0.589349
0.878325 0.435645 0.589349
0.951080 0.473213 0.573327
0.000000 0.170413 0.495979
0.000000 0.174990 0.503227
0.196841 0.193606 0.531701
0.489662 0.234073 0.582300
0.687587 0.305943 0.613764
0.779049 0.408118 0.598108
0.874540 0.461524 0.597894
0.947173 0.493202 0.581872
0.000000 0.277317 0.522911
0.000000 0.283635 0.532433
0.230686 0.310521 0.562890
0.507317 0.373480 0.607813
0.688563 0.455116 0.641718
0.766110 0.517967 0.629572
0.861540 0.540917 0.627710
0.933471 0.556878 0.611658
0.000000 0.438972 0.571466
0.000000 0.443580 0.573754
0.218082 0.463355 0.583764
0.506767 0.531670 0.636561
0.685969 0.609033 0.682246
0.757443 0.631769 0.679255
0.847227 0.634333 0.672145
0.910491 0.647059 0.664973
0.220432 0.639307 0.665400
0.270848 0.641321 0.667140
0.405310 0.650172 0.674189
0.552758 0.668666 0.689113
0.679347 0.699245 0.714229
0.766537 0.713924 0.723751
0.836210 0.715877 0.717189
0.898131 0.712062 0.702693
0.471534 0.765927 0.741085
0.485969 0.766506 0.741939
0.537743 0.768734 0.745388
0.621088 0.770809 0.749447
0.710567 0.772946 0.760891
0.756802 0.778714 0.770199
0.826200 0.786404 0.761746
0.885710 0.778592 0.750240
0.614282 0.823941 0.779995
0.620661 0.823697 0.780301
0.646448 0.823087 0.782254
0.693172 0.822843 0.789303
0.748775 0.823972 0.805020
0.784390 0.822751 0.819455
0.807431 0.831113 0.810880
0.859251 0.837217 0.800961
0.702358 0.866423 0.821073
0.706722 0.866300 0.821988
0.724483 0.865843 0.825895
0.755428 0.865690 0.834348
0.789700 0.865965 0.845579
0.814817 0.864622 0.854398
0.830503 0.867491 0.856779
0.852262 0.873808 0.849668
0.000000 0.174655 0.617212
0.000000 0.178225 0.621820
0.155489 0.192782 0.639521
0.452705 0.226291 0.671901
0.678981 0.330571 0.712490
0.788205 0.425452 0.725856
0.831815 0.517967 0.700282
0.888884 0.578790 0.702937
0.000000 0.203647 0.622583
0.000000 0.207492 0.626703
0.184298 0.223209 0.643641
0.459205 0.261570 0.674495
0.677058 0.364111 0.713771
0.784237 0.453864 0.727687
0.828092 0.535546 0.703853
0.886503 0.589258 0.706600
0.000000 0.297704 0.640131
0.000000 0.302770 0.643854
0.234012 0.325170 0.659174
0.477760 0.374731 0.686122
0.670893 0.473732 0.721706
0.772366 0.547387 0.738582
0.816861 0.598016 0.720974
0.878996 0.629664 0.723049
0.000000 0.423011 0.638422
0.000000 0.429541 0.643763
0.243381 0.459113 0.665980
0.487648 0.515892 0.699855
0.662470 0.592676 0.734127
0.760647 0.650538 0.758206
0.804746 0.675593 0.749264
0.871122 0.684993 0.748806
0.094972 0.587366 0.691920
0.176699 0.589471 0.692805
0.328283 0.598047 0.696529
0.481727 0.617090 0.704677
0.651118 0.673365 0.744625
0.756435 0.727504 0.780331
0.800198 0.738949 0.778408
0.868559 0.736172 0.773007
0.440314 0.721096 0.753658
0.455055 0.722255 0.754574
0.506767 0.726528 0.757687
0.584833 0.735744 0.764401
0.670039 0.751949 0.776577
0.751095 0.777829 0.796963
0.814206 0.790341 0.805509
0.867735 0.790249 0.800198
0.568017 0.821042 0.811124
0.574975 0.821439 0.811582
0.601404 0.822843 0.813016
0.647425 0.826078 0.816464
0.708492 0.829618 0.820554
0.777249 0.831968 0.829831
0.811124 0.836362 0.835935
0.863157 0.841978 0.830381
0.659541 0.872526 0.839048
0.663844 0.872343 0.839109
0.682033 0.871702 0.839780
0.715084 0.870848 0.841855
0.760952 0.870024 0.847837
0.811337 0.870787 0.861845
0.837064 0.870359 0.871244
0.854643 0.876768 0.865751
0.000000 0.229404 0.725704
0.000000 0.232670 0.727932
0.237247 0.247227 0.736599
0.459907 0.282994 0.752499
0.643153 0.365454 0.773251
0.771572 0.500389 0.795743
0.837308 0.558526 0.799466
0.862913 0.613764 0.773587
0.000000 0.253544 0.727382
0.000000 0.257298 0.729610
0.253483 0.272679 0.737972
0.464881 0.309392 0.753262
0.642817 0.390723 0.773556
0.768673 0.518090 0.795865
0.834318 0.572351 0.800076
0.860594 0.622889 0.775357
0.000000 0.336339 0.733272
0.000000 0.340520 0.735195
0.289342 0.358923 0.742794
0.479652 0.399878 0.756924
0.641230 0.476936 0.775875
0.760098 0.578729 0.798154
0.824887 0.623224 0.804685
0.853513 0.659541 0.784817
0.000000 0.448371 0.733120
0.058595 0.453132 0.735622
0.312596 0.476875 0.746304
0.490272 0.517601 0.760678
0.638544 0.578607 0.779477
0.749813 0.651453 0.802823
0.813962 0.688441 0.813535
0.845151 0.709804 0.800351
0.000000 0.558373 0.734463
0.000000 0.559503 0.734554
0.237675 0.565026 0.735409
0.464118 0.599268 0.755764
0.632227 0.656275 0.783352
0.740658 0.710475 0.808621
0.807523 0.747341 0.825589
0.840269 0.760220 0.819181
0.370245 0.686702 0.778103
0.385046 0.687465 0.778317
0.438788 0.690730 0.779263
0.520592 0.697902 0.781399
0.612543 0.711177 0.785641
0.728847 0.756069 0.814542
0.808621 0.799252 0.841550
0.841794 0.806821 0.840421
0.538079 0.784451 0.819730
0.545129 0.785031 0.820066
0.572259 0.787442 0.821347
0.619196 0.792569 0.824186
0.678157 0.801328 0.829313
0.742428 0.815061 0.838285
0.807828 0.835904 0.853696
0.857023 0.845121 0.859709
0.627039 0.869596 0.864530
0.631281 0.869718 0.864652
0.648829 0.870329 0.865202
0.680446 0.871672 0.866392
0.723781 0.874083 0.868650
0.776791 0.876341 0.871366
0.834684 0.877623 0.879362
0.858701 0.881102 0.883330
0.229160 0.321355 0.812406
0.264256 0.324895 0.813230
0.370825 0.339971 0.816434
0.507988 0.374853 0.822477
0.637995 0.439765 0.830686
0.744106 0.530999 0.840238
0.826413 0.624231 0.851652
0.876036 0.649134 0.851987
0.244602 0.341527 0.812619
0.276890 0.345006 0.813413
0.378515 0.360174 0.816556
0.511223 0.394751 0.822446
0.638117 0.457649 0.830533
0.742947 0.544244 0.840116
0.824796 0.632654 0.851682
0.874266 0.656397 0.852232
0.284581 0.411719 0.813413
0.310948 0.415229 0.814115
0.400214 0.430549 0.817014
0.520928 0.464332 0.822660
0.639399 0.520195 0.830381
0.739193 0.590173 0.840330
0.819394 0.663905 0.852506
0.868284 0.684352 0.854063
0.313481 0.506950 0.812924
0.343420 0.512932 0.813931
0.422980 0.527031 0.817105
0.531884 0.555261 0.822568
0.640620 0.597436 0.830716
0.734859 0.650538 0.841489
0.812375 0.707393 0.854734
0.860319 0.725856 0.858122
0.210880 0.574975 0.807614
0.251438 0.577417 0.808591
0.365728 0.588434 0.812497
0.520836 0.623804 0.821378
0.638056 0.663264 0.831846
0.729610 0.704036 0.843748
0.805875 0.749874 0.858244
0.853788 0.770291 0.864500
0.320897 0.671199 0.820798
0.334966 0.671534 0.820676
0.387945 0.673274 0.820249
0.469245 0.677546 0.819638
0.596277 0.699916 0.828428
0.719814 0.748165 0.847013
0.800473 0.788632 0.863401
0.851408 0.813901 0.873899
0.495155 0.765591 0.848631
0.501946 0.766018 0.848692
0.529503 0.767880 0.848875
0.576898 0.771847 0.849363
0.636316 0.778378 0.850309
0.700771 0.788266 0.852079
0.792874 0.822171 0.869352
0.854734 0.853239 0.885924
0.609369 0.843931 0.875700
0.613458 0.844266 0.875822
0.630274 0.845701 0.876402
0.661311 0.848783 0.877653
0.703822 0.853635 0.879789
0.754452 0.860685 0.883238
0.810178 0.870603 0.888884
0.860929 0.884245 0.898100
