20 Preset/Natural Style/【3】LUT video cho PR-AE-FCPX/Natural 2 LUT (3).cube
# Created by Adobe Lightroom plugin Export LUT (1.24.0)
# www.johnrellis.com/lightroom/exportlut.htm
# Preset: 森系胶片-素材江湖03
# Color profile: E:\lut插件\exportlut.1.24\exportlut.lrplugin\color profiles\Rec709gamma2.4.icc
LUT_3D_SIZE 32
DOMAIN_MIN 0.0 0.0 0.0
DOMAIN_MAX 1.0 1.0 1.0
0.011475 0.021637 0.017151
0.013153 0.021393 0.018280
0.023346 0.022461 0.019043
0.047028 0.025360 0.020447
0.087709 0.028931 0.024720
0.113954 0.031861 0.030610
0.147066 0.029603 0.035950
0.187594 0.017456 0.040528
0.233707 0.000000 0.045472
0.285985 0.000000 0.050202
0.344152 0.000000 0.055116
0.408789 0.000000 0.058350
0.477729 0.000000 0.060700
0.548425 0.000000 0.063416
0.617670 0.000000 0.067689
0.682155 0.000000 0.074525
0.739040 0.000000 0.082521
0.786831 0.000000 0.091585
0.827146 0.000000 0.100526
0.861509 0.000000 0.110506
0.890318 0.000000 0.122713
0.914427 0.000000 0.134737
0.935607 0.000000 0.149081
0.954040 0.000000 0.164279
0.970062 0.000000 0.180117
0.984161 0.000000 0.196597
0.996643 0.098116 0.214420
1.000000 0.173129 0.233524
1.000000 0.221195 0.253086
1.000000 0.260807 0.274174
1.000000 0.295262 0.296391
1.000000 0.326940 0.319829
0.010742 0.025025 0.018952
0.012726 0.024781 0.018952
0.024903 0.025635 0.019715
0.048554 0.028504 0.021118
0.088350 0.032074 0.025391
0.114382 0.035004 0.031281
0.147738 0.032532 0.036622
0.188052 0.020386 0.041199
0.234195 0.000000 0.045960
0.286046 0.000000 0.050721
0.343969 0.000000 0.055665
0.408423 0.000000 0.057954
0.477089 0.000000 0.061280
0.547814 0.000000 0.063722
0.616876 0.000000 0.068055
0.681331 0.000000 0.073610
0.738308 0.000000 0.082765
0.786007 0.000000 0.091310
0.826474 0.000000 0.100496
0.860868 0.000000 0.110811
0.889647 0.000000 0.122469
0.913787 0.000000 0.134859
0.934905 0.000000 0.148806
0.953277 0.000000 0.163516
0.969329 0.000000 0.179294
0.983368 0.000000 0.196078
0.995941 0.098787 0.213748
1.000000 0.173007 0.232731
1.000000 0.220920 0.252506
1.000000 0.260044 0.273442
1.000000 0.294499 0.295567
1.000000 0.326207 0.319036
0.014984 0.038849 0.026032
0.016388 0.038605 0.028290
0.023194 0.040131 0.026825
0.050324 0.044984 0.024506
0.090089 0.049287 0.029725
0.117311 0.051575 0.034485
0.151339 0.048188 0.038636
0.192020 0.033722 0.043305
0.238163 0.004883 0.048188
0.289982 0.000000 0.052583
0.347753 0.000000 0.056031
0.411658 0.000000 0.058961
0.480171 0.000000 0.061952
0.549920 0.000000 0.064149
0.618585 0.000000 0.068849
0.682856 0.000000 0.074952
0.739193 0.000000 0.083680
0.786557 0.000000 0.091737
0.826688 0.000000 0.100313
0.860746 0.000000 0.110811
0.889525 0.000000 0.122652
0.913451 0.000000 0.135317
0.934508 0.000000 0.149203
0.952758 0.000000 0.163912
0.968688 0.000000 0.179721
0.982757 0.000000 0.196231
0.995239 0.118288 0.214359
1.000000 0.182284 0.233097
1.000000 0.227390 0.252934
1.000000 0.265324 0.273838
1.000000 0.298802 0.296269
1.000000 0.329473 0.319493
0.019471 0.071290 0.044099
0.023133 0.070832 0.045197
0.032898 0.068513 0.048707
0.047974 0.075898 0.044038
0.093568 0.083742 0.037934
0.124178 0.082551 0.039521
0.159823 0.078279 0.042603
0.200748 0.063874 0.046876
0.246830 0.034760 0.050233
0.298466 0.000000 0.054231
0.355932 0.000000 0.057099
0.419745 0.000000 0.060243
0.487282 0.000000 0.061952
0.556146 0.000000 0.065461
0.623560 0.000000 0.069154
0.686244 0.000000 0.076143
0.741421 0.000000 0.083680
0.787686 0.000000 0.092561
0.827268 0.000000 0.101350
0.860807 0.000000 0.111513
0.889128 0.000000 0.123568
0.912871 0.000000 0.136080
0.933715 0.000000 0.149966
0.951751 0.000000 0.164797
0.967620 0.000000 0.180545
0.981689 0.020569 0.197513
0.994263 0.150607 0.215396
1.000000 0.201755 0.234714
1.000000 0.241947 0.254704
1.000000 0.276707 0.275547
1.000000 0.308171 0.297765
1.000000 0.337316 0.321080
0.029694 0.101259 0.071778
0.032654 0.101503 0.072724
0.047486 0.099825 0.077668
0.065034 0.099886 0.079713
0.089479 0.105165 0.069856
0.125277 0.111421 0.055543
0.171023 0.108125 0.047852
0.213443 0.100649 0.049348
0.259800 0.089754 0.052247
0.310979 0.053315 0.055299
0.367987 0.000000 0.057404
0.431159 0.000000 0.059297
0.497658 0.000000 0.061616
0.565362 0.000000 0.065461
0.630976 0.000000 0.069215
0.692317 0.000000 0.076295
0.745571 0.000000 0.084627
0.790616 0.000000 0.092836
0.828885 0.000000 0.102266
0.861570 0.000000 0.113100
0.889250 0.000000 0.124788
0.912840 0.000000 0.137514
0.933074 0.000000 0.152041
0.950866 0.000000 0.166964
0.966491 0.000000 0.183017
0.980468 0.137606 0.200168
0.992950 0.189059 0.218509
1.000000 0.228794 0.237217
1.000000 0.263249 0.257572
1.000000 0.294133 0.278660
1.000000 0.322759 0.301122
1.000000 0.349676 0.324254
0.021576 0.133486 0.094057
0.026917 0.133333 0.094820
0.049134 0.131502 0.096590
0.082521 0.129244 0.100954
0.096925 0.132204 0.099458
0.120577 0.139223 0.091402
0.165316 0.146944 0.075441
0.225498 0.144381 0.052247
0.277104 0.129366 0.049622
0.328832 0.116732 0.052247
0.386114 0.095521 0.053925
0.448341 0.019806 0.056306
0.513512 0.000000 0.058686
0.579217 0.000000 0.062287
0.642756 0.000000 0.067384
0.701106 0.000000 0.075257
0.751705 0.000000 0.084657
0.794797 0.000000 0.093568
0.831632 0.000000 0.103059
0.863035 0.000000 0.114168
0.889677 0.000000 0.126986
0.912779 0.000000 0.140688
0.936339 0.000000 0.158083
0.953491 0.117556 0.174411
0.968505 0.169986 0.191165
0.981903 0.208591 0.209018
0.993927 0.241825 0.227451
1.000000 0.271366 0.247105
1.000000 0.299199 0.267277
1.000000 0.324834 0.288945
1.000000 0.349340 0.311223
1.000000 0.372900 0.334203
0.002319 0.174136 0.115969
0.008698 0.173861 0.116304
0.039246 0.172610 0.118502
0.090272 0.169589 0.123110
0.114351 0.165591 0.129915
0.129397 0.173220 0.122499
0.160830 0.182162 0.112123
0.213016 0.191257 0.097414
0.281743 0.190372 0.065858
0.349065 0.176608 0.045655
0.411902 0.156466 0.041810
0.473671 0.138949 0.046296
0.536950 0.113863 0.049165
0.599817 0.056275 0.054139
0.659968 0.000000 0.060548
0.714382 0.000000 0.070527
0.761166 0.000000 0.082612
0.801328 0.000000 0.093874
0.835843 0.000000 0.104097
0.865660 0.000000 0.116274
0.891875 0.068482 0.130526
0.914366 0.130404 0.145357
0.933593 0.168826 0.161379
0.950622 0.201328 0.177707
0.965698 0.230320 0.195224
0.979034 0.257145 0.213321
0.990997 0.281773 0.232395
1.000000 0.305303 0.252293
1.000000 0.328161 0.273045
1.000000 0.349828 0.294255
1.000000 0.371069 0.316411
1.000000 0.392065 0.339788
0.000000 0.219089 0.142550
0.000000 0.218814 0.143038
0.035554 0.217533 0.145174
0.095247 0.214969 0.149538
0.127779 0.211460 0.156405
0.149844 0.210636 0.160464
0.170260 0.219669 0.150790
0.207492 0.229740 0.138399
0.264775 0.240574 0.122866
0.341405 0.243198 0.097688
0.423255 0.234684 0.049134
0.491920 0.215763 0.029084
0.557275 0.196811 0.029206
0.617090 0.184726 0.035248
0.673579 0.173770 0.041505
0.723415 0.166354 0.054749
0.766903 0.163912 0.075746
0.804562 0.167758 0.091035
0.837400 0.177493 0.103426
0.866056 0.191501 0.117922
0.891203 0.209415 0.133333
0.912535 0.228305 0.149142
0.931121 0.247288 0.165621
0.947662 0.266819 0.183200
0.962432 0.286229 0.201602
0.975647 0.305089 0.220188
0.987518 0.323919 0.239506
0.998291 0.342077 0.259556
1.000000 0.360540 0.280339
1.000000 0.378546 0.301854
1.000000 0.396490 0.324224
1.000000 0.414405 0.347082
0.000000 0.269902 0.174014
0.000000 0.269688 0.174533
0.032410 0.268437 0.176394
0.102266 0.266300 0.180514
0.140993 0.263035 0.186831
0.173831 0.258549 0.195743
0.193668 0.262181 0.194369
0.219120 0.272465 0.183352
0.261479 0.283635 0.169558
0.322881 0.295903 0.153658
0.406226 0.302922 0.126314
0.491981 0.300359 0.092805
0.566217 0.288029 0.031525
0.632227 0.271489 0.001068
0.686610 0.263645 0.009186
0.732326 0.261540 0.026673
0.772366 0.261936 0.054627
0.807523 0.264805 0.085542
0.838743 0.270939 0.102480
0.866117 0.279515 0.120180
0.889738 0.290043 0.137758
0.910033 0.300847 0.154726
0.928008 0.312749 0.172610
0.944121 0.325597 0.190707
0.958556 0.339147 0.209842
0.971679 0.352636 0.229007
0.983551 0.366278 0.248356
0.994293 0.380407 0.268925
1.000000 0.394903 0.290105
1.000000 0.409674 0.311894
1.000000 0.424353 0.333959
1.000000 0.439490 0.357183
0.000000 0.326726 0.208499
0.000000 0.326452 0.208927
0.038941 0.325383 0.210513
0.112581 0.323674 0.214603
0.155428 0.320287 0.220310
0.193790 0.316014 0.228458
0.227756 0.310796 0.239261
0.245701 0.320134 0.231113
0.276280 0.331609 0.219120
0.323400 0.343389 0.204105
0.387976 0.356634 0.186893
0.470771 0.366888 0.159701
0.555047 0.369268 0.125887
0.630640 0.364263 0.082155
0.688930 0.354223 0.012390
0.739315 0.341741 0.000000
0.776455 0.341924 0.027955
0.810056 0.344060 0.078035
0.839353 0.347875 0.102937
0.864988 0.352636 0.123812
0.887266 0.358526 0.143801
0.906615 0.364660 0.163058
0.923980 0.371649 0.181247
0.939696 0.379675 0.200229
0.953857 0.388525 0.219791
0.966827 0.397589 0.239567
0.978576 0.407904 0.259770
0.989441 0.418402 0.280369
0.999390 0.429541 0.301518
1.000000 0.441169 0.323674
1.000000 0.453254 0.345830
1.000000 0.465675 0.368658
0.000000 0.386633 0.245670
0.018036 0.386206 0.246159
0.087770 0.385443 0.247684
0.131472 0.384009 0.251347
0.175814 0.381415 0.256931
0.218143 0.377661 0.264836
0.256535 0.372992 0.274968
0.285771 0.371466 0.281926
0.306767 0.382483 0.271366
0.341741 0.394018 0.257969
0.390631 0.405798 0.241581
0.454383 0.419287 0.223911
0.533013 0.431403 0.198184
0.611231 0.437415 0.165927
0.680446 0.437568 0.127108
0.731563 0.430701 0.097047
0.775082 0.421942 0.043244
0.811093 0.415198 0.077058
0.838315 0.416114 0.108949
0.862486 0.417670 0.132479
0.883726 0.419806 0.153628
0.902373 0.422461 0.173678
0.919280 0.426123 0.194095
0.934722 0.430518 0.213291
0.948760 0.435981 0.233646
0.961639 0.441993 0.253483
0.973419 0.448920 0.273930
0.984344 0.456245 0.294957
0.994385 0.464363 0.315923
1.000000 0.473396 0.338079
1.000000 0.482918 0.360327
1.000000 0.493111 0.383093
0.104860 0.447517 0.286442
0.109651 0.447578 0.286839
0.133974 0.446784 0.288579
0.168673 0.445106 0.291722
0.208225 0.442847 0.296788
0.248539 0.439796 0.304326
0.288762 0.435981 0.314092
0.325505 0.431189 0.326116
0.348913 0.434638 0.326268
0.373449 0.445441 0.314824
0.410040 0.456611 0.300877
0.459022 0.468360 0.284276
0.525078 0.486519 0.270298
0.596033 0.500084 0.247593
0.663325 0.507195 0.218875
0.721492 0.508141 0.187747
0.768521 0.503075 0.159274
0.805539 0.494667 0.140078
0.838041 0.485206 0.132082
0.862516 0.481117 0.152865
0.882536 0.480171 0.174868
0.900298 0.479774 0.195560
0.916503 0.480415 0.215824
0.931395 0.481819 0.235721
0.945006 0.484260 0.255833
0.957610 0.487221 0.275669
0.969146 0.491218 0.295750
0.979828 0.495857 0.316258
0.989685 0.501244 0.337011
0.998810 0.507500 0.358007
1.000000 0.514641 0.379614
1.000000 0.522606 0.401740
0.177615 0.508476 0.332647
0.180911 0.508263 0.332952
0.195590 0.507591 0.334478
0.220401 0.506157 0.337285
0.252293 0.504143 0.341985
0.289220 0.501427 0.348730
0.327611 0.498024 0.357733
0.364599 0.494301 0.368994
0.398810 0.489876 0.382696
0.417792 0.498512 0.375647
0.444617 0.509178 0.364477
0.481941 0.520226 0.350866
0.528466 0.531151 0.334966
0.581659 0.542290 0.317784
0.640375 0.553246 0.299321
0.697749 0.559167 0.274418
0.748074 0.559533 0.247471
0.791653 0.555718 0.218967
0.823758 0.547234 0.203922
0.852445 0.538170 0.189761
0.877409 0.528008 0.195956
0.894713 0.525658 0.216098
0.910674 0.524224 0.236088
0.925322 0.523857 0.256138
0.938933 0.524102 0.275883
0.951507 0.525139 0.295201
0.963104 0.527184 0.315221
0.973816 0.530022 0.335546
0.983734 0.533532 0.355962
0.992920 0.538170 0.376989
1.000000 0.543481 0.398138
1.000000 0.549645 0.419593
0.247898 0.562615 0.380346
0.250126 0.562524 0.380621
0.260410 0.561639 0.381689
0.278904 0.560601 0.384405
0.304570 0.558862 0.388556
0.336065 0.556390 0.394537
0.369543 0.553429 0.402502
0.404089 0.549950 0.412512
0.437201 0.546044 0.424628
0.463874 0.544915 0.433936
0.481910 0.553735 0.424201
0.508232 0.562799 0.413062
0.542107 0.571740 0.400183
0.582116 0.580468 0.385351
0.626642 0.588861 0.368688
0.675013 0.597131 0.353338
0.724361 0.601892 0.331273
0.767910 0.601648 0.307774
0.806485 0.597772 0.283452
0.837369 0.590234 0.264897
0.863066 0.581048 0.251926
0.886320 0.571344 0.247318
0.905058 0.564508 0.260929
0.919493 0.562585 0.280247
0.932891 0.561425 0.299351
0.945342 0.561028 0.318608
0.956939 0.561456 0.337926
0.967651 0.562676 0.357671
0.977600 0.564843 0.377478
0.986786 0.567864 0.397742
0.995178 0.571771 0.418616
1.000000 0.576562 0.439582
0.319097 0.606744 0.428382
0.321324 0.606622 0.428656
0.328344 0.606012 0.429786
0.341894 0.604944 0.431800
0.361913 0.603296 0.435462
0.386450 0.601282 0.440650
0.414588 0.598718 0.447608
0.444526 0.595697 0.456153
0.474159 0.592523 0.466896
0.501823 0.589258 0.479469
0.520226 0.591547 0.481270
0.537346 0.599084 0.472297
0.560815 0.606531 0.461891
0.589868 0.613825 0.449561
0.624018 0.620783 0.435584
0.661921 0.627314 0.419593
0.702174 0.633661 0.406958
0.744839 0.637415 0.387793
0.783078 0.636835 0.367010
0.817502 0.632898 0.345342
0.847745 0.626001 0.323308
0.871427 0.617426 0.310826
0.893431 0.608545 0.299687
0.912902 0.599390 0.308721
0.926879 0.596033 0.325963
0.939147 0.594507 0.344610
0.950652 0.593774 0.363287
0.961364 0.593835 0.382391
0.971313 0.594781 0.401678
0.980468 0.596765 0.421607
0.988922 0.599512 0.441566
0.996674 0.603143 0.461921
0.386236 0.642206 0.475074
0.387182 0.642176 0.475349
0.392340 0.641749 0.476234
0.402686 0.640986 0.478370
0.417609 0.639704 0.481453
0.437018 0.638087 0.486091
0.459632 0.636133 0.492317
0.484199 0.633845 0.499855
0.509209 0.631250 0.509087
0.533318 0.628656 0.519799
0.555688 0.625818 0.531823
0.567803 0.630671 0.527031
0.583032 0.636805 0.518517
0.603174 0.642786 0.508324
0.627955 0.648676 0.496834
0.657008 0.654261 0.483558
0.689601 0.659571 0.468605
0.723171 0.664149 0.458137
0.760464 0.667201 0.441352
0.794553 0.666285 0.422766
0.825834 0.662654 0.403174
0.854856 0.656733 0.381659
0.878294 0.648951 0.367254
0.899199 0.640620 0.355444
0.917540 0.632349 0.361028
0.933165 0.625818 0.373083
0.944488 0.624292 0.391058
0.955016 0.623499 0.409430
0.964904 0.623438 0.427710
0.973999 0.624323 0.446571
0.982391 0.626001 0.465766
0.990112 0.628595 0.485054
0.443061 0.671870 0.518669
0.443824 0.671748 0.518700
0.447822 0.671443 0.519615
0.455390 0.670771 0.521202
0.466468 0.669856 0.523888
0.481422 0.668544 0.527764
0.498970 0.666957 0.532830
0.518730 0.665156 0.539269
0.539361 0.663203 0.546960
0.559960 0.660945 0.555657
0.579919 0.658595 0.565667
0.596063 0.657679 0.573297
0.605890 0.662837 0.566430
0.619562 0.667933 0.558556
0.637110 0.672969 0.549615
0.658656 0.677882 0.539391
0.683558 0.682429 0.527642
0.711696 0.686885 0.514702
0.740017 0.690364 0.506035
0.772885 0.692897 0.491310
0.803769 0.692226 0.474952
0.832639 0.689052 0.457557
0.859739 0.683925 0.438636
0.883909 0.676844 0.420996
0.903838 0.669032 0.409491
0.921294 0.661433 0.412726
0.937224 0.654078 0.422004
0.948699 0.651301 0.437659
0.958373 0.650568 0.455268
0.967346 0.650721 0.473274
0.975769 0.651545 0.491127
0.983459 0.653193 0.509056
0.490364 0.697139 0.557794
0.491279 0.697139 0.558129
0.498634 0.699489 0.562860
0.504173 0.699001 0.564294
0.512749 0.698268 0.566583
0.523766 0.697230 0.569635
0.537743 0.695918 0.573785
0.553063 0.694392 0.578820
0.569909 0.692744 0.585138
0.587152 0.690913 0.592340
0.604242 0.688930 0.600549
0.620356 0.686976 0.609705
0.631037 0.688167 0.611414
0.639857 0.692378 0.604944
0.651820 0.696559 0.597711
0.667018 0.700649 0.589441
0.685481 0.704555 0.580072
0.706966 0.708339 0.569482
0.731228 0.712032 0.558221
0.755886 0.714717 0.550011
0.784360 0.716701 0.537987
0.812345 0.716304 0.524529
0.838865 0.713619 0.509575
0.864195 0.709010 0.493019
0.888548 0.702510 0.473487
0.907866 0.695033 0.461372
0.924285 0.687922 0.463630
0.939117 0.681239 0.472358
0.951812 0.676356 0.483711
0.960754 0.675715 0.500114
0.969116 0.675776 0.516594
0.976898 0.676539 0.532952
0.530541 0.719356 0.593683
0.531518 0.719509 0.594171
0.534081 0.719539 0.595117
0.538659 0.719387 0.596612
0.545739 0.718898 0.598779
0.554620 0.718166 0.601465
0.565698 0.717159 0.604974
0.578393 0.715877 0.609216
0.592279 0.714534 0.614405
0.606836 0.713069 0.620478
0.621729 0.711452 0.627436
0.636164 0.709804 0.635126
0.649622 0.708095 0.643519
0.656672 0.710933 0.640497
0.664881 0.714656 0.634730
0.675746 0.718379 0.628199
0.689326 0.722011 0.620874
0.705745 0.725612 0.612696
0.724910 0.729091 0.603754
0.746578 0.732448 0.593744
0.768643 0.734920 0.586542
0.793790 0.736782 0.576959
0.819455 0.736690 0.565454
0.844144 0.734524 0.552758
0.867887 0.730526 0.538445
0.890929 0.724788 0.521477
0.911131 0.717800 0.506523
0.926513 0.711391 0.509819
0.940459 0.705440 0.518059
0.953491 0.699825 0.527153
0.962554 0.698421 0.541131
0.970336 0.698573 0.556298
0.563317 0.737972 0.624475
0.564202 0.738155 0.624964
0.566247 0.738186 0.625788
0.569879 0.738094 0.627039
0.575402 0.737758 0.628870
0.582605 0.737148 0.631189
0.591577 0.736355 0.634119
0.601923 0.735348 0.637751
0.613397 0.734249 0.642084
0.625757 0.733028 0.647181
0.638453 0.731716 0.652949
0.651148 0.730312 0.659388
0.663355 0.728939 0.666529
0.673610 0.728328 0.671962
0.679225 0.731655 0.667445
0.686885 0.734981 0.662226
0.696803 0.738338 0.656367
0.709071 0.741604 0.649958
0.723812 0.744900 0.642878
0.740932 0.748104 0.635004
0.760220 0.751217 0.626490
0.780148 0.753414 0.619776
0.802548 0.755062 0.611841
0.826230 0.755306 0.602167
0.849241 0.753567 0.591180
0.871641 0.750027 0.578424
0.893431 0.744961 0.563409
0.914427 0.738369 0.546319
0.928527 0.732845 0.552087
0.941588 0.727565 0.559930
0.953796 0.722591 0.568566
0.963836 0.719570 0.579492
0.592248 0.755062 0.652827
0.592859 0.755245 0.653223
0.594446 0.755245 0.653834
0.597345 0.755215 0.654994
0.601648 0.754940 0.656458
0.607538 0.754452 0.658350
0.614740 0.753841 0.660853
0.623224 0.753017 0.663844
0.632898 0.752132 0.667475
0.643244 0.751125 0.671748
0.654139 0.750088 0.676570
0.665278 0.748928 0.682124
0.676265 0.747768 0.688075
0.686763 0.746578 0.694545
0.693690 0.747524 0.695949
0.699123 0.750546 0.691859
0.706355 0.753658 0.687373
0.715511 0.756771 0.682277
0.726802 0.759915 0.676844
0.740169 0.763058 0.670832
0.755703 0.766140 0.664332
0.773281 0.769131 0.657160
0.791348 0.771084 0.650965
0.811337 0.772641 0.644892
0.833341 0.773129 0.636652
0.854887 0.771786 0.627008
0.875883 0.768826 0.615900
0.896513 0.764309 0.602564
0.916533 0.758511 0.588251
0.930632 0.753536 0.592950
0.942840 0.748898 0.600458
0.954192 0.744442 0.608545
0.618891 0.771908 0.680262
0.619348 0.771939 0.680385
0.620356 0.771908 0.680781
0.622583 0.771725 0.681544
0.626123 0.771420 0.682673
0.630640 0.771023 0.684199
0.636408 0.770474 0.686152
0.643427 0.769833 0.688624
0.651362 0.769131 0.691676
0.660273 0.768276 0.695277
0.669581 0.767422 0.699397
0.679347 0.766476 0.703975
0.689021 0.765530 0.708980
0.698573 0.764523 0.714504
0.707637 0.763516 0.720363
0.712215 0.765682 0.718441
0.717403 0.768399 0.714809
0.724147 0.771237 0.710719
0.732601 0.774075 0.706355
0.742916 0.776913 0.701411
0.755032 0.779690 0.696101
0.769100 0.782498 0.690242
0.785092 0.785122 0.683833
0.801663 0.786770 0.677974
0.819577 0.787991 0.672755
0.840024 0.788663 0.665583
0.860105 0.787686 0.657313
0.879850 0.785183 0.647333
0.899413 0.781186 0.635401
0.917845 0.776303 0.625940
0.932250 0.771756 0.628260
0.943633 0.767575 0.635492
0.641138 0.786587 0.703639
0.641382 0.786618 0.703761
0.642359 0.786618 0.704158
0.644190 0.786435 0.704768
0.646906 0.786252 0.705684
0.650721 0.785916 0.706966
0.655543 0.785489 0.708614
0.661341 0.784939 0.710719
0.668086 0.784360 0.713283
0.675654 0.783688 0.716304
0.683711 0.782986 0.719783
0.692164 0.782223 0.723659
0.700862 0.781399 0.727962
0.709499 0.780545 0.732631
0.717952 0.779721 0.737697
0.725032 0.779507 0.741543
0.728756 0.782010 0.738613
0.733791 0.784604 0.735378
0.740169 0.787198 0.731746
0.748104 0.789822 0.727840
0.757656 0.792447 0.723598
0.768856 0.795071 0.718898
0.781857 0.797574 0.713832
0.796536 0.800046 0.708186
0.811521 0.801083 0.701930
0.827512 0.802060 0.697505
0.846677 0.802884 0.691188
0.865537 0.802182 0.683803
0.884092 0.800076 0.675013
0.902586 0.796506 0.663935
0.919280 0.792569 0.659602
0.933867 0.788327 0.660090
0.661982 0.800839 0.725948
0.662318 0.800900 0.726131
0.663050 0.800870 0.726436
0.664485 0.800717 0.726925
0.666712 0.800504 0.727565
0.669764 0.800168 0.728573
0.673671 0.799741 0.729824
0.678401 0.799252 0.731502
0.684016 0.798672 0.733486
0.690394 0.798062 0.735958
0.697261 0.797391 0.738735
0.704646 0.796689 0.741970
0.712306 0.795956 0.745541
0.720027 0.795193 0.749477
0.727687 0.794400 0.753658
0.735134 0.793606 0.758175
0.740047 0.794430 0.759121
0.743709 0.796719 0.756405
0.748531 0.799069 0.753445
0.754665 0.801541 0.750301
0.762203 0.803983 0.746883
0.771145 0.806424 0.743130
0.781613 0.808835 0.738918
0.793606 0.811124 0.734340
0.807187 0.813321 0.729244
0.821378 0.814664 0.724086
0.835660 0.815244 0.720058
0.853513 0.816190 0.714443
0.871214 0.815671 0.707637
0.888701 0.813809 0.699489
0.906035 0.810605 0.689937
0.920958 0.807523 0.689723
0.680140 0.813443 0.745357
0.680415 0.813504 0.745480
0.681025 0.813504 0.745754
0.682307 0.813413 0.746181
0.684138 0.813260 0.746822
0.686732 0.813016 0.747677
0.690120 0.812741 0.748867
0.694362 0.812314 0.750332
0.699184 0.811917 0.752132
0.704646 0.811460 0.754238
0.710658 0.810941 0.756680
0.717159 0.810422 0.759457
0.724025 0.809781 0.762509
0.730983 0.809140 0.765896
0.737972 0.808469 0.769467
0.744900 0.807767 0.773342
0.751553 0.807126 0.777462
0.754818 0.808804 0.776059
0.758480 0.810941 0.773678
0.763180 0.813169 0.771054
0.769070 0.815396 0.768215
0.776150 0.817716 0.765133
0.784604 0.819944 0.761807
0.794339 0.822171 0.758114
0.805509 0.824308 0.753964
0.818143 0.826352 0.749538
0.831296 0.827665 0.744808
0.844053 0.827970 0.741146
0.860716 0.828946 0.736049
0.877287 0.828611 0.729854
0.893736 0.826871 0.722011
0.909087 0.824430 0.717556
0.697780 0.825772 0.763912
0.697902 0.825803 0.764034
0.698390 0.825742 0.764218
0.699458 0.825681 0.764584
0.701015 0.825528 0.765072
0.703273 0.825315 0.765805
0.706081 0.825071 0.766751
0.709682 0.824735 0.767971
0.713802 0.824399 0.769497
0.718532 0.824002 0.771267
0.723812 0.823575 0.773342
0.729580 0.823056 0.775662
0.735622 0.822568 0.778256
0.741878 0.821988 0.781125
0.748226 0.821439 0.784207
0.754604 0.820829 0.787503
0.760891 0.820218 0.791043
0.766171 0.820188 0.793576
0.768948 0.822110 0.791531
0.772580 0.824125 0.789456
0.777188 0.826230 0.787106
0.782773 0.828305 0.784573
0.789517 0.830381 0.781796
0.797421 0.832456 0.778744
0.806516 0.834501 0.775387
0.816922 0.836454 0.771725
0.828611 0.838407 0.767697
0.840909 0.839658 0.763363
0.852537 0.839750 0.759609
0.867765 0.840635 0.755093
0.883268 0.840299 0.749233
0.898741 0.838651 0.741512
0.714382 0.837247 0.781033
0.714565 0.837278 0.781125
0.714992 0.837278 0.781277
0.715877 0.837186 0.781582
0.717250 0.837095 0.782071
0.719203 0.837003 0.782712
0.721767 0.836851 0.783688
0.724971 0.836667 0.784848
0.728725 0.836454 0.786282
0.732967 0.836271 0.787961
0.737789 0.836027 0.789883
0.742977 0.835691 0.792020
0.748470 0.835355 0.794369
0.754147 0.834989 0.796872
0.759976 0.834531 0.799588
0.765866 0.834043 0.802426
0.771695 0.833524 0.805478
0.777371 0.833036 0.808682
0.781064 0.833829 0.809232
0.783871 0.835660 0.807431
0.787411 0.837522 0.805570
0.791836 0.839445 0.803494
0.797147 0.841367 0.801205
0.803464 0.843290 0.798703
0.810819 0.845182 0.795926
0.819242 0.847044 0.792874
0.828885 0.848844 0.789578
0.839689 0.850645 0.785977
0.851164 0.851896 0.781949
0.861601 0.851621 0.778103
0.875395 0.852354 0.773922
0.889769 0.851926 0.768002
0.731930 0.848936 0.798306
0.731991 0.848936 0.798367
0.732387 0.848905 0.798459
0.733089 0.848844 0.798672
0.734249 0.848722 0.799039
0.735866 0.848600 0.799557
0.737942 0.848417 0.800259
0.740597 0.848203 0.801144
0.743771 0.847990 0.802243
0.747341 0.847715 0.803525
0.751400 0.847440 0.805051
0.755856 0.847105 0.806729
0.760616 0.846769 0.808621
0.765682 0.846372 0.810697
