20 Preset/Natural Style/【3】LUT video cho PR-AE-FCPX/Natural 2 LUT (4).cube
# Created by Adobe Lightroom plugin Export LUT (1.24.0)
# www.johnrellis.com/lightroom/exportlut.htm
# Preset: 森系胶片-素材江湖04
# Color profile: E:\lut插件\exportlut.1.24\exportlut.lrplugin\color profiles\Rec709gamma2.4.icc
LUT_3D_SIZE 5
DOMAIN_MIN 0.000000 0.000000 0.000000
DOMAIN_MAX 0.903226 0.903226 0.903226
0.050843 0.079469 0.071595
0.148135 0.105013 0.095674
0.441901 0.134371 0.123140
0.826291 0.344823 0.221530
0.966888 0.617670 0.515984
0.000000 0.285527 0.189120
0.269810 0.312078 0.114565
0.746975 0.314488 0.047333
0.880980 0.453071 0.242679
0.984558 0.643122 0.529870
0.309422 0.730831 0.592126
0.115358 0.722316 0.509239
0.726009 0.737697 0.490700
0.937926 0.716854 0.520562
1.000000 0.741604 0.618616
0.643793 0.882078 0.820432
0.630396 0.882475 0.807675
0.604242 0.887205 0.745388
0.861448 0.893248 0.781125
0.970397 0.872679 0.818296
0.839048 0.934783 0.922454
0.836942 0.935241 0.920897
0.826719 0.937316 0.912840
0.844083 0.938079 0.905547
0.909148 0.933593 0.917906
0.071290 0.083070 0.112215
0.193149 0.092561 0.133700
0.345922 0.164767 0.160739
0.791379 0.359777 0.274571
0.950317 0.625666 0.546929
0.137850 0.267948 0.243565
0.334417 0.273655 0.202548
0.675898 0.307134 0.200320
0.852720 0.461585 0.310246
0.968719 0.649592 0.560632
0.406348 0.722255 0.614862
0.314092 0.713375 0.541100
0.737942 0.730282 0.529076
0.931151 0.718013 0.554437
1.000000 0.746944 0.646784
0.661097 0.880766 0.827543
0.648219 0.881010 0.815427
0.621668 0.885161 0.756344
0.866148 0.892088 0.790341
0.968933 0.873869 0.824949
0.844419 0.934478 0.924651
0.842313 0.934936 0.923125
0.834104 0.936858 0.916136
0.848051 0.937835 0.908507
0.910033 0.933593 0.920226
0.136507 0.065827 0.246098
0.294194 0.000000 0.300755
0.660212 0.000000 0.352728
0.602106 0.328283 0.339452
0.887602 0.648829 0.634455
0.226871 0.192050 0.345434
0.420630 0.236210 0.406348
0.553246 0.284123 0.341772
0.695583 0.414954 0.395972
0.912993 0.671321 0.650141
0.606806 0.722896 0.719173
0.579858 0.706172 0.675074
0.759762 0.705989 0.647730
0.899474 0.716793 0.646540
0.977783 0.757443 0.716854
0.724483 0.878477 0.857053
0.711421 0.877440 0.846372
0.667811 0.878294 0.791012
0.883024 0.888853 0.821500
0.965850 0.876677 0.845396
0.864012 0.933288 0.932647
0.862242 0.933654 0.931487
0.854612 0.935393 0.925841
0.856901 0.937346 0.916381
0.912566 0.933562 0.926207
0.320348 0.000000 0.549950
0.516075 0.000000 0.600031
0.734676 0.000000 0.599054
0.888670 0.446174 0.646632
0.895781 0.654841 0.704982
0.426764 0.000000 0.599176
0.579553 0.000000 0.637720
0.756863 0.290593 0.644984
0.854185 0.528649 0.652583
0.877134 0.685328 0.724544
0.354437 0.526024 0.612818
0.538720 0.587182 0.672267
0.747250 0.695827 0.751125
0.721553 0.632380 0.646967
0.891203 0.768093 0.788174
0.804196 0.885008 0.897765
0.802396 0.883177 0.894408
0.769100 0.872770 0.862364
0.891051 0.875364 0.866209
0.961852 0.874235 0.869841
0.879973 0.931884 0.939483
0.881804 0.932189 0.939727
0.888640 0.933379 0.940490
0.878325 0.935851 0.932341
0.915953 0.933776 0.936736
0.557763 0.000000 0.811063
0.660060 0.000000 0.820829
0.873075 0.000000 0.846891
0.961273 0.288914 0.815671
1.000000 0.641413 0.822507
0.633906 0.000000 0.823758
0.712703 0.000000 0.832303
0.872648 0.000000 0.850614
0.942229 0.447761 0.821714
0.991669 0.677150 0.830350
0.539574 0.393652 0.825711
0.624872 0.439918 0.832273
0.808591 0.612390 0.861112
0.899535 0.689570 0.854246
0.959045 0.778683 0.863584
0.651728 0.815396 0.882841
0.657313 0.812314 0.880949
0.675380 0.792050 0.871550
0.883055 0.863310 0.911498
0.918853 0.880400 0.909697
0.898497 0.930846 0.945037
0.899413 0.931121 0.945251
0.902953 0.932219 0.946014
0.910216 0.934142 0.947509
0.915618 0.934447 0.948608
