20 Preset/Natural Style/【3】LUT video cho PR-AE-FCPX/Natural 2 LUT (9).cube
# Created by Adobe Lightroom plugin Export LUT (1.24.0)
# www.johnrellis.com/lightroom/exportlut.htm
# Preset: 森系胶片-素材江湖09
# Color profile: E:\lut插件\exportlut.1.24\exportlut.lrplugin\color profiles\Rec709gamma2.4.icc
LUT_3D_SIZE 32
DOMAIN_MIN 0.0 0.0 0.0
DOMAIN_MAX 1.0 1.0 1.0
0.054108 0.052491 0.054994
0.055390 0.053498 0.054841
0.067597 0.054322 0.055604
0.086305 0.057191 0.057008
0.099519 0.062135 0.059052
0.120027 0.067384 0.061463
0.153384 0.069581 0.063691
0.204379 0.062196 0.063447
0.268620 0.034180 0.057832
0.337652 0.000000 0.049470
0.409247 0.000000 0.035828
0.481270 0.000000 0.017517
0.551293 0.000000 0.000000
0.617762 0.000000 0.000000
0.678767 0.000000 0.000000
0.733516 0.000000 0.000000
0.782773 0.000000 0.000000
0.826474 0.000000 0.000000
0.864408 0.007263 0.000000
0.898497 0.127779 0.000000
0.927001 0.176761 0.000000
0.952209 0.215152 0.000000
0.975280 0.250187 0.000000
0.997223 0.283696 0.000000
1.000000 0.315923 0.000000
1.000000 0.347784 0.000000
1.000000 0.379278 0.000000
1.000000 0.410254 0.000000
1.000000 0.441199 0.061189
1.000000 0.472206 0.153902
1.000000 0.502831 0.212497
1.000000 0.533440 0.269352
0.054688 0.054688 0.054688
0.054383 0.054688 0.055818
0.068147 0.056519 0.055299
0.087098 0.058198 0.056855
0.099916 0.063111 0.058900
0.120272 0.068360 0.062440
0.153475 0.071748 0.063386
0.204501 0.064393 0.062013
0.267948 0.038483 0.057404
0.336645 0.000000 0.048920
0.407904 0.000000 0.035492
0.479530 0.000000 0.017243
0.549584 0.000000 0.000000
0.615900 0.000000 0.000000
0.677058 0.000000 0.000000
0.731777 0.000000 0.000000
0.781216 0.000000 0.000000
0.825010 0.000000 0.000000
0.863188 0.022766 0.000000
0.897063 0.129488 0.000000
0.925414 0.176577 0.000000
0.950530 0.214298 0.000000
0.973480 0.249241 0.000000
0.995422 0.282078 0.000000
1.000000 0.314092 0.000000
1.000000 0.345922 0.000000
1.000000 0.377173 0.000000
1.000000 0.408301 0.000000
1.000000 0.439246 0.042695
1.000000 0.470283 0.148745
1.000000 0.501061 0.208804
1.000000 0.531670 0.265537
0.057038 0.064393 0.057832
0.060304 0.065156 0.057679
0.066072 0.063264 0.061189
0.086915 0.067140 0.057893
0.101167 0.071595 0.058778
0.122133 0.077638 0.061036
0.156100 0.080140 0.061799
0.207004 0.075471 0.060090
0.269932 0.053681 0.054871
0.338170 0.011597 0.045777
0.408820 0.000000 0.031586
0.479835 0.000000 0.012634
0.549065 0.000000 0.000000
0.615198 0.000000 0.000000
0.676020 0.000000 0.000000
0.730953 0.000000 0.000000
0.780117 0.000000 0.000000
0.824125 0.000000 0.000000
0.862333 0.080995 0.000000
0.895903 0.142947 0.000000
0.924254 0.185061 0.000000
0.949279 0.220615 0.000000
0.972351 0.253239 0.000000
0.994263 0.285496 0.000000
1.000000 0.316808 0.000000
1.000000 0.347570 0.000000
1.000000 0.378454 0.000000
1.000000 0.409216 0.000000
1.000000 0.439857 0.025086
1.000000 0.470802 0.145174
1.000000 0.501305 0.206149
1.000000 0.531731 0.263218
0.065126 0.080018 0.064424
0.066407 0.080629 0.064271
0.076997 0.080537 0.066346
0.082582 0.079072 0.075532
0.100923 0.085054 0.068818
0.126406 0.088594 0.062745
0.162081 0.090944 0.061707
0.213535 0.090822 0.056550
0.275151 0.084230 0.048951
0.342382 0.056306 0.038300
0.412055 0.007782 0.022736
0.482094 0.000000 0.002289
0.550500 0.000000 0.000000
0.615717 0.000000 0.000000
0.676020 0.000000 0.000000
0.730037 0.000000 0.000000
0.778897 0.000000 0.000000
0.822416 0.051209 0.000000
0.860594 0.125521 0.000000
0.893736 0.166140 0.000000
0.921935 0.200290 0.000000
0.946868 0.231632 0.000000
0.970001 0.261967 0.000000
0.992187 0.292058 0.000000
1.000000 0.322271 0.000000
1.000000 0.352483 0.000000
1.000000 0.382879 0.000000
1.000000 0.412970 0.000000
1.000000 0.443244 0.007172
1.000000 0.473548 0.141390
1.000000 0.503624 0.203403
1.000000 0.533471 0.261143
0.072450 0.093996 0.072755
0.075685 0.094270 0.072572
0.084932 0.095308 0.070771
0.093385 0.093690 0.077790
0.096834 0.093111 0.087068
0.126986 0.100526 0.078279
0.170474 0.105074 0.063996
0.223636 0.106691 0.055024
0.284550 0.104982 0.044648
0.350042 0.098817 0.030976
0.417426 0.087984 0.012055
0.485969 0.055177 0.000000
0.552758 0.019501 0.000000
0.617029 0.000000 0.000000
0.676326 0.000000 0.000000
0.730190 0.029389 0.000000
0.778653 0.094148 0.000000
0.822110 0.128145 0.000000
0.860044 0.161166 0.000000
0.892699 0.191836 0.000000
0.920653 0.220645 0.000000
0.945434 0.248203 0.000000
0.968536 0.275669 0.000000
0.990784 0.303990 0.000000
1.000000 0.332616 0.000000
1.000000 0.361547 0.000000
1.000000 0.390417 0.000000
1.000000 0.419409 0.000000
1.000000 0.448768 0.000000
1.000000 0.478248 0.135775
1.000000 0.507500 0.199588
1.000000 0.536736 0.257877
0.073610 0.112062 0.078309
0.076173 0.112612 0.078096
0.087800 0.114229 0.074678
0.101411 0.115755 0.075410
0.112825 0.112642 0.085389
0.122011 0.112551 0.096437
0.175082 0.127321 0.082918
0.236423 0.133303 0.056306
0.297459 0.133577 0.033814
0.361395 0.132326 0.017731
0.427436 0.128176 0.000000
0.494240 0.123079 0.000000
0.559503 0.118563 0.000000
0.621973 0.117006 0.000000
0.680110 0.121736 0.000000
0.732570 0.133791 0.000000
0.780209 0.152773 0.000000
0.822965 0.175021 0.000000
0.860533 0.198856 0.000000
0.892546 0.222934 0.000000
0.920012 0.247074 0.000000
0.944671 0.270756 0.000000
0.976471 0.307134 0.000000
0.998322 0.333135 0.000000
1.000000 0.359564 0.000000
1.000000 0.386297 0.000000
1.000000 0.413123 0.000000
1.000000 0.440131 0.000000
1.000000 0.467720 0.023133
1.000000 0.495399 0.150332
1.000000 0.523095 0.213291
1.000000 0.550652 0.271000
0.052949 0.145571 0.075807
0.057069 0.146151 0.074189
0.079408 0.148836 0.071809
0.106264 0.154421 0.064057
0.131075 0.153414 0.074220
0.151919 0.149264 0.091920
0.171572 0.152377 0.112276
0.250523 0.174350 0.085389
0.319341 0.178561 0.035370
0.381872 0.175845 0.000000
0.444739 0.173739 0.000000
0.509667 0.173312 0.000000
0.573022 0.173526 0.000000
0.633295 0.175875 0.000000
0.688960 0.181369 0.000000
0.739498 0.191196 0.000000
0.785550 0.204593 0.000000
0.827481 0.222660 0.000000
0.864073 0.241367 0.000000
0.895537 0.260929 0.000000
0.922850 0.281346 0.000000
0.947845 0.302953 0.000000
0.971466 0.325597 0.000000
0.994141 0.349767 0.000000
1.000000 0.374517 0.000000
1.000000 0.399573 0.000000
1.000000 0.424720 0.000000
1.000000 0.450263 0.000000
1.000000 0.476326 0.033967
1.000000 0.502525 0.139376
1.000000 0.528985 0.204959
1.000000 0.555688 0.264714
0.000000 0.195438 0.058137
0.000000 0.195712 0.057649
0.023926 0.199191 0.050965
0.095583 0.204685 0.040833
0.143679 0.210575 0.033661
0.181582 0.208255 0.063508
0.212467 0.204349 0.100587
0.243168 0.211978 0.140017
0.331823 0.234806 0.096223
0.402350 0.236210 0.013214
0.464118 0.230808 0.000000
0.518944 0.223911 0.000000
0.580591 0.225132 0.000000
0.638636 0.228305 0.000000
0.692439 0.233616 0.000000
0.741176 0.241917 0.000000
0.786557 0.252659 0.000000
0.827359 0.266545 0.000000
0.862669 0.281346 0.000000
0.893339 0.296757 0.000000
0.920165 0.312963 0.000000
0.944884 0.330877 0.000000
0.968444 0.350439 0.000000
0.991058 0.371710 0.000000
1.000000 0.393774 0.000000
1.000000 0.416510 0.000000
1.000000 0.439673 0.000000
1.000000 0.463355 0.000000
1.000000 0.487861 0.083040
1.000000 0.512779 0.150454
1.000000 0.537621 0.201633
1.000000 0.562982 0.258701
0.000000 0.255985 0.022400
0.000000 0.256474 0.021454
0.000000 0.259098 0.014069
0.032166 0.264775 0.000000
0.141726 0.273472 0.000000
0.201053 0.275212 0.000000
0.249943 0.273869 0.063813
0.287663 0.271611 0.126955
0.324376 0.284489 0.187503
0.416419 0.305974 0.130648
0.486213 0.304723 0.037263
0.544732 0.296300 0.000000
0.594232 0.285008 0.000000
0.644343 0.281529 0.000000
0.696284 0.285832 0.000000
0.743893 0.292485 0.000000
0.788144 0.301427 0.000000
0.827237 0.311681 0.000000
0.861357 0.322759 0.000000
0.891203 0.334752 0.000000
0.917571 0.347723 0.000000
0.942016 0.362249 0.000000
0.965576 0.378637 0.000000
0.988190 0.396857 0.000000
1.000000 0.416266 0.000000
1.000000 0.436408 0.000000
1.000000 0.457404 0.000000
1.000000 0.479377 0.000000
1.000000 0.502159 0.109285
1.000000 0.525475 0.164981
1.000000 0.548974 0.212497
1.000000 0.572625 0.259129
0.000000 0.320958 0.000000
0.000000 0.321569 0.000000
0.000000 0.323857 0.000000
0.000000 0.329046 0.000000
0.130465 0.336248 0.000000
0.213748 0.343633 0.000000
0.276371 0.344152 0.000000
0.330297 0.344701 0.104036
0.369970 0.345312 0.174746
0.410529 0.362524 0.247135
0.499001 0.381750 0.187839
0.564019 0.378485 0.122683
0.617578 0.368170 0.000000
0.661952 0.353704 0.000000
0.699702 0.339239 0.000000
0.746090 0.343572 0.000000
0.788876 0.350256 0.000000
0.826688 0.357397 0.000000
0.859892 0.365454 0.000000
0.889006 0.374334 0.000000
0.914824 0.384192 0.000000
0.938964 0.395483 0.000000
0.962249 0.408484 0.000000
0.984710 0.423468 0.000000
1.000000 0.439857 0.000000
1.000000 0.457313 0.000000
1.000000 0.476295 0.000000
1.000000 0.496376 0.038025
1.000000 0.517510 0.130465
1.000000 0.539422 0.179873
1.000000 0.561547 0.224460
1.000000 0.584009 0.269871
0.000000 0.386145 0.000000
0.000000 0.386725 0.000000
0.000000 0.388891 0.000000
0.000000 0.393072 0.000000
0.121584 0.399573 0.000000
0.220523 0.408118 0.000000
0.297490 0.412451 0.000000
0.361669 0.414771 0.045960
0.415442 0.417060 0.159945
0.452735 0.419013 0.237125
0.495491 0.441169 0.316045
0.575677 0.456336 0.256657
0.634119 0.451698 0.194308
0.681697 0.440284 0.121431
0.721370 0.424475 0.000000
0.754788 0.407355 0.000000
0.788663 0.398779 0.000000
0.825315 0.403204 0.000000
0.857481 0.408179 0.000000
0.885924 0.414069 0.000000
0.911528 0.420630 0.000000
0.935576 0.429084 0.000000
0.958892 0.439551 0.000000
0.981445 0.451789 0.000000
1.000000 0.465827 0.000000
1.000000 0.481209 0.000000
1.000000 0.498116 0.000000
1.000000 0.516197 0.104860
1.000000 0.535576 0.154452
1.000000 0.555779 0.198428
1.000000 0.576440 0.240146
1.000000 0.597498 0.283909
0.000000 0.449897 0.000000
0.000000 0.450233 0.000000
0.000000 0.452186 0.000000
0.000000 0.455665 0.000000
0.132326 0.460945 0.000000
0.231510 0.468147 0.000000
0.316381 0.475624 0.000000
0.386725 0.479225 0.000000
0.448981 0.482918 0.148043
0.499794 0.487098 0.229465
0.532189 0.489998 0.309209
0.574914 0.515099 0.390326
0.653101 0.533959 0.342260
0.704646 0.527916 0.281498
0.745846 0.514946 0.218631
0.779690 0.497902 0.141115
0.808042 0.478218 0.000000
0.832151 0.457862 0.000000
0.861662 0.457588 0.000000
0.888975 0.460151 0.000000
0.914122 0.464302 0.000000
0.937957 0.470192 0.000000
0.960967 0.478187 0.000000
0.983124 0.488014 0.000000
1.000000 0.499428 0.000000
1.000000 0.512474 0.003632
1.000000 0.527001 0.107820
1.000000 0.542779 0.150240
1.000000 0.559808 0.188815
1.000000 0.577844 0.226535
1.000000 0.596338 0.265385
1.000000 0.615564 0.306188
0.000000 0.512322 0.005188
0.000000 0.512627 0.001099
0.000000 0.513970 0.000000
0.000000 0.516503 0.000000
0.171603 0.520653 0.000000
0.257328 0.526085 0.000000
0.338476 0.532738 0.000000
0.412970 0.537621 0.000000
0.478614 0.542351 0.144259
0.535973 0.547723 0.230808
0.581659 0.554192 0.309789
0.608850 0.558526 0.390173
0.649256 0.583978 0.468940
0.706996 0.590173 0.416236
0.751217 0.582574 0.358221
0.786069 0.568597 0.299962
0.815518 0.550683 0.234958
0.840543 0.530816 0.155673
0.862150 0.510155 0.000000
0.883787 0.496620 0.000000
0.908782 0.498634 0.000000
0.932769 0.502464 0.000000
0.955993 0.508293 0.000000
0.978424 0.516075 0.000000
0.999847 0.525658 0.014618
1.000000 0.536889 0.104341
1.000000 0.549676 0.142550
1.000000 0.563928 0.177035
1.000000 0.579400 0.211032
1.000000 0.595911 0.245792
1.000000 0.613062 0.282780
1.000000 0.630823 0.321996
0.000000 0.564294 0.113039
0.000000 0.564477 0.112032
0.035035 0.565423 0.108003
0.151644 0.567437 0.100069
0.220188 0.570489 0.082887
0.291356 0.574823 0.016480
0.361913 0.580011 0.000000
0.435889 0.585809 0.000000
0.500816 0.590112 0.147036
0.558831 0.595117 0.232883
0.608362 0.601251 0.309697
0.647608 0.608209 0.386572
0.668696 0.612146 0.463142
0.703456 0.635676 0.534783
0.749416 0.637201 0.486336
0.786465 0.628016 0.431647
0.816526 0.613611 0.376959
0.842557 0.596002 0.317388
0.865721 0.576898 0.252049
0.886412 0.556664 0.172854
0.905211 0.536980 0.000000
0.928008 0.534722 0.000000
0.951354 0.538872 0.000000
0.973968 0.545037 0.064179
0.995605 0.552911 0.114626
1.000000 0.562524 0.145693
1.000000 0.573663 0.175326
1.000000 0.586267 0.204623
1.000000 0.600244 0.235142
1.000000 0.615198 0.267430
1.000000 0.630884 0.302251
1.000000 0.647364 0.340185
0.160983 0.610071 0.169314
0.168215 0.610254 0.168673
0.190249 0.610834 0.167178
0.226627 0.612238 0.162264
0.274601 0.614435 0.154818
0.329412 0.617456 0.143954
0.390631 0.621393 0.126314
0.455787 0.626093 0.098390
0.520012 0.630762 0.157382
0.576898 0.635462 0.239414
0.627375 0.640620 0.314733
0.669520 0.646723 0.387915
0.701411 0.653223 0.459937
0.716518 0.656184 0.528649
0.744808 0.676539 0.591791
0.781827 0.675380 0.547845
0.813962 0.666316 0.498054
0.840940 0.652918 0.447761
0.865385 0.636683 0.392767
0.887510 0.618524 0.332982
0.907866 0.599908 0.267399
0.927153 0.581750 0.190494
0.946838 0.569268 0.110475
0.969543 0.573877 0.135073
0.991302 0.580224 0.158083
1.000000 0.588373 0.182010
1.000000 0.598108 0.205844
1.000000 0.609430 0.232151
1.000000 0.622034 0.260166
1.000000 0.635798 0.291020
1.000000 0.650233 0.324559
1.000000 0.665461 0.361517
0.250156 0.648859 0.220981
0.253788 0.649042 0.220523
0.267033 0.649561 0.219791
0.292088 0.650721 0.216617
0.327764 0.652399 0.211856
0.372045 0.654902 0.204410
0.421790 0.657923 0.196536
0.478065 0.661585 0.183719
0.537682 0.665644 0.176516
0.592004 0.669612 0.253666
0.641230 0.673854 0.324620
0.683619 0.678553 0.393957
0.718044 0.683803 0.461524
0.743099 0.689387 0.525322
0.753109 0.691493 0.585992
0.777737 0.709804 0.639002
0.809293 0.708370 0.600336
0.838010 0.700099 0.554986
0.862364 0.687892 0.509728
0.884977 0.672999 0.459968
0.906432 0.656977 0.406653
0.927031 0.640223 0.348119
0.946899 0.623926 0.284855
0.966278 0.608362 0.210117
0.987304 0.607752 0.195712
1.000000 0.614649 0.215885
1.000000 0.623224 0.237583
1.000000 0.633204 0.261387
1.000000 0.644495 0.287053
1.000000 0.656764 0.315892
1.000000 0.669764 0.347692
1.000000 0.683589 0.382788
0.317815 0.681239 0.269841
0.319921 0.681300 0.269932
0.329534 0.681727 0.269017
0.347784 0.682551 0.266423
0.374975 0.683803 0.263859
0.410529 0.685542 0.259312
0.452064 0.687831 0.253758
0.499886 0.690547 0.245853
0.551110 0.693690 0.236057
0.602716 0.696956 0.268986
0.650233 0.700465 0.336034
0.692042 0.704402 0.400946
0.727535 0.708797 0.464698
0.755795 0.713741 0.525658
0.776303 0.719356 0.582269
0.785061 0.722683 0.635554
0.808072 0.739651 0.677241
0.834775 0.738003 0.644160
0.859739 0.730770 0.605280
0.881712 0.719722 0.564477
0.903075 0.706813 0.520623
0.923857 0.692714 0.473091
0.944244 0.678340 0.422309
0.964355 0.663874 0.366583
0.984283 0.650141 0.305028
1.000000 0.640589 0.248722
1.000000 0.648157 0.268589
1.000000 0.657038 0.290135
1.000000 0.667140 0.314916
1.000000 0.678157 0.341619
1.000000 0.689845 0.372107
1.000000 0.702388 0.405493
0.375860 0.708583 0.317845
0.377905 0.708705 0.318059
0.393408 0.712795 0.324956
0.407019 0.713405 0.323766
0.427924 0.714412 0.321630
0.454932 0.715602 0.318700
0.489418 0.717250 0.314275
0.528435 0.719142 0.309545
0.571435 0.721431 0.302922
0.618555 0.723934 0.297063
0.663203 0.727108 0.358343
0.703761 0.730770 0.418738
0.739406 0.734890 0.477821
0.769223 0.739528 0.534386
0.792630 0.744717 0.587396
0.809598 0.750423 0.635187
0.817990 0.754421 0.679286
0.838529 0.769284 0.712276
0.860624 0.766964 0.683070
0.881804 0.760555 0.650385
0.901366 0.751064 0.615564
0.920928 0.740078 0.577996
0.940673 0.727932 0.536431
0.960357 0.715236 0.491676
0.980224 0.702449 0.442664
1.000000 0.690608 0.390112
1.000000 0.679652 0.331456
1.000000 0.681056 0.320012
1.000000 0.689906 0.343084
1.000000 0.699580 0.368627
1.000000 0.710048 0.397467
1.000000 0.721401 0.429236
0.428870 0.732784 0.365911
0.430762 0.733120 0.366735
0.437018 0.733730 0.366613
0.448157 0.734463 0.366674
0.465614 0.735500 0.365606
0.488167 0.736599 0.363836
0.516503 0.738003 0.360784
0.548913 0.739681 0.356909
0.586114 0.741695 0.352422
0.626764 0.744076 0.346654
0.669429 0.747005 0.370550
0.709102 0.750515 0.427466
0.744869 0.754482 0.483284
0.775509 0.759030 0.536248
0.800961 0.764004 0.586999
0.820981 0.769467 0.632624
0.836027 0.775296 0.672633
0.844297 0.780056 0.711421
0.862119 0.793576 0.740871
0.881590 0.790860 0.713405
0.900420 0.785153 0.684535
0.918120 0.777371 0.655390
0.935973 0.768307 0.624018
0.954406 0.758175 0.589075
0.973358 0.747433 0.550286
0.992828 0.736629 0.508293
1.000000 0.726711 0.463783
1.000000 0.717678 0.415137
1.000000 0.711727 0.370245
1.000000 0.720333 0.394446
1.000000 0.729763 0.422004
1.000000 0.740047 0.452613
0.472755 0.753628 0.408423
0.474769 0.753994 0.409033
0.479774 0.754604 0.409277
0.489021 0.755367 0.409216
0.502861 0.756222 0.408789
0.521569 0.757321 0.407111
0.545068 0.758694 0.404852
0.572839 0.760250 0.402441
0.604547 0.762081 0.398718
0.639887 0.764279 0.394629
0.678035 0.766781 0.389624
0.716457 0.770138 0.439460
0.751369 0.774014 0.491402
0.782223 0.778317 0.541802
0.808682 0.783108 0.589899
0.830381 0.788327 0.633112
0.847837 0.793912 0.671534
0.860868 0.799557 0.705898
0.868437 0.804959 0.742733
0.883543 0.816861 0.768338
0.900603 0.813809 0.742550
0.917601 0.808225 0.715450
0.934020 0.801358 0.689021
0.950256 0.793790 0.662898
0.967041 0.785550 0.634180
0.984710 0.776761 0.602197
1.000000 0.768032 0.567315
1.000000 0.759731 0.529747
1.000000 0.752560 0.490913
1.000000 0.746578 0.449958
1.000000 0.749447 0.446937
1.000000 0.758724 0.476478
0.514244 0.774380 0.449012
0.515404 0.774716 0.449836
0.519982 0.775204 0.449958
0.527550 0.775875 0.450019
0.538659 0.776730 0.449866
0.554376 0.777707 0.448524
0.573999 0.778958 0.446784
0.597528 0.780423 0.445045
0.625116 0.782193 0.442573
0.655421 0.784176 0.439246
0.689113 0.786496 0.435431
0.724788 0.789364 0.452979
0.758785 0.793057 0.501915
0.789303 0.797147 0.549523
0.815915 0.801724 0.594903
0.838529 0.806729 0.635889
0.857328 0.812131 0.672389
0.872526 0.817807 0.705837
0.883238 0.823026 0.738186
0.890471 0.829221 0.772915
0.903197 0.839658 0.795315
0.918242 0.836423 0.771450
0.933379 0.830961 0.746365
0.948760 0.824765 0.721920
0.963958 0.818265 0.698634
0.979400 0.811398 0.674495
0.995483 0.804532 0.649256
1.000000 0.797757 0.622187
1.000000 0.791623 0.593652
1.000000 0.786282 0.563928
1.000000 0.782101 0.533715
1.000000 0.779721 0.506584
0.556725 0.796628 0.492042
0.557610 0.796780 0.492134
0.560754 0.797055 0.492134
0.566827 0.797482 0.491737
0.576257 0.798123 0.491005
0.588769 0.798886 0.490333
0.605280 0.799924 0.489082
0.625177 0.801297 0.487160
0.648493 0.802884 0.485054
0.675257 0.804807 0.482856
0.704280 0.806943 0.480446
0.736019 0.809323 0.477028
0.768215 0.812680 0.515953
0.797879 0.816556 0.560845
0.824094 0.820798 0.603235
0.846799 0.825498 0.641657
0.866026 0.830503 0.675990
0.882109 0.835752 0.708156
0.894926 0.841093 0.739223
0.903319 0.845579 0.769162
0.909422 0.851591 0.800992
0.919341 0.859983 0.819791
0.932250 0.856168 0.797513
0.945525 0.850584 0.774075
0.959655 0.844663 0.751247
0.973816 0.838804 0.729946
0.988434 0.832761 0.708278
1.000000 0.827054 0.686793
1.000000 0.821988 0.665675
1.000000 0.817655 0.644526
1.000000 0.814389 0.623804
1.000000 0.812131 0.603754
0.593652 0.816709 0.529015
0.594354 0.816861 0.529107
0.597040 0.817136 0.528985
0.602014 0.817502 0.528954
0.609766 0.818082 0.528466
0.620539 0.818814 0.527855
0.634485 0.819791 0.526757
0.651667 0.821012 0.525353
0.671412 0.822477 0.524163
0.694789 0.824247 0.522454
0.720119 0.826230 0.520195
0.747860 0.828428 0.517784
0.777554 0.831144 0.529473
0.806027 0.834714 0.571984
0.831510 0.838712 0.611627
0.853758 0.843076 0.647578
0.873106 0.847745 0.680232
0.889586 0.852567 0.711269
0.903227 0.857420 0.741390
0.913848 0.862303 0.770321
0.920104 0.865873 0.797757
0.924865 0.871397 0.826719
0.932250 0.877836 0.842313
0.943450 0.873869 0.821805
0.954864 0.867704 0.799222
0.967834 0.862181 0.778256
0.981109 0.857053 0.759274
0.994903 0.851957 0.740261
1.000000 0.847318 0.721828
1.000000 0.843412 0.704189
1.000000 0.840665 0.688289
1.000000 0.839170 0.674647
0.630365 0.837583 0.566552
0.631098 0.837797 0.566766
0.633326 0.838010 0.566735
0.637507 0.838285 0.566461
0.643732 0.838682 0.565942
0.652705 0.839231 0.565240
0.664210 0.839963 0.564050
0.678462 0.840909 0.562921
0.695583 0.842100 0.561486
0.715236 0.843565 0.559777
0.737148 0.845212 0.557946
0.761379 0.847166 0.555749
0.787228 0.849302 0.553277
0.813993 0.852262 0.583062
0.838132 0.855680 0.619654
0.859648 0.859464 0.653468
0.878538 0.863493 0.684291
0.894987 0.867643 0.714351
0.908843 0.871885 0.743526
0.920073 0.876097 0.771603
0.928679 0.880278 0.798154
0.932982 0.882872 0.823026
0.936400 0.887694 0.849088
0.941894 0.892454 0.861479
0.951659 0.888487 0.842771
0.962310 0.883207 0.822873
0.974182 0.878141 0.803769
0.986572 0.873808 0.787198
0.999603 0.869718 0.771023
1.000000 0.866239 0.755856
1.000000 0.863737 0.742428
1.000000 0.861967 0.730465
0.661463 0.856687 0.598505
0.662104 0.856870 0.598749
0.664057 0.857084 0.598840
0.667659 0.857389 0.598810
0.673335 0.857816 0.598505
0.680903 0.858396 0.598108
0.691066 0.859159 0.597467
0.703792 0.860136 0.596735
0.718715 0.861326 0.595880
0.735897 0.862730 0.594812
0.755215 0.864317 0.593561
0.776364 0.866117 0.592126
0.799039 0.867979 0.590478
0.823117 0.870207 0.596490
0.845792 0.873136 0.630762
0.866178 0.876310 0.662165
0.884337 0.879637 0.691676
0.900298 0.882994 0.720699
0.914000 0.886442 0.748867
0.925322 0.889891 0.775906
0.934356 0.893309 0.801480
0.940978 0.896666 0.825254
0.943664 0.898375 0.847440
0.945922 0.902403 0.869871
0.950103 0.905730 0.879210
0.958556 0.902190 0.862882
0.968139 0.897490 0.845335
0.979065 0.893095 0.828519
0.990692 0.889769 0.814603
1.000000 0.886961 0.801846
1.000000 0.884581 0.790097
1.000000 0.882872 0.779843
0.691249 0.876463 0.629694
0.691829 0.876555 0.629847
0.693355 0.876707 0.629877
0.696376 0.876951 0.629664
0.701320 0.877287 0.629419
0.707942 0.877775 0.628992
0.716670 0.878386 0.628504
0.727504 0.879179 0.628046
0.740444 0.880186 0.627375
0.755428 0.881315 0.626490
0.772244 0.882658 0.625605
0.790707 0.884154 0.624445
0.810513 0.885740 0.623316
0.831601 0.887449 0.621729
0.852781 0.889555 0.641810
0.871946 0.891997 0.671321
0.889220 0.894530 0.699886
0.904570 0.897124 0.727962
0.917967 0.899809 0.755215
0.929229 0.902495 0.781216
0.938445 0.905211 0.805783
0.945525 0.907927 0.828641
0.950500 0.910521 0.849638
0.951934 0.911498 0.868742
0.953460 0.914672 0.887297
0.956664 0.916869 0.893919
0.964050 0.913787 0.880034
0.972564 0.909850 0.865080
0.982452 0.906249 0.850828
0.993133 0.903807 0.839231
1.000000 0.901732 0.828916
1.000000 0.900359 0.820371
0.717922 0.895171 0.658106
0.718257 0.895262 0.658259
0.719692 0.895415 0.658228
0.722408 0.895598 0.658198
0.726619 0.895933 0.658076
0.732540 0.896391 0.658015
0.740475 0.897032 0.657984
0.750179 0.897887 0.657984
0.761685 0.898863 0.657923
0.775082 0.900023 0.657832
0.789975 0.901274 0.657740
0.806271 0.902617 0.657435
0.823819 0.904051 0.656916
0.842344 0.905486 0.656306
0.861540 0.906981 0.658228
0.879362 0.908690 0.686305
0.895506 0.910460 0.713832
0.910033 0.912261 0.740841
0.922789 0.914122 0.766842
0.933715 0.916045 0.791623
0.942748 0.918029 0.814786
0.949920 0.919951 0.836454
0.955200 0.921843 0.856138
0.958801 0.923705 0.873594
0.959319 0.923980 0.889006
0.960174 0.926207 0.903532
0.962585 0.927398 0.907897
0.968902 0.924712 0.896147
0.976379 0.921447 0.883696
0.984985 0.918456 0.871763
0.994446 0.916960 0.862943
1.000000 0.916136 0.856168
0.745632 0.914305 0.689204
0.745815 0.914305 0.689265
0.746975 0.914366 0.689174
0.749142 0.914488 0.688991
0.752743 0.914672 0.688869
0.757717 0.914946 0.688685
0.764279 0.915312 0.688533
0.772305 0.915801 0.688258
0.782071 0.916411 0.688136
0.793271 0.917113 0.687770
0.805875 0.917906 0.687526
0.819760 0.918822 0.687190
0.834897 0.919768 0.686641
0.850950 0.920775 0.685969
