20 Preset/Natural Style/【3】LUT video cho PR-AE-FCPX/Natural 2 LUT (7).cube
# Created by Adobe Lightroom plugin Export LUT (1.24.0)
# www.johnrellis.com/lightroom/exportlut.htm
# Preset: 森系胶片-素材江湖07
# Color profile: E:\lut插件\exportlut.1.24\exportlut.lrplugin\color profiles\Rec709gamma2.4.icc
LUT_3D_SIZE 5
DOMAIN_MIN 0.000000 0.000000 0.000000
DOMAIN_MAX 0.903226 0.903226 0.903226
0.000000 0.000000 0.000000
0.106203 0.033539 0.003845
0.400305 0.000000 0.000000
0.822873 0.000000 0.000000
1.000000 0.325719 0.000000
0.042725 0.115023 0.023377
0.113619 0.124117 0.015961
0.459388 0.160922 0.000000
0.838712 0.249363 0.000000
1.000000 0.404822 0.000000
0.173648 0.483528 0.246464
0.297215 0.505058 0.293309
0.494850 0.519738 0.227115
0.830503 0.562768 0.000000
0.980591 0.588067 0.123079
0.612726 0.779202 0.654292
0.649226 0.783841 0.677760
0.730465 0.798550 0.736049
0.751644 0.776089 0.621698
0.893004 0.764889 0.545281
0.803067 0.851804 0.820920
0.808286 0.852384 0.824308
0.818723 0.852811 0.830381
0.833585 0.856046 0.839872
0.840543 0.854124 0.815976
0.016938 0.052155 0.056886
0.118502 0.046296 0.077974
0.395666 0.000000 0.095918
0.799557 0.000000 0.041138
0.992645 0.333593 0.097566
0.018738 0.146578 0.102785
0.155154 0.157412 0.118959
0.456458 0.163943 0.117067
0.816831 0.235782 0.038636
0.989410 0.401953 0.134066
0.112703 0.460822 0.252293
0.290867 0.493477 0.313298
0.501976 0.523064 0.323583
0.827573 0.560449 0.191226
0.968261 0.597040 0.298131
0.590875 0.774319 0.644984
0.638727 0.779904 0.674617
0.731930 0.796933 0.739437
0.754879 0.778683 0.655085
0.887816 0.768704 0.586999
0.799100 0.851377 0.818662
0.805661 0.851865 0.822904
0.821866 0.854246 0.833707
0.836667 0.857237 0.843626
0.842344 0.855497 0.821866
0.000000 0.160952 0.395331
0.000000 0.138369 0.412665
0.507500 0.000000 0.451698
0.840421 0.222904 0.482368
0.939849 0.483040 0.515007
0.000000 0.325078 0.462684
0.132509 0.292882 0.473579
0.541863 0.227298 0.502434
0.827420 0.366522 0.508415
0.933165 0.535088 0.540337
0.000000 0.592828 0.555291
0.254459 0.598993 0.566613
0.594049 0.626337 0.613275
0.788144 0.629938 0.603510
0.912902 0.661189 0.606775
0.463752 0.753628 0.610315
0.526360 0.757473 0.632898
0.702876 0.782925 0.726436
0.772976 0.792782 0.745785
0.873106 0.785153 0.702632
0.772091 0.848905 0.804105
0.782589 0.849546 0.810147
0.814359 0.852445 0.829740
0.838193 0.857328 0.846372
0.842466 0.855161 0.828824
0.000000 0.414160 0.766690
0.000000 0.386114 0.771633
0.519677 0.375525 0.776730
0.816861 0.395605 0.777768
0.911040 0.629419 0.756039
0.285618 0.545281 0.770352
0.324529 0.522484 0.772854
0.540154 0.481300 0.777493
0.803922 0.485023 0.777310
0.899168 0.661341 0.761379
0.552636 0.723354 0.777432
0.584588 0.724483 0.778317
0.657282 0.713924 0.783078
0.776638 0.682918 0.784054
0.868315 0.743648 0.781094
0.627558 0.804196 0.792264
0.645869 0.803525 0.792721
0.713283 0.804868 0.798184
0.795071 0.812619 0.810819
0.850431 0.807645 0.802060
0.708675 0.848173 0.789822
0.715389 0.848081 0.790311
0.762844 0.849271 0.807218
0.829648 0.855344 0.842252
0.846128 0.857389 0.844541
0.625269 0.711604 0.854520
0.630701 0.706844 0.855039
0.675135 0.702083 0.855985
0.761593 0.697963 0.856443
0.863188 0.716518 0.854276
0.661158 0.739803 0.851743
0.664973 0.735836 0.852323
0.692470 0.725948 0.853849
0.765103 0.719448 0.854551
0.859434 0.731472 0.853239
0.732967 0.798489 0.848661
0.739620 0.798550 0.848631
0.750332 0.790738 0.849973
0.781827 0.778744 0.851469
0.850767 0.779202 0.852415
0.772976 0.835782 0.850858
0.777005 0.835843 0.850828
0.795193 0.837461 0.851591
0.814603 0.834836 0.853727
0.847776 0.829526 0.855955
0.793942 0.861204 0.856748
0.796445 0.861112 0.856779
0.808194 0.861021 0.857542
0.828183 0.861021 0.858885
0.852903 0.862730 0.862119
