20 Preset/Natural Style/【3】LUT video cho PR-AE-FCPX/Natural 2 LUT (5).cube
# Created by Adobe Lightroom plugin Export LUT (1.24.0)
# www.johnrellis.com/lightroom/exportlut.htm
# Preset: 森系胶片-素材江湖05
# Color profile: E:\lut插件\exportlut.1.24\exportlut.lrplugin\color profiles\Rec709gamma2.4.icc
LUT_3D_SIZE 5
DOMAIN_MIN 0.000000 0.000000 0.000000
DOMAIN_MAX 0.903226 0.903226 0.903226
0.050843 0.079469 0.071595
0.114015 0.098878 0.091615
0.243503 0.130770 0.117250
0.551507 0.185214 0.163760
0.845335 0.455207 0.342229
0.000000 0.178836 0.144808
0.099184 0.179202 0.113466
0.489357 0.217502 0.123537
0.685634 0.280278 0.183658
0.873289 0.514305 0.378759
0.000000 0.575555 0.440406
0.000000 0.531182 0.363897
0.261631 0.536400 0.216739
0.824430 0.636316 0.440681
0.945006 0.693996 0.552087
0.506188 0.804471 0.743099
0.509026 0.797238 0.729244
0.378759 0.766171 0.614008
0.624842 0.801205 0.575647
0.940551 0.858518 0.796719
0.764218 0.938659 0.909209
0.769894 0.938506 0.908873
0.760800 0.939574 0.898192
0.727321 0.943084 0.865354
0.840269 0.941253 0.872129
0.071168 0.085176 0.112062
0.133089 0.091127 0.120516
0.166964 0.142733 0.141909
0.439765 0.201968 0.195804
0.807675 0.449317 0.374365
0.092836 0.167178 0.168887
0.157382 0.185641 0.172244
0.342840 0.208194 0.187716
0.596674 0.273411 0.231662
0.840909 0.507073 0.410925
0.000000 0.590997 0.499855
0.145876 0.556329 0.449561
0.329747 0.532006 0.287449
0.807706 0.632441 0.482948
0.926909 0.691676 0.580957
0.536248 0.807401 0.759457
0.541009 0.800626 0.747738
0.446296 0.767330 0.645441
0.635035 0.797543 0.598932
0.938262 0.859342 0.805081
0.769650 0.938384 0.911925
0.775082 0.938231 0.911589
0.775723 0.938781 0.904143
0.742367 0.942199 0.873198
0.845792 0.940703 0.878355
0.103700 0.085389 0.231662
0.214389 0.030030 0.278325
0.447852 0.000000 0.320012
0.593317 0.215579 0.323339
0.666712 0.419593 0.424231
0.129946 0.136446 0.264073
0.221744 0.150698 0.304234
0.484474 0.207401 0.372229
0.534783 0.277897 0.325475
0.684779 0.459998 0.451881
0.360113 0.570550 0.580255
0.445899 0.591516 0.599054
0.547601 0.574456 0.540032
0.715480 0.582269 0.547173
0.853849 0.663722 0.629114
0.628687 0.826932 0.819516
0.631922 0.821012 0.811246
0.622797 0.788174 0.758511
0.674403 0.789670 0.678248
0.932982 0.860075 0.828855
0.786313 0.937438 0.921569
0.791775 0.937285 0.921355
0.812314 0.936797 0.920226
0.789975 0.939361 0.897917
0.862181 0.939178 0.896086
0.178256 0.000000 0.513298
0.320256 0.000000 0.548058
0.647364 0.000000 0.623316
0.800778 0.144259 0.626459
0.892882 0.547692 0.696040
0.286503 0.000000 0.553643
0.382971 0.000000 0.575067
0.656397 0.000000 0.639216
0.788022 0.348119 0.646876
0.876463 0.583337 0.702693
0.000000 0.307317 0.510643
0.196048 0.329961 0.546960
0.600153 0.507073 0.663294
0.749966 0.618647 0.712337
0.828580 0.664820 0.719600
0.665614 0.802365 0.835935
0.681849 0.807767 0.840085
0.741512 0.830747 0.858305
0.762814 0.805356 0.811704
0.914244 0.836057 0.842649
0.832883 0.935393 0.938872
0.835447 0.935332 0.938537
0.845121 0.935180 0.936950
0.871458 0.934997 0.935363
0.893645 0.936339 0.927886
0.456397 0.000000 0.813596
0.542535 0.000000 0.819364
0.762600 0.000000 0.843839
0.915160 0.000000 0.858824
0.972808 0.475929 0.839872
0.514580 0.000000 0.821653
0.585443 0.000000 0.827085
0.776486 0.000000 0.848386
0.909941 0.115572 0.859434
0.960266 0.533013 0.842954
0.500847 0.233799 0.834134
0.562676 0.257023 0.836301
0.727810 0.394537 0.849668
0.855680 0.564416 0.864500
0.935485 0.676967 0.865843
0.000000 0.656611 0.839658
0.000000 0.642664 0.832303
0.481636 0.647669 0.848783
0.801297 0.751797 0.892393
0.932830 0.842100 0.918914
0.818235 0.924132 0.945006
0.825040 0.924834 0.945190
0.853819 0.927855 0.945953
0.894987 0.932403 0.947539
0.915435 0.934691 0.949096
