20 Preset/Natural Style/【3】LUT video cho PR-AE-FCPX/Natural 2 LUT (2).cube
# Created by Adobe Lightroom plugin Export LUT (1.24.0)
# www.johnrellis.com/lightroom/exportlut.htm
# Preset: 森系胶片-素材江湖02
# Color profile: E:\lut插件\exportlut.1.24\exportlut.lrplugin\color profiles\Rec709gamma2.4.icc
LUT_3D_SIZE 32
DOMAIN_MIN 0.0 0.0 0.0
DOMAIN_MAX 1.0 1.0 1.0
0.050843 0.079469 0.071595
0.050843 0.079469 0.071595
0.053773 0.081300 0.074525
0.064881 0.085298 0.079438
0.087007 0.090486 0.085176
0.101503 0.095613 0.089876
0.117952 0.100801 0.094118
0.136172 0.106294 0.098177
0.156130 0.111818 0.102907
0.178988 0.117830 0.107637
0.206180 0.124117 0.112581
0.238590 0.130556 0.117830
0.276738 0.137118 0.123690
0.324895 0.144533 0.130190
0.381201 0.152193 0.137484
0.442725 0.160952 0.146120
0.507256 0.173434 0.156313
0.571710 0.192020 0.168795
0.632380 0.218936 0.184268
0.686305 0.255009 0.203861
0.732479 0.298283 0.228275
0.771176 0.344915 0.257542
0.802976 0.391760 0.291386
0.830167 0.438056 0.329808
0.853574 0.482246 0.372473
0.874327 0.523430 0.418341
0.893278 0.561425 0.465522
0.911284 0.596490 0.512108
0.928832 0.628595 0.556512
0.946014 0.658076 0.598260
0.962036 0.685023 0.636805
0.976318 0.709285 0.671351
0.049836 0.080232 0.072572
0.049836 0.080232 0.072572
0.054017 0.082673 0.075349
0.067109 0.086519 0.079927
0.088930 0.091127 0.085695
0.103487 0.096132 0.090181
0.119600 0.101289 0.093996
0.137881 0.106661 0.098451
0.158450 0.112337 0.103090
0.181491 0.118196 0.107820
0.207980 0.124514 0.112764
0.240269 0.130861 0.117983
0.278630 0.137728 0.123751
0.326909 0.144930 0.130251
0.382818 0.152529 0.137514
0.443671 0.161288 0.145998
0.507683 0.173556 0.156039
0.571466 0.192020 0.168460
0.631830 0.218967 0.184024
0.685756 0.254887 0.203281
0.731594 0.297215 0.227268
0.769863 0.343511 0.256474
0.802060 0.390173 0.289799
0.829191 0.436378 0.328130
0.852628 0.480507 0.370459
0.873442 0.521813 0.416205
0.892515 0.559930 0.463386
0.910613 0.595087 0.510063
0.928252 0.627405 0.554681
0.945373 0.656977 0.596612
0.961517 0.684077 0.635401
0.975921 0.708492 0.670161
0.052949 0.086122 0.079469
0.051942 0.086885 0.080079
0.058778 0.087831 0.079164
0.081575 0.090089 0.081147
0.096803 0.094301 0.086793
0.112551 0.099123 0.090761
0.129061 0.104463 0.094820
0.147433 0.109651 0.099580
0.167910 0.115084 0.104097
0.191562 0.120882 0.108644
0.219394 0.127077 0.113680
0.251835 0.133425 0.118685
0.290806 0.140169 0.124514
0.339178 0.147189 0.130800
0.394110 0.154879 0.138094
0.454231 0.163729 0.146548
0.516655 0.176669 0.156802
0.578943 0.195651 0.169375
0.637415 0.222934 0.184909
0.689662 0.258854 0.204288
0.734585 0.301213 0.228275
0.772091 0.347082 0.257481
0.803403 0.392859 0.290715
0.830167 0.438483 0.328740
0.853391 0.482246 0.371130
0.873960 0.522850 0.416449
0.892912 0.560693 0.463447
0.910857 0.595636 0.509941
0.928496 0.627741 0.554528
0.945617 0.657313 0.596490
0.961639 0.684291 0.635218
0.976043 0.708644 0.669947
0.054322 0.098909 0.092897
0.055604 0.099245 0.092836
0.051331 0.101564 0.092500
0.085115 0.101350 0.088899
0.107393 0.103700 0.090608
0.131960 0.108095 0.092103
0.149935 0.112123 0.096773
0.169314 0.117006 0.101198
0.190280 0.122072 0.105806
0.214817 0.127199 0.110384
0.242771 0.133028 0.115114
0.276860 0.139040 0.120607
0.317327 0.145724 0.126131
0.365728 0.152560 0.132631
0.419287 0.159976 0.139712
0.476478 0.169924 0.148318
0.536126 0.183597 0.158663
0.594598 0.203983 0.171115
0.649653 0.232120 0.186679
0.698329 0.267918 0.206302
0.740627 0.309331 0.230289
0.776425 0.353918 0.259281
0.806516 0.398749 0.292607
0.832395 0.443183 0.330541
0.855222 0.486000 0.372808
0.875456 0.526207 0.418463
0.894255 0.563561 0.465431
0.912169 0.598016 0.511711
0.929686 0.629786 0.555993
0.946593 0.658991 0.597803
0.962493 0.685573 0.636133
0.976715 0.709651 0.670619
0.040528 0.124636 0.113069
0.038819 0.125216 0.113313
0.030701 0.128298 0.113161
0.036805 0.130251 0.100343
0.109987 0.125765 0.098970
0.141360 0.124849 0.100130
0.180453 0.129915 0.100252
0.210544 0.133120 0.103182
0.232029 0.135897 0.107973
0.257359 0.139864 0.112795
0.286381 0.144594 0.117586
0.320928 0.149874 0.122988
0.362493 0.155856 0.128511
0.408667 0.162509 0.135073
0.459052 0.170535 0.142336
0.512810 0.181765 0.151339
0.567529 0.197635 0.161746
0.620569 0.219608 0.174777
0.669734 0.248722 0.190799
0.713771 0.284520 0.210788
0.752041 0.325078 0.235569
0.784787 0.367926 0.264836
0.812741 0.410681 0.298009
0.837217 0.453346 0.335912
0.858976 0.494331 0.378149
0.878630 0.532921 0.423255
0.896880 0.568902 0.469551
0.914366 0.602319 0.515129
0.931579 0.633265 0.558892
0.948302 0.661738 0.600000
0.963958 0.687831 0.637903
0.977874 0.711482 0.671931
0.000000 0.166293 0.145205
0.000000 0.167056 0.145327
0.000000 0.170840 0.145388
0.000000 0.177340 0.141207
0.034180 0.171786 0.112062
0.147127 0.159945 0.111086
0.189364 0.154665 0.112703
0.241093 0.161105 0.110597
0.303380 0.165713 0.108766
0.331212 0.165560 0.113741
0.359380 0.167025 0.119509
0.392248 0.170138 0.125216
0.430488 0.175051 0.131319
0.471748 0.181582 0.138247
0.516869 0.190982 0.146426
0.563317 0.203769 0.155673
0.610559 0.221958 0.166964
0.655848 0.245792 0.180789
0.697414 0.275853 0.197910
0.735134 0.310674 0.218814
0.768276 0.349371 0.244450
0.797116 0.389288 0.274083
0.828916 0.441077 0.318029
0.850370 0.479988 0.356786
0.869841 0.517144 0.398840
0.887938 0.552361 0.443061
0.905028 0.585412 0.487678
0.921752 0.616236 0.531151
0.938201 0.645014 0.572778
0.954131 0.671626 0.611749
0.968841 0.696132 0.647761
0.981659 0.718318 0.679896
0.000000 0.235721 0.195804
0.000000 0.236667 0.195804
0.000000 0.241672 0.196139
0.000000 0.251774 0.195834
0.000000 0.248631 0.157321
0.078340 0.232639 0.127474
0.202548 0.209873 0.125368
0.258213 0.196933 0.127840
0.325078 0.204807 0.123690
0.403662 0.210727 0.119051
0.468391 0.212680 0.117891
0.494942 0.211795 0.126589
0.524834 0.214450 0.134615
0.557824 0.220432 0.143191
0.592828 0.230564 0.152560
0.629206 0.244907 0.163424
0.665187 0.264073 0.176394
0.699886 0.288334 0.191867
0.732631 0.316991 0.210697
0.763119 0.350042 0.233616
0.790494 0.385779 0.260868
0.814908 0.422278 0.291875
0.836820 0.458900 0.326543
0.856931 0.495125 0.365515
0.875334 0.529900 0.407416
0.892576 0.562921 0.450874
0.909056 0.593957 0.494392
0.925292 0.623163 0.536706
0.941344 0.650599 0.577111
0.956664 0.676112 0.615229
0.971008 0.699825 0.650416
0.983398 0.721431 0.682094
0.000000 0.334173 0.264317
0.000000 0.334905 0.263981
0.000000 0.340826 0.264469
0.000000 0.350561 0.263584
0.000000 0.356603 0.240146
0.000000 0.339055 0.156588
0.142245 0.310704 0.144106
0.278782 0.272679 0.141695
0.347021 0.251987 0.146029
0.422431 0.261387 0.140627
0.501884 0.269932 0.134951
0.577295 0.278843 0.130556
0.618463 0.281468 0.135592
0.640162 0.283452 0.147738
0.663386 0.290257 0.160220
0.688014 0.301884 0.173465
0.713161 0.317906 0.188388
0.738766 0.338842 0.205417
0.763394 0.363622 0.226017
0.786893 0.391638 0.249973
0.808896 0.421698 0.277165
0.829160 0.452857 0.307836
0.847990 0.484413 0.342077
0.865599 0.515923 0.380194
0.882567 0.546960 0.420691
0.898619 0.576837 0.462470
0.914336 0.605402 0.504234
0.929961 0.632441 0.544732
0.945373 0.658228 0.583856
0.960235 0.682490 0.620661
0.973938 0.705165 0.654841
0.985748 0.725856 0.685603
0.000000 0.447486 0.349584
0.000000 0.448341 0.349584
0.000000 0.452888 0.349615
0.000000 0.461463 0.349096
0.000000 0.475013 0.347631
0.000000 0.459297 0.263462
0.000000 0.435737 0.178775
0.237858 0.399207 0.170809
0.371923 0.350286 0.164340
0.443488 0.318608 0.171176
0.517754 0.330144 0.166323
0.589441 0.341924 0.162387
0.654566 0.354925 0.159579
0.707729 0.369696 0.161990
0.726192 0.370977 0.174868
0.741665 0.376165 0.191226
0.758541 0.386267 0.208286
0.775784 0.400641 0.227481
0.793545 0.419104 0.249027
0.811032 0.440284 0.273228
0.828122 0.463874 0.300389
0.844419 0.488380 0.330266
0.860288 0.514092 0.363348
0.875822 0.540734 0.399664
0.890929 0.567529 0.438361
0.905852 0.593774 0.477790
0.920745 0.619409 0.517174
0.935637 0.644099 0.555627
0.950378 0.667933 0.592737
0.964446 0.690639 0.628138
0.977508 0.712001 0.660975
0.988403 0.731380 0.690211
0.000000 0.551781 0.445441
0.000000 0.552361 0.445289
0.000000 0.555047 0.445045
0.000000 0.560998 0.444739
0.000000 0.569512 0.443000
0.000000 0.565698 0.393988
0.000000 0.548638 0.290837
0.000000 0.521538 0.233341
0.351446 0.483284 0.216068
0.466438 0.429328 0.201602
0.533562 0.392187 0.209171
0.598779 0.404852 0.206729
0.657710 0.418463 0.206302
0.709468 0.432593 0.208194
0.753902 0.448035 0.214084
0.785519 0.458869 0.223301
0.796628 0.461646 0.241581
0.808347 0.468299 0.260899
0.820920 0.478981 0.282170
0.833860 0.492653 0.305547
0.846952 0.508904 0.331212
0.859800 0.526665 0.359045
0.873014 0.546471 0.389837
0.886320 0.567742 0.423468
0.899840 0.589899 0.458869
0.913603 0.612360 0.495155
0.927581 0.634882 0.531853
0.941711 0.657130 0.567956
0.955688 0.678920 0.603174
0.969085 0.699977 0.636835
0.981323 0.720027 0.668208
0.991211 0.737942 0.695827
0.000000 0.628809 0.533135
0.000000 0.629328 0.533074
0.000000 0.631250 0.533104
0.000000 0.634974 0.532769
0.000000 0.641047 0.532036
0.000000 0.644404 0.515435
0.000000 0.633265 0.438972
0.000000 0.618585 0.329137
0.292912 0.590692 0.306432
0.461250 0.555291 0.281590
0.552544 0.505882 0.258244
0.608576 0.466896 0.263615
0.661585 0.479622 0.264775
0.708766 0.492103 0.267796
0.750881 0.504631 0.273381
0.787716 0.517205 0.281743
0.818601 0.529320 0.294682
0.836088 0.534264 0.307652
0.844968 0.537865 0.326299
0.854429 0.544701 0.346960
0.864408 0.554223 0.369574
0.874846 0.566247 0.394385
0.885893 0.580743 0.422065
0.897520 0.597131 0.452125
0.909728 0.615045 0.484260
0.922423 0.633783 0.517082
0.935485 0.653040 0.550439
0.948699 0.672541 0.583703
0.961730 0.692042 0.616449
0.974212 0.711269 0.648035
0.985412 0.729641 0.677455
0.994171 0.745785 0.702968
0.000000 0.686885 0.609064
0.000000 0.687251 0.609094
0.000000 0.688533 0.608942
0.000000 0.691127 0.608698
0.000000 0.695277 0.608331
0.000000 0.700893 0.607477
0.000000 0.695399 0.562371
0.000000 0.685664 0.488228
0.242130 0.670253 0.411444
0.438178 0.644739 0.387366
0.550591 0.614557 0.358923
0.621149 0.572168 0.329839
0.672816 0.542565 0.339605
0.715267 0.553399 0.344091
0.752987 0.562921 0.349676
0.786740 0.572290 0.357214
0.817075 0.581353 0.366644
0.844022 0.590417 0.378210
0.866789 0.599420 0.393652
0.876188 0.600763 0.405921
0.883818 0.604791 0.423957
0.892149 0.611383 0.444068
0.901518 0.620752 0.467048
0.911620 0.632380 0.492531
0.922515 0.645838 0.519707
0.933898 0.660487 0.548119
0.945739 0.676234 0.577264
0.957671 0.692592 0.606653
0.969482 0.709316 0.635828
0.980591 0.726131 0.664210
0.990143 0.741848 0.690242
0.997559 0.756130 0.713497
0.338750 0.734829 0.675837
0.338354 0.735042 0.675837
0.336980 0.735866 0.675685
0.332799 0.737606 0.675227
0.327977 0.740322 0.674678
0.321080 0.744259 0.673854
0.318090 0.744228 0.656245
0.321416 0.737209 0.607019
0.326207 0.728450 0.538354
0.426642 0.712612 0.493782
0.536980 0.691157 0.470588
0.619562 0.666133 0.442390
0.676417 0.630762 0.412604
0.713039 0.595789 0.409308
0.748562 0.605097 0.415717
0.780179 0.612726 0.421973
0.809018 0.620172 0.429847
0.835386 0.627375 0.438788
0.859739 0.634577 0.449073
0.881102 0.641718 0.462196
0.897917 0.646265 0.472908
0.905150 0.648859 0.487800
0.913268 0.654231 0.506065
0.922301 0.662104 0.526879
0.932158 0.671962 0.549676
0.942596 0.683497 0.574151
0.953491 0.696407 0.599725
0.964416 0.710262 0.626032
0.975189 0.724819 0.652338
0.985168 0.739559 0.678126
0.993500 0.753170 0.701442
0.999847 0.765866 0.722927
0.441535 0.770596 0.725307
0.441108 0.770657 0.725216
0.439704 0.771237 0.724910
0.437964 0.772519 0.724636
0.435309 0.774594 0.724239
0.431312 0.777615 0.723629
0.427131 0.781491 0.722927
0.427771 0.776028 0.689082
0.429328 0.769253 0.643458
0.431159 0.761410 0.581231
0.523430 0.745480 0.559930
0.601923 0.726802 0.538506
0.666773 0.705592 0.512963
0.714290 0.675105 0.484596
0.745022 0.641505 0.478035
0.775021 0.649104 0.484504
0.802152 0.655177 0.490272
0.827329 0.660945 0.497108
0.850950 0.666712 0.505058
0.873289 0.672328 0.513573
0.894072 0.678096 0.523644
0.912627 0.684474 0.537224
0.924926 0.687739 0.547784
0.932921 0.692378 0.564080
0.941802 0.699153 0.582544
0.951232 0.707790 0.602930
0.960998 0.717983 0.624964
0.970947 0.729397 0.647730
0.980652 0.741787 0.671199
0.989166 0.753841 0.693294
0.996368 0.765591 0.714351
1.000000 0.776638 0.733822
0.510735 0.801266 0.765621
0.510582 0.801389 0.765621
0.509819 0.801846 0.765408
0.508568 0.802762 0.765133
0.506615 0.804349 0.764797
0.504173 0.806607 0.764279
0.501549 0.809659 0.763729
0.500008 0.808927 0.749874
0.500206 0.803616 0.718013
0.501152 0.797360 0.676570
0.520012 0.788724 0.631952
0.589837 0.774258 0.615991
0.650446 0.757656 0.596490
0.703304 0.739193 0.573693
0.744076 0.712428 0.548211
0.770748 0.680293 0.539940
0.796872 0.686702 0.545830
0.820798 0.691615 0.550805
0.843534 0.696284 0.556603
0.865232 0.700893 0.563226
0.886076 0.705623 0.570825
0.906249 0.710933 0.580011
0.924681 0.716854 0.592126
0.941039 0.722744 0.604913
0.950622 0.726589 0.617029
0.959045 0.732662 0.633539
0.967895 0.740444 0.651820
0.976806 0.749599 0.671473
0.985107 0.759274 0.690974
0.992462 0.769223 0.710323
0.998505 0.779202 0.729122
1.000000 0.787961 0.745174
0.561975 0.827390 0.798154
0.561975 0.827481 0.798184
0.561425 0.827878 0.798062
0.560754 0.828702 0.797971
0.559625 0.829984 0.797787
0.558221 0.831876 0.797543
0.556451 0.834348 0.797269
0.554711 0.837186 0.795987
0.554376 0.832975 0.773220
0.554284 0.828061 0.744076
0.554650 0.822171 0.706203
0.585321 0.812772 0.677699
0.638666 0.799802 0.663142
0.687526 0.785092 0.645899
0.732662 0.768521 0.625360
0.768429 0.744564 0.602686
0.792294 0.713588 0.593591
0.815793 0.719142 0.598871
0.837491 0.723171 0.603143
0.858457 0.727047 0.608026
0.878935 0.731350 0.614374
0.898894 0.736019 0.622095
0.918181 0.741268 0.631159
0.936461 0.746914 0.641688
0.952361 0.753140 0.654841
0.965850 0.757961 0.665583
0.973724 0.763577 0.680476
0.981323 0.770077 0.696071
0.988464 0.777340 0.712154
0.994629 0.785245 0.728695
0.999481 0.793332 0.744961
1.000000 0.800168 0.757961
0.603326 0.849546 0.824735
0.603235 0.849577 0.824674
0.602991 0.849912 0.824613
0.602564 0.850553 0.824613
0.601801 0.851591 0.824460
0.600824 0.853086 0.824277
0.599573 0.855070 0.824094
0.598260 0.857603 0.823819
0.597284 0.856901 0.813718
0.596399 0.853025 0.792721
0.595758 0.848386 0.765621
0.595361 0.843076 0.731441
0.632624 0.833585 0.714992
0.676265 0.821927 0.702022
0.717830 0.808896 0.686824
0.757626 0.794339 0.668971
0.789822 0.773007 0.649439
0.811643 0.743099 0.640436
0.833280 0.748165 0.645411
0.853391 0.751675 0.649195
0.873289 0.755520 0.654231
0.892821 0.759823 0.660639
0.911742 0.764553 0.668452
0.929992 0.769558 0.677241
0.947204 0.774929 0.687129
0.962280 0.780728 0.698970
0.975311 0.786435 0.711269
0.984314 0.790311 0.720943
0.990295 0.795621 0.734188
0.995422 0.801663 0.748104
0.999176 0.808011 0.762081
0.998566 0.812863 0.772335
0.639246 0.868223 0.846677
0.639277 0.868315 0.846708
0.642725 0.870329 0.848753
0.642359 0.870848 0.848692
0.641901 0.871672 0.848600
0.641199 0.872831 0.848478
0.640345 0.874357 0.848264
0.639490 0.876249 0.848020
0.638422 0.878172 0.846647
0.636835 0.875212 0.831113
0.635218 0.871672 0.811765
0.633753 0.867582 0.787503
0.636439 0.862486 0.759487
0.673274 0.853361 0.749477
0.709712 0.843107 0.737911
0.745846 0.831693 0.724483
0.781552 0.818845 0.708949
0.811032 0.800015 0.692470
0.831052 0.771572 0.683864
0.851194 0.775875 0.688319
0.870207 0.779355 0.692348
0.889036 0.783230 0.697597
0.907317 0.787411 0.704067
0.924895 0.791897 0.711604
0.941527 0.796506 0.719875
0.956664 0.800870 0.728298
0.970123 0.805295 0.737423
0.980865 0.810025 0.748196
0.989807 0.814054 0.757748
0.994598 0.818143 0.768276
0.997375 0.822843 0.779965
0.995056 0.825528 0.787747
0.672755 0.884184 0.865385
0.673030 0.884367 0.865568
0.673243 0.884703 0.865690
0.673396 0.885252 0.865843
0.673243 0.886015 0.865873
0.672908 0.886961 0.865812
0.672450 0.888182 0.865690
0.671809 0.889708 0.865476
0.671199 0.891539 0.865263
0.669764 0.891112 0.858152
0.667597 0.888457 0.843687
0.665492 0.885435 0.825986
0.663294 0.881865 0.803861
0.673762 0.876707 0.784726
0.705165 0.868772 0.775875
0.737240 0.859892 0.765835
0.769528 0.850126 0.754452
0.802426 0.839261 0.741360
0.830045 0.822965 0.727657
0.848875 0.798001 0.720882
0.867826 0.800198 0.724819
0.885893 0.803952 0.729427
0.903532 0.807889 0.735042
0.920226 0.811643 0.741085
0.935912 0.815427 0.747768
0.950439 0.819242 0.754971
0.963470 0.823087 0.762844
0.974884 0.826841 0.771084
0.983551 0.830747 0.780423
0.989837 0.834684 0.790311
0.993744 0.837522 0.797848
0.990570 0.838346 0.803738
0.703090 0.896910 0.880613
0.703334 0.897093 0.880766
0.703578 0.897368 0.880888
0.703761 0.897795 0.881010
0.703883 0.898375 0.881071
0.703731 0.899138 0.881010
0.703426 0.900145 0.880949
0.703212 0.901335 0.880827
0.702815 0.902800 0.880644
0.702510 0.904295 0.880003
0.700069 0.902434 0.869230
0.697414 0.900237 0.856046
0.694728 0.897734 0.840085
0.692012 0.894865 0.820493
0.707973 0.889830 0.808194
0.734981 0.883146 0.800595
0.763302 0.875700 0.792020
0.792599 0.867521 0.782437
0.822965 0.858549 0.771633
0.848966 0.844846 0.760586
0.866728 0.823148 0.755367
0.884001 0.822995 0.758114
0.900481 0.826322 0.762448
0.916320 0.829679 0.767544
0.931212 0.833066 0.773281
0.944976 0.836423 0.779599
0.957305 0.839689 0.786374
0.967987 0.842924 0.793576
0.976684 0.846067 0.801175
0.983154 0.849027 0.809018
0.984741 0.851835 0.816709
0.983490 0.851682 0.821653
0.732448 0.907591 0.893858
0.732723 0.907683 0.893950
0.732937 0.907927 0.894072
0.733059 0.908263 0.894163
0.733242 0.908721 0.894194
0.733211 0.909300 0.894194
0.733211 0.910063 0.894133
0.733089 0.911009 0.894041
0.733059 0.912139 0.893950
0.733028 0.913451 0.893797
0.731960 0.913573 0.889647
0.729244 0.912047 0.879881
0.726345 0.910369 0.868132
0.723232 0.908415 0.853941
0.720241 0.906310 0.836973
0.739773 0.901610 0.829923
0.763210 0.896239 0.823606
0.788266 0.890288 0.816587
0.814664 0.883696 0.808652
0.842466 0.876463 0.799710
0.866941 0.865019 0.790585
0.883482 0.845884 0.786313
0.899107 0.844022 0.788357
0.914000 0.847166 0.792874
0.927947 0.850248 0.797971
0.940764 0.853208 0.803525
0.952117 0.856046 0.809506
0.961852 0.858732 0.815793
0.969696 0.861265 0.822354
0.975463 0.863554 0.828977
0.975891 0.864073 0.833433
0.975067 0.863737 0.837705
0.762051 0.916686 0.905852
0.762142 0.916716 0.905913
0.762173 0.916838 0.905913
0.762203 0.917082 0.905913
0.762234 0.917388 0.905913
0.762295 0.917815 0.905882
0.762264 0.918395 0.905821
0.762387 0.919066 0.905760
0.762509 0.919951 0.905699
0.762722 0.920958 0.905638
0.763119 0.922118 0.905547
0.760861 0.921355 0.898985
0.758114 0.920317 0.890532
0.755245 0.919127 0.880430
0.751949 0.917754 0.868162
0.751492 0.915892 0.855070
0.769406 0.911986 0.850065
0.789273 0.907622 0.844541
0.810941 0.902800 0.838407
0.834501 0.897551 0.831724
0.859861 0.891844 0.824430
0.882994 0.882689 0.816983
0.898161 0.865934 0.813504
0.912047 0.862455 0.814786
0.924895 0.865080 0.819028
0.936706 0.867674 0.823880
0.947143 0.870115 0.829129
0.955993 0.872374 0.834623
0.962982 0.874388 0.840330
0.967041 0.876158 0.845884
0.967224 0.875029 0.848631
0.966766 0.874601 0.852354
0.788449 0.923430 0.915557
0.788510 0.923430 0.915587
0.788632 0.923552 0.915587
0.788693 0.923705 0.915587
0.788815 0.923949 0.915587
0.788846 0.924254 0.915587
0.788907 0.924681 0.915526
0.789029 0.925200 0.915496
0.789181 0.925841 0.915435
0.789456 0.926543 0.915343
0.789761 0.927398 0.915251
0.789303 0.927855 0.913481
0.786618 0.927184 0.907256
0.783719 0.926482 0.899840
0.780514 0.925689 0.890990
0.777340 0.924804 0.880583
0.780301 0.923186 0.871489
0.795407 0.920226 0.867369
0.812345 0.916930 0.862821
0.831327 0.913329 0.857816
0.852262 0.909361 0.852445
0.875364 0.905119 0.846616
0.897093 0.898100 0.840757
0.910735 0.883665 0.838132
0.922637 0.878630 0.838285
0.933196 0.880644 0.842130
0.942657 0.882719 0.846738
0.950530 0.884520 0.851560
0.956695 0.886076 0.856474
0.958862 0.886229 0.859983
0.959136 0.884977 0.862486
0.958740 0.884611 0.866056
0.812406 0.928405 0.923552
0.812528 0.928435 0.923613
0.812619 0.928496 0.923644
0.812619 0.928588 0.923613
0.812619 0.928740 0.923552
0.812589 0.928985 0.923522
0.812589 0.929259 0.923461
0.812589 0.929595 0.923369
0.812711 0.930022 0.923308
0.812894 0.930571 0.923217
0.813169 0.931151 0.923125
0.813535 0.931823 0.923003
0.812009 0.931823 0.919860
0.809415 0.931456 0.914488
0.806546 0.931060 0.908171
0.803525 0.930602 0.900664
0.800351 0.930175 0.891844
0.805539 0.928832 0.885832
0.818143 0.926665 0.882414
0.832609 0.924285 0.878721
0.849058 0.921721 0.874754
0.867552 0.918883 0.870512
0.888121 0.915831 0.865965
0.908263 0.910674 0.861387
0.920256 0.898283 0.859312
0.930694 0.892790 0.859617
0.938750 0.894041 0.862882
0.945647 0.895415 0.866941
0.950927 0.896483 0.871061
0.951476 0.895048 0.872801
0.951690 0.893950 0.875181
0.951232 0.893736 0.878691
0.832609 0.931762 0.929808
0.832731 0.931792 0.929839
0.832822 0.931853 0.929870
0.832822 0.931945 0.929870
0.832883 0.932036 0.929839
0.832975 0.932219 0.929808
0.833097 0.932433 0.929778
0.833219 0.932677 0.929778
0.833463 0.933013 0.929747
0.833707 0.933379 0.929686
0.834073 0.933837 0.929656
0.834501 0.934295 0.929595
0.834989 0.934783 0.929503
0.832792 0.934691 0.925719
0.830442 0.934569 0.921294
0.827878 0.934447 0.916075
0.825162 0.934356 0.909880
0.822354 0.934295 0.902678
0.828733 0.933257 0.898985
0.839048 0.931823 0.896300
0.851194 0.930236 0.893431
0.865080 0.928496 0.890379
0.880919 0.926635 0.887114
0.898772 0.924590 0.883696
0.916930 0.921080 0.880308
0.927092 0.910674 0.878782
0.935668 0.904784 0.878782
0.941253 0.905180 0.881285
0.943816 0.904662 0.883513
0.944518 0.903105 0.884947
0.944671 0.902220 0.887358
0.944121 0.902159 0.890776
0.850797 0.934142 0.935027
0.850858 0.934142 0.935058
0.850889 0.934173 0.935027
0.850919 0.934203 0.935058
0.851041 0.934295 0.935027
0.851072 0.934417 0.935027
0.851164 0.934569 0.934997
0.851316 0.934752 0.934966
0.851499 0.934966 0.934966
0.851774 0.935241 0.934936
0.852079 0.935546 0.934905
0.852476 0.935851 0.934844
0.852873 0.936217 0.934813
0.852689 0.936492 0.933928
0.850797 0.936553 0.930846
0.848722 0.936614 0.927245
0.846555 0.936736 0.923033
0.844236 0.936858 0.918120
0.841917 0.937072 0.912413
0.848661 0.936309 0.910307
0.857053 0.935424 0.908263
0.866941 0.934447 0.906126
0.878447 0.933379 0.903807
0.891691 0.932158 0.901396
0.906706 0.930846 0.898894
0.922423 0.928649 0.896422
0.930541 0.920043 0.895232
0.936461 0.913481 0.894316
0.937865 0.911345 0.894163
0.938445 0.910002 0.895689
0.938476 0.909361 0.898100
0.937835 0.909453 0.901488
0.866087 0.935576 0.939117
0.866148 0.935576 0.939117
0.866178 0.935607 0.939117
0.866239 0.935637 0.939117
0.866300 0.935698 0.939117
0.866423 0.935790 0.939117
0.866606 0.935882 0.939147
0.866819 0.936034 0.939147
0.867124 0.936187 0.939147
0.867521 0.936370 0.939178
0.867887 0.936584 0.939208
0.868345 0.936828 0.939208
0.868833 0.937041 0.939208
0.869352 0.937316 0.939208
0.868711 0.937499 0.937957
0.867155 0.937682 0.935607
0.865507 0.937896 0.932830
0.863798 0.938140 0.929625
0.862028 0.938445 0.925872
0.861051 0.938720 0.921965
0.866484 0.938293 0.920562
0.873014 0.937804 0.919066
0.880797 0.937224 0.917510
0.890074 0.936400 0.915587
0.900145 0.935363 0.913512
0.911650 0.934112 0.911345
0.923644 0.932250 0.909239
0.927977 0.924895 0.907408
0.931945 0.917662 0.905669
0.932830 0.916228 0.906126
0.932708 0.915801 0.908537
0.932036 0.916045 0.911833
0.879393 0.936400 0.942412
0.879423 0.936400 0.942412
0.879423 0.936400 0.942412
0.879423 0.936431 0.942382
0.879484 0.936461 0.942382
0.879545 0.936522 0.942382
0.879637 0.936584 0.942382
0.879759 0.936675 0.942382
0.879911 0.936767 0.942351
0.880125 0.936889 0.942351
0.880278 0.937011 0.942321
0.880430 0.937102 0.942260
0.880644 0.937224 0.942199
0.880858 0.937346 0.942138
