20 Preset/Natural Style/【3】LUT video cho PR-AE-FCPX/Natural 2 LUT (8).cube
# Created by Adobe Lightroom plugin Export LUT (1.24.0)
# www.johnrellis.com/lightroom/exportlut.htm
# Preset: 森系胶片-素材江湖08
# Color profile: E:\lut插件\exportlut.1.24\exportlut.lrplugin\color profiles\Rec709gamma2.4.icc
LUT_3D_SIZE 32
DOMAIN_MIN 0.0 0.0 0.0
DOMAIN_MAX 1.0 1.0 1.0
0.050843 0.079469 0.071595
0.050843 0.079469 0.071595
0.053773 0.081300 0.074525
0.061921 0.084810 0.078828
0.082094 0.089204 0.082765
0.095277 0.093263 0.088258
0.107546 0.097475 0.091127
0.120607 0.101839 0.094667
0.135317 0.106416 0.098207
0.151553 0.111055 0.102449
0.169955 0.116426 0.106508
0.191226 0.121736 0.111086
0.215640 0.127382 0.115602
0.244541 0.133364 0.120821
0.278050 0.139895 0.126162
0.317113 0.146670 0.132418
0.362676 0.153933 0.139101
0.414527 0.161990 0.147127
0.468757 0.171939 0.156497
0.525444 0.185824 0.167391
0.582177 0.205570 0.180850
0.635950 0.232120 0.196719
0.684230 0.265934 0.216403
0.728084 0.307042 0.241245
0.766903 0.353521 0.272099
0.801083 0.402930 0.308965
0.830503 0.452857 0.352209
0.856413 0.501152 0.401251
0.879850 0.546441 0.453864
0.902007 0.588464 0.507530
0.923857 0.627253 0.559594
0.945434 0.662715 0.608789
0.049836 0.080232 0.072572
0.048798 0.080964 0.073548
0.055024 0.081910 0.074372
0.065156 0.085298 0.078706
0.083955 0.089479 0.083345
0.096407 0.093538 0.088197
0.108522 0.097749 0.091066
0.121920 0.101991 0.094606
0.137057 0.106813 0.098482
0.153262 0.111696 0.102663
0.171237 0.116762 0.106752
0.192325 0.122042 0.110964
0.216770 0.127626 0.115816
0.246281 0.133883 0.120943
0.279484 0.140383 0.126528
0.318822 0.146975 0.132509
0.363928 0.154055 0.139223
0.414954 0.162387 0.147250
0.469398 0.172335 0.156374
0.525292 0.186069 0.167361
0.581323 0.205356 0.180331
0.634394 0.231479 0.196292
0.682673 0.265019 0.215702
0.726528 0.305669 0.240269
0.765408 0.351598 0.270695
0.799832 0.400946 0.307256
0.829404 0.450843 0.350195
0.855436 0.499336 0.398962
0.878965 0.544671 0.451606
0.901152 0.586938 0.505272
0.923095 0.625818 0.557549
0.944732 0.661463 0.606989
0.050965 0.086275 0.079469
0.052644 0.086122 0.080171
0.053101 0.088075 0.078462
0.074495 0.089235 0.080049
0.091341 0.092134 0.083986
0.103243 0.096193 0.088502
0.115328 0.100160 0.091798
0.128542 0.104524 0.095216
0.143648 0.108705 0.099123
0.160189 0.113558 0.103212
0.178683 0.118746 0.107485
0.199985 0.124178 0.111910
0.225010 0.129732 0.116579
0.254032 0.135897 0.121614
0.287816 0.142153 0.127321
0.327611 0.148836 0.133089
0.372625 0.156069 0.140108
0.423041 0.164096 0.148013
0.476143 0.174441 0.157198
0.531426 0.188571 0.167971
0.586267 0.208072 0.181155
0.638300 0.234714 0.197177
0.685603 0.267948 0.216403
0.728542 0.308232 0.240879
0.766903 0.354223 0.271336
0.800717 0.402625 0.307622
0.830014 0.452186 0.350469
0.855833 0.500206 0.399207
0.879332 0.545373 0.451514
0.901427 0.587335 0.505150
0.923217 0.626032 0.557275
0.944793 0.661555 0.606561
0.055146 0.096254 0.090761
0.054414 0.096681 0.090700
0.053254 0.098268 0.090913
0.068421 0.099275 0.087587
0.094759 0.100893 0.088808
0.115450 0.103395 0.090028
0.129702 0.106416 0.092866
0.143435 0.110048 0.096559
0.158328 0.114229 0.100984
0.175265 0.118654 0.104952
0.194034 0.123354 0.109102
0.216373 0.128603 0.113283
0.242130 0.134310 0.118227
0.271946 0.140139 0.123232
0.306279 0.146426 0.128878
0.346288 0.153201 0.134981
0.390967 0.160281 0.141634
0.439948 0.168643 0.149844
0.491066 0.179507 0.158877
0.543877 0.193912 0.169772
0.596368 0.214145 0.182773
0.646235 0.240848 0.198703
0.691463 0.274235 0.218143
0.732876 0.314275 0.242741
0.770321 0.359564 0.273167
0.803250 0.407599 0.309789
0.832059 0.456580 0.352850
0.857542 0.503807 0.401434
0.880705 0.548302 0.453681
0.902647 0.589715 0.506981
0.924285 0.627802 0.558618
0.945647 0.662776 0.607355
0.051301 0.115175 0.106691
0.049592 0.115816 0.106966
0.044312 0.118013 0.106966
0.039277 0.121645 0.104738
0.083864 0.119905 0.096315
0.115297 0.118105 0.096803
0.141695 0.120760 0.097078
0.170382 0.122530 0.098756
0.185367 0.125032 0.102724
0.202731 0.128450 0.107179
0.222385 0.132509 0.111360
0.245212 0.137148 0.115785
0.272068 0.142458 0.120607
0.302861 0.148013 0.125673
0.337926 0.154177 0.131502
0.377630 0.160586 0.137575
0.421271 0.168124 0.144717
0.467842 0.176974 0.152560
0.516136 0.188571 0.161807
0.565911 0.204410 0.173068
0.614588 0.225803 0.186526
0.660883 0.253269 0.202457
0.703029 0.286717 0.222202
0.741726 0.326299 0.247349
0.777066 0.370611 0.278050
0.808408 0.417365 0.314794
0.835935 0.464546 0.357610
0.860624 0.510185 0.405737
0.883207 0.553399 0.457557
0.904784 0.593622 0.509972
0.926146 0.630823 0.560937
0.947204 0.665095 0.609033
0.026673 0.144015 0.130495
0.024933 0.144503 0.130678
0.017243 0.146792 0.130861
0.000000 0.152163 0.131319
0.005554 0.154574 0.117586
0.098695 0.148684 0.107546
0.141268 0.141543 0.107393
0.175174 0.145113 0.106844
0.217105 0.147402 0.106783
0.250462 0.148043 0.109071
0.270634 0.150057 0.113680
0.293431 0.152987 0.119020
0.320989 0.157229 0.123812
0.351995 0.161990 0.129274
0.386511 0.167605 0.135134
0.424323 0.173709 0.141451
0.464881 0.181704 0.148898
0.508232 0.191653 0.157259
0.552422 0.204746 0.166873
0.597192 0.222202 0.178347
0.641047 0.245090 0.192264
0.681941 0.272984 0.209018
0.730312 0.317327 0.236088
0.764309 0.356939 0.263188
0.795254 0.399634 0.295445
0.822995 0.443946 0.333471
0.847807 0.487984 0.376989
0.870390 0.530114 0.425086
0.891600 0.570214 0.475654
0.912352 0.607691 0.526055
0.933043 0.642664 0.574853
0.953307 0.674830 0.620661
0.000000 0.187991 0.166140
0.000000 0.188632 0.166232
0.000000 0.191836 0.166659
0.000000 0.197848 0.167178
0.000000 0.207767 0.167178
0.000000 0.202823 0.130220
0.117861 0.190127 0.121492
0.177890 0.173526 0.120851
0.221592 0.179080 0.119234
0.275090 0.182925 0.117952
0.337804 0.183719 0.117189
0.371801 0.183078 0.121218
0.396490 0.184176 0.127565
0.424292 0.186862 0.133669
0.455024 0.191318 0.140078
0.489204 0.197696 0.147433
0.525689 0.206210 0.155428
0.562707 0.217594 0.164584
0.600885 0.232456 0.174990
0.639582 0.251926 0.187472
0.677089 0.276219 0.202548
0.712245 0.305303 0.221012
0.745235 0.339208 0.243595
0.776272 0.377325 0.271336
0.804654 0.417975 0.304173
0.830259 0.459724 0.342290
0.853452 0.500725 0.385473
0.874998 0.540398 0.432563
0.895506 0.578271 0.481727
0.915618 0.613947 0.530755
0.935821 0.647425 0.578332
0.955657 0.678614 0.623194
0.000000 0.251011 0.214969
0.000000 0.251438 0.215030
0.000000 0.255497 0.215793
0.000000 0.261723 0.216068
0.000000 0.273014 0.216556
0.000000 0.280766 0.200595
0.000000 0.266331 0.139162
0.146883 0.244236 0.137758
0.226810 0.221042 0.135775
0.279942 0.223209 0.133883
0.345464 0.228977 0.131716
0.417578 0.231174 0.129580
0.485084 0.230289 0.129732
0.509941 0.229770 0.137392
0.534783 0.231968 0.145571
0.561151 0.237034 0.154086
0.588861 0.244694 0.163241
0.618463 0.255924 0.173129
0.648554 0.270695 0.184848
0.679072 0.289586 0.198001
0.708583 0.312566 0.214054
0.737606 0.339788 0.233402
0.765286 0.370947 0.256565
0.791684 0.405524 0.284581
0.816587 0.442481 0.317388
0.839445 0.480262 0.355200
0.860868 0.517632 0.397589
0.880980 0.553948 0.443244
0.900542 0.589166 0.490791
0.920134 0.622675 0.538170
0.939818 0.654414 0.584070
0.959136 0.684169 0.627619
0.000000 0.336675 0.280156
0.000000 0.337530 0.280186
0.000000 0.340887 0.280522
0.000000 0.347417 0.280827
0.000000 0.358709 0.281163
0.000000 0.373754 0.280278
0.000000 0.367956 0.229587
0.000000 0.346685 0.161715
0.186679 0.316686 0.158022
0.292943 0.286198 0.153170
0.352728 0.279820 0.152316
0.424353 0.287419 0.149966
0.498085 0.292607 0.148348
0.568872 0.296117 0.147951
0.617304 0.297307 0.152560
0.635096 0.297978 0.163516
0.654414 0.302617 0.174502
0.674464 0.310857 0.186496
0.696529 0.323156 0.198978
0.718837 0.339269 0.213931
0.741939 0.359533 0.231144
0.764248 0.382879 0.251255
0.786557 0.409674 0.274968
0.808591 0.439765 0.303044
0.829892 0.471962 0.335576
0.850156 0.504723 0.372534
0.869474 0.537957 0.413794
0.888212 0.570672 0.457649
0.906859 0.602777 0.503044
0.925750 0.633753 0.548180
0.944762 0.663386 0.592157
0.963348 0.691463 0.633997
0.000000 0.433204 0.359045
0.000000 0.433906 0.359136
0.000000 0.436530 0.359197
0.000000 0.442664 0.359777
0.000000 0.451484 0.359655
0.000000 0.464271 0.359350
0.000000 0.477790 0.351598
0.000000 0.459236 0.264683
0.000000 0.433753 0.197879
0.247990 0.399023 0.188876
0.367987 0.363043 0.178775
0.431525 0.347265 0.179080
0.502037 0.356329 0.177310
0.570153 0.362951 0.177096
0.632593 0.369268 0.178897
0.685389 0.375158 0.184054
0.712215 0.377966 0.193698
0.725917 0.381018 0.206973
0.740810 0.388464 0.221683
0.756893 0.399786 0.237583
0.773495 0.414801 0.255650
0.790219 0.432349 0.275669
0.807767 0.453529 0.299138
0.825437 0.477516 0.326421
0.843412 0.503807 0.357824
0.861082 0.531456 0.393286
0.878569 0.560113 0.432349
0.896025 0.589105 0.473945
0.913695 0.617945 0.516960
0.931975 0.646265 0.559716
0.950256 0.673640 0.601526
0.968048 0.699977 0.641535
0.000000 0.524376 0.444373
0.000000 0.524865 0.444495
0.000000 0.527214 0.444862
0.000000 0.531487 0.445197
0.000000 0.538842 0.445777
0.000000 0.548455 0.446265
0.000000 0.560906 0.445930
0.000000 0.561212 0.407599
0.000000 0.543938 0.313664
0.000000 0.517266 0.253941
0.329808 0.481636 0.237705
0.441382 0.441596 0.220432
0.506920 0.419074 0.217533
0.570825 0.428107 0.218051
0.629419 0.435767 0.220645
0.681086 0.443519 0.225254
0.726833 0.450935 0.232242
0.764828 0.458686 0.244053
0.778408 0.460578 0.255833
0.789639 0.465583 0.271458
0.801480 0.473732 0.288670
0.814206 0.485176 0.307866
0.827970 0.500175 0.330480
0.842527 0.518303 0.356542
0.857542 0.539025 0.386633
0.872953 0.561608 0.419989
0.888762 0.585657 0.456336
0.904906 0.610468 0.494850
0.921721 0.635767 0.534539
0.939117 0.661097 0.574365
0.956542 0.686030 0.613581
0.973388 0.710292 0.651148
0.000000 0.600519 0.528130
0.000000 0.600793 0.528130
0.000000 0.602350 0.528283
0.000000 0.605463 0.528771
0.000000 0.610437 0.529168
0.000000 0.617121 0.529656
0.000000 0.625818 0.529870
0.000000 0.636164 0.529351
0.000000 0.627405 0.466773
0.000000 0.612238 0.371466
0.249424 0.586969 0.325994
0.416907 0.554589 0.303532
0.521447 0.524407 0.286717
0.580713 0.497047 0.278447
0.633753 0.505272 0.281041
0.681331 0.512444 0.285954
0.724025 0.518883 0.292851
0.762325 0.525200 0.301732
0.795773 0.531579 0.313481
0.820890 0.536675 0.326207
0.830167 0.538933 0.340276
0.839597 0.544366 0.357275
0.850340 0.553460 0.377508
0.862058 0.565850 0.401190
0.874601 0.580926 0.428168
0.887877 0.598108 0.457984
0.901976 0.617182 0.490333
0.916869 0.637507 0.524559
0.932525 0.658747 0.559808
0.948638 0.680476 0.595636
0.964752 0.702358 0.631098
0.980163 0.724056 0.665522
0.231113 0.661891 0.604456
0.230411 0.662074 0.604425
0.227756 0.663081 0.604517
0.221500 0.665064 0.604547
0.211917 0.668360 0.604700
0.198734 0.672847 0.604761
0.179904 0.678676 0.604669
0.154940 0.686091 0.604425
0.134493 0.690883 0.592065
0.161593 0.680537 0.526726
0.184360 0.668208 0.439307
0.385931 0.644892 0.408637
0.501091 0.617243 0.383368
0.578790 0.585443 0.354803
0.629908 0.555596 0.340398
0.674434 0.562707 0.344640
0.714992 0.568872 0.350927
0.751492 0.574334 0.358801
0.784543 0.579644 0.368353
0.814481 0.584802 0.379461
0.840482 0.589960 0.393835
0.857664 0.593713 0.405921
0.866361 0.598108 0.422644
0.876371 0.605768 0.442451
0.887388 0.616205 0.465309
0.899351 0.629114 0.491127
0.912352 0.644190 0.519554
0.926329 0.660822 0.549645
0.941039 0.678767 0.581262
0.956115 0.697719 0.613733
0.971191 0.717159 0.646143
0.985290 0.736660 0.677821
0.370245 0.706111 0.663020
0.370153 0.706264 0.663081
0.368139 0.706935 0.662837
0.365789 0.708309 0.662837
0.362341 0.710567 0.662867
0.356970 0.713954 0.662898
0.350988 0.718227 0.662837
0.343908 0.723720 0.662776
0.335943 0.730251 0.662440
0.334936 0.728878 0.635279
0.338964 0.719936 0.577325
0.350958 0.708919 0.503563
0.475776 0.688045 0.482216
0.560998 0.664576 0.457282
0.624933 0.637720 0.428077
0.669825 0.606012 0.406561
0.707515 0.612055 0.411566
0.741909 0.617029 0.418036
0.773556 0.621576 0.426032
0.802670 0.625879 0.435157
0.829587 0.630213 0.445716
0.854917 0.635248 0.458442
0.877440 0.641047 0.475196
0.890349 0.645350 0.488319
0.900206 0.651881 0.506676
0.911192 0.660975 0.527886
0.923156 0.672267 0.551751
0.936034 0.685451 0.577630
0.949645 0.700313 0.605310
0.963684 0.716457 0.634058
0.977417 0.733364 0.663172
0.990265 0.750607 0.691859
0.457496 0.742611 0.711635
0.457221 0.742702 0.711604
0.456519 0.743191 0.711543
0.455024 0.744167 0.711452
0.452461 0.745876 0.711330
0.449592 0.748318 0.711269
0.446052 0.751644 0.711299
0.441962 0.755978 0.711391
0.437598 0.761196 0.711421
0.433204 0.767239 0.711238
0.433783 0.761318 0.674037
0.435248 0.753201 0.622614
0.457496 0.742153 0.567224
0.541680 0.724239 0.547692
0.607935 0.703944 0.524468
0.661677 0.681147 0.497078
0.703548 0.655177 0.473854
0.734279 0.654231 0.476234
0.764126 0.658473 0.482277
0.792081 0.662257 0.489631
0.818357 0.666041 0.498177
0.843626 0.670466 0.508690
0.868009 0.675532 0.521019
0.890898 0.681117 0.535882
0.911162 0.687007 0.551843
0.922637 0.692683 0.566735
0.933715 0.700832 0.586084
0.945556 0.710994 0.607813
0.958099 0.723049 0.631525
0.970825 0.736538 0.656703
0.983307 0.751034 0.682460
0.994751 0.766018 0.708278
0.520165 0.773922 0.751888
0.520165 0.774044 0.751949
0.519646 0.774441 0.751888
0.518639 0.775418 0.751980
0.517266 0.776822 0.752041
0.515404 0.778897 0.752132
0.513451 0.781613 0.752346
0.510918 0.785245 0.752682
0.508293 0.789487 0.752895
0.505119 0.794461 0.752987
0.502922 0.796902 0.744717
0.502831 0.790249 0.708614
0.503075 0.782589 0.663386
0.528985 0.771664 0.621942
0.591852 0.755673 0.603998
0.645167 0.737789 0.582788
0.691218 0.718044 0.558129
0.730800 0.697627 0.535637
0.756466 0.690455 0.534447
0.783017 0.694179 0.539971
0.808591 0.698024 0.547143
0.833494 0.702144 0.555993
0.857755 0.706905 0.566644
0.881559 0.712001 0.578576
0.904784 0.717586 0.591943
0.925750 0.723690 0.608148
0.943450 0.729793 0.622309
0.954406 0.737209 0.639704
0.965698 0.746487 0.659358
0.977111 0.757351 0.680629
0.988159 0.769253 0.702846
0.997986 0.781888 0.725673
0.568017 0.801724 0.785611
0.567895 0.801785 0.785580
0.567559 0.802121 0.785580
0.566979 0.802884 0.785641
0.566003 0.804074 0.785733
0.564843 0.805722 0.785885
0.563226 0.808011 0.786069
0.561547 0.810880 0.786313
0.559655 0.814328 0.786587
0.557336 0.818387 0.786709
0.555077 0.822965 0.786679
0.553887 0.821622 0.770474
0.553338 0.815457 0.738338
0.552911 0.808347 0.698299
0.581018 0.797818 0.667872
0.631067 0.783658 0.651942
0.675593 0.767880 0.633204
0.715846 0.750576 0.611688
0.753964 0.734371 0.590600
0.776120 0.722835 0.586816
0.800778 0.726864 0.592615
0.825010 0.731106 0.600031
0.848875 0.735683 0.609155
0.872496 0.740536 0.619471
0.895567 0.745754 0.631159
0.917967 0.751278 0.643885
0.939055 0.757259 0.658137
0.957794 0.763607 0.674311
0.972045 0.770169 0.687984
0.982177 0.778531 0.705684
0.991699 0.788113 0.724758
0.999847 0.798520 0.744594
0.607172 0.826322 0.814023
0.607141 0.826474 0.814054
0.610773 0.829160 0.816800
0.610437 0.829709 0.816831
0.609796 0.830686 0.816922
0.608698 0.832059 0.816983
0.607660 0.833829 0.817136
0.606287 0.836088 0.817258
0.604791 0.838834 0.817411
0.603235 0.842039 0.817502
0.601434 0.845731 0.817533
0.599786 0.849821 0.817380
0.598260 0.845365 0.795377
0.596857 0.839658 0.766934
0.595453 0.833127 0.731685
0.624170 0.823087 0.709834
0.665156 0.810361 0.695552
0.703273 0.796506 0.679286
0.738888 0.781338 0.660700
0.775875 0.768856 0.641596
0.795926 0.754482 0.636652
0.819272 0.758846 0.642756
0.842496 0.763302 0.650202
0.865537 0.767941 0.658930
0.888212 0.772671 0.668666
0.910277 0.777707 0.679500
0.931426 0.782895 0.691188
0.951415 0.788296 0.703853
0.968719 0.794095 0.718441
0.983520 0.800168 0.733608
0.993408 0.807126 0.747524
0.999939 0.815396 0.764553
0.642084 0.848478 0.838590
0.642359 0.848753 0.838834
0.642573 0.849149 0.839048
0.642573 0.849821 0.839292
0.642329 0.850797 0.839506
0.641718 0.851926 0.839628
0.640925 0.853422 0.839780
0.639918 0.855253 0.839872
0.638819 0.857481 0.839994
0.637720 0.860105 0.840085
0.636561 0.863096 0.840177
0.635401 0.866453 0.840146
0.633875 0.867918 0.834775
0.631800 0.863584 0.814145
0.629877 0.858579 0.788907
0.627985 0.852934 0.757961
0.657191 0.843717 0.742580
0.692348 0.832822 0.730404
0.726314 0.820829 0.716579
0.758877 0.807919 0.700984
0.793118 0.796811 0.684871
0.814511 0.782681 0.679347
0.837034 0.787320 0.685695
0.859556 0.791958 0.693172
0.881712 0.796658 0.701686
0.903319 0.801389 0.711116
0.924071 0.806271 0.721523
0.943603 0.811246 0.732815
0.961517 0.816281 0.744900
0.977081 0.821408 0.757778
0.988769 0.826871 0.772457
0.997314 0.831998 0.785214
0.672847 0.867002 0.858701
0.673243 0.867247 0.858915
0.673396 0.867613 0.859098
0.673579 0.868193 0.859342
0.673365 0.868956 0.859525
0.673091 0.869902 0.859648
0.672541 0.871122 0.859770
0.671901 0.872618 0.859861
0.671199 0.874388 0.859953
0.670375 0.876524 0.860044
0.669612 0.878996 0.860105
0.668849 0.881682 0.860105
0.668208 0.884672 0.860044
0.666285 0.883909 0.850401
0.663508 0.880186 0.831907
0.660914 0.876005 0.809812
0.658350 0.871305 0.782834
0.687709 0.863005 0.772641
0.718288 0.853788 0.762264
0.748745 0.843748 0.750698
0.778927 0.832853 0.737667
0.810544 0.822751 0.723964
0.833616 0.809354 0.718196
0.855314 0.814084 0.724666
0.876799 0.818784 0.732143
0.897826 0.823362 0.740505
0.917937 0.828000 0.749752
0.936889 0.832547 0.759792
0.954101 0.837186 0.770748
0.969085 0.841764 0.782376
0.981079 0.845945 0.794125
0.987884 0.850004 0.805386
0.702968 0.883299 0.876280
0.703182 0.883482 0.876402
0.703395 0.883787 0.876555
0.703517 0.884245 0.876738
0.703517 0.884855 0.876890
0.703334 0.885618 0.876982
0.703059 0.886595 0.877104
0.702663 0.887785 0.877195
0.702205 0.889250 0.877256
0.701778 0.890929 0.877317
0.701381 0.892882 0.877440
0.700984 0.895079 0.877440
0.700649 0.897490 0.877409
0.700404 0.900084 0.877287
0.697505 0.897887 0.864775
0.694240 0.894865 0.848631
0.690974 0.891600 0.829435
0.690425 0.887724 0.808011
0.716823 0.880827 0.800259
0.743954 0.873350 0.791745
0.771664 0.865263 0.782315
0.799863 0.856535 0.771908
0.828977 0.847623 0.760586
0.854124 0.837278 0.755917
0.874571 0.840208 0.761837
0.894713 0.844785 0.769375
0.914000 0.849241 0.777737
0.932036 0.853544 0.786893
0.948241 0.857755 0.796872
0.961944 0.861448 0.806973
0.972686 0.864622 0.816953
0.976471 0.865721 0.824094
0.733700 0.897856 0.892119
0.733852 0.897948 0.892180
0.733852 0.898100 0.892210
0.733822 0.898375 0.892271
0.733822 0.898772 0.892332
0.733608 0.899351 0.892363
0.733394 0.900084 0.892393
0.733181 0.901030 0.892454
0.732967 0.902159 0.892515
0.732815 0.903502 0.892576
0.732723 0.905028 0.892638
0.732631 0.906767 0.892668
0.732662 0.908659 0.892699
0.732753 0.910704 0.892638
0.732113 0.911955 0.890227
0.728542 0.909941 0.878416
0.724941 0.907744 0.864591
0.721309 0.905303 0.848264
0.723018 0.902129 0.831937
0.745480 0.896605 0.825406
0.769070 0.890684 0.818387
0.793942 0.884276 0.810636
0.819852 0.877379 0.802121
0.846921 0.870054 0.792905
0.873259 0.863279 0.789456
0.892088 0.863279 0.794430
0.910399 0.867582 0.802029
0.927459 0.871641 0.810422
0.942382 0.875090 0.818875
0.954894 0.878019 0.827604
0.964599 0.880491 0.836423
0.966247 0.878965 0.840452
0.761532 0.909117 0.904753
0.761624 0.909178 0.904814
0.761654 0.909300 0.904845
0.761685 0.909514 0.904845
0.761685 0.909850 0.904906
0.761624 0.910277 0.904936
0.761532 0.910857 0.904967
0.761471 0.911589 0.904997
0.761440 0.912474 0.905089
0.761471 0.913512 0.905150
0.761563 0.914702 0.905180
0.761715 0.916045 0.905241
0.761898 0.917479 0.905241
0.762356 0.919036 0.905241
0.762783 0.920745 0.905180
0.761349 0.920958 0.900633
0.757809 0.919585 0.890684
0.754208 0.918120 0.879088
0.750546 0.916533 0.865415
0.753964 0.914122 0.853269
0.772915 0.910033 0.848081
0.793515 0.905608 0.842405
0.815610 0.900908 0.836362
0.839322 0.895903 0.829862
0.864134 0.890166 0.822141
0.890715 0.886198 0.819730
0.907805 0.883940 0.824216
0.923339 0.887327 0.831144
0.937011 0.890227 0.838590
0.948455 0.892607 0.846250
0.955261 0.893980 0.853147
0.956817 0.890776 0.855497
0.788663 0.918334 0.915679
0.788815 0.918364 0.915709
0.788907 0.918456 0.915740
0.788846 0.918608 0.915770
0.788785 0.918853 0.915740
0.788693 0.919158 0.915740
0.788540 0.919554 0.915709
0.788510 0.920043 0.915709
0.788449 0.920684 0.915679
0.788510 0.921447 0.915709
0.788602 0.922301 0.915709
0.788815 0.923278 0.915740
0.789120 0.924346 0.915709
0.789548 0.925505 0.915709
0.790066 0.926726 0.915618
0.790738 0.928038 0.915557
0.788296 0.927733 0.909819
0.784939 0.926909 0.901549
0.781582 0.926085 0.891966
0.778195 0.925261 0.880827
0.782773 0.923613 0.872068
0.798734 0.920775 0.868070
0.816342 0.917754 0.863767
0.835721 0.914549 0.859159
0.856870 0.911070 0.854154
0.879759 0.907317 0.848661
0.905333 0.905272 0.846525
0.920195 0.901122 0.850156
0.932586 0.903563 0.856657
0.942748 0.905394 0.863462
0.946715 0.904112 0.867124
0.948119 0.901183 0.869505
0.812650 0.924987 0.924224
0.812711 0.925048 0.924254
0.812863 0.925109 0.924315
0.812863 0.925231 0.924315
0.812924 0.925383 0.924315
0.812955 0.925658 0.924346
0.812985 0.925963 0.924346
0.813107 0.926360 0.924407
0.813291 0.926848 0.924407
0.813535 0.927398 0.924468
0.813840 0.928038 0.924498
0.814206 0.928771 0.924529
0.814694 0.929564 0.924559
0.815213 0.930419 0.924559
0.815885 0.931304 0.924559
0.816617 0.932250 0.924529
0.817350 0.933135 0.924193
0.814572 0.932830 0.918547
0.811704 0.932555 0.911986
0.808804 0.932311 0.904448
0.805936 0.932128 0.895689
0.810727 0.931121 0.889555
0.823423 0.929290 0.886381
0.837858 0.927306 0.882994
0.854185 0.925231 0.879423
0.872404 0.923064 0.875669
0.892699 0.920806 0.871855
0.916564 0.920531 0.870420
0.929137 0.915343 0.873869
0.936858 0.916289 0.879271
0.938842 0.912932 0.880461
0.940124 0.910338 0.882933
0.835172 0.929992 0.931426
0.835233 0.929992 0.931426
0.835264 0.930053 0.931456
0.835325 0.930114 0.931456
0.835355 0.930236 0.931456
0.835416 0.930419 0.931456
0.835538 0.930663 0.931487
0.835660 0.930938 0.931518
0.835904 0.931273 0.931548
0.836149 0.931670 0.931579
0.836545 0.932128 0.931609
0.836973 0.932616 0.931640
0.837522 0.933196 0.931701
0.838132 0.933776 0.931731
0.838834 0.934386 0.931762
0.839567 0.935058 0.931731
0.840360 0.935698 0.931701
0.840177 0.936156 0.930419
0.837736 0.936187 0.925994
0.835172 0.936248 0.920867
0.832639 0.936400 0.914977
0.830076 0.936584 0.908171
0.834775 0.936095 0.903990
0.844907 0.935058 0.901640
0.856657 0.933989 0.899229
0.870085 0.932830 0.896727
0.885313 0.931670 0.894194
0.902373 0.930480 0.891722
0.922332 0.930571 0.890898
0.930144 0.923674 0.891173
0.932158 0.920165 0.892363
0.933288 0.917937 0.894896
0.854887 0.933349 0.937072
0.854948 0.933379 0.937072
0.854978 0.933410 0.937072
0.855009 0.933471 0.937102
0.855161 0.933532 0.937102
0.855253 0.933654 0.937133
0.855467 0.933806 0.937163
0.855741 0.934020 0.937194
0.856046 0.934234 0.937255
0.856474 0.934539 0.937316
0.856931 0.934844 0.937377
0.857450 0.935180 0.937438
0.857969 0.935576 0.937499
0.858549 0.935943 0.937530
0.859190 0.936339 0.937530
0.859800 0.936797 0.937560
0.860533 0.937224 0.937530
0.861326 0.937652 0.937530
0.860716 0.937957 0.935943
0.858762 0.938231 0.932677
0.856870 0.938537 0.928954
0.854887 0.938933 0.924651
0.852903 0.939452 0.919677
0.857145 0.939330 0.917082
0.864897 0.938872 0.915465
0.873533 0.937957 0.913146
0.883268 0.936889 0.910918
0.894316 0.935698 0.908629
0.906706 0.934325 0.906340
0.918914 0.932891 0.904723
0.925658 0.927794 0.904387
0.927276 0.924193 0.906462
0.871916 0.935454 0.941436
0.871916 0.935454 0.941436
0.871916 0.935454 0.941436
0.871977 0.935485 0.941436
0.872007 0.935546 0.941436
0.872068 0.935607 0.941466
0.872190 0.935729 0.941466
0.872313 0.935821 0.941466
0.872526 0.935973 0.941466
0.872740 0.936156 0.941497
0.873045 0.936339 0.941527
0.873381 0.936553 0.941527
0.873747 0.936797 0.941558
0.873960 0.937011 0.941497
