20 Preset/Natural Style/【3】LUT video cho PR-AE-FCPX/Natural 2 LUT (10).cube
# Created by Adobe Lightroom plugin Export LUT (1.24.0)
# www.johnrellis.com/lightroom/exportlut.htm
# Preset: 森系胶片-素材江湖10
# Color profile: E:\lut插件\exportlut.1.24\exportlut.lrplugin\color profiles\Rec709gamma2.4.icc
LUT_3D_SIZE 5
DOMAIN_MIN 0.000000 0.000000 0.000000
DOMAIN_MAX 0.903226 0.903226 0.903226
0.000000 0.000000 0.000000
0.138827 0.061860 0.013184
0.478676 0.000000 0.005493
0.852689 0.232883 0.151278
0.955718 0.542229 0.462562
0.077272 0.142580 0.013062
0.155184 0.146914 0.010040
0.477729 0.182864 0.000000
0.840635 0.341070 0.159518
0.945556 0.589166 0.498634
0.208927 0.443732 0.082826
0.294011 0.421302 0.041535
0.530663 0.494026 0.124208
0.815122 0.583917 0.325872
0.910491 0.676600 0.560754
0.437507 0.707546 0.331731
0.474525 0.700404 0.317601
0.592798 0.682429 0.286473
0.755856 0.726650 0.424994
0.870603 0.777829 0.665400
0.700801 0.846799 0.677363
0.709590 0.846281 0.675502
0.724056 0.834073 0.628138
0.801755 0.840940 0.682155
0.858091 0.850980 0.754299
0.042054 0.080629 0.078920
0.144808 0.072541 0.089479
0.454627 0.039918 0.109773
0.801846 0.241337 0.183047
0.945098 0.494392 0.387610
0.066590 0.165225 0.113191
0.195743 0.173709 0.126711
0.478065 0.208225 0.144381
0.800778 0.332036 0.216403
0.936492 0.536706 0.421027
0.155612 0.456367 0.178073
0.309514 0.448463 0.205081
0.510765 0.474434 0.223056
0.789029 0.561517 0.362371
0.902800 0.671382 0.568048
0.456611 0.716091 0.411902
0.491188 0.710231 0.399939
0.595819 0.684810 0.350072
0.752224 0.726497 0.470344
0.866941 0.777157 0.676326
0.700587 0.846098 0.689479
0.707759 0.845212 0.686000
0.744198 0.843839 0.680720
0.808316 0.846281 0.709773
0.860685 0.855406 0.772061
0.000000 0.179660 0.371313
0.165896 0.163424 0.382757
0.531273 0.111666 0.400488
0.825376 0.318303 0.443275
0.919707 0.543816 0.536187
0.194949 0.332219 0.421088
0.252201 0.295567 0.426123
0.565240 0.276646 0.442939
0.809354 0.407263 0.462715
0.910277 0.586328 0.565484
0.179171 0.571435 0.510124
0.333288 0.571954 0.515923
0.612360 0.595361 0.558434
0.777279 0.616266 0.565850
0.882475 0.686702 0.641077
0.410315 0.741848 0.533898
0.457496 0.736507 0.536126
0.634668 0.724941 0.587427
0.752316 0.741421 0.622339
0.856535 0.779995 0.720943
0.651148 0.845487 0.688136
0.676020 0.844358 0.700526
0.733730 0.840787 0.717556
0.794675 0.839628 0.714839
0.854704 0.850401 0.774533
0.204196 0.432441 0.716915
0.291264 0.413153 0.721920
0.578973 0.399176 0.725856
0.821439 0.437659 0.718410
0.896117 0.633967 0.714534
0.384771 0.542748 0.720699
0.406287 0.518059 0.722591
0.586999 0.480934 0.723201
0.806149 0.497841 0.714351
0.886809 0.649226 0.714931
0.552880 0.692866 0.729183
0.586023 0.694148 0.728969
0.640345 0.669978 0.732692
0.775937 0.658564 0.726192
0.863737 0.714809 0.735500
0.583246 0.783261 0.755337
0.603204 0.780606 0.753994
0.682643 0.778531 0.758602
0.781643 0.785336 0.774655
0.850919 0.790463 0.776089
0.645136 0.851743 0.752712
0.657099 0.851164 0.754116
0.704646 0.850095 0.762417
0.789212 0.844175 0.783200
0.850462 0.850340 0.804227
0.624292 0.700679 0.833890
0.628046 0.693385 0.834379
0.677302 0.685389 0.835294
0.774838 0.666529 0.835569
0.879576 0.693080 0.829557
0.648920 0.722835 0.830991
0.651850 0.716884 0.831632
0.685847 0.703822 0.832944
0.772671 0.684504 0.833127
0.874449 0.704982 0.828244
0.708370 0.779263 0.829862
0.714687 0.777859 0.829557
0.724056 0.763210 0.830869
0.773465 0.743954 0.830961
0.861295 0.752163 0.830228
0.738308 0.821164 0.836851
0.743679 0.820645 0.836423
0.769802 0.821622 0.836851
0.794949 0.813870 0.840085
0.853483 0.813657 0.842588
0.747738 0.862089 0.850278
0.751980 0.861631 0.850187
0.772702 0.860746 0.851164
0.807767 0.858732 0.852445
0.852537 0.859159 0.857115
