20 Preset/Natural Style/【3】LUT video cho PR-AE-FCPX/Natural 2 LUT (6).cube
# Created by Adobe Lightroom plugin Export LUT (1.24.0)
# www.johnrellis.com/lightroom/exportlut.htm
# Preset: 森系胶片-素材江湖06
# Color profile: E:\lut插件\exportlut.1.24\exportlut.lrplugin\color profiles\Rec709gamma2.4.icc
LUT_3D_SIZE 5
DOMAIN_MIN 0.000000 0.000000 0.000000
DOMAIN_MAX 0.903226 0.903226 0.903226
0.067628 0.105806 0.105257
0.230320 0.099245 0.117403
0.540276 0.087007 0.139010
0.932372 0.008423 0.170199
1.000000 0.216739 0.276371
0.000000 0.237034 0.189059
0.181125 0.252476 0.185977
0.509331 0.253452 0.168338
0.918273 0.274540 0.184115
1.000000 0.318547 0.264836
0.149508 0.520439 0.377142
0.303807 0.554620 0.423590
0.493355 0.563165 0.367285
0.868406 0.506493 0.309361
1.000000 0.519585 0.370062
0.563165 0.812284 0.620661
0.644282 0.824369 0.659937
0.832944 0.873075 0.785214
0.802823 0.818235 0.604944
1.000000 0.735592 0.509667
0.859525 0.933318 0.837980
0.875181 0.934874 0.849729
0.917906 0.938872 0.883635
0.959106 0.952300 0.925963
0.945617 0.940002 0.838071
0.093507 0.122957 0.185519
0.216220 0.128908 0.205905
0.523644 0.169558 0.236851
0.911437 0.180453 0.262028
1.000000 0.257908 0.299626
0.000000 0.254032 0.245304
0.208530 0.266178 0.262211
0.512566 0.283726 0.274083
0.901518 0.293523 0.286961
1.000000 0.337224 0.325750
0.162570 0.482612 0.358648
0.283635 0.515282 0.400092
0.483803 0.545006 0.397894
0.850797 0.505241 0.357397
1.000000 0.538903 0.421454
0.526238 0.796811 0.599329
0.612818 0.810666 0.639490
0.823667 0.861234 0.772854
0.808743 0.817685 0.628168
1.000000 0.736904 0.535821
0.849577 0.931548 0.830167
0.865934 0.932982 0.842130
0.919219 0.940520 0.885710
0.960113 0.952514 0.926970
0.949248 0.942626 0.850187
0.167910 0.186343 0.342046
0.242649 0.201297 0.365759
0.515679 0.217685 0.411780
0.927703 0.237552 0.456306
1.000000 0.480903 0.530541
0.155734 0.255711 0.374792
0.262272 0.293370 0.393805
0.534997 0.316167 0.441230
0.923186 0.367956 0.482643
1.000000 0.534997 0.553368
0.000000 0.505180 0.457588
0.194003 0.517174 0.470008
0.563165 0.571923 0.532219
0.886564 0.614862 0.569818
1.000000 0.656458 0.605768
0.341344 0.724331 0.513603
0.426886 0.735561 0.537530
0.729244 0.806485 0.691432
0.835508 0.824735 0.707576
1.000000 0.773587 0.650355
0.780423 0.921324 0.780941
0.807248 0.923552 0.798184
0.887144 0.932616 0.856687
0.955444 0.949340 0.920745
0.949615 0.940581 0.860716
0.291295 0.262211 0.514458
0.349310 0.274113 0.537682
0.572686 0.302007 0.624323
0.901396 0.306615 0.647761
1.000000 0.500816 0.647608
0.286809 0.302556 0.528222
0.355657 0.332494 0.550530
0.572442 0.370916 0.630365
0.892760 0.390661 0.656184
1.000000 0.559899 0.664790
0.098695 0.467384 0.576532
0.236515 0.465949 0.584588
0.567102 0.540856 0.641474
0.865782 0.616327 0.700252
1.000000 0.732509 0.741756
0.145052 0.755612 0.680903
0.286870 0.756802 0.684230
0.568078 0.772091 0.709865
0.853269 0.820920 0.778805
0.988251 0.854124 0.813474
0.642969 0.914763 0.744900
0.666285 0.914733 0.748165
0.754635 0.916442 0.765927
0.922881 0.936797 0.885893
0.955261 0.942229 0.890349
0.456367 0.353979 0.754177
0.496345 0.365301 0.763607
0.641474 0.403418 0.803067
0.864836 0.511925 0.858122
1.000000 0.562554 0.815305
0.434974 0.370275 0.750698
0.487098 0.397101 0.761013
0.636774 0.442267 0.799466
0.859007 0.551415 0.854246
1.000000 0.598932 0.818936
0.262882 0.417273 0.758968
0.373083 0.427283 0.758358
0.616754 0.549218 0.792111
0.845274 0.665919 0.847227
1.000000 0.718410 0.841428
0.135988 0.711147 0.820676
0.242435 0.705531 0.819303
0.473945 0.689570 0.820768
0.821439 0.771633 0.844663
0.982849 0.856687 0.886351
0.609644 0.939361 0.892973
0.627771 0.938506 0.892912
0.708980 0.937133 0.896361
0.832883 0.934112 0.902129
0.960449 0.942260 0.922728
