20 Preset/Natural Style/【3】LUT video cho PR-AE-FCPX/Natural 2 LUT (8).cube
# Created by Adobe Lightroom plugin Export LUT (1.24.0)
# www.johnrellis.com/lightroom/exportlut.htm
# Preset: 森系胶片-素材江湖08
# Color profile: E:\lut插件\exportlut.1.24\exportlut.lrplugin\color profiles\Rec709gamma2.4.icc
LUT_3D_SIZE 8
DOMAIN_MIN 0.000000 0.000000 0.000000
DOMAIN_MAX 0.903226 0.903226 0.903226
0.050843 0.079469 0.071595
0.082094 0.089204 0.082765
0.135317 0.106416 0.098207
0.215640 0.127382 0.115602
0.362676 0.153933 0.139101
0.582177 0.205570 0.180850
0.766903 0.353521 0.272099
0.879850 0.546441 0.453864
0.051301 0.115175 0.106691
0.083864 0.119905 0.096315
0.185367 0.125032 0.102724
0.272068 0.142458 0.120607
0.421271 0.168124 0.144717
0.614588 0.225803 0.186526
0.777066 0.370611 0.278050
0.883207 0.553399 0.457557
0.000000 0.336675 0.280156
0.000000 0.358709 0.281163
0.186679 0.316686 0.158022
0.498085 0.292607 0.148348
0.654414 0.302617 0.174502
0.741939 0.359533 0.231144
0.829892 0.471962 0.335576
0.906859 0.602777 0.503044
0.231113 0.661891 0.604456
0.211917 0.668360 0.604700
0.134493 0.690883 0.592065
0.501091 0.617243 0.383368
0.714992 0.568872 0.350927
0.840482 0.589960 0.393835
0.887388 0.616205 0.465309
0.941039 0.678767 0.581262
0.568017 0.801724 0.785611
0.566003 0.804074 0.785733
0.559655 0.814328 0.786587
0.553338 0.815457 0.738338
0.675593 0.767880 0.633204
0.800778 0.726864 0.592615
0.895567 0.745754 0.631159
0.972045 0.770169 0.687984
0.702968 0.883299 0.876280
0.703517 0.884855 0.876890
0.702205 0.889250 0.877256
0.700649 0.897490 0.877409
0.690974 0.891600 0.829435
0.771664 0.865263 0.782315
0.874571 0.840208 0.761837
0.948241 0.857755 0.796872
0.812650 0.924987 0.924224
0.812924 0.925383 0.924315
0.813291 0.926848 0.924407
0.814694 0.929564 0.924559
0.817350 0.933135 0.924193
0.805936 0.932128 0.895689
0.854185 0.925231 0.879423
0.929137 0.915343 0.873869
0.882017 0.935424 0.943328
0.882078 0.935485 0.943297
0.882322 0.935729 0.943267
0.882963 0.936126 0.943175
0.883360 0.936736 0.942870
0.883177 0.937316 0.940887
0.877562 0.937896 0.930846
0.894896 0.935912 0.926696
0.055879 0.082826 0.088563
0.090455 0.085786 0.091341
0.112337 0.111482 0.108248
0.194278 0.135012 0.128176
0.335485 0.162997 0.151919
0.549981 0.210941 0.191897
0.747189 0.347631 0.278996
0.869535 0.541161 0.455329
0.079286 0.105470 0.102419
0.102174 0.113222 0.107179
0.156497 0.127962 0.119173
0.244114 0.149447 0.135988
0.392432 0.177005 0.159030
0.589197 0.231144 0.199771
0.761440 0.367834 0.287663
0.874113 0.549859 0.461097
0.000000 0.299596 0.263554
0.000000 0.319493 0.266148
0.223331 0.283696 0.175570
0.494789 0.285283 0.171725
0.623102 0.296391 0.197086
0.721370 0.353948 0.246067
0.815976 0.464179 0.341253
0.898009 0.598016 0.503929
0.272923 0.643183 0.590539
0.259617 0.650233 0.591547
0.210636 0.674891 0.581933
0.505638 0.597375 0.382361
0.708980 0.559167 0.357733
0.834470 0.582605 0.401068
0.877195 0.609064 0.466926
0.933654 0.674464 0.581018
0.574701 0.796506 0.782712
0.572656 0.798795 0.782834
0.565850 0.809018 0.783597
0.558190 0.809842 0.735653
0.677058 0.760708 0.630762
0.798642 0.723262 0.594049
0.893553 0.743038 0.632837
0.968261 0.768185 0.689113
0.704860 0.881132 0.875242
0.704616 0.882200 0.875395
0.703334 0.886748 0.875914
0.701930 0.895354 0.876371
0.692439 0.889494 0.828824
0.772854 0.862791 0.782040
0.873869 0.838895 0.762631
0.947753 0.856657 0.797360
0.813016 0.924315 0.923980
0.812924 0.924620 0.923949
0.813199 0.926116 0.924041
0.814725 0.928923 0.924254
0.817899 0.932708 0.924285
0.806241 0.931609 0.895598
0.854337 0.924376 0.878965
0.928740 0.914519 0.873442
0.882231 0.935393 0.943359
0.882383 0.935424 0.943359
0.882597 0.935668 0.943328
0.883238 0.936095 0.943236
0.884245 0.936645 0.943053
0.883970 0.937255 0.941161
0.878111 0.937835 0.931121
0.895293 0.935882 0.926970
0.076051 0.086397 0.118898
0.104829 0.085451 0.124239
0.172335 0.098085 0.139803
0.206668 0.137148 0.148501
0.224552 0.165560 0.164706
0.446754 0.218692 0.215213
0.696376 0.348577 0.312047
0.845792 0.547723 0.489784
0.098024 0.104646 0.131777
0.119020 0.110170 0.138430
0.188846 0.128786 0.158236
0.193484 0.154025 0.157504
0.271305 0.180636 0.178073
0.490974 0.236057 0.227390
0.713924 0.367102 0.321935
0.851408 0.556390 0.495888
0.172122 0.224002 0.223789
0.184298 0.236210 0.234440
0.273136 0.242130 0.218662
0.384588 0.250187 0.224613
0.509117 0.276463 0.242771
0.652857 0.340154 0.286442
0.779568 0.458778 0.378271
0.877104 0.601038 0.534386
0.384405 0.593805 0.564508
0.385779 0.599573 0.565942
0.359564 0.633021 0.572351
0.539269 0.546014 0.401129
0.713649 0.551629 0.410651
0.802060 0.567346 0.441749
0.852964 0.604639 0.501427
0.917906 0.676753 0.607568
0.603143 0.779385 0.775509
0.601678 0.782071 0.776181
0.595758 0.793362 0.778439
0.587152 0.796201 0.737148
0.691890 0.743648 0.637903
0.799802 0.721157 0.617426
0.893645 0.742000 0.654292
0.958282 0.768368 0.705745
0.718685 0.875425 0.874632
0.718410 0.876646 0.874937
0.717128 0.881376 0.875669
0.715541 0.890288 0.876493
0.704616 0.884581 0.831418
0.781064 0.855924 0.785367
0.874998 0.837797 0.771603
0.948363 0.856443 0.805783
0.820615 0.923033 0.924926
0.820554 0.923369 0.924926
0.820676 0.924834 0.925048
0.821836 0.927703 0.925292
0.824674 0.931640 0.925475
0.812955 0.930541 0.898436
0.859739 0.923217 0.882017
0.929625 0.914763 0.878416
0.884947 0.935119 0.943847
0.884977 0.935180 0.943816
0.885130 0.935393 0.943786
0.885771 0.935821 0.943694
0.886625 0.936400 0.943542
0.886687 0.937011 0.942107
0.880888 0.937591 0.932555
0.897154 0.935729 0.928435
0.097780 0.088228 0.174807
0.125551 0.085573 0.185428
0.211368 0.066835 0.209354
0.381720 0.056214 0.254765
0.450935 0.159609 0.248844
0.415991 0.216403 0.241123
0.536095 0.308812 0.309697
0.788266 0.536736 0.514305
0.131807 0.098604 0.195377
0.154757 0.101228 0.204196
0.228244 0.110048 0.225254
0.403388 0.123751 0.272892
0.433661 0.186343 0.251286
0.396460 0.227848 0.243839
0.570825 0.328038 0.325200
0.797543 0.548241 0.523949
0.141024 0.174289 0.237217
0.175967 0.186069 0.252415
0.300145 0.225956 0.299962
0.420325 0.265385 0.316838
0.356298 0.251316 0.261479
0.451881 0.287907 0.285771
0.688624 0.424537 0.398718
0.833616 0.597375 0.567529
0.427955 0.499062 0.496590
0.450385 0.508721 0.506218
0.459174 0.520989 0.511223
0.570184 0.501091 0.457649
0.648768 0.494575 0.447974
0.718502 0.516655 0.463111
0.799802 0.579980 0.526329
0.884459 0.671962 0.635920
0.629847 0.750729 0.760830
0.631830 0.751278 0.760555
0.633051 0.759121 0.762112
0.623407 0.768307 0.735531
0.711086 0.707546 0.639643
0.803738 0.715816 0.653040
0.883940 0.734371 0.681971
0.939086 0.765072 0.727382
0.740139 0.864256 0.872587
0.741115 0.865782 0.873381
0.739620 0.870909 0.874662
0.738125 0.880827 0.876585
0.725704 0.876188 0.837217
0.794949 0.842588 0.790005
0.878752 0.836301 0.787930
0.950500 0.855283 0.819699
0.832792 0.920195 0.926177
0.832944 0.920623 0.926299
0.833280 0.922332 0.926665
0.834348 0.925475 0.927214
0.836759 0.929686 0.927642
0.825010 0.928832 0.903960
0.868742 0.920806 0.886778
0.931029 0.914763 0.886259
0.889769 0.934600 0.944671
0.889799 0.934661 0.944640
0.889891 0.934905 0.944610
0.890196 0.935332 0.944549
0.890776 0.935943 0.944366
0.891447 0.936584 0.943816
0.885679 0.937163 0.935058
0.900420 0.935454 0.930999
0.134615 0.077089 0.283238
0.169375 0.058778 0.298680
0.318242 0.000000 0.359472
0.421057 0.000000 0.358434
0.653956 0.000000 0.431769
0.720180 0.270817 0.438422
0.716945 0.366552 0.430884
0.768276 0.541680 0.556695
0.191104 0.046113 0.317449
0.218143 0.035401 0.328099
0.338628 0.000000 0.372839
0.436805 0.000000 0.371923
0.660029 0.138186 0.446601
0.708980 0.298558 0.440223
0.708278 0.377356 0.432410
0.762295 0.548882 0.560937
0.216251 0.163699 0.349645
0.247257 0.169589 0.362860
0.386511 0.200046 0.419623
0.492103 0.237247 0.429450
0.672663 0.350317 0.502190
0.658900 0.369940 0.439551
0.663844 0.418402 0.441108
0.737087 0.572015 0.574548
0.180056 0.303563 0.380957
0.233066 0.325048 0.406348
0.414893 0.403601 0.485908
0.568780 0.489387 0.543847
0.603876 0.484016 0.511772
0.545983 0.428534 0.432074
0.671168 0.507958 0.500084
0.818967 0.652827 0.650996
0.634516 0.692317 0.711910
0.642420 0.696284 0.716274
0.652064 0.703609 0.723171
0.648859 0.713832 0.719997
0.720424 0.683619 0.671321
0.770199 0.678065 0.662562
0.825376 0.696101 0.679591
0.902159 0.749416 0.740383
0.747951 0.846128 0.863981
0.749081 0.846738 0.864317
0.752804 0.848478 0.864622
0.753689 0.856931 0.866667
0.744076 0.859007 0.840543
0.805753 0.815152 0.788388
0.884977 0.830838 0.805875
0.952911 0.849271 0.833219
0.837980 0.915709 0.925689
0.838895 0.916014 0.925902
0.842985 0.917357 0.926787
0.846891 0.920745 0.928191
0.848844 0.925963 0.929259
0.838834 0.926024 0.910979
0.879545 0.916045 0.890898
0.933196 0.913512 0.894835
0.889220 0.933898 0.944671
0.889891 0.933959 0.944762
0.892576 0.934203 0.945159
0.895354 0.934630 0.945525
0.895628 0.935302 0.945403
0.896239 0.936034 0.945159
0.891478 0.936614 0.938231
0.904356 0.935119 0.933989
0.196536 0.000000 0.448188
0.236576 0.000000 0.461006
0.392920 0.000000 0.510796
0.573663 0.000000 0.551751
0.657343 0.000000 0.528374
0.810361 0.271885 0.606592
0.850797 0.476661 0.636194
0.866178 0.588006 0.667231
0.258213 0.000000 0.474128
0.294102 0.000000 0.485420
0.437690 0.000000 0.529656
0.581781 0.000000 0.557671
0.663874 0.000000 0.537926
0.806546 0.319951 0.613306
0.843748 0.491218 0.637079
0.862058 0.594110 0.668727
0.315190 0.114748 0.503227
0.345617 0.114748 0.512566
0.468574 0.125704 0.550805
0.613916 0.194553 0.589075
0.684627 0.291447 0.581170
0.794583 0.463508 0.645136
0.820249 0.542687 0.645045
0.849180 0.621851 0.680293
0.323766 0.299229 0.529625
0.360082 0.312810 0.540673
0.492042 0.375738 0.584924
0.638911 0.481086 0.645808
0.697871 0.529046 0.651667
0.779995 0.606500 0.696193
0.783200 0.600305 0.654475
0.826719 0.666835 0.704067
0.357519 0.513848 0.579065
0.369299 0.514763 0.579248
0.428901 0.525231 0.588373
0.633478 0.631464 0.690913
0.715175 0.680659 0.728481
0.714900 0.648127 0.677638
0.717708 0.637995 0.654475
0.817594 0.729397 0.751156
0.743191 0.808530 0.836759
0.747127 0.810666 0.838743
0.762142 0.818631 0.846098
0.766201 0.822660 0.848783
0.760372 0.826291 0.839384
0.816220 0.804135 0.811704
0.867552 0.806149 0.812833
0.928161 0.834195 0.841001
0.845701 0.908690 0.923919
0.846677 0.909178 0.924285
0.850065 0.910765 0.925414
0.856229 0.913725 0.927337
0.861967 0.918700 0.929503
0.856687 0.922332 0.920897
0.894621 0.907500 0.895689
0.935576 0.911589 0.906493
0.891997 0.932860 0.945037
0.892393 0.932921 0.945129
0.894133 0.933196 0.945403
0.897307 0.933745 0.945922
0.901427 0.934417 0.946532
0.901457 0.935302 0.946319
0.898680 0.935973 0.942229
0.909453 0.934722 0.938140
0.315770 0.000000 0.634638
0.357153 0.000000 0.643610
0.495918 0.000000 0.669673
0.691005 0.000000 0.714748
0.788327 0.000000 0.723140
0.835386 0.112276 0.701289
0.898924 0.470436 0.742733
0.934264 0.616388 0.773983
0.357153 0.000000 0.639307
0.394537 0.000000 0.648249
0.519860 0.000000 0.672755
0.698878 0.000000 0.714351
0.781247 0.000000 0.717769
0.826352 0.189761 0.696437
0.890257 0.478248 0.737362
0.925536 0.613489 0.766476
0.465278 0.000000 0.675563
0.489357 0.000000 0.679744
0.579034 0.000000 0.695277
0.711513 0.000000 0.725948
0.778592 0.230961 0.730007
0.816770 0.392462 0.716060
0.880552 0.563043 0.758328
0.918364 0.656306 0.782376
0.470314 0.268711 0.685451
0.493843 0.277775 0.689296
0.578973 0.323278 0.706142
0.694026 0.433722 0.740322
0.763516 0.509239 0.757137
0.803952 0.575738 0.755123
0.871489 0.663813 0.793149
0.905577 0.708370 0.801328
0.375372 0.450782 0.677363
0.405859 0.459236 0.681178
0.512352 0.500969 0.702449
0.644587 0.577356 0.743130
0.749569 0.661006 0.788083
0.794736 0.691096 0.792721
0.861265 0.740078 0.821805
0.890898 0.759609 0.821378
0.552575 0.692561 0.759518
0.556146 0.692409 0.759243
0.567956 0.690089 0.756527
0.586145 0.681056 0.748287
0.728542 0.748867 0.813687
0.810269 0.797604 0.848203
0.833921 0.793484 0.834714
0.878202 0.829068 0.861448
0.824216 0.884977 0.907774
0.826810 0.886198 0.908782
0.835508 0.889738 0.911620
0.851987 0.896880 0.917388
0.865812 0.903868 0.922911
0.866392 0.908843 0.923583
0.901152 0.899016 0.909239
0.930755 0.904265 0.915770
0.896696 0.931273 0.945220
0.897063 0.931365 0.945312
0.898711 0.931823 0.945708
0.901213 0.932525 0.946288
0.904234 0.933440 0.946960
0.907256 0.934356 0.947539
0.906249 0.935332 0.946441
0.915068 0.934386 0.943511
0.478676 0.000000 0.794522
0.507317 0.000000 0.797818
0.600916 0.000000 0.805722
0.734310 0.000000 0.823941
0.847745 0.000000 0.841642
0.915709 0.000000 0.844327
0.938933 0.367956 0.820310
0.975219 0.582208 0.835843
0.496010 0.000000 0.794064
0.523033 0.000000 0.797421
0.612360 0.000000 0.806271
0.738949 0.000000 0.823514
0.847990 0.000000 0.840391
0.915129 0.000000 0.842985
0.932921 0.390204 0.818357
0.970703 0.587854 0.834409
0.566339 0.000000 0.808103
0.586267 0.000000 0.810269
0.657527 0.000000 0.817288
0.767300 0.000000 0.834867
0.855558 0.000000 0.846250
0.900999 0.304082 0.844816
0.918883 0.488624 0.824460
0.962341 0.629969 0.841855
0.594965 0.055940 0.819272
0.611444 0.098329 0.821256
0.668544 0.173617 0.826535
0.752712 0.303471 0.838102
0.829068 0.458778 0.851499
0.874388 0.520470 0.852476
0.902403 0.606043 0.840482
0.952941 0.695338 0.858518
0.512291 0.409705 0.815610
0.530419 0.416297 0.817777
0.590204 0.436042 0.822599
0.688319 0.504234 0.835294
0.784848 0.602258 0.853788
0.848722 0.654932 0.863951
0.888273 0.700374 0.860044
0.943511 0.765591 0.879942
0.329259 0.602960 0.808682
0.359686 0.603693 0.809567
0.465675 0.613214 0.816709
0.586236 0.631312 0.833036
0.719509 0.684291 0.855894
0.838315 0.767880 0.888548
0.888151 0.801175 0.894163
0.936797 0.850126 0.912352
0.684932 0.837034 0.898375
0.686213 0.836881 0.898222
0.691890 0.836271 0.897826
0.704494 0.835966 0.898161
0.722164 0.833158 0.898314
0.818204 0.853696 0.914061
0.894560 0.888457 0.927001
0.918181 0.903899 0.930663
0.879728 0.925231 0.942107
0.880552 0.925414 0.942229
0.884520 0.926421 0.942870
0.892180 0.928496 0.944335
0.901213 0.930785 0.945983
0.909239 0.932708 0.947387
0.914549 0.934600 0.948913
0.915435 0.934691 0.949096
