20 Preset/Natural Style/【3】LUT video cho PR-AE-FCPX/Natural 2 LUT (6).cube
# Created by Adobe Lightroom plugin Export LUT (1.24.0)
# www.johnrellis.com/lightroom/exportlut.htm
# Preset: 森系胶片-素材江湖06
# Color profile: E:\lut插件\exportlut.1.24\exportlut.lrplugin\color profiles\Rec709gamma2.4.icc
LUT_3D_SIZE 32
DOMAIN_MIN 0.0 0.0 0.0
DOMAIN_MAX 1.0 1.0 1.0
0.067628 0.105806 0.105257
0.067628 0.105806 0.105257
0.067628 0.105806 0.105257
0.092195 0.105837 0.106386
0.119387 0.105074 0.108309
0.155215 0.102785 0.111482
0.192935 0.100069 0.114504
0.230320 0.099245 0.117403
0.268589 0.097444 0.119539
0.307958 0.096407 0.121859
0.348669 0.095735 0.124849
0.392065 0.094575 0.128023
0.438300 0.092988 0.131258
0.487984 0.090272 0.135561
0.540276 0.087007 0.139010
0.595544 0.078492 0.142519
0.653834 0.061982 0.145815
0.713558 0.043153 0.148775
0.772305 0.020386 0.152773
0.829129 0.003815 0.157107
0.881743 0.000000 0.162417
0.932372 0.008423 0.170199
0.983703 0.046662 0.181613
1.000000 0.094514 0.194400
1.000000 0.119631 0.208469
1.000000 0.143130 0.223484
1.000000 0.167086 0.239750
1.000000 0.191348 0.257145
1.000000 0.216739 0.276371
1.000000 0.244907 0.297978
1.000000 0.275853 0.321813
1.000000 0.310704 0.348486
0.067628 0.105806 0.105257
0.067628 0.105806 0.105257
0.067628 0.105806 0.105257
0.092195 0.105837 0.106386
0.119387 0.105074 0.108309
0.154391 0.103304 0.111452
0.191012 0.102022 0.114351
0.227756 0.101961 0.116945
0.265141 0.101228 0.119356
0.303899 0.099794 0.121523
0.343938 0.098970 0.124086
0.386542 0.097871 0.127199
0.432013 0.096986 0.130556
0.480751 0.096468 0.134432
0.532525 0.093721 0.137881
0.586999 0.090120 0.141604
0.644923 0.081880 0.144686
0.704463 0.067445 0.147616
0.763760 0.042542 0.151980
0.820615 0.025788 0.155917
0.873533 0.016419 0.161044
0.924468 0.019074 0.168643
0.974762 0.052827 0.179141
1.000000 0.092866 0.191409
1.000000 0.115572 0.204227
1.000000 0.138674 0.218570
1.000000 0.160525 0.234318
1.000000 0.184115 0.251469
1.000000 0.208865 0.270634
1.000000 0.236271 0.291600
1.000000 0.266758 0.315221
1.000000 0.301396 0.341741
0.067903 0.106447 0.105501
0.067903 0.106447 0.105501
0.068177 0.107118 0.105745
0.094911 0.108248 0.106691
0.121065 0.109804 0.108309
0.155032 0.111452 0.110689
0.190158 0.112551 0.113405
0.226261 0.112734 0.115999
0.262791 0.112520 0.118166
0.300755 0.112459 0.120302
0.340246 0.112306 0.122927
0.382025 0.112276 0.125826
0.427131 0.111666 0.129610
0.474952 0.112032 0.133120
0.525933 0.110994 0.136690
0.579980 0.108766 0.139895
0.637110 0.106447 0.143099
0.696956 0.101900 0.146304
0.756191 0.095003 0.149996
0.813413 0.089693 0.154208
0.867155 0.084993 0.158999
0.919554 0.088075 0.166262
0.969390 0.096681 0.176669
1.000000 0.111910 0.188296
1.000000 0.128908 0.201205
1.000000 0.145724 0.215335
1.000000 0.165316 0.230838
1.000000 0.186374 0.247868
1.000000 0.209506 0.266880
1.000000 0.235538 0.287724
1.000000 0.265141 0.311284
1.000000 0.298314 0.337255
0.056703 0.119539 0.111543
0.058656 0.120027 0.112123
0.069001 0.120790 0.114717
0.086305 0.124117 0.111604
0.121859 0.126650 0.110567
0.156374 0.128756 0.110262
0.190555 0.130282 0.111940
0.225010 0.131319 0.114229
0.260807 0.131960 0.116365
0.297948 0.132082 0.118318
0.336828 0.132387 0.120760
0.377844 0.133486 0.123659
0.421576 0.135134 0.126619
0.468513 0.136202 0.130587
0.518273 0.136721 0.133852
0.570520 0.137667 0.136721
0.626429 0.137118 0.139803
0.684779 0.135836 0.142733
0.743465 0.132753 0.146059
0.800687 0.129549 0.150057
0.854765 0.126986 0.155001
0.909178 0.126955 0.162631
0.958221 0.131746 0.172030
0.999725 0.138949 0.183627
1.000000 0.150088 0.196445
1.000000 0.163516 0.210483
1.000000 0.179629 0.226749
1.000000 0.197543 0.244511
1.000000 0.218448 0.263890
1.000000 0.242283 0.285130
1.000000 0.269230 0.308385
1.000000 0.300175 0.334234
0.049317 0.141238 0.124819
0.052674 0.141573 0.125826
0.068574 0.143343 0.129641
0.079316 0.146212 0.133913
0.104585 0.150210 0.124483
0.151827 0.154025 0.120027
0.187137 0.151858 0.118715
0.221775 0.152865 0.117678
0.257023 0.153933 0.116487
0.292576 0.155459 0.116548
0.329900 0.157137 0.117189
0.370001 0.158724 0.119966
0.412757 0.161288 0.122744
0.458717 0.163577 0.126070
0.507469 0.166171 0.129397
0.559960 0.167941 0.132387
0.615625 0.169497 0.135470
0.674464 0.169528 0.138491
0.733486 0.168856 0.141390
0.791165 0.167849 0.145266
0.845884 0.166690 0.150179
0.902373 0.167391 0.157321
0.951232 0.169436 0.167269
0.993042 0.174105 0.178073
1.000000 0.180911 0.191318
1.000000 0.189395 0.206485
1.000000 0.201053 0.222507
1.000000 0.215152 0.240391
1.000000 0.232486 0.260227
1.000000 0.252659 0.281407
1.000000 0.276799 0.304479
1.000000 0.304936 0.330114
0.027619 0.169558 0.142031
0.033631 0.169924 0.143282
0.052888 0.171572 0.147280
0.088441 0.175021 0.155245
0.091524 0.179080 0.157900
0.126253 0.180758 0.141024
0.181277 0.185763 0.133059
0.217624 0.178775 0.131533
0.253208 0.179232 0.129854
0.290013 0.180209 0.128664
0.327764 0.181765 0.128115
0.367254 0.184146 0.128908
0.409247 0.187137 0.129549
0.454414 0.190249 0.131258
0.502800 0.193942 0.133181
0.554467 0.196780 0.134463
0.609979 0.199619 0.136080
0.668605 0.201755 0.137575
0.727626 0.203189 0.139040
0.785092 0.204013 0.140780
0.842435 0.204807 0.145083
0.899779 0.206180 0.151827
0.998108 0.221836 0.174655
1.000000 0.228153 0.190585
1.000000 0.236118 0.206912
1.000000 0.245029 0.224979
1.000000 0.256199 0.243534
1.000000 0.269261 0.262913
1.000000 0.285313 0.283726
1.000000 0.304417 0.306157
1.000000 0.327062 0.330358
1.000000 0.353582 0.356542
0.009552 0.206027 0.167178
0.011475 0.206516 0.167788
0.037324 0.208042 0.171664
0.085115 0.211673 0.180056
0.105562 0.216526 0.188632
0.102724 0.222232 0.184146
0.154513 0.219944 0.164828
0.217380 0.225498 0.153048
0.256352 0.215122 0.150515
0.294743 0.213626 0.149081
0.334874 0.214939 0.148470
0.377661 0.217166 0.148287
0.422004 0.219577 0.148714
0.468452 0.222477 0.149538
0.517540 0.225498 0.150454
0.569604 0.228428 0.151522
0.625360 0.230808 0.152773
0.683711 0.233249 0.153262
0.742245 0.234867 0.154604
0.800137 0.236240 0.156771
0.867094 0.239902 0.161501
0.926635 0.243748 0.168856
0.977142 0.248569 0.178744
1.000000 0.254612 0.190555
1.000000 0.261845 0.203525
1.000000 0.269566 0.217105
1.000000 0.277775 0.233097
1.000000 0.287602 0.252842
1.000000 0.299840 0.273777
1.000000 0.314702 0.296330
1.000000 0.333471 0.320256
1.000000 0.356390 0.346136
0.000000 0.237034 0.189059
0.003845 0.237278 0.189761
0.026978 0.238895 0.193240
0.078798 0.242008 0.199985
0.115084 0.247044 0.211246
0.127199 0.254215 0.219608
0.121889 0.258579 0.206363
0.181125 0.252476 0.185977
0.247135 0.258518 0.171878
0.286656 0.248905 0.169924
0.325902 0.243565 0.168154
0.368383 0.245670 0.168063
0.413153 0.247929 0.168093
0.460273 0.250645 0.167697
0.509331 0.253452 0.168338
0.560723 0.256229 0.168826
0.615625 0.259007 0.169772
0.673518 0.261662 0.169741
0.732082 0.263951 0.170840
0.797238 0.267308 0.173709
0.861357 0.271031 0.177584
0.918273 0.274540 0.184115
0.967590 0.278752 0.191928
1.000000 0.283421 0.202487
1.000000 0.288823 0.214267
1.000000 0.294896 0.226139
1.000000 0.301701 0.237766
1.000000 0.309270 0.250553
1.000000 0.318547 0.264836
1.000000 0.330877 0.287449
1.000000 0.346105 0.311589
1.000000 0.365759 0.338048
0.000000 0.269200 0.212558
0.002502 0.269780 0.213474
0.026520 0.271153 0.216068
0.080354 0.273808 0.221958
0.116060 0.278416 0.231724
0.143709 0.285283 0.243473
0.155520 0.294774 0.252903
0.151949 0.295628 0.231754
0.209415 0.286259 0.208774
0.278141 0.292760 0.191867
0.320073 0.283665 0.189853
0.359167 0.274449 0.187869
0.404150 0.276860 0.187686
0.451301 0.279820 0.187747
0.501061 0.282780 0.187869
0.553643 0.285588 0.187289
0.608606 0.288670 0.187259
0.666194 0.291691 0.187625
0.731106 0.296025 0.189242
0.795682 0.299901 0.191592
0.856840 0.303502 0.195346
0.911650 0.306706 0.200595
0.960113 0.310094 0.207706
1.000000 0.313817 0.217044
1.000000 0.318212 0.227451
1.000000 0.322942 0.238193
1.000000 0.328222 0.249241
1.000000 0.334539 0.261082
1.000000 0.342260 0.274052
1.000000 0.351385 0.287602
1.000000 0.362890 0.304021
1.000000 0.379553 0.330419
0.007233 0.302708 0.236667
0.014527 0.302953 0.237247
0.040955 0.303990 0.239628
0.089265 0.306889 0.244968
0.120699 0.310887 0.253178
0.153628 0.316930 0.264958
0.173709 0.325963 0.276005
0.188479 0.338537 0.287541
0.184451 0.333471 0.256657
0.239841 0.320226 0.231205
0.310460 0.326268 0.211734
0.353979 0.317967 0.209445
0.394018 0.308171 0.207004
0.439155 0.307012 0.206119
0.489662 0.310857 0.206821
0.542718 0.314519 0.206607
0.600946 0.319097 0.206638
0.666926 0.324712 0.206516
0.731716 0.329656 0.208011
0.794217 0.333410 0.210361
0.852537 0.336767 0.213107
0.904662 0.339055 0.217838
0.950774 0.341253 0.223484
0.991272 0.343694 0.230900
1.000000 0.346471 0.239536
1.000000 0.349584 0.248661
1.000000 0.353704 0.259129
1.000000 0.358679 0.270390
1.000000 0.365423 0.282536
1.000000 0.373754 0.296330
1.000000 0.383825 0.311162
1.000000 0.396185 0.327886
0.028656 0.335302 0.259739
0.036194 0.335637 0.260319
0.062745 0.336858 0.262455
0.098634 0.339605 0.267277
0.126986 0.344030 0.274876
0.158877 0.350103 0.285466
0.193606 0.358831 0.299718
0.209384 0.371771 0.311192
0.221012 0.385260 0.319188
0.220951 0.374456 0.282170
0.274266 0.356817 0.254185
0.346288 0.361883 0.232456
0.392584 0.354284 0.228275
0.433845 0.344274 0.226322
0.479438 0.338933 0.224643
0.536675 0.345281 0.225650
0.597894 0.351598 0.226688
0.662104 0.357488 0.226780
0.725643 0.362219 0.227237
0.787411 0.365972 0.228061
0.844541 0.368872 0.230533
0.895628 0.370886 0.234440
0.941650 0.372961 0.239841
0.982391 0.374701 0.246586
1.000000 0.376989 0.254643
1.000000 0.379461 0.263096
1.000000 0.382666 0.273136
1.000000 0.386755 0.283818
1.000000 0.392554 0.295872
1.000000 0.399908 0.309209
1.000000 0.409155 0.324071
1.000000 0.420417 0.339879
0.057740 0.372107 0.284764
0.065583 0.372412 0.285191
0.089570 0.373785 0.287419
0.109743 0.376715 0.291661
0.137087 0.381170 0.298741
0.168734 0.387457 0.308751
0.204837 0.396307 0.322423
0.233494 0.408972 0.336950
0.253941 0.426032 0.351263
0.253605 0.436255 0.347478
0.263279 0.419898 0.309575
0.314214 0.396765 0.278141
0.413458 0.421393 0.263035
0.470588 0.417151 0.258946
0.521263 0.408484 0.257267
0.572229 0.398627 0.254368
0.637995 0.405219 0.255344
0.704524 0.411597 0.256474
0.768765 0.416571 0.257969
0.829221 0.420050 0.259800
0.882780 0.422034 0.262730
0.929931 0.422827 0.267002
0.970459 0.423651 0.273289
1.000000 0.424475 0.280339
1.000000 0.425635 0.288640
1.000000 0.426978 0.297398
1.000000 0.429053 0.306493
1.000000 0.431952 0.316411
1.000000 0.436194 0.327459
1.000000 0.442115 0.339635
1.000000 0.450050 0.353338
1.000000 0.460426 0.368994
0.098848 0.422980 0.317906
0.102144 0.422980 0.318090
0.111116 0.424109 0.319860
0.130892 0.426581 0.323735
0.155825 0.430488 0.329900
0.186618 0.436591 0.339147
0.222507 0.445014 0.351629
0.264836 0.456397 0.368414
0.290135 0.475502 0.384588
0.320928 0.502861 0.405982
0.306401 0.511284 0.388403
0.330999 0.491585 0.350988
0.383154 0.462654 0.315068
0.462867 0.464759 0.284764
0.524041 0.461738 0.278843
0.576287 0.452216 0.276493
0.626246 0.440650 0.272648
0.683619 0.438727 0.271885
0.746548 0.444099 0.273503
0.805997 0.447913 0.275334
0.860136 0.450172 0.278050
0.908537 0.451392 0.281987
0.951446 0.452125 0.286625
0.989258 0.452430 0.292515
1.000000 0.453162 0.300572
1.000000 0.454231 0.309148
1.000000 0.455970 0.318334
1.000000 0.458625 0.328710
1.000000 0.462531 0.339940
1.000000 0.468269 0.352422
1.000000 0.475807 0.366613
1.000000 0.485756 0.382727
0.121767 0.467536 0.345525
0.123720 0.467536 0.345769
0.133486 0.468635 0.347448
0.150484 0.471138 0.351110
0.174014 0.475471 0.357122
0.204318 0.482399 0.366400
0.240787 0.491951 0.378943
0.283207 0.504753 0.395666
0.326207 0.523400 0.416052
0.357427 0.550866 0.437354
0.398688 0.583001 0.463661
0.359442 0.580316 0.424048
0.392706 0.552026 0.383795
0.438148 0.513603 0.341772
0.511589 0.507225 0.305760
0.576349 0.505058 0.296544
0.627192 0.493599 0.293370
0.673945 0.479927 0.289677
0.722988 0.469429 0.286931
0.782925 0.474189 0.289189
0.838315 0.477424 0.292241
0.888548 0.479561 0.296117
0.933379 0.480751 0.301427
0.973175 0.481636 0.307683
1.000000 0.482246 0.314824
1.000000 0.482826 0.322545
1.000000 0.484291 0.332280
1.000000 0.486549 0.342412
1.000000 0.490364 0.354223
1.000000 0.495827 0.367163
1.000000 0.503258 0.382025
1.000000 0.513024 0.398535
0.149508 0.520439 0.377142
0.151400 0.520806 0.377630
0.159518 0.521477 0.379034
0.174563 0.523461 0.382238
0.197604 0.527153 0.387671
0.226230 0.533013 0.395789
0.261204 0.541924 0.407477
0.303807 0.554620 0.423590
0.355474 0.570977 0.444953
0.396979 0.594751 0.467720
0.441444 0.625025 0.494697
0.494759 0.658930 0.527306
0.433234 0.641871 0.464698
0.456092 0.608698 0.417273
0.493355 0.563165 0.367285
0.559106 0.548150 0.325231
0.625177 0.546105 0.313329
0.674189 0.533135 0.310033
0.718868 0.518029 0.306523
0.762203 0.502495 0.302770
0.816464 0.503319 0.305119
0.868406 0.506493 0.309361
0.915251 0.508507 0.315190
0.956634 0.509880 0.321599
0.992920 0.510796 0.329198
1.000000 0.511803 0.337530
1.000000 0.513115 0.346715
1.000000 0.515373 0.357122
1.000000 0.519585 0.370062
1.000000 0.525811 0.384955
1.000000 0.534234 0.401495
1.000000 0.545342 0.420447
0.179110 0.570550 0.406744
0.181186 0.571099 0.407294
0.188602 0.572168 0.408911
0.203525 0.574701 0.412451
0.225620 0.578973 0.418189
0.254612 0.585443 0.426764
0.290929 0.594781 0.438849
0.336004 0.607355 0.455482
0.389441 0.622980 0.477241
0.448920 0.641810 0.503838
0.492439 0.668940 0.530266
0.541802 0.697414 0.560571
0.572198 0.717617 0.576501
0.509850 0.695094 0.507561
0.516838 0.657099 0.450111
0.542473 0.606561 0.391913
0.599512 0.583917 0.343053
0.667353 0.582727 0.329259
0.715084 0.569268 0.325963
0.758175 0.553429 0.323095
0.800137 0.537926 0.319738
0.847196 0.531426 0.320928
0.896513 0.534997 0.327214
0.940581 0.537591 0.335088
0.978882 0.539605 0.343572
1.000000 0.541375 0.353246
1.000000 0.543572 0.363836
1.000000 0.546349 0.375586
1.000000 0.550286 0.388434
1.000000 0.555871 0.402899
1.000000 0.564019 0.420111
1.000000 0.574884 0.439796
0.218204 0.617212 0.435767
0.219577 0.617304 0.436011
0.227207 0.618647 0.437873
0.240665 0.621027 0.441260
0.261997 0.625177 0.447120
0.290410 0.631495 0.455909
0.326604 0.639857 0.467872
0.370916 0.651026 0.484291
0.422736 0.664454 0.505150
0.480964 0.680415 0.530877
0.533806 0.701289 0.558892
0.580529 0.725612 0.587671
0.629999 0.749752 0.619226
0.631647 0.757504 0.613733
0.576684 0.735042 0.546258
0.573266 0.698421 0.483833
0.589990 0.647547 0.417914
0.639612 0.619226 0.362402
0.708614 0.619806 0.347387
0.755337 0.605646 0.343816
0.796750 0.589715 0.341405
0.837095 0.573999 0.339147
0.877043 0.559991 0.338048
0.923522 0.563806 0.346685
0.964141 0.566918 0.356603
0.999420 0.569665 0.367681
1.000000 0.572778 0.380041
1.000000 0.576379 0.393103
1.000000 0.581231 0.407996
1.000000 0.587610 0.424201
1.000000 0.595819 0.442054
1.000000 0.606378 0.462074
0.273350 0.664302 0.468147
0.275273 0.664973 0.468849
0.325017 0.694759 0.493294
0.337560 0.696773 0.497139
0.357946 0.700343 0.503624
0.385229 0.705440 0.512932
0.419776 0.712032 0.525536
0.461250 0.720424 0.541955
0.509361 0.730922 0.562829
0.563104 0.742824 0.588006
0.620600 0.756161 0.617517
0.662562 0.774960 0.644862
0.701778 0.793362 0.672145
0.738643 0.811093 0.699489
0.717006 0.808255 0.674189
0.671168 0.786221 0.610834
0.652613 0.751949 0.540459
0.656947 0.702968 0.462348
0.696315 0.668696 0.392859
0.763485 0.668208 0.376379
0.806180 0.651637 0.371496
0.844877 0.634546 0.369207
0.881682 0.617609 0.367468
0.916899 0.600946 0.365942
0.954986 0.598230 0.373419
0.990112 0.600793 0.385046
1.000000 0.603510 0.397925
1.000000 0.606958 0.411963
1.000000 0.611933 0.427771
1.000000 0.618769 0.445686
1.000000 0.627466 0.464942
1.000000 0.638056 0.485847
0.352178 0.714839 0.509148
0.357733 0.717433 0.511650
0.368688 0.720943 0.515984
0.384131 0.725063 0.521874
0.404791 0.729671 0.529534
0.429938 0.734371 0.538872
0.460914 0.740017 0.550896
0.497597 0.746731 0.565942
0.539971 0.754910 0.584710
0.587915 0.764553 0.607691
0.638422 0.775570 0.634089
0.683711 0.788876 0.661097
0.718776 0.805325 0.686213
0.751522 0.821012 0.711025
0.781552 0.835966 0.735164
0.745876 0.827054 0.695216
0.709712 0.806332 0.637964
0.691249 0.775631 0.570184
0.692134 0.731319 0.489937
0.726223 0.696895 0.414282
0.793820 0.698634 0.397955
0.835813 0.683253 0.393164
0.873472 0.666865 0.391943
0.908324 0.650416 0.391028
0.941314 0.634150 0.390082
0.974273 0.624872 0.394476
1.000000 0.628382 0.408911
1.000000 0.632563 0.424933
1.000000 0.638239 0.442573
1.000000 0.645563 0.462165
1.000000 0.654932 0.483589
1.000000 0.666102 0.506279
0.411688 0.746517 0.539452
0.417792 0.748959 0.542321
0.427588 0.752010 0.546563
0.441718 0.755612 0.552331
0.460304 0.759487 0.559838
0.482612 0.763424 0.568750
0.510307 0.768032 0.580194
0.542626 0.773434 0.594293
0.579980 0.779904 0.611597
0.620600 0.787503 0.631830
0.663661 0.796445 0.655146
0.706752 0.806210 0.680446
0.740261 0.819516 0.704097
0.769375 0.833555 0.726925
0.796201 0.846983 0.749142
0.818051 0.858640 0.767880
0.775906 0.846159 0.719081
0.748135 0.826841 0.667842
0.730465 0.799313 0.603204
0.727932 0.759762 0.521935
0.756161 0.725429 0.439704
0.823056 0.729030 0.423713
0.863249 0.714229 0.418769
0.899229 0.698665 0.417792
0.931853 0.682765 0.417609
0.962860 0.667292 0.417853
0.992309 0.652674 0.418616
1.000000 0.657038 0.436133
1.000000 0.663325 0.456031
1.000000 0.671229 0.477607
1.000000 0.681025 0.500847
1.000000 0.692622 0.525597
0.474434 0.776120 0.572198
0.479316 0.777890 0.574578
0.488014 0.780362 0.578607
0.500999 0.783322 0.584344
0.516991 0.786404 0.591272
0.536584 0.789487 0.599664
0.560388 0.793118 0.610254
0.588128 0.797452 0.623133
0.620020 0.802792 0.638880
0.654383 0.809018 0.656947
0.690730 0.816251 0.677455
0.727718 0.824399 0.699916
0.762295 0.833890 0.723018
0.787625 0.846220 0.743648
0.811337 0.858152 0.763943
0.833341 0.869657 0.783719
0.840940 0.875486 0.788937
0.806729 0.864714 0.745571
0.786435 0.848020 0.701228
0.771756 0.825010 0.642420
0.768795 0.791653 0.564660
0.792996 0.760067 0.475715
0.858030 0.765713 0.461646
0.896269 0.752468 0.457954
0.930419 0.738735 0.459266
0.960937 0.724575 0.461616
0.989654 0.711330 0.464485
1.000000 0.699428 0.468696
1.000000 0.700008 0.485603
1.000000 0.709346 0.511009
1.000000 0.720455 0.537987
1.000000 0.733059 0.565728
0.563165 0.812284 0.620661
0.565728 0.813046 0.622004
0.570275 0.813901 0.624140
0.578058 0.815122 0.627771
0.589227 0.816678 0.632959
0.604028 0.818601 0.639887
0.621881 0.821073 0.648585
0.644282 0.824369 0.659937
0.669642 0.828489 0.673487
0.698177 0.833585 0.689631
0.728084 0.839475 0.707637
0.758480 0.846128 0.727199
0.788235 0.853422 0.747677
0.812772 0.862791 0.767117
0.832944 0.873075 0.785214
0.851560 0.882933 0.802701
0.868528 0.892271 0.819425
0.865476 0.893126 0.813230
0.838865 0.883146 0.775570
0.821378 0.868315 0.734768
0.807675 0.847745 0.679927
0.802823 0.818235 0.604944
0.821073 0.787625 0.509422
0.882139 0.793637 0.495216
0.917174 0.780667 0.490578
0.949035 0.768032 0.492500
0.977386 0.755673 0.496773
1.000000 0.744747 0.502373
1.000000 0.735592 0.509667
1.000000 0.732143 0.523522
1.000000 0.743618 0.553216
1.000000 0.756313 0.583276
0.619776 0.834653 0.654475
0.621210 0.835111 0.655360
0.625299 0.835966 0.657496
0.631678 0.836912 0.660731
0.640681 0.838163 0.665278
0.652583 0.839750 0.671382
0.667903 0.841855 0.679408
0.685939 0.844480 0.689265
0.707118 0.847929 0.701320
0.730556 0.852018 0.715389
0.755367 0.856870 0.731106
0.780880 0.862455 0.748226
0.806271 0.868589 0.766323
0.830869 0.875303 0.785031
0.848539 0.884306 0.801419
0.864897 0.893034 0.817319
0.880095 0.901366 0.832639
0.893889 0.909239 0.847166
0.884276 0.906828 0.832975
0.863859 0.898070 0.800778
0.849546 0.885374 0.764340
0.838010 0.867765 0.714595
0.833494 0.842435 0.644892
0.848295 0.814817 0.548272
0.901091 0.817105 0.526665
0.933593 0.805203 0.522057
0.963378 0.794308 0.526024
0.990143 0.784085 0.532525
1.000000 0.775662 0.541039
1.000000 0.769284 0.551934
1.000000 0.765438 0.565820
1.000000 0.776150 0.595972
0.681880 0.859068 0.694881
0.684291 0.859800 0.696376
0.687282 0.860349 0.698116
0.691646 0.860868 0.700496
0.697292 0.861326 0.703487
0.705287 0.861997 0.707759
0.715694 0.863066 0.713527
0.728511 0.864561 0.720851
0.744045 0.866636 0.730159
0.761776 0.869413 0.741238
0.780789 0.872740 0.753689
0.801358 0.876860 0.767910
0.822110 0.881559 0.783078
0.842618 0.886748 0.798917
0.860075 0.893034 0.813962
0.874022 0.900298 0.827726
0.887144 0.907378 0.841154
0.899382 0.914214 0.854124
0.910735 0.920745 0.866575
0.896574 0.916075 0.846342
0.880644 0.908446 0.818540
0.868650 0.897398 0.785367
0.858762 0.881987 0.739651
0.854582 0.859648 0.674403
0.867338 0.834592 0.579950
0.920012 0.841428 0.564416
0.949493 0.830533 0.559777
0.976532 0.821012 0.564935
1.000000 0.812680 0.572869
1.000000 0.806394 0.583978
1.000000 0.802426 0.597650
1.000000 0.800992 0.614343
0.719326 0.874388 0.721431
0.721065 0.874937 0.722652
0.723934 0.875547 0.724422
0.727718 0.876097 0.726680
0.733181 0.876768 0.729885
0.740444 0.877653 0.734188
0.749966 0.878874 0.739925
0.761654 0.880522 0.747219
0.775357 0.882658 0.756039
0.790677 0.885313 0.766354
0.807065 0.888334 0.777737
0.824247 0.891844 0.790188
0.841611 0.895750 0.803464
0.858854 0.899992 0.817197
0.875456 0.904570 0.831174
0.887907 0.910460 0.843503
0.899077 0.916350 0.855192
0.909483 0.922026 0.866423
0.919249 0.927489 0.877317
0.925353 0.931365 0.883879
0.911803 0.926757 0.863828
0.899718 0.920287 0.840421
0.889860 0.911131 0.811124
0.881834 0.898375 0.770352
0.879057 0.880034 0.711757
0.891814 0.860105 0.625788
0.938018 0.866056 0.609491
0.965454 0.858061 0.607355
0.989837 0.850950 0.614679
1.000000 0.845151 0.625330
1.000000 0.841428 0.639673
1.000000 0.839750 0.656184
0.760189 0.891295 0.752407
0.761257 0.891569 0.753140
0.762966 0.891844 0.754238
0.765896 0.892241 0.756100
0.769986 0.892668 0.758602
0.775753 0.893309 0.762234
0.783108 0.894194 0.766934
0.792355 0.895476 0.773037
0.803159 0.897032 0.780331
0.815488 0.899046 0.788968
0.828946 0.901427 0.798672
0.843168 0.904204 0.809415
0.857694 0.907347 0.820798
0.872282 0.910796 0.832761
0.886412 0.914488 0.844846
0.899138 0.918761 0.856657
0.908659 0.923613 0.866789
0.917723 0.928374 0.876677
0.926207 0.932952 0.886168
0.934020 0.937224 0.895140
0.935149 0.938567 0.895537
0.923766 0.934905 0.878111
0.914488 0.929503 0.858335
0.906157 0.921965 0.832212
0.899718 0.911498 0.795865
0.898131 0.896605 0.743343
0.911009 0.881010 0.665980
0.951110 0.885649 0.648920
0.976806 0.880186 0.648371
0.998596 0.875029 0.657771
1.000000 0.871275 0.670680
1.000000 0.869078 0.686915
0.792599 0.905089 0.778714
0.793332 0.905272 0.779263
0.794797 0.905547 0.780270
0.797238 0.905913 0.781918
0.801114 0.906432 0.784543
0.806424 0.907256 0.788205
0.813809 0.908476 0.793423
0.822690 0.910033 0.799832
0.833036 0.912016 0.807523
0.844450 0.914244 0.816220
0.856779 0.916808 0.825895
0.869261 0.919524 0.836027
0.881804 0.922362 0.846494
0.893980 0.925292 0.857053
0.905760 0.928283 0.867552
0.916747 0.931304 0.877745
0.925109 0.934752 0.886442
0.932189 0.938201 0.894285
0.938750 0.941466 0.901732
0.944762 0.944457 0.908659
0.950164 0.947143 0.914916
0.948241 0.946960 0.911559
0.939788 0.944518 0.898222
0.933318 0.940795 0.883268
0.927123 0.935760 0.862425
0.922759 0.928740 0.833036
0.923186 0.918914 0.790402
0.936675 0.909606 0.727565
0.969024 0.913420 0.712520
0.990448 0.910002 0.713497
1.000000 0.906279 0.724056
1.000000 0.903593 0.737453
0.834531 0.922576 0.814878
0.834745 0.922606 0.815030
0.835508 0.922667 0.815549
0.837003 0.922759 0.816556
0.839506 0.922972 0.818326
0.842954 0.923308 0.820737
0.847654 0.923827 0.824155
0.853422 0.924559 0.828428
0.860441 0.925505 0.833738
0.868376 0.926726 0.839872
0.877043 0.928130 0.846799
0.886290 0.929717 0.854307
0.895964 0.931518 0.862425
0.905577 0.933440 0.870756
