20 Preset/Natural Style/【3】LUT video cho PR-AE-FCPX/Natural 2 LUT (2).cube
# Created by Adobe Lightroom plugin Export LUT (1.24.0)
# www.johnrellis.com/lightroom/exportlut.htm
# Preset: 森系胶片-素材江湖02
# Color profile: E:\lut插件\exportlut.1.24\exportlut.lrplugin\color profiles\Rec709gamma2.4.icc
LUT_3D_SIZE 8
DOMAIN_MIN 0.000000 0.000000 0.000000
DOMAIN_MAX 0.903226 0.903226 0.903226
0.050843 0.079469 0.071595
0.087007 0.090486 0.085176
0.156130 0.111818 0.102907
0.276738 0.137118 0.123690
0.507256 0.173434 0.156313
0.732479 0.298283 0.228275
0.853574 0.482246 0.372473
0.928832 0.628595 0.556512
0.040528 0.124636 0.113069
0.109987 0.125765 0.098970
0.232029 0.135897 0.107973
0.362493 0.155856 0.128511
0.567529 0.197635 0.161746
0.752041 0.325078 0.235569
0.858976 0.494331 0.378149
0.931579 0.633265 0.558892
0.000000 0.447486 0.349584
0.000000 0.475013 0.347631
0.371923 0.350286 0.164340
0.654566 0.354925 0.159579
0.758541 0.386267 0.208286
0.828122 0.463874 0.300389
0.890929 0.567529 0.438361
0.950378 0.667933 0.592737
0.338750 0.734829 0.675837
0.327977 0.740322 0.674678
0.326207 0.728450 0.538354
0.676417 0.630762 0.412604
0.809018 0.620172 0.429847
0.897917 0.646265 0.472908
0.932158 0.671962 0.549676
0.975189 0.724819 0.652338
0.603326 0.849546 0.824735
0.601801 0.851591 0.824460
0.597284 0.856901 0.813718
0.632624 0.833585 0.714992
0.789822 0.773007 0.649439
0.873289 0.755520 0.654231
0.947204 0.774929 0.687129
0.990295 0.795621 0.734188
0.732448 0.907591 0.893858
0.733242 0.908721 0.894194
0.733059 0.912139 0.893950
0.726345 0.910369 0.868132
0.763210 0.896239 0.823606
0.866941 0.865019 0.790585
0.927947 0.850248 0.797971
0.969696 0.861265 0.822354
0.832609 0.931762 0.929808
0.832883 0.932036 0.929839
0.833463 0.933013 0.929747
0.834989 0.934783 0.929503
0.825162 0.934356 0.909880
0.851194 0.930236 0.893431
0.916930 0.921080 0.880308
0.943816 0.904662 0.883513
0.887602 0.935973 0.943908
0.887663 0.936004 0.943908
0.887877 0.936187 0.943847
0.888548 0.936492 0.943755
0.887480 0.936950 0.942046
0.882994 0.937438 0.934447
0.895018 0.936126 0.929931
0.918975 0.933532 0.926513
0.051820 0.082490 0.086305
0.094728 0.088655 0.091005
0.138186 0.115969 0.111177
0.270909 0.147341 0.135256
0.494636 0.185946 0.168246
0.718807 0.302251 0.238041
0.844511 0.479835 0.376287
0.922850 0.626520 0.556847
0.083040 0.115175 0.111086
0.115816 0.119997 0.108553
0.210483 0.140658 0.122652
0.350774 0.166964 0.143069
0.556786 0.210452 0.176303
0.743038 0.332189 0.248722
0.851896 0.495003 0.385351
0.926329 0.632349 0.560967
0.000000 0.420111 0.333471
0.000000 0.433356 0.304479
0.366674 0.311223 0.185000
0.645411 0.353704 0.183017
0.744198 0.385290 0.227604
0.818601 0.463020 0.311711
0.883268 0.564324 0.440986
0.944945 0.665827 0.593011
0.349523 0.724117 0.665797
0.340459 0.730129 0.665309
0.340215 0.716335 0.522942
0.670558 0.612207 0.411261
0.803189 0.614221 0.431403
0.889830 0.641047 0.474708
0.925566 0.668116 0.549248
0.970825 0.722560 0.651881
0.607111 0.846830 0.823239
0.605432 0.848875 0.822934
0.600458 0.853391 0.810452
0.637354 0.828946 0.713405
0.787900 0.766049 0.647456
0.870970 0.753353 0.654261
0.945281 0.773678 0.687831
0.988281 0.794736 0.734768
0.733242 0.906523 0.893309
0.733242 0.907378 0.893309
0.733150 0.910887 0.893126
0.726467 0.908965 0.866972
0.764401 0.894560 0.823026
0.866361 0.862486 0.790372
0.927245 0.849638 0.798306
0.969299 0.860899 0.822599
0.832578 0.931456 0.929625
0.832547 0.931670 0.929564
0.833036 0.932647 0.929473
0.834653 0.934508 0.929290
0.825162 0.934051 0.909728
0.851316 0.929778 0.893217
0.916594 0.919951 0.879759
0.943938 0.904479 0.883391
0.887602 0.935943 0.943938
0.887724 0.935973 0.943908
0.887968 0.936156 0.943847
0.888548 0.936492 0.943786
0.888121 0.936889 0.942290
0.883543 0.937377 0.934722
0.895201 0.936095 0.930083
0.919097 0.933532 0.926665
0.077607 0.085512 0.110750
0.106722 0.085023 0.115053
0.180056 0.112551 0.133211
0.184573 0.148409 0.146822
0.413703 0.196048 0.189822
0.683406 0.315007 0.272251
0.827298 0.493782 0.413703
0.912016 0.637171 0.584283
0.105196 0.113710 0.128969
0.124147 0.119966 0.133211
0.162203 0.142611 0.144686
0.255100 0.169619 0.164431
0.483833 0.219730 0.204654
0.710811 0.344671 0.286595
0.835019 0.507866 0.423133
0.915892 0.642908 0.588525
0.143069 0.339178 0.304753
0.110353 0.355535 0.285313
0.386694 0.297826 0.226658
0.595392 0.336614 0.242618
0.699702 0.379644 0.279881
0.793637 0.467659 0.355444
0.867582 0.572442 0.476234
0.934569 0.673274 0.616632
0.421302 0.701411 0.655512
0.416388 0.708309 0.655909
0.435492 0.687800 0.523674
0.671412 0.578058 0.438209
0.800656 0.617334 0.470619
0.871641 0.640314 0.510735
0.913024 0.672572 0.577844
0.962768 0.728359 0.671992
0.626154 0.839506 0.821530
0.624994 0.841733 0.821530
0.620508 0.845090 0.806394
0.661494 0.818753 0.719387
0.788693 0.749844 0.656336
0.869566 0.755184 0.670192
0.942535 0.776730 0.703639
0.982666 0.797513 0.747280
0.742885 0.904295 0.893919
0.742916 0.905180 0.893950
0.742763 0.908751 0.893889
0.735103 0.906188 0.867155
0.773709 0.890806 0.825986
0.866819 0.855192 0.793851
0.926543 0.850492 0.804532
0.968139 0.862425 0.828641
0.837461 0.930877 0.930419
0.837461 0.931121 0.930388
0.837827 0.932067 0.930266
0.839170 0.933928 0.930083
0.829526 0.933440 0.911315
0.855100 0.929107 0.895262
0.917357 0.917906 0.882322
0.942962 0.905180 0.886534
0.889158 0.935760 0.944213
0.889189 0.935821 0.944213
0.889403 0.936004 0.944152
0.890043 0.936309 0.944060
0.889860 0.936736 0.942962
0.885374 0.937194 0.935729
0.896300 0.936004 0.931090
0.919463 0.933410 0.927764
0.105653 0.086946 0.156222
0.139193 0.083680 0.167544
0.213413 0.099702 0.179843
0.358251 0.141787 0.210361
0.314153 0.192813 0.202731
0.546014 0.282048 0.278477
0.778897 0.479835 0.436439
0.885924 0.641749 0.612055
0.141573 0.113375 0.178714
0.169924 0.119417 0.188998
0.255467 0.137423 0.209293
0.332586 0.175143 0.212314
0.286015 0.201724 0.204013
0.594354 0.309575 0.297704
0.791501 0.498604 0.450568
0.891386 0.649104 0.618494
0.206332 0.242771 0.262058
0.267918 0.270024 0.287755
0.274144 0.263432 0.264317
0.379797 0.271305 0.264317
0.563714 0.326879 0.301549
0.730709 0.442054 0.385595
0.835508 0.573144 0.514336
0.914000 0.681056 0.648493
0.496376 0.645991 0.626001
0.491615 0.654902 0.628260
0.519768 0.634943 0.535119
0.678309 0.578668 0.489235
0.792752 0.614740 0.519799
0.835752 0.628290 0.545434
0.887663 0.671626 0.609064
0.946441 0.732784 0.697383
0.655329 0.824582 0.818051
0.653925 0.827054 0.818143
0.648829 0.830564 0.803159
0.693050 0.799191 0.725551
0.790036 0.738033 0.675288
0.868193 0.757931 0.695277
0.937560 0.779751 0.726314
0.972747 0.800259 0.765347
0.759792 0.900298 0.895232
0.760403 0.901457 0.895598
0.760159 0.905058 0.895689
0.751431 0.902098 0.869993
0.789670 0.885008 0.832273
0.868589 0.842588 0.800809
0.926360 0.852537 0.816037
0.966766 0.864683 0.838499
0.845487 0.929625 0.931701
0.845640 0.929900 0.931731
0.846159 0.930968 0.931762
0.847532 0.932860 0.931701
0.838407 0.932525 0.915251
0.861570 0.928099 0.899351
0.918944 0.914244 0.886564
0.941527 0.906157 0.891630
0.892119 0.935424 0.944823
0.892149 0.935485 0.944793
0.892332 0.935637 0.944762
0.892668 0.936004 0.944640
0.893187 0.936431 0.944335
0.888640 0.936889 0.937621
0.898070 0.935851 0.932799
0.919493 0.932830 0.929808
0.161563 0.072633 0.247318
0.203067 0.046326 0.264927
0.301823 0.012787 0.287388
0.512474 0.000000 0.339269
0.610834 0.208103 0.342321
0.590936 0.295659 0.334020
0.671290 0.447456 0.441749
0.840787 0.645441 0.642451
0.203983 0.101625 0.272618
0.240208 0.101991 0.288029
0.332677 0.103731 0.308751
0.541558 0.141482 0.363989
0.589258 0.242832 0.341619
0.568505 0.310857 0.336339
0.694636 0.467689 0.458350
0.847990 0.652827 0.649073
0.294316 0.236637 0.353002
0.342504 0.254795 0.373175
0.422919 0.285222 0.384558
0.553918 0.339574 0.410559
0.490547 0.312261 0.332952
0.555505 0.366705 0.363012
0.765682 0.543511 0.522515
0.874815 0.680934 0.674220
0.509880 0.544488 0.546807
0.528466 0.555535 0.557916
0.570947 0.549493 0.536522
0.630304 0.538720 0.516625
0.692958 0.543389 0.511772
0.770718 0.588739 0.551873
0.844572 0.657282 0.628626
0.918059 0.732509 0.721553
0.681331 0.791623 0.801602
0.680354 0.795102 0.802792
0.676417 0.806516 0.802060
0.717220 0.765408 0.723445
0.791165 0.737026 0.701259
0.866178 0.757290 0.720943
0.912810 0.768887 0.739590
0.956786 0.796963 0.780056
0.775631 0.890715 0.893797
0.775570 0.891783 0.893980
0.774868 0.895842 0.894316
0.766018 0.893889 0.873136
0.801785 0.874235 0.836179
0.869078 0.839139 0.812253
0.926818 0.853361 0.828397
0.965362 0.865354 0.849088
0.855039 0.927367 0.932982
0.854978 0.927611 0.932982
0.855039 0.928649 0.933043
0.855985 0.930816 0.933165
0.849363 0.931182 0.921599
0.867247 0.926513 0.904082
0.920806 0.908476 0.891112
0.940185 0.906798 0.897246
0.895445 0.934874 0.945495
0.895415 0.934936 0.945495
0.895476 0.935119 0.945434
0.895842 0.935485 0.945342
0.896300 0.936004 0.945190
0.893004 0.936492 0.940429
0.899870 0.935729 0.935027
0.919432 0.932128 0.932158
0.255344 0.000000 0.396490
0.302037 0.000000 0.414069
0.442664 0.000000 0.453132
0.539269 0.000000 0.434485
0.758480 0.225559 0.532311
0.779049 0.394141 0.520439
0.785397 0.500328 0.544060
0.819852 0.656825 0.678859
0.302403 0.000000 0.418067
0.341039 0.000000 0.431525
0.464393 0.000000 0.464729
0.561608 0.000000 0.452430
0.758114 0.294957 0.544976
0.767117 0.411963 0.519341
0.776394 0.508263 0.545373
0.814969 0.661921 0.682399
0.387457 0.215915 0.471504
0.428443 0.229282 0.486885
0.538293 0.273991 0.521324
0.628046 0.339422 0.528313
0.740871 0.460487 0.579278
0.723781 0.465736 0.518425
0.740505 0.548363 0.563989
0.810971 0.687861 0.704921
0.464027 0.457649 0.548638
0.504906 0.480659 0.566125
0.606958 0.547112 0.615381
0.676387 0.586084 0.636988
0.648615 0.531212 0.552178
0.625971 0.514916 0.515984
0.766751 0.631250 0.634180
0.872831 0.738552 0.753017
0.695460 0.746273 0.771084
0.695247 0.746395 0.770718
0.693324 0.750210 0.769192
0.725460 0.721492 0.725307
0.777676 0.722835 0.721675
0.814755 0.722866 0.719081
0.869200 0.750423 0.749630
0.928283 0.795254 0.801114
0.793484 0.875059 0.889525
0.793576 0.876555 0.890135
0.793332 0.881865 0.891691
0.788449 0.885313 0.882444
0.815183 0.858732 0.840940
0.871611 0.840726 0.830106
0.928923 0.853178 0.843687
0.957977 0.860105 0.856596
0.866361 0.924071 0.934051
0.866514 0.924407 0.934203
0.866728 0.925658 0.934478
0.867399 0.927947 0.934905
0.864652 0.929717 0.930297
0.873838 0.924834 0.911162
0.921691 0.908202 0.900053
0.938170 0.907897 0.905364
0.900206 0.934295 0.946349
0.900481 0.934356 0.946380
0.900450 0.934508 0.946349
0.900267 0.934844 0.946288
0.900114 0.935363 0.946075
0.898863 0.935943 0.944121
0.902220 0.935576 0.938109
0.919280 0.931121 0.935546
0.381537 0.000000 0.574701
0.428931 0.000000 0.588128
0.593439 0.000000 0.630671
0.702846 0.000000 0.639857
0.784848 0.117098 0.631189
0.869474 0.458350 0.688258
0.875059 0.576104 0.688960
0.886778 0.663935 0.725307
0.433661 0.000000 0.587152
0.475807 0.000000 0.599634
0.605798 0.000000 0.631830
0.700343 0.000000 0.637324
0.778866 0.214817 0.631342
0.860960 0.476905 0.686580
0.864744 0.574609 0.680446
0.878538 0.659846 0.717952
0.492409 0.142580 0.611719
0.525414 0.154482 0.620447
0.638270 0.233677 0.653834
0.713863 0.302647 0.663020
0.775113 0.432715 0.665126
0.847929 0.575158 0.715297
0.848051 0.617426 0.695155
0.873625 0.692531 0.741146
0.530388 0.425208 0.644648
0.557244 0.441871 0.653346
0.645014 0.511315 0.688350
0.715236 0.562249 0.711360
0.771237 0.618982 0.724880
0.809201 0.651484 0.725246
0.822690 0.671412 0.718166
0.858335 0.745113 0.780758
0.485451 0.580285 0.645411
0.521050 0.594751 0.660578
0.626490 0.647364 0.714137
0.723384 0.708186 0.766964
0.766781 0.724727 0.772885
0.754726 0.686915 0.717952
0.778103 0.721767 0.746395
0.874601 0.800259 0.825956
0.805386 0.856352 0.881285
0.805539 0.856657 0.881468
0.804990 0.856931 0.881224
0.801419 0.853696 0.876371
0.812497 0.829557 0.845396
0.856565 0.827634 0.841581
0.898131 0.837461 0.850278
0.934874 0.860563 0.874479
0.871824 0.919890 0.933776
0.872526 0.920165 0.933989
0.874388 0.920867 0.934356
0.876738 0.922606 0.934905
0.877317 0.926574 0.935607
0.882383 0.919402 0.916289
0.921294 0.909331 0.910796
0.936095 0.908141 0.914183
0.901549 0.933745 0.946593
0.901823 0.933776 0.946624
0.903014 0.933959 0.946838
0.904723 0.934264 0.947112
0.904936 0.934752 0.947082
0.904662 0.935332 0.946838
0.904875 0.935393 0.941955
0.918608 0.930816 0.940307
0.506554 0.000000 0.728328
0.542199 0.000000 0.734340
0.658137 0.000000 0.752560
0.791012 0.000000 0.777401
0.864012 0.000000 0.775937
0.901823 0.377386 0.763088
0.946166 0.589624 0.794003
0.957519 0.688502 0.806912
0.532372 0.000000 0.731136
0.565118 0.000000 0.737026
0.673640 0.000000 0.755612
0.794064 0.000000 0.776913
0.858488 0.000000 0.774197
0.895628 0.409949 0.763455
0.941650 0.599664 0.794461
0.954101 0.692805 0.807218
0.598383 0.000000 0.748470
0.620935 0.000000 0.752132
0.700801 0.000000 0.765438
0.793118 0.226169 0.785061
0.842496 0.352636 0.781216
0.879179 0.522087 0.776272
0.931945 0.650568 0.808560
0.946685 0.721645 0.819303
0.577264 0.318151 0.747768
0.600214 0.334234 0.752499
0.674434 0.400732 0.768185
0.767300 0.522728 0.797147
0.816617 0.564660 0.799710
0.862699 0.644984 0.804593
0.920195 0.722438 0.834073
0.934783 0.763638 0.838102
0.481605 0.510460 0.739986
0.508690 0.520562 0.745327
0.593835 0.554559 0.762234
0.716487 0.637385 0.800137
0.799039 0.697353 0.828031
0.854002 0.742336 0.839811
0.902678 0.783230 0.855131
0.921630 0.808865 0.860563
0.611749 0.741329 0.811582
0.611749 0.739040 0.809720
0.612665 0.729427 0.802335
0.652216 0.726864 0.805295
0.793301 0.798520 0.864469
0.858152 0.831327 0.882170
0.886473 0.837430 0.877958
0.905699 0.864591 0.894316
0.861448 0.908049 0.927245
0.862455 0.908324 0.927459
0.866789 0.909453 0.928313
0.875029 0.911864 0.930175
0.883299 0.913970 0.931792
0.878996 0.905760 0.920867
0.905028 0.901122 0.918547
0.917723 0.910430 0.927031
0.903227 0.932494 0.946532
0.903441 0.932555 0.946563
0.904265 0.932799 0.946777
0.905852 0.933257 0.947143
0.907713 0.933867 0.947601
0.909300 0.934600 0.947906
0.909850 0.935088 0.945953
0.916594 0.933104 0.946471
