20 Preset/Natural Style/【3】LUT video cho PR-AE-FCPX/Natural 2 LUT (4).cube
# Created by Adobe Lightroom plugin Export LUT (1.24.0)
# www.johnrellis.com/lightroom/exportlut.htm
# Preset: 森系胶片-素材江湖04
# Color profile: E:\lut插件\exportlut.1.24\exportlut.lrplugin\color profiles\Rec709gamma2.4.icc
LUT_3D_SIZE 8
DOMAIN_MIN 0.000000 0.000000 0.000000
DOMAIN_MAX 0.903226 0.903226 0.903226
0.050843 0.079469 0.071595
0.090547 0.090150 0.083742
0.172122 0.109743 0.099367
0.319768 0.128511 0.114229
0.581994 0.150393 0.135805
0.792660 0.296452 0.194644
0.898222 0.479744 0.332616
0.966888 0.617670 0.515984
0.042481 0.125795 0.107729
0.109163 0.134218 0.096468
0.285618 0.138094 0.095735
0.433021 0.144015 0.110750
0.646509 0.182406 0.132052
0.810941 0.324712 0.194095
0.904143 0.490517 0.332219
0.970214 0.621241 0.514397
0.000000 0.368414 0.228031
0.000000 0.357916 0.183444
0.357549 0.398749 0.120485
0.711208 0.393866 0.046632
0.826017 0.410224 0.104738
0.882109 0.467689 0.222904
0.937835 0.559625 0.369207
0.989899 0.651789 0.534630
0.000000 0.656428 0.477607
0.000000 0.651820 0.445197
0.000000 0.642756 0.301640
0.657923 0.664881 0.351934
0.840299 0.645624 0.385962
0.940581 0.651972 0.385107
0.981476 0.664179 0.461158
1.000000 0.705867 0.579553
0.457679 0.784604 0.678187
0.444404 0.783413 0.666529
0.381506 0.779049 0.610346
0.519005 0.782010 0.557122
0.770993 0.792844 0.597314
0.894041 0.770626 0.627985
0.972045 0.773922 0.636164
1.000000 0.782101 0.672084
0.611841 0.864988 0.796353
0.608545 0.865415 0.792935
0.589715 0.865141 0.773465
0.549706 0.865324 0.725704
0.687831 0.871366 0.725551
0.845243 0.877043 0.751156
0.936187 0.857023 0.780331
0.980041 0.857908 0.795163
0.734432 0.919860 0.877226
0.732692 0.920226 0.875853
0.724300 0.921538 0.869230
0.707393 0.924529 0.854307
0.696376 0.929595 0.827634
0.800748 0.928527 0.839536
0.897276 0.926543 0.853666
0.945129 0.906645 0.873289
0.839048 0.934783 0.922454
0.838407 0.934905 0.922057
0.836179 0.935393 0.920287
0.831815 0.936461 0.916533
0.822995 0.938262 0.909026
0.833341 0.938781 0.903929
0.874907 0.936004 0.910674
0.909148 0.933593 0.917906
0.050721 0.081727 0.089509
0.101808 0.084779 0.093294
0.146639 0.115908 0.111269
0.308904 0.141634 0.129458
0.565545 0.168612 0.152163
0.778622 0.300847 0.210117
0.888884 0.478584 0.341466
0.960327 0.616754 0.520012
0.084047 0.120760 0.116426
0.123568 0.127443 0.112642
0.250492 0.144137 0.119570
0.416297 0.159579 0.131655
0.633265 0.198642 0.152804
0.801266 0.332494 0.213565
0.896574 0.492378 0.345006
0.964416 0.621485 0.520317
0.000000 0.356939 0.237552
0.000000 0.348089 0.197147
0.384253 0.387854 0.158053
0.705074 0.393011 0.129976
0.812039 0.409033 0.156497
0.872282 0.468299 0.246769
0.929473 0.558007 0.379309
0.984039 0.650904 0.539025
0.000000 0.647486 0.480110
0.000000 0.643153 0.448951
0.000000 0.635645 0.319097
0.660548 0.657557 0.365454
0.834745 0.640711 0.394720
0.934722 0.649287 0.396735
0.974304 0.661830 0.468421
1.000000 0.704707 0.583093
0.470283 0.782406 0.681209
0.457313 0.781064 0.669581
0.396643 0.776181 0.613764
0.527489 0.778744 0.562219
0.771908 0.789792 0.601160
0.891691 0.768917 0.630518
0.970031 0.773068 0.639368
1.000000 0.781796 0.674983
0.615778 0.863615 0.797269
0.611536 0.863493 0.793149
0.593072 0.863188 0.773983
0.553674 0.863279 0.726650
0.690028 0.869749 0.727199
0.846006 0.875944 0.753079
0.935454 0.856565 0.781521
0.979553 0.857664 0.796109
0.735805 0.919127 0.877562
0.733639 0.919341 0.875975
0.725124 0.920592 0.869322
0.708370 0.923644 0.854459
0.697169 0.928832 0.828061
0.801205 0.927886 0.839933
0.897520 0.926024 0.853758
0.945312 0.906493 0.873259
0.839475 0.934722 0.922698
0.839048 0.934844 0.922362
0.836759 0.935363 0.920592
0.832303 0.936400 0.916838
0.825528 0.938109 0.910185
0.834501 0.938720 0.904753
0.875364 0.935973 0.911162
0.909361 0.933593 0.918273
0.078645 0.083101 0.122744
0.117372 0.080415 0.130068
0.238407 0.093874 0.153170
0.203494 0.149355 0.150393
0.456611 0.188449 0.187137
0.737209 0.316014 0.262181
0.867704 0.496162 0.396551
0.946014 0.630762 0.560784
0.106081 0.115206 0.148348
0.145266 0.123659 0.158297
0.211795 0.146487 0.160067
0.271916 0.170199 0.167147
0.539330 0.212406 0.199313
0.763790 0.347387 0.272190
0.875853 0.508904 0.401556
0.950408 0.635370 0.561883
0.178927 0.349798 0.312169
0.160555 0.341283 0.277684
0.436561 0.350408 0.253178
0.677852 0.378302 0.238254
0.763333 0.400092 0.258122
0.843503 0.475319 0.323125
0.909880 0.569787 0.438544
0.970214 0.661799 0.578424
0.316533 0.641382 0.531670
0.276646 0.636774 0.503593
0.240177 0.628077 0.393683
0.684810 0.648646 0.439429
0.831785 0.644160 0.456031
0.921874 0.653193 0.462470
0.957794 0.669215 0.523857
0.998077 0.713466 0.620020
0.523095 0.779049 0.701350
0.512352 0.777646 0.690791
0.463630 0.772061 0.640162
0.566644 0.775143 0.596551
0.783200 0.788235 0.632868
0.889525 0.771206 0.655421
0.966583 0.776913 0.664973
1.000000 0.786679 0.699825
0.638514 0.862272 0.807065
0.634485 0.862119 0.803159
0.616785 0.861387 0.784939
0.579278 0.860685 0.739925
0.703365 0.867613 0.741054
0.851987 0.874540 0.765591
0.934386 0.857694 0.791165
0.977752 0.859586 0.805570
0.749142 0.918547 0.883085
0.747127 0.918761 0.881651
0.738613 0.919890 0.875242
0.721828 0.922667 0.860929
0.707179 0.927855 0.834653
0.807431 0.927245 0.846250
0.900816 0.925780 0.859800
0.944091 0.907256 0.877958
0.845640 0.934386 0.925200
0.844999 0.934508 0.924773
0.842710 0.934997 0.923095
0.838621 0.936004 0.919615
0.831998 0.937652 0.913329
0.838499 0.938476 0.907591
0.877775 0.935851 0.913756
0.910246 0.933593 0.920470
0.109133 0.081117 0.188785
0.154879 0.065278 0.205936
0.253300 0.051850 0.218204
0.517479 0.000000 0.269932
0.444251 0.183200 0.226169
0.574182 0.286961 0.288457
0.810544 0.490242 0.445228
0.912932 0.642267 0.608484
0.154543 0.105318 0.225345
0.199649 0.107881 0.243320
0.310887 0.116091 0.258122
0.485512 0.146731 0.268223
0.405951 0.211002 0.231235
0.626947 0.313970 0.306126
0.823392 0.506920 0.455726
0.919005 0.648188 0.612146
0.156100 0.250553 0.292302
0.237583 0.276677 0.327428
0.414618 0.333288 0.358038
0.384558 0.289830 0.288090
0.599512 0.334691 0.311498
0.769741 0.450690 0.386358
0.869200 0.575982 0.506188
0.943084 0.675441 0.631922
0.503410 0.641993 0.618280
0.499306 0.635065 0.603449
0.419623 0.613245 0.495613
0.701961 0.625605 0.535027
0.826871 0.643885 0.532921
0.876310 0.643397 0.537224
0.925048 0.672419 0.586267
0.976074 0.722652 0.667445
0.604273 0.778439 0.744167
0.595087 0.776211 0.734432
0.555169 0.767575 0.688289
0.619593 0.769375 0.648798
0.793332 0.777127 0.682582
0.887205 0.774441 0.692805
0.961608 0.782193 0.703517
0.998016 0.792264 0.734005
0.679255 0.861662 0.826810
0.676081 0.861723 0.823789
0.659205 0.860227 0.807279
0.624598 0.858244 0.766964
0.726650 0.865537 0.766293
0.863706 0.873167 0.788144
0.933562 0.859922 0.807828
0.975372 0.862242 0.820584
0.773526 0.917479 0.893462
0.771878 0.917723 0.892271
0.763973 0.918822 0.886717
0.747982 0.921355 0.873991
0.727626 0.926299 0.849027
0.817990 0.926390 0.857603
0.906371 0.925292 0.869993
0.942290 0.908415 0.885405
0.857481 0.933745 0.929931
0.856931 0.933837 0.929595
0.854795 0.934295 0.928130
0.850614 0.935210 0.924987
0.844175 0.936767 0.919341
0.844877 0.938109 0.912535
0.881743 0.935637 0.918181
0.911711 0.933593 0.924346
0.175143 0.024994 0.322759
0.231266 0.000000 0.345769
0.397864 0.000000 0.394629
0.593805 0.000000 0.415229
0.760098 0.158206 0.444221
0.728634 0.310796 0.394537
0.737148 0.485542 0.489693
0.853696 0.657282 0.660517
0.232517 0.031312 0.361791
0.280797 0.000000 0.380926
0.437842 0.000000 0.424079
0.622522 0.000000 0.441230
0.741573 0.238102 0.443458
0.711391 0.329992 0.394171
0.724331 0.495094 0.494026
0.862058 0.662654 0.664485
0.286870 0.227298 0.432074
0.349706 0.244205 0.453285
0.529381 0.306188 0.507530
0.668086 0.380957 0.524468
0.655451 0.369146 0.429511
0.616388 0.397192 0.403265
0.780941 0.555016 0.540490
0.892638 0.684352 0.679957
0.474006 0.564324 0.583032
0.497475 0.570916 0.587549
0.575769 0.596704 0.606195
0.637354 0.576623 0.571435
0.709560 0.567224 0.545403
0.793698 0.602258 0.568078
0.869169 0.662135 0.631403
0.939300 0.728511 0.713100
0.674891 0.782437 0.789364
0.673213 0.779690 0.784390
0.653346 0.766751 0.753445
0.668452 0.760830 0.704799
0.802670 0.766201 0.730312
0.885496 0.773861 0.729610
0.939117 0.774563 0.733181
0.977722 0.791806 0.763912
0.732540 0.861295 0.853941
0.728664 0.860685 0.850889
0.711421 0.857572 0.836027
0.677058 0.852354 0.799954
0.747250 0.859770 0.792203
0.868132 0.862394 0.815000
0.933684 0.860868 0.825620
0.974304 0.862821 0.835630
0.807462 0.916045 0.907713
0.805661 0.916136 0.906706
0.798276 0.916747 0.902312
0.782864 0.918700 0.891814
0.756558 0.922850 0.869169
0.827512 0.924712 0.870512
0.913298 0.924193 0.881956
0.940642 0.909270 0.893614
0.869596 0.932799 0.935088
0.870481 0.932891 0.935241
0.869718 0.933288 0.934386
0.866056 0.934142 0.931914
0.860105 0.935515 0.927214
0.853758 0.937438 0.919707
0.886015 0.935485 0.923522
0.913481 0.933623 0.928862
0.286809 0.000000 0.505394
0.344549 0.000000 0.521965
0.548058 0.000000 0.578576
0.680140 0.000000 0.587915
0.814359 0.000000 0.600641
0.870329 0.399481 0.611658
0.857908 0.524163 0.604089
0.875517 0.662043 0.699641
0.353429 0.000000 0.532280
0.397925 0.000000 0.544518
0.570275 0.000000 0.592218
0.690242 0.000000 0.597650
0.813199 0.206180 0.611078
0.858579 0.430518 0.611872
0.849943 0.534783 0.605432
0.869871 0.669154 0.704128
0.407874 0.172610 0.573602
0.455970 0.182101 0.586297
0.620356 0.261448 0.635370
0.707576 0.329351 0.635859
0.801572 0.465095 0.654810
0.816526 0.517418 0.615412
0.821225 0.575372 0.616632
0.851194 0.699947 0.726864
0.384436 0.436469 0.601038
0.444404 0.459998 0.615900
0.611017 0.551934 0.672267
0.703487 0.611810 0.698024
0.755703 0.625574 0.684443
0.738613 0.586999 0.611933
0.759182 0.642359 0.653925
0.877195 0.743618 0.762753
0.690578 0.757382 0.786862
0.697932 0.761105 0.790249
0.725338 0.774777 0.802853
0.719753 0.755245 0.767605
0.786831 0.748653 0.757321
0.827054 0.738186 0.740261
0.883391 0.755947 0.756954
0.940887 0.794736 0.800687
0.779324 0.868437 0.880858
0.778927 0.867887 0.879759
0.775113 0.864103 0.873167
0.750851 0.855192 0.849058
0.774838 0.855650 0.827115
0.876310 0.857450 0.844602
0.936614 0.860136 0.845975
0.967315 0.859007 0.851011
0.833524 0.915770 0.919310
0.833951 0.915953 0.919158
0.834989 0.916320 0.918181
0.828611 0.917052 0.912871
0.805783 0.919463 0.896910
0.838956 0.922942 0.887907
0.916686 0.919249 0.898955
0.938231 0.910704 0.904906
0.877348 0.932036 0.938537
0.877836 0.932128 0.938567
0.879911 0.932464 0.938811
0.884184 0.933104 0.939361
0.880339 0.934081 0.936645
0.873716 0.935821 0.930907
0.892027 0.935241 0.930785
0.915496 0.933715 0.935027
0.434730 0.000000 0.678401
0.482765 0.000000 0.688045
0.638148 0.000000 0.717220
0.775143 0.000000 0.738735
0.838071 0.000000 0.712734
0.916045 0.368688 0.731899
0.942504 0.559045 0.741024
0.938720 0.656214 0.749844
0.485206 0.000000 0.686061
0.527977 0.000000 0.695399
0.659358 0.000000 0.721187
0.773495 0.000000 0.737545
0.831418 0.000000 0.710445
0.906859 0.402289 0.730007
0.932464 0.564233 0.735286
0.930846 0.653986 0.743557
0.535698 0.000000 0.710475
0.567926 0.000000 0.716152
0.676143 0.058717 0.737514
0.778866 0.268101 0.757107
0.822019 0.386084 0.733883
0.888548 0.541619 0.753140
0.912108 0.624903 0.749508
0.922210 0.692164 0.764614
0.519188 0.395972 0.723995
0.550835 0.412024 0.729458
0.650355 0.481605 0.751736
0.757809 0.585016 0.786404
0.802762 0.621363 0.777005
0.871000 0.681392 0.796048
0.882383 0.695583 0.770840
0.906310 0.742763 0.793454
0.362066 0.585138 0.696437
0.379492 0.582940 0.694911
0.561456 0.633051 0.740963
0.716701 0.706722 0.798093
0.793210 0.749691 0.819638
0.827207 0.747463 0.802274
0.838987 0.746792 0.785489
0.879393 0.808774 0.838804
0.782925 0.854734 0.881926
0.786343 0.856046 0.882933
0.799100 0.860533 0.886412
0.820859 0.868009 0.892302
0.800320 0.848508 0.866209
0.858732 0.842435 0.860685
0.902068 0.845335 0.860868
0.937530 0.863035 0.878538
0.862547 0.917418 0.930663
0.862974 0.917571 0.930724
0.863676 0.917754 0.930358
0.864042 0.917845 0.928954
0.857633 0.917082 0.922484
0.857664 0.918914 0.908019
0.918944 0.915343 0.916045
0.936156 0.911467 0.916747
0.887449 0.931395 0.942107
0.887938 0.931456 0.942168
0.890043 0.931823 0.942535
0.893156 0.932494 0.943023
0.897826 0.933410 0.943664
0.896788 0.934386 0.942016
0.899992 0.935027 0.939330
0.916625 0.933745 0.942107
0.557763 0.000000 0.811063
0.589258 0.000000 0.814633
0.691066 0.000000 0.824247
0.829526 0.000000 0.844388
0.913512 0.000000 0.847745
0.948577 0.134249 0.815671
0.988495 0.501091 0.817411
1.000000 0.641413 0.822507
0.579156 0.000000 0.811948
0.608118 0.000000 0.815488
0.703975 0.000000 0.825772
0.834775 0.000000 0.844724
0.910643 0.000000 0.846921
0.942657 0.234195 0.815549
0.983032 0.518273 0.817502
1.000000 0.648280 0.822599
0.646723 0.000000 0.826658
0.665827 0.000000 0.828611
0.735286 0.000000 0.835416
0.837888 0.000000 0.851804
0.896727 0.259159 0.852018
0.923430 0.438544 0.823789
0.968322 0.594079 0.828336
0.987366 0.687617 0.832578
0.603204 0.256962 0.828275
0.625269 0.272343 0.830747
0.698054 0.337224 0.838132
0.792172 0.466987 0.852598
0.860838 0.551263 0.860136
0.897520 0.613550 0.843198
0.949950 0.692103 0.850980
0.969177 0.749203 0.853056
0.436622 0.505547 0.820432
0.472084 0.514000 0.823301
0.576684 0.541588 0.831174
0.715450 0.617029 0.849973
0.829038 0.706203 0.874235
0.876066 0.733242 0.868009
0.932830 0.782376 0.879332
0.948577 0.807187 0.874510
0.539330 0.754116 0.853269
0.539544 0.751614 0.851713
0.541741 0.741482 0.846067
0.573785 0.724575 0.840574
0.764706 0.778714 0.880003
0.873747 0.838712 0.905303
0.916075 0.858244 0.906615
0.925261 0.866575 0.902281
0.836912 0.905669 0.927611
0.838315 0.905913 0.927764
0.844358 0.906981 0.928344
0.855619 0.909117 0.929656
0.869963 0.911620 0.931090
0.884428 0.912963 0.931518
0.899931 0.910094 0.928588
0.915862 0.917967 0.934630
0.898497 0.930846 0.945037
0.898711 0.930938 0.945098
0.899748 0.931243 0.945312
0.901732 0.931823 0.945739
0.904265 0.932647 0.946288
0.908446 0.933776 0.947112
0.912078 0.934722 0.947601
0.915618 0.934447 0.948608
