20 Preset/Natural Style/【3】LUT video cho PR-AE-FCPX/Natural 2 LUT (7).cube
# Created by Adobe Lightroom plugin Export LUT (1.24.0)
# www.johnrellis.com/lightroom/exportlut.htm
# Preset: 森系胶片-素材江湖07
# Color profile: E:\lut插件\exportlut.1.24\exportlut.lrplugin\color profiles\Rec709gamma2.4.icc
LUT_3D_SIZE 8
DOMAIN_MIN 0.000000 0.000000 0.000000
DOMAIN_MAX 0.903226 0.903226 0.903226
0.000000 0.000000 0.000000
0.040497 0.011017 0.002228
0.126955 0.040314 0.003632
0.285710 0.000000 0.000000
0.524193 0.000000 0.000000
0.766110 0.000000 0.000000
0.931579 0.166140 0.000000
1.000000 0.325719 0.000000
0.017517 0.045869 0.006958
0.036072 0.051606 0.006958
0.136629 0.080903 0.000000
0.290105 0.064576 0.000000
0.519036 0.000000 0.000000
0.755337 0.000000 0.000000
0.915373 0.191257 0.000000
0.999725 0.328130 0.000000
0.044953 0.141848 0.032258
0.086275 0.145846 0.039887
0.145205 0.153964 0.019440
0.340703 0.186099 0.000000
0.585504 0.214267 0.000000
0.800412 0.272190 0.000000
0.934783 0.351507 0.000000
1.000000 0.424414 0.000000
0.106844 0.341100 0.147372
0.153689 0.348211 0.160372
0.259312 0.373907 0.205844
0.370581 0.383734 0.128908
0.608881 0.424964 0.000000
0.834104 0.489082 0.000000
0.935546 0.508690 0.000000
0.991638 0.533776 0.000000
0.283635 0.608026 0.365148
0.324224 0.614008 0.383215
0.420539 0.634241 0.432197
0.539239 0.663996 0.502434
0.593683 0.622644 0.334661
0.741451 0.602838 0.158114
0.889921 0.637263 0.164279
0.968078 0.644892 0.236332
0.551324 0.753719 0.600061
0.576318 0.759152 0.617823
0.619623 0.765499 0.644862
0.679011 0.776364 0.686763
0.707607 0.778927 0.687465
0.729824 0.755520 0.574243
0.823026 0.729946 0.433265
0.907805 0.747372 0.503075
0.718471 0.819944 0.747555
0.725124 0.820829 0.752224
0.740291 0.822568 0.762020
0.763119 0.826047 0.777615
0.787778 0.830686 0.795895
0.789151 0.828519 0.781033
0.799100 0.819028 0.727504
0.853361 0.804349 0.647913
0.803067 0.851804 0.820920
0.804746 0.851926 0.822019
0.809781 0.852598 0.825315
0.818051 0.853880 0.830869
0.824125 0.853849 0.834287
0.834073 0.856138 0.841672
0.833402 0.855528 0.832578
0.840543 0.854124 0.815976
0.009827 0.019684 0.014069
0.042145 0.020478 0.015564
0.122713 0.045228 0.016846
0.273686 0.021942 0.009766
0.505730 0.000000 0.000000
0.742367 0.000000 0.000000
0.905211 0.166812 0.000000
0.994385 0.306065 0.000000
0.017456 0.062318 0.017151
0.050324 0.067475 0.020325
0.135714 0.082826 0.020417
0.289464 0.069337 0.006073
0.515312 0.000000 0.000000
0.745022 0.000000 0.000000
0.899168 0.201724 0.000000
0.989075 0.316533 0.000000
0.047181 0.143740 0.043336
0.093843 0.150790 0.060761
0.157626 0.162570 0.062074
0.351507 0.188540 0.000000
0.572473 0.205325 0.000000
0.777249 0.252506 0.000000
0.910948 0.326055 0.000000
0.991547 0.405646 0.000000
0.096223 0.324590 0.146151
0.149844 0.333715 0.161532
0.263554 0.366003 0.213077
0.358556 0.367926 0.154238
0.579187 0.398138 0.000000
0.807828 0.458320 0.000000
0.914549 0.482094 0.000000
0.981506 0.515953 0.000000
0.264042 0.595605 0.356451
0.303227 0.600366 0.371588
0.409857 0.620905 0.424384
0.532799 0.651331 0.501793
0.577783 0.606043 0.335698
0.729397 0.590173 0.175753
0.882292 0.627558 0.176974
0.962890 0.637476 0.240604
0.528405 0.745327 0.583581
0.546715 0.747463 0.594568
0.600855 0.755398 0.628473
0.666499 0.768368 0.674434
0.702876 0.774044 0.684504
0.725795 0.751675 0.575677
0.819089 0.726253 0.437263
0.905852 0.743343 0.499001
0.706142 0.816098 0.737819
0.710628 0.816129 0.740475
0.729397 0.818051 0.752651
0.755276 0.822324 0.770535
0.783688 0.828214 0.791867
0.786435 0.826444 0.778592
0.795254 0.815579 0.721248
0.850767 0.799222 0.635370
0.798428 0.850340 0.817227
0.800870 0.850706 0.818936
0.806821 0.851408 0.822873
0.815640 0.852842 0.828824
0.825772 0.854643 0.835904
0.834958 0.856504 0.842679
0.833371 0.855406 0.832822
0.840238 0.853849 0.815915
0.014221 0.068818 0.091829
0.046571 0.059205 0.096071
0.152651 0.049226 0.108217
0.324926 0.000000 0.127993
0.525780 0.000000 0.133211
0.763272 0.000000 0.138521
0.912749 0.218021 0.144747
0.993378 0.356725 0.188998
0.037079 0.107820 0.105837
0.063294 0.102663 0.110964
0.166140 0.091463 0.122408
0.330449 0.078889 0.135439
0.531212 0.000000 0.139803
0.761379 0.084627 0.141573
0.906828 0.238468 0.139773
0.989288 0.364355 0.182406
0.000000 0.188998 0.142794
0.081819 0.192630 0.148043
0.207156 0.204440 0.167361
0.375219 0.211460 0.173953
0.595666 0.227787 0.168582
0.790463 0.275700 0.158907
0.912505 0.351934 0.163851
0.985107 0.435523 0.215152
0.000000 0.331701 0.177523
0.101106 0.343999 0.192844
0.273747 0.388708 0.259190
0.418250 0.425940 0.295933
0.646052 0.452033 0.223423
0.817136 0.479133 0.207065
0.912932 0.505791 0.227665
0.973175 0.542992 0.285924
0.216434 0.587213 0.366613
0.261723 0.593744 0.380987
0.405982 0.621454 0.447181
0.564050 0.662074 0.549310
0.612818 0.640101 0.457984
0.754635 0.622492 0.333196
0.885466 0.645075 0.345708
0.950652 0.653620 0.392950
0.502068 0.740383 0.578119
0.522271 0.742947 0.589136
0.590112 0.751339 0.628504
0.668666 0.765743 0.680995
0.721584 0.778836 0.716579
0.732052 0.757290 0.624781
0.819333 0.735714 0.513298
0.899260 0.752041 0.565332
0.697963 0.815702 0.735531
0.703029 0.815824 0.738399
0.725368 0.817380 0.752316
0.756130 0.821805 0.772946
0.784787 0.827970 0.793912
0.793301 0.828641 0.790646
0.799374 0.818692 0.741970
0.850309 0.805386 0.672328
0.794400 0.850156 0.815244
0.796017 0.850156 0.816190
0.803769 0.850828 0.821225
0.815305 0.852720 0.829129
0.825834 0.854612 0.836393
0.835935 0.856840 0.843900
0.835386 0.856138 0.836393
0.841276 0.854582 0.820371
0.000000 0.120485 0.258335
0.000000 0.110079 0.267308
0.156435 0.100008 0.286107
0.371435 0.000000 0.310216
0.619532 0.000000 0.351720
0.788266 0.111727 0.354742
0.886168 0.291905 0.367071
0.965026 0.420325 0.404852
0.000000 0.169192 0.291386
0.000000 0.158724 0.296361
0.167514 0.136172 0.310460
0.388983 0.072511 0.331548
0.632532 0.004791 0.368322
0.787930 0.187320 0.364324
0.885527 0.319615 0.375189
0.962951 0.435584 0.410864
0.000000 0.296147 0.340917
0.090578 0.298009 0.346746
0.225315 0.281621 0.365850
0.422583 0.240482 0.385168
0.650355 0.292515 0.412909
0.787442 0.359747 0.413336
0.891295 0.441230 0.432837
0.957153 0.512291 0.456611
0.000000 0.458930 0.414954
0.000000 0.461189 0.418921
0.259037 0.473884 0.438758
0.475196 0.498604 0.478218
0.643915 0.504295 0.481971
0.785885 0.521630 0.472541
0.882200 0.552087 0.473671
0.943206 0.590906 0.495857
0.123476 0.592401 0.436011
0.183688 0.594781 0.439857
0.324010 0.608698 0.460121
0.540490 0.656306 0.562249
0.661555 0.685328 0.618280
0.777981 0.674800 0.554711
0.870573 0.679561 0.555047
0.921813 0.687282 0.571221
0.451728 0.736172 0.579736
0.481025 0.741299 0.593957
0.553887 0.748653 0.626734
0.660121 0.764858 0.687465
0.741054 0.785489 0.745266
0.750698 0.773129 0.701961
0.821561 0.756710 0.629084
0.888212 0.768368 0.657679
0.670649 0.813230 0.725154
0.678614 0.813931 0.729641
0.707362 0.816342 0.746090
0.751247 0.821561 0.773678
0.788113 0.828916 0.799283
0.806638 0.833890 0.810727
0.805600 0.823301 0.770413
0.848966 0.812741 0.718502
0.786984 0.850645 0.812528
0.789059 0.850736 0.813748
0.797726 0.851255 0.818936
0.812589 0.852689 0.828428
0.825925 0.854856 0.837339
0.836698 0.857206 0.845090
0.838499 0.857328 0.841978
0.843076 0.855802 0.827634
0.000000 0.216281 0.537652
0.000000 0.205814 0.544427
0.000000 0.184756 0.554772
0.387335 0.146639 0.571466
0.642298 0.000000 0.592004
0.823545 0.225498 0.602258
0.901213 0.395178 0.586603
0.932738 0.528313 0.599512
0.000000 0.273503 0.559411
0.000000 0.263645 0.565209
0.000000 0.228092 0.574029
0.397223 0.198154 0.585138
0.648585 0.148196 0.601862
0.822477 0.276799 0.608392
0.896574 0.422675 0.592462
0.928374 0.543023 0.605310
0.000000 0.433234 0.597772
0.001801 0.431495 0.601495
0.222934 0.397681 0.610468
0.421393 0.352789 0.619440
0.655512 0.327825 0.625177
0.807187 0.412390 0.622187
0.875792 0.507561 0.610193
0.912169 0.586389 0.620874
0.187625 0.582086 0.632746
0.243992 0.584070 0.635065
0.389990 0.594568 0.646204
0.515953 0.585107 0.659510
0.659358 0.543816 0.666163
0.784756 0.594324 0.664698
0.844785 0.624750 0.651789
0.893492 0.654963 0.654902
0.280888 0.689418 0.660243
0.317510 0.690425 0.662440
0.427344 0.693202 0.669947
0.562646 0.699428 0.683925
0.680842 0.710079 0.702449
0.757961 0.706050 0.698665
0.829618 0.706508 0.686885
0.887053 0.715023 0.684016
0.428199 0.731930 0.638239
0.443977 0.732876 0.640742
0.496162 0.734524 0.647303
0.577478 0.740352 0.662287
0.694423 0.762203 0.715663
0.766232 0.784482 0.758022
0.822690 0.777615 0.726070
0.875181 0.781918 0.730709
0.591150 0.804593 0.696925
0.599359 0.804685 0.699825
0.635737 0.806485 0.714748
0.701808 0.812528 0.747738
0.768643 0.822263 0.787686
0.809903 0.833768 0.817350
0.810330 0.826291 0.794125
0.847501 0.817533 0.756161
0.754116 0.848295 0.795804
0.757321 0.848295 0.797391
0.770138 0.848600 0.804105
0.794217 0.850523 0.818082
0.818387 0.853147 0.833005
0.835019 0.856504 0.844388
0.841611 0.858152 0.847562
0.843412 0.855741 0.832944
0.000000 0.378882 0.743618
0.000000 0.370977 0.745571
0.000000 0.343969 0.750301
0.411231 0.342962 0.755978
0.632105 0.321233 0.759121
0.800961 0.346838 0.758907
0.891814 0.486183 0.744106
0.914855 0.623133 0.736355
0.000000 0.417700 0.741451
0.000000 0.409491 0.742580
0.000000 0.371649 0.746761
0.409400 0.365454 0.750210
0.625177 0.345068 0.754025
0.794491 0.367437 0.755215
0.886259 0.497780 0.741970
0.911833 0.626246 0.735164
0.321447 0.567132 0.755062
0.329107 0.560540 0.755520
0.364813 0.534081 0.758480
0.461585 0.493019 0.759243
0.631800 0.476722 0.761105
0.785214 0.486122 0.761593
0.869322 0.579644 0.750576
0.898131 0.665797 0.745571
0.491005 0.683894 0.764584
0.501091 0.682918 0.764431
0.545678 0.682551 0.766232
0.597131 0.671931 0.772122
0.664515 0.649378 0.775601
0.774136 0.639521 0.775418
0.846769 0.683772 0.769253
0.878569 0.722347 0.764645
0.543938 0.741482 0.767208
0.554955 0.742123 0.767727
0.598016 0.745357 0.770443
0.664149 0.753109 0.776425
0.712978 0.750423 0.780545
0.763546 0.730129 0.781430
0.827695 0.748470 0.780453
0.861418 0.758053 0.772580
0.578546 0.787564 0.773098
0.589746 0.788479 0.774655
0.619226 0.788571 0.776455
0.667597 0.789487 0.780270
0.723720 0.791989 0.786282
0.780209 0.799680 0.797299
0.816617 0.797360 0.794919
0.854948 0.796414 0.788479
0.639216 0.813291 0.766018
0.645106 0.813779 0.767208
0.661921 0.814054 0.769100
0.691524 0.814725 0.772824
0.729183 0.816129 0.778195
0.791379 0.826474 0.806973
0.821744 0.834867 0.823056
0.849882 0.830259 0.805173
0.704372 0.847715 0.780789
0.707515 0.847562 0.781765
0.723781 0.847562 0.788022
0.754574 0.848478 0.801266
0.791897 0.850370 0.819425
0.826505 0.854429 0.839628
0.844968 0.859342 0.852628
0.845365 0.856901 0.841917
0.349950 0.556176 0.823819
0.362951 0.554223 0.824735
0.396277 0.536584 0.826383
0.504082 0.535729 0.827268
0.625025 0.534295 0.827481
0.747829 0.526329 0.827665
0.848417 0.565606 0.824277
0.898161 0.647120 0.808499
0.381506 0.575860 0.820890
0.393469 0.574517 0.821927
0.420600 0.557794 0.823667
0.508141 0.549096 0.824582
0.623590 0.544854 0.824796
0.743374 0.533684 0.824735
0.844511 0.566278 0.821256
0.896086 0.643946 0.805722
0.518242 0.661555 0.819699
0.521080 0.658930 0.820005
0.531609 0.646540 0.821103
0.564019 0.626215 0.823178
0.644953 0.618708 0.823209
0.742550 0.607568 0.823606
0.835599 0.627588 0.822141
0.885008 0.687587 0.810880
0.626764 0.739162 0.820249
0.630182 0.738460 0.820005
0.648127 0.737606 0.820035
0.659083 0.724758 0.821988
0.688289 0.709071 0.823514
0.751217 0.700465 0.824399
0.825254 0.703700 0.824247
0.870329 0.738247 0.817075
0.682002 0.784604 0.821134
0.685176 0.784543 0.820920
0.697749 0.784604 0.821134
0.717769 0.783597 0.822171
0.738064 0.776944 0.823728
0.764004 0.764248 0.824949
0.817411 0.758236 0.825254
0.858366 0.780697 0.823514
0.698726 0.810208 0.823209
0.702419 0.810513 0.823453
0.716121 0.811490 0.824247
0.740230 0.813626 0.825986
0.771084 0.817288 0.828794
0.794766 0.816770 0.831540
0.818814 0.807340 0.832212
0.851133 0.816617 0.832242
0.717494 0.835477 0.827909
0.720607 0.835630 0.828275
0.730312 0.835538 0.828794
0.748745 0.835660 0.830045
0.772885 0.835966 0.831907
0.800473 0.837400 0.835019
0.827817 0.841093 0.840208
0.845884 0.838285 0.837034
0.747555 0.850889 0.826322
0.749081 0.850828 0.826413
0.756191 0.850736 0.827115
0.767544 0.850828 0.828183
0.782559 0.851133 0.829526
0.800137 0.851652 0.830869
0.836484 0.856687 0.847929
0.849332 0.859586 0.853330
0.625269 0.711604 0.854520
0.628077 0.711238 0.854765
0.632746 0.704921 0.855253
0.656001 0.701808 0.855894
0.696559 0.701534 0.856077
0.747097 0.698726 0.856321
0.808835 0.693751 0.856870
0.863188 0.716518 0.854276
0.632410 0.717739 0.853330
0.635004 0.717403 0.853605
0.640406 0.712032 0.854215
0.659541 0.706905 0.854948
0.698207 0.706020 0.855192
0.747311 0.702846 0.855497
0.807553 0.696407 0.856016
0.862119 0.717128 0.853513
0.671748 0.748104 0.851011
0.672877 0.747311 0.851164
0.675593 0.742428 0.851652
0.686366 0.735653 0.853269
0.715084 0.732906 0.853513
0.754421 0.727779 0.853819
0.806943 0.721035 0.854520
0.858152 0.735317 0.852750
0.721553 0.786343 0.848783
0.722835 0.786099 0.848936
0.724453 0.782864 0.849393
0.729305 0.776944 0.850523
0.740871 0.769223 0.851804
0.768978 0.765042 0.852354
0.808804 0.758907 0.853239
0.853086 0.765194 0.852506
0.746670 0.811124 0.848600
0.748287 0.811215 0.848722
0.752499 0.810422 0.848814
0.764828 0.810758 0.849271
0.771267 0.804807 0.850401
0.783810 0.797513 0.851530
0.812131 0.792721 0.852506
0.849058 0.794369 0.852873
0.768093 0.831174 0.849760
0.768978 0.831083 0.849699
0.773800 0.831235 0.849638
0.784512 0.832273 0.850034
0.794278 0.831327 0.850919
0.806668 0.829221 0.852720
0.821469 0.825132 0.854459
0.848051 0.824125 0.855528
0.781491 0.846799 0.852903
0.782406 0.846799 0.852903
0.786435 0.846830 0.853025
0.794888 0.847257 0.853483
0.807431 0.848142 0.854307
0.823270 0.850034 0.855863
0.835019 0.849516 0.857298
0.848173 0.844846 0.857939
0.793942 0.861204 0.856748
0.794491 0.861173 0.856748
0.797482 0.861082 0.856870
0.803891 0.861051 0.857237
0.813107 0.860990 0.857847
0.824796 0.860990 0.858640
0.838956 0.861326 0.859922
0.852903 0.862730 0.862119
