20 Preset/Natural Style/【3】LUT video cho PR-AE-FCPX/Natural 2 LUT (10).cube
# Created by Adobe Lightroom plugin Export LUT (1.24.0)
# www.johnrellis.com/lightroom/exportlut.htm
# Preset: 森系胶片-素材江湖10
# Color profile: E:\lut插件\exportlut.1.24\exportlut.lrplugin\color profiles\Rec709gamma2.4.icc
LUT_3D_SIZE 8
DOMAIN_MIN 0.000000 0.000000 0.000000
DOMAIN_MAX 0.903226 0.903226 0.903226
0.000000 0.000000 0.000000
0.071168 0.030884 0.006836
0.171847 0.061921 0.015167
0.362554 0.000000 0.011292
0.591547 0.000000 0.006714
0.806729 0.167727 0.111269
0.925231 0.379492 0.275151
0.955718 0.542229 0.462562
0.032959 0.080568 0.009644
0.071412 0.082765 0.009552
0.163668 0.094026 0.013001
0.335424 0.088838 0.005829
0.556390 0.050385 0.000000
0.772122 0.181643 0.090059
0.900999 0.347875 0.228489
0.950500 0.511528 0.416083
0.090730 0.170016 0.011536
0.120607 0.167941 0.010315
0.192355 0.175875 0.005341
0.375280 0.204349 0.000000
0.585168 0.237980 0.000000
0.796963 0.336095 0.119326
0.909789 0.469886 0.303288
0.941924 0.592584 0.494514
0.158755 0.337438 0.007446
0.189517 0.330571 0.001953
0.274937 0.323919 0.000000
0.426123 0.388403 0.013092
0.661677 0.470527 0.149996
0.818204 0.527214 0.283116
0.892760 0.583520 0.398352
0.922881 0.652979 0.542840
0.261448 0.530205 0.142763
0.284062 0.524773 0.136934
0.358862 0.510430 0.121096
0.470283 0.524712 0.134463
0.604028 0.569177 0.192355
0.759091 0.617609 0.301579
0.855406 0.656245 0.453223
0.896239 0.709682 0.602960
0.387243 0.669276 0.276005
0.410773 0.675715 0.284916
0.456397 0.665339 0.267308
0.525750 0.645502 0.233890
0.630762 0.669123 0.289220
0.732998 0.702083 0.375799
0.828336 0.737026 0.521569
0.875395 0.768032 0.660060
0.534447 0.771176 0.450813
0.543114 0.771633 0.451759
0.564263 0.766049 0.435889
0.606439 0.756954 0.409888
0.666529 0.749996 0.398779
0.743648 0.767483 0.480507
0.807431 0.786191 0.569757
0.857816 0.807095 0.681788
0.700801 0.846799 0.677363
0.702754 0.846555 0.676448
0.713375 0.846250 0.675532
0.735927 0.846464 0.677272
0.743404 0.833646 0.627161
0.790402 0.838804 0.667384
0.830716 0.846311 0.719936
0.858091 0.850980 0.754299
0.023133 0.039155 0.022431
0.072602 0.039124 0.023743
0.158907 0.070588 0.025727
0.320989 0.064881 0.027039
0.541527 0.013642 0.012848
0.752865 0.158694 0.072877
0.887907 0.316533 0.202579
0.947356 0.475441 0.375494
0.031006 0.087343 0.026246
0.083223 0.089387 0.029023
0.165499 0.099794 0.034150
0.324773 0.104433 0.031220
0.537804 0.108217 0.018616
0.744045 0.190280 0.059724
0.874571 0.316564 0.187839
0.940307 0.461707 0.350500
0.082033 0.172091 0.037140
0.125948 0.172732 0.049683
0.197299 0.178470 0.048432
0.366430 0.203159 0.066499
0.562585 0.234409 0.079377
0.755520 0.306615 0.125002
0.877226 0.408698 0.223819
0.935943 0.533867 0.407416
0.155978 0.324926 0.088899
0.186038 0.320867 0.084901
0.270634 0.315099 0.072602
0.390570 0.353094 0.091859
0.594751 0.409644 0.141756
0.767727 0.463752 0.232059
0.864775 0.522667 0.318151
0.918761 0.600885 0.454353
0.259098 0.525353 0.173190
0.280186 0.518303 0.167025
0.350744 0.500053 0.149386
0.450599 0.501793 0.150637
0.572473 0.537102 0.189456
0.733425 0.588251 0.279423
0.841947 0.632013 0.418738
0.893065 0.686519 0.564141
0.372717 0.657069 0.280278
0.385901 0.655177 0.276982
0.433967 0.645624 0.262852
0.506950 0.628016 0.235294
0.613550 0.652766 0.282750
0.722225 0.691402 0.369848
0.821195 0.727016 0.506004
0.872343 0.757504 0.641382
0.512413 0.759243 0.433356
0.514702 0.756161 0.425574
0.537072 0.749538 0.408667
0.583642 0.740932 0.385443
0.650446 0.736599 0.378576
0.731319 0.755886 0.457862
0.797116 0.774075 0.540612
0.852232 0.795499 0.654383
0.680812 0.839994 0.654963
0.686519 0.840909 0.658534
0.697017 0.840238 0.656031
0.721279 0.840391 0.657069
0.753689 0.839414 0.654139
0.792386 0.840360 0.675685
0.829068 0.844938 0.717037
0.856962 0.849638 0.751492
0.042634 0.091493 0.105470
0.086702 0.087404 0.109285
0.184909 0.077729 0.115450
0.378912 0.034699 0.134798
0.580194 0.089357 0.151614
0.781186 0.231998 0.208927
0.894621 0.382757 0.299443
0.945006 0.524285 0.434180
0.089082 0.123812 0.115938
0.102541 0.116091 0.120027
0.200687 0.110079 0.126162
0.374395 0.115755 0.138552
0.570611 0.144961 0.157443
0.767666 0.251682 0.210178
0.883299 0.378820 0.287449
0.940276 0.514275 0.416419
0.077760 0.207584 0.151278
0.128603 0.209903 0.154726
0.252811 0.220584 0.171267
0.408972 0.239414 0.180362
0.607935 0.285069 0.208408
0.777676 0.359289 0.255375
0.878691 0.452796 0.332525
0.930785 0.560327 0.456275
0.000000 0.369726 0.164553
0.127962 0.377111 0.173068
0.319371 0.383825 0.218601
0.445686 0.408118 0.234958
0.639887 0.459510 0.290898
0.780697 0.506554 0.347936
0.865782 0.561547 0.419318
0.912200 0.630823 0.526909
0.220096 0.558953 0.255406
0.276066 0.558465 0.271122
0.386816 0.549676 0.286839
0.486275 0.538598 0.273899
0.607630 0.576196 0.317144
0.747585 0.613916 0.391241
0.839902 0.652064 0.499886
0.887297 0.700313 0.604334
0.387793 0.676295 0.366766
0.415869 0.676631 0.379248
0.458686 0.666926 0.364141
0.524468 0.647547 0.333471
0.619135 0.658686 0.356176
0.722286 0.695552 0.434211
0.817258 0.730312 0.552026
0.868956 0.763577 0.668482
0.537957 0.769650 0.507073
0.540063 0.767147 0.500664
0.555535 0.759731 0.480964
0.593652 0.749294 0.452674
0.651118 0.738277 0.423926
0.732570 0.758877 0.500908
0.799313 0.780240 0.585107
0.853391 0.803159 0.687678
0.685512 0.840970 0.676020
0.685847 0.840116 0.672938
0.695216 0.839231 0.669459
0.722011 0.840818 0.674647
0.752560 0.839658 0.669947
0.793301 0.841611 0.689815
0.830442 0.846860 0.730587
0.857603 0.851469 0.762173
0.000000 0.137118 0.255283
0.000000 0.129213 0.264714
0.217899 0.118257 0.274693
0.404700 0.077790 0.284550
0.635920 0.117311 0.321630
0.787808 0.250645 0.340917
0.877958 0.390539 0.392370
0.928222 0.528374 0.490455
0.066102 0.187228 0.282750
0.101625 0.175631 0.286625
0.238804 0.157748 0.293767
0.424781 0.136843 0.303258
0.646540 0.185092 0.336614
0.785214 0.284886 0.348669
0.874113 0.408209 0.399512
0.925292 0.536584 0.494942
0.177218 0.299351 0.315282
0.213626 0.302159 0.318883
0.281987 0.278141 0.331792
0.456855 0.271885 0.341863
0.653986 0.333898 0.373083
0.788357 0.411933 0.404242
0.873533 0.515679 0.475227
0.916594 0.603388 0.555901
0.058320 0.458289 0.392645
0.168307 0.458167 0.394049
0.333745 0.464515 0.407416
0.518029 0.488106 0.442817
0.657679 0.503929 0.446418
0.770962 0.537682 0.468757
0.850462 0.587274 0.515221
0.898802 0.650935 0.590539
0.188540 0.613062 0.407202
0.237827 0.612085 0.409461
0.374640 0.616571 0.429450
0.550896 0.616266 0.478828
0.654078 0.635340 0.501793
0.761318 0.657618 0.552728
0.833310 0.685756 0.605921
0.878935 0.719020 0.657160
0.350439 0.714412 0.453559
0.390143 0.719478 0.470649
0.489906 0.714199 0.504601
0.584527 0.703120 0.521843
0.651942 0.692866 0.504143
0.735103 0.718654 0.560327
0.815702 0.745449 0.635492
0.864256 0.775174 0.711757
0.520195 0.783383 0.555230
0.535485 0.783047 0.562341
0.586633 0.779812 0.585718
0.630671 0.772732 0.582361
0.671473 0.759396 0.543603
0.740658 0.769680 0.583337
0.800717 0.787716 0.644312
0.852811 0.809506 0.723354
0.689143 0.848203 0.706569
0.693751 0.847623 0.708522
0.713222 0.845701 0.717556
0.731106 0.844663 0.714717
0.756161 0.843015 0.706935
0.792966 0.843015 0.710384
0.831083 0.848753 0.748562
0.858610 0.854429 0.779324
0.000000 0.236942 0.492531
0.000000 0.227604 0.499825
0.222507 0.215915 0.504387
0.450752 0.182040 0.512993
0.657282 0.194583 0.526635
0.819120 0.335302 0.550622
0.876493 0.449500 0.543969
0.910002 0.567407 0.588159
0.000000 0.291569 0.510979
0.000000 0.283177 0.518242
0.254337 0.260197 0.521691
0.461128 0.226780 0.522454
0.663416 0.242741 0.536034
0.815793 0.366461 0.555322
0.872435 0.467170 0.548882
0.906737 0.576074 0.591974
0.262150 0.430121 0.539391
0.286931 0.427619 0.541466
0.331273 0.390509 0.548363
0.489631 0.363806 0.552850
0.665217 0.368780 0.551812
0.791501 0.444068 0.555840
0.853391 0.516838 0.558312
0.896269 0.598016 0.598932
0.323400 0.556451 0.578576
0.352880 0.557610 0.579675
0.453498 0.567010 0.588342
0.537285 0.546654 0.600061
0.678401 0.544671 0.601160
0.769345 0.576532 0.594812
0.831724 0.609583 0.602106
0.883330 0.658381 0.639399
0.317510 0.662959 0.610864
0.347967 0.663630 0.612879
0.443580 0.663661 0.617914
0.571710 0.666316 0.630274
0.681636 0.675166 0.648310
0.751003 0.674342 0.641382
0.817288 0.687617 0.650904
0.868986 0.715816 0.680781
0.369604 0.717861 0.568017
0.389105 0.718288 0.570367
0.454536 0.715633 0.576013
0.556054 0.715908 0.595789
0.662501 0.709743 0.622614
0.737911 0.731991 0.654322
0.810361 0.754238 0.698085
0.857542 0.777951 0.739406
0.496864 0.791318 0.610285
0.501518 0.789883 0.608820
0.529717 0.786496 0.609613
0.610559 0.783444 0.637446
0.685573 0.774502 0.653773
0.734981 0.768795 0.641382
0.794675 0.787289 0.687648
0.847501 0.806729 0.742824
0.618311 0.848173 0.683833
0.624628 0.847440 0.685939
0.651606 0.844846 0.696376
0.708858 0.844083 0.726864
0.747951 0.841245 0.734737
0.781003 0.839231 0.723537
0.823789 0.844633 0.753567
0.854124 0.850858 0.782712
0.148196 0.408850 0.699794
0.182773 0.401709 0.702174
0.308385 0.381018 0.700649
0.500175 0.381872 0.709499
0.682490 0.352941 0.710231
0.809812 0.410071 0.702480
0.874815 0.549554 0.697627
0.899260 0.636439 0.702724
0.215488 0.432013 0.689723
0.230961 0.423041 0.690150
0.320653 0.400183 0.693050
0.490211 0.390570 0.696162
0.668971 0.361028 0.697475
0.799435 0.414496 0.692714
0.869078 0.547631 0.691218
0.896422 0.631586 0.696590
0.418647 0.567773 0.710201
0.422217 0.560845 0.710231
0.443183 0.533349 0.712520
0.528405 0.499641 0.706905
0.671717 0.472480 0.705531
0.790738 0.507561 0.701106
0.855406 0.604608 0.702968
0.886778 0.660487 0.707088
0.538720 0.671931 0.724483
0.544457 0.669612 0.723262
0.577111 0.666926 0.724208
0.612116 0.650080 0.731991
0.692287 0.633234 0.732113
0.782956 0.641535 0.727565
0.838834 0.682155 0.727626
0.874144 0.709377 0.730678
0.542687 0.714412 0.724483
0.553216 0.714565 0.724666
0.595056 0.716670 0.726711
0.660029 0.723995 0.733089
0.698146 0.711940 0.735836
0.766445 0.708095 0.733303
0.817472 0.718074 0.728115
0.859922 0.732784 0.732265
0.537072 0.762112 0.729458
0.551720 0.763790 0.732265
0.584771 0.762325 0.733181
0.638788 0.760922 0.736141
0.702541 0.760891 0.742031
0.767483 0.770260 0.757412
0.811704 0.771756 0.756161
0.854765 0.782681 0.766323
0.579309 0.803952 0.719265
0.587335 0.804807 0.721218
0.606378 0.804410 0.722011
0.642969 0.803555 0.724727
0.697017 0.801602 0.733486
0.755886 0.793240 0.741756
0.802274 0.802701 0.757046
0.849210 0.818601 0.788510
0.636835 0.851072 0.737911
0.637415 0.850370 0.736629
0.648524 0.849119 0.736599
0.676143 0.848356 0.741482
0.719722 0.845792 0.752316
0.776699 0.841154 0.768582
0.817166 0.842710 0.771817
0.851072 0.850187 0.798795
0.429267 0.565820 0.786313
0.439094 0.564355 0.787778
0.468147 0.549157 0.788693
0.555596 0.546014 0.789273
0.660029 0.532738 0.788571
0.774014 0.520043 0.786252
0.856931 0.568536 0.778408
0.886839 0.659571 0.767361
0.441871 0.576410 0.781155
0.451759 0.575616 0.782925
0.472358 0.557580 0.784390
0.552056 0.550072 0.783963
0.654139 0.534844 0.783047
0.767483 0.517235 0.779995
0.851347 0.560754 0.771389
0.884123 0.649989 0.760403
0.540856 0.650996 0.783322
0.542748 0.647761 0.783658
0.549157 0.631922 0.784115
0.588220 0.614496 0.784512
0.664454 0.597833 0.782895
0.763851 0.578698 0.780972
0.842588 0.616144 0.776150
0.877256 0.687129 0.771542
0.627710 0.722530 0.788449
0.629480 0.720638 0.787564
0.641871 0.716060 0.786862
0.649561 0.697749 0.788663
0.690486 0.682368 0.787900
0.764034 0.665126 0.787411
0.831479 0.685573 0.784634
0.867460 0.729183 0.783932
0.661372 0.761227 0.790219
0.664118 0.760494 0.789364
0.680629 0.761044 0.789090
0.699794 0.757870 0.790036
0.714290 0.742245 0.791226
0.759579 0.727962 0.789853
0.819150 0.733547 0.788144
0.858152 0.762448 0.792752
0.660182 0.788479 0.794766
0.664698 0.788724 0.795071
0.681727 0.789273 0.795926
0.711788 0.790860 0.798001
0.750332 0.794400 0.801511
0.774929 0.788602 0.804654
0.817441 0.787045 0.804166
0.851225 0.793576 0.802670
0.661341 0.822904 0.803098
0.665980 0.823087 0.803677
0.679377 0.822324 0.803983
0.704982 0.821256 0.805081
0.738674 0.819699 0.806577
0.778408 0.819364 0.810117
0.817746 0.823301 0.817533
0.848539 0.824094 0.816556
0.685451 0.850004 0.797787
0.687922 0.850095 0.798154
0.699550 0.850889 0.800198
0.716182 0.851225 0.801511
0.737697 0.851408 0.801968
0.771145 0.850370 0.805875
0.815244 0.846677 0.812436
0.849882 0.852598 0.825040
0.624292 0.700679 0.833890
0.626947 0.700069 0.834379
0.629358 0.690455 0.834592
0.657465 0.687434 0.835080
0.700160 0.681605 0.835325
0.757534 0.670039 0.835386
0.825559 0.668910 0.834501
0.879576 0.693080 0.829557
0.626490 0.703639 0.831846
0.629236 0.703090 0.832395
0.633051 0.694942 0.832975
0.657374 0.689601 0.833463
0.698970 0.683436 0.833738
0.755673 0.671626 0.833799
0.823301 0.667933 0.832609
0.877867 0.690730 0.827420
0.656580 0.729793 0.830198
0.657527 0.728542 0.830442
0.659174 0.721065 0.830747
0.675868 0.714839 0.832883
0.708614 0.707271 0.832731
0.756741 0.694209 0.832334
0.820096 0.687984 0.831662
0.872618 0.707271 0.827207
0.698299 0.766110 0.829282
0.700099 0.765896 0.829587
0.701259 0.760891 0.829984
0.705989 0.751583 0.831540
0.725338 0.742489 0.832425
0.762814 0.732692 0.832547
0.817258 0.723720 0.832609
0.865293 0.737942 0.829465
0.720668 0.792813 0.830381
0.722652 0.792935 0.830716
0.726833 0.791073 0.830564
0.740383 0.789700 0.831235
0.745174 0.777829 0.832456
0.768612 0.768032 0.832853
0.813687 0.757168 0.833585
0.858000 0.769223 0.832517
0.733425 0.814298 0.833890
0.734371 0.813901 0.833555
0.740658 0.813352 0.832975
0.755673 0.814084 0.833158
0.771176 0.813046 0.834531
0.784909 0.806363 0.837888
0.815793 0.801114 0.840299
0.854520 0.806607 0.841154
0.740475 0.836973 0.841550
0.741817 0.836820 0.841489
0.747829 0.836393 0.841337
0.761318 0.836362 0.841825
0.781430 0.836881 0.842924
0.807309 0.839292 0.845487
0.823758 0.836057 0.848051
0.851499 0.833829 0.847440
0.747738 0.862089 0.850278
0.748623 0.861906 0.850187
0.753780 0.861509 0.850248
0.765103 0.861082 0.850797
0.781308 0.860227 0.851438
0.801846 0.859037 0.852171
0.826963 0.858000 0.853605
0.852537 0.859159 0.857115
