20 Preset/Natural Style/【3】LUT video cho PR-AE-FCPX/Natural 2 LUT (7).cube
# Created by Adobe Lightroom plugin Export LUT (1.24.0)
# www.johnrellis.com/lightroom/exportlut.htm
# Preset: 森系胶片-素材江湖07
# Color profile: E:\lut插件\exportlut.1.24\exportlut.lrplugin\color profiles\Rec709gamma2.4.icc
LUT_3D_SIZE 32
DOMAIN_MIN 0.0 0.0 0.0
DOMAIN_MAX 1.0 1.0 1.0
0.000000 0.000000 0.000000
0.001282 0.000977 0.000000
0.007507 0.002502 0.000641
0.022248 0.005280 0.001099
0.040497 0.011017 0.002228
0.065309 0.018250 0.003021
0.089937 0.025605 0.003601
0.106203 0.033539 0.003845
0.126955 0.040314 0.003632
0.155917 0.043122 0.002716
0.192020 0.039521 0.001892
0.235721 0.024994 0.000000
0.285710 0.000000 0.000000
0.341192 0.000000 0.000000
0.400305 0.000000 0.000000
0.461677 0.000000 0.000000
0.524193 0.000000 0.000000
0.586694 0.000000 0.000000
0.647272 0.000000 0.000000
0.705501 0.000000 0.000000
0.766110 0.000000 0.000000
0.822873 0.000000 0.000000
0.866819 0.000000 0.000000
0.902434 0.105684 0.000000
0.931579 0.166140 0.000000
0.955840 0.211460 0.000000
0.976165 0.251438 0.000000
0.993225 0.288670 0.000000
1.000000 0.325719 0.000000
1.000000 0.364172 0.136049
1.000000 0.405035 0.206424
1.000000 0.449500 0.276280
0.000275 0.002167 0.000824
0.002258 0.001953 0.000824
0.008057 0.004669 0.000336
0.020813 0.007691 0.000793
0.039796 0.012207 0.002075
0.065309 0.018250 0.003021
0.089937 0.025605 0.003601
0.105379 0.034974 0.003693
0.125856 0.041962 0.003510
0.154025 0.045441 0.002594
0.189425 0.041779 0.000855
0.232242 0.027802 0.000000
0.281407 0.003510 0.000000
0.336187 0.000000 0.000000
0.394598 0.000000 0.000000
0.455726 0.000000 0.000000
0.518242 0.000000 0.000000
0.580468 0.000000 0.000000
0.641444 0.000000 0.000000
0.699763 0.000000 0.000000
0.759548 0.000000 0.000000
0.815549 0.000000 0.000000
0.859312 0.000000 0.000000
0.895201 0.090761 0.000000
0.924895 0.155123 0.000000
0.949950 0.201938 0.000000
0.971191 0.242252 0.000000
0.989166 0.279667 0.000000
1.000000 0.316930 0.000000
1.000000 0.355261 0.118929
1.000000 0.396155 0.191775
1.000000 0.440375 0.262242
0.002625 0.009705 0.002014
0.003906 0.010681 0.001862
0.006470 0.012634 0.001526
0.020783 0.016632 0.000732
0.042786 0.019745 0.001007
0.066285 0.026001 0.001953
0.090303 0.033356 0.002533
0.106691 0.040101 0.002930
0.127352 0.046876 0.002716
0.155032 0.051514 0.001648
0.190188 0.047852 0.000000
0.232731 0.035096 0.000000
0.281254 0.012696 0.000000
0.335149 0.000000 0.000000
0.393378 0.000000 0.000000
0.453834 0.000000 0.000000
0.516075 0.000000 0.000000
0.578149 0.000000 0.000000
0.638880 0.000000 0.000000
0.697047 0.000000 0.000000
0.757656 0.000000 0.000000
0.812528 0.000000 0.000000
0.855985 0.000000 0.000000
0.891814 0.099550 0.000000
0.921599 0.158999 0.000000
0.946807 0.202548 0.000000
0.968475 0.241550 0.000000
0.986847 0.278630 0.000000
1.000000 0.315251 0.000000
1.000000 0.353216 0.107240
1.000000 0.393378 0.183413
1.000000 0.436805 0.254032
0.008667 0.025727 0.004242
0.009949 0.026703 0.004089
0.011627 0.026459 0.005188
0.019013 0.030182 0.003418
0.038605 0.034699 0.002441
0.067964 0.041505 0.000946
0.093538 0.046967 0.000519
0.109621 0.054688 0.000732
0.131411 0.060578 0.000519
0.159609 0.063142 0.000000
0.195102 0.059358 0.000000
0.237156 0.050263 0.000000
0.284916 0.032013 0.000000
0.338231 0.001221 0.000000
0.395087 0.000000 0.000000
0.454475 0.000000 0.000000
0.515343 0.000000 0.000000
0.576196 0.000000 0.000000
0.635920 0.000000 0.000000
0.693263 0.000000 0.000000
0.753292 0.000000 0.000000
0.806332 0.000000 0.000000
0.849363 0.000000 0.000000
0.885863 0.117250 0.000000
0.916869 0.167788 0.000000
0.943359 0.209873 0.000000
0.966064 0.248142 0.000000
0.985229 0.283940 0.000000
1.000000 0.319860 0.000000
1.000000 0.356909 0.100374
1.000000 0.395361 0.179263
1.000000 0.437018 0.248569
0.017517 0.045869 0.006958
0.016785 0.047089 0.006806
0.020478 0.046632 0.007935
0.024720 0.048371 0.008728
0.036072 0.051606 0.006958
0.061769 0.058869 0.004334
0.092134 0.067506 0.001190
0.113710 0.076600 0.000000
0.136629 0.080903 0.000000
0.165774 0.082277 0.000000
0.200900 0.082063 0.000000
0.242557 0.077638 0.000000
0.290105 0.064576 0.000000
0.342809 0.039673 0.000000
0.399237 0.006409 0.000000
0.458503 0.000000 0.000000
0.519036 0.000000 0.000000
0.579431 0.000000 0.000000
0.638422 0.000000 0.000000
0.695064 0.000000 0.000000
0.755337 0.000000 0.000000
0.806058 0.000000 0.000000
0.848173 0.101900 0.000000
0.884398 0.150881 0.000000
0.915373 0.191257 0.000000
0.942016 0.227237 0.000000
0.964752 0.261295 0.000000
0.983886 0.294652 0.000000
0.999725 0.328130 0.000000
1.000000 0.362707 0.087221
1.000000 0.399725 0.172488
1.000000 0.439551 0.242802
0.024170 0.071839 0.011200
0.025452 0.072816 0.011048
0.027436 0.072572 0.011048
0.033356 0.074098 0.012970
0.040467 0.077790 0.012329
0.058656 0.080873 0.009064
0.088533 0.085328 0.006256
0.110689 0.090639 0.002258
0.140536 0.095277 0.000000
0.177310 0.098116 0.000000
0.213687 0.099397 0.000000
0.255741 0.099519 0.000000
0.303319 0.097749 0.000000
0.355596 0.092561 0.000000
0.411688 0.082338 0.000000
0.469825 0.056397 0.000000
0.529747 0.026123 0.000000
0.589288 0.000000 0.000000
0.647395 0.000000 0.000000
0.705562 0.009155 0.000000
0.763241 0.083101 0.000000
0.811673 0.123598 0.000000
0.891203 0.205631 0.000000
0.921935 0.237888 0.000000
0.947326 0.267704 0.000000
0.968444 0.295811 0.000000
0.985870 0.323827 0.000000
1.000000 0.352026 0.000000
1.000000 0.381811 0.077852
1.000000 0.413397 0.166537
1.000000 0.447852 0.234958
1.000000 0.485054 0.302190
0.036469 0.095613 0.016388
0.035767 0.096040 0.016236
0.040711 0.096223 0.017182
0.048615 0.096651 0.019104
0.059083 0.097780 0.020722
0.072999 0.099519 0.018616
0.091432 0.101717 0.013733
0.110475 0.104250 0.008087
0.143496 0.111421 0.000855
0.185367 0.117586 0.000000
0.235813 0.122683 0.000000
0.287541 0.125124 0.000000
0.336584 0.125368 0.000000
0.389380 0.124941 0.000000
0.444923 0.123873 0.000000
0.501823 0.122805 0.000000
0.559472 0.123110 0.000000
0.616541 0.126345 0.000000
0.672084 0.132143 0.000000
0.735195 0.149966 0.000000
0.791562 0.175051 0.000000
0.838956 0.203433 0.000000
0.879057 0.232242 0.000000
0.912779 0.261021 0.000000
0.940703 0.288426 0.000000
0.963256 0.314061 0.000000
0.981445 0.338842 0.000000
0.996216 0.363928 0.000000
1.000000 0.390570 0.000000
1.000000 0.418891 0.146273
1.000000 0.450263 0.218021
1.000000 0.485145 0.286503
0.042725 0.115023 0.023377
0.044007 0.115267 0.023194
0.049500 0.115999 0.023865
0.058686 0.116609 0.025635
0.073396 0.117891 0.028046
0.088441 0.119814 0.032258
0.095552 0.122377 0.024811
0.113619 0.124117 0.015961
0.137697 0.125460 0.008698
0.178836 0.134585 0.000000
0.228641 0.143038 0.000000
0.285771 0.150576 0.000000
0.350347 0.156771 0.000000
0.405646 0.159274 0.000000
0.459388 0.160922 0.000000
0.514153 0.163516 0.000000
0.569879 0.167300 0.000000
0.625086 0.174289 0.000000
0.684901 0.186191 0.000000
0.743130 0.205234 0.000000
0.794522 0.226566 0.000000
0.838712 0.249363 0.000000
0.876890 0.271702 0.000000
0.909453 0.295079 0.000000
0.936980 0.317601 0.000000
0.959350 0.339025 0.000000
0.977691 0.359960 0.000000
0.992798 0.381323 0.000000
1.000000 0.404822 0.000000
1.000000 0.430426 0.127657
1.000000 0.458778 0.205509
1.000000 0.490791 0.275853
0.044953 0.141848 0.032258
0.046235 0.142061 0.032105
0.054963 0.143160 0.034546
0.069978 0.144137 0.035828
0.086275 0.145846 0.039887
0.099550 0.148013 0.046662
0.111086 0.150729 0.049592
0.123354 0.152712 0.034791
0.145205 0.153964 0.019440
0.175448 0.154421 0.004303
0.220798 0.164126 0.000000
0.277653 0.175692 0.000000
0.340703 0.186099 0.000000
0.408789 0.195773 0.000000
0.478859 0.204776 0.000000
0.532067 0.208774 0.000000
0.585504 0.214267 0.000000
0.643244 0.223941 0.000000
0.700679 0.237491 0.000000
0.753597 0.253544 0.000000
0.800412 0.272190 0.000000
0.841276 0.291936 0.000000
0.877165 0.312657 0.000000
0.908263 0.333257 0.000000
0.934783 0.351507 0.000000
0.956695 0.368750 0.000000
0.974853 0.386114 0.000000
0.989899 0.404303 0.000000
1.000000 0.424414 0.000000
1.000000 0.446571 0.109529
1.000000 0.471992 0.196384
1.000000 0.500999 0.269017
0.052644 0.176242 0.049775
0.056886 0.176516 0.050599
0.067872 0.177615 0.053864
0.084688 0.179385 0.058595
0.098390 0.180880 0.064393
0.113375 0.183200 0.074739
0.130312 0.186679 0.085695
0.143526 0.189822 0.081544
0.159518 0.190860 0.054871
0.185214 0.190677 0.026947
0.218723 0.190249 0.000610
0.265812 0.198550 0.000000
0.327520 0.213504 0.000000
0.394293 0.227359 0.000000
0.465095 0.240848 0.000000
0.537469 0.253849 0.000000
0.608972 0.268772 0.000000
0.664881 0.279240 0.000000
0.717830 0.291630 0.000000
0.765927 0.305425 0.000000
0.807980 0.320562 0.000000
0.844602 0.335363 0.000000
0.877073 0.350988 0.000000
0.905608 0.367102 0.000000
0.930510 0.382605 0.000000
0.951934 0.397711 0.000000
0.970062 0.411597 0.000000
0.985443 0.426612 0.000000
0.998260 0.443641 0.000000
1.000000 0.463325 0.064424
1.000000 0.485908 0.182834
1.000000 0.512474 0.260563
0.069398 0.216678 0.082460
0.072236 0.217136 0.082765
0.085969 0.218479 0.086427
0.098390 0.220859 0.089876
0.112276 0.223239 0.093874
0.129335 0.226596 0.099275
0.149752 0.230991 0.106691
0.172427 0.236912 0.117250
0.184634 0.239139 0.106783
0.204227 0.238956 0.088380
0.232425 0.236851 0.044556
0.267185 0.233707 0.000763
0.315007 0.239963 0.000000
0.381262 0.258610 0.000000
0.454627 0.278325 0.000000
0.530144 0.297276 0.000000
0.604791 0.315709 0.000000
0.676600 0.334142 0.000000
0.732174 0.347601 0.000000
0.775387 0.358282 0.000000
0.813565 0.369207 0.000000
0.847318 0.380468 0.000000
0.877714 0.392676 0.000000
0.904784 0.404974 0.000000
0.928649 0.417487 0.000000
0.949310 0.429847 0.000000
0.967132 0.442267 0.000000
0.982513 0.454719 0.000000
0.995209 0.468605 0.000000
1.000000 0.485054 0.000000
1.000000 0.504540 0.174929
1.000000 0.528069 0.257053
0.085115 0.268193 0.107668
0.089387 0.268467 0.108125
0.098390 0.270146 0.111086
0.115206 0.273198 0.115846
0.128664 0.276127 0.119539
0.148470 0.280095 0.125948
0.171450 0.285649 0.134829
0.196902 0.292729 0.146304
0.222751 0.300603 0.158328
0.234470 0.300084 0.138155
0.256657 0.297642 0.113954
0.287602 0.293462 0.083223
0.349371 0.311772 0.019287
0.402808 0.317662 0.000000
0.480629 0.344549 0.000000
0.558282 0.368841 0.000000
0.633112 0.390753 0.000000
0.702571 0.410986 0.000000
0.763180 0.428717 0.000000
0.814084 0.443244 0.000000
0.847349 0.450019 0.000000
0.874907 0.455482 0.000000
0.899840 0.461799 0.000000
0.922087 0.468635 0.000000
0.941527 0.475837 0.000000
0.958556 0.483131 0.000000
0.973297 0.491035 0.000000
0.986084 0.499580 0.000000
0.997101 0.509361 0.000000
1.000000 0.521752 0.108644
1.000000 0.537682 0.207340
1.000000 0.557763 0.285405
0.106844 0.341100 0.147372
0.109560 0.341375 0.148074
0.118532 0.342626 0.150332
0.137606 0.345342 0.155795
0.153689 0.348211 0.160372
0.175723 0.351629 0.167086
0.200748 0.356939 0.176638
0.228733 0.363958 0.189303
0.259312 0.373907 0.205844
0.285924 0.384680 0.213230
0.303746 0.386786 0.190311
0.333349 0.386908 0.163424
0.370581 0.383734 0.128908
0.411383 0.376257 0.078401
0.458167 0.373419 0.000000
0.534874 0.401160 0.000000
0.608881 0.424964 0.000000
0.677516 0.445838 0.000000
0.738308 0.463600 0.000000
0.790188 0.478004 0.000000
0.834104 0.489082 0.000000
0.870634 0.497230 0.000000
0.894621 0.500328 0.000000
0.916320 0.504234 0.000000
0.935546 0.508690 0.000000
0.952544 0.513542 0.000000
0.967437 0.519219 0.000000
0.980407 0.525933 0.000000
0.991638 0.533776 0.000000
1.000000 0.543450 0.092012
1.000000 0.556451 0.198337
1.000000 0.573754 0.280674
0.131594 0.407416 0.189700
0.134127 0.407355 0.189853
0.143832 0.408362 0.192599
0.162539 0.411414 0.198672
0.181094 0.415625 0.204929
0.203769 0.420111 0.212680
0.230259 0.426612 0.223514
0.260716 0.435370 0.238285
0.294194 0.446632 0.256870
0.331151 0.460914 0.280583
0.351171 0.467231 0.275029
0.370520 0.466011 0.247135
0.399634 0.462043 0.214267
0.434821 0.454444 0.175143
0.472114 0.441779 0.125734
0.508476 0.426612 0.020478
0.581811 0.453803 0.000000
0.650629 0.476265 0.000000
0.712947 0.495644 0.000000
0.766201 0.510582 0.000000
0.811704 0.522301 0.000000
0.851377 0.531243 0.000000
0.885161 0.538109 0.000000
0.911833 0.541955 0.000000
0.930602 0.543847 0.000000
0.947387 0.546502 0.000000
0.962097 0.549828 0.000000
0.975006 0.554284 0.000000
0.986145 0.560235 0.000000
0.995453 0.568017 0.140322
1.000000 0.577630 0.202121
1.000000 0.591821 0.279576
0.173648 0.483528 0.246464
0.176364 0.483650 0.247105
0.184817 0.484474 0.249821
0.200565 0.486305 0.254826
0.222477 0.489509 0.262516
0.241550 0.492592 0.268528
0.267643 0.497688 0.279271
0.297215 0.505058 0.293309
0.330816 0.514916 0.311894
0.366888 0.527489 0.334600
0.406226 0.542992 0.362676
0.417945 0.543084 0.340673
0.436500 0.538842 0.308354
0.463081 0.531548 0.271092
0.494850 0.519738 0.227115
0.527672 0.503044 0.174502
0.557855 0.481270 0.107698
0.623041 0.502495 0.000000
0.686915 0.523796 0.000000
0.741970 0.540429 0.000000
0.789181 0.553002 0.000000
0.830503 0.562768 0.000000
0.866026 0.569970 0.000000
0.896849 0.575036 0.000000
0.923064 0.578149 0.000000
0.942016 0.579461 0.000000
0.956634 0.580896 0.000000
0.969451 0.583734 0.000000
0.980591 0.588067 0.123079
0.989807 0.594476 0.187106
0.996979 0.603052 0.241947
1.000000 0.614252 0.297063
0.225895 0.550317 0.305638
0.227543 0.550652 0.306371
0.235569 0.551659 0.309026
0.250095 0.553857 0.314824
0.272435 0.557183 0.324102
0.289281 0.561089 0.330694
0.314214 0.566491 0.341924
0.343267 0.573602 0.356512
0.376043 0.582757 0.375067
0.411200 0.593439 0.397223
0.448402 0.605463 0.422919
0.479255 0.615106 0.440467
0.485084 0.609949 0.408820
0.499092 0.601801 0.371496
0.520562 0.590417 0.328649
0.546777 0.574945 0.279301
0.575463 0.556054 0.223697
0.603571 0.533928 0.159152
0.657343 0.545403 0.115511
0.715206 0.564752 0.038758
0.765652 0.579583 0.000000
0.809171 0.590845 0.000000
0.846769 0.599084 0.000000
0.879179 0.605127 0.000000
0.906859 0.609064 0.000000
0.930510 0.611383 0.000000
0.950500 0.612879 0.020508
0.963867 0.614099 0.130037
0.974640 0.616663 0.183993
0.983520 0.621180 0.231601
0.990417 0.627710 0.279484
0.994965 0.636866 0.329442
0.283635 0.608026 0.365148
0.285924 0.608362 0.366003
0.292424 0.609186 0.368719
0.304692 0.610986 0.374029
0.324224 0.614008 0.383215
0.341466 0.617578 0.390784
0.363806 0.621851 0.401373
0.390478 0.627405 0.415106
0.420539 0.634241 0.432197
0.452735 0.642176 0.452338
0.487251 0.651057 0.475746
0.521965 0.660700 0.501488
0.539239 0.663996 0.502434
0.542473 0.657771 0.469062
0.553338 0.649287 0.430793
0.570886 0.637568 0.385565
0.593683 0.622644 0.334661
0.619379 0.604578 0.277775
0.646357 0.584100 0.213291
0.688502 0.585595 0.177035
0.741451 0.602838 0.158114
0.787625 0.615717 0.146120
0.826810 0.625513 0.147829
0.860929 0.632471 0.153811
0.889921 0.637263 0.164279
0.914672 0.640345 0.178561
0.935668 0.642390 0.195254
0.953429 0.643702 0.214267
0.968078 0.644892 0.236332
0.976593 0.647974 0.278080
0.983093 0.653101 0.321691
0.987274 0.660822 0.368872
0.354620 0.658167 0.429633
0.356512 0.658625 0.430732
0.398627 0.680171 0.465522
0.409064 0.681392 0.470832
0.425116 0.683284 0.479286
0.440955 0.685664 0.487495
0.458564 0.688258 0.496468
0.480262 0.691646 0.508537
0.504814 0.695979 0.523430
0.531640 0.701289 0.540856
0.558923 0.707210 0.560052
0.586084 0.713497 0.580346
0.612085 0.719997 0.600977
0.614466 0.717678 0.586053
0.613336 0.710750 0.553948
0.618158 0.701656 0.514549
0.629511 0.689876 0.467506
0.646998 0.675380 0.413855
0.668879 0.657862 0.353918
0.693721 0.639002 0.287449
0.725368 0.631556 0.249210
0.771756 0.645319 0.241367
0.812100 0.655146 0.238163
0.846189 0.662257 0.245609
0.875151 0.666804 0.255222
0.899901 0.669612 0.266239
0.920928 0.671229 0.278813
0.938842 0.672358 0.294316
0.953765 0.673579 0.313603
0.966155 0.675105 0.335210
0.975036 0.677882 0.364263
0.978912 0.684016 0.407813
0.437201 0.702632 0.501152
0.441901 0.704372 0.504784
0.449714 0.706477 0.510094
0.461006 0.708766 0.517235
0.476753 0.711330 0.526818
0.493416 0.713619 0.536584
0.506645 0.715846 0.543694
0.523705 0.718349 0.553582
0.543542 0.721584 0.565667
0.564965 0.725490 0.579706
0.587579 0.729976 0.595331
0.610437 0.735012 0.612207
0.632746 0.740078 0.629358
0.652644 0.744900 0.644678
0.647700 0.740078 0.621271
0.646418 0.733791 0.592370
0.650202 0.725765 0.557427
0.659937 0.715755 0.514916
0.675898 0.703517 0.464576
0.696498 0.688869 0.407385
0.721920 0.673518 0.343633
0.747372 0.661494 0.301915
0.789700 0.673823 0.300755
0.826291 0.682582 0.302800
0.856931 0.688319 0.311528
0.882689 0.692164 0.324407
0.904570 0.694606 0.338262
0.923033 0.696407 0.355108
0.938415 0.698116 0.374426
0.951019 0.700130 0.396887
0.960937 0.702876 0.422126
0.968322 0.706569 0.450385
0.496986 0.729946 0.552483
0.501305 0.731411 0.555840
0.507958 0.733181 0.560601
0.517357 0.735195 0.567102
0.529656 0.737179 0.575006
0.544060 0.739071 0.584070
0.553918 0.740902 0.589654
0.567498 0.742855 0.597742
0.583124 0.745296 0.607477
0.600153 0.748165 0.618555
0.618494 0.751614 0.631220
0.637293 0.755428 0.644892
0.656001 0.759457 0.659022
0.674250 0.763638 0.673426
0.683711 0.765194 0.676692
0.679316 0.760861 0.655940
0.677790 0.755306 0.630213
0.680720 0.748409 0.599542
0.688869 0.739773 0.562005
0.702632 0.729366 0.516594
0.721492 0.717037 0.463569
0.746456 0.704555 0.402625
0.767147 0.688930 0.355138
0.805478 0.700038 0.358862
0.838041 0.707454 0.364782
0.865476 0.712276 0.375433
0.888060 0.715694 0.391089
0.907134 0.718257 0.409094
0.922881 0.720546 0.429297
0.935576 0.723140 0.452613
0.945403 0.726375 0.478798
0.952544 0.730495 0.506981
0.551324 0.753719 0.600061
0.554376 0.754818 0.602564
0.559503 0.756161 0.606409
0.566949 0.757656 0.611566
0.576318 0.759152 0.617823
0.587884 0.760586 0.625269
0.596277 0.762112 0.630335
0.607050 0.763577 0.636896
0.619623 0.765499 0.644862
0.633143 0.767666 0.653864
0.648096 0.770291 0.664149
0.663447 0.773190 0.675135
0.679011 0.776364 0.686763
0.694392 0.779599 0.698604
0.709224 0.783047 0.710597
0.711116 0.782406 0.705135
0.707607 0.778927 0.687465
0.706874 0.774624 0.666468
0.709834 0.769497 0.641291
0.717311 0.763180 0.610895
0.729824 0.755520 0.574243
0.747280 0.746181 0.529473
0.770260 0.735744 0.474495
0.789670 0.720150 0.423377
0.823026 0.729946 0.433265
0.851041 0.736324 0.445319
0.874296 0.740627 0.459632
0.892851 0.744167 0.480293
0.907805 0.747372 0.503075
0.919585 0.750729 0.527886
0.928496 0.754543 0.553491
0.934783 0.759060 0.580285
0.612726 0.779202 0.654292
0.613947 0.779568 0.655299
0.616510 0.779995 0.657069
0.620569 0.780514 0.659785
0.626886 0.781155 0.663783
0.634791 0.781827 0.668879
0.641505 0.782773 0.672969
0.649226 0.783841 0.677760
0.658717 0.785214 0.683864
0.669642 0.786893 0.691157
0.681392 0.788876 0.699275
0.693721 0.791104 0.708095
0.706142 0.793454 0.717250
0.718563 0.795956 0.726650
0.730465 0.798550 0.736049
0.742031 0.801266 0.745449
0.738582 0.799100 0.734401
0.735439 0.796078 0.719539
0.734340 0.792416 0.701534
0.736110 0.787991 0.679744
0.741634 0.782650 0.653681
0.751644 0.776089 0.621698
0.766293 0.768063 0.582330
0.786007 0.758419 0.533349
0.805509 0.745266 0.483894
0.833097 0.750912 0.490303
0.857389 0.756771 0.505608
0.877409 0.761074 0.522850
0.893004 0.764889 0.545281
0.905058 0.768704 0.569604
0.914214 0.772702 0.594446
0.920623 0.777279 0.620050
0.652155 0.794858 0.689265
0.653162 0.795132 0.690028
0.655238 0.795468 0.691493
0.658503 0.795865 0.693721
0.663203 0.796323 0.696803
0.669551 0.796902 0.700923
0.675471 0.797635 0.704646
0.681392 0.798489 0.708400
0.688930 0.799557 0.713344
0.697597 0.800870 0.719142
0.706996 0.802426 0.725612
0.716854 0.804135 0.732662
0.726955 0.805997 0.739986
0.737118 0.808011 0.747616
0.747066 0.810117 0.755306
0.756710 0.812314 0.762997
0.762783 0.813596 0.766506
0.759487 0.811643 0.756527
0.757076 0.809232 0.744320
0.756374 0.806394 0.729824
0.757900 0.802945 0.712123
0.762448 0.798764 0.690425
0.770657 0.793637 0.664088
0.783261 0.787320 0.631342
0.798459 0.776699 0.582330
0.817655 0.766720 0.540185
0.840635 0.768948 0.541833
0.861662 0.774594 0.559411
0.878721 0.778988 0.578698
0.891783 0.783108 0.601404
0.901274 0.787533 0.626398
0.908019 0.792294 0.651453
0.692683 0.810208 0.724910
0.693843 0.810513 0.725856
0.695369 0.810758 0.726925
0.697475 0.810910 0.728267
0.700313 0.811002 0.730037
0.704372 0.811185 0.732570
0.708339 0.811429 0.735012
0.711971 0.811765 0.737057
0.717006 0.812253 0.740139
0.723018 0.812985 0.744015
0.729641 0.813870 0.748379
0.737026 0.814969 0.753445
0.744717 0.816251 0.758846
0.752560 0.817594 0.764523
0.760311 0.818997 0.770230
0.768002 0.820554 0.776150
0.775540 0.822232 0.782132
0.776974 0.822141 0.780545
0.774258 0.820493 0.771908
0.772610 0.818601 0.761837
0.772274 0.816403 0.749783
0.773800 0.813687 0.735164
0.777554 0.810300 0.717037
0.784360 0.805997 0.694301
0.795010 0.800656 0.665766
0.810178 0.794034 0.630030
0.828183 0.786587 0.595270
0.847257 0.786221 0.592523
0.864988 0.791440 0.611017
0.878996 0.795834 0.631342
0.889555 0.800137 0.653346
0.896788 0.804929 0.677455
0.718471 0.819944 0.747555
0.719356 0.820218 0.748318
0.720699 0.820462 0.749294
0.722499 0.820615 0.750454
0.725124 0.820829 0.752224
0.728695 0.821073 0.754513
0.732509 0.821500 0.757046
0.735866 0.821988 0.759152
0.740291 0.822568 0.762020
0.745388 0.823301 0.765408
0.750942 0.824125 0.769192
0.756924 0.825071 0.773312
0.763119 0.826047 0.777615
0.769345 0.827146 0.782101
0.775570 0.828244 0.786618
0.781704 0.829435 0.791226
0.787778 0.830686 0.795895
0.793729 0.832090 0.800656
0.792294 0.831235 0.796017
0.790341 0.829984 0.789120
0.789151 0.828519 0.781033
0.788998 0.826810 0.771389
0.790280 0.824735 0.759731
0.793423 0.822171 0.745327
0.799100 0.819028 0.727504
0.808042 0.815122 0.705013
0.821134 0.810422 0.677058
0.837675 0.805570 0.650904
0.853361 0.804349 0.647913
0.867521 0.809354 0.667445
0.878355 0.813809 0.687678
0.886229 0.818235 0.708156
0.744533 0.829648 0.770291
0.744991 0.829770 0.770687
0.745785 0.829862 0.771206
0.747097 0.829984 0.772091
0.748989 0.830106 0.773312
0.751644 0.830259 0.775051
0.754574 0.830533 0.776944
0.756985 0.830900 0.778439
0.760311 0.831296 0.780575
0.764187 0.831815 0.783169
0.768521 0.832425 0.786038
0.773220 0.833127 0.789242
0.778103 0.833921 0.792660
0.783078 0.834775 0.796170
0.788052 0.835630 0.799710
0.792996 0.836515 0.803342
0.797940 0.837491 0.807065
0.802792 0.838621 0.810849
0.806271 0.839384 0.813077
0.804471 0.838560 0.808347
0.803159 0.837583 0.802823
0.802396 0.836484 0.796353
0.802396 0.835142 0.788602
0.803525 0.833524 0.779110
0.806210 0.831571 0.767636
0.810910 0.829221 0.753384
0.818387 0.826413 0.735988
0.829496 0.822995 0.714229
0.844236 0.820096 0.694575
0.857420 0.818723 0.692195
0.868681 0.823575 0.711635
0.877104 0.828061 0.730861
0.765072 0.837308 0.788113
0.765408 0.837400 0.788388
0.766049 0.837522 0.788876
0.767208 0.837613 0.789609
0.768826 0.837797 0.790768
0.771176 0.838071 0.792386
0.774075 0.838499 0.794369
0.776608 0.839017 0.796109
0.779965 0.839658 0.798459
0.783688 0.840391 0.801144
0.787778 0.841184 0.804074
0.791989 0.842008 0.807065
0.796231 0.842863 0.810147
0.800351 0.843687 0.813138
0.804410 0.844450 0.816068
0.808194 0.845182 0.818814
0.811948 0.845945 0.821561
0.815640 0.846738 0.824399
0.819303 0.847623 0.827268
0.820279 0.847807 0.826993
0.819181 0.847257 0.823636
0.818387 0.846677 0.819669
0.818021 0.845914 0.814969
0.818235 0.845060 0.809384
0.819303 0.844022 0.802731
0.821500 0.842802 0.794675
0.825315 0.841367 0.785031
0.831144 0.839750 0.773312
0.839750 0.837827 0.759091
0.851530 0.836759 0.747341
0.861662 0.836057 0.747433
0.869688 0.840299 0.763760
0.788571 0.846098 0.808377
0.788602 0.846098 0.808438
0.788907 0.846128 0.808621
0.789548 0.846159 0.809018
0.790555 0.846220 0.809689
0.792020 0.846311 0.810636
0.793668 0.846464 0.811704
0.795041 0.846708 0.812589
0.797055 0.846983 0.813901
0.799374 0.847349 0.815457
0.801938 0.847745 0.817197
0.804746 0.848203 0.819089
0.807706 0.848692 0.821134
0.810727 0.849180 0.823209
