20 Preset/Natural Style/【3】LUT video cho PR-AE-FCPX/Natural 2 LUT (3).cube
# Created by Adobe Lightroom plugin Export LUT (1.24.0)
# www.johnrellis.com/lightroom/exportlut.htm
# Preset: 森系胶片-素材江湖03
# Color profile: E:\lut插件\exportlut.1.24\exportlut.lrplugin\color profiles\Rec709gamma2.4.icc
LUT_3D_SIZE 5
DOMAIN_MIN 0.000000 0.000000 0.000000
DOMAIN_MAX 0.903226 0.903226 0.903226
0.011475 0.021637 0.017151
0.187594 0.017456 0.040528
0.617670 0.000000 0.067689
0.914427 0.000000 0.134737
1.000000 0.221195 0.253086
0.000000 0.219089 0.142550
0.207492 0.229740 0.138399
0.673579 0.173770 0.041505
0.912535 0.228305 0.149142
1.000000 0.360540 0.280339
0.319097 0.606744 0.428382
0.444526 0.595697 0.456153
0.624018 0.620783 0.435584
0.871427 0.617426 0.310826
0.971313 0.594781 0.401678
0.618891 0.771908 0.680262
0.643427 0.769833 0.688624
0.707637 0.763516 0.720363
0.769100 0.782498 0.690242
0.899413 0.781186 0.635401
0.748196 0.859342 0.813596
0.755703 0.858762 0.816007
0.781064 0.856016 0.824796
0.809598 0.857969 0.833158
0.849668 0.869505 0.818265
0.000000 0.061799 0.156100
0.176944 0.078767 0.172305
0.616358 0.000000 0.178347
0.908843 0.000000 0.160098
1.000000 0.288060 0.260380
0.000000 0.230838 0.251011
0.228000 0.260105 0.266911
0.656245 0.255222 0.247105
0.902800 0.310033 0.208621
1.000000 0.390173 0.285710
0.270512 0.618097 0.478706
0.441749 0.616083 0.501884
0.624140 0.625696 0.507378
0.859037 0.622278 0.425483
0.969879 0.600488 0.406500
0.617792 0.774502 0.693690
0.642054 0.774075 0.700435
0.709712 0.768124 0.729397
0.768582 0.784024 0.709682
0.895201 0.784390 0.663996
0.750240 0.860563 0.818570
0.755550 0.860227 0.819333
0.782712 0.858274 0.828855
0.812192 0.859129 0.838499
0.850309 0.870512 0.824430
0.000000 0.115328 0.402045
0.111879 0.132296 0.435035
0.587976 0.181308 0.515831
0.840604 0.323522 0.515587
0.970855 0.443732 0.499184
0.000000 0.238010 0.450690
0.170352 0.261875 0.485298
0.616266 0.363745 0.562646
0.830961 0.446998 0.554345
0.954498 0.521019 0.541405
0.000000 0.578546 0.601801
0.285466 0.590600 0.610925
0.625422 0.642908 0.652705
0.804013 0.663050 0.657313
0.921874 0.660639 0.629786
0.551537 0.783536 0.731197
0.591119 0.782528 0.733883
0.703243 0.783200 0.756283
0.769345 0.790677 0.764340
0.884276 0.792660 0.739864
0.722347 0.864256 0.820005
0.736629 0.864103 0.824094
0.780026 0.864073 0.838224
0.819547 0.861753 0.853788
0.851408 0.872618 0.842344
0.000000 0.185855 0.645350
0.000000 0.198917 0.659632
0.567529 0.274937 0.709468
0.802487 0.462623 0.746578
0.872709 0.600031 0.723659
0.000000 0.276493 0.659876
0.154482 0.293950 0.672267
0.574670 0.385626 0.716548
0.790280 0.543786 0.753780
0.866453 0.634150 0.736629
0.000000 0.493263 0.669612
0.100282 0.503014 0.672602
0.572961 0.596765 0.731441
0.770260 0.696681 0.781094
0.858152 0.719020 0.775296
0.471229 0.738216 0.771939
0.511559 0.741176 0.773953
0.631373 0.756466 0.784604
0.765774 0.793637 0.812741
0.863157 0.805234 0.817166
0.646143 0.874357 0.846616
0.663966 0.873808 0.846799
0.726986 0.872190 0.849088
0.817044 0.872435 0.866148
0.855497 0.877684 0.870024
0.229160 0.321355 0.812406
0.339605 0.334600 0.815366
0.575341 0.403143 0.826413
0.766659 0.554833 0.842893
0.876036 0.649134 0.851987
0.274296 0.390417 0.813291
0.366949 0.403937 0.816007
0.580224 0.469245 0.826261
0.762264 0.596155 0.843046
0.870146 0.675898 0.853513
0.265629 0.537682 0.810330
0.381628 0.556451 0.814145
0.588525 0.612573 0.826505
0.752834 0.690791 0.845609
0.856718 0.747799 0.860899
0.373358 0.696712 0.827848
0.414588 0.698299 0.827634
0.539574 0.706447 0.826993
0.738338 0.767575 0.851896
0.851682 0.824125 0.876646
0.609369 0.843931 0.875700
0.624750 0.845212 0.876219
0.681331 0.850950 0.878599
0.768154 0.862852 0.884398
0.860929 0.884245 0.898100
