20 Preset/Natural Style/【3】LUT video cho PR-AE-FCPX/Natural 2 LUT (8).cube
# Created by Adobe Lightroom plugin Export LUT (1.24.0)
# www.johnrellis.com/lightroom/exportlut.htm
# Preset: 森系胶片-素材江湖08
# Color profile: E:\lut插件\exportlut.1.24\exportlut.lrplugin\color profiles\Rec709gamma2.4.icc
LUT_3D_SIZE 5
DOMAIN_MIN 0.000000 0.000000 0.000000
DOMAIN_MAX 0.903226 0.903226 0.903226
0.050843 0.079469 0.071595
0.120607 0.101839 0.094667
0.278050 0.139895 0.126162
0.635950 0.232120 0.196719
0.879850 0.546441 0.453864
0.000000 0.251011 0.214969
0.146883 0.244236 0.137758
0.534783 0.231968 0.145571
0.737606 0.339788 0.233402
0.900542 0.589166 0.490791
0.457496 0.742611 0.711635
0.441962 0.755978 0.711391
0.607935 0.703944 0.524468
0.843626 0.670466 0.508690
0.958099 0.723049 0.631525
0.733700 0.897856 0.892119
0.733181 0.901030 0.892454
0.732113 0.911955 0.890227
0.793942 0.884276 0.810636
0.942382 0.875090 0.818875
0.882017 0.935424 0.943328
0.882261 0.935637 0.943267
0.882689 0.936431 0.942962
0.881804 0.937438 0.938872
0.894896 0.935912 0.926696
0.069581 0.085451 0.109499
0.144106 0.094148 0.122774
0.188052 0.150515 0.148592
0.545678 0.240208 0.227726
0.853025 0.544762 0.478157
0.138247 0.180117 0.179690
0.209751 0.196048 0.179904
0.400153 0.224094 0.200626
0.672389 0.329778 0.273472
0.876249 0.586053 0.512627
0.503380 0.713680 0.694789
0.492378 0.729244 0.697841
0.623957 0.672602 0.527276
0.839750 0.663966 0.535943
0.944701 0.722469 0.649744
0.744411 0.894041 0.892088
0.743984 0.897398 0.892638
0.743130 0.909361 0.892241
0.800717 0.879667 0.813474
0.942626 0.874540 0.824826
0.884398 0.935210 0.943725
0.884550 0.935393 0.943694
0.885557 0.936156 0.943511
0.884611 0.937194 0.939940
0.896757 0.935760 0.928252
0.113283 0.086488 0.221225
0.236790 0.019440 0.272465
0.526940 0.000000 0.338842
0.579095 0.247562 0.314519
0.736294 0.525902 0.520104
0.176120 0.147036 0.274662
0.292180 0.169223 0.325689
0.571832 0.254917 0.401831
0.516075 0.298619 0.321691
0.780850 0.570703 0.559991
0.550134 0.611109 0.618799
0.571252 0.624201 0.631586
0.659205 0.605707 0.576440
0.759731 0.607935 0.571984
0.891936 0.710384 0.689204
0.769711 0.878050 0.888823
0.774105 0.879850 0.889464
0.773465 0.895628 0.893187
0.821775 0.859617 0.819425
0.946105 0.871153 0.843961
0.890043 0.934295 0.944732
0.892271 0.934478 0.945068
0.892699 0.935332 0.944945
0.892668 0.936461 0.943236
0.902129 0.935302 0.932280
0.217502 0.000000 0.492836
0.364202 0.000000 0.534783
0.661341 0.000000 0.598352
0.835477 0.326146 0.643214
0.883940 0.597589 0.695216
0.340459 0.000000 0.541741
0.447456 0.000000 0.570153
0.678737 0.107515 0.620966
0.821622 0.456367 0.667231
0.871183 0.623072 0.703090
0.318761 0.374975 0.566003
0.447242 0.426947 0.601251
0.684138 0.582422 0.697414
0.779843 0.648432 0.718837
0.833341 0.696254 0.735225
0.766262 0.832029 0.859464
0.778012 0.837797 0.864530
0.793210 0.847349 0.871672
0.839963 0.830869 0.840177
0.932341 0.853971 0.862577
0.893187 0.932525 0.945159
0.894682 0.932830 0.945434
0.900114 0.933837 0.946349
0.902892 0.935302 0.946563
0.910857 0.934630 0.939361
0.478676 0.000000 0.794522
0.571923 0.000000 0.802792
0.799435 0.000000 0.834989
0.925109 0.000000 0.837980
0.975219 0.582208 0.835843
0.548394 0.000000 0.804837
0.622492 0.000000 0.812436
0.815213 0.000000 0.840360
0.911223 0.295598 0.838651
0.965972 0.619684 0.840940
0.560754 0.281498 0.818143
0.618524 0.316258 0.822293
0.766720 0.480629 0.842374
0.870390 0.599573 0.854917
0.947539 0.728176 0.867582
0.213260 0.650660 0.814664
0.364477 0.652888 0.819425
0.638972 0.690303 0.851957
0.852964 0.800656 0.898589
0.933837 0.866453 0.918364
0.879728 0.925231 0.942107
0.883146 0.926055 0.942657
0.896880 0.929808 0.945281
0.910826 0.933135 0.947723
0.915435 0.934691 0.949096
