20 Preset/Natural Style/【3】LUT video cho PR-AE-FCPX/Natural 2 LUT (9).cube
# Created by Adobe Lightroom plugin Export LUT (1.24.0)
# www.johnrellis.com/lightroom/exportlut.htm
# Preset: 森系胶片-素材江湖09
# Color profile: E:\lut插件\exportlut.1.24\exportlut.lrplugin\color profiles\Rec709gamma2.4.icc
LUT_3D_SIZE 8
DOMAIN_MIN 0.000000 0.000000 0.000000
DOMAIN_MAX 0.903226 0.903226 0.903226
0.054108 0.052491 0.054994
0.099519 0.062135 0.059052
0.268620 0.034180 0.057832
0.551293 0.000000 0.000000
0.782773 0.000000 0.000000
0.927001 0.176761 0.000000
1.000000 0.315923 0.000000
1.000000 0.441199 0.061189
0.072450 0.093996 0.072755
0.096834 0.093111 0.087068
0.284550 0.104982 0.044648
0.552758 0.019501 0.000000
0.778653 0.094148 0.000000
0.920653 0.220645 0.000000
1.000000 0.332616 0.000000
1.000000 0.448768 0.000000
0.000000 0.255985 0.022400
0.141726 0.273472 0.000000
0.324376 0.284489 0.187503
0.594232 0.285008 0.000000
0.788144 0.301427 0.000000
0.917571 0.347723 0.000000
1.000000 0.416266 0.000000
1.000000 0.502159 0.109285
0.000000 0.512322 0.005188
0.171603 0.520653 0.000000
0.478614 0.542351 0.144259
0.649256 0.583978 0.468940
0.815518 0.550683 0.234958
0.908782 0.498634 0.000000
0.999847 0.525658 0.014618
1.000000 0.579400 0.211032
0.317815 0.681239 0.269841
0.374975 0.683803 0.263859
0.551110 0.693690 0.236057
0.727535 0.708797 0.464698
0.808072 0.739651 0.677241
0.903075 0.706813 0.520623
0.984283 0.650141 0.305028
1.000000 0.667140 0.314916
0.514244 0.774380 0.449012
0.538659 0.776730 0.449866
0.625116 0.782193 0.442573
0.758785 0.793057 0.501915
0.857328 0.812131 0.672389
0.903197 0.839658 0.795315
0.963958 0.818265 0.698634
1.000000 0.791623 0.593652
0.661463 0.856687 0.598505
0.673335 0.857816 0.598505
0.718715 0.861326 0.595880
0.799039 0.867979 0.590478
0.884337 0.879637 0.691676
0.934356 0.893309 0.801480
0.950103 0.905730 0.879210
0.990692 0.889769 0.814603
0.770565 0.930419 0.719142
0.776638 0.930724 0.718959
0.801602 0.932067 0.718715
0.846921 0.934630 0.718227
0.903685 0.936034 0.737850
0.947448 0.938170 0.829953
0.967224 0.940307 0.894530
0.969665 0.940002 0.924498
0.047211 0.072755 0.093874
0.097383 0.074891 0.090730
0.272801 0.022583 0.089845
0.548180 0.000000 0.046021
0.777279 0.000000 0.000000
0.918547 0.201266 0.000000
1.000000 0.325414 0.000000
1.000000 0.442664 0.108492
0.057740 0.099336 0.099458
0.104829 0.103975 0.103334
0.290684 0.108888 0.095094
0.557031 0.046723 0.033295
0.778408 0.123964 0.000000
0.916197 0.239780 0.000000
1.000000 0.343328 0.000000
1.000000 0.451881 0.114626
0.000000 0.262486 0.110842
0.099702 0.279637 0.105653
0.329595 0.299321 0.226596
0.586908 0.288701 0.000000
0.783505 0.311894 0.000000
0.910918 0.356634 0.000000
1.000000 0.419165 0.000000
1.000000 0.501946 0.167025
0.000000 0.509056 0.169070
0.136721 0.517662 0.154269
0.468757 0.542077 0.191531
0.638972 0.579919 0.478706
0.802243 0.544213 0.260899
0.899474 0.498085 0.034730
0.991302 0.524102 0.144747
1.000000 0.577264 0.240513
0.306706 0.678889 0.312902
0.364080 0.681392 0.307225
0.538354 0.691249 0.285832
0.720851 0.706111 0.472877
0.803128 0.736690 0.678096
0.897154 0.703670 0.526085
0.978912 0.646509 0.317266
1.000000 0.666468 0.335576
0.508873 0.771756 0.467597
0.531640 0.773159 0.466590
0.616907 0.778927 0.460578
0.751827 0.790219 0.505730
0.853971 0.810178 0.673915
0.901732 0.839078 0.796719
0.962066 0.817288 0.700649
1.000000 0.790036 0.595483
0.656489 0.854276 0.605615
0.667079 0.854917 0.604669
0.712551 0.858518 0.602319
0.793393 0.865690 0.597742
0.881529 0.878172 0.691829
0.933074 0.892424 0.801663
0.949401 0.905241 0.879332
0.989929 0.888884 0.814267
0.766537 0.929168 0.721523
0.773037 0.929686 0.721859
0.798123 0.931029 0.721553
0.843809 0.933745 0.721248
0.902953 0.936767 0.740536
0.947112 0.938476 0.831510
0.967041 0.940429 0.895262
0.969635 0.940215 0.925109
0.000000 0.113893 0.231846
0.000000 0.093355 0.229221
0.261692 0.063142 0.198703
0.564782 0.000000 0.215793
0.783169 0.161532 0.222171
0.913176 0.290715 0.229892
1.000000 0.387671 0.251286
1.000000 0.481758 0.298558
0.000000 0.156741 0.253605
0.000000 0.147433 0.256992
0.290135 0.137545 0.224063
0.569055 0.171878 0.245792
0.780667 0.226658 0.233402
0.909117 0.320104 0.238071
0.997925 0.401129 0.253727
1.000000 0.489815 0.301122
0.000000 0.294865 0.282628
0.000000 0.302037 0.285405
0.335271 0.331518 0.312016
0.585931 0.343359 0.279728
0.780392 0.370764 0.264897
0.902953 0.410101 0.260960
0.992676 0.461707 0.278080
1.000000 0.531304 0.324285
0.000000 0.501701 0.340764
0.000000 0.513634 0.340520
0.407630 0.549065 0.338628
0.634638 0.591913 0.532494
0.784237 0.546563 0.358892
0.890898 0.528801 0.309209
0.982940 0.552941 0.326024
1.000000 0.599634 0.370092
0.194247 0.676204 0.412085
0.313725 0.678370 0.428626
0.501518 0.689754 0.432319
0.706416 0.707576 0.517052
0.801907 0.742275 0.700008
0.886961 0.706813 0.567315
0.969177 0.650690 0.393408
1.000000 0.680323 0.433448
0.507256 0.767788 0.543084
0.527062 0.769558 0.542748
0.603845 0.776181 0.539727
0.733272 0.787778 0.533623
0.848112 0.810208 0.688685
0.900603 0.842039 0.808072
0.958404 0.818540 0.715511
1.000000 0.790463 0.614160
0.649928 0.852567 0.644678
0.660273 0.853422 0.644099
0.703120 0.857328 0.642420
0.781308 0.864927 0.639734
0.874632 0.877806 0.701228
0.931395 0.893767 0.810269
0.949615 0.908232 0.886595
0.988891 0.891539 0.823789
0.758785 0.928588 0.741390
0.764645 0.928862 0.741115
0.789761 0.930358 0.741176
0.835966 0.933562 0.742214
0.896391 0.937255 0.742672
0.945159 0.939239 0.835996
0.966705 0.941527 0.899260
0.969665 0.941619 0.928313
0.000000 0.190036 0.475288
0.000000 0.169253 0.473823
0.209506 0.125856 0.450843
0.527886 0.144350 0.400458
0.763943 0.269963 0.412329
0.891966 0.393194 0.449866
0.979950 0.460090 0.449531
1.000000 0.534051 0.473976
0.000000 0.250828 0.495460
0.000000 0.235172 0.492409
0.224521 0.190372 0.469795
0.541222 0.215915 0.417029
0.764279 0.317327 0.428717
0.888945 0.415442 0.456153
0.977417 0.474678 0.455512
1.000000 0.543236 0.478492
0.000000 0.389563 0.507713
0.000000 0.393256 0.510735
0.219821 0.392554 0.516655
0.565332 0.392218 0.467262
0.761044 0.451118 0.485634
0.879149 0.490425 0.481178
0.971191 0.531487 0.483711
1.000000 0.580865 0.498329
0.000000 0.541009 0.520134
0.000000 0.543206 0.521386
0.341375 0.549676 0.524620
0.602380 0.583398 0.566857
0.754269 0.571679 0.520897
0.865446 0.580224 0.512078
0.960601 0.599329 0.509850
1.000000 0.634424 0.521935
0.291783 0.655726 0.553552
0.330449 0.660060 0.556268
0.454719 0.677729 0.565515
0.652369 0.702907 0.580499
0.793423 0.744594 0.724788
0.865934 0.703548 0.614435
0.952270 0.679622 0.546654
1.000000 0.703914 0.559960
0.483772 0.760342 0.613184
0.502953 0.763119 0.615747
0.566827 0.771603 0.620081
0.701045 0.784878 0.638483
0.834562 0.809598 0.708858
0.899077 0.847166 0.826291
0.952300 0.819272 0.737697
1.000000 0.787106 0.635889
0.597864 0.849210 0.674586
0.607507 0.850767 0.674891
0.679713 0.854002 0.696345
0.756222 0.863615 0.697780
0.856779 0.876646 0.711818
0.927672 0.895781 0.823178
0.949889 0.912932 0.897795
0.987213 0.894957 0.837522
0.728603 0.928618 0.763790
0.740230 0.928618 0.767819
0.774502 0.929686 0.775631
0.820432 0.933135 0.776944
0.881437 0.937530 0.778347
0.940063 0.940429 0.840909
0.965942 0.943328 0.905394
0.969787 0.944121 0.933837
0.000000 0.307042 0.666682
0.000000 0.297337 0.665400
0.000000 0.246616 0.654688
0.510307 0.228458 0.618463
0.720089 0.305730 0.571557
0.860014 0.443275 0.568444
0.951385 0.533379 0.601678
1.000000 0.607233 0.636896
0.000000 0.360754 0.673671
0.000000 0.352026 0.672358
0.000000 0.305089 0.662379
0.517296 0.278782 0.626307
0.722438 0.344610 0.578882
0.857359 0.466133 0.576928
0.948913 0.548028 0.609583
1.000000 0.613611 0.639033
0.000000 0.484993 0.679805
0.000000 0.485695 0.681025
0.000000 0.472480 0.679469
0.526665 0.425177 0.649928
0.725643 0.464088 0.604242
0.846525 0.540246 0.607355
0.938231 0.601923 0.640528
1.000000 0.636347 0.645380
0.000000 0.599268 0.676753
0.000000 0.600641 0.677455
0.259159 0.605859 0.680568
0.547204 0.609125 0.683925
0.728420 0.607202 0.648157
0.837308 0.638300 0.660731
0.932860 0.654231 0.658381
1.000000 0.675593 0.656306
0.235050 0.688716 0.675654
0.292210 0.689235 0.676295
0.440803 0.691066 0.678248
0.610285 0.691981 0.680659
0.756741 0.721523 0.720272
0.837186 0.702419 0.677852
0.931701 0.709163 0.670253
1.000000 0.725917 0.668421
0.498543 0.736782 0.679835
0.513725 0.738918 0.681880
0.568048 0.746944 0.689143
0.650996 0.764401 0.700832
0.780575 0.793210 0.716335
0.889952 0.844907 0.838010
0.940490 0.807797 0.748714
1.000000 0.789364 0.691890
0.590509 0.833555 0.732357
0.597650 0.834775 0.732540
0.627832 0.840604 0.733639
0.691737 0.854002 0.737545
0.812009 0.870329 0.756771
0.915618 0.893309 0.827390
0.949401 0.917052 0.908751
0.985901 0.895659 0.848295
0.668452 0.923735 0.784726
0.675898 0.924285 0.785122
0.706722 0.926635 0.787442
0.776608 0.930724 0.802976
0.855680 0.935790 0.817929
0.926116 0.941070 0.836881
0.964111 0.945006 0.910796
0.969879 0.947021 0.940246
0.000000 0.433448 0.780423
0.000000 0.428870 0.779507
0.000000 0.408881 0.773648
0.426612 0.377417 0.756283
0.700160 0.360662 0.721736
0.828702 0.454810 0.685084
0.922820 0.572137 0.685542
1.000000 0.640467 0.719326
0.000000 0.466346 0.780667
0.000000 0.461677 0.779446
0.000000 0.441382 0.773342
0.430579 0.406012 0.756435
0.698482 0.387671 0.722591
0.826322 0.473518 0.686854
0.920439 0.581872 0.688655
1.000000 0.645869 0.721401
0.000000 0.561913 0.785092
0.000000 0.562463 0.785580
0.000000 0.548821 0.780941
0.456275 0.509392 0.765682
0.699245 0.487526 0.733089
0.822202 0.545953 0.700313
0.916350 0.622950 0.706661
1.000000 0.671809 0.734493
0.000000 0.648096 0.781277
0.000000 0.648890 0.781491
0.286107 0.653162 0.783108
0.528191 0.651575 0.782650
0.707576 0.618769 0.755154
0.820432 0.643275 0.727077
0.915923 0.681727 0.736568
1.000000 0.716426 0.758999
0.274388 0.721370 0.776211
0.316655 0.721950 0.776486
0.440131 0.724208 0.777859
0.586694 0.729183 0.781186
0.718959 0.731075 0.785519
0.825895 0.724239 0.758328
0.918181 0.742763 0.769558
0.999237 0.758083 0.771817
0.481147 0.777554 0.774563
0.497932 0.777951 0.775143
0.555016 0.778439 0.776089
0.639796 0.779934 0.778225
0.738735 0.781796 0.780667
0.859251 0.819760 0.825834
0.924071 0.795682 0.780240
1.000000 0.804929 0.777676
0.593317 0.825895 0.786587
0.601129 0.826169 0.787045
0.630915 0.826200 0.787655
0.683406 0.833249 0.792996
0.758572 0.854215 0.805295
0.874235 0.882200 0.824643
0.948425 0.920958 0.919982
0.986633 0.891325 0.854246
0.665919 0.915343 0.836851
0.670436 0.915831 0.836759
0.690730 0.918303 0.837003
0.732082 0.923705 0.838163
0.800259 0.931487 0.843290
0.896788 0.939574 0.865721
0.959808 0.946746 0.914611
0.970306 0.951049 0.948516
0.000000 0.553857 0.867979
0.000000 0.554009 0.868559
0.000000 0.544091 0.864317
0.397528 0.514733 0.856046
0.660670 0.505272 0.835203
0.825559 0.484443 0.801053
0.907317 0.573297 0.775601
0.983642 0.659724 0.776791
0.000000 0.564599 0.862364
0.000000 0.565026 0.863279
0.000000 0.554864 0.859434
0.389197 0.522515 0.850584
0.651118 0.510002 0.829038
0.815274 0.485542 0.793637
0.897734 0.568841 0.766629
0.974517 0.652613 0.766995
0.000000 0.634485 0.868956
0.000000 0.632258 0.868162
0.000000 0.621485 0.863493
0.456733 0.601984 0.854215
0.657465 0.571557 0.833860
0.813413 0.545434 0.800351
0.898924 0.613855 0.778988
0.979614 0.683894 0.784695
0.000000 0.703670 0.870115
0.000000 0.703304 0.869718
0.291997 0.703395 0.869078
0.515801 0.696345 0.865629
0.674983 0.663325 0.849332
0.817014 0.637354 0.818906
0.903532 0.676295 0.799649
0.981415 0.726833 0.806332
0.278538 0.758877 0.862364
0.306096 0.757443 0.861173
0.410437 0.756619 0.860502
0.544823 0.758022 0.862913
0.682368 0.752010 0.862760
0.808347 0.714260 0.835447
0.899504 0.731930 0.813504
0.980499 0.774746 0.829252
0.447211 0.811368 0.858305
0.462104 0.811704 0.858732
0.515129 0.812253 0.859800
0.597345 0.813443 0.862364
0.699672 0.815274 0.866423
0.818570 0.819699 0.873777
0.909789 0.812924 0.850065
0.979034 0.837156 0.863676
0.557946 0.863096 0.864469
0.567376 0.863951 0.865385
0.599145 0.863951 0.865690
0.658137 0.864805 0.866972
0.736995 0.865599 0.868162
0.830198 0.867430 0.870359
0.931456 0.903593 0.910124
0.981567 0.883024 0.875242
0.659144 0.919219 0.885710
0.664973 0.919371 0.885985
0.691188 0.920806 0.887907
0.732723 0.920836 0.888701
0.788510 0.920256 0.889281
0.856535 0.931273 0.896605
0.938506 0.945647 0.913268
0.970947 0.955444 0.956970
0.000000 0.651362 0.932464
0.000000 0.651484 0.932525
0.076844 0.645075 0.929442
0.469093 0.638025 0.925505
0.650629 0.616266 0.917357
0.808896 0.603082 0.901183
0.927306 0.583215 0.876921
0.982391 0.657984 0.858366
0.000000 0.656245 0.929564
0.000000 0.656336 0.929747
0.089723 0.651118 0.927367
0.464820 0.642542 0.923095
0.645319 0.619715 0.914885
0.803922 0.605707 0.898528
0.921782 0.582940 0.872801
0.978027 0.656367 0.854368
0.000000 0.691310 0.929046
0.000000 0.690425 0.928771
0.191653 0.684413 0.926238
0.484718 0.679042 0.924193
0.646662 0.652491 0.916136
0.798825 0.634211 0.899321
0.916594 0.610132 0.874540
0.976287 0.674586 0.857542
0.000000 0.737240 0.927977
0.000000 0.738186 0.928374
0.267430 0.739406 0.928252
0.497353 0.731502 0.925628
0.655604 0.710658 0.919890
0.793545 0.684901 0.906462
0.912657 0.659785 0.883909
0.976898 0.712612 0.868315
0.031678 0.782467 0.924865
0.172519 0.782864 0.925414
0.313664 0.780819 0.925231
0.488930 0.781796 0.926207
0.645594 0.773434 0.924468
0.776425 0.742580 0.914672
0.902281 0.716945 0.895109
0.975830 0.761807 0.882292
0.366857 0.833860 0.923247
0.377783 0.832822 0.922728
0.428138 0.830167 0.921874
0.516960 0.827481 0.922515
0.629328 0.825315 0.925628
0.779019 0.828122 0.929564
0.896971 0.805356 0.919310
0.973266 0.829496 0.903899
0.515526 0.888304 0.929686
0.522698 0.888029 0.929595
0.552911 0.887144 0.929534
0.613214 0.886900 0.930663
0.698177 0.887572 0.932982
0.799405 0.891142 0.936858
0.898405 0.896849 0.939117
0.963958 0.891081 0.922240
0.638422 0.937316 0.938598
0.642451 0.937072 0.938415
0.662837 0.936828 0.938384
0.704921 0.937163 0.939117
0.763699 0.937316 0.939757
0.834257 0.937591 0.940307
0.906706 0.938964 0.941466
0.967346 0.952605 0.957000
