20 Preset/Natural Style/【3】LUT video cho PR-AE-FCPX/Natural 2 LUT (2).cube
# Created by Adobe Lightroom plugin Export LUT (1.24.0)
# www.johnrellis.com/lightroom/exportlut.htm
# Preset: 森系胶片-素材江湖02
# Color profile: E:\lut插件\exportlut.1.24\exportlut.lrplugin\color profiles\Rec709gamma2.4.icc
LUT_3D_SIZE 5
DOMAIN_MIN 0.000000 0.000000 0.000000
DOMAIN_MAX 0.903226 0.903226 0.903226
0.050843 0.079469 0.071595
0.136172 0.106294 0.098177
0.381201 0.152193 0.137484
0.771176 0.344915 0.257542
0.928832 0.628595 0.556512
0.000000 0.334173 0.264317
0.278782 0.272679 0.141695
0.663386 0.290257 0.160220
0.829160 0.452857 0.307836
0.945373 0.658228 0.583856
0.510735 0.801266 0.765621
0.500008 0.808927 0.749874
0.744076 0.712428 0.548211
0.906249 0.710933 0.580011
0.985107 0.759274 0.690974
0.762051 0.916686 0.905852
0.762387 0.919066 0.905760
0.751949 0.917754 0.868162
0.882994 0.882689 0.816983
0.962982 0.874388 0.840330
0.887602 0.935973 0.943908
0.887816 0.936126 0.943877
0.888396 0.936736 0.943572
0.883604 0.937377 0.932677
0.918975 0.933532 0.926513
0.070039 0.085176 0.103120
0.153201 0.104280 0.119783
0.313787 0.170138 0.162966
0.739498 0.357000 0.292119
0.915068 0.633143 0.574701
0.120302 0.253452 0.232944
0.291173 0.234348 0.185000
0.597009 0.290623 0.218753
0.803433 0.457710 0.346410
0.932158 0.661128 0.599939
0.537591 0.786954 0.757748
0.529870 0.792508 0.735805
0.740444 0.683162 0.553399
0.899809 0.710842 0.598413
0.977813 0.761776 0.704128
0.769192 0.915129 0.906371
0.769680 0.917601 0.906432
0.758328 0.915862 0.868956
0.883421 0.877317 0.819608
0.962005 0.875303 0.844541
0.888945 0.935821 0.944182
0.889158 0.935973 0.944121
0.890105 0.936553 0.943938
0.885222 0.937224 0.933623
0.919371 0.933501 0.927672
0.128756 0.084596 0.194736
0.225559 0.076509 0.221988
0.486610 0.159579 0.268284
0.522332 0.303807 0.305425
0.866392 0.643336 0.627039
0.228916 0.195895 0.277073
0.323613 0.224949 0.299901
0.384741 0.250736 0.267277
0.672419 0.406317 0.382940
0.889281 0.671321 0.652277
0.608606 0.729488 0.729793
0.601526 0.745144 0.726986
0.744350 0.669581 0.609644
0.864164 0.701930 0.646876
0.952209 0.765225 0.739834
0.792081 0.908446 0.907897
0.791775 0.911009 0.907958
0.779141 0.909178 0.874540
0.885679 0.859251 0.829221
0.960143 0.877531 0.857877
0.893553 0.935180 0.945129
0.893675 0.935363 0.945068
0.894347 0.935973 0.944884
0.889281 0.936858 0.936522
0.919463 0.932586 0.930785
0.282658 0.000000 0.438544
0.455787 0.000000 0.496986
0.671931 0.000000 0.508354
0.806027 0.443793 0.564416
0.837827 0.657527 0.687922
0.388037 0.146456 0.489693
0.526940 0.184237 0.537652
0.700099 0.333135 0.563561
0.772549 0.495216 0.566644
0.822660 0.680598 0.704982
0.477546 0.537377 0.583154
0.603235 0.605524 0.650752
0.662379 0.612360 0.632898
0.714076 0.609827 0.612390
0.886870 0.763973 0.779934
0.818326 0.890623 0.905028
0.818967 0.893309 0.905730
0.810117 0.897063 0.889738
0.888365 0.861418 0.854307
0.955291 0.874174 0.873167
0.900603 0.934173 0.946410
0.901579 0.934325 0.946563
0.901549 0.934905 0.946471
0.899321 0.935912 0.943359
0.919219 0.930877 0.936614
0.506554 0.000000 0.728328
0.622980 0.000000 0.746304
0.832242 0.000000 0.779141
0.913848 0.447486 0.770108
0.957519 0.688502 0.806912
0.598199 0.000000 0.749172
0.678035 0.000000 0.761898
0.824643 0.189151 0.782589
0.897917 0.535546 0.780026
0.949462 0.713649 0.816251
0.535058 0.420935 0.744198
0.616358 0.471839 0.759579
0.778775 0.620569 0.807889
0.872007 0.709407 0.826322
0.927947 0.784939 0.848051
0.703120 0.809201 0.858457
0.706081 0.805783 0.855589
0.712428 0.781888 0.838163
0.870207 0.852842 0.892149
0.900267 0.878874 0.903838
0.903227 0.932494 0.946532
0.903990 0.932708 0.946715
0.906767 0.933532 0.947356
0.909209 0.934813 0.947845
0.916594 0.933104 0.946471
