20 Preset/Natural Style/【3】LUT video cho PR-AE-FCPX/Natural 2 LUT (9).cube
# Created by Adobe Lightroom plugin Export LUT (1.24.0)
# www.johnrellis.com/lightroom/exportlut.htm
# Preset: 森系胶片-素材江湖09
# Color profile: E:\lut插件\exportlut.1.24\exportlut.lrplugin\color profiles\Rec709gamma2.4.icc
LUT_3D_SIZE 5
DOMAIN_MIN 0.000000 0.000000 0.000000
DOMAIN_MAX 0.903226 0.903226 0.903226
0.054108 0.052491 0.054994
0.204379 0.062196 0.063447
0.678767 0.000000 0.000000
0.952209 0.215152 0.000000
1.000000 0.441199 0.061189
0.000000 0.195438 0.058137
0.243168 0.211978 0.140017
0.692439 0.233616 0.000000
0.944884 0.330877 0.000000
1.000000 0.487861 0.083040
0.160983 0.610071 0.169314
0.455787 0.626093 0.098390
0.744808 0.676539 0.591791
0.927153 0.581750 0.190494
1.000000 0.622034 0.260166
0.556725 0.796628 0.492042
0.625177 0.801297 0.487160
0.824094 0.820798 0.603235
0.919341 0.859983 0.819791
1.000000 0.821988 0.665675
0.770565 0.930419 0.719142
0.793362 0.931609 0.718776
0.873503 0.934630 0.713130
0.954559 0.938720 0.849088
0.969665 0.940002 0.924498
0.000000 0.101198 0.177920
0.198703 0.078492 0.156374
0.683040 0.000000 0.169436
0.937591 0.291844 0.173587
1.000000 0.467750 0.250553
0.000000 0.230076 0.221775
0.262882 0.260136 0.245212
0.690394 0.292363 0.204593
0.931456 0.378210 0.194614
1.000000 0.508110 0.273716
0.000000 0.604730 0.323766
0.399695 0.622522 0.336706
0.733669 0.676600 0.617639
0.910185 0.580682 0.295689
1.000000 0.635096 0.368963
0.553643 0.793057 0.554681
0.616297 0.798520 0.552819
0.814664 0.819547 0.621576
0.918517 0.862608 0.829129
1.000000 0.822202 0.677424
0.763455 0.929717 0.737118
0.786069 0.930999 0.736965
0.868132 0.935821 0.736507
0.953674 0.939849 0.854490
0.969757 0.941497 0.927794
0.000000 0.244694 0.582025
0.000000 0.186313 0.571191
0.636774 0.224186 0.494148
0.901396 0.441566 0.520287
1.000000 0.568078 0.558251
0.000000 0.405371 0.602869
0.000000 0.392248 0.603937
0.652155 0.384314 0.530388
0.887510 0.523857 0.563470
1.000000 0.597284 0.570733
0.000000 0.626307 0.608209
0.313207 0.630213 0.611139
0.692653 0.664088 0.656123
0.871397 0.650233 0.605097
1.000000 0.683864 0.604150
0.523949 0.773922 0.665522
0.571466 0.780575 0.669856
0.752132 0.808713 0.690364
0.914580 0.868925 0.854856
1.000000 0.814908 0.700954
0.689662 0.927153 0.765927
0.722164 0.928862 0.771664
0.836576 0.933989 0.795682
0.945861 0.941314 0.861143
0.969757 0.945312 0.936614
0.000000 0.462318 0.802579
0.000000 0.447883 0.798276
0.566461 0.404547 0.767605
0.847715 0.485786 0.706966
1.000000 0.645136 0.734035
0.000000 0.556939 0.806485
0.000000 0.543511 0.801968
0.576501 0.493843 0.774136
0.842802 0.545159 0.716640
0.998413 0.666011 0.742855
0.000000 0.691615 0.796841
0.293462 0.692134 0.796201
0.622370 0.694759 0.797848
0.831785 0.678279 0.746639
0.992645 0.738521 0.779263
0.511681 0.800046 0.798978
0.555535 0.800046 0.799344
0.688655 0.802762 0.802792
0.880858 0.843015 0.849699
0.997253 0.824247 0.802976
0.669734 0.912963 0.849180
0.687465 0.915373 0.849943
0.760800 0.925292 0.853239
0.907958 0.941192 0.878721
0.970459 0.952178 0.950713
0.000000 0.651362 0.932464
0.000000 0.646784 0.930297
0.552087 0.620661 0.923033
0.842191 0.599268 0.896178
0.982391 0.657984 0.858366
0.000000 0.681514 0.929747
0.000000 0.677119 0.928008
0.563714 0.654231 0.920623
0.834348 0.621393 0.894499
0.978607 0.671412 0.858640
0.000000 0.758694 0.926879
0.228336 0.758358 0.926146
0.574762 0.750484 0.923247
0.814817 0.701686 0.902312
0.975677 0.733822 0.873503
0.422065 0.850217 0.926452
0.459602 0.848203 0.925841
0.595666 0.844022 0.927092
0.812802 0.845457 0.932097
0.970489 0.843931 0.907347
0.638422 0.937316 0.938598
0.655787 0.936858 0.938323
0.732692 0.937316 0.939544
0.852873 0.937804 0.940520
0.967346 0.952605 0.957000
