20 Preset/Natural Style/【3】LUT video cho PR-AE-FCPX/Natural 2 LUT (5).cube
# Created by Adobe Lightroom plugin Export LUT (1.24.0)
# www.johnrellis.com/lightroom/exportlut.htm
# Preset: 森系胶片-素材江湖05
# Color profile: E:\lut插件\exportlut.1.24\exportlut.lrplugin\color profiles\Rec709gamma2.4.icc
LUT_3D_SIZE 32
DOMAIN_MIN 0.0 0.0 0.0
DOMAIN_MAX 1.0 1.0 1.0
0.050843 0.079469 0.071595
0.049836 0.080232 0.072572
0.053773 0.081300 0.074525
0.060945 0.084199 0.078218
0.080079 0.088106 0.081636
0.092103 0.091615 0.085481
0.103182 0.095033 0.089082
0.114015 0.098878 0.091615
0.127047 0.102296 0.094820
0.140658 0.106569 0.097993
0.156008 0.110933 0.101595
0.173922 0.115389 0.105165
0.193332 0.120485 0.108949
0.216739 0.125368 0.112825
0.243503 0.130770 0.117250
0.274601 0.136416 0.121736
0.310338 0.142123 0.126925
0.351415 0.148104 0.132479
0.397223 0.154330 0.138613
0.447089 0.161929 0.145785
0.499062 0.171847 0.154208
0.551507 0.185214 0.163760
0.602075 0.204135 0.175235
0.651667 0.229862 0.189303
0.698482 0.263462 0.207156
0.741176 0.304387 0.230320
0.779843 0.351537 0.260044
0.814603 0.402564 0.297154
0.845335 0.455207 0.342229
0.873442 0.507378 0.395605
0.899992 0.557733 0.455818
0.926940 0.605921 0.519799
0.048798 0.080964 0.073548
0.050813 0.080842 0.073548
0.055024 0.081910 0.074372
0.064179 0.084688 0.078096
0.081666 0.088838 0.081453
0.092958 0.092348 0.085969
0.104219 0.095308 0.089021
0.115358 0.099062 0.091981
0.128115 0.102846 0.094697
0.141970 0.107027 0.097871
0.157168 0.111360 0.101503
0.174594 0.115846 0.105074
0.194522 0.120516 0.108888
0.218021 0.125856 0.113008
0.244785 0.131197 0.117128
0.275669 0.136782 0.121889
0.311467 0.142611 0.127047
0.352514 0.148318 0.132601
0.398230 0.154726 0.138705
0.447852 0.162142 0.145693
0.498604 0.172061 0.154025
0.550164 0.185306 0.163516
0.601160 0.203555 0.174594
0.650477 0.229191 0.188663
0.696712 0.262089 0.206394
0.739712 0.302770 0.229191
0.778439 0.349706 0.258732
0.813321 0.400641 0.295415
0.844297 0.453285 0.340124
0.872404 0.505455 0.393286
0.899046 0.555840 0.453315
0.925994 0.604242 0.517296
0.051972 0.085512 0.078859
0.051270 0.086275 0.078767
0.054841 0.086732 0.077821
0.071260 0.088167 0.078920
0.088746 0.091218 0.082155
0.099367 0.094423 0.085969
0.109987 0.097597 0.089387
0.121492 0.101076 0.091890
0.133761 0.104738 0.095399
0.147890 0.108949 0.098543
0.163516 0.113283 0.102052
0.181125 0.117739 0.105531
0.201511 0.122255 0.109590
0.225010 0.127535 0.113313
0.252049 0.132906 0.117891
0.283543 0.138369 0.122530
0.319646 0.144228 0.127535
0.360510 0.150057 0.133181
0.405829 0.156374 0.139193
0.454566 0.164126 0.146242
0.504509 0.174197 0.154482
0.555566 0.187533 0.163851
0.605097 0.206180 0.175204
0.653407 0.231754 0.189242
0.699184 0.264958 0.206790
0.741238 0.305089 0.229496
0.779538 0.351659 0.258885
0.814084 0.402106 0.295537
0.844846 0.454383 0.340063
0.872801 0.506157 0.393011
0.899168 0.556176 0.452949
0.926116 0.604242 0.516564
0.052827 0.094514 0.088106
0.054108 0.094850 0.088045
0.056001 0.095186 0.086641
0.064942 0.096803 0.084718
0.092256 0.097505 0.086152
0.107546 0.100526 0.088136
0.122530 0.103487 0.089815
0.134401 0.106050 0.092775
0.147005 0.109499 0.095766
0.161349 0.113436 0.099580
0.177127 0.117189 0.103029
0.195315 0.121798 0.106630
0.216678 0.126497 0.110414
0.240635 0.131380 0.114595
0.268254 0.136721 0.118654
0.300237 0.142184 0.123568
0.336767 0.147890 0.128573
0.377234 0.153658 0.134188
0.421912 0.160159 0.140352
0.468910 0.168093 0.147433
0.517144 0.178408 0.155459
0.565942 0.192599 0.164828
0.613703 0.211734 0.176150
0.660517 0.237522 0.190097
0.704585 0.270848 0.207858
0.745541 0.311040 0.230930
0.783078 0.357397 0.260655
0.816739 0.407111 0.297337
0.846830 0.458595 0.341985
0.874449 0.509514 0.394903
0.900572 0.558648 0.454231
0.927092 0.605951 0.517418
0.051789 0.108583 0.097353
0.051789 0.108583 0.097353
0.054658 0.108522 0.096162
0.054780 0.108583 0.093416
0.074250 0.112123 0.091371
0.108217 0.113344 0.091432
0.130129 0.114015 0.092775
0.151217 0.117128 0.094331
0.170260 0.119814 0.096559
0.185000 0.122438 0.100679
0.201633 0.125887 0.104311
0.220584 0.129763 0.108064
0.242588 0.134127 0.111879
0.267826 0.138766 0.115969
0.296330 0.143709 0.120821
0.329198 0.148928 0.125246
0.365911 0.154543 0.130251
0.405432 0.160281 0.135988
0.448035 0.167056 0.142214
0.493111 0.175692 0.149233
0.539086 0.187076 0.157382
0.584680 0.202152 0.167086
0.629572 0.222263 0.178408
0.673304 0.249027 0.192721
0.714992 0.282414 0.210971
0.753689 0.322148 0.234348
0.789181 0.367285 0.264195
0.821347 0.415778 0.300908
0.850370 0.465736 0.345556
0.877073 0.515099 0.398169
0.902770 0.562921 0.456947
0.929076 0.609003 0.519219
0.038239 0.126619 0.109895
0.040528 0.126589 0.109590
0.046113 0.126192 0.108644
0.049012 0.124880 0.105165
0.050111 0.123354 0.099733
0.083467 0.130282 0.097780
0.128176 0.138369 0.096986
0.160220 0.132723 0.099428
0.186374 0.136172 0.100893
0.217929 0.140536 0.101961
0.243503 0.142855 0.104891
0.263005 0.145144 0.109163
0.286076 0.148196 0.113619
0.311803 0.151858 0.118196
0.341436 0.156344 0.122652
0.373877 0.160739 0.127443
0.408698 0.166018 0.132723
0.446998 0.171969 0.138460
0.486946 0.179660 0.144900
0.528466 0.189029 0.152010
0.570611 0.201816 0.160616
0.612207 0.218570 0.170443
0.664179 0.247318 0.186099
0.702846 0.276005 0.201999
0.739651 0.310552 0.221897
0.774136 0.350408 0.247227
0.805692 0.394293 0.278874
0.834653 0.440436 0.317174
0.861295 0.487373 0.362982
0.886412 0.533593 0.415808
0.911223 0.578637 0.473823
0.936980 0.622248 0.534447
0.014679 0.149935 0.125673
0.016968 0.149905 0.125399
0.026246 0.149111 0.124422
0.030488 0.147005 0.120027
0.035431 0.144045 0.113771
0.041108 0.139834 0.105806
0.091341 0.152651 0.105440
0.149386 0.167697 0.103822
0.203403 0.160159 0.107271
0.237003 0.163973 0.108919
0.276585 0.168826 0.110018
0.323613 0.173861 0.110475
0.356725 0.175357 0.113680
0.381048 0.176333 0.119081
0.408698 0.178622 0.124422
0.437812 0.181949 0.129854
0.470375 0.186862 0.135653
0.504479 0.193179 0.141878
0.540093 0.201633 0.148806
0.577203 0.212894 0.156893
0.614313 0.227665 0.166049
0.650721 0.246189 0.177066
0.686366 0.269566 0.190372
0.721279 0.298375 0.206851
0.754513 0.332006 0.227756
0.785702 0.370306 0.253941
0.814603 0.411627 0.285618
0.841398 0.454963 0.323827
0.866575 0.498939 0.369177
0.890593 0.542473 0.420966
0.914672 0.585290 0.477729
0.940002 0.627131 0.536950
0.000000 0.178836 0.144808
0.000000 0.178470 0.144442
0.000000 0.177493 0.143221
0.000000 0.174777 0.138918
0.007019 0.170138 0.131563
0.018311 0.164279 0.122377
0.031373 0.159396 0.113130
0.099184 0.179202 0.113466
0.172061 0.203159 0.111299
0.250278 0.199527 0.115236
0.302922 0.201480 0.117494
0.350927 0.206485 0.118563
0.403388 0.211582 0.118807
0.458076 0.217319 0.118685
0.489357 0.217502 0.123537
0.514092 0.218753 0.130648
0.540246 0.221927 0.137789
0.568383 0.227878 0.144808
0.596765 0.236271 0.153079
0.626368 0.247349 0.161898
0.655879 0.261906 0.171969
0.685634 0.280278 0.183658
0.714992 0.302647 0.197757
0.744106 0.329534 0.215549
0.772671 0.361242 0.237247
0.799741 0.396368 0.264012
0.825589 0.434455 0.295933
0.849943 0.473915 0.333867
0.873289 0.514305 0.378759
0.896147 0.554742 0.429450
0.919493 0.594842 0.484627
0.944396 0.634516 0.541985
0.000000 0.215824 0.168765
0.000000 0.215427 0.168307
0.000000 0.214054 0.166720
0.000000 0.210666 0.162539
0.000000 0.204837 0.154177
0.000000 0.196780 0.143282
0.000000 0.187320 0.130800
0.013428 0.185092 0.121645
0.105074 0.212406 0.122042
0.199435 0.247379 0.118471
0.296849 0.252445 0.122103
0.385565 0.251102 0.127657
0.436561 0.255894 0.128969
0.489113 0.261997 0.129671
0.541588 0.269627 0.130526
0.591669 0.278874 0.131044
0.616022 0.279759 0.138735
0.635492 0.282109 0.148684
0.656062 0.287938 0.158724
0.677607 0.297093 0.169162
0.699763 0.309667 0.180880
0.722347 0.325689 0.193820
0.745357 0.345342 0.209384
0.768917 0.369421 0.228214
0.792508 0.397498 0.251072
0.815579 0.428504 0.278172
0.838102 0.462043 0.310155
0.859983 0.497078 0.347997
0.881498 0.533318 0.391913
0.903166 0.570062 0.441016
0.925628 0.607050 0.494240
0.949889 0.644160 0.549554
0.000000 0.263371 0.198367
0.000000 0.262852 0.197879
0.000000 0.260685 0.195865
0.000000 0.257023 0.191989
0.000000 0.249241 0.182010
0.000000 0.239353 0.169650
0.000000 0.227146 0.154879
0.000000 0.213260 0.139162
0.000000 0.216861 0.130800
0.112673 0.253635 0.130465
0.231388 0.301640 0.124544
0.361242 0.324132 0.124422
0.474464 0.314214 0.141054
0.523369 0.318608 0.144259
0.571099 0.325200 0.147585
0.615991 0.333349 0.150179
0.657588 0.343969 0.153689
0.694697 0.356054 0.157595
0.711391 0.357549 0.168429
0.726009 0.361944 0.181552
0.741543 0.370092 0.195224
0.757595 0.381231 0.209720
0.775082 0.396582 0.226444
0.793332 0.415747 0.246067
0.812284 0.438544 0.269017
0.831479 0.464088 0.295964
0.850858 0.492348 0.327947
0.870420 0.522545 0.365087
0.890288 0.554376 0.407599
0.910704 0.587396 0.454963
0.932555 0.620996 0.505638
0.956054 0.655360 0.558770
0.000000 0.321202 0.233890
0.000000 0.320806 0.233402
0.000000 0.318853 0.231510
0.000000 0.314366 0.227176
0.000000 0.305882 0.216709
0.000000 0.294316 0.202701
0.000000 0.279271 0.185245
0.000000 0.261875 0.166262
0.000000 0.242710 0.146731
0.000000 0.256748 0.139925
0.118624 0.304601 0.139071
0.266667 0.362036 0.132052
0.426947 0.401740 0.127657
0.548516 0.387335 0.162234
0.600427 0.389380 0.171633
0.639673 0.395331 0.177127
0.675776 0.403235 0.183291
0.709041 0.413489 0.189822
0.739376 0.425086 0.197238
0.765988 0.436744 0.205539
0.778073 0.438758 0.218509
0.789548 0.444282 0.234134
0.802548 0.453834 0.251621
0.816709 0.467231 0.271397
0.831876 0.484077 0.294469
0.847898 0.503990 0.321172
0.864744 0.526665 0.352026
0.882017 0.551751 0.387884
0.900175 0.578820 0.428260
0.919493 0.607660 0.473030
0.940551 0.637659 0.520684
0.963256 0.668849 0.570642
0.000000 0.387243 0.276860
0.000000 0.386725 0.276249
0.000000 0.384344 0.273869
0.000000 0.380011 0.269322
0.000000 0.371862 0.259586
0.000000 0.359808 0.243717
0.000000 0.344091 0.224094
0.000000 0.324926 0.201938
0.000000 0.301793 0.177646
0.000000 0.276432 0.153780
0.000000 0.305638 0.149416
0.128878 0.361883 0.148867
0.315160 0.430610 0.147402
0.486976 0.475319 0.152956
0.600122 0.469917 0.197055
0.668238 0.470253 0.222507
0.698787 0.474250 0.230869
0.727169 0.480140 0.238926
0.753414 0.487709 0.247898
0.777981 0.496620 0.257389
0.800687 0.506645 0.268254
0.820523 0.515282 0.278447
0.830900 0.518669 0.293828
0.841794 0.525933 0.312535
0.853880 0.536675 0.334356
0.867002 0.550622 0.359564
0.881193 0.567651 0.388800
0.896483 0.587243 0.421820
0.913054 0.609247 0.458839
0.931243 0.633295 0.499550
0.951171 0.659205 0.543053
0.972717 0.686915 0.589227
0.000000 0.458625 0.330114
0.000000 0.458167 0.329595
0.000000 0.456092 0.327184
0.000000 0.451301 0.321935
0.000000 0.443702 0.312718
0.000000 0.432044 0.295476
0.000000 0.416449 0.273777
0.000000 0.396704 0.247654
0.000000 0.373297 0.219303
0.000000 0.345861 0.189425
0.000000 0.315160 0.160037
0.000000 0.363500 0.160739
0.158572 0.425483 0.164126
0.359472 0.486976 0.170443
0.529198 0.530602 0.190494
0.632380 0.533288 0.238407
0.711910 0.533806 0.281926
0.736721 0.535729 0.290990
0.760159 0.539239 0.299474
0.782010 0.544152 0.308751
0.802731 0.550439 0.318517
0.822721 0.558312 0.329839
0.842313 0.568048 0.343664
0.859892 0.576440 0.356420
0.870207 0.582177 0.375036
0.881529 0.591272 0.397375
0.894072 0.603510 0.423285
0.907897 0.618524 0.453071
0.923430 0.636133 0.486183
0.940734 0.656336 0.522972
0.959716 0.678737 0.562615
0.980133 0.703212 0.604913
0.000000 0.520989 0.384710
0.000000 0.520531 0.384131
0.000000 0.518303 0.381445
0.000000 0.514427 0.376532
0.000000 0.508171 0.368841
0.000000 0.497658 0.351598
0.000000 0.483955 0.329564
0.000000 0.466499 0.302312
0.000000 0.444587 0.270665
0.000000 0.418433 0.236118
0.000000 0.388373 0.200626
0.000000 0.360754 0.167697
0.000000 0.421027 0.174899
0.203799 0.483009 0.185672
0.407477 0.539239 0.205081
0.567193 0.578729 0.237797
0.666590 0.591363 0.286992
0.744228 0.587762 0.347936
0.766384 0.588006 0.357580
0.786069 0.589746 0.365515
0.804868 0.592981 0.374060
0.823484 0.598108 0.384192
0.841917 0.605066 0.396368
0.860380 0.613855 0.410590
0.878843 0.623987 0.427070
0.895750 0.632258 0.441627
0.906950 0.640101 0.463539
0.919799 0.650874 0.488624
0.934264 0.664546 0.517449
0.950500 0.680964 0.549676
0.968322 0.699855 0.584955
0.987457 0.721309 0.623285
0.000000 0.575555 0.440406
0.000000 0.575097 0.439887
0.000000 0.573449 0.437507
0.000000 0.570123 0.432715
0.000000 0.564721 0.425208
0.000000 0.556634 0.411139
0.000000 0.545556 0.390265
0.000000 0.531182 0.363897
0.000000 0.512993 0.332128
0.000000 0.490608 0.295476
0.000000 0.463508 0.254673
0.000000 0.431403 0.212436
0.000000 0.417700 0.181918
0.000000 0.478706 0.195254
0.261631 0.536400 0.216739
0.456825 0.584955 0.247929
0.600275 0.620264 0.289494
0.695033 0.639063 0.339666
0.756619 0.633448 0.400977
0.789853 0.632746 0.425513
0.807065 0.633570 0.432441
0.824430 0.636316 0.440681
0.841733 0.641047 0.451179
0.859312 0.647333 0.463142
0.877165 0.655146 0.477150
0.895415 0.664424 0.493263
0.914275 0.675044 0.511345
0.931518 0.683833 0.528008
0.945006 0.693996 0.552087
0.960143 0.707057 0.579797
0.976806 0.722927 0.610803
0.994537 0.741360 0.644953
0.000000 0.620935 0.493935
0.000000 0.620783 0.493660
0.000000 0.619471 0.491615
0.000000 0.616968 0.487800
0.000000 0.612879 0.481392
0.000000 0.606928 0.470680
0.000000 0.598657 0.452369
0.000000 0.587854 0.428473
0.000000 0.573999 0.399084
0.000000 0.556695 0.363989
0.000000 0.534691 0.322454
0.000000 0.507713 0.276127
0.000000 0.475196 0.226200
0.000000 0.476204 0.201633
0.000000 0.533562 0.224094
0.324743 0.583307 0.255772
0.501823 0.624628 0.295384
0.628046 0.656214 0.341802
0.718471 0.678920 0.392004
0.767453 0.671351 0.450629
0.809445 0.671748 0.490120
0.825589 0.672633 0.496803
0.842008 0.675441 0.505180
0.858854 0.679835 0.515160
0.876097 0.685817 0.526848
0.893919 0.693263 0.540520
0.912383 0.702144 0.556054
0.931456 0.712337 0.573602
0.951049 0.723781 0.593194
0.968872 0.734005 0.612238
0.984100 0.746609 0.638392
1.000000 0.761929 0.667964
0.000000 0.659571 0.544060
0.000000 0.659327 0.543664
0.000000 0.658412 0.542168
0.000000 0.656428 0.538842
0.000000 0.653193 0.533501
0.054902 0.648585 0.525719
0.000000 0.642145 0.510155
0.000000 0.634028 0.490120
0.000000 0.623743 0.464790
0.000000 0.610834 0.433417
0.000000 0.594385 0.395148
0.000000 0.574121 0.350286
0.000000 0.549004 0.299321
0.000000 0.517967 0.242954
0.000000 0.532738 0.229648
0.124605 0.583032 0.261387
0.387182 0.624689 0.300389
0.541314 0.659968 0.345617
0.652277 0.688289 0.394446
0.733883 0.709346 0.444221
0.778836 0.705623 0.498054
0.827451 0.707271 0.550500
0.842954 0.708492 0.557122
0.859098 0.711238 0.564935
0.875761 0.715572 0.574517
0.893004 0.721431 0.585992
0.910979 0.728817 0.599237
0.929503 0.737545 0.614374
0.948577 0.747677 0.631525
0.967926 0.759091 0.650629
0.987152 0.771603 0.671626
1.000000 0.783352 0.693233
0.237613 0.692927 0.589807
0.238529 0.692836 0.589654
0.251560 0.695338 0.592889
0.253880 0.693751 0.590204
0.257511 0.691310 0.585931
0.261479 0.687709 0.579675
0.247379 0.682826 0.568292
0.213321 0.676600 0.551598
0.160739 0.668879 0.530694
0.000000 0.659113 0.504234
0.000000 0.647303 0.471962
0.000000 0.632563 0.432044
0.000000 0.614496 0.384894
0.000000 0.592004 0.329564
0.000000 0.563958 0.266423
0.000000 0.588830 0.270054
0.251774 0.629999 0.309087
0.448554 0.664240 0.353399
0.578698 0.694087 0.400763
0.675532 0.719417 0.448859
0.748867 0.738735 0.497292
0.794858 0.741390 0.546838
0.838071 0.741207 0.597131
0.860777 0.742580 0.614008
0.876585 0.745357 0.621363
0.893095 0.749691 0.630365
0.910277 0.755428 0.641077
0.928130 0.762661 0.653651
0.946502 0.771298 0.668238
0.965118 0.781308 0.684962
0.983551 0.792538 0.703639
1.000000 0.804807 0.724575
0.335393 0.723323 0.632746
0.336370 0.723507 0.633021
0.337621 0.723140 0.632197
0.339635 0.722225 0.630579
0.341863 0.720424 0.627283
0.344335 0.717708 0.622461
0.340887 0.713893 0.614313
0.321050 0.709041 0.600824
0.294621 0.703151 0.583886
0.258061 0.695857 0.562524
0.204532 0.687037 0.536217
0.102937 0.676387 0.504112
0.000000 0.663325 0.464149
0.000000 0.647517 0.416083
0.000000 0.628107 0.358801
0.000000 0.604059 0.291783
0.000000 0.635309 0.315343
0.339147 0.669276 0.359136
0.498970 0.698268 0.405768
0.609979 0.724239 0.452644
0.695766 0.747677 0.498390
0.762661 0.765805 0.544396
0.810422 0.773251 0.589868
0.848051 0.771359 0.636408
0.877684 0.773159 0.663386
0.893431 0.776181 0.670497
0.909819 0.780667 0.679316
0.926879 0.786587 0.689906
0.944488 0.793942 0.702419
0.962310 0.802731 0.717098
0.979736 0.812772 0.733944
0.995636 0.823850 0.752987
0.402777 0.750393 0.670893
0.403449 0.750484 0.670985
0.404608 0.750301 0.670588
0.406012 0.749691 0.669398
0.407599 0.748226 0.666743
0.409094 0.746059 0.662837
0.410468 0.743038 0.657191
0.397253 0.739315 0.646540
0.379919 0.734737 0.632990
0.357336 0.729183 0.616052
0.327764 0.722560 0.595117
0.288609 0.714687 0.569512
0.231846 0.705348 0.538079
0.128969 0.694331 0.499733
0.000000 0.681056 0.452186
0.000000 0.665156 0.394598
0.000000 0.647211 0.327062
0.186893 0.679591 0.370123
0.415412 0.707118 0.415473
0.544335 0.731716 0.461036
0.639368 0.754482 0.504784
0.715450 0.776028 0.546380
0.777310 0.792844 0.589563
0.827207 0.803738 0.630945
0.859678 0.799924 0.672999
0.894469 0.801663 0.708156
0.909972 0.804990 0.715206
0.926116 0.809781 0.724086
0.942779 0.815976 0.734890
0.959564 0.823606 0.747860
0.975799 0.832517 0.762966
0.990173 0.842435 0.780392
0.457710 0.776822 0.707149
0.458167 0.776944 0.707271
0.458808 0.776761 0.706813
0.460029 0.776272 0.705867
0.461280 0.775265 0.704036
0.462501 0.773556 0.700923
0.463874 0.771237 0.696681
0.458015 0.768215 0.689082
0.445380 0.764584 0.678126
0.429633 0.760311 0.664698
0.410071 0.755306 0.648371
0.385321 0.749416 0.628382
0.353582 0.742641 0.603967
0.311315 0.734646 0.574121
0.251804 0.725612 0.537926
0.144198 0.715053 0.492988
0.000000 0.702907 0.437781
0.000000 0.696315 0.389136
0.324315 0.721767 0.432990
0.480873 0.744717 0.476753
0.586786 0.766171 0.518822
0.668391 0.786496 0.558556
0.736080 0.805539 0.595605
0.794553 0.821134 0.635035
0.846891 0.834379 0.672206
0.874510 0.828885 0.710170
0.908843 0.829984 0.746517
0.926635 0.833341 0.758450
0.942138 0.838529 0.767880
0.957641 0.845121 0.779355
0.972259 0.852964 0.793057
0.984436 0.861357 0.808408
0.506188 0.804471 0.743099
0.506462 0.804532 0.743160
0.506798 0.804288 0.742702
0.507378 0.803738 0.741695
0.508171 0.802792 0.740047
0.509148 0.801419 0.737606
0.510246 0.799619 0.734279
0.509026 0.797238 0.729244
0.500008 0.794553 0.720851
0.488991 0.791318 0.710506
0.475135 0.787533 0.697749
0.458320 0.783169 0.682460
0.437751 0.778225 0.663996
0.411780 0.772580 0.641505
0.378759 0.766171 0.614008
0.336217 0.759060 0.580926
0.276371 0.751125 0.539910
0.176974 0.742306 0.489296
0.213993 0.743038 0.460639
0.420386 0.763485 0.500816
0.537652 0.782742 0.539147
0.624842 0.801205 0.575647
0.695430 0.818570 0.609857
0.756924 0.834623 0.641779
0.812955 0.848234 0.676692
0.864103 0.860472 0.710170
0.892271 0.857206 0.744442
0.920836 0.855985 0.777829
0.940551 0.858518 0.796719
0.954620 0.864134 0.806943
0.967376 0.870542 0.818723
0.975738 0.876402 0.830564
0.545800 0.830442 0.775021
0.545983 0.830472 0.775051
0.546288 0.830350 0.774746
0.546807 0.829923 0.773983
0.547509 0.829282 0.772763
0.548425 0.828336 0.770993
0.549493 0.826932 0.768429
0.550683 0.825223 0.765225
0.544793 0.823270 0.759030
0.536431 0.820981 0.751064
0.526574 0.818296 0.741512
0.514672 0.815274 0.729946
0.500114 0.811795 0.715969
0.482765 0.807950 0.699245
0.461769 0.803708 0.679255
0.436316 0.799069 0.655238
0.404395 0.794064 0.626001
0.363836 0.788754 0.590295
0.309819 0.783169 0.546288
0.365515 0.788724 0.534966
0.495491 0.805722 0.569024
0.587579 0.822049 0.601404
0.660609 0.837491 0.631983
0.723354 0.851804 0.660639
0.779690 0.863737 0.686030
0.833219 0.875090 0.716426
0.881529 0.885161 0.747066
0.910704 0.884062 0.777981
0.933013 0.880674 0.808560
0.950896 0.881102 0.831815
0.961883 0.886259 0.841917
0.966308 0.888060 0.848753
0.583124 0.856992 0.805997
0.583429 0.857115 0.806119
0.583703 0.857023 0.805875
0.584070 0.856748 0.805356
0.584619 0.856199 0.804349
0.585321 0.855467 0.802914
0.586175 0.854490 0.801053
0.587091 0.853239 0.798550
0.584710 0.851804 0.794400
0.578332 0.850248 0.788388
0.570520 0.848447 0.781064
0.561425 0.846494 0.772305
0.550805 0.844297 0.761959
0.538354 0.841917 0.749660
0.523857 0.839322 0.735103
0.506645 0.836545 0.717739
0.486458 0.833738 0.697017
0.462684 0.830961 0.672358
0.434119 0.828336 0.642542
0.398962 0.825986 0.605982
0.461830 0.834470 0.607507
0.556786 0.848386 0.634913
0.631342 0.861509 0.660853
0.694881 0.873533 0.685298
0.752377 0.884184 0.708400
0.805661 0.893309 0.730282
0.855711 0.901793 0.756344
0.900023 0.909087 0.783993
0.928252 0.908568 0.810819
0.943359 0.902434 0.837552
0.955962 0.900664 0.862486
0.957275 0.898650 0.865782
0.617670 0.881804 0.833738
0.617914 0.881895 0.833799
0.618158 0.881895 0.833738
0.618616 0.881773 0.833371
0.619196 0.881498 0.832761
0.619989 0.881163 0.831846
0.620996 0.880674 0.830686
0.622217 0.880064 0.829099
0.622858 0.879362 0.826902
0.617884 0.878691 0.822599
0.611810 0.877958 0.817380
0.604913 0.877195 0.811185
0.597009 0.876310 0.803922
0.587579 0.875425 0.795193
0.577020 0.874479 0.784939
0.564996 0.873625 0.773037
0.551293 0.872923 0.758907
0.536004 0.872465 0.742458
0.518700 0.872404 0.723079
0.499001 0.872831 0.699855
0.476875 0.873930 0.671992
0.539452 0.882963 0.680781
0.612879 0.893309 0.701228
0.676112 0.902556 0.720912
0.733486 0.910460 0.739834
0.786038 0.916686 0.757565
0.833829 0.921477 0.774502
0.878080 0.925902 0.795621
0.916411 0.929686 0.819974
0.941924 0.929198 0.843687
0.947326 0.918456 0.863767
0.948638 0.910185 0.877012
0.655207 0.906249 0.860624
0.655329 0.906279 0.860655
0.655543 0.906279 0.860533
0.655940 0.906249 0.860349
0.656550 0.906188 0.859953
0.657313 0.906065 0.859403
0.658381 0.905943 0.858701
0.659724 0.905791 0.857755
0.661189 0.905638 0.856596
0.658747 0.905608 0.854002
0.654047 0.905730 0.850431
0.648554 0.905882 0.846128
0.642481 0.906157 0.841184
0.635523 0.906584 0.835386
0.627619 0.907103 0.828580
0.618738 0.907866 0.820645
0.609186 0.908934 0.811582
0.598566 0.910430 0.801022
0.587213 0.912444 0.788876
0.575128 0.915160 0.774899
0.562463 0.918669 0.758724
0.548394 0.922545 0.738949
0.608606 0.928740 0.749630
0.668879 0.933928 0.763424
0.723812 0.937896 0.776974
0.773800 0.940612 0.790249
0.819181 0.942229 0.803342
0.859739 0.942748 0.816190
0.893797 0.940002 0.829679
0.919951 0.936950 0.846189
0.938231 0.933532 0.862058
0.940581 0.923827 0.878233
0.697108 0.928252 0.885496
0.697292 0.928313 0.885527
0.697566 0.928374 0.885527
0.698054 0.928435 0.885466
0.698848 0.928527 0.885344
0.699947 0.928710 0.885191
0.701503 0.928985 0.885008
0.703395 0.929320 0.884794
0.705623 0.929778 0.884489
0.706691 0.930419 0.883726
0.703883 0.931365 0.881743
0.700649 0.932525 0.879423
0.696925 0.933837 0.876646
0.692592 0.935332 0.873350
0.687648 0.937011 0.869413
0.681849 0.938811 0.864652
0.675654 0.940917 0.859281
0.669093 0.943389 0.853117
0.660945 0.945586 0.844999
0.650843 0.946532 0.834287
0.640284 0.947570 0.822110
0.629114 0.948699 0.807828
0.624414 0.949798 0.793515
0.673701 0.949035 0.799893
0.719295 0.947997 0.806882
0.761440 0.946654 0.814481
0.799985 0.945098 0.822629
0.834958 0.943389 0.831144
0.866026 0.941619 0.839994
0.893339 0.939483 0.851164
0.915038 0.936919 0.866270
0.930663 0.934936 0.880613
0.738277 0.939696 0.902922
0.738338 0.939696 0.902922
0.738521 0.939696 0.902892
0.738857 0.939696 0.902770
0.739467 0.939696 0.902617
0.740383 0.939666 0.902403
0.741512 0.939635 0.902159
0.742947 0.939605 0.901762
0.744717 0.939574 0.901335
0.746731 0.939544 0.900816
0.744564 0.939727 0.898985
0.741115 0.940002 0.896605
0.737301 0.940307 0.893797
0.732937 0.940673 0.890532
