20 Preset/Natural Style/【3】LUT video cho PR-AE-FCPX/Natural 2 LUT (4).cube
# Created by Adobe Lightroom plugin Export LUT (1.24.0)
# www.johnrellis.com/lightroom/exportlut.htm
# Preset: 森系胶片-素材江湖04
# Color profile: E:\lut插件\exportlut.1.24\exportlut.lrplugin\color profiles\Rec709gamma2.4.icc
LUT_3D_SIZE 32
DOMAIN_MIN 0.0 0.0 0.0
DOMAIN_MAX 1.0 1.0 1.0
0.050843 0.079469 0.071595
0.050843 0.079469 0.071595
0.054780 0.080568 0.073548
0.067170 0.085145 0.078706
0.090547 0.090150 0.083742
0.107851 0.094820 0.088594
0.126864 0.099916 0.092348
0.148135 0.105013 0.095674
0.172122 0.109743 0.099367
0.199680 0.114809 0.103090
0.232639 0.119722 0.106722
0.272251 0.124361 0.110658
0.319768 0.128511 0.114229
0.376593 0.131502 0.118746
0.441901 0.134371 0.123140
0.512047 0.138979 0.128847
0.581994 0.150393 0.135805
0.646937 0.172671 0.144808
0.703334 0.206638 0.157046
0.751949 0.249363 0.173220
0.792660 0.296452 0.194644
0.826291 0.344823 0.221530
0.853727 0.391913 0.253727
0.877409 0.437354 0.291020
0.898222 0.479744 0.332616
0.916991 0.518822 0.377661
0.934478 0.554711 0.424353
0.951110 0.587610 0.470954
0.966888 0.617670 0.515984
0.981628 0.645197 0.558190
0.994934 0.670069 0.596918
1.000000 0.692409 0.631739
0.049836 0.080232 0.072572
0.049836 0.080232 0.072572
0.056001 0.082521 0.075349
0.072114 0.085481 0.079316
0.092500 0.090333 0.083650
0.110231 0.095277 0.088869
0.129732 0.100160 0.092195
0.150759 0.105196 0.095918
0.175235 0.110353 0.099489
0.202731 0.115267 0.102846
0.235264 0.120089 0.106844
0.274693 0.124910 0.110414
0.322179 0.128817 0.114290
0.379828 0.131930 0.118379
0.444221 0.134432 0.123140
0.513237 0.139528 0.128603
0.582330 0.150759 0.135470
0.646662 0.172885 0.144381
0.703120 0.206790 0.156649
0.751400 0.249149 0.172488
0.791836 0.295476 0.193545
0.825254 0.343297 0.220218
0.852781 0.390295 0.252232
0.876616 0.435676 0.289006
0.897398 0.478035 0.330388
0.916258 0.517205 0.375219
0.933806 0.553277 0.421973
0.950469 0.586328 0.468788
0.966308 0.616541 0.514000
0.981201 0.644099 0.556268
0.994537 0.669184 0.595392
1.000000 0.691646 0.630426
0.051942 0.086885 0.080079
0.053223 0.087495 0.079957
0.059327 0.088655 0.078950
0.086458 0.090211 0.079622
0.103853 0.094301 0.083711
0.122469 0.099245 0.088808
0.142702 0.103670 0.092470
0.164340 0.108217 0.095705
0.188724 0.112978 0.099580
0.217197 0.117769 0.103120
0.251011 0.122621 0.106813
0.290745 0.126955 0.110201
0.338811 0.130739 0.114076
0.395483 0.133364 0.117983
0.458625 0.136446 0.122744
0.526055 0.141909 0.128023
0.592493 0.154726 0.134951
0.654292 0.177798 0.143801
0.708400 0.211734 0.155978
0.755367 0.253696 0.172030
0.794675 0.299687 0.193393
0.827390 0.346929 0.220005
0.854276 0.392950 0.251804
0.877592 0.437659 0.288945
0.898314 0.479530 0.330053
0.916930 0.518059 0.374578
0.934295 0.553887 0.421302
0.950896 0.586664 0.468086
0.966705 0.616754 0.513207
0.981506 0.644251 0.555657
0.994751 0.669245 0.594720
1.000000 0.691646 0.629755
0.054780 0.100008 0.091890
0.053651 0.100771 0.091341
0.053010 0.101930 0.089082
0.084596 0.104921 0.087922
0.114412 0.106600 0.088655
0.151125 0.110567 0.087404
0.173129 0.113497 0.091585
0.196353 0.117006 0.095430
0.221439 0.120455 0.099153
0.250553 0.124514 0.102724
0.284733 0.128145 0.106172
0.326024 0.131655 0.109712
0.374914 0.134676 0.113344
0.429328 0.137484 0.117006
0.489418 0.141115 0.121614
0.552483 0.148806 0.127199
0.613489 0.163882 0.133944
0.669978 0.188602 0.143160
0.720089 0.223026 0.155184
0.763455 0.263981 0.171572
0.800504 0.308202 0.192752
0.831418 0.353704 0.219699
0.857298 0.398566 0.251560
0.879942 0.441962 0.288579
0.900206 0.482918 0.329870
0.918669 0.521019 0.374701
0.935912 0.556359 0.421698
0.952361 0.588678 0.468421
0.967987 0.618402 0.513573
0.982635 0.645594 0.555871
0.995727 0.670222 0.594690
1.000000 0.692378 0.629664
0.042481 0.125795 0.107729
0.041352 0.126345 0.107301
0.038544 0.127321 0.103395
0.040803 0.129976 0.096193
0.109163 0.134218 0.096468
0.156161 0.132601 0.096925
0.207614 0.137514 0.093385
0.261265 0.138827 0.090791
0.285618 0.138094 0.095735
0.314336 0.138888 0.099763
0.347875 0.140139 0.103639
0.387640 0.141878 0.107027
0.433021 0.144015 0.110750
0.483253 0.147066 0.114717
0.537530 0.152987 0.119142
0.593103 0.163668 0.124819
0.646509 0.182406 0.132052
0.695613 0.209232 0.141634
0.739193 0.243229 0.154452
0.777737 0.282506 0.171572
0.810941 0.324712 0.194095
0.839231 0.367803 0.221347
0.863279 0.410132 0.253513
0.884703 0.451484 0.290684
0.904143 0.490517 0.332219
0.922057 0.527031 0.376806
0.938811 0.560967 0.423224
0.954864 0.592340 0.469764
0.970214 0.621241 0.514397
0.984466 0.647791 0.556420
0.997284 0.671992 0.595056
1.000000 0.693721 0.629725
0.000000 0.163058 0.129152
0.000000 0.163272 0.128328
0.000000 0.163455 0.123781
0.000000 0.164370 0.114412
0.041932 0.169009 0.105867
0.145510 0.176089 0.105104
0.214267 0.170565 0.106477
0.282933 0.176455 0.098421
0.366247 0.178103 0.087678
0.422065 0.172732 0.084321
0.448676 0.167910 0.092348
0.480049 0.166049 0.098360
0.517449 0.167361 0.103182
0.558923 0.171481 0.108186
0.602808 0.180179 0.113802
0.646906 0.194125 0.119844
0.689418 0.215122 0.128481
0.729091 0.242496 0.139559
0.765133 0.275120 0.154299
0.797482 0.311223 0.172885
0.826047 0.349920 0.196384
0.850614 0.389349 0.225040
0.878325 0.439643 0.267887
0.897276 0.476692 0.306462
0.914824 0.511803 0.348241
0.931365 0.544976 0.392706
0.947082 0.576074 0.438239
0.962249 0.604913 0.482979
0.976623 0.631830 0.526055
0.989929 0.656580 0.566186
1.000000 0.679286 0.603052
1.000000 0.699672 0.636255
0.000000 0.216434 0.156771
0.000000 0.216342 0.155825
0.000000 0.216007 0.150210
0.000000 0.214878 0.138613
0.000000 0.213596 0.120546
0.061524 0.224277 0.114839
0.197726 0.236149 0.111971
0.297246 0.224216 0.115755
0.382177 0.230716 0.101869
0.472480 0.232792 0.081880
0.558495 0.233005 0.035126
0.599512 0.227695 0.040772
0.623835 0.224613 0.070497
0.650996 0.227115 0.090120
0.680842 0.235508 0.099855
0.710689 0.249332 0.110964
0.740871 0.268681 0.122927
0.769833 0.292760 0.137758
0.797391 0.321172 0.155550
0.823117 0.353063 0.177554
0.846433 0.387213 0.204135
0.867308 0.422339 0.235080
0.886259 0.457160 0.270298
0.904143 0.491035 0.309209
0.920836 0.523674 0.351537
0.936584 0.554650 0.395911
0.951690 0.583703 0.440833
0.966247 0.610986 0.484840
0.980102 0.636530 0.527062
0.992889 0.660212 0.566705
1.000000 0.682155 0.603235
1.000000 0.702052 0.636194
0.000000 0.285527 0.189120
0.000000 0.285130 0.187869
0.000000 0.284276 0.181521
0.000000 0.281437 0.168643
0.000000 0.277531 0.148379
0.000000 0.281712 0.124086
0.107576 0.296635 0.120516
0.269810 0.312078 0.114565
0.394354 0.293095 0.125277
0.483833 0.298924 0.107271
0.570062 0.304875 0.078035
0.647517 0.310826 0.008179
0.710109 0.318700 0.000000
0.730007 0.313848 0.000000
0.746975 0.314488 0.047333
0.765682 0.321324 0.092226
0.785245 0.333349 0.113313
0.805814 0.350774 0.133883
0.825834 0.372168 0.156832
0.845274 0.397101 0.182071
0.863615 0.424414 0.210788
0.880980 0.453071 0.242679
0.897429 0.482033 0.278080
0.913298 0.511162 0.316930
0.928649 0.539849 0.358404
0.943359 0.567559 0.401831
0.957641 0.594110 0.445533
0.971466 0.619226 0.488533
0.984558 0.643122 0.529870
0.996674 0.665614 0.568719
1.000000 0.686519 0.604700
1.000000 0.705623 0.637232
0.000000 0.368414 0.228031
0.000000 0.368200 0.226474
0.000000 0.366613 0.219577
0.000000 0.363256 0.206088
0.000000 0.357916 0.183444
0.000000 0.350561 0.151308
0.000000 0.365911 0.132052
0.173159 0.382849 0.127321
0.357549 0.398749 0.120485
0.489082 0.378332 0.138369
0.576654 0.377752 0.125185
0.648920 0.385504 0.100649
0.711208 0.393866 0.046632
0.763638 0.403601 0.000000
0.801694 0.410590 0.000000
0.813687 0.407416 0.036591
0.826017 0.410224 0.104738
0.839353 0.418280 0.135348
0.853544 0.431250 0.163241
0.867735 0.447944 0.192477
0.882109 0.467689 0.222904
0.896117 0.488899 0.255528
0.910063 0.511498 0.290532
0.924010 0.535332 0.328679
0.937835 0.559625 0.369207
0.951415 0.583612 0.410986
0.964691 0.607141 0.453193
0.977569 0.629908 0.494789
0.989899 0.651789 0.534630
1.000000 0.672724 0.572381
1.000000 0.692348 0.607568
1.000000 0.710475 0.639460
0.000000 0.455818 0.277806
0.000000 0.455329 0.276066
0.000000 0.453712 0.269017
0.000000 0.450538 0.254917
0.000000 0.444923 0.231327
0.000000 0.437232 0.198032
0.000000 0.438209 0.150759
0.000000 0.453620 0.149325
0.269047 0.468391 0.147341
0.449042 0.481361 0.145480
0.570092 0.462501 0.169711
0.647913 0.456550 0.168124
0.706142 0.464485 0.150362
0.756588 0.471962 0.132662
0.800198 0.479866 0.116518
0.836515 0.487282 0.106691
0.860441 0.490059 0.114168
0.869383 0.489387 0.150790
0.879149 0.493874 0.182589
0.889799 0.502159 0.212314
0.900725 0.513848 0.243015
0.911803 0.527611 0.274357
0.923461 0.543999 0.308110
0.935393 0.562158 0.344396
0.947662 0.581567 0.382727
0.959991 0.601526 0.422156
0.972168 0.621851 0.462501
0.984131 0.641993 0.502037
0.995453 0.661830 0.540612
1.000000 0.681056 0.577203
1.000000 0.699336 0.611322
1.000000 0.716426 0.642664
0.000000 0.534112 0.337835
0.000000 0.533867 0.336187
0.000000 0.532769 0.329870
0.000000 0.529961 0.316167
0.000000 0.525597 0.293614
0.000000 0.519280 0.261082
0.000000 0.510430 0.215335
0.000000 0.520897 0.184634
0.098054 0.533074 0.187594
0.375616 0.543847 0.192142
0.533410 0.553246 0.198886
0.633417 0.538231 0.224887
0.701472 0.528344 0.233616
0.749081 0.534234 0.222263
0.790982 0.539483 0.212589
0.827604 0.544549 0.205631
0.860227 0.549554 0.200717
0.887480 0.554833 0.205447
0.902647 0.554803 0.217716
0.910399 0.555993 0.244633
0.918669 0.560449 0.272313
0.927550 0.568017 0.301335
0.937316 0.578729 0.332464
0.947692 0.591638 0.365881
0.958495 0.606531 0.401740
0.969512 0.622553 0.438575
0.980560 0.639429 0.476020
0.991333 0.656703 0.513237
1.000000 0.674098 0.549554
1.000000 0.691402 0.584588
1.000000 0.708125 0.617456
1.000000 0.723903 0.647700
0.000000 0.600092 0.405097
0.000000 0.600000 0.403937
0.000000 0.598962 0.397833
0.000000 0.597162 0.386236
0.000000 0.594018 0.366339
0.000000 0.589563 0.337652
0.000000 0.583459 0.297185
0.000000 0.581628 0.239994
0.000000 0.590814 0.240208
0.297337 0.598657 0.248203
0.474830 0.605646 0.257816
0.602014 0.612818 0.269932
0.689357 0.607416 0.304509
0.747707 0.595026 0.321050
0.786526 0.598505 0.312688
0.821317 0.601434 0.306462
0.852750 0.604120 0.301976
0.881437 0.606775 0.299168
0.907286 0.609674 0.300145
0.929351 0.613062 0.308568
0.938994 0.611719 0.321477
0.945922 0.613703 0.345525
0.953826 0.619013 0.372442
0.962524 0.627008 0.401770
0.971649 0.637201 0.433234
0.981079 0.648981 0.465888
0.990631 0.662104 0.499367
1.000000 0.676051 0.532616
1.000000 0.690639 0.565728
1.000000 0.705409 0.597833
1.000000 0.720027 0.628412
1.000000 0.734035 0.656916
0.000000 0.656428 0.477607
0.000000 0.656245 0.476661
0.000000 0.655634 0.471901
0.000000 0.654047 0.461463
0.000000 0.651820 0.445197
0.000000 0.648615 0.420783
0.000000 0.644312 0.386938
0.000000 0.638605 0.340520
0.000000 0.642756 0.301640
0.214176 0.648310 0.310887
0.424262 0.653468 0.322484
0.556359 0.658778 0.336156
0.657923 0.664881 0.351934
0.724880 0.655543 0.375311
0.776120 0.641413 0.397314
0.809628 0.643763 0.390906
0.840299 0.645624 0.385962
0.868467 0.647181 0.382452
0.894652 0.648646 0.380560
0.919127 0.650141 0.380285
0.940581 0.651972 0.385107
0.958434 0.653254 0.392187
0.966247 0.654017 0.410254
0.973571 0.657923 0.434455
0.981476 0.664179 0.461158
0.989746 0.672511 0.489509
0.998169 0.682490 0.519127
1.000000 0.693721 0.549279
1.000000 0.705867 0.579553
1.000000 0.718593 0.609461
1.000000 0.731533 0.638392
1.000000 0.743648 0.664820
0.151888 0.697200 0.538567
0.148898 0.697078 0.537835
0.129915 0.696437 0.533410
0.080232 0.695399 0.525444
0.000000 0.693935 0.512993
0.000000 0.691676 0.493385
0.000000 0.688777 0.466865
0.000000 0.685115 0.430060
0.000000 0.681971 0.381628
0.032532 0.687373 0.370306
0.374060 0.690852 0.381353
0.510887 0.694667 0.394446
0.613184 0.699092 0.408789
0.695979 0.704219 0.424872
0.754330 0.697719 0.445441
0.798917 0.680873 0.469123
0.828367 0.682338 0.463630
0.855833 0.683284 0.459174
0.881651 0.683986 0.456428
0.906035 0.684535 0.454627
0.928862 0.685267 0.454444
0.950591 0.686427 0.456397
0.968994 0.688624 0.465522
0.983703 0.689754 0.473732
0.990478 0.692653 0.494820
0.997620 0.697688 0.518395
1.000000 0.704646 0.543542
1.000000 0.713161 0.569940
1.000000 0.722927 0.597101
1.000000 0.733577 0.624475
1.000000 0.744533 0.651118
1.000000 0.754665 0.675105
0.309422 0.730831 0.592126
0.307591 0.730678 0.591211
0.302464 0.730312 0.588190
0.292424 0.729580 0.582238
0.274205 0.728328 0.571984
0.246250 0.726741 0.557183
0.202029 0.724727 0.536736
0.115358 0.722316 0.509239
0.000000 0.719326 0.472206
0.000000 0.721309 0.428412
0.334081 0.723629 0.438453
0.473182 0.726314 0.449958
0.574548 0.729519 0.462562
0.656184 0.733364 0.476295
0.726009 0.737697 0.490700
0.778103 0.733272 0.508141
0.817411 0.715450 0.531182
0.844419 0.715541 0.527642
0.869566 0.715908 0.523735
0.893492 0.715999 0.520989
0.916228 0.716182 0.519768
0.937926 0.716854 0.520562
0.958526 0.718013 0.523522
0.977142 0.719753 0.529747
0.993164 0.722347 0.540673
1.000000 0.723995 0.551629
1.000000 0.728206 0.572290
1.000000 0.734188 0.594873
1.000000 0.741604 0.618616
1.000000 0.750179 0.643122
1.000000 0.758816 0.666529
1.000000 0.766995 0.687556
0.395514 0.759396 0.638148
0.395087 0.759365 0.637720
0.391730 0.759030 0.635248
0.385504 0.758572 0.630518
0.375708 0.757778 0.622980
0.360967 0.756680 0.611872
0.340612 0.755337 0.596582
0.312535 0.753750 0.576165
0.272618 0.751797 0.548974
0.212009 0.749477 0.513115
0.310216 0.752987 0.492531
0.445624 0.754818 0.501915
0.542962 0.757198 0.512474
0.622217 0.759945 0.523552
0.690028 0.763210 0.535363
0.750149 0.766873 0.547631
0.798123 0.764034 0.562280
0.832334 0.747189 0.582086
0.858701 0.744442 0.582269
0.881987 0.744442 0.578973
0.904387 0.744594 0.577417
0.925963 0.745022 0.577417
0.946441 0.745876 0.579309
0.965759 0.747066 0.582971
0.983673 0.748623 0.588434
0.998657 0.750912 0.598138
1.000000 0.753567 0.609400
1.000000 0.756405 0.623804
1.000000 0.761563 0.643885
1.000000 0.767605 0.664302
1.000000 0.774075 0.684474
1.000000 0.780545 0.702235
0.457679 0.784604 0.678187
0.457191 0.784512 0.677760
0.454994 0.784329 0.675868
0.451087 0.783993 0.672419
0.444404 0.783413 0.666529
0.434607 0.782589 0.657893
0.421271 0.781582 0.646113
0.403784 0.780423 0.630457
0.381506 0.779049 0.610346
0.351965 0.777432 0.584070
0.332219 0.777493 0.551476
0.426795 0.780148 0.548394
0.519005 0.782010 0.557122
0.594812 0.784176 0.566247
0.659754 0.786770 0.576104
0.717739 0.789761 0.586572
0.770993 0.792844 0.597314
0.816098 0.791318 0.609796
0.846464 0.775296 0.626886
0.872160 0.770443 0.630030
0.894041 0.770626 0.627985
0.915129 0.771054 0.627649
0.935210 0.771786 0.629053
0.954314 0.772702 0.631861
0.972045 0.773922 0.636164
0.988251 0.775448 0.642176
1.000000 0.777371 0.650263
1.000000 0.780056 0.662104
1.000000 0.782101 0.672084
1.000000 0.785763 0.687984
1.000000 0.790372 0.705226
1.000000 0.795377 0.720272
0.506065 0.807370 0.713100
0.505852 0.807370 0.712825
0.509056 0.809506 0.714931
0.506004 0.809201 0.712032
0.501244 0.808835 0.707515
0.494667 0.808255 0.701106
0.485237 0.807492 0.691981
0.473426 0.806607 0.680110
0.458503 0.805631 0.664881
0.439551 0.804471 0.645258
0.415930 0.803220 0.620294
0.425330 0.805661 0.595270
0.507561 0.807034 0.602136
0.577203 0.808621 0.609522
0.637842 0.810544 0.617517
0.692561 0.812772 0.625910
0.743313 0.815091 0.634577
0.791348 0.817624 0.643702
0.834257 0.816892 0.653864
0.861021 0.801572 0.668605
0.886046 0.795377 0.674311
0.906371 0.795834 0.673671
0.925872 0.796414 0.674342
0.944305 0.797116 0.676509
0.961547 0.798001 0.679835
0.977295 0.799100 0.684688
0.991394 0.800443 0.690913
1.000000 0.801663 0.697841
1.000000 0.803342 0.707179
1.000000 0.805417 0.718166
1.000000 0.807248 0.728115
1.000000 0.810452 0.741024
0.546563 0.828580 0.744442
0.546746 0.828733 0.744503
0.545892 0.828855 0.743618
0.544182 0.828855 0.741817
0.540887 0.828733 0.738491
0.535912 0.828397 0.733486
0.529137 0.827909 0.726528
0.520287 0.827329 0.717372
0.509392 0.826658 0.705684
0.496132 0.825925 0.691035
0.479774 0.825132 0.672328
0.460334 0.824369 0.649073
0.499306 0.827512 0.638178
0.562432 0.828885 0.644373
0.619104 0.830503 0.651179
0.670954 0.832303 0.658259
0.718898 0.834318 0.665736
0.764828 0.836393 0.673579
0.809445 0.838499 0.681849
0.850553 0.838773 0.690822
0.874266 0.824369 0.704036
0.898589 0.817258 0.712154
0.917388 0.817929 0.712581
0.935241 0.818662 0.714351
0.951843 0.819516 0.717311
0.967102 0.820432 0.721492
0.980499 0.821042 0.726070
0.992065 0.821714 0.731655
1.000000 0.822568 0.738247
1.000000 0.823606 0.746029
1.000000 0.825345 0.756344
1.000000 0.826871 0.766171
0.580346 0.847349 0.771450
0.580438 0.847532 0.771450
0.579828 0.847654 0.770809
0.578576 0.847745 0.769467
0.576074 0.847684 0.766873
0.572381 0.847532 0.763088
0.567071 0.847288 0.757656
0.560449 0.846952 0.750668
0.552300 0.846616 0.741817
0.542290 0.846250 0.730587
0.530419 0.845914 0.716701
0.516136 0.845518 0.699245
0.510948 0.846769 0.679469
0.555779 0.848692 0.678035
0.607355 0.850034 0.683742
0.655299 0.851560 0.689784
0.700496 0.853147 0.696132
0.743893 0.854826 0.702876
0.786130 0.856565 0.709987
0.827420 0.858274 0.717342
0.866667 0.859281 0.725185
0.887358 0.845548 0.736965
0.910460 0.837583 0.746639
0.927520 0.838407 0.748104
0.943297 0.839017 0.750362
0.957702 0.839384 0.753231
0.970489 0.839750 0.756985
0.981506 0.840146 0.761685
0.990478 0.840635 0.767391
0.997284 0.841215 0.773983
1.000000 0.842557 0.781765
0.999207 0.842161 0.788998
0.611841 0.864988 0.796353
0.611933 0.865141 0.796414
0.611505 0.865232 0.795926
0.610407 0.865354 0.794827
0.608545 0.865415 0.792935
0.605402 0.865385 0.789822
0.601404 0.865354 0.785794
0.596155 0.865232 0.780362
0.589715 0.865141 0.773465
0.581994 0.865080 0.765011
0.572961 0.865110 0.754543
0.562188 0.865171 0.741573
0.549706 0.865324 0.725704
0.555871 0.867765 0.710048
0.602045 0.868864 0.714839
0.645930 0.870054 0.719997
0.687831 0.871366 0.725551
0.728511 0.872770 0.731441
0.768276 0.874174 0.737667
0.807218 0.875608 0.744259
0.845243 0.877043 0.751156
0.882231 0.878386 0.758328
0.900267 0.865537 0.768399
0.921416 0.856504 0.778592
0.936187 0.857023 0.780331
0.949676 0.857328 0.782834
0.961608 0.857572 0.786099
0.971801 0.857725 0.790249
0.980041 0.857908 0.795163
0.986175 0.858152 0.800839
0.987396 0.858183 0.806882
0.986938 0.857481 0.812955
0.643793 0.882078 0.820432
0.643702 0.882139 0.820371
0.643275 0.882200 0.819974
0.642176 0.882231 0.818967
0.640467 0.882261 0.817319
0.637842 0.882292 0.814908
0.634577 0.882353 0.811765
0.630396 0.882475 0.807675
0.625238 0.882628 0.802457
0.619104 0.882841 0.795987
0.611780 0.883177 0.788052
0.603418 0.883574 0.778439
0.594018 0.884123 0.766934
0.583673 0.884886 0.752804
0.604242 0.887205 0.745388
0.643580 0.888090 0.749752
0.681727 0.889067 0.754421
0.719295 0.890043 0.759426
0.756130 0.890990 0.764736
0.792142 0.891875 0.770108
0.827237 0.892607 0.775509
0.861448 0.893248 0.781125
0.894591 0.893828 0.786831
0.910826 0.882200 0.795132
0.929412 0.873106 0.804807
0.942321 0.872587 0.807614
0.953399 0.872740 0.810452
0.962829 0.872740 0.814084
0.970397 0.872679 0.818296
0.975891 0.872618 0.823239
0.976043 0.871550 0.827878
0.975677 0.870848 0.833371
0.673854 0.896666 0.841276
0.673793 0.896696 0.841276
0.673396 0.896788 0.840909
0.672511 0.896849 0.840146
0.671107 0.896971 0.838926
0.669123 0.897093 0.837125
0.666346 0.897276 0.834684
0.662837 0.897551 0.831510
0.658747 0.897887 0.827634
0.653712 0.898344 0.822721
0.648005 0.898894 0.816892
0.641321 0.899596 0.809812
0.633631 0.900420 0.801144
0.625177 0.901427 0.790951
0.621973 0.903136 0.779294
0.647059 0.904417 0.777371
0.681270 0.904906 0.781125
0.715023 0.905364 0.785092
0.748470 0.905791 0.789273
0.781399 0.906157 0.793668
0.813657 0.906493 0.798276
0.845151 0.906767 0.803006
0.875700 0.906950 0.807919
0.905180 0.907073 0.812924
0.919524 0.896574 0.819242
0.935027 0.887968 0.827848
0.946075 0.886046 0.831907
0.954681 0.885924 0.834958
0.961517 0.885679 0.838712
0.964935 0.885100 0.842741
0.965576 0.883421 0.846464
0.965270 0.882750 0.851591
0.705470 0.909850 0.860960
0.705562 0.909911 0.861021
0.705226 0.910002 0.860777
0.704524 0.910094 0.860166
0.703273 0.910185 0.859159
0.701472 0.910338 0.857725
0.699123 0.910552 0.855833
0.696040 0.910826 0.853300
0.692439 0.911162 0.850187
0.688167 0.911650 0.846433
0.683192 0.912230 0.841886
0.677455 0.912963 0.836393
0.670985 0.913848 0.829862
0.663630 0.914885 0.822049
0.655482 0.916075 0.812741
0.657191 0.917815 0.802914
0.685084 0.918120 0.804654
0.715267 0.918242 0.807950
0.745296 0.918303 0.811429
0.775082 0.918364 0.815152
0.804379 0.918334 0.819089
0.832914 0.918273 0.823117
0.860685 0.918090 0.827268
0.887449 0.917876 0.831510
0.913237 0.917540 0.835721
0.926390 0.908873 0.841581
0.938628 0.900603 0.848966
0.947448 0.897490 0.853696
0.953491 0.897032 0.856870
0.955322 0.895445 0.859709
0.955962 0.893889 0.863188
0.955657 0.893400 0.868009
0.734432 0.919860 0.877226
0.734493 0.919921 0.877226
0.734279 0.919982 0.877073
0.733669 0.920073 0.876616
0.732692 0.920226 0.875853
0.731380 0.920439 0.874815
0.729458 0.920714 0.873381
0.727077 0.921080 0.871519
0.724300 0.921538 0.869230
0.721004 0.922118 0.866514
0.717098 0.922789 0.863127
0.712612 0.923613 0.859098
0.707393 0.924529 0.854307
0.701564 0.925658 0.848600
0.694972 0.926909 0.841825
0.687739 0.928344 0.833860
0.696376 0.929595 0.827634
0.722499 0.929381 0.830289
0.748806 0.929137 0.833219
0.774899 0.928862 0.836332
0.800748 0.928527 0.839536
0.826017 0.928130 0.842954
0.850614 0.927672 0.846464
0.874418 0.927153 0.850034
0.897276 0.926543 0.853666
0.919158 0.925902 0.857359
0.930938 0.918914 0.862181
0.939849 0.911070 0.868437
0.945129 0.906645 0.873289
0.946502 0.904570 0.875425
0.947021 0.903319 0.878813
0.946685 0.902953 0.883360
0.763455 0.927825 0.891936
0.763485 0.927855 0.891905
0.763180 0.927916 0.891752
0.762783 0.928008 0.891417
0.761990 0.928161 0.890867
0.760861 0.928374 0.890043
0.759396 0.928649 0.888975
0.757565 0.929015 0.887602
0.755337 0.929473 0.885893
0.752743 0.930022 0.883818
0.749691 0.930663 0.881315
0.746181 0.931456 0.878386
0.742214 0.932372 0.874907
0.737636 0.933410 0.870726
0.732570 0.934600 0.865873
0.726955 0.935943 0.860166
0.723018 0.937316 0.853758
0.735348 0.937804 0.850858
0.757717 0.937285 0.853208
0.780026 0.936767 0.855772
0.802152 0.936156 0.858488
0.823911 0.935515 0.861295
0.845060 0.934783 0.864164
0.865690 0.934051 0.867155
0.885466 0.933227 0.870176
0.904356 0.932372 0.873198
0.922210 0.931518 0.876310
0.932280 0.925536 0.880156
0.936370 0.917754 0.884276
0.938872 0.912139 0.889006
0.939330 0.911131 0.892210
0.938964 0.910948 0.896574
0.790860 0.933410 0.904540
0.790921 0.933440 0.904540
0.790768 0.933471 0.904448
0.790402 0.933562 0.904173
0.789853 0.933715 0.903777
0.789212 0.933898 0.903258
0.788205 0.934203 0.902525
0.787015 0.934569 0.901610
0.785611 0.934997 0.900481
0.783902 0.935546 0.899077
0.781949 0.936156 0.897459
0.779599 0.936858 0.895445
0.776913 0.937682 0.893065
0.773800 0.938598 0.890257
0.770199 0.939605 0.886931
0.766232 0.940734 0.883024
0.761807 0.941955 0.878538
0.761227 0.942992 0.873655
0.774899 0.942504 0.872953
0.792874 0.941375 0.874784
0.810483 0.940246 0.876707
0.827878 0.939086 0.878752
0.844846 0.937896 0.880858
0.861295 0.936706 0.883055
0.877104 0.935546 0.885313
0.892241 0.934386 0.887602
0.906615 0.933257 0.890013
0.919951 0.932189 0.892515
0.927794 0.928099 0.895628
0.930816 0.922301 0.899474
0.932403 0.917937 0.904967
0.932036 0.917937 0.909056
0.816953 0.935454 0.914794
0.816922 0.935454 0.914794
0.816770 0.935485 0.914672
0.816464 0.935546 0.914488
0.815976 0.935637 0.914153
0.815396 0.935729 0.913725
0.814633 0.935882 0.913146
0.813626 0.936095 0.912413
0.812436 0.936339 0.911498
0.811002 0.936645 0.910369
0.809415 0.936950 0.909087
0.807553 0.937346 0.907500
0.805386 0.937804 0.905699
0.803006 0.938293 0.903593
