20 Preset/Natural Style/【3】LUT video cho PR-AE-FCPX/Natural 2 LUT (5).cube
# Created by Adobe Lightroom plugin Export LUT (1.24.0)
# www.johnrellis.com/lightroom/exportlut.htm
# Preset: 森系胶片-素材江湖05
# Color profile: E:\lut插件\exportlut.1.24\exportlut.lrplugin\color profiles\Rec709gamma2.4.icc
LUT_3D_SIZE 8
DOMAIN_MIN 0.000000 0.000000 0.000000
DOMAIN_MAX 0.903226 0.903226 0.903226
0.050843 0.079469 0.071595
0.080079 0.088106 0.081636
0.127047 0.102296 0.094820
0.193332 0.120485 0.108949
0.310338 0.142123 0.126925
0.499062 0.171847 0.154208
0.698482 0.263462 0.207156
0.845335 0.455207 0.342229
0.051789 0.108583 0.097353
0.074250 0.112123 0.091371
0.170260 0.119814 0.096559
0.242588 0.134127 0.111879
0.365911 0.154543 0.130251
0.539086 0.187076 0.157382
0.714992 0.282414 0.210971
0.850370 0.465736 0.345556
0.000000 0.215824 0.168765
0.000000 0.204837 0.154177
0.105074 0.212406 0.122042
0.436561 0.255894 0.128969
0.616022 0.279759 0.138735
0.699763 0.309667 0.180880
0.792508 0.397498 0.251072
0.881498 0.533318 0.391913
0.000000 0.458625 0.330114
0.000000 0.443702 0.312718
0.000000 0.373297 0.219303
0.158572 0.425483 0.164126
0.711910 0.533806 0.281926
0.802731 0.550439 0.318517
0.870207 0.582177 0.375036
0.923430 0.636133 0.486183
0.000000 0.659571 0.544060
0.000000 0.653193 0.533501
0.000000 0.623743 0.464790
0.000000 0.549004 0.299321
0.387182 0.624689 0.300389
0.778836 0.705623 0.498054
0.875761 0.715572 0.574517
0.948577 0.747677 0.631525
0.457710 0.776822 0.707149
0.461280 0.775265 0.704036
0.445380 0.764584 0.678126
0.353582 0.742641 0.603967
0.000000 0.702907 0.437781
0.586786 0.766171 0.518822
0.846891 0.834379 0.672206
0.942138 0.838529 0.767880
0.617670 0.881804 0.833738
0.619196 0.881498 0.832761
0.622858 0.879362 0.826902
0.597009 0.876310 0.803922
0.551293 0.872923 0.758907
0.476875 0.873930 0.671992
0.733486 0.910460 0.739834
0.916411 0.929686 0.819974
0.764218 0.938659 0.909209
0.765682 0.938628 0.909117
0.772000 0.938445 0.908751
0.770077 0.938872 0.904112
0.752682 0.940337 0.891447
0.732906 0.942412 0.871885
0.726131 0.944854 0.846708
0.840269 0.941253 0.872129
0.056550 0.083436 0.089326
0.088533 0.084108 0.090700
0.108278 0.107546 0.104829
0.171145 0.127901 0.121889
0.281621 0.150607 0.140108
0.463539 0.180209 0.166384
0.671534 0.261112 0.217472
0.831510 0.448127 0.347051
0.065980 0.103609 0.101686
0.092378 0.111055 0.105653
0.141207 0.122835 0.114748
0.213718 0.140749 0.128389
0.334020 0.163088 0.145449
0.508171 0.194614 0.171817
0.693050 0.281346 0.223331
0.838193 0.460822 0.352575
0.000000 0.217960 0.183383
0.025696 0.210483 0.174014
0.124910 0.212070 0.139040
0.418830 0.253819 0.155093
0.579004 0.273014 0.168765
0.674250 0.304845 0.201053
0.774380 0.389349 0.262913
0.870329 0.527001 0.396521
0.000000 0.460060 0.346197
0.000000 0.446448 0.330449
0.000000 0.379797 0.240055
0.184665 0.419593 0.184329
0.698451 0.524102 0.297856
0.792782 0.544091 0.330968
0.858366 0.574243 0.382788
0.914305 0.630793 0.488991
0.134951 0.660792 0.554681
0.155001 0.654444 0.544335
0.000000 0.625208 0.480873
0.000000 0.550500 0.316869
0.394873 0.620325 0.313756
0.777676 0.701808 0.509758
0.871458 0.713436 0.578729
0.945190 0.746029 0.633967
0.466285 0.776333 0.710750
0.468299 0.773983 0.706630
0.459632 0.763302 0.683162
0.373022 0.741054 0.610346
0.000000 0.700679 0.447242
0.588586 0.763668 0.524651
0.845640 0.831937 0.677363
0.940581 0.837705 0.768948
0.619501 0.880522 0.834287
0.620417 0.879850 0.832914
0.624567 0.877531 0.827176
0.601007 0.874235 0.804929
0.556207 0.870787 0.760616
0.481300 0.870909 0.673457
0.732815 0.907927 0.739620
0.916167 0.928313 0.820157
0.764309 0.938628 0.909606
0.766049 0.938598 0.909575
0.772213 0.938415 0.909178
0.772152 0.938720 0.905058
0.757412 0.940093 0.893400
0.736934 0.942168 0.873930
0.727718 0.944732 0.848051
0.841276 0.941161 0.873259
0.074739 0.086244 0.122042
0.101625 0.085237 0.126955
0.154971 0.094331 0.135622
0.209934 0.129397 0.148470
0.193851 0.155245 0.155337
0.343786 0.190738 0.188571
0.590845 0.264836 0.249912
0.796811 0.451026 0.387030
0.090394 0.102235 0.132113
0.108064 0.106325 0.137331
0.162448 0.121645 0.150332
0.198062 0.146548 0.155367
0.215579 0.166323 0.165042
0.389563 0.204074 0.199130
0.618555 0.281834 0.258396
0.805264 0.463661 0.393774
0.097169 0.203006 0.206729
0.123049 0.214664 0.216220
0.194644 0.226230 0.207034
0.330053 0.236179 0.214603
0.442756 0.251926 0.224063
0.579828 0.290898 0.249271
0.720821 0.378912 0.307317
0.841672 0.526299 0.436744
0.000000 0.496986 0.430915
0.000000 0.485878 0.416907
0.157259 0.432227 0.347021
0.279576 0.430030 0.264012
0.675074 0.517906 0.371557
0.774441 0.545586 0.397528
0.826505 0.565209 0.433509
0.893065 0.630518 0.527214
0.318273 0.673640 0.603723
0.323857 0.668421 0.595270
0.337041 0.643458 0.554925
0.089693 0.574884 0.402686
0.445686 0.620691 0.381537
0.786374 0.701686 0.574365
0.862028 0.714900 0.609522
0.939483 0.749081 0.658045
0.509209 0.781430 0.733730
0.510857 0.779324 0.730220
0.514763 0.769039 0.712642
0.457679 0.745388 0.649714
0.276036 0.702968 0.500511
0.603601 0.760159 0.556878
0.845640 0.827024 0.705318
0.937957 0.839200 0.780606
0.636835 0.882048 0.843931
0.637751 0.881437 0.842679
0.641474 0.879057 0.837308
0.629419 0.874754 0.819394
0.585748 0.870024 0.777188
0.514611 0.868681 0.694545
0.740475 0.906432 0.752651
0.920897 0.928038 0.832395
0.770504 0.938323 0.912688
0.771817 0.938262 0.912566
0.777829 0.938109 0.912169
0.786069 0.938018 0.910552
0.771572 0.939300 0.899596
0.751858 0.941314 0.881407
0.736690 0.943999 0.854978
0.846738 0.940642 0.879393
0.093111 0.088167 0.182193
0.118715 0.085115 0.192172
0.209293 0.051911 0.221561
0.317601 0.072816 0.239658
0.479408 0.120180 0.268650
0.425910 0.188998 0.234592
0.423316 0.246342 0.255802
0.701381 0.423529 0.408118
0.120333 0.095460 0.200198
0.140078 0.097566 0.207218
0.218143 0.104494 0.233768
0.330938 0.117433 0.254459
0.463203 0.162722 0.271305
0.407721 0.203983 0.236881
0.404211 0.251133 0.255497
0.717433 0.439277 0.419471
0.091066 0.159670 0.216068
0.110140 0.163851 0.229038
0.230228 0.200504 0.279057
0.382605 0.244572 0.318608
0.392554 0.251835 0.278630
0.327794 0.244968 0.246647
0.569390 0.334173 0.324193
0.776394 0.508904 0.472450
0.202853 0.450935 0.456245
0.244327 0.460426 0.463600
0.373480 0.499031 0.495491
0.436713 0.467872 0.424140
0.601678 0.480751 0.438911
0.667353 0.481178 0.431464
0.751614 0.524865 0.465614
0.847471 0.615991 0.562280
0.471931 0.703609 0.687282
0.475715 0.699458 0.681209
0.485939 0.679774 0.652155
0.453559 0.626246 0.562982
0.526940 0.627863 0.495064
0.774716 0.697108 0.632532
0.846372 0.714107 0.650080
0.917571 0.741695 0.684657
0.576287 0.795468 0.776059
0.578546 0.794217 0.774014
0.581781 0.785122 0.760281
0.575982 0.762692 0.722927
0.463142 0.716609 0.599054
0.633082 0.757595 0.614527
0.851041 0.821469 0.754391
0.934478 0.840848 0.798215
0.666926 0.885588 0.861234
0.668208 0.885252 0.860441
0.672236 0.883360 0.856382
0.676844 0.878996 0.846067
0.639948 0.872038 0.809934
0.572656 0.866911 0.734798
0.753994 0.903166 0.774624
0.928832 0.926513 0.852476
0.781674 0.937713 0.918364
0.783047 0.937713 0.918273
0.788907 0.937530 0.917967
0.800076 0.937255 0.917327
0.798184 0.937865 0.910948
0.779080 0.939727 0.894926
0.756283 0.942565 0.868650
0.856748 0.939666 0.890318
0.117433 0.075654 0.297520
0.150759 0.059663 0.311284
0.283574 0.000000 0.365820
0.422950 0.000000 0.391943
0.578973 0.000000 0.410834
0.747311 0.212741 0.479133
0.719387 0.318547 0.428168
0.759335 0.452033 0.489631
0.168521 0.045380 0.329534
0.196384 0.027131 0.340703
0.299931 0.000000 0.377691
0.432380 0.000000 0.402838
0.585016 0.000000 0.422827
0.735988 0.258610 0.481239
0.709560 0.334081 0.429480
0.751125 0.462013 0.493538
0.146548 0.148501 0.334051
0.173129 0.152193 0.344701
0.286351 0.169558 0.390417
0.467964 0.207614 0.449958
0.601282 0.279606 0.471321
0.686702 0.367834 0.482673
0.665736 0.378088 0.428931
0.715297 0.491524 0.502953
0.000000 0.260136 0.341070
0.000000 0.261570 0.341070
0.200015 0.307012 0.397375
0.482704 0.431830 0.517754
0.616114 0.502678 0.559594
0.591363 0.453071 0.474189
0.555230 0.424262 0.424506
0.746517 0.569329 0.562249
0.489815 0.656916 0.677119
0.503960 0.660578 0.680476
0.555077 0.675441 0.694575
0.622736 0.698421 0.716091
0.626520 0.654536 0.635676
0.734066 0.670863 0.658137
0.782315 0.666072 0.646693
0.864683 0.710628 0.692897
0.647761 0.817990 0.827634
0.649226 0.816556 0.825742
0.652979 0.809110 0.816159
0.653437 0.790768 0.791623
0.620630 0.748074 0.722103
0.672541 0.757076 0.684810
0.857298 0.818112 0.795804
0.931182 0.837827 0.813474
0.709102 0.891722 0.884733
0.709712 0.891295 0.883970
0.712123 0.889647 0.880735
0.716854 0.886046 0.873350
0.713558 0.877317 0.854032
0.645869 0.864927 0.787869
0.771298 0.896727 0.801053
0.928161 0.915404 0.878721
0.792203 0.937102 0.925475
0.793668 0.937072 0.925383
0.799588 0.936919 0.925109
0.811215 0.936614 0.924651
0.827207 0.936309 0.923827
0.815640 0.937621 0.912566
0.794125 0.940154 0.890654
0.869657 0.938476 0.903838
0.160067 0.000000 0.467720
0.200870 0.000000 0.478706
0.346288 0.000000 0.520531
0.563714 0.000000 0.579919
0.669337 0.000000 0.582879
0.768185 0.000000 0.588067
0.857328 0.406470 0.649622
0.871977 0.536065 0.659327
0.216983 0.000000 0.489631
0.251377 0.000000 0.499153
0.383825 0.000000 0.536645
0.568383 0.000000 0.583795
0.670771 0.000000 0.587549
0.765164 0.170687 0.593683
0.851926 0.433417 0.654322
0.866819 0.544854 0.660487
0.240482 0.104005 0.504356
0.268345 0.102235 0.511559
0.379980 0.093751 0.542138
0.573053 0.140261 0.598566
0.675837 0.219150 0.611627
0.754757 0.368109 0.621576
0.833463 0.522148 0.675502
0.849973 0.580865 0.669673
0.104494 0.240909 0.492073
0.163424 0.249699 0.501671
0.321599 0.291844 0.540978
0.533776 0.386023 0.608423
0.670192 0.485084 0.657527
0.737881 0.552087 0.671901
0.791287 0.600580 0.683894
0.822507 0.628321 0.682582
0.018463 0.479316 0.570306
0.124056 0.480171 0.569696
0.239322 0.481483 0.565515
0.389166 0.500694 0.577752
0.654902 0.637659 0.702968
0.732662 0.680873 0.732387
0.728695 0.637720 0.668299
0.768399 0.671168 0.692683
0.639979 0.776913 0.810239
0.645563 0.778836 0.811856
0.666560 0.786282 0.817960
0.702815 0.800504 0.829709
0.741451 0.814969 0.840513
0.736751 0.776791 0.781003
0.831724 0.794614 0.802426
0.903807 0.811063 0.815244
0.771389 0.902861 0.913359
0.772457 0.902739 0.913085
0.775753 0.901793 0.911437
0.780148 0.899382 0.907347
0.780606 0.893431 0.897398
0.752529 0.876005 0.862211
0.801114 0.890898 0.840116
0.932372 0.911772 0.906249
0.823270 0.935729 0.936217
0.823850 0.935729 0.936095
0.826627 0.935698 0.935607
0.832120 0.935576 0.934600
0.842313 0.935424 0.933227
0.862516 0.935210 0.932921
0.846006 0.937011 0.918486
0.888212 0.936797 0.922576
0.277104 0.000000 0.654170
0.317601 0.000000 0.661616
0.448676 0.000000 0.682246
0.637232 0.000000 0.718929
0.771786 0.000000 0.742367
0.830777 0.000000 0.731106
0.881102 0.326146 0.731868
0.930907 0.545434 0.769955
0.313542 0.000000 0.656519
0.349523 0.000000 0.664118
0.468055 0.000000 0.683650
0.643091 0.000000 0.717556
0.766110 0.000000 0.737118
0.821164 0.000000 0.725002
0.870848 0.343389 0.725185
0.922026 0.544976 0.763088
0.416480 0.000000 0.689937
0.438422 0.000000 0.692836
0.521752 0.000000 0.703822
0.654841 0.000000 0.726802
0.761440 0.133486 0.745205
0.812131 0.285069 0.738735
0.857176 0.469947 0.743435
0.916930 0.609277 0.784756
0.349035 0.218692 0.683864
0.376257 0.223514 0.686732
0.474861 0.250217 0.699763
0.618952 0.331426 0.728328
0.741512 0.474098 0.765133
0.793484 0.519615 0.768307
0.839902 0.605066 0.775418
0.909728 0.686427 0.813657
0.000000 0.388586 0.644892
0.000000 0.393286 0.649256
0.266087 0.405188 0.670344
0.502037 0.477729 0.708797
0.678401 0.588708 0.760586
0.770047 0.657771 0.793484
0.824338 0.700526 0.804654
0.893645 0.746578 0.830869
0.399695 0.671351 0.759091
0.407385 0.671138 0.758572
0.433478 0.668513 0.754788
0.472694 0.659998 0.744961
0.525353 0.640833 0.726406
0.758694 0.759792 0.829587
0.833768 0.800900 0.854582
0.877317 0.803708 0.848783
0.730587 0.865507 0.895354
0.734554 0.866911 0.896391
0.747890 0.870603 0.898863
0.773953 0.878416 0.904234
0.810666 0.889830 0.912261
0.855558 0.905425 0.923857
0.850858 0.888121 0.894285
0.935271 0.905699 0.914458
0.862150 0.933806 0.945159
0.862730 0.933898 0.945190
0.865476 0.934295 0.945312
0.869902 0.934356 0.944976
0.875669 0.934325 0.944213
0.882963 0.934356 0.943053
0.899382 0.934600 0.943511
0.909728 0.935058 0.943481
0.456397 0.000000 0.813596
0.482979 0.000000 0.816281
0.569696 0.000000 0.821439
0.697749 0.000000 0.835264
0.822538 0.000000 0.852567
0.898314 0.000000 0.858000
0.942199 0.014130 0.842557
0.972808 0.475929 0.839872
0.469459 0.000000 0.812375
0.494728 0.000000 0.815122
0.578759 0.000000 0.821378
0.701015 0.000000 0.834348
0.823026 0.000000 0.851469
0.897368 0.000000 0.856657
0.935882 0.167239 0.840055
0.966735 0.484688 0.837186
0.529686 0.000000 0.824247
0.548821 0.000000 0.825895
0.617762 0.000000 0.830747
0.727016 0.000000 0.844785
0.835019 0.000000 0.858549
0.892454 0.172000 0.859312
0.920958 0.365026 0.844144
0.955230 0.547845 0.842954
0.554742 0.000000 0.836118
0.571221 0.000000 0.837613
0.628016 0.000000 0.840879
0.716304 0.194736 0.849119
0.803891 0.359625 0.859373
0.863157 0.473060 0.864408
0.900145 0.537377 0.856748
0.942443 0.636713 0.858061
0.408545 0.362249 0.830014
0.432959 0.366949 0.831968
0.510124 0.379187 0.835142
0.628901 0.435767 0.844022
0.740505 0.530938 0.856291
0.831327 0.629969 0.872221
0.882536 0.658228 0.873747
0.931395 0.720638 0.877379
0.000000 0.581872 0.817502
0.000000 0.580072 0.817350
0.000000 0.578363 0.820523
0.422950 0.586542 0.833799
0.624689 0.622889 0.853758
0.783749 0.712642 0.882078
0.877073 0.773342 0.902068
0.932494 0.818540 0.910613
0.568750 0.827695 0.910918
0.570916 0.827237 0.910552
0.580346 0.825681 0.909331
0.600366 0.824033 0.908415
0.626856 0.819028 0.906615
0.662959 0.804501 0.904204
0.874205 0.870359 0.931640
0.924926 0.901030 0.937255
0.818235 0.924132 0.945006
0.819913 0.924285 0.945037
0.827726 0.925109 0.945251
0.843442 0.926726 0.945647
0.864836 0.928985 0.946319
0.889189 0.931701 0.947234
0.909483 0.934081 0.948486
0.915435 0.934691 0.949096
