20 Preset/Gray style/【3】LUT video cho PR-AE-FCPX/Tone  (4).cube
# Created by Adobe Lightroom plugin Export LUT (1.24.0)
# www.johnrellis.com/lightroom/exportlut.htm
# Preset: 04素材江湖-高级灰
# Color profile: E:\lut插件\exportlut.1.24\exportlut.lrplugin\color profiles\Rec709gamma2.4.icc
LUT_3D_SIZE 8
DOMAIN_MIN 0.000000 0.000000 0.000000
DOMAIN_MAX 0.903226 0.903226 0.903226
0.000000 0.000000 0.000000
0.106538 0.010315 0.026154
0.208347 0.038819 0.096620
0.323552 0.000000 0.117494
0.442847 0.000000 0.134035
0.562402 0.000000 0.165011
0.701106 0.000000 0.209384
0.842588 0.000000 0.260563
0.045045 0.099763 0.059693
0.092012 0.098573 0.102144
0.209567 0.116915 0.100069
0.320806 0.108675 0.118410
0.438025 0.053010 0.134401
0.555932 0.000000 0.164584
0.689326 0.000000 0.206271
0.831357 0.000000 0.256382
0.125948 0.196384 0.141482
0.147066 0.197024 0.150912
0.185428 0.195682 0.199130
0.337133 0.229496 0.143679
0.449928 0.215518 0.138979
0.569848 0.207401 0.172671
0.709957 0.200534 0.216953
0.847868 0.191928 0.267430
0.198795 0.304784 0.218479
0.210788 0.305699 0.221622
0.257237 0.304814 0.253788
0.296605 0.309789 0.313390
0.475868 0.370642 0.265751
0.598169 0.348730 0.188418
0.725887 0.346227 0.228672
0.855131 0.344701 0.276616
0.273991 0.411719 0.295720
0.281773 0.413123 0.296483
0.320836 0.415320 0.318486
0.377020 0.420569 0.363867
0.417914 0.429786 0.427497
0.585473 0.494240 0.392401
0.731228 0.486580 0.296666
0.859831 0.476967 0.286381
0.353948 0.525658 0.370245
0.362280 0.530297 0.373114
0.392615 0.533440 0.385931
0.447639 0.537438 0.421271
0.508141 0.544945 0.473610
0.554650 0.560449 0.544518
0.706538 0.630274 0.537682
0.874266 0.642237 0.448768
0.448249 0.657649 0.451606
0.453986 0.659449 0.452888
0.475837 0.662013 0.458350
0.527916 0.664973 0.489754
0.591363 0.669398 0.537011
0.654231 0.680049 0.599969
0.699184 0.698177 0.671443
0.816342 0.760678 0.687037
0.571862 0.798398 0.560235
0.575647 0.798978 0.560876
0.592004 0.802029 0.564111
0.637263 0.806058 0.590814
0.687282 0.801297 0.623651
0.752621 0.810269 0.679683
0.809537 0.823026 0.743099
0.844327 0.837980 0.805631
0.066682 0.090211 0.120943
0.113802 0.089052 0.136324
0.211795 0.101045 0.155917
0.325750 0.087037 0.172061
0.445258 0.000000 0.168856
0.559533 0.000000 0.191989
0.687556 0.000000 0.227207
0.825284 0.000000 0.270787
0.097719 0.120424 0.132082
0.123629 0.132021 0.144564
0.222629 0.131807 0.153780
0.331579 0.117403 0.161593
0.445411 0.052247 0.168521
0.558831 0.000000 0.192325
0.683101 0.000000 0.225864
0.818631 0.000000 0.268162
0.148836 0.211887 0.184909
0.163851 0.215915 0.187106
0.202579 0.215702 0.226688
0.343542 0.231479 0.165072
0.452613 0.216281 0.169986
0.567803 0.205783 0.197391
0.693812 0.194644 0.231785
0.830411 0.184787 0.275486
0.209476 0.308812 0.242985
0.219394 0.310979 0.244419
0.264042 0.311864 0.270603
0.301610 0.315953 0.323674
0.464607 0.364233 0.275883
0.582330 0.339300 0.205600
0.705470 0.335790 0.238712
0.836728 0.334997 0.281987
0.281529 0.414923 0.311955
0.288182 0.415900 0.312688
0.323827 0.417731 0.328649
0.377356 0.420813 0.369970
0.415167 0.427802 0.428504
0.578882 0.488991 0.393042
0.721187 0.478431 0.298161
0.849790 0.470314 0.293858
0.355993 0.523430 0.378882
0.361761 0.524987 0.379828
0.389715 0.528954 0.389532
0.444678 0.533867 0.423804
0.505486 0.542412 0.475349
0.553368 0.559625 0.545708
0.703975 0.627863 0.537194
0.868040 0.636957 0.449134
0.446509 0.652522 0.455146
0.450172 0.652369 0.455024
0.469703 0.655116 0.457588
0.522332 0.658991 0.488777
0.587488 0.665583 0.536767
0.650202 0.676326 0.598505
0.693416 0.692866 0.667659
0.810636 0.754360 0.680720
0.567803 0.793149 0.559960
0.572686 0.794797 0.561883
0.588617 0.797696 0.564935
0.632319 0.802213 0.588952
0.693385 0.806912 0.631861
0.755367 0.812863 0.684016
0.809628 0.823209 0.744320
0.844266 0.838041 0.806302
0.137179 0.166384 0.238804
0.153597 0.166476 0.248478
0.237156 0.169833 0.277165
0.318517 0.212589 0.293217
0.449775 0.192752 0.312718
0.575006 0.164034 0.324834
0.707240 0.090211 0.337133
0.843046 0.000000 0.353918
0.166262 0.197299 0.245609
0.175418 0.198581 0.254673
0.240909 0.199954 0.279362
0.331975 0.222721 0.298405
0.453651 0.198154 0.306615
0.577539 0.163272 0.314183
0.706264 0.056275 0.321569
0.840452 0.000000 0.340246
0.206882 0.249454 0.270756
0.217899 0.254673 0.276738
0.258000 0.272984 0.295079
0.373266 0.245426 0.272038
0.483864 0.222019 0.268498
0.596704 0.210147 0.283238
0.717830 0.195193 0.305638
0.846372 0.182986 0.337469
0.255192 0.339788 0.322026
0.263279 0.342626 0.324071
0.295811 0.351720 0.331609
0.340063 0.357671 0.376806
0.488502 0.376928 0.318059
0.607355 0.351690 0.288670
0.728267 0.344030 0.310918
0.853788 0.340185 0.343389
0.316350 0.437873 0.373510
0.322332 0.439216 0.374395
0.347601 0.445655 0.377691
0.404700 0.450202 0.413397
0.445106 0.459022 0.466804
0.607813 0.511009 0.426246
0.736233 0.476661 0.317418
0.861112 0.475990 0.350469
0.382361 0.540032 0.426001
0.387701 0.541741 0.427131
0.409003 0.546777 0.429694
0.461372 0.552148 0.456184
0.522881 0.560143 0.503227
0.570275 0.577356 0.569757
0.719112 0.640711 0.555901
0.872404 0.640192 0.473274
0.469001 0.664759 0.494789
0.472389 0.664790 0.494636
0.489143 0.666743 0.495766
0.534112 0.670954 0.515373
0.599390 0.676875 0.560296
0.662623 0.688502 0.618677
0.707576 0.707454 0.686000
0.825742 0.767788 0.695308
0.581476 0.798001 0.586938
0.584253 0.798062 0.586999
0.599115 0.800748 0.589532
0.636622 0.807828 0.604700
0.698116 0.812436 0.645686
0.761990 0.819699 0.697261
0.816831 0.830533 0.756100
0.851194 0.845335 0.816068
0.214664 0.253849 0.357733
0.225559 0.255589 0.364080
0.270481 0.258244 0.384283
0.362646 0.264866 0.410834
0.447944 0.304967 0.425422
0.571771 0.314519 0.455390
0.699611 0.295811 0.470466
0.831540 0.275975 0.487556
0.239292 0.279210 0.365454
0.245884 0.279759 0.370153
0.280827 0.279667 0.388190
0.366461 0.283146 0.413581
0.450965 0.319707 0.429236
0.575708 0.321355 0.455879
0.702205 0.300420 0.468208
0.833799 0.278508 0.483619
0.281407 0.324315 0.373419
0.288884 0.328008 0.377081
0.308385 0.333928 0.395392
0.376806 0.336339 0.419989
0.463783 0.363409 0.440864
0.597986 0.342657 0.453956
0.729458 0.316533 0.460670
0.856535 0.286564 0.468788
0.322911 0.380743 0.405676
0.328832 0.383246 0.408423
0.354406 0.394995 0.420996
0.401892 0.416754 0.440955
0.524743 0.382483 0.408240
0.635889 0.362341 0.405463
0.751339 0.348638 0.413764
0.871214 0.342107 0.433783
0.376593 0.474983 0.459113
0.381079 0.476844 0.460426
0.400031 0.484535 0.465064
0.443885 0.497108 0.476936
0.492683 0.507774 0.524895
0.636866 0.526757 0.471138
0.760800 0.490974 0.419196
0.878721 0.485145 0.440925
0.435065 0.574548 0.504356
0.441566 0.578393 0.507286
0.457465 0.582055 0.508629
0.493446 0.591180 0.514153
0.560540 0.598535 0.557366
0.605371 0.613214 0.614038
0.750057 0.663935 0.588403
0.884977 0.637659 0.498146
0.508995 0.683314 0.558862
0.512963 0.684474 0.559747
0.528557 0.688167 0.562127
0.559747 0.695521 0.567010
0.623438 0.701961 0.602716
0.686519 0.712490 0.654322
0.729641 0.730098 0.714809
0.848173 0.785214 0.713954
0.609094 0.810300 0.635492
0.611994 0.810788 0.635828
0.625025 0.813230 0.637812
0.651698 0.818906 0.642634
0.705989 0.824399 0.670069
0.771481 0.831205 0.718502
0.827970 0.842283 0.774838
0.863401 0.858213 0.833158
0.305425 0.348730 0.475013
0.312810 0.350591 0.479774
0.340795 0.353307 0.493874
0.402991 0.354314 0.519799
0.500572 0.360845 0.544732
0.585840 0.396094 0.554192
0.672633 0.441901 0.578088
0.823545 0.432837 0.610773
0.322728 0.366979 0.481392
0.328862 0.368597 0.486030
0.352483 0.369635 0.499001
0.408118 0.367620 0.521935
0.502647 0.372107 0.545830
0.587274 0.405798 0.555688
0.675441 0.448615 0.580102
0.825162 0.437263 0.610437
0.363012 0.410498 0.490242
0.366705 0.411810 0.493843
0.380713 0.411994 0.504967
0.421729 0.408545 0.525048
0.506859 0.410224 0.546349
0.586847 0.438819 0.556847
0.697322 0.459327 0.584894
0.829740 0.449592 0.605371
0.399084 0.453468 0.501518
0.403876 0.455482 0.503410
0.424628 0.465064 0.512627
0.452857 0.474434 0.534630
0.523308 0.476234 0.555962
0.602686 0.500053 0.571893
0.730739 0.483864 0.585046
0.854276 0.463874 0.591363
0.440711 0.508507 0.529229
0.445411 0.510613 0.531456
0.463478 0.518822 0.539696
0.497505 0.534783 0.555718
0.547997 0.556725 0.573938
0.665095 0.521202 0.539788
0.775723 0.499489 0.535515
0.888975 0.488624 0.544091
0.493294 0.595483 0.576440
0.496864 0.597101 0.577844
0.509636 0.602258 0.581750
0.534081 0.613001 0.587976
0.579614 0.625025 0.599908
0.636194 0.645167 0.654414
0.771389 0.667689 0.612207
0.897276 0.629908 0.554620
0.561822 0.703243 0.631434
0.562799 0.702998 0.630640
0.569482 0.704311 0.629114
0.591669 0.711330 0.631708
0.632959 0.722408 0.639002
0.704067 0.732998 0.686641
0.749325 0.750759 0.742763
0.871916 0.795804 0.724727
0.628809 0.814359 0.682063
0.631128 0.814725 0.682216
0.641871 0.816983 0.683497
0.668452 0.825315 0.690333
0.705409 0.834073 0.696803
0.774655 0.841764 0.738338
0.836149 0.852750 0.792782
0.872801 0.868620 0.848814
0.413336 0.456764 0.604150
0.418585 0.458045 0.607355
0.436133 0.457740 0.614679
0.476570 0.457649 0.630854
0.545281 0.452918 0.652796
0.639033 0.460304 0.670497
0.721279 0.500633 0.678859
0.806363 0.560052 0.705928
0.416876 0.461463 0.598932
0.420447 0.461463 0.600824
0.436652 0.461250 0.608789
0.474159 0.460639 0.624659
0.541833 0.456641 0.647761
0.635462 0.464515 0.666590
0.717647 0.504204 0.675898
0.803189 0.562402 0.703853
0.452705 0.500877 0.608698
0.455268 0.500694 0.610407
0.466499 0.499947 0.617487
0.493019 0.495552 0.629206
0.552148 0.490822 0.650660
0.641077 0.497322 0.669062
0.720546 0.534478 0.679713
0.805692 0.586908 0.709010
0.498268 0.547082 0.612848
0.500206 0.547662 0.614435
0.511223 0.552209 0.623285
0.533532 0.556847 0.641016
0.578302 0.554131 0.661921
0.657038 0.557671 0.678920
0.731502 0.588647 0.691493
0.824033 0.624048 0.722072
0.526879 0.585809 0.624781
0.530205 0.587152 0.626001
0.544396 0.593103 0.631403
0.571405 0.605219 0.642573
0.600122 0.613825 0.662745
0.664302 0.615473 0.680323
0.735988 0.640711 0.697749
0.860594 0.631739 0.716060
0.567315 0.636072 0.647974
0.571466 0.638453 0.650233
0.582971 0.643030 0.654902
0.605035 0.652186 0.664057
0.637293 0.666407 0.678248
0.688228 0.690608 0.698512
0.801694 0.663325 0.673793
0.910399 0.649134 0.675135
0.633204 0.729915 0.705379
0.635981 0.731563 0.706844
0.643763 0.735256 0.709621
0.659358 0.742763 0.714870
0.682948 0.753902 0.720333
0.726680 0.765621 0.729976
0.782712 0.785000 0.784298
0.902861 0.804379 0.745846
0.697261 0.834195 0.761074
0.697780 0.834165 0.760555
0.702602 0.835996 0.760464
0.711116 0.840146 0.758846
0.729702 0.846342 0.756924
0.773007 0.857969 0.764157
0.848875 0.870054 0.818601
0.889738 0.886748 0.873381
0.531762 0.568566 0.715145
0.534966 0.569268 0.716854
0.546777 0.569574 0.722225
0.572473 0.570275 0.733272
0.615473 0.568658 0.748745
0.681514 0.563836 0.768734
0.764157 0.575006 0.782376
0.836362 0.610864 0.789120
0.536553 0.574334 0.714290
0.539727 0.575006 0.716091
0.550683 0.575097 0.721401
0.574304 0.574792 0.731746
0.615900 0.572930 0.747189
0.680598 0.567376 0.766781
0.762142 0.577691 0.780209
0.833921 0.612604 0.787015
0.560937 0.601404 0.718257
0.562799 0.601373 0.719539
0.571008 0.600916 0.724300
0.590448 0.599908 0.734127
0.626703 0.597162 0.748806
0.686946 0.591821 0.768276
0.766659 0.601007 0.782681
0.838193 0.634913 0.791348
0.595758 0.639734 0.722347
0.597009 0.639643 0.723232
0.604456 0.641138 0.728695
0.618708 0.641199 0.738796
0.646784 0.638788 0.753109
0.699458 0.633936 0.772488
0.774990 0.640253 0.787259
0.844724 0.671046 0.797726
0.629633 0.676478 0.726711
0.631464 0.676967 0.727169
0.640589 0.680323 0.730098
0.652918 0.685176 0.740169
0.672114 0.687068 0.756344
0.712398 0.682765 0.775570
0.783505 0.686030 0.791287
0.854276 0.716457 0.806485
0.657801 0.715816 0.742763
0.659876 0.716701 0.743587
0.668238 0.719875 0.746731
0.684352 0.726223 0.753017
0.709224 0.736202 0.763027
0.737301 0.744442 0.783169
0.799496 0.746639 0.801419
0.867796 0.773312 0.820066
0.695338 0.763882 0.766079
0.697383 0.764828 0.766995
0.704768 0.767666 0.769894
0.719661 0.773709 0.776028
0.742672 0.783169 0.785763
0.774868 0.797360 0.800229
0.822263 0.819669 0.819516
0.923888 0.800320 0.804044
0.763668 0.853574 0.825223
0.764889 0.854246 0.825772
0.770565 0.857359 0.828367
0.780850 0.862730 0.832517
0.796567 0.870909 0.838102
0.818723 0.882292 0.843565
0.859342 0.894194 0.850919
0.914580 0.913024 0.906950
0.683864 0.710140 0.838743
0.685634 0.710384 0.839719
0.691859 0.709834 0.842741
0.706355 0.709804 0.849607
0.731044 0.708675 0.859831
0.769253 0.705806 0.873167
0.825193 0.700649 0.889799
0.892088 0.712215 0.899840
0.686152 0.713191 0.838132
0.687861 0.713436 0.839139
0.694118 0.713130 0.842374
0.707973 0.712734 0.849058
0.732021 0.711543 0.859281
0.769802 0.708583 0.872679
0.825010 0.703090 0.889158
0.891691 0.714229 0.899229
0.698878 0.728603 0.839200
0.700160 0.728603 0.840024
0.705287 0.728054 0.843076
0.718288 0.728206 0.850370
0.739834 0.726406 0.860166
0.774716 0.722866 0.873228
0.828000 0.717311 0.889830
0.893797 0.727138 0.900298
0.719265 0.753384 0.840726
0.720760 0.753811 0.841764
0.725856 0.754391 0.845335
0.735531 0.753872 0.852079
0.753567 0.752377 0.862119
0.784665 0.749142 0.875456
0.834470 0.743618 0.892241
0.898955 0.751217 0.903532
0.745022 0.782620 0.841459
0.745968 0.782925 0.842435
0.748653 0.783139 0.845670
0.757900 0.785458 0.853422
0.771908 0.785611 0.864256
0.796963 0.782681 0.878050
0.842374 0.777737 0.895598
0.906218 0.783200 0.908293
0.770626 0.814817 0.851438
0.771572 0.814969 0.851682
0.776181 0.816190 0.853086
0.786313 0.819394 0.856687
0.798703 0.823301 0.865385
0.817655 0.826169 0.882628
0.854795 0.822995 0.901518
0.916594 0.825223 0.915373
0.797421 0.852293 0.868711
0.798428 0.852567 0.869047
0.802853 0.853910 0.870573
0.812222 0.857023 0.874022
0.827207 0.862150 0.879698
0.848936 0.869963 0.888396
0.873014 0.875944 0.906126
0.928527 0.876707 0.923430
0.828214 0.893126 0.888548
0.829129 0.893431 0.888853
0.833463 0.894957 0.890562
0.842710 0.898497 0.894316
0.857267 0.904112 0.900359
0.878172 0.912413 0.909239
0.907164 0.924743 0.922454
0.947723 0.944274 0.941314
