20 Preset/Gray style/【3】LUT video cho PR-AE-FCPX/Tone  (2).cube
# Created by Adobe Lightroom plugin Export LUT (1.24.0)
# www.johnrellis.com/lightroom/exportlut.htm
# Preset: 02素材江湖-高级灰
# Color profile: E:\lut插件\exportlut.1.24\exportlut.lrplugin\color profiles\Rec709gamma2.4.icc
LUT_3D_SIZE 8
DOMAIN_MIN 0.000000 0.000000 0.000000
DOMAIN_MAX 0.903226 0.903226 0.903226
0.000000 0.000000 0.000000
0.125154 0.035401 0.043946
0.266484 0.099580 0.109712
0.408453 0.124849 0.137270
0.544854 0.163851 0.179324
0.682673 0.214603 0.235111
0.846860 0.285100 0.311437
0.973053 0.356512 0.385870
0.067933 0.117525 0.087892
0.107546 0.114961 0.120943
0.262760 0.147127 0.109438
0.394415 0.163607 0.133700
0.526818 0.190829 0.175326
0.660822 0.230900 0.228336
0.817990 0.289158 0.297704
0.948516 0.352392 0.369329
0.156497 0.248966 0.173220
0.185519 0.248875 0.187259
0.231022 0.244816 0.254887
0.421973 0.283085 0.168185
0.546685 0.286198 0.182437
0.694209 0.318791 0.243748
0.856565 0.371069 0.321416
0.975982 0.420294 0.393500
0.253361 0.380377 0.275334
0.267124 0.380133 0.278325
0.322942 0.377264 0.318914
0.370611 0.386358 0.397345
0.614496 0.478614 0.349065
0.758114 0.453376 0.265934
0.877409 0.472724 0.335027
0.979858 0.498634 0.401312
0.350774 0.513512 0.369055
0.359747 0.515038 0.370123
0.410163 0.519402 0.399207
0.485817 0.531609 0.461738
0.536767 0.546960 0.546868
0.719112 0.614832 0.504997
0.865690 0.588861 0.393286
0.975372 0.582696 0.398108
0.453864 0.647242 0.460517
0.468238 0.656733 0.468482
0.504051 0.659083 0.484657
0.569818 0.662043 0.530694
0.636378 0.667659 0.595575
0.680293 0.683986 0.674556
0.818387 0.749294 0.669398
0.969787 0.745968 0.577386
0.566796 0.768887 0.560998
0.573602 0.771481 0.563714
0.593561 0.772030 0.568658
0.646204 0.772274 0.603052
0.704860 0.771817 0.649439
0.761227 0.779629 0.710933
0.796384 0.795163 0.778927
0.889494 0.845914 0.789456
0.689387 0.886717 0.670924
0.692256 0.886961 0.671260
0.706355 0.889403 0.674617
0.748043 0.892149 0.701320
0.778195 0.874723 0.718227
0.836118 0.881346 0.772183
0.882170 0.890715 0.829984
0.902495 0.898619 0.880705
0.087190 0.103822 0.141726
0.136416 0.102358 0.162875
0.263493 0.118044 0.180575
0.395300 0.146975 0.198062
0.525750 0.185122 0.227329
0.655787 0.226047 0.265843
0.804959 0.281224 0.321324
0.929931 0.340002 0.379583
0.114076 0.141909 0.155215
0.146273 0.157748 0.172946
0.270726 0.169589 0.182925
0.396368 0.183139 0.196719
0.523766 0.208713 0.224949
0.651942 0.243534 0.263706
0.792966 0.290623 0.314855
0.914519 0.341650 0.369116
0.184329 0.262058 0.227329
0.203342 0.266880 0.230045
0.249149 0.265507 0.282780
0.421973 0.277928 0.186831
0.536889 0.287999 0.221836
0.675715 0.317815 0.269871
0.810361 0.354101 0.322972
0.933989 0.398901 0.383032
0.259190 0.374701 0.296513
0.270573 0.376471 0.297765
0.323980 0.377417 0.330694
0.367193 0.383886 0.398383
0.573327 0.449958 0.345190
0.707759 0.425025 0.270603
0.824582 0.443030 0.324773
0.937377 0.471443 0.384649
0.356146 0.512291 0.384771
0.363561 0.512200 0.384375
0.406409 0.514000 0.404486
0.473274 0.518700 0.457496
0.515190 0.526909 0.530846
0.694942 0.593072 0.489326
0.839811 0.567590 0.381048
0.951324 0.565911 0.391669
0.447639 0.634821 0.462196
0.454658 0.636439 0.463447
0.487282 0.640345 0.476020
0.553735 0.645747 0.521172
0.622156 0.653956 0.585931
0.670344 0.674739 0.667140
0.808713 0.738949 0.659724
0.957122 0.732753 0.566613
0.553674 0.753750 0.553704
0.555322 0.751980 0.551904
0.572564 0.752621 0.553338
0.627314 0.754971 0.588952
0.691646 0.759609 0.639612
0.748562 0.767727 0.700496
0.780941 0.780423 0.765316
0.875456 0.830411 0.772580
0.675135 0.874479 0.660609
0.680995 0.876951 0.663722
0.694514 0.879026 0.666316
0.735439 0.882628 0.691127
0.789670 0.884306 0.731838
0.839994 0.884947 0.777615
0.880827 0.889525 0.829313
0.900969 0.897185 0.879576
0.169924 0.204410 0.293645
0.190707 0.205264 0.305730
0.293614 0.209720 0.339055
0.392126 0.264347 0.358190
0.546654 0.260380 0.372930
0.703853 0.268956 0.385107
0.835569 0.332250 0.424445
0.947753 0.398444 0.469795
0.206027 0.242863 0.300511
0.217868 0.244450 0.311009
0.296300 0.246128 0.339117
0.401556 0.275944 0.358648
0.544091 0.269230 0.363073
0.695583 0.290654 0.381781
0.821012 0.344640 0.417395
0.936187 0.396887 0.459052
0.256870 0.305821 0.329808
0.270481 0.312200 0.336706
0.317876 0.333898 0.358312
0.443580 0.323064 0.341375
0.571862 0.337469 0.356878
0.710384 0.364965 0.385962
0.830503 0.396246 0.419196
0.941833 0.437263 0.461585
0.315953 0.412116 0.388312
0.325505 0.415808 0.391028
0.366644 0.429145 0.402319
0.425635 0.443763 0.465797
0.609979 0.471412 0.398810
0.736324 0.458350 0.379889
0.846830 0.477058 0.419074
0.950805 0.505119 0.464576
0.400671 0.540520 0.456550
0.407233 0.541955 0.457191
0.437659 0.549798 0.461280
0.511284 0.557824 0.508934
0.558618 0.570153 0.578576
0.725765 0.619287 0.529412
0.854490 0.567712 0.406470
0.957031 0.586084 0.461128
0.480140 0.648585 0.515831
0.486671 0.650813 0.517632
0.509483 0.655146 0.520500
0.569543 0.659388 0.554253
0.635676 0.666896 0.610651
0.683436 0.688258 0.684565
0.819883 0.748257 0.673304
0.958984 0.737789 0.592187
0.583398 0.766079 0.598169
0.585046 0.764767 0.596704
0.597345 0.763790 0.594965
0.639826 0.765408 0.614679
0.701900 0.768795 0.659815
0.760189 0.778988 0.718410
0.797177 0.796719 0.783871
0.893065 0.846799 0.789914
0.689052 0.878019 0.685542
0.690333 0.877226 0.684474
0.702602 0.879026 0.686580
0.739101 0.886900 0.704402
0.793362 0.888457 0.743130
0.846860 0.891691 0.790036
0.888640 0.897337 0.840818
0.908537 0.905028 0.888975
0.266087 0.308202 0.426123
0.279973 0.312261 0.435431
0.332586 0.315129 0.458198
0.441627 0.323125 0.488838
0.551110 0.375769 0.512047
0.692622 0.401556 0.543664
0.820645 0.408759 0.550469
0.934569 0.432166 0.562310
0.297612 0.340948 0.438331
0.305760 0.341955 0.443977
0.346563 0.341405 0.464088
0.448249 0.345983 0.493721
0.558404 0.395605 0.519249
0.700008 0.409766 0.544396
0.820615 0.415869 0.547936
0.934295 0.437140 0.558953
0.345342 0.391882 0.445136
0.354406 0.395941 0.448951
0.377173 0.402808 0.469795
0.463081 0.410529 0.502556
0.574914 0.450660 0.533501
0.725429 0.451484 0.547204
0.851255 0.465736 0.556573
0.949676 0.500023 0.577111
0.406317 0.469856 0.492775
0.413184 0.472297 0.495369
0.443854 0.486336 0.509758
0.502953 0.514366 0.534722
0.631495 0.500267 0.513573
0.739712 0.507439 0.522454
0.844633 0.525994 0.542168
0.945312 0.555291 0.572137
0.481483 0.587640 0.559960
0.485786 0.588586 0.560479
0.507408 0.596124 0.565332
0.559960 0.611810 0.581720
0.615564 0.626795 0.640558
0.755245 0.640436 0.582269
0.866728 0.609400 0.536706
0.959045 0.627497 0.572137
0.553491 0.685328 0.609064
0.564385 0.692714 0.615747
0.577813 0.694392 0.615564
0.612390 0.702571 0.621332
0.679530 0.709651 0.667720
0.720394 0.725124 0.725948
0.848295 0.769833 0.701778
0.967987 0.739193 0.620661
0.626307 0.782071 0.660761
0.630335 0.783536 0.661982
0.644221 0.786648 0.664210
0.671901 0.792874 0.668727
0.730648 0.796811 0.703914
0.786099 0.804532 0.753780
0.819394 0.819211 0.810086
0.914366 0.863859 0.807279
0.722194 0.891691 0.735439
0.724331 0.891844 0.735500
0.734310 0.893248 0.736629
0.756527 0.897642 0.741085
0.802274 0.899962 0.765805
0.856199 0.902373 0.808927
0.899413 0.908568 0.857572
0.921263 0.918212 0.904845
0.375006 0.418738 0.558282
0.386297 0.423407 0.566613
0.422309 0.429816 0.586389
0.500023 0.436164 0.620142
0.613916 0.446937 0.647639
0.702907 0.490608 0.652857
0.779782 0.546929 0.672511
0.913848 0.556054 0.694453
0.401221 0.445838 0.572168
0.411536 0.450568 0.580621
0.441901 0.454383 0.597772
0.507866 0.453315 0.623590
0.616266 0.460731 0.648615
0.703487 0.502647 0.654261
0.781247 0.554528 0.674281
0.914092 0.561151 0.693965
0.455329 0.503563 0.588159
0.460517 0.505547 0.592493
0.476204 0.505028 0.603784
0.521843 0.499733 0.623590
0.614740 0.500938 0.643397
0.692897 0.534386 0.648890
0.792538 0.565423 0.672267
0.910521 0.571771 0.684413
0.497658 0.552392 0.598047
0.503227 0.554528 0.599878
0.527520 0.565515 0.609583
0.559472 0.576165 0.632319
0.631861 0.578149 0.652613
0.706630 0.603784 0.665949
0.822904 0.601923 0.674434
0.927245 0.603784 0.677455
0.547051 0.612024 0.626032
0.552392 0.614527 0.628504
0.571527 0.622431 0.636469
0.606012 0.637598 0.651667
0.653315 0.657710 0.668421
0.750576 0.641779 0.647120
0.844236 0.646082 0.653315
0.938048 0.660121 0.668513
0.595239 0.687678 0.663661
0.598657 0.689357 0.665034
0.609400 0.692805 0.667567
0.633997 0.704219 0.674922
0.675013 0.713405 0.684962
0.735439 0.741115 0.747524
0.858579 0.763699 0.711574
0.962676 0.737758 0.670588
0.668971 0.791714 0.721035
0.668421 0.790494 0.719203
0.671839 0.789700 0.715816
0.692500 0.796750 0.719203
0.729702 0.806851 0.726741
0.793668 0.815030 0.773159
0.829404 0.830014 0.825437
0.928161 0.864927 0.806149
0.728420 0.884733 0.765652
0.729885 0.884703 0.765377
0.737728 0.885740 0.765621
0.764431 0.895689 0.775631
0.795346 0.902861 0.781674
0.853513 0.906767 0.819181
0.901610 0.912749 0.866361
0.924590 0.922148 0.911681
0.529839 0.566094 0.708248
0.537255 0.569299 0.712764
0.552026 0.566979 0.717494
0.591455 0.567529 0.732448
0.655726 0.561639 0.750729
0.745052 0.569787 0.764462
0.821256 0.610315 0.769650
0.892454 0.666590 0.790707
0.522240 0.560449 0.693446
0.525475 0.560143 0.694942
0.540856 0.559411 0.701717
0.577813 0.559411 0.716579
0.643824 0.556542 0.738125
0.735103 0.567041 0.755001
0.812284 0.607660 0.761898
0.885222 0.663172 0.784451
0.569848 0.609857 0.708064
0.571405 0.608972 0.708919
0.581140 0.607355 0.714778
0.600366 0.597833 0.721096
0.655268 0.592920 0.740261
0.740169 0.600519 0.756832
0.814389 0.637201 0.765621
0.886381 0.686213 0.789517
0.615015 0.655451 0.711391
0.615656 0.654932 0.711818
0.625513 0.658656 0.719570
0.649805 0.666346 0.738766
0.690944 0.664179 0.758236
0.761929 0.666316 0.772152
0.828061 0.694942 0.781735
0.903349 0.727474 0.805203
0.632441 0.682948 0.713893
0.635218 0.683925 0.714687
0.648341 0.689357 0.719539
0.674342 0.701411 0.730495
0.700313 0.708858 0.748531
0.757504 0.709194 0.763424
0.820371 0.731991 0.777951
0.924926 0.732784 0.790188
0.665888 0.725429 0.730953
0.671687 0.729335 0.734676
0.681666 0.732845 0.738369
0.701076 0.740505 0.746151
0.729152 0.752132 0.758022
0.777554 0.776822 0.779538
0.868162 0.772000 0.770321
0.952575 0.780209 0.780301
0.732845 0.813931 0.787594
0.736416 0.816312 0.789853
0.742824 0.819089 0.791958
0.755825 0.824887 0.796078
0.775418 0.833738 0.800381
0.812436 0.843046 0.808957
0.858793 0.859831 0.859434
0.957122 0.874998 0.825559
0.785641 0.898283 0.832883
0.785000 0.897429 0.831601
0.787991 0.898131 0.830625
0.795834 0.902251 0.830045
0.811002 0.907317 0.828367
0.847013 0.916869 0.834928
0.909270 0.924407 0.883513
0.936187 0.934508 0.927733
0.633265 0.662226 0.793271
0.634333 0.661006 0.793332
0.645319 0.661952 0.798520
0.667964 0.662379 0.808225
0.706050 0.660853 0.821714
0.765988 0.657557 0.839811
0.841978 0.670283 0.852445
0.907805 0.705257 0.858701
0.646265 0.675257 0.798886
0.646601 0.673701 0.798581
0.656458 0.674006 0.803525
0.677760 0.674250 0.813077
0.715358 0.673640 0.827298
0.774746 0.671534 0.846220
0.850248 0.684810 0.859586
0.915709 0.719997 0.866728
0.663600 0.695583 0.797757
0.665278 0.695552 0.798856
0.674159 0.696651 0.804440
0.692317 0.696864 0.814084
0.726406 0.696895 0.828885
0.780423 0.693690 0.846860
0.849943 0.701320 0.857786
0.911376 0.731136 0.863310
0.691554 0.727047 0.797726
0.692622 0.726955 0.798520
0.701747 0.730587 0.805234
0.714351 0.730770 0.814237
0.740597 0.730343 0.828367
0.786069 0.725765 0.844938
0.850797 0.729976 0.855955
0.911833 0.758694 0.864836
0.728023 0.765682 0.806088
0.731563 0.767819 0.807980
0.741634 0.772763 0.812253
0.752529 0.777005 0.821012
0.769680 0.779355 0.835599
0.804410 0.776242 0.852720
0.864317 0.778378 0.865263
0.919677 0.800168 0.873472
0.756924 0.803738 0.823087
0.758419 0.804196 0.823545
0.765347 0.806729 0.826017
0.778531 0.811460 0.830808
0.799222 0.819547 0.838956
0.819913 0.823636 0.853544
0.870756 0.823697 0.867613
0.928557 0.847837 0.884245
0.784512 0.840604 0.838926
0.785214 0.840482 0.838865
0.791714 0.843076 0.841581
0.804227 0.847898 0.846647
0.824765 0.856840 0.855924
0.852720 0.869627 0.869200
0.891844 0.888396 0.886168
0.965545 0.886992 0.882353
0.845182 0.916899 0.891142
0.845701 0.917052 0.891203
0.846311 0.916289 0.889982
0.853880 0.919799 0.892668
0.867979 0.927123 0.898283
0.886778 0.936584 0.903532
0.919036 0.945495 0.909880
0.957733 0.956939 0.954253
0.794095 0.812222 0.915587
0.794614 0.811582 0.915740
0.801450 0.813046 0.919585
0.812100 0.812284 0.924498
0.831449 0.811398 0.932525
0.862181 0.809995 0.943450
0.905791 0.805570 0.955718
0.959930 0.816800 0.963409
0.801053 0.819486 0.918608
0.801419 0.818692 0.918669
0.806943 0.819181 0.921752
0.817594 0.818753 0.926970
0.836301 0.817807 0.934936
0.866239 0.816312 0.945708
0.909606 0.812772 0.958404
0.963256 0.824369 0.966430
0.813626 0.834012 0.920562
0.814359 0.833829 0.921050
0.819547 0.834531 0.924376
0.826444 0.831693 0.927794
0.844297 0.831571 0.936400
0.873045 0.830930 0.947845
0.913939 0.826963 0.960174
0.965820 0.836790 0.968139
0.831571 0.855406 0.922393
0.832212 0.855253 0.922789
0.836851 0.856321 0.926055
0.843320 0.855161 0.930632
0.856992 0.853941 0.938354
0.881224 0.852171 0.949004
0.918608 0.847654 0.961120
0.968231 0.854887 0.969268
0.854215 0.880735 0.924376
0.854276 0.880369 0.924590
0.857542 0.881559 0.927916
0.864652 0.883391 0.933776
0.876036 0.884306 0.942535
0.895201 0.882902 0.953338
0.927764 0.878538 0.965393
0.974090 0.882414 0.973388
0.876158 0.907439 0.933257
0.877897 0.908446 0.934173
0.883513 0.911223 0.936858
0.892058 0.914458 0.940185
0.900206 0.916442 0.945678
0.910246 0.914977 0.955077
0.933349 0.909056 0.965759
0.977874 0.911192 0.975189
0.895171 0.934081 0.944579
0.896391 0.934630 0.945159
0.901061 0.936797 0.947326
0.908721 0.939605 0.950347
0.920531 0.943969 0.954986
0.935973 0.949432 0.960937
0.951873 0.952972 0.972229
0.987823 0.953887 0.983215
0.920256 0.964446 0.959869
0.921508 0.965057 0.960510
0.924926 0.966278 0.961883
0.930022 0.967407 0.963287
0.939483 0.970306 0.966674
0.953948 0.975555 0.972595
0.972869 0.982971 0.980987
0.995056 0.993286 0.991638
