20 Preset/Gray style/【3】LUT video cho PR-AE-FCPX/Tone  (5).cube
# Created by Adobe Lightroom plugin Export LUT (1.24.0)
# www.johnrellis.com/lightroom/exportlut.htm
# Preset: 05素材江湖-高级灰
# Color profile: E:\lut插件\exportlut.1.24\exportlut.lrplugin\color profiles\Rec709gamma2.4.icc
LUT_3D_SIZE 32
DOMAIN_MIN 0.0 0.0 0.0
DOMAIN_MAX 1.0 1.0 1.0
0.000000 0.000000 0.000000
0.000000 0.000000 0.000000
0.014893 0.000000 0.000916
0.047883 0.001160 0.004547
0.090852 0.006989 0.017365
0.113283 0.014160 0.033082
0.136599 0.019440 0.048524
0.160433 0.022553 0.062531
0.186343 0.017365 0.074556
0.212528 0.012299 0.082216
0.240177 0.000000 0.088289
0.268345 0.000000 0.091768
0.297093 0.000000 0.095125
0.326238 0.000000 0.097230
0.355474 0.000000 0.100008
0.384619 0.000000 0.102296
0.414343 0.000000 0.106050
0.444312 0.000000 0.111421
0.475227 0.000000 0.118105
0.507225 0.000000 0.125154
0.540368 0.000000 0.132692
0.573907 0.000000 0.140414
0.620508 0.000000 0.151553
0.674220 0.000000 0.163882
0.723415 0.000000 0.175845
0.768978 0.000000 0.187716
0.812589 0.000000 0.199527
0.855039 0.000000 0.211643
0.896117 0.000000 0.224521
0.936797 0.000000 0.239353
0.977386 0.000000 0.255955
1.000000 0.000000 0.275303
0.000000 0.001190 0.000000
0.000977 0.000977 0.000977
0.015137 0.001587 0.001740
0.047150 0.004547 0.006348
0.090669 0.010376 0.018067
0.112337 0.016815 0.032776
0.134554 0.022736 0.049378
0.158358 0.025086 0.061311
0.183047 0.023438 0.074189
0.209049 0.016846 0.081483
0.235996 0.005890 0.088228
0.263767 0.000000 0.091432
0.292058 0.000000 0.094789
0.320989 0.000000 0.096956
0.349950 0.000000 0.099397
0.378882 0.000000 0.102480
0.408545 0.000000 0.105898
0.438544 0.000000 0.110445
0.469001 0.000000 0.116945
0.500633 0.000000 0.123690
0.533074 0.000000 0.131228
0.565881 0.000000 0.138796
0.610193 0.000000 0.149264
0.660395 0.000000 0.160861
0.707393 0.000000 0.172061
0.751125 0.000000 0.182864
0.793790 0.000000 0.194125
0.836484 0.000000 0.205753
0.878691 0.000000 0.218418
0.920439 0.000000 0.232242
0.962310 0.000000 0.248875
1.000000 0.000000 0.267552
0.000092 0.014527 0.000275
0.003052 0.015259 0.001251
0.019776 0.017853 0.001709
0.050172 0.022004 0.009583
0.090333 0.028260 0.021271
0.112154 0.034699 0.034882
0.134249 0.039643 0.049348
0.157168 0.041474 0.062593
0.181827 0.040040 0.074372
0.207401 0.032929 0.082399
0.233768 0.025269 0.087129
0.260990 0.010620 0.091066
0.289036 0.000000 0.093996
0.317479 0.000000 0.096620
0.346136 0.000000 0.099489
0.375097 0.000000 0.101839
0.404547 0.000000 0.104891
0.434424 0.000000 0.109651
0.464881 0.000000 0.115846
0.496559 0.000000 0.122713
0.528954 0.000000 0.130312
0.561639 0.000000 0.138216
0.605859 0.000000 0.148165
0.654139 0.000000 0.159304
0.699550 0.000000 0.169802
0.742000 0.000000 0.180240
0.784115 0.000000 0.190921
0.826535 0.000000 0.202396
0.869230 0.000000 0.214908
0.911589 0.000000 0.228855
0.953857 0.000000 0.244907
0.996002 0.000000 0.263279
0.007416 0.050385 0.006561
0.011414 0.049928 0.006531
0.025544 0.052735 0.009247
0.060853 0.057404 0.018097
0.092744 0.061952 0.028992
0.113466 0.066438 0.039490
0.135378 0.071382 0.052857
0.158114 0.073213 0.064942
0.182071 0.072236 0.075593
0.207034 0.067994 0.081575
0.233097 0.059571 0.087831
0.259953 0.047761 0.090944
0.287419 0.031098 0.093904
0.315129 0.009613 0.096132
0.343175 0.000000 0.098543
0.371344 0.000000 0.101381
0.399939 0.000000 0.104585
0.428962 0.000000 0.108309
0.458625 0.000000 0.114443
0.489418 0.000000 0.121248
0.521141 0.000000 0.128359
0.553368 0.000000 0.136294
0.597314 0.000000 0.146151
0.642939 0.000000 0.156527
0.688228 0.000000 0.167300
0.732113 0.000000 0.177768
0.775967 0.000000 0.188937
0.820279 0.000000 0.200565
0.864439 0.000000 0.213352
0.907469 0.000000 0.227420
0.949310 0.000000 0.242710
0.990234 0.000000 0.260288
0.018067 0.089052 0.016938
0.020722 0.089326 0.019043
0.036561 0.090303 0.022889
0.066224 0.092287 0.030610
0.096773 0.095216 0.044282
0.117250 0.097444 0.054475
0.136110 0.098116 0.059419
0.157778 0.098207 0.067292
0.181308 0.098024 0.076844
0.205600 0.097230 0.082277
0.230625 0.095216 0.087739
0.256931 0.091798 0.090852
0.283879 0.084871 0.093843
0.311711 0.071321 0.096315
0.339483 0.049042 0.098634
0.367987 0.021393 0.101015
0.396857 0.000000 0.103792
0.426154 0.000000 0.107881
0.456123 0.000000 0.113802
0.486763 0.000000 0.120516
0.518303 0.000000 0.128176
0.551293 0.000000 0.135714
0.595392 0.000000 0.145418
0.639704 0.000000 0.155581
0.684352 0.000000 0.165957
0.728206 0.000000 0.176425
0.771695 0.000000 0.187259
0.815610 0.000000 0.199008
0.859464 0.000000 0.211429
0.902037 0.000000 0.224918
0.943664 0.000000 0.240421
0.984283 0.000000 0.257206
0.029450 0.110109 0.031678
0.033692 0.110597 0.032502
0.047578 0.110750 0.034394
0.077516 0.112886 0.042939
0.100038 0.116060 0.053895
0.122713 0.120516 0.070283
0.145510 0.123018 0.079530
0.164096 0.122316 0.079927
0.183230 0.120455 0.078309
0.207401 0.119783 0.084657
0.232425 0.118776 0.088685
0.258366 0.116945 0.091646
0.285405 0.113985 0.093568
0.312779 0.109163 0.096407
0.340642 0.103365 0.098573
0.369024 0.094606 0.100557
0.398047 0.081819 0.103548
0.427649 0.050721 0.107820
0.457557 0.023194 0.113771
0.488167 0.000000 0.120821
0.519860 0.000000 0.127718
0.556878 0.000000 0.136446
0.664729 0.000000 0.161105
0.719203 0.000000 0.174929
0.768917 0.000000 0.187716
0.815305 0.000000 0.200473
0.858488 0.000000 0.213596
0.898222 0.000000 0.226749
0.935912 0.000000 0.240909
0.972229 0.000000 0.256046
1.000000 0.000000 0.272526
1.000000 0.000000 0.290349
0.050050 0.139620 0.046082
0.051026 0.139803 0.047059
0.067750 0.140322 0.047517
0.091615 0.142397 0.054444
0.110567 0.145632 0.064576
0.134188 0.150240 0.081239
0.160067 0.156527 0.094911
0.186618 0.160128 0.101137
0.205692 0.156710 0.097322
0.225254 0.152499 0.092103
0.247868 0.150027 0.090272
0.274846 0.148531 0.092561
0.302159 0.145907 0.094697
0.329656 0.142519 0.096193
0.357244 0.138216 0.097871
0.384955 0.132296 0.100526
0.413550 0.125490 0.104158
0.442695 0.117891 0.110109
0.472938 0.110597 0.116548
0.504814 0.100984 0.123751
0.538628 0.088350 0.131655
0.589471 0.053437 0.143374
0.643549 0.001373 0.155703
0.698604 0.000000 0.169345
0.750759 0.000000 0.182315
0.798795 0.000000 0.195773
0.842771 0.000000 0.208133
0.882719 0.000000 0.220920
0.920470 0.000000 0.234073
0.956481 0.000000 0.248600
0.991730 0.000000 0.264012
1.000000 0.000000 0.281315
0.066407 0.163088 0.057618
0.072358 0.162966 0.057588
0.082307 0.163485 0.059205
0.097169 0.165194 0.063874
0.115572 0.168490 0.075654
0.137606 0.172793 0.087861
0.162997 0.178347 0.097292
0.191257 0.185794 0.111269
0.219394 0.191379 0.120546
0.238804 0.186984 0.113649
0.257939 0.181216 0.105013
0.276402 0.174929 0.094026
0.302220 0.172854 0.094270
0.328862 0.170443 0.095369
0.356176 0.166873 0.097566
0.383337 0.162997 0.099825
0.411414 0.158663 0.102998
0.439857 0.154543 0.108278
0.469978 0.149660 0.115480
0.501335 0.144289 0.122469
0.541344 0.139712 0.131807
0.589227 0.134737 0.142733
0.639521 0.126284 0.154330
0.691188 0.115053 0.166598
0.741085 0.096773 0.179416
0.787503 0.044465 0.192050
0.830869 0.000000 0.203983
0.870756 0.000000 0.216251
0.908812 0.000000 0.229160
0.945159 0.000000 0.243381
0.980743 0.000000 0.258549
1.000000 0.000000 0.275059
0.085878 0.187716 0.070741
0.087892 0.187808 0.070558
0.093294 0.187900 0.070192
0.104829 0.189303 0.073732
0.121828 0.192325 0.082551
0.142672 0.196201 0.091310
0.166690 0.201572 0.100832
0.193912 0.208469 0.113771
0.223880 0.217105 0.130312
0.253056 0.223697 0.144564
0.274083 0.219669 0.133211
0.293187 0.213138 0.121370
0.311101 0.205020 0.105592
0.331304 0.198337 0.094240
0.357885 0.195743 0.096010
0.384558 0.192721 0.098695
0.412146 0.189609 0.101869
0.440589 0.186862 0.107759
0.470253 0.183291 0.114717
0.504570 0.182040 0.122408
0.547326 0.181277 0.132021
0.592004 0.179232 0.142794
0.639521 0.176455 0.153689
0.688533 0.171969 0.165377
0.736233 0.165103 0.177615
0.781125 0.155856 0.189151
0.823636 0.143130 0.201114
0.863401 0.127749 0.213230
0.901335 0.110140 0.225864
0.937621 0.090394 0.239689
0.973083 0.052613 0.254520
1.000000 0.017426 0.271153
0.096193 0.213107 0.078981
0.096895 0.213077 0.078950
0.101900 0.213016 0.078828
0.111635 0.213962 0.080507
0.128084 0.216373 0.087068
0.147646 0.219791 0.093935
0.170535 0.224521 0.103426
0.196597 0.230747 0.115877
0.225101 0.238712 0.131441
0.256260 0.248508 0.150729
0.285405 0.255650 0.170474
0.308568 0.252384 0.155795
0.327214 0.244755 0.140078
0.345312 0.235966 0.121584
0.361547 0.225406 0.100801
0.385931 0.221378 0.096071
0.414191 0.219669 0.100435
0.443030 0.217868 0.106142
0.475776 0.217502 0.114137
0.514672 0.218509 0.123262
0.554650 0.218875 0.132540
0.595483 0.218021 0.142641
0.638270 0.217075 0.152316
0.682185 0.214359 0.163088
0.725368 0.210758 0.173342
0.767208 0.205264 0.184268
0.808591 0.198764 0.195254
0.848814 0.190005 0.207309
0.887724 0.182162 0.219730
0.925597 0.173678 0.233707
0.962524 0.166567 0.248875
0.998810 0.161532 0.265934
0.104005 0.236393 0.083803
0.105440 0.236576 0.082887
0.109590 0.236759 0.081849
0.117983 0.237186 0.081117
0.133211 0.239902 0.088258
0.152468 0.243351 0.095613
0.174746 0.248081 0.105013
0.200229 0.254398 0.117189
0.228122 0.262150 0.132265
0.259129 0.271580 0.150942
0.292271 0.282628 0.172854
0.322240 0.291264 0.199588
0.347692 0.288609 0.180240
0.366186 0.280186 0.162478
0.383856 0.270237 0.142336
0.399908 0.259068 0.119142
0.417182 0.249058 0.099001
0.449928 0.250462 0.105959
0.485512 0.252049 0.115114
0.521874 0.253300 0.123140
0.559380 0.253788 0.132357
0.598016 0.253971 0.141817
0.639094 0.254002 0.150912
0.681117 0.253056 0.161196
0.722805 0.251133 0.171481
0.763546 0.248173 0.181979
0.804074 0.244114 0.192691
0.843778 0.239139 0.204410
0.882536 0.233677 0.216983
0.920378 0.228489 0.231144
0.957458 0.224521 0.246036
0.993713 0.221897 0.263035
0.112886 0.262577 0.083619
0.113680 0.262638 0.084199
0.118044 0.262791 0.082460
0.124910 0.263371 0.080842
0.139498 0.265537 0.087007
0.157870 0.269169 0.094820
0.180331 0.274205 0.104128
0.205417 0.280278 0.116701
0.233280 0.287999 0.132479
0.264378 0.297398 0.150881
0.297459 0.308476 0.172732
0.332952 0.321233 0.197757
0.394598 0.357916 0.248600
0.423682 0.355474 0.224949
0.440894 0.343542 0.203830
0.461280 0.333379 0.182406
0.486305 0.325353 0.159670
0.507683 0.314885 0.132143
0.538293 0.311131 0.124178
0.577874 0.313298 0.134157
0.618341 0.314855 0.143679
0.659022 0.315496 0.154238
0.699397 0.315160 0.164492
0.739467 0.314092 0.175265
0.778561 0.311894 0.186313
0.816251 0.308385 0.197238
0.851438 0.303838 0.208438
0.884825 0.299016 0.219760
0.917418 0.293919 0.231907
0.949950 0.289372 0.245365
0.982238 0.285832 0.260349
1.000000 0.284459 0.277348
0.124300 0.300511 0.081941
0.125429 0.300389 0.082002
0.129610 0.300175 0.078523
0.136904 0.299840 0.075380
0.148959 0.300938 0.080018
0.168856 0.303929 0.091493
0.190280 0.308263 0.102541
0.215854 0.314244 0.116945
0.244755 0.321996 0.133730
0.276280 0.332006 0.153536
0.311742 0.344701 0.176333
0.350652 0.359747 0.203281
0.392859 0.377417 0.232456
0.437812 0.398322 0.277287
0.481239 0.407050 0.259312
0.507134 0.401068 0.241581
0.529595 0.390509 0.219211
0.548363 0.377630 0.194125
0.564080 0.362097 0.165042
0.576684 0.345159 0.131289
0.613672 0.345892 0.140108
0.651637 0.346349 0.149874
0.689723 0.346197 0.160098
0.728054 0.345556 0.170321
0.765988 0.344060 0.180819
0.803433 0.341833 0.191348
0.839139 0.338811 0.202090
0.873472 0.335149 0.213962
0.907225 0.331365 0.226474
0.940826 0.327947 0.240269
0.973999 0.325566 0.255497
1.000000 0.324041 0.272862
0.132906 0.325811 0.078584
0.133455 0.325566 0.078157
0.137270 0.325170 0.074159
0.144045 0.324865 0.070771
0.154726 0.325109 0.068025
0.173526 0.327947 0.085573
0.194491 0.331975 0.098878
0.219242 0.337743 0.113375
0.246738 0.345525 0.130159
0.278294 0.355291 0.150301
0.312596 0.367559 0.173281
0.355718 0.387304 0.200961
0.404456 0.410986 0.232914
0.458137 0.437934 0.267582
0.510246 0.463142 0.316503
0.553948 0.470558 0.298741
0.574212 0.458869 0.277256
0.590906 0.443336 0.252567
0.605219 0.426459 0.226383
0.617212 0.407691 0.196292
0.627558 0.388861 0.164157
0.648127 0.377844 0.146059
0.684840 0.377935 0.155825
0.722286 0.377813 0.165835
0.759731 0.377111 0.176272
0.796750 0.375525 0.186984
0.832303 0.373419 0.197696
0.866728 0.370489 0.209598
0.900664 0.367620 0.222354
0.934508 0.365179 0.236393
0.968170 0.363104 0.251926
1.000000 0.362463 0.269627
0.141878 0.352605 0.075013
0.142855 0.352514 0.074006
0.145937 0.352117 0.073579
0.152468 0.351568 0.067384
0.161532 0.351141 0.056153
0.178744 0.353521 0.079164
0.200229 0.358404 0.095399
0.225895 0.365850 0.111360
0.255100 0.375647 0.130037
0.287846 0.388098 0.151308
0.325048 0.403571 0.175265
0.367559 0.422858 0.202396
0.415198 0.445380 0.232914
0.467353 0.470710 0.265476
0.524315 0.498390 0.300877
0.576196 0.521721 0.350530
0.619379 0.528252 0.335058
0.634516 0.511711 0.311376
0.647974 0.493568 0.285496
0.659144 0.473518 0.257481
0.669398 0.453376 0.227970
0.678767 0.433112 0.195926
0.687221 0.413123 0.160525
0.718471 0.409583 0.161685
0.755001 0.409125 0.171878
0.791653 0.408270 0.182650
0.827451 0.406928 0.193790
0.862791 0.405097 0.206180
0.897948 0.403540 0.219608
0.933288 0.402441 0.235172
0.968627 0.402045 0.252567
1.000000 0.402869 0.271916
0.156222 0.387640 0.079683
0.156863 0.387793 0.080110
0.159854 0.387732 0.079255
0.166201 0.387915 0.071901
0.175875 0.388251 0.063020
0.191989 0.391302 0.077089
0.213352 0.397070 0.096315
0.239353 0.404883 0.113741
0.268711 0.414923 0.132570
0.301701 0.427222 0.153841
0.338293 0.441962 0.177707
0.379461 0.459510 0.203372
0.424445 0.479377 0.231479
0.473304 0.501335 0.261662
0.526329 0.525383 0.294163
0.580896 0.549828 0.329107
0.628931 0.569268 0.379034
0.671717 0.576257 0.368750
0.685542 0.558129 0.343206
0.697353 0.538476 0.316899
0.708858 0.518578 0.289342
0.720058 0.498421 0.260105
0.730190 0.478248 0.228916
0.739284 0.457618 0.194369
0.754635 0.442390 0.168215
0.791562 0.442603 0.179141
0.827756 0.441871 0.191318
0.863218 0.440955 0.204562
0.898222 0.439826 0.218692
0.932860 0.439094 0.234134
0.967224 0.438392 0.251621
1.000000 0.438972 0.270787
0.169863 0.422339 0.086641
0.170779 0.422309 0.086610
0.173892 0.422278 0.083650
0.179416 0.422431 0.080751
0.188785 0.422705 0.071168
0.201938 0.424475 0.073762
0.223819 0.430243 0.095583
0.249149 0.437751 0.112947
0.277226 0.447181 0.131899
0.309606 0.458991 0.152804
0.345525 0.472969 0.176211
0.385412 0.489601 0.200717
0.429084 0.508568 0.227604
0.476509 0.529534 0.256748
0.526879 0.551568 0.287785
0.579400 0.574273 0.321172
0.633143 0.597436 0.356725
0.679072 0.615045 0.408637
0.721035 0.622492 0.406104
0.736080 0.605035 0.378271
0.748257 0.585473 0.351781
0.760250 0.565606 0.324132
0.771633 0.545159 0.294926
0.782284 0.524559 0.263828
0.792050 0.503471 0.230137
0.801053 0.482979 0.193271
0.828214 0.476356 0.188510
0.863890 0.476081 0.202396
0.899107 0.475532 0.217716
0.933806 0.475349 0.234073
0.968261 0.475166 0.252628
1.000000 0.475959 0.272892
0.185153 0.458412 0.090211
0.186313 0.458808 0.090028
0.201266 0.487495 0.094514
0.207523 0.487587 0.091981
0.216434 0.487922 0.087984
0.228824 0.488258 0.076967
0.250950 0.494301 0.099336
0.277195 0.502220 0.118837
0.307256 0.512596 0.139132
0.341894 0.525719 0.161379
0.379797 0.540948 0.185183
0.421576 0.558007 0.211734
0.466072 0.576135 0.239139
0.513634 0.595270 0.269566
0.562799 0.614679 0.301732
0.614130 0.634668 0.335760
0.665400 0.654292 0.371466
0.716030 0.673335 0.409949
0.753140 0.684260 0.465614
0.788357 0.687922 0.470100
0.803220 0.668971 0.436622
0.814145 0.647425 0.406897
0.824643 0.625299 0.376471
0.834562 0.602716 0.344671
0.842893 0.579034 0.311223
0.850980 0.555962 0.276097
0.858396 0.532921 0.238437
0.868254 0.512535 0.202731
0.901488 0.511559 0.217868
0.935149 0.511009 0.234836
0.968933 0.511101 0.253696
1.000000 0.511894 0.274327
0.203586 0.503349 0.095552
0.206424 0.506126 0.094728
0.210513 0.509331 0.093904
0.216587 0.512352 0.092317
0.226017 0.514580 0.088655
0.238041 0.515709 0.078523
0.257359 0.520348 0.092500
0.282017 0.527520 0.113008
0.310674 0.537011 0.133730
0.342931 0.548577 0.154788
0.379156 0.562341 0.178653
0.418158 0.577752 0.203586
0.460243 0.594141 0.230655
0.504967 0.611719 0.259495
0.552422 0.630091 0.290318
0.601648 0.649134 0.323064
0.650904 0.667659 0.357977
0.700740 0.686366 0.395544
0.750210 0.705348 0.436591
0.784970 0.715816 0.495308
0.819333 0.722255 0.511315
0.837949 0.706630 0.477363
0.849607 0.686152 0.447761
0.860990 0.664851 0.417151
0.871214 0.642329 0.384771
0.880705 0.619135 0.351019
0.889891 0.596399 0.316350
0.899046 0.573785 0.279789
0.908904 0.552361 0.241581
0.931731 0.542748 0.231693
0.965484 0.543267 0.251164
0.998840 0.544244 0.272770
0.216190 0.532952 0.092348
0.218021 0.536248 0.093202
0.222080 0.539849 0.092134
0.228550 0.543145 0.090455
0.237552 0.545617 0.085542
0.248783 0.546929 0.073945
0.265660 0.549706 0.079438
0.289738 0.556756 0.104982
0.317113 0.565362 0.126192
0.347570 0.575616 0.149233
0.381659 0.588006 0.172030
0.419837 0.602380 0.197238
0.459724 0.617578 0.223850
0.502922 0.634272 0.251926
0.548455 0.651698 0.282139
0.595331 0.669215 0.314519
0.643153 0.686488 0.349401
0.691035 0.703853 0.386114
0.739071 0.721401 0.425940
0.785733 0.739223 0.469276
0.817014 0.748287 0.529656
0.849119 0.756588 0.555566
0.869322 0.743252 0.522332
0.881529 0.724056 0.493080
0.893187 0.703059 0.461341
0.904173 0.680995 0.428504
0.914794 0.658473 0.394568
0.925628 0.636439 0.360510
0.937041 0.615137 0.326055
0.949676 0.594995 0.290349
0.963561 0.576043 0.252567
0.995697 0.576226 0.271672
0.228214 0.564935 0.087770
0.230076 0.567895 0.088350
0.234195 0.571252 0.086763
0.240177 0.574212 0.083467
0.248478 0.576532 0.079652
0.259556 0.577630 0.060426
0.273075 0.578668 0.046571
0.296452 0.585290 0.092561
0.322972 0.593561 0.116945
0.352789 0.603174 0.140871
0.385687 0.614801 0.165103
0.421912 0.628016 0.190249
0.461067 0.642542 0.216831
0.502403 0.658137 0.245060
0.545739 0.674311 0.275212
0.591577 0.691005 0.307805
0.638514 0.708186 0.343206
0.686854 0.725978 0.381476
0.735561 0.744228 0.423560
0.783230 0.762753 0.469703
0.829099 0.781735 0.519280
0.858244 0.791745 0.583307
0.887419 0.802335 0.620722
0.909117 0.792233 0.590326
0.922271 0.775784 0.564416
0.934966 0.756741 0.535180
0.947814 0.736599 0.503685
0.961120 0.715572 0.470283
0.975036 0.694850 0.437079
0.989685 0.674708 0.403998
1.000000 0.655055 0.370123
1.000000 0.636469 0.335485
0.250004 0.617914 0.086397
0.251469 0.619257 0.085298
0.254002 0.620325 0.085573
0.259403 0.621027 0.079011
0.266789 0.621302 0.069490
0.276493 0.621057 0.054932
0.288853 0.620874 0.032471
0.309941 0.625574 0.071260
0.335912 0.633204 0.107912
0.365728 0.642939 0.135042
0.397711 0.654108 0.161105
0.433875 0.666957 0.187991
0.471778 0.680262 0.215763
0.512108 0.694362 0.245609
0.554467 0.708797 0.277012
0.598352 0.723659 0.310369
0.643122 0.738643 0.346044
0.689082 0.754025 0.384405
0.735042 0.769467 0.426032
0.780179 0.785122 0.470893
0.823331 0.800809 0.517998
0.863706 0.816617 0.566033
0.886748 0.823514 0.626673
0.910979 0.833158 0.667414
0.931609 0.823758 0.637263
0.943816 0.808286 0.612512
0.956725 0.791379 0.585595
0.970459 0.773617 0.557366
0.984894 0.755154 0.528099
1.000000 0.736538 0.498085
1.000000 0.717586 0.466285
1.000000 0.698695 0.434150
0.263432 0.651423 0.064576
0.264439 0.652583 0.064454
0.266636 0.653620 0.066011
0.272068 0.654322 0.057282
0.279210 0.654688 0.048859
0.288823 0.654688 0.029511
0.300603 0.654536 0.009003
0.318029 0.657099 0.021851
0.343297 0.664515 0.091127
0.372015 0.673548 0.123262
0.403998 0.683986 0.152499
0.438636 0.695552 0.181857
0.475868 0.707973 0.210819
0.514488 0.720912 0.241733
0.555901 0.734493 0.274205
0.598138 0.748318 0.308049
0.642267 0.762570 0.344701
0.686946 0.776883 0.383917
0.731838 0.791348 0.425971
0.776150 0.805875 0.471321
0.818723 0.820310 0.518791
0.858640 0.834714 0.567224
0.894591 0.848936 0.615442
0.914122 0.854765 0.672511
0.928588 0.856901 0.703426
0.948394 0.848814 0.675105
0.960327 0.835599 0.653986
0.973144 0.821286 0.631281
0.987213 0.806210 0.606897
1.000000 0.790127 0.581292
1.000000 0.774136 0.555627
1.000000 0.757717 0.528954
0.282628 0.697993 0.057191
0.284520 0.699855 0.059632
0.287022 0.700771 0.056611
0.291325 0.700526 0.050172
0.297551 0.699458 0.038483
0.306157 0.697932 0.016266
0.316655 0.696010 0.000000
0.329686 0.694484 0.000000
0.353399 0.699275 0.052644
0.380072 0.705592 0.110567
0.409796 0.713130 0.142794
0.442115 0.722164 0.173678
0.476814 0.732021 0.203677
0.513481 0.742519 0.234318
0.551476 0.753231 0.265873
0.591302 0.764614 0.298741
0.632441 0.776455 0.333440
0.674861 0.789090 0.371221
0.718257 0.802365 0.412177
0.762173 0.816281 0.457313
0.804837 0.830228 0.505119
0.844968 0.843778 0.553429
0.881468 0.856748 0.600885
0.913603 0.868986 0.645930
0.929686 0.872709 0.696803
0.946899 0.881956 0.742580
0.964294 0.874205 0.716335
0.976226 0.862699 0.696162
0.988220 0.850278 0.676661
1.000000 0.837278 0.656245
1.000000 0.824094 0.635462
1.000000 0.810758 0.614588
0.292149 0.724147 0.019654
0.293614 0.725826 0.028351
0.296147 0.726986 0.026764
0.300603 0.727291 0.017792
0.306920 0.727169 0.006744
0.315557 0.726802 0.000000
0.326726 0.726497 0.000000
0.340093 0.726375 0.000000
0.361547 0.730434 0.000916
0.388434 0.737484 0.096620
0.418372 0.745418 0.136538
0.449897 0.754055 0.170718
0.484138 0.763394 0.203159
0.519860 0.772915 0.235660
0.557092 0.782681 0.267979
0.595514 0.792569 0.301823
0.635370 0.803006 0.337591
0.675990 0.813931 0.375311
0.718257 0.825681 0.416632
0.760708 0.837858 0.461952
0.802121 0.850187 0.509636
0.841672 0.862394 0.557610
0.877775 0.874144 0.605737
0.910155 0.885435 0.651087
0.938262 0.896208 0.692287
0.951659 0.899290 0.738674
0.965942 0.907622 0.781857
0.981109 0.902281 0.764065
0.993133 0.893736 0.747646
1.000000 0.884031 0.732723
1.000000 0.874174 0.717830
1.000000 0.864195 0.702876
0.306981 0.759640 0.013062
0.307805 0.760494 0.020203
0.310399 0.760922 0.013153
0.314214 0.760952 0.008423
0.320134 0.760616 0.000000
0.328496 0.760067 0.000000
0.338872 0.759579 0.000000
0.351873 0.759152 0.000000
0.369329 0.760739 0.000000
0.395361 0.766720 0.068360
0.423926 0.773526 0.126741
0.455055 0.781399 0.164309
0.487922 0.789731 0.199466
0.522911 0.798459 0.233280
0.559014 0.807156 0.266941
0.596368 0.816007 0.301183
0.634791 0.825193 0.337285
0.674434 0.834928 0.375463
0.715206 0.845274 0.417121
0.756497 0.856077 0.462348
0.797086 0.867063 0.509545
0.835874 0.877897 0.557305
0.871580 0.888212 0.604822
0.903746 0.898192 0.649683
0.932036 0.907683 0.690730
0.956481 0.916747 0.727901
0.967468 0.918853 0.770016
0.978973 0.925505 0.808804
0.992004 0.922026 0.798337
1.000000 0.915709 0.784695
1.000000 0.908476 0.774014
1.000000 0.901244 0.763607
0.318853 0.789517 0.000000
0.319615 0.790188 0.001740
0.321935 0.790738 0.001373
0.326116 0.791073 0.000000
0.332250 0.791470 0.000000
0.340703 0.792264 0.000000
0.352514 0.793942 0.000000
0.366674 0.796139 0.000000
0.383398 0.799008 0.000000
0.410681 0.807126 0.086854
0.441321 0.816403 0.142580
0.474037 0.825895 0.185214
0.509026 0.835569 0.224338
0.545281 0.844816 0.262608
0.582605 0.853666 0.300328
0.620386 0.861692 0.338109
0.658656 0.869535 0.376837
0.698207 0.877592 0.418128
0.738064 0.885863 0.462745
0.777920 0.894469 0.508934
0.816617 0.903105 0.556237
0.853117 0.911498 0.603845
0.886259 0.919524 0.648676
0.915709 0.927214 0.689906
0.941405 0.934508 0.727596
0.963561 0.941497 0.761929
0.982361 0.948241 0.793210
0.989471 0.949065 0.827695
0.996643 0.953338 0.858976
1.000000 0.951049 0.854643
1.000000 0.946563 0.843992
1.000000 0.941405 0.836790
0.347478 0.840787 0.107149
0.348058 0.840848 0.107973
0.349889 0.840665 0.105501
0.352819 0.840391 0.104891
0.358434 0.840024 0.100526
0.365972 0.839750 0.095430
0.375860 0.839689 0.086946
0.388067 0.839872 0.068879
0.402502 0.840391 0.046448
0.424140 0.843656 0.100618
0.452430 0.849546 0.150942
0.482765 0.855924 0.191592
0.515343 0.862760 0.229801
0.549371 0.869627 0.266667
