20 Preset/Gray style/【3】LUT video cho PR-AE-FCPX/Tone  (2).cube
# Created by Adobe Lightroom plugin Export LUT (1.24.0)
# www.johnrellis.com/lightroom/exportlut.htm
# Preset: 02素材江湖-高级灰
# Color profile: E:\lut插件\exportlut.1.24\exportlut.lrplugin\color profiles\Rec709gamma2.4.icc
LUT_3D_SIZE 5
DOMAIN_MIN 0.000000 0.000000 0.000000
DOMAIN_MAX 0.903226 0.903226 0.903226
0.000000 0.000000 0.000000
0.230777 0.093080 0.102602
0.477607 0.140993 0.154940
0.716518 0.228031 0.249790
0.973053 0.356512 0.385870
0.134890 0.217227 0.149325
0.200229 0.212619 0.221408
0.482063 0.251469 0.156619
0.734096 0.308690 0.260960
0.981109 0.409033 0.396368
0.295109 0.437415 0.316777
0.341650 0.437659 0.339574
0.463874 0.477333 0.483345
0.783597 0.528862 0.342748
0.973877 0.536675 0.396826
0.490974 0.688716 0.493507
0.517266 0.692103 0.501244
0.627527 0.696681 0.581323
0.712459 0.714656 0.703090
0.963470 0.783108 0.627619
0.689387 0.886717 0.670924
0.701442 0.888457 0.673304
0.749355 0.873198 0.695369
0.849546 0.883818 0.786893
0.902495 0.898619 0.880705
0.145174 0.175601 0.253147
0.254826 0.178714 0.297154
0.471443 0.223087 0.323461
0.718685 0.272984 0.358465
0.934142 0.372290 0.434943
0.221805 0.267033 0.289189
0.276249 0.292363 0.315587
0.489601 0.289769 0.307836
0.725887 0.337377 0.359197
0.938018 0.411017 0.436622
0.339086 0.462440 0.396094
0.370703 0.470192 0.400031
0.471504 0.486763 0.500938
0.760067 0.499977 0.348211
0.960998 0.543999 0.449500
0.516655 0.694606 0.539147
0.538323 0.699672 0.543511
0.639155 0.706325 0.606226
0.720546 0.723293 0.715328
0.958190 0.782742 0.644068
0.698878 0.887236 0.690700
0.709194 0.888273 0.691951
0.772335 0.892302 0.726436
0.863401 0.896757 0.806027
0.914672 0.911040 0.894804
0.319158 0.362585 0.491859
0.355627 0.367437 0.510430
0.533471 0.386969 0.574975
0.700771 0.474525 0.605005
0.923339 0.494728 0.631464
0.383978 0.431067 0.510948
0.404486 0.435218 0.528496
0.542962 0.441108 0.579004
0.718593 0.497292 0.608728
0.930266 0.519738 0.630426
0.474861 0.542657 0.561364
0.497047 0.551446 0.570306
0.582238 0.589990 0.605676
0.767086 0.577661 0.588556
0.941680 0.610773 0.623224
0.601556 0.720394 0.659388
0.606195 0.718044 0.655543
0.661463 0.733455 0.667292
0.754788 0.758450 0.759030
0.953338 0.769375 0.671504
0.718379 0.883543 0.744045
0.729152 0.886564 0.747005
0.770108 0.896025 0.755795
0.864012 0.901732 0.821103
0.918425 0.915679 0.903532
0.536614 0.572351 0.714137
0.555291 0.577234 0.724056
0.622431 0.578668 0.749691
0.762325 0.586511 0.779995
0.888853 0.666590 0.799954
0.566461 0.604944 0.716030
0.575830 0.604364 0.721370
0.628382 0.601495 0.744167
0.756497 0.604211 0.772671
0.884428 0.680232 0.798337
0.633234 0.675959 0.722560
0.647181 0.682948 0.728450
0.678523 0.691890 0.753170
0.778378 0.696315 0.785550
0.893065 0.745663 0.813382
0.699733 0.757992 0.761318
0.705074 0.758450 0.761959
0.737575 0.771511 0.775357
0.804013 0.802548 0.803799
0.949767 0.799008 0.797879
0.798886 0.901488 0.847257
0.802884 0.903227 0.847990
0.821195 0.912352 0.851377
0.867277 0.925902 0.855619
0.940002 0.938537 0.932769
0.794095 0.812222 0.915587
0.799405 0.812772 0.918486
0.820340 0.811704 0.928008
0.871641 0.809079 0.946349
0.959930 0.816800 0.963409
0.808835 0.828672 0.919371
0.812924 0.828672 0.921904
0.831662 0.827573 0.931456
0.879301 0.824826 0.949676
0.963684 0.830655 0.966339
0.840818 0.866575 0.922820
0.845853 0.868833 0.926482
0.860960 0.870909 0.937499
0.898100 0.869261 0.956176
0.971527 0.868681 0.971710
0.877409 0.911009 0.933379
0.882322 0.913390 0.935698
0.898131 0.919402 0.941955
0.919524 0.923369 0.958526
0.980865 0.922240 0.977661
0.920256 0.964446 0.959869
0.923949 0.965972 0.961547
0.933959 0.968475 0.964569
0.958251 0.977173 0.974426
0.995056 0.993286 0.991638
