20 Preset/Gray style/【3】LUT video cho PR-AE-FCPX/Tone  (12).cube
# Created by Adobe Lightroom plugin Export LUT (1.24.0)
# www.johnrellis.com/lightroom/exportlut.htm
# Preset: 12素材江湖-高级灰
# Color profile: E:\lut插件\exportlut.1.24\exportlut.lrplugin\color profiles\Rec709gamma2.4.icc
LUT_3D_SIZE 5
DOMAIN_MIN 0.000000 0.000000 0.000000
DOMAIN_MAX 0.903226 0.903226 0.903226
0.000000 0.000000 0.000000
0.167056 0.013001 0.095216
0.411872 0.000000 0.112367
0.645350 0.000000 0.132113
0.928130 0.000000 0.203250
0.000000 0.185885 0.147158
0.193301 0.180789 0.158389
0.416052 0.193790 0.086580
0.657649 0.197360 0.139101
0.936828 0.222751 0.209567
0.214206 0.421820 0.309545
0.269169 0.414954 0.315709
0.468177 0.418982 0.329686
0.709102 0.420691 0.250828
0.937621 0.456001 0.205722
0.399145 0.689387 0.477821
0.431281 0.689143 0.487953
0.566064 0.687434 0.499031
0.749569 0.673335 0.507805
0.976165 0.657435 0.469184
0.696132 0.924071 0.735500
0.708492 0.923888 0.740993
0.743740 0.912840 0.742000
0.853269 0.920531 0.757198
0.979614 0.917662 0.777035
0.000000 0.093080 0.201541
0.145022 0.033814 0.203861
0.380194 0.000000 0.226383
0.615534 0.000000 0.227146
0.889128 0.000000 0.260502
0.000000 0.189242 0.219272
0.181704 0.189944 0.226963
0.397253 0.167147 0.210178
0.624872 0.164645 0.226719
0.895079 0.179629 0.261112
0.239445 0.406409 0.327337
0.280827 0.403571 0.336065
0.437476 0.399573 0.346288
0.669368 0.404730 0.268650
0.925170 0.439246 0.259464
0.412757 0.683040 0.490700
0.444800 0.684016 0.501305
0.564538 0.683223 0.518761
0.740536 0.669429 0.524437
0.967193 0.660334 0.486091
0.697353 0.923186 0.739315
0.709102 0.922606 0.744137
0.758480 0.923369 0.764767
0.859464 0.927337 0.773922
0.984131 0.925414 0.793057
0.000000 0.136080 0.414069
0.000000 0.013336 0.412299
0.373602 0.078981 0.397528
0.594141 0.139315 0.414984
0.870848 0.000000 0.447303
0.000000 0.229007 0.411749
0.000000 0.195926 0.409552
0.378454 0.219425 0.396765
0.599664 0.230961 0.418128
0.880644 0.186038 0.444221
0.141390 0.426642 0.422553
0.240360 0.423926 0.422461
0.442298 0.427314 0.437751
0.659937 0.387091 0.402258
0.914000 0.391058 0.413672
0.458717 0.667933 0.545220
0.482795 0.663722 0.547295
0.560510 0.670466 0.570459
0.720119 0.667109 0.583368
0.944366 0.664637 0.524102
0.687709 0.916960 0.746487
0.700526 0.917967 0.751583
0.753780 0.919524 0.775509
0.846128 0.922210 0.793820
0.972717 0.919707 0.806821
0.000000 0.113710 0.654261
0.000000 0.103365 0.651789
0.360082 0.108095 0.635340
0.612818 0.166812 0.611597
0.853056 0.186496 0.639857
0.000000 0.255528 0.650324
0.000000 0.226505 0.647608
0.367926 0.234501 0.631891
0.608698 0.256260 0.605035
0.850370 0.262516 0.636469
0.000000 0.491096 0.660578
0.000000 0.479286 0.654261
0.376806 0.428473 0.639094
0.621118 0.431617 0.607599
0.869139 0.447822 0.645319
0.252384 0.693050 0.661952
0.314336 0.688930 0.659480
0.488411 0.680659 0.658412
0.700923 0.676448 0.671260
0.931975 0.647974 0.643366
0.648493 0.919890 0.780941
0.669795 0.919799 0.785946
0.752865 0.922240 0.811460
0.835874 0.927764 0.840696
0.962860 0.924041 0.850980
0.000000 0.189761 0.898344
0.000000 0.178378 0.896483
0.199985 0.175265 0.891112
0.613367 0.188510 0.877562
0.861936 0.216800 0.862028
0.000000 0.278569 0.895048
0.000000 0.261784 0.893980
0.207980 0.263127 0.888121
0.612879 0.269413 0.873930
0.859861 0.285496 0.858457
0.000000 0.529259 0.895079
0.000000 0.513817 0.893400
0.209018 0.451881 0.889982
0.617853 0.453895 0.873198
0.865171 0.464729 0.858732
0.000000 0.757748 0.908721
0.198489 0.754482 0.907897
0.437720 0.744656 0.908232
0.658412 0.693843 0.897337
0.892912 0.692927 0.879728
0.517784 0.949950 0.917693
0.540337 0.948821 0.917449
0.631220 0.947112 0.919829
0.771481 0.941314 0.922240
0.940642 0.930510 0.926360
