20 Preset/Gray style/【3】LUT video cho PR-AE-FCPX/Tone  (9).cube
# Created by Adobe Lightroom plugin Export LUT (1.24.0)
# www.johnrellis.com/lightroom/exportlut.htm
# Preset: 09素材江湖-高级灰
# Color profile: E:\lut插件\exportlut.1.24\exportlut.lrplugin\color profiles\Rec709gamma2.4.icc
LUT_3D_SIZE 5
DOMAIN_MIN 0.000000 0.000000 0.000000
DOMAIN_MAX 0.903226 0.903226 0.903226
0.000000 0.000000 0.000000
0.248020 0.059327 0.074861
0.513664 0.030213 0.025422
0.779416 0.043061 0.044862
1.000000 0.126894 0.147158
0.143893 0.227787 0.161135
0.220645 0.228580 0.219699
0.529900 0.255528 0.093843
0.786923 0.256260 0.104433
1.000000 0.267552 0.174563
0.320317 0.465888 0.342901
0.369207 0.470771 0.363561
0.482673 0.487648 0.462135
0.803769 0.523247 0.287327
1.000000 0.504082 0.279667
0.508415 0.696376 0.512322
0.532280 0.699306 0.518547
0.637354 0.709957 0.583948
0.742794 0.736049 0.690242
1.000000 0.785580 0.580835
0.740566 0.907652 0.723537
0.750790 0.909209 0.725856
0.807980 0.913695 0.758907
0.886351 0.919860 0.819821
0.942809 0.932830 0.891966
0.000000 0.072724 0.259373
0.236973 0.097200 0.275883
0.518639 0.000000 0.281865
0.796933 0.000000 0.193545
1.000000 0.000000 0.217685
0.176059 0.253605 0.271000
0.265202 0.277806 0.297734
0.549187 0.202762 0.198642
0.800137 0.199985 0.197848
1.000000 0.228916 0.241428
0.346502 0.480690 0.404089
0.380957 0.487556 0.408179
0.499855 0.507347 0.496468
0.804562 0.511009 0.319005
1.000000 0.500633 0.332433
0.525353 0.701625 0.547112
0.544854 0.704616 0.549920
0.644038 0.716060 0.603906
0.748928 0.743343 0.704707
1.000000 0.786648 0.602808
0.745815 0.908904 0.736904
0.755795 0.910521 0.739132
0.807187 0.914611 0.764401
0.887236 0.921263 0.824857
0.943938 0.934386 0.895842
0.000000 0.147097 0.510155
0.186496 0.165713 0.515679
0.490517 0.227207 0.534630
0.710262 0.356664 0.564996
1.000000 0.218357 0.548119
0.000000 0.303777 0.517205
0.238987 0.306950 0.522576
0.502708 0.333349 0.539940
0.752773 0.377539 0.570550
1.000000 0.246220 0.523888
0.376013 0.508721 0.522606
0.420539 0.517571 0.532860
0.553368 0.558007 0.571618
0.823758 0.468544 0.468025
1.000000 0.450141 0.458961
0.581964 0.719539 0.646815
0.595880 0.722988 0.649134
0.655238 0.734890 0.659144
0.767636 0.765743 0.748104
0.999481 0.774014 0.643946
0.761959 0.914061 0.782284
0.770504 0.915557 0.783871
0.806485 0.921935 0.790921
0.891203 0.929473 0.844327
0.950622 0.942809 0.912566
0.000000 0.247288 0.736233
0.118257 0.257206 0.738125
0.475837 0.291264 0.746639
0.737057 0.355322 0.759243
0.926360 0.510521 0.773892
0.000000 0.353094 0.738369
0.209842 0.357824 0.740414
0.492317 0.377295 0.748592
0.742367 0.425940 0.760616
0.925048 0.556176 0.778225
0.276677 0.566339 0.745785
0.352453 0.568597 0.748013
0.553796 0.583551 0.754818
0.761776 0.610071 0.766751
0.926757 0.680262 0.795193
0.599847 0.742824 0.738369
0.619684 0.745937 0.742245
0.690242 0.758083 0.757626
0.797665 0.792599 0.790921
1.000000 0.740536 0.735256
0.801328 0.920775 0.856352
0.808011 0.923003 0.858366
0.832181 0.931151 0.863584
0.883024 0.942962 0.869749
0.962371 0.957580 0.940734
0.000000 0.380987 0.949279
0.200626 0.388159 0.949950
0.488197 0.416205 0.952026
0.736355 0.469856 0.956115
0.951934 0.556176 0.959777
0.144350 0.453162 0.949310
0.278843 0.458442 0.949859
0.513146 0.480537 0.951965
0.746670 0.524926 0.956085
0.953918 0.594873 0.960052
0.333440 0.617151 0.948943
0.410193 0.626032 0.949096
0.586114 0.647028 0.950591
0.775906 0.668391 0.955779
0.959960 0.705013 0.960754
0.541283 0.815976 0.945708
0.562707 0.815793 0.947326
0.644160 0.813169 0.952483
0.804868 0.821195 0.956695
0.970275 0.840970 0.963806
0.803677 0.952972 0.938323
0.812436 0.953857 0.939696
0.846403 0.956451 0.944457
0.909789 0.963806 0.956176
0.986877 0.983154 0.979675
