20 Preset/Gray style/【3】LUT video cho PR-AE-FCPX/Tone  (4).cube
# Created by Adobe Lightroom plugin Export LUT (1.24.0)
# www.johnrellis.com/lightroom/exportlut.htm
# Preset: 04素材江湖-高级灰
# Color profile: E:\lut插件\exportlut.1.24\exportlut.lrplugin\color profiles\Rec709gamma2.4.icc
LUT_3D_SIZE 5
DOMAIN_MIN 0.000000 0.000000 0.000000
DOMAIN_MAX 0.903226 0.903226 0.903226
0.000000 0.000000 0.000000
0.181399 0.040742 0.089479
0.383337 0.000000 0.125582
0.592676 0.000000 0.174502
0.842588 0.000000 0.260563
0.109560 0.170779 0.123659
0.160525 0.169467 0.172580
0.390814 0.191379 0.129549
0.601129 0.168124 0.181338
0.849485 0.144686 0.266850
0.234348 0.355749 0.255589
0.273381 0.357000 0.274479
0.359380 0.372534 0.373938
0.632410 0.421973 0.256016
0.855375 0.410834 0.280064
0.379126 0.562219 0.392035
0.402655 0.566339 0.398108
0.499763 0.573938 0.461585
0.591211 0.595361 0.576654
0.876158 0.682795 0.501854
0.571862 0.798398 0.560235
0.586419 0.800961 0.562921
0.655421 0.798428 0.600031
0.768307 0.813260 0.695155
0.844327 0.837980 0.805631
0.120638 0.145602 0.207370
0.205509 0.146700 0.242252
0.388525 0.168429 0.272648
0.601617 0.055604 0.287358
0.835782 0.000000 0.316655
0.178958 0.217105 0.236301
0.224521 0.237858 0.257939
0.417121 0.196536 0.236301
0.613794 0.166629 0.261662
0.839841 0.133150 0.317205
0.271550 0.378882 0.326024
0.298283 0.385351 0.329625
0.378882 0.394263 0.405707
0.632807 0.410742 0.272831
0.857786 0.410498 0.331060
0.400793 0.574243 0.433906
0.420783 0.579248 0.436805
0.514031 0.588373 0.488930
0.604089 0.608972 0.595911
0.875029 0.685206 0.524376
0.583185 0.801541 0.583948
0.596490 0.803708 0.586114
0.668635 0.811063 0.622339
0.778225 0.822904 0.710780
0.853574 0.847501 0.817533
0.259434 0.301091 0.416663
0.289891 0.304417 0.432258
0.431312 0.313878 0.479133
0.580163 0.382544 0.507897
0.827543 0.357092 0.550591
0.310704 0.355474 0.429206
0.326635 0.357671 0.442969
0.439185 0.359167 0.482948
0.606775 0.397986 0.516228
0.838651 0.371130 0.545403
0.380560 0.443671 0.467475
0.399451 0.452064 0.476173
0.473884 0.486122 0.507561
0.678950 0.435187 0.470558
0.881132 0.415717 0.487800
0.483192 0.615473 0.557824
0.492836 0.616876 0.557366
0.551232 0.632807 0.568566
0.649928 0.656458 0.657191
0.882811 0.679377 0.565972
0.615137 0.809781 0.655238
0.627070 0.812802 0.657618
0.674952 0.823941 0.666407
0.787411 0.836454 0.739132
0.865415 0.860685 0.838041
0.433021 0.475898 0.625238
0.449744 0.478187 0.633814
0.519677 0.478218 0.661158
0.667353 0.484016 0.695705
0.810636 0.568841 0.723384
0.462135 0.508232 0.629236
0.472572 0.508019 0.635370
0.529595 0.505394 0.660578
0.667353 0.508690 0.693690
0.809415 0.587030 0.724300
0.530602 0.581231 0.636622
0.542992 0.586358 0.640955
0.576074 0.595239 0.667353
0.681422 0.595239 0.699214
0.820951 0.655573 0.738796
0.601648 0.670100 0.679347
0.609705 0.672694 0.682033
0.646693 0.688167 0.697566
0.721675 0.722652 0.728298
0.911620 0.684260 0.704128
0.713893 0.838926 0.778470
0.718807 0.841123 0.779355
0.738643 0.850797 0.781399
0.794949 0.867552 0.785916
0.895079 0.892393 0.880797
0.683864 0.710140 0.838743
0.689662 0.709957 0.841672
0.717311 0.709438 0.854337
0.781552 0.704799 0.877104
0.892088 0.712215 0.899840
0.695125 0.723934 0.839048
0.700099 0.723690 0.842008
0.724575 0.722530 0.854429
0.784970 0.717311 0.877043
0.893492 0.723445 0.900298
0.730251 0.766812 0.840970
0.734615 0.767819 0.844205
0.752438 0.768521 0.857176
0.799405 0.763027 0.879850
0.902190 0.765988 0.905608
0.777676 0.824369 0.856107
0.781827 0.825528 0.857420
0.800565 0.831601 0.864164
0.831022 0.838132 0.888365
0.919188 0.836790 0.917021
0.828214 0.893126 0.888548
0.831968 0.894438 0.889952
0.849332 0.901061 0.897063
0.884611 0.915068 0.912108
0.947723 0.944274 0.941314
