20 Preset/Gray style/【3】LUT video cho PR-AE-FCPX/Tone  (7).cube
# Created by Adobe Lightroom plugin Export LUT (1.24.0)
# www.johnrellis.com/lightroom/exportlut.htm
# Preset: 07素材江湖-高级灰
# Color profile: E:\lut插件\exportlut.1.24\exportlut.lrplugin\color profiles\Rec709gamma2.4.icc
LUT_3D_SIZE 8
DOMAIN_MIN 0.000000 0.000000 0.000000
DOMAIN_MAX 0.903226 0.903226 0.903226
0.000000 0.000000 0.000000
0.057954 0.000000 0.004974
0.193240 0.000000 0.053803
0.315221 0.000000 0.103792
0.447150 0.000000 0.123690
0.583368 0.000000 0.158358
0.744259 0.000000 0.207370
0.902312 0.000000 0.266361
0.000000 0.068666 0.026825
0.095460 0.091371 0.007446
0.194430 0.100710 0.073854
0.312383 0.096773 0.106477
0.442023 0.016419 0.125917
0.575891 0.000000 0.159304
0.730892 0.000000 0.205661
0.889616 0.000000 0.262699
0.109957 0.182315 0.121614
0.131502 0.190646 0.119387
0.223819 0.215854 0.115206
0.333928 0.222812 0.126955
0.455390 0.218906 0.142794
0.592248 0.213169 0.177890
0.753567 0.206607 0.225284
0.906981 0.198825 0.281529
0.187808 0.301701 0.204105
0.200259 0.304417 0.204471
0.258000 0.328130 0.194736
0.375372 0.357519 0.186954
0.502403 0.368383 0.195926
0.625086 0.369757 0.218601
0.770016 0.371862 0.255833
0.913054 0.373480 0.305272
0.272129 0.422461 0.290105
0.280766 0.424079 0.291051
0.319585 0.442298 0.287907
0.410986 0.481178 0.278141
0.544518 0.513573 0.275212
0.669490 0.517235 0.278752
0.781949 0.513329 0.296391
0.915251 0.519036 0.338354
0.363867 0.555077 0.374456
0.373541 0.560479 0.377844
0.402777 0.572564 0.377234
0.468421 0.602594 0.370825
0.580346 0.643000 0.360388
0.719326 0.672786 0.369329
0.839902 0.673945 0.386694
0.945159 0.670314 0.414374
0.475593 0.703426 0.471443
0.482094 0.705348 0.473243
0.503960 0.710140 0.474708
0.551324 0.730983 0.471565
0.630457 0.759792 0.465156
0.744594 0.792782 0.467109
0.873716 0.817441 0.493080
0.971466 0.812528 0.527520
0.623102 0.854582 0.604028
0.626886 0.855131 0.604608
0.643671 0.858183 0.608179
0.677241 0.871519 0.610346
0.719417 0.882444 0.597436
0.799344 0.908232 0.598627
0.899382 0.929473 0.616541
0.998993 0.941466 0.653376
0.017670 0.038605 0.099886
0.098238 0.035004 0.116854
0.197513 0.076204 0.137789
0.319188 0.037293 0.159609
0.450660 0.000000 0.158419
0.580621 0.000000 0.185122
0.729549 0.000000 0.225101
0.883391 0.000000 0.275547
0.074342 0.101534 0.111360
0.107790 0.113924 0.124117
0.208164 0.117769 0.138003
0.325048 0.102907 0.149905
0.450782 0.000000 0.159701
0.579736 0.000000 0.187320
0.724331 0.000000 0.225498
0.875883 0.000000 0.273838
0.133822 0.199222 0.167971
0.149905 0.203403 0.170016
0.231357 0.227085 0.164767
0.338354 0.229191 0.166751
0.458442 0.219730 0.174746
0.589837 0.211460 0.202487
0.735561 0.199313 0.239322
0.887999 0.188144 0.288212
0.199283 0.306188 0.230869
0.210147 0.308415 0.232059
0.261875 0.330236 0.226658
0.372747 0.357641 0.217166
0.489448 0.361181 0.217960
0.606500 0.359472 0.233616
0.747250 0.359808 0.263859
0.893126 0.362066 0.308873
0.280034 0.425910 0.308049
0.287510 0.427008 0.308446
0.322423 0.441474 0.306554
0.407233 0.476722 0.296788
0.534325 0.505730 0.291081
0.656825 0.508843 0.291508
0.769711 0.505913 0.305699
0.904448 0.511925 0.344213
0.365423 0.552422 0.383764
0.372259 0.554009 0.384527
0.400275 0.564630 0.385779
0.464027 0.595514 0.380529
0.574487 0.637263 0.371862
0.714076 0.668971 0.380896
0.833555 0.669886 0.395697
0.938231 0.665492 0.419043
0.472969 0.697658 0.474891
0.477089 0.697383 0.474525
0.498207 0.700679 0.476631
0.545342 0.722591 0.474708
0.625574 0.753933 0.471199
0.738918 0.787442 0.472724
0.866209 0.811032 0.495308
0.964050 0.805844 0.525628
0.618006 0.849058 0.602899
0.623255 0.850767 0.604883
0.639582 0.853635 0.608057
0.673152 0.866453 0.611048
0.726253 0.886839 0.610742
0.801602 0.909667 0.608545
0.898650 0.929015 0.622400
0.997864 0.940948 0.658076
0.121126 0.150881 0.225437
0.138979 0.150484 0.235966
0.228244 0.152926 0.267430
0.317754 0.199161 0.286290
0.461799 0.173617 0.309422
0.603357 0.129519 0.326024
0.754574 0.000000 0.340734
0.904692 0.000000 0.362280
0.151583 0.183444 0.232914
0.161563 0.184878 0.242649
0.232486 0.185885 0.269657
0.332799 0.209476 0.291447
0.465827 0.180789 0.303288
0.605982 0.128908 0.313542
0.752865 0.000000 0.324254
0.901518 0.000000 0.347692
0.195560 0.240055 0.260410
0.207706 0.245731 0.266789
0.255467 0.265324 0.282444
0.373602 0.243168 0.269078
0.496376 0.220218 0.268956
0.625757 0.205936 0.286900
0.764004 0.187869 0.312871
0.906493 0.174014 0.350988
0.248417 0.340337 0.317418
0.257237 0.343420 0.319524
0.292638 0.355871 0.325109
0.393500 0.386450 0.317937
0.510185 0.382361 0.307836
0.636042 0.374853 0.314916
0.772915 0.369085 0.335790
0.911864 0.367681 0.370855
0.317418 0.451759 0.375677
0.324010 0.453407 0.376440
0.352911 0.460731 0.380041
0.425269 0.496010 0.377050
0.552270 0.528130 0.370520
0.669795 0.524407 0.363012
0.778866 0.515679 0.366583
0.915892 0.520104 0.400458
0.393744 0.571069 0.435920
0.400000 0.572961 0.436835
0.424628 0.578637 0.439857
0.479011 0.604456 0.438758
0.581445 0.645289 0.434089
0.717708 0.676967 0.440986
0.834836 0.676875 0.449592
0.940063 0.672633 0.466163
0.498634 0.710597 0.519280
0.502281 0.710567 0.518914
0.520745 0.712642 0.519982
0.561669 0.727932 0.521355
0.635065 0.758480 0.520043
0.744594 0.793759 0.523522
0.870512 0.819394 0.546014
0.967102 0.815946 0.571496
0.631922 0.853849 0.630091
0.634730 0.853910 0.629999
0.650019 0.856596 0.632807
0.683589 0.867247 0.639918
0.733394 0.887755 0.640528
0.806851 0.912047 0.641382
0.901427 0.932555 0.654047
0.997711 0.944274 0.687129
0.204166 0.245853 0.357671
0.216068 0.247990 0.364904
0.266423 0.250065 0.387091
0.368353 0.256352 0.416358
0.464118 0.300908 0.433875
0.606287 0.308354 0.469062
0.749538 0.285435 0.487526
0.894316 0.262577 0.507774
0.230716 0.273686 0.366125
0.238468 0.274266 0.371283
0.277623 0.273564 0.391119
0.372686 0.276677 0.419440
0.467659 0.317449 0.437964
0.610956 0.316289 0.469429
0.752346 0.291203 0.484840
0.896635 0.266270 0.503532
0.277714 0.323461 0.375006
0.286320 0.327428 0.378790
0.307713 0.333562 0.399176
0.384344 0.336248 0.426459
0.482704 0.366644 0.450904
0.636439 0.341436 0.467414
0.782101 0.311742 0.476539
0.920531 0.279667 0.487678
0.323674 0.386267 0.410681
0.330541 0.389075 0.413733
0.359045 0.402228 0.427710
0.419287 0.425513 0.442023
0.545983 0.398474 0.424506
0.673365 0.378302 0.422492
0.801511 0.365545 0.434180
0.932341 0.363378 0.459937
0.384314 0.494240 0.471382
0.389349 0.496376 0.472908
0.411200 0.505303 0.478004
0.459846 0.525078 0.485603
0.576745 0.561425 0.482887
0.687098 0.547112 0.465980
0.805112 0.534844 0.467231
0.933654 0.533318 0.490211
0.453956 0.608911 0.524315
0.461463 0.613275 0.527794
0.479927 0.617212 0.529229
0.520348 0.628077 0.534691
0.604547 0.667720 0.536431
0.730190 0.697841 0.540673
0.839689 0.693599 0.538476
0.942382 0.685451 0.541802
0.543023 0.730282 0.589441
0.547356 0.731533 0.590326
0.564477 0.735500 0.592859
0.598505 0.743374 0.598077
0.659052 0.771420 0.600580
0.757717 0.807675 0.604089
0.874907 0.831449 0.621668
0.968292 0.828489 0.636988
0.660731 0.866087 0.680232
0.663722 0.866606 0.680629
0.677058 0.869017 0.682734
0.704585 0.874662 0.687953
0.748043 0.890776 0.691493
0.814694 0.915312 0.693721
0.904845 0.937804 0.704280
0.997314 0.950011 0.735286
0.305425 0.351965 0.490974
0.313725 0.354070 0.496193
0.345800 0.356573 0.512139
0.416815 0.356756 0.541497
0.527825 0.362554 0.569940
0.625086 0.402869 0.581109
0.721736 0.457710 0.608026
0.886015 0.447974 0.643763
0.324468 0.372168 0.497963
0.331579 0.373907 0.503105
0.358831 0.375036 0.518029
0.422583 0.371862 0.543908
0.530236 0.375555 0.571130
0.626642 0.414221 0.582666
0.724941 0.465187 0.610132
0.887480 0.453529 0.643549
0.369635 0.421088 0.507683
0.373877 0.422400 0.511772
0.389776 0.422431 0.524346
0.437324 0.418036 0.547265
0.535088 0.419074 0.571679
0.626001 0.452491 0.583581
0.748501 0.477058 0.614954
0.891783 0.469062 0.638331
0.410712 0.469917 0.520165
0.416297 0.472297 0.522454
0.439796 0.482948 0.532647
0.472389 0.493324 0.557855
0.554009 0.495308 0.582238
0.642664 0.523827 0.600061
0.783627 0.506981 0.615564
0.916442 0.489052 0.624475
0.458320 0.533349 0.551812
0.463630 0.535851 0.554345
0.484871 0.545281 0.563745
0.524620 0.563073 0.581689
0.588190 0.586328 0.593194
0.703670 0.559350 0.576135
0.825132 0.539910 0.573785
0.946319 0.534051 0.587060
0.521263 0.631708 0.605615
0.525048 0.633478 0.607080
0.539269 0.639155 0.611292
0.566491 0.650874 0.618097
0.614862 0.670436 0.624201
0.732296 0.711757 0.635035
0.835721 0.702510 0.623285
0.945373 0.693843 0.625574
0.600397 0.751186 0.667781
0.601434 0.751003 0.666987
0.608667 0.752407 0.665309
0.632990 0.759945 0.668238
0.677089 0.772519 0.675166
0.760678 0.812161 0.682094
0.873228 0.839384 0.696437
0.963378 0.834531 0.698573
0.680690 0.869688 0.728084
0.683101 0.870115 0.728267
0.694148 0.872343 0.729610
0.721859 0.880705 0.737118
0.759792 0.889372 0.744198
0.818204 0.914061 0.749447
0.903624 0.940398 0.757443
0.992462 0.952728 0.784787
0.430152 0.476020 0.638819
0.436316 0.477485 0.642329
0.456184 0.476753 0.650202
0.502159 0.476143 0.667689
0.579278 0.469612 0.691432
0.683772 0.478004 0.710567
0.774350 0.525902 0.719631
0.866148 0.594446 0.749508
0.433875 0.481086 0.632868
0.438056 0.481025 0.634791
0.456641 0.480598 0.643397
0.499275 0.479408 0.660609
0.575341 0.474037 0.685725
0.679744 0.482918 0.706233
0.770291 0.529870 0.716335
0.862791 0.596887 0.747158
0.475502 0.526268 0.642939
0.478126 0.525933 0.644587
0.491127 0.524956 0.652491
0.520775 0.519554 0.665126
0.586938 0.513634 0.688533
0.685695 0.521233 0.708522
0.773312 0.563653 0.720241
0.864958 0.624109 0.752651
0.527825 0.578546 0.646876
0.529808 0.579126 0.648524
0.541772 0.583856 0.658137
0.566491 0.588708 0.677577
0.615991 0.585290 0.700526
0.702968 0.588983 0.718990
0.784695 0.624292 0.732937
0.883482 0.664790 0.766384
0.559228 0.621271 0.659602
0.562921 0.622705 0.660883
0.578546 0.629175 0.666712
0.608362 0.642390 0.678889
0.639979 0.651545 0.700862
0.710719 0.653315 0.720211
0.789090 0.681727 0.739498
0.920439 0.674189 0.759792
0.604181 0.676692 0.684779
0.608789 0.679347 0.687312
0.621515 0.684291 0.692317
0.645624 0.694209 0.702327
0.681025 0.709651 0.717800
0.742977 0.735225 0.732723
0.851133 0.717250 0.723995
0.963165 0.708370 0.729335
0.678889 0.779660 0.748714
0.681849 0.781460 0.750240
0.690120 0.785245 0.753170
0.706844 0.793057 0.758694
0.731930 0.804685 0.764492
0.776028 0.822019 0.769039
0.880095 0.858152 0.785245
0.965270 0.848905 0.775631
0.751858 0.889036 0.810513
0.752316 0.888975 0.809964
0.757198 0.890745 0.809781
0.765927 0.894926 0.808225
0.784909 0.901122 0.806455
0.828733 0.912474 0.814237
0.904356 0.944610 0.824582
0.989075 0.959747 0.848325
0.568627 0.605310 0.761379
0.572168 0.606012 0.763210
0.584863 0.606134 0.768887
0.612604 0.606348 0.780575
0.658961 0.603937 0.796994
0.730098 0.597467 0.817990
0.819089 0.609857 0.832212
0.896117 0.650568 0.839078
0.573846 0.611353 0.760372
0.577142 0.612055 0.762264
0.589014 0.612055 0.767941
0.614557 0.611231 0.778927
0.659388 0.608423 0.795193
0.729030 0.601434 0.815854
0.816953 0.612787 0.829831
0.893584 0.652461 0.836790
0.600122 0.640894 0.764187
0.602106 0.640772 0.765499
0.611078 0.640040 0.770626
0.632013 0.638636 0.781125
0.671077 0.635157 0.796597
0.735866 0.628412 0.817197
0.821592 0.638636 0.832242
0.897490 0.677058 0.841154
0.638392 0.682673 0.768215
0.639612 0.682551 0.769131
0.647425 0.683833 0.774838
0.662715 0.683711 0.785611
0.692836 0.680690 0.800809
0.749325 0.674922 0.821347
0.829984 0.681971 0.836790
0.903258 0.716640 0.847593
0.675257 0.722560 0.772549
0.677211 0.723079 0.772946
0.686885 0.726558 0.776059
0.699977 0.731441 0.786648
0.720241 0.733181 0.803708
0.763119 0.728237 0.824094
0.838407 0.731838 0.840635
0.911925 0.765560 0.856413
0.705715 0.764736 0.789425
0.707881 0.765652 0.790249
0.716732 0.768948 0.793545
0.733852 0.775540 0.800137
0.760098 0.785885 0.810544
0.789517 0.794369 0.831632
0.854398 0.796719 0.850767
0.924163 0.825498 0.870451
0.746090 0.815579 0.814023
0.748196 0.816556 0.814969
0.755947 0.819455 0.818021
0.771542 0.825589 0.824399
0.795438 0.835264 0.834440
0.828672 0.849760 0.849454
0.881468 0.872282 0.865049
0.971679 0.862516 0.863279
0.820279 0.908110 0.876951
0.821530 0.908751 0.877531
0.827237 0.911742 0.880125
0.837461 0.916869 0.884276
0.853178 0.924559 0.889799
0.875120 0.935149 0.895323
0.911803 0.948760 0.898375
0.987732 0.971374 0.919707
0.737575 0.761990 0.892393
0.739406 0.762234 0.893400
0.745571 0.761563 0.896391
0.760189 0.761196 0.903227
0.785000 0.759670 0.913329
0.823453 0.756100 0.926482
0.879576 0.749996 0.942596
0.947082 0.762722 0.951904
0.739895 0.765072 0.891661
0.741695 0.765286 0.892699
0.747921 0.764889 0.895964
0.761837 0.764218 0.902647
0.786007 0.762600 0.912749
0.823941 0.758968 0.925933
0.879362 0.752529 0.941894
0.946715 0.764858 0.951324
0.753109 0.781064 0.892546
0.754360 0.781003 0.893339
0.759518 0.780362 0.896422
0.772610 0.780331 0.903685
0.794156 0.778164 0.913420
0.829129 0.774014 0.926268
0.882444 0.767697 0.942321
0.948547 0.778439 0.952148
0.774258 0.806699 0.893767
0.775814 0.807126 0.894835
0.780850 0.807553 0.898344
0.790463 0.806943 0.905089
0.808499 0.805173 0.915038
0.839475 0.801511 0.928161
0.888975 0.795377 0.944335
0.953063 0.803738 0.954864
0.801144 0.837003 0.894377
0.801999 0.837308 0.895354
0.804654 0.837369 0.898528
0.813657 0.839414 0.906096
0.827543 0.839322 0.916747
0.852232 0.836210 0.930297
0.896849 0.830930 0.947082
0.959319 0.836942 0.958801
0.827390 0.869657 0.904143
0.828305 0.869841 0.904387
0.832914 0.870970 0.905730
0.842924 0.874083 0.909178
0.855039 0.877745 0.917601
0.873564 0.880339 0.934173
0.909209 0.877134 0.952087
0.967834 0.879728 0.964569
0.854704 0.906798 0.920989
0.855680 0.907073 0.921294
0.859983 0.908354 0.922728
0.869139 0.911223 0.925994
0.883726 0.916045 0.931304
0.904601 0.923339 0.939361
0.927123 0.928832 0.955596
0.976989 0.929870 0.970855
0.885801 0.945678 0.939818
0.886656 0.945922 0.940124
0.890837 0.947326 0.941650
0.899657 0.950378 0.945098
0.913420 0.955261 0.950561
0.932677 0.962249 0.958404
0.958221 0.972320 0.969665
0.990234 0.986267 0.982574
