20 Preset/Gray style/【3】LUT video cho PR-AE-FCPX/Tone  (14).cube
# Created by Adobe Lightroom plugin Export LUT (1.24.0)
# www.johnrellis.com/lightroom/exportlut.htm
# Preset: 14素材江湖-高级灰
# Color profile: E:\lut插件\exportlut.1.24\exportlut.lrplugin\color profiles\Rec709gamma2.4.icc
LUT_3D_SIZE 5
DOMAIN_MIN 0.000000 0.000000 0.000000
DOMAIN_MAX 0.903226 0.903226 0.903226
0.000000 0.000000 0.000000
0.235111 0.103792 0.112062
0.487617 0.150179 0.103975
0.769863 0.232029 0.142245
1.000000 0.340490 0.217197
0.105715 0.247196 0.179599
0.263249 0.234470 0.197482
0.493172 0.253239 0.140810
0.780880 0.314183 0.167544
1.000000 0.400732 0.234958
0.273228 0.514427 0.320165
0.346624 0.508782 0.332036
0.576226 0.498482 0.356878
0.825681 0.504265 0.308659
1.000000 0.564874 0.292393
0.489570 0.809628 0.504051
0.529351 0.808988 0.518273
0.687678 0.803464 0.541070
0.873960 0.774350 0.570611
1.000000 0.757870 0.580133
0.778988 1.000000 0.779232
0.793057 1.000000 0.786313
0.839384 0.999207 0.797726
0.946532 0.998901 0.822263
1.000000 0.975036 0.837339
0.000000 0.085908 0.275700
0.225345 0.096193 0.273838
0.478065 0.000000 0.243809
0.753384 0.186282 0.236973
1.000000 0.310124 0.272313
0.066743 0.251530 0.282353
0.255314 0.258488 0.290867
0.485451 0.234165 0.243809
0.761318 0.287114 0.249302
1.000000 0.373754 0.282841
0.284489 0.502068 0.358282
0.348028 0.499916 0.371221
0.547082 0.485298 0.391760
0.797665 0.498146 0.335088
1.000000 0.556756 0.336034
0.500420 0.805325 0.530816
0.539940 0.805539 0.544579
0.683192 0.801602 0.572473
0.865995 0.774197 0.595636
1.000000 0.764462 0.600275
0.779568 1.000000 0.786221
0.793301 1.000000 0.792630
0.847227 1.000000 0.818753
0.947906 1.000000 0.837705
1.000000 0.976196 0.846433
0.113283 0.090455 0.518090
0.262547 0.099947 0.512047
0.479469 0.135042 0.492714
0.755367 0.106020 0.512383
1.000000 0.000000 0.460975
0.098695 0.248997 0.517144
0.262119 0.249882 0.511192
0.484779 0.256687 0.493385
0.764096 0.230686 0.503838
1.000000 0.124117 0.437018
0.092287 0.519921 0.517815
0.258396 0.519219 0.518059
0.548455 0.529564 0.532708
0.800259 0.488441 0.468544
1.000000 0.536034 0.483558
0.510857 0.791867 0.612757
0.549798 0.790524 0.619837
0.671595 0.795956 0.657404
0.844724 0.781521 0.680415
1.000000 0.785031 0.658656
0.768246 1.000000 0.806455
0.785275 1.000000 0.813748
0.843717 1.000000 0.840909
0.936431 1.000000 0.866697
1.000000 0.980102 0.876097
0.234897 0.172885 0.805356
0.332738 0.178317 0.802823
0.543999 0.192020 0.788998
0.762203 0.199924 0.764706
1.000000 0.237797 0.774258
0.237613 0.292729 0.804196
0.332799 0.292576 0.800626
0.542351 0.292424 0.785611
0.758877 0.290593 0.759396
1.000000 0.321386 0.769986
0.238590 0.528557 0.812772
0.330694 0.524987 0.806485
0.557885 0.529625 0.787106
0.762356 0.512963 0.753597
1.000000 0.546868 0.771054
0.385321 0.807797 0.794736
0.438087 0.805478 0.793088
0.603326 0.802701 0.792660
0.819242 0.800717 0.795254
1.000000 0.800992 0.777676
0.742885 1.000000 0.865049
0.762387 1.000000 0.869718
0.837064 1.000000 0.891630
0.927092 1.000000 0.924346
1.000000 0.988190 0.932586
0.364935 0.316533 1.000000
0.417273 0.319890 1.000000
0.575586 0.335210 1.000000
0.773495 0.359350 1.000000
0.981506 0.396155 0.999542
0.375860 0.382238 1.000000
0.425910 0.384619 1.000000
0.579278 0.395605 1.000000
0.773861 0.414008 1.000000
0.979522 0.444312 0.996094
0.467353 0.589654 1.000000
0.500877 0.589044 1.000000
0.621088 0.591608 1.000000
0.788144 0.592401 0.995758
0.981445 0.601373 0.993530
0.606317 0.816312 1.000000
0.629206 0.816037 1.000000
0.720851 0.821042 1.000000
0.844327 0.828153 0.998413
0.995087 0.826017 1.000000
0.733364 1.000000 0.999329
0.748653 1.000000 0.999268
0.813718 1.000000 0.999023
0.914916 1.000000 0.998840
1.000000 1.000000 1.000000
