20 Preset/Gray style/【3】LUT video cho PR-AE-FCPX/Tone  (3).cube
# Created by Adobe Lightroom plugin Export LUT (1.24.0)
# www.johnrellis.com/lightroom/exportlut.htm
# Preset: 03素材江湖-高级灰
# Color profile: E:\lut插件\exportlut.1.24\exportlut.lrplugin\color profiles\Rec709gamma2.4.icc
LUT_3D_SIZE 32
DOMAIN_MIN 0.0 0.0 0.0
DOMAIN_MAX 1.0 1.0 1.0
0.000000 0.000000 0.000000
0.000000 0.000000 0.000000
0.011933 0.000000 0.000000
0.039673 0.000000 0.003754
0.084627 0.005188 0.015625
0.105867 0.012726 0.029267
0.126467 0.020233 0.044770
0.147921 0.026001 0.062318
0.170718 0.027253 0.075319
0.195346 0.025971 0.085603
0.220462 0.023590 0.093080
0.246494 0.020447 0.098878
0.274052 0.010376 0.105165
0.301946 0.000000 0.111360
0.330541 0.000000 0.118349
0.359289 0.000000 0.125002
0.388952 0.000000 0.132937
0.419287 0.000000 0.141512
0.450538 0.000000 0.151644
0.482826 0.000000 0.161807
0.516014 0.000000 0.172427
0.550225 0.000000 0.183474
0.590082 0.000000 0.195926
0.634424 0.000000 0.209537
0.679683 0.000000 0.223178
0.724636 0.000000 0.236606
0.769986 0.000000 0.250614
0.816190 0.000000 0.264652
0.862242 0.000000 0.280369
0.906981 0.000000 0.296941
0.950744 0.000000 0.315465
0.993133 0.000000 0.335882
0.000000 0.000000 0.000000
0.000000 0.000000 0.000000
0.013184 0.000000 0.000000
0.039216 0.003265 0.004425
0.084535 0.008545 0.015167
0.105623 0.016114 0.031067
0.125826 0.023835 0.046601
0.147280 0.028626 0.062013
0.170077 0.031067 0.074891
0.193942 0.031678 0.085237
0.219028 0.027344 0.092988
0.245212 0.022034 0.098909
0.272221 0.015259 0.104768
0.300145 0.006134 0.110933
0.328557 0.000000 0.117433
0.357458 0.000000 0.124758
0.386999 0.000000 0.132448
0.417151 0.000000 0.140871
0.448219 0.000000 0.150851
0.480507 0.000000 0.161349
0.513359 0.000000 0.171664
0.547173 0.000000 0.182345
0.586206 0.000000 0.195193
0.629175 0.000000 0.207614
0.673243 0.000000 0.220920
0.717647 0.000000 0.234318
0.762509 0.000000 0.248051
0.808469 0.000000 0.261997
0.854887 0.000000 0.277531
0.900175 0.000000 0.293919
0.944457 0.000000 0.312413
0.987427 0.000000 0.332555
0.000641 0.009918 0.002014
0.003906 0.010681 0.001862
0.007782 0.009979 0.009766
0.043275 0.019501 0.006653
0.085023 0.024048 0.017548
0.106264 0.030396 0.031342
0.126406 0.036896 0.048157
0.147860 0.041718 0.061311
0.170169 0.044404 0.076448
0.194125 0.043793 0.086336
0.218875 0.042084 0.092226
0.244846 0.038209 0.098177
0.271733 0.031647 0.104158
0.299413 0.020783 0.110750
0.327581 0.012146 0.117098
0.356390 0.000000 0.124178
0.385992 0.000000 0.132235
0.416052 0.000000 0.140444
0.447272 0.000000 0.150271
0.479164 0.000000 0.160159
0.512047 0.000000 0.171115
0.545892 0.000000 0.182193
0.584833 0.000000 0.194430
0.627131 0.000000 0.207309
0.670558 0.000000 0.220035
0.714229 0.000000 0.232761
0.758907 0.000000 0.246555
0.804623 0.000000 0.260563
0.851164 0.000000 0.275792
0.896727 0.000000 0.292302
0.941070 0.000000 0.310338
0.984192 0.000000 0.330632
0.009247 0.040009 0.010193
0.011231 0.039765 0.010163
0.022736 0.038178 0.019196
0.031250 0.036561 0.039551
0.088533 0.054353 0.026856
0.107424 0.059937 0.037415
0.127718 0.065248 0.050965
0.149294 0.069856 0.064088
0.171420 0.072511 0.076967
0.195193 0.071931 0.085939
0.219486 0.071656 0.092378
0.245396 0.067750 0.097536
0.272068 0.063600 0.104158
0.299474 0.055390 0.110048
0.327489 0.044800 0.116548
0.355810 0.034028 0.123903
0.384955 0.022766 0.131411
0.414801 0.010254 0.139956
0.445533 0.000000 0.149386
0.477241 0.000000 0.159792
0.509789 0.000000 0.169924
0.543297 0.000000 0.180606
0.582177 0.000000 0.193271
0.623438 0.000000 0.205783
0.666682 0.000000 0.218265
0.710964 0.000000 0.231540
0.756283 0.000000 0.245212
0.802701 0.000000 0.259586
0.849790 0.000000 0.274815
0.895415 0.000000 0.291356
0.939666 0.000000 0.309483
0.982208 0.000000 0.329290
0.023651 0.079469 0.028107
0.024323 0.080079 0.030243
0.035706 0.079835 0.036835
0.055177 0.076936 0.056153
0.062287 0.074098 0.082185
0.104799 0.091920 0.069886
0.130343 0.094545 0.057954
0.151003 0.095094 0.065888
0.173068 0.096376 0.077485
0.196506 0.096559 0.085451
0.220584 0.096468 0.092103
0.246036 0.096040 0.097536
0.272648 0.094606 0.103487
0.299718 0.092592 0.109987
0.327672 0.090364 0.115999
0.355962 0.086091 0.123110
0.385290 0.080140 0.130861
0.415137 0.069825 0.139193
0.445716 0.060792 0.148409
0.477150 0.052888 0.158877
0.509758 0.041932 0.169406
0.543572 0.029969 0.180209
0.582300 0.012299 0.192691
0.623255 0.000000 0.204959
0.666407 0.000000 0.217746
0.710475 0.000000 0.230808
0.755489 0.000000 0.244388
0.801755 0.000000 0.258701
0.848569 0.000000 0.273686
0.894041 0.000000 0.289952
0.937987 0.000000 0.307866
0.980377 0.000000 0.327550
0.038331 0.101503 0.051179
0.041596 0.101747 0.050996
0.051331 0.101717 0.056489
0.072541 0.101137 0.070985
0.089235 0.099977 0.089052
0.092622 0.099245 0.103120
0.121920 0.112459 0.099519
0.157443 0.118624 0.081636
0.176455 0.116670 0.075685
0.199741 0.117037 0.084962
0.223789 0.117708 0.091188
0.249454 0.117159 0.097078
0.275425 0.117342 0.102510
0.302220 0.116426 0.108705
0.330022 0.115023 0.115663
0.358404 0.113191 0.122133
0.387488 0.111116 0.129915
0.417334 0.108705 0.138216
0.448127 0.106600 0.148043
0.479530 0.105409 0.158236
0.511986 0.103029 0.168734
0.547204 0.099733 0.180240
0.610590 0.096925 0.199710
0.656123 0.090425 0.213504
0.701717 0.070588 0.227543
0.747219 0.039155 0.241123
0.792691 0.009583 0.255222
0.838468 0.000000 0.270085
0.882506 0.000000 0.286015
0.924987 0.000000 0.302800
0.965820 0.000000 0.321447
1.000000 0.073579 0.341253
0.060578 0.123751 0.077028
0.062867 0.123690 0.075898
0.072328 0.124758 0.078340
0.089174 0.124239 0.087984
0.100954 0.123659 0.096864
0.111055 0.122683 0.110170
0.115938 0.122774 0.126619
0.143404 0.137331 0.127443
0.190890 0.148348 0.101289
0.210544 0.144411 0.092744
0.232761 0.142519 0.090028
0.258518 0.142641 0.095796
0.284794 0.142550 0.101595
0.311589 0.142397 0.107668
0.339147 0.141268 0.114351
0.367132 0.140291 0.121645
0.396063 0.139376 0.129305
0.425727 0.137911 0.138247
0.456397 0.137453 0.148531
0.488258 0.136721 0.159335
0.521599 0.136263 0.169833
0.561944 0.136019 0.183047
0.604730 0.135134 0.196536
0.650202 0.132876 0.210147
0.696742 0.128969 0.223911
0.742580 0.123781 0.237888
0.788083 0.117159 0.252140
0.833433 0.109712 0.266636
0.877287 0.105379 0.282322
0.919493 0.105867 0.299107
0.960296 0.115053 0.317266
0.999451 0.133516 0.336950
0.083558 0.145083 0.092836
0.085145 0.145449 0.092714
0.089998 0.146304 0.092836
0.097780 0.146395 0.097780
0.110872 0.145968 0.105867
0.122927 0.145998 0.117617
0.133639 0.145876 0.132479
0.138308 0.146761 0.151217
0.164340 0.162356 0.157412
0.217258 0.176486 0.126894
0.243259 0.174502 0.110414
0.263310 0.167941 0.093324
0.288487 0.167147 0.097261
0.314885 0.167025 0.103365
0.342016 0.166506 0.110323
0.369787 0.165896 0.117342
0.398352 0.165194 0.125887
0.427527 0.165072 0.134981
0.458015 0.165591 0.145907
0.489418 0.165774 0.156466
0.525078 0.166140 0.168673
0.564355 0.167361 0.181094
0.605707 0.168429 0.193973
0.650019 0.167758 0.207828
0.695491 0.166781 0.221378
0.740536 0.164981 0.235264
0.785611 0.162020 0.249271
0.830625 0.158816 0.263462
0.874235 0.157778 0.279088
0.916350 0.159030 0.295933
0.957122 0.164401 0.314031
0.996307 0.176333 0.333623
0.097871 0.168460 0.105898
0.098634 0.168765 0.106142
0.101472 0.169314 0.106294
0.109621 0.169650 0.109682
0.121248 0.169986 0.116823
0.134554 0.170321 0.127047
0.147524 0.170779 0.140871
0.158419 0.171695 0.157931
0.163546 0.173770 0.178500
0.186526 0.189700 0.191257
0.242344 0.205722 0.159213
0.278080 0.207004 0.133852
0.298253 0.199069 0.111849
0.319860 0.192538 0.094881
0.346746 0.192172 0.102602
0.373938 0.191989 0.110842
0.402167 0.191836 0.119936
0.431342 0.192050 0.130800
0.461463 0.192782 0.142092
0.494148 0.193973 0.153475
0.530510 0.196048 0.165743
0.568383 0.198032 0.178561
0.608911 0.199557 0.191318
0.652308 0.200778 0.204715
0.696712 0.201266 0.218448
0.741054 0.201144 0.232059
0.785611 0.200412 0.246006
0.830167 0.199527 0.260746
0.873533 0.199496 0.276097
0.915190 0.201114 0.293065
0.955718 0.205997 0.311040
0.994690 0.214633 0.330999
0.111757 0.192844 0.120333
0.112306 0.192813 0.120333
0.115114 0.193393 0.120119
0.121981 0.194278 0.122316
0.132784 0.194644 0.128695
0.145968 0.194949 0.138186
0.160098 0.195865 0.150484
0.173709 0.197086 0.166384
0.185000 0.198978 0.185397
0.190860 0.202213 0.207858
0.211307 0.218845 0.226932
0.268223 0.235904 0.193790
0.313939 0.241978 0.161257
0.334081 0.232700 0.136355
0.353826 0.221500 0.102571
0.378882 0.218204 0.099153
0.407233 0.218662 0.110262
0.436347 0.219547 0.122896
0.467536 0.220981 0.136172
0.501671 0.223514 0.148653
0.537041 0.225559 0.161776
0.573419 0.227543 0.174838
0.612207 0.229526 0.187472
0.653590 0.231571 0.200687
0.695979 0.233005 0.213687
0.738979 0.233616 0.227359
0.782773 0.234134 0.241520
0.827207 0.235019 0.255680
0.870542 0.236149 0.271519
0.912657 0.238254 0.288518
0.953399 0.242435 0.307195
0.992798 0.250004 0.327306
0.125521 0.217258 0.134615
0.126436 0.217350 0.134066
0.128878 0.217685 0.134432
0.133913 0.218753 0.135012
0.144808 0.219333 0.141451
0.157961 0.220096 0.150118
0.172305 0.221592 0.161563
0.187198 0.223239 0.176272
0.201633 0.225711 0.193759
0.213870 0.228763 0.214969
0.220676 0.232944 0.239139
0.237125 0.250065 0.265782
0.296574 0.268833 0.231571
0.348943 0.277684 0.194858
0.373663 0.269566 0.165743
0.393133 0.257908 0.132021
0.412909 0.246494 0.094362
0.443305 0.248234 0.111147
0.475410 0.250523 0.126650
0.508659 0.252689 0.141024
0.543084 0.254948 0.154940
0.578790 0.257145 0.168429
0.616907 0.259556 0.182040
0.657588 0.262181 0.195163
0.699275 0.264378 0.208896
0.741634 0.266361 0.222629
0.784817 0.268040 0.236698
0.828733 0.269413 0.251804
0.871611 0.271183 0.267765
0.913298 0.274022 0.284947
0.953765 0.278202 0.303899
0.992798 0.285100 0.324407
0.140169 0.242863 0.149386
0.140963 0.242924 0.148928
0.143435 0.243412 0.149569
0.147768 0.244419 0.149844
0.157229 0.245274 0.154360
0.170047 0.246464 0.162875
0.184360 0.248142 0.173739
0.200534 0.250248 0.187594
0.216953 0.252842 0.204257
0.232242 0.256229 0.223911
0.245029 0.260777 0.246830
0.252811 0.266117 0.272679
0.275181 0.292851 0.316136
0.338445 0.313512 0.279332
0.394324 0.323461 0.239811
0.430610 0.320684 0.205936
0.453040 0.309453 0.173007
0.473365 0.294835 0.128054
0.500603 0.289830 0.113985
0.534905 0.292546 0.132753
0.570367 0.295048 0.149203
0.607050 0.297612 0.164950
0.646052 0.300298 0.180148
0.686000 0.303105 0.194400
0.726680 0.305364 0.209140
0.767910 0.307256 0.223789
0.809567 0.309209 0.238376
0.850217 0.310796 0.253605
0.889921 0.312535 0.270115
0.928801 0.315221 0.287816
0.966735 0.319219 0.306798
1.000000 0.325505 0.328099
0.158114 0.273106 0.167056
0.158785 0.273075 0.167056
0.160678 0.273320 0.166934
0.164706 0.273991 0.166873
0.172671 0.274815 0.170047
0.185092 0.275944 0.177981
0.199344 0.277714 0.188144
0.215640 0.280064 0.201175
0.233188 0.283177 0.217197
0.250858 0.287114 0.236118
0.267552 0.292180 0.258274
0.282261 0.298619 0.283635
0.292515 0.306340 0.312505
0.307897 0.328557 0.356909
0.375982 0.354223 0.323308
0.437781 0.367926 0.284092
0.486275 0.370428 0.244236
0.506126 0.356847 0.211673
0.524193 0.340551 0.169986
0.540032 0.322454 0.112581
0.573999 0.324346 0.132143
0.609949 0.327062 0.150484
0.647944 0.329870 0.167453
0.687037 0.332799 0.183505
0.726894 0.335760 0.198611
0.767788 0.338140 0.214359
0.809201 0.340795 0.229587
0.849729 0.342901 0.245945
0.889372 0.345098 0.263188
0.928313 0.347997 0.281559
0.966278 0.351934 0.301213
1.000000 0.357885 0.323003
0.173373 0.299138 0.181827
0.173556 0.299199 0.181827
0.175662 0.299229 0.181918
0.179568 0.299809 0.181704
0.185885 0.300603 0.183413
0.197665 0.301976 0.190799
0.211643 0.303838 0.200259
0.227787 0.306523 0.212650
0.245548 0.309819 0.227634
0.264439 0.314214 0.245548
0.283299 0.319677 0.266392
0.303166 0.327794 0.291783
0.321202 0.337652 0.321019
0.335210 0.349096 0.353887
0.353979 0.374182 0.401617
0.419928 0.400549 0.372473
0.483192 0.414313 0.329931
0.540124 0.419654 0.283238
0.561120 0.405859 0.249607
0.577264 0.387762 0.209751
0.592065 0.368536 0.160220
0.614923 0.357488 0.130037
0.652003 0.360723 0.149783
0.690608 0.363775 0.168765
0.730159 0.367010 0.186130
0.770657 0.369848 0.203159
0.811551 0.372747 0.219944
0.851499 0.375311 0.237095
0.890715 0.377844 0.255497
0.929381 0.380865 0.274754
0.966949 0.384833 0.295506
1.000000 0.390265 0.317998
0.188663 0.326146 0.197330
0.189273 0.326238 0.197299
0.190890 0.326390 0.197086
0.194369 0.326818 0.197177
0.199802 0.327398 0.197635
0.210941 0.328862 0.203952
0.224857 0.331334 0.213413
0.241581 0.334661 0.225254
0.259983 0.339269 0.239963
0.280217 0.344640 0.257603
0.301457 0.351690 0.278202
0.323766 0.360113 0.302617
0.345281 0.369940 0.330297
0.364843 0.381048 0.361303
0.380285 0.393652 0.396094
0.401007 0.420081 0.445624
0.465492 0.447791 0.421210
0.530449 0.461799 0.375860
0.588525 0.467140 0.327367
0.619165 0.456947 0.287205
0.634089 0.437690 0.248875
0.648341 0.417304 0.203067
0.661799 0.396307 0.142275
0.695460 0.395392 0.148653
0.734524 0.398535 0.169711
0.774594 0.402045 0.188602
0.815030 0.405158 0.207553
0.854765 0.408148 0.226627
0.893950 0.411139 0.246403
0.932647 0.414496 0.267521
0.970581 0.418799 0.289921
1.000000 0.424292 0.314427
0.206638 0.356603 0.214328
0.207279 0.356756 0.214542
0.208957 0.357000 0.214450
0.212192 0.357733 0.214542
0.217380 0.358618 0.214969
0.227298 0.360571 0.219821
0.241459 0.363470 0.228855
0.257969 0.367193 0.240421
0.276951 0.372137 0.254582
0.297581 0.378119 0.271336
0.319890 0.385016 0.291081
0.343145 0.393256 0.313939
0.366491 0.402594 0.339910
0.389136 0.413062 0.368841
0.409583 0.424781 0.401251
0.425818 0.437903 0.436988
0.448676 0.465553 0.488014
0.510948 0.495277 0.471046
0.577050 0.509392 0.422766
0.634760 0.513848 0.372534
0.676417 0.507927 0.325658
0.691768 0.488716 0.288823
0.706935 0.468574 0.245701
0.721065 0.446937 0.192203
0.740871 0.431617 0.146029
0.781064 0.435492 0.169436
0.820951 0.438880 0.191867
0.860197 0.441901 0.213931
0.898772 0.444953 0.235874
0.936614 0.448157 0.258671
0.973541 0.452003 0.282506
1.000000 0.457069 0.308324
0.224857 0.387610 0.230930
0.225132 0.387640 0.231144
0.226688 0.387945 0.231052
0.229892 0.388495 0.231296
0.234714 0.389471 0.231357
0.242924 0.391028 0.234257
0.256504 0.394171 0.242832
0.273198 0.398138 0.254032
0.292027 0.403174 0.267399
0.312657 0.409155 0.283299
0.335454 0.416388 0.302159
0.359503 0.424720 0.323644
0.384619 0.434272 0.348425
0.409827 0.444923 0.376165
0.433845 0.456641 0.406836
0.455970 0.469673 0.441108
0.473945 0.484108 0.478676
0.499489 0.513817 0.532006
0.558831 0.545434 0.524041
0.624445 0.558801 0.473091
0.682643 0.563195 0.421698
0.734401 0.561151 0.368566
0.751461 0.542412 0.331579
0.767056 0.521599 0.289647
0.782132 0.500175 0.240696
0.796048 0.477638 0.178042
0.827085 0.472816 0.171115
0.865782 0.476020 0.197116
0.903929 0.478920 0.223026
0.941253 0.482246 0.247959
0.977752 0.485847 0.274235
1.000000 0.490517 0.301854
0.243442 0.419837 0.247868
0.243748 0.420020 0.247807
0.251286 0.430488 0.253544
0.254368 0.431098 0.253819
0.259220 0.432044 0.253941
0.265782 0.433234 0.254276
0.279850 0.436591 0.262882
0.296452 0.440833 0.273869
0.315740 0.446387 0.286870
0.337407 0.453071 0.302831
0.361303 0.460822 0.321386
0.386999 0.469947 0.342718
0.413886 0.479957 0.366735
0.441444 0.490974 0.393835
0.468879 0.502922 0.423774
0.495460 0.516136 0.457008
0.519127 0.530083 0.493568
0.538140 0.545342 0.533562
0.564019 0.574914 0.587701
0.617670 0.606714 0.588617
0.681788 0.619165 0.536553
0.738277 0.621668 0.483009
0.787533 0.616968 0.427863
0.813169 0.600336 0.383551
0.828275 0.578515 0.342046
0.842802 0.555566 0.294621
0.857115 0.532311 0.238407
0.873075 0.511040 0.175418
0.909850 0.513573 0.205753
0.946166 0.516228 0.234867
0.981842 0.519677 0.264225
1.000000 0.523919 0.293675
0.264164 0.456153 0.266056
0.265171 0.457221 0.266758
0.267308 0.458534 0.267094
0.270420 0.460151 0.267948
0.275669 0.461799 0.268498
0.282048 0.463233 0.268956
0.294163 0.466224 0.275090
0.310246 0.470558 0.285039
0.329076 0.476051 0.297765
0.350622 0.482765 0.312779
0.374395 0.490669 0.330358
0.400366 0.499855 0.350713
0.427863 0.510002 0.373663
0.456489 0.521355 0.399359
0.485817 0.533471 0.428351
0.514763 0.546624 0.460365
0.542168 0.560388 0.495827
0.566857 0.575494 0.534905
0.587274 0.592126 0.576410
0.614374 0.622400 0.630335
0.663783 0.655512 0.641230
0.723842 0.668055 0.593378
0.777676 0.669947 0.541772
0.825528 0.664363 0.487098
0.859525 0.650294 0.435859
0.875395 0.628351 0.394629
0.891264 0.605585 0.348943
0.906950 0.582055 0.296727
0.922881 0.558923 0.234928
0.949187 0.549248 0.216220
0.984344 0.552300 0.249729
1.000000 0.556085 0.282872
0.282078 0.488624 0.280674
0.283116 0.489906 0.281468
0.285283 0.491463 0.281834
0.288670 0.493050 0.282841
0.293431 0.494789 0.283360
0.299718 0.496376 0.283787
0.310002 0.498787 0.287510
0.325994 0.503319 0.297337
0.344549 0.508965 0.309239
0.365850 0.515801 0.323766
0.389899 0.523949 0.340612
0.415991 0.533196 0.360266
0.444038 0.543603 0.382635
0.473610 0.554772 0.407782
0.503929 0.566918 0.435920
0.534600 0.579767 0.467201
0.564630 0.593469 0.502068
0.592889 0.608240 0.540154
0.618341 0.624414 0.580133
0.639612 0.641901 0.621820
0.665461 0.670710 0.674281
0.707362 0.702724 0.694026
0.762417 0.714931 0.650690
0.812528 0.716915 0.602930
0.858183 0.711055 0.550835
0.899290 0.698756 0.493690
0.916167 0.677211 0.452827
0.933379 0.654780 0.408545
0.950988 0.631891 0.359808
0.969055 0.608850 0.304448
0.987915 0.586389 0.237858
1.000000 0.588373 0.269535
0.301366 0.524224 0.295689
0.302281 0.525444 0.296086
0.304265 0.526940 0.296880
0.307744 0.528557 0.297520
0.312169 0.530266 0.298039
0.318334 0.531701 0.298344
0.326329 0.533532 0.299382
0.342290 0.538231 0.309087
0.361242 0.544182 0.320836
0.382330 0.550866 0.334874
0.406165 0.558953 0.351446
0.432685 0.568170 0.370825
0.460945 0.578302 0.392737
0.491005 0.589441 0.417456
0.522332 0.601465 0.445350
0.554376 0.614466 0.476356
0.586877 0.628534 0.511131
0.618311 0.643824 0.548821
0.647791 0.659937 0.588708
0.673762 0.677028 0.630518
0.694972 0.695155 0.673121
0.719722 0.722499 0.722133
0.755276 0.753079 0.748196
0.804257 0.765438 0.711971
0.849363 0.768490 0.671870
0.891844 0.763394 0.625208
0.931975 0.751736 0.572045
0.955901 0.733089 0.528679
0.974884 0.711788 0.486793
0.994842 0.689235 0.440040
1.000000 0.666255 0.388861
1.000000 0.643366 0.331243
0.326482 0.570275 0.315007
0.327092 0.570886 0.315312
0.328496 0.571527 0.315465
0.331273 0.572290 0.315587
0.335729 0.573083 0.315770
0.341070 0.573968 0.316045
0.348608 0.575189 0.316075
0.362585 0.579034 0.323400
0.381476 0.584741 0.335241
0.403174 0.591791 0.349401
0.427497 0.599817 0.366125
0.454231 0.608972 0.385534
0.482765 0.619074 0.407172
0.513420 0.630091 0.432044
0.545678 0.642023 0.459937
0.578729 0.654536 0.491096
0.611841 0.667597 0.525628
0.644129 0.681331 0.562402
0.674403 0.695552 0.601007
0.701656 0.710506 0.641382
0.724880 0.726131 0.681300
0.743893 0.742458 0.719509
0.765255 0.766140 0.762783
0.793942 0.793576 0.791867
0.836149 0.804807 0.760525
0.876158 0.808194 0.725795
0.914488 0.804868 0.686702
0.951873 0.795407 0.641474
0.981659 0.779538 0.596002
1.000000 0.760433 0.559319
1.000000 0.739590 0.517906
1.000000 0.717250 0.470619
0.348363 0.609918 0.331212
0.348882 0.610437 0.331304
0.350347 0.611017 0.331670
0.353277 0.611719 0.331853
0.357153 0.612512 0.332067
0.362707 0.613428 0.332067
0.369970 0.614557 0.332341
0.381689 0.617334 0.336645
0.400549 0.623102 0.348486
0.422278 0.630060 0.362799
0.446509 0.638025 0.379309
0.473213 0.646998 0.398535
0.502312 0.656947 0.420630
0.533288 0.667659 0.445594
0.565759 0.678767 0.473854
0.599084 0.690364 0.505364
0.632837 0.702663 0.539788
0.665339 0.715175 0.575860
0.696437 0.728328 0.613855
0.725032 0.741939 0.653101
0.750210 0.756191 0.691463
0.771511 0.770962 0.728145
0.788785 0.786069 0.762997
0.807431 0.806821 0.801144
0.827024 0.828031 0.828855
0.863432 0.838346 0.801877
0.898985 0.842527 0.772732
0.933501 0.840879 0.739956
0.967498 0.833951 0.702663
1.000000 0.821500 0.659846
1.000000 0.805600 0.629816
1.000000 0.787594 0.594842
0.375311 0.656336 0.351110
0.375982 0.657252 0.351751
0.377417 0.657862 0.351843
0.379828 0.658106 0.351965
0.383398 0.658259 0.351843
0.388342 0.658381 0.351690
0.394873 0.658686 0.351507
0.403388 0.659571 0.351843
0.421668 0.664302 0.363195
0.442664 0.670192 0.377111
0.466133 0.676753 0.393500
0.492744 0.684627 0.412757
0.521080 0.692988 0.434730
0.551049 0.702052 0.459358
0.582605 0.711421 0.487068
0.615351 0.721401 0.517937
0.647883 0.731838 0.550713
0.680262 0.743069 0.585809
0.711482 0.754849 0.622797
0.740841 0.767361 0.660853
0.767269 0.780484 0.697932
0.790097 0.793881 0.733303
0.809110 0.807309 0.766659
0.824216 0.820768 0.797879
0.839811 0.838285 0.831205
0.858610 0.860533 0.863218
0.889281 0.869444 0.839872
0.919951 0.873838 0.815457
0.950225 0.873289 0.788083
0.980560 0.868345 0.757259
1.000000 0.859098 0.721645
1.000000 0.846830 0.695003
0.398077 0.694972 0.368475
0.399054 0.695705 0.368872
0.400336 0.696407 0.369360
0.402808 0.696834 0.369574
0.406531 0.697292 0.369665
0.411597 0.697963 0.369787
0.418280 0.698787 0.370001
0.426764 0.699947 0.370245
0.442786 0.703822 0.379156
0.464149 0.709651 0.393805
0.488167 0.716152 0.410986
0.514366 0.723384 0.430793
0.542931 0.731106 0.453468
0.573083 0.739223 0.478920
0.604578 0.747646 0.507134
0.636805 0.756497 0.537560
0.669062 0.765743 0.569940
0.700832 0.775540 0.604150
0.731930 0.785977 0.640314
0.760800 0.796994 0.676143
0.787228 0.808499 0.711238
0.810575 0.820340 0.744961
0.830472 0.832364 0.776852
0.847074 0.844327 0.806699
0.860288 0.856291 0.834440
0.873564 0.871336 0.863432
0.889189 0.890379 0.891966
0.914061 0.898863 0.875547
0.940307 0.903532 0.855894
0.966186 0.904173 0.834165
0.992035 0.901335 0.810330
1.000000 0.895201 0.783566
0.425757 0.736721 0.391302
0.426429 0.737087 0.391394
0.427619 0.737362 0.391821
0.429786 0.737667 0.391791
0.433295 0.738003 0.391913
0.438025 0.738430 0.391882
0.444343 0.739101 0.392065
0.452369 0.739986 0.392340
0.464607 0.742184 0.396948
0.485908 0.747219 0.412085
0.509606 0.752926 0.429633
0.535668 0.759243 0.449866
0.564111 0.766110 0.473213
0.593927 0.773281 0.499092
0.625025 0.780728 0.527184
0.656580 0.788479 0.557000
0.688167 0.796567 0.588861
0.719539 0.805081 0.622492
0.749752 0.814145 0.656886
0.778164 0.823850 0.690974
0.804166 0.833921 0.724178
0.827390 0.844236 0.756100
0.847532 0.854612 0.786343
0.864652 0.865080 0.814725
0.878782 0.875486 0.841032
0.889921 0.885740 0.865141
0.900847 0.898253 0.889982
0.913664 0.913970 0.914214
0.933379 0.921874 0.903838
0.955627 0.926604 0.888090
0.977417 0.928222 0.871397
0.998993 0.927276 0.853666
0.454139 0.775082 0.415503
0.454536 0.775418 0.415930
0.455787 0.775753 0.416144
0.458228 0.776150 0.416480
0.461646 0.776730 0.416602
0.466621 0.777584 0.417395
0.473335 0.779049 0.418677
0.482002 0.780850 0.419959
0.492226 0.783230 0.421881
0.514153 0.788663 0.438056
0.539086 0.794827 0.458076
0.566705 0.801389 0.480903
0.596185 0.808255 0.506126
0.626764 0.815152 0.533410
0.657649 0.822049 0.562097
0.689052 0.828794 0.592462
0.719966 0.835660 0.624079
0.750057 0.842802 0.656184
0.778744 0.850492 0.688197
0.805600 0.858518 0.719783
0.830198 0.866880 0.750423
0.852293 0.875456 0.779812
0.871550 0.884031 0.807523
0.888090 0.892607 0.833494
0.901823 0.901122 0.857481
0.913054 0.909545 0.879515
0.921996 0.917937 0.899687
0.930266 0.927611 0.919799
0.939757 0.939513 0.938781
0.953918 0.945922 0.933074
0.971160 0.950042 0.921294
0.987945 0.952026 0.909331
0.495583 0.821225 0.454627
0.495827 0.821256 0.454780
0.496773 0.821286 0.454719
0.498512 0.821378 0.454658
0.501427 0.821561 0.454688
0.505547 0.821958 0.455116
0.511223 0.822568 0.455451
0.518334 0.823453 0.456214
0.527123 0.824582 0.457313
0.543755 0.827359 0.467445
0.567559 0.831632 0.486915
0.593439 0.836362 0.508629
0.621302 0.841367 0.532921
0.650111 0.846616 0.558709
