20 Preset/Gray style/【3】LUT video cho PR-AE-FCPX/Tone  (6).cube
# Created by Adobe Lightroom plugin Export LUT (1.24.0)
# www.johnrellis.com/lightroom/exportlut.htm
# Preset: 06素材江湖-高级灰
# Color profile: E:\lut插件\exportlut.1.24\exportlut.lrplugin\color profiles\Rec709gamma2.4.icc
LUT_3D_SIZE 32
DOMAIN_MIN 0.0 0.0 0.0
DOMAIN_MAX 1.0 1.0 1.0
0.000000 0.000000 0.000000
0.001984 0.000000 0.000000
0.030030 0.001007 0.002655
0.089387 0.009857 0.011414
0.120058 0.030121 0.037171
0.150698 0.055421 0.069306
0.183719 0.078737 0.089937
0.217136 0.090303 0.099397
0.250980 0.096712 0.106081
0.285252 0.103059 0.112764
0.319310 0.108736 0.119387
0.353155 0.114443 0.125429
0.386999 0.120302 0.131441
0.420813 0.126406 0.138308
0.454383 0.133516 0.145998
0.487617 0.142550 0.156008
0.520592 0.153323 0.167697
0.553918 0.164828 0.180789
0.587243 0.176364 0.193637
0.621302 0.188418 0.207034
0.655604 0.201053 0.220005
0.689723 0.213138 0.233799
0.729305 0.228367 0.250492
0.770077 0.244694 0.268132
0.807126 0.260319 0.284977
0.841245 0.275486 0.301427
0.873655 0.291020 0.317845
0.905028 0.307073 0.334630
0.935912 0.323644 0.352178
0.966583 0.341741 0.371221
0.997223 0.361852 0.391608
1.000000 0.384161 0.414282
0.000671 0.000977 0.002106
0.000977 0.000977 0.000977
0.031830 0.006348 0.004150
0.089693 0.016388 0.013916
0.119509 0.035920 0.038697
0.150362 0.061189 0.069673
0.182681 0.082002 0.090547
0.215946 0.091615 0.098573
0.249241 0.098238 0.106020
0.282811 0.104555 0.112123
0.316472 0.110475 0.118807
0.350225 0.115755 0.124453
0.383703 0.121370 0.130831
0.417456 0.127657 0.137514
0.450874 0.134493 0.145357
0.484016 0.143252 0.155062
0.517235 0.153841 0.166537
0.550317 0.164920 0.179171
0.583612 0.176791 0.191989
0.617426 0.188357 0.205539
0.651270 0.200320 0.218906
0.685206 0.212375 0.231907
0.723964 0.226993 0.248264
0.763577 0.242679 0.265293
0.799710 0.257664 0.281437
0.833494 0.272496 0.297429
0.865751 0.287572 0.313512
0.897276 0.303075 0.329931
0.928405 0.319432 0.347662
0.959533 0.337346 0.366094
0.990631 0.357000 0.386511
1.000000 0.379065 0.408759
0.006439 0.026917 0.009766
0.009674 0.029847 0.011566
0.020813 0.025818 0.027680
0.092744 0.047669 0.020783
0.121431 0.065034 0.045869
0.152102 0.084230 0.074891
0.183597 0.094423 0.091249
0.216098 0.101167 0.098421
0.249210 0.107027 0.105562
0.282475 0.112490 0.112673
0.315648 0.117861 0.118227
0.349065 0.122896 0.123873
0.382208 0.128084 0.130373
0.415778 0.133669 0.136446
0.449073 0.140047 0.144808
0.482033 0.148379 0.154025
0.515038 0.158663 0.166140
0.548150 0.169070 0.178378
0.581415 0.180209 0.191043
0.615106 0.191684 0.204379
0.649195 0.203494 0.217838
0.682979 0.215335 0.231296
0.722011 0.229282 0.247227
0.760891 0.244633 0.263767
0.796414 0.259037 0.280003
0.829618 0.273014 0.295567
0.861723 0.287846 0.311406
0.893217 0.302922 0.327642
0.924498 0.319036 0.344884
0.955810 0.336675 0.363317
0.987030 0.355993 0.383642
1.000000 0.377508 0.405707
0.027741 0.085969 0.036774
0.034394 0.086183 0.038849
0.056092 0.084932 0.059022
0.072724 0.083680 0.089631
0.125521 0.100496 0.067231
0.156191 0.105501 0.080812
0.187289 0.111940 0.092409
0.219333 0.116976 0.099519
0.251133 0.122347 0.105837
0.283879 0.126986 0.111666
0.316533 0.131167 0.117952
0.349401 0.135744 0.123629
0.382452 0.140322 0.129122
0.415167 0.145663 0.135988
0.447944 0.151064 0.143404
0.480507 0.158450 0.153414
0.512993 0.167758 0.164736
0.545403 0.177401 0.177523
0.578332 0.187411 0.190249
0.611597 0.198428 0.202762
0.645136 0.209110 0.216007
0.678676 0.220340 0.229557
0.717983 0.234165 0.245518
0.755856 0.248295 0.261479
0.791501 0.262242 0.277104
0.825498 0.276158 0.293431
0.858518 0.290745 0.309514
0.890776 0.305974 0.326268
0.922698 0.321965 0.343481
0.954192 0.339208 0.362280
0.985199 0.357977 0.382086
1.000000 0.378576 0.403662
0.064363 0.114107 0.084810
0.067903 0.114870 0.085237
0.086854 0.114046 0.091310
0.098421 0.112795 0.102510
0.104494 0.112032 0.117647
0.151644 0.131044 0.106050
0.191318 0.135378 0.097078
0.222354 0.138277 0.098939
0.253544 0.141695 0.105501
0.285191 0.145724 0.111025
0.317113 0.149203 0.116548
0.349554 0.152773 0.122103
0.381964 0.157107 0.127382
0.414588 0.161776 0.134157
0.447089 0.166934 0.142550
0.479835 0.173190 0.152438
0.512230 0.181857 0.164401
0.544884 0.190463 0.176394
0.577722 0.199649 0.189487
0.610834 0.209476 0.202396
0.644343 0.219730 0.215396
0.678462 0.229953 0.229221
0.717769 0.243351 0.244846
0.754879 0.256504 0.260960
0.790188 0.269993 0.276310
0.824125 0.283207 0.292546
0.857084 0.297063 0.308659
0.889281 0.311498 0.325109
0.920928 0.326879 0.342229
0.952209 0.343420 0.360754
0.983124 0.361425 0.380255
1.000000 0.381384 0.401740
0.090608 0.142153 0.102907
0.092439 0.142702 0.103822
0.099886 0.142824 0.106050
0.112764 0.141665 0.115297
0.125460 0.140169 0.128176
0.129549 0.138796 0.145388
0.174472 0.159243 0.137819
0.227665 0.168612 0.113985
0.259586 0.166262 0.103151
0.290379 0.168978 0.108675
0.321752 0.171786 0.113985
0.353429 0.174929 0.119692
0.385443 0.178347 0.125429
0.417762 0.182254 0.132326
0.450202 0.186709 0.141299
0.482368 0.192813 0.151003
0.514763 0.199771 0.164248
0.547356 0.207950 0.176333
0.580163 0.216159 0.189425
0.613245 0.224979 0.202060
0.646479 0.234195 0.215732
0.683040 0.245090 0.229862
0.753628 0.270787 0.259403
0.793027 0.285100 0.277897
0.829068 0.298985 0.294987
0.862669 0.312657 0.312169
0.894438 0.326696 0.329168
0.924865 0.341100 0.346410
0.954498 0.356573 0.364569
0.983429 0.373083 0.383093
1.000000 0.390997 0.403235
1.000000 0.410681 0.424720
0.109712 0.176516 0.123507
0.111543 0.176730 0.123415
0.117403 0.177829 0.124727
0.130739 0.176577 0.132509
0.144991 0.175174 0.144167
0.157595 0.173404 0.159976
0.162173 0.172488 0.179843
0.203098 0.193362 0.177401
0.271153 0.209598 0.140902
0.304570 0.204776 0.121035
0.337041 0.201785 0.109316
0.368750 0.204135 0.115206
0.400488 0.206760 0.121706
0.432319 0.209476 0.130159
0.463844 0.213352 0.140139
0.495399 0.218692 0.152316
0.527062 0.224796 0.165164
0.559075 0.231357 0.178653
0.591730 0.238926 0.191989
0.625086 0.246952 0.205447
0.659693 0.255741 0.218753
0.702968 0.268956 0.236332
0.744808 0.282292 0.254887
0.784665 0.295933 0.272740
0.822080 0.309239 0.290593
0.856474 0.322423 0.308202
0.888426 0.335393 0.325292
0.918791 0.348669 0.341985
0.948302 0.362890 0.359686
0.976989 0.378027 0.377966
1.000000 0.394720 0.397711
1.000000 0.413306 0.418769
0.128847 0.206851 0.143374
0.129976 0.206912 0.143557
0.134615 0.208072 0.143893
0.146334 0.207309 0.150271
0.160555 0.206424 0.160708
0.175479 0.205234 0.174044
0.187167 0.203372 0.191226
0.191043 0.203159 0.211643
0.226749 0.223148 0.215396
0.301946 0.244327 0.174960
0.339483 0.241398 0.149874
0.373938 0.232029 0.109468
0.405005 0.232303 0.112215
0.436011 0.234592 0.121675
0.466804 0.237766 0.134096
0.497444 0.241917 0.147799
0.528588 0.246952 0.161471
0.559991 0.252811 0.174868
0.592401 0.259403 0.188754
0.625483 0.266270 0.202609
0.663722 0.276066 0.218204
0.704982 0.287755 0.235233
0.744472 0.299626 0.252659
0.782681 0.311498 0.270817
0.818906 0.323735 0.288121
0.852689 0.335515 0.305180
0.884276 0.347234 0.321965
0.914519 0.359380 0.338445
0.943938 0.372564 0.356054
0.972686 0.386603 0.374273
1.000000 0.402350 0.393805
1.000000 0.419776 0.414527
0.150149 0.238041 0.166323
0.150942 0.237980 0.166140
0.154665 0.238956 0.166567
0.163760 0.239048 0.170626
0.177829 0.238193 0.179477
0.192691 0.237064 0.191348
0.206668 0.235874 0.206058
0.217472 0.234867 0.224033
0.221469 0.234897 0.244663
0.250492 0.253422 0.254582
0.325841 0.276555 0.216526
0.374121 0.279362 0.185031
0.408942 0.269749 0.145357
0.442054 0.261753 0.106905
0.472145 0.264256 0.124086
0.502281 0.267460 0.140444
0.532799 0.271611 0.155703
0.563867 0.276310 0.170901
0.595605 0.281926 0.185306
0.630549 0.289250 0.200259
0.670192 0.299260 0.217044
0.708797 0.309239 0.233829
0.746456 0.319463 0.251011
0.783108 0.330144 0.268559
0.818235 0.340948 0.285893
0.851164 0.351507 0.302556
0.882414 0.362158 0.319341
0.912352 0.373327 0.336095
0.941650 0.385382 0.353460
0.970245 0.398444 0.371618
0.998413 0.412970 0.391058
1.000000 0.429328 0.411627
0.171756 0.269200 0.189853
0.172702 0.269169 0.189700
0.175601 0.269718 0.189975
0.183230 0.270268 0.192691
0.195346 0.269169 0.200015
0.209476 0.268070 0.209659
0.224338 0.266880 0.222751
0.238071 0.266117 0.238499
0.247959 0.265721 0.256779
0.251804 0.266331 0.277134
0.273960 0.282750 0.292271
0.348638 0.307469 0.256718
0.407324 0.315953 0.220706
0.441444 0.307988 0.186709
0.476570 0.295750 0.132113
0.507683 0.293950 0.127718
0.538201 0.297642 0.146273
0.569329 0.301610 0.163455
0.602899 0.307683 0.180087
0.640467 0.315923 0.197421
0.677638 0.324193 0.214664
0.713344 0.332311 0.231632
0.748074 0.340795 0.247807
0.782162 0.349371 0.264958
0.815000 0.358312 0.281376
0.846769 0.367132 0.297520
0.877317 0.376623 0.314366
0.907317 0.386847 0.331060
0.936980 0.397955 0.348699
0.966033 0.410376 0.367407
0.994781 0.424231 0.387152
1.000000 0.439887 0.408179
0.192996 0.298009 0.212772
0.193393 0.298161 0.212467
0.195956 0.298680 0.212955
0.201846 0.299718 0.214145
0.213016 0.299138 0.220401
0.226352 0.298528 0.229404
0.241154 0.297642 0.240757
0.256077 0.296941 0.254673
0.269108 0.296910 0.270787
0.278874 0.297063 0.289494
0.282750 0.298131 0.309758
0.298192 0.312413 0.330449
0.372717 0.338903 0.296147
0.441535 0.353338 0.257298
0.476081 0.347417 0.227939
0.510796 0.336339 0.184146
0.544854 0.324926 0.130892
0.578454 0.329992 0.152621
0.613642 0.336309 0.172519
0.649042 0.342992 0.190982
0.683925 0.349615 0.209384
0.717617 0.356359 0.226963
0.751003 0.363500 0.243809
0.783780 0.370916 0.261143
0.815885 0.378698 0.277745
0.846891 0.386603 0.294438
0.877043 0.395148 0.311040
0.906706 0.404303 0.328344
0.936095 0.414466 0.346044
0.965087 0.425971 0.364996
0.993683 0.438880 0.384894
1.000000 0.453590 0.406104
0.214694 0.328130 0.235599
0.215183 0.328222 0.235691
0.218082 0.328801 0.236179
0.222477 0.329747 0.236667
0.232273 0.329625 0.241642
0.244663 0.329229 0.249729
0.258885 0.329015 0.259770
0.274052 0.328527 0.272557
0.288823 0.328405 0.287297
0.301427 0.328649 0.303990
0.310918 0.329412 0.322545
0.315038 0.330938 0.342748
0.336004 0.354986 0.380468
0.413367 0.383886 0.346014
0.484047 0.400061 0.307836
0.531182 0.400671 0.276646
0.571771 0.394720 0.242008
0.612421 0.383764 0.187961
0.650202 0.381048 0.168338
0.685054 0.386603 0.191653
0.718441 0.391882 0.212955
0.750576 0.397131 0.232853
0.782040 0.402869 0.251591
0.812772 0.408667 0.269718
0.842588 0.414954 0.286931
0.871305 0.421332 0.304082
0.899077 0.428260 0.321080
0.926177 0.435706 0.338293
0.952941 0.444190 0.355840
0.979644 0.453986 0.374182
1.000000 0.465370 0.393835
1.000000 0.478737 0.415137
0.242039 0.365179 0.264073
0.242527 0.365270 0.263859
0.244236 0.365393 0.264103
0.248386 0.365942 0.264164
0.255955 0.365911 0.267247
0.267460 0.365026 0.274144
0.280827 0.364477 0.283055
0.295689 0.363958 0.294224
0.311070 0.363775 0.307530
0.325719 0.364294 0.322881
0.338964 0.365576 0.340642
0.349187 0.367590 0.360418
0.354620 0.370550 0.381903
0.363745 0.385077 0.414405
0.443244 0.418982 0.386969
0.519585 0.440681 0.352300
0.579095 0.448157 0.318700
0.616114 0.440986 0.287449
0.652857 0.429480 0.243259
0.688869 0.413550 0.175570
0.719905 0.416846 0.199252
0.750484 0.420813 0.220737
0.780636 0.425086 0.241337
0.810422 0.429938 0.260105
0.839506 0.435035 0.278874
0.868070 0.440589 0.296788
0.895872 0.446754 0.314214
0.923125 0.453590 0.332036
0.950225 0.461402 0.350286
0.977264 0.470588 0.369299
1.000000 0.481209 0.389502
1.000000 0.493812 0.411505
0.263310 0.394018 0.285313
0.263493 0.394018 0.285313
0.265019 0.394018 0.285374
0.268620 0.394415 0.285618
0.274540 0.394720 0.286809
0.284977 0.394018 0.292851
0.297581 0.393286 0.300542
0.311986 0.393011 0.310674
0.327123 0.392950 0.322698
0.342565 0.393622 0.336919
0.357580 0.394842 0.353094
0.373358 0.399145 0.373480
0.386603 0.404486 0.396155
0.395270 0.410712 0.420569
0.405371 0.425513 0.453315
0.477943 0.457404 0.429419
0.553124 0.478950 0.394018
0.620661 0.490181 0.355138
0.654078 0.482399 0.327276
0.687434 0.470344 0.289342
0.720668 0.455177 0.237736
0.752407 0.445930 0.205936
0.781643 0.449165 0.228977
0.810758 0.453132 0.250217
0.839445 0.457404 0.269932
0.867552 0.462135 0.288762
0.895140 0.467536 0.307561
0.922362 0.473487 0.325963
0.949371 0.480690 0.344976
0.976379 0.489052 0.364935
1.000000 0.498909 0.385657
1.000000 0.510735 0.408270
0.284276 0.423316 0.306310
0.284581 0.423377 0.306340
0.286259 0.423377 0.306401
0.289158 0.423560 0.306554
0.294011 0.424109 0.306859
0.303319 0.423468 0.311925
0.315618 0.423468 0.319432
0.330266 0.424201 0.329015
0.346441 0.425544 0.340917
0.363561 0.427649 0.355322
0.381201 0.430335 0.371740
0.398291 0.434150 0.390265
0.413977 0.438605 0.410986
0.426581 0.443488 0.433265
0.434363 0.448737 0.456672
0.443580 0.462196 0.487861
0.509300 0.492287 0.468147
0.583124 0.513939 0.432441
0.649958 0.525414 0.393530
0.688045 0.520287 0.363714
0.718959 0.509056 0.331151
0.750912 0.494728 0.288548
0.783200 0.478035 0.230289
0.812253 0.477272 0.237430
0.840238 0.480751 0.259190
0.867979 0.484688 0.280003
0.895567 0.489387 0.299962
0.922972 0.495094 0.319829
0.950439 0.501762 0.340429
0.977966 0.509941 0.361730
1.000000 0.519829 0.384192
1.000000 0.531548 0.408118
0.309270 0.457649 0.330358
0.309850 0.457862 0.330571
0.311192 0.458076 0.330694
0.314397 0.458717 0.331121
0.319127 0.459602 0.331548
0.327794 0.460182 0.335546
0.339940 0.460670 0.342901
0.353796 0.461616 0.351843
0.369940 0.462806 0.363012
0.386816 0.464607 0.375952
0.404395 0.466743 0.390875
0.421973 0.469245 0.407568
0.438178 0.472328 0.425788
0.452461 0.475471 0.445411
0.463386 0.479011 0.466316
0.469642 0.482734 0.488106
0.477943 0.494911 0.517937
0.537072 0.523552 0.503532
0.608515 0.544945 0.468177
0.672816 0.556207 0.430426
0.718837 0.555474 0.397803
0.749081 0.545434 0.369299
0.780331 0.532830 0.333165
0.812222 0.517662 0.286320
0.843168 0.505638 0.246555
0.870939 0.509087 0.270054
0.898466 0.513359 0.292149
0.925811 0.518425 0.313756
0.953063 0.524498 0.335515
0.980163 0.531884 0.357763
1.000000 0.540673 0.380957
1.000000 0.551293 0.405432
0.333684 0.491402 0.353307
0.334112 0.491402 0.353307
0.335515 0.491615 0.353429
0.337987 0.492195 0.353765
0.342596 0.492927 0.354345
0.349737 0.493843 0.356634
0.361120 0.494209 0.363165
0.374701 0.494881 0.371527
0.389837 0.495857 0.381567
0.406287 0.497200 0.393256
0.423651 0.499031 0.406928
0.441260 0.501091 0.422004
0.458473 0.503655 0.438880
0.474220 0.506249 0.457099
0.487861 0.509148 0.476417
0.498177 0.512322 0.496895
0.503990 0.515770 0.518212
0.512474 0.527520 0.547631
0.564782 0.554620 0.538933
0.633112 0.575525 0.504417
0.695979 0.587366 0.467964
0.749722 0.590539 0.431952
0.779202 0.581781 0.406653
0.809628 0.570642 0.375525
0.840818 0.556909 0.336339
0.872587 0.541039 0.286107
0.901610 0.537957 0.282475
0.928923 0.542535 0.306371
0.956146 0.548119 0.329839
0.983154 0.554925 0.353674
1.000000 0.563134 0.378210
1.000000 0.573144 0.404089
0.358312 0.525170 0.375708
0.358984 0.525444 0.375860
0.371801 0.541314 0.386572
0.374426 0.541619 0.386847
0.378637 0.542504 0.387457
0.384558 0.543603 0.388098
0.395575 0.543725 0.394141
0.408637 0.544121 0.401862
0.423468 0.545068 0.411261
0.440162 0.546410 0.422492
0.457801 0.547967 0.435218
0.475990 0.549828 0.449775
0.493660 0.551537 0.465370
0.510399 0.553246 0.482307
0.525322 0.555016 0.500237
0.537804 0.556725 0.519219
0.546746 0.558556 0.539055
0.551446 0.561028 0.559808
0.558404 0.571069 0.587457
0.601678 0.594995 0.583917
0.666773 0.615015 0.549737
0.727474 0.626368 0.513695
0.783780 0.630762 0.475288
0.815244 0.623316 0.449348
0.843900 0.612055 0.420630
0.873289 0.598932 0.386236
0.903471 0.583368 0.343694
0.933989 0.568292 0.298253
0.960113 0.572839 0.323674
0.986481 0.578698 0.348852
1.000000 0.586175 0.374853
1.000000 0.595361 0.401587
0.386236 0.563287 0.400519
0.387610 0.564782 0.401526
0.390143 0.566552 0.402686
0.393530 0.568414 0.403998
0.398291 0.570184 0.405280
0.404089 0.571527 0.406226
0.413336 0.572045 0.410498
0.425422 0.572168 0.417395
0.439551 0.572747 0.425940
0.455299 0.573571 0.436042
0.472389 0.574792 0.447883
0.489937 0.576196 0.461219
0.507622 0.577508 0.475746
0.524651 0.578973 0.491463
0.540734 0.580407 0.508446
0.554925 0.582055 0.526482
0.566827 0.583764 0.545464
0.575708 0.586114 0.565454
0.580957 0.589258 0.586175
0.588464 0.599420 0.613031
0.625422 0.622065 0.615686
0.688777 0.643336 0.584802
0.747799 0.655787 0.551476
0.803006 0.661036 0.514733
0.841245 0.656580 0.484718
0.869108 0.646632 0.459174
0.897917 0.634638 0.428901
0.927886 0.621027 0.393011
0.958892 0.605921 0.350042
0.987823 0.601160 0.340459
1.000000 0.608026 0.368231
1.000000 0.616571 0.396765
0.407477 0.591821 0.418982
0.409155 0.593408 0.420325
0.411444 0.595300 0.421454
0.415015 0.597192 0.422950
0.419409 0.598901 0.424384
0.424720 0.600244 0.425208
0.432563 0.600977 0.427832
0.444221 0.601099 0.434455
0.457496 0.601434 0.442298
0.472450 0.602014 0.451728
0.488655 0.602869 0.462501
0.505852 0.603876 0.474952
0.523339 0.605035 0.488563
0.540581 0.606317 0.503563
0.557336 0.607691 0.519738
0.572778 0.609033 0.536950
0.586450 0.610712 0.555230
0.597742 0.612696 0.574090
0.606470 0.615320 0.593622
0.612024 0.618830 0.613703
0.619440 0.628626 0.639277
0.650660 0.649897 0.647181
0.711513 0.671656 0.619043
0.768521 0.684962 0.588434
0.821653 0.691096 0.554742
0.866300 0.689631 0.521019
0.893492 0.680781 0.497902
0.921965 0.670253 0.471168
0.951781 0.658625 0.440894
0.983001 0.645747 0.405890
1.000000 0.631708 0.364874
1.000000 0.638392 0.391333
0.429786 0.620569 0.438544
0.431189 0.622004 0.439612
0.433509 0.623713 0.440894
0.436652 0.625422 0.442359
0.440650 0.626947 0.443458
0.445624 0.628046 0.444160
0.452003 0.629114 0.445319
0.462959 0.629145 0.451453
0.475624 0.629541 0.458961
0.489937 0.629908 0.467689
0.505516 0.630701 0.478035
0.522271 0.631525 0.489784
0.539544 0.632532 0.502739
0.556847 0.633631 0.517021
0.573968 0.634974 0.532555
0.590356 0.636469 0.549371
0.605676 0.638544 0.567041
0.619562 0.640986 0.585626
0.631586 0.644282 0.605005
0.641444 0.648463 0.625147
0.648493 0.653559 0.645930
0.657252 0.664393 0.671626
0.683467 0.684688 0.684993
0.742519 0.707485 0.659876
0.797391 0.721859 0.632776
0.849088 0.729244 0.602441
0.898009 0.730739 0.568383
0.925841 0.724178 0.548669
0.954192 0.716152 0.527184
0.984192 0.706569 0.502068
1.000000 0.695888 0.474189
1.000000 0.684077 0.442908
0.461006 0.658412 0.466041
0.461860 0.659083 0.466682
0.463081 0.659693 0.467109
0.465217 0.660304 0.467628
0.468421 0.660761 0.467964
0.472480 0.661189 0.468452
0.477729 0.661830 0.468971
0.487129 0.661982 0.473487
0.499062 0.662165 0.480446
0.513085 0.662684 0.489052
0.528405 0.663355 0.499062
0.544793 0.664271 0.510460
0.561608 0.665095 0.522972
0.578973 0.666133 0.536950
0.596094 0.667170 0.551720
0.612634 0.668421 0.567407
0.628290 0.669978 0.583795
0.642847 0.671962 0.600977
0.655848 0.674464 0.618860
0.667140 0.677546 0.637324
0.676081 0.681361 0.656367
0.682429 0.685939 0.675837
0.689937 0.695277 0.699550
0.709926 0.712795 0.715969
0.765316 0.734951 0.692439
0.817746 0.749630 0.667231
0.867521 0.758053 0.639857
0.915251 0.761166 0.609430
0.948730 0.757839 0.587884
0.976410 0.751919 0.570977
1.000000 0.744991 0.551965
1.000000 0.736782 0.530541
0.484993 0.686641 0.487343
0.485725 0.687160 0.487617
0.486976 0.687739 0.488106
0.489021 0.688258 0.488746
0.491798 0.688746 0.489174
0.495613 0.689204 0.489601
0.500603 0.689815 0.490059
0.508293 0.690303 0.492775
0.519860 0.690547 0.499672
0.533318 0.690913 0.507897
0.547875 0.691585 0.517479
0.563806 0.692348 0.528466
0.580377 0.693233 0.540642
0.597498 0.694240 0.553796
0.614557 0.695399 0.567987
0.631281 0.696742 0.582879
0.647517 0.698451 0.598627
0.662898 0.700435 0.615076
0.677119 0.702846 0.632258
0.689906 0.705745 0.649989
0.700954 0.709285 0.668269
0.709804 0.713405 0.686915
0.716182 0.718135 0.705806
0.723507 0.727138 0.728481
0.733272 0.737728 0.743526
0.785794 0.759548 0.721706
0.836240 0.774990 0.699062
0.884306 0.784665 0.674586
0.930755 0.789334 0.647547
0.969329 0.788815 0.623987
0.996246 0.785214 0.611383
1.000000 0.780789 0.597681
0.515801 0.720272 0.514672
0.516869 0.721126 0.515435
0.518120 0.721645 0.515953
0.519585 0.721706 0.516075
0.521508 0.721584 0.515862
0.524346 0.721279 0.515679
0.527947 0.721035 0.515404
0.533074 0.720912 0.515496
0.543236 0.720272 0.521324
0.555230 0.719814 0.528557
0.568353 0.719539 0.536889
0.583001 0.719570 0.546715
0.598383 0.719753 0.557458
0.614130 0.720058 0.569268
0.629908 0.720363 0.581689
0.645686 0.720851 0.595056
0.661341 0.721736 0.609339
0.676661 0.723201 0.624659
0.691371 0.725338 0.640864
0.705348 0.728176 0.658045
0.718013 0.731594 0.675746
0.728756 0.735439 0.693843
0.737240 0.739498 0.711818
0.743008 0.743709 0.729641
0.748928 0.751308 0.750484
0.758816 0.764431 0.772610
0.808011 0.785458 0.752071
0.855833 0.801022 0.731289
0.901823 0.811368 0.709133
0.946471 0.817288 0.685237
0.989227 0.819089 0.659510
1.000000 0.817472 0.650904
0.538689 0.745083 0.534783
0.539696 0.745907 0.535729
0.541009 0.746517 0.536309
0.542535 0.746853 0.536706
0.544854 0.747036 0.536889
0.547845 0.747341 0.537072
0.551904 0.747738 0.537591
0.557183 0.748318 0.538048
0.566339 0.748592 0.542809
0.578210 0.748806 0.550195
0.591424 0.749020 0.558556
0.605615 0.749386 0.568048
0.620417 0.749752 0.578332
0.635798 0.750057 0.589471
0.651270 0.750332 0.601282
0.666773 0.750668 0.613886
0.682155 0.751339 0.627344
0.697322 0.752438 0.641657
0.712215 0.754208 0.656947
0.726497 0.756649 0.673152
0.739925 0.759609 0.690059
0.751888 0.763058 0.707332
0.762020 0.766781 0.724666
0.770047 0.770840 0.742031
0.775631 0.775051 0.759182
0.781308 0.782223 0.779019
0.790005 0.794430 0.800870
0.833616 0.814420 0.785153
0.879149 0.830655 0.767330
0.922881 0.842130 0.748684
0.965118 0.849516 0.728878
1.000000 0.853178 0.707210
0.566979 0.774563 0.559991
0.567651 0.774990 0.560510
0.568505 0.775235 0.560784
0.569879 0.775418 0.560906
0.571771 0.775540 0.561059
0.574365 0.775662 0.561120
0.577996 0.775937 0.561395
0.582605 0.776364 0.561883
0.589685 0.776791 0.564324
0.600763 0.776822 0.571130
0.613184 0.776913 0.578973
0.626703 0.777188 0.587823
0.640986 0.777523 0.597711
0.655787 0.777798 0.608179
0.670741 0.778012 0.619440
0.685817 0.778317 0.631281
0.700923 0.778744 0.643946
0.715999 0.779629 0.657557
0.730922 0.781094 0.672053
0.745510 0.783169 0.687526
0.759274 0.785794 0.703578
0.771908 0.788785 0.720027
0.782925 0.791958 0.736568
0.792172 0.795346 0.753079
0.799344 0.798978 0.769467
0.804349 0.802762 0.785580
0.809323 0.809110 0.803983
0.817227 0.820249 0.824399
0.854826 0.838773 0.813535
0.898131 0.855650 0.798581
0.939513 0.868193 0.783474
0.979095 0.877195 0.768063
0.593256 0.801755 0.583154
0.593866 0.802121 0.583490
0.594659 0.802426 0.583825
0.596063 0.802762 0.584253
0.598230 0.803189 0.584771
0.601282 0.803922 0.585443
0.605951 0.805173 0.586969
0.611597 0.806851 0.588769
0.618738 0.808896 0.591058
0.630854 0.810483 0.599023
0.644404 0.812222 0.608270
0.658808 0.813901 0.618250
0.674037 0.815427 0.629023
0.689448 0.816709 0.640223
0.704799 0.817685 0.651850
0.719905 0.818326 0.663661
0.734768 0.818875 0.675868
0.749630 0.819730 0.688899
0.764309 0.821012 0.702693
0.778683 0.822751 0.717281
0.792355 0.824949 0.732387
0.805081 0.827420 0.747829
0.816434 0.829984 0.763302
0.826230 0.832731 0.778714
0.834257 0.835599 0.793942
0.840452 0.838712 0.808957
0.844846 0.842069 0.823758
0.848905 0.847440 0.840421
0.855711 0.857084 0.858732
0.886351 0.873381 0.852354
0.925658 0.890013 0.840726
0.962768 0.902953 0.829740
0.633570 0.839811 0.619409
0.633722 0.839841 0.619409
0.634150 0.839841 0.619471
0.635035 0.839841 0.619471
0.636652 0.839872 0.619532
0.638911 0.840085 0.619806
0.642145 0.840482 0.620233
0.646326 0.841093 0.620935
0.651698 0.842039 0.622126
0.660212 0.842679 0.626459
0.671717 0.843137 0.633906
0.684169 0.843656 0.642298
0.697658 0.844175 0.651575
0.711543 0.844694 0.661433
