20 Preset/Gray style/【3】LUT video cho PR-AE-FCPX/Tone  (7).cube
# Created by Adobe Lightroom plugin Export LUT (1.24.0)
# www.johnrellis.com/lightroom/exportlut.htm
# Preset: 07素材江湖-高级灰
# Color profile: E:\lut插件\exportlut.1.24\exportlut.lrplugin\color profiles\Rec709gamma2.4.icc
LUT_3D_SIZE 5
DOMAIN_MIN 0.000000 0.000000 0.000000
DOMAIN_MAX 0.903226 0.903226 0.903226
0.000000 0.000000 0.000000
0.167056 0.000000 0.028931
0.380926 0.000000 0.113252
0.618433 0.000000 0.168460
0.902312 0.000000 0.266361
0.092805 0.155215 0.103456
0.189883 0.183200 0.098726
0.389899 0.189181 0.127565
0.628595 0.168643 0.183749
0.909087 0.139498 0.278874
0.227604 0.358892 0.245426
0.266667 0.373785 0.242008
0.462043 0.437934 0.233188
0.671534 0.440864 0.249119
0.912078 0.446632 0.318944
0.393225 0.596796 0.399969
0.417914 0.603754 0.401892
0.534722 0.654353 0.391424
0.760952 0.711025 0.396796
0.952789 0.707027 0.439582
0.623102 0.854582 0.604028
0.637995 0.857084 0.606867
0.688991 0.871275 0.597559
0.823239 0.915038 0.599237
0.998993 0.941466 0.653376
0.103548 0.128695 0.191501
0.193790 0.128908 0.228672
0.392554 0.148165 0.265232
0.632319 0.000000 0.285649
0.896056 0.000000 0.322515
0.165164 0.204623 0.222538
0.217166 0.226810 0.242985
0.421149 0.190921 0.231449
0.645045 0.155367 0.263340
0.899382 0.104005 0.328252
0.266972 0.384497 0.322301
0.297337 0.391791 0.325933
0.462593 0.445258 0.314946
0.664393 0.439673 0.310643
0.914336 0.447364 0.369268
0.416602 0.609766 0.445869
0.439399 0.615290 0.449348
0.544182 0.660426 0.446235
0.762325 0.716487 0.450355
0.950652 0.710933 0.479561
0.634302 0.857542 0.627680
0.647944 0.859709 0.629999
0.706691 0.879667 0.634821
0.830869 0.920256 0.635279
1.000000 0.946532 0.684810
0.253574 0.298619 0.424353
0.288151 0.301701 0.441413
0.447089 0.310277 0.494118
0.618799 0.387793 0.529107
0.890471 0.359411 0.577264
0.310582 0.358709 0.437751
0.328344 0.360906 0.453315
0.455848 0.361547 0.498360
0.648005 0.405005 0.537774
0.902007 0.377508 0.571649
0.388861 0.458045 0.480720
0.410651 0.467536 0.490578
0.503319 0.505303 0.517601
0.720668 0.462013 0.496925
0.940978 0.449439 0.522210
0.510430 0.654261 0.585321
0.521294 0.655787 0.584863
0.584863 0.675593 0.594263
0.769009 0.738796 0.605554
0.944091 0.723232 0.596399
0.666499 0.865293 0.700099
0.678889 0.868376 0.702785
0.728359 0.879454 0.712428
0.834134 0.919829 0.719203
0.993622 0.949554 0.755489
0.453803 0.498573 0.662257
0.472663 0.500908 0.671504
0.551354 0.500023 0.701015
0.714961 0.506371 0.738338
0.870451 0.604181 0.768338
0.487434 0.535454 0.666011
0.499214 0.534966 0.672663
0.562768 0.531365 0.700008
0.714839 0.534386 0.735836
0.868803 0.624170 0.769223
0.563989 0.616724 0.673274
0.577600 0.622126 0.677790
0.613855 0.631403 0.706416
0.729732 0.631067 0.741176
0.879332 0.699519 0.784543
0.642725 0.714351 0.719600
0.651484 0.717067 0.722408
0.691676 0.733669 0.739193
0.778561 0.770016 0.765866
0.963165 0.745205 0.760281
0.769162 0.893736 0.828672
0.774044 0.895872 0.829587
0.794247 0.905303 0.831693
0.850401 0.921965 0.836118
0.988373 0.962097 0.865537
0.737575 0.761990 0.892393
0.743343 0.761685 0.895293
0.771176 0.760678 0.907927
0.835752 0.754879 0.930297
0.947082 0.762722 0.951904
0.749203 0.776211 0.892454
0.754238 0.775906 0.895445
0.778836 0.774258 0.907805
0.839322 0.768063 0.930083
0.948302 0.774624 0.952209
0.785794 0.820706 0.894011
0.790127 0.821530 0.897093
0.807675 0.821897 0.909972
0.854337 0.815824 0.932219
0.955840 0.819150 0.956573
0.834623 0.879271 0.908751
0.838712 0.880339 0.909972
0.857176 0.886137 0.916442
0.886778 0.892241 0.939544
0.969879 0.891234 0.965881
0.885801 0.945678 0.939818
0.889403 0.946807 0.941131
0.905913 0.952636 0.947570
0.938506 0.964477 0.960876
0.990234 0.986267 0.982574
