20 Preset/Gray style/【3】LUT video cho PR-AE-FCPX/Tone  (4).cube
# Created by Adobe Lightroom plugin Export LUT (1.24.0)
# www.johnrellis.com/lightroom/exportlut.htm
# Preset: 04素材江湖-高级灰
# Color profile: E:\lut插件\exportlut.1.24\exportlut.lrplugin\color profiles\Rec709gamma2.4.icc
LUT_3D_SIZE 32
DOMAIN_MIN 0.0 0.0 0.0
DOMAIN_MAX 1.0 1.0 1.0
0.000000 0.000000 0.000000
0.000000 0.000000 0.000000
0.016876 0.000000 0.000916
0.066438 0.000122 0.006592
0.106538 0.010315 0.026154
0.131228 0.021149 0.047639
0.156008 0.032959 0.072908
0.181399 0.040742 0.089479
0.208347 0.038819 0.096620
0.236118 0.036866 0.102449
0.264714 0.026246 0.108553
0.293706 0.014954 0.113008
0.323552 0.000000 0.117494
0.353429 0.000000 0.121523
0.383337 0.000000 0.125582
0.413092 0.000000 0.129610
0.442847 0.000000 0.134035
0.472572 0.000000 0.139712
0.502342 0.000000 0.146914
0.532372 0.000000 0.156344
0.562402 0.000000 0.165011
0.592676 0.000000 0.174502
0.627008 0.000000 0.185214
0.664088 0.000000 0.197421
0.701106 0.000000 0.209384
0.737057 0.000000 0.221042
0.772244 0.000000 0.233860
0.807370 0.000000 0.246830
0.842588 0.000000 0.260563
0.878447 0.000000 0.275364
0.914855 0.000000 0.291417
0.951873 0.000000 0.309239
0.000000 0.000000 0.000000
0.000000 0.000000 0.000000
0.019409 0.001160 0.000580
0.068238 0.005463 0.008087
0.106783 0.014679 0.026673
0.130953 0.027893 0.050111
0.155459 0.037751 0.073457
0.180819 0.044556 0.089296
0.206912 0.046906 0.096315
0.234836 0.042786 0.102663
0.262913 0.035492 0.107637
0.291905 0.020050 0.112642
0.321752 0.001373 0.117067
0.351415 0.000000 0.121126
0.381231 0.000000 0.125490
0.410925 0.000000 0.129183
0.440742 0.000000 0.134005
0.470527 0.000000 0.139528
0.500206 0.000000 0.146456
0.530053 0.000000 0.155550
0.559960 0.000000 0.164370
0.589929 0.000000 0.173953
0.623713 0.000000 0.184695
0.659754 0.000000 0.195834
0.695888 0.000000 0.207340
0.731319 0.000000 0.219272
0.766506 0.000000 0.231724
0.801541 0.000000 0.244114
0.836881 0.000000 0.258000
0.872862 0.000000 0.272923
0.909483 0.000000 0.288792
0.946777 0.000000 0.306310
0.001160 0.016449 0.005646
0.005676 0.018189 0.005310
0.014618 0.016815 0.016602
0.072938 0.031647 0.012329
0.107607 0.041077 0.030945
0.131563 0.052125 0.052430
0.155612 0.060975 0.078157
0.180789 0.068025 0.089784
0.207187 0.068971 0.096834
0.234501 0.065492 0.102754
0.262669 0.056977 0.108461
0.291264 0.045624 0.112642
0.320684 0.027832 0.117098
0.350408 0.005097 0.121187
0.380163 0.000000 0.125490
0.409796 0.000000 0.129183
0.439460 0.000000 0.134005
0.469184 0.000000 0.139498
0.498878 0.000000 0.146365
0.528801 0.000000 0.155001
0.558679 0.000000 0.164370
0.588708 0.000000 0.173587
0.622309 0.000000 0.184237
0.657893 0.000000 0.195834
0.693507 0.000000 0.206943
0.728573 0.000000 0.218296
0.763577 0.000000 0.230686
0.798550 0.000000 0.243198
0.833982 0.000000 0.257084
0.869902 0.000000 0.271458
0.906554 0.000000 0.287419
0.943847 0.000000 0.304845
0.017945 0.062104 0.022797
0.020508 0.064057 0.022492
0.037751 0.062745 0.036988
0.051698 0.061433 0.063996
0.109071 0.086427 0.046571
0.132387 0.090394 0.063813
0.156924 0.093172 0.082521
0.182376 0.094728 0.092103
0.208316 0.095125 0.098573
0.235172 0.094850 0.103548
0.263249 0.091768 0.108858
0.291936 0.087160 0.113039
0.320897 0.077699 0.117678
0.350286 0.054414 0.121767
0.379675 0.028779 0.125490
0.408942 0.000000 0.129397
0.438331 0.000000 0.133944
0.467750 0.000000 0.139284
0.497169 0.000000 0.146578
0.526665 0.000000 0.155001
0.556329 0.000000 0.163973
0.586145 0.000000 0.173220
0.619745 0.000000 0.183993
0.654444 0.000000 0.195102
0.689998 0.000000 0.205997
0.725704 0.000000 0.217655
0.761227 0.000000 0.230076
0.796841 0.000000 0.242985
0.832609 0.000000 0.256718
0.868742 0.000000 0.271244
0.905150 0.000000 0.286870
0.941924 0.000000 0.304021
0.045045 0.099763 0.059693
0.046693 0.100374 0.062776
0.065156 0.099977 0.072755
0.085756 0.098787 0.089296
0.092012 0.098573 0.102144
0.127352 0.112184 0.094789
0.158816 0.115938 0.089662
0.183536 0.116976 0.093751
0.209567 0.116915 0.100069
0.236240 0.116670 0.104952
0.263554 0.115236 0.109773
0.292027 0.112490 0.113863
0.320806 0.108675 0.118410
0.349859 0.102846 0.122103
0.379156 0.095552 0.125978
0.408606 0.081910 0.129885
0.438025 0.053010 0.134401
0.467384 0.019745 0.139864
0.496742 0.000000 0.146639
0.526299 0.000000 0.155520
0.555932 0.000000 0.164584
0.585962 0.000000 0.173800
0.619562 0.000000 0.184298
0.653956 0.000000 0.195346
0.689326 0.000000 0.206271
0.724910 0.000000 0.217899
0.760311 0.000000 0.230076
0.795773 0.000000 0.242863
0.831357 0.000000 0.256382
0.867247 0.000000 0.270665
0.903532 0.000000 0.286473
0.940063 0.000000 0.303288
0.073854 0.121523 0.091676
0.077790 0.121950 0.092409
0.087007 0.122347 0.093874
0.097505 0.121401 0.101076
0.107454 0.120790 0.110842
0.112764 0.120180 0.123232
0.145144 0.134279 0.119081
0.187045 0.142214 0.104250
0.212802 0.141817 0.101625
0.239048 0.141848 0.107057
0.266209 0.141146 0.111330
0.294224 0.139315 0.115908
0.322820 0.136965 0.119722
0.351843 0.133028 0.123293
0.381079 0.128237 0.127352
0.410224 0.121279 0.130678
0.439551 0.113069 0.135378
0.468971 0.103883 0.140749
0.498207 0.096620 0.147951
0.527611 0.086336 0.156283
0.557214 0.064637 0.165652
0.588312 0.042145 0.175235
0.642603 0.014771 0.192477
0.680262 0.000000 0.204440
0.717098 0.000000 0.216678
0.753079 0.000000 0.228885
0.788174 0.000000 0.241794
0.822843 0.000000 0.254978
0.857450 0.000000 0.268956
0.892088 0.000000 0.283513
0.926940 0.000000 0.299351
0.961700 0.000000 0.316350
0.095094 0.146792 0.107668
0.095674 0.146761 0.108003
0.100282 0.147921 0.109010
0.110201 0.147097 0.114351
0.121187 0.146456 0.122957
0.131899 0.145357 0.134310
0.137118 0.144839 0.147921
0.168093 0.160159 0.147036
0.220890 0.173495 0.123079
0.247349 0.172457 0.117464
0.274998 0.170840 0.114961
0.303136 0.169833 0.118288
0.331823 0.167575 0.121736
0.360571 0.164553 0.125460
0.389075 0.160800 0.128664
0.417975 0.155550 0.132204
0.446754 0.150423 0.136721
0.475746 0.144991 0.142824
0.504906 0.140200 0.150912
0.534508 0.135775 0.159426
0.564721 0.130434 0.168734
0.600244 0.125246 0.179843
0.636744 0.120119 0.191592
0.674525 0.113252 0.203281
0.712245 0.104891 0.215671
0.748653 0.095827 0.228244
0.783810 0.086122 0.240848
0.818326 0.069001 0.253819
0.852628 0.062348 0.267338
0.887022 0.057771 0.281865
0.921691 0.069001 0.297398
0.956420 0.092470 0.314092
0.109560 0.170779 0.123659
0.110414 0.170901 0.123903
0.114443 0.171847 0.123903
0.122499 0.171572 0.128359
0.133822 0.170871 0.135744
0.145632 0.170321 0.145449
0.155154 0.169619 0.157504
0.160525 0.169467 0.172580
0.187716 0.184237 0.176608
0.245487 0.201297 0.149538
0.278172 0.202518 0.136873
0.306462 0.198764 0.122286
0.334264 0.196811 0.123476
0.362432 0.194644 0.126314
0.390814 0.191379 0.129549
0.418982 0.187839 0.132998
0.447639 0.183444 0.138064
0.476143 0.180362 0.143465
0.505211 0.176730 0.152163
0.534661 0.173281 0.160464
0.566735 0.170474 0.170443
0.601129 0.168124 0.181338
0.636561 0.165042 0.192294
0.673182 0.161654 0.204105
0.710262 0.158022 0.215885
0.746090 0.153689 0.228367
0.780819 0.150088 0.240513
0.815213 0.146334 0.253330
0.849485 0.144686 0.266850
0.883757 0.144259 0.281224
0.918364 0.146975 0.296544
0.953063 0.152865 0.313207
0.125948 0.196384 0.141482
0.126406 0.196506 0.140993
0.129427 0.197177 0.141238
0.136721 0.197330 0.144656
0.147066 0.197024 0.150912
0.159030 0.196292 0.159396
0.170809 0.195560 0.170077
0.180575 0.195224 0.183536
0.185428 0.195682 0.199130
0.208286 0.209628 0.207736
0.267308 0.228336 0.180819
0.308965 0.233585 0.160830
0.337133 0.229496 0.143679
0.365576 0.224552 0.127596
0.393835 0.221836 0.131044
0.421576 0.218875 0.134463
0.449928 0.215518 0.138979
0.478126 0.213077 0.145235
0.506920 0.210513 0.153536
0.537194 0.208316 0.162844
0.569848 0.207401 0.172671
0.603204 0.205478 0.183169
0.637751 0.203830 0.193973
0.673671 0.202121 0.205356
0.709957 0.200534 0.216953
0.745174 0.197940 0.228794
0.779690 0.195224 0.241184
0.813779 0.193088 0.253941
0.847868 0.191928 0.267430
0.881956 0.192447 0.281498
0.916442 0.194095 0.296818
0.951049 0.198917 0.313146
0.142947 0.222477 0.159640
0.143465 0.222538 0.160006
0.145876 0.222995 0.159854
0.152163 0.223636 0.161898
0.161929 0.222965 0.167178
0.172915 0.222568 0.174350
0.185122 0.221805 0.184024
0.196658 0.221622 0.196109
0.206058 0.221622 0.209995
0.211185 0.222385 0.225772
0.229923 0.234989 0.238590
0.288518 0.255131 0.212955
0.338476 0.264591 0.187228
0.366949 0.260655 0.168978
0.396155 0.253605 0.141268
0.424262 0.249638 0.135073
0.452674 0.247288 0.140078
0.480842 0.245212 0.146914
0.510613 0.243778 0.155795
0.542016 0.242985 0.165286
0.573816 0.241764 0.175753
0.605737 0.240482 0.185611
0.638727 0.239658 0.195407
0.673304 0.238071 0.206577
0.707881 0.236637 0.217563
0.742153 0.234989 0.228824
0.776120 0.233646 0.240970
0.810117 0.232883 0.253178
0.844327 0.232029 0.266819
0.878813 0.232517 0.281041
0.913573 0.234592 0.296330
0.948608 0.238499 0.312993
0.160372 0.248051 0.177554
0.160494 0.248142 0.177859
0.162783 0.248508 0.178073
0.167208 0.249607 0.179049
0.176577 0.249088 0.183810
0.187472 0.248783 0.190707
0.199557 0.248417 0.199344
0.211948 0.248325 0.210086
0.223423 0.248325 0.222599
0.232609 0.248631 0.237186
0.237675 0.249729 0.253422
0.251438 0.260868 0.270665
0.310552 0.282231 0.244999
0.365637 0.294621 0.217044
0.397314 0.292699 0.197147
0.426551 0.286442 0.170962
0.455756 0.278691 0.141390
0.485267 0.277653 0.150088
0.515435 0.277195 0.158999
0.546075 0.276402 0.167971
0.576928 0.275212 0.177798
0.608179 0.274113 0.187900
0.640742 0.273350 0.197696
0.674556 0.273014 0.207919
0.708705 0.271885 0.219089
0.742428 0.271031 0.230320
0.776028 0.270390 0.242008
0.809842 0.269383 0.254704
0.843778 0.269505 0.267796
0.878202 0.270420 0.282078
0.912840 0.272343 0.297276
0.947814 0.275700 0.314000
0.177829 0.274388 0.196384
0.178103 0.274540 0.196628
0.180423 0.275029 0.196933
0.184543 0.275792 0.197543
0.192020 0.275944 0.201297
0.202426 0.275700 0.207370
0.214359 0.275395 0.215213
0.227207 0.275425 0.225223
0.239567 0.275456 0.236942
0.250950 0.275761 0.250126
0.259922 0.276463 0.265141
0.264988 0.277775 0.281621
0.281224 0.294072 0.309300
0.341009 0.316991 0.284337
0.397345 0.330602 0.256168
0.439002 0.333532 0.232639
0.471260 0.329503 0.210056
0.503716 0.322667 0.178622
0.535241 0.318730 0.166934
0.566491 0.317937 0.177005
0.597711 0.317327 0.186374
0.629389 0.316564 0.196201
0.662196 0.315892 0.206394
0.695186 0.315160 0.217197
0.727871 0.314580 0.227817
0.760464 0.313329 0.239231
0.792569 0.312596 0.250950
0.824826 0.311742 0.263188
0.857115 0.311559 0.275853
0.889921 0.312078 0.289799
0.923156 0.313787 0.304753
0.956817 0.317449 0.321355
0.198795 0.304784 0.218479
0.199008 0.304784 0.218601
0.200748 0.305058 0.218631
0.204135 0.305516 0.219089
0.210788 0.305699 0.221622
0.220157 0.305333 0.226993
0.231601 0.305028 0.234043
0.244358 0.304631 0.243137
0.257237 0.304814 0.253788
0.270024 0.305150 0.266239
0.281346 0.306096 0.280369
0.290684 0.307652 0.296300
0.296605 0.309789 0.313390
0.304540 0.320043 0.338903
0.365850 0.345800 0.317754
0.425177 0.362799 0.291966
0.475868 0.370642 0.265751
0.506310 0.366400 0.244907
0.537072 0.359533 0.217197
0.567926 0.349859 0.179385
0.598169 0.348730 0.188418
0.629175 0.347997 0.197635
0.661219 0.347509 0.207767
0.693599 0.347082 0.217868
0.725887 0.346227 0.228672
0.758175 0.345525 0.239902
0.790341 0.345098 0.251225
0.822599 0.344671 0.263584
0.855131 0.344701 0.276616
0.888121 0.345830 0.290318
0.921477 0.347814 0.305516
0.955261 0.350958 0.322271
0.216403 0.330205 0.237217
0.216861 0.330175 0.237217
0.218235 0.330205 0.237186
0.221225 0.330694 0.237369
0.226780 0.331151 0.238804
0.235355 0.330724 0.243687
0.246036 0.330449 0.249973
0.258183 0.330266 0.258183
0.271061 0.330297 0.267826
0.284367 0.330816 0.279423
0.297124 0.331670 0.292424
0.309728 0.334325 0.308110
0.320745 0.337560 0.325536
0.328222 0.341527 0.344335
0.336919 0.352026 0.370031
0.393072 0.376623 0.352178
0.452308 0.393835 0.325994
0.508171 0.404547 0.296910
0.539483 0.401312 0.276738
0.569268 0.394659 0.251652
0.599359 0.386053 0.219883
0.630304 0.379583 0.199893
0.661982 0.379278 0.209110
0.693965 0.378912 0.219394
0.725948 0.378363 0.230198
0.757900 0.377966 0.241276
0.789914 0.377569 0.252750
0.822019 0.377356 0.264897
0.854520 0.377935 0.277653
0.887480 0.378943 0.291752
0.920867 0.380896 0.306920
0.954650 0.384344 0.323827
0.234348 0.355749 0.255589
0.234653 0.355810 0.255558
0.235874 0.355962 0.255802
0.238651 0.356268 0.256199
0.243168 0.356909 0.256474
0.251133 0.356573 0.260685
0.261418 0.356390 0.266789
0.273381 0.357000 0.274479
0.286748 0.357610 0.283818
0.300755 0.358892 0.295109
0.314946 0.360632 0.307897
0.328801 0.363043 0.322454
0.341588 0.365728 0.338506
0.352239 0.368963 0.355779
0.359380 0.372534 0.373938
0.367773 0.382116 0.398749
0.419532 0.405768 0.384527
0.477790 0.423407 0.358465
0.533684 0.434882 0.329961
0.572564 0.435370 0.306432
0.601831 0.429541 0.284184
0.632410 0.421973 0.256016
0.663539 0.412787 0.220706
0.695003 0.410498 0.221530
0.726497 0.410193 0.231937
0.758236 0.409918 0.242802
0.790188 0.409857 0.254398
0.822568 0.410193 0.266697
0.855375 0.410834 0.280064
0.888823 0.412512 0.294285
0.922698 0.414954 0.310277
0.957000 0.418769 0.327703
0.254337 0.383948 0.275883
0.254734 0.383978 0.276066
0.256077 0.384222 0.276066
0.258640 0.384710 0.276463
0.262608 0.385534 0.277073
0.270024 0.386023 0.280369
0.279881 0.386419 0.286107
0.291600 0.386786 0.293278
0.304540 0.387549 0.302007
0.318425 0.388739 0.312291
0.332769 0.390143 0.324010
0.347051 0.391791 0.337255
0.360601 0.393683 0.351629
0.372503 0.396002 0.367132
0.382269 0.398444 0.383703
0.388800 0.401404 0.401190
0.396765 0.410376 0.425238
0.443671 0.432929 0.415412
0.502098 0.451484 0.389166
0.558312 0.463935 0.361303
0.606226 0.469001 0.334386
0.635737 0.464393 0.314641
0.666163 0.457862 0.289982
0.697139 0.449653 0.259770
0.728573 0.442206 0.234257
0.760464 0.442237 0.245487
0.792386 0.442542 0.257084
0.824765 0.443030 0.269505
0.857450 0.443977 0.282780
0.890532 0.445624 0.297276
0.923980 0.448096 0.313115
0.957824 0.451545 0.330938
0.273991 0.411719 0.295720
0.274174 0.411719 0.295720
0.275547 0.411933 0.295720
0.277836 0.412390 0.296086
0.281773 0.413123 0.296483
0.287999 0.413855 0.298375
0.297185 0.414160 0.303746
0.308446 0.414557 0.310338
0.320836 0.415320 0.318486
0.334264 0.416114 0.327611
0.348394 0.417426 0.338567
0.362860 0.418799 0.350561
0.377020 0.420569 0.363867
0.390295 0.422431 0.378424
0.402045 0.424537 0.393927
0.411444 0.427100 0.410346
0.417914 0.429786 0.427497
0.426246 0.438666 0.451423
0.469154 0.460761 0.445899
0.527764 0.480140 0.420081
0.585473 0.494240 0.392401
0.640528 0.503258 0.363043
0.670283 0.499580 0.344976
0.700404 0.493751 0.323003
0.731228 0.486580 0.296666
0.762661 0.477852 0.264439
0.794705 0.475013 0.260105
0.827054 0.475715 0.272679
0.859831 0.476967 0.286381
0.892851 0.478889 0.300938
0.926268 0.481453 0.317296
0.959899 0.485115 0.334966
0.294011 0.439765 0.314946
0.294408 0.439887 0.314977
0.301793 0.448981 0.321569
0.304326 0.449378 0.321874
0.307836 0.450111 0.322271
0.312779 0.451118 0.322911
0.321904 0.451179 0.327733
0.332341 0.451575 0.333959
0.344671 0.452094 0.341314
0.358160 0.453132 0.350195
0.372534 0.454200 0.360449
0.387488 0.455512 0.371893
0.401862 0.456886 0.384161
0.416083 0.458320 0.397742
0.428992 0.459907 0.412207
0.440192 0.461555 0.427497
0.449226 0.463539 0.443610
0.455390 0.465858 0.460517
0.463294 0.474250 0.483986
0.501915 0.495338 0.482704
0.562158 0.516075 0.456214
0.619654 0.530602 0.428901
0.673732 0.539574 0.399969
0.710079 0.538842 0.378515
0.739162 0.533165 0.358343
0.768948 0.526055 0.334661
0.799405 0.517632 0.306432
0.830838 0.508965 0.276463
0.862821 0.510094 0.290196
0.895445 0.511864 0.304967
0.928588 0.514397 0.321599
0.961944 0.518120 0.339605
0.315984 0.470558 0.335637
0.316625 0.471473 0.336248
0.318395 0.472541 0.337194
0.321233 0.473793 0.337957
0.325017 0.475074 0.338720
0.329839 0.476234 0.339513
0.337743 0.476753 0.343084
0.347906 0.476905 0.348638
0.359289 0.477424 0.355474
0.372168 0.478218 0.363653
0.386236 0.479225 0.373022
0.400855 0.480507 0.383642
0.415564 0.481788 0.395300
0.430152 0.483040 0.407935
0.444160 0.484565 0.421698
0.457099 0.486305 0.436225
0.468269 0.488319 0.451606
0.477668 0.490669 0.468055
0.484504 0.493812 0.485573
0.493294 0.502739 0.509361
0.529076 0.523949 0.513268
0.589593 0.545983 0.487831
0.646418 0.561120 0.461372
0.700130 0.570672 0.433448
0.742977 0.573114 0.408606
0.771817 0.568170 0.390417
0.801328 0.562066 0.369512
0.832059 0.554620 0.344518
0.863798 0.546441 0.315984
0.896452 0.543328 0.308354
0.929442 0.546075 0.325048
0.962646 0.549889 0.343511
0.334508 0.497169 0.352819
0.335424 0.498329 0.353674
0.337255 0.499458 0.354192
0.339788 0.500755 0.355322
0.343389 0.502159 0.356054
0.348089 0.503227 0.356786
0.354803 0.504051 0.359136
0.364385 0.504356 0.364324
0.375494 0.504845 0.370550
0.387976 0.505516 0.378119
0.401801 0.506432 0.386908
0.416266 0.507469 0.396979
0.430976 0.508873 0.407904
0.446113 0.510216 0.419959
0.460853 0.511833 0.432959
0.474891 0.513542 0.446845
0.487922 0.515587 0.461830
0.499550 0.517876 0.477729
0.509239 0.520775 0.494575
0.516808 0.524468 0.512627
0.526177 0.533715 0.536675
0.558038 0.554437 0.545617
0.617243 0.576745 0.521294
0.673243 0.592370 0.495796
0.726314 0.602380 0.468421
0.775875 0.607568 0.439612
0.804379 0.603449 0.423377
0.833951 0.598352 0.404822
0.864927 0.592340 0.383551
0.897063 0.585748 0.359503
0.930510 0.578271 0.331731
0.963622 0.581384 0.347997
0.353948 0.525658 0.370245
0.354772 0.526665 0.370733
0.356573 0.527794 0.371557
0.358892 0.529107 0.372320
0.362280 0.530297 0.373114
0.366583 0.531395 0.373846
0.372381 0.532586 0.374914
0.381598 0.532799 0.379736
0.392615 0.533440 0.385931
0.404700 0.534112 0.393011
0.418219 0.534966 0.401343
0.432563 0.536248 0.410742
0.447639 0.537438 0.421271
0.462928 0.538964 0.432776
0.478431 0.540642 0.445289
0.493477 0.542596 0.458900
0.508141 0.544945 0.473610
0.521904 0.547784 0.489418
0.534630 0.551324 0.506554
0.545708 0.555383 0.524895
0.554650 0.560449 0.544518
0.564874 0.570489 0.570062
0.592493 0.590448 0.584222
0.650996 0.613825 0.561791
0.706538 0.630274 0.537682
0.759426 0.641016 0.511284
0.809842 0.647181 0.483009
0.844297 0.645899 0.464302
0.874266 0.642237 0.448768
0.905608 0.637781 0.431067
0.938079 0.632471 0.411322
0.971649 0.626581 0.389502
0.379126 0.562219 0.392035
0.379553 0.562676 0.392523
0.380804 0.563134 0.392828
0.382757 0.563684 0.393042
0.385565 0.564324 0.393408
0.389410 0.564935 0.393896
0.394446 0.565789 0.394293
0.402655 0.566339 0.398108
0.413306 0.566735 0.403754
0.425422 0.567590 0.410712
0.438788 0.568566 0.418891
0.453223 0.569726 0.427985
0.468299 0.571008 0.438117
0.483986 0.572412 0.449378
0.499763 0.573938 0.461585
0.515312 0.575769 0.474647
0.530785 0.577813 0.489082
0.545617 0.580255 0.504479
0.559472 0.583093 0.520867
0.572045 0.586481 0.538628
0.582727 0.590539 0.557244
0.591211 0.595361 0.576654
0.600671 0.604547 0.600885
0.622980 0.622492 0.618616
0.679164 0.645624 0.597528
0.733394 0.662531 0.574914
0.785306 0.674189 0.550713
0.835599 0.681209 0.523857
0.876158 0.682795 0.501854
0.906126 0.680415 0.488838
0.937255 0.677333 0.474434
0.969604 0.673426 0.458381
0.400580 0.593042 0.410498
0.401099 0.593439 0.410864
0.402136 0.593866 0.410986
0.403967 0.594446 0.411475
0.406622 0.595026 0.411902
0.410315 0.595666 0.412268
0.415229 0.596429 0.412604
0.422400 0.597223 0.415045
0.432746 0.597711 0.420661
0.444678 0.598474 0.427405
0.457832 0.599359 0.435157
0.471962 0.600549 0.444038
0.487098 0.601770 0.453895
0.502892 0.603235 0.464912
0.519127 0.604883 0.477089
0.535271 0.606714 0.490089
0.551446 0.608820 0.504265
0.567163 0.611322 0.519615
0.582238 0.614099 0.535912
0.596277 0.617426 0.553399
0.608911 0.621332 0.571618
0.619806 0.625757 0.590326
0.628504 0.630854 0.609430
0.637842 0.639887 0.632990
0.651789 0.652613 0.651026
0.706203 0.675807 0.631098
0.758999 0.693568 0.610803
0.810025 0.706264 0.588952
0.859342 0.714626 0.565148
0.905638 0.718685 0.540124
0.935393 0.717983 0.530297
0.966339 0.716640 0.519463
0.426246 0.628290 0.432807
0.427070 0.628931 0.433295
0.428077 0.629358 0.433448
0.429572 0.629511 0.433692
0.431769 0.629603 0.433661
0.434882 0.629725 0.433722
0.438972 0.629847 0.433845
0.444556 0.630182 0.434333
0.454047 0.630091 0.439307
0.465248 0.630243 0.445441
0.477638 0.630518 0.452461
0.491188 0.631159 0.460700
0.505760 0.631922 0.470039
0.520989 0.632868 0.480537
0.536736 0.633814 0.491768
0.552605 0.635126 0.504173
0.568688 0.636622 0.517693
0.584741 0.638666 0.532525
0.600488 0.641260 0.548547
0.615564 0.644526 0.565484
0.629755 0.648402 0.583246
0.642298 0.652583 0.601312
0.652918 0.657191 0.619654
0.661311 0.662104 0.638087
0.669734 0.670192 0.660273
0.683131 0.684749 0.684627
0.735073 0.707454 0.665766
0.786099 0.725490 0.647120
0.835660 0.738827 0.627314
0.883574 0.748196 0.606287
0.930571 0.753933 0.582940
0.963439 0.755459 0.572534
0.448249 0.657649 0.451606
0.448920 0.658289 0.451972
0.450050 0.658808 0.452399
0.451575 0.659144 0.452735
0.453986 0.659449 0.452888
0.457252 0.659876 0.453254
0.461433 0.660548 0.453803
0.467048 0.661372 0.454322
0.475837 0.662013 0.458350
0.487098 0.662562 0.464637
0.499641 0.663233 0.471962
0.513329 0.664088 0.480385
0.527916 0.664973 0.489754
0.543328 0.665888 0.500084
0.559014 0.666896 0.511315
0.575006 0.667994 0.523583
0.591363 0.669398 0.537011
0.607568 0.671168 0.551324
0.623651 0.673579 0.566766
0.639338 0.676570 0.583001
0.654231 0.680049 0.599969
0.668025 0.684016 0.617487
0.680293 0.688441 0.635279
0.690791 0.693141 0.653315
0.699184 0.698177 0.671443
0.707485 0.706050 0.692988
0.719875 0.720119 0.717556
0.766873 0.741909 0.703273
0.816342 0.760678 0.687037
0.864073 0.775021 0.670222
0.910307 0.785611 0.652705
0.955261 0.792935 0.633661
0.474617 0.690944 0.474342
0.475166 0.691218 0.474617
0.475929 0.691493 0.474800
0.477272 0.691707 0.475013
0.479500 0.691981 0.475288
0.482490 0.692287 0.475349
0.486427 0.692805 0.475746
0.491585 0.693538 0.476417
0.498970 0.694270 0.478706
0.509728 0.694759 0.484901
0.522118 0.695308 0.492256
0.535637 0.696071 0.500481
0.550103 0.696925 0.509789
0.565301 0.697841 0.520104
0.581018 0.698756 0.531304
0.597009 0.699794 0.543297
0.613245 0.701045 0.556237
0.629389 0.702693 0.569909
0.645777 0.704829 0.584741
0.661769 0.707607 0.600305
0.677150 0.710933 0.616602
0.691768 0.714565 0.633509
0.705043 0.718502 0.650599
0.716793 0.722744 0.668055
0.726741 0.727321 0.685512
0.734707 0.732143 0.703059
0.742428 0.739498 0.723690
0.754208 0.752682 0.747158
0.795377 0.773068 0.737636
0.842954 0.792477 0.723995
0.888640 0.807858 0.710506
0.932738 0.819944 0.696925
0.501305 0.723079 0.497444
0.501701 0.723323 0.497780
0.502617 0.723629 0.498146
0.504112 0.723934 0.498451
0.506340 0.724453 0.498848
0.509636 0.725185 0.499519
0.514153 0.726467 0.500664
0.519982 0.728084 0.502312
0.527001 0.730068 0.504112
0.538811 0.731685 0.511254
0.552300 0.733486 0.519738
0.566735 0.735286 0.529259
0.582177 0.737087 0.539544
0.598016 0.738766 0.550500
0.614069 0.740291 0.562036
0.630426 0.741604 0.573999
0.646509 0.743008 0.586542
0.662898 0.744656 0.599969
0.679225 0.746761 0.614221
0.695430 0.749294 0.629206
0.711147 0.752285 0.644923
0.726070 0.755612 0.661158
0.739895 0.759121 0.677607
0.752407 0.762936 0.694301
0.763363 0.766903 0.710994
0.772671 0.771176 0.727779
0.780148 0.775845 0.744656
0.787106 0.782498 0.764096
0.797726 0.794461 0.785977
0.832456 0.812802 0.780850
0.876555 0.832242 0.770382
0.918822 0.848203 0.760616
0.539605 0.764034 0.531487
0.539696 0.764096 0.531579
0.540276 0.764157 0.531640
0.541314 0.764248 0.531762
0.543175 0.764431 0.531884
0.545953 0.764736 0.532372
0.549676 0.765286 0.532830
0.554345 0.766110 0.533715
0.560266 0.767239 0.534874
0.569299 0.768185 0.539086
0.581231 0.769009 0.546441
0.594415 0.769986 0.554803
0.608545 0.770993 0.564141
0.623377 0.772061 0.574060
