20 Preset/Gray style/【3】LUT video cho PR-AE-FCPX/Tone  (5).cube
# Created by Adobe Lightroom plugin Export LUT (1.24.0)
# www.johnrellis.com/lightroom/exportlut.htm
# Preset: 05素材江湖-高级灰
# Color profile: E:\lut插件\exportlut.1.24\exportlut.lrplugin\color profiles\Rec709gamma2.4.icc
LUT_3D_SIZE 5
DOMAIN_MIN 0.000000 0.000000 0.000000
DOMAIN_MAX 0.903226 0.903226 0.903226
0.000000 0.000000 0.000000
0.160433 0.022553 0.062531
0.355474 0.000000 0.100008
0.573907 0.000000 0.140414
0.896117 0.000000 0.224521
0.066407 0.163088 0.057618
0.191257 0.185794 0.111269
0.356176 0.166873 0.097566
0.589227 0.134737 0.142733
0.908812 0.000000 0.229160
0.141878 0.352605 0.075013
0.225895 0.365850 0.111360
0.524315 0.498390 0.300877
0.678767 0.433112 0.195926
0.897948 0.403540 0.219608
0.250004 0.617914 0.086397
0.309941 0.625574 0.071260
0.554467 0.708797 0.277012
0.863706 0.816617 0.566033
0.984894 0.755154 0.528099
0.362707 0.871336 0.125063
0.402106 0.872068 0.110048
0.568048 0.881071 0.271183
0.834623 0.932067 0.586267
1.000000 0.970001 0.839506
0.098939 0.120912 0.174807
0.175814 0.122408 0.208011
0.348180 0.134768 0.237644
0.575402 0.000000 0.250034
0.852232 0.000000 0.270848
0.151461 0.185611 0.202457
0.195926 0.206027 0.221927
0.376226 0.156497 0.194217
0.589349 0.090120 0.217380
0.858274 0.000000 0.267185
0.150607 0.368780 0.214145
0.209934 0.372229 0.193454
0.475837 0.461982 0.352575
0.620142 0.387335 0.216922
0.889464 0.389227 0.273136
0.243870 0.623377 0.223545
0.298222 0.627893 0.210819
0.542931 0.701320 0.334173
0.850065 0.809110 0.604547
0.972717 0.746609 0.542321
0.354040 0.871916 0.238163
0.393317 0.871794 0.229160
0.575372 0.894896 0.340215
0.844419 0.937560 0.634424
1.000000 0.974243 0.864073
0.219120 0.260777 0.373663
0.250462 0.264866 0.390967
0.400671 0.277928 0.448859
0.562585 0.346197 0.483742
0.846372 0.288090 0.532250
0.272343 0.318059 0.391791
0.288975 0.320623 0.406867
0.408026 0.323461 0.452369
0.591424 0.359503 0.491127
0.861906 0.302953 0.525017
0.345159 0.412116 0.436011
0.364630 0.420111 0.444556
0.457465 0.464332 0.481270
0.675715 0.390021 0.427344
0.909087 0.350072 0.440772
0.314641 0.648493 0.476509
0.336095 0.643275 0.463661
0.465034 0.662531 0.434119
0.814206 0.791379 0.697261
0.932647 0.688472 0.538109
0.336492 0.865873 0.448981
0.376349 0.868284 0.446204
0.504112 0.874266 0.423590
0.819242 0.922423 0.673548
0.990814 0.969665 0.885649
0.388800 0.437751 0.603876
0.410407 0.442451 0.616693
0.492622 0.441962 0.649866
0.661402 0.444251 0.690822
0.820584 0.536675 0.718685
0.418128 0.471412 0.607355
0.429938 0.470588 0.614130
0.496162 0.466255 0.643214
0.653285 0.464912 0.681270
0.814145 0.552605 0.714839
0.490425 0.549645 0.612696
0.504967 0.555535 0.617945
0.543999 0.565698 0.649805
0.669886 0.564630 0.687861
0.823667 0.636805 0.730770
0.578576 0.660426 0.669032
0.585687 0.660822 0.669734
0.630182 0.678004 0.687282
0.735164 0.730434 0.730800
0.924193 0.657923 0.681086
0.602899 0.871702 0.741146
0.606775 0.874479 0.738643
0.635004 0.881437 0.726741
0.718715 0.892515 0.682368
0.980377 0.968017 0.924559
0.670069 0.698634 0.837369
0.676509 0.698512 0.840330
0.706783 0.698177 0.852903
0.774807 0.693629 0.874937
0.887755 0.703029 0.895842
0.683375 0.714412 0.837491
0.688838 0.714137 0.840421
0.715328 0.712947 0.852720
0.778714 0.707637 0.874662
0.888884 0.715358 0.896056
0.722652 0.761105 0.838621
0.727657 0.762295 0.841855
0.746578 0.763241 0.854643
0.794339 0.757412 0.876432
0.896300 0.760861 0.900114
0.772854 0.820188 0.852384
0.777127 0.821408 0.853696
0.796536 0.827573 0.860197
0.827115 0.834257 0.883207
0.911345 0.833555 0.909911
0.824643 0.887022 0.882963
0.828367 0.888243 0.884306
0.845457 0.894438 0.891020
0.879240 0.907408 0.905028
0.946593 0.942535 0.938964
