20 Preset/Gray style/【3】LUT video cho PR-AE-FCPX/Tone  (13).cube
# Created by Adobe Lightroom plugin Export LUT (1.24.0)
# www.johnrellis.com/lightroom/exportlut.htm
# Preset: 13素材江湖-高级灰
# Color profile: E:\lut插件\exportlut.1.24\exportlut.lrplugin\color profiles\Rec709gamma2.4.icc
LUT_3D_SIZE 32
DOMAIN_MIN 0.0 0.0 0.0
DOMAIN_MAX 1.0 1.0 1.0
0.000000 0.000000 0.000000
0.014832 0.003754 0.004852
0.049470 0.012787 0.019867
0.101228 0.030732 0.042908
0.134005 0.057771 0.079774
0.167910 0.083711 0.097536
0.203281 0.096071 0.107179
0.238468 0.104616 0.113039
0.273655 0.111574 0.115236
0.308171 0.118013 0.116121
0.342016 0.123812 0.115480
0.375158 0.129610 0.113527
0.407752 0.134890 0.110842
0.440131 0.140658 0.108522
0.471778 0.147341 0.107485
0.503349 0.155367 0.109255
0.534844 0.164675 0.114778
0.566979 0.173983 0.120455
0.600000 0.183871 0.125734
0.634455 0.194003 0.131075
0.670069 0.204807 0.137087
0.710201 0.217075 0.142947
0.757839 0.231846 0.150912
0.800565 0.246159 0.158907
0.839322 0.259648 0.166873
0.875395 0.272770 0.175601
0.910155 0.285954 0.183597
0.944244 0.299504 0.192691
0.978119 0.313359 0.202762
1.000000 0.328588 0.213901
1.000000 0.344976 0.226871
1.000000 0.362860 0.241886
0.002380 0.012848 0.009491
0.011719 0.011719 0.011719
0.054231 0.021057 0.024292
0.101198 0.037263 0.048798
0.134157 0.064332 0.081331
0.166964 0.087587 0.098054
0.201511 0.097780 0.107729
0.236149 0.106081 0.113619
0.270451 0.113436 0.115785
0.304692 0.119753 0.116732
0.337957 0.124819 0.116884
0.371008 0.130373 0.114137
0.403510 0.135164 0.111940
0.435523 0.141390 0.109316
0.467201 0.148043 0.107698
0.498573 0.155581 0.109987
0.530175 0.164492 0.114717
0.562127 0.173800 0.120180
0.595117 0.183474 0.125338
0.629053 0.193423 0.130892
0.664088 0.204044 0.136202
0.703517 0.215549 0.142275
0.749233 0.230045 0.149599
0.790433 0.243656 0.156954
0.828275 0.256443 0.164675
0.863828 0.269169 0.172549
0.898436 0.281895 0.180728
0.932799 0.295201 0.189303
0.967193 0.309056 0.198825
1.000000 0.324041 0.209598
1.000000 0.340368 0.222385
1.000000 0.358007 0.236881
0.012390 0.058656 0.044831
0.019715 0.059937 0.049012
0.053590 0.053468 0.061646
0.105226 0.067628 0.068116
0.134890 0.089906 0.090150
0.167880 0.100008 0.102724
0.201633 0.108461 0.111574
0.235599 0.115358 0.115450
0.269291 0.121340 0.118349
0.303014 0.126894 0.119051
0.336156 0.132265 0.117678
0.368872 0.136904 0.115663
0.400824 0.141573 0.113588
0.432715 0.146975 0.110811
0.464027 0.152621 0.109499
0.495399 0.160067 0.110445
0.526787 0.168338 0.115877
0.558831 0.177340 0.120790
0.591608 0.186526 0.126528
0.625666 0.196536 0.131502
0.660731 0.206363 0.137179
0.700984 0.218387 0.143160
0.745266 0.231998 0.149844
0.785672 0.244968 0.157137
0.822751 0.257572 0.164492
0.857847 0.269688 0.171481
0.892271 0.282078 0.179690
0.926665 0.295109 0.187991
0.961334 0.308782 0.197269
0.996246 0.323674 0.208042
1.000000 0.339605 0.220462
1.000000 0.357031 0.234775
0.033417 0.107210 0.096132
0.040467 0.106966 0.097292
0.079805 0.106142 0.101961
0.104067 0.103426 0.111391
0.139406 0.106050 0.110597
0.171817 0.118227 0.113008
0.204532 0.125704 0.116670
0.237430 0.131289 0.120089
0.270298 0.136263 0.122286
0.303197 0.140352 0.122011
0.335607 0.144656 0.120516
0.367651 0.148653 0.118685
0.399084 0.153323 0.115755
0.430457 0.157534 0.113344
0.461433 0.162570 0.111788
0.492042 0.168856 0.113649
0.522911 0.176333 0.118471
0.554223 0.184573 0.123171
0.586450 0.193057 0.127687
0.619715 0.202152 0.133394
0.654139 0.211856 0.138155
0.695003 0.223423 0.143862
0.737301 0.236057 0.150271
0.777066 0.248295 0.157290
0.814786 0.260594 0.164065
0.851072 0.272862 0.171389
0.887053 0.285405 0.179629
0.922728 0.298497 0.188296
0.958312 0.312383 0.197452
0.993652 0.326970 0.207919
1.000000 0.342351 0.220127
1.000000 0.359014 0.233738
0.062806 0.140078 0.122469
0.067170 0.140169 0.123262
0.090028 0.139620 0.125643
0.117281 0.138338 0.131167
0.136934 0.133181 0.139254
0.166598 0.132052 0.141268
0.208896 0.141665 0.130495
0.238773 0.150881 0.126406
0.270146 0.154726 0.126772
0.302007 0.158297 0.126558
0.333471 0.161349 0.125612
0.365057 0.164523 0.123171
0.396124 0.168276 0.120516
0.427253 0.171878 0.118318
0.457984 0.176272 0.117281
0.488899 0.181888 0.118105
0.519951 0.188846 0.122683
0.551659 0.196292 0.126894
0.584039 0.203891 0.131807
0.617334 0.212528 0.136080
0.651698 0.221500 0.141451
0.693904 0.233341 0.147189
0.734859 0.244999 0.153109
0.774105 0.256657 0.159304
0.811673 0.268345 0.166445
0.848234 0.280064 0.173434
0.884184 0.292241 0.181094
0.919829 0.304845 0.188968
0.955230 0.318303 0.198001
0.990265 0.332250 0.208438
1.000000 0.347112 0.220127
1.000000 0.363195 0.233310
0.081727 0.173556 0.141543
0.085298 0.173587 0.142641
0.095613 0.173312 0.143923
0.122866 0.171756 0.148196
0.152163 0.169131 0.154086
0.171115 0.162509 0.162783
0.192477 0.156527 0.169406
0.246464 0.166110 0.149172
0.275242 0.173587 0.142306
0.304662 0.180331 0.133516
0.335302 0.182712 0.132235
0.366186 0.185061 0.130068
0.396735 0.188083 0.127169
0.427405 0.190890 0.124697
0.458381 0.194888 0.123079
0.489265 0.199527 0.124239
0.520531 0.205570 0.128511
0.552392 0.212375 0.132631
0.584955 0.219455 0.137148
0.618280 0.227268 0.141665
0.655360 0.236454 0.146700
0.697810 0.247898 0.151919
0.788937 0.277897 0.167117
0.830045 0.290562 0.175296
0.868070 0.302800 0.183474
0.903929 0.314641 0.191501
0.938109 0.326635 0.200137
0.970977 0.338689 0.209506
1.000000 0.351354 0.219455
1.000000 0.364782 0.230747
1.000000 0.378973 0.243076
1.000000 0.394049 0.256962
0.096193 0.214267 0.163638
0.098360 0.214298 0.164157
0.108431 0.213993 0.165774
0.130648 0.212924 0.168734
0.163149 0.210086 0.173953
0.193790 0.206455 0.180880
0.212802 0.197940 0.190005
0.225864 0.187442 0.202426
0.287327 0.196170 0.177005
0.320806 0.203037 0.163912
0.349828 0.209476 0.150240
0.379950 0.213809 0.138247
0.410620 0.215640 0.135134
0.440925 0.217777 0.133059
0.471290 0.220798 0.132143
0.501793 0.224887 0.134249
0.532647 0.230045 0.137758
0.564324 0.235843 0.141665
0.597040 0.242191 0.145815
0.631647 0.249760 0.149844
0.678798 0.262303 0.155367
0.726009 0.275151 0.161929
0.771328 0.287907 0.169009
0.814664 0.300755 0.177035
0.855436 0.313146 0.184726
0.893004 0.324865 0.192874
0.927855 0.336156 0.201205
0.960876 0.347539 0.209812
0.993133 0.359350 0.218814
1.000000 0.371588 0.229221
1.000000 0.384802 0.240879
1.000000 0.399084 0.254215
0.110506 0.245426 0.182162
0.112673 0.245243 0.182650
0.120729 0.244999 0.183871
0.134768 0.244602 0.186282
0.167391 0.242313 0.190677
0.199496 0.238956 0.196109
0.228275 0.235111 0.202884
0.245426 0.225803 0.212558
0.255680 0.214084 0.225467
0.310552 0.220859 0.206973
0.353399 0.227756 0.186984
0.381750 0.232853 0.172366
0.410590 0.237949 0.152621
0.440223 0.241093 0.143099
0.469978 0.243259 0.142458
0.500008 0.246860 0.143984
0.530449 0.250858 0.146548
0.561852 0.256046 0.149752
0.594507 0.261753 0.153628
0.635248 0.271366 0.157717
0.679164 0.282261 0.162661
0.723415 0.293645 0.168093
0.766567 0.305180 0.174380
0.808408 0.316655 0.181216
0.848264 0.328130 0.188632
0.885283 0.338964 0.195895
0.920043 0.349462 0.203220
0.953185 0.359777 0.211246
0.985534 0.370825 0.220279
1.000000 0.382422 0.229953
1.000000 0.394873 0.241245
1.000000 0.408331 0.254124
0.129091 0.275731 0.201541
0.130892 0.275669 0.201541
0.136812 0.275669 0.202579
0.149081 0.275151 0.204715
0.172610 0.273747 0.208011
0.204776 0.270756 0.212497
0.235294 0.267277 0.218296
0.262394 0.263584 0.224857
0.277897 0.254154 0.234409
0.287144 0.241764 0.246403
0.334691 0.246342 0.235294
0.385657 0.253819 0.212131
0.414130 0.257877 0.196811
0.442664 0.262425 0.178347
0.471229 0.267948 0.156619
0.500786 0.270939 0.155673
0.531060 0.274510 0.157778
0.562249 0.278813 0.159823
0.600366 0.286595 0.163577
0.640101 0.295171 0.167575
0.681697 0.305058 0.171298
0.723568 0.315282 0.175998
0.764981 0.325536 0.181308
0.805447 0.336034 0.187259
0.844266 0.346471 0.193851
0.880644 0.356207 0.200687
0.915221 0.365972 0.207309
0.948302 0.375677 0.214939
0.980713 0.385840 0.223392
1.000000 0.396612 0.232609
1.000000 0.408148 0.243534
1.000000 0.420874 0.255741
0.149569 0.305516 0.220371
0.151156 0.305364 0.220371
0.155642 0.305089 0.221012
0.165652 0.304753 0.222751
0.180117 0.303960 0.225101
0.210391 0.301274 0.228580
0.241001 0.297887 0.233097
0.269596 0.294347 0.238804
0.294987 0.290806 0.245640
0.309178 0.281041 0.254643
0.316838 0.268223 0.265904
0.356970 0.270939 0.261173
0.410193 0.278325 0.238956
0.444587 0.283299 0.222171
0.473579 0.288060 0.206241
0.502708 0.293584 0.187533
0.535149 0.300847 0.169955
0.570977 0.307042 0.172305
0.607935 0.314000 0.175357
0.646387 0.321721 0.178042
0.685969 0.330236 0.181094
0.724636 0.338445 0.184604
0.762753 0.347082 0.188571
0.800107 0.355596 0.193576
0.836362 0.364355 0.198917
0.871427 0.372778 0.204227
0.905547 0.381720 0.210391
0.938964 0.390723 0.217441
0.972015 0.400458 0.225559
1.000000 0.410986 0.234745
1.000000 0.422309 0.245151
1.000000 0.434668 0.257481
0.169436 0.332952 0.236973
0.170718 0.332952 0.237308
0.174624 0.332830 0.237827
0.182956 0.332616 0.239170
0.195041 0.332372 0.241428
0.218143 0.330816 0.244480
0.248020 0.328191 0.248539
0.276860 0.325109 0.253422
0.303746 0.322087 0.259403
0.328649 0.318822 0.266026
0.341283 0.308782 0.274876
0.347814 0.295628 0.285496
0.381384 0.296849 0.286778
0.435157 0.304479 0.266514
0.480201 0.312657 0.248295
0.512474 0.319158 0.235019
0.545251 0.326207 0.219211
0.578759 0.334051 0.199985
0.613550 0.341650 0.187137
0.650446 0.348302 0.188876
0.688228 0.355657 0.190921
0.725277 0.362921 0.193393
0.762173 0.370367 0.196963
0.798489 0.378149 0.201144
0.834073 0.386053 0.205570
0.868620 0.393835 0.210727
0.902434 0.401923 0.216526
0.935760 0.410376 0.223087
0.968719 0.419379 0.230564
1.000000 0.429297 0.239353
1.000000 0.439918 0.249516
1.000000 0.451667 0.261662
0.191501 0.363165 0.254398
0.192203 0.363134 0.254612
0.196109 0.363043 0.255283
0.202884 0.363012 0.256382
0.213413 0.362829 0.258305
0.228580 0.362463 0.261265
0.257267 0.360357 0.264836
0.286168 0.357641 0.269108
0.314092 0.354650 0.274327
0.340246 0.351812 0.280430
0.363897 0.348791 0.287114
0.377173 0.339696 0.296941
0.404913 0.344274 0.320836
0.437507 0.347082 0.329900
0.498512 0.357855 0.311284
0.557244 0.368688 0.288548
0.591852 0.375708 0.275212
0.627283 0.383246 0.259251
0.663416 0.391394 0.240543
0.698695 0.399878 0.218936
0.733913 0.406561 0.211185
0.768734 0.412024 0.213687
0.802853 0.417639 0.217014
0.836545 0.423529 0.220584
0.869291 0.429419 0.224887
0.901030 0.435431 0.229343
0.931579 0.441321 0.234806
0.961334 0.447578 0.240604
0.990814 0.454536 0.247379
1.000000 0.462409 0.255894
1.000000 0.471229 0.265690
1.000000 0.481636 0.277684
0.221530 0.404211 0.277653
0.222385 0.404028 0.277684
0.225010 0.403723 0.278080
0.230869 0.403082 0.278996
0.239597 0.402411 0.280156
0.251102 0.401648 0.282383
0.274357 0.399512 0.285191
0.303349 0.397864 0.289525
0.333135 0.396979 0.295293
0.362524 0.396429 0.302037
0.391669 0.396307 0.309972
0.419379 0.396826 0.319280
0.434546 0.389075 0.330816
0.443915 0.377661 0.343633
0.469093 0.377966 0.357794
0.530846 0.388617 0.339178
0.590417 0.399207 0.316381
0.632227 0.407141 0.298924
0.665827 0.413794 0.283818
0.698573 0.420325 0.266667
0.730556 0.427131 0.247562
0.762387 0.434394 0.225620
0.795346 0.439521 0.224735
0.828458 0.444739 0.227634
0.860868 0.450080 0.231205
0.892760 0.455543 0.235294
0.923705 0.461311 0.239902
0.954131 0.467414 0.245548
0.984375 0.474006 0.252262
1.000000 0.481666 0.260533
1.000000 0.490303 0.270329
1.000000 0.500145 0.282292
0.247715 0.441871 0.297795
0.248051 0.441688 0.297673
0.250401 0.441047 0.297704
0.255711 0.440589 0.298528
0.263371 0.440040 0.299962
0.273838 0.439612 0.301610
0.290715 0.438911 0.304540
0.318639 0.436927 0.308110
0.347448 0.435279 0.312779
0.376959 0.433967 0.318608
0.406043 0.433509 0.325475
0.434913 0.433539 0.333654
0.462196 0.433722 0.342596
0.475624 0.424323 0.354070
0.483589 0.411536 0.365972
0.502861 0.408209 0.381476
0.561089 0.417456 0.364996
0.620478 0.427588 0.342412
0.670100 0.436652 0.320623
0.701076 0.442176 0.306310
0.731624 0.447974 0.290867
0.762387 0.454322 0.273777
0.793210 0.461128 0.254582
0.824399 0.468391 0.236057
0.856657 0.473335 0.239078
0.888426 0.478431 0.242679
0.919524 0.483772 0.246921
0.950011 0.489418 0.252171
0.980377 0.495644 0.258946
1.000000 0.503014 0.266667
1.000000 0.511223 0.276677
1.000000 0.520775 0.288579
0.272526 0.482246 0.317144
0.273167 0.482094 0.317174
0.275242 0.481300 0.317327
0.279179 0.480354 0.317571
0.286168 0.479103 0.318425
0.295384 0.477882 0.319921
0.307134 0.477180 0.322179
0.331853 0.475196 0.325170
0.360662 0.473060 0.329198
0.389715 0.471778 0.334325
0.419501 0.471015 0.340642
0.449134 0.470832 0.348119
0.477821 0.470680 0.356359
0.504356 0.470192 0.365026
0.515618 0.458656 0.376074
0.521935 0.444129 0.387213
0.538964 0.438575 0.401801
0.590845 0.445777 0.390387
0.650324 0.455756 0.367987
0.704311 0.464759 0.342901
0.735012 0.470069 0.328649
0.764675 0.475746 0.314519
0.794644 0.481849 0.298863
0.824796 0.488502 0.281865
0.854856 0.495552 0.262974
0.885344 0.502220 0.250828
0.916686 0.507378 0.254917
0.947784 0.513024 0.260227
0.978943 0.519554 0.267033
1.000000 0.527062 0.275761
1.000000 0.535790 0.286381
1.000000 0.545892 0.299351
0.293950 0.520012 0.334234
0.294560 0.520104 0.334356
0.296666 0.519738 0.334752
0.300938 0.519341 0.335302
0.307195 0.518669 0.336126
0.316442 0.518212 0.337804
0.328099 0.518273 0.340185
0.347662 0.518120 0.343481
0.376471 0.516564 0.347356
0.405921 0.515190 0.352300
0.435859 0.513664 0.357794
0.465492 0.512108 0.364080
0.493904 0.510399 0.370977
0.520500 0.507988 0.378241
0.544610 0.505058 0.385809
0.552636 0.490303 0.395911
0.557610 0.474281 0.406348
0.572808 0.467048 0.420294
0.618494 0.472480 0.414740
0.676265 0.481819 0.392920
0.729488 0.490791 0.369207
0.768154 0.497688 0.351080
0.797848 0.503685 0.338079
0.827787 0.510185 0.324010
0.857847 0.517052 0.308934
0.887907 0.524407 0.292241
0.917876 0.532219 0.274662
0.948486 0.538964 0.270146
0.979522 0.545190 0.276951
1.000000 0.552270 0.285618
1.000000 0.560235 0.295964
1.000000 0.569482 0.309026
0.313024 0.557671 0.350286
0.313573 0.557641 0.350225
0.315557 0.557427 0.350561
0.319585 0.557153 0.351202
0.325841 0.556786 0.352270
0.334539 0.556603 0.353857
0.345708 0.556725 0.356115
0.359411 0.557458 0.359197
0.387335 0.555993 0.362982
0.417060 0.554192 0.367132
0.447425 0.552514 0.372290
0.477455 0.550744 0.378119
0.506859 0.548821 0.384588
0.534722 0.546197 0.391363
0.560662 0.543084 0.398444
0.583978 0.539361 0.405829
0.590600 0.523033 0.416083
0.595422 0.506432 0.426612
0.609247 0.497688 0.440497
0.647120 0.500816 0.441199
0.704067 0.509941 0.419989
0.756802 0.518761 0.397131
0.802304 0.526574 0.374884
0.831724 0.532891 0.363134
0.861479 0.539483 0.350286
0.891295 0.546593 0.336736
0.921141 0.554253 0.322484
0.950958 0.562310 0.307561
0.980835 0.571130 0.292210
1.000000 0.578515 0.296910
1.000000 0.586450 0.307897
1.000000 0.595575 0.321447
0.334752 0.597345 0.368292
0.335485 0.597681 0.368597
0.354223 0.624079 0.383032
0.358068 0.623865 0.383703
0.364385 0.623529 0.384741
0.372778 0.623133 0.386267
0.383520 0.622766 0.388312
0.396704 0.622827 0.391394
0.419104 0.621942 0.394965
0.449531 0.619867 0.399084
0.480659 0.617670 0.404059
0.511467 0.615198 0.409644
0.541436 0.611933 0.415442
0.570031 0.607935 0.421485
0.596582 0.603143 0.427649
0.620874 0.597772 0.434058
0.642390 0.591699 0.440345
0.646265 0.572351 0.449958
0.649287 0.553491 0.459815
0.659693 0.541924 0.473091
0.689204 0.542199 0.480018
0.744167 0.549981 0.458350
0.795377 0.557336 0.434974
0.843381 0.564050 0.409369
0.873594 0.569177 0.394812
0.900969 0.574548 0.382391
0.928435 0.580316 0.369329
0.956329 0.586908 0.356115
0.984771 0.594598 0.343389
1.000000 0.603357 0.331029
1.000000 0.613062 0.320897
1.000000 0.621851 0.334844
0.362982 0.642420 0.392218
0.365270 0.644800 0.393683
0.368780 0.647211 0.395453
0.374121 0.649226 0.397620
0.380865 0.650813 0.399786
0.389166 0.651179 0.401678
0.399237 0.651087 0.403723
0.411231 0.650904 0.406439
0.426612 0.650904 0.409857
0.455390 0.648737 0.413489
0.485420 0.646479 0.418097
0.515587 0.644038 0.423194
0.545220 0.640833 0.428687
0.573846 0.637232 0.434363
0.601068 0.632990 0.440467
0.626795 0.628168 0.446662
0.650294 0.623102 0.453101
0.671015 0.617212 0.460182
0.675715 0.599329 0.470619
0.679988 0.582116 0.481361
0.689631 0.570703 0.495216
0.713619 0.571313 0.510491
0.768582 0.579126 0.489509
0.819516 0.586175 0.466835
0.866758 0.592126 0.441566
0.902831 0.597345 0.422004
0.929595 0.602869 0.410956
0.956878 0.608972 0.399603
0.984802 0.616266 0.388952
1.000000 0.624781 0.379065
1.000000 0.634455 0.370306
1.000000 0.645228 0.363043
0.383917 0.672694 0.409888
0.386358 0.675044 0.411719
0.390082 0.677516 0.413764
0.395178 0.679805 0.416022
0.401831 0.681361 0.418372
0.409552 0.681880 0.420325
0.418860 0.681910 0.422400
0.430091 0.681727 0.425025
0.443153 0.681758 0.428229
0.466041 0.680385 0.431983
0.494820 0.678065 0.435981
0.523980 0.675563 0.440833
0.552972 0.672694 0.446082
0.581598 0.669398 0.451637
0.609186 0.665644 0.457557
0.635401 0.661372 0.463661
0.659998 0.656703 0.470192
0.682795 0.651942 0.476936
0.702266 0.645838 0.484718
0.707301 0.629023 0.495644
0.711879 0.612940 0.506798
0.720302 0.601740 0.521050
0.740047 0.602594 0.541863
0.792508 0.610346 0.524224
0.842618 0.616815 0.502068
0.889433 0.622065 0.477211
0.931151 0.626612 0.452094
0.957733 0.632563 0.442542
0.984985 0.639643 0.433783
1.000000 0.647913 0.425971
1.000000 0.657374 0.419409
1.000000 0.667994 0.414557
0.408026 0.704067 0.430640
0.410132 0.706203 0.432319
0.413764 0.708370 0.434272
0.418769 0.710292 0.436622
0.424781 0.711696 0.438849
0.431952 0.712184 0.440864
0.440497 0.712276 0.442878
0.450752 0.712093 0.445380
0.463264 0.712184 0.448646
0.479530 0.711849 0.452522
0.506828 0.709712 0.456489
0.534813 0.707362 0.461097
0.563073 0.704646 0.466102
0.591180 0.701625 0.471534
0.618677 0.698360 0.477607
0.645197 0.694881 0.484047
0.671077 0.691463 0.491157
0.695766 0.688106 0.498970
0.719234 0.685145 0.507561
0.738979 0.680781 0.517601
0.745968 0.666712 0.530480
0.752529 0.653529 0.543603
0.760830 0.643275 0.558099
0.781643 0.646143 0.580529
0.827878 0.654231 0.571893
0.877256 0.661646 0.552880
0.923308 0.667445 0.531151
0.967132 0.672114 0.506310
0.997711 0.678828 0.495460
1.000000 0.687343 0.490608
1.000000 0.697047 0.487434
1.000000 0.707820 0.486152
0.449104 0.748775 0.466133
0.450263 0.749630 0.467018
0.452399 0.750240 0.467903
0.455482 0.750576 0.469032
0.460151 0.750546 0.470161
0.465705 0.750179 0.471382
0.473274 0.749691 0.473121
0.482460 0.749416 0.475471
0.493416 0.749386 0.478614
0.506737 0.749630 0.482826
0.530022 0.748226 0.487037
0.556603 0.746151 0.491737
0.583398 0.743709 0.496712
0.610437 0.740963 0.502068
0.637049 0.737819 0.507683
0.663081 0.734463 0.513695
0.688197 0.730983 0.520195
0.712490 0.727565 0.527214
0.735653 0.724208 0.534661
0.757717 0.721126 0.542687
0.775113 0.715694 0.551995
0.781186 0.701686 0.563745
0.786648 0.688167 0.575433
0.792325 0.676356 0.587732
0.811826 0.678737 0.609247
0.851041 0.685969 0.607599
0.898955 0.693904 0.591150
0.944213 0.700771 0.572778
0.987579 0.706691 0.552056
1.000000 0.713313 0.537133
1.000000 0.722988 0.535668
1.000000 0.733669 0.536095
0.480446 0.778927 0.493599
0.481483 0.779599 0.494392
0.483436 0.780209 0.495430
0.486549 0.780453 0.496468
0.490486 0.780575 0.497627
0.495644 0.780362 0.498970
0.502525 0.780026 0.500633
0.510826 0.779782 0.502953
0.520867 0.779782 0.506004
0.532982 0.779995 0.509972
0.549767 0.779690 0.514305
0.574487 0.777859 0.518608
0.599817 0.775753 0.523369
0.625605 0.773465 0.528588
0.651331 0.770932 0.534142
0.676692 0.768276 0.540032
0.701717 0.765438 0.546502
0.725978 0.762692 0.553277
0.749447 0.759945 0.560632
0.771969 0.757382 0.568566
0.793332 0.755062 0.577050
0.809689 0.749752 0.586633
0.815915 0.736812 0.598322
0.821561 0.724544 0.610010
0.819638 0.705440 0.613977
0.838071 0.707759 0.635157
0.871305 0.715114 0.640925
0.918181 0.723964 0.627070
0.962615 0.731991 0.611994
1.000000 0.739193 0.595117
1.000000 0.745632 0.576654
1.000000 0.756771 0.578912
0.522332 0.815671 0.531029
0.524102 0.816739 0.532433
0.525841 0.817227 0.533471
0.527764 0.817014 0.533837
0.530114 0.816312 0.533989
0.533623 0.815183 0.534081
0.538170 0.813870 0.534447
0.544121 0.812589 0.535271
0.551873 0.811460 0.536889
0.561273 0.810605 0.539269
0.571954 0.809873 0.542290
0.592798 0.807614 0.545403
0.615442 0.805020 0.548852
0.638758 0.802090 0.552697
0.662135 0.798856 0.556664
0.685512 0.795560 0.561212
0.709010 0.792264 0.566308
0.732265 0.789334 0.572198
0.755520 0.786831 0.579248
0.778317 0.784817 0.586969
0.800412 0.783169 0.595514
0.821195 0.781491 0.604364
0.836027 0.775967 0.613916
0.841550 0.763272 0.624689
0.846159 0.750607 0.635035
0.849943 0.738460 0.645014
0.865873 0.739559 0.664851
0.892851 0.746334 0.676600
0.938079 0.755550 0.664729
0.981201 0.764309 0.652338
1.000000 0.772519 0.638941
1.000000 0.779690 0.623651
0.549401 0.840146 0.556023
0.551049 0.841123 0.557336
0.552941 0.841733 0.558404
0.554986 0.841855 0.559197
0.557824 0.841672 0.559838
0.561761 0.841306 0.560784
0.566766 0.840970 0.562188
0.573327 0.840696 0.563989
0.581201 0.840574 0.566461
0.590723 0.840543 0.569696
0.601190 0.840543 0.573327
0.616815 0.839750 0.577142
0.638025 0.837644 0.580621
0.659785 0.835203 0.584344
0.681666 0.832395 0.588037
0.703700 0.829404 0.592187
0.725887 0.826352 0.596826
0.748165 0.823545 0.602106
0.770565 0.821164 0.608484
0.792782 0.819303 0.615839
0.814542 0.817716 0.623865
0.835355 0.816342 0.632410
0.854978 0.814939 0.641077
0.868467 0.809354 0.650721
0.873991 0.797757 0.661402
0.878813 0.786465 0.671839
0.883024 0.775906 0.682185
0.897337 0.776791 0.701503
0.919341 0.784543 0.720027
0.962921 0.794949 0.711513
1.000000 0.804868 0.702724
1.000000 0.814084 0.693263
0.584802 0.869749 0.588769
0.585687 0.870237 0.589593
0.586877 0.870420 0.590112
0.588586 0.870390 0.590661
0.590875 0.870115 0.591119
0.594141 0.869718 0.591882
0.598383 0.869291 0.592950
0.604059 0.868864 0.594476
0.610864 0.868559 0.596551
0.619165 0.868376 0.599390
0.628626 0.868284 0.602716
0.639307 0.868284 0.606592
0.658747 0.866514 0.609979
0.678828 0.864439 0.613458
0.699306 0.861936 0.617029
0.719997 0.859220 0.620752
0.740963 0.856474 0.625055
0.762203 0.853910 0.630091
0.783658 0.851774 0.636042
0.805234 0.850095 0.642939
0.826383 0.848722 0.650660
0.846983 0.847471 0.658686
0.866423 0.846128 0.666896
0.884672 0.844694 0.675135
0.896422 0.838773 0.684291
0.901488 0.827756 0.694301
0.906096 0.817288 0.704280
0.910216 0.807492 0.714260
0.922850 0.807858 0.732357
0.940612 0.816373 0.756435
0.982452 0.828092 0.751369
1.000000 0.839445 0.746426
0.616419 0.895689 0.618799
0.617182 0.896056 0.619471
0.618402 0.896361 0.620111
0.620142 0.896483 0.620783
0.622827 0.896635 0.621881
0.626703 0.896971 0.623529
0.632410 0.897795 0.626337
0.639582 0.898863 0.629938
0.648280 0.900237 0.634333
0.658228 0.901884 0.639551
0.669398 0.903655 0.645441
0.681239 0.905333 0.651606
0.697780 0.905913 0.657404
0.717433 0.905425 0.662623
0.737087 0.904387 0.667536
0.756466 0.902678 0.671962
0.775875 0.900694 0.676417
0.795560 0.898711 0.681300
0.815549 0.897093 0.687129
0.835630 0.895689 0.693660
0.855497 0.894652 0.700893
0.874876 0.893614 0.708431
0.893339 0.892454 0.715999
0.910857 0.891234 0.723598
0.927214 0.889891 0.731106
0.937255 0.883970 0.739498
0.941955 0.874174 0.748836
0.946319 0.864897 0.758145
0.950408 0.856535 0.767666
0.961059 0.856565 0.784390
0.977661 0.865965 0.808591
1.000000 0.877958 0.811276
0.668452 0.932708 0.668727
0.668574 0.932738 0.668727
0.669123 0.932616 0.668910
0.670069 0.932403 0.668971
0.671778 0.932189 0.669398
0.674372 0.931945 0.670161
0.677943 0.931792 0.671351
0.682734 0.931731 0.673182
0.688716 0.931853 0.675624
0.695705 0.932097 0.678614
0.703883 0.932403 0.682307
0.712856 0.932799 0.686366
0.723537 0.932982 0.690700
0.740261 0.931945 0.694484
