20 Preset/Gray style/【3】LUT video cho PR-AE-FCPX/Tone  (12).cube
# Created by Adobe Lightroom plugin Export LUT (1.24.0)
# www.johnrellis.com/lightroom/exportlut.htm
# Preset: 12素材江湖-高级灰
# Color profile: E:\lut插件\exportlut.1.24\exportlut.lrplugin\color profiles\Rec709gamma2.4.icc
LUT_3D_SIZE 32
DOMAIN_MIN 0.0 0.0 0.0
DOMAIN_MAX 1.0 1.0 1.0
0.000000 0.000000 0.000000
0.000000 0.000000 0.000000
0.000000 0.000000 0.000000
0.000000 0.000000 0.000000
0.000000 0.000000 0.000000
0.091493 0.006287 0.033234
0.134127 0.012055 0.074556
0.167056 0.013001 0.095216
0.200656 0.003632 0.106813
0.235660 0.000000 0.115145
0.271427 0.000000 0.121370
0.308782 0.000000 0.114565
0.344091 0.000000 0.114565
0.378698 0.000000 0.114199
0.411872 0.000000 0.112367
0.444099 0.000000 0.111147
0.475807 0.000000 0.112490
0.507439 0.000000 0.115480
0.539574 0.000000 0.118502
0.572534 0.000000 0.121889
0.606134 0.000000 0.125673
0.645350 0.000000 0.132113
0.691035 0.000000 0.141665
0.735531 0.000000 0.151492
0.776730 0.000000 0.161013
0.815549 0.000000 0.171023
0.853269 0.000000 0.181216
0.890593 0.000000 0.192111
0.928130 0.000000 0.203250
0.965972 0.000000 0.215335
1.000000 0.016358 0.229007
1.000000 0.098756 0.244236
0.000000 0.000000 0.000000
0.000000 0.000000 0.000000
0.000000 0.000000 0.000000
0.000000 0.000000 0.000000
0.000000 0.000000 0.000000
0.091127 0.005310 0.032258
0.133211 0.012512 0.075715
0.165774 0.013886 0.095247
0.198337 0.004669 0.106203
0.232822 0.000000 0.114931
0.268559 0.000000 0.119692
0.305241 0.000000 0.114565
0.340215 0.000000 0.115267
0.374731 0.000000 0.113283
0.407874 0.000000 0.112062
0.440040 0.000000 0.111269
0.471870 0.000000 0.111727
0.503532 0.000000 0.114839
0.535515 0.000000 0.118288
0.568200 0.000000 0.121523
0.601404 0.000000 0.124910
0.639734 0.000000 0.130831
0.683131 0.000000 0.140108
0.726192 0.000000 0.149172
0.766445 0.000000 0.158267
0.804868 0.000000 0.168429
0.842405 0.000000 0.178134
0.879973 0.000000 0.188296
0.917906 0.000000 0.199588
0.956237 0.000000 0.211582
0.995117 0.000000 0.225071
1.000000 0.089143 0.240085
0.000000 0.000000 0.000000
0.000000 0.000000 0.000000
0.000000 0.000000 0.000000
0.000000 0.000000 0.000000
0.001984 0.000000 0.000000
0.098299 0.006226 0.037385
0.135866 0.012146 0.078614
0.167056 0.013001 0.095216
0.199313 0.003754 0.106538
0.233127 0.000000 0.113710
0.268894 0.000000 0.112093
0.303838 0.000000 0.114321
0.338384 0.000000 0.114626
0.372503 0.000000 0.113313
0.405432 0.000000 0.111727
0.437659 0.000000 0.110018
0.469245 0.000000 0.110842
0.501061 0.000000 0.113771
0.532921 0.000000 0.117006
0.565637 0.000000 0.119966
0.598932 0.000000 0.124025
0.637537 0.000000 0.130495
0.679713 0.000000 0.139406
0.721736 0.000000 0.148714
0.761471 0.000000 0.157778
0.799435 0.000000 0.166415
0.836881 0.000000 0.176699
0.874357 0.000000 0.186709
0.912566 0.000000 0.197604
0.951110 0.000000 0.209812
0.990051 0.021790 0.223239
1.000000 0.096712 0.238041
0.000000 0.000000 0.000000
0.000000 0.000000 0.000000
0.000000 0.000000 0.000000
0.000000 0.000000 0.000000
0.031891 0.002716 0.012543
0.110414 0.008026 0.051026
0.142245 0.014130 0.080873
0.172427 0.018158 0.093965
0.203616 0.018128 0.102266
0.236057 0.012909 0.107576
0.269718 0.001160 0.112062
0.303838 0.000000 0.113222
0.337835 0.000000 0.113466
0.371221 0.000000 0.111330
0.403693 0.000000 0.109865
0.435279 0.000000 0.108797
0.466499 0.000000 0.109133
0.497566 0.000000 0.111849
0.528985 0.000000 0.115236
0.561028 0.000000 0.118441
0.593988 0.000000 0.122438
0.632502 0.000000 0.130282
0.672724 0.000000 0.138338
0.713985 0.000000 0.147341
0.754238 0.000000 0.156100
0.793423 0.000000 0.165713
0.832151 0.000000 0.175204
0.870878 0.000000 0.186038
0.909819 0.000000 0.197269
0.948760 0.028779 0.209323
0.987518 0.085939 0.222171
1.000000 0.115877 0.236606
0.000000 0.068849 0.048371
0.000000 0.070039 0.049348
0.000000 0.072236 0.051331
0.000000 0.078370 0.056062
0.056214 0.077455 0.071870
0.116304 0.079194 0.072450
0.144869 0.087892 0.088380
0.174472 0.088594 0.097627
0.204776 0.088380 0.103914
0.236667 0.087861 0.108309
0.269383 0.083497 0.110719
0.303014 0.075196 0.111574
0.336248 0.065003 0.111330
0.369451 0.050904 0.109560
0.401526 0.042878 0.107179
0.433387 0.034577 0.105684
0.464790 0.033143 0.105867
0.495949 0.036744 0.109133
0.527459 0.041413 0.112337
0.559594 0.047761 0.116030
0.592706 0.049928 0.121920
0.631708 0.048890 0.130434
0.670802 0.046723 0.138674
0.711543 0.040803 0.147677
0.751675 0.039887 0.156252
0.791012 0.044312 0.165377
0.829862 0.052338 0.175265
0.868406 0.070008 0.185458
0.907164 0.089418 0.196506
0.945830 0.103792 0.208560
0.984314 0.121523 0.221378
1.000000 0.141482 0.235538
0.000000 0.119417 0.105135
0.000000 0.119722 0.104738
0.000000 0.119783 0.104677
0.008179 0.118807 0.106050
0.066102 0.117769 0.113954
0.115663 0.118105 0.116030
0.151736 0.111391 0.110811
0.181247 0.119417 0.106264
0.209689 0.125124 0.105043
0.241154 0.124971 0.107698
0.273228 0.123293 0.108522
0.305821 0.122042 0.108858
0.338689 0.120638 0.107424
0.371099 0.118196 0.104768
0.403082 0.116945 0.102052
0.434485 0.115236 0.100771
0.465919 0.115633 0.100832
0.497353 0.115969 0.104677
0.528862 0.117678 0.108980
0.560784 0.117311 0.115267
0.596643 0.117311 0.123537
0.635004 0.117678 0.132418
0.721096 0.129519 0.150484
0.764157 0.131716 0.160830
0.804379 0.134585 0.171237
0.842893 0.138369 0.181216
0.880095 0.143404 0.191836
0.916503 0.150057 0.202396
0.952483 0.158450 0.214267
0.988067 0.169375 0.226413
1.000000 0.182803 0.239475
1.000000 0.198245 0.253971
0.000000 0.156435 0.129671
0.000000 0.156191 0.129183
0.000000 0.155673 0.130495
0.027832 0.154513 0.134035
0.083650 0.153414 0.138491
0.123537 0.153658 0.139345
0.158083 0.153170 0.141054
0.186160 0.140627 0.143008
0.230289 0.149203 0.123873
0.258640 0.156924 0.114839
0.288396 0.164370 0.102846
0.321080 0.163882 0.100374
0.353185 0.162936 0.098299
0.384680 0.161624 0.095430
0.415808 0.160189 0.092866
0.446357 0.159487 0.092439
0.476936 0.158572 0.097139
0.507774 0.157992 0.103853
0.539086 0.157870 0.110903
0.574334 0.158236 0.119142
0.616144 0.160403 0.128847
0.659541 0.162783 0.138796
0.705043 0.165774 0.148226
0.750271 0.169009 0.158358
0.793271 0.172091 0.168704
0.833188 0.175753 0.179446
0.871000 0.179507 0.189731
0.907500 0.184146 0.200137
0.943420 0.190494 0.211490
0.978729 0.198367 0.223087
1.000000 0.208377 0.236057
1.000000 0.221012 0.249882
0.000000 0.185885 0.147158
0.000000 0.185672 0.147402
0.000580 0.185336 0.148867
0.032288 0.184329 0.151858
0.089448 0.183352 0.155245
0.127108 0.183505 0.155947
0.161807 0.183780 0.156893
0.193301 0.180789 0.158389
0.215793 0.165225 0.164279
0.270665 0.173526 0.136995
0.298741 0.180728 0.125887
0.327153 0.188205 0.111391
0.355566 0.196109 0.090028
0.385779 0.195682 0.085451
0.416052 0.193790 0.086580
0.445655 0.192355 0.090150
0.475807 0.191135 0.096864
0.506279 0.190555 0.104402
0.539269 0.191043 0.112245
0.577081 0.193027 0.120851
0.616327 0.194705 0.130007
0.657649 0.197360 0.139101
0.701411 0.200656 0.148196
0.745113 0.203983 0.158083
0.787228 0.207462 0.167941
0.826749 0.210666 0.178012
0.864378 0.213962 0.188113
0.900877 0.217777 0.198276
0.936828 0.222751 0.209567
0.972259 0.229221 0.221073
1.000000 0.237552 0.233768
1.000000 0.247654 0.247532
0.000000 0.216434 0.166354
0.000000 0.216098 0.166567
0.011231 0.215763 0.167666
0.045930 0.215000 0.170352
0.094362 0.214237 0.173404
0.131716 0.214115 0.173892
0.166140 0.213901 0.174563
0.199710 0.213993 0.175540
0.228977 0.210483 0.177737
0.249943 0.193942 0.184237
0.301152 0.198154 0.163882
0.336156 0.205844 0.145937
0.363622 0.211978 0.130282
0.390814 0.218662 0.109621
0.418097 0.225101 0.080720
0.447364 0.223514 0.088136
0.477150 0.222690 0.096132
0.509850 0.223392 0.104585
0.544915 0.224857 0.113222
0.581018 0.226261 0.122255
0.618585 0.228672 0.130953
0.658442 0.231418 0.139284
0.700832 0.234623 0.148653
0.743313 0.238376 0.157717
0.784390 0.241611 0.167849
0.823270 0.244419 0.177859
0.860563 0.247654 0.187808
0.896971 0.251316 0.197665
0.932891 0.255497 0.208621
0.968261 0.261143 0.220066
1.000000 0.268009 0.232914
1.000000 0.276677 0.246342
0.017487 0.247715 0.189059
0.023590 0.247349 0.189120
0.040101 0.247044 0.190188
0.075776 0.246311 0.192325
0.101961 0.244907 0.195499
0.135744 0.244663 0.195804
0.169558 0.244236 0.196567
0.202029 0.244236 0.197116
0.234806 0.243992 0.198398
0.262577 0.239597 0.200565
0.281682 0.222873 0.206668
0.327825 0.222995 0.193881
0.369818 0.230381 0.169589
0.396826 0.235630 0.153841
0.424018 0.241611 0.134218
0.452735 0.249180 0.111055
0.484016 0.256138 0.094118
0.517357 0.257023 0.103456
0.551232 0.258396 0.113466
0.586389 0.259983 0.122103
0.622583 0.261936 0.130983
0.660243 0.264317 0.139376
0.699886 0.267216 0.148074
0.739406 0.269993 0.156985
0.778073 0.273014 0.165774
0.815671 0.275547 0.175357
0.852537 0.278447 0.184970
0.889097 0.281712 0.195468
0.925536 0.285985 0.206271
0.961730 0.291295 0.217990
0.997803 0.297612 0.230594
1.000000 0.305669 0.244785
0.068147 0.276951 0.210391
0.074220 0.276799 0.210666
0.086183 0.276555 0.211460
0.100191 0.276188 0.213230
0.117861 0.275303 0.216068
0.143557 0.274784 0.217655
0.175113 0.274693 0.218143
0.206851 0.274571 0.218997
0.238254 0.274754 0.220066
0.270909 0.274510 0.221164
0.297185 0.269688 0.223453
0.314244 0.252781 0.229191
0.356115 0.249699 0.223301
0.407019 0.258366 0.196414
0.435950 0.264378 0.182071
0.465034 0.271031 0.166079
0.494606 0.278355 0.146120
0.524651 0.286442 0.120180
0.556359 0.291112 0.110384
0.590234 0.292546 0.119478
0.625330 0.294133 0.129305
0.662043 0.296574 0.138277
0.700679 0.299687 0.146517
0.739254 0.302495 0.155764
0.777218 0.305272 0.165255
0.814206 0.308080 0.174472
0.850645 0.311070 0.184085
0.887083 0.314122 0.194461
0.923308 0.318120 0.205600
0.959472 0.322972 0.217319
0.995514 0.328954 0.230228
1.000000 0.336278 0.244419
0.107454 0.307958 0.232212
0.108644 0.307927 0.232212
0.114534 0.307744 0.233219
0.124361 0.307347 0.234684
0.137972 0.306828 0.237095
0.155825 0.306126 0.240238
0.184970 0.306188 0.240635
0.214908 0.306157 0.241367
0.245396 0.306188 0.242069
0.277043 0.307042 0.243595
0.309880 0.308354 0.245762
0.336858 0.304173 0.249210
0.373388 0.304570 0.268193
0.414405 0.300084 0.270024
0.470466 0.308995 0.244144
0.505241 0.315190 0.227054
0.536065 0.320867 0.210300
0.567102 0.327428 0.190311
0.599023 0.334813 0.165957
0.631617 0.343450 0.134890
0.667384 0.347326 0.132937
0.703853 0.349187 0.143130
0.740047 0.350958 0.153079
0.775814 0.352758 0.163333
0.810910 0.354498 0.173373
0.845335 0.356023 0.182986
0.878935 0.357733 0.193210
0.912078 0.359747 0.203372
0.945037 0.362402 0.214237
0.978271 0.365942 0.225742
1.000000 0.370764 0.238560
1.000000 0.376989 0.252903
0.149172 0.348974 0.261143
0.149630 0.348913 0.261234
0.153109 0.348699 0.261723
0.160922 0.348272 0.263066
0.171786 0.347723 0.265080
0.185397 0.347173 0.268101
0.208316 0.347173 0.269657
0.236210 0.347662 0.270542
0.265385 0.348669 0.271916
0.296544 0.350164 0.273899
0.329015 0.352392 0.276371
0.363256 0.355077 0.279454
0.391089 0.351781 0.284245
0.408667 0.336584 0.291234
0.444556 0.329747 0.298161
0.500969 0.338537 0.274144
0.542779 0.345312 0.253452
0.572717 0.350286 0.237430
0.603388 0.355962 0.219120
0.634760 0.362524 0.197116
0.667079 0.370275 0.170413
0.699611 0.378943 0.136080
0.734798 0.380652 0.146853
0.769986 0.382300 0.157626
0.804654 0.384070 0.168032
0.839048 0.385718 0.178317
0.872984 0.387671 0.189181
0.906554 0.389807 0.199771
0.940124 0.392645 0.211093
0.973846 0.396307 0.223484
1.000000 0.400946 0.236881
1.000000 0.406836 0.251469
0.184848 0.386450 0.286809
0.184909 0.386297 0.286748
0.187839 0.385565 0.286961
0.193271 0.384710 0.287755
0.201266 0.383642 0.289189
0.212253 0.382422 0.291234
0.228061 0.381598 0.293400
0.252415 0.381506 0.293797
0.279088 0.381872 0.294652
0.307683 0.383001 0.296147
0.338048 0.384894 0.298314
0.370184 0.387366 0.300786
0.403693 0.389929 0.303502
0.429877 0.385687 0.307683
0.446082 0.369940 0.313756
0.476265 0.359503 0.322728
0.530999 0.367071 0.301305
0.579522 0.374456 0.276860
0.609461 0.379492 0.262028
0.640223 0.384894 0.244480
0.671656 0.391241 0.224735
0.703365 0.398322 0.201816
0.735317 0.406256 0.174258
0.767941 0.413397 0.150546
0.802426 0.415137 0.161898
0.836576 0.416876 0.173678
0.870451 0.418738 0.185214
0.904051 0.420844 0.196597
0.937560 0.423743 0.208591
0.971435 0.427405 0.221164
1.000000 0.431891 0.235233
1.000000 0.437690 0.250584
0.214206 0.421820 0.309545
0.214878 0.421637 0.309575
0.216587 0.420935 0.309697
0.220768 0.419806 0.310094
0.227390 0.418402 0.311009
0.236973 0.416754 0.312779
0.248325 0.415503 0.315251
0.269169 0.414954 0.315709
0.293370 0.415229 0.316289
0.319890 0.416175 0.317449
0.348516 0.417884 0.319127
0.379156 0.420203 0.321355
0.411109 0.422553 0.323919
0.443580 0.424659 0.326207
0.468177 0.418982 0.329686
0.482918 0.402411 0.334844
0.510796 0.390784 0.342840
0.561730 0.395239 0.326635
0.616358 0.403998 0.300206
0.648035 0.409247 0.284703
0.678248 0.414618 0.268772
0.709102 0.420691 0.250828
0.740169 0.427405 0.230594
0.771481 0.434791 0.207218
0.802823 0.442756 0.179232
0.835325 0.448219 0.166964
0.869383 0.450385 0.179812
0.903349 0.452735 0.192721
0.937621 0.456001 0.205722
0.972198 0.460060 0.219974
1.000000 0.465156 0.235386
1.000000 0.471443 0.252262
0.238865 0.455421 0.330022
0.239506 0.455543 0.330175
0.241520 0.455085 0.330388
0.245701 0.454536 0.331151
0.251652 0.453742 0.332219
0.260594 0.452918 0.334112
0.271366 0.452461 0.336828
0.287907 0.452430 0.339055
0.310979 0.453010 0.339696
0.336217 0.453895 0.340734
0.363195 0.454902 0.341894
0.391760 0.456123 0.343236
0.421363 0.457282 0.344579
0.451423 0.458045 0.345861
0.482124 0.458289 0.346990
0.504021 0.450446 0.349523
0.517632 0.432837 0.353887
0.543725 0.420325 0.361303
0.591424 0.422187 0.350072
0.647059 0.431525 0.324895
0.685573 0.438300 0.306279
0.715938 0.444129 0.291752
0.746731 0.450446 0.275731
0.777707 0.457313 0.257816
0.808957 0.464820 0.237888
0.840543 0.472877 0.214664
0.872190 0.481575 0.187472
0.905486 0.486213 0.188540
0.939544 0.489357 0.202945
0.973693 0.493172 0.218296
1.000000 0.497719 0.234318
1.000000 0.503563 0.252079
0.260533 0.489418 0.349493
0.260960 0.489296 0.349554
0.262852 0.489082 0.349920
0.266819 0.488624 0.350652
0.272496 0.488106 0.351843
0.280705 0.487526 0.353735
0.290990 0.487129 0.356237
0.303380 0.487068 0.359716
0.325048 0.487495 0.360266
0.349035 0.488136 0.360998
0.374731 0.489021 0.361883
0.402045 0.490120 0.362951
0.430701 0.491096 0.364263
0.460121 0.491768 0.365301
0.490211 0.491951 0.366033
0.520348 0.491676 0.366735
0.541283 0.482856 0.369116
0.554711 0.465095 0.373480
0.579858 0.451820 0.380682
0.624537 0.451179 0.374762
0.680018 0.460670 0.350408
0.724575 0.468696 0.328832
0.754543 0.474678 0.315526
0.785000 0.481178 0.300877
0.815976 0.488197 0.284916
0.847135 0.495827 0.267399
0.878721 0.504112 0.248020
0.910246 0.512932 0.226535
0.942138 0.522576 0.201755
0.976165 0.526818 0.216251
1.000000 0.531518 0.234043
1.000000 0.537255 0.253178
0.282719 0.527367 0.370764
0.283513 0.527672 0.371099
0.298497 0.551385 0.384680
0.302159 0.550988 0.385443
0.307897 0.550561 0.386694
0.315312 0.549828 0.388220
0.325292 0.549157 0.390600
0.337102 0.548669 0.393896
0.355627 0.548669 0.395636
0.379675 0.548974 0.396063
0.405646 0.549493 0.396796
0.432929 0.549920 0.397528
0.461341 0.549889 0.397986
0.490333 0.549310 0.398138
0.519585 0.548058 0.398108
0.549157 0.546319 0.397742
0.578637 0.543908 0.397223
0.597772 0.532219 0.398718
0.609796 0.512169 0.402380
0.632258 0.496345 0.408972
0.671778 0.491279 0.407752
0.724910 0.499641 0.383886
0.773892 0.507317 0.357824
0.802365 0.512596 0.345068
0.831083 0.517998 0.330755
0.859953 0.524010 0.315740
0.889067 0.530510 0.299565
0.918853 0.537743 0.282200
0.949279 0.546227 0.264622
0.980499 0.555718 0.245701
1.000000 0.565240 0.233371
1.000000 0.570794 0.254002
0.307897 0.574151 0.396521
0.309667 0.576196 0.397864
0.312840 0.578424 0.399634
0.317388 0.580285 0.401587
0.323674 0.581506 0.403723
0.331518 0.581567 0.405859
0.340856 0.581201 0.408118
0.351843 0.580652 0.410986
0.366125 0.580377 0.414282
0.389014 0.580316 0.414496
0.413611 0.580529 0.415106
0.440040 0.580713 0.415595
0.467414 0.580468 0.416144
0.495491 0.580011 0.416327
0.524224 0.579034 0.416480
0.553399 0.577661 0.416297
0.582818 0.575891 0.416052
0.612573 0.574029 0.415930
0.632074 0.562676 0.418097
0.645045 0.543664 0.422492
0.666316 0.527611 0.429541
0.702693 0.520806 0.434943
0.755276 0.529137 0.411963
0.804685 0.536797 0.386328
0.837461 0.542412 0.370214
0.865568 0.547906 0.357305
0.893980 0.553887 0.343481
0.922972 0.560693 0.329564
0.952850 0.568597 0.315251
0.983551 0.577661 0.301030
1.000000 0.587915 0.287175
1.000000 0.599390 0.273747
0.328527 0.607904 0.416846
0.330968 0.610040 0.418372
0.334173 0.612268 0.420294
0.338872 0.614252 0.422461
0.345098 0.615534 0.424689
0.352514 0.615839 0.426886
0.361181 0.615534 0.429175
0.371679 0.615076 0.432013
0.383917 0.614710 0.435615
0.403449 0.614435 0.436835
0.426795 0.614343 0.437140
0.451728 0.614343 0.437720
0.478096 0.614069 0.438117
0.505272 0.613611 0.438422
0.533196 0.612879 0.438788
0.561486 0.611749 0.438727
0.590204 0.610315 0.438636
0.619623 0.608698 0.438422
0.649409 0.607050 0.438544
0.668330 0.595666 0.441260
0.681483 0.577173 0.445991
0.701228 0.560754 0.453162
0.733730 0.552148 0.465278
0.785763 0.560204 0.442817
0.834257 0.567163 0.417731
0.871733 0.572961 0.397650
0.899382 0.578607 0.386053
0.927611 0.584955 0.374060
0.956756 0.592462 0.362432
0.986877 0.601160 0.351232
1.000000 0.611139 0.340856
1.000000 0.622309 0.331395
0.354589 0.642664 0.440253
0.356542 0.644556 0.441779
0.359869 0.646571 0.443702
0.364752 0.648157 0.445960
0.370245 0.649317 0.448066
0.377081 0.649653 0.450111
0.385565 0.649439 0.452461
0.395178 0.649042 0.455268
0.406958 0.648676 0.458869
0.422126 0.648402 0.461799
0.443763 0.648341 0.462257
0.467323 0.648188 0.462745
0.491951 0.647913 0.463081
0.517723 0.647486 0.463508
0.544396 0.646967 0.463935
0.571893 0.646326 0.464363
0.600458 0.645808 0.465034
0.629755 0.645380 0.465827
0.659876 0.645228 0.466987
0.690974 0.645502 0.468574
0.710903 0.635554 0.473213
0.725673 0.619257 0.479683
0.744656 0.603632 0.487831
0.777340 0.597467 0.503014
0.826047 0.603265 0.487190
0.874266 0.609979 0.463050
0.916838 0.615717 0.439155
0.944701 0.622309 0.429877
0.973358 0.629816 0.421088
1.000000 0.638544 0.413123
1.000000 0.648463 0.406165
1.000000 0.659571 0.400793
0.399145 0.689387 0.477821
0.400366 0.690120 0.478614
0.402258 0.690669 0.479561
0.405432 0.690913 0.480568
0.409705 0.690822 0.481849
0.415320 0.690303 0.483345
0.422370 0.689693 0.485237
0.431281 0.689143 0.487953
0.441993 0.688838 0.491371
0.454505 0.688685 0.495857
0.473640 0.688624 0.496986
0.494881 0.688563 0.497536
0.517449 0.688350 0.498146
0.541314 0.687984 0.498573
0.566064 0.687434 0.499031
0.591760 0.686732 0.499336
0.618158 0.685939 0.499672
0.645472 0.685267 0.500267
0.673487 0.684627 0.501061
0.702174 0.684260 0.502281
0.731594 0.683894 0.503624
0.749569 0.673335 0.507805
0.762997 0.656825 0.513359
0.778775 0.640070 0.520104
0.809567 0.634363 0.535302
0.853300 0.637964 0.526390
0.900786 0.644495 0.503868
0.946166 0.649989 0.478279
0.976165 0.657435 0.469184
1.000000 0.666102 0.463294
1.000000 0.675929 0.458778
1.000000 0.687037 0.455970
0.437354 0.722988 0.509087
0.438331 0.723629 0.509819
0.440253 0.724117 0.510765
0.443183 0.724392 0.511894
0.447089 0.724331 0.513115
0.452155 0.724025 0.514672
0.458503 0.723568 0.516564
0.466499 0.723079 0.519036
0.476143 0.722896 0.522515
0.487556 0.722744 0.526696
0.502281 0.722713 0.529656
0.521294 0.722805 0.530388
0.541772 0.722683 0.530968
0.563409 0.722560 0.531640
0.586236 0.722347 0.532219
0.610040 0.722103 0.533013
0.634882 0.721767 0.533806
0.660487 0.721553 0.534752
0.686976 0.721309 0.535851
0.714168 0.721248 0.537133
0.742061 0.721370 0.538842
0.770596 0.721492 0.540764
0.787472 0.711269 0.545312
0.800626 0.696010 0.551019
0.808560 0.673030 0.550286
0.837888 0.668025 0.565484
0.877714 0.670619 0.563867
0.924163 0.678065 0.544732
0.969055 0.684535 0.522881
1.000000 0.692348 0.510704
1.000000 0.702724 0.508782
1.000000 0.714443 0.508843
0.486213 0.762722 0.549462
0.487892 0.763729 0.550713
0.489570 0.764157 0.551568
0.491371 0.763912 0.552087
0.493629 0.763149 0.552422
0.496773 0.762051 0.552758
0.501091 0.760678 0.553491
0.506615 0.759304 0.554742
0.513787 0.758022 0.556634
0.522545 0.757015 0.559472
0.532677 0.756039 0.562951
0.548516 0.755306 0.562768
0.565972 0.754543 0.562585
0.584527 0.753689 0.562310
0.604150 0.752682 0.561975
0.625116 0.751614 0.561761
0.647120 0.750759 0.561822
0.670436 0.750210 0.562402
0.695033 0.750149 0.563531
0.720851 0.750484 0.565270
0.747463 0.751095 0.567285
0.774502 0.751644 0.569482
0.801724 0.751888 0.571374
0.816983 0.741299 0.575525
0.828855 0.726009 0.580072
0.840909 0.709071 0.584680
0.867735 0.704005 0.599084
0.902983 0.705318 0.603754
0.948119 0.713161 0.587152
0.992065 0.720485 0.568811
1.000000 0.728542 0.554345
1.000000 0.740536 0.556390
0.520562 0.791043 0.578820
0.521935 0.791989 0.579950
0.523796 0.792508 0.580926
0.525750 0.792599 0.581750
0.528313 0.792355 0.582544
0.531884 0.791958 0.583642
0.536584 0.791531 0.585138
0.542657 0.791104 0.587182
0.550011 0.790799 0.589868
0.558740 0.790616 0.593317
0.568414 0.790341 0.597162
0.581353 0.790127 0.599237
0.596887 0.789700 0.599420
0.613550 0.789120 0.599390
0.631220 0.788296 0.599176
0.649836 0.787411 0.599023
0.669764 0.786557 0.598962
0.690761 0.785977 0.599359
0.713252 0.785885 0.600397
0.736904 0.786221 0.601953
0.761501 0.786831 0.604089
0.786770 0.787564 0.606287
0.812436 0.788205 0.608637
0.838315 0.788693 0.610742
0.852598 0.778500 0.615106
0.864286 0.764614 0.619928
0.876341 0.749416 0.624964
0.900847 0.744717 0.639185
0.932525 0.746487 0.651118
0.976532 0.755734 0.638392
1.000000 0.764675 0.624811
1.000000 0.773098 0.609674
0.562493 0.824094 0.615106
0.563378 0.824521 0.615747
0.564355 0.824704 0.616236
0.565942 0.824643 0.616785
0.568078 0.824338 0.617456
0.571069 0.823850 0.618280
0.575006 0.823392 0.619532
0.580102 0.822873 0.621302
0.586358 0.822446 0.623590
0.593988 0.822141 0.626612
0.602625 0.821836 0.630152
0.612604 0.821622 0.633722
0.626429 0.821378 0.634089
0.641169 0.821012 0.634150
0.656916 0.820310 0.634089
0.673640 0.819547 0.633906
0.691463 0.818845 0.633906
0.710597 0.818387 0.634272
0.731014 0.818326 0.635218
0.752743 0.818723 0.636927
0.775387 0.819455 0.639002
0.798672 0.820249 0.641291
0.822354 0.820951 0.643458
0.846494 0.821469 0.645655
0.870726 0.821836 0.647669
0.883665 0.811734 0.651698
0.894804 0.798825 0.656397
0.906279 0.784848 0.661311
0.928527 0.780240 0.674861
0.956878 0.782589 0.693233
0.999390 0.793606 0.684932
1.000000 0.804593 0.676600
0.600916 0.853727 0.648951
0.601648 0.854063 0.649561
0.602777 0.854337 0.650172
0.604303 0.854429 0.650874
0.606714 0.854551 0.651942
0.610285 0.854795 0.653590
0.615473 0.855497 0.656214
0.621973 0.856443 0.659602
0.629847 0.857664 0.663844
0.638941 0.859098 0.668788
0.649104 0.860624 0.674311
0.659815 0.862089 0.680201
0.672786 0.863371 0.683650
0.687190 0.864347 0.685481
0.701961 0.864897 0.686763
0.717067 0.864866 0.687465
0.732906 0.864714 0.687984
0.749844 0.864622 0.688746
0.767941 0.864897 0.689967
0.787198 0.865446 0.691676
0.807340 0.866300 0.693812
0.828244 0.867247 0.696101
0.849516 0.868009 0.698268
0.871214 0.868681 0.700404
0.893156 0.869139 0.702327
0.915496 0.869505 0.704189
0.927153 0.859953 0.708217
0.937682 0.848386 0.712734
0.948608 0.836149 0.717647
0.968078 0.831846 0.730098
0.994171 0.836057 0.750668
1.000000 0.847623 0.750912
0.656855 0.894438 0.699031
0.657038 0.894469 0.699123
0.657527 0.894347 0.699245
0.658350 0.894102 0.699428
0.659937 0.893858 0.699947
0.662226 0.893584 0.700771
0.665431 0.893370 0.702052
0.669703 0.893309 0.703883
0.675013 0.893339 0.706294
0.681300 0.893462 0.709285
0.688472 0.893706 0.712764
0.696498 0.894011 0.716762
0.705806 0.894285 0.720302
0.717525 0.894591 0.721187
