20 Preset/Gray style/【3】LUT video cho PR-AE-FCPX/Tone  (14).cube
# Created by Adobe Lightroom plugin Export LUT (1.24.0)
# www.johnrellis.com/lightroom/exportlut.htm
# Preset: 14素材江湖-高级灰
# Color profile: E:\lut插件\exportlut.1.24\exportlut.lrplugin\color profiles\Rec709gamma2.4.icc
LUT_3D_SIZE 8
DOMAIN_MIN 0.000000 0.000000 0.000000
DOMAIN_MAX 0.903226 0.903226 0.903226
0.000000 0.000000 0.000000
0.130587 0.054017 0.078157
0.271550 0.111177 0.114504
0.415442 0.135103 0.109224
0.561547 0.170321 0.113710
0.726467 0.218631 0.135195
0.900969 0.277592 0.169589
1.000000 0.340490 0.217197
0.059785 0.139284 0.120668
0.143801 0.135561 0.130282
0.273808 0.155612 0.126131
0.410224 0.171542 0.117128
0.553155 0.198489 0.121736
0.715297 0.239536 0.140993
0.884062 0.291173 0.170565
1.000000 0.349828 0.215061
0.124453 0.280674 0.199283
0.172396 0.278630 0.207034
0.300694 0.266209 0.219272
0.432227 0.263401 0.188571
0.567651 0.290990 0.157778
0.738888 0.327794 0.170230
0.907195 0.371283 0.197024
1.000000 0.417945 0.239261
0.222171 0.425513 0.279881
0.245212 0.423682 0.284611
0.347539 0.421851 0.294377
0.476265 0.414343 0.312688
0.635920 0.411536 0.298497
0.779629 0.450660 0.241489
0.922484 0.481605 0.235294
1.000000 0.513024 0.272618
0.318181 0.605493 0.357519
0.335515 0.604486 0.361334
0.409491 0.603326 0.374395
0.547356 0.602258 0.383673
0.670436 0.579126 0.400397
0.804074 0.544579 0.398627
0.934569 0.579065 0.355474
1.000000 0.621607 0.323919
0.440711 0.767361 0.461372
0.458534 0.771664 0.469856
0.506371 0.770657 0.486702
0.608789 0.767300 0.498116
0.732448 0.761654 0.509209
0.838346 0.737362 0.531762
0.940917 0.698360 0.564569
1.000000 0.731106 0.533989
0.609522 0.903990 0.613825
0.618006 0.904601 0.617914
0.645289 0.903075 0.628840
0.701137 0.900969 0.643977
0.786069 0.896544 0.650935
0.883696 0.893980 0.664515
0.964324 0.874388 0.687678
1.000000 0.841367 0.739101
0.778988 1.000000 0.779232
0.782559 1.000000 0.780911
0.798367 1.000000 0.789181
0.827817 1.000000 0.805875
0.867216 0.998962 0.803098
0.930022 0.998810 0.817746
0.993744 0.996460 0.830625
1.000000 0.975036 0.837339
0.005280 0.053010 0.169467
0.122774 0.068910 0.170626
0.262791 0.083650 0.171847
0.399054 0.123781 0.164370
0.544732 0.155673 0.160159
0.706355 0.205417 0.173220
0.872862 0.261845 0.193973
1.000000 0.324498 0.227787
0.019135 0.144045 0.177493
0.134829 0.146365 0.181949
0.265110 0.157412 0.184024
0.401556 0.165255 0.169833
0.545037 0.188876 0.165469
0.706477 0.230747 0.177615
0.866453 0.279545 0.195529
1.000000 0.336797 0.227420
0.144961 0.277836 0.230869
0.181247 0.276310 0.237644
0.291844 0.267948 0.248997
0.420294 0.266728 0.215152
0.557000 0.284733 0.190677
0.720119 0.316625 0.197421
0.878325 0.354650 0.213169
1.000000 0.402167 0.245701
0.228367 0.415961 0.292912
0.250431 0.414862 0.297368
0.338903 0.413977 0.308843
0.456886 0.402319 0.321172
0.601099 0.397406 0.304814
0.745144 0.432807 0.245396
0.891112 0.461616 0.243229
1.000000 0.496254 0.273503
0.319036 0.597620 0.365789
0.335882 0.595819 0.368963
0.399634 0.593256 0.382544
0.532341 0.588800 0.388830
0.650935 0.564599 0.402533
0.786465 0.535454 0.398169
0.918181 0.570001 0.355535
1.000000 0.611810 0.322301
0.435004 0.757961 0.462074
0.447944 0.757992 0.466102
0.496101 0.757717 0.482582
0.596521 0.756130 0.497230
0.721370 0.752163 0.509300
0.829801 0.731136 0.533135
0.934112 0.693965 0.562554
1.000000 0.725673 0.530724
0.600458 0.896574 0.608576
0.605951 0.895354 0.609766
0.633509 0.893645 0.620294
0.689845 0.892607 0.638209
0.778286 0.890288 0.647852
0.876616 0.887785 0.660975
0.956817 0.866880 0.681605
1.000000 0.833127 0.729763
0.770504 1.000000 0.772549
0.775784 1.000000 0.775814
0.791562 1.000000 0.783749
0.821866 1.000000 0.800778
0.871305 1.000000 0.811704
0.930510 0.999542 0.822049
0.993164 0.996551 0.832731
1.000000 0.975280 0.839322
0.000000 0.084993 0.310033
0.131319 0.086580 0.309148
0.260777 0.101045 0.304662
0.400488 0.096773 0.306584
0.556756 0.000000 0.272404
0.720851 0.109102 0.254704
0.884642 0.226230 0.270909
1.000000 0.305119 0.293889
0.008240 0.151247 0.307805
0.136233 0.153079 0.307164
0.263523 0.161318 0.304479
0.402136 0.148043 0.302403
0.558312 0.000000 0.255528
0.716091 0.183566 0.258824
0.877897 0.250645 0.270726
1.000000 0.320317 0.292912
0.081086 0.286595 0.312474
0.153536 0.287327 0.313756
0.295628 0.294835 0.322515
0.426368 0.265232 0.284459
0.566308 0.271305 0.272709
0.729946 0.300298 0.274266
0.886198 0.339422 0.282994
1.000000 0.389624 0.305058
0.245029 0.420050 0.343206
0.271183 0.421912 0.347936
0.341527 0.422827 0.362127
0.455146 0.415625 0.373968
0.599084 0.416754 0.347509
0.751797 0.435554 0.301762
0.900603 0.459724 0.307439
1.000000 0.494087 0.330541
0.327062 0.596338 0.404822
0.345220 0.595850 0.408118
0.408667 0.595483 0.422705
0.525750 0.594354 0.437781
0.650446 0.575250 0.448981
0.786099 0.554284 0.437537
0.915862 0.580102 0.388281
1.000000 0.613123 0.373022
0.450050 0.755550 0.496498
0.463203 0.756008 0.500633
0.509911 0.755520 0.515251
0.592584 0.754360 0.536492
0.713069 0.750210 0.545373
0.821225 0.732265 0.565179
0.931701 0.704677 0.584588
1.000000 0.736690 0.558923
0.612299 0.898497 0.632715
0.617975 0.897490 0.634058
0.644007 0.895171 0.642786
0.692531 0.893523 0.663325
0.776364 0.890806 0.672145
0.873533 0.889250 0.684596
0.955596 0.872282 0.705379
1.000000 0.845060 0.747646
0.772824 1.000000 0.782254
0.775875 1.000000 0.783261
0.791745 1.000000 0.790768
0.824033 1.000000 0.809079
0.869841 1.000000 0.823026
0.929595 1.000000 0.834226
0.990723 0.996857 0.842710
1.000000 0.976471 0.848569
0.058625 0.071412 0.440589
0.150759 0.075502 0.440314
0.277073 0.093629 0.433021
0.402014 0.116457 0.424018
0.544854 0.115846 0.428382
0.718471 0.000000 0.431159
0.889830 0.000000 0.393286
1.000000 0.000000 0.366125
0.066590 0.149813 0.439979
0.150912 0.151247 0.438697
0.278721 0.156497 0.432654
0.404639 0.167910 0.425086
0.548333 0.164340 0.429572
0.722438 0.094911 0.427192
0.891478 0.000000 0.384436
1.000000 0.172335 0.370520
0.000000 0.272526 0.443641
0.124147 0.271275 0.441749
0.282048 0.275883 0.434791
0.413062 0.282078 0.427131
0.565698 0.276280 0.433509
0.746975 0.219211 0.404974
0.909575 0.237613 0.374365
1.000000 0.352300 0.393439
0.101503 0.436500 0.442176
0.163394 0.435981 0.442267
0.294347 0.437293 0.444862
0.461402 0.447089 0.456733
0.608423 0.411475 0.410834
0.756374 0.413672 0.395422
0.902831 0.436622 0.396338
1.000000 0.476814 0.414466
0.299321 0.595514 0.467414
0.323735 0.595422 0.469856
0.410895 0.598627 0.484413
0.520531 0.604974 0.512963
0.646052 0.593408 0.526360
0.778500 0.582116 0.497780
0.916808 0.590448 0.439368
1.000000 0.615747 0.460945
0.470680 0.759884 0.557183
0.487221 0.763882 0.563561
0.533867 0.762417 0.574701
0.608942 0.762966 0.599329
0.711421 0.760494 0.615167
0.815061 0.743709 0.625483
0.933440 0.728695 0.626856
1.000000 0.754513 0.601923
0.622705 0.900084 0.669337
0.630518 0.900328 0.672236
0.659937 0.899992 0.682521
0.710323 0.899626 0.702571
0.779232 0.898100 0.721767
0.870726 0.895415 0.729488
0.951476 0.879973 0.743801
1.000000 0.860594 0.771969
0.779843 1.000000 0.804501
0.783627 1.000000 0.806027
0.799527 1.000000 0.812863
0.829435 1.000000 0.827237
0.868894 1.000000 0.846708
0.926787 1.000000 0.855833
0.985962 0.997467 0.861265
1.000000 0.978759 0.866270
0.150576 0.104891 0.605798
0.199313 0.107973 0.605646
0.315404 0.116335 0.598230
0.441352 0.132143 0.585534
0.565026 0.148470 0.571466
0.714260 0.135103 0.577722
0.874876 0.128298 0.588434
1.000000 0.003571 0.568597
0.153780 0.170504 0.606073
0.202060 0.171420 0.606256
0.317021 0.174258 0.599695
0.442206 0.180484 0.585321
0.566644 0.188449 0.572259
0.716884 0.177157 0.578515
0.876310 0.173434 0.587884
1.000000 0.124605 0.565179
0.120851 0.290593 0.606867
0.183078 0.290745 0.605615
0.311009 0.289799 0.598688
0.444129 0.290105 0.586542
0.569268 0.290379 0.571130
0.719753 0.281590 0.575647
0.880095 0.271427 0.576287
1.000000 0.242771 0.546380
0.000000 0.443793 0.616999
0.132784 0.441566 0.616754
0.288975 0.432929 0.616205
0.451606 0.430488 0.601160
0.590234 0.427832 0.583429
0.743313 0.421515 0.582391
0.902739 0.391150 0.552392
1.000000 0.375921 0.510643
0.087892 0.609430 0.601068
0.163302 0.609522 0.601434
0.303075 0.608850 0.601831
0.462959 0.608942 0.604028
0.634333 0.612940 0.611475
0.770993 0.578607 0.565759
0.907988 0.577783 0.550011
1.000000 0.604486 0.561242
0.391058 0.737057 0.597467
0.409888 0.737514 0.600061
0.476326 0.737148 0.608942
0.580346 0.740719 0.631464
0.684291 0.749935 0.665187
0.794522 0.745754 0.682155
0.915557 0.744350 0.668696
1.000000 0.758328 0.628107
0.616724 0.892424 0.710903
0.623713 0.891783 0.712062
0.651820 0.891905 0.717861
0.699184 0.895628 0.730373
0.771450 0.896666 0.758846
0.855558 0.895018 0.773465
0.939178 0.882170 0.782345
1.000000 0.870787 0.790219
0.759182 1.000000 0.815579
0.763546 1.000000 0.816953
0.781979 1.000000 0.823392
0.820676 1.000000 0.841154
0.864958 1.000000 0.861753
0.917235 1.000000 0.879606
0.978393 0.998444 0.885924
1.000000 0.981903 0.889494
0.221073 0.159609 0.774380
0.255436 0.161196 0.774166
0.353979 0.167086 0.768154
0.478065 0.175204 0.759487
0.604578 0.184665 0.746578
0.730129 0.188785 0.732204
0.877256 0.181949 0.735531
1.000000 0.235203 0.743893
0.222019 0.205234 0.768154
0.254765 0.205631 0.766934
0.352026 0.207492 0.762142
0.474311 0.211307 0.753780
0.599359 0.215427 0.739895
0.724727 0.217136 0.726314
0.872404 0.211826 0.730587
1.000000 0.256291 0.739742
0.219089 0.318578 0.773800
0.253086 0.318303 0.772549
0.353155 0.318029 0.768429
0.476051 0.315068 0.756283
0.601984 0.313909 0.741329
0.727932 0.312444 0.726955
0.878294 0.312383 0.732815
1.000000 0.350744 0.740169
0.183200 0.453193 0.785672
0.222385 0.451484 0.783444
0.350347 0.456092 0.776394
0.490303 0.460822 0.769863
0.620081 0.457893 0.755245
0.743587 0.452338 0.737148
0.891875 0.460121 0.741817
1.000000 0.492287 0.747219
0.251774 0.619623 0.776455
0.282414 0.619348 0.776272
0.382147 0.618860 0.776242
0.515618 0.619959 0.777859
0.640589 0.615167 0.758846
0.751247 0.600641 0.735988
0.891997 0.601434 0.737881
1.000000 0.598138 0.722011
0.326787 0.767330 0.754330
0.350622 0.768673 0.755825
0.420935 0.767361 0.755245
0.525689 0.765438 0.754788
0.647547 0.763058 0.754604
0.785611 0.765591 0.760220
0.912078 0.752316 0.736080
1.000000 0.766873 0.739834
0.531823 0.889433 0.753445
0.544366 0.890440 0.755947
0.587213 0.890990 0.762203
0.661860 0.892638 0.775784
0.757168 0.896910 0.799802
0.846311 0.903471 0.831388
0.931334 0.894896 0.840177
1.000000 0.896178 0.835904
0.753933 1.000000 0.856535
0.757717 1.000000 0.856992
0.777218 1.000000 0.861784
0.816770 1.000000 0.874296
0.855100 1.000000 0.883543
0.911803 1.000000 0.908629
0.968841 0.999908 0.920806
1.000000 0.986725 0.922759
0.287510 0.228672 0.908171
0.311192 0.230930 0.908934
0.388525 0.234989 0.906188
0.498756 0.242069 0.902312
0.619623 0.249393 0.894713
0.741207 0.255924 0.883207
0.866209 0.262272 0.873320
1.000000 0.276432 0.875151
0.287022 0.256138 0.902251
0.310826 0.258091 0.903349
0.386786 0.260380 0.900938
0.494942 0.264073 0.895995
0.614771 0.268284 0.887846
0.734493 0.271458 0.874907
0.857359 0.273686 0.863523
0.994965 0.282200 0.864744
0.298100 0.351385 0.906157
0.319554 0.351446 0.905638
0.392706 0.351568 0.902373
0.499184 0.352422 0.897063
0.617243 0.352850 0.887816
0.737270 0.353491 0.875639
0.862699 0.357885 0.867277
1.000000 0.374609 0.873381
0.341650 0.489845 0.911559
0.358404 0.488746 0.910124
0.421607 0.487404 0.906371
0.521569 0.488472 0.901762
0.634089 0.487556 0.892912
0.750912 0.487282 0.881773
0.871702 0.489113 0.872801
1.000000 0.503349 0.878477
0.405554 0.631830 0.914763
0.416846 0.630457 0.912932
0.468086 0.629664 0.908812
0.552850 0.630426 0.902953
0.661921 0.634668 0.893095
0.763149 0.624537 0.880339
0.872740 0.614282 0.867979
1.000000 0.633661 0.879057
0.470680 0.777218 0.904143
0.483345 0.777676 0.904417
0.530388 0.778744 0.905028
0.610101 0.781308 0.906523
0.711666 0.786404 0.909026
0.802609 0.782589 0.897520
0.890959 0.763455 0.880125
1.000000 0.775418 0.886564
0.526329 0.907561 0.896574
0.537194 0.908202 0.897337
0.572686 0.907713 0.897307
0.636896 0.907317 0.897826
0.719692 0.905821 0.897765
0.814328 0.904265 0.898039
0.913207 0.901854 0.897826
1.000000 0.911131 0.899779
0.686122 1.000000 0.894774
0.692836 1.000000 0.895872
0.722652 1.000000 0.901793
0.770779 1.000000 0.910369
0.834562 1.000000 0.923156
0.906828 1.000000 0.942504
0.963561 1.000000 0.961761
1.000000 0.993378 0.964874
0.364935 0.316533 1.000000
0.380407 0.318364 1.000000
0.434638 0.321050 1.000000
0.523613 0.329534 1.000000
0.630152 0.341070 1.000000
0.744228 0.354925 1.000000
0.861448 0.372808 1.000000
0.981506 0.396155 0.999542
0.365454 0.332982 1.000000
0.380835 0.334691 1.000000
0.435370 0.337560 1.000000
0.523064 0.344610 1.000000
0.629053 0.354650 1.000000
0.742702 0.367193 1.000000
0.858824 0.381750 0.999359
0.978119 0.401770 0.995453
0.380072 0.403326 1.000000
0.394079 0.404181 1.000000
0.445319 0.405676 1.000000
0.532799 0.414374 1.000000
0.635248 0.421363 1.000000
0.745693 0.429816 1.000000
0.860258 0.442298 0.997375
0.977874 0.457527 0.993835
0.427008 0.520165 1.000000
0.439765 0.521386 1.000000
0.484108 0.523003 1.000000
0.560754 0.528374 1.000000
0.655482 0.534386 1.000000
0.758968 0.539757 1.000000
0.867338 0.545037 0.997284
0.981018 0.552056 0.994690
0.476967 0.640589 1.000000
0.487343 0.641688 1.000000
0.527276 0.644953 1.000000
0.607965 0.658961 1.000000
0.684993 0.658717 1.000000
0.774960 0.657282 0.997589
0.874571 0.656123 0.994995
0.983917 0.659297 0.994293
0.579675 0.780056 1.000000
0.585168 0.779385 1.000000
0.612207 0.778866 1.000000
0.659693 0.779934 1.000000
0.723690 0.782315 0.999390
0.812375 0.793820 0.998260
0.897612 0.794461 0.999115
0.993591 0.794217 1.000000
0.659327 0.904936 1.000000
0.664454 0.904875 1.000000
0.686366 0.904997 1.000000
0.731289 0.906981 1.000000
0.795346 0.911376 1.000000
0.873289 0.921447 1.000000
0.936034 0.928466 1.000000
0.999298 0.918395 1.000000
0.733364 1.000000 0.999329
0.737087 1.000000 0.999329
0.754635 1.000000 0.999268
0.790158 1.000000 0.999084
0.839994 1.000000 0.998932
0.899351 1.000000 0.998840
0.959838 0.999969 0.999084
1.000000 1.000000 1.000000
