20 Preset/Gray style/【3】LUT video cho PR-AE-FCPX/Tone  (8).cube
# Created by Adobe Lightroom plugin Export LUT (1.24.0)
# www.johnrellis.com/lightroom/exportlut.htm
# Preset: 08素材江湖-高级灰
# Color profile: E:\lut插件\exportlut.1.24\exportlut.lrplugin\color profiles\Rec709gamma2.4.icc
LUT_3D_SIZE 32
DOMAIN_MIN 0.0 0.0 0.0
DOMAIN_MAX 1.0 1.0 1.0
0.000000 0.000000 0.000000
0.000000 0.000000 0.000000
0.000000 0.000000 0.000000
0.000000 0.000000 0.000000
0.057954 0.000000 0.004974
0.113680 0.000000 0.012940
0.141756 0.000000 0.017182
0.167056 0.000000 0.028931
0.193240 0.000000 0.053803
0.221134 0.000000 0.078859
0.251316 0.000000 0.091402
0.282628 0.000000 0.098421
0.315099 0.000000 0.104799
0.347784 0.000000 0.110262
0.380682 0.000000 0.114931
0.413642 0.000000 0.120363
0.446845 0.000000 0.126162
0.480232 0.000000 0.133150
0.513939 0.000000 0.142153
0.548089 0.000000 0.151797
0.582849 0.000000 0.162112
0.617853 0.000000 0.172915
0.657923 0.000000 0.185428
0.701442 0.000000 0.198886
0.743526 0.000000 0.212558
0.783871 0.000000 0.226474
0.823362 0.000000 0.241154
0.862394 0.000000 0.256229
0.901305 0.000000 0.272557
0.940490 0.000000 0.289799
0.979919 0.000000 0.308751
1.000000 0.000000 0.329595
0.000000 0.000000 0.000000
0.000000 0.000000 0.000000
0.000000 0.000000 0.000000
0.000000 0.000000 0.000000
0.060243 0.000000 0.003815
0.113588 0.000000 0.014069
0.141268 0.000000 0.013489
0.166384 0.000000 0.028504
0.192355 0.001801 0.053223
0.219730 0.005158 0.079225
0.249638 0.001678 0.091188
0.280735 0.000000 0.098390
0.313024 0.000000 0.104341
0.345586 0.000000 0.109834
0.378424 0.000000 0.114900
0.411109 0.000000 0.120180
0.444587 0.000000 0.125856
0.477821 0.000000 0.132753
0.511528 0.000000 0.141207
0.545525 0.000000 0.151125
0.579980 0.000000 0.161471
0.614740 0.000000 0.172213
0.654017 0.000000 0.184573
0.696315 0.000000 0.197574
0.737545 0.000000 0.210727
0.777523 0.000000 0.224460
0.816831 0.000000 0.238621
0.855894 0.000000 0.253666
0.894987 0.000000 0.269688
0.934386 0.000000 0.286748
0.974151 0.000000 0.305638
1.000000 0.000000 0.326207
0.000000 0.000000 0.000000
0.000000 0.000000 0.000000
0.000000 0.000000 0.000000
0.001984 0.000000 0.000000
0.078553 0.000000 0.005859
0.116670 0.000000 0.010681
0.141756 0.005402 0.014954
0.166262 0.013916 0.032563
0.191958 0.022095 0.058442
0.219608 0.026429 0.080934
0.248936 0.024811 0.091768
0.280125 0.013519 0.098482
0.312169 0.000000 0.104738
0.344427 0.000000 0.110231
0.377264 0.000000 0.115450
0.410101 0.000000 0.120851
0.443153 0.000000 0.126284
0.476478 0.000000 0.133120
0.510063 0.000000 0.141665
0.543999 0.000000 0.151553
0.578454 0.000000 0.162051
0.613245 0.000000 0.172457
0.652491 0.000000 0.184787
0.694179 0.000000 0.197421
0.734951 0.000000 0.210513
0.774350 0.000000 0.223789
0.813535 0.000000 0.237888
0.852445 0.000000 0.252598
0.891691 0.000000 0.268559
0.931151 0.000000 0.285649
0.970886 0.000000 0.304356
1.000000 0.000000 0.324926
0.001801 0.005341 0.001495
0.002777 0.006317 0.002472
0.002350 0.009705 0.003143
0.024750 0.018372 0.002655
0.089021 0.031373 0.006256
0.117769 0.040925 0.011048
0.142550 0.048493 0.016907
0.166873 0.057984 0.040040
0.192996 0.065705 0.064759
0.220462 0.070039 0.084901
0.250004 0.065797 0.093782
0.280674 0.059541 0.099702
0.312200 0.047181 0.105684
0.344396 0.025879 0.111757
0.376715 0.000000 0.116670
0.409033 0.000000 0.122042
0.441779 0.000000 0.127413
0.474678 0.000000 0.134493
0.508019 0.000000 0.142794
0.541650 0.000000 0.152590
0.575708 0.000000 0.162692
0.610254 0.000000 0.173068
0.649378 0.000000 0.185306
0.690211 0.000000 0.197665
0.731014 0.000000 0.210544
0.771054 0.000000 0.224002
0.810849 0.000000 0.238132
0.850492 0.000000 0.253239
0.890105 0.000000 0.269078
0.929747 0.000000 0.286015
0.969329 0.000000 0.304662
1.000000 0.000000 0.324712
0.015900 0.066682 0.026734
0.020417 0.068391 0.026398
0.036042 0.073396 0.025422
0.078309 0.083558 0.014862
0.100038 0.079469 0.010285
0.123568 0.084627 0.013153
0.144656 0.094514 0.029541
0.167819 0.099062 0.054475
0.194125 0.101472 0.076936
0.221836 0.103090 0.089296
0.250462 0.103120 0.096223
0.280919 0.101869 0.102602
0.312016 0.098817 0.108614
0.344091 0.093111 0.114015
0.376196 0.083314 0.119448
0.408606 0.061494 0.124575
0.441444 0.032013 0.129946
0.474342 0.000000 0.136721
0.507317 0.000000 0.145022
0.541009 0.000000 0.155001
0.575128 0.000000 0.164706
0.609857 0.000000 0.175479
0.648981 0.000000 0.187198
0.689357 0.000000 0.199649
0.729915 0.000000 0.212436
0.769955 0.000000 0.225467
0.809537 0.000000 0.239506
0.849058 0.000000 0.254368
0.888457 0.000000 0.270207
0.927947 0.000000 0.286931
0.967315 0.000000 0.305150
1.000000 0.000000 0.325109
0.072389 0.103151 0.049805
0.077333 0.103334 0.050782
0.087800 0.104494 0.049928
0.100343 0.108797 0.036011
0.121828 0.115297 0.013275
0.131136 0.108248 0.033997
0.152255 0.112642 0.052399
0.173587 0.120974 0.073793
0.197330 0.128481 0.087556
0.224643 0.130129 0.094362
0.253452 0.130953 0.100587
0.283665 0.131014 0.107088
0.314641 0.130312 0.112520
0.346044 0.127962 0.117769
0.378210 0.124361 0.123018
0.410254 0.118502 0.128206
0.443091 0.111299 0.133974
0.475837 0.102968 0.140780
0.509026 0.093385 0.149752
0.542443 0.079866 0.159030
0.576410 0.051484 0.168887
0.612604 0.022065 0.179629
0.675990 0.000000 0.199313
0.719509 0.000000 0.212955
0.761074 0.000000 0.226658
0.801205 0.000000 0.240513
0.840360 0.000000 0.255222
0.878752 0.000000 0.270268
0.916869 0.000000 0.286564
0.954681 0.000000 0.303563
0.992126 0.000000 0.322179
1.000000 0.000000 0.342046
0.107881 0.130098 0.083864
0.109041 0.130007 0.083833
0.113527 0.131350 0.085267
0.122499 0.135439 0.080446
0.136843 0.140536 0.070497
0.154330 0.144961 0.065675
0.164187 0.138827 0.083528
0.187930 0.142092 0.091707
0.211002 0.149569 0.096925
0.235325 0.158022 0.102968
0.262974 0.162692 0.109224
0.293400 0.163455 0.114778
0.324010 0.163394 0.120424
0.355322 0.162661 0.124941
0.386847 0.160098 0.130007
0.418708 0.156527 0.135409
0.450965 0.152621 0.141085
0.483406 0.148409 0.148104
0.516258 0.144594 0.157046
0.550072 0.140566 0.166415
0.584924 0.134981 0.176486
0.626184 0.130404 0.188296
0.668910 0.124178 0.201663
0.712703 0.116579 0.214725
0.755245 0.108858 0.228367
0.795926 0.100740 0.242618
0.835172 0.091188 0.257084
0.873411 0.084810 0.271611
0.911254 0.083894 0.287205
0.948821 0.087984 0.303960
0.986114 0.101289 0.321904
1.000000 0.122896 0.341527
0.131441 0.156161 0.104799
0.131868 0.156313 0.104097
0.135256 0.157351 0.105104
0.142428 0.160342 0.103487
0.153841 0.165347 0.101076
0.171328 0.171817 0.095888
0.186893 0.173037 0.095552
0.197116 0.166323 0.102937
0.222446 0.169253 0.107393
0.245884 0.176669 0.112245
0.270939 0.184665 0.117494
0.296757 0.193332 0.123781
0.326543 0.194705 0.128328
0.357458 0.194430 0.132906
0.388403 0.192966 0.137972
0.419501 0.191623 0.142916
0.451331 0.189273 0.148135
0.483558 0.186679 0.155428
0.516411 0.184726 0.164065
0.549859 0.182376 0.172702
0.586786 0.180545 0.183139
0.627039 0.178408 0.194797
0.668330 0.176638 0.206821
0.710933 0.173648 0.219577
0.752438 0.170901 0.232914
0.792660 0.167971 0.246159
0.831449 0.165530 0.260044
0.869535 0.162631 0.274449
0.907317 0.162753 0.289677
0.944732 0.165438 0.305974
0.982025 0.171145 0.323857
1.000000 0.182650 0.343084
0.155886 0.185061 0.124086
0.156405 0.185153 0.124331
0.159701 0.185794 0.124361
0.165682 0.188144 0.123598
0.175479 0.192416 0.121431
0.189334 0.197910 0.118013
0.208530 0.204654 0.112490
0.221683 0.202884 0.114565
0.232242 0.195529 0.119692
0.258335 0.197147 0.122377
0.282322 0.204410 0.127199
0.307195 0.212284 0.133028
0.332799 0.220462 0.138125
0.360296 0.226291 0.143404
0.391119 0.226261 0.147463
0.421912 0.225040 0.152651
0.453346 0.224155 0.157595
0.485206 0.222782 0.164950
0.517754 0.221897 0.172457
0.552453 0.221225 0.181521
0.590234 0.221378 0.191806
0.628931 0.221103 0.202548
0.669429 0.220523 0.213962
0.710872 0.219547 0.226078
0.751583 0.218723 0.238651
0.791135 0.217166 0.251591
0.829557 0.216068 0.264988
0.867430 0.215213 0.279057
0.904967 0.215732 0.294041
0.942229 0.218265 0.309972
0.979339 0.223117 0.327214
1.000000 0.231327 0.346227
0.182345 0.215183 0.144686
0.182712 0.215274 0.145113
0.185611 0.215885 0.144869
0.190402 0.217533 0.145876
0.198886 0.220920 0.142824
0.210391 0.225406 0.139467
0.226383 0.231144 0.134920
0.247288 0.238132 0.129122
0.257389 0.232761 0.132570
0.268101 0.224704 0.136751
0.294499 0.225071 0.137392
0.318303 0.231968 0.142641
0.343175 0.239384 0.147219
0.368383 0.247288 0.153048
0.394629 0.255833 0.159274
0.424323 0.257908 0.164309
0.455909 0.258061 0.169436
0.487739 0.257939 0.175845
0.521355 0.258366 0.183810
0.557610 0.259129 0.192874
0.594171 0.260014 0.202152
0.631464 0.260227 0.211856
0.670344 0.260258 0.222141
0.709621 0.260563 0.233158
0.748531 0.260075 0.244755
0.787015 0.259373 0.256535
0.824979 0.259037 0.269596
0.862821 0.258793 0.283238
0.900481 0.260014 0.297856
0.938079 0.262882 0.313695
0.975555 0.266789 0.330938
1.000000 0.274296 0.349920
0.208408 0.245274 0.165927
0.208896 0.245640 0.166354
0.211185 0.246159 0.166720
0.216007 0.247562 0.167514
0.223484 0.250462 0.165164
0.233249 0.254337 0.162783
0.247044 0.259434 0.158328
0.264683 0.265629 0.153536
0.284459 0.270451 0.148684
0.294011 0.263767 0.151705
0.305058 0.254795 0.154116
0.331487 0.253513 0.152010
0.355230 0.260258 0.157351
0.379919 0.267460 0.162783
0.405493 0.275273 0.168643
0.431434 0.283635 0.175509
0.458778 0.291234 0.183474
0.492103 0.292821 0.189578
0.526574 0.294469 0.197543
0.561639 0.295811 0.205264
0.597314 0.296452 0.213993
0.633845 0.297368 0.222629
0.672023 0.298283 0.231815
0.710445 0.298985 0.242191
0.748836 0.299016 0.253300
0.786587 0.299626 0.264530
0.824155 0.300084 0.276890
0.861692 0.300450 0.289860
0.899168 0.301823 0.304082
0.936645 0.304601 0.319829
0.973968 0.308995 0.336645
1.000000 0.315526 0.355474
0.236240 0.277165 0.189059
0.237125 0.277287 0.188846
0.239200 0.277958 0.189242
0.243503 0.279026 0.190097
0.249516 0.281498 0.189029
0.258579 0.284916 0.186404
0.270329 0.289372 0.183200
0.285771 0.294835 0.178805
0.304967 0.301030 0.172915
0.322240 0.303136 0.169589
0.331853 0.295659 0.171878
0.343023 0.285832 0.172396
0.378607 0.289586 0.171450
0.403326 0.296422 0.177157
0.428199 0.303593 0.183322
0.455238 0.312352 0.191562
0.484840 0.323278 0.201572
0.514946 0.334264 0.211246
0.548302 0.340215 0.219516
0.584283 0.342077 0.227237
0.620752 0.343816 0.234714
0.658015 0.344762 0.242863
0.695369 0.345922 0.251865
0.732540 0.346654 0.261387
0.769345 0.347021 0.271885
0.805692 0.347204 0.282689
0.841520 0.347601 0.294072
0.877104 0.348211 0.306523
0.912627 0.349401 0.319860
0.948211 0.351690 0.334752
0.983673 0.355718 0.351080
1.000000 0.361975 0.369482
0.269261 0.314397 0.216434
0.269841 0.314397 0.216403
0.271458 0.314763 0.216648
0.275273 0.315587 0.217380
0.280797 0.317174 0.216861
0.288243 0.319921 0.214115
0.298466 0.323522 0.210361
0.311711 0.328038 0.206119
0.328527 0.333562 0.201450
0.349218 0.339849 0.195132
0.364233 0.338903 0.192813
0.374823 0.331365 0.193942
0.386847 0.321386 0.193515
0.415503 0.318395 0.188296
0.443793 0.327733 0.196231
0.471687 0.336889 0.204898
0.499611 0.346258 0.213596
0.527825 0.355871 0.222690
0.556512 0.365820 0.231785
0.585657 0.376104 0.240909
0.620813 0.377356 0.247776
0.656977 0.379034 0.254704
0.693385 0.380255 0.262516
0.729915 0.381048 0.271458
0.766140 0.381994 0.280858
0.802274 0.382574 0.290898
0.838132 0.383398 0.302098
0.873686 0.384558 0.314031
0.909422 0.386175 0.327123
0.945220 0.388861 0.341924
0.980865 0.393042 0.358129
1.000000 0.398993 0.376440
0.297765 0.346288 0.240391
0.298039 0.346258 0.240391
0.299718 0.346502 0.240299
0.303258 0.347326 0.240665
0.308324 0.348363 0.241154
0.314641 0.350774 0.238468
0.323583 0.353796 0.235508
0.335363 0.357916 0.231327
0.350225 0.362768 0.226810
0.368444 0.368505 0.221225
0.390112 0.375158 0.215305
0.404211 0.372930 0.215091
0.416754 0.366522 0.216709
0.430793 0.357427 0.216648
0.459388 0.354101 0.211337
0.487404 0.361517 0.217868
0.514061 0.369757 0.226047
0.541070 0.378180 0.234165
0.568627 0.387060 0.242618
0.596551 0.396368 0.251194
0.625483 0.406165 0.259770
0.657710 0.412848 0.267674
0.693263 0.414435 0.274571
0.729366 0.415869 0.282658
0.765194 0.416999 0.291539
0.801022 0.418067 0.300999
0.836606 0.419104 0.311803
0.872099 0.420508 0.323156
0.907683 0.422522 0.336156
0.943389 0.425483 0.350530
0.978943 0.429725 0.366613
1.000000 0.435676 0.384924
0.327489 0.379187 0.264530
0.327611 0.379187 0.264530
0.329503 0.379400 0.264530
0.332128 0.380011 0.264988
0.337072 0.380926 0.265782
0.342992 0.382849 0.263767
0.351049 0.385901 0.261295
0.362097 0.390112 0.258030
0.376287 0.395544 0.253941
0.393347 0.401526 0.249760
0.414008 0.408789 0.244724
0.437781 0.416114 0.238926
0.449226 0.410712 0.240055
0.461311 0.403479 0.240909
0.474189 0.392828 0.239628
0.501213 0.388067 0.233860
0.529107 0.393866 0.238834
0.555169 0.401526 0.246372
0.581842 0.409552 0.254124
0.609125 0.417975 0.261723
0.637140 0.426947 0.269993
0.665919 0.436591 0.278294
0.695216 0.446754 0.287358
0.729610 0.449805 0.294987
0.764920 0.451179 0.303227
0.800443 0.452644 0.312474
0.835904 0.454231 0.322484
0.871489 0.456367 0.333959
0.907408 0.458839 0.346685
0.943420 0.462501 0.361303
0.979461 0.467201 0.378027
1.000000 0.473793 0.396796
0.361089 0.416052 0.291173
0.361181 0.416236 0.291539
0.363012 0.416541 0.291569
0.365911 0.417517 0.292180
0.370733 0.418677 0.293034
0.376928 0.420874 0.292363
0.384466 0.423926 0.290471
0.394537 0.427832 0.287419
0.407385 0.432593 0.283818
0.423011 0.438270 0.279545
0.441566 0.444495 0.274418
0.462989 0.451331 0.268620
0.483803 0.455268 0.263279
0.493538 0.447730 0.263493
0.504143 0.438636 0.263249
0.515404 0.426276 0.261021
0.541100 0.420111 0.254490
0.569268 0.424689 0.257450
0.595117 0.432074 0.264866
0.621790 0.439979 0.272648
0.649256 0.448493 0.280400
0.677455 0.457435 0.288731
0.706111 0.467079 0.297551
0.735195 0.477302 0.307225
0.766293 0.485603 0.316503
0.801694 0.487556 0.325505
0.837125 0.489876 0.335302
0.872679 0.492226 0.346624
0.908232 0.495094 0.359075
0.943847 0.498848 0.373419
0.979248 0.503563 0.389654
1.000000 0.509880 0.408240
0.395178 0.453468 0.317510
0.395361 0.453437 0.317510
0.396887 0.453895 0.317784
0.399603 0.454597 0.318151
0.404211 0.455909 0.319127
0.410163 0.457679 0.319585
0.417182 0.460426 0.316930
0.426246 0.463874 0.314305
0.437659 0.468147 0.310918
0.451453 0.473060 0.306859
0.468147 0.478676 0.302068
0.487648 0.484688 0.296147
0.509728 0.491157 0.289525
0.527153 0.491524 0.285191
0.536370 0.483070 0.285069
0.546227 0.472755 0.284154
0.556725 0.459785 0.281529
0.581415 0.452796 0.275242
0.610437 0.456336 0.276616
0.636286 0.463386 0.283726
0.662837 0.471229 0.291325
0.690150 0.479591 0.299474
0.718044 0.488685 0.308568
0.746609 0.498238 0.317693
0.775601 0.508385 0.327703
0.804898 0.519249 0.338598
0.838529 0.524651 0.349004
0.873991 0.527428 0.360021
0.909422 0.530785 0.372595
0.944793 0.534905 0.386969
0.979980 0.539971 0.403143
1.000000 0.546471 0.421668
0.430640 0.491920 0.343816
0.430915 0.492073 0.344091
0.443519 0.504723 0.352850
0.446387 0.505455 0.353307
0.450996 0.506828 0.354009
0.456916 0.508507 0.355291
0.463386 0.510796 0.353002
0.471656 0.513787 0.350195
0.482124 0.517540 0.346532
0.494942 0.522087 0.342626
0.510399 0.527123 0.337591
0.528222 0.532647 0.332067
0.548455 0.538293 0.325078
0.571038 0.543755 0.316960
0.583948 0.539513 0.313542
0.591943 0.529198 0.312627
0.600397 0.516564 0.310430
0.609491 0.501793 0.307103
0.632197 0.493050 0.300420
0.659968 0.494240 0.300328
0.684901 0.500511 0.307408
0.710750 0.507805 0.315251
0.737270 0.515801 0.323583
0.764370 0.524224 0.332555
0.791592 0.533257 0.342199
0.819303 0.542718 0.352270
0.847379 0.553002 0.363165
0.876677 0.563134 0.375128
0.911192 0.566491 0.387366
0.945861 0.570642 0.401404
0.980560 0.575799 0.417731
1.000000 0.582361 0.436255
0.470314 0.535058 0.372625
0.471931 0.536370 0.373388
0.474617 0.538048 0.374395
0.478126 0.539910 0.375738
0.483131 0.542107 0.377111
0.489235 0.543999 0.378363
0.495583 0.546227 0.377447
0.503105 0.548760 0.374334
0.512230 0.551934 0.371099
0.523766 0.555749 0.367224
0.537499 0.560174 0.362615
0.553399 0.564904 0.357427
0.571588 0.569787 0.350500
0.591669 0.574548 0.343328
0.613916 0.579309 0.334936
0.623163 0.571435 0.332708
0.630915 0.560601 0.331548
0.639307 0.547936 0.329625
0.648615 0.533257 0.326604
0.670771 0.523949 0.320104
0.698665 0.524132 0.319280
0.723903 0.530999 0.327153
0.749813 0.538415 0.335424
0.776150 0.546380 0.344457
0.802762 0.554833 0.353765
0.829648 0.563867 0.363958
0.856931 0.573571 0.375067
0.884855 0.584161 0.387182
0.913420 0.595880 0.400580
0.945312 0.604211 0.415259
0.979583 0.609735 0.431769
1.000000 0.616419 0.450507
0.505150 0.572351 0.396857
0.506798 0.573785 0.397986
0.509300 0.575525 0.398993
0.512902 0.577508 0.400519
0.517723 0.579492 0.401953
0.523278 0.581292 0.403479
0.529900 0.583307 0.403357
0.536400 0.585443 0.401038
0.544823 0.588098 0.397589
0.555016 0.591241 0.393713
0.567224 0.594903 0.389197
0.581415 0.599023 0.384192
0.597589 0.603235 0.378241
0.616022 0.607568 0.371038
0.636225 0.611933 0.363165
0.656764 0.614649 0.354559
0.663813 0.604944 0.354284
0.671565 0.593530 0.352514
0.679957 0.580774 0.350530
0.689296 0.566003 0.347265
0.710170 0.556085 0.341619
0.737697 0.554864 0.339940
0.762997 0.561913 0.348333
0.788663 0.569421 0.357244
0.814511 0.577356 0.366552
0.840726 0.585779 0.376806
0.867277 0.594995 0.387610
0.894377 0.605005 0.399756
0.922118 0.616327 0.413550
0.950439 0.628840 0.428901
0.979095 0.642817 0.446784
1.000000 0.650019 0.465736
0.540764 0.610101 0.422919
0.542077 0.611353 0.424018
0.544488 0.612909 0.425025
0.547753 0.614618 0.426429
0.552117 0.616388 0.427924
0.557580 0.618128 0.429206
0.564263 0.620020 0.430640
0.570153 0.621851 0.427893
0.577752 0.624231 0.424964
0.586786 0.626856 0.421363
0.597772 0.630060 0.417121
0.610498 0.633631 0.412421
0.625238 0.637324 0.406561
0.641596 0.641138 0.400336
0.660212 0.645136 0.392798
0.680598 0.649134 0.384741
0.698116 0.649134 0.377996
0.705806 0.639429 0.377325
0.714321 0.628779 0.376623
0.723751 0.616632 0.375128
0.734218 0.602869 0.372747
0.755093 0.593042 0.367895
0.782681 0.590600 0.365789
0.808255 0.598291 0.375494
0.834165 0.606317 0.385687
0.860044 0.614740 0.396429
0.886107 0.623774 0.408026
0.912566 0.633661 0.420935
0.939422 0.644770 0.435462
0.966827 0.657069 0.451728
0.994354 0.670802 0.470344
1.000000 0.686122 0.491493
0.584314 0.655299 0.457221
0.585107 0.655940 0.457557
0.586389 0.656519 0.458259
0.588739 0.657282 0.458900
0.592096 0.658198 0.459693
0.596612 0.659266 0.460761
0.602594 0.660700 0.461921
0.608484 0.662287 0.460609
0.615137 0.664210 0.457679
0.623560 0.666651 0.454170
0.633417 0.669520 0.450324
0.645014 0.672633 0.445563
0.658076 0.675868 0.440467
0.672969 0.679316 0.434455
0.689784 0.682765 0.427131
0.708125 0.686213 0.419562
0.728481 0.689723 0.410620
0.742519 0.686519 0.405493
0.749905 0.676509 0.404700
0.758114 0.665278 0.403479
0.767056 0.652613 0.401404
0.776791 0.638025 0.398535
0.795773 0.627253 0.393652
0.821744 0.622461 0.390112
0.846250 0.629755 0.400214
0.871397 0.637659 0.411048
0.896818 0.646387 0.422889
0.922545 0.656031 0.436133
0.948699 0.666682 0.450843
0.975128 0.678584 0.467384
1.000000 0.691859 0.486244
1.000000 0.706722 0.507866
0.620356 0.692103 0.487312
0.620996 0.692622 0.487617
0.622339 0.693202 0.488136
0.624506 0.693965 0.489021
0.627649 0.694789 0.489845
0.631800 0.695827 0.490822
0.637415 0.697139 0.492042
0.643519 0.698726 0.492348
0.649561 0.700435 0.489448
0.657008 0.702602 0.486275
0.665827 0.705135 0.482521
0.676204 0.707912 0.478401
0.688167 0.710842 0.473030
0.701595 0.714015 0.467659
0.716762 0.717311 0.461219
0.733791 0.720577 0.453803
0.752529 0.723964 0.445655
0.772976 0.727382 0.436957
0.784024 0.721614 0.433417
0.791684 0.711604 0.432654
0.799985 0.700618 0.431861
0.809049 0.687953 0.429725
0.818753 0.673823 0.427131
0.836851 0.662501 0.422248
0.857755 0.652613 0.414435
0.881285 0.659632 0.425147
0.906096 0.667994 0.437079
0.931060 0.677241 0.450599
0.956420 0.687495 0.465431
0.981994 0.699062 0.482399
1.000000 0.712123 0.501915
1.000000 0.726741 0.523888
0.661402 0.732845 0.524224
0.662196 0.733547 0.525078
0.663600 0.734096 0.525536
0.665126 0.734401 0.525994
0.667475 0.734676 0.526238
0.670588 0.735012 0.526818
0.674983 0.735561 0.527337
0.680690 0.736446 0.528435
0.685328 0.737301 0.525261
0.691279 0.738552 0.521202
0.698482 0.740078 0.517144
0.707179 0.742061 0.512352
0.717342 0.744259 0.507286
0.729030 0.746609 0.501091
0.741939 0.748959 0.494545
0.756710 0.751431 0.487037
0.773159 0.754116 0.478889
0.791531 0.757015 0.470283
0.811765 0.759976 0.461006
0.820066 0.752041 0.459571
0.828031 0.742519 0.459327
0.836484 0.731685 0.458412
0.845365 0.719203 0.456367
0.854673 0.704891 0.453285
0.871122 0.692683 0.448035
0.894713 0.684413 0.442237
0.916716 0.690974 0.453529
0.940398 0.699428 0.466804
0.964569 0.709010 0.481514
0.989044 0.719966 0.498512
1.000000 0.732479 0.518029
1.000000 0.746578 0.539910
0.694697 0.765499 0.555047
0.695369 0.766110 0.555901
0.696620 0.766720 0.556512
0.698329 0.767208 0.557092
0.700740 0.767727 0.557855
0.704067 0.768399 0.558709
0.708492 0.769406 0.559838
0.714321 0.770718 0.561334
0.719844 0.772183 0.560449
0.725582 0.773709 0.557610
0.732418 0.775509 0.554009
0.740444 0.777523 0.550164
0.749538 0.779629 0.545647
0.759915 0.781765 0.540307
0.771481 0.783932 0.534112
0.784573 0.786130 0.527214
0.799313 0.788449 0.519402
0.815702 0.790982 0.511345
0.834012 0.793851 0.502739
0.852293 0.795163 0.493721
0.859586 0.786648 0.493843
0.867460 0.777127 0.493416
0.875792 0.766445 0.492317
0.884642 0.754269 0.490181
0.893919 0.740230 0.487037
0.909545 0.728267 0.482460
0.932250 0.719692 0.476905
0.953246 0.725399 0.488502
0.976349 0.734676 0.503868
0.999634 0.745235 0.521263
1.000000 0.757198 0.540551
1.000000 0.770565 0.562005
0.730861 0.800595 0.589960
0.731380 0.800931 0.590356
0.732143 0.801205 0.590814
0.733639 0.801572 0.591119
0.735744 0.801968 0.591760
0.738643 0.802487 0.592554
0.742672 0.803281 0.593439
0.747768 0.804349 0.594842
0.753414 0.805661 0.595697
0.758389 0.806973 0.593011
0.764370 0.808530 0.589776
0.771450 0.810269 0.586206
0.779538 0.812222 0.582269
0.788876 0.814206 0.577234
0.799191 0.816159 0.571801
0.810819 0.818112 0.565423
0.823850 0.820249 0.558465
0.838529 0.822538 0.551080
0.854948 0.825132 0.543297
0.873320 0.827939 0.534844
0.888548 0.827085 0.528161
0.895750 0.818753 0.528344
0.903349 0.809384 0.527855
0.911437 0.798856 0.526757
0.919982 0.786923 0.524712
0.928985 0.773342 0.521447
0.943603 0.761349 0.517113
0.964965 0.752773 0.512200
0.984833 0.757168 0.523095
1.000000 0.767269 0.540368
1.000000 0.778683 0.559380
1.000000 0.791531 0.580682
0.764157 0.832456 0.622827
0.764553 0.832731 0.623163
0.765377 0.833066 0.623529
0.766781 0.833463 0.624048
0.768948 0.834073 0.624811
0.772061 0.834958 0.626093
0.776486 0.836393 0.628016
0.781979 0.838193 0.630549
0.788754 0.840452 0.633631
0.794644 0.842771 0.633112
0.801205 0.845274 0.631922
0.808499 0.847898 0.629999
0.816617 0.850523 0.627680
0.825559 0.853086 0.624384
0.835294 0.855467 0.620356
0.845884 0.857572 0.615137
0.857511 0.859709 0.609491
0.870603 0.861906 0.603021
0.885252 0.864347 0.596094
0.901427 0.866941 0.588891
0.919219 0.869688 0.581018
0.931487 0.866728 0.576287
0.938445 0.858579 0.576379
0.945739 0.849546 0.576196
0.953429 0.839322 0.575036
0.961700 0.827909 0.573114
0.970581 0.815091 0.570367
0.984131 0.803494 0.566796
1.000000 0.795193 0.563043
1.000000 0.798062 0.572900
1.000000 0.808652 0.591760
1.000000 0.820645 0.612787
0.804410 0.870024 0.665156
0.804593 0.870054 0.665156
0.805112 0.870146 0.665339
0.806088 0.870268 0.665553
0.807767 0.870542 0.666072
0.810178 0.871000 0.666743
0.813443 0.871702 0.667872
0.817685 0.872679 0.669368
0.822934 0.873960 0.671382
0.828153 0.875334 0.671595
0.833097 0.876860 0.669642
0.838834 0.878569 0.667201
0.845457 0.880369 0.664332
0.852842 0.882261 0.660853
