20 Preset/Gray style/【3】LUT video cho PR-AE-FCPX/Tone  (7).cube
# Created by Adobe Lightroom plugin Export LUT (1.24.0)
# www.johnrellis.com/lightroom/exportlut.htm
# Preset: 07素材江湖-高级灰
# Color profile: E:\lut插件\exportlut.1.24\exportlut.lrplugin\color profiles\Rec709gamma2.4.icc
LUT_3D_SIZE 32
DOMAIN_MIN 0.0 0.0 0.0
DOMAIN_MAX 1.0 1.0 1.0
0.000000 0.000000 0.000000
0.000000 0.000000 0.000000
0.000000 0.000000 0.000000
0.000000 0.000000 0.000000
0.057954 0.000000 0.004974
0.113680 0.000000 0.012940
0.141756 0.000000 0.017182
0.167056 0.000000 0.028931
0.193240 0.000000 0.053803
0.221286 0.000000 0.077180
0.251347 0.000000 0.090974
0.282780 0.000000 0.097719
0.315221 0.000000 0.103792
0.347967 0.000000 0.109102
0.380926 0.000000 0.113252
0.413886 0.000000 0.118532
0.447150 0.000000 0.123690
0.480598 0.000000 0.130190
0.514366 0.000000 0.138827
0.548577 0.000000 0.148440
0.583368 0.000000 0.158358
0.618433 0.000000 0.168460
0.658564 0.000000 0.180880
0.702144 0.000000 0.194003
0.744259 0.000000 0.207370
0.784665 0.000000 0.220981
0.824216 0.000000 0.235233
0.863340 0.000000 0.250278
0.902312 0.000000 0.266361
0.941558 0.000000 0.283360
0.981048 0.000000 0.302159
1.000000 0.000000 0.322850
0.000000 0.000000 0.000000
0.000000 0.000000 0.000000
0.000000 0.000000 0.000000
0.000000 0.000000 0.000000
0.060243 0.000000 0.003815
0.113588 0.000000 0.014069
0.141268 0.000000 0.013489
0.166384 0.000000 0.028504
0.192447 0.000610 0.053376
0.219760 0.005158 0.078523
0.249729 0.000458 0.090822
0.280827 0.000000 0.097658
0.313146 0.000000 0.103334
0.345739 0.000000 0.108614
0.378637 0.000000 0.113527
0.411414 0.000000 0.118105
0.444892 0.000000 0.123659
0.478218 0.000000 0.130068
0.511955 0.000000 0.138064
0.546014 0.000000 0.147524
0.580468 0.000000 0.157626
0.615290 0.000000 0.167910
0.654658 0.000000 0.179965
0.696986 0.000000 0.192599
0.738338 0.000000 0.205386
0.778317 0.000000 0.218784
0.817685 0.000000 0.232822
0.856840 0.000000 0.247623
0.895995 0.000000 0.263401
0.935424 0.000000 0.280278
0.975250 0.000000 0.299016
1.000000 0.000000 0.319493
0.000000 0.000000 0.000000
0.000000 0.000000 0.000000
0.000000 0.000000 0.000000
0.001984 0.000000 0.000000
0.078553 0.000000 0.005859
0.116670 0.000000 0.010681
0.141756 0.005402 0.014954
0.166262 0.013916 0.032563
0.192111 0.020905 0.057435
0.219791 0.024018 0.080415
0.249119 0.022431 0.091035
0.280308 0.011109 0.097414
0.312322 0.000000 0.103792
0.344701 0.000000 0.108827
0.377569 0.000000 0.113527
0.410407 0.000000 0.118746
0.443519 0.000000 0.123568
0.476905 0.000000 0.129976
0.510521 0.000000 0.138369
0.544518 0.000000 0.147768
0.579004 0.000000 0.158083
0.613886 0.000000 0.168032
0.653162 0.000000 0.179751
0.694911 0.000000 0.192325
0.735744 0.000000 0.204898
0.775174 0.000000 0.217990
0.814420 0.000000 0.231846
0.853391 0.000000 0.246403
0.892699 0.000000 0.262119
0.932219 0.000000 0.278965
0.972015 0.000000 0.297612
1.000000 0.000000 0.318059
0.000000 0.005554 0.001495
0.000488 0.006531 0.003601
0.000366 0.009918 0.003143
0.020630 0.022217 0.002228
0.088746 0.032593 0.006104
0.117952 0.039734 0.011200
0.142733 0.047303 0.015930
0.167025 0.056794 0.039033
0.193057 0.065736 0.063630
0.220615 0.068849 0.083558
0.250156 0.064607 0.092592
0.280919 0.055940 0.098756
0.312444 0.043580 0.104097
0.344701 0.021088 0.109682
0.377050 0.000000 0.114473
0.409461 0.000000 0.119234
0.442237 0.000000 0.123995
0.475166 0.000000 0.130617
0.508568 0.000000 0.138674
0.542229 0.000000 0.148074
0.576379 0.000000 0.158053
0.610925 0.000000 0.168002
0.650141 0.000000 0.180026
0.691005 0.000000 0.192172
0.731838 0.000000 0.204654
0.771939 0.000000 0.217746
0.811795 0.000000 0.231815
0.851499 0.000000 0.246586
0.891173 0.000000 0.262333
0.930877 0.000000 0.279057
0.970489 0.000000 0.297551
1.000000 0.000000 0.317540
0.000000 0.068666 0.026825
0.000549 0.070649 0.026490
0.010925 0.075074 0.025696
0.040681 0.086213 0.015045
0.095460 0.091371 0.007446
0.121462 0.092592 0.010895
0.144533 0.096071 0.027802
0.168063 0.098665 0.051240
0.194430 0.100710 0.073854
0.222110 0.102327 0.087617
0.250767 0.101961 0.094820
0.281254 0.100343 0.100618
0.312383 0.096773 0.106477
0.344518 0.090455 0.110780
0.376684 0.076875 0.116243
0.409186 0.048280 0.120821
0.442023 0.016419 0.125917
0.474983 0.000000 0.132082
0.507988 0.000000 0.139925
0.541772 0.000000 0.149630
0.575891 0.000000 0.159304
0.610651 0.000000 0.169711
0.649805 0.000000 0.181094
0.690303 0.000000 0.193027
0.730892 0.000000 0.205661
0.770932 0.000000 0.218723
0.810605 0.000000 0.232517
0.850156 0.000000 0.247105
0.889616 0.000000 0.262699
0.929168 0.000000 0.279423
0.968597 0.000000 0.297581
1.000000 0.000000 0.317357
0.026123 0.104097 0.050324
0.027405 0.104402 0.050141
0.038483 0.105348 0.049500
0.063874 0.109926 0.035615
0.099947 0.117617 0.013611
0.125093 0.120272 0.028473
0.149294 0.122194 0.047730
0.172732 0.125246 0.068116
0.197818 0.127626 0.083589
0.225040 0.129305 0.092042
0.253910 0.129885 0.097810
0.284215 0.129397 0.103944
0.315251 0.128115 0.108705
0.346715 0.125154 0.113344
0.378912 0.120851 0.118349
0.411048 0.113771 0.122805
0.443915 0.105379 0.127962
0.476722 0.094606 0.134310
0.509941 0.079133 0.143282
0.543359 0.050965 0.152102
0.577356 0.016724 0.161929
0.613611 0.000000 0.172305
0.677058 0.000000 0.191592
0.720638 0.000000 0.205081
0.762264 0.000000 0.218631
0.802426 0.000000 0.232334
0.841611 0.000000 0.246921
0.880064 0.000000 0.261906
0.918212 0.000000 0.278172
0.956085 0.000000 0.295109
0.993622 0.000000 0.313573
1.000000 0.000000 0.333562
0.063661 0.130129 0.082124
0.066651 0.130312 0.082734
0.078279 0.131258 0.083619
0.091249 0.135592 0.079561
0.107912 0.141634 0.070924
0.132296 0.148867 0.063966
0.157626 0.152651 0.078614
0.184360 0.155642 0.088228
0.209293 0.157717 0.093751
0.235477 0.160189 0.098421
0.263706 0.161501 0.104433
0.294194 0.161868 0.109438
0.324895 0.161196 0.114321
0.356329 0.159640 0.118471
0.387884 0.156619 0.122896
0.419776 0.152255 0.127718
0.452094 0.147311 0.132784
0.484535 0.142153 0.139528
0.517449 0.136812 0.148501
0.551293 0.131411 0.157687
0.586175 0.124392 0.167514
0.627436 0.117708 0.179416
0.670222 0.108003 0.192447
0.714046 0.096101 0.205356
0.756619 0.079255 0.218936
0.797360 0.045136 0.232975
0.836606 0.009094 0.247562
0.874907 0.000000 0.262058
0.912810 0.000000 0.277653
0.950378 0.000000 0.294499
0.987732 0.000000 0.312444
1.000000 0.061036 0.332158
0.092805 0.155215 0.103456
0.093507 0.155367 0.102663
0.097322 0.156130 0.103853
0.105104 0.159548 0.102113
0.118318 0.164981 0.100404
0.138491 0.172610 0.095705
0.163455 0.178958 0.094728
0.189883 0.183200 0.098726
0.218173 0.187015 0.103304
0.243900 0.188693 0.107424
0.270665 0.190433 0.111025
0.297826 0.191958 0.115785
0.327855 0.192355 0.119265
0.358892 0.191135 0.123445
0.389899 0.189181 0.127565
0.421027 0.187137 0.131960
0.452888 0.184054 0.136904
0.485115 0.180667 0.143801
0.517967 0.177920 0.152651
0.551446 0.174563 0.161501
0.588373 0.171878 0.171939
0.628595 0.168643 0.183749
0.669978 0.165011 0.195590
0.712551 0.160678 0.208469
0.754086 0.156161 0.221622
0.794339 0.151095 0.234989
0.833127 0.146670 0.248905
0.871275 0.141299 0.263523
0.909087 0.139498 0.278874
0.946532 0.140383 0.295262
0.983886 0.145205 0.313207
1.000000 0.156924 0.332433
0.109957 0.182315 0.121614
0.110567 0.182589 0.121798
0.114382 0.183169 0.122164
0.120699 0.185733 0.121431
0.131502 0.190646 0.119387
0.147646 0.197055 0.116640
0.170169 0.205325 0.112276
0.196445 0.211215 0.112490
0.223819 0.215854 0.115206
0.253971 0.219333 0.116976
0.280003 0.221012 0.120333
0.306859 0.222110 0.124331
0.333928 0.222812 0.126955
0.362219 0.223148 0.129854
0.393103 0.222354 0.133455
0.423957 0.220432 0.137881
0.455390 0.218906 0.142794
0.487251 0.216800 0.150057
0.519768 0.215244 0.158114
0.554467 0.213687 0.167514
0.592248 0.213169 0.177890
0.630915 0.212100 0.188815
0.671412 0.210636 0.200137
0.712825 0.208499 0.212619
0.753567 0.206607 0.225284
0.793088 0.204074 0.238437
0.831540 0.201419 0.252049
0.869413 0.199435 0.266392
0.906981 0.198825 0.281529
0.944305 0.200015 0.297642
0.981415 0.204013 0.315099
1.000000 0.211521 0.334356
0.128084 0.210849 0.140871
0.128847 0.210941 0.140841
0.131167 0.211429 0.140688
0.137057 0.212985 0.141573
0.146304 0.217197 0.139223
0.159426 0.222782 0.136507
0.178897 0.230076 0.132967
0.203861 0.238987 0.127840
0.230076 0.243748 0.129885
0.258885 0.248692 0.131197
0.289738 0.252018 0.131441
0.315984 0.252964 0.134676
0.342596 0.253696 0.136263
0.369665 0.253819 0.138705
0.397009 0.253941 0.141299
0.426978 0.253269 0.145418
0.458534 0.252689 0.150393
0.490364 0.251926 0.157259
0.523919 0.251713 0.165743
0.560113 0.251865 0.175418
0.596643 0.252018 0.184970
0.633906 0.251499 0.194980
0.672755 0.250889 0.205631
0.712032 0.250340 0.216953
0.750912 0.248966 0.228885
0.789364 0.247440 0.241215
0.827298 0.246189 0.254582
0.865110 0.245151 0.268528
0.902831 0.245365 0.283452
0.940429 0.247257 0.299535
0.977935 0.250187 0.317144
1.000000 0.257053 0.336370
0.146090 0.238712 0.159731
0.146670 0.238987 0.160220
0.149111 0.239506 0.160433
0.154452 0.240452 0.161257
0.162295 0.244327 0.159396
0.173556 0.249393 0.157870
0.190005 0.255955 0.154360
0.211398 0.264012 0.150607
0.237919 0.272831 0.146517
0.264988 0.277379 0.148226
0.295079 0.282628 0.148013
0.326757 0.285801 0.146029
0.352941 0.286137 0.148348
0.379706 0.286229 0.150057
0.406836 0.286290 0.152163
0.433997 0.286198 0.154879
0.462043 0.286015 0.159976
0.495277 0.286931 0.166995
0.529686 0.287999 0.175540
0.564721 0.288640 0.183627
0.600305 0.288701 0.193149
0.636805 0.288853 0.202396
0.674922 0.289128 0.212161
0.713283 0.289220 0.222995
0.751614 0.288609 0.234775
0.789334 0.288365 0.246494
0.826871 0.288060 0.259403
0.864408 0.287724 0.272831
0.901884 0.288212 0.287572
0.939361 0.290227 0.303685
0.976715 0.293767 0.320958
1.000000 0.299596 0.340063
0.165316 0.268040 0.180270
0.165621 0.268101 0.179934
0.167819 0.268620 0.180423
0.172519 0.269627 0.180911
0.179507 0.272435 0.180423
0.189425 0.277165 0.178561
0.203403 0.283146 0.176547
0.222202 0.290501 0.173404
0.245914 0.299077 0.169314
0.272984 0.307256 0.166537
0.301061 0.312047 0.167422
0.332128 0.317418 0.165957
0.374243 0.328649 0.165866
0.401709 0.328618 0.167391
0.428656 0.328313 0.169375
0.457221 0.328771 0.173526
0.488075 0.330755 0.179629
0.518730 0.332128 0.185275
0.552178 0.333654 0.192477
0.588098 0.334844 0.200900
0.624475 0.335851 0.209384
0.661646 0.336095 0.218509
0.698909 0.336706 0.228305
0.735988 0.336767 0.238651
0.772732 0.336492 0.250004
0.809018 0.336187 0.261387
0.844755 0.335912 0.273594
0.880339 0.335729 0.286656
0.915831 0.336278 0.300633
0.951415 0.337835 0.316167
0.986908 0.341070 0.333013
1.000000 0.346563 0.351965
0.187808 0.301701 0.204105
0.188266 0.301762 0.204105
0.189822 0.302037 0.204257
0.194125 0.302556 0.204868
0.200259 0.304417 0.204471
0.208988 0.308385 0.202640
0.221012 0.313603 0.200412
0.237278 0.320195 0.197452
0.258000 0.328130 0.194736
0.283909 0.337469 0.190585
0.312352 0.345129 0.188693
0.342199 0.351080 0.188846
0.375372 0.357519 0.186954
0.411749 0.362860 0.183871
0.442817 0.365972 0.187503
0.472816 0.367437 0.191623
0.502403 0.368383 0.195926
0.531670 0.368780 0.200656
0.560876 0.369146 0.205539
0.590051 0.369177 0.210819
0.625086 0.369757 0.218601
0.661128 0.370794 0.226627
0.697444 0.371374 0.235477
0.733852 0.371588 0.245426
0.770016 0.371862 0.255833
0.806058 0.371893 0.266758
0.841825 0.372045 0.278721
0.877348 0.372503 0.291386
0.913054 0.373480 0.305272
0.948882 0.375372 0.320775
0.984558 0.378790 0.337591
1.000000 0.383978 0.356542
0.207340 0.330175 0.224735
0.207889 0.330053 0.224735
0.209445 0.330236 0.224552
0.212985 0.330785 0.224826
0.218296 0.331823 0.225101
0.226078 0.335332 0.223514
0.236393 0.340063 0.221775
0.250889 0.346075 0.219211
0.268956 0.353429 0.216709
0.291905 0.362188 0.213382
0.319371 0.372320 0.209751
0.349706 0.381079 0.209842
0.382422 0.389227 0.211063
0.418891 0.398016 0.210086
0.456336 0.403967 0.208133
0.487739 0.406134 0.210452
0.516411 0.406317 0.213931
0.544854 0.406195 0.217319
0.573358 0.405737 0.221164
0.601709 0.405066 0.225467
0.630457 0.404700 0.229953
0.662379 0.405066 0.236057
0.697841 0.405921 0.243992
0.733822 0.406653 0.253269
0.769589 0.407202 0.263096
0.805325 0.407691 0.273533
0.840848 0.407996 0.285374
0.876280 0.408820 0.297642
0.911833 0.410101 0.311467
0.947539 0.412299 0.326665
0.983124 0.415747 0.343542
1.000000 0.420905 0.362524
0.227604 0.358892 0.245426
0.227604 0.358892 0.245426
0.229374 0.359045 0.245365
0.232151 0.359472 0.245640
0.237095 0.360113 0.246128
0.243931 0.363043 0.244907
0.253635 0.367590 0.243809
0.266667 0.373785 0.242008
0.283726 0.381537 0.239963
0.304723 0.390478 0.237919
0.330205 0.401129 0.235416
0.361089 0.413397 0.232303
0.392065 0.421332 0.233890
0.425330 0.429572 0.234806
0.462043 0.437934 0.233188
0.499062 0.443091 0.231601
0.530968 0.445228 0.232975
0.559014 0.444556 0.235325
0.586969 0.443580 0.238285
0.615045 0.442603 0.241276
0.643091 0.441535 0.245090
0.671534 0.440864 0.249119
0.700374 0.440284 0.253880
0.734585 0.441077 0.262028
0.769802 0.441810 0.271397
0.805264 0.442573 0.281712
0.840635 0.443458 0.292851
0.876188 0.444892 0.305333
0.912078 0.446632 0.318944
0.948119 0.449531 0.334508
0.984192 0.453376 0.352178
1.000000 0.459144 0.371649
0.249790 0.390692 0.268009
0.250004 0.390875 0.268254
0.251743 0.391119 0.268254
0.254948 0.391669 0.268620
0.259464 0.392493 0.269169
0.265843 0.395270 0.268986
0.274784 0.399817 0.268193
0.286656 0.405676 0.267002
0.302037 0.412940 0.265324
0.321019 0.421546 0.263401
0.343999 0.431373 0.260899
0.371283 0.442420 0.258305
0.402716 0.453681 0.255375
0.433631 0.460731 0.256352
0.466865 0.468238 0.256718
0.503349 0.475746 0.254673
0.540002 0.480293 0.252720
0.573053 0.482734 0.252964
0.600580 0.481575 0.255222
0.628016 0.480201 0.258183
0.655726 0.478950 0.261326
0.683772 0.477821 0.264988
0.712276 0.477028 0.269535
0.741024 0.476448 0.274723
0.771695 0.476631 0.281254
0.807065 0.477790 0.291356
0.842405 0.479438 0.302251
0.877928 0.480995 0.314641
0.913481 0.483131 0.328191
0.949096 0.486030 0.343450
0.984527 0.489937 0.360723
1.000000 0.495277 0.380285
0.272129 0.422461 0.290105
0.272435 0.422431 0.290166
0.273686 0.422736 0.290257
0.276432 0.423194 0.290501
0.280766 0.424079 0.291051
0.286809 0.425849 0.291508
0.295109 0.430152 0.290288
0.305699 0.435615 0.289250
0.319585 0.442298 0.287907
0.336309 0.450172 0.286198
0.357275 0.459419 0.284092
0.382086 0.469734 0.281285
0.410986 0.481178 0.278141
0.442512 0.491432 0.276158
0.474067 0.498512 0.277104
0.507805 0.505913 0.277287
0.544518 0.513573 0.275212
0.581323 0.518090 0.274205
0.615778 0.521050 0.274083
0.642451 0.518883 0.275914
0.669490 0.517235 0.278752
0.697017 0.515892 0.282109
0.724910 0.514672 0.286595
0.753292 0.513909 0.291020
0.781949 0.513329 0.296391
0.810849 0.513146 0.302739
0.844358 0.514549 0.312505
0.879789 0.516564 0.324620
0.915251 0.519036 0.338354
0.950652 0.522240 0.353887
0.985870 0.526482 0.371099
1.000000 0.532006 0.390753
0.294804 0.454688 0.311894
0.295140 0.454780 0.312169
0.303777 0.465248 0.319341
0.306401 0.465675 0.319554
0.310521 0.466590 0.319921
0.316045 0.467720 0.320653
0.323583 0.471626 0.319738
0.333623 0.476722 0.318608
0.346319 0.483101 0.317235
0.362402 0.490730 0.315770
0.381720 0.499702 0.313603
0.404822 0.509636 0.311467
0.431373 0.520439 0.308202
0.462287 0.532128 0.304173
0.493874 0.540948 0.303075
0.526024 0.547662 0.303685
0.560327 0.554345 0.303044
0.597162 0.561181 0.300969
0.631922 0.563714 0.300664
0.665827 0.565637 0.300694
0.691463 0.562493 0.302525
0.717800 0.560052 0.305211
0.744503 0.558038 0.308721
0.771542 0.556146 0.312718
0.798581 0.554589 0.317510
0.826047 0.553307 0.322728
0.853880 0.552575 0.328649
0.883055 0.552667 0.336248
0.917601 0.555077 0.349828
0.952300 0.558312 0.365118
0.987091 0.562463 0.382574
1.000000 0.568017 0.402197
0.319646 0.490303 0.335393
0.320867 0.491371 0.336034
0.322759 0.492653 0.336706
0.325658 0.494057 0.337743
0.330175 0.495613 0.338628
0.335515 0.496895 0.339422
0.342657 0.499977 0.339178
0.351720 0.504723 0.337865
0.363256 0.510521 0.336645
0.377874 0.517723 0.335271
0.395361 0.525994 0.333501
0.416205 0.535363 0.331487
0.440925 0.545769 0.328252
0.468757 0.556725 0.324987
0.500328 0.568261 0.321080
0.531823 0.575830 0.320958
0.564019 0.582300 0.321935
0.598627 0.589044 0.321996
0.635645 0.596246 0.321080
0.669947 0.598291 0.321782
0.704616 0.600977 0.322545
0.730556 0.598413 0.325170
0.756893 0.596063 0.328313
0.783383 0.593927 0.332250
0.809934 0.592126 0.336553
0.836728 0.590509 0.341650
0.863798 0.589471 0.347631
0.891569 0.589105 0.354620
0.920256 0.589685 0.362737
0.952331 0.592248 0.375555
0.986725 0.596735 0.393347
1.000000 0.602319 0.413275
0.341131 0.521508 0.354589
0.342382 0.522759 0.355474
0.344335 0.524102 0.356176
0.347326 0.525719 0.357244
0.351446 0.527276 0.358282
0.356573 0.528588 0.359167
0.363439 0.530816 0.359136
0.371740 0.535271 0.358343
0.382391 0.540856 0.357031
0.395880 0.547539 0.355566
0.412085 0.555413 0.353796
0.431281 0.564111 0.351873
0.453620 0.573663 0.349523
0.479316 0.583948 0.346380
0.508232 0.594751 0.343053
0.540398 0.605890 0.338903
0.570947 0.612024 0.341161
0.603693 0.618463 0.342077
0.638300 0.625330 0.342870
0.675532 0.632563 0.342596
0.708370 0.633845 0.345037
0.743557 0.636866 0.346838
0.769406 0.634394 0.349920
0.795377 0.632136 0.353613
0.821347 0.630060 0.357702
0.847532 0.628107 0.362646
0.873991 0.626734 0.368231
0.900999 0.626001 0.375006
0.928771 0.626368 0.383429
0.957366 0.627832 0.393194
0.986816 0.630518 0.405219
1.000000 0.636225 0.425299
0.363867 0.555077 0.374456
0.364904 0.556237 0.375311
0.366888 0.557549 0.375891
0.369604 0.559045 0.376928
0.373541 0.560479 0.377844
0.378485 0.561700 0.378607
0.384833 0.563134 0.379278
0.392737 0.567346 0.378241
0.402777 0.572564 0.377234
0.415015 0.578637 0.375982
0.430060 0.585748 0.374487
0.447761 0.593774 0.372930
0.468421 0.602594 0.370825
0.491829 0.611963 0.368597
0.518517 0.622095 0.365606
0.548241 0.632715 0.362554
0.580346 0.643000 0.360388
0.612024 0.649622 0.362890
0.645472 0.656855 0.365606
0.681331 0.664576 0.367712
0.719326 0.672786 0.369329
0.752163 0.674281 0.373877
0.787839 0.677729 0.377569
0.813840 0.675837 0.381933
0.839902 0.673945 0.386694
0.865812 0.672206 0.392004
0.891783 0.670832 0.398230
0.918151 0.670100 0.405524
0.945159 0.670314 0.414374
0.972808 0.671687 0.424750
1.000000 0.674281 0.437415
1.000000 0.678370 0.452308
0.393225 0.596796 0.399969
0.393805 0.597314 0.400153
0.394995 0.597864 0.400702
0.397284 0.598413 0.401007
0.400458 0.599084 0.401404
0.404944 0.599786 0.401953
0.410712 0.600702 0.402289
0.417914 0.603754 0.401892
0.427283 0.608362 0.401038
0.439002 0.614130 0.399969
0.453101 0.620752 0.398932
0.469490 0.628168 0.397345
0.488380 0.636225 0.395850
0.510002 0.644953 0.394049
0.534722 0.654353 0.391424
0.561975 0.664088 0.388952
0.592126 0.674372 0.385901
0.623835 0.683223 0.385443
0.655360 0.689601 0.388678
0.688685 0.696437 0.391913
0.723751 0.703578 0.394537
0.760952 0.711025 0.396796
0.791318 0.711025 0.402502
0.825711 0.713558 0.407172
0.850431 0.711208 0.411719
0.875608 0.709255 0.416968
0.900938 0.707790 0.423194
0.926604 0.707027 0.430701
0.952789 0.707027 0.439582
0.979400 0.708186 0.450141
1.000000 0.710536 0.462867
1.000000 0.714351 0.478187
0.418494 0.631403 0.421881
0.418982 0.631861 0.422126
0.420172 0.632349 0.422370
0.422492 0.632959 0.422919
0.425422 0.633539 0.423316
0.429603 0.634241 0.423682
0.435065 0.635126 0.424140
0.442054 0.637110 0.424414
0.450782 0.641474 0.423560
0.461616 0.646723 0.422827
0.474434 0.652796 0.421820
0.489784 0.659663 0.420905
0.507317 0.667201 0.419318
0.527459 0.675349 0.418097
0.550072 0.684108 0.416297
0.575372 0.693446 0.414069
0.603510 0.703243 0.411902
0.634119 0.713466 0.409613
0.665461 0.721370 0.411048
0.697261 0.727840 0.415381
0.730373 0.734615 0.419867
0.765316 0.741695 0.423804
0.801541 0.748928 0.427588
0.830411 0.748226 0.434668
0.859831 0.746914 0.437171
0.883452 0.744289 0.442054
0.908110 0.742733 0.448341
0.932982 0.741756 0.456062
0.958221 0.741726 0.464942
0.983886 0.742672 0.475807
1.000000 0.745022 0.489052
1.000000 0.748775 0.504753
0.449195 0.670771 0.448493
0.450019 0.671473 0.449165
0.451240 0.671931 0.449348
0.452949 0.672084 0.449653
0.455329 0.672236 0.449531
0.458778 0.672297 0.449714
0.463355 0.672419 0.449683
0.469306 0.672847 0.449866
0.476844 0.676081 0.448829
0.486305 0.680293 0.447364
0.497597 0.685176 0.446235
0.511192 0.690974 0.444892
0.527031 0.697444 0.443580
0.545098 0.704524 0.441718
0.565209 0.712062 0.439979
0.588006 0.720119 0.437842
0.613275 0.728786 0.435676
0.641352 0.738094 0.433478
0.672084 0.747982 0.431250
0.702876 0.754971 0.435248
0.734493 0.761532 0.440864
0.767330 0.768246 0.446418
0.801266 0.774868 0.451453
0.836118 0.781430 0.456092
0.862547 0.779355 0.463874
0.893980 0.780911 0.471717
0.915984 0.777798 0.476905
0.939513 0.776333 0.484138
0.963470 0.775845 0.492714
0.987854 0.776455 0.503502
1.000000 0.778439 0.516442
1.000000 0.782010 0.532006
0.475593 0.703426 0.471443
0.476387 0.704097 0.472175
0.477668 0.704616 0.472572
0.479469 0.704982 0.472908
0.482094 0.705348 0.473243
0.485542 0.705806 0.473610
0.490333 0.706447 0.474067
0.496407 0.707362 0.474647
0.503960 0.710140 0.474708
0.513085 0.714412 0.474098
0.523949 0.719326 0.473213
0.536736 0.724910 0.472450
0.551324 0.730983 0.471565
0.567926 0.737545 0.470314
0.586450 0.744503 0.468757
0.607324 0.751888 0.467048
0.630457 0.759792 0.465156
0.655970 0.768215 0.463508
0.684108 0.777279 0.462074
0.714717 0.786831 0.460548
0.744594 0.792782 0.467109
0.775631 0.798917 0.473762
0.807462 0.805142 0.480507
0.840177 0.811368 0.486854
0.873716 0.817441 0.493080
0.898070 0.814847 0.502831
0.927306 0.815854 0.512566
0.948638 0.813138 0.518944
0.971466 0.812528 0.527520
0.994568 0.812924 0.537987
1.000000 0.814572 0.550500
1.000000 0.817685 0.565484
0.507713 0.739986 0.499916
0.508324 0.740322 0.500237
0.509148 0.740566 0.500603
0.510735 0.740841 0.500664
0.513024 0.741115 0.500938
0.516350 0.741451 0.501335
0.520592 0.741970 0.501549
0.526177 0.742672 0.502220
0.533074 0.744259 0.502892
0.541405 0.748104 0.502342
0.551263 0.752560 0.501701
0.563012 0.757595 0.501061
0.576318 0.763180 0.500389
0.591516 0.769253 0.499275
0.608484 0.775570 0.498146
0.627405 0.782315 0.496712
0.648432 0.789517 0.495186
0.671687 0.797208 0.493843
0.697261 0.805447 0.492836
0.725307 0.814176 0.491920
0.754910 0.822568 0.492805
0.784115 0.828061 0.500389
0.813931 0.833616 0.507958
0.844419 0.839200 0.515526
0.875517 0.844663 0.522789
0.907103 0.850004 0.529625
0.929351 0.846708 0.540002
0.955749 0.846769 0.550652
0.976196 0.844358 0.557794
0.998077 0.844541 0.568017
1.000000 0.845945 0.580163
1.000000 0.848814 0.594903
0.540581 0.774868 0.529290
0.540978 0.775143 0.529625
0.541924 0.775479 0.529931
0.543450 0.775814 0.530175
0.545953 0.776333 0.530632
0.549493 0.777127 0.531518
0.554528 0.778439 0.532830
0.560723 0.780117 0.534630
0.568414 0.782193 0.536767
0.577295 0.786648 0.537865
0.587823 0.791958 0.538964
0.599725 0.797726 0.539696
0.612970 0.803769 0.540490
0.627649 0.810056 0.540734
0.643610 0.816464 0.540642
0.660975 0.822843 0.540002
0.679957 0.829404 0.539361
0.701015 0.836423 0.538445
0.724086 0.843839 0.537835
0.749203 0.851621 0.537591
0.776242 0.859678 0.537469
0.804318 0.866514 0.540459
0.831968 0.871214 0.548455
0.860075 0.875944 0.556847
0.888548 0.880522 0.564843
0.917449 0.885069 0.572747
0.946715 0.889525 0.580591
0.966094 0.885313 0.591852
0.988769 0.884154 0.603326
1.000000 0.881621 0.611292
1.000000 0.882506 0.623163
1.000000 0.884764 0.637446
0.585473 0.818631 0.569970
0.585626 0.818662 0.569909
0.586236 0.818723 0.570031
0.587335 0.818784 0.570062
0.589319 0.818967 0.570275
0.592065 0.819303 0.570611
0.595880 0.819883 0.571252
0.600855 0.820706 0.572168
0.606958 0.821836 0.573419
0.614160 0.824216 0.574060
0.622736 0.828092 0.574212
0.632441 0.832486 0.574243
0.643732 0.837278 0.574212
0.656245 0.842405 0.573907
