20 Preset/Gray style/【3】LUT video cho PR-AE-FCPX/Tone  (13).cube
# Created by Adobe Lightroom plugin Export LUT (1.24.0)
# www.johnrellis.com/lightroom/exportlut.htm
# Preset: 13素材江湖-高级灰
# Color profile: E:\lut插件\exportlut.1.24\exportlut.lrplugin\color profiles\Rec709gamma2.4.icc
LUT_3D_SIZE 5
DOMAIN_MIN 0.000000 0.000000 0.000000
DOMAIN_MAX 0.903226 0.903226 0.903226
0.000000 0.000000 0.000000
0.238468 0.104616 0.113039
0.471778 0.147341 0.107485
0.710201 0.217075 0.142947
0.978119 0.313359 0.202762
0.110506 0.245426 0.182162
0.245426 0.225803 0.212558
0.469978 0.243259 0.142458
0.723415 0.293645 0.168093
0.985534 0.370825 0.220279
0.272526 0.482246 0.317144
0.331853 0.475196 0.325170
0.515618 0.458656 0.376074
0.764675 0.475746 0.314519
0.978943 0.519554 0.267033
0.449104 0.748775 0.466133
0.482460 0.749416 0.475471
0.637049 0.737819 0.507683
0.781186 0.701686 0.563745
0.987579 0.706691 0.552056
0.703273 0.957366 0.702937
0.717189 0.957275 0.708492
0.762509 0.944366 0.710964
0.890990 0.940398 0.754208
0.984375 0.924376 0.808804
0.000000 0.099214 0.270085
0.220432 0.112154 0.269078
0.448554 0.082490 0.248234
0.683253 0.184054 0.232792
0.938506 0.283177 0.257237
0.102663 0.249699 0.277043
0.248905 0.252689 0.285771
0.456214 0.227787 0.241276
0.690883 0.269749 0.245090
0.942443 0.340673 0.266300
0.290806 0.462379 0.351965
0.334905 0.461646 0.359380
0.484962 0.441566 0.392218
0.723629 0.461219 0.331975
0.965362 0.508965 0.309148
0.463569 0.740078 0.493294
0.496376 0.742031 0.503044
0.631312 0.735195 0.532769
0.773129 0.700038 0.579828
0.985107 0.709285 0.560418
0.706172 0.955566 0.712581
0.719203 0.955108 0.717128
0.776120 0.955322 0.739712
0.896452 0.947692 0.773892
0.988861 0.933013 0.825834
0.000000 0.145724 0.477455
0.153780 0.159426 0.472602
0.441535 0.211154 0.456214
0.670649 0.241642 0.479805
0.941741 0.123720 0.441810
0.000000 0.298619 0.473823
0.192081 0.272221 0.470741
0.446998 0.295933 0.456580
0.676997 0.299596 0.476600
0.953185 0.195804 0.419196
0.221347 0.486732 0.479286
0.299596 0.484565 0.479866
0.505699 0.488869 0.494942
0.726314 0.449165 0.436439
0.956634 0.479438 0.434882
0.487343 0.719997 0.569848
0.516136 0.715358 0.572625
0.612390 0.724514 0.599329
0.757931 0.705867 0.637415
0.963226 0.717617 0.598993
0.697993 0.945830 0.736049
0.714351 0.946838 0.742336
0.771084 0.949065 0.764492
0.879240 0.944640 0.795621
0.978332 0.928923 0.838163
0.000000 0.240482 0.723873
0.000000 0.246983 0.721584
0.447883 0.269902 0.708858
0.685939 0.302983 0.684810
0.908568 0.337652 0.704829
0.000000 0.346868 0.720699
0.000000 0.328832 0.718318
0.451575 0.338689 0.703151
0.679713 0.357549 0.676448
0.902617 0.384802 0.700130
0.000000 0.557092 0.725612
0.234348 0.547478 0.719692
0.464729 0.506218 0.705287
0.685695 0.512078 0.673518
0.908934 0.540032 0.707698
0.378515 0.743771 0.717678
0.419226 0.739498 0.715023
0.556207 0.733333 0.715267
0.748836 0.727718 0.722774
0.959625 0.707271 0.683070
0.665980 0.941650 0.792233
0.684321 0.942351 0.796078
0.760342 0.946868 0.817197
0.858976 0.952483 0.849393
0.970581 0.937011 0.880735
0.000000 0.354803 0.943938
0.000000 0.357855 0.942229
0.396612 0.372503 0.937469
0.685389 0.399969 0.925872
0.905852 0.441047 0.912291
0.000000 0.415351 0.940246
0.000000 0.411109 0.939239
0.408423 0.422034 0.934081
0.687373 0.444129 0.921965
0.903563 0.478004 0.908568
0.300359 0.625330 0.936034
0.334966 0.613825 0.934813
0.460243 0.574914 0.932036
0.702968 0.582727 0.918456
0.906889 0.596399 0.907408
0.440314 0.811063 0.943450
0.471077 0.808957 0.942809
0.588617 0.803586 0.942992
0.739712 0.766537 0.935760
0.928191 0.767178 0.923461
0.612696 0.969085 0.945037
0.629877 0.968139 0.944884
0.702846 0.966613 0.946960
0.819669 0.962127 0.949432
0.958862 0.952850 0.950561
