20 Preset/Gray style/【3】LUT video cho PR-AE-FCPX/Tone  (15).cube
# Created by Adobe Lightroom plugin Export LUT (1.24.0)
# www.johnrellis.com/lightroom/exportlut.htm
# Preset: 15素材江湖-高级灰
# Color profile: E:\lut插件\exportlut.1.24\exportlut.lrplugin\color profiles\Rec709gamma2.4.icc
LUT_3D_SIZE 8
DOMAIN_MIN 0.000000 0.000000 0.000000
DOMAIN_MAX 0.903226 0.903226 0.903226
0.000000 0.000000 0.000000
0.169284 0.040955 0.029633
0.356695 0.108949 0.053529
0.515709 0.145998 0.034852
0.675013 0.188052 0.031128
0.830014 0.232364 0.044099
0.983612 0.283482 0.102113
1.000000 0.329442 0.145846
0.025177 0.173373 0.118379
0.158480 0.153353 0.159548
0.354162 0.180697 0.091829
0.503899 0.194247 0.061433
0.658198 0.221958 0.063233
0.812345 0.256474 0.069673
0.959258 0.297734 0.104463
1.000000 0.338750 0.141146
0.121370 0.354162 0.213504
0.204471 0.349920 0.225895
0.337133 0.309483 0.287358
0.533776 0.317906 0.204685
0.678981 0.336919 0.122896
0.841184 0.361089 0.123476
0.986572 0.389227 0.145571
1.000000 0.414527 0.175814
0.241428 0.521019 0.300694
0.272374 0.518608 0.304906
0.418921 0.502220 0.337835
0.525841 0.474983 0.409369
0.722438 0.489509 0.373053
0.882567 0.503899 0.234318
0.996796 0.509453 0.196078
1.000000 0.515099 0.214694
0.338964 0.696834 0.379980
0.359594 0.695735 0.383368
0.456458 0.691127 0.403784
0.618036 0.668605 0.456672
0.690730 0.625727 0.528466
0.794369 0.614588 0.531945
0.989471 0.613184 0.368994
1.000000 0.624353 0.267033
0.461067 0.822782 0.483101
0.481971 0.828611 0.493568
0.529992 0.827878 0.507561
0.655055 0.813138 0.543694
0.769406 0.789212 0.594018
0.819608 0.756069 0.656794
0.869993 0.754482 0.703120
1.000000 0.745357 0.552453
0.595880 0.927031 0.604944
0.604944 0.927947 0.609033
0.631739 0.926238 0.616999
0.698909 0.920531 0.637964
0.799435 0.903563 0.672175
0.883024 0.887175 0.718379
0.918181 0.863432 0.772122
0.925933 0.863249 0.835386
0.727565 1.000000 0.731289
0.731350 1.000000 0.732662
0.748470 1.000000 0.739864
0.780972 1.000000 0.755245
0.838560 0.988617 0.764034
0.915282 0.980743 0.803433
0.974334 0.973602 0.846983
0.996185 0.958648 0.888792
0.000000 0.019623 0.204227
0.154696 0.032837 0.206332
0.344366 0.000000 0.185245
0.497688 0.106172 0.152865
0.652216 0.163241 0.150637
0.805631 0.213199 0.148226
0.946838 0.263188 0.156191
1.000000 0.310124 0.172519
0.000000 0.183017 0.213779
0.169039 0.179782 0.217350
0.348547 0.170962 0.188479
0.498939 0.176761 0.159915
0.650752 0.207156 0.155428
0.804227 0.244724 0.152010
0.936614 0.283085 0.157290
1.000000 0.323095 0.170474
0.166659 0.347204 0.262577
0.217166 0.346166 0.269444
0.337835 0.317327 0.310613
0.518151 0.321019 0.237827
0.664210 0.326665 0.179904
0.817258 0.346288 0.173251
0.948150 0.367651 0.177188
1.000000 0.395270 0.191592
0.251560 0.502922 0.319646
0.279881 0.502098 0.323522
0.405035 0.492592 0.349676
0.501427 0.457008 0.406012
0.685878 0.466285 0.362158
0.836362 0.477852 0.235630
0.954955 0.483070 0.209262
1.000000 0.493843 0.219577
0.341772 0.686122 0.391913
0.360845 0.683833 0.394202
0.439490 0.679530 0.409094
0.599145 0.652033 0.454078
0.668421 0.606287 0.516686
0.777646 0.597375 0.515282
0.968017 0.600458 0.367010
1.000000 0.611475 0.265232
0.454261 0.810300 0.482948
0.467567 0.810452 0.486732
0.516381 0.810544 0.500816
0.638025 0.799435 0.536431
0.756161 0.777432 0.587213
0.810361 0.747890 0.651789
0.864439 0.746242 0.693874
1.000000 0.736019 0.540826
0.584192 0.916930 0.597620
0.588922 0.915282 0.597559
0.615900 0.913420 0.605066
0.681910 0.909850 0.626764
0.788876 0.895445 0.664698
0.873991 0.878813 0.710384
0.908019 0.852476 0.761196
0.917144 0.850614 0.821164
0.715633 1.000000 0.721950
0.722011 1.000000 0.725643
0.739010 1.000000 0.732387
0.772549 0.999481 0.748043
0.844541 0.992370 0.775479
0.916350 0.982177 0.808164
0.972992 0.972747 0.846616
0.995056 0.957458 0.887816
0.000000 0.077089 0.367834
0.000000 0.070588 0.367681
0.331151 0.100160 0.363714
0.495979 0.128878 0.363012
0.671687 0.000000 0.312810
0.832395 0.021973 0.268101
0.966705 0.224308 0.270115
1.000000 0.292241 0.274418
0.000000 0.206241 0.369512
0.000000 0.179629 0.369543
0.335454 0.201450 0.364080
0.495460 0.192233 0.358160
0.671962 0.000000 0.289891
0.825315 0.181460 0.268894
0.956054 0.252232 0.268254
1.000000 0.308202 0.271427
0.014923 0.364080 0.371740
0.180240 0.362188 0.372229
0.359472 0.352819 0.372778
0.527855 0.309178 0.317418
0.686702 0.308843 0.293706
0.836088 0.328832 0.283421
0.961364 0.354223 0.279240
1.000000 0.384558 0.281559
0.281743 0.510887 0.393957
0.314672 0.512016 0.398657
0.402106 0.515221 0.412665
0.522454 0.487068 0.457038
0.714107 0.495338 0.398871
0.849119 0.483253 0.309972
0.968933 0.484810 0.301946
1.000000 0.494514 0.303014
0.370947 0.683436 0.452186
0.390417 0.682948 0.455024
0.460090 0.683070 0.469154
0.601709 0.668696 0.506249
0.682277 0.629328 0.561547
0.805814 0.621576 0.538018
0.966796 0.614069 0.407660
1.000000 0.614160 0.336706
0.485237 0.806943 0.531151
0.497719 0.807706 0.534722
0.541619 0.807462 0.546075
0.631159 0.802365 0.571038
0.752438 0.779812 0.613428
0.808957 0.752529 0.670741
0.878111 0.754116 0.698695
1.000000 0.747036 0.565423
0.607904 0.918761 0.633051
0.612665 0.917479 0.633234
0.636347 0.914672 0.638300
0.683284 0.913024 0.653620
0.787106 0.898650 0.685756
0.874449 0.883177 0.728603
0.912230 0.861173 0.779049
0.933593 0.863127 0.831418
0.724819 1.000000 0.739254
0.727535 0.999481 0.739467
0.744015 0.998627 0.745541
0.779599 0.999115 0.763027
0.841398 0.993652 0.786465
0.915984 0.984558 0.819760
0.973571 0.975708 0.857145
0.996094 0.961089 0.896391
0.000000 0.113222 0.511742
0.000000 0.113802 0.513695
0.286809 0.129274 0.507042
0.485786 0.174990 0.497444
0.647791 0.183749 0.502434
0.816861 0.128481 0.490486
0.962982 0.000000 0.426947
1.000000 0.000000 0.371588
0.000000 0.214298 0.519677
0.000000 0.197574 0.519371
0.297459 0.208774 0.511498
0.492226 0.234623 0.501274
0.653101 0.231052 0.505333
0.820920 0.175570 0.486336
0.964233 0.000000 0.417121
1.000000 0.147890 0.374243
0.000000 0.385260 0.526238
0.000000 0.378607 0.524071
0.295933 0.343511 0.516381
0.500664 0.358709 0.502129
0.673610 0.352728 0.513207
0.847379 0.276463 0.461463
0.986358 0.263645 0.403204
1.000000 0.351019 0.394263
0.077211 0.541985 0.526360
0.182681 0.539757 0.525322
0.350225 0.533532 0.524712
0.538506 0.520043 0.523796
0.716457 0.471901 0.461067
0.849729 0.459205 0.430396
0.969482 0.464118 0.414801
1.000000 0.479164 0.408423
0.373693 0.685817 0.539025
0.398413 0.684596 0.541344
0.489723 0.683192 0.556603
0.596216 0.687648 0.582544
0.697871 0.659358 0.622858
0.844419 0.654505 0.571832
0.971374 0.623407 0.456123
1.000000 0.618891 0.446265
0.530419 0.811673 0.608637
0.547570 0.816373 0.616266
0.585992 0.814817 0.623682
0.652888 0.815915 0.642542
0.759762 0.801541 0.672633
0.817990 0.772396 0.713680
0.908843 0.773861 0.713130
1.000000 0.765621 0.610376
0.634455 0.919127 0.683009
0.641688 0.919554 0.685451
0.668086 0.919432 0.693263
0.714351 0.919432 0.708461
0.789487 0.913054 0.731594
0.878599 0.895720 0.765103
0.916869 0.873167 0.805936
0.956512 0.876402 0.839811
0.745510 1.000000 0.775296
0.749050 1.000000 0.776303
0.764370 1.000000 0.781338
0.794247 1.000000 0.792905
0.836118 0.998138 0.809659
0.913085 0.988495 0.838743
0.972961 0.979828 0.873411
0.997681 0.967285 0.911345
0.000000 0.158938 0.673671
0.000000 0.161532 0.674861
0.189517 0.169802 0.669215
0.466194 0.193118 0.658564
0.645411 0.223545 0.646998
0.801236 0.232670 0.650324
0.932647 0.255467 0.639277
1.000000 0.202609 0.597467
0.000000 0.232090 0.678859
0.000000 0.226261 0.680323
0.202884 0.231235 0.674434
0.470436 0.243503 0.660365
0.649104 0.264317 0.649592
0.803159 0.268711 0.651453
0.932830 0.286595 0.639490
1.000000 0.230777 0.594141
0.000000 0.410040 0.682582
0.000000 0.399145 0.682246
0.196078 0.355810 0.677607
0.478706 0.363775 0.665888
0.653712 0.374792 0.649470
0.798001 0.371405 0.645411
0.930938 0.366125 0.628626
1.000000 0.303655 0.574182
0.000000 0.565728 0.692775
0.000000 0.563287 0.692592
0.255375 0.552636 0.692592
0.488289 0.515282 0.679042
0.671015 0.526055 0.657435
0.805386 0.521752 0.652888
0.947173 0.470192 0.607843
1.000000 0.400458 0.530846
0.215030 0.701717 0.674342
0.263798 0.701045 0.674586
0.393164 0.696071 0.673579
0.544213 0.686000 0.671107
0.689570 0.667781 0.664240
0.829831 0.628687 0.612604
0.952728 0.609125 0.578210
1.000000 0.604761 0.557458
0.472663 0.786893 0.650965
0.487282 0.787198 0.653193
0.539788 0.785214 0.659205
0.627863 0.786221 0.676143
0.720272 0.790951 0.701228
0.809476 0.775875 0.742489
0.939879 0.780453 0.710140
1.000000 0.755886 0.611658
0.635096 0.911742 0.729397
0.641413 0.910399 0.729946
0.668238 0.908110 0.734157
0.711482 0.910430 0.743648
0.776883 0.912200 0.765591
0.866117 0.899870 0.792538
0.912627 0.876799 0.826352
0.979126 0.878019 0.831388
0.731807 0.998627 0.793515
0.735622 0.998230 0.794308
0.752285 0.997070 0.798581
0.791257 0.997925 0.814786
0.834867 0.996338 0.831327
0.897795 0.990814 0.854459
0.965789 0.980652 0.885344
0.994171 0.967376 0.919341
0.000000 0.214694 0.815793
0.000000 0.216770 0.816098
0.000000 0.223514 0.810513
0.405737 0.237675 0.803799
0.618738 0.261387 0.794888
0.781277 0.287694 0.782712
0.926909 0.306554 0.785306
1.000000 0.348882 0.772610
0.000000 0.257969 0.808865
0.000000 0.258976 0.807858
0.000000 0.262669 0.803494
0.405066 0.272221 0.797421
0.613336 0.289128 0.786374
0.774441 0.311009 0.774868
0.919097 0.326696 0.778134
1.000000 0.363104 0.767178
0.000000 0.419104 0.818753
0.000000 0.409918 0.818235
0.000000 0.380652 0.816526
0.420478 0.383001 0.804166
0.622980 0.393835 0.790066
0.779446 0.409430 0.776577
0.919341 0.422065 0.779355
1.000000 0.447669 0.769680
0.000000 0.585870 0.829740
0.000000 0.582696 0.827634
0.331304 0.575433 0.822477
0.467506 0.542321 0.821256
0.657618 0.552667 0.806668
0.797391 0.559045 0.788296
0.924224 0.561944 0.788785
1.000000 0.568627 0.779843
0.206821 0.716213 0.817075
0.252415 0.715602 0.816892
0.377539 0.713436 0.816983
0.524651 0.709895 0.818662
0.665644 0.677058 0.802701
0.795956 0.673610 0.779110
0.913542 0.668391 0.778317
1.000000 0.633143 0.745174
0.403571 0.823362 0.794308
0.424964 0.824857 0.796445
0.486152 0.821500 0.795377
0.580316 0.815396 0.793576
0.689906 0.804746 0.789731
0.811032 0.792081 0.786618
0.937499 0.772000 0.754910
1.000000 0.760647 0.731350
0.580804 0.908415 0.779843
0.591699 0.909636 0.782467
0.626307 0.909697 0.787076
0.688472 0.910277 0.797086
0.770748 0.912291 0.814725
0.852293 0.914519 0.838468
0.918364 0.894133 0.865415
1.000000 0.892576 0.834287
0.720455 1.000000 0.835691
0.723842 0.999390 0.835630
0.744045 0.998322 0.839597
0.789914 0.996796 0.853178
0.831113 0.995727 0.861601
0.886534 0.993683 0.881895
0.957031 0.985687 0.908019
0.992706 0.972503 0.937407
0.000000 0.260075 0.919219
0.000000 0.262211 0.919829
0.000000 0.268193 0.917662
0.306004 0.279454 0.914488
0.550958 0.295415 0.907378
0.732631 0.318883 0.896361
0.880491 0.347997 0.887022
1.000000 0.377996 0.889158
0.000000 0.291081 0.915038
0.000000 0.293065 0.915923
0.000000 0.296910 0.913909
0.308721 0.304509 0.909545
0.549279 0.317479 0.902037
0.728237 0.336767 0.889891
0.873808 0.361028 0.879301
1.000000 0.385351 0.880980
0.000000 0.418952 0.918547
0.000000 0.411719 0.918456
0.000000 0.393103 0.916564
0.334966 0.398352 0.911528
0.560571 0.407660 0.902831
0.735225 0.423682 0.890806
0.878904 0.446601 0.882200
1.000000 0.468116 0.887572
0.126955 0.591547 0.921263
0.164431 0.586023 0.920104
0.265782 0.566491 0.918303
0.399969 0.536858 0.916320
0.594629 0.544915 0.907408
0.754513 0.556298 0.895842
0.887114 0.567529 0.886473
1.000000 0.574731 0.890929
0.263828 0.722133 0.923033
0.294194 0.720089 0.921630
0.397650 0.715236 0.918578
0.530938 0.707515 0.914000
0.625269 0.674006 0.908690
0.767880 0.674983 0.895537
0.888701 0.674647 0.882811
1.000000 0.680415 0.889494
0.416358 0.833097 0.913390
0.432044 0.833127 0.913695
0.488533 0.832578 0.914366
0.579034 0.831449 0.915953
0.688777 0.829587 0.918334
0.792386 0.802121 0.909148
0.902129 0.793759 0.891325
1.000000 0.792081 0.891447
0.528466 0.932341 0.904997
0.539208 0.932555 0.905669
0.575677 0.931029 0.905638
0.640589 0.928405 0.906004
0.723568 0.923247 0.905394
0.817014 0.915435 0.903685
0.912993 0.901610 0.897551
1.000000 0.893034 0.879820
0.662440 0.997620 0.880369
0.668727 0.997650 0.881315
0.696590 0.998322 0.886076
0.743099 0.998047 0.893126
0.806149 0.997131 0.903990
0.880034 0.996216 0.920989
0.945342 0.993744 0.941711
0.993103 0.982208 0.964263
0.000000 0.304540 1.000000
0.000000 0.306401 1.000000
0.000000 0.310277 1.000000
0.136141 0.320439 1.000000
0.475410 0.336156 1.000000
0.670741 0.358923 0.997772
0.835904 0.391852 0.992523
0.972168 0.429908 0.987945
0.000000 0.326665 1.000000
0.000000 0.328161 1.000000
0.000000 0.331853 1.000000
0.152712 0.340429 1.000000
0.477119 0.354376 1.000000
0.670771 0.375463 0.995605
0.834257 0.405035 0.989654
0.969390 0.439124 0.984527
0.000000 0.422950 1.000000
0.000000 0.417578 1.000000
0.000000 0.408820 1.000000
0.220554 0.418097 1.000000
0.493538 0.429480 0.998993
0.678889 0.446540 0.993622
0.837675 0.472419 0.987610
0.969329 0.496651 0.982757
0.000000 0.572412 0.999756
0.000000 0.569421 1.000000
0.015534 0.554559 1.000000
0.320256 0.535302 1.000000
0.532464 0.546166 0.997284
0.699641 0.559014 0.992523
0.846433 0.573968 0.987091
0.971954 0.586633 0.982910
0.301640 0.709133 0.996216
0.326390 0.709133 0.996338
0.401312 0.706020 0.995239
0.494697 0.694972 0.994690
0.572961 0.664363 0.994720
0.718776 0.669490 0.990173
0.853910 0.676234 0.985138
0.974426 0.683284 0.982086
0.419989 0.825345 0.993744
0.430365 0.824643 0.993439
0.475410 0.823087 0.992859
0.559350 0.818967 0.992004
0.665461 0.812070 0.990570
0.750393 0.789212 0.991608
0.871885 0.794400 0.989014
0.982330 0.796597 0.986694
0.555200 0.924956 0.990173
0.562463 0.924712 0.990112
0.593072 0.923827 0.989899
0.651789 0.923247 0.990173
0.731838 0.923186 0.990753
0.826047 0.925872 0.992004
0.900999 0.911467 0.992309
0.987427 0.902556 0.988220
0.660639 1.000000 0.989105
0.665278 1.000000 0.989014
0.687160 1.000000 0.989075
0.730373 1.000000 0.989654
0.789609 1.000000 0.990295
0.859312 1.000000 0.990875
0.931792 0.997009 0.991730
0.993347 0.992309 0.991882
