20 Preset/Gray style/【3】LUT video cho PR-AE-FCPX/Tone  (9).cube
# Created by Adobe Lightroom plugin Export LUT (1.24.0)
# www.johnrellis.com/lightroom/exportlut.htm
# Preset: 09素材江湖-高级灰
# Color profile: E:\lut插件\exportlut.1.24\exportlut.lrplugin\color profiles\Rec709gamma2.4.icc
LUT_3D_SIZE 8
DOMAIN_MIN 0.000000 0.000000 0.000000
DOMAIN_MAX 0.903226 0.903226 0.903226
0.000000 0.000000 0.000000
0.131319 0.022827 0.028199
0.286748 0.062226 0.077729
0.437873 0.037018 0.040955
0.590509 0.029114 0.023957
0.743984 0.036988 0.034516
0.880278 0.080171 0.092073
1.000000 0.126894 0.147158
0.083070 0.126436 0.097780
0.119417 0.125490 0.123232
0.298436 0.152987 0.086336
0.446082 0.149020 0.045319
0.597742 0.148836 0.035157
0.749905 0.151186 0.052277
0.884428 0.158083 0.102785
1.000000 0.180728 0.155459
0.168215 0.262242 0.186740
0.196872 0.263188 0.198245
0.256229 0.264927 0.255070
0.462104 0.299901 0.144198
0.609522 0.293339 0.111391
0.756191 0.293339 0.115663
0.885618 0.292149 0.139651
1.000000 0.300114 0.185397
0.269047 0.397131 0.292821
0.284245 0.399176 0.296483
0.343450 0.402533 0.331456
0.403082 0.411261 0.394171
0.634791 0.474464 0.295964
0.763607 0.438666 0.197726
0.890349 0.433539 0.208774
1.000000 0.435248 0.242374
0.372107 0.535058 0.390600
0.381262 0.536675 0.391730
0.427863 0.540917 0.413855
0.499092 0.549035 0.460060
0.564294 0.565057 0.529076
0.757382 0.623346 0.464607
0.899199 0.590051 0.342229
1.000000 0.571954 0.321172
0.479500 0.665766 0.486305
0.485115 0.666011 0.486549
0.518181 0.669337 0.500008
0.580896 0.675349 0.537560
0.651514 0.686061 0.592523
0.708797 0.703304 0.659022
0.852445 0.755825 0.634913
1.000000 0.742458 0.521569
0.604791 0.789425 0.599268
0.608820 0.789914 0.599878
0.628595 0.792386 0.605615
0.676295 0.796292 0.633539
0.735775 0.803098 0.674403
0.793545 0.813230 0.724788
0.837430 0.827970 0.780667
0.934661 0.870848 0.784024
0.740566 0.907652 0.723537
0.743313 0.908080 0.724208
0.754574 0.909758 0.726650
0.785458 0.911345 0.743771
0.830320 0.914977 0.774380
0.875608 0.918639 0.810086
0.915496 0.924346 0.850492
0.942809 0.932830 0.891966
0.000000 0.020264 0.144961
0.128695 0.042786 0.152499
0.291966 0.017151 0.165988
0.450538 0.000000 0.116060
0.600916 0.000000 0.099886
0.752895 0.000000 0.107729
0.887175 0.000000 0.130312
1.000000 0.096620 0.173617
0.088655 0.138247 0.149203
0.143893 0.152712 0.165652
0.304906 0.141512 0.146792
0.454780 0.116213 0.112520
0.604517 0.114870 0.108644
0.755642 0.119570 0.115480
0.889250 0.132937 0.138003
1.000000 0.165316 0.181003
0.188113 0.273442 0.232364
0.208682 0.277226 0.234989
0.267399 0.279576 0.282383
0.464210 0.294560 0.172122
0.614740 0.290257 0.154665
0.761349 0.287663 0.153231
0.891386 0.286717 0.170382
1.000000 0.295598 0.208316
0.280949 0.404639 0.319005
0.293584 0.406928 0.320531
0.350805 0.410895 0.349615
0.411505 0.420691 0.409491
0.636286 0.476967 0.318761
0.768612 0.440681 0.226932
0.895293 0.434333 0.233188
1.000000 0.435218 0.262028
0.378698 0.539055 0.406073
0.387793 0.540734 0.407233
0.432013 0.545739 0.425086
0.504234 0.554620 0.470680
0.570001 0.571160 0.539055
0.761959 0.626825 0.473121
0.900481 0.589563 0.352789
1.000000 0.573449 0.336706
0.485267 0.668605 0.497841
0.491371 0.669398 0.498573
0.522118 0.672786 0.508965
0.584619 0.678706 0.545800
0.655055 0.689418 0.599542
0.711635 0.706569 0.664454
0.855039 0.758114 0.639063
1.000000 0.743404 0.529503
0.609339 0.791409 0.607172
0.613611 0.792203 0.608148
0.631403 0.794827 0.611749
0.679011 0.798611 0.639063
0.738003 0.805142 0.679103
0.795682 0.815305 0.728878
0.839628 0.830381 0.784421
0.936950 0.872953 0.786801
0.743252 0.908843 0.728328
0.745724 0.909117 0.728786
0.756893 0.910826 0.731228
0.786557 0.912566 0.746670
0.829892 0.914946 0.775387
0.875853 0.919036 0.811521
0.916136 0.925048 0.852079
0.943389 0.933532 0.893370
0.000000 0.086305 0.296056
0.086854 0.088899 0.299931
0.272129 0.114565 0.314061
0.397620 0.197665 0.332616
0.593866 0.000000 0.322362
0.762814 0.000000 0.255009
0.895811 0.000000 0.230014
1.000000 0.000000 0.233310
0.000000 0.169162 0.302953
0.116670 0.170138 0.306920
0.279789 0.187076 0.318669
0.427863 0.211704 0.339452
0.605890 0.002167 0.301091
0.767727 0.000000 0.236728
0.898589 0.000000 0.213199
1.000000 0.000000 0.240452
0.205020 0.289921 0.308843
0.231479 0.295018 0.315373
0.303990 0.317174 0.338659
0.481788 0.256565 0.255558
0.629816 0.233402 0.230076
0.771847 0.229129 0.227237
0.898650 0.235325 0.238712
1.000000 0.254765 0.266728
0.309697 0.419684 0.386481
0.319829 0.422065 0.388190
0.362615 0.430304 0.395666
0.427710 0.440894 0.447547
0.629816 0.461952 0.357580
0.770932 0.432044 0.300938
0.898070 0.421790 0.297612
1.000000 0.422278 0.316167
0.400397 0.550500 0.457099
0.408057 0.551965 0.457862
0.439948 0.558007 0.461463
0.514794 0.567041 0.501946
0.580224 0.583917 0.565637
0.771054 0.629969 0.495155
0.899016 0.576684 0.374853
1.000000 0.572168 0.386023
0.504326 0.674861 0.537377
0.509789 0.675624 0.537926
0.532799 0.679347 0.541070
0.592279 0.685969 0.570794
0.662898 0.697353 0.620630
0.718807 0.715175 0.681605
0.862455 0.762936 0.650263
1.000000 0.741695 0.551537
0.620935 0.794064 0.632166
0.624842 0.794827 0.632868
0.641138 0.797604 0.635798
0.682124 0.802182 0.654108
0.741878 0.809110 0.692622
0.799710 0.819608 0.740475
0.843168 0.834836 0.793820
0.941985 0.876188 0.791318
0.748623 0.910002 0.742489
0.751247 0.910491 0.743130
0.762081 0.912261 0.745480
0.786435 0.914702 0.754238
0.830686 0.917113 0.782437
0.877165 0.921080 0.817716
0.917784 0.927123 0.857511
0.944945 0.935607 0.898009
0.000000 0.121248 0.440253
0.000000 0.126070 0.441840
0.251438 0.149142 0.450324
0.416052 0.191806 0.462654
0.544488 0.266911 0.475654
0.727504 0.244633 0.500786
0.878447 0.132418 0.474556
1.000000 0.000000 0.435370
0.000000 0.192752 0.443000
0.000000 0.195834 0.444770
0.263371 0.208591 0.452308
0.419379 0.235447 0.464027
0.546197 0.295354 0.478492
0.731624 0.261173 0.497749
0.882597 0.149386 0.466773
1.000000 0.000000 0.422187
0.092103 0.324285 0.452796
0.158572 0.324834 0.454841
0.294224 0.330388 0.462135
0.435554 0.345037 0.472663
0.566705 0.375219 0.492439
0.754177 0.290013 0.467018
0.903075 0.138705 0.405768
1.000000 0.005371 0.377813
0.317327 0.434485 0.452491
0.332250 0.437415 0.456123
0.387762 0.449470 0.470741
0.467567 0.476539 0.495247
0.651026 0.415473 0.415015
0.789212 0.382849 0.383124
0.912291 0.370977 0.375341
1.000000 0.377325 0.388037
0.435889 0.564996 0.527642
0.443854 0.567926 0.530205
0.471748 0.576165 0.536492
0.526635 0.586542 0.548333
0.597436 0.604669 0.605585
0.768582 0.616510 0.527520
0.900145 0.572656 0.456641
1.000000 0.564813 0.458595
0.537804 0.684749 0.597620
0.541558 0.685145 0.597742
0.560204 0.688960 0.600305
0.597864 0.695979 0.606012
0.672541 0.708370 0.651240
0.729458 0.728115 0.707851
0.876524 0.767605 0.665309
1.000000 0.729671 0.572473
0.640681 0.799405 0.673365
0.643824 0.799954 0.673732
0.657832 0.802426 0.675868
0.685420 0.807309 0.680049
0.744991 0.814969 0.712978
0.805478 0.826566 0.758938
0.849760 0.842924 0.810239
0.952728 0.881865 0.798642
0.756283 0.911742 0.766232
0.758724 0.912200 0.766751
0.768826 0.913970 0.768856
0.788876 0.917388 0.772946
0.829465 0.920897 0.793393
0.878508 0.924987 0.828122
0.920714 0.931090 0.867155
0.947936 0.939513 0.906401
0.000000 0.174594 0.578546
0.000000 0.178866 0.579400
0.227451 0.195529 0.584558
0.409094 0.221775 0.594049
0.566430 0.260349 0.604974
0.693172 0.331304 0.611322
0.802640 0.416754 0.633692
0.981750 0.348974 0.636805
0.000000 0.229191 0.579889
0.000000 0.231266 0.580468
0.242466 0.241611 0.585473
0.414496 0.259159 0.594995
0.569024 0.289586 0.606012
0.694026 0.353155 0.612604
0.805905 0.429023 0.635706
0.983185 0.360082 0.635187
0.000000 0.347295 0.585779
0.120607 0.347234 0.586786
0.279728 0.350439 0.591455
0.432776 0.360388 0.600336
0.580316 0.380835 0.610620
0.698146 0.430243 0.618708
0.843931 0.443580 0.639307
0.991852 0.393988 0.625116
0.225040 0.478614 0.591119
0.250523 0.479744 0.593286
0.334569 0.482368 0.601007
0.464332 0.488106 0.609522
0.599359 0.503349 0.618158
0.708766 0.536400 0.632654
0.876249 0.477333 0.615167
1.000000 0.405127 0.574731
0.438636 0.581659 0.589837
0.449195 0.583307 0.591852
0.490120 0.590478 0.600488
0.557244 0.604273 0.617731
0.630732 0.631647 0.640162
0.784665 0.577386 0.573053
0.916014 0.540429 0.540459
1.000000 0.529870 0.535851
0.575677 0.694270 0.658045
0.580255 0.695857 0.659632
0.599451 0.702785 0.666285
0.630823 0.713497 0.674647
0.680201 0.724147 0.686458
0.744900 0.746120 0.740322
0.887114 0.757473 0.679835
1.000000 0.716915 0.617731
0.671138 0.808225 0.726619
0.673426 0.808896 0.726894
0.682673 0.811398 0.727504
0.703822 0.816037 0.729549
0.741939 0.823484 0.735897
0.811826 0.836515 0.781613
0.859770 0.854826 0.832242
0.971618 0.887510 0.805509
0.767361 0.916014 0.799527
0.769558 0.916472 0.799985
0.778866 0.918334 0.801816
0.796689 0.921477 0.804807
0.825498 0.926787 0.810391
0.878172 0.931334 0.841428
0.924956 0.937530 0.880644
0.953216 0.946136 0.919158
0.000000 0.231174 0.703639
0.000000 0.233829 0.704189
0.201358 0.246250 0.707271
0.395483 0.265660 0.712703
0.555749 0.291569 0.720912
0.703151 0.333471 0.728695
0.821927 0.408606 0.731594
0.921111 0.510582 0.751431
0.000000 0.271427 0.705867
0.000000 0.273411 0.706569
0.221836 0.281712 0.709316
0.402655 0.296666 0.714565
0.559869 0.318120 0.722377
0.705562 0.355779 0.729824
0.822629 0.426825 0.732631
0.921080 0.523919 0.753292
0.000000 0.371588 0.707729
0.042237 0.372351 0.708431
0.269535 0.376959 0.710964
0.424292 0.386969 0.716518
0.572015 0.402167 0.723995
0.711452 0.431342 0.730953
0.821805 0.491279 0.734737
0.919036 0.570703 0.758816
0.192844 0.493538 0.712245
0.230686 0.494728 0.712917
0.336675 0.499641 0.715328
0.462440 0.506493 0.719295
0.594629 0.518334 0.725948
0.721126 0.540368 0.732692
0.821225 0.584314 0.740475
0.932586 0.624048 0.767025
0.378790 0.624689 0.711269
0.392126 0.625727 0.712398
0.441962 0.629267 0.717006
0.520439 0.634180 0.726070
0.627802 0.639673 0.733242
0.737942 0.652491 0.740078
0.829313 0.682307 0.755581
0.982696 0.641901 0.749752
0.570977 0.712093 0.710109
0.576623 0.712734 0.711025
0.600916 0.716670 0.715816
0.643793 0.724178 0.725216
0.701564 0.736294 0.740688
0.765866 0.761593 0.761563
0.900450 0.719600 0.711208
1.000000 0.697841 0.694789
0.697932 0.810361 0.772030
0.700465 0.811185 0.772885
0.711604 0.815183 0.776730
0.733272 0.823239 0.784146
0.763760 0.834653 0.792691
0.809598 0.845609 0.803647
0.871183 0.868559 0.857725
0.989471 0.879545 0.810147
0.796719 0.920745 0.847135
0.798642 0.921416 0.847715
0.806363 0.923949 0.849912
0.816007 0.927214 0.849821
0.834592 0.932189 0.850156
0.870481 0.939513 0.856657
0.928893 0.945861 0.897368
0.960266 0.954925 0.935882
0.000000 0.296086 0.827726
0.000000 0.298100 0.827756
0.194797 0.307317 0.829313
0.390631 0.323339 0.831968
0.549706 0.346471 0.836423
0.697444 0.377356 0.842283
0.832700 0.428901 0.846799
0.940337 0.508141 0.847501
0.000000 0.325933 0.829252
0.000000 0.327459 0.829191
0.217533 0.334600 0.830686
0.399084 0.348425 0.833524
0.555077 0.369299 0.837919
0.701198 0.398413 0.843992
0.835538 0.448096 0.848661
0.942016 0.523766 0.849638
0.000000 0.411200 0.828946
0.102907 0.412268 0.829252
0.276341 0.417487 0.830838
0.426246 0.427314 0.833707
0.570733 0.443732 0.838224
0.709926 0.467292 0.843870
0.837705 0.507408 0.847807
0.938811 0.568963 0.848814
0.225528 0.521996 0.829435
0.257755 0.523430 0.829892
0.354986 0.530175 0.831113
0.473671 0.539117 0.833524
0.599207 0.551141 0.837766
0.724605 0.567010 0.843076
0.842283 0.593225 0.847318
0.936980 0.640253 0.850797
0.356207 0.644862 0.832670
0.372137 0.645624 0.833219
0.428382 0.647089 0.834745
0.520867 0.651362 0.836759
0.632959 0.661189 0.840421
0.744533 0.670436 0.846250
0.852720 0.687037 0.851255
0.939422 0.722438 0.857664
0.524163 0.762417 0.826902
0.530694 0.762722 0.827451
0.556817 0.764034 0.830014
0.603418 0.765927 0.835142
0.668757 0.767300 0.843839
0.763638 0.769741 0.849973
0.863920 0.780728 0.855741
0.944335 0.810147 0.870787
0.684260 0.834257 0.823423
0.687678 0.834531 0.823880
0.703029 0.836484 0.826566
0.732174 0.840421 0.831937
0.774868 0.847410 0.841184
0.828580 0.858122 0.855436
0.887938 0.881376 0.876402
0.997955 0.859586 0.850340
0.819028 0.922179 0.884855
0.820554 0.922667 0.885344
0.826505 0.924407 0.887114
0.840024 0.929168 0.891905
0.861479 0.937133 0.899657
0.889891 0.947906 0.908782
0.927031 0.956298 0.916167
0.970092 0.967010 0.957397
0.000000 0.380987 0.949279
0.000000 0.382788 0.949279
0.248386 0.390967 0.950195
0.412451 0.405951 0.951263
0.561639 0.428870 0.953033
0.702419 0.460578 0.955505
0.834012 0.500084 0.958312
0.951934 0.556176 0.959777
0.000000 0.403204 0.949859
0.024659 0.404639 0.949828
0.268528 0.411841 0.950530
0.422278 0.425696 0.951659
0.567346 0.447120 0.953429
0.706264 0.477424 0.955840
0.836271 0.514794 0.958862
0.953155 0.568383 0.960510
0.191806 0.475441 0.949279
0.227146 0.476722 0.949371
0.329961 0.482460 0.950134
0.455512 0.492927 0.950774
0.588128 0.511223 0.952697
0.718563 0.535729 0.955383
0.842191 0.564538 0.958526
0.954894 0.608209 0.960418
0.312627 0.573114 0.948516
0.336767 0.575677 0.948394
0.413581 0.584436 0.948608
0.509361 0.591669 0.949645
0.620905 0.603235 0.951507
0.737057 0.618982 0.954284
0.851133 0.638331 0.957733
0.957549 0.669673 0.960113
0.374029 0.669917 0.949401
0.388525 0.670344 0.949371
0.443488 0.672694 0.949828
0.546838 0.685298 0.949950
0.653040 0.698054 0.951537
0.757076 0.707790 0.954711
0.862486 0.720211 0.958526
0.962493 0.741939 0.961303
0.501396 0.787869 0.948455
0.508232 0.787869 0.948974
0.535424 0.787350 0.950774
0.590692 0.786343 0.952209
0.669490 0.785824 0.953704
0.775601 0.796811 0.955352
0.873747 0.804593 0.959075
0.968078 0.819821 0.962676
0.657832 0.891142 0.940917
0.661524 0.891325 0.941344
0.677089 0.891936 0.942931
0.706264 0.892607 0.945892
0.749416 0.893156 0.950713
0.805661 0.892058 0.957916
0.889982 0.894102 0.962707
0.976684 0.904234 0.967376
0.803677 0.952972 0.938323
0.806088 0.953277 0.938781
0.815610 0.954101 0.940154
0.833707 0.955383 0.942565
0.861662 0.957977 0.946960
0.899077 0.962371 0.953948
0.944244 0.969268 0.964477
0.986877 0.983154 0.979675
