20 Preset/Gray style/【3】LUT video cho PR-AE-FCPX/Tone  (5).cube
# Created by Adobe Lightroom plugin Export LUT (1.24.0)
# www.johnrellis.com/lightroom/exportlut.htm
# Preset: 05素材江湖-高级灰
# Color profile: E:\lut插件\exportlut.1.24\exportlut.lrplugin\color profiles\Rec709gamma2.4.icc
LUT_3D_SIZE 8
DOMAIN_MIN 0.000000 0.000000 0.000000
DOMAIN_MAX 0.903226 0.903226 0.903226
0.000000 0.000000 0.000000
0.090852 0.006989 0.017365
0.186343 0.017365 0.074556
0.297093 0.000000 0.095125
0.414343 0.000000 0.106050
0.540368 0.000000 0.132692
0.723415 0.000000 0.175845
0.896117 0.000000 0.224521
0.018067 0.089052 0.016938
0.096773 0.095216 0.044282
0.181308 0.098024 0.076844
0.283879 0.084871 0.093843
0.396857 0.000000 0.103792
0.518303 0.000000 0.128176
0.684352 0.000000 0.165957
0.859464 0.000000 0.211429
0.085878 0.187716 0.070741
0.121828 0.192325 0.082551
0.223880 0.217105 0.130312
0.311101 0.205020 0.105592
0.412146 0.189609 0.101869
0.547326 0.181277 0.132021
0.736233 0.165103 0.177615
0.901335 0.110140 0.225864
0.124300 0.300511 0.081941
0.148959 0.300938 0.080018
0.244755 0.321996 0.133730
0.392859 0.377417 0.232456
0.529595 0.390509 0.219211
0.613672 0.345892 0.140108
0.765988 0.344060 0.180819
0.907225 0.331365 0.226474
0.169863 0.422339 0.086641
0.188785 0.422705 0.071168
0.277226 0.447181 0.131899
0.429084 0.508568 0.227604
0.633143 0.597436 0.356725
0.748257 0.585473 0.351781
0.792050 0.503471 0.230137
0.899107 0.475532 0.217716
0.228214 0.564935 0.087770
0.248478 0.576532 0.079652
0.322972 0.593561 0.116945
0.461067 0.642542 0.216831
0.638514 0.708186 0.343206
0.829099 0.781735 0.519280
0.922271 0.775784 0.564416
0.975036 0.694850 0.437079
0.292149 0.724147 0.019654
0.306920 0.727169 0.006744
0.361547 0.730434 0.000916
0.484138 0.763394 0.203159
0.635370 0.803006 0.337591
0.802121 0.850187 0.509636
0.938262 0.896208 0.692287
0.993133 0.893736 0.747646
0.362707 0.871336 0.125063
0.373022 0.871275 0.121248
0.416266 0.872709 0.103914
0.523522 0.890837 0.239902
0.641535 0.895506 0.352300
0.797452 0.925017 0.537377
0.927459 0.950744 0.716823
1.000000 0.970001 0.839506
0.042451 0.061585 0.099458
0.094118 0.060273 0.112978
0.179660 0.078553 0.130465
0.285252 0.029358 0.142336
0.401190 0.000000 0.135164
0.517601 0.000000 0.152804
0.670863 0.000000 0.184787
0.835233 0.000000 0.221592
0.075380 0.098726 0.108125
0.101991 0.109071 0.119203
0.188846 0.107607 0.126040
0.288853 0.087922 0.130739
0.398352 0.000000 0.133364
0.513237 0.000000 0.151034
0.654810 0.000000 0.179690
0.811734 0.000000 0.213382
0.095766 0.194430 0.129854
0.122042 0.196475 0.127413
0.219272 0.217929 0.171939
0.304265 0.199374 0.129976
0.405768 0.183352 0.130220
0.529778 0.171237 0.152468
0.676509 0.144106 0.182803
0.841917 0.034302 0.221134
0.121767 0.293004 0.128176
0.142855 0.293492 0.122957
0.235447 0.312474 0.160403
0.369268 0.358282 0.247868
0.475227 0.352911 0.218936
0.555810 0.312230 0.152834
0.693874 0.308751 0.180789
0.846891 0.301488 0.217136
0.166659 0.419135 0.132235
0.183780 0.418128 0.126802
0.265446 0.433845 0.154910
0.404150 0.481788 0.238804
0.584985 0.555230 0.351110
0.697505 0.546868 0.339635
0.747860 0.473579 0.223728
0.866148 0.454292 0.216495
0.217990 0.547967 0.133028
0.232944 0.549371 0.128206
0.299779 0.562615 0.138827
0.435554 0.612634 0.224521
0.613031 0.682582 0.341436
0.810208 0.764584 0.512566
0.905882 0.759335 0.550317
0.957549 0.677028 0.419715
0.276555 0.703029 0.108461
0.287907 0.700008 0.098878
0.337163 0.699763 0.044862
0.460456 0.736538 0.199741
0.616602 0.784512 0.330205
0.785153 0.834592 0.494606
0.923674 0.880827 0.670466
0.982574 0.877226 0.721706
0.345495 0.856168 0.129427
0.359197 0.858854 0.131380
0.402625 0.859831 0.114229
0.506981 0.877745 0.226810
0.650629 0.903685 0.381353
0.800107 0.926665 0.551476
0.925353 0.949035 0.717647
0.999054 0.968750 0.839200
0.114534 0.140475 0.205295
0.129549 0.141024 0.215030
0.206027 0.143374 0.241917
0.283635 0.182956 0.259098
0.413489 0.155428 0.278630
0.554376 0.089998 0.293645
0.714473 0.000000 0.306523
0.875212 0.000000 0.319188
0.139773 0.167849 0.211185
0.148226 0.169192 0.219516
0.207889 0.170077 0.242283
0.293980 0.189120 0.260838
0.412757 0.157412 0.268711
0.550561 0.080171 0.278019
0.700526 0.000000 0.283177
0.859739 0.000000 0.295537
0.176608 0.215976 0.235019
0.187198 0.220859 0.240635
0.228458 0.239719 0.257237
0.336889 0.206332 0.229831
0.449928 0.178744 0.225376
0.577234 0.154543 0.240360
0.717708 0.097810 0.260197
0.869108 0.000000 0.288121
0.158267 0.320653 0.252445
0.171908 0.323003 0.250431
0.231632 0.333257 0.235721
0.385412 0.383490 0.336248
0.486854 0.354986 0.268803
0.598077 0.325261 0.242252
0.737026 0.313909 0.261540
0.880125 0.297917 0.288945
0.179843 0.441199 0.252537
0.195499 0.441688 0.248325
0.252750 0.446143 0.229068
0.409888 0.496071 0.312200
0.597955 0.574212 0.430121
0.696620 0.549828 0.392218
0.743709 0.460792 0.254734
0.884581 0.456794 0.284947
0.217502 0.561944 0.244907
0.233097 0.564141 0.242313
0.287114 0.567102 0.227329
0.421057 0.606500 0.284459
0.602045 0.674739 0.395941
0.796048 0.757534 0.560876
0.891264 0.753597 0.579736
0.950622 0.671015 0.445075
0.273411 0.718746 0.239048
0.285313 0.716426 0.234714
0.332738 0.712947 0.219181
0.445197 0.734310 0.258915
0.609369 0.781399 0.378637
0.784115 0.834440 0.542046
0.923491 0.886259 0.712917
0.981598 0.886076 0.754849
0.337926 0.860472 0.248264
0.347814 0.859129 0.243900
0.391638 0.859770 0.235203
0.487098 0.873594 0.266911
0.641718 0.900450 0.413642
0.801480 0.926665 0.586542
0.926879 0.950530 0.744839
0.997681 0.970581 0.857298
0.179751 0.217166 0.315007
0.191165 0.220462 0.323430
0.234806 0.222660 0.343633
0.324590 0.228428 0.371496
0.415442 0.269444 0.392218
0.553796 0.274846 0.429358
0.697566 0.238163 0.446693
0.850919 0.168917 0.462593
0.204685 0.243900 0.326329
0.211521 0.244480 0.331579
0.245853 0.244022 0.349218
0.330388 0.247196 0.376165
0.421881 0.285801 0.398749
0.557702 0.281865 0.429419
0.698878 0.241794 0.442420
0.851713 0.170382 0.456703
0.243778 0.285588 0.332830
0.250858 0.289067 0.336370
0.269718 0.294408 0.354711
0.340398 0.299535 0.382788
0.437598 0.331182 0.411933
0.592065 0.304967 0.430915
0.751919 0.260685 0.441474
0.893156 0.179965 0.442634
0.290776 0.349645 0.374029
0.296269 0.351629 0.376196
0.322087 0.363592 0.389105
0.382147 0.392462 0.412207
0.506584 0.345006 0.369421
0.629908 0.317723 0.363348
0.764645 0.292180 0.370153
0.901579 0.266758 0.387182
0.272526 0.482155 0.413184
0.278630 0.481697 0.410803
0.306584 0.486244 0.402167
0.395392 0.507530 0.394537
0.599268 0.587915 0.527855
0.683467 0.532555 0.439216
0.784604 0.473060 0.372656
0.911101 0.457404 0.390570
0.264927 0.604303 0.399725
0.281041 0.613733 0.403723
0.320562 0.613703 0.390845
0.400855 0.621942 0.366400
0.609308 0.689876 0.491768
0.791135 0.764340 0.645075
0.874449 0.748470 0.624537
0.938537 0.647272 0.462837
0.283696 0.737850 0.384833
0.296971 0.739315 0.383551
0.344274 0.741573 0.375402
0.423896 0.746059 0.354223
0.604974 0.788449 0.460151
0.788479 0.839811 0.619898
0.919432 0.890349 0.764889
0.975036 0.889036 0.784878
0.351476 0.876555 0.397314
0.361242 0.876432 0.395331
0.400916 0.876646 0.388190
0.472297 0.878965 0.375128
0.621729 0.897215 0.461891
0.797787 0.924651 0.631922
0.926604 0.951202 0.780362
0.995575 0.973510 0.884733
0.261845 0.306798 0.434852
0.271122 0.310582 0.442359
0.302220 0.315038 0.460182
0.371801 0.318853 0.493111
0.477455 0.324987 0.522972
0.568231 0.359197 0.533104
0.667933 0.404852 0.560693
0.842679 0.381994 0.598688
0.282811 0.329351 0.447242
0.291569 0.333379 0.455207
0.318364 0.335973 0.471534
0.378454 0.333471 0.497108
0.479927 0.337041 0.524285
0.570520 0.370031 0.535180
0.671412 0.411933 0.562768
0.844053 0.386358 0.597620
0.327672 0.378332 0.462013
0.331853 0.380072 0.466377
0.345983 0.379034 0.477424
0.388647 0.373510 0.497414
0.477790 0.372503 0.518975
0.561547 0.399359 0.528649
0.691798 0.416968 0.563195
0.842130 0.391577 0.583886
0.363104 0.421363 0.471687
0.368078 0.423224 0.473518
0.390295 0.433570 0.483772
0.421118 0.443854 0.508507
0.498177 0.444862 0.531731
0.587213 0.469184 0.549523
0.736782 0.442786 0.563989
0.873960 0.404028 0.565057
0.406256 0.480446 0.501762
0.411597 0.483253 0.504631
0.431464 0.492134 0.513634
0.468849 0.509728 0.531365
0.539940 0.542565 0.554650
0.659846 0.483406 0.501823
0.789029 0.450385 0.491737
0.912261 0.426368 0.495338
0.380774 0.593469 0.530755
0.384375 0.595941 0.531426
0.395789 0.601007 0.528008
0.427375 0.609674 0.517235
0.524590 0.632471 0.512047
0.747646 0.733242 0.679286
0.829648 0.690425 0.606104
0.923919 0.610163 0.509575
0.371618 0.743801 0.542779
0.372595 0.741878 0.538293
0.385901 0.739742 0.525139
0.436469 0.746365 0.509880
0.525597 0.756313 0.483284
0.756344 0.818265 0.652705
0.899382 0.877470 0.791073
0.954925 0.865751 0.778531
0.360693 0.865751 0.522515
0.367559 0.865415 0.520531
0.398108 0.865354 0.513329
0.472602 0.874418 0.513237
0.555962 0.878752 0.491768
0.761868 0.909606 0.644343
0.913115 0.942992 0.796963
0.988678 0.970031 0.898161
0.384314 0.433356 0.598230
0.392279 0.436561 0.604211
0.410468 0.433661 0.609735
0.457710 0.432776 0.628534
0.534752 0.424231 0.651850
0.639094 0.428229 0.670619
0.732418 0.470771 0.680079
0.825711 0.537316 0.707912
0.376928 0.427161 0.578637
0.380743 0.426856 0.580468
0.398627 0.425727 0.588678
0.441657 0.424567 0.607202
0.519219 0.419318 0.634760
0.624933 0.425757 0.657343
0.719875 0.467567 0.669398
0.816037 0.532708 0.699580
0.423621 0.478279 0.599084
0.425696 0.477211 0.600153
0.437964 0.475288 0.607385
0.462867 0.463996 0.614557
0.530297 0.457099 0.638911
0.632380 0.462715 0.661219
0.725765 0.503593 0.675044
0.818753 0.563104 0.705653
0.475746 0.531121 0.604395
0.476570 0.530297 0.604791
0.488228 0.534752 0.614588
0.518883 0.544213 0.639948
0.572869 0.540978 0.665614
0.663569 0.542321 0.683803
0.747951 0.577447 0.696712
0.842893 0.617548 0.726772
0.495399 0.563684 0.607019
0.498970 0.564965 0.608179
0.515251 0.571679 0.614405
0.548241 0.587060 0.628870
0.581903 0.596429 0.652674
0.657282 0.596368 0.672145
0.738430 0.625635 0.690883
0.871580 0.610956 0.707485
0.535393 0.617060 0.629053
0.542809 0.622400 0.634089
0.555810 0.627131 0.638880
0.581353 0.637476 0.649287
0.619196 0.652857 0.664912
0.701472 0.697627 0.699794
0.817044 0.648341 0.658534
0.931060 0.624567 0.654139
0.570184 0.751705 0.694423
0.575250 0.754940 0.697047
0.581750 0.759609 0.697505
0.595666 0.769223 0.696834
0.620539 0.778317 0.686336
0.704677 0.796811 0.681819
0.887358 0.874327 0.831662
0.939239 0.835111 0.771389
0.559930 0.871794 0.706874
0.558618 0.870542 0.703883
0.563500 0.869932 0.697627
0.574792 0.873838 0.685237
0.600916 0.878141 0.660395
0.673884 0.884489 0.632593
0.892912 0.932799 0.815335
0.982147 0.968414 0.919127
0.488716 0.533104 0.705745
0.492775 0.533867 0.707698
0.507469 0.534112 0.713954
0.539696 0.535271 0.727199
0.591211 0.532769 0.744350
0.668360 0.526390 0.766232
0.761715 0.539086 0.780758
0.841123 0.582147 0.787015
0.494423 0.539849 0.704829
0.498207 0.540490 0.706874
0.511894 0.540642 0.713191
0.541161 0.540093 0.725032
0.591485 0.537499 0.742397
0.667170 0.530724 0.764126
0.759609 0.542229 0.778408
0.838499 0.584253 0.784756
0.522850 0.571710 0.709651
0.525170 0.571679 0.710994
0.535546 0.570977 0.716548
0.559564 0.569604 0.727779
0.603479 0.566308 0.744198
0.674128 0.559655 0.765621
0.764401 0.570459 0.780819
0.841886 0.612085 0.788876
0.565972 0.618311 0.714900
0.566430 0.617273 0.715114
0.575860 0.619196 0.721462
0.593439 0.619318 0.732815
0.627070 0.616236 0.748684
0.688228 0.610620 0.769772
0.772885 0.618708 0.785275
0.846891 0.655451 0.794980
0.606409 0.661158 0.718471
0.608698 0.661707 0.718929
0.619928 0.665827 0.722408
0.635096 0.671687 0.733791
0.657740 0.674098 0.751644
0.703212 0.669032 0.772366
0.781308 0.672938 0.788815
0.854582 0.707332 0.803433
0.640314 0.706355 0.735958
0.642847 0.707271 0.736843
0.652705 0.710994 0.740383
0.671595 0.718166 0.747311
0.699947 0.729366 0.758267
0.731014 0.738430 0.779812
0.797116 0.740566 0.798672
0.865690 0.768704 0.816831
0.683619 0.758999 0.760769
0.685939 0.759976 0.761776
0.694270 0.762997 0.764981
0.710994 0.769406 0.771542
0.736202 0.779324 0.781827
0.770474 0.794034 0.796872
0.835752 0.829709 0.826169
0.924285 0.789120 0.793332
0.724422 0.862181 0.817014
0.725368 0.862974 0.817411
0.729610 0.866819 0.819211
0.736904 0.873686 0.821225
0.748104 0.884123 0.821805
0.768032 0.894896 0.814878
0.835721 0.909300 0.811398
0.975189 0.967041 0.941619
0.670069 0.698634 0.837369
0.672084 0.698970 0.838407
0.678920 0.698390 0.841398
0.694881 0.698421 0.848234
0.721553 0.697444 0.858244
0.762051 0.694575 0.871214
0.819791 0.689601 0.887022
0.887755 0.703029 0.895842
0.672755 0.702113 0.836698
0.674769 0.702449 0.837705
0.681666 0.702174 0.840970
0.696834 0.701839 0.847623
0.722774 0.700587 0.857633
0.762570 0.697749 0.870665
0.819699 0.692287 0.886351
0.887358 0.705196 0.895262
0.687739 0.719661 0.837522
0.689143 0.719661 0.838376
0.694759 0.719081 0.841398
0.708766 0.719295 0.848631
0.731655 0.717433 0.858213
0.768185 0.713741 0.870939
0.822904 0.708186 0.886656
0.889097 0.719326 0.895995
0.710750 0.746883 0.838621
0.712490 0.747372 0.839658
0.718135 0.748104 0.843290
0.728267 0.747585 0.849882
0.747158 0.745937 0.859709
0.779110 0.742550 0.872587
0.829465 0.736873 0.888426
0.893584 0.745266 0.898497
0.738521 0.777707 0.838773
0.739528 0.778042 0.839780
0.742580 0.778347 0.843015
0.752590 0.781003 0.850675
0.767178 0.781216 0.861204
0.792325 0.778103 0.874418
0.837369 0.772976 0.890867
0.899901 0.778897 0.902342
0.765530 0.810636 0.848020
0.766537 0.810788 0.848234
0.771420 0.812100 0.849638
0.781949 0.815457 0.853147
0.794827 0.819486 0.861601
0.813870 0.822416 0.878019
0.849882 0.819333 0.895720
0.909087 0.822049 0.908446
0.792996 0.847593 0.864134
0.794064 0.847898 0.864469
0.798642 0.849271 0.865965
0.808194 0.852415 0.869291
0.823362 0.857481 0.874784
0.844938 0.865202 0.883116
0.868254 0.871214 0.899748
0.919646 0.872190 0.915526
0.824643 0.887022 0.882963
0.825528 0.887327 0.883299
0.829831 0.888792 0.884886
0.838987 0.892088 0.888426
0.853239 0.897307 0.894133
0.873198 0.904967 0.902403
0.900175 0.916228 0.914519
0.946593 0.942535 0.938964
