20 Preset/Gray style/【3】LUT video cho PR-AE-FCPX/Tone  (10).cube
# Created by Adobe Lightroom plugin Export LUT (1.24.0)
# www.johnrellis.com/lightroom/exportlut.htm
# Preset: 10素材江湖-高级灰
# Color profile: E:\lut插件\exportlut.1.24\exportlut.lrplugin\color profiles\Rec709gamma2.4.icc
LUT_3D_SIZE 32
DOMAIN_MIN 0.0 0.0 0.0
DOMAIN_MAX 1.0 1.0 1.0
0.000000 0.000000 0.000000
0.014832 0.003754 0.004852
0.047211 0.010834 0.019043
0.097871 0.025086 0.046113
0.129488 0.047425 0.086519
0.160678 0.072389 0.104311
0.193484 0.087892 0.116945
0.226963 0.093233 0.125460
0.260044 0.096620 0.131350
0.293034 0.099275 0.137148
0.325353 0.100313 0.142306
0.357336 0.101534 0.146059
0.388952 0.101503 0.149569
0.419959 0.101381 0.153780
0.450538 0.102235 0.158114
0.480476 0.104829 0.164981
0.510552 0.111116 0.173342
0.541009 0.118685 0.183200
0.572076 0.126131 0.192813
0.604273 0.134737 0.202609
0.637507 0.143832 0.212680
0.673030 0.153353 0.222354
0.721248 0.164981 0.235538
0.764828 0.177401 0.247135
0.804318 0.189670 0.258518
0.841062 0.202090 0.269230
0.876432 0.214481 0.280186
0.911345 0.227726 0.291356
0.946288 0.242039 0.303136
0.981506 0.258091 0.316106
1.000000 0.276432 0.330663
1.000000 0.297337 0.347631
0.003357 0.013825 0.010468
0.010529 0.011719 0.016266
0.048371 0.020539 0.026734
0.098726 0.033570 0.051698
0.129213 0.056367 0.088716
0.160037 0.079652 0.105013
0.191867 0.090913 0.117006
0.224460 0.096101 0.125826
0.257237 0.100099 0.131685
0.289616 0.102388 0.137301
0.321538 0.103914 0.142000
0.353552 0.104341 0.145876
0.384894 0.104097 0.149447
0.415717 0.104128 0.153902
0.446052 0.104799 0.158297
0.476112 0.106874 0.164279
0.506218 0.112428 0.172427
0.536309 0.120241 0.182406
0.567376 0.127657 0.191806
0.599298 0.135988 0.201724
0.631983 0.144289 0.211215
0.666987 0.152956 0.221134
0.712856 0.164523 0.233219
0.754879 0.175753 0.244785
0.793271 0.187167 0.255467
0.829435 0.198917 0.265721
0.864622 0.210880 0.276493
0.899657 0.224002 0.287083
0.934997 0.237827 0.298711
0.970794 0.253391 0.311437
1.000000 0.270939 0.325963
1.000000 0.291447 0.342473
0.016876 0.057954 0.050477
0.022187 0.059480 0.054658
0.048920 0.053681 0.071870
0.101991 0.070649 0.078767
0.130098 0.089723 0.097566
0.160525 0.098421 0.111208
0.192325 0.103914 0.120851
0.224430 0.108064 0.128054
0.256535 0.110750 0.133883
0.288334 0.112764 0.139406
0.320104 0.114229 0.143587
0.351446 0.114748 0.147219
0.382452 0.114595 0.150790
0.413092 0.114656 0.154635
0.443153 0.115602 0.159030
0.473030 0.117250 0.165011
0.503075 0.121584 0.173190
0.533257 0.128542 0.182650
0.564141 0.134920 0.192233
0.595972 0.142733 0.201907
0.628717 0.150668 0.211643
0.664759 0.159518 0.221622
0.709133 0.169650 0.233036
0.750149 0.180423 0.244297
0.787961 0.191348 0.254398
0.823453 0.201785 0.264622
0.858427 0.213230 0.274968
0.893462 0.225742 0.285557
0.928985 0.239109 0.297002
0.965087 0.254185 0.309483
1.000000 0.271122 0.323705
1.000000 0.291081 0.339788
0.042542 0.106081 0.101472
0.048188 0.106538 0.102480
0.082033 0.105501 0.107881
0.100282 0.103243 0.118166
0.131044 0.108309 0.121035
0.165011 0.119478 0.121584
0.195590 0.124910 0.127413
0.226444 0.128115 0.133211
0.257725 0.129915 0.138094
0.288487 0.131319 0.142794
0.319615 0.132021 0.146700
0.350469 0.132967 0.149813
0.380865 0.133181 0.153506
0.411017 0.132357 0.157198
0.440681 0.132784 0.161379
0.469856 0.134707 0.167117
0.499397 0.138399 0.174533
0.529046 0.143069 0.183902
0.559258 0.148928 0.193332
0.590570 0.155459 0.202335
0.622766 0.162325 0.211643
0.659571 0.170443 0.221714
0.701534 0.180209 0.232425
0.741848 0.189517 0.243046
0.780026 0.199344 0.253513
0.816831 0.209903 0.263706
0.853208 0.221317 0.274144
0.889494 0.232761 0.285161
0.925994 0.245975 0.296574
0.962371 0.260716 0.309117
0.998596 0.276585 0.323156
1.000000 0.294957 0.338750
0.079042 0.138827 0.129030
0.081575 0.138949 0.130007
0.095186 0.138399 0.132479
0.118013 0.136873 0.138399
0.132784 0.133364 0.147738
0.157229 0.134249 0.151980
0.200961 0.143465 0.141970
0.228214 0.152071 0.140444
0.258061 0.153384 0.143954
0.288182 0.154482 0.147829
0.318425 0.154757 0.150820
0.348394 0.154665 0.154391
0.378363 0.155123 0.157351
0.408270 0.154849 0.161074
0.437446 0.155337 0.165530
0.467109 0.156405 0.170748
0.496864 0.159426 0.178317
0.526787 0.164004 0.186740
0.557061 0.168734 0.195865
0.588312 0.174258 0.204990
0.620478 0.180117 0.214023
0.659083 0.188113 0.224308
0.699550 0.196567 0.234440
0.739101 0.205112 0.244388
0.777157 0.214176 0.254368
0.814084 0.223728 0.264530
0.850492 0.233646 0.274907
0.886595 0.244816 0.285588
0.922820 0.257023 0.296971
0.958953 0.270481 0.309209
0.994873 0.285588 0.322728
1.000000 0.302800 0.337835
0.094972 0.171450 0.150668
0.096895 0.171695 0.151247
0.104982 0.171389 0.152621
0.126986 0.169986 0.157534
0.151247 0.167697 0.164492
0.165621 0.162753 0.174044
0.181521 0.160098 0.182437
0.235233 0.168643 0.165408
0.263920 0.175662 0.159823
0.291203 0.181582 0.155154
0.320500 0.181155 0.158083
0.349920 0.181186 0.161044
0.379126 0.181247 0.163943
0.408759 0.180972 0.167147
0.438178 0.181582 0.170993
0.467567 0.182162 0.176699
0.497353 0.184909 0.184024
0.527520 0.188632 0.192081
0.558068 0.192721 0.200809
0.589380 0.197238 0.209537
0.623255 0.203281 0.218387
0.663142 0.210758 0.228763
0.753536 0.235386 0.251957
0.795346 0.245426 0.263371
0.833829 0.255314 0.274418
0.870268 0.265049 0.285130
0.905089 0.275395 0.296025
0.938994 0.286168 0.307012
0.972107 0.298344 0.319158
1.000000 0.311467 0.332311
1.000000 0.326818 0.346593
1.000000 0.343847 0.362493
0.112123 0.211429 0.174929
0.114321 0.211460 0.175570
0.121157 0.211582 0.176974
0.139284 0.210605 0.180362
0.167056 0.207889 0.186221
0.192294 0.204379 0.194217
0.206271 0.197696 0.204135
0.213382 0.192203 0.217136
0.268986 0.199924 0.199680
0.307927 0.206699 0.186374
0.335302 0.212345 0.177066
0.363836 0.215549 0.171115
0.392828 0.214542 0.173709
0.421942 0.213809 0.176883
0.450752 0.213840 0.180941
0.479774 0.214603 0.186435
0.508995 0.216709 0.194125
0.538811 0.219608 0.201724
0.569665 0.223056 0.210086
0.601984 0.227451 0.218265
0.645167 0.235843 0.228824
0.691188 0.244968 0.240085
0.736690 0.254490 0.251164
0.780392 0.264256 0.262669
0.821500 0.273930 0.273747
0.859403 0.283513 0.284672
0.894926 0.292515 0.295323
0.928771 0.302098 0.305913
0.961913 0.312718 0.317388
0.994324 0.324285 0.329747
1.000000 0.337713 0.343511
1.000000 0.353185 0.358953
0.130800 0.241947 0.195773
0.131685 0.241917 0.195773
0.137972 0.241886 0.196841
0.148379 0.241794 0.199283
0.175082 0.239628 0.204105
0.202609 0.236271 0.210178
0.225681 0.232853 0.218235
0.238071 0.225528 0.228244
0.243168 0.219303 0.241093
0.291875 0.225620 0.229007
0.339788 0.233097 0.211887
0.366308 0.237675 0.202090
0.393347 0.242100 0.188846
0.421515 0.243107 0.185489
0.449836 0.242649 0.189303
0.478248 0.243046 0.194705
0.507164 0.244450 0.201358
0.536797 0.246952 0.208347
0.567437 0.249882 0.215732
0.605188 0.256199 0.224735
0.646174 0.263371 0.234501
0.689509 0.271427 0.244327
0.732662 0.279789 0.254337
0.774594 0.288579 0.265049
0.814694 0.297307 0.275578
0.851957 0.305241 0.285924
0.887205 0.313359 0.295933
0.920989 0.321752 0.306340
0.954192 0.331273 0.317418
0.986786 0.341680 0.329503
1.000000 0.353796 0.342962
1.000000 0.367926 0.358007
0.151614 0.271916 0.216098
0.152682 0.271885 0.216098
0.157107 0.271885 0.217166
0.166140 0.271702 0.218936
0.185458 0.270451 0.222416
0.212100 0.267613 0.227451
0.237064 0.264317 0.233707
0.258793 0.261082 0.241459
0.269932 0.253666 0.250858
0.274754 0.246769 0.263157
0.315679 0.252232 0.256840
0.363867 0.259434 0.241123
0.397528 0.264408 0.228214
0.424323 0.268254 0.215702
0.451575 0.272282 0.200748
0.479500 0.272923 0.204074
0.507988 0.274205 0.210056
0.537377 0.275761 0.216434
0.573205 0.280919 0.224613
0.610254 0.286503 0.233005
0.649378 0.293095 0.241581
0.690547 0.300084 0.250034
0.731807 0.307713 0.259281
0.772152 0.315312 0.269139
0.811093 0.323033 0.279057
0.847654 0.330175 0.288701
0.882506 0.337346 0.298405
0.916167 0.344854 0.308476
0.949310 0.353429 0.319310
0.981842 0.362737 0.330877
1.000000 0.373724 0.344213
1.000000 0.386633 0.358862
0.174411 0.301244 0.236027
0.175540 0.301030 0.235935
0.178683 0.300908 0.236576
0.186038 0.300633 0.237980
0.197543 0.300053 0.240208
0.222080 0.297551 0.244114
0.247410 0.294316 0.249516
0.270909 0.291112 0.255711
0.290929 0.287907 0.263157
0.300694 0.280552 0.272282
0.304448 0.273045 0.283635
0.337682 0.277714 0.282414
0.385443 0.284703 0.268284
0.427192 0.290959 0.253269
0.454383 0.295201 0.242679
0.481666 0.299718 0.230289
0.512505 0.305760 0.220005
0.546258 0.309453 0.227085
0.580835 0.314000 0.234195
0.616846 0.318883 0.241489
0.654292 0.324285 0.248783
0.692348 0.329870 0.256657
0.730129 0.335973 0.264347
0.767391 0.341924 0.272740
0.803555 0.347997 0.281254
0.838682 0.353826 0.290074
0.872953 0.360174 0.299290
0.906889 0.366979 0.308904
0.940581 0.374853 0.319646
0.973999 0.383795 0.331579
1.000000 0.394263 0.344640
1.000000 0.406500 0.359869
0.196078 0.328069 0.253788
0.196963 0.328099 0.253880
0.199832 0.328069 0.254337
0.206088 0.328008 0.255650
0.215183 0.327977 0.257786
0.233982 0.326635 0.260960
0.258183 0.324071 0.265171
0.282292 0.321324 0.270756
0.304173 0.318517 0.277409
0.323430 0.315618 0.284703
0.332280 0.308110 0.293797
0.335302 0.300237 0.304387
0.362188 0.304265 0.307744
0.410254 0.311528 0.294621
0.458564 0.320836 0.281437
0.492164 0.327794 0.271763
0.522911 0.333928 0.261326
0.554223 0.340764 0.249485
0.586725 0.346563 0.243595
0.621393 0.350530 0.249729
0.657404 0.355169 0.256291
0.693812 0.360082 0.262913
0.730220 0.365270 0.270237
0.766445 0.370550 0.277867
0.801755 0.375830 0.286107
0.836240 0.381292 0.294255
0.870146 0.386938 0.303136
0.903777 0.393164 0.312657
0.937316 0.400427 0.323095
0.970642 0.408789 0.334936
1.000000 0.418524 0.347997
1.000000 0.430060 0.363104
0.219638 0.357580 0.272282
0.220005 0.357610 0.272282
0.222934 0.357610 0.272953
0.228061 0.357733 0.273960
0.236057 0.357794 0.275792
0.248142 0.357641 0.278447
0.271672 0.355535 0.282353
0.295415 0.353094 0.287205
0.318425 0.350286 0.292943
0.339513 0.347814 0.299718
0.357977 0.345190 0.307134
0.367956 0.339452 0.317510
0.392645 0.349950 0.342565
0.417792 0.355932 0.352911
0.471931 0.365942 0.340917
0.524407 0.376226 0.327245
0.568994 0.385199 0.313878
0.601648 0.391974 0.303532
0.635401 0.399176 0.291356
0.669459 0.406958 0.277684
0.703822 0.411872 0.276097
0.737972 0.415137 0.282536
0.771725 0.418494 0.289464
0.804959 0.422004 0.296788
0.837491 0.425727 0.304448
0.869139 0.429389 0.312444
0.899840 0.433265 0.321019
0.929961 0.437751 0.330053
0.959899 0.443000 0.339940
0.989899 0.449592 0.351354
1.000000 0.457801 0.364294
1.000000 0.468208 0.379431
0.251194 0.397742 0.296635
0.251682 0.397589 0.296635
0.253727 0.397314 0.296910
0.257877 0.396887 0.297673
0.264439 0.396460 0.298772
0.273503 0.395911 0.300542
0.293187 0.394934 0.304234
0.317327 0.393835 0.309331
0.342351 0.392828 0.315435
0.366827 0.392340 0.322881
0.390600 0.392645 0.331640
0.412726 0.393317 0.341711
0.424048 0.388434 0.353918
0.430213 0.382452 0.366796
0.448188 0.386938 0.381415
0.502983 0.396857 0.369177
0.555596 0.406653 0.354925
0.606958 0.416480 0.338567
0.639673 0.422950 0.327825
0.670924 0.429114 0.316258
0.701747 0.435401 0.303624
0.732418 0.442298 0.290135
0.764828 0.445472 0.293675
0.797360 0.448493 0.300694
0.829465 0.451698 0.307866
0.861143 0.455085 0.315465
0.892241 0.458869 0.323735
0.922820 0.463111 0.332891
0.953429 0.468299 0.342931
0.984039 0.474830 0.354528
1.000000 0.482734 0.367712
1.000000 0.492500 0.383185
0.279637 0.436103 0.318608
0.279942 0.435920 0.318425
0.281651 0.435248 0.318608
0.285435 0.434913 0.319371
0.291142 0.434424 0.320378
0.299474 0.434089 0.322026
0.312566 0.433570 0.324681
0.335729 0.431525 0.328649
0.359655 0.429816 0.333867
0.384161 0.428717 0.340246
0.408545 0.428443 0.347906
0.432319 0.428717 0.356970
0.453834 0.429297 0.367041
0.463844 0.423163 0.379004
0.468605 0.415564 0.391150
0.481117 0.417182 0.406561
0.532036 0.425971 0.395880
0.584527 0.435126 0.381109
0.636164 0.444892 0.364752
0.674983 0.452216 0.351049
0.704097 0.457771 0.340459
0.733822 0.463813 0.328954
0.763546 0.470314 0.316716
0.793851 0.477058 0.305730
0.825711 0.480018 0.312840
0.857176 0.483162 0.320317
0.888182 0.486671 0.328618
0.918791 0.490639 0.337469
0.949371 0.495583 0.347601
0.980041 0.501762 0.359472
1.000000 0.509331 0.372808
1.000000 0.518914 0.388525
0.305974 0.474922 0.339574
0.306310 0.474800 0.339391
0.307897 0.474037 0.339513
0.310796 0.473060 0.339757
0.315801 0.471992 0.340429
0.322911 0.470924 0.341588
0.332219 0.470527 0.343664
0.352270 0.468544 0.346685
0.376104 0.466651 0.351324
0.400427 0.465339 0.357214
0.425391 0.464790 0.364202
0.450141 0.464881 0.372534
0.473610 0.464973 0.381964
0.494362 0.464912 0.391669
0.502373 0.456855 0.403143
0.505699 0.447639 0.414466
0.516258 0.447150 0.429114
0.560632 0.454841 0.422553
0.614038 0.463966 0.407446
0.664118 0.472877 0.391150
0.709102 0.481147 0.374548
0.737331 0.486702 0.365057
0.766018 0.492653 0.354498
0.795224 0.499062 0.343359
0.824430 0.505943 0.331548
0.854368 0.511772 0.326116
0.885527 0.515312 0.334356
0.916594 0.519554 0.343542
0.947875 0.524804 0.354437
0.979461 0.531426 0.366979
1.000000 0.539696 0.381781
1.000000 0.549950 0.399176
0.329137 0.511376 0.358129
0.329717 0.511528 0.358312
0.331090 0.511131 0.358556
0.334417 0.510857 0.359075
0.339178 0.510246 0.359869
0.346319 0.510002 0.361303
0.355688 0.510399 0.363592
0.371283 0.510338 0.366796
0.395209 0.508812 0.371313
0.420264 0.507500 0.376745
0.445350 0.506218 0.383062
0.470100 0.504875 0.390265
0.493416 0.503349 0.398016
0.514641 0.501488 0.406256
0.533104 0.499031 0.414893
0.538140 0.488197 0.425330
0.539971 0.477302 0.435859
0.549187 0.475257 0.449989
0.587518 0.482155 0.448127
0.640436 0.491249 0.433326
0.689845 0.500206 0.417884
0.736721 0.509056 0.401556
0.770382 0.515984 0.390204
0.799161 0.522454 0.381109
0.828183 0.529351 0.371496
0.857511 0.536645 0.361089
0.886931 0.544488 0.350622
0.917357 0.550530 0.352087
0.948394 0.555627 0.363104
0.979370 0.561883 0.375799
1.000000 0.569543 0.390784
1.000000 0.579034 0.408118
0.350683 0.547906 0.375952
0.350927 0.547845 0.376043
0.352392 0.547631 0.376379
0.355383 0.547448 0.376776
0.360296 0.547295 0.377874
0.366918 0.547234 0.379278
0.375708 0.547723 0.381384
0.386877 0.548669 0.384375
0.409949 0.547143 0.388464
0.434791 0.545617 0.393347
0.460243 0.544030 0.399207
0.485481 0.542565 0.405829
0.510063 0.540856 0.413275
0.533043 0.538567 0.420935
0.553521 0.535912 0.429114
0.571252 0.532647 0.437629
0.574853 0.520348 0.447974
0.576684 0.509148 0.458625
0.584955 0.505821 0.472908
0.616175 0.511681 0.476295
0.668177 0.520806 0.462104
0.717128 0.529870 0.447608
0.763516 0.538689 0.432105
0.804044 0.546807 0.417792
0.832517 0.553704 0.409918
0.861418 0.560967 0.401648
0.890654 0.568872 0.393164
0.919982 0.577203 0.384649
0.949523 0.586358 0.376623
0.980163 0.593347 0.386450
1.000000 0.601068 0.402106
1.000000 0.610529 0.420539
0.374395 0.587182 0.396246
0.375158 0.587549 0.396551
0.394965 0.613886 0.412573
0.398047 0.613733 0.413092
0.402960 0.613458 0.414191
0.409186 0.613275 0.415412
0.417762 0.613184 0.417487
0.428351 0.613458 0.420233
0.446967 0.612757 0.423957
0.472358 0.610773 0.428931
0.498390 0.608728 0.434485
0.524346 0.606348 0.440955
0.549371 0.603357 0.447486
0.572930 0.599664 0.454505
0.594141 0.595270 0.461769
0.612940 0.590387 0.469184
0.628443 0.584894 0.476600
0.629541 0.569940 0.486366
0.629480 0.556756 0.496315
0.634668 0.550927 0.509728
0.657343 0.555291 0.518669
0.707576 0.563256 0.504082
0.755032 0.571069 0.488991
0.800015 0.578607 0.472999
0.842710 0.585504 0.455634
0.871489 0.591485 0.446143
0.898131 0.597650 0.438087
0.925414 0.604578 0.430365
0.953338 0.612757 0.423560
0.981964 0.622217 0.417945
1.000000 0.632715 0.414954
1.000000 0.642054 0.434089
0.405676 0.631891 0.422980
0.407721 0.634272 0.424537
0.411200 0.636683 0.426520
0.415717 0.638849 0.428687
0.421576 0.640406 0.430884
0.427955 0.641016 0.432593
0.436103 0.641047 0.434668
0.445808 0.641108 0.437140
0.458106 0.641505 0.440620
0.482033 0.639277 0.444923
0.507164 0.637171 0.450080
0.532403 0.634852 0.456001
0.557305 0.631922 0.462257
0.581048 0.628565 0.469032
0.603265 0.624659 0.475990
0.623529 0.620325 0.483406
0.641535 0.615717 0.490852
0.656428 0.610681 0.499123
0.658320 0.597131 0.509819
0.659419 0.585473 0.520836
0.664240 0.580224 0.534874
0.681514 0.585504 0.550500
0.731411 0.594141 0.537438
0.778347 0.602289 0.523705
0.822721 0.609461 0.508263
0.864927 0.616144 0.491646
0.899382 0.622461 0.478676
0.925750 0.629358 0.472694
0.953002 0.637324 0.467414
0.981048 0.646693 0.463539
1.000000 0.657465 0.461402
1.000000 0.669642 0.461372
0.428779 0.661830 0.442969
0.431281 0.664271 0.444862
0.434760 0.666773 0.447059
0.439429 0.669032 0.449470
0.444953 0.670649 0.451789
0.451179 0.671382 0.453773
0.458717 0.671504 0.455726
0.467659 0.671534 0.458259
0.478218 0.671901 0.461402
0.497047 0.670619 0.465400
0.520714 0.668513 0.470161
0.545251 0.666133 0.475746
0.569512 0.663386 0.481758
0.593286 0.660334 0.488258
0.615839 0.656886 0.495277
0.636988 0.652918 0.502556
0.656062 0.648768 0.510033
0.673243 0.644465 0.518029
0.686885 0.639429 0.526665
0.689235 0.627222 0.537499
0.690791 0.616510 0.548547
0.695094 0.611078 0.562127
0.708522 0.616754 0.581720
0.755612 0.625879 0.571832
0.801480 0.634211 0.559442
0.845029 0.641688 0.545739
0.886351 0.648646 0.530999
0.926268 0.655360 0.515282
0.952667 0.663447 0.511772
0.979828 0.672877 0.509636
1.000000 0.683772 0.509483
1.000000 0.696010 0.511254
0.455573 0.693019 0.466316
0.457923 0.695155 0.468147
0.461311 0.697322 0.470314
0.465675 0.699336 0.472755
0.470741 0.700832 0.475074
0.476631 0.701381 0.477119
0.483467 0.701656 0.479042
0.491798 0.701656 0.481422
0.501823 0.701930 0.484749
0.515160 0.701869 0.488441
0.537499 0.699855 0.493080
0.560967 0.697627 0.498512
0.584344 0.695094 0.504387
0.607416 0.692317 0.510643
0.629938 0.689296 0.517388
0.651484 0.686030 0.524620
0.672023 0.683070 0.532464
0.691218 0.680201 0.540948
0.708980 0.677852 0.550256
0.723262 0.674678 0.560754
0.727626 0.665034 0.573266
0.731289 0.657038 0.586023
0.735958 0.652461 0.599908
0.750820 0.659815 0.620935
0.791928 0.670008 0.618280
0.837156 0.679500 0.608453
0.879698 0.688167 0.597864
0.920470 0.696559 0.586694
0.960082 0.704829 0.575097
0.991669 0.714260 0.570459
1.000000 0.725521 0.572686
1.000000 0.737972 0.576776
0.500511 0.737484 0.506035
0.501823 0.738338 0.507042
0.503471 0.738979 0.507897
0.506126 0.739345 0.508934
0.509606 0.739467 0.510033
0.514031 0.739162 0.511162
0.519585 0.738949 0.512627
0.526848 0.738796 0.514733
0.535698 0.738949 0.517723
0.546288 0.739498 0.521569
0.565118 0.738277 0.525963
0.586816 0.736294 0.530877
0.608637 0.734096 0.536339
0.630762 0.731533 0.542077
0.652399 0.728664 0.548272
0.673518 0.725612 0.554803
0.693660 0.722438 0.561730
0.712764 0.719417 0.569268
0.730526 0.716579 0.577356
0.746944 0.714015 0.585931
0.759335 0.709926 0.595605
0.762814 0.700221 0.606928
0.765469 0.691646 0.618219
0.767910 0.685359 0.629999
0.781857 0.692042 0.650355
0.816007 0.701930 0.653101
0.859922 0.712001 0.645106
0.901579 0.721798 0.637140
0.941863 0.731441 0.628931
0.980743 0.741054 0.620600
1.000000 0.750729 0.613642
1.000000 0.763088 0.618830
0.532494 0.767758 0.534783
0.533501 0.768460 0.535698
0.535180 0.769070 0.536553
0.537499 0.769436 0.537560
0.540612 0.769619 0.538659
0.544640 0.769497 0.539788
0.549767 0.769345 0.541222
0.556237 0.769284 0.543206
0.564263 0.769467 0.546044
0.573846 0.769986 0.549584
0.587335 0.769894 0.553674
0.607538 0.768215 0.558373
0.628260 0.766293 0.563378
0.649317 0.764157 0.568994
0.670314 0.761898 0.574884
0.690974 0.759426 0.581292
0.711177 0.756954 0.588128
0.730617 0.754543 0.595544
0.749111 0.752163 0.603296
0.766354 0.750057 0.611719
0.782315 0.748318 0.620752
0.793942 0.744533 0.630671
0.797635 0.735744 0.641962
0.800595 0.728084 0.653315
0.795590 0.714412 0.656977
0.808835 0.720882 0.676936
0.837186 0.731228 0.685451
0.880064 0.742275 0.679683
0.920989 0.753231 0.674220
0.960540 0.764157 0.668910
0.998810 0.775265 0.663935
1.000000 0.786069 0.658839
0.573693 0.804929 0.572778
0.575341 0.806027 0.574182
0.576715 0.806546 0.574975
0.578241 0.806363 0.575402
0.579919 0.805722 0.575372
0.582361 0.804685 0.575433
0.585565 0.803494 0.575616
0.589929 0.802365 0.576196
0.595819 0.801389 0.577478
0.603143 0.800809 0.579492
0.611536 0.800320 0.582147
0.628290 0.798215 0.585504
0.646693 0.795712 0.589258
0.665522 0.792966 0.593347
0.684443 0.789914 0.597803
0.703365 0.786862 0.602747
0.722225 0.783841 0.608301
0.740963 0.781155 0.614649
0.759426 0.779019 0.622004
0.777340 0.777462 0.630426
0.794369 0.776242 0.639368
0.809873 0.775082 0.648737
0.820310 0.771176 0.658473
0.823423 0.762509 0.668940
0.825376 0.754391 0.678889
0.826291 0.747311 0.688563
0.837583 0.752438 0.707088
0.859922 0.762509 0.719997
0.901122 0.773861 0.715816
0.940734 0.785519 0.712398
0.978973 0.797482 0.709712
1.000000 0.809598 0.707668
0.600763 0.829679 0.598352
0.602319 0.830686 0.599725
0.603815 0.831357 0.600671
0.605463 0.831510 0.601312
0.607660 0.831388 0.601953
0.610620 0.831144 0.602716
0.614527 0.830900 0.603937
0.619684 0.830747 0.605615
0.625910 0.830838 0.607782
0.633448 0.831022 0.610651
0.641840 0.831296 0.613855
0.654536 0.830716 0.617639
0.671778 0.828702 0.621424
0.689357 0.826444 0.625391
0.707088 0.823789 0.629541
0.724910 0.820951 0.634058
0.742733 0.818143 0.639002
0.760616 0.815610 0.644800
0.778531 0.813535 0.651575
0.796170 0.812009 0.659266
0.813138 0.810819 0.667811
0.829099 0.809934 0.676753
0.843565 0.809018 0.685786
0.852964 0.805203 0.695460
0.856077 0.797452 0.705776
0.858396 0.790433 0.715816
0.859953 0.784604 0.725673
0.870207 0.789395 0.743526
0.888060 0.800351 0.761532
0.927794 0.812833 0.759945
0.965698 0.825559 0.759274
1.000000 0.838560 0.759518
0.635859 0.859709 0.631830
0.636774 0.860197 0.632624
0.637720 0.860410 0.633051
0.639033 0.860441 0.633539
0.640833 0.860197 0.634028
0.643244 0.859861 0.634577
0.646571 0.859556 0.635492
0.650874 0.859281 0.636805
0.656275 0.859129 0.638666
0.662776 0.859190 0.641138
0.670375 0.859312 0.644129
0.678981 0.859556 0.647578
0.694728 0.857908 0.651240
0.711055 0.855955 0.655024
0.727504 0.853605 0.658869
0.744259 0.851072 0.662989
0.761074 0.848569 0.667597
0.778164 0.846189 0.673030
0.795377 0.844327 0.679347
0.812558 0.842954 0.686519
0.829313 0.841978 0.694545
0.845151 0.841154 0.702937
0.859861 0.840208 0.711391
0.873106 0.839292 0.719875
0.881163 0.835172 0.728908
0.883970 0.827756 0.738399
0.886229 0.821378 0.747890
0.887755 0.815976 0.757290
0.896849 0.820035 0.774014
0.910826 0.831754 0.796201
0.949065 0.845457 0.797360
0.985687 0.859464 0.799496
0.667475 0.886046 0.662531
0.668269 0.886412 0.663172
0.669184 0.886748 0.663783
0.670649 0.886931 0.664424
0.672816 0.887114 0.665431
0.675898 0.887541 0.666896
0.680659 0.888487 0.669490
0.686549 0.889738 0.672816
0.693751 0.891325 0.676967
0.702144 0.893187 0.681819
0.711482 0.895232 0.687312
0.721401 0.897185 0.692988
0.735042 0.898009 0.698665
0.751217 0.897673 0.703975
0.767269 0.896818 0.709010
0.783017 0.895232 0.713588
0.798642 0.893431 0.718288
0.814450 0.891691 0.723415
0.830442 0.890318 0.729366
0.846494 0.889220 0.736110
0.862181 0.888457 0.743435
0.877317 0.887785 0.751095
0.891386 0.887022 0.758785
0.904417 0.886229 0.766506
0.916106 0.885283 0.774105
0.922820 0.881193 0.782315
0.925475 0.874754 0.791135
0.927642 0.869139 0.799893
0.929412 0.864744 0.808927
0.937011 0.868193 0.824186
0.950500 0.880339 0.846464
0.981628 0.894377 0.853239
0.717739 0.923827 0.712062
0.717891 0.923857 0.712154
0.718288 0.923735 0.712184
0.718990 0.923583 0.712367
0.720272 0.923369 0.712673
0.722255 0.923217 0.713313
0.725093 0.923156 0.714382
0.728786 0.923247 0.715938
0.733577 0.923491 0.718135
0.739193 0.923919 0.720760
0.745693 0.924468 0.724025
0.753048 0.925109 0.727657
0.761685 0.925566 0.731624
0.775326 0.924620 0.735470
