20 Preset/Gray style/【3】LUT video cho PR-AE-FCPX/Tone  (8).cube
# Created by Adobe Lightroom plugin Export LUT (1.24.0)
# www.johnrellis.com/lightroom/exportlut.htm
# Preset: 08素材江湖-高级灰
# Color profile: E:\lut插件\exportlut.1.24\exportlut.lrplugin\color profiles\Rec709gamma2.4.icc
LUT_3D_SIZE 8
DOMAIN_MIN 0.000000 0.000000 0.000000
DOMAIN_MAX 0.903226 0.903226 0.903226
0.000000 0.000000 0.000000
0.057954 0.000000 0.004974
0.193240 0.000000 0.053803
0.315099 0.000000 0.104799
0.446845 0.000000 0.126162
0.582849 0.000000 0.162112
0.743526 0.000000 0.212558
0.901305 0.000000 0.272557
0.015900 0.066682 0.026734
0.100038 0.079469 0.010285
0.194125 0.101472 0.076936
0.312016 0.098817 0.108614
0.441444 0.032013 0.129946
0.575128 0.000000 0.164706
0.729915 0.000000 0.212436
0.888457 0.000000 0.270207
0.155886 0.185061 0.124086
0.175479 0.192416 0.121431
0.232242 0.195529 0.119692
0.332799 0.220462 0.138125
0.453346 0.224155 0.157595
0.590234 0.221378 0.191806
0.751583 0.218723 0.238651
0.904967 0.215732 0.294041
0.269261 0.314397 0.216434
0.280797 0.317174 0.216861
0.328527 0.333562 0.201450
0.386847 0.321386 0.193515
0.499611 0.346258 0.213596
0.620813 0.377356 0.247776
0.766140 0.381994 0.280858
0.909422 0.386175 0.327123
0.395178 0.453468 0.317510
0.404211 0.455909 0.319127
0.437659 0.468147 0.310918
0.509728 0.491157 0.289525
0.556725 0.459785 0.281529
0.662837 0.471229 0.291325
0.775601 0.508385 0.327703
0.909422 0.530785 0.372595
0.540764 0.610101 0.422919
0.552117 0.616388 0.427924
0.577752 0.624231 0.424964
0.625238 0.637324 0.406561
0.698116 0.649134 0.377996
0.734218 0.602869 0.372747
0.834165 0.606317 0.385687
0.939422 0.644770 0.435462
0.694697 0.765499 0.555047
0.700740 0.767727 0.557855
0.719844 0.772183 0.560449
0.749538 0.779629 0.545647
0.799313 0.788449 0.519402
0.859586 0.786648 0.493843
0.893919 0.740230 0.487037
0.976349 0.734676 0.503868
0.835355 0.898711 0.698451
0.838560 0.899351 0.699489
0.852354 0.902556 0.704982
0.873289 0.908598 0.701076
0.897215 0.908812 0.675257
0.947570 0.918883 0.655146
0.994415 0.910338 0.642390
1.000000 0.871702 0.640284
0.005341 0.050111 0.099458
0.098238 0.035004 0.116854
0.197513 0.076204 0.137789
0.319188 0.037293 0.159609
0.450446 0.000000 0.159243
0.580163 0.000000 0.187747
0.728878 0.000000 0.229191
0.882536 0.000000 0.280613
0.075532 0.101534 0.110079
0.108003 0.113619 0.124147
0.207889 0.118379 0.138643
0.324590 0.105501 0.151583
0.450141 0.016571 0.163149
0.578943 0.000000 0.191958
0.723415 0.000000 0.230930
0.874815 0.000000 0.280156
0.164401 0.201144 0.171023
0.182162 0.206088 0.173587
0.238132 0.210575 0.166964
0.335607 0.232822 0.179324
0.455848 0.226596 0.188663
0.587610 0.220768 0.215274
0.733547 0.212009 0.251164
0.886046 0.205753 0.299504
0.268254 0.317357 0.242741
0.279637 0.320165 0.244694
0.325597 0.336034 0.234562
0.383429 0.324773 0.221317
0.486580 0.343725 0.234501
0.601984 0.367620 0.260288
0.743313 0.370214 0.287205
0.889494 0.374853 0.329351
0.394293 0.455421 0.334905
0.402441 0.457191 0.335851
0.434302 0.467414 0.330327
0.500969 0.486763 0.308476
0.545922 0.454902 0.295750
0.650446 0.466529 0.303380
0.763394 0.503838 0.336522
0.898589 0.523857 0.377173
0.534051 0.605341 0.430884
0.541588 0.607660 0.432502
0.568231 0.616052 0.433082
0.615686 0.630396 0.416205
0.689876 0.644465 0.389288
0.728145 0.600885 0.383429
0.827695 0.604608 0.394598
0.932219 0.641871 0.440467
0.686458 0.758968 0.556298
0.690242 0.759060 0.556481
0.710384 0.763638 0.561334
0.740536 0.772122 0.547997
0.791958 0.783383 0.525231
0.852811 0.782467 0.499153
0.885588 0.735012 0.489204
0.967926 0.729030 0.502983
0.829313 0.894316 0.696681
0.833555 0.895842 0.699062
0.847257 0.898924 0.704189
0.868986 0.905241 0.702266
0.900420 0.912810 0.688258
0.947601 0.920531 0.664942
0.992950 0.910674 0.648219
1.000000 0.871946 0.644831
0.098482 0.162600 0.224063
0.107546 0.152956 0.235569
0.228244 0.152926 0.267430
0.317754 0.199161 0.286290
0.461799 0.173617 0.309422
0.603357 0.129519 0.326024
0.754574 0.000000 0.340734
0.904601 0.000000 0.362554
0.142702 0.192813 0.231388
0.150271 0.191043 0.241642
0.232486 0.185885 0.269657
0.332799 0.209476 0.291447
0.465827 0.180789 0.303288
0.605982 0.128908 0.313542
0.752865 0.000000 0.324254
0.901122 0.000000 0.349279
0.196475 0.239963 0.257694
0.208438 0.245731 0.264805
0.255650 0.263767 0.283055
0.371191 0.247745 0.273899
0.494301 0.227085 0.274693
0.623987 0.214755 0.293217
0.762356 0.200229 0.319493
0.904875 0.190890 0.357855
0.282200 0.346929 0.325353
0.292912 0.350835 0.328313
0.335973 0.365240 0.336217
0.400580 0.362829 0.318120
0.505150 0.381140 0.325231
0.630671 0.385290 0.335637
0.768521 0.381445 0.354070
0.908019 0.381842 0.387304
0.403418 0.476539 0.399786
0.411505 0.478950 0.401282
0.446967 0.490059 0.408179
0.508049 0.509300 0.391913
0.561425 0.483772 0.371038
0.663661 0.493294 0.373388
0.771908 0.525994 0.398596
0.909331 0.533898 0.429419
0.538811 0.618006 0.481849
0.546105 0.620630 0.483803
0.574243 0.628992 0.490333
0.618036 0.641779 0.479469
0.690211 0.656977 0.453285
0.729946 0.615106 0.439368
0.829252 0.620325 0.447120
0.933318 0.657893 0.488685
0.691676 0.768032 0.596918
0.695399 0.768399 0.597223
0.713802 0.772152 0.601099
0.744808 0.780240 0.597162
0.791104 0.790311 0.575860
0.853147 0.793210 0.550195
0.887572 0.748928 0.537621
0.970855 0.746242 0.549615
0.829343 0.897337 0.718990
0.831907 0.897612 0.719417
0.845090 0.900603 0.724147
0.870573 0.908263 0.731167
0.899474 0.915648 0.717922
0.944976 0.924224 0.697627
0.991638 0.917327 0.679591
1.000000 0.879850 0.673396
0.171633 0.262669 0.354833
0.178073 0.260136 0.362646
0.238315 0.252506 0.386206
0.368353 0.256352 0.416358
0.464118 0.300908 0.433875
0.606287 0.308354 0.469062
0.749538 0.285435 0.487526
0.894316 0.262577 0.507774
0.212100 0.289403 0.363073
0.214969 0.286687 0.368811
0.252750 0.275456 0.390295
0.372686 0.276677 0.419440
0.467659 0.317449 0.437964
0.610956 0.316289 0.469429
0.752346 0.291203 0.484840
0.896635 0.266270 0.503532
0.268193 0.332647 0.372290
0.277562 0.335943 0.376196
0.296635 0.338048 0.397894
0.384344 0.336248 0.426459
0.482704 0.366644 0.450904
0.636439 0.341436 0.467414
0.782101 0.311742 0.476539
0.920531 0.279667 0.487678
0.324804 0.385992 0.406653
0.331579 0.388830 0.410101
0.359716 0.402136 0.425696
0.419104 0.422766 0.442756
0.542016 0.405035 0.431312
0.670039 0.386450 0.429755
0.798642 0.375006 0.441627
0.929747 0.374151 0.467445
0.415290 0.507530 0.479316
0.423957 0.509758 0.483040
0.457130 0.521599 0.494545
0.519280 0.545068 0.505974
0.581384 0.530541 0.479561
0.680568 0.540307 0.480018
0.797360 0.547906 0.490700
0.926726 0.548852 0.511711
0.555138 0.643275 0.562921
0.564263 0.648493 0.567590
0.587549 0.655512 0.572747
0.636622 0.671595 0.584985
0.694514 0.684230 0.561273
0.738460 0.648402 0.534051
0.834043 0.654749 0.537316
0.933776 0.688563 0.568322
0.696376 0.779629 0.654292
0.701106 0.781338 0.655909
0.719936 0.787167 0.661524
0.756893 0.798550 0.672877
0.796750 0.808377 0.658473
0.857053 0.815305 0.631159
0.888273 0.771664 0.611261
0.970855 0.771847 0.618311
0.831662 0.905211 0.758755
0.834470 0.905821 0.759640
0.846708 0.908659 0.763729
0.871336 0.914885 0.772763
0.900114 0.922332 0.769039
0.939879 0.930388 0.750179
0.988373 0.928405 0.729824
1.000000 0.893736 0.721157
0.265019 0.372595 0.485939
0.269902 0.371801 0.491615
0.289128 0.359655 0.509636
0.390814 0.359014 0.540276
0.527825 0.362554 0.569940
0.625086 0.402869 0.581109
0.721736 0.457710 0.608026
0.886015 0.447974 0.643763
0.293095 0.392432 0.492775
0.296574 0.391791 0.498390
0.309422 0.379370 0.515312
0.397375 0.373907 0.542657
0.530236 0.375555 0.571130
0.626642 0.414221 0.582666
0.724941 0.465187 0.610132
0.887480 0.453529 0.643549
0.351232 0.437873 0.502251
0.356085 0.439063 0.506523
0.365972 0.433509 0.520623
0.414466 0.419348 0.546014
0.535088 0.419074 0.571679
0.626001 0.452491 0.583581
0.748501 0.477058 0.614954
0.891783 0.469062 0.638331
0.398444 0.479622 0.515892
0.404425 0.481605 0.518181
0.429633 0.490852 0.528740
0.459632 0.496498 0.556085
0.554009 0.495308 0.582238
0.642664 0.523827 0.600061
0.783627 0.506981 0.615564
0.916442 0.489052 0.624475
0.459327 0.532708 0.546136
0.464759 0.535302 0.548913
0.485664 0.544884 0.559533
0.525078 0.563043 0.579828
0.587396 0.581933 0.593164
0.699123 0.566155 0.583062
0.820951 0.548425 0.581231
0.942718 0.543175 0.594324
0.544060 0.648371 0.610285
0.549371 0.650385 0.612818
0.573266 0.656764 0.623438
0.617884 0.672328 0.641382
0.678309 0.695094 0.652186
0.734279 0.679744 0.627436
0.829038 0.692103 0.631250
0.936706 0.706813 0.647089
0.695735 0.785245 0.709865
0.697902 0.785611 0.709804
0.710384 0.789517 0.711604
0.742947 0.801846 0.721370
0.795224 0.820188 0.737545
0.845151 0.828855 0.712245
0.881254 0.792966 0.685084
0.963256 0.795804 0.687129
0.818601 0.903960 0.790890
0.821225 0.904570 0.791562
0.832822 0.907591 0.795132
0.859464 0.916472 0.806455
0.895354 0.926390 0.819699
0.930297 0.935149 0.807828
0.980774 0.939513 0.784207
1.000000 0.905852 0.770748
0.379156 0.500847 0.631281
0.382940 0.500084 0.635218
0.392645 0.488960 0.644984
0.445289 0.478676 0.664698
0.556420 0.471260 0.690150
0.683772 0.478004 0.710567
0.774350 0.525902 0.719631
0.866148 0.594446 0.749508
0.389563 0.505486 0.625330
0.391394 0.503563 0.627710
0.400061 0.493690 0.638056
0.444526 0.481666 0.657649
0.552850 0.475532 0.684504
0.679744 0.482918 0.706233
0.770291 0.529870 0.716335
0.862791 0.596887 0.747158
0.448249 0.549523 0.635004
0.450172 0.548363 0.637018
0.454871 0.540978 0.646387
0.472511 0.520684 0.662104
0.565728 0.514702 0.687251
0.685695 0.521233 0.708522
0.773312 0.563653 0.720241
0.864958 0.624109 0.752651
0.505974 0.593042 0.638819
0.508537 0.593561 0.640681
0.522698 0.597925 0.651331
0.543145 0.596857 0.673243
0.597101 0.585626 0.699153
0.702968 0.588983 0.718990
0.784695 0.624292 0.732937
0.883482 0.664790 0.766384
0.545251 0.630274 0.654231
0.549218 0.631434 0.655573
0.566064 0.636835 0.661646
0.597894 0.648188 0.674250
0.628138 0.652949 0.698970
0.710719 0.653315 0.720211
0.789090 0.681727 0.739498
0.920439 0.674189 0.759792
0.604730 0.675715 0.678309
0.609400 0.678370 0.681056
0.622065 0.683467 0.686824
0.646113 0.693721 0.698360
0.681422 0.709621 0.716152
0.741390 0.730373 0.731624
0.847562 0.722286 0.729061
0.959808 0.714321 0.734463
0.702113 0.795071 0.754696
0.705562 0.797177 0.756649
0.715511 0.802335 0.761196
0.739071 0.812741 0.772213
0.785245 0.829038 0.793088
0.841550 0.851102 0.805814
0.881346 0.828428 0.774380
0.962066 0.836912 0.776638
0.824002 0.911742 0.841825
0.825864 0.911864 0.842344
0.836545 0.914153 0.846860
0.853513 0.920378 0.851469
0.881285 0.929747 0.858091
0.926146 0.943511 0.875212
0.968688 0.951995 0.854185
1.000000 0.925689 0.835416
0.518547 0.628199 0.753231
0.520745 0.627436 0.755367
0.527337 0.621241 0.762325
0.544182 0.607263 0.776638
0.612177 0.605066 0.794369
0.713039 0.598169 0.817044
0.819089 0.609857 0.832212
0.896117 0.650568 0.839078
0.527489 0.634150 0.752132
0.529473 0.633539 0.754299
0.535302 0.627588 0.761257
0.548089 0.612146 0.774899
0.613397 0.609461 0.792508
0.712032 0.602106 0.814878
0.816953 0.612787 0.829831
0.893584 0.652461 0.836790
0.566369 0.663569 0.755520
0.567224 0.662440 0.757107
0.570733 0.657160 0.763363
0.580102 0.643977 0.776364
0.628046 0.635676 0.793851
0.719356 0.628931 0.816190
0.821592 0.638636 0.832242
0.897490 0.677058 0.841154
0.611749 0.701106 0.759121
0.613428 0.700832 0.760189
0.623224 0.701503 0.766690
0.632044 0.695003 0.779507
0.654566 0.680293 0.797879
0.733242 0.675074 0.820249
0.829984 0.681971 0.836790
0.903258 0.716640 0.847593
0.653437 0.734371 0.763821
0.655665 0.734676 0.764279
0.666194 0.737331 0.767453
0.681453 0.742123 0.779202
0.699214 0.738888 0.799191
0.747127 0.727932 0.822751
0.838407 0.731838 0.840635
0.911925 0.765560 0.856413
0.691188 0.772824 0.783597
0.693538 0.773587 0.784451
0.702998 0.776272 0.787808
0.721248 0.781735 0.794583
0.749203 0.790311 0.805295
0.778164 0.795224 0.829313
0.854398 0.796719 0.850767
0.924163 0.825498 0.870451
0.746212 0.814267 0.806546
0.748348 0.815274 0.807645
0.756069 0.818235 0.811185
0.771633 0.824582 0.818631
0.795560 0.834592 0.830350
0.828946 0.849638 0.847776
0.879698 0.867735 0.863066
0.969757 0.865019 0.865812
0.836973 0.916411 0.878599
0.838529 0.917174 0.879393
0.845304 0.920806 0.882994
0.857816 0.927245 0.889281
0.877470 0.937194 0.898772
0.917296 0.949920 0.919036
0.959899 0.965393 0.931395
0.993225 0.952819 0.910094
0.696345 0.781033 0.885985
0.697414 0.780423 0.887175
0.700099 0.776089 0.890929
0.707424 0.767300 0.899443
0.734249 0.759915 0.911101
0.789609 0.756497 0.925139
0.868406 0.750240 0.942199
0.947082 0.762722 0.951904
0.700435 0.784237 0.885130
0.701442 0.783688 0.886351
0.704250 0.779690 0.890410
0.710964 0.770901 0.898711
0.735836 0.762753 0.910460
0.790341 0.759335 0.924559
0.868223 0.752773 0.941497
0.946715 0.764858 0.951324
0.720516 0.800809 0.885649
0.721096 0.800046 0.886656
0.723049 0.796384 0.890440
0.729488 0.789242 0.899290
0.746365 0.777981 0.911040
0.796506 0.774197 0.924865
0.871244 0.767849 0.941924
0.948547 0.778439 0.952148
0.748989 0.825925 0.886381
0.750881 0.826200 0.887541
0.755825 0.825284 0.891600
0.759792 0.819455 0.899748
0.767575 0.806638 0.912200
0.808408 0.801328 0.926665
0.877592 0.795438 0.943908
0.953063 0.803738 0.954864
0.777890 0.852201 0.886595
0.778897 0.852506 0.887663
0.782223 0.852506 0.891173
0.793423 0.853758 0.899687
0.803220 0.848081 0.912322
0.822721 0.835508 0.928496
0.884764 0.830808 0.946502
0.959319 0.836942 0.958801
0.808865 0.881041 0.897642
0.809873 0.881102 0.897826
0.814755 0.881804 0.899199
0.825467 0.884001 0.902708
0.839048 0.887175 0.911772
0.856321 0.885283 0.930907
0.896239 0.876768 0.951354
0.967834 0.879728 0.964569
0.842222 0.915251 0.916747
0.843259 0.915435 0.917082
0.847898 0.916350 0.918517
0.857664 0.918547 0.921843
0.873167 0.922210 0.927306
0.895415 0.927855 0.935576
0.918120 0.930083 0.953948
0.976989 0.929870 0.970855
0.885954 0.944884 0.932891
0.886839 0.945159 0.933257
0.890990 0.946532 0.935119
0.899809 0.949676 0.939208
0.913481 0.954681 0.945678
0.932799 0.961852 0.954986
0.958373 0.972198 0.968170
0.990173 0.984894 0.981872
