20 Preset/Gray style/【3】LUT video cho PR-AE-FCPX/Tone  (1).cube
# Created by Adobe Lightroom plugin Export LUT (1.24.0)
# www.johnrellis.com/lightroom/exportlut.htm
# Preset: 01素材江湖-高级灰
# Color profile: E:\lut插件\exportlut.1.24\exportlut.lrplugin\color profiles\Rec709gamma2.4.icc
LUT_3D_SIZE 32
DOMAIN_MIN 0.0 0.0 0.0
DOMAIN_MAX 1.0 1.0 1.0
0.000000 0.000000 0.000000
0.000000 0.000000 0.000000
0.000000 0.000000 0.000000
0.000000 0.000000 0.000000
0.004944 0.000519 0.000946
0.098299 0.000183 0.016754
0.132631 0.000000 0.032380
0.162997 0.000000 0.050263
0.194278 0.000000 0.054231
0.224735 0.001007 0.079011
0.256748 0.001434 0.093141
0.289281 0.000000 0.102174
0.321996 0.000000 0.110262
0.354833 0.000000 0.118318
0.386419 0.000000 0.125948
0.417182 0.000000 0.134463
0.447761 0.000000 0.144228
0.478370 0.000000 0.154482
0.509300 0.000000 0.167086
0.541009 0.000000 0.181155
0.573083 0.000000 0.195010
0.605035 0.000000 0.208804
0.650660 0.000000 0.229282
0.702602 0.051118 0.251682
0.747494 0.095369 0.272374
0.787015 0.118013 0.291356
0.823484 0.139803 0.309453
0.858335 0.161105 0.327642
0.892851 0.183078 0.347082
0.928008 0.208408 0.367926
0.964050 0.236484 0.391272
1.000000 0.269688 0.418036
0.000000 0.000000 0.000000
0.000000 0.000000 0.000000
0.000000 0.000000 0.000000
0.000000 0.000000 0.000000
0.004639 0.000519 0.002106
0.096132 0.000824 0.017914
0.129854 0.001007 0.034699
0.159670 0.000000 0.050355
0.190005 0.000000 0.053407
0.219883 0.005158 0.074189
0.250553 0.008301 0.091615
0.282811 0.002716 0.100191
0.315190 0.000000 0.108583
0.347326 0.000000 0.116823
0.379065 0.000000 0.125002
0.409705 0.000000 0.132815
0.440497 0.000000 0.142184
0.470985 0.000000 0.152316
0.501915 0.000000 0.164309
0.533257 0.000000 0.177462
0.564630 0.000000 0.191104
0.595972 0.000000 0.205051
0.639246 0.000000 0.224277
0.687648 0.042786 0.245274
0.730678 0.086732 0.264378
0.769100 0.109499 0.282200
0.805173 0.129000 0.300023
0.840208 0.149264 0.317784
0.875303 0.170840 0.336431
0.911254 0.195193 0.356725
0.948333 0.222324 0.379980
0.986114 0.254398 0.405921
0.000000 0.000000 0.000000
0.000000 0.000000 0.000000
0.000000 0.000000 0.000000
0.000000 0.000000 0.000000
0.015869 0.000397 0.001892
0.099825 0.000702 0.018860
0.131258 0.000336 0.033539
0.159548 0.001465 0.041810
0.188296 0.013153 0.051148
0.217136 0.023560 0.076692
0.247471 0.027802 0.091310
0.279026 0.022827 0.100008
0.311162 0.016327 0.107698
0.342992 0.004608 0.116060
0.374212 0.000000 0.123690
0.404822 0.000000 0.131746
0.435279 0.000000 0.140902
0.465919 0.000000 0.151125
0.496834 0.000000 0.162539
0.528099 0.000000 0.176059
0.559655 0.000000 0.189425
0.590967 0.000000 0.203403
0.634333 0.025666 0.222263
0.680781 0.065064 0.242924
0.722499 0.095644 0.260960
0.759762 0.113008 0.277928
0.795407 0.130556 0.295109
0.830381 0.149172 0.312322
0.865812 0.168978 0.330907
0.902068 0.192111 0.351141
0.939422 0.218112 0.373693
0.977539 0.248753 0.399268
0.000000 0.000000 0.000000
0.000000 0.000000 0.000000
0.000000 0.000000 0.000000
0.000000 0.000000 0.000000
0.047272 0.001160 0.006806
0.107179 0.010346 0.018219
0.133852 0.023682 0.031250
0.160433 0.037781 0.041291
0.188022 0.051331 0.052766
0.216434 0.063416 0.077058
0.246250 0.066163 0.091554
0.277073 0.065888 0.099733
0.308232 0.062593 0.107424
0.339300 0.053132 0.115511
0.369696 0.041993 0.122957
0.399603 0.029938 0.131380
0.429297 0.017456 0.139803
0.458900 0.009705 0.149325
0.488930 0.006806 0.160555
0.519493 0.015869 0.172702
0.550256 0.027161 0.186130
0.581262 0.043885 0.199557
0.624353 0.076387 0.218570
0.668330 0.095003 0.237705
0.710231 0.109743 0.255955
0.749294 0.124849 0.273289
0.787045 0.140841 0.291264
0.824033 0.157565 0.309300
0.860868 0.176333 0.328222
0.897734 0.197574 0.348699
0.934630 0.221653 0.370733
0.971344 0.249332 0.394873
0.005921 0.027863 0.016419
0.006195 0.030060 0.017243
0.005463 0.033417 0.019043
0.010376 0.042908 0.019928
0.040192 0.043427 0.038453
0.108064 0.071321 0.023407
0.133577 0.080507 0.031250
0.159487 0.088075 0.040467
0.186160 0.093019 0.055543
0.213748 0.097597 0.079927
0.242405 0.099611 0.091310
0.272618 0.100404 0.099855
0.303166 0.100008 0.107546
0.334081 0.098543 0.114931
0.364508 0.096254 0.123171
0.394751 0.093385 0.130953
0.424872 0.089631 0.139590
0.454963 0.085115 0.149142
0.485298 0.083436 0.159823
0.515709 0.089113 0.172580
0.546502 0.094148 0.185519
0.578332 0.099794 0.199527
0.621820 0.111177 0.218204
0.664302 0.122560 0.236454
0.705623 0.133486 0.254276
0.744778 0.144503 0.271733
0.782406 0.157565 0.289403
0.819242 0.171725 0.307195
0.855650 0.188113 0.325872
0.891997 0.207034 0.345617
0.928527 0.228336 0.367041
0.964935 0.253544 0.390600
0.019654 0.089784 0.054994
0.020539 0.090608 0.053559
0.023224 0.092592 0.051667
0.042267 0.095796 0.048920
0.079744 0.095277 0.067567
0.090455 0.093294 0.091279
0.124392 0.107729 0.082765
0.163088 0.115877 0.051820
0.188296 0.119478 0.066926
0.215976 0.122438 0.083558
0.244602 0.124605 0.093324
0.274174 0.126101 0.101411
0.304143 0.127260 0.108797
0.334691 0.126802 0.116579
0.364996 0.126345 0.124514
0.395270 0.124086 0.131746
0.425452 0.122896 0.140810
0.455665 0.121889 0.150149
0.486275 0.121798 0.161196
0.516808 0.123873 0.174166
0.547509 0.128389 0.187015
0.584070 0.134615 0.202884
0.697139 0.169802 0.252354
0.747799 0.184909 0.275639
0.791714 0.199313 0.296971
0.830869 0.213382 0.316960
0.866453 0.228458 0.336492
0.899901 0.244022 0.355505
0.932097 0.261570 0.375433
0.963653 0.281376 0.396033
0.994446 0.303868 0.418433
1.000000 0.329046 0.442115
0.065400 0.125612 0.088777
0.068269 0.126070 0.088228
0.077913 0.127382 0.087892
0.090303 0.129397 0.087587
0.104585 0.127352 0.095674
0.116243 0.125246 0.106325
0.122011 0.124788 0.120485
0.153384 0.140871 0.121492
0.207919 0.156527 0.097627
0.235569 0.158663 0.097261
0.265232 0.159915 0.100801
0.295537 0.161746 0.107698
0.325902 0.162203 0.114931
0.355840 0.161776 0.122591
0.385229 0.161105 0.129732
0.414313 0.159731 0.137636
0.443732 0.158572 0.146822
0.473335 0.158663 0.156832
0.503685 0.160311 0.169284
0.535210 0.163241 0.182986
0.568353 0.167117 0.197086
0.619745 0.178744 0.219211
0.673365 0.191226 0.242985
0.725460 0.204562 0.266331
0.772641 0.217960 0.288243
0.813931 0.230503 0.308904
0.850401 0.242802 0.328161
0.883757 0.255589 0.346410
0.915953 0.269963 0.365301
0.947082 0.285863 0.384863
0.977996 0.304845 0.405921
1.000000 0.326909 0.428626
0.093782 0.151431 0.098146
0.095003 0.151583 0.097719
0.098665 0.152773 0.097719
0.107271 0.153170 0.100771
0.118898 0.152377 0.108339
0.130861 0.151125 0.118227
0.140871 0.150057 0.130648
0.146548 0.150057 0.145541
0.174502 0.166079 0.151247
0.231327 0.184237 0.127443
0.267216 0.189029 0.117464
0.295933 0.188571 0.110048
0.325139 0.188907 0.116304
0.353979 0.188907 0.123323
0.382605 0.188693 0.130129
0.410895 0.187778 0.137850
0.439826 0.186862 0.146212
0.468849 0.187289 0.156710
0.498939 0.188907 0.169009
0.529992 0.191501 0.182284
0.570428 0.198184 0.199496
0.618494 0.208499 0.220584
0.667781 0.219364 0.241794
0.716609 0.230411 0.263493
0.761776 0.241672 0.284520
0.801877 0.251926 0.303960
0.837766 0.262242 0.322148
0.871092 0.272557 0.339757
0.903441 0.284459 0.358495
0.934844 0.298100 0.377447
0.966125 0.314305 0.397986
0.996948 0.333593 0.420081
0.113558 0.178042 0.116518
0.114382 0.178347 0.115816
0.117006 0.178988 0.116213
0.123537 0.179812 0.117952
0.134066 0.179110 0.124361
0.146273 0.177951 0.132631
0.157748 0.177157 0.143557
0.167666 0.176822 0.156741
0.173251 0.177066 0.172335
0.197238 0.192447 0.182498
0.254826 0.212497 0.159335
0.299199 0.221012 0.141665
0.327520 0.219333 0.131014
0.355810 0.216922 0.123751
0.383795 0.216587 0.130892
0.411444 0.215824 0.138827
0.439734 0.215793 0.147005
0.468482 0.215732 0.157900
0.498054 0.217502 0.169711
0.532830 0.221927 0.184237
0.575982 0.230381 0.203098
0.620417 0.239292 0.222477
0.666529 0.248783 0.242557
0.712642 0.258579 0.262638
0.755642 0.268254 0.282383
0.794400 0.276768 0.301183
0.829770 0.285100 0.318853
0.862882 0.293950 0.336217
0.895109 0.303960 0.354376
0.926482 0.315648 0.372808
0.957763 0.329747 0.392798
0.988678 0.346502 0.414405
0.132143 0.205356 0.135348
0.132845 0.205447 0.135317
0.134890 0.205844 0.134920
0.140536 0.206790 0.135805
0.150057 0.205631 0.140993
0.161227 0.204654 0.148226
0.173190 0.203555 0.157351
0.184482 0.203037 0.168887
0.193820 0.202945 0.182742
0.199313 0.203769 0.198459
0.219059 0.217472 0.212284
0.275303 0.238499 0.190433
0.327214 0.250584 0.166995
0.355077 0.249058 0.155245
0.383764 0.244999 0.137026
0.412146 0.243595 0.138094
0.441047 0.243870 0.147494
0.470436 0.244846 0.158602
0.503624 0.248722 0.173068
0.543236 0.255985 0.189853
0.582971 0.262943 0.207553
0.622950 0.269810 0.225040
0.663966 0.277195 0.242405
0.704555 0.284215 0.260288
0.743099 0.291234 0.277623
0.779416 0.297734 0.294408
0.813870 0.304448 0.311376
0.847227 0.311955 0.328344
0.880430 0.320745 0.346075
0.913329 0.331518 0.365240
0.946166 0.344488 0.385504
0.978698 0.360204 0.407691
0.149783 0.229770 0.152316
0.150088 0.229740 0.152529
0.152224 0.230289 0.152346
0.156771 0.231479 0.152590
0.165194 0.231144 0.157290
0.175875 0.230564 0.163638
0.188052 0.229862 0.172091
0.200290 0.229801 0.183047
0.211612 0.229770 0.195468
0.221195 0.230411 0.209812
0.226902 0.231907 0.226291
0.241855 0.244114 0.244541
0.298131 0.266026 0.222660
0.350805 0.279332 0.199405
0.385748 0.280766 0.182803
0.414466 0.277195 0.164981
0.443641 0.272374 0.147738
0.477485 0.276738 0.161776
0.513695 0.282475 0.178073
0.550134 0.288212 0.193820
0.587030 0.293736 0.210025
0.624414 0.299596 0.226291
0.663264 0.306004 0.242832
0.701930 0.312139 0.259556
0.739071 0.318242 0.276677
0.774228 0.323857 0.292912
0.808164 0.329778 0.309148
0.841337 0.336217 0.325811
0.874266 0.343969 0.343664
0.907225 0.353552 0.362432
0.940246 0.365087 0.382605
0.972930 0.379309 0.404669
0.168734 0.256931 0.171847
0.169345 0.256992 0.171481
0.171115 0.257542 0.172183
0.174990 0.258549 0.172366
0.182376 0.258976 0.175174
0.192416 0.258701 0.181094
0.204471 0.258274 0.189181
0.217197 0.258549 0.199039
0.229892 0.258549 0.210636
0.241764 0.259251 0.224277
0.251072 0.260441 0.239322
0.256931 0.262181 0.256138
0.291020 0.296208 0.300908
0.349828 0.319646 0.278477
0.404608 0.333867 0.254246
0.453132 0.342168 0.235355
0.493690 0.346044 0.223514
0.533928 0.345251 0.203738
0.573236 0.347845 0.204929
0.612238 0.353979 0.222599
0.651148 0.359625 0.239841
0.688808 0.364782 0.256870
0.725185 0.369635 0.274083
0.760067 0.374243 0.290593
0.793118 0.378363 0.306981
0.824186 0.382116 0.322545
0.853269 0.385962 0.337896
0.881315 0.390051 0.353246
0.909087 0.395239 0.369329
0.937346 0.402441 0.386542
0.965820 0.411872 0.405371
0.994934 0.424292 0.426795
0.198123 0.297581 0.201480
0.198520 0.297490 0.201205
0.200015 0.297490 0.200900
0.202823 0.297612 0.200809
0.208408 0.297612 0.202090
0.217594 0.296391 0.207034
0.228580 0.295415 0.213779
0.240970 0.294865 0.222660
0.254276 0.294896 0.233616
0.267643 0.296025 0.246738
0.280491 0.298070 0.261967
0.291691 0.301366 0.279484
0.299809 0.305455 0.298741
0.314305 0.321813 0.330053
0.380621 0.354376 0.317296
0.444068 0.376928 0.299840
0.504234 0.391699 0.278935
0.539330 0.391699 0.265080
0.574365 0.388251 0.245640
0.609247 0.382269 0.221073
0.644251 0.386084 0.236728
0.679255 0.389715 0.252628
0.713375 0.393103 0.268742
0.746853 0.396796 0.284276
0.779110 0.400031 0.299870
0.810086 0.403204 0.315526
0.839689 0.406561 0.330755
0.868681 0.410407 0.346319
0.897734 0.415351 0.362707
0.927092 0.422156 0.380438
0.956695 0.430945 0.399756
0.986511 0.442237 0.421118
0.216648 0.321935 0.219852
0.216678 0.321721 0.219760
0.217563 0.321447 0.219089
0.220066 0.321508 0.218509
0.223880 0.321752 0.218753
0.232364 0.320439 0.222782
0.242588 0.319554 0.229007
0.254582 0.319097 0.236851
0.267552 0.319371 0.246799
0.281254 0.320470 0.258946
0.295232 0.322637 0.273075
0.312810 0.329931 0.293278
0.329473 0.338964 0.316075
0.343389 0.349004 0.340642
0.359503 0.366369 0.373419
0.418616 0.395331 0.361273
0.479133 0.415564 0.340551
0.536736 0.428656 0.317174
0.576043 0.430060 0.299565
0.608057 0.425818 0.281132
0.640650 0.419409 0.258213
0.673762 0.416205 0.249729
0.706600 0.418982 0.264897
0.739284 0.421851 0.280766
0.771115 0.424750 0.296025
0.801755 0.427436 0.311559
0.831540 0.430396 0.326787
0.860716 0.433722 0.342290
0.889982 0.438270 0.358862
0.919829 0.444465 0.376745
0.949950 0.452552 0.396338
0.980407 0.463142 0.418036
0.235508 0.347539 0.239048
0.235782 0.347448 0.239048
0.236484 0.347204 0.238651
0.238712 0.347021 0.237888
0.242161 0.347051 0.237369
0.249241 0.346044 0.240391
0.259312 0.346044 0.246555
0.271916 0.347692 0.255283
0.286870 0.350042 0.266239
0.303105 0.353643 0.279545
0.320439 0.358862 0.295445
0.338628 0.365393 0.313909
0.356329 0.373053 0.334447
0.371893 0.381140 0.356359
0.383886 0.389014 0.379065
0.397284 0.403418 0.408515
0.449866 0.429480 0.398535
0.508080 0.448615 0.376135
0.564385 0.461341 0.352056
0.609857 0.465705 0.330480
0.640070 0.461189 0.313664
0.670985 0.455116 0.293370
0.702113 0.447181 0.268406
0.733608 0.447608 0.277684
0.764675 0.449836 0.292790
0.795102 0.452308 0.308110
0.825223 0.455207 0.323552
0.855528 0.458839 0.340124
0.886290 0.463935 0.357519
0.917876 0.470893 0.377020
0.950011 0.479988 0.398444
0.982238 0.491676 0.422431
0.262394 0.382116 0.265629
0.262608 0.382391 0.265568
0.263523 0.382666 0.265690
0.265995 0.383154 0.266087
0.269932 0.384100 0.265782
0.276707 0.385016 0.268528
0.287144 0.385840 0.274937
0.299565 0.387488 0.282933
0.314031 0.389929 0.293156
0.329992 0.393042 0.305486
0.346624 0.396826 0.319371
0.363745 0.401221 0.334966
0.380133 0.406165 0.352239
0.395117 0.411139 0.370397
0.407538 0.416022 0.389410
0.416052 0.420691 0.408850
0.427253 0.432502 0.435706
0.474159 0.456580 0.428595
0.531304 0.475837 0.406165
0.587243 0.489357 0.382513
0.639948 0.497902 0.358495
0.669825 0.494484 0.343816
0.700282 0.489387 0.326146
0.731197 0.482643 0.304814
0.762325 0.477455 0.291203
0.793393 0.480049 0.307225
0.824186 0.483192 0.323491
0.854887 0.486976 0.340490
0.885801 0.491768 0.358404
0.916899 0.497993 0.377935
0.948089 0.505913 0.398993
0.979400 0.516167 0.422278
0.287633 0.415503 0.290471
0.287724 0.415534 0.290471
0.288823 0.415778 0.290654
0.290867 0.416236 0.290318
0.294285 0.417029 0.290501
0.300084 0.418128 0.291783
0.309392 0.418830 0.297368
0.321447 0.419867 0.304601
0.334722 0.421607 0.313695
0.349432 0.424048 0.324285
0.365454 0.427161 0.336767
0.381933 0.430701 0.350713
0.398505 0.434730 0.366308
0.414069 0.438788 0.382818
0.427832 0.442725 0.400122
0.438819 0.446540 0.417975
0.446509 0.450294 0.436347
0.457130 0.461433 0.462501
0.499733 0.484718 0.459937
0.556695 0.504662 0.437354
0.612390 0.519158 0.414405
0.665095 0.528527 0.391028
0.700587 0.528496 0.374670
0.730556 0.524224 0.358984
0.760983 0.518517 0.340612
0.791989 0.510979 0.318425
0.823362 0.511070 0.323400
0.854582 0.515099 0.341039
0.885924 0.520226 0.359869
0.917418 0.526390 0.380011
0.948882 0.534325 0.401770
0.980224 0.544213 0.425940
0.313542 0.449378 0.315496
0.314122 0.449897 0.315831
0.339239 0.481086 0.338598
0.341222 0.481575 0.338659
0.344549 0.482368 0.338872
0.349096 0.483467 0.338750
0.358099 0.483680 0.343481
0.369360 0.484474 0.350134
0.382910 0.486000 0.358679
0.398077 0.488289 0.368933
0.414527 0.491066 0.380835
0.431647 0.494270 0.394263
0.448188 0.496986 0.408392
0.463905 0.499550 0.423346
0.478004 0.501549 0.438880
0.489784 0.503288 0.454810
0.498390 0.504448 0.470954
0.503746 0.505974 0.487617
0.512444 0.514946 0.512108
0.550317 0.536095 0.511711
0.604700 0.554376 0.487312
0.657404 0.567132 0.463447
0.707576 0.574945 0.439033
0.747341 0.575952 0.418250
0.773953 0.569940 0.402289
0.801175 0.562615 0.383886
0.829099 0.553948 0.362676
0.858183 0.546166 0.344640
0.887877 0.549828 0.362799
0.918425 0.555261 0.382788
0.949493 0.562524 0.404852
0.980407 0.571801 0.429084
0.345647 0.491859 0.345708
0.348180 0.494942 0.348058
0.351751 0.498451 0.350347
0.355810 0.501762 0.352575
0.360601 0.504692 0.354223
0.365423 0.506523 0.354864
0.372992 0.507286 0.357824
0.383307 0.507378 0.363531
0.395514 0.508293 0.370947
0.409339 0.509758 0.379828
0.424598 0.511864 0.390478
0.440711 0.514275 0.402258
0.456764 0.516472 0.415106
0.472297 0.518639 0.428626
0.487007 0.520470 0.443091
0.500175 0.522179 0.458167
0.511437 0.523705 0.473793
0.520562 0.525719 0.490211
0.527367 0.528618 0.508080
0.537499 0.538750 0.533501
0.571801 0.560174 0.539361
0.626429 0.580163 0.517021
0.678126 0.593896 0.494636
0.727321 0.602258 0.471107
0.772488 0.605554 0.446479
0.798428 0.600336 0.432197
0.825254 0.593957 0.415534
0.853361 0.586847 0.397314
0.883268 0.579706 0.377874
0.914305 0.579614 0.380438
0.945495 0.586694 0.403052
0.976776 0.595758 0.427985
0.363867 0.516808 0.362463
0.366796 0.520226 0.364965
0.370367 0.524041 0.367346
0.374609 0.527794 0.369848
0.379248 0.530877 0.371557
0.383948 0.532738 0.372320
0.390112 0.533806 0.373724
0.399786 0.533928 0.378973
0.411139 0.534478 0.385657
0.423957 0.535363 0.393530
0.438361 0.536889 0.402991
0.453864 0.538811 0.413886
0.469581 0.540703 0.425574
0.485328 0.542687 0.438514
0.500511 0.544518 0.452155
0.514641 0.546105 0.466407
0.527428 0.547631 0.481300
0.538476 0.549432 0.497169
0.547814 0.551904 0.514153
0.555138 0.555505 0.532586
0.565148 0.565606 0.558251
0.595453 0.586450 0.569512
0.648737 0.607172 0.549187
0.699489 0.621424 0.527459
0.747066 0.629847 0.504265
0.792386 0.633936 0.479774
0.823178 0.631128 0.462989
0.850126 0.626062 0.448554
0.878904 0.621241 0.433814
0.909758 0.616419 0.418463
0.942229 0.611566 0.402350
0.973571 0.619928 0.427070
0.383276 0.543816 0.379675
0.385992 0.547112 0.382055
0.389502 0.550652 0.384558
0.393317 0.554131 0.386664
0.397620 0.557000 0.388342
0.402106 0.558740 0.388922
0.407050 0.560052 0.389197
0.415991 0.560204 0.393774
0.427008 0.560662 0.400000
0.439063 0.561395 0.407324
0.452918 0.562676 0.416175
0.467781 0.564202 0.426215
0.483162 0.565850 0.437293
0.498939 0.567559 0.449409
0.514427 0.569390 0.462562
0.529717 0.571405 0.476722
0.544732 0.574182 0.492348
0.559014 0.577508 0.509239
0.572595 0.582025 0.527977
0.584955 0.587793 0.548516
0.595666 0.594903 0.570245
0.608942 0.608118 0.598413
0.637232 0.630030 0.615869
0.690425 0.652796 0.599115
0.740414 0.668696 0.581018
0.787686 0.678737 0.560937
0.832853 0.684291 0.539086
0.870451 0.685115 0.521111
0.898558 0.682948 0.511192
0.928313 0.680659 0.501030
0.959503 0.678431 0.490974
0.991882 0.675837 0.480720
0.420417 0.592920 0.413336
0.421759 0.594324 0.414466
0.423468 0.595514 0.415351
0.425483 0.596399 0.415778
0.427863 0.597040 0.415686
0.431037 0.597345 0.415381
0.435035 0.597772 0.414954
0.442390 0.597925 0.417731
0.452735 0.598108 0.423590
0.464942 0.598901 0.430884
0.478737 0.600183 0.439521
0.493355 0.601770 0.449439
0.508629 0.603174 0.460151
0.524437 0.604761 0.471931
0.540124 0.606226 0.484596
0.555596 0.607813 0.498329
0.570642 0.609735 0.513024
0.585199 0.612085 0.529107
0.598718 0.615137 0.546349
0.611322 0.619074 0.564569
0.622278 0.623835 0.583581
0.631495 0.629755 0.603479
0.642359 0.640497 0.628687
0.664363 0.659083 0.647944
0.714107 0.680323 0.630976
0.761807 0.695949 0.613733
0.807858 0.707027 0.595697
0.852689 0.714473 0.577020
0.895842 0.718807 0.558190
0.923919 0.718776 0.551812
0.953307 0.718563 0.545403
0.983825 0.718227 0.539178
0.441382 0.620417 0.432136
0.442603 0.621607 0.433051
0.444160 0.622766 0.433783
0.446235 0.623651 0.434455
0.448524 0.624323 0.434546
0.451606 0.624750 0.434363
0.455451 0.625208 0.433967
0.461463 0.625757 0.435309
0.471351 0.626032 0.440742
0.483223 0.626795 0.447791
0.496315 0.627893 0.456153
0.510765 0.629450 0.465644
0.525872 0.630915 0.476112
0.541741 0.632593 0.487892
0.557763 0.634394 0.500603
0.573907 0.636316 0.514305
0.589868 0.638666 0.529412
0.605463 0.641352 0.545312
0.620325 0.644678 0.562280
0.634333 0.648615 0.579980
0.647272 0.653468 0.598596
0.658625 0.659052 0.617884
0.668147 0.665370 0.637629
0.678981 0.676020 0.662074
0.684993 0.681300 0.672816
0.732326 0.702235 0.657038
0.779202 0.718868 0.641627
0.824704 0.731350 0.625971
0.869108 0.740597 0.610132
0.912993 0.747127 0.593774
0.945586 0.750271 0.587304
0.974914 0.752529 0.584985
0.475319 0.661036 0.463142
0.477363 0.663050 0.464912
0.478828 0.664027 0.465644
0.479896 0.663996 0.465248
0.480690 0.663172 0.464302
0.481941 0.661952 0.462562
0.483772 0.660487 0.460761
0.486671 0.659297 0.458747
0.494240 0.657649 0.462165
0.503716 0.656519 0.467262
0.514549 0.655573 0.473365
0.527001 0.655390 0.481209
0.540520 0.655360 0.490120
0.554498 0.655360 0.499977
0.568475 0.655268 0.510491
0.582910 0.655451 0.522210
0.597436 0.656153 0.535149
0.612268 0.657832 0.549462
0.627436 0.660761 0.565484
0.642786 0.664973 0.583032
0.657435 0.670161 0.601526
0.670619 0.675624 0.620508
0.681605 0.681117 0.639124
0.689876 0.686397 0.657343
0.698268 0.694667 0.679255
0.711421 0.709010 0.702937
0.755734 0.728725 0.687251
0.800107 0.744869 0.672480
0.843809 0.757626 0.658106
0.887053 0.767727 0.644251
0.929839 0.775723 0.630671
0.966613 0.781216 0.622492
0.491371 0.681636 0.477424
0.493385 0.683497 0.479194
0.495125 0.684810 0.480446
0.496620 0.685328 0.480659
0.498238 0.685451 0.480323
0.500542 0.685420 0.479896
0.503593 0.685573 0.479561
0.507866 0.686061 0.479103
0.515343 0.686488 0.482094
0.525902 0.686824 0.488411
0.537682 0.687190 0.495644
0.550652 0.687739 0.504082
0.564355 0.688167 0.513329
0.578363 0.688350 0.523186
0.592279 0.688289 0.533593
0.606409 0.688258 0.544671
0.620661 0.688624 0.556725
0.635157 0.689845 0.570001
0.650324 0.692287 0.585016
0.665736 0.695979 0.601495
0.680903 0.700557 0.619135
0.695125 0.705806 0.637385
0.707759 0.711269 0.655787
0.718441 0.716823 0.674128
0.726741 0.722316 0.692073
0.735225 0.730617 0.713375
0.747768 0.744869 0.737789
0.788174 0.764218 0.726589
0.831266 0.781430 0.714748
0.873472 0.795438 0.703639
0.914885 0.806943 0.693233
0.955474 0.816312 0.683253
0.519188 0.713252 0.503197
0.520378 0.714199 0.504021
0.521416 0.714717 0.504570
0.522515 0.714931 0.504662
0.523796 0.714839 0.504082
0.525597 0.714595 0.503502
0.528191 0.714504 0.502678
0.531670 0.714656 0.502037
0.537102 0.715053 0.502831
0.547143 0.715084 0.508812
0.558373 0.715175 0.515770
0.570947 0.715663 0.523949
0.584222 0.716152 0.532952
0.597833 0.716365 0.542351
0.611444 0.716304 0.552270
0.625177 0.716213 0.562707
0.639155 0.716426 0.574029
0.653620 0.717372 0.586633
0.668757 0.719478 0.600855
0.684230 0.722805 0.616571
0.699641 0.726986 0.633417
0.714290 0.731685 0.650843
0.727565 0.736507 0.668360
0.739132 0.741360 0.685817
0.748684 0.746151 0.702907
0.756069 0.750851 0.719661
0.763607 0.758267 0.739620
0.775143 0.771389 0.762631
0.810971 0.789822 0.755795
0.852781 0.807980 0.746609
0.893492 0.823270 0.738521
0.933288 0.836362 0.731563
0.542687 0.739742 0.524804
0.543694 0.740475 0.525780
0.544854 0.741238 0.526390
0.546258 0.741726 0.526635
0.548394 0.742458 0.527184
0.551629 0.743648 0.528099
0.556786 0.746090 0.530205
0.563348 0.749203 0.532952
0.571649 0.753231 0.536370
0.584466 0.757107 0.545159
0.599603 0.761166 0.556146
0.615381 0.765072 0.567803
0.631708 0.768673 0.579919
0.647700 0.771542 0.591882
0.663325 0.773648 0.603662
0.677790 0.774685 0.614862
0.692103 0.775479 0.626398
0.706630 0.776669 0.638727
0.721614 0.778775 0.652430
0.736965 0.781765 0.667384
0.752102 0.785458 0.683284
0.766506 0.789548 0.699580
0.779629 0.793545 0.715816
0.791257 0.797543 0.731930
0.801053 0.801419 0.747677
0.809171 0.805295 0.763058
0.815579 0.809445 0.778317
0.821805 0.815610 0.796109
0.831662 0.826902 0.816495
0.860716 0.842893 0.813657
0.897978 0.860227 0.807309
0.933898 0.875181 0.802609
0.597253 0.792569 0.576684
0.597406 0.792630 0.576654
0.597559 0.792508 0.576410
0.598138 0.792294 0.576104
0.599084 0.792142 0.575616
0.600763 0.792172 0.575219
0.603388 0.792538 0.575097
0.607019 0.793332 0.575311
0.611902 0.794644 0.576043
0.619715 0.795956 0.579400
0.630976 0.797086 0.586999
0.643336 0.798428 0.595453
0.656764 0.799710 0.604730
0.670375 0.800839 0.614466
