20 Preset/Gray style/【3】LUT video cho PR-AE-FCPX/Tone  (9).cube
# Created by Adobe Lightroom plugin Export LUT (1.24.0)
# www.johnrellis.com/lightroom/exportlut.htm
# Preset: 09素材江湖-高级灰
# Color profile: E:\lut插件\exportlut.1.24\exportlut.lrplugin\color profiles\Rec709gamma2.4.icc
LUT_3D_SIZE 32
DOMAIN_MIN 0.0 0.0 0.0
DOMAIN_MAX 1.0 1.0 1.0
0.000000 0.000000 0.000000
0.000000 0.000000 0.000000
0.034302 0.000549 0.001526
0.096437 0.006653 0.008087
0.131319 0.022827 0.028199
0.169009 0.039490 0.046784
0.208652 0.051423 0.064210
0.248020 0.059327 0.074861
0.286748 0.062226 0.077729
0.325109 0.061616 0.073610
0.362860 0.055573 0.067384
0.400122 0.049378 0.053712
0.437873 0.037018 0.040955
0.475685 0.033204 0.028168
0.513664 0.030213 0.025422
0.551843 0.026459 0.024811
0.590509 0.029114 0.023957
0.629267 0.033478 0.024781
0.668086 0.030182 0.026246
0.706844 0.029572 0.029236
0.743984 0.036988 0.034516
0.779416 0.043061 0.044862
0.813352 0.051667 0.059785
0.846891 0.065705 0.078676
0.880278 0.080171 0.092073
0.913176 0.092287 0.104097
0.945617 0.103304 0.117525
0.977539 0.114809 0.131624
1.000000 0.126894 0.147158
1.000000 0.141787 0.163790
1.000000 0.157748 0.181643
1.000000 0.175692 0.201022
0.000671 0.000977 0.002106
0.000977 0.000977 0.000977
0.038819 0.004486 0.003143
0.098360 0.014923 0.009125
0.132723 0.029908 0.029389
0.170382 0.047303 0.050080
0.209781 0.059236 0.065217
0.248844 0.068360 0.075715
0.287572 0.074434 0.076967
0.325902 0.073610 0.074006
0.363775 0.067079 0.066621
0.401404 0.059785 0.052918
0.439063 0.047211 0.040131
0.476875 0.044129 0.028321
0.514885 0.038300 0.024689
0.552972 0.038911 0.024628
0.591669 0.041138 0.023743
0.630304 0.041138 0.025208
0.669398 0.042786 0.026825
0.708186 0.040314 0.029938
0.745083 0.049592 0.035096
0.780606 0.052613 0.045686
0.814542 0.062959 0.059174
0.848142 0.078340 0.079500
0.881437 0.086763 0.092683
0.914397 0.095644 0.105226
0.946777 0.105867 0.118563
0.978607 0.117433 0.132753
1.000000 0.129793 0.147829
1.000000 0.144503 0.164553
1.000000 0.160128 0.182467
1.000000 0.177401 0.202029
0.008637 0.033234 0.014496
0.014557 0.034730 0.016449
0.029145 0.032685 0.028840
0.101472 0.054932 0.018158
0.135714 0.069459 0.037263
0.172946 0.084810 0.056519
0.212161 0.091585 0.070069
0.251072 0.095125 0.078126
0.289647 0.096315 0.079072
0.327825 0.095552 0.076814
0.365423 0.094484 0.066712
0.402808 0.092287 0.052857
0.440345 0.088380 0.039765
0.478279 0.082033 0.029999
0.516167 0.081880 0.026734
0.554437 0.083680 0.025025
0.592950 0.083070 0.025757
0.631769 0.083619 0.026856
0.670619 0.085054 0.027344
0.709163 0.086183 0.031159
0.746242 0.088106 0.036896
0.781491 0.090455 0.048371
0.815427 0.093416 0.063264
0.849027 0.098207 0.082155
0.882322 0.103212 0.094881
0.915068 0.110445 0.106416
0.947509 0.118776 0.119844
0.979278 0.128817 0.134096
1.000000 0.140352 0.149142
1.000000 0.153536 0.166079
1.000000 0.167758 0.183658
1.000000 0.184421 0.203189
0.039765 0.093111 0.055665
0.045686 0.093660 0.057588
0.068605 0.092927 0.073213
0.087556 0.092744 0.092683
0.141329 0.109010 0.062043
0.178531 0.113588 0.070192
0.216770 0.118044 0.079316
0.254887 0.120821 0.082826
0.292912 0.121920 0.082277
0.330632 0.122194 0.078096
0.368017 0.119905 0.069856
0.405310 0.118502 0.055848
0.442634 0.116304 0.042420
0.480476 0.114534 0.030884
0.518395 0.114534 0.027436
0.556451 0.114687 0.028290
0.595026 0.115023 0.028534
0.633722 0.116426 0.030152
0.672847 0.116762 0.031556
0.711452 0.117220 0.035157
0.748287 0.119051 0.041596
0.783413 0.119234 0.053834
0.817105 0.121431 0.071046
0.850462 0.124544 0.086488
0.883452 0.128756 0.097627
0.916075 0.133852 0.109529
0.948211 0.140230 0.122866
0.979828 0.148165 0.136507
1.000000 0.157412 0.151949
1.000000 0.168673 0.168338
1.000000 0.181369 0.186099
1.000000 0.196597 0.205661
0.083070 0.126436 0.097780
0.085512 0.126864 0.098451
0.095766 0.126619 0.101961
0.109529 0.126040 0.110597
0.119417 0.125490 0.123232
0.176089 0.146700 0.106477
0.223789 0.151369 0.091249
0.261082 0.152071 0.088167
0.298436 0.152987 0.086336
0.335393 0.152743 0.082338
0.371862 0.151827 0.072816
0.409033 0.150027 0.059205
0.446082 0.149020 0.045319
0.483711 0.148104 0.034607
0.521294 0.148287 0.034394
0.559350 0.148226 0.035218
0.597742 0.148836 0.035157
0.636194 0.149569 0.035767
0.674983 0.149294 0.039918
0.713375 0.149874 0.043397
0.749905 0.151186 0.052277
0.784848 0.152407 0.064912
0.818326 0.153292 0.080995
0.851591 0.154574 0.092531
0.884428 0.158083 0.102785
0.916869 0.162264 0.114229
0.948882 0.166812 0.126741
0.980377 0.172824 0.140627
1.000000 0.180728 0.155459
1.000000 0.190188 0.171908
1.000000 0.201358 0.189609
1.000000 0.214267 0.209201
0.103151 0.160311 0.117800
0.105348 0.160708 0.118257
0.112367 0.161166 0.120058
0.126833 0.160464 0.127565
0.142306 0.159762 0.138979
0.152529 0.159091 0.153780
0.207004 0.181369 0.140932
0.268589 0.191165 0.106722
0.304021 0.187045 0.092897
0.340124 0.186740 0.089296
0.376410 0.185946 0.081300
0.412879 0.184482 0.069795
0.449805 0.183749 0.055726
0.486793 0.183169 0.047303
0.524224 0.183566 0.046784
0.562005 0.183505 0.046448
0.600153 0.183780 0.048798
0.638544 0.184115 0.049561
0.677211 0.184482 0.053101
0.715084 0.185153 0.056641
0.751339 0.185946 0.066987
0.785916 0.185855 0.080568
0.813260 0.185092 0.088197
0.846525 0.186496 0.097078
0.879515 0.188388 0.106661
0.912169 0.191135 0.118044
0.944457 0.194858 0.130282
0.976165 0.199710 0.143709
1.000000 0.205509 0.158267
1.000000 0.213565 0.174350
1.000000 0.222812 0.191928
1.000000 0.233921 0.210819
0.122347 0.192935 0.137423
0.123690 0.193301 0.137545
0.129915 0.194339 0.138857
0.143343 0.193576 0.145083
0.158785 0.193118 0.154696
0.174197 0.192569 0.167697
0.185306 0.192691 0.184909
0.233890 0.214023 0.178775
0.309178 0.230686 0.130220
0.343786 0.224369 0.110567
0.378668 0.220249 0.094423
0.414832 0.219364 0.088106
0.451179 0.218418 0.079164
0.487861 0.218143 0.071260
0.525078 0.218509 0.069612
0.562707 0.218479 0.069306
0.600763 0.219089 0.068940
0.638941 0.219547 0.070710
0.677180 0.219944 0.074464
0.714717 0.220066 0.079286
0.750515 0.220371 0.085573
0.784298 0.220523 0.091493
0.817075 0.220371 0.098390
0.849516 0.221317 0.106416
0.881926 0.222416 0.115846
0.914092 0.224430 0.126528
0.946105 0.226963 0.138155
0.977630 0.230991 0.151064
1.000000 0.236179 0.165408
1.000000 0.242100 0.181399
1.000000 0.249943 0.198550
1.000000 0.259892 0.217594
0.143893 0.227787 0.161135
0.145571 0.227695 0.160739
0.150881 0.228611 0.161593
0.161593 0.228489 0.166201
0.177279 0.228275 0.175021
0.193942 0.228092 0.186740
0.209537 0.228214 0.201541
0.220645 0.228580 0.219699
0.263310 0.248844 0.220554
0.340917 0.268376 0.171084
0.385473 0.265751 0.139376
0.420386 0.256931 0.106783
0.456397 0.255650 0.097780
0.493019 0.255589 0.095033
0.529900 0.255528 0.093843
0.567224 0.255772 0.092744
0.605097 0.255772 0.093233
0.643091 0.256596 0.092744
0.681361 0.256748 0.094087
0.718318 0.256779 0.096101
0.753414 0.256474 0.099580
0.786923 0.256260 0.104433
0.819425 0.256016 0.110597
0.851713 0.256199 0.118349
0.883848 0.256901 0.126680
0.915923 0.258152 0.137087
0.947601 0.260685 0.147921
0.978973 0.263523 0.160494
1.000000 0.267552 0.174563
1.000000 0.272892 0.190066
1.000000 0.279484 0.206943
1.000000 0.287846 0.225437
0.168215 0.262242 0.186740
0.169192 0.262364 0.186862
0.173281 0.262943 0.187106
0.182559 0.263401 0.190463
0.196872 0.263188 0.198245
0.213046 0.263371 0.208255
0.229801 0.263371 0.221073
0.245090 0.263798 0.236759
0.256229 0.264927 0.255070
0.292393 0.283482 0.262669
0.370489 0.304906 0.216159
0.426734 0.308263 0.175051
0.462104 0.299901 0.144198
0.497780 0.293187 0.116365
0.534661 0.293187 0.114443
0.571862 0.293309 0.112337
0.609522 0.293339 0.111391
0.647364 0.293614 0.111208
0.685176 0.293980 0.110872
0.721553 0.293706 0.112459
0.756191 0.293339 0.115663
0.789212 0.292546 0.119692
0.821530 0.291997 0.124819
0.853635 0.291936 0.131777
0.885618 0.292149 0.139651
0.917449 0.292943 0.149142
0.948943 0.294560 0.159457
0.980133 0.296849 0.171969
1.000000 0.300114 0.185397
1.000000 0.304662 0.200198
1.000000 0.310246 0.216678
1.000000 0.317540 0.234806
0.193149 0.296544 0.213718
0.194003 0.296666 0.213687
0.197360 0.297002 0.213809
0.204868 0.297978 0.216251
0.217655 0.297826 0.222538
0.232761 0.297978 0.231205
0.249729 0.298283 0.242710
0.266484 0.298924 0.256596
0.281621 0.300114 0.273045
0.292576 0.301762 0.291234
0.323003 0.318853 0.305089
0.401495 0.342382 0.261295
0.469673 0.352178 0.213687
0.504936 0.344121 0.185092
0.540520 0.334264 0.148653
0.576837 0.331243 0.135286
0.614221 0.331456 0.132479
0.651789 0.331395 0.131441
0.688838 0.331426 0.131167
0.724514 0.330877 0.132174
0.758755 0.330022 0.134066
0.791592 0.328771 0.137423
0.823819 0.328161 0.141939
0.855985 0.327703 0.147951
0.887785 0.327703 0.155184
0.919432 0.328130 0.163577
0.950774 0.329259 0.173678
0.981689 0.331121 0.184787
1.000000 0.333745 0.197971
1.000000 0.337438 0.212314
1.000000 0.342016 0.228061
1.000000 0.348425 0.245792
0.219120 0.330907 0.241062
0.219547 0.330999 0.241245
0.222660 0.331426 0.241215
0.228183 0.332403 0.242496
0.239811 0.332433 0.247959
0.253910 0.332708 0.255711
0.269841 0.333165 0.265629
0.286839 0.333806 0.277989
0.303349 0.334783 0.292119
0.317998 0.336492 0.308476
0.329473 0.338781 0.326696
0.354528 0.354253 0.346380
0.433143 0.379706 0.304784
0.505760 0.392889 0.257389
0.548638 0.388464 0.224460
0.583917 0.379034 0.191836
0.619226 0.369329 0.156619
0.656519 0.369421 0.154116
0.692836 0.369207 0.153048
0.727932 0.368322 0.152895
0.761563 0.366979 0.153994
0.793973 0.365637 0.156558
0.826017 0.364569 0.160189
0.857969 0.363714 0.165316
0.889586 0.363439 0.171878
0.921019 0.363561 0.179477
0.952056 0.364263 0.188846
0.982727 0.365667 0.199344
1.000000 0.367498 0.211948
1.000000 0.370672 0.225498
1.000000 0.374731 0.240848
1.000000 0.380102 0.258152
0.244572 0.364996 0.267918
0.245090 0.365026 0.267704
0.247868 0.365423 0.268406
0.252567 0.366247 0.268803
0.262119 0.366674 0.273106
0.274998 0.367071 0.279789
0.290410 0.367498 0.288548
0.306828 0.368231 0.299260
0.324010 0.369299 0.311986
0.340398 0.370825 0.326848
0.355077 0.372869 0.343236
0.366796 0.375738 0.361425
0.383459 0.386419 0.383520
0.461769 0.413611 0.344244
0.534874 0.428687 0.299413
0.588586 0.429877 0.260105
0.623468 0.420905 0.230808
0.657740 0.409644 0.194125
0.692348 0.404089 0.174624
0.726833 0.402960 0.174044
0.760037 0.401770 0.174044
0.792264 0.400153 0.175937
0.824338 0.398962 0.178653
0.856291 0.397986 0.182864
0.887968 0.397528 0.188510
0.919402 0.397345 0.195651
0.950500 0.397986 0.204013
0.981262 0.398993 0.214054
1.000000 0.400702 0.225528
1.000000 0.403143 0.238804
1.000000 0.406683 0.253452
1.000000 0.411688 0.270268
0.269047 0.397131 0.292821
0.269749 0.397192 0.292699
0.271611 0.397742 0.293034
0.276036 0.398383 0.293645
0.284245 0.399176 0.296483
0.296147 0.399817 0.302739
0.310277 0.400610 0.310521
0.326329 0.401495 0.320073
0.343450 0.402533 0.331456
0.360571 0.403937 0.344793
0.376776 0.405859 0.359533
0.391394 0.408118 0.375952
0.403082 0.411261 0.394171
0.419409 0.423774 0.423041
0.496529 0.451942 0.385870
0.570184 0.468513 0.342229
0.634791 0.474464 0.295964
0.667659 0.465339 0.269535
0.699886 0.453773 0.237461
0.731044 0.440467 0.198215
0.763607 0.438666 0.197726
0.795499 0.436927 0.198337
0.827329 0.435431 0.200534
0.858946 0.434302 0.204166
0.890349 0.433539 0.208774
0.921508 0.433143 0.214725
0.952270 0.433326 0.222538
0.982666 0.433967 0.231815
1.000000 0.435248 0.242374
1.000000 0.437324 0.254917
1.000000 0.440436 0.269230
1.000000 0.444648 0.285374
0.294987 0.431586 0.318151
0.295262 0.431769 0.318456
0.297215 0.432105 0.318578
0.301213 0.432837 0.319158
0.307805 0.433845 0.320836
0.318944 0.434485 0.326268
0.332189 0.435248 0.333227
0.347601 0.436255 0.341985
0.364263 0.437446 0.352270
0.381628 0.438911 0.364446
0.398871 0.440742 0.378058
0.415412 0.442817 0.393194
0.430213 0.445686 0.410071
0.442634 0.449409 0.428351
0.459541 0.462074 0.457008
0.532280 0.490211 0.426032
0.605859 0.507958 0.383703
0.672358 0.515526 0.336156
0.708675 0.507774 0.306737
0.738857 0.495888 0.278050
0.768276 0.482460 0.244388
0.798459 0.473182 0.221622
0.829984 0.471595 0.222812
0.861326 0.470161 0.225620
0.892363 0.469337 0.229770
0.923278 0.468605 0.235019
0.953735 0.468482 0.242039
0.983825 0.468696 0.250523
1.000000 0.469642 0.260594
1.000000 0.471382 0.272587
1.000000 0.474037 0.286137
1.000000 0.477852 0.302098
0.320317 0.465888 0.342901
0.320806 0.465980 0.342870
0.322484 0.466316 0.343175
0.326085 0.467048 0.343786
0.331609 0.468177 0.344366
0.341772 0.468910 0.349218
0.354376 0.469703 0.355688
0.369207 0.470771 0.363561
0.385382 0.472053 0.373144
0.402564 0.473579 0.384039
0.420081 0.475380 0.396582
0.437781 0.477485 0.410742
0.454475 0.480201 0.426368
0.469734 0.483406 0.443366
0.482673 0.487648 0.462135
0.500267 0.500664 0.490791
0.568109 0.528557 0.466346
0.639002 0.545830 0.424964
0.702663 0.552911 0.379767
0.746517 0.548028 0.343084
0.775051 0.536187 0.316960
0.803769 0.523247 0.287327
0.832853 0.509483 0.252873
0.863523 0.505760 0.248081
0.894285 0.504601 0.251469
0.924834 0.503807 0.256199
0.954955 0.503380 0.262303
0.984710 0.503380 0.270298
1.000000 0.504082 0.279667
1.000000 0.505333 0.291142
1.000000 0.507622 0.304234
1.000000 0.510979 0.319463
0.346288 0.500389 0.367010
0.346563 0.500481 0.367163
0.348089 0.500725 0.367193
0.351354 0.501305 0.367620
0.356268 0.502251 0.368322
0.364782 0.503075 0.371496
0.376623 0.503899 0.377478
0.390539 0.504906 0.384588
0.406287 0.506157 0.393286
0.423133 0.507774 0.403479
0.440864 0.509575 0.415137
0.459113 0.511742 0.428229
0.477058 0.514519 0.442939
0.494392 0.517815 0.459083
0.510185 0.521843 0.476631
0.523949 0.526696 0.495796
0.542046 0.539818 0.524590
0.602411 0.565759 0.506462
0.669856 0.581994 0.466011
0.730983 0.588464 0.421912
0.782040 0.586694 0.379004
0.809873 0.575311 0.354955
0.838193 0.563165 0.328405
0.866819 0.550042 0.298222
0.896025 0.539513 0.273686
0.926238 0.538415 0.277867
0.955993 0.537926 0.283665
0.985321 0.537774 0.290837
1.000000 0.538109 0.299779
1.000000 0.539239 0.310796
1.000000 0.541253 0.323430
1.000000 0.544274 0.338567
0.372107 0.535058 0.390600
0.372442 0.535119 0.390600
0.373999 0.535393 0.390814
0.376684 0.535851 0.390997
0.381262 0.536675 0.391730
0.388586 0.537591 0.393805
0.399664 0.538384 0.398993
0.412879 0.539483 0.405798
0.427863 0.540917 0.413855
0.444495 0.542382 0.423133
0.462104 0.544274 0.434028
0.480415 0.546410 0.446296
0.499092 0.549035 0.460060
0.517266 0.552148 0.475196
0.534630 0.555718 0.491707
0.550622 0.560113 0.509758
0.564294 0.565057 0.529076
0.581079 0.577234 0.558099
0.633783 0.600946 0.546654
0.698207 0.616541 0.506737
0.757382 0.623346 0.464607
0.812314 0.623407 0.418921
0.843107 0.613916 0.393408
0.870970 0.602350 0.368994
0.899199 0.590051 0.342229
0.927733 0.576959 0.312657
0.956970 0.572107 0.305821
0.985931 0.571771 0.312474
1.000000 0.571954 0.321172
1.000000 0.572992 0.331456
1.000000 0.574670 0.343816
1.000000 0.577569 0.358495
0.397925 0.569024 0.413489
0.398230 0.569085 0.413672
0.397528 0.566979 0.412055
0.400153 0.567376 0.412360
0.404395 0.568200 0.412970
0.410254 0.569085 0.413703
0.420783 0.569940 0.418769
0.433295 0.570977 0.424994
0.447639 0.572168 0.432380
0.463600 0.573632 0.441230
0.480629 0.575280 0.451301
0.498634 0.577356 0.462837
0.517052 0.579797 0.475624
0.535729 0.582544 0.489967
0.553857 0.585840 0.505699
0.571191 0.589837 0.522820
0.586908 0.594263 0.541405
0.600336 0.599451 0.561212
0.616266 0.611048 0.588922
0.662013 0.633295 0.584588
0.724147 0.649439 0.547448
0.782040 0.656886 0.507073
0.835782 0.657679 0.463661
0.873838 0.650904 0.431434
0.901244 0.640192 0.409369
0.929198 0.628840 0.385687
0.957519 0.616724 0.359747
0.986267 0.605310 0.334752
1.000000 0.605493 0.343023
1.000000 0.606317 0.353094
1.000000 0.607935 0.365393
1.000000 0.610712 0.379950
0.423316 0.600885 0.436164
0.423346 0.600763 0.436042
0.424384 0.600671 0.435950
0.426490 0.600855 0.436103
0.430213 0.601434 0.436683
0.435584 0.602136 0.437201
0.444617 0.603021 0.440833
0.456397 0.603937 0.446662
0.469917 0.605158 0.453773
0.485298 0.606500 0.462104
0.501915 0.608118 0.471717
0.519463 0.610040 0.482551
0.537804 0.612177 0.494881
0.556329 0.614771 0.508415
0.574823 0.617792 0.523430
0.592737 0.621271 0.539879
0.609491 0.625330 0.557366
0.624567 0.629938 0.575738
0.637598 0.635157 0.594720
0.652461 0.645808 0.620783
0.692012 0.666560 0.622217
0.751003 0.683070 0.588586
0.806546 0.691218 0.551629
0.858946 0.692714 0.510765
0.903655 0.687922 0.471382
0.930510 0.678126 0.451423
0.957916 0.667659 0.430091
0.985840 0.656397 0.407355
1.000000 0.644739 0.382910
1.000000 0.639521 0.376165
1.000000 0.641169 0.388220
1.000000 0.643763 0.402838
0.450782 0.633539 0.460761
0.450904 0.633417 0.460517
0.451759 0.633326 0.460426
0.453712 0.633478 0.460670
0.456977 0.633875 0.461006
0.461799 0.634485 0.461555
0.469429 0.635370 0.463935
0.480598 0.636316 0.469459
0.493416 0.637385 0.476173
0.507988 0.638666 0.484016
0.523888 0.640223 0.493202
0.540948 0.641901 0.503624
0.558740 0.643977 0.515343
0.577050 0.646326 0.528283
0.595453 0.649073 0.542687
0.613489 0.652277 0.558129
0.630823 0.655879 0.574426
0.646906 0.660029 0.591485
0.661402 0.664729 0.609247
0.673884 0.669978 0.627497
0.687831 0.679835 0.652033
0.721309 0.698787 0.658686
0.777371 0.715602 0.627924
0.830289 0.724575 0.594781
0.880644 0.727169 0.558099
0.928954 0.723964 0.515740
0.957336 0.715389 0.494728
0.984253 0.705776 0.475593
1.000000 0.695766 0.455848
1.000000 0.685237 0.435187
1.000000 0.674617 0.414221
1.000000 0.676448 0.426856
0.479500 0.665766 0.486305
0.479438 0.665644 0.486213
0.480323 0.665492 0.486091
0.482185 0.665675 0.486275
0.485115 0.666011 0.486549
0.489540 0.666590 0.487098
0.495552 0.667475 0.488228
0.505974 0.668269 0.493477
0.518181 0.669337 0.500008
0.531975 0.670436 0.507469
0.547234 0.671870 0.516228
0.563561 0.673487 0.526238
0.580896 0.675349 0.537560
0.598627 0.677516 0.549889
0.616510 0.679988 0.563195
0.634302 0.682856 0.577478
0.651514 0.686061 0.592523
0.667964 0.689693 0.608270
0.683192 0.693751 0.624659
0.696895 0.698238 0.641535
0.708797 0.703304 0.659022
0.721492 0.712337 0.682094
0.749020 0.729274 0.692958
0.802060 0.746151 0.664942
0.852445 0.755825 0.634913
0.900633 0.759335 0.601831
0.946990 0.757473 0.564294
0.980743 0.750698 0.537743
1.000000 0.742458 0.521569
1.000000 0.733700 0.504570
1.000000 0.724636 0.487465
1.000000 0.715419 0.470741
0.508415 0.696376 0.512322
0.508476 0.696376 0.512322
0.509270 0.696376 0.512322
0.511101 0.696620 0.512657
0.513909 0.697078 0.512932
0.518059 0.697658 0.513725
0.523278 0.698512 0.514519
0.532280 0.699306 0.518547
0.543816 0.700221 0.524681
0.556939 0.701289 0.532036
0.571283 0.702541 0.540337
0.586877 0.703944 0.549767
0.603143 0.705715 0.560174
0.620142 0.707698 0.571588
0.637354 0.709957 0.583948
0.654719 0.712520 0.597101
0.671748 0.715450 0.611139
0.688258 0.718807 0.625879
0.703883 0.722438 0.641230
0.718410 0.726528 0.657130
0.731441 0.731044 0.673487
0.742794 0.736049 0.690242
0.754452 0.744289 0.711971
0.777096 0.759579 0.726650
0.826841 0.776394 0.701472
0.874540 0.786648 0.674617
0.920287 0.791257 0.645258
0.964691 0.790738 0.612024
1.000000 0.785580 0.580835
1.000000 0.778927 0.567956
1.000000 0.771969 0.555138
1.000000 0.764828 0.542718
0.540093 0.727840 0.541100
0.540185 0.727810 0.540887
0.540948 0.727871 0.541009
0.542565 0.728054 0.541253
0.545068 0.728420 0.541650
0.548791 0.728969 0.542260
0.553491 0.729702 0.543053
0.560845 0.730495 0.545617
0.571374 0.731350 0.551263
0.583490 0.732326 0.558099
0.596948 0.733425 0.565728
0.611353 0.734737 0.574395
0.626795 0.736233 0.583917
0.642817 0.738003 0.594415
0.659297 0.740047 0.605921
0.675959 0.742367 0.618097
0.692592 0.744930 0.631189
0.708736 0.747799 0.644739
0.724331 0.751064 0.659113
0.739071 0.754574 0.673945
0.752682 0.758541 0.689235
0.764889 0.762875 0.704921
0.775509 0.767666 0.720821
0.786069 0.775051 0.741115
0.804379 0.789059 0.759640
0.850767 0.805570 0.736812
0.895811 0.816373 0.712917
0.939239 0.821927 0.687037
0.981415 0.822843 0.658137
1.000000 0.819089 0.624506
1.000000 0.813931 0.613428
1.000000 0.808774 0.604578
0.571679 0.758297 0.569451
0.571710 0.758236 0.569329
0.572381 0.758267 0.569421
0.573877 0.758511 0.569696
0.576257 0.758877 0.570153
0.579553 0.759487 0.570733
0.583917 0.760220 0.571557
0.589593 0.761105 0.572717
0.599451 0.761929 0.578119
0.610834 0.762905 0.584375
0.623194 0.764004 0.591547
0.636805 0.765255 0.599634
0.651392 0.766659 0.608545
0.666590 0.768338 0.618402
0.682216 0.770169 0.629053
0.698238 0.772213 0.640467
0.714290 0.774533 0.652583
0.730037 0.777127 0.665400
0.745327 0.779934 0.678706
0.759915 0.782986 0.692531
0.773709 0.786374 0.706752
0.786313 0.790127 0.721401
0.797665 0.794247 0.736294
0.807584 0.798795 0.751461
0.816983 0.805386 0.770382
0.830472 0.817105 0.790890
0.873594 0.833158 0.770291
0.915923 0.844541 0.749538
0.957000 0.851102 0.727047
0.996857 0.853330 0.702235
1.000000 0.851377 0.674037
1.000000 0.847501 0.658686
0.604791 0.789425 0.599268
0.604822 0.789364 0.599176
0.605463 0.789395 0.599176
0.606653 0.789578 0.599451
0.608820 0.789914 0.599878
0.611719 0.790372 0.600336
0.615625 0.790982 0.601129
0.620539 0.791684 0.601953
0.628595 0.792386 0.605615
0.638849 0.793118 0.611353
0.650294 0.794064 0.617914
0.662867 0.795102 0.625330
0.676295 0.796292 0.633539
0.690578 0.797665 0.642603
0.705348 0.799283 0.652522
0.720424 0.801083 0.663081
0.735775 0.803098 0.674403
0.750881 0.805295 0.686244
0.765743 0.807736 0.698695
0.779995 0.810361 0.711543
0.793545 0.813230 0.724788
0.806271 0.816434 0.738369
0.817929 0.819913 0.752316
0.828336 0.823758 0.766415
0.837430 0.827970 0.780667
0.845731 0.833677 0.798093
0.857145 0.843992 0.817716
0.894896 0.858976 0.801907
0.934661 0.870848 0.784024
0.972992 0.878325 0.765225
1.000000 0.881956 0.744991
1.000000 0.881987 0.722866
0.637812 0.819638 0.629023
0.637995 0.819638 0.629114
0.638483 0.819699 0.629114
0.639673 0.819852 0.629358
0.641535 0.820157 0.629725
0.644221 0.820584 0.630243
0.647669 0.821134 0.630884
0.652125 0.821805 0.631769
0.658350 0.822538 0.633936
0.667811 0.823178 0.639155
0.678431 0.823911 0.645319
0.689937 0.824796 0.652094
0.702419 0.825803 0.659693
0.715663 0.826993 0.668086
0.729519 0.828336 0.677241
0.743709 0.829831 0.687037
0.758145 0.831540 0.697505
0.772519 0.833371 0.708522
0.786709 0.835416 0.720027
0.800443 0.837644 0.732021
0.813657 0.840085 0.744320
0.826139 0.842741 0.756893
0.837766 0.845640 0.769833
0.848417 0.848905 0.782956
0.857969 0.852445 0.796201
0.866178 0.856291 0.809506
0.873350 0.861143 0.825406
0.883360 0.870146 0.843320
0.915557 0.883909 0.832456
0.952392 0.896086 0.817838
0.987488 0.904479 0.802976
1.000000 0.909545 0.787961
0.671870 0.849790 0.659998
0.671992 0.849790 0.660029
0.672419 0.849821 0.660060
0.673518 0.849973 0.660304
0.675166 0.850217 0.660578
0.677394 0.850523 0.660914
0.680415 0.850889 0.661555
0.684199 0.851377 0.662135
0.688746 0.851926 0.662867
0.696956 0.852293 0.667323
0.706477 0.852720 0.672694
0.716884 0.853269 0.678798
0.728145 0.853941 0.685603
0.740291 0.854765 0.693202
0.753017 0.855741 0.701503
0.766232 0.856962 0.710536
0.779660 0.858335 0.720150
0.793240 0.859831 0.730373
0.806607 0.861479 0.740963
0.819791 0.863279 0.752010
0.832456 0.865263 0.763363
0.844572 0.867491 0.775082
0.855985 0.869902 0.787015
0.866636 0.872557 0.799191
0.876249 0.875486 0.811521
0.884825 0.878660 0.823880
0.892241 0.882109 0.836271
0.898375 0.886168 0.850797
0.906950 0.893919 0.867002
0.933806 0.906218 0.860410
0.967498 0.918761 0.849241
0.999023 0.928008 0.838834
0.705043 0.878355 0.690486
0.705165 0.878416 0.690486
0.705745 0.878477 0.690639
0.706661 0.878630 0.690852
0.708186 0.878904 0.691188
0.710292 0.879240 0.691676
0.713130 0.879667 0.692287
0.716609 0.880186 0.692988
0.720912 0.880858 0.693904
0.727413 0.881376 0.696803
0.736233 0.881773 0.701900
0.745846 0.882261 0.707607
0.756313 0.882872 0.714015
0.767422 0.883543 0.721035
