20 Preset/Gray style/【3】LUT video cho PR-AE-FCPX/Tone  (15).cube
# Created by Adobe Lightroom plugin Export LUT (1.24.0)
# www.johnrellis.com/lightroom/exportlut.htm
# Preset: 15素材江湖-高级灰
# Color profile: E:\lut插件\exportlut.1.24\exportlut.lrplugin\color profiles\Rec709gamma2.4.icc
LUT_3D_SIZE 32
DOMAIN_MIN 0.0 0.0 0.0
DOMAIN_MAX 1.0 1.0 1.0
0.000000 0.000000 0.000000
0.025757 0.001434 0.003815
0.085603 0.009796 0.005951
0.126192 0.022400 0.016297
0.169284 0.040955 0.029633
0.217777 0.065461 0.040436
0.266697 0.088411 0.051148
0.313115 0.099275 0.054994
0.356695 0.108949 0.053529
0.397803 0.117739 0.050355
0.437568 0.127199 0.044495
0.476783 0.136568 0.034913
0.515709 0.145998 0.034852
0.555016 0.155856 0.034607
0.594385 0.166476 0.032685
0.634272 0.176761 0.032868
0.675013 0.188052 0.031128
0.716335 0.199588 0.031434
0.755978 0.210300 0.031373
0.793942 0.221042 0.037171
0.830014 0.232364 0.044099
0.867491 0.244175 0.056245
0.911101 0.258091 0.079500
0.949493 0.271061 0.092653
0.983612 0.283482 0.102113
1.000000 0.295018 0.113100
1.000000 0.306279 0.123934
1.000000 0.317784 0.134188
1.000000 0.329442 0.145846
1.000000 0.341833 0.158145
1.000000 0.354955 0.171847
1.000000 0.369024 0.187655
0.001099 0.020813 0.009552
0.014038 0.014649 0.016907
0.087007 0.023835 0.013001
0.125856 0.034699 0.020294
0.168582 0.052522 0.032654
0.216739 0.077485 0.046876
0.264500 0.092378 0.055848
0.310033 0.102693 0.058961
0.353185 0.112215 0.056580
0.393744 0.120760 0.051545
0.433173 0.128908 0.046662
0.471931 0.137545 0.037964
0.510521 0.146792 0.036225
0.549615 0.156680 0.037476
0.588800 0.166812 0.035309
0.628412 0.177035 0.034943
0.669062 0.187961 0.034058
0.710445 0.199069 0.032990
0.750271 0.210117 0.033936
0.788327 0.220829 0.037842
0.824216 0.231601 0.043854
0.861418 0.243168 0.054994
0.903258 0.256535 0.074922
0.940459 0.269139 0.090089
0.973938 0.280735 0.099519
1.000000 0.292058 0.109377
1.000000 0.303136 0.119478
1.000000 0.314366 0.130190
1.000000 0.325902 0.141024
1.000000 0.338231 0.152865
1.000000 0.351293 0.166598
1.000000 0.365270 0.182040
0.005310 0.086152 0.037171
0.020478 0.086244 0.049287
0.070649 0.072023 0.082948
0.129488 0.080110 0.046387
0.171206 0.095583 0.052064
0.218326 0.104585 0.062593
0.265202 0.112734 0.066072
0.309728 0.119997 0.069856
0.352087 0.126619 0.066194
0.392309 0.133700 0.061494
0.431067 0.140627 0.051484
0.469551 0.148013 0.042176
0.507805 0.155795 0.039002
0.546471 0.164828 0.038544
0.585351 0.173800 0.040620
0.624811 0.183200 0.038697
0.665064 0.193484 0.039673
0.706508 0.203952 0.039094
0.746456 0.214908 0.037690
0.784695 0.225345 0.041596
0.820951 0.235508 0.050141
0.859068 0.247288 0.059724
0.899718 0.259678 0.077943
0.936217 0.271397 0.091279
0.969085 0.282963 0.099763
0.999573 0.293523 0.108217
1.000000 0.304326 0.118685
1.000000 0.315160 0.128634
1.000000 0.326604 0.138918
1.000000 0.338628 0.151064
1.000000 0.351446 0.164492
1.000000 0.365240 0.179446
0.015717 0.127077 0.093446
0.027710 0.127016 0.094972
0.092592 0.123537 0.106722
0.115450 0.115419 0.126223
0.168673 0.120150 0.115541
0.225437 0.134188 0.090913
0.269505 0.142061 0.088014
0.312383 0.147311 0.086458
0.353674 0.151583 0.081147
0.392767 0.155978 0.075044
0.431098 0.160678 0.063722
0.468910 0.165957 0.052155
0.506584 0.172488 0.047242
0.544396 0.179599 0.048157
0.582666 0.187442 0.047578
0.621271 0.195865 0.047700
0.660792 0.204685 0.048005
0.701259 0.214420 0.047456
0.740749 0.224002 0.046601
0.778592 0.233707 0.049348
0.814542 0.243168 0.055573
0.853574 0.254154 0.068421
0.892454 0.265721 0.081971
0.928405 0.276890 0.091737
0.962036 0.287480 0.100343
0.993744 0.298253 0.109133
1.000000 0.309056 0.119478
1.000000 0.319921 0.128878
1.000000 0.331243 0.139101
1.000000 0.343023 0.151339
1.000000 0.355200 0.164248
1.000000 0.368139 0.178683
0.025177 0.173373 0.118379
0.033845 0.173861 0.120546
0.094514 0.171572 0.125368
0.139254 0.165042 0.139528
0.158480 0.153353 0.159548
0.198672 0.153323 0.160159
0.276616 0.167300 0.115969
0.314763 0.178500 0.097841
0.354162 0.180697 0.091829
0.392340 0.183200 0.087526
0.429419 0.185794 0.079469
0.466804 0.189334 0.067597
0.503899 0.194247 0.061433
0.541588 0.199954 0.061891
0.579461 0.206668 0.061830
0.618402 0.213748 0.062257
0.658198 0.221958 0.063233
0.699031 0.230625 0.060395
0.738613 0.239139 0.059876
0.776333 0.247868 0.061982
0.812345 0.256474 0.069673
0.852720 0.267124 0.080232
0.890318 0.277592 0.088838
0.925750 0.287663 0.096986
0.959258 0.297734 0.104463
0.991119 0.307805 0.112886
1.000000 0.317906 0.121309
1.000000 0.328099 0.130892
1.000000 0.338750 0.141146
1.000000 0.349920 0.152132
1.000000 0.361639 0.164370
1.000000 0.373877 0.178500
0.020508 0.220859 0.137819
0.032593 0.220951 0.139620
0.084413 0.220340 0.142061
0.142702 0.215305 0.153536
0.186709 0.206516 0.170321
0.203006 0.191897 0.191958
0.222965 0.187167 0.204562
0.321447 0.199435 0.147311
0.361273 0.208164 0.121706
0.396124 0.215335 0.097230
0.432715 0.216464 0.091066
0.469459 0.218296 0.086183
0.506096 0.221988 0.080629
0.543389 0.226444 0.081209
0.581384 0.231785 0.082734
0.620111 0.237766 0.081697
0.660212 0.244663 0.082246
0.700984 0.252415 0.078859
0.740505 0.259922 0.080659
0.777951 0.267521 0.080873
0.816251 0.276097 0.085939
0.856291 0.285863 0.091493
0.938872 0.312810 0.108370
0.975280 0.322972 0.118746
1.000000 0.332830 0.128573
1.000000 0.342168 0.137423
1.000000 0.351385 0.147860
1.000000 0.360601 0.157687
1.000000 0.370275 0.168399
1.000000 0.380377 0.179690
1.000000 0.391028 0.192477
1.000000 0.402045 0.206149
0.031769 0.275944 0.163180
0.042786 0.275853 0.163729
0.094270 0.275639 0.167025
0.145113 0.272557 0.174563
0.201450 0.264714 0.189212
0.242496 0.254429 0.207675
0.256840 0.238651 0.229587
0.255406 0.229984 0.253178
0.358953 0.238315 0.202152
0.417609 0.246189 0.155795
0.451942 0.252934 0.125154
0.487709 0.258091 0.099702
0.524559 0.260044 0.098756
0.561700 0.263157 0.097444
0.599512 0.266911 0.096712
0.637934 0.271489 0.096407
0.677516 0.277165 0.094545
0.717098 0.283238 0.093294
0.755306 0.289372 0.094118
0.792538 0.296086 0.095033
0.838682 0.306798 0.099458
0.882048 0.317174 0.105684
0.923033 0.327520 0.112947
0.961547 0.337652 0.121767
0.996979 0.347204 0.131197
1.000000 0.356268 0.140261
1.000000 0.364416 0.149722
1.000000 0.372778 0.158480
1.000000 0.381476 0.168338
1.000000 0.390265 0.178958
1.000000 0.399908 0.190707
1.000000 0.410040 0.203616
0.085512 0.316014 0.187869
0.090730 0.315862 0.188479
0.112734 0.315618 0.190188
0.141817 0.314672 0.194675
0.202426 0.308659 0.206363
0.251194 0.300114 0.221347
0.286229 0.290013 0.238651
0.297459 0.274266 0.259007
0.292180 0.264866 0.283024
0.379889 0.271427 0.248417
0.457893 0.279179 0.194003
0.492256 0.284215 0.166232
0.526757 0.290929 0.129488
0.562585 0.294865 0.113283
0.599756 0.297398 0.111910
0.637385 0.300969 0.109804
0.676509 0.305394 0.108003
0.715236 0.310521 0.106294
0.753140 0.315770 0.105928
0.796597 0.323919 0.107393
0.839017 0.332341 0.110689
0.879606 0.341009 0.115328
0.918547 0.349493 0.121950
0.955749 0.358129 0.129488
0.990448 0.366552 0.137575
1.000000 0.374060 0.145632
1.000000 0.381476 0.153445
1.000000 0.388556 0.161746
1.000000 0.396216 0.171084
1.000000 0.404242 0.180819
1.000000 0.412848 0.192172
1.000000 0.422126 0.204257
0.121370 0.354162 0.213504
0.124910 0.354131 0.213748
0.138796 0.353704 0.214969
0.161715 0.353063 0.218509
0.204471 0.349920 0.225895
0.255833 0.342657 0.237675
0.297459 0.333989 0.252018
0.327916 0.324468 0.268498
0.337133 0.309483 0.287358
0.332158 0.298985 0.309209
0.402106 0.305486 0.289189
0.484443 0.312505 0.242557
0.533776 0.317906 0.204685
0.568353 0.323461 0.173892
0.603296 0.330388 0.132570
0.640406 0.333471 0.125521
0.678981 0.336919 0.122896
0.716945 0.340734 0.120912
0.760372 0.347814 0.120516
0.801572 0.354406 0.121157
0.841184 0.361089 0.123476
0.879454 0.367956 0.127352
0.916869 0.375006 0.132204
0.952758 0.382177 0.138857
0.986572 0.389227 0.145571
1.000000 0.395483 0.152773
1.000000 0.401770 0.159518
1.000000 0.407935 0.167300
1.000000 0.414527 0.175814
1.000000 0.421546 0.185000
1.000000 0.429145 0.195560
1.000000 0.437537 0.207034
0.155306 0.391760 0.237095
0.157443 0.391638 0.237217
0.166964 0.391150 0.238102
0.184604 0.390600 0.240848
0.209628 0.389349 0.245060
0.260014 0.382971 0.254551
0.304417 0.375219 0.266361
0.340948 0.366522 0.280186
0.367529 0.357580 0.295598
0.374670 0.342565 0.313481
0.369421 0.331182 0.333349
0.423529 0.337469 0.324407
0.506554 0.344457 0.284306
0.573907 0.351446 0.238041
0.609522 0.356603 0.211276
0.645747 0.363043 0.176883
0.685817 0.372015 0.138247
0.728298 0.377478 0.136263
0.768826 0.382788 0.135164
0.807553 0.387671 0.135256
0.844633 0.392248 0.137636
0.879973 0.396826 0.140047
0.914366 0.401770 0.143465
0.947539 0.406806 0.148074
0.979187 0.411872 0.153170
1.000000 0.416724 0.158450
1.000000 0.421820 0.164675
1.000000 0.427161 0.171450
1.000000 0.433051 0.179446
1.000000 0.439521 0.188449
1.000000 0.446571 0.198520
1.000000 0.454322 0.210208
0.184360 0.427039 0.257542
0.185946 0.426978 0.257633
0.193088 0.426886 0.258640
0.207218 0.426551 0.260868
0.227054 0.426154 0.264195
0.265599 0.422553 0.271061
0.311223 0.415930 0.281071
0.350835 0.408392 0.293187
0.383520 0.400397 0.306676
0.407965 0.391821 0.321660
0.413550 0.376745 0.339055
0.407813 0.364141 0.357763
0.446845 0.370031 0.358801
0.532708 0.377569 0.321355
0.613947 0.388006 0.275303
0.662013 0.396307 0.244877
0.700893 0.403876 0.215946
0.738247 0.411536 0.179629
0.774624 0.417731 0.150973
0.810971 0.420722 0.150546
0.846128 0.423590 0.151644
0.879973 0.426795 0.153170
0.913115 0.430488 0.155123
0.945464 0.434241 0.158572
0.976532 0.438148 0.162875
1.000000 0.442084 0.167788
1.000000 0.446143 0.172946
1.000000 0.450568 0.179110
1.000000 0.455421 0.186526
1.000000 0.461067 0.194980
1.000000 0.467353 0.204746
1.000000 0.474220 0.216037
0.210636 0.466590 0.277134
0.212192 0.466529 0.277226
0.218387 0.466407 0.278325
0.230167 0.466316 0.280034
0.247044 0.466133 0.282750
0.272374 0.465126 0.287449
0.318639 0.459480 0.296361
0.360418 0.452674 0.307042
0.397436 0.445075 0.319371
0.428077 0.436896 0.333104
0.450843 0.428534 0.347997
0.456794 0.414588 0.366400
0.476265 0.422705 0.402380
0.506523 0.431678 0.416327
0.606256 0.443275 0.378454
0.693721 0.454536 0.332677
0.754482 0.461982 0.289281
0.789029 0.466712 0.262791
0.822263 0.471504 0.231357
0.854276 0.476631 0.192966
0.886259 0.479011 0.176486
0.917601 0.479866 0.178164
0.947906 0.480903 0.180606
0.977173 0.482368 0.183841
1.000000 0.483864 0.187655
1.000000 0.485328 0.191714
1.000000 0.487098 0.196597
1.000000 0.489143 0.201602
1.000000 0.491798 0.207980
1.000000 0.495247 0.215183
1.000000 0.499519 0.224155
1.000000 0.504814 0.234867
0.241428 0.521019 0.300694
0.242496 0.520806 0.300816
0.247715 0.520378 0.301335
0.257877 0.519524 0.302770
0.272374 0.518608 0.304906
0.291936 0.517510 0.308019
0.331670 0.512627 0.314977
0.376379 0.507347 0.325261
0.418921 0.502220 0.337835
0.457313 0.497078 0.352331
0.490700 0.492348 0.368811
0.517754 0.487678 0.387366
0.525841 0.474983 0.409369
0.523400 0.463142 0.432074
0.537285 0.470314 0.455940
0.638941 0.481239 0.417578
0.722438 0.489509 0.373053
0.792142 0.495125 0.320043
0.824186 0.497963 0.294011
0.853788 0.500725 0.266270
0.882567 0.503899 0.234318
0.910826 0.507713 0.195621
0.940154 0.508324 0.191073
0.969024 0.508751 0.193393
0.996796 0.509453 0.196078
1.000000 0.510185 0.199680
1.000000 0.511437 0.203769
1.000000 0.512993 0.208530
1.000000 0.515099 0.214694
1.000000 0.518151 0.221714
1.000000 0.521843 0.230625
1.000000 0.526482 0.241184
0.265537 0.571588 0.320073
0.266270 0.571252 0.320012
0.271153 0.570459 0.320531
0.280308 0.569818 0.321813
0.293736 0.569116 0.323857
0.312230 0.568383 0.326787
0.340703 0.566705 0.332006
0.387610 0.561089 0.341131
0.432166 0.555138 0.352514
0.473548 0.549371 0.365759
0.510887 0.544121 0.381079
0.543847 0.539055 0.398535
0.570062 0.533867 0.417609
0.575921 0.518822 0.439826
0.571740 0.504509 0.462135
0.574334 0.507591 0.489754
0.664546 0.515862 0.455909
0.744503 0.521233 0.411841
0.812131 0.524956 0.362097
0.855039 0.526726 0.323125
0.882506 0.528527 0.298192
0.910002 0.530938 0.270146
0.937133 0.533928 0.238041
0.964172 0.537194 0.204471
0.991791 0.537255 0.206668
1.000000 0.537407 0.209537
1.000000 0.537865 0.213352
1.000000 0.538750 0.217472
1.000000 0.540337 0.223239
1.000000 0.542779 0.230167
1.000000 0.545922 0.238560
1.000000 0.549920 0.249180
0.290501 0.620661 0.340429
0.291386 0.620447 0.340551
0.295354 0.619562 0.340887
0.303075 0.618372 0.341558
0.315312 0.616876 0.343236
0.331884 0.615290 0.345525
0.351781 0.614374 0.349157
0.395239 0.609461 0.356939
0.440925 0.603723 0.367315
0.484077 0.598230 0.379706
0.524712 0.592859 0.393988
0.561639 0.587915 0.410620
0.593378 0.582422 0.428779
0.617853 0.576532 0.448066
0.621180 0.559442 0.470222
0.615442 0.543267 0.491615
0.614984 0.543359 0.518578
0.685542 0.549340 0.494972
0.763729 0.552605 0.451362
0.829923 0.554223 0.402899
0.883909 0.554894 0.352270
0.910552 0.556146 0.328679
0.936919 0.557946 0.303227
0.963104 0.560296 0.275059
0.988739 0.563165 0.243015
1.000000 0.565240 0.220462
1.000000 0.565332 0.223575
1.000000 0.566003 0.228275
1.000000 0.567407 0.233951
1.000000 0.569696 0.241398
1.000000 0.572961 0.250767
1.000000 0.577020 0.262303
0.314611 0.661097 0.360082
0.315282 0.661219 0.360327
0.319127 0.660853 0.360754
0.326665 0.660304 0.361791
0.337957 0.659480 0.363378
0.353124 0.658869 0.366064
0.372290 0.658686 0.369909
0.404425 0.657099 0.376257
0.451026 0.652308 0.386267
0.495308 0.647242 0.398016
0.537438 0.641474 0.411505
0.575677 0.635401 0.426459
0.609308 0.628748 0.442695
0.637263 0.621088 0.459937
0.657984 0.612909 0.477974
0.657588 0.593500 0.498695
0.650843 0.576898 0.519402
0.648463 0.574762 0.544854
0.701656 0.580407 0.532769
0.778897 0.582330 0.490028
0.844968 0.583154 0.443854
0.903258 0.582910 0.391547
0.937499 0.583612 0.359106
0.963531 0.585290 0.335760
0.989197 0.587427 0.310460
1.000000 0.590051 0.282872
1.000000 0.593317 0.252323
1.000000 0.595026 0.240909
1.000000 0.595880 0.246525
1.000000 0.597467 0.253696
1.000000 0.599786 0.262852
1.000000 0.602960 0.274052
0.338964 0.696834 0.379980
0.339452 0.696742 0.380163
0.343023 0.696559 0.380560
0.349340 0.696193 0.381598
0.359594 0.695735 0.383368
0.373754 0.695308 0.386084
0.391028 0.695186 0.389715
0.411719 0.695430 0.394446
0.456458 0.691127 0.403784
0.500298 0.686275 0.414588
0.542962 0.680751 0.427161
0.582238 0.674952 0.441321
0.618036 0.668605 0.456672
0.649104 0.661311 0.473121
0.674281 0.653498 0.490455
0.692653 0.645045 0.508263
0.690730 0.625727 0.528466
0.684199 0.609766 0.548180
0.681117 0.606226 0.571801
0.718379 0.612116 0.570916
0.794369 0.614588 0.531945
0.860838 0.614466 0.487037
0.918883 0.613092 0.437110
0.963989 0.611688 0.390631
0.989471 0.613184 0.368994
1.000000 0.615045 0.345830
1.000000 0.617578 0.321538
1.000000 0.620630 0.295445
1.000000 0.624353 0.267033
1.000000 0.626215 0.268132
1.000000 0.628107 0.277287
1.000000 0.630793 0.288792
0.366979 0.732479 0.403449
0.368139 0.732845 0.403784
0.393317 0.755856 0.422919
0.399237 0.755550 0.423987
0.408270 0.755123 0.425788
0.420325 0.754543 0.428229
0.435767 0.753964 0.431617
0.454383 0.753597 0.436286
0.486915 0.751217 0.443946
0.530083 0.746395 0.454597
0.571862 0.741054 0.466957
0.611414 0.735134 0.480659
0.647395 0.728237 0.495247
0.679225 0.720455 0.510277
0.706050 0.711788 0.525597
0.727199 0.702571 0.540917
0.741970 0.692653 0.556207
0.737484 0.672145 0.573510
0.729885 0.655573 0.590387
0.724941 0.649561 0.610773
0.746853 0.654749 0.619043
0.819852 0.657221 0.583429
0.883940 0.656672 0.542260
0.941009 0.652979 0.493385
0.991943 0.646906 0.435706
1.000000 0.645838 0.408270
1.000000 0.646174 0.385565
1.000000 0.647364 0.362524
1.000000 0.649622 0.339178
1.000000 0.652796 0.315343
1.000000 0.656641 0.293034
1.000000 0.658717 0.304692
0.404089 0.771756 0.434455
0.407172 0.773678 0.436408
0.412085 0.775753 0.438911
0.419135 0.777432 0.441901
0.429023 0.778531 0.445014
0.440345 0.778653 0.447974
0.454170 0.778347 0.451179
0.470680 0.777798 0.455451
0.491676 0.777188 0.461158
0.532250 0.772671 0.470863
0.572656 0.767697 0.482399
0.611048 0.762264 0.494942
0.647120 0.755947 0.508202
0.679591 0.749020 0.522026
0.708400 0.741360 0.536187
0.732784 0.733059 0.550652
0.752102 0.724514 0.565179
0.765408 0.715206 0.580163
0.762020 0.696895 0.597559
0.756039 0.682124 0.614405
0.751522 0.676143 0.634058
0.761715 0.682795 0.652522
0.833494 0.686366 0.620386
0.895903 0.686854 0.583703
0.951537 0.683803 0.540185
1.000000 0.677302 0.486824
1.000000 0.672389 0.442695
1.000000 0.672786 0.421942
1.000000 0.674128 0.401221
1.000000 0.676509 0.380865
1.000000 0.679835 0.361242
1.000000 0.683742 0.342168
0.431067 0.797208 0.457343
0.434363 0.799191 0.459541
0.439033 0.801205 0.462318
0.445930 0.802945 0.465370
0.454841 0.804105 0.468666
0.465187 0.804288 0.471687
0.477516 0.804044 0.474739
0.492287 0.803555 0.478828
0.509178 0.803189 0.483955
0.540429 0.800290 0.491859
0.578149 0.795743 0.501884
0.615167 0.790677 0.513146
0.650233 0.785061 0.525200
0.683009 0.778897 0.537896
0.712856 0.772091 0.551080
0.738918 0.764858 0.564538
0.761166 0.757046 0.578180
0.779049 0.749142 0.592187
0.790890 0.740169 0.606867
0.788144 0.723415 0.623621
0.783108 0.709987 0.640070
0.778622 0.703731 0.658747
0.780941 0.710811 0.683284
0.847105 0.715419 0.656764
0.907683 0.716518 0.623713
0.962097 0.714321 0.584771
1.000000 0.708827 0.537865
1.000000 0.700069 0.479866
1.000000 0.700710 0.461097
1.000000 0.702449 0.443153
1.000000 0.705043 0.426184
1.000000 0.708248 0.410101
0.461067 0.822782 0.483101
0.463783 0.824491 0.485084
0.468269 0.826169 0.487709
0.474342 0.827665 0.490669
0.481971 0.828611 0.493568
0.491035 0.828794 0.496193
0.501946 0.828611 0.499367
0.514733 0.828153 0.502922
0.529992 0.827878 0.507561
0.550622 0.826780 0.513390
0.585962 0.822690 0.522515
0.621027 0.818204 0.532799
0.655055 0.813138 0.543694
0.687282 0.807614 0.555322
0.717220 0.801724 0.567620
0.744717 0.795499 0.580468
0.769406 0.789212 0.594018
0.790768 0.782925 0.608087
0.808499 0.777005 0.623041
0.820371 0.769833 0.638911
0.819608 0.756069 0.656794
0.816770 0.745357 0.674342
0.813169 0.739895 0.692714
0.816922 0.747829 0.717952
0.869993 0.754482 0.703120
0.928832 0.757015 0.674464
0.981628 0.756313 0.641016
1.000000 0.752560 0.601251
1.000000 0.745357 0.552453
1.000000 0.742336 0.520745
1.000000 0.744564 0.507561
1.000000 0.747158 0.495491
0.506126 0.857939 0.522576
0.507469 0.858610 0.523583
0.509850 0.859037 0.524590
0.513603 0.859220 0.525933
0.519005 0.859098 0.527398
0.525902 0.858610 0.529137
0.534661 0.858030 0.531334
0.545586 0.857542 0.534386
0.558709 0.857145 0.538384
0.573968 0.856931 0.543450
0.602899 0.854124 0.551232
0.635676 0.850187 0.560540
0.667659 0.845731 0.570428
0.698817 0.840879 0.581018
0.728206 0.835508 0.592218
0.755734 0.829801 0.603876
0.780758 0.823911 0.616175
0.803250 0.817899 0.629053
0.822629 0.811948 0.642329
0.838682 0.806271 0.656275
0.848508 0.798672 0.671046
0.847288 0.785428 0.687312
0.844083 0.774716 0.703212
0.839231 0.767788 0.719081
0.842710 0.774685 0.742947
0.883452 0.782071 0.737148
0.940307 0.785733 0.712093
0.991638 0.786648 0.683375
1.000000 0.784665 0.649500
1.000000 0.779171 0.608148
1.000000 0.771603 0.563867
1.000000 0.774166 0.554467
0.535241 0.881163 0.548821
0.536339 0.881651 0.549706
0.538476 0.882078 0.550622
0.541894 0.882261 0.551904
0.546563 0.882200 0.553368
0.552483 0.881895 0.554894
0.560449 0.881407 0.557061
0.570123 0.880980 0.559869
0.581659 0.880674 0.563378
0.595422 0.880430 0.568139
0.615442 0.879240 0.574212
0.645960 0.875822 0.582727
0.676417 0.871946 0.592004
0.706294 0.867796 0.602045
0.735317 0.863188 0.612665
0.762509 0.858396 0.623835
0.788235 0.853361 0.635676
0.811612 0.848264 0.647944
0.832639 0.843137 0.660761
0.850889 0.838132 0.674098
0.866056 0.833341 0.687892
0.874876 0.826291 0.702541
0.874083 0.814389 0.718318
0.871519 0.804898 0.733700
0.861418 0.791867 0.741909
0.864805 0.798184 0.764858
0.895048 0.806790 0.767819
0.950225 0.811826 0.746304
0.999878 0.814420 0.722103
1.000000 0.814176 0.693538
1.000000 0.810605 0.659388
1.000000 0.802029 0.615290
0.572778 0.908934 0.583185
0.574365 0.909728 0.584558
0.576196 0.910063 0.585473
0.578393 0.909850 0.585962
0.581506 0.909178 0.586328
0.585687 0.908232 0.586816
0.591272 0.907012 0.587610
0.598444 0.905791 0.588891
0.607477 0.904662 0.591089
0.618372 0.903685 0.594110
0.630701 0.902678 0.597833
0.656825 0.899290 0.604486
0.684596 0.895293 0.612146
0.712337 0.890929 0.620539
0.739223 0.886137 0.629328
0.765194 0.881132 0.638880
0.790066 0.876005 0.649042
0.813535 0.871092 0.660273
0.835355 0.866392 0.672328
0.855192 0.862150 0.685328
0.872618 0.858091 0.698878
0.886961 0.854063 0.712612
0.894621 0.847105 0.726680
0.893614 0.835782 0.741268
0.890684 0.826169 0.755123
0.885649 0.818784 0.768215
0.888121 0.823636 0.789242
0.908263 0.832578 0.799100
0.960967 0.838376 0.780514
1.000000 0.842100 0.760006
1.000000 0.843320 0.736568
1.000000 0.841123 0.708431
0.595880 0.927031 0.604944
0.597406 0.927764 0.606226
0.599329 0.928161 0.607355
0.601648 0.928161 0.608118
0.604944 0.927947 0.609033
0.609400 0.927550 0.610224
0.615229 0.927123 0.611841
0.622736 0.926635 0.614069
0.631739 0.926238 0.616999
0.642298 0.925902 0.620630
0.653956 0.925475 0.624720
0.672786 0.923888 0.630610
0.698909 0.920531 0.637964
0.724941 0.916777 0.645838
0.750454 0.912627 0.654017
0.775418 0.908141 0.662776
0.799435 0.903563 0.672175
0.822416 0.899077 0.682368
0.844297 0.894804 0.693568
0.864622 0.890867 0.705653
0.883024 0.887175 0.718379
0.899016 0.883604 0.731411
0.912230 0.880125 0.744472
0.918853 0.873533 0.758114
0.918181 0.863432 0.772122
0.915923 0.855039 0.785580
0.912016 0.848814 0.798489
0.914153 0.853117 0.818448
0.925933 0.863249 0.835386
0.975830 0.870329 0.820554
1.000000 0.875303 0.804471
1.000000 0.877653 0.786221
0.626398 0.948363 0.633783
0.627253 0.948669 0.634424
0.628443 0.948791 0.634943
0.630365 0.948699 0.635615
0.633082 0.948425 0.636255
0.636835 0.947967 0.637232
0.641840 0.947478 0.638514
0.648188 0.946960 0.640345
0.656001 0.946471 0.642908
0.665187 0.946014 0.646052
0.675624 0.945556 0.649836
0.687587 0.945098 0.654261
0.711604 0.942229 0.661158
0.735958 0.938964 0.668452
0.760128 0.935271 0.676143
0.783810 0.931334 0.684260
0.806943 0.927276 0.693019
0.829435 0.923217 0.702480
0.851072 0.919402 0.712947
0.871550 0.915862 0.724269
0.890440 0.912596 0.736263
0.907317 0.909422 0.748562
0.921935 0.906157 0.760891
0.933959 0.902892 0.773159
0.939422 0.896391 0.785885
0.938720 0.886992 0.798886
0.936767 0.879332 0.811582
0.933379 0.873655 0.823880
0.934966 0.877195 0.842466
0.939849 0.888151 0.864988
0.986419 0.896483 0.854032
1.000000 0.902708 0.842039
0.653040 0.966400 0.659358
0.653803 0.966644 0.659968
0.655024 0.966827 0.660578
0.656977 0.966827 0.661341
0.659876 0.966857 0.662562
0.664057 0.966918 0.664240
0.670130 0.967315 0.667079
0.677760 0.967773 0.670771
0.686824 0.968444 0.675257
0.697322 0.969207 0.680568
0.708919 0.970001 0.686488
0.721309 0.970672 0.692805
0.740261 0.970031 0.700374
0.763516 0.968139 0.708797
0.786496 0.965759 0.717128
0.808591 0.962860 0.725246
0.830167 0.959686 0.733669
0.851225 0.956420 0.742519
0.871672 0.953368 0.752346
0.891203 0.950439 0.762783
0.909514 0.947723 0.773800
0.926299 0.945006 0.785122
0.941070 0.942290 0.796414
0.953857 0.939513 0.807675
0.964324 0.936675 0.818753
0.968627 0.930663 0.830320
0.968200 0.922667 0.842283
0.966644 0.916167 0.853910
0.964019 0.911620 0.865385
0.964935 0.914488 0.882109
0.969696 0.925200 0.903807
1.000000 0.934173 0.901274
0.698085 0.990509 0.702571
0.698268 0.990509 0.702663
0.698817 0.990417 0.702754
0.699947 0.990234 0.702998
0.701900 0.989990 0.703517
0.704799 0.989715 0.704372
0.708766 0.989441 0.705745
0.713954 0.989166 0.707698
0.720394 0.988983 0.710323
0.727993 0.988800 0.713527
0.736599 0.988617 0.717311
0.746181 0.988464 0.721614
0.757931 0.987945 0.726558
0.778195 0.985901 0.733394
