20 Preset/Gray style/【3】LUT video cho PR-AE-FCPX/Tone  (3).cube
# Created by Adobe Lightroom plugin Export LUT (1.24.0)
# www.johnrellis.com/lightroom/exportlut.htm
# Preset: 03素材江湖-高级灰
# Color profile: E:\lut插件\exportlut.1.24\exportlut.lrplugin\color profiles\Rec709gamma2.4.icc
LUT_3D_SIZE 5
DOMAIN_MIN 0.000000 0.000000 0.000000
DOMAIN_MAX 0.903226 0.903226 0.903226
0.000000 0.000000 0.000000
0.147921 0.026001 0.062318
0.330541 0.000000 0.118349
0.550225 0.000000 0.183474
0.862242 0.000000 0.280369
0.083558 0.145083 0.092836
0.138308 0.146761 0.151217
0.342016 0.166506 0.110323
0.564355 0.167361 0.181094
0.874235 0.157778 0.279088
0.188663 0.326146 0.197330
0.241581 0.334661 0.225254
0.380285 0.393652 0.396094
0.648341 0.417304 0.203067
0.893950 0.411139 0.246403
0.326482 0.570275 0.315007
0.362585 0.579034 0.323400
0.545678 0.642023 0.459937
0.743893 0.742458 0.719509
0.981659 0.779538 0.596002
0.532280 0.857389 0.490211
0.553918 0.859831 0.493019
0.692409 0.873564 0.600732
0.874907 0.912413 0.800473
0.957061 0.953613 0.939788
0.097078 0.118929 0.172274
0.172152 0.119203 0.203433
0.339300 0.151980 0.241886
0.559686 0.146548 0.290562
0.851713 0.000000 0.343847
0.148074 0.181857 0.198215
0.189944 0.201907 0.219364
0.362493 0.192355 0.226322
0.576013 0.190860 0.269017
0.860868 0.169802 0.337560
0.221195 0.347417 0.274235
0.253849 0.355200 0.276097
0.392859 0.408698 0.421210
0.624567 0.386999 0.207126
0.897185 0.410498 0.311894
0.345434 0.583215 0.369329
0.374792 0.590082 0.371130
0.552453 0.649744 0.487831
0.751797 0.751308 0.734066
0.974151 0.775570 0.609979
0.546838 0.859373 0.528740
0.566644 0.861479 0.530755
0.700496 0.880583 0.623590
0.880430 0.917357 0.812772
0.961181 0.958099 0.945922
0.218479 0.261295 0.377691
0.250187 0.264317 0.394598
0.399054 0.271336 0.447120
0.569299 0.340276 0.484657
0.865293 0.338384 0.558587
0.269657 0.316533 0.392004
0.286351 0.318425 0.407111
0.407813 0.318944 0.452155
0.593713 0.364385 0.494514
0.875273 0.369909 0.558312
0.342199 0.411414 0.435096
0.363409 0.420935 0.445106
0.456672 0.468269 0.489418
0.674250 0.439185 0.474006
0.914061 0.453895 0.522362
0.435431 0.628748 0.532708
0.450294 0.631128 0.531273
0.541558 0.657771 0.545892
0.775021 0.776974 0.773373
0.955993 0.725643 0.590417
0.596796 0.862852 0.643030
0.613275 0.865843 0.645472
0.677943 0.876585 0.654231
0.875517 0.918120 0.824063
0.966094 0.963897 0.955383
0.397681 0.448890 0.626429
0.418738 0.451331 0.637415
0.508202 0.449836 0.672938
0.691066 0.452918 0.717372
0.861082 0.561395 0.749538
0.431678 0.487251 0.632105
0.445197 0.486763 0.639979
0.518914 0.482673 0.672633
0.691279 0.483894 0.714961
0.858915 0.585779 0.750515
0.515862 0.577630 0.642390
0.531548 0.583978 0.647913
0.574395 0.594873 0.682216
0.709194 0.594629 0.722011
0.866148 0.675685 0.767361
0.608484 0.691432 0.697322
0.619043 0.694514 0.700587
0.666072 0.713283 0.719692
0.770413 0.768765 0.770748
0.939117 0.741451 0.756222
0.738430 0.881529 0.808103
0.743557 0.883696 0.808743
0.764218 0.893400 0.808988
0.826963 0.910582 0.810910
0.976074 0.975036 0.971466
0.714382 0.740505 0.875853
0.720638 0.740291 0.878721
0.750088 0.739956 0.890990
0.816373 0.735378 0.912413
0.926787 0.745968 0.932433
0.727687 0.756191 0.875883
0.733028 0.755978 0.878782
0.758816 0.754818 0.890776
0.820401 0.749630 0.912047
0.927886 0.758480 0.932586
0.767453 0.803067 0.877012
0.772183 0.804196 0.880125
0.790494 0.805112 0.892485
0.836667 0.799710 0.913634
0.934691 0.804288 0.936278
0.817929 0.861723 0.890959
0.821988 0.862852 0.892149
0.840482 0.868742 0.898375
0.869505 0.875151 0.920165
0.947784 0.874540 0.944762
0.868284 0.925078 0.920134
0.871763 0.926146 0.921355
0.887510 0.931701 0.927459
0.918303 0.943114 0.940124
0.974456 0.972290 0.970275
