20 Preset/Gray style/【3】LUT video cho PR-AE-FCPX/Tone  (12).cube
# Created by Adobe Lightroom plugin Export LUT (1.24.0)
# www.johnrellis.com/lightroom/exportlut.htm
# Preset: 12素材江湖-高级灰
# Color profile: E:\lut插件\exportlut.1.24\exportlut.lrplugin\color profiles\Rec709gamma2.4.icc
LUT_3D_SIZE 8
DOMAIN_MIN 0.000000 0.000000 0.000000
DOMAIN_MAX 0.903226 0.903226 0.903226
0.000000 0.000000 0.000000
0.000000 0.000000 0.000000
0.200656 0.003632 0.106813
0.344091 0.000000 0.114565
0.475807 0.000000 0.112490
0.606134 0.000000 0.125673
0.776730 0.000000 0.161013
0.928130 0.000000 0.203250
0.000000 0.068849 0.048371
0.056214 0.077455 0.071870
0.204776 0.088380 0.103914
0.336248 0.065003 0.111330
0.464790 0.033143 0.105867
0.592706 0.049928 0.121920
0.751675 0.039887 0.156252
0.907164 0.089418 0.196506
0.000000 0.216434 0.166354
0.094362 0.214237 0.173404
0.228977 0.210483 0.177737
0.363622 0.211978 0.130282
0.477150 0.222690 0.096132
0.618585 0.228672 0.130953
0.784390 0.241611 0.167849
0.932891 0.255497 0.208621
0.149172 0.348974 0.261143
0.171786 0.347723 0.265080
0.265385 0.348669 0.271916
0.391089 0.351781 0.284245
0.542779 0.345312 0.253452
0.667079 0.370275 0.170413
0.804654 0.384070 0.168032
0.940124 0.392645 0.211093
0.260533 0.489418 0.349493
0.272496 0.488106 0.351843
0.325048 0.487495 0.360266
0.430701 0.491096 0.364263
0.541283 0.482856 0.369116
0.680018 0.460670 0.350408
0.815976 0.488197 0.284916
0.942138 0.522576 0.201755
0.354589 0.642664 0.440253
0.370245 0.649317 0.448066
0.406958 0.648676 0.458869
0.491951 0.647913 0.463081
0.600458 0.645808 0.465034
0.710903 0.635554 0.473213
0.826047 0.603265 0.487190
0.973358 0.629816 0.421088
0.520562 0.791043 0.578820
0.528313 0.792355 0.582544
0.550011 0.790799 0.589868
0.596887 0.789700 0.599420
0.669764 0.786557 0.598962
0.761501 0.786831 0.604089
0.852598 0.778500 0.615106
0.932525 0.746487 0.651118
0.696132 0.924071 0.735500
0.699214 0.923888 0.736721
0.713313 0.924071 0.743374
0.740749 0.925353 0.757534
0.770352 0.914153 0.744900
0.834989 0.918883 0.754147
0.910857 0.924773 0.765774
0.979614 0.917662 0.777035
0.000000 0.011292 0.062959
0.000000 0.012238 0.067353
0.188846 0.008820 0.112947
0.321965 0.000000 0.133944
0.454414 0.000000 0.136233
0.581445 0.000000 0.155123
0.734218 0.000000 0.181521
0.888792 0.000000 0.212650
0.000000 0.066407 0.095125
0.058595 0.070924 0.099672
0.195224 0.097688 0.128145
0.324865 0.092927 0.135988
0.453590 0.046174 0.136141
0.581048 0.020844 0.155795
0.724575 0.000000 0.179446
0.876188 0.011933 0.208621
0.074952 0.211063 0.186526
0.114900 0.209567 0.192355
0.218875 0.207462 0.199649
0.348119 0.211002 0.157473
0.463966 0.211521 0.134188
0.593927 0.214481 0.158419
0.740902 0.220981 0.183749
0.895109 0.234348 0.215244
0.159487 0.336614 0.264897
0.179110 0.335668 0.268406
0.256077 0.336217 0.276982
0.366857 0.333379 0.283268
0.501732 0.324987 0.252628
0.619074 0.344152 0.169986
0.757839 0.356420 0.178714
0.902464 0.369512 0.213901
0.264286 0.479866 0.351049
0.274723 0.477577 0.352453
0.318456 0.474708 0.360906
0.414984 0.473945 0.362005
0.516960 0.463233 0.364416
0.654414 0.445899 0.345556
0.790921 0.473884 0.282811
0.920897 0.506889 0.205783
0.348486 0.628626 0.435096
0.358099 0.628901 0.437720
0.394141 0.629206 0.448341
0.476509 0.630823 0.455879
0.585626 0.631281 0.459297
0.698482 0.625269 0.470130
0.815152 0.594903 0.481147
0.960693 0.620569 0.415534
0.506035 0.778439 0.567620
0.509422 0.776516 0.567529
0.531304 0.774685 0.574548
0.579614 0.775174 0.587243
0.657801 0.775662 0.590814
0.750149 0.776120 0.595727
0.839628 0.765469 0.603662
0.920439 0.732174 0.635920
0.683680 0.915587 0.725002
0.689113 0.916838 0.728298
0.703120 0.916777 0.734585
0.731411 0.918303 0.749142
0.778012 0.920073 0.755154
0.836790 0.920745 0.758694
0.908812 0.923064 0.765438
0.977539 0.915740 0.776059
0.000000 0.106538 0.236942
0.000000 0.100893 0.237613
0.181888 0.021118 0.236393
0.314153 0.028534 0.249180
0.446296 0.000000 0.256016
0.581048 0.000000 0.262913
0.742763 0.000000 0.266606
0.900603 0.000000 0.284672
0.000000 0.119356 0.238071
0.000000 0.103120 0.238682
0.187625 0.110231 0.237095
0.313603 0.114504 0.249302
0.444068 0.067384 0.251713
0.581079 0.000000 0.250675
0.733242 0.000000 0.262425
0.890654 0.000000 0.280247
0.000000 0.224002 0.251438
0.090333 0.223514 0.252140
0.220188 0.225254 0.260441
0.342718 0.206851 0.244022
0.466712 0.193973 0.237766
0.598016 0.197360 0.248875
0.746273 0.201144 0.261814
0.898741 0.211917 0.280858
0.214481 0.343084 0.306706
0.231571 0.343755 0.309911
0.271916 0.343908 0.317327
0.367163 0.343450 0.324559
0.497780 0.339757 0.289952
0.625635 0.340429 0.236667
0.768551 0.349554 0.255833
0.912322 0.361608 0.278721
0.289952 0.478218 0.373358
0.298863 0.477760 0.374884
0.338109 0.477150 0.385046
0.418433 0.478920 0.393835
0.520043 0.472328 0.396674
0.661585 0.462135 0.372290
0.789364 0.479713 0.306676
0.925261 0.500877 0.267216
0.366522 0.625818 0.452308
0.376287 0.626703 0.455360
0.410376 0.626612 0.464973
0.475929 0.626947 0.478218
0.579187 0.626917 0.480568
0.689906 0.622644 0.490669
0.814115 0.601953 0.495766
0.957366 0.627619 0.437873
0.522637 0.781277 0.584497
0.526207 0.779782 0.584741
0.545678 0.776852 0.589960
0.585534 0.775753 0.605310
0.658350 0.775357 0.607904
0.749386 0.777310 0.613611
0.841062 0.771267 0.624567
0.928893 0.745998 0.653498
0.687709 0.916533 0.731807
0.689845 0.915679 0.732113
0.703670 0.915404 0.738033
0.734707 0.918822 0.754788
0.777798 0.920165 0.764218
0.837797 0.922759 0.769802
0.909758 0.926024 0.777096
0.978454 0.919249 0.787045
0.000000 0.140261 0.355688
0.000000 0.104433 0.357794
0.151980 0.000000 0.354009
0.312108 0.033753 0.346044
0.432227 0.079072 0.350500
0.565850 0.100008 0.364324
0.717220 0.001556 0.378943
0.876493 0.000000 0.390295
0.000000 0.125673 0.358556
0.000000 0.107057 0.358190
0.163180 0.110170 0.353033
0.315038 0.127352 0.346868
0.434424 0.136721 0.352087
0.568261 0.141848 0.365393
0.717830 0.106874 0.377661
0.876829 0.000000 0.387518
0.000000 0.246311 0.358679
0.000000 0.241855 0.357244
0.174380 0.221927 0.353979
0.323613 0.236149 0.348699
0.447211 0.244572 0.361212
0.587762 0.234958 0.371038
0.749142 0.214969 0.380224
0.904845 0.155215 0.374578
0.070771 0.361883 0.367529
0.136629 0.360632 0.367071
0.248753 0.358953 0.369085
0.373693 0.364172 0.381811
0.492042 0.333959 0.354223
0.615839 0.325353 0.350042
0.761868 0.324956 0.354528
0.910399 0.332341 0.366766
0.301610 0.486275 0.413855
0.316258 0.484962 0.415564
0.372198 0.483986 0.426764
0.426917 0.488594 0.440833
0.522362 0.485939 0.446235
0.657343 0.479927 0.411810
0.794278 0.477760 0.336217
0.931151 0.486793 0.359014
0.419440 0.632624 0.500298
0.429755 0.638148 0.505394
0.447669 0.637598 0.506126
0.502922 0.639033 0.524376
0.588159 0.639124 0.533867
0.688502 0.632013 0.537560
0.821653 0.622004 0.527428
0.954345 0.637659 0.468360
0.540764 0.782681 0.608484
0.545251 0.783474 0.609918
0.568658 0.783963 0.618189
0.610559 0.785061 0.634760
0.669825 0.785214 0.648371
0.752987 0.785122 0.650446
0.840208 0.778012 0.656519
0.937652 0.761105 0.673487
0.699428 0.923919 0.750240
0.702541 0.923674 0.751339
0.716213 0.923217 0.756710
0.743099 0.923522 0.768887
0.780087 0.923674 0.784726
0.837644 0.925750 0.788724
0.909087 0.929534 0.795621
0.979767 0.925353 0.806516
0.000000 0.130007 0.475471
0.000000 0.088380 0.476814
0.000000 0.024567 0.471687
0.302556 0.041474 0.461799
0.435706 0.113283 0.450416
0.556115 0.141390 0.457618
0.704952 0.158999 0.481056
0.866545 0.121523 0.503746
0.000000 0.134127 0.476783
0.000000 0.120699 0.477668
0.000000 0.120790 0.472419
0.305760 0.131594 0.461097
0.437446 0.158846 0.450599
0.557794 0.176486 0.459022
0.706630 0.187167 0.481941
0.867491 0.156527 0.503349
0.000000 0.271458 0.473121
0.000000 0.264134 0.472694
0.059266 0.234348 0.469337
0.318181 0.244572 0.459998
0.442512 0.259159 0.450843
0.557397 0.262852 0.458625
0.708522 0.261021 0.480934
0.866697 0.236759 0.496651
0.000000 0.389563 0.483925
0.000000 0.387823 0.483619
0.167208 0.381353 0.483894
0.339147 0.359167 0.476234
0.466743 0.369116 0.465064
0.585382 0.369818 0.475257
0.735836 0.353521 0.485389
0.888548 0.335790 0.490120
0.177951 0.496773 0.483589
0.204257 0.496773 0.484108
0.285100 0.494575 0.484291
0.393194 0.491920 0.486519
0.514183 0.494514 0.498817
0.641260 0.460639 0.464790
0.775967 0.448524 0.457557
0.916991 0.450721 0.464027
0.351171 0.613306 0.512108
0.363470 0.614069 0.514092
0.409247 0.612787 0.519829
0.493019 0.612696 0.537987
0.563012 0.619471 0.560052
0.666743 0.624537 0.573663
0.805447 0.624659 0.548577
0.947326 0.618677 0.456550
0.554955 0.773098 0.638331
0.560510 0.771695 0.638880
0.579400 0.770199 0.641444
0.607172 0.774838 0.647333
0.663020 0.779080 0.669673
0.738766 0.779812 0.679042
0.826169 0.773251 0.681788
0.939971 0.763272 0.678096
0.691585 0.915648 0.757198
0.693538 0.915404 0.757290
0.702815 0.915160 0.758816
0.732326 0.920134 0.772122
0.774075 0.921172 0.791104
0.826719 0.922942 0.805539
0.898314 0.925994 0.810330
0.971252 0.921508 0.818021
0.000000 0.109865 0.626764
0.000000 0.103212 0.626825
0.000000 0.094026 0.619837
0.270970 0.093782 0.609369
0.453040 0.123629 0.595483
0.583307 0.162875 0.583673
0.706691 0.176333 0.590112
0.865110 0.191287 0.619776
0.000000 0.148470 0.617548
0.000000 0.143038 0.616205
0.000000 0.141451 0.610895
0.270359 0.145205 0.601190
0.448829 0.164950 0.588067
0.575921 0.192325 0.576135
0.699336 0.200534 0.584009
0.858457 0.211398 0.614466
0.000000 0.292027 0.619135
0.000000 0.283146 0.618067
0.000000 0.255741 0.616785
0.287205 0.258793 0.605158
0.458686 0.268681 0.590631
0.581537 0.280919 0.578088
0.708095 0.281987 0.589776
0.864469 0.291264 0.617670
0.000000 0.434119 0.636469
0.000000 0.430335 0.633875
0.143587 0.418189 0.627619
0.306218 0.383154 0.626093
0.485847 0.389380 0.611902
0.606470 0.393500 0.595819
0.735531 0.393561 0.608850
0.884092 0.403693 0.629908
0.000000 0.546960 0.631830
0.000000 0.545708 0.631434
0.159121 0.541314 0.631495
0.332769 0.533074 0.634058
0.489326 0.499947 0.620081
0.619287 0.500938 0.600275
0.746609 0.503197 0.611872
0.893614 0.498238 0.623651
0.217533 0.649226 0.620661
0.242557 0.651179 0.623011
0.314397 0.648646 0.622248
0.418158 0.643702 0.621424
0.536553 0.636683 0.621180
0.665614 0.641291 0.637201
0.801083 0.617182 0.611170
0.935302 0.614343 0.611902
0.468086 0.773251 0.656855
0.478920 0.775021 0.659754
0.513756 0.776272 0.665553
0.576440 0.779446 0.678218
0.665980 0.781277 0.701320
0.736751 0.787594 0.726223
0.821927 0.782589 0.729366
0.946746 0.781399 0.707973
0.670405 0.918212 0.778653
0.674250 0.917205 0.778836
0.694911 0.916197 0.783780
0.737911 0.917540 0.798184
0.768215 0.920623 0.804471
0.818723 0.923247 0.825925
0.887724 0.926696 0.837919
0.964538 0.923064 0.842893
0.000000 0.139101 0.765591
0.000000 0.137942 0.766415
0.000000 0.133303 0.762875
0.152926 0.131960 0.757443
0.430213 0.140536 0.746761
0.594232 0.163210 0.730587
0.721920 0.186496 0.717769
0.843015 0.191928 0.719966
0.000000 0.169375 0.758877
0.000000 0.170169 0.760098
0.000000 0.168460 0.756954
0.154513 0.168399 0.750240
0.426917 0.174990 0.739101
0.587579 0.190066 0.721706
0.712123 0.206699 0.707668
0.831052 0.207187 0.709163
0.000000 0.304234 0.762478
0.000000 0.295872 0.762112
0.000000 0.270726 0.758816
0.178439 0.271489 0.751766
0.433387 0.273899 0.739406
0.592401 0.281102 0.723018
0.719356 0.290379 0.712581
0.844694 0.290105 0.719875
0.000000 0.456916 0.768856
0.000000 0.451270 0.767056
0.000000 0.428412 0.763760
0.192355 0.389715 0.760189
0.446082 0.390723 0.748196
0.606683 0.395239 0.732815
0.732723 0.400122 0.721614
0.859464 0.399603 0.730770
0.000000 0.583154 0.778439
0.000000 0.579706 0.776181
0.000000 0.569146 0.771176
0.317021 0.551415 0.764126
0.450416 0.509728 0.755276
0.616785 0.511223 0.737362
0.738888 0.511559 0.721889
0.872557 0.521233 0.740169
0.000000 0.697078 0.772519
0.070558 0.696895 0.772915
0.244114 0.695155 0.773617
0.380194 0.691615 0.775387
0.514336 0.685054 0.778500
0.647333 0.652796 0.765743
0.768002 0.647028 0.743923
0.894408 0.653956 0.758114
0.356573 0.805020 0.770382
0.370184 0.805539 0.771267
0.414893 0.803983 0.771145
0.490303 0.801511 0.771542
0.584985 0.795743 0.770626
0.692653 0.787594 0.769497
0.806363 0.784756 0.777951
0.935393 0.773037 0.764157
0.574182 0.913054 0.793027
0.580713 0.913512 0.794308
0.609339 0.916503 0.800931
0.657221 0.919463 0.810727
0.722835 0.923491 0.825559
0.809171 0.926635 0.849882
0.879271 0.931701 0.876524
0.957916 0.929259 0.881468
0.000000 0.189761 0.898344
0.000000 0.186801 0.898650
0.000000 0.177005 0.895720
0.000000 0.174929 0.893187
0.366064 0.177279 0.888060
0.570550 0.185183 0.879759
0.730770 0.200809 0.869566
0.861936 0.216800 0.862028
0.000000 0.202731 0.894865
0.000000 0.203037 0.895323
0.000000 0.201663 0.893248
0.000000 0.201053 0.890135
0.365393 0.203342 0.884977
0.568872 0.209232 0.876616
0.727504 0.220493 0.865324
0.857328 0.232212 0.856809
0.000000 0.311986 0.893919
0.000000 0.304021 0.893980
0.000000 0.285161 0.892088
0.000000 0.287602 0.891417
0.370062 0.288304 0.885039
0.570336 0.290654 0.875395
0.728206 0.297642 0.864134
0.857786 0.303838 0.855772
0.000000 0.454871 0.894011
0.000000 0.450568 0.894377
0.000000 0.429053 0.893584
0.000000 0.395422 0.892943
0.375036 0.397223 0.887510
0.576776 0.399695 0.878691
0.734340 0.405097 0.867460
0.863615 0.409064 0.859068
0.000000 0.591028 0.898589
0.000000 0.589654 0.898772
0.000000 0.580529 0.896330
0.221866 0.560204 0.893919
0.380163 0.516808 0.890898
0.584314 0.519036 0.881224
0.741115 0.522850 0.869383
0.869841 0.525841 0.861570
0.000000 0.724178 0.905699
0.000000 0.722652 0.904997
0.000000 0.718257 0.903929
0.320592 0.708583 0.901976
0.487922 0.691188 0.897368
0.608453 0.657130 0.894804
0.764614 0.661555 0.885801
0.889036 0.660975 0.876860
0.342901 0.843198 0.909117
0.354192 0.842649 0.908934
0.399298 0.840757 0.908629
0.479011 0.838651 0.909667
0.579461 0.835935 0.911894
0.694362 0.834379 0.916930
0.798337 0.806363 0.911467
0.909819 0.793271 0.894347
0.517784 0.949950 0.917693
0.523339 0.949523 0.917449
0.549035 0.948608 0.917571
0.598993 0.947814 0.918975
0.666957 0.945861 0.920470
0.748714 0.942504 0.921935
0.843351 0.936584 0.922820
0.940642 0.930510 0.926360
