20 Preset/Gray style/【3】LUT video cho PR-AE-FCPX/Tone  (1).cube
# Created by Adobe Lightroom plugin Export LUT (1.24.0)
# www.johnrellis.com/lightroom/exportlut.htm
# Preset: 01素材江湖-高级灰
# Color profile: E:\lut插件\exportlut.1.24\exportlut.lrplugin\color profiles\Rec709gamma2.4.icc
LUT_3D_SIZE 8
DOMAIN_MIN 0.000000 0.000000 0.000000
DOMAIN_MAX 0.903226 0.903226 0.903226
0.000000 0.000000 0.000000
0.004944 0.000519 0.000946
0.194278 0.000000 0.054231
0.321996 0.000000 0.110262
0.447761 0.000000 0.144228
0.573083 0.000000 0.195010
0.747494 0.095369 0.272374
0.892851 0.183078 0.347082
0.005921 0.027863 0.016419
0.040192 0.043427 0.038453
0.186160 0.093019 0.055543
0.303166 0.100008 0.107546
0.424872 0.089631 0.139590
0.546502 0.094148 0.185519
0.705623 0.133486 0.254276
0.855650 0.188113 0.325872
0.113558 0.178042 0.116518
0.134066 0.179110 0.124361
0.173251 0.177066 0.172335
0.327520 0.219333 0.131014
0.439734 0.215793 0.147005
0.575982 0.230381 0.203098
0.755642 0.268254 0.282383
0.895109 0.303960 0.354376
0.198123 0.297581 0.201480
0.208408 0.297612 0.202090
0.254276 0.294896 0.233616
0.299809 0.305455 0.298741
0.504234 0.391699 0.278935
0.644251 0.386084 0.236728
0.779110 0.400031 0.299870
0.897734 0.415351 0.362707
0.287633 0.415503 0.290471
0.294285 0.417029 0.290501
0.334722 0.421607 0.313695
0.398505 0.434730 0.366308
0.446509 0.450294 0.436347
0.612390 0.519158 0.414405
0.760983 0.518517 0.340612
0.885924 0.520226 0.359869
0.383276 0.543816 0.379675
0.397620 0.557000 0.388342
0.427008 0.560662 0.400000
0.483162 0.565850 0.437293
0.544732 0.574182 0.492348
0.595666 0.594903 0.570245
0.740414 0.668696 0.581018
0.898558 0.682948 0.511192
0.491371 0.681636 0.477424
0.498238 0.685451 0.480323
0.515343 0.686488 0.482094
0.564355 0.688167 0.513329
0.620661 0.688624 0.556725
0.680903 0.700557 0.619135
0.726741 0.722316 0.692073
0.831266 0.781430 0.714748
0.626612 0.822690 0.604089
0.629206 0.823026 0.603967
0.642847 0.826810 0.606409
0.685054 0.832761 0.633051
0.706416 0.808133 0.639429
0.770962 0.820981 0.697932
0.827359 0.837583 0.762966
0.857450 0.850584 0.819730
0.016358 0.027497 0.061402
0.081727 0.005859 0.095613
0.182803 0.068391 0.123323
0.298680 0.093874 0.157778
0.422431 0.027344 0.177188
0.539940 0.037079 0.213077
0.686854 0.108034 0.269993
0.828672 0.157900 0.328832
0.057679 0.076722 0.084810
0.094911 0.097871 0.102907
0.190433 0.112337 0.126009
0.301518 0.117800 0.150484
0.418524 0.111910 0.174777
0.534325 0.117128 0.210269
0.669062 0.141817 0.261814
0.805234 0.173922 0.316197
0.134829 0.185611 0.154879
0.147433 0.190799 0.156130
0.185672 0.191775 0.194064
0.321508 0.217136 0.155093
0.426490 0.213901 0.175387
0.551263 0.226108 0.219089
0.689509 0.245487 0.272343
0.832212 0.273686 0.332769
0.200595 0.287358 0.216648
0.208835 0.289372 0.216342
0.251926 0.291356 0.241672
0.291569 0.298131 0.295842
0.457465 0.357336 0.266819
0.577142 0.346044 0.229129
0.703151 0.358160 0.278599
0.833524 0.376715 0.335302
0.290745 0.411139 0.302464
0.295689 0.410956 0.301152
0.328374 0.412696 0.315312
0.382147 0.417212 0.357397
0.419318 0.424475 0.415015
0.575341 0.488197 0.393591
0.722469 0.489509 0.323888
0.849332 0.494667 0.346014
0.373419 0.525231 0.377264
0.378882 0.527306 0.378027
0.405066 0.532830 0.386755
0.461128 0.541100 0.423316
0.523522 0.552880 0.477485
0.579736 0.579736 0.557427
0.723720 0.651942 0.565545
0.878019 0.663081 0.493751
0.472633 0.658564 0.464759
0.473243 0.655940 0.461769
0.487282 0.656977 0.459907
0.537621 0.661555 0.491615
0.600702 0.669306 0.540398
0.660975 0.681392 0.601862
0.702052 0.698299 0.669459
0.807095 0.755734 0.687495
0.605554 0.803250 0.586908
0.612177 0.807065 0.590753
0.624994 0.810239 0.592157
0.666438 0.817319 0.616785
0.722713 0.822477 0.658534
0.776303 0.825925 0.705196
0.824491 0.834958 0.760983
0.854337 0.847562 0.817105
0.131044 0.148165 0.201236
0.143618 0.148806 0.212863
0.220859 0.149172 0.244266
0.306615 0.197482 0.266911
0.435920 0.202579 0.299596
0.572168 0.222385 0.338445
0.719509 0.237583 0.379034
0.855314 0.259403 0.419989
0.158053 0.176425 0.207187
0.164096 0.177707 0.217014
0.222995 0.177737 0.244450
0.312413 0.206607 0.268070
0.431189 0.209506 0.292912
0.564721 0.224857 0.328313
0.702724 0.232486 0.362432
0.839567 0.246189 0.399756
0.204776 0.222599 0.235691
0.213993 0.229557 0.243229
0.246738 0.254429 0.266758
0.349706 0.247837 0.264866
0.462715 0.250309 0.282506
0.588159 0.266361 0.316899
0.718288 0.282109 0.354131
0.847501 0.307134 0.399878
0.256291 0.319677 0.299199
0.262455 0.323735 0.301427
0.292241 0.337713 0.309300
0.342596 0.352117 0.360540
0.491432 0.383520 0.323796
0.612024 0.376287 0.321263
0.736080 0.388037 0.359899
0.857542 0.405737 0.405615
0.331304 0.433539 0.366918
0.335515 0.435035 0.367010
0.357519 0.443488 0.368719
0.415961 0.452552 0.406928
0.458839 0.465217 0.462593
0.610498 0.517601 0.433814
0.739101 0.494942 0.353307
0.861479 0.510430 0.405646
0.400702 0.537621 0.424109
0.406012 0.540581 0.425483
0.423743 0.546777 0.426398
0.473701 0.553460 0.452430
0.534447 0.563897 0.500847
0.589990 0.591241 0.575860
0.733211 0.660609 0.580560
0.880980 0.668971 0.521050
0.501549 0.672908 0.509880
0.502068 0.670924 0.507317
0.511254 0.669459 0.502617
0.550011 0.672480 0.518700
0.610620 0.678340 0.562310
0.673182 0.693385 0.622309
0.721218 0.717983 0.693294
0.829587 0.777768 0.712032
0.619898 0.806790 0.613550
0.620203 0.805570 0.611627
0.631525 0.808286 0.612268
0.669856 0.821164 0.630945
0.725978 0.826108 0.670497
0.784360 0.833860 0.720089
0.834165 0.844694 0.775631
0.863859 0.857572 0.829770
0.216617 0.241062 0.318364
0.226658 0.244968 0.328161
0.263493 0.246433 0.350317
0.351141 0.252140 0.380713
0.443061 0.301244 0.405859
0.567285 0.330541 0.446754
0.699214 0.339269 0.477577
0.826230 0.359106 0.510979
0.244266 0.269444 0.331090
0.248966 0.270268 0.337011
0.276432 0.269017 0.356847
0.357855 0.272465 0.386389
0.450202 0.319097 0.413397
0.573571 0.337713 0.449165
0.698573 0.344793 0.475624
0.825406 0.362890 0.508202
0.285100 0.308934 0.337957
0.290990 0.312902 0.342046
0.304570 0.319860 0.363439
0.370520 0.326390 0.394995
0.464912 0.366003 0.428565
0.603967 0.375006 0.462287
0.741787 0.391547 0.495613
0.858671 0.403967 0.521294
0.345464 0.369146 0.386053
0.349432 0.371923 0.388891
0.370062 0.387854 0.405249
0.411688 0.419013 0.432319
0.518822 0.405463 0.421302
0.627344 0.406775 0.434668
0.744167 0.417121 0.459846
0.862181 0.437476 0.495308
0.409796 0.477089 0.461860
0.411475 0.478248 0.461921
0.423133 0.487892 0.465034
0.464363 0.507866 0.478584
0.517205 0.524834 0.531243
0.651209 0.547509 0.490517
0.766445 0.527581 0.464546
0.876249 0.539879 0.501823
0.469093 0.580591 0.514000
0.480690 0.591028 0.522606
0.489967 0.593439 0.520409
0.520378 0.604883 0.523857
0.584802 0.614405 0.568200
0.630579 0.633051 0.626368
0.764004 0.686427 0.616297
0.891722 0.673640 0.554528
0.546593 0.690150 0.576532
0.550408 0.692317 0.577844
0.562585 0.696986 0.579034
0.588220 0.706142 0.581964
0.645441 0.712795 0.615381
0.704005 0.724239 0.665675
0.746578 0.744320 0.726162
0.853696 0.798642 0.735470
0.658869 0.824674 0.670893
0.660517 0.824887 0.670588
0.669215 0.827054 0.670436
0.690455 0.833799 0.673274
0.736690 0.839200 0.696986
0.795010 0.845792 0.742306
0.846708 0.857847 0.796078
0.879973 0.874479 0.851102
0.317479 0.345068 0.438972
0.325872 0.349889 0.447395
0.349859 0.354864 0.466407
0.408911 0.359564 0.501213
0.504356 0.366949 0.531670
0.586175 0.403388 0.542596
0.673518 0.454444 0.572137
0.817563 0.470710 0.615351
0.340459 0.368658 0.452705
0.348516 0.373999 0.461646
0.368292 0.376745 0.479011
0.416236 0.374121 0.505394
0.506676 0.378363 0.533074
0.588251 0.413458 0.544762
0.675746 0.461311 0.574273
0.817899 0.475532 0.615351
0.386175 0.415595 0.468879
0.389410 0.417670 0.473426
0.396826 0.416632 0.484871
0.427100 0.410346 0.505180
0.503380 0.409003 0.526787
0.577234 0.437263 0.537407
0.684504 0.469947 0.573175
0.811185 0.482643 0.605280
0.421332 0.450172 0.478218
0.424537 0.452338 0.480323
0.441138 0.463966 0.492195
0.463111 0.476143 0.519188
0.525963 0.477455 0.542748
0.601221 0.503746 0.561425
0.719722 0.508507 0.585779
0.832761 0.516045 0.607111
0.470008 0.495735 0.510643
0.474128 0.499092 0.513939
0.488167 0.509697 0.524468
0.515892 0.531090 0.545708
0.554437 0.557977 0.566796
0.650843 0.539849 0.549798
0.751797 0.540032 0.561547
0.859281 0.550958 0.584894
0.511894 0.573571 0.561822
0.514366 0.576013 0.563561
0.519371 0.580499 0.565148
0.535454 0.595026 0.571313
0.573297 0.610529 0.581353
0.640955 0.645472 0.648280
0.771389 0.679194 0.626642
0.886015 0.662318 0.598901
0.591791 0.696559 0.637537
0.589929 0.694697 0.634791
0.589349 0.693690 0.629236
0.606775 0.704372 0.632044
0.641962 0.719478 0.638209
0.707820 0.731350 0.684810
0.751766 0.751095 0.740566
0.860685 0.794125 0.731014
0.661311 0.808591 0.697017
0.662104 0.808530 0.696345
0.667750 0.810147 0.695186
0.695583 0.825834 0.707057
0.725521 0.836973 0.711238
0.787594 0.845762 0.750271
0.844114 0.857725 0.802304
0.878721 0.874296 0.855528
0.458778 0.486976 0.599512
0.465431 0.490791 0.605798
0.474067 0.486397 0.610712
0.505791 0.485237 0.628779
0.562982 0.475837 0.650416
0.648005 0.479652 0.667323
0.724971 0.520134 0.676509
0.808469 0.583093 0.708736
0.445533 0.474617 0.577539
0.447395 0.474189 0.579217
0.457313 0.472480 0.587274
0.486488 0.471046 0.605432
0.545708 0.466102 0.631861
0.633539 0.472999 0.653285
0.712123 0.513939 0.665064
0.797513 0.576287 0.699001
0.492256 0.522789 0.598932
0.492348 0.521508 0.599786
0.497536 0.519097 0.606622
0.507866 0.506004 0.612451
0.556970 0.499214 0.635645
0.639979 0.505211 0.656764
0.717098 0.544610 0.671107
0.800900 0.600397 0.705501
0.537804 0.565087 0.604120
0.536980 0.564019 0.604456
0.543206 0.568170 0.614191
0.564233 0.578607 0.639521
0.600580 0.576074 0.663661
0.670161 0.576928 0.680812
0.740322 0.608881 0.695674
0.825834 0.647974 0.728786
0.552728 0.582300 0.604456
0.554681 0.583459 0.605554
0.565118 0.590417 0.612360
0.587457 0.606165 0.627893
0.608301 0.616571 0.651911
0.663539 0.616266 0.670069
0.730770 0.642634 0.689418
0.844388 0.650019 0.716182
0.591455 0.615991 0.626154
0.597772 0.621637 0.631556
0.605371 0.626917 0.636744
0.621118 0.638239 0.647883
0.644800 0.655818 0.665217
0.690822 0.690394 0.693538
0.790677 0.685115 0.689693
0.889128 0.690883 0.705745
0.669886 0.720027 0.708003
0.673640 0.723781 0.711269
0.677516 0.728145 0.713924
0.685878 0.737331 0.719020
0.699153 0.751431 0.723507
0.732815 0.765316 0.730007
0.786496 0.786984 0.783993
0.895293 0.809781 0.757687
0.728542 0.822293 0.769741
0.726741 0.820951 0.767605
0.727047 0.822141 0.765682
0.731960 0.828946 0.764767
0.742824 0.837369 0.761288
0.777615 0.852171 0.765743
0.849943 0.868009 0.820493
0.889433 0.886290 0.873594
0.554070 0.578851 0.689204
0.556390 0.579431 0.691157
0.564324 0.579431 0.697414
0.584070 0.580072 0.710628
0.618250 0.576928 0.727840
0.676417 0.570367 0.750240
0.752987 0.579858 0.765652
0.820615 0.614588 0.773678
0.558251 0.583520 0.688319
0.560510 0.584192 0.690364
0.567834 0.584039 0.696529
0.584985 0.583124 0.708400
0.618372 0.580163 0.725948
0.675319 0.573297 0.748165
0.750912 0.581964 0.763333
0.818235 0.615930 0.771481
0.581231 0.608240 0.692927
0.582238 0.608087 0.694362
0.587182 0.607355 0.699886
0.600641 0.605951 0.711147
0.628962 0.602472 0.727871
0.681605 0.595941 0.749874
0.755520 0.603876 0.766140
0.823026 0.637598 0.776638
0.615839 0.643488 0.698665
0.615167 0.642329 0.698695
0.619867 0.643977 0.705196
0.628717 0.643885 0.716823
0.649287 0.641047 0.733028
0.694423 0.635523 0.754910
0.764157 0.640986 0.771633
0.830564 0.672480 0.784543
0.647913 0.673396 0.702419
0.649165 0.673976 0.703029
0.655726 0.677760 0.706874
0.663722 0.683558 0.718959
0.676051 0.686152 0.737758
0.708370 0.681422 0.759304
0.773373 0.684230 0.777005
0.841611 0.716487 0.795407
0.677729 0.705257 0.720302
0.679255 0.706325 0.721370
0.685237 0.710292 0.725307
0.697078 0.718135 0.733211
0.715846 0.730495 0.745998
0.736477 0.741054 0.769986
0.791562 0.743008 0.790311
0.857420 0.771847 0.812070
0.720180 0.743008 0.747280
0.721736 0.744167 0.748409
0.727016 0.747921 0.752102
0.737911 0.755856 0.759884
0.755032 0.768399 0.772244
0.779965 0.787198 0.790860
0.817838 0.814908 0.813657
0.906493 0.809293 0.810758
0.793759 0.833860 0.822049
0.794491 0.834745 0.822690
0.798001 0.838865 0.825864
0.804013 0.846128 0.830900
0.813199 0.857237 0.837644
0.826474 0.872862 0.843717
0.858152 0.888609 0.849058
0.912352 0.910704 0.904906
0.707668 0.725673 0.821592
0.708949 0.725887 0.822721
0.712825 0.725154 0.826169
0.723049 0.724666 0.833982
0.741787 0.722927 0.845487
0.773190 0.719265 0.860472
0.822690 0.713069 0.878904
0.884062 0.722988 0.890013
0.709621 0.728084 0.820951
0.710903 0.728359 0.822110
0.714870 0.727871 0.825834
0.724483 0.727077 0.833402
0.742641 0.725368 0.844877
0.773648 0.721584 0.859892
0.822416 0.715114 0.878202
0.883604 0.724697 0.889372
0.721492 0.741665 0.822263
0.722286 0.741665 0.823148
0.725368 0.740932 0.826688
0.734340 0.740871 0.834836
0.750149 0.738613 0.845884
0.778439 0.734463 0.860533
0.825345 0.728023 0.878904
0.885649 0.736446 0.890562
0.741115 0.763485 0.823972
0.742184 0.763943 0.825162
0.745296 0.764431 0.829313
0.751156 0.763851 0.836851
0.763699 0.762081 0.848142
0.788327 0.758419 0.863096
0.831815 0.752224 0.881621
0.890837 0.758694 0.894102
0.766690 0.788571 0.824521
0.767178 0.788998 0.825650
0.768399 0.789487 0.829435
0.774105 0.792081 0.838437
0.782773 0.792233 0.850736
0.801083 0.789120 0.866026
0.839902 0.783688 0.885344
0.898375 0.788449 0.899474
0.792569 0.815183 0.835111
0.793149 0.815457 0.835386
0.796231 0.816983 0.837217
0.803220 0.820890 0.841642
0.811124 0.825895 0.851926
0.823362 0.829374 0.871397
0.853300 0.826139 0.892332
0.909758 0.828336 0.908080
0.821195 0.845457 0.853727
0.821866 0.845853 0.854154
0.824857 0.847684 0.856077
0.831266 0.851804 0.860380
0.841825 0.858457 0.867491
0.857542 0.868406 0.878325
0.874418 0.876432 0.899168
0.923461 0.877409 0.918486
0.857206 0.877440 0.876982
0.857847 0.877867 0.877409
0.860838 0.879911 0.879484
0.867369 0.884550 0.884154
0.877684 0.891997 0.891600
0.892729 0.902892 0.902617
0.914244 0.918975 0.918883
0.946197 0.943236 0.940612
