20 Preset/Gray style/【3】LUT video cho PR-AE-FCPX/Tone  (13).cube
# Created by Adobe Lightroom plugin Export LUT (1.24.0)
# www.johnrellis.com/lightroom/exportlut.htm
# Preset: 13素材江湖-高级灰
# Color profile: E:\lut插件\exportlut.1.24\exportlut.lrplugin\color profiles\Rec709gamma2.4.icc
LUT_3D_SIZE 8
DOMAIN_MIN 0.000000 0.000000 0.000000
DOMAIN_MAX 0.903226 0.903226 0.903226
0.000000 0.000000 0.000000
0.134005 0.057771 0.079774
0.273655 0.111574 0.115236
0.407752 0.134890 0.110842
0.534844 0.164675 0.114778
0.670069 0.204807 0.137087
0.839322 0.259648 0.166873
0.978119 0.313359 0.202762
0.062806 0.140078 0.122469
0.136934 0.133181 0.139254
0.270146 0.154726 0.126772
0.396124 0.168276 0.120516
0.519951 0.188846 0.122683
0.651698 0.221500 0.141451
0.811673 0.268345 0.166445
0.955230 0.318303 0.198001
0.129091 0.275731 0.201541
0.172610 0.273747 0.208011
0.277897 0.254154 0.234409
0.414130 0.257877 0.196811
0.531060 0.274510 0.157778
0.681697 0.305058 0.171298
0.844266 0.346471 0.193851
0.980713 0.385840 0.223392
0.221530 0.404211 0.277653
0.239597 0.402411 0.280156
0.333135 0.396979 0.295293
0.434546 0.389075 0.330816
0.590417 0.399207 0.316381
0.730556 0.427131 0.247562
0.860868 0.450080 0.231205
0.984375 0.474006 0.252262
0.313024 0.557671 0.350286
0.325841 0.556786 0.352270
0.387335 0.555993 0.362982
0.506859 0.548821 0.384588
0.590600 0.523033 0.416083
0.704067 0.509941 0.419989
0.861479 0.539483 0.350286
0.980835 0.571130 0.292210
0.408026 0.704067 0.430640
0.424781 0.711696 0.438849
0.463264 0.712184 0.448646
0.563073 0.704646 0.466102
0.671077 0.691463 0.491157
0.745968 0.666712 0.530480
0.827878 0.654231 0.571893
0.997711 0.678828 0.495460
0.549401 0.840146 0.556023
0.557824 0.841672 0.559838
0.581201 0.840574 0.566461
0.638025 0.837644 0.580621
0.725887 0.826352 0.596826
0.814542 0.817716 0.623865
0.873991 0.797757 0.661402
0.919341 0.784543 0.720027
0.703273 0.957366 0.702937
0.706661 0.957214 0.704128
0.722621 0.957488 0.710903
0.753567 0.958923 0.725734
0.797787 0.942565 0.720516
0.872496 0.940490 0.746456
0.942473 0.939422 0.777401
0.984375 0.924376 0.808804
0.000000 0.060090 0.169436
0.123049 0.075471 0.170809
0.256413 0.092927 0.173190
0.382452 0.127749 0.167636
0.510246 0.151522 0.159487
0.640436 0.192538 0.172000
0.794675 0.241276 0.188937
0.936492 0.293156 0.211826
0.023621 0.145510 0.176516
0.134249 0.145785 0.181369
0.257969 0.157137 0.184146
0.383307 0.164462 0.172976
0.508171 0.181125 0.163973
0.639094 0.214664 0.175357
0.783413 0.255497 0.189822
0.922301 0.301762 0.209903
0.152529 0.268956 0.231998
0.180697 0.268650 0.236515
0.271427 0.256199 0.255375
0.398596 0.259464 0.219852
0.515648 0.267002 0.188418
0.652735 0.291478 0.195834
0.797940 0.323949 0.207034
0.940459 0.364019 0.227359
0.226993 0.389349 0.288121
0.243412 0.388708 0.290837
0.322240 0.386572 0.304082
0.410285 0.371954 0.329625
0.548852 0.377203 0.310887
0.677546 0.398199 0.244694
0.809964 0.420478 0.234592
0.944030 0.449104 0.250217
0.314794 0.545037 0.356909
0.325933 0.542840 0.358007
0.375006 0.540764 0.366461
0.486275 0.528527 0.383368
0.562463 0.500847 0.409186
0.678248 0.493172 0.410559
0.834470 0.523705 0.346349
0.957733 0.555200 0.287846
0.400122 0.688289 0.428443
0.410224 0.688808 0.430823
0.448341 0.690303 0.440742
0.544244 0.686458 0.458869
0.654322 0.675959 0.484321
0.733150 0.655940 0.525628
0.817197 0.644495 0.563287
0.984710 0.668269 0.487495
0.534844 0.826169 0.545739
0.538476 0.824277 0.545251
0.562036 0.822873 0.551354
0.618708 0.822324 0.567376
0.712703 0.814817 0.588006
0.802304 0.806241 0.614496
0.859983 0.783597 0.648249
0.906493 0.768521 0.702846
0.689357 0.948669 0.691310
0.695552 0.950011 0.695033
0.711330 0.950072 0.701350
0.743191 0.951843 0.716518
0.805417 0.948638 0.733272
0.874052 0.942473 0.751919
0.940337 0.937804 0.776883
0.982361 0.922454 0.807584
0.000000 0.104707 0.303044
0.039979 0.105989 0.302434
0.253666 0.125307 0.297612
0.378027 0.149386 0.303410
0.516777 0.083436 0.274815
0.656794 0.138735 0.253086
0.809873 0.220279 0.265019
0.951873 0.282261 0.280034
0.000000 0.178714 0.299382
0.091646 0.165042 0.299687
0.255192 0.178347 0.296941
0.376287 0.183444 0.300816
0.515953 0.113313 0.259739
0.650141 0.185885 0.253635
0.798245 0.238743 0.263462
0.940490 0.293523 0.277195
0.121187 0.282902 0.305333
0.170138 0.282963 0.306615
0.286107 0.286351 0.315129
0.403998 0.260288 0.281682
0.526268 0.260990 0.267765
0.665003 0.284733 0.269505
0.807462 0.316381 0.275151
0.946166 0.356207 0.287175
0.257633 0.395087 0.338201
0.277379 0.396521 0.342260
0.329534 0.399512 0.352148
0.418494 0.390234 0.372107
0.551751 0.397864 0.348089
0.687831 0.405127 0.296605
0.822995 0.423987 0.297337
0.955200 0.450690 0.307256
0.334417 0.540703 0.394446
0.346044 0.540581 0.396246
0.389685 0.542351 0.404944
0.486824 0.539117 0.421881
0.571435 0.517235 0.445380
0.694514 0.513848 0.435889
0.833646 0.533654 0.374182
0.961517 0.557275 0.336889
0.417548 0.683131 0.460578
0.427863 0.684382 0.463416
0.463508 0.685328 0.472023
0.537102 0.684535 0.488716
0.646540 0.673518 0.510552
0.725917 0.656458 0.547143
0.820157 0.652461 0.575036
0.980072 0.678981 0.515038
0.553857 0.827848 0.574731
0.557610 0.826352 0.574517
0.578088 0.823728 0.578363
0.620539 0.823697 0.591943
0.710231 0.815824 0.609094
0.800870 0.808804 0.634760
0.862608 0.791684 0.669978
0.918090 0.783536 0.719600
0.695552 0.948608 0.705135
0.697932 0.947784 0.705104
0.713222 0.947692 0.710811
0.747860 0.951354 0.728359
0.802792 0.949401 0.744808
0.873960 0.945098 0.765133
0.940917 0.941283 0.789792
0.983398 0.926726 0.818936
0.000000 0.124392 0.415381
0.000000 0.127474 0.416205
0.232303 0.146242 0.409186
0.377203 0.180941 0.400641
0.495064 0.201083 0.406012
0.641413 0.197116 0.412879
0.800626 0.100954 0.383886
0.945769 0.122286 0.352361
0.000000 0.190860 0.415137
0.000000 0.182284 0.414771
0.242466 0.194553 0.408820
0.380560 0.218051 0.401953
0.497414 0.229160 0.407996
0.644953 0.215976 0.410895
0.801633 0.129274 0.376287
0.943145 0.187961 0.353613
0.000000 0.305821 0.414801
0.100649 0.302770 0.413336
0.254002 0.286534 0.409461
0.387213 0.301762 0.402472
0.511803 0.310582 0.417517
0.673365 0.269108 0.398871
0.830503 0.255131 0.366857
0.958495 0.325292 0.368780
0.192203 0.418280 0.419501
0.220706 0.417395 0.419593
0.308812 0.417060 0.422522
0.435523 0.422858 0.434913
0.559319 0.390082 0.394293
0.688319 0.388617 0.378576
0.821775 0.404578 0.375402
0.955840 0.433265 0.381903
0.336553 0.545800 0.451270
0.350835 0.545220 0.452613
0.407904 0.547539 0.462806
0.485847 0.555932 0.481544
0.582238 0.542016 0.502800
0.709743 0.542565 0.477424
0.840055 0.541131 0.409613
0.966552 0.558099 0.414771
0.453071 0.688594 0.521996
0.468818 0.694575 0.529473
0.501396 0.693812 0.535546
0.560021 0.697261 0.552239
0.653407 0.691493 0.571221
0.728817 0.672175 0.594781
0.835569 0.674464 0.602350
0.975799 0.694423 0.552056
0.573114 0.826871 0.614984
0.579889 0.827695 0.617426
0.604211 0.828763 0.624689
0.647517 0.831022 0.639155
0.715297 0.829099 0.656886
0.803647 0.819669 0.675593
0.863676 0.801999 0.702541
0.931579 0.799496 0.737209
0.712123 0.953948 0.736599
0.715419 0.953765 0.737545
0.730098 0.953460 0.742397
0.759060 0.954070 0.753811
0.799619 0.954223 0.769802
0.871336 0.949187 0.786923
0.939696 0.945739 0.809903
0.984985 0.934112 0.838865
0.000000 0.170748 0.546014
0.000000 0.174563 0.546654
0.191379 0.186282 0.539849
0.381018 0.210452 0.528801
0.510460 0.239292 0.517906
0.633204 0.251957 0.527062
0.777005 0.269780 0.546868
0.930602 0.236545 0.536889
0.000000 0.220371 0.546715
0.000000 0.218357 0.548028
0.206729 0.225895 0.541802
0.384771 0.241520 0.528435
0.512963 0.263615 0.519188
0.635370 0.272557 0.528557
0.777859 0.288029 0.547387
0.931518 0.251316 0.534173
0.000000 0.344610 0.543755
0.091127 0.337774 0.543328
0.223575 0.311742 0.538720
0.394720 0.321843 0.529595
0.515160 0.333898 0.517510
0.632654 0.335424 0.525689
0.777859 0.336431 0.538750
0.930541 0.292576 0.515404
0.000000 0.457893 0.555108
0.096345 0.456092 0.554650
0.255894 0.448981 0.554955
0.406195 0.424231 0.545983
0.537346 0.433509 0.531182
0.657893 0.434943 0.541192
0.805478 0.402441 0.522667
0.956268 0.350042 0.472877
0.242191 0.562707 0.547173
0.264500 0.562829 0.547875
0.338506 0.561303 0.548791
0.447486 0.559808 0.552544
0.579889 0.559838 0.561089
0.702510 0.523278 0.514885
0.827756 0.516014 0.494240
0.955413 0.530510 0.492226
0.402167 0.660792 0.552056
0.414405 0.661433 0.554101
0.458595 0.660670 0.559533
0.535332 0.664973 0.576165
0.616999 0.673671 0.599725
0.711360 0.670588 0.628840
0.837461 0.681758 0.617060
0.967834 0.682246 0.550866
0.568658 0.815152 0.651331
0.573999 0.813657 0.651453
0.597314 0.811856 0.654627
0.638361 0.816800 0.664698
0.701534 0.822507 0.686824
0.786191 0.817411 0.705653
0.851469 0.800443 0.726497
0.938506 0.801358 0.737758
0.691127 0.943938 0.746517
0.694697 0.943603 0.747250
0.710719 0.943023 0.751369
0.749660 0.947814 0.768551
0.793576 0.949523 0.785733
0.854765 0.948486 0.804898
0.928313 0.943603 0.824491
0.977173 0.931579 0.849210
0.000000 0.230686 0.700008
0.000000 0.232975 0.700130
0.019806 0.239628 0.693019
0.370214 0.253056 0.684443
0.535027 0.274113 0.674250
0.661128 0.294163 0.660548
0.781094 0.304265 0.664576
0.920928 0.338872 0.685298
0.000000 0.259159 0.689662
0.000000 0.260227 0.688350
0.094820 0.264317 0.683009
0.368627 0.274388 0.675837
0.528038 0.290227 0.663752
0.652430 0.307713 0.651301
0.772335 0.316258 0.656977
0.913176 0.347417 0.679011
0.000000 0.377996 0.696590
0.000000 0.370855 0.695735
0.150240 0.349737 0.693416
0.381262 0.351812 0.679774
0.534844 0.360662 0.665400
0.656245 0.371649 0.652308
0.777615 0.377874 0.660914
0.915373 0.406500 0.682033
0.000000 0.506737 0.708431
0.142061 0.503105 0.705653
0.295903 0.493568 0.699672
0.402991 0.464210 0.698970
0.561761 0.471901 0.685054
0.677485 0.476997 0.667567
0.796262 0.484108 0.677455
0.926513 0.508354 0.695613
0.168215 0.610529 0.696956
0.203738 0.609552 0.696651
0.305028 0.606287 0.696773
0.432258 0.601709 0.699489
0.566430 0.574151 0.684871
0.681086 0.574304 0.663905
0.796353 0.577874 0.674922
0.938811 0.559838 0.665278
0.338781 0.703212 0.678401
0.357488 0.705440 0.681086
0.411414 0.702815 0.680385
0.495155 0.698939 0.680354
0.595636 0.693843 0.681178
0.717525 0.695857 0.691585
0.842741 0.676112 0.661311
0.965179 0.678737 0.651728
0.519585 0.809873 0.694575
0.529564 0.811673 0.697353
0.560571 0.812772 0.701961
0.617456 0.815549 0.712123
0.695796 0.821500 0.731044
0.775875 0.829068 0.756344
0.851652 0.815824 0.773678
0.961883 0.822751 0.761379
0.676417 0.942901 0.783505
0.679255 0.942077 0.783169
0.697780 0.941680 0.786557
0.740505 0.942992 0.799283
0.782193 0.945739 0.808774
0.841062 0.948821 0.831388
0.915923 0.946685 0.852262
0.971771 0.935332 0.873014
0.000000 0.287175 0.826200
0.000000 0.289220 0.826902
0.000000 0.293706 0.823758
0.327428 0.302983 0.819059
0.514244 0.315221 0.809506
0.661982 0.331670 0.794980
0.783200 0.349523 0.782864
0.897917 0.363531 0.785245
0.000000 0.307073 0.820096
0.000000 0.309117 0.821164
0.000000 0.312230 0.818265
0.327489 0.318547 0.812314
0.510948 0.328496 0.802304
0.655818 0.341863 0.786740
0.774350 0.356481 0.773373
0.887480 0.366552 0.775204
0.000000 0.402625 0.822843
0.000000 0.396826 0.822507
0.000000 0.381872 0.819577
0.343084 0.385382 0.813169
0.518029 0.391363 0.802090
0.660456 0.401282 0.787259
0.779873 0.414740 0.776913
0.896330 0.426551 0.783749
0.176944 0.537804 0.826749
0.196414 0.532464 0.825101
0.264805 0.514153 0.822232
0.371374 0.486366 0.818936
0.537591 0.491005 0.808103
0.675959 0.499702 0.794156
0.789822 0.508934 0.782956
0.903441 0.515801 0.791135
0.213870 0.649683 0.831876
0.243473 0.647059 0.829862
0.341344 0.640223 0.825437
0.465156 0.629786 0.819028
0.554803 0.597253 0.811276
0.686397 0.598322 0.795529
0.792630 0.598230 0.780636
0.911101 0.609827 0.797238
0.354253 0.750484 0.822934
0.368597 0.750423 0.823209
0.419928 0.749416 0.824002
0.502098 0.747341 0.825925
0.603967 0.743496 0.829129
0.710811 0.715877 0.817746
0.814450 0.709499 0.796902
0.926177 0.717678 0.810178
0.465614 0.844022 0.816281
0.475532 0.844511 0.817075
0.508751 0.843137 0.817044
0.569024 0.841062 0.817655
0.647944 0.836728 0.817563
0.740291 0.831327 0.818112
0.842618 0.825437 0.820096
0.957061 0.819120 0.804135
0.617395 0.934508 0.821042
0.623194 0.934905 0.822080
0.648951 0.937407 0.827543
0.692378 0.939788 0.835325
0.752529 0.942931 0.847074
0.826902 0.948455 0.865995
0.901335 0.954070 0.891752
0.968017 0.944945 0.909575
0.000000 0.354803 0.943938
0.000000 0.356298 0.944182
0.000000 0.358953 0.941527
0.284001 0.366949 0.939300
0.489204 0.378820 0.934813
0.648768 0.394781 0.927733
0.788479 0.417243 0.919188
0.905852 0.441047 0.912291
0.000000 0.368750 0.940673
0.000000 0.370031 0.941009
0.000000 0.372992 0.939178
0.287633 0.379644 0.936461
0.489418 0.390204 0.931945
0.647669 0.405035 0.924834
0.785733 0.424781 0.915343
0.901793 0.445960 0.907652
0.000000 0.439338 0.938903
0.000000 0.435157 0.938994
0.000000 0.428107 0.937285
0.313787 0.435950 0.936614
0.500633 0.443915 0.931121
0.652857 0.455177 0.922881
0.787839 0.472450 0.913451
0.901701 0.488258 0.906035
0.124056 0.557977 0.936797
0.158389 0.555474 0.937102
0.238743 0.541985 0.936492
0.358556 0.524529 0.935882
0.525322 0.532280 0.931151
0.668147 0.541070 0.923827
0.795773 0.551385 0.914855
0.905882 0.559533 0.907927
0.323308 0.675471 0.937743
0.341711 0.675227 0.937896
0.399451 0.670436 0.935851
0.477394 0.657740 0.934051
0.547723 0.628077 0.931914
0.680140 0.630945 0.924346
0.802152 0.635187 0.915496
0.910521 0.639612 0.909483
0.401373 0.783658 0.941466
0.409644 0.782589 0.940948
0.446754 0.779782 0.940124
0.521172 0.773220 0.938445
0.619165 0.762264 0.935180
0.702266 0.737453 0.933989
0.821592 0.741848 0.927886
0.925292 0.742367 0.921386
0.518273 0.880461 0.941802
0.524559 0.880095 0.941680
0.551415 0.878843 0.941497
0.604242 0.877806 0.942473
0.677852 0.876860 0.944488
0.768185 0.877836 0.948852
0.848722 0.856809 0.945708
0.938720 0.844236 0.931762
0.612696 0.969085 0.945037
0.616785 0.968719 0.944854
0.636652 0.967956 0.945006
0.676509 0.967224 0.946197
0.732357 0.965576 0.947539
0.800839 0.962860 0.948974
0.878569 0.959533 0.950927
0.958862 0.952850 0.950561
