20 Preset/Gray style/【3】LUT video cho PR-AE-FCPX/Tone  (10).cube
# Created by Adobe Lightroom plugin Export LUT (1.24.0)
# www.johnrellis.com/lightroom/exportlut.htm
# Preset: 10素材江湖-高级灰
# Color profile: E:\lut插件\exportlut.1.24\exportlut.lrplugin\color profiles\Rec709gamma2.4.icc
LUT_3D_SIZE 8
DOMAIN_MIN 0.000000 0.000000 0.000000
DOMAIN_MAX 0.903226 0.903226 0.903226
0.000000 0.000000 0.000000
0.129488 0.047425 0.086519
0.260044 0.096620 0.131350
0.388952 0.101503 0.149569
0.510552 0.111116 0.173342
0.637507 0.143832 0.212680
0.804318 0.189670 0.258518
0.946288 0.242039 0.303136
0.079042 0.138827 0.129030
0.132784 0.133364 0.147738
0.258061 0.153384 0.143954
0.378363 0.155123 0.157351
0.496864 0.159426 0.178317
0.620478 0.180117 0.214023
0.777157 0.214176 0.254368
0.922820 0.257023 0.296971
0.151614 0.271916 0.216098
0.185458 0.270451 0.222416
0.269932 0.253666 0.250858
0.397528 0.264408 0.228214
0.507988 0.274205 0.210056
0.649378 0.293095 0.241581
0.811093 0.323033 0.279057
0.949310 0.353429 0.319310
0.251194 0.397742 0.296635
0.264439 0.396460 0.298772
0.342351 0.392828 0.315435
0.424048 0.388434 0.353918
0.555596 0.406653 0.354925
0.701747 0.435401 0.303624
0.829465 0.451698 0.307866
0.953429 0.468299 0.342931
0.350683 0.547906 0.375952
0.360296 0.547295 0.377874
0.409949 0.547143 0.388464
0.510063 0.540856 0.413275
0.574853 0.520348 0.447974
0.668177 0.520806 0.462104
0.832517 0.553704 0.409918
0.949523 0.586358 0.376623
0.455573 0.693019 0.466316
0.470741 0.700832 0.475074
0.501823 0.701930 0.484749
0.584344 0.695094 0.504387
0.672023 0.683070 0.532464
0.727626 0.665034 0.573266
0.791928 0.670008 0.618280
0.960082 0.704829 0.575097
0.600763 0.829679 0.598352
0.607660 0.831388 0.601953
0.625910 0.830838 0.607782
0.671778 0.828702 0.621424
0.742733 0.818143 0.639002
0.813138 0.810819 0.667811
0.856077 0.797452 0.705776
0.888060 0.800351 0.761532
0.751247 0.949004 0.745907
0.753933 0.948974 0.746975
0.766567 0.949676 0.752895
0.791562 0.951965 0.766049
0.824857 0.935882 0.762264
0.885283 0.934752 0.788205
0.939879 0.934997 0.818936
0.969055 0.925628 0.849516
0.000000 0.057527 0.160525
0.117617 0.078157 0.164034
0.239902 0.106691 0.185855
0.365301 0.111940 0.198184
0.487037 0.117983 0.210147
0.609888 0.147005 0.236637
0.759823 0.180972 0.268803
0.903502 0.224308 0.303929
0.044190 0.143801 0.175296
0.134249 0.145785 0.181369
0.248753 0.155215 0.194278
0.366766 0.158663 0.203189
0.485359 0.161807 0.214481
0.608270 0.182589 0.239658
0.748989 0.208225 0.267979
0.889189 0.243137 0.300908
0.168643 0.266178 0.239780
0.191775 0.266606 0.244236
0.266606 0.256321 0.265690
0.384039 0.266545 0.244541
0.494118 0.268650 0.233860
0.622614 0.282902 0.256901
0.764950 0.303258 0.282780
0.908171 0.331975 0.316503
0.252171 0.384039 0.302708
0.265202 0.383917 0.305180
0.331304 0.382849 0.319585
0.401678 0.371496 0.347997
0.518273 0.383764 0.343053
0.649561 0.406348 0.295537
0.779049 0.421393 0.303807
0.912627 0.441932 0.334783
0.349676 0.535943 0.379583
0.358007 0.533989 0.380560
0.397528 0.532738 0.388525
0.490211 0.521386 0.408179
0.548394 0.498726 0.437201
0.644190 0.502617 0.448615
0.806271 0.536858 0.401617
0.926696 0.569055 0.368200
0.445411 0.677485 0.461006
0.453590 0.678187 0.463508
0.484413 0.680323 0.473121
0.564904 0.677211 0.493294
0.655604 0.667811 0.522820
0.715480 0.654231 0.566247
0.781765 0.659693 0.608423
0.949248 0.693111 0.563317
0.585779 0.815610 0.586664
0.588190 0.813748 0.586084
0.606317 0.812924 0.591302
0.652399 0.813291 0.606653
0.729549 0.806577 0.628717
0.801053 0.799283 0.657160
0.842252 0.783047 0.691798
0.874815 0.784298 0.744564
0.738033 0.940124 0.734157
0.743252 0.941558 0.737575
0.755703 0.942046 0.743099
0.781521 0.944701 0.756649
0.832181 0.942168 0.773465
0.886931 0.936889 0.792630
0.937926 0.933410 0.817868
0.967132 0.923644 0.847837
0.000000 0.105043 0.285435
0.047517 0.108248 0.286076
0.240238 0.131563 0.285863
0.359899 0.161837 0.297093
0.483558 0.168093 0.306920
0.617090 0.177218 0.320165
0.774838 0.176761 0.333928
0.918791 0.221469 0.361212
0.000000 0.175631 0.287083
0.103426 0.164858 0.288426
0.246586 0.180728 0.289067
0.359747 0.194430 0.299016
0.481575 0.190982 0.304997
0.615930 0.190799 0.313939
0.763790 0.205539 0.331182
0.907347 0.241917 0.357397
0.147982 0.279911 0.303197
0.185061 0.280583 0.305211
0.286046 0.286290 0.315038
0.388922 0.272496 0.305028
0.503166 0.272648 0.307927
0.634211 0.285557 0.322423
0.774899 0.302068 0.340581
0.913909 0.328435 0.366522
0.277775 0.391791 0.345251
0.294316 0.393683 0.349371
0.339239 0.397742 0.359319
0.414130 0.390845 0.382391
0.535637 0.406439 0.370489
0.661707 0.413977 0.341650
0.793088 0.426123 0.358312
0.923949 0.445747 0.384436
0.364355 0.533288 0.409827
0.373816 0.533379 0.411536
0.410010 0.535973 0.420020
0.493507 0.533867 0.439063
0.560632 0.516075 0.466987
0.663722 0.522271 0.468696
0.806332 0.547417 0.424903
0.930602 0.571191 0.411627
0.458778 0.673243 0.486549
0.467231 0.674647 0.489418
0.496651 0.676234 0.497993
0.558618 0.676478 0.515435
0.649775 0.666499 0.540703
0.710750 0.654994 0.580102
0.787289 0.665827 0.615137
0.949462 0.701625 0.579431
0.599786 0.817777 0.609064
0.602502 0.816373 0.608850
0.618311 0.814267 0.612055
0.652949 0.815274 0.624506
0.727382 0.808133 0.643549
0.800900 0.802335 0.671626
0.846433 0.791196 0.708400
0.888090 0.798093 0.758419
0.742061 0.940185 0.744167
0.743679 0.939422 0.744076
0.755886 0.939696 0.749081
0.784482 0.944305 0.765103
0.829557 0.943175 0.781308
0.887266 0.939727 0.802304
0.939361 0.937102 0.827665
0.969024 0.927886 0.856535
0.000000 0.125277 0.390356
0.000000 0.129854 0.391608
0.222721 0.151736 0.388006
0.359045 0.189761 0.384619
0.471351 0.215305 0.393774
0.603998 0.236240 0.413764
0.751522 0.237339 0.431891
0.896269 0.245792 0.448066
0.000000 0.188022 0.393164
0.000000 0.182071 0.393347
0.235660 0.196750 0.390295
0.364569 0.223636 0.387823
0.475074 0.240604 0.397253
0.607782 0.254643 0.415930
0.752377 0.253056 0.431220
0.896391 0.259892 0.446296
0.000000 0.298863 0.399969
0.139101 0.297002 0.399420
0.258396 0.286046 0.397833
0.378637 0.303624 0.394568
0.494087 0.316960 0.411505
0.634546 0.316625 0.426459
0.785824 0.317906 0.440589
0.924010 0.313207 0.444862
0.229374 0.413184 0.416236
0.250584 0.412665 0.416571
0.322789 0.414191 0.420935
0.435035 0.422431 0.434485
0.541253 0.404913 0.420722
0.662013 0.403204 0.421515
0.791318 0.412970 0.432868
0.923217 0.434730 0.454810
0.367376 0.539788 0.458534
0.378759 0.539452 0.459937
0.426856 0.542870 0.470100
0.495338 0.552819 0.489204
0.576623 0.541985 0.514794
0.692927 0.552514 0.501823
0.813230 0.557031 0.460182
0.934966 0.573510 0.485298
0.488899 0.680140 0.538720
0.502617 0.686336 0.546105
0.529107 0.686152 0.551934
0.578851 0.690791 0.567895
0.659327 0.686183 0.588922
0.717922 0.671260 0.616663
0.806821 0.684871 0.634485
0.946807 0.714748 0.606683
0.613123 0.817472 0.640070
0.618891 0.818418 0.642420
0.638880 0.819974 0.649317
0.675196 0.823270 0.663172
0.732876 0.822477 0.681147
0.805875 0.814084 0.703090
0.850217 0.801511 0.732631
0.903777 0.812161 0.771633
0.754604 0.945830 0.769009
0.757229 0.945739 0.769802
0.768978 0.945830 0.774228
0.792721 0.947234 0.784665
0.826352 0.948608 0.799557
0.885588 0.944274 0.818021
0.939696 0.941894 0.842313
0.972107 0.935149 0.871733
0.000000 0.168338 0.507317
0.000000 0.172732 0.508507
0.189487 0.187961 0.504479
0.362066 0.216953 0.497993
0.483131 0.250278 0.492226
0.600092 0.270848 0.505943
0.740719 0.294347 0.531426
0.885618 0.308476 0.554986
0.000000 0.215732 0.510124
0.000000 0.215335 0.511742
0.208164 0.225895 0.508019
0.368048 0.245884 0.499275
0.487343 0.272709 0.494942
0.603326 0.289128 0.508690
0.742519 0.310369 0.532830
0.886442 0.321813 0.555322
0.116762 0.333989 0.513603
0.149386 0.328862 0.513695
0.237797 0.308934 0.511131
0.384558 0.322026 0.505577
0.496071 0.338415 0.499245
0.605890 0.345983 0.510704
0.744289 0.359075 0.533593
0.884215 0.364355 0.551293
0.150088 0.445045 0.533227
0.184268 0.444007 0.533471
0.282170 0.439857 0.535515
0.409216 0.422736 0.530480
0.527245 0.435279 0.521263
0.639399 0.441016 0.534081
0.769436 0.440192 0.545037
0.902983 0.443641 0.555505
0.296086 0.554284 0.541192
0.312016 0.554742 0.542107
0.369329 0.554681 0.544152
0.461769 0.555901 0.549798
0.579126 0.559136 0.560418
0.682643 0.539574 0.543755
0.798184 0.537865 0.543969
0.920806 0.552148 0.559197
0.443610 0.653773 0.559930
0.453468 0.654627 0.561975
0.488563 0.654444 0.567254
0.553033 0.659998 0.583307
0.624659 0.670253 0.606348
0.705562 0.670069 0.639551
0.820737 0.691188 0.639918
0.938659 0.703182 0.604486
0.605493 0.806302 0.666743
0.609369 0.804959 0.666651
0.628077 0.803647 0.669551
0.663325 0.809384 0.679927
0.718074 0.816526 0.701381
0.791226 0.812650 0.722408
0.841245 0.799710 0.747219
0.912474 0.811826 0.767697
0.732937 0.935424 0.771969
0.735775 0.935210 0.772580
0.748714 0.935058 0.776455
0.781613 0.940764 0.792813
0.818601 0.943786 0.809049
0.870634 0.943938 0.828397
0.930632 0.940002 0.850278
0.965972 0.932280 0.876616
0.000000 0.226139 0.656458
0.000000 0.228824 0.656825
0.109255 0.238132 0.651087
0.356847 0.255344 0.643397
0.510918 0.282170 0.637751
0.630610 0.308354 0.629816
0.746578 0.325750 0.639216
0.884977 0.364324 0.666438
0.000000 0.254124 0.647425
0.000000 0.255680 0.646418
0.136568 0.262058 0.642267
0.357336 0.275822 0.636652
0.505394 0.297215 0.628870
0.623011 0.320165 0.621790
0.738766 0.335698 0.632654
0.877653 0.371405 0.660700
0.000000 0.366979 0.657679
0.000000 0.361242 0.657313
0.189487 0.344732 0.656336
0.376593 0.349981 0.645502
0.517174 0.363195 0.634943
0.631037 0.379309 0.626795
0.747494 0.391852 0.640009
0.882109 0.425116 0.666407
0.166171 0.492927 0.677821
0.205783 0.489998 0.675380
0.315099 0.482612 0.670832
0.408179 0.459571 0.672053
0.551751 0.470497 0.661646
0.659510 0.480201 0.648981
0.771878 0.492714 0.662531
0.897307 0.520867 0.685206
0.253208 0.597620 0.676234
0.273136 0.596887 0.676020
0.343359 0.594812 0.676997
0.447242 0.592767 0.681147
0.566918 0.571313 0.670192
0.671778 0.575372 0.654170
0.778683 0.582879 0.667628
0.904540 0.589014 0.682643
0.399542 0.693141 0.671077
0.413733 0.695521 0.673762
0.454383 0.693904 0.673854
0.522026 0.691829 0.675166
0.607874 0.689418 0.677943
0.716579 0.694911 0.690639
0.824399 0.687678 0.684871
0.937224 0.694850 0.693141
0.566308 0.801816 0.702358
0.574517 0.803799 0.705104
0.599207 0.805295 0.709651
0.645869 0.808927 0.719600
0.712093 0.816068 0.737636
0.782345 0.825284 0.762112
0.845579 0.814908 0.783597
0.944244 0.831052 0.782742
0.718898 0.934203 0.800198
0.721035 0.933440 0.799802
0.735470 0.933440 0.802823
0.770016 0.935729 0.814328
0.805692 0.939605 0.824247
0.856596 0.944457 0.846098
0.921050 0.943511 0.868833
0.963165 0.935607 0.892515
0.000000 0.280949 0.786038
0.000000 0.283360 0.787015
0.000000 0.289586 0.784421
0.325231 0.301946 0.780758
0.499184 0.318608 0.772763
0.638605 0.340551 0.760464
0.753689 0.364294 0.751553
0.864073 0.385473 0.757961
0.000000 0.300786 0.780362
0.000000 0.303014 0.781613
0.000000 0.307774 0.779294
0.326513 0.316899 0.774258
0.496468 0.330968 0.765957
0.632807 0.349737 0.752560
0.745052 0.370245 0.742428
0.853758 0.387671 0.748196
0.000000 0.393347 0.786038
0.000000 0.388281 0.785885
0.000000 0.375921 0.783230
0.346105 0.381750 0.777707
0.506615 0.390997 0.768093
0.640131 0.405463 0.755612
0.753170 0.424292 0.748440
0.864744 0.443000 0.758968
0.216129 0.524224 0.794888
0.230625 0.519432 0.793271
0.285771 0.503197 0.790646
0.379065 0.479652 0.788144
0.530999 0.487037 0.778714
0.660365 0.499550 0.766934
0.767422 0.513848 0.758846
0.875669 0.526787 0.770443
0.271641 0.636805 0.805905
0.291020 0.634241 0.803891
0.366674 0.627924 0.799710
0.472511 0.618647 0.793912
0.555200 0.591241 0.787472
0.677150 0.595789 0.773953
0.775875 0.600244 0.762356
0.888243 0.616571 0.782132
0.409003 0.739437 0.804562
0.419623 0.739467 0.804959
0.458717 0.738918 0.806058
0.525566 0.737575 0.808530
0.612665 0.734951 0.812619
0.709621 0.711757 0.803281
0.805203 0.709926 0.786587
0.909239 0.721340 0.802365
0.525444 0.833371 0.808347
0.533227 0.833921 0.809201
0.558434 0.833127 0.809506
0.606287 0.832090 0.810880
0.671168 0.829526 0.812070
0.750515 0.826658 0.814389
0.841611 0.824369 0.818997
0.942504 0.824094 0.819577
0.671107 0.925750 0.829282
0.675685 0.926238 0.830289
0.696071 0.929168 0.835691
0.730648 0.932280 0.843290
0.779629 0.936522 0.854612
0.842130 0.943511 0.872587
0.907500 0.951263 0.897673
0.962860 0.944518 0.919097
0.000000 0.346685 0.912352
0.000000 0.348547 0.912657
0.000000 0.352270 0.910063
0.287877 0.362188 0.908019
0.481788 0.377111 0.903868
0.634699 0.397192 0.897154
0.768429 0.424659 0.889097
0.880247 0.454292 0.883482
0.000000 0.360815 0.909148
0.000000 0.362402 0.909575
0.000000 0.366186 0.907774
0.292241 0.374762 0.905241
0.482521 0.388281 0.901061
0.633936 0.406989 0.894316
0.765774 0.431678 0.885283
0.876219 0.458564 0.878874
0.000000 0.430274 0.908659
0.000000 0.426612 0.908782
0.000000 0.420691 0.907042
0.319829 0.430152 0.906737
0.495216 0.440589 0.901427
0.640528 0.455238 0.893462
0.769131 0.476875 0.884489
0.877073 0.498054 0.878264
0.164889 0.546197 0.909056
0.188663 0.543908 0.909422
0.255436 0.531609 0.908782
0.364965 0.516625 0.908293
0.522362 0.526726 0.903807
0.658412 0.538689 0.896666
0.779507 0.552941 0.888151
0.883299 0.565667 0.882292
0.344579 0.664515 0.913664
0.359899 0.664271 0.913848
0.409216 0.659113 0.911650
0.480659 0.647272 0.909819
0.548882 0.621302 0.907652
0.674220 0.626673 0.900267
0.789212 0.634058 0.891814
0.890776 0.642451 0.886809
0.440894 0.775814 0.922301
0.446693 0.774685 0.921752
0.475746 0.771695 0.920928
0.537194 0.764828 0.919127
0.622614 0.753323 0.915587
0.701076 0.731502 0.914580
0.813687 0.738643 0.909087
0.910002 0.742428 0.903502
0.567712 0.873625 0.928099
0.572351 0.873289 0.928008
0.593072 0.872099 0.927916
0.635004 0.871336 0.929137
0.695827 0.870665 0.931609
0.773495 0.871763 0.936645
0.846403 0.852171 0.933501
0.929931 0.843748 0.921294
0.670954 0.959838 0.938598
0.674006 0.959564 0.938476
0.688960 0.959075 0.938750
0.719844 0.959014 0.940337
0.764248 0.958404 0.942290
0.820432 0.957122 0.944579
0.886534 0.955688 0.947753
0.958007 0.951873 0.949554
