20 Preset/Gray style/【3】LUT video cho PR-AE-FCPX/Tone  (6).cube
# Created by Adobe Lightroom plugin Export LUT (1.24.0)
# www.johnrellis.com/lightroom/exportlut.htm
# Preset: 06素材江湖-高级灰
# Color profile: E:\lut插件\exportlut.1.24\exportlut.lrplugin\color profiles\Rec709gamma2.4.icc
LUT_3D_SIZE 5
DOMAIN_MIN 0.000000 0.000000 0.000000
DOMAIN_MAX 0.903226 0.903226 0.903226
0.000000 0.000000 0.000000
0.217136 0.090303 0.099397
0.454383 0.133516 0.145998
0.689723 0.213138 0.233799
0.935912 0.323644 0.352178
0.128847 0.206851 0.143374
0.191043 0.203159 0.211643
0.466804 0.237766 0.134096
0.704982 0.287755 0.235233
0.943938 0.372564 0.356054
0.284276 0.423316 0.306310
0.330266 0.424201 0.329015
0.434363 0.448737 0.456672
0.750912 0.494728 0.288548
0.950439 0.501762 0.340429
0.461006 0.658412 0.466041
0.487129 0.661982 0.473487
0.596094 0.667170 0.551720
0.682429 0.685939 0.675837
0.948730 0.757839 0.587884
0.663111 0.868315 0.645899
0.675868 0.870298 0.648493
0.734981 0.862211 0.680537
0.836088 0.871916 0.772183
0.892210 0.888365 0.869993
0.042695 0.135439 0.270024
0.247868 0.174075 0.289403
0.460090 0.217227 0.315679
0.697414 0.261662 0.345892
0.913298 0.351324 0.415106
0.198520 0.266606 0.286076
0.270115 0.285252 0.307774
0.481147 0.279393 0.296941
0.705531 0.320592 0.341772
0.918547 0.387549 0.412879
0.328222 0.449348 0.385168
0.358953 0.456886 0.388983
0.453346 0.469184 0.484443
0.745052 0.471778 0.289128
0.944549 0.511254 0.402625
0.487251 0.667750 0.512596
0.508659 0.672541 0.516411
0.610315 0.679561 0.579248
0.694057 0.697871 0.691188
0.945892 0.759182 0.607111
0.674098 0.870115 0.667628
0.685512 0.871672 0.669429
0.751095 0.876249 0.704829
0.846830 0.882109 0.787869
0.901915 0.898283 0.881437
0.130129 0.258183 0.524773
0.286564 0.286809 0.531456
0.516167 0.374273 0.559045
0.681025 0.456550 0.588006
0.909178 0.473610 0.615320
0.141329 0.336370 0.539208
0.301183 0.355779 0.544427
0.525292 0.426856 0.563104
0.701076 0.479347 0.592676
0.915831 0.497902 0.613275
0.425116 0.537591 0.551690
0.460304 0.542382 0.558099
0.564996 0.572869 0.589075
0.754391 0.554925 0.566278
0.931731 0.586603 0.600183
0.579065 0.701320 0.640375
0.586694 0.701350 0.638849
0.642359 0.716365 0.650080
0.735592 0.740078 0.741665
0.950286 0.747646 0.635889
0.702449 0.873075 0.730220
0.713008 0.875822 0.732723
0.754910 0.885283 0.741238
0.852964 0.892271 0.809232
0.910887 0.908110 0.895659
0.314763 0.420020 0.749935
0.390997 0.436439 0.753475
0.575494 0.492714 0.759701
0.750118 0.571862 0.769162
0.880552 0.654017 0.790951
0.330632 0.462135 0.751308
0.401495 0.474403 0.752193
0.581537 0.524865 0.756588
0.747951 0.593835 0.765133
0.877836 0.670069 0.790982
0.354437 0.591424 0.756130
0.385748 0.586206 0.759396
0.601007 0.624933 0.763607
0.764431 0.680995 0.773007
0.885588 0.735012 0.804898
0.650629 0.761532 0.758785
0.662745 0.761410 0.759487
0.715511 0.768124 0.769253
0.796048 0.794156 0.795407
0.947417 0.787747 0.786770
0.789487 0.895293 0.839841
0.793698 0.897093 0.840635
0.811368 0.905699 0.843076
0.858976 0.919646 0.847349
0.936156 0.934661 0.928771
0.604639 0.663966 0.941650
0.631250 0.671534 0.941985
0.720943 0.699580 0.942901
0.840024 0.745998 0.945800
0.947112 0.794858 0.951263
0.617456 0.686030 0.942687
0.642481 0.692622 0.942962
0.728908 0.718105 0.943999
0.844724 0.760983 0.947082
0.949279 0.806332 0.952605
0.621546 0.740444 0.946410
0.650599 0.747677 0.946654
0.742794 0.771908 0.947601
0.856443 0.807218 0.951110
0.956085 0.843412 0.956725
0.699275 0.860105 0.949004
0.708858 0.859495 0.950011
0.745235 0.854337 0.953643
0.860166 0.870085 0.957549
0.967681 0.902037 0.964416
0.856138 0.962493 0.951629
0.861936 0.963073 0.952544
0.884184 0.964477 0.955474
0.928557 0.968933 0.963134
0.985779 0.983307 0.981018
