20 Preset/Gray style/【3】LUT video cho PR-AE-FCPX/Tone  (10).cube
# Created by Adobe Lightroom plugin Export LUT (1.24.0)
# www.johnrellis.com/lightroom/exportlut.htm
# Preset: 10素材江湖-高级灰
# Color profile: E:\lut插件\exportlut.1.24\exportlut.lrplugin\color profiles\Rec709gamma2.4.icc
LUT_3D_SIZE 5
DOMAIN_MIN 0.000000 0.000000 0.000000
DOMAIN_MAX 0.903226 0.903226 0.903226
0.000000 0.000000 0.000000
0.226963 0.093233 0.125460
0.450538 0.102235 0.158114
0.673030 0.153353 0.222354
0.946288 0.242039 0.303136
0.130800 0.241947 0.195773
0.238071 0.225528 0.228244
0.449836 0.242649 0.189303
0.689509 0.271427 0.244327
0.954192 0.331273 0.317418
0.305974 0.474922 0.339574
0.352270 0.468544 0.346685
0.502373 0.456855 0.403143
0.737331 0.486702 0.365057
0.947875 0.524804 0.354437
0.500511 0.737484 0.506035
0.526848 0.738796 0.514733
0.652399 0.728664 0.548272
0.762814 0.700221 0.606928
0.941863 0.731441 0.628931
0.751247 0.949004 0.745907
0.762203 0.949310 0.750729
0.796201 0.937285 0.752499
0.900084 0.934966 0.795926
0.969055 0.925628 0.849516
0.000000 0.098878 0.254246
0.208347 0.117189 0.258030
0.419806 0.150423 0.277104
0.648554 0.156313 0.294255
0.905425 0.219730 0.340124
0.126131 0.247044 0.275273
0.248814 0.252628 0.285710
0.436286 0.239017 0.277806
0.658045 0.260899 0.303624
0.910033 0.304967 0.347967
0.316136 0.456825 0.364874
0.352361 0.456947 0.371954
0.476326 0.440955 0.409644
0.698482 0.471809 0.373449
0.934447 0.513878 0.387579
0.509392 0.729519 0.525353
0.535668 0.732052 0.534447
0.647211 0.726864 0.564935
0.756832 0.698665 0.616358
0.940978 0.732326 0.631861
0.752316 0.947326 0.752285
0.762539 0.947204 0.756252
0.808621 0.948852 0.776730
0.905943 0.942626 0.811948
0.974517 0.934264 0.863584
0.000000 0.144167 0.446448
0.152590 0.161074 0.444099
0.419654 0.220768 0.436286
0.635004 0.263890 0.464942
0.890288 0.276463 0.501091
0.089662 0.290318 0.450538
0.202792 0.270085 0.449256
0.430793 0.299596 0.441810
0.644465 0.320012 0.471168
0.899687 0.327886 0.502617
0.265324 0.479896 0.474556
0.325322 0.479377 0.476356
0.505180 0.488319 0.494453
0.701045 0.466499 0.478004
0.922911 0.493019 0.505882
0.521935 0.711696 0.583337
0.544488 0.707729 0.585687
0.627192 0.718776 0.611902
0.748318 0.704982 0.656031
0.936980 0.735134 0.644038
0.740383 0.937469 0.765377
0.753719 0.938872 0.771145
0.800839 0.942687 0.791867
0.891020 0.940032 0.823850
0.966033 0.929778 0.868833
0.000000 0.235508 0.680385
0.000000 0.244266 0.679194
0.430732 0.274418 0.669856
0.655451 0.317723 0.653834
0.872770 0.362707 0.683528
0.000000 0.338262 0.680812
0.000000 0.323888 0.679255
0.439460 0.339361 0.668025
0.652613 0.367132 0.648890
0.868803 0.404700 0.681086
0.153811 0.542748 0.697475
0.274388 0.534813 0.692531
0.467475 0.501610 0.681727
0.669978 0.514427 0.657221
0.882231 0.549828 0.697108
0.437415 0.733364 0.709957
0.467506 0.729793 0.707790
0.578515 0.726650 0.710384
0.747860 0.726711 0.721828
0.934173 0.721248 0.718532
0.710475 0.932982 0.807065
0.724941 0.934020 0.810697
0.786770 0.940124 0.830167
0.871946 0.948547 0.861753
0.962707 0.937102 0.897948
0.000000 0.346685 0.912352
0.000000 0.350774 0.910704
0.393652 0.369177 0.906371
0.669917 0.403601 0.895384
0.880247 0.454292 0.883482
0.000000 0.406989 0.909636
0.000000 0.403632 0.908659
0.407233 0.417639 0.903838
0.672969 0.445869 0.892332
0.878782 0.488594 0.880522
0.310277 0.612360 0.910002
0.343297 0.601770 0.908659
0.463294 0.567498 0.905882
0.693233 0.580255 0.892607
0.885527 0.600885 0.883024
0.481453 0.803922 0.925658
0.504936 0.801724 0.925048
0.601862 0.795956 0.925566
0.738186 0.760922 0.917876
0.914122 0.766659 0.906950
0.670954 0.959838 0.938598
0.683772 0.959167 0.938567
0.740627 0.958862 0.941344
0.836179 0.956817 0.945312
0.958007 0.951873 0.949554
