20 Preset/Gray style/【3】LUT video cho PR-AE-FCPX/Tone  (8).cube
# Created by Adobe Lightroom plugin Export LUT (1.24.0)
# www.johnrellis.com/lightroom/exportlut.htm
# Preset: 08素材江湖-高级灰
# Color profile: E:\lut插件\exportlut.1.24\exportlut.lrplugin\color profiles\Rec709gamma2.4.icc
LUT_3D_SIZE 5
DOMAIN_MIN 0.000000 0.000000 0.000000
DOMAIN_MAX 0.903226 0.903226 0.903226
0.000000 0.000000 0.000000
0.167056 0.000000 0.028931
0.380682 0.000000 0.114931
0.617853 0.000000 0.172915
0.901305 0.000000 0.272557
0.131441 0.156161 0.104799
0.197116 0.166323 0.102937
0.388403 0.192966 0.137972
0.627039 0.178408 0.194797
0.907317 0.162753 0.289677
0.327489 0.379187 0.264530
0.362097 0.390112 0.258030
0.474189 0.392828 0.239628
0.665919 0.436591 0.278294
0.907408 0.458839 0.346685
0.584314 0.655299 0.457221
0.608484 0.662287 0.460609
0.689784 0.682765 0.427131
0.776791 0.638025 0.398535
0.948699 0.666682 0.450843
0.835355 0.898711 0.698451
0.847715 0.901427 0.703059
0.878965 0.904570 0.683040
0.963409 0.921599 0.648859
1.000000 0.871702 0.640284
0.083650 0.138552 0.190524
0.193790 0.128908 0.228672
0.392554 0.148165 0.265232
0.632319 0.000000 0.285649
0.895598 0.000000 0.324529
0.166232 0.204501 0.220127
0.217441 0.225620 0.243351
0.419440 0.196353 0.236332
0.643610 0.166445 0.269322
0.897948 0.131624 0.334905
0.335790 0.400488 0.339086
0.371221 0.410864 0.345678
0.472084 0.408911 0.316289
0.658259 0.448493 0.339544
0.909209 0.461097 0.393164
0.585992 0.663203 0.502342
0.610864 0.670863 0.509300
0.688716 0.691035 0.486122
0.776242 0.649104 0.448219
0.945983 0.677699 0.491127
0.834318 0.900481 0.717800
0.845914 0.902922 0.721889
0.885710 0.913146 0.719692
0.962799 0.927581 0.684596
1.000000 0.881498 0.671168
0.217624 0.317266 0.420417
0.238376 0.304692 0.439673
0.447089 0.310277 0.494118
0.618799 0.387793 0.529107
0.890471 0.359411 0.577264
0.295293 0.373541 0.433753
0.308415 0.370642 0.450629
0.455848 0.361547 0.498360
0.648005 0.405005 0.537774
0.902007 0.377508 0.571649
0.389929 0.457618 0.475898
0.411383 0.467323 0.486976
0.502739 0.501701 0.518029
0.716732 0.470100 0.504417
0.937743 0.459663 0.529900
0.594263 0.684230 0.619348
0.609766 0.688472 0.621942
0.689174 0.716945 0.642481
0.775357 0.693843 0.597345
0.936492 0.720027 0.615198
0.823453 0.902922 0.771939
0.835203 0.906340 0.776394
0.881041 0.918761 0.793332
0.946044 0.933227 0.769833
1.000000 0.897154 0.741299
0.402075 0.523400 0.654505
0.412757 0.517754 0.665278
0.504021 0.502159 0.698482
0.714961 0.506371 0.738338
0.870451 0.604181 0.768338
0.453498 0.559442 0.657954
0.458320 0.553277 0.665949
0.519554 0.532677 0.697414
0.714839 0.534386 0.735836
0.868803 0.624170 0.769223
0.544030 0.629023 0.665522
0.558862 0.633356 0.670253
0.594079 0.637201 0.702541
0.729732 0.631067 0.741176
0.879332 0.699519 0.784543
0.643183 0.713283 0.712856
0.651942 0.716091 0.716304
0.692042 0.733211 0.735683
0.776913 0.765164 0.764492
0.960052 0.750332 0.764828
0.821225 0.913756 0.848631
0.830716 0.916228 0.853056
0.869108 0.927916 0.869718
0.935943 0.949950 0.891447
0.999054 0.931701 0.853178
0.696345 0.781033 0.885985
0.699031 0.777462 0.889586
0.714229 0.760800 0.905272
0.807065 0.755306 0.929198
0.947082 0.762722 0.951904
0.714443 0.795743 0.885710
0.716640 0.792660 0.889342
0.728023 0.776333 0.904784
0.811307 0.768307 0.928923
0.948302 0.774624 0.952209
0.761227 0.838346 0.886381
0.766629 0.838651 0.889921
0.780148 0.832517 0.905058
0.827878 0.815579 0.930846
0.955840 0.819150 0.956573
0.817563 0.889921 0.902770
0.821927 0.890593 0.904021
0.841642 0.894804 0.910582
0.871489 0.896239 0.936645
0.969879 0.891234 0.965881
0.885954 0.944884 0.932891
0.889555 0.946044 0.934447
0.906035 0.951965 0.942138
0.938598 0.964141 0.957885
0.990173 0.984894 0.981872
