20 Preset/Gray style/【3】LUT video cho PR-AE-FCPX/Tone  (1).cube
# Created by Adobe Lightroom plugin Export LUT (1.24.0)
# www.johnrellis.com/lightroom/exportlut.htm
# Preset: 01素材江湖-高级灰
# Color profile: E:\lut插件\exportlut.1.24\exportlut.lrplugin\color profiles\Rec709gamma2.4.icc
LUT_3D_SIZE 5
DOMAIN_MIN 0.000000 0.000000 0.000000
DOMAIN_MAX 0.903226 0.903226 0.903226
0.000000 0.000000 0.000000
0.162997 0.000000 0.050263
0.386419 0.000000 0.125948
0.605035 0.000000 0.208804
0.892851 0.183078 0.347082
0.093782 0.151431 0.098146
0.146548 0.150057 0.145541
0.382605 0.188693 0.130129
0.618494 0.208499 0.220584
0.903441 0.284459 0.358495
0.235508 0.347539 0.239048
0.271916 0.347692 0.255283
0.383886 0.389014 0.379065
0.670985 0.455116 0.293370
0.886290 0.463935 0.357519
0.420417 0.592920 0.413336
0.442390 0.597925 0.417731
0.540124 0.606226 0.484596
0.631495 0.629755 0.603479
0.895842 0.718807 0.558190
0.626612 0.822690 0.604089
0.637964 0.825315 0.605249
0.676143 0.804471 0.615869
0.786893 0.825376 0.714473
0.857450 0.850584 0.819730
0.108309 0.122713 0.166354
0.185458 0.122866 0.206088
0.368811 0.167208 0.252262
0.590295 0.186282 0.308904
0.836362 0.204807 0.376776
0.172152 0.187198 0.198764
0.208621 0.215213 0.225925
0.388617 0.211215 0.238499
0.601770 0.231937 0.294865
0.840909 0.274296 0.377874
0.274388 0.363714 0.308202
0.296513 0.371618 0.309026
0.380529 0.388098 0.389014
0.632013 0.421698 0.297704
0.869444 0.461677 0.396918
0.439796 0.596185 0.452461
0.458442 0.603265 0.455177
0.549248 0.614069 0.508507
0.636225 0.635554 0.615259
0.888029 0.715755 0.572656
0.635065 0.821744 0.623987
0.644251 0.823362 0.623804
0.707362 0.831724 0.656672
0.806027 0.843320 0.740261
0.874815 0.868406 0.840452
0.265965 0.292149 0.378027
0.290135 0.296239 0.396796
0.430091 0.312596 0.459815
0.582635 0.390692 0.499184
0.820951 0.413062 0.562737
0.321874 0.349279 0.397955
0.333410 0.352850 0.414801
0.437720 0.356817 0.463569
0.600793 0.408820 0.505791
0.830991 0.436805 0.565515
0.405768 0.430762 0.447211
0.419684 0.440986 0.457618
0.482094 0.487434 0.498878
0.663081 0.471656 0.493172
0.861540 0.497322 0.541924
0.520165 0.618494 0.568261
0.519249 0.615167 0.561212
0.567956 0.637201 0.570916
0.666712 0.668788 0.663569
0.875761 0.696895 0.597009
0.650111 0.809506 0.674830
0.660395 0.814267 0.677699
0.699855 0.828946 0.684352
0.799924 0.842100 0.751919
0.872129 0.867155 0.845609
0.458289 0.486488 0.599359
0.473548 0.491737 0.612421
0.529686 0.490669 0.644160
0.663935 0.493324 0.682216
0.800839 0.578851 0.714351
0.483803 0.514122 0.601953
0.489570 0.512963 0.608453
0.531975 0.508293 0.636286
0.654719 0.506920 0.671656
0.793606 0.589014 0.709651
0.545708 0.573602 0.606256
0.554772 0.579278 0.611749
0.577417 0.589990 0.643336
0.670069 0.589319 0.679561
0.806394 0.655543 0.726955
0.630091 0.653925 0.662287
0.632624 0.654597 0.663111
0.659510 0.674311 0.682399
0.720394 0.719265 0.721248
0.885283 0.710262 0.721920
0.744991 0.825162 0.784817
0.747341 0.828000 0.785550
0.760494 0.843076 0.789456
0.801785 0.865080 0.790341
0.893462 0.890684 0.879637
0.707668 0.725673 0.821592
0.711421 0.725368 0.824949
0.731136 0.724056 0.839292
0.783780 0.718044 0.864805
0.884062 0.722988 0.890013
0.717952 0.737606 0.822080
0.721096 0.737270 0.825406
0.738094 0.735500 0.839445
0.787015 0.729183 0.864775
0.885405 0.733181 0.890532
0.752163 0.775113 0.824094
0.754788 0.776150 0.827878
0.765621 0.776761 0.842710
0.801480 0.770718 0.867979
0.894102 0.772335 0.896361
0.799893 0.823178 0.840055
0.802640 0.824643 0.841733
0.815610 0.832059 0.850034
0.835386 0.840391 0.877897
0.912688 0.839292 0.910185
0.857206 0.877440 0.876982
0.859800 0.879210 0.878752
0.872007 0.887938 0.887541
0.897429 0.906371 0.906126
0.946197 0.943236 0.940612
