20 Preset/Gray style/【3】LUT video cho PR-AE-FCPX/Tone  (15).cube
# Created by Adobe Lightroom plugin Export LUT (1.24.0)
# www.johnrellis.com/lightroom/exportlut.htm
# Preset: 15素材江湖-高级灰
# Color profile: E:\lut插件\exportlut.1.24\exportlut.lrplugin\color profiles\Rec709gamma2.4.icc
LUT_3D_SIZE 5
DOMAIN_MIN 0.000000 0.000000 0.000000
DOMAIN_MAX 0.903226 0.903226 0.903226
0.000000 0.000000 0.000000
0.313115 0.099275 0.054994
0.594385 0.166476 0.032685
0.867491 0.244175 0.056245
1.000000 0.329442 0.145846
0.085512 0.316014 0.187869
0.297459 0.274266 0.259007
0.599756 0.297398 0.111910
0.879606 0.341009 0.115328
1.000000 0.396216 0.171084
0.290501 0.620661 0.340429
0.395239 0.609461 0.356939
0.621180 0.559442 0.470222
0.910552 0.556146 0.328679
1.000000 0.567407 0.233951
0.506126 0.857939 0.522576
0.545586 0.857542 0.534386
0.728206 0.835508 0.592218
0.847288 0.785428 0.687312
1.000000 0.784665 0.649500
0.727565 1.000000 0.731289
0.742672 1.000000 0.737301
0.798276 0.992737 0.747860
0.932311 0.979004 0.814450
0.996185 0.958648 0.888792
0.000000 0.057832 0.328771
0.289494 0.072602 0.329137
0.583459 0.000000 0.281102
0.854032 0.183108 0.237003
1.000000 0.295811 0.243534
0.000000 0.322972 0.337102
0.316381 0.313603 0.338689
0.594293 0.269200 0.265324
0.858457 0.308293 0.248173
1.000000 0.366278 0.252934
0.312108 0.600366 0.398322
0.391913 0.598505 0.410254
0.597833 0.547967 0.487373
0.876066 0.547112 0.358434
1.000000 0.558770 0.300267
0.528832 0.852140 0.560204
0.566278 0.852750 0.571435
0.724147 0.837034 0.618280
0.844450 0.787472 0.701076
1.000000 0.786160 0.650874
0.733486 1.000000 0.744442
0.747585 1.000000 0.749447
0.808743 0.999695 0.774655
0.935973 0.984161 0.831205
0.999268 0.965179 0.901518
0.000000 0.134890 0.595605
0.153567 0.142397 0.591638
0.567681 0.199344 0.572961
0.840421 0.213748 0.575586
1.000000 0.000000 0.481880
0.000000 0.360784 0.605066
0.163577 0.312932 0.600641
0.578393 0.332708 0.577752
0.845548 0.315679 0.568170
1.000000 0.160372 0.455573
0.085420 0.627008 0.603662
0.307469 0.621241 0.601862
0.619165 0.598047 0.597284
0.872618 0.536645 0.510491
1.000000 0.539117 0.481025
0.562829 0.837247 0.658320
0.597528 0.832364 0.662715
0.705257 0.836912 0.691585
0.842832 0.802365 0.751766
1.000000 0.792630 0.665980
0.735286 0.999054 0.779355
0.752102 0.998871 0.785489
0.809903 0.997070 0.807370
0.922393 0.985290 0.850126
0.994232 0.964599 0.910948
0.000000 0.222934 0.836149
0.000000 0.229557 0.834714
0.498360 0.254826 0.824887
0.802213 0.297429 0.804288
1.000000 0.347265 0.798306
0.000000 0.372351 0.837644
0.000000 0.346868 0.835966
0.505638 0.357641 0.822660
0.798520 0.383429 0.797848
1.000000 0.418494 0.793729
0.000000 0.644404 0.843320
0.269444 0.636957 0.838468
0.547478 0.596155 0.825132
0.803586 0.600153 0.792477
1.000000 0.607568 0.795773
0.445106 0.856046 0.827176
0.491341 0.851804 0.824735
0.643275 0.842283 0.822660
0.837156 0.819638 0.814237
1.000000 0.789609 0.764126
0.710262 0.999817 0.845701
0.730190 0.999481 0.849699
0.810636 0.998352 0.871061
0.903990 0.994873 0.899626
0.992523 0.974395 0.943236
0.000000 0.304540 1.000000
0.000000 0.308751 1.000000
0.350744 0.327642 1.000000
0.714260 0.366278 0.996643
0.972168 0.429908 0.987945
0.000000 0.391119 1.000000
0.000000 0.385107 1.000000
0.371099 0.399207 1.000000
0.718837 0.430976 0.993317
0.970611 0.482002 0.984741
0.257237 0.653285 0.997040
0.306584 0.641352 0.996674
0.463813 0.600031 0.996521
0.742763 0.612909 0.987884
0.972442 0.632349 0.981689
0.465003 0.853269 0.993835
0.501518 0.852079 0.993408
0.634852 0.850187 0.993072
0.790616 0.820462 0.991302
0.983551 0.823301 0.986969
0.660639 1.000000 0.989105
0.679713 1.000000 0.989014
0.758450 1.000000 0.989990
0.877684 1.000000 0.991089
0.993347 0.992309 0.991882
