20 Preset/Gray style/【3】LUT video cho PR-AE-FCPX/Tone  (2).cube
# Created by Adobe Lightroom plugin Export LUT (1.24.0)
# www.johnrellis.com/lightroom/exportlut.htm
# Preset: 02素材江湖-高级灰
# Color profile: E:\lut插件\exportlut.1.24\exportlut.lrplugin\color profiles\Rec709gamma2.4.icc
LUT_3D_SIZE 32
DOMAIN_MIN 0.0 0.0 0.0
DOMAIN_MAX 1.0 1.0 1.0
0.000000 0.000000 0.000000
0.003662 0.000000 0.001129
0.036561 0.002502 0.002319
0.094392 0.012634 0.016419
0.125154 0.035401 0.043946
0.158724 0.062379 0.076509
0.194339 0.083406 0.093599
0.230777 0.093080 0.102602
0.266484 0.099580 0.109712
0.302525 0.105959 0.116609
0.338140 0.112459 0.123354
0.373327 0.118746 0.130007
0.408453 0.124849 0.137270
0.443397 0.132753 0.144961
0.477607 0.140993 0.154940
0.511376 0.152193 0.166720
0.544854 0.163851 0.179324
0.578515 0.176303 0.192966
0.612604 0.188449 0.206760
0.647547 0.201328 0.221073
0.682673 0.214603 0.235111
0.716518 0.228031 0.249790
0.760739 0.245762 0.269535
0.807126 0.266392 0.291264
0.846860 0.285100 0.311437
0.881743 0.302892 0.330205
0.913725 0.320195 0.348363
0.943816 0.337743 0.366796
0.973053 0.356512 0.385870
1.000000 0.376898 0.406470
1.000000 0.399603 0.429328
1.000000 0.425544 0.454963
0.000977 0.000977 0.000977
0.001953 0.001953 0.001953
0.038361 0.007843 0.003815
0.094179 0.019409 0.016632
0.124697 0.041199 0.044343
0.157290 0.066651 0.077211
0.192142 0.086030 0.093080
0.227512 0.094789 0.101869
0.262730 0.101228 0.109133
0.297887 0.107851 0.115816
0.332982 0.113924 0.123049
0.367834 0.120089 0.128786
0.402625 0.125612 0.136263
0.437354 0.133242 0.143893
0.471351 0.141512 0.153262
0.505058 0.152041 0.164614
0.538781 0.163333 0.177310
0.572168 0.175692 0.190494
0.606104 0.187655 0.204623
0.640772 0.200229 0.218357
0.675441 0.213138 0.232547
0.709133 0.225650 0.246677
0.752071 0.243015 0.265751
0.796536 0.262364 0.286107
0.834989 0.279789 0.305089
0.869230 0.296757 0.323125
0.901091 0.313451 0.340673
0.931579 0.330449 0.358740
0.961364 0.348638 0.377508
0.991119 0.368475 0.397803
1.000000 0.390753 0.420233
1.000000 0.415961 0.445319
0.006989 0.031281 0.011414
0.014588 0.032563 0.014466
0.025422 0.028534 0.031739
0.095949 0.052125 0.024506
0.125704 0.072938 0.051209
0.158206 0.089143 0.081239
0.192203 0.098024 0.093599
0.227085 0.104829 0.101656
0.261601 0.110445 0.108980
0.296117 0.116396 0.116030
0.330571 0.122316 0.121889
0.364965 0.127504 0.128603
0.399420 0.132998 0.135378
0.433722 0.139376 0.143008
0.467597 0.147219 0.152499
0.501030 0.156832 0.163455
0.534356 0.167941 0.176669
0.568048 0.178744 0.189914
0.602014 0.190616 0.203250
0.636530 0.202914 0.217166
0.671412 0.215427 0.231479
0.705135 0.228244 0.245151
0.748440 0.245029 0.264317
0.791775 0.263157 0.284092
0.829313 0.280125 0.302617
0.862821 0.295872 0.319554
0.894408 0.311986 0.336950
0.924987 0.328466 0.354376
0.955077 0.346166 0.372992
0.985168 0.365759 0.393164
1.000000 0.387427 0.415198
1.000000 0.411994 0.440162
0.030915 0.089448 0.042481
0.037842 0.089570 0.043458
0.061250 0.088746 0.064729
0.078828 0.087922 0.092592
0.129946 0.104677 0.075227
0.162387 0.109804 0.086854
0.195743 0.115969 0.095247
0.229038 0.121950 0.102785
0.262791 0.126925 0.109926
0.296605 0.131868 0.115480
0.330327 0.135927 0.122133
0.364111 0.140719 0.128573
0.397711 0.146181 0.135103
0.431189 0.152132 0.142153
0.464363 0.158450 0.151247
0.497169 0.167147 0.162631
0.529808 0.176761 0.175418
0.562371 0.187381 0.188235
0.595575 0.197787 0.201389
0.629297 0.209049 0.215274
0.663508 0.220401 0.228336
0.697230 0.232120 0.242710
0.741238 0.248722 0.261509
0.783047 0.265568 0.280461
0.820829 0.281590 0.298528
0.855711 0.297551 0.316258
0.888792 0.313787 0.334112
0.920775 0.330419 0.352178
0.951934 0.348058 0.371099
0.982391 0.367346 0.391363
1.000000 0.388281 0.413092
1.000000 0.411383 0.436774
0.067933 0.117525 0.087892
0.072145 0.118532 0.088930
0.088838 0.117708 0.093935
0.101534 0.116335 0.105379
0.107546 0.114961 0.120943
0.155245 0.134859 0.110506
0.198093 0.140352 0.100191
0.230411 0.143221 0.102815
0.262760 0.147127 0.109438
0.295537 0.151064 0.115114
0.328222 0.154635 0.121553
0.361273 0.159060 0.126986
0.394415 0.163607 0.133700
0.427802 0.168368 0.141634
0.460883 0.174258 0.151400
0.493904 0.182101 0.162356
0.526818 0.190829 0.175326
0.559777 0.200229 0.187869
0.593042 0.209598 0.201236
0.626886 0.220066 0.214481
0.660822 0.230900 0.228336
0.695491 0.242283 0.242344
0.740078 0.258244 0.261509
0.780728 0.273838 0.280034
0.817990 0.289158 0.297704
0.852811 0.304143 0.315068
0.885893 0.319524 0.332769
0.917632 0.335485 0.350500
0.948516 0.352392 0.369329
0.978759 0.370459 0.388983
1.000000 0.390387 0.410132
1.000000 0.412482 0.433204
0.093294 0.146731 0.105348
0.095125 0.147250 0.105898
0.102724 0.147341 0.108766
0.116152 0.146120 0.118013
0.128969 0.144625 0.131777
0.133974 0.142916 0.149691
0.178622 0.163607 0.143374
0.235294 0.174746 0.118441
0.267735 0.172488 0.109407
0.299443 0.175387 0.115175
0.331609 0.178470 0.121309
0.364263 0.181765 0.127352
0.396796 0.185672 0.134035
0.429633 0.190036 0.142580
0.462776 0.195377 0.151949
0.495491 0.202029 0.163638
0.528466 0.210086 0.176699
0.561608 0.218082 0.189731
0.594995 0.227115 0.202670
0.628717 0.236301 0.216098
0.662715 0.246281 0.229770
0.701961 0.258610 0.245731
0.797543 0.297246 0.288762
0.841306 0.315648 0.311223
0.879332 0.332891 0.331914
0.913176 0.349096 0.351476
0.943877 0.365362 0.370642
0.972381 0.381811 0.389410
0.999481 0.399207 0.409247
1.000000 0.417792 0.429725
1.000000 0.438087 0.451453
1.000000 0.460212 0.474769
0.115023 0.186404 0.128389
0.116365 0.186465 0.128603
0.122744 0.187900 0.129946
0.137362 0.186435 0.138308
0.152560 0.184939 0.150820
0.165805 0.182650 0.167819
0.170565 0.181338 0.188724
0.212222 0.202762 0.187655
0.285008 0.220340 0.149294
0.318883 0.215610 0.131624
0.352331 0.212985 0.121645
0.385260 0.215610 0.128725
0.417731 0.218570 0.136355
0.450141 0.222049 0.145846
0.482033 0.226902 0.157351
0.513787 0.232395 0.170382
0.545922 0.238560 0.183291
0.578424 0.245426 0.196506
0.611719 0.253300 0.209781
0.646326 0.262089 0.223606
0.682063 0.271672 0.238010
0.733059 0.288762 0.259892
0.781613 0.306432 0.281987
0.826444 0.323705 0.304112
0.866758 0.340490 0.325414
0.901976 0.356390 0.345708
0.933288 0.371344 0.364508
0.961852 0.386175 0.382818
0.989014 0.401953 0.401678
1.000000 0.418524 0.421088
1.000000 0.437049 0.441871
1.000000 0.457588 0.464515
0.134890 0.217227 0.149325
0.135744 0.217411 0.149691
0.140902 0.218448 0.149996
0.152987 0.217899 0.156588
0.168307 0.216648 0.167391
0.184054 0.215091 0.181888
0.196078 0.213199 0.199985
0.200229 0.212619 0.221408
0.235142 0.232761 0.226963
0.309972 0.253727 0.189212
0.353033 0.253117 0.163333
0.387915 0.244022 0.129854
0.419623 0.244907 0.133883
0.450874 0.247684 0.144625
0.482063 0.251469 0.156619
0.512902 0.255894 0.169894
0.544457 0.261082 0.182467
0.576349 0.266941 0.195590
0.609216 0.273869 0.209293
0.643458 0.281468 0.222904
0.686488 0.293614 0.240513
0.734096 0.308690 0.260960
0.778988 0.323888 0.281437
0.821164 0.339178 0.302403
0.859953 0.353918 0.322545
0.894347 0.367956 0.341650
0.925231 0.381323 0.359960
0.953796 0.394659 0.377783
0.981109 0.409033 0.396368
1.000000 0.424445 0.415320
1.000000 0.441474 0.435889
1.000000 0.460548 0.457862
0.156497 0.248966 0.173220
0.157748 0.249119 0.172824
0.161410 0.249790 0.173648
0.170871 0.250004 0.177920
0.185519 0.248875 0.187259
0.201266 0.247471 0.199374
0.215946 0.245884 0.214633
0.227115 0.244968 0.233494
0.231022 0.244816 0.254887
0.258854 0.263401 0.266789
0.333959 0.286229 0.231022
0.387610 0.291447 0.199619
0.421973 0.283085 0.168185
0.455299 0.275731 0.141329
0.485634 0.278630 0.155428
0.515801 0.281956 0.169192
0.546685 0.286198 0.182437
0.578149 0.291020 0.196109
0.610590 0.296971 0.209018
0.648463 0.305882 0.224765
0.694209 0.318791 0.243748
0.737728 0.331823 0.262791
0.779568 0.344762 0.282109
0.819455 0.358007 0.302129
0.856565 0.371069 0.321416
0.889952 0.383307 0.339849
0.920348 0.395209 0.357641
0.948760 0.407233 0.375341
0.975982 0.420294 0.393500
1.000000 0.434363 0.412177
1.000000 0.450111 0.432197
1.000000 0.467750 0.453956
0.178836 0.280186 0.197513
0.179873 0.280186 0.197513
0.182895 0.280522 0.197513
0.190494 0.281102 0.200198
0.203311 0.279728 0.207858
0.217685 0.278233 0.217990
0.232944 0.276890 0.230991
0.246799 0.275914 0.247105
0.257176 0.275486 0.265873
0.261082 0.275883 0.287053
0.282567 0.292363 0.303441
0.355474 0.316533 0.270695
0.419196 0.327703 0.235599
0.453101 0.320684 0.208133
0.487739 0.309880 0.168704
0.519188 0.308751 0.166903
0.550469 0.312657 0.181430
0.582300 0.317205 0.195163
0.618616 0.324590 0.211337
0.661769 0.335607 0.228885
0.702937 0.346380 0.246738
0.741848 0.356390 0.264714
0.779294 0.366552 0.282170
0.815061 0.376745 0.300145
0.848844 0.386999 0.317540
0.880400 0.396979 0.334447
0.910216 0.407294 0.351598
0.938811 0.418158 0.369116
0.966766 0.430152 0.387335
0.993988 0.443580 0.406287
1.000000 0.458564 0.426673
1.000000 0.475685 0.449012
0.199802 0.307958 0.219852
0.200534 0.308141 0.219821
0.203067 0.308598 0.220157
0.209323 0.309361 0.221347
0.220462 0.308782 0.227909
0.234318 0.308019 0.237064
0.249241 0.307073 0.248447
0.264347 0.306401 0.262821
0.277836 0.306188 0.279484
0.287999 0.306493 0.298497
0.291997 0.307683 0.319402
0.307286 0.322118 0.340978
0.379675 0.348028 0.309697
0.446906 0.362310 0.274998
0.487587 0.359716 0.247654
0.521477 0.350622 0.214908
0.555596 0.340398 0.178744
0.592523 0.347601 0.195651
0.632197 0.356390 0.213718
0.671412 0.365118 0.230930
0.709163 0.373510 0.247959
0.745174 0.381689 0.265019
0.780392 0.390051 0.282261
0.814450 0.398718 0.299413
0.847044 0.407507 0.316777
0.877775 0.416175 0.333532
0.907073 0.425238 0.350256
0.935393 0.434943 0.367346
0.963226 0.445808 0.385321
0.990478 0.458137 0.404425
1.000000 0.472023 0.424750
1.000000 0.487892 0.446754
0.222080 0.338140 0.243290
0.222507 0.338262 0.243473
0.225254 0.338750 0.243534
0.229984 0.339727 0.244511
0.239445 0.339666 0.249332
0.252506 0.339208 0.257511
0.267521 0.338659 0.268193
0.282689 0.338476 0.281010
0.297704 0.338293 0.296056
0.311101 0.338567 0.313176
0.320897 0.339513 0.332219
0.325231 0.341161 0.353033
0.355352 0.374273 0.399969
0.430732 0.402502 0.367651
0.500633 0.418372 0.332433
0.556573 0.424018 0.303319
0.602167 0.422278 0.278325
0.646998 0.415351 0.241276
0.687922 0.415137 0.232670
0.725460 0.422309 0.251743
0.760800 0.428809 0.270481
0.794247 0.435187 0.288701
0.826322 0.441596 0.306676
0.857053 0.448127 0.323919
0.885924 0.454688 0.341100
0.913085 0.461280 0.357336
0.938506 0.468116 0.373602
0.962860 0.475380 0.389807
0.986664 0.483711 0.406531
1.000000 0.493690 0.424384
1.000000 0.505486 0.443702
1.000000 0.519799 0.465126
0.253361 0.380377 0.275334
0.253666 0.380255 0.275364
0.255406 0.380316 0.275303
0.259373 0.380438 0.275486
0.267124 0.380133 0.278325
0.278538 0.378851 0.284947
0.292027 0.377966 0.294041
0.307256 0.377203 0.305150
0.322942 0.377264 0.318914
0.338445 0.377813 0.334874
0.352728 0.379614 0.353582
0.364294 0.382605 0.374487
0.370611 0.386358 0.397345
0.383032 0.404028 0.433478
0.465370 0.441291 0.410834
0.544244 0.465675 0.381476
0.614496 0.478614 0.349065
0.652674 0.473304 0.325017
0.689876 0.463416 0.292485
0.726070 0.449378 0.247959
0.758114 0.453376 0.265934
0.789395 0.457679 0.283818
0.819699 0.462440 0.301335
0.849180 0.467506 0.318242
0.877409 0.472724 0.335027
0.904479 0.478340 0.351324
0.930205 0.484230 0.367742
0.955261 0.490852 0.384131
0.979858 0.498634 0.401312
1.000000 0.507988 0.419776
1.000000 0.519066 0.439460
1.000000 0.532372 0.461219
0.274052 0.408484 0.296178
0.274205 0.408270 0.295995
0.275669 0.408026 0.295842
0.278935 0.408118 0.295781
0.284825 0.408057 0.297124
0.295384 0.406867 0.302861
0.307897 0.405921 0.310735
0.322484 0.405341 0.320531
0.338262 0.405280 0.332982
0.354467 0.406226 0.347692
0.370275 0.408057 0.364782
0.389258 0.415198 0.388098
0.406348 0.423957 0.414282
0.418799 0.433661 0.442542
0.432807 0.452247 0.479469
0.506950 0.486152 0.458686
0.582940 0.508659 0.426490
0.651514 0.520378 0.390906
0.690700 0.515526 0.364935
0.723262 0.504417 0.335515
0.755825 0.490486 0.298680
0.787381 0.482246 0.279301
0.816556 0.485573 0.296605
0.845396 0.489662 0.313909
0.873136 0.493965 0.330816
0.899962 0.498451 0.347387
0.925689 0.503593 0.364172
0.950744 0.509300 0.380560
0.975494 0.516258 0.398077
1.000000 0.524865 0.416815
1.000000 0.535149 0.436774
1.000000 0.547601 0.458900
0.295109 0.437415 0.316777
0.295384 0.437324 0.316991
0.296666 0.437110 0.316564
0.299535 0.437018 0.316533
0.304143 0.437049 0.316472
0.313359 0.436072 0.321294
0.326024 0.436103 0.329107
0.341650 0.437659 0.339574
0.359319 0.440162 0.352758
0.378241 0.443732 0.368383
0.398230 0.448615 0.386938
0.418433 0.454810 0.408148
0.437385 0.461921 0.431830
0.453223 0.469581 0.456916
0.463874 0.477333 0.483345
0.475593 0.493141 0.517479
0.541924 0.524254 0.500023
0.613489 0.544915 0.466804
0.677790 0.555077 0.431342
0.722866 0.552789 0.401068
0.752834 0.541924 0.374853
0.783597 0.528862 0.342748
0.814664 0.513207 0.302892
0.842924 0.512779 0.309697
0.870054 0.516014 0.326787
0.896544 0.519799 0.343816
0.922545 0.524315 0.360723
0.948180 0.529808 0.378302
0.973877 0.536675 0.396826
0.999603 0.545373 0.416907
1.000000 0.556085 0.438880
1.000000 0.569055 0.462867
0.323461 0.475959 0.343664
0.323705 0.476204 0.343999
0.325353 0.476448 0.344182
0.328557 0.477028 0.344579
0.333379 0.477974 0.345068
0.342473 0.478798 0.349310
0.355383 0.479652 0.357031
0.370489 0.481209 0.366766
0.387823 0.483528 0.378882
0.406744 0.486427 0.393256
0.426215 0.490089 0.409674
0.445869 0.494179 0.428107
0.464637 0.498878 0.448341
0.480964 0.503624 0.469978
0.493812 0.508446 0.492653
0.501457 0.513237 0.516228
0.511223 0.526726 0.547967
0.568780 0.555077 0.535210
0.636378 0.574578 0.502312
0.698085 0.584741 0.467811
0.750698 0.586419 0.434150
0.779965 0.576989 0.410895
0.809751 0.565423 0.383368
0.840269 0.551415 0.349645
0.869963 0.540368 0.324010
0.896666 0.543816 0.341985
0.922942 0.547997 0.359838
0.948821 0.553002 0.378210
0.974365 0.559228 0.397253
0.999695 0.567010 0.417578
1.000000 0.576379 0.439490
1.000000 0.587945 0.463020
0.350774 0.513512 0.369055
0.351049 0.513512 0.369116
0.352636 0.513756 0.369268
0.355261 0.514244 0.369482
0.359747 0.515038 0.370123
0.367498 0.515984 0.372564
0.379431 0.516594 0.379431
0.393744 0.517723 0.388342
0.410163 0.519402 0.399207
0.427863 0.521660 0.411810
0.447181 0.524376 0.426673
0.466529 0.527825 0.443275
0.485817 0.531609 0.461738
0.503502 0.535393 0.481544
0.518761 0.539269 0.502373
0.530205 0.543084 0.524224
0.536767 0.546960 0.546868
0.545647 0.559228 0.577386
0.594720 0.585168 0.570642
0.659113 0.604334 0.538537
0.719112 0.614832 0.504997
0.774624 0.618799 0.470222
0.806912 0.611841 0.447028
0.835935 0.601373 0.422461
0.865690 0.588861 0.393286
0.895811 0.574456 0.358587
0.923552 0.572045 0.358709
0.949645 0.576745 0.377874
0.975372 0.582696 0.398108
1.000000 0.589960 0.419379
1.000000 0.598901 0.441688
1.000000 0.609918 0.466316
0.378332 0.551110 0.393957
0.378851 0.551598 0.394232
0.400824 0.578271 0.412848
0.403601 0.578668 0.413123
0.408026 0.579461 0.413519
0.414069 0.580346 0.414160
0.425605 0.580438 0.420600
0.439673 0.581018 0.428870
0.455909 0.582208 0.439063
0.474128 0.584100 0.451484
0.493477 0.586328 0.465583
0.513420 0.588800 0.481544
0.532494 0.590997 0.498604
0.550469 0.592981 0.516838
0.566155 0.594629 0.536004
0.578759 0.596185 0.555871
0.587304 0.597467 0.575921
0.591424 0.599298 0.595972
0.597833 0.608637 0.622553
0.637171 0.630518 0.619745
0.696559 0.648096 0.588769
0.752834 0.658015 0.556451
0.805692 0.661067 0.521630
0.843595 0.655634 0.492958
0.869963 0.644526 0.469276
0.897124 0.631464 0.441871
0.924804 0.616907 0.410559
0.953002 0.602899 0.379950
0.977569 0.607355 0.399786
1.000000 0.613642 0.421118
1.000000 0.621759 0.444099
1.000000 0.631830 0.469001
0.411353 0.594079 0.423163
0.413672 0.596612 0.424903
0.417029 0.599359 0.426917
0.421454 0.602106 0.428870
0.426825 0.604425 0.430793
0.432959 0.605859 0.431739
0.442878 0.606317 0.436469
0.455360 0.606439 0.443641
0.470436 0.606989 0.452796
0.486976 0.608026 0.463661
0.505150 0.609644 0.476448
0.524041 0.611322 0.490883
0.542687 0.612909 0.506432
0.560632 0.614435 0.523186
0.577081 0.615808 0.541131
0.591485 0.617121 0.559747
0.603052 0.618555 0.578668
0.611536 0.620447 0.598138
0.616541 0.623163 0.618128
0.623682 0.632990 0.644282
0.657618 0.654078 0.647608
0.715572 0.673304 0.619867
0.770016 0.684382 0.590539
0.820981 0.688746 0.558770
0.864805 0.686000 0.526238
0.890410 0.675837 0.504509
0.916838 0.664271 0.480079
0.944457 0.651423 0.452735
0.973297 0.637903 0.422736
1.000000 0.634363 0.418891
1.000000 0.641901 0.442542
1.000000 0.651484 0.468238
0.432044 0.620478 0.441352
0.434668 0.623163 0.443519
0.438178 0.626062 0.445838
0.442573 0.628931 0.448035
0.447791 0.631189 0.449836
0.453468 0.632654 0.450874
0.461524 0.633326 0.453773
0.473396 0.633295 0.460395
0.487160 0.633600 0.468818
0.502800 0.634089 0.478553
0.519707 0.635035 0.490120
0.537743 0.636347 0.503441
0.555932 0.637537 0.517906
0.573907 0.638788 0.533745
0.590906 0.640040 0.550622
0.606317 0.641169 0.567987
0.619623 0.642359 0.585809
0.630518 0.643915 0.603998
0.638758 0.646113 0.622889
0.643915 0.649348 0.642420
0.651148 0.658839 0.667323
0.679805 0.678798 0.675929
0.735531 0.698665 0.650629
0.787747 0.710536 0.623651
0.836515 0.715633 0.594171
0.882963 0.715053 0.561212
0.910216 0.706996 0.540154
0.936339 0.697017 0.518669
0.964080 0.686427 0.495521
0.993256 0.675319 0.470771
1.000000 0.663783 0.444129
1.000000 0.671595 0.467750
0.453864 0.647242 0.460517
0.456214 0.649653 0.462501
0.459571 0.652216 0.464607
0.463691 0.654688 0.466804
0.468238 0.656733 0.468482
0.473487 0.658045 0.469490
0.479805 0.658900 0.470649
0.490974 0.658839 0.476844
0.504051 0.659083 0.484657
0.518700 0.659358 0.493812
0.534844 0.660182 0.504692
0.552209 0.661128 0.517052
0.569818 0.662043 0.530694
0.587610 0.663050 0.545739
0.604700 0.664302 0.561395
0.621057 0.665675 0.578027
0.636378 0.667659 0.595575
0.650263 0.670192 0.613977
0.662470 0.673701 0.633356
0.672663 0.678309 0.653590
0.680293 0.683986 0.674556
0.689601 0.695216 0.700404
0.714473 0.715023 0.714473
0.768246 0.736049 0.692744
0.818387 0.749294 0.669398
0.865568 0.755856 0.643397
0.910430 0.757107 0.614923
0.943755 0.752682 0.592859
0.969787 0.745968 0.577386
0.997345 0.738460 0.560479
1.000000 0.730526 0.542840
1.000000 0.721736 0.523827
0.490974 0.688716 0.493507
0.492195 0.689723 0.494484
0.493721 0.690547 0.495369
0.496040 0.691188 0.495888
0.499092 0.691676 0.496254
0.502983 0.691859 0.496590
0.508019 0.692195 0.496681
0.517266 0.692103 0.501244
0.529686 0.692042 0.508568
0.543847 0.692439 0.517571
0.559533 0.693172 0.528130
0.576287 0.694026 0.540032
0.593347 0.694881 0.552850
0.610529 0.695796 0.566735
0.627527 0.696681 0.581323
0.643763 0.697688 0.596582
0.659144 0.699001 0.612665
0.673365 0.700740 0.629511
0.686122 0.703151 0.646998
0.697139 0.706142 0.665217
0.706020 0.709987 0.683894
0.712459 0.714656 0.703090
0.719814 0.723873 0.726314
0.738338 0.740505 0.742580
0.788266 0.760464 0.721767
0.835630 0.773709 0.699977
0.880888 0.781369 0.676692
0.924834 0.784451 0.651301
0.963470 0.783108 0.627619
0.988922 0.778561 0.615869
1.000000 0.773587 0.603632
1.000000 0.767941 0.590814
0.514305 0.714290 0.514214
0.515373 0.715114 0.515007
0.516838 0.715938 0.515801
0.519127 0.716579 0.516411
0.521874 0.717098 0.516991
0.525475 0.717372 0.517205
0.530144 0.717678 0.517571
0.537682 0.717922 0.520195
0.549248 0.717952 0.527245
0.562799 0.718288 0.535821
0.577722 0.718868 0.545647
0.593683 0.719661 0.556817
0.610193 0.720485 0.568841
0.627070 0.721492 0.581933
0.643946 0.722530 0.595880
0.660426 0.723842 0.610498
0.676417 0.725399 0.626062
0.691554 0.727260 0.642267
0.705562 0.729641 0.659113
0.718135 0.732570 0.676600
0.729061 0.736202 0.694697
0.738003 0.740414 0.713130
0.744472 0.745327 0.731838
0.751583 0.754086 0.753933
0.757229 0.760952 0.765713
0.804410 0.780575 0.746365
0.850248 0.794675 0.726619
0.894163 0.803708 0.705989
0.936797 0.808621 0.684016
0.978820 0.809720 0.659663
1.000000 0.807614 0.650111
1.000000 0.804990 0.642084
0.548241 0.748653 0.544701
0.549950 0.750027 0.546136
0.551354 0.750698 0.546838
0.552697 0.750668 0.546838
0.554131 0.750118 0.546319
0.556085 0.749264 0.545373
0.558892 0.748287 0.544427
0.562890 0.747433 0.543786
0.572473 0.746029 0.548943
0.583673 0.745083 0.555566
0.596094 0.744198 0.563256
0.610132 0.743862 0.572534
0.624781 0.743679 0.582757
0.640009 0.743465 0.593988
0.655116 0.743252 0.605768
0.670161 0.743221 0.618524
0.685145 0.743587 0.632166
0.699916 0.744717 0.646967
0.714321 0.746731 0.662867
0.728267 0.749722 0.680049
0.740932 0.753384 0.697810
0.751705 0.757412 0.715724
0.760128 0.761471 0.733455
0.765591 0.765560 0.750729
0.770993 0.772519 0.770626
0.779843 0.784573 0.791470
0.823758 0.803281 0.773007
0.866758 0.817197 0.754757
0.908721 0.826810 0.735927
0.949737 0.832853 0.716396
0.990082 0.835630 0.695521
1.000000 0.835630 0.683619
0.566796 0.768887 0.560998
0.568414 0.770138 0.562341
0.570092 0.771023 0.563226
0.571649 0.771389 0.563684
0.573602 0.771481 0.563714
0.576257 0.771481 0.563836
0.579950 0.771603 0.563928
0.584802 0.771939 0.564202
0.593561 0.772030 0.568658
0.605188 0.772061 0.575799
0.617975 0.772030 0.583948
0.631769 0.772213 0.593133
0.646204 0.772274 0.603052
0.660914 0.772183 0.613672
0.675624 0.771939 0.624872
0.690242 0.771725 0.636713
0.704860 0.771817 0.649439
0.719356 0.772519 0.663142
0.733822 0.774075 0.678126
0.747982 0.776516 0.694118
0.761227 0.779629 0.710933
0.773159 0.783261 0.728145
0.783169 0.787137 0.745296
0.791073 0.791135 0.762356
0.796384 0.795163 0.778927
0.801541 0.801816 0.797818
0.809537 0.813230 0.818540
0.848417 0.831083 0.804746
0.889494 0.845914 0.789456
0.929442 0.856718 0.773861
0.968017 0.864195 0.758175
1.000000 0.868650 0.741787
0.593927 0.796414 0.584985
0.594842 0.797055 0.585718
0.595758 0.797421 0.586175
0.597009 0.797574 0.586236
0.598657 0.797482 0.586206
0.600885 0.797330 0.586084
0.604028 0.797269 0.585992
0.608209 0.797391 0.586145
0.614771 0.797543 0.588220
0.625483 0.797330 0.594781
0.637415 0.797208 0.602228
0.650568 0.797269 0.610864
0.664271 0.797360 0.620294
0.678492 0.797238 0.630335
0.692714 0.796933 0.640894
0.706874 0.796628 0.652033
0.721126 0.796536 0.663996
0.735470 0.796963 0.676905
0.749905 0.798184 0.691035
0.764126 0.800259 0.706264
0.777829 0.802945 0.722255
0.790249 0.806088 0.738521
0.801144 0.809262 0.754818
0.810086 0.812619 0.770962
0.816922 0.815976 0.786709
0.821469 0.819425 0.802060
0.825895 0.825223 0.819547
0.833005 0.835447 0.838834
0.866697 0.852201 0.829496
0.906004 0.867765 0.816770
0.943816 0.879728 0.804440
0.980133 0.888731 0.792599
0.616938 0.820249 0.605341
0.617762 0.820737 0.605921
0.618769 0.821225 0.606439
0.620203 0.821592 0.606897
0.622370 0.822019 0.607385
0.625605 0.822843 0.608362
0.630457 0.824491 0.610193
0.636744 0.826566 0.612665
0.644465 0.829221 0.615869
0.657252 0.831510 0.624475
0.671504 0.833951 0.634546
0.686610 0.836210 0.645319
0.702113 0.838285 0.656611
0.717556 0.839841 0.668116
0.732692 0.840879 0.679652
0.747005 0.841215 0.690913
0.761105 0.841398 0.702571
0.775113 0.841855 0.714900
0.789212 0.842924 0.728237
0.803067 0.844602 0.742458
0.816312 0.846769 0.757198
0.828611 0.849241 0.772335
0.839475 0.851682 0.787228
0.848631 0.854246 0.801938
0.856046 0.856748 0.816312
0.861601 0.859342 0.830289
0.865354 0.862211 0.844114
0.868711 0.866880 0.859495
0.874510 0.875456 0.876371
0.901518 0.889891 0.871122
0.936400 0.904906 0.861631
0.969451 0.916899 0.853208
0.662379 0.861112 0.646601
0.662593 0.861143 0.646693
0.662898 0.861082 0.646540
0.663600 0.860929 0.646479
0.664912 0.860838 0.646387
0.666835 0.860838 0.646326
0.669825 0.861082 0.646662
0.673732 0.861601 0.647333
0.678859 0.862486 0.648463
0.687160 0.863157 0.652705
0.698482 0.863615 0.660151
0.710780 0.864134 0.668513
0.723903 0.864652 0.677668
0.737301 0.865019 0.687343
