20 Preset/Gray style/【3】LUT video cho PR-AE-FCPX/Tone  (3).cube
# Created by Adobe Lightroom plugin Export LUT (1.24.0)
# www.johnrellis.com/lightroom/exportlut.htm
# Preset: 03素材江湖-高级灰
# Color profile: E:\lut插件\exportlut.1.24\exportlut.lrplugin\color profiles\Rec709gamma2.4.icc
LUT_3D_SIZE 8
DOMAIN_MIN 0.000000 0.000000 0.000000
DOMAIN_MAX 0.903226 0.903226 0.903226
0.000000 0.000000 0.000000
0.084627 0.005188 0.015625
0.170718 0.027253 0.075319
0.274052 0.010376 0.105165
0.388952 0.000000 0.132937
0.516014 0.000000 0.172427
0.679683 0.000000 0.223178
0.862242 0.000000 0.280369
0.023651 0.079469 0.028107
0.062287 0.074098 0.082185
0.173068 0.096376 0.077485
0.272648 0.094606 0.103487
0.385290 0.080140 0.130861
0.509758 0.041932 0.169406
0.666407 0.000000 0.217746
0.848569 0.000000 0.273686
0.097871 0.168460 0.105898
0.121248 0.169986 0.116823
0.163546 0.173770 0.178500
0.298253 0.199069 0.111849
0.402167 0.191836 0.119936
0.530510 0.196048 0.165743
0.696712 0.201266 0.218448
0.873533 0.199496 0.276097
0.158114 0.273106 0.167056
0.172671 0.274815 0.170047
0.233188 0.283177 0.217197
0.292515 0.306340 0.312505
0.486275 0.370428 0.244236
0.573999 0.324346 0.132143
0.726894 0.335760 0.198611
0.889372 0.345098 0.263188
0.224857 0.387610 0.230930
0.234714 0.389471 0.231357
0.292027 0.403174 0.267399
0.384619 0.434272 0.348425
0.473945 0.484108 0.478676
0.682643 0.563195 0.421698
0.782132 0.500175 0.240696
0.903929 0.478920 0.223026
0.301366 0.524224 0.295689
0.312169 0.530266 0.298039
0.361242 0.544182 0.320836
0.460945 0.578302 0.392737
0.586877 0.628534 0.511131
0.694972 0.695155 0.673121
0.849363 0.768490 0.671870
0.974884 0.711788 0.486793
0.398077 0.694972 0.368475
0.406531 0.697292 0.369665
0.442786 0.703822 0.379156
0.542931 0.731106 0.453468
0.669062 0.765743 0.569940
0.787228 0.808499 0.711238
0.860288 0.856291 0.834440
0.940307 0.903532 0.855894
0.532280 0.857389 0.490211
0.537896 0.857908 0.490639
0.562036 0.860929 0.494148
0.648615 0.873747 0.563104
0.750973 0.883452 0.659083
0.853941 0.906249 0.773831
0.923705 0.930877 0.871275
0.957061 0.953613 0.939788
0.040131 0.058656 0.097688
0.092164 0.057801 0.110536
0.174838 0.081697 0.129183
0.274876 0.092439 0.155215
0.388922 0.031220 0.171267
0.511254 0.000000 0.202029
0.662348 0.000000 0.242252
0.839506 0.000000 0.291691
0.071748 0.097383 0.106630
0.100099 0.107332 0.117708
0.183383 0.111940 0.130190
0.280797 0.111818 0.146792
0.390509 0.102419 0.168093
0.511742 0.090944 0.199649
0.658045 0.013031 0.239231
0.831876 0.000000 0.286961
0.116579 0.180758 0.147982
0.132418 0.184695 0.148928
0.177859 0.190249 0.201785
0.300237 0.196719 0.127810
0.404761 0.194308 0.152956
0.527520 0.198215 0.192386
0.676081 0.199435 0.234623
0.851164 0.195071 0.285863
0.166659 0.275914 0.193057
0.178653 0.278172 0.193362
0.237095 0.287541 0.232547
0.294713 0.309636 0.319829
0.465187 0.356115 0.251072
0.555505 0.313207 0.158083
0.700862 0.323308 0.213443
0.866575 0.334386 0.271214
0.230686 0.390356 0.250370
0.239933 0.391516 0.250401
0.291508 0.402930 0.277256
0.381048 0.430457 0.352941
0.464759 0.476020 0.474281
0.667018 0.549981 0.416571
0.763272 0.485542 0.239811
0.892241 0.471015 0.235813
0.302251 0.520775 0.307836
0.310704 0.522667 0.308354
0.354284 0.534844 0.324743
0.453681 0.569909 0.394263
0.579217 0.621210 0.509911
0.690364 0.691096 0.671046
0.844724 0.762844 0.666438
0.967559 0.703456 0.481453
0.395026 0.687984 0.375708
0.401404 0.687739 0.375189
0.432013 0.692287 0.377722
0.532830 0.721248 0.450233
0.661921 0.759396 0.566888
0.781338 0.803159 0.707149
0.854429 0.850645 0.829313
0.936339 0.898009 0.848753
0.527214 0.851774 0.491890
0.534539 0.853422 0.493996
0.558099 0.856291 0.496864
0.640436 0.868925 0.558129
0.756039 0.887266 0.668086
0.855528 0.907622 0.777493
0.923522 0.930755 0.871855
0.957061 0.953674 0.940093
0.111055 0.136660 0.200290
0.125826 0.136660 0.209354
0.200839 0.139132 0.236179
0.277501 0.176883 0.252598
0.402350 0.176883 0.283482
0.533837 0.179294 0.314549
0.688808 0.159945 0.346990
0.860929 0.107851 0.383978
0.136110 0.164065 0.206729
0.144808 0.165255 0.214969
0.204227 0.166262 0.238224
0.286656 0.189456 0.257389
0.404364 0.188540 0.281437
0.534508 0.188785 0.309789
0.685298 0.167025 0.338140
0.858061 0.093599 0.368841
0.172793 0.211826 0.230381
0.183078 0.216617 0.236088
0.221775 0.235599 0.255406
0.322637 0.224826 0.248936
0.431464 0.223392 0.263615
0.557183 0.224521 0.287602
0.704189 0.219547 0.317723
0.869718 0.213199 0.358618
0.208133 0.303502 0.275639
0.216983 0.306737 0.277684
0.256168 0.318090 0.285161
0.328618 0.346838 0.367498
0.471717 0.350958 0.277806
0.586328 0.327977 0.256931
0.730312 0.335668 0.297917
0.887144 0.344610 0.345373
0.262119 0.413245 0.320684
0.269780 0.414954 0.321111
0.302892 0.423041 0.322911
0.401373 0.454749 0.393530
0.496254 0.508446 0.513970
0.684993 0.560266 0.441474
0.759060 0.465827 0.243381
0.906401 0.475898 0.311955
0.325658 0.538964 0.367071
0.333501 0.541161 0.367681
0.363958 0.548119 0.368872
0.459754 0.579736 0.425452
0.589960 0.632532 0.537865
0.702052 0.703883 0.690761
0.849851 0.765866 0.674678
0.962554 0.696468 0.495735
0.415930 0.701930 0.430274
0.422065 0.701930 0.429786
0.448615 0.704707 0.429786
0.533440 0.725429 0.475685
0.666590 0.764004 0.589075
0.788418 0.809964 0.724483
0.863554 0.860349 0.842527
0.943114 0.904265 0.856504
0.544915 0.855467 0.534905
0.549248 0.855528 0.534569
0.571283 0.858183 0.537102
0.634119 0.868711 0.569085
0.754665 0.887877 0.677913
0.857816 0.910155 0.786984
0.926787 0.934173 0.879423
0.960143 0.957153 0.945098
0.177707 0.215946 0.315648
0.188113 0.217777 0.322026
0.232853 0.219730 0.342809
0.324285 0.224674 0.371130
0.413581 0.263066 0.388678
0.540093 0.280888 0.425147
0.698848 0.272557 0.460182
0.861143 0.273594 0.498329
0.200748 0.240116 0.323735
0.207187 0.240696 0.328496
0.242588 0.240177 0.347112
0.328527 0.242649 0.374060
0.417365 0.278019 0.392889
0.547784 0.288487 0.427649
0.701411 0.281773 0.459693
0.862943 0.282231 0.496407
0.241947 0.284428 0.332280
0.249607 0.288182 0.336126
0.268956 0.293797 0.355413
0.339696 0.296300 0.381476
0.431312 0.325017 0.405585
0.577234 0.322118 0.434791
0.730831 0.321019 0.463691
0.884337 0.321477 0.494759
0.282902 0.342504 0.366461
0.289220 0.345220 0.369574
0.315679 0.357733 0.383093
0.371801 0.386236 0.410010
0.490059 0.364965 0.391272
0.614008 0.363378 0.404913
0.755825 0.364141 0.427375
0.902586 0.373053 0.462226
0.326513 0.451240 0.422461
0.331640 0.453498 0.423529
0.354345 0.463264 0.427253
0.418097 0.485054 0.445197
0.535943 0.549737 0.565881
0.677729 0.539452 0.459144
0.792020 0.482246 0.384833
0.925017 0.491188 0.435431
0.380377 0.577569 0.465766
0.388647 0.582727 0.468910
0.412482 0.587884 0.469123
0.466468 0.601831 0.474739
0.614649 0.659480 0.586969
0.727138 0.730220 0.725948
0.860655 0.768154 0.684718
0.956573 0.664973 0.483497
0.459785 0.721859 0.519982
0.466072 0.723415 0.520775
0.490517 0.728115 0.522667
0.538293 0.737331 0.526543
0.674708 0.775051 0.625727
0.800839 0.822812 0.752285
0.875914 0.873686 0.861051
0.951568 0.909300 0.861967
0.585107 0.865080 0.611139
0.589380 0.865568 0.611566
0.607813 0.867948 0.613397
0.644984 0.873381 0.618280
0.746792 0.889342 0.690272
0.858335 0.913298 0.798978
0.931029 0.938964 0.890196
0.965393 0.962921 0.953368
0.262638 0.309300 0.442939
0.270420 0.311162 0.448188
0.301396 0.313573 0.464424
0.370611 0.313756 0.494789
0.479347 0.318120 0.524651
0.577935 0.354559 0.538506
0.688746 0.403906 0.570764
0.863249 0.412024 0.619409
0.280186 0.328191 0.450263
0.286992 0.329839 0.455573
0.313329 0.330846 0.470649
0.376013 0.327764 0.497536
0.481880 0.330419 0.526024
0.580224 0.365759 0.540307
0.692103 0.412421 0.573053
0.866575 0.418280 0.620111
0.322698 0.375006 0.460975
0.326757 0.376226 0.465156
0.342473 0.376440 0.478157
0.389899 0.372107 0.501793
0.487098 0.372686 0.527306
0.581872 0.403723 0.541955
0.712398 0.432868 0.579309
0.872862 0.441108 0.618128
0.362341 0.422827 0.474342
0.367773 0.425208 0.476692
0.391241 0.436042 0.487587
0.423865 0.446571 0.513848
0.507774 0.448493 0.539696
0.603296 0.477150 0.560357
0.755612 0.478370 0.590234
0.891081 0.488167 0.616419
0.408667 0.487007 0.507622
0.414343 0.489601 0.510216
0.435706 0.499550 0.520256
0.476814 0.519005 0.539757
0.550134 0.557031 0.572778
0.670588 0.523033 0.541283
0.798276 0.522850 0.557549
0.921935 0.534173 0.584985
0.458747 0.598901 0.563470
0.463233 0.601038 0.565087
0.479072 0.608057 0.569024
0.510674 0.622889 0.574517
0.590021 0.650996 0.599817
0.734157 0.739315 0.744045
0.846921 0.726192 0.656275
0.952209 0.641047 0.543694
0.533928 0.740444 0.625269
0.535393 0.740383 0.623957
0.545220 0.742367 0.620996
0.577783 0.751339 0.622461
0.640131 0.765957 0.632136
0.796231 0.823239 0.764126
0.882170 0.881010 0.873686
0.957488 0.902678 0.851743
0.619165 0.865202 0.683040
0.622278 0.865629 0.683162
0.636469 0.867948 0.684016
0.671168 0.876036 0.691188
0.718410 0.884428 0.697047
0.844327 0.910979 0.799374
0.930968 0.940856 0.896544
0.968963 0.967071 0.959991
0.375250 0.426673 0.599237
0.381750 0.428016 0.603449
0.404089 0.427314 0.612512
0.454780 0.426551 0.633234
0.540276 0.419013 0.661463
0.654749 0.424872 0.684840
0.756405 0.472938 0.696773
0.856931 0.549462 0.728634
0.379370 0.432166 0.592828
0.383764 0.432013 0.595148
0.404395 0.431434 0.605035
0.451575 0.430152 0.625238
0.535607 0.423713 0.654994
0.650172 0.430304 0.679988
0.751919 0.477546 0.693111
0.853361 0.552514 0.726131
0.420752 0.478401 0.605676
0.423713 0.478004 0.607782
0.438361 0.477089 0.616785
0.472450 0.471260 0.631647
0.547173 0.464607 0.659358
0.657618 0.470619 0.683528
0.756802 0.515679 0.697841
0.855131 0.585412 0.732265
0.476509 0.534783 0.611383
0.478950 0.535485 0.613397
0.492195 0.540856 0.624781
0.520470 0.546319 0.647700
0.578729 0.542382 0.675013
0.678676 0.545953 0.696773
0.770291 0.586145 0.712093
0.869017 0.638514 0.747677
0.511254 0.583215 0.626856
0.515465 0.584894 0.628351
0.533379 0.592523 0.635462
0.568078 0.607935 0.650080
0.605646 0.618952 0.676295
0.688014 0.621180 0.698604
0.773434 0.654902 0.719570
0.901152 0.664790 0.748226
0.562097 0.648219 0.657191
0.567712 0.651331 0.660273
0.583062 0.657191 0.666133
0.612329 0.668818 0.677943
0.653956 0.686549 0.695857
0.731441 0.730922 0.735012
0.835172 0.700252 0.708125
0.938628 0.707088 0.727291
0.643549 0.765438 0.727901
0.647059 0.767391 0.729610
0.656458 0.771695 0.732601
0.675074 0.780362 0.738033
0.702815 0.793301 0.742550
0.771359 0.816831 0.765225
0.892271 0.892332 0.890410
0.960052 0.876982 0.826902
0.716640 0.878233 0.787198
0.717128 0.878233 0.786557
0.722316 0.880095 0.785855
0.730983 0.884703 0.782803
0.751339 0.891508 0.778378
0.801144 0.902525 0.784024
0.927886 0.942351 0.901701
0.974548 0.973388 0.969085
0.517632 0.561761 0.742000
0.521843 0.562524 0.744076
0.537469 0.562829 0.750454
0.570977 0.563409 0.763485
0.625605 0.561089 0.781399
0.706386 0.554406 0.803952
0.803861 0.569604 0.818753
0.885191 0.618708 0.825132
0.523705 0.568872 0.740993
0.527825 0.569696 0.743130
0.542290 0.569787 0.749538
0.573205 0.569146 0.761685
0.626184 0.566339 0.779538
0.705287 0.559106 0.801724
0.801755 0.573114 0.816342
0.882567 0.620935 0.822782
0.555047 0.603601 0.745632
0.557580 0.603540 0.747066
0.568383 0.602777 0.752834
0.593744 0.601526 0.764340
0.639490 0.597925 0.781186
0.712886 0.590967 0.803128
0.806455 0.604273 0.818662
0.885496 0.649866 0.826902
0.601801 0.653223 0.750149
0.603326 0.653162 0.751095
0.613062 0.655085 0.757473
0.631189 0.655177 0.769192
0.665553 0.652186 0.785519
0.728267 0.646357 0.807156
0.814908 0.655421 0.822995
0.889708 0.694789 0.832944
0.645686 0.699184 0.754849
0.647944 0.699763 0.755306
0.659358 0.703883 0.758724
0.674647 0.709712 0.770291
0.697658 0.712154 0.788571
0.743923 0.707088 0.809842
0.823362 0.711604 0.826627
0.896422 0.748165 0.841398
0.681178 0.745968 0.773129
0.683711 0.746914 0.774044
0.693690 0.750637 0.777615
0.712795 0.757870 0.784604
0.741512 0.769162 0.795651
0.772793 0.778378 0.817441
0.839048 0.781033 0.836637
0.906279 0.810391 0.855161
0.726375 0.799924 0.798978
0.728695 0.800900 0.799954
0.737087 0.803922 0.803128
0.753902 0.810269 0.809751
0.779141 0.820157 0.820127
0.813199 0.834745 0.835264
0.874510 0.871031 0.868956
0.949248 0.848539 0.850187
0.799741 0.891814 0.860136
0.800961 0.892454 0.860685
0.806577 0.895415 0.863127
0.816495 0.900481 0.866941
0.831479 0.908141 0.871763
0.852232 0.918669 0.875547
0.900969 0.934874 0.889616
0.980560 0.980041 0.978393
0.714382 0.740505 0.875853
0.716396 0.740780 0.876829
0.722988 0.740230 0.879789
0.738552 0.740200 0.886442
0.764523 0.739193 0.896208
0.803922 0.736355 0.908782
0.860227 0.731411 0.924010
0.926787 0.745968 0.932433
0.717128 0.743954 0.875151
0.718990 0.744198 0.876127
0.725734 0.744015 0.879332
0.740505 0.743557 0.885863
0.765774 0.742397 0.895628
0.804562 0.739528 0.908232
0.860136 0.734127 0.923339
0.926421 0.748196 0.931884
0.732082 0.761471 0.875883
0.733486 0.761471 0.876677
0.738888 0.760861 0.879728
0.752651 0.761166 0.886748
0.774868 0.759304 0.896117
0.810300 0.755673 0.908415
0.863401 0.750271 0.923583
0.928069 0.762509 0.932525
0.755337 0.788724 0.876951
0.757015 0.789273 0.877989
0.762448 0.789944 0.881407
0.772366 0.789487 0.887907
0.790646 0.787961 0.897459
0.821592 0.784726 0.909941
0.870115 0.779416 0.925170
0.932158 0.788693 0.934813
0.783413 0.819699 0.877317
0.784360 0.820035 0.878233
0.787259 0.820279 0.881376
0.796872 0.822782 0.888701
0.810941 0.823026 0.898894
0.835172 0.820218 0.911650
0.878233 0.815549 0.927428
0.937865 0.822049 0.938262
0.810513 0.852323 0.886625
0.811490 0.852506 0.886839
0.816159 0.853727 0.888182
0.826322 0.856901 0.891508
0.838529 0.860746 0.899565
0.856718 0.863676 0.915190
0.890562 0.860868 0.931853
0.945830 0.863584 0.943542
0.838071 0.888304 0.902525
0.839048 0.888579 0.902831
0.843320 0.889830 0.904173
0.852293 0.892668 0.907286
0.866423 0.897368 0.912352
0.886412 0.904448 0.919982
0.907836 0.909789 0.935241
0.954742 0.910765 0.949584
0.868284 0.925078 0.920134
0.869139 0.925322 0.920409
0.873136 0.926635 0.921874
0.881559 0.929564 0.925139
0.894591 0.934234 0.930266
0.912779 0.940978 0.937743
0.937011 0.950835 0.948577
0.974456 0.972290 0.970275
