20 Preset/Gray style/【3】LUT video cho PR-AE-FCPX/Tone  (6).cube
# Created by Adobe Lightroom plugin Export LUT (1.24.0)
# www.johnrellis.com/lightroom/exportlut.htm
# Preset: 06素材江湖-高级灰
# Color profile: E:\lut插件\exportlut.1.24\exportlut.lrplugin\color profiles\Rec709gamma2.4.icc
LUT_3D_SIZE 8
DOMAIN_MIN 0.000000 0.000000 0.000000
DOMAIN_MAX 0.903226 0.903226 0.903226
0.000000 0.000000 0.000000
0.120058 0.030121 0.037171
0.250980 0.096712 0.106081
0.386999 0.120302 0.131441
0.520592 0.153323 0.167697
0.655604 0.201053 0.220005
0.807126 0.260319 0.284977
0.935912 0.323644 0.352178
0.064363 0.114107 0.084810
0.104494 0.112032 0.117647
0.253544 0.141695 0.105501
0.381964 0.157107 0.127382
0.512230 0.181857 0.164401
0.644343 0.219730 0.215396
0.790188 0.269993 0.276310
0.920928 0.326879 0.342229
0.150149 0.238041 0.166323
0.177829 0.238193 0.179477
0.221469 0.234897 0.244663
0.408942 0.269749 0.145357
0.532799 0.271611 0.155703
0.670192 0.299260 0.217044
0.818235 0.340948 0.285893
0.941650 0.385382 0.353460
0.242039 0.365179 0.264073
0.255955 0.365911 0.267247
0.311070 0.363775 0.307530
0.354620 0.370550 0.381903
0.579095 0.448157 0.318700
0.719905 0.416846 0.199252
0.839506 0.435035 0.278874
0.950225 0.461402 0.350286
0.333684 0.491402 0.353307
0.342596 0.492927 0.354345
0.389837 0.495857 0.381567
0.458473 0.503655 0.438880
0.503990 0.515770 0.518212
0.695979 0.587366 0.467964
0.840818 0.556909 0.336339
0.956146 0.548119 0.329839
0.429786 0.620569 0.438544
0.440650 0.626947 0.443458
0.475624 0.629541 0.458961
0.539544 0.632532 0.502739
0.605676 0.638544 0.567041
0.648493 0.653559 0.645930
0.797391 0.721859 0.632776
0.954192 0.716152 0.527184
0.538689 0.745083 0.534783
0.544854 0.747036 0.536889
0.566339 0.748592 0.542809
0.620417 0.749752 0.578332
0.682155 0.751339 0.627344
0.739925 0.759609 0.690059
0.775631 0.775051 0.759182
0.879149 0.830655 0.767330
0.663111 0.868315 0.645899
0.666255 0.868711 0.646357
0.680903 0.871244 0.649683
0.723354 0.873747 0.676295
0.764340 0.863767 0.703578
0.822660 0.869749 0.757504
0.869505 0.878691 0.815976
0.892210 0.888365 0.869993
0.045808 0.090303 0.149477
0.133516 0.100221 0.158907
0.256596 0.115938 0.176852
0.385657 0.143954 0.193790
0.513512 0.178622 0.220188
0.642420 0.217746 0.256901
0.782650 0.265537 0.304753
0.909209 0.320043 0.359442
0.099062 0.144106 0.155917
0.144320 0.154940 0.169650
0.265293 0.165438 0.178622
0.388525 0.177798 0.191073
0.514366 0.200992 0.216526
0.641749 0.234806 0.254215
0.776211 0.276829 0.300084
0.900359 0.325780 0.352728
0.178683 0.254887 0.221225
0.197299 0.259495 0.223667
0.242130 0.258030 0.274968
0.416144 0.264866 0.155795
0.530755 0.275883 0.199985
0.661128 0.302342 0.248783
0.791012 0.334936 0.299809
0.915557 0.376654 0.357763
0.253025 0.366583 0.289891
0.264256 0.368658 0.290990
0.316747 0.369543 0.323705
0.357916 0.374701 0.389319
0.556847 0.433204 0.324346
0.691279 0.401678 0.220462
0.807736 0.419562 0.285985
0.923705 0.447791 0.350286
0.341375 0.493416 0.370733
0.349065 0.494148 0.370977
0.390784 0.496071 0.390631
0.454688 0.499641 0.441566
0.495247 0.507713 0.513237
0.683680 0.576379 0.462898
0.825895 0.543725 0.331579
0.941314 0.539391 0.335241
0.429358 0.614832 0.445441
0.436072 0.616327 0.446754
0.468086 0.620111 0.458564
0.532006 0.624628 0.501305
0.599176 0.632258 0.564630
0.644526 0.650019 0.643854
0.792935 0.716823 0.628687
0.946319 0.708156 0.522881
0.533379 0.736690 0.534997
0.536278 0.735897 0.534142
0.554925 0.737697 0.536706
0.610315 0.740108 0.572564
0.675257 0.744900 0.623621
0.733211 0.753323 0.685451
0.767086 0.766964 0.752132
0.871305 0.821805 0.757687
0.655756 0.860990 0.642176
0.660761 0.862791 0.644465
0.674891 0.865080 0.647272
0.716030 0.868254 0.671565
0.772000 0.870329 0.713344
0.825650 0.872526 0.761990
0.869169 0.878447 0.816464
0.891752 0.887999 0.869963
0.028931 0.150301 0.311315
0.150515 0.160067 0.316014
0.285069 0.203769 0.330144
0.380652 0.256260 0.348272
0.531701 0.251987 0.362615
0.678920 0.255711 0.369574
0.806241 0.311223 0.403632
0.922271 0.372534 0.445716
0.049531 0.194675 0.317296
0.161807 0.202579 0.320714
0.289067 0.240177 0.331823
0.392737 0.269291 0.350835
0.532769 0.262730 0.355383
0.674403 0.279423 0.368597
0.797177 0.327703 0.400366
0.915709 0.375250 0.439002
0.231205 0.305089 0.326055
0.252781 0.308568 0.330846
0.310002 0.325872 0.349828
0.435584 0.311559 0.329015
0.557580 0.323095 0.341802
0.687831 0.345647 0.366064
0.807187 0.373632 0.396155
0.922484 0.412055 0.436713
0.307897 0.402655 0.379553
0.316930 0.406043 0.382086
0.355779 0.417487 0.391699
0.408515 0.427100 0.449592
0.589105 0.445808 0.365179
0.715389 0.428138 0.337102
0.825864 0.446967 0.381140
0.934386 0.475471 0.429419
0.383490 0.520134 0.440314
0.390051 0.521691 0.440894
0.419471 0.529229 0.444770
0.488899 0.535393 0.489509
0.534203 0.546685 0.556329
0.712398 0.599176 0.499947
0.842191 0.537194 0.342199
0.947356 0.555444 0.409064
0.461219 0.630152 0.498604
0.467353 0.631952 0.500008
0.490181 0.636652 0.502953
0.549767 0.640925 0.535821
0.615747 0.648096 0.592157
0.660517 0.666407 0.664057
0.805997 0.727840 0.644373
0.949279 0.711513 0.546899
0.561364 0.747951 0.578271
0.563989 0.747524 0.577722
0.578759 0.748287 0.577844
0.622919 0.750973 0.598657
0.686397 0.755032 0.644831
0.745022 0.764797 0.703548
0.781613 0.781643 0.769131
0.886534 0.835325 0.771786
0.669856 0.864805 0.667811
0.671901 0.864561 0.667384
0.684871 0.866697 0.669673
0.720058 0.873136 0.685603
0.776242 0.875090 0.725368
0.832059 0.878935 0.773983
0.876188 0.885557 0.827085
0.898589 0.895079 0.878630
0.063142 0.215396 0.454627
0.165408 0.225803 0.458686
0.307164 0.263462 0.466621
0.431891 0.316014 0.479744
0.534234 0.363867 0.498054
0.670619 0.385290 0.526696
0.799771 0.389410 0.533379
0.918151 0.409308 0.544366
0.107942 0.250278 0.462440
0.181125 0.259007 0.464546
0.316655 0.291508 0.470649
0.437263 0.337346 0.483162
0.538903 0.381659 0.503197
0.678004 0.393164 0.527428
0.800870 0.396826 0.530938
0.918791 0.415015 0.541314
0.095399 0.336828 0.469795
0.128481 0.330816 0.472450
0.320836 0.354986 0.477913
0.450263 0.399542 0.490761
0.553429 0.433845 0.515831
0.700252 0.429755 0.526360
0.825101 0.436408 0.530846
0.929870 0.470497 0.551934
0.362341 0.463569 0.482460
0.374182 0.464729 0.484230
0.420233 0.472328 0.494545
0.484016 0.495430 0.516411
0.613214 0.476539 0.489998
0.721096 0.482399 0.497780
0.827115 0.498726 0.515618
0.931487 0.526940 0.544915
0.456947 0.564172 0.537926
0.461860 0.565759 0.539055
0.483711 0.573938 0.544182
0.534722 0.587976 0.558953
0.588678 0.601099 0.616602
0.736172 0.611749 0.546166
0.854856 0.572381 0.484443
0.950317 0.592676 0.528435
0.528954 0.663935 0.588006
0.537224 0.668849 0.592309
0.552148 0.671656 0.593042
0.587488 0.680049 0.598901
0.655421 0.687098 0.645716
0.696284 0.702083 0.704280
0.834897 0.748806 0.672755
0.961181 0.707088 0.566949
0.603906 0.764340 0.641413
0.607782 0.765530 0.642390
0.622004 0.768795 0.644556
0.650568 0.775204 0.649134
0.711299 0.779934 0.685481
0.768734 0.788296 0.736751
0.803067 0.803372 0.794583
0.907530 0.851408 0.787930
0.699428 0.876371 0.715145
0.701900 0.876677 0.715389
0.712764 0.878538 0.716945
0.736080 0.883177 0.721523
0.784268 0.886290 0.747585
0.841154 0.889555 0.792752
0.886656 0.896544 0.843473
0.910369 0.907317 0.893462
0.179477 0.302098 0.594690
0.224949 0.309819 0.598657
0.342229 0.335607 0.605798
0.475685 0.381384 0.618219
0.594690 0.430304 0.630396
0.684382 0.472480 0.636591
0.763485 0.528435 0.657160
0.900969 0.537102 0.680201
0.196750 0.328069 0.602747
0.239841 0.335271 0.606867
0.352850 0.358434 0.612757
0.481270 0.398291 0.620661
0.596796 0.443519 0.631373
0.685054 0.484016 0.637903
0.765133 0.536156 0.658930
0.901579 0.542535 0.679805
0.190585 0.390967 0.614557
0.233310 0.393866 0.616083
0.356847 0.411231 0.618006
0.490303 0.447333 0.622187
0.598993 0.485908 0.629419
0.679316 0.519982 0.636408
0.779904 0.550439 0.659785
0.901518 0.557580 0.673487
0.282994 0.509270 0.617487
0.296483 0.508080 0.618494
0.342290 0.500511 0.624720
0.501793 0.522911 0.631403
0.615167 0.561578 0.637812
0.691066 0.587610 0.651606
0.809689 0.585534 0.660548
0.917876 0.587854 0.664454
0.494636 0.608728 0.617639
0.503258 0.609979 0.619196
0.534173 0.614221 0.624964
0.586938 0.622431 0.636927
0.638270 0.642817 0.654108
0.740963 0.622675 0.628168
0.835935 0.626947 0.634913
0.932219 0.641596 0.650965
0.583276 0.677424 0.653681
0.586755 0.679072 0.655085
0.598535 0.683497 0.658503
0.622583 0.694118 0.665064
0.665278 0.704555 0.676204
0.721065 0.727382 0.734707
0.848692 0.745083 0.687434
0.961822 0.708736 0.629358
0.652827 0.779202 0.707698
0.653223 0.778653 0.706569
0.658259 0.779110 0.704372
0.678584 0.785702 0.707088
0.716243 0.795621 0.714290
0.782010 0.804318 0.761898
0.818875 0.819760 0.815488
0.927459 0.857816 0.792416
0.714748 0.875944 0.754147
0.716548 0.876158 0.754147
0.725460 0.877775 0.755032
0.749996 0.885893 0.762631
0.781888 0.893248 0.768673
0.842405 0.897704 0.807492
0.892699 0.904448 0.856535
0.917510 0.915068 0.904326
0.299596 0.406714 0.734768
0.325841 0.412421 0.736782
0.405829 0.427955 0.736629
0.517601 0.460517 0.740169
0.630182 0.505180 0.743557
0.727077 0.549401 0.748531
0.805295 0.590906 0.754574
0.879728 0.648432 0.777096
0.297765 0.413153 0.725490
0.321782 0.416785 0.725704
0.401129 0.432013 0.726925
0.510704 0.462348 0.730526
0.623804 0.506889 0.736019
0.721431 0.551385 0.742794
0.799802 0.592248 0.750027
0.875212 0.648737 0.773678
0.313481 0.464576 0.735256
0.336645 0.467079 0.735042
0.417853 0.481544 0.735683
0.523796 0.505760 0.733883
0.633845 0.546380 0.737850
0.726284 0.584955 0.744625
0.801541 0.621607 0.753384
0.876341 0.671931 0.778500
0.286046 0.532403 0.740993
0.314092 0.533837 0.740444
0.412329 0.545953 0.741390
0.545617 0.578058 0.746304
0.659541 0.615808 0.750454
0.743252 0.646021 0.755398
0.811704 0.675502 0.765835
0.890990 0.709987 0.791196
0.460090 0.657435 0.733181
0.467506 0.657404 0.733577
0.496162 0.657130 0.736202
0.542382 0.653010 0.743038
0.659358 0.669612 0.748104
0.745754 0.696864 0.752804
0.810513 0.720424 0.768063
0.918212 0.721614 0.781125
0.618555 0.729213 0.728847
0.625116 0.731380 0.731106
0.642390 0.733089 0.733730
0.674220 0.737057 0.739498
0.718441 0.743252 0.749447
0.767239 0.766354 0.769223
0.860807 0.755978 0.754330
0.947509 0.764034 0.764553
0.718441 0.802274 0.775845
0.721370 0.804105 0.777554
0.728206 0.807218 0.779934
0.742031 0.813596 0.784543
0.762661 0.823056 0.789334
0.801205 0.833005 0.798428
0.848966 0.850248 0.850217
0.953582 0.864286 0.810300
0.775357 0.891539 0.824704
0.775418 0.891234 0.823941
0.779263 0.892485 0.823606
0.786740 0.896239 0.822446
0.802396 0.901518 0.820768
0.839322 0.911254 0.827359
0.903227 0.918944 0.876890
0.931701 0.930053 0.923095
0.416175 0.505058 0.831571
0.430457 0.507958 0.831479
0.484321 0.521447 0.832303
0.568841 0.546838 0.834195
0.663386 0.581262 0.836515
0.755245 0.622614 0.840391
0.834379 0.659358 0.845579
0.900725 0.693874 0.851225
0.425269 0.517540 0.833127
0.438788 0.520134 0.832914
0.491127 0.532891 0.833707
0.573358 0.556756 0.835386
0.667384 0.590539 0.838010
0.758541 0.631128 0.842161
0.837064 0.667018 0.847562
0.902953 0.701167 0.853666
0.439582 0.551507 0.833555
0.452918 0.554131 0.833768
0.504173 0.565911 0.834684
0.584283 0.587579 0.836240
0.675898 0.618494 0.839078
0.764034 0.655085 0.843046
0.839078 0.686610 0.847807
0.902678 0.717739 0.854154
0.442359 0.600946 0.836454
0.455665 0.602655 0.836179
0.509758 0.613367 0.837034
0.593591 0.633326 0.838163
0.686336 0.661067 0.840635
0.772061 0.692988 0.844266
0.843351 0.719875 0.849058
0.905333 0.748623 0.857786
0.473152 0.681575 0.839567
0.479103 0.681147 0.840238
0.500145 0.676997 0.842649
0.580774 0.685481 0.844388
0.691371 0.711849 0.846159
0.783536 0.741176 0.849668
0.853117 0.764736 0.854826
0.912657 0.789914 0.865690
0.609613 0.788327 0.840848
0.613306 0.788296 0.841154
0.628717 0.788266 0.842527
0.656611 0.787106 0.845426
0.695644 0.782101 0.850706
0.787411 0.792477 0.855528
0.863493 0.815335 0.860685
0.922332 0.839261 0.877073
0.732692 0.847044 0.838865
0.735042 0.847135 0.839109
0.745785 0.848325 0.840909
0.766812 0.850706 0.844419
0.798734 0.855009 0.850675
0.840696 0.861723 0.860777
0.883696 0.879973 0.877623
0.961273 0.875883 0.871092
0.834134 0.908812 0.882383
0.835019 0.909209 0.882719
0.838407 0.910643 0.883757
0.846860 0.914855 0.887083
0.860716 0.921874 0.892302
0.879728 0.931395 0.897398
0.913176 0.940673 0.903868
0.953429 0.952636 0.949859
0.604639 0.663966 0.941650
0.611475 0.665736 0.941588
0.640589 0.674250 0.942107
0.690242 0.689418 0.942535
0.754147 0.711421 0.943511
0.823026 0.738705 0.945281
0.888945 0.768734 0.947784
0.947112 0.794858 0.951263
0.609766 0.671290 0.942412
0.616480 0.672908 0.942321
0.644587 0.680842 0.942657
0.693599 0.695583 0.943175
0.756710 0.716945 0.944182
0.824949 0.743618 0.945953
0.890532 0.773159 0.948638
0.948363 0.798978 0.952239
0.620844 0.693080 0.943084
0.627314 0.694697 0.943114
0.654627 0.702022 0.943542
0.701289 0.714687 0.943664
0.763027 0.734585 0.944915
0.829770 0.759487 0.946960
0.893767 0.786770 0.949645
0.950286 0.810697 0.953338
0.627070 0.724361 0.944823
0.634455 0.726162 0.944732
0.663508 0.733883 0.944915
0.710292 0.745663 0.945403
0.770840 0.763119 0.946441
0.836118 0.784970 0.948394
0.898405 0.809140 0.951202
0.953429 0.830381 0.954986
0.617975 0.762478 0.948363
0.624353 0.763272 0.948302
0.651667 0.767544 0.948669
0.706844 0.779995 0.948852
0.774472 0.797879 0.949798
0.842069 0.817472 0.951812
0.904936 0.838926 0.954742
0.958862 0.857877 0.958556
0.679591 0.840574 0.949401
0.682368 0.840452 0.949767
0.693416 0.839322 0.950958
0.713558 0.835599 0.953033
0.760616 0.835874 0.954955
0.842161 0.854704 0.955749
0.910430 0.873930 0.958343
0.965301 0.891630 0.962615
0.761471 0.915740 0.951568
0.763638 0.915831 0.951781
0.772763 0.915984 0.952728
0.789944 0.915801 0.954314
0.816403 0.915160 0.956909
0.852049 0.912688 0.960754
0.916869 0.919524 0.964843
0.974792 0.935210 0.969696
0.856138 0.962493 0.951629
0.857725 0.962707 0.951965
0.863951 0.963226 0.952819
0.875731 0.963897 0.954284
0.894530 0.965393 0.957122
0.920836 0.968048 0.961669
0.954253 0.972290 0.968811
0.985779 0.983307 0.981018
