20 Preset/Gray style/【3】LUT video cho PR-AE-FCPX/Tone  (14).cube
# Created by Adobe Lightroom plugin Export LUT (1.24.0)
# www.johnrellis.com/lightroom/exportlut.htm
# Preset: 14素材江湖-高级灰
# Color profile: E:\lut插件\exportlut.1.24\exportlut.lrplugin\color profiles\Rec709gamma2.4.icc
LUT_3D_SIZE 32
DOMAIN_MIN 0.0 0.0 0.0
DOMAIN_MAX 1.0 1.0 1.0
0.000000 0.000000 0.000000
0.013550 0.002777 0.005005
0.045838 0.011078 0.016785
0.098146 0.028473 0.042267
0.130587 0.054017 0.078157
0.164309 0.081910 0.095491
0.199130 0.094728 0.106508
0.235111 0.103792 0.112062
0.271550 0.111177 0.114504
0.307836 0.117891 0.115572
0.343816 0.124056 0.114992
0.379889 0.129793 0.112062
0.415442 0.135103 0.109224
0.451545 0.141970 0.105257
0.487617 0.150179 0.103975
0.524010 0.159854 0.108644
0.561547 0.170321 0.113710
0.600214 0.181521 0.119326
0.640681 0.193027 0.124697
0.683162 0.205509 0.130007
0.726467 0.218631 0.135195
0.769863 0.232029 0.142245
0.816526 0.247562 0.150820
0.860014 0.262608 0.159823
0.900969 0.277592 0.169589
0.939879 0.292607 0.179904
0.977173 0.307897 0.190921
1.000000 0.323888 0.203311
1.000000 0.340490 0.217197
1.000000 0.358434 0.232456
1.000000 0.377691 0.250248
1.000000 0.398657 0.270542
0.001709 0.011872 0.007385
0.010742 0.010742 0.010742
0.048585 0.019562 0.021210
0.098421 0.035004 0.044739
0.130831 0.060548 0.079011
0.163821 0.085512 0.097200
0.198276 0.097292 0.106935
0.234165 0.105440 0.112856
0.269902 0.113344 0.115236
0.305760 0.119600 0.116396
0.341588 0.125093 0.115633
0.377325 0.130556 0.112520
0.412970 0.136446 0.109285
0.448707 0.143313 0.106081
0.484596 0.150881 0.105013
0.521050 0.160281 0.108736
0.558465 0.170962 0.113497
0.596948 0.181735 0.119020
0.637263 0.193332 0.124178
0.679530 0.205692 0.129671
0.722438 0.218387 0.135134
0.765652 0.231540 0.141909
0.811063 0.246281 0.149996
0.853605 0.261082 0.158694
0.893919 0.275608 0.168032
0.932616 0.290379 0.177676
0.970031 0.305516 0.188876
1.000000 0.321202 0.200870
1.000000 0.337896 0.214359
1.000000 0.355627 0.229374
1.000000 0.374670 0.246891
1.000000 0.395575 0.267094
0.010742 0.056703 0.041718
0.019776 0.055573 0.045106
0.057588 0.054475 0.051270
0.103914 0.064912 0.062928
0.132692 0.088685 0.089143
0.165255 0.098451 0.101595
0.199680 0.107698 0.110475
0.234257 0.114900 0.115297
0.269688 0.121248 0.117464
0.305547 0.127230 0.117952
0.340826 0.132784 0.116579
0.376410 0.137484 0.114199
0.411688 0.143008 0.110445
0.447120 0.149081 0.107088
0.482856 0.156435 0.106050
0.519158 0.165560 0.109712
0.556390 0.175509 0.115206
0.594965 0.186130 0.119997
0.635096 0.197299 0.125216
0.677272 0.209110 0.130465
0.720363 0.221530 0.136385
0.764004 0.235172 0.142367
0.808652 0.249271 0.150515
0.850614 0.263493 0.159213
0.890623 0.277684 0.168124
0.928923 0.291905 0.177646
0.966339 0.306767 0.188205
1.000000 0.322240 0.200168
1.000000 0.338598 0.213352
1.000000 0.356237 0.228244
1.000000 0.374945 0.245548
1.000000 0.395483 0.265385
0.031098 0.105715 0.093660
0.038148 0.105440 0.094820
0.078248 0.105318 0.098054
0.107881 0.103639 0.102937
0.139712 0.104463 0.106538
0.169924 0.116884 0.111666
0.202792 0.125063 0.116243
0.237217 0.130861 0.119875
0.271550 0.136385 0.121370
0.306615 0.141024 0.121401
0.341405 0.145571 0.119600
0.376471 0.150362 0.116640
0.411139 0.155306 0.112764
0.446296 0.160342 0.109957
0.481727 0.167208 0.108644
0.517479 0.175418 0.112337
0.554376 0.184726 0.117128
0.592218 0.194583 0.122560
0.631952 0.205203 0.127443
0.673640 0.216373 0.132265
0.716426 0.228458 0.137423
0.760433 0.241093 0.144350
0.803799 0.254734 0.151431
0.845335 0.268254 0.159731
0.885649 0.282139 0.168399
0.924895 0.296361 0.177890
0.963256 0.311254 0.188632
1.000000 0.326513 0.200565
1.000000 0.342870 0.213565
1.000000 0.360235 0.228641
1.000000 0.378393 0.245792
1.000000 0.398352 0.265019
0.059785 0.139284 0.120668
0.063539 0.139406 0.122042
0.089540 0.138766 0.124178
0.117098 0.139193 0.126375
0.143801 0.135561 0.130282
0.177493 0.131106 0.130526
0.209140 0.141421 0.129244
0.240055 0.151431 0.126009
0.273808 0.155612 0.126131
0.307591 0.159792 0.126162
0.341619 0.163638 0.123964
0.376074 0.167391 0.120729
0.410224 0.171542 0.117128
0.445045 0.176455 0.114107
0.480354 0.182132 0.113619
0.516350 0.190158 0.116884
0.553155 0.198489 0.121736
0.591394 0.207675 0.126253
0.631067 0.217502 0.130709
0.672663 0.228275 0.136019
0.715297 0.239536 0.140993
0.760037 0.252201 0.147341
0.802518 0.264958 0.154238
0.843778 0.277836 0.162203
0.884062 0.291173 0.170565
0.923369 0.305058 0.179812
0.961761 0.319188 0.190158
0.998993 0.334051 0.201846
1.000000 0.349828 0.215061
1.000000 0.366613 0.229618
1.000000 0.384283 0.246281
1.000000 0.403601 0.265568
0.078431 0.174014 0.139895
0.081819 0.174075 0.141238
0.094789 0.173190 0.143282
0.122683 0.172854 0.145418
0.154391 0.172702 0.148318
0.182223 0.167575 0.152438
0.211673 0.156832 0.155612
0.250217 0.166384 0.145571
0.279942 0.174990 0.139986
0.311070 0.182773 0.133089
0.344457 0.186038 0.130312
0.378149 0.189029 0.127077
0.412146 0.192508 0.123476
0.446632 0.196628 0.120729
0.481727 0.202060 0.120668
0.517662 0.208896 0.123720
0.554681 0.216739 0.128054
0.593011 0.225162 0.132662
0.632929 0.234470 0.136843
0.674647 0.244724 0.140963
0.718502 0.256199 0.146395
0.762936 0.268162 0.152132
0.837339 0.292607 0.165347
0.879850 0.305882 0.174441
0.920073 0.319341 0.183810
0.958404 0.332921 0.194125
0.994873 0.346685 0.205600
1.000000 0.360937 0.217838
1.000000 0.376135 0.231754
1.000000 0.392157 0.247257
1.000000 0.409491 0.264805
1.000000 0.428046 0.284581
0.092897 0.213199 0.160494
0.093782 0.213291 0.161044
0.105715 0.212619 0.163485
0.128054 0.211734 0.166323
0.162264 0.211185 0.168215
0.197360 0.210391 0.171115
0.225620 0.203311 0.175723
0.250248 0.186343 0.183902
0.295445 0.195682 0.167453
0.325536 0.203342 0.158694
0.356268 0.211276 0.146426
0.388922 0.217075 0.135500
0.422644 0.219944 0.131838
0.457038 0.223423 0.129488
0.491890 0.228550 0.129915
0.527581 0.234409 0.133333
0.564538 0.241337 0.137026
0.602777 0.249363 0.140475
0.642908 0.257908 0.145144
0.685664 0.268101 0.148470
0.734737 0.280797 0.154330
0.781674 0.293431 0.160647
0.826780 0.306340 0.168643
0.870665 0.319615 0.176974
0.912718 0.332830 0.186374
0.952087 0.345922 0.196597
0.989075 0.358923 0.207370
1.000000 0.372534 0.219394
1.000000 0.386786 0.232517
1.000000 0.401648 0.247532
1.000000 0.417945 0.264347
1.000000 0.435737 0.283818
0.105715 0.247196 0.179599
0.108309 0.246891 0.179965
0.117861 0.246494 0.181552
0.133486 0.245731 0.185458
0.166140 0.244999 0.187442
0.201205 0.244175 0.189822
0.236606 0.243076 0.192325
0.263249 0.234470 0.197482
0.285161 0.216251 0.206455
0.333501 0.222721 0.189853
0.363348 0.229282 0.179751
0.393866 0.236332 0.165743
0.425360 0.243931 0.147768
0.458503 0.249027 0.139864
0.493172 0.253239 0.140810
0.528130 0.258824 0.143557
0.564874 0.264958 0.146487
0.602960 0.272068 0.149416
0.643153 0.280430 0.152865
0.689509 0.291539 0.156527
0.735927 0.302800 0.161440
0.780880 0.314183 0.167544
0.824613 0.325994 0.174166
0.867430 0.338079 0.182071
0.908843 0.350439 0.190829
0.947936 0.362585 0.200412
0.984771 0.374823 0.210697
1.000000 0.387457 0.221958
1.000000 0.400732 0.234958
1.000000 0.414832 0.249607
1.000000 0.430274 0.266300
1.000000 0.447120 0.285588
0.124453 0.280674 0.199283
0.126528 0.280583 0.199832
0.134066 0.280186 0.201236
0.147646 0.279545 0.204074
0.172396 0.278630 0.207034
0.206119 0.277684 0.208896
0.240726 0.276768 0.211215
0.275792 0.275456 0.214145
0.300694 0.266209 0.219272
0.320653 0.247471 0.228061
0.367102 0.250065 0.216098
0.401282 0.256809 0.202609
0.432227 0.263401 0.188571
0.464118 0.271061 0.172488
0.496468 0.280095 0.155520
0.531334 0.285252 0.155825
0.567651 0.290990 0.157778
0.605615 0.297642 0.160281
0.649165 0.307195 0.162783
0.694392 0.317418 0.166262
0.738888 0.327794 0.170230
0.782040 0.338140 0.175265
0.824613 0.348760 0.181399
0.866545 0.359869 0.188571
0.907195 0.371283 0.197024
0.945800 0.382361 0.205844
0.982422 0.393774 0.215427
1.000000 0.405493 0.226535
1.000000 0.417945 0.239261
1.000000 0.431189 0.253300
1.000000 0.445716 0.269932
1.000000 0.461738 0.288823
0.145602 0.314122 0.218875
0.147036 0.313970 0.219394
0.153140 0.313573 0.220279
0.164797 0.312993 0.223148
0.182040 0.311925 0.226474
0.213138 0.310948 0.227939
0.246464 0.309636 0.229526
0.280461 0.308476 0.232151
0.314305 0.307439 0.234928
0.337469 0.297429 0.240177
0.355505 0.278202 0.248600
0.398779 0.277531 0.242466
0.438911 0.285405 0.226688
0.470558 0.292180 0.214389
0.503258 0.300237 0.200687
0.536675 0.309300 0.184726
0.572992 0.319768 0.170138
0.613916 0.327550 0.171878
0.656764 0.336370 0.174350
0.700649 0.345830 0.176638
0.743099 0.355016 0.180209
0.784146 0.363928 0.184482
0.824430 0.373175 0.189609
0.864286 0.382727 0.195743
0.903258 0.392706 0.202731
0.940948 0.402747 0.210727
0.977234 0.413214 0.220035
1.000000 0.424109 0.230777
1.000000 0.435889 0.243137
1.000000 0.448646 0.257267
1.000000 0.462470 0.273594
1.000000 0.477943 0.292882
0.167666 0.346593 0.237583
0.168856 0.346471 0.238010
0.174044 0.346258 0.238651
0.184054 0.345739 0.240909
0.198520 0.345098 0.244388
0.223270 0.344305 0.246891
0.254551 0.343450 0.248264
0.287114 0.342535 0.250401
0.320531 0.341558 0.252689
0.354070 0.340459 0.255741
0.375891 0.329503 0.261173
0.392096 0.310399 0.269291
0.432929 0.307195 0.269017
0.479438 0.316411 0.251530
0.513146 0.324529 0.240879
0.548547 0.333745 0.228428
0.585107 0.343938 0.213931
0.623133 0.355566 0.197177
0.663630 0.366613 0.186130
0.705684 0.375036 0.187625
0.746517 0.382971 0.190280
0.786099 0.391028 0.193973
0.825559 0.399420 0.198459
0.864683 0.408209 0.204013
0.903044 0.417273 0.210758
0.940246 0.426642 0.218112
0.976196 0.436255 0.226963
1.000000 0.446448 0.237308
1.000000 0.457343 0.249271
1.000000 0.469337 0.263340
1.000000 0.482490 0.279789
1.000000 0.497169 0.298894
0.191745 0.381781 0.256657
0.192996 0.381659 0.256962
0.197818 0.381476 0.258030
0.206119 0.381231 0.259709
0.218997 0.380713 0.262730
0.236728 0.380041 0.266361
0.266575 0.379492 0.267735
0.297765 0.378637 0.269657
0.330358 0.377996 0.271946
0.363378 0.377173 0.274662
0.396643 0.376287 0.277379
0.418158 0.365423 0.283726
0.447944 0.357458 0.299504
0.490639 0.353124 0.305211
0.547570 0.365667 0.285801
0.585260 0.375158 0.274876
0.623499 0.385290 0.262394
0.663233 0.396399 0.247562
0.702052 0.407904 0.231296
0.739620 0.419532 0.213382
0.777646 0.428077 0.207919
0.815579 0.434668 0.211276
0.853147 0.441627 0.215732
0.890196 0.449012 0.220859
0.926299 0.456580 0.227176
0.961059 0.464210 0.234897
0.994446 0.472206 0.243626
1.000000 0.480720 0.253696
1.000000 0.489967 0.265263
1.000000 0.500389 0.279301
1.000000 0.512169 0.295781
1.000000 0.525750 0.315373
0.222171 0.425513 0.279881
0.222934 0.425483 0.280125
0.226719 0.425147 0.280674
0.234257 0.424475 0.282292
0.245212 0.423682 0.284611
0.259709 0.422827 0.288151
0.284642 0.421759 0.290257
0.315007 0.421546 0.291936
0.347539 0.421851 0.294377
0.381872 0.422431 0.297307
0.417060 0.423682 0.300694
0.453498 0.425086 0.304997
0.476265 0.414343 0.312688
0.493874 0.395727 0.321935
0.532586 0.387457 0.332189
0.591669 0.400671 0.312932
0.635920 0.411536 0.298497
0.673213 0.421210 0.286137
0.709743 0.430884 0.272404
0.745174 0.440620 0.257389
0.779629 0.450660 0.241489
0.813779 0.461189 0.224063
0.850248 0.468025 0.225132
0.886778 0.474678 0.229648
0.922484 0.481605 0.235294
0.957183 0.488685 0.242588
0.990692 0.496254 0.250828
1.000000 0.504234 0.260868
1.000000 0.513024 0.272618
1.000000 0.523033 0.286564
1.000000 0.534325 0.303105
1.000000 0.547265 0.323125
0.248753 0.468269 0.300298
0.248997 0.468116 0.300328
0.252384 0.467597 0.300877
0.259129 0.467079 0.302403
0.269352 0.466438 0.304570
0.282811 0.465614 0.307866
0.301671 0.464973 0.311101
0.331090 0.464485 0.312413
0.362585 0.464210 0.314305
0.396002 0.464607 0.316686
0.430610 0.465461 0.319890
0.466957 0.466743 0.323430
0.503929 0.468116 0.327367
0.525536 0.455665 0.335088
0.542382 0.435859 0.344060
0.577966 0.424018 0.355779
0.636439 0.435492 0.338598
0.684443 0.446540 0.320897
0.718959 0.455146 0.309239
0.752621 0.463600 0.296452
0.785580 0.472389 0.283146
0.818906 0.481819 0.268589
0.852293 0.491920 0.253239
0.886046 0.502342 0.239567
0.921355 0.508721 0.245060
0.955810 0.515343 0.251591
0.989136 0.522271 0.259892
1.000000 0.529717 0.269657
1.000000 0.538048 0.281682
1.000000 0.547509 0.295903
1.000000 0.558343 0.312718
1.000000 0.570794 0.333104
0.273228 0.514427 0.320165
0.273930 0.514336 0.320317
0.277012 0.513725 0.320806
0.283085 0.512840 0.321935
0.292241 0.511620 0.323888
0.304662 0.510430 0.326452
0.319982 0.509514 0.330449
0.346624 0.508782 0.332036
0.377966 0.508324 0.333501
0.410590 0.508476 0.335607
0.445380 0.509270 0.338293
0.481544 0.510613 0.341680
0.518730 0.511833 0.345342
0.556023 0.512932 0.348974
0.576226 0.498482 0.356878
0.592340 0.476875 0.365576
0.626062 0.463203 0.376898
0.679103 0.469612 0.364752
0.729763 0.480415 0.343908
0.761715 0.487861 0.332769
0.793515 0.495705 0.320958
0.825681 0.504265 0.308659
0.858091 0.513512 0.295811
0.890593 0.523339 0.282322
0.922728 0.533684 0.268559
0.955230 0.542870 0.262150
0.988495 0.549523 0.270115
1.000000 0.556695 0.280430
1.000000 0.564874 0.292393
1.000000 0.574273 0.307439
1.000000 0.585138 0.325658
1.000000 0.597742 0.347570
0.295720 0.560815 0.338689
0.296330 0.560906 0.338872
0.299474 0.560510 0.339452
0.305547 0.560143 0.340642
0.314183 0.559411 0.342412
0.326482 0.558801 0.345312
0.341588 0.558465 0.349310
0.363531 0.558404 0.352575
0.394965 0.558312 0.354131
0.428107 0.558434 0.356176
0.462898 0.558465 0.358587
0.498665 0.558648 0.361059
0.534997 0.558709 0.364019
0.571496 0.558282 0.366949
0.607752 0.557427 0.370062
0.624994 0.539666 0.377752
0.639979 0.516686 0.386481
0.669917 0.500359 0.397772
0.717250 0.501854 0.391211
0.768215 0.511986 0.369055
0.801663 0.519829 0.357214
0.833219 0.527886 0.346502
0.865110 0.536614 0.335607
0.896971 0.545892 0.324254
0.928557 0.555596 0.312902
0.959808 0.565850 0.301671
0.990661 0.576654 0.291051
1.000000 0.585473 0.293065
1.000000 0.593194 0.305608
1.000000 0.602075 0.320897
1.000000 0.612268 0.339239
1.000000 0.624170 0.361822
0.318181 0.605493 0.357519
0.318883 0.605402 0.357671
0.321752 0.605188 0.358160
0.327184 0.604852 0.359472
0.335515 0.604486 0.361334
0.347356 0.604028 0.364050
0.362066 0.603693 0.367926
0.379095 0.603662 0.372930
0.409491 0.603326 0.374395
0.441901 0.603052 0.376104
0.476204 0.602777 0.378454
0.511376 0.602564 0.380865
0.547356 0.602258 0.383673
0.583459 0.601526 0.386572
0.619409 0.600366 0.389380
0.655146 0.598810 0.392432
0.670436 0.579126 0.400397
0.685023 0.555779 0.409308
0.711696 0.537957 0.420966
0.754147 0.534905 0.420233
0.804074 0.544579 0.398627
0.841947 0.552972 0.383795
0.872831 0.561212 0.374456
0.903777 0.569848 0.364813
0.934569 0.579065 0.355474
0.965087 0.588708 0.346197
0.995422 0.599023 0.337682
1.000000 0.609979 0.330175
1.000000 0.621607 0.323919
1.000000 0.630976 0.336522
1.000000 0.640925 0.355871
1.000000 0.652613 0.379614
0.344488 0.649256 0.379431
0.345190 0.649500 0.379675
0.359472 0.666102 0.390021
0.364721 0.665797 0.391241
0.373022 0.665431 0.393317
0.383673 0.664942 0.396002
0.397772 0.664363 0.399634
0.414099 0.663966 0.404578
0.438575 0.663478 0.407874
0.470619 0.662745 0.409705
0.504021 0.662043 0.411780
0.538384 0.661189 0.414099
0.573480 0.659815 0.416449
0.608606 0.658045 0.418677
0.643519 0.655818 0.421088
0.678004 0.653162 0.423682
0.712062 0.649897 0.425818
0.724758 0.627649 0.433600
0.737789 0.603296 0.441779
0.760678 0.583459 0.453254
0.798642 0.576532 0.458625
0.846983 0.584985 0.437018
0.887602 0.592706 0.418280
0.916564 0.600214 0.409857
0.945220 0.607843 0.401190
0.973754 0.616083 0.393042
1.000000 0.624903 0.385199
1.000000 0.634577 0.378851
1.000000 0.645350 0.374334
1.000000 0.657252 0.372137
1.000000 0.670130 0.374487
1.000000 0.681514 0.399329
0.377020 0.695277 0.406958
0.378668 0.696803 0.408026
0.382483 0.698207 0.409766
0.388251 0.699489 0.411902
0.396674 0.700252 0.414557
0.407019 0.700221 0.417639
0.420050 0.699855 0.421149
0.435157 0.699306 0.425666
0.453590 0.698970 0.431098
0.483223 0.698116 0.432532
0.514794 0.697292 0.434546
0.547448 0.696345 0.436774
0.580987 0.695033 0.439033
0.614801 0.693507 0.441230
0.648859 0.691493 0.443793
0.682734 0.689204 0.446387
0.716335 0.686671 0.448829
0.748684 0.683070 0.452094
0.761563 0.661799 0.460334
0.774990 0.638972 0.469001
0.795987 0.619409 0.480934
0.831052 0.611109 0.494057
0.878264 0.619104 0.473304
0.922118 0.626093 0.450843
0.949706 0.633478 0.443824
0.977264 0.641199 0.436957
1.000000 0.649531 0.430640
1.000000 0.658717 0.425666
1.000000 0.669062 0.422644
1.000000 0.680720 0.422248
1.000000 0.693660 0.425422
1.000000 0.707973 0.432929
0.406561 0.731380 0.431983
0.408484 0.732876 0.433417
0.412085 0.734371 0.435187
0.417792 0.735714 0.437537
0.425605 0.736538 0.440406
0.435218 0.736629 0.443336
0.447272 0.736294 0.447150
0.461219 0.735866 0.451545
0.477455 0.735439 0.457130
0.501549 0.734737 0.460304
0.530755 0.733822 0.462135
0.561395 0.732815 0.464302
0.593072 0.731624 0.466590
0.625299 0.730220 0.469001
0.657954 0.728573 0.471626
0.690730 0.726558 0.474189
0.723384 0.724300 0.476905
0.755825 0.721981 0.479805
0.785946 0.717708 0.483619
0.798703 0.697627 0.492164
0.811826 0.675990 0.501335
0.830533 0.656764 0.513054
0.862516 0.648127 0.531670
0.907439 0.654932 0.514122
0.950347 0.661097 0.492256
0.980377 0.668055 0.482429
1.000000 0.676020 0.477516
1.000000 0.684840 0.473915
1.000000 0.695003 0.472633
1.000000 0.706447 0.474006
1.000000 0.719387 0.479011
1.000000 0.733700 0.488289
0.440711 0.767361 0.461372
0.442542 0.768643 0.462867
0.446143 0.769863 0.464637
0.451392 0.770962 0.467079
0.458534 0.771664 0.469856
0.467384 0.771695 0.472938
0.478157 0.771511 0.476539
0.491035 0.771054 0.481025
0.506371 0.770657 0.486702
0.524804 0.770169 0.492134
0.551324 0.769345 0.493812
0.579522 0.768368 0.495918
0.608789 0.767300 0.498116
0.638911 0.766018 0.500603
0.669673 0.764614 0.503288
0.700862 0.763058 0.506004
0.732448 0.761654 0.509209
0.764096 0.760250 0.512718
0.795987 0.758999 0.516838
0.824857 0.755306 0.522118
0.838346 0.737362 0.531762
0.852232 0.718227 0.541772
0.869078 0.699886 0.553429
0.900237 0.693263 0.573114
0.940917 0.698360 0.564569
0.982300 0.704921 0.546044
1.000000 0.711849 0.534386
1.000000 0.720851 0.533074
1.000000 0.731106 0.533989
1.000000 0.742580 0.537469
1.000000 0.755337 0.544244
1.000000 0.769314 0.555108
0.489570 0.809628 0.504051
0.490639 0.810117 0.504692
0.492775 0.810391 0.505669
0.496407 0.810513 0.507042
0.501823 0.810391 0.508873
0.509087 0.809934 0.511284
0.518242 0.809445 0.514366
0.529351 0.808988 0.518273
0.542596 0.808560 0.523339
0.557855 0.808316 0.529564
0.580041 0.807675 0.532403
0.605280 0.806821 0.534417
0.631739 0.805905 0.536461
0.659419 0.804776 0.538720
0.687678 0.803464 0.541070
0.716701 0.801999 0.543633
0.745968 0.800534 0.546441
0.775662 0.799069 0.549554
0.805539 0.797604 0.552911
0.835660 0.796323 0.556664
0.861540 0.791653 0.561791
0.873960 0.774350 0.570611
0.886625 0.755795 0.579492
0.900664 0.736873 0.589197
0.929564 0.730983 0.608606
0.966033 0.734066 0.607111
1.000000 0.740993 0.591547
1.000000 0.747707 0.578058
1.000000 0.757870 0.580133
1.000000 0.769131 0.584680
1.000000 0.781521 0.592187
1.000000 0.795071 0.603571
0.528801 0.842008 0.539178
0.529595 0.842405 0.539727
0.531609 0.842710 0.540673
0.534936 0.842771 0.541985
0.539574 0.842710 0.543694
0.545861 0.842405 0.545892
0.553918 0.842008 0.548760
0.563897 0.841581 0.552544
0.575616 0.841245 0.557092
0.589258 0.840970 0.562829
0.606287 0.840604 0.567590
0.628840 0.839933 0.569512
0.652888 0.839139 0.571435
0.678126 0.838285 0.573724
0.704250 0.837308 0.576226
0.731075 0.836271 0.578851
0.758633 0.835172 0.581689
0.786526 0.834073 0.584894
0.814755 0.833036 0.588312
0.843259 0.832090 0.592096
0.871824 0.831235 0.596368
0.895598 0.826322 0.601984
0.907591 0.810269 0.610559
0.919860 0.793301 0.619471
0.928618 0.770932 0.623407
0.955444 0.765774 0.642603
0.988251 0.768063 0.648280
1.000000 0.775662 0.635950
1.000000 0.782284 0.622126
1.000000 0.793149 0.626307
1.000000 0.805570 0.634974
1.000000 0.818936 0.647181
0.573999 0.877043 0.580529
0.575158 0.877653 0.581415
0.576776 0.877897 0.582269
0.579187 0.877684 0.583032
0.582605 0.877134 0.584009
0.587335 0.876371 0.585351
0.593439 0.875425 0.587213
0.601221 0.874418 0.589715
0.610773 0.873442 0.593133
0.622095 0.872587 0.597589
0.634546 0.871763 0.602747
0.653620 0.870756 0.604395
0.674495 0.869688 0.605676
0.696712 0.868467 0.607202
0.719814 0.867094 0.608698
0.743862 0.865721 0.610529
0.768856 0.864378 0.612818
0.794583 0.863249 0.615503
0.821012 0.862364 0.618799
0.847868 0.861784 0.622797
0.875090 0.861357 0.627222
0.902251 0.860990 0.631891
0.923796 0.855650 0.637598
0.934966 0.840482 0.645624
0.946166 0.824216 0.653407
0.957336 0.807004 0.661402
0.980957 0.801511 0.679530
1.000000 0.802976 0.691218
1.000000 0.810971 0.681727
1.000000 0.818173 0.671687
1.000000 0.828428 0.674525
1.000000 0.841337 0.687221
0.609522 0.903990 0.613825
0.610681 0.904509 0.614710
0.612329 0.904814 0.615686
0.614679 0.904814 0.616724
0.618006 0.904601 0.617914
0.622553 0.904265 0.619654
0.628595 0.903868 0.621973
0.636225 0.903441 0.624994
0.645289 0.903075 0.628840
0.655787 0.902708 0.633356
0.667536 0.902281 0.638697
0.682490 0.901793 0.642512
0.701137 0.900969 0.643977
0.721035 0.900053 0.645563
0.741787 0.898924 0.647181
0.763455 0.897734 0.648920
0.786069 0.896544 0.650935
0.809445 0.895506 0.653376
0.833677 0.894774 0.656550
0.858457 0.894255 0.660273
0.883696 0.893980 0.664515
0.909117 0.893797 0.669093
0.934386 0.893614 0.673793
0.953735 0.888121 0.679835
0.964324 0.874388 0.687678
0.975036 0.859892 0.695613
0.985870 0.844724 0.703670
1.000000 0.839689 0.721096
1.000000 0.841367 0.739101
1.000000 0.850187 0.733700
1.000000 0.858000 0.728481
1.000000 0.866423 0.730495
0.650294 0.932586 0.652644
0.651026 0.932830 0.653223
0.652033 0.932921 0.653712
0.653986 0.932830 0.654536
0.656886 0.932586 0.655634
0.660761 0.932189 0.657069
0.665888 0.931792 0.659022
0.672328 0.931304 0.661677
0.680140 0.930877 0.665034
0.689296 0.930419 0.669123
0.699641 0.929992 0.673915
0.711147 0.929564 0.679316
0.727504 0.928985 0.680842
0.745144 0.928252 0.682338
0.763638 0.927337 0.683986
0.783047 0.926329 0.685573
0.803250 0.925383 0.687526
0.824491 0.924498 0.689906
0.846586 0.923919 0.692805
0.869291 0.923583 0.696498
0.892454 0.923430 0.700526
0.915892 0.923369 0.704982
0.939361 0.923278 0.709438
0.962768 0.923186 0.714076
0.979767 0.917479 0.719966
0.989624 0.904845 0.727413
0.999634 0.891844 0.735042
1.000000 0.878294 0.742885
1.000000 0.873320 0.759335
1.000000 0.875486 0.782559
1.000000 0.884459 0.781033
1.000000 0.891722 0.779965
0.688685 0.957916 0.689876
0.689235 0.958099 0.690303
0.690303 0.958221 0.690852
0.692164 0.958221 0.691768
0.694911 0.958221 0.693080
0.698878 0.958221 0.695003
0.704433 0.958465 0.697932
0.711360 0.958770 0.701625
0.719631 0.959197 0.706142
0.729152 0.959716 0.711421
0.739681 0.960235 0.717433
0.751003 0.960662 0.723842
0.764889 0.960967 0.728267
0.781003 0.961089 0.730953
0.797665 0.960906 0.733425
0.814847 0.960449 0.735592
0.832639 0.959869 0.737850
0.851316 0.959350 0.740322
0.870726 0.958984 0.743343
0.890806 0.958801 0.746914
0.911345 0.958801 0.750881
0.932189 0.958862 0.755154
0.953063 0.958831 0.759426
0.973938 0.958862 0.763912
0.994720 0.958770 0.768368
1.000000 0.953155 0.774197
1.000000 0.942199 0.781277
1.000000 0.930938 0.788632
1.000000 0.919463 0.796139
1.000000 0.914397 0.811063
1.000000 0.917082 0.834379
1.000000 0.909209 0.818479
0.738796 0.986816 0.739193
0.739010 0.986816 0.739284
0.739651 0.986725 0.739528
0.740780 0.986572 0.739925
0.742794 0.986389 0.740780
0.745632 0.986114 0.741970
0.749599 0.985870 0.743801
0.754513 0.985626 0.746120
0.760647 0.985443 0.749203
0.767727 0.985229 0.752834
0.775875 0.985016 0.757168
0.784756 0.984802 0.761959
0.794888 0.984558 0.766751
0.808164 0.984344 0.768704
