20 Preset/Ins style/【3】LUT video cho PR-AE-FCPX/Tone (9).cube
# Created by Adobe Lightroom plugin Export LUT (1.24.0)
# www.johnrellis.com/lightroom/exportlut.htm
# Preset: INS网红琥珀色-素材江湖07
# Color profile: C:\Program Files (x86)\Common Files\Adobe\Color\Profiles\Recommended\VideoHD.icc
LUT_3D_SIZE 5
DOMAIN_MIN 0.000000 0.000000 0.000000
DOMAIN_MAX 0.903226 0.903226 0.903226
0.070314 0.094728 0.101564
0.308598 0.092836 0.111666
0.640986 0.000000 0.093904
0.883696 0.214908 0.095766
1.000000 0.384558 0.168185
0.109163 0.310460 0.180453
0.333562 0.322972 0.244236
0.670161 0.321660 0.190188
0.886076 0.377325 0.205081
1.000000 0.464576 0.240543
0.398657 0.594476 0.391760
0.466224 0.592309 0.399969
0.695674 0.663478 0.553765
0.883635 0.650355 0.459571
1.000000 0.655634 0.443061
0.613947 0.778042 0.598322
0.636042 0.776822 0.601373
0.740780 0.794247 0.658747
0.861723 0.843900 0.781338
0.959380 0.844297 0.732570
0.772457 0.906889 0.778958
0.781521 0.906676 0.780514
0.815152 0.904906 0.786648
0.895323 0.922789 0.850309
0.952392 0.943694 0.910918
0.000000 0.125826 0.281132
0.312200 0.102998 0.295354
0.600458 0.189273 0.262974
0.835294 0.328405 0.301335
0.996674 0.428717 0.314397
0.207553 0.326757 0.327550
0.369360 0.343725 0.339544
0.616724 0.364416 0.334112
0.845335 0.416571 0.339605
0.997009 0.486183 0.348119
0.424537 0.600031 0.451118
0.484291 0.596307 0.455329
0.687770 0.657771 0.578027
0.862852 0.646754 0.508568
0.987884 0.663630 0.502617
0.626429 0.778927 0.627344
0.647028 0.778012 0.630091
0.740444 0.792020 0.674586
0.861082 0.845182 0.794553
0.956634 0.843626 0.744564
0.775326 0.907378 0.789670
0.784085 0.907073 0.791012
0.817868 0.906676 0.797726
0.896452 0.923827 0.856962
0.953399 0.945434 0.916320
0.148653 0.244236 0.529168
0.320134 0.262821 0.540703
0.634974 0.294713 0.564813
0.849851 0.354589 0.532891
0.967224 0.414130 0.470436
0.332860 0.393744 0.540551
0.406043 0.397345 0.550896
0.644984 0.406134 0.576898
0.836576 0.432105 0.538659
0.948577 0.492226 0.501732
0.452186 0.607538 0.605524
0.514580 0.612390 0.609247
0.679866 0.636378 0.631312
0.807095 0.632868 0.605829
0.945525 0.665736 0.612818
0.643061 0.786557 0.705318
0.665522 0.785397 0.707454
0.732082 0.783810 0.715511
0.855528 0.840635 0.811154
0.950042 0.834409 0.770962
0.778592 0.909789 0.822293
0.787778 0.909697 0.823728
0.821347 0.909300 0.829068
0.892424 0.922118 0.868833
0.954284 0.948302 0.928923
0.348974 0.389105 0.739651
0.420539 0.395819 0.744076
0.619837 0.416388 0.761013
0.835142 0.460578 0.771756
0.968353 0.563775 0.766171
0.421698 0.470985 0.738125
0.471382 0.474556 0.742061
0.633600 0.491524 0.758907
0.827573 0.527825 0.770993
0.958862 0.600153 0.768002
0.535790 0.623621 0.733547
0.570214 0.631250 0.737789
0.674037 0.652827 0.758541
0.813870 0.667750 0.775631
0.937346 0.683772 0.766995
0.644739 0.779538 0.791348
0.662806 0.780423 0.791928
0.729610 0.787381 0.797848
0.831876 0.806882 0.816709
0.922820 0.801602 0.794553
0.764401 0.918059 0.871397
0.774777 0.917906 0.871824
0.815000 0.917845 0.874601
0.875914 0.917815 0.882383
0.955962 0.951446 0.942138
0.524804 0.539757 0.886931
0.556176 0.542748 0.887694
0.666560 0.558129 0.892973
0.817411 0.585046 0.902922
0.953491 0.621668 0.905272
0.554162 0.584833 0.881743
0.580468 0.587152 0.882902
0.675929 0.597711 0.888457
0.814847 0.617243 0.899168
0.947784 0.645380 0.903136
0.608331 0.684901 0.874937
0.630213 0.688563 0.875608
0.698024 0.693233 0.881498
0.810880 0.704250 0.893614
0.935882 0.724208 0.903502
0.664424 0.790890 0.882994
0.675532 0.789853 0.881682
0.723415 0.790829 0.880766
0.817105 0.808499 0.898528
0.933379 0.833036 0.918059
0.762203 0.909331 0.923888
0.770108 0.909422 0.923888
0.804959 0.911925 0.925750
0.864103 0.917205 0.929351
0.941802 0.932586 0.941070
