20 Preset/Ins style/【3】LUT video cho PR-AE-FCPX/Tone (13).cube
# Created by Adobe Lightroom plugin Export LUT (1.24.0)
# www.johnrellis.com/lightroom/exportlut.htm
# Preset: INS网红琥珀色-素材江湖11
# Color profile: C:\Program Files (x86)\Common Files\Adobe\Color\Profiles\Recommended\VideoHD.icc
LUT_3D_SIZE 8
DOMAIN_MIN 0.000000 0.000000 0.000000
DOMAIN_MAX 0.903226 0.903226 0.903226
0.000000 0.000000 0.000000
0.121828 0.006500 0.019959
0.307836 0.000000 0.083925
0.502037 0.000000 0.081361
0.675654 0.000000 0.079713
0.834043 0.000000 0.092287
0.945403 0.193271 0.121523
1.000000 0.323033 0.168551
0.013306 0.116457 0.096040
0.125643 0.116579 0.092592
0.310521 0.126772 0.090272
0.495094 0.092714 0.082887
0.665980 0.010620 0.078920
0.818631 0.118379 0.091371
0.929656 0.220920 0.118044
1.000000 0.333623 0.165652
0.160830 0.272251 0.222812
0.174533 0.270970 0.213321
0.289250 0.260380 0.168734
0.486122 0.288609 0.151247
0.684413 0.291051 0.109102
0.827024 0.310979 0.111238
0.937469 0.363897 0.142885
1.000000 0.440803 0.194430
0.339483 0.488258 0.418616
0.366644 0.486366 0.425147
0.360510 0.474922 0.368658
0.478706 0.433570 0.297063
0.657527 0.470130 0.294377
0.805844 0.501488 0.288853
0.924865 0.520226 0.251652
1.000000 0.562219 0.260563
0.526787 0.677150 0.604974
0.545892 0.677119 0.611536
0.528923 0.669551 0.579034
0.549187 0.639521 0.514061
0.617945 0.567010 0.410407
0.749020 0.595544 0.405097
0.868986 0.638087 0.421881
0.983825 0.680751 0.425055
0.675135 0.807736 0.740902
0.689235 0.812558 0.749050
0.698939 0.810788 0.746242
0.674586 0.794156 0.700893
0.688014 0.756771 0.635950
0.732509 0.688594 0.527703
0.837400 0.716915 0.533196
0.951629 0.771115 0.568444
0.799741 0.905913 0.853239
0.806485 0.906859 0.856443
0.828641 0.907805 0.865965
0.804807 0.901122 0.838590
0.789609 0.884184 0.796353
0.800504 0.853941 0.736294
0.834195 0.800900 0.647700
0.929198 0.828824 0.658289
0.900053 0.965362 0.933715
0.902678 0.965393 0.934722
0.913817 0.965728 0.939422
0.918303 0.965332 0.938476
0.895201 0.958343 0.912291
0.894743 0.950958 0.887144
0.913115 0.938231 0.845548
0.958373 0.916869 0.784054
0.000000 0.024628 0.106386
0.093477 0.068482 0.089601
0.293217 0.011475 0.104494
0.479286 0.000000 0.108858
0.655573 0.000000 0.104036
0.808499 0.069581 0.108309
0.921141 0.198062 0.121157
1.000000 0.310246 0.158785
0.000000 0.120699 0.118624
0.134432 0.126192 0.119631
0.300298 0.141970 0.123812
0.482948 0.135103 0.118013
0.655238 0.124361 0.112459
0.804746 0.157656 0.117128
0.914244 0.229648 0.127504
1.000000 0.325780 0.158633
0.179110 0.276677 0.235355
0.215152 0.273686 0.241520
0.293095 0.263951 0.198215
0.478828 0.294896 0.190311
0.667475 0.295262 0.161410
0.806485 0.310216 0.161715
0.914214 0.350774 0.171878
1.000000 0.422278 0.193118
0.331487 0.472724 0.408118
0.362921 0.472236 0.418097
0.362463 0.463081 0.373205
0.462165 0.419043 0.302007
0.632105 0.452674 0.298650
0.782040 0.480537 0.290898
0.903502 0.497932 0.256687
1.000000 0.542199 0.268040
0.519799 0.669551 0.598749
0.536828 0.668971 0.603998
0.532006 0.661006 0.579889
0.541588 0.628046 0.511406
0.605402 0.555016 0.409430
0.737362 0.585595 0.405737
0.858610 0.628260 0.422339
0.974182 0.669459 0.422156
0.666041 0.799557 0.732967
0.675959 0.800748 0.737148
0.693721 0.800931 0.740047
0.668910 0.785550 0.695857
0.681971 0.749538 0.632471
0.727169 0.683223 0.527855
0.832059 0.712032 0.533318
0.945464 0.764858 0.565942
0.790494 0.900572 0.846189
0.795071 0.900206 0.847593
0.817624 0.901213 0.857176
0.799252 0.895506 0.833677
0.784939 0.879881 0.792935
0.795102 0.848997 0.732815
0.826322 0.792996 0.641871
0.920745 0.820554 0.650782
0.894774 0.963256 0.930297
0.898405 0.963684 0.931975
0.909728 0.963989 0.936675
0.917021 0.963867 0.937438
0.900267 0.960510 0.916960
0.896910 0.951995 0.890105
0.912505 0.937774 0.846189
0.957031 0.915679 0.783627
0.000000 0.096071 0.260227
0.140749 0.123934 0.243351
0.227512 0.178836 0.214664
0.486824 0.056489 0.245426
0.658747 0.000000 0.202731
0.809262 0.150057 0.230838
0.919982 0.251926 0.248631
1.000000 0.347478 0.264012
0.014435 0.152865 0.264866
0.166720 0.172274 0.255131
0.258091 0.210910 0.239963
0.487892 0.135012 0.236362
0.657130 0.127535 0.218112
0.802609 0.206241 0.239414
0.913115 0.276432 0.251682
1.000000 0.362127 0.265904
0.016754 0.292027 0.280583
0.163943 0.297520 0.281682
0.326940 0.304204 0.285130
0.499397 0.314916 0.278721
0.666835 0.323308 0.277470
0.803494 0.343145 0.278935
0.909606 0.381811 0.284398
1.000000 0.443366 0.295232
0.332006 0.482124 0.426825
0.363897 0.485389 0.435218
0.417609 0.486305 0.438422
0.480873 0.439796 0.367773
0.645624 0.480446 0.373480
0.789517 0.501091 0.361212
0.900786 0.520043 0.348791
0.999451 0.559045 0.354406
0.514733 0.665644 0.599695
0.532250 0.667109 0.605432
0.584985 0.671199 0.623224
0.567712 0.641382 0.555108
0.615259 0.567712 0.455543
0.743160 0.602533 0.456764
0.859678 0.641382 0.472786
0.976257 0.676112 0.463539
0.662257 0.796475 0.731991
0.672236 0.798367 0.736355
0.709895 0.803464 0.753109
0.685634 0.789303 0.714565
0.689509 0.752255 0.653651
0.725917 0.684169 0.551446
0.831632 0.717952 0.560998
0.946044 0.770779 0.593530
0.789975 0.901732 0.848112
0.794797 0.901640 0.849699
0.816556 0.902617 0.858427
0.817990 0.899260 0.849546
0.795621 0.883421 0.807004
0.800534 0.852689 0.747616
0.828885 0.797055 0.658595
0.926360 0.828672 0.671015
0.892943 0.964050 0.930694
0.895445 0.963928 0.931487
0.907073 0.964324 0.936156
0.925811 0.965759 0.944427
0.907622 0.962310 0.924376
0.902495 0.954314 0.898863
0.915496 0.940307 0.855833
0.958434 0.917876 0.792691
0.000000 0.151339 0.454170
0.125429 0.179843 0.450050
0.354864 0.303319 0.414771
0.407385 0.325841 0.384619
0.610254 0.282475 0.417212
0.806119 0.166354 0.374975
0.913298 0.197147 0.337591
1.000000 0.332219 0.364141
0.000000 0.217166 0.455482
0.193851 0.238743 0.450660
0.372778 0.333715 0.423621
0.423011 0.345892 0.398627
0.629358 0.294133 0.422126
0.806790 0.194583 0.369207
0.910216 0.247745 0.347021
1.000000 0.357427 0.370397
0.116152 0.317571 0.443488
0.194980 0.324132 0.443305
0.387243 0.379522 0.438270
0.459937 0.393469 0.426184
0.671687 0.331212 0.407141
0.807919 0.326452 0.375006
0.909575 0.393561 0.394018
1.000000 0.453376 0.404822
0.000000 0.465827 0.449195
0.144259 0.469215 0.449470
0.385809 0.490425 0.468849
0.520409 0.489631 0.465431
0.667262 0.502647 0.458534
0.786313 0.510338 0.449805
0.889677 0.529198 0.447242
0.991882 0.563622 0.449989
0.462470 0.652094 0.595178
0.493568 0.653468 0.600763
0.570275 0.666743 0.624109
0.609796 0.663752 0.618616
0.635004 0.595209 0.527398
0.754910 0.630884 0.535790
0.867460 0.657496 0.537713
0.981384 0.682124 0.523919
0.650538 0.791836 0.731380
0.663600 0.796963 0.738155
0.700526 0.803861 0.752956
0.733913 0.807523 0.761410
0.713588 0.769436 0.698116
0.730739 0.693690 0.596612
0.836851 0.734035 0.611414
0.949950 0.781643 0.638025
0.777310 0.899504 0.845274
0.784024 0.900572 0.848051
0.809751 0.904082 0.858793
0.854398 0.910307 0.880278
0.822293 0.895293 0.838437
0.814328 0.863066 0.777554
0.831601 0.802182 0.684230
0.932433 0.837980 0.699458
0.888548 0.966339 0.932067
0.891569 0.966430 0.933104
0.904082 0.967010 0.937713
0.926146 0.968414 0.947112
0.925994 0.966552 0.940948
0.912749 0.958679 0.914458
0.919982 0.944366 0.872282
0.960784 0.921599 0.808713
0.000000 0.260594 0.644434
0.212161 0.286931 0.643244
0.435431 0.382391 0.629175
0.578668 0.541924 0.597009
0.593011 0.495674 0.565667
0.698390 0.454810 0.566400
0.896757 0.356023 0.554589
1.000000 0.332311 0.512047
0.182589 0.315465 0.642359
0.270665 0.335912 0.641901
0.453315 0.412818 0.630854
0.585809 0.553521 0.602411
0.599268 0.505882 0.571466
0.709285 0.459113 0.570489
0.895689 0.370947 0.552880
1.000000 0.342931 0.507286
0.225925 0.398962 0.632685
0.286687 0.409674 0.634791
0.466438 0.469093 0.628351
0.600488 0.577935 0.614954
0.610956 0.529839 0.580804
0.743191 0.469062 0.573388
0.892241 0.410285 0.537133
1.000000 0.388739 0.488441
0.261540 0.499763 0.608240
0.298924 0.502892 0.607782
0.417395 0.518700 0.609735
0.595789 0.586450 0.615137
0.628992 0.556298 0.585107
0.789975 0.498604 0.550072
0.892302 0.495277 0.520165
0.988739 0.533837 0.526940
0.201083 0.602319 0.583459
0.236851 0.605188 0.584802
0.357153 0.609796 0.583948
0.597345 0.652155 0.633143
0.662013 0.635065 0.608576
0.767147 0.645686 0.602808
0.869352 0.650263 0.591516
0.974090 0.666712 0.585931
0.529503 0.752651 0.694209
0.549981 0.754513 0.697932
0.622583 0.761440 0.713252
0.707881 0.783749 0.746456
0.726223 0.774380 0.731777
0.735500 0.708156 0.646723
0.842679 0.748013 0.662470
0.955962 0.782803 0.673548
0.727932 0.882536 0.826017
0.734066 0.883330 0.827665
0.761196 0.888151 0.836728
0.816648 0.899474 0.860410
0.855589 0.904936 0.874052
0.825284 0.871153 0.809110
0.827604 0.800656 0.707332
0.934142 0.841764 0.726101
0.854795 0.962280 0.921721
0.858885 0.962493 0.922850
0.876066 0.963592 0.928099
0.908202 0.967224 0.940520
0.942321 0.970764 0.955993
0.925475 0.963684 0.933104
0.922515 0.947417 0.890532
0.956603 0.919280 0.819638
0.339757 0.404364 0.790188
0.393896 0.423255 0.789364
0.539727 0.493111 0.781674
0.682216 0.619226 0.772457
0.746548 0.752224 0.751644
0.736049 0.656916 0.713436
0.800412 0.609094 0.702235
0.950958 0.550500 0.708522
0.365148 0.433204 0.781827
0.409949 0.448157 0.780575
0.544305 0.510491 0.775784
0.677760 0.621302 0.765774
0.742031 0.747799 0.746944
0.732631 0.654994 0.709743
0.795682 0.607050 0.697200
0.950958 0.548669 0.704463
0.396429 0.507134 0.781582
0.447181 0.524773 0.778836
0.564446 0.571313 0.776028
0.685023 0.651789 0.766690
0.750484 0.757656 0.755459
0.738582 0.671077 0.715846
0.792355 0.618677 0.694362
0.964569 0.561303 0.702724
0.382940 0.580896 0.760922
0.409644 0.583703 0.760189
0.528069 0.610315 0.763210
0.679500 0.679957 0.766293
0.763485 0.770993 0.769009
0.749416 0.693660 0.724544
0.840116 0.638911 0.709377
0.980652 0.595514 0.694514
0.404852 0.650874 0.726040
0.424781 0.652277 0.725978
0.496407 0.659571 0.726864
0.603632 0.676875 0.730587
0.734707 0.739437 0.743648
0.754543 0.686946 0.707088
0.878325 0.643610 0.678431
0.986999 0.627832 0.649989
0.317082 0.710903 0.689052
0.337072 0.713283 0.690669
0.399176 0.717678 0.692012
0.527245 0.725643 0.696864
0.724666 0.771633 0.750515
0.765042 0.750820 0.721798
0.868437 0.764340 0.719326
0.973449 0.771145 0.710567
0.549828 0.851011 0.789120
0.564782 0.853819 0.792569
0.620691 0.861723 0.803708
0.722866 0.873930 0.826566
0.833677 0.897185 0.868284
0.857786 0.893645 0.862486
0.839231 0.818265 0.754452
0.949981 0.858549 0.775845
0.767788 0.956176 0.905943
0.775509 0.956085 0.907012
0.809323 0.957000 0.913420
0.864164 0.961089 0.927520
0.914916 0.967926 0.945159
0.952941 0.973114 0.961425
0.932158 0.955596 0.919829
0.954772 0.920073 0.840757
0.524071 0.546166 0.898283
0.551659 0.559960 0.897704
0.639002 0.611597 0.893675
0.743862 0.695460 0.886778
0.826017 0.789792 0.876432
0.859098 0.865019 0.862577
0.842954 0.781521 0.825742
0.887633 0.733608 0.810941
0.533593 0.565759 0.895079
0.559289 0.578088 0.894774
0.642786 0.624964 0.891234
0.743862 0.701381 0.884794
0.825559 0.791592 0.875486
0.858762 0.864775 0.862181
0.841398 0.780941 0.824063
0.885252 0.732601 0.808438
0.552178 0.621118 0.890318
0.574670 0.629999 0.889799
0.650324 0.665003 0.887510
0.746853 0.725704 0.883818
0.829740 0.804135 0.878019
0.865904 0.871702 0.868956
0.846342 0.791257 0.829221
0.886656 0.741573 0.809903
0.520317 0.665217 0.882292
0.540917 0.669703 0.882200
0.619593 0.693141 0.882353
0.736629 0.749325 0.880491
0.830808 0.817288 0.880674
0.876890 0.882353 0.879271
0.852781 0.804746 0.835111
0.886992 0.750759 0.807828
0.504265 0.722072 0.858793
0.518242 0.723293 0.858640
0.571710 0.729793 0.859525
0.669123 0.750729 0.865507
0.804013 0.812192 0.873106
0.882231 0.887449 0.884398
0.852811 0.810208 0.832456
0.922942 0.758145 0.814145
0.500420 0.773800 0.830137
0.511864 0.774685 0.830442
0.555322 0.778134 0.831785
0.627192 0.785458 0.835172
0.720119 0.799619 0.842252
0.855344 0.859831 0.865690
0.852201 0.803220 0.816312
0.974121 0.768215 0.799649
0.380468 0.812619 0.790921
0.391852 0.813199 0.791196
0.435370 0.814969 0.791623
0.505974 0.818936 0.792660
0.597711 0.821317 0.790280
0.818418 0.873350 0.853361
0.867857 0.854948 0.828244
0.972656 0.865660 0.825986
0.480415 0.933928 0.874174
0.496437 0.934844 0.875700
0.559869 0.938842 0.882567
0.666041 0.945983 0.896147
0.801755 0.954986 0.918181
0.924956 0.967498 0.951171
0.956817 0.971801 0.959777
0.956268 0.927092 0.876982
0.669184 0.689418 0.977722
0.683619 0.697597 0.977050
0.734066 0.728084 0.973877
0.808743 0.781643 0.968444
0.882414 0.846006 0.961120
0.933196 0.907622 0.953277
0.945525 0.939635 0.945769
0.940398 0.890562 0.927001
0.671687 0.699001 0.976562
0.685695 0.706508 0.975982
0.735500 0.735409 0.973114
0.809476 0.786374 0.967956
0.882872 0.848478 0.961059
0.933745 0.908721 0.953643
0.946044 0.940307 0.946288
0.940154 0.890745 0.926726
0.675471 0.729152 0.974426
0.688991 0.735317 0.973907
0.737942 0.759609 0.971588
0.812467 0.804288 0.967742
0.885771 0.858976 0.962158
0.936919 0.914061 0.956359
0.950011 0.944823 0.950103
0.941772 0.894621 0.928466
0.630152 0.744198 0.974578
0.648219 0.750698 0.973907
0.721889 0.783780 0.970245
0.805631 0.823178 0.967346
0.885557 0.871214 0.963989
0.940917 0.921324 0.960876
0.957122 0.953002 0.957000
0.946197 0.903349 0.933227
0.576532 0.782437 0.963928
0.591455 0.784756 0.964324
0.646326 0.794095 0.965606
0.747707 0.822324 0.967712
0.866911 0.875120 0.964874
0.939513 0.924468 0.964752
0.965423 0.962860 0.965118
0.951507 0.913420 0.938659
0.578943 0.838956 0.952056
0.587701 0.839322 0.952178
0.623926 0.841550 0.952819
0.689754 0.847684 0.954803
0.786526 0.864195 0.959564
0.919707 0.918578 0.965545
0.973022 0.969909 0.973175
0.956664 0.922911 0.943145
0.559106 0.886351 0.937804
0.567102 0.886564 0.937926
0.600610 0.887510 0.938567
0.661921 0.890227 0.940276
0.745876 0.895842 0.943481
0.844266 0.908080 0.949828
0.958740 0.954040 0.966796
0.953918 0.918883 0.933959
0.422492 0.929229 0.916594
0.430640 0.929259 0.916533
0.464118 0.929717 0.916686
0.523857 0.930999 0.917235
0.602930 0.933013 0.917693
0.695827 0.936065 0.917784
0.887755 0.951110 0.939452
0.968444 0.953216 0.943328
