20 Preset/Ins style/【3】LUT video cho PR-AE-FCPX/Tone (2).cube
# Created by Adobe Lightroom plugin Export LUT (1.24.0)
# www.johnrellis.com/lightroom/exportlut.htm
# Preset: INS网红琥珀色-素材江湖13
# Color profile: C:\Program Files (x86)\Common Files\Adobe\Color\Profiles\Recommended\VideoHD.icc
LUT_3D_SIZE 8
DOMAIN_MIN 0.000000 0.000000 0.000000
DOMAIN_MAX 0.903226 0.903226 0.903226
0.155337 0.168338 0.126131
0.172763 0.167483 0.126070
0.376379 0.155276 0.117983
0.582086 0.172061 0.075257
0.732143 0.208103 0.000000
0.848783 0.245212 0.000000
0.943389 0.273869 0.000000
1.000000 0.295872 0.000000
0.146548 0.199191 0.124544
0.190433 0.202426 0.121248
0.394873 0.227817 0.095735
0.585718 0.241764 0.000000
0.731655 0.260563 0.000000
0.844755 0.276646 0.000000
0.935454 0.294133 0.000000
1.000000 0.312169 0.000000
0.153811 0.458534 0.196536
0.241489 0.471412 0.196262
0.437171 0.439246 0.144869
0.619562 0.407355 0.011475
0.759609 0.392035 0.000000
0.865080 0.385840 0.000000
0.949889 0.388342 0.000000
1.000000 0.393286 0.000000
0.404944 0.662104 0.452918
0.428565 0.667414 0.456336
0.527672 0.693477 0.478737
0.639704 0.637812 0.391028
0.763607 0.584802 0.312627
0.877592 0.561791 0.303685
0.949523 0.536309 0.290410
1.000000 0.520897 0.278965
0.592004 0.784939 0.641901
0.601312 0.787686 0.644526
0.642206 0.800839 0.657801
0.701747 0.803708 0.654017
0.749905 0.749142 0.560998
0.821805 0.685451 0.467109
0.920165 0.670863 0.459724
1.000000 0.656153 0.455421
0.699458 0.866178 0.745510
0.707942 0.870359 0.750423
0.729366 0.877958 0.757778
0.770840 0.891997 0.772000
0.800717 0.875456 0.745296
0.830137 0.829282 0.676783
0.876005 0.772152 0.597406
0.967163 0.768460 0.591974
0.788663 0.925231 0.825834
0.792386 0.926482 0.827634
0.804440 0.929808 0.831968
0.828336 0.936248 0.841123
0.859342 0.942748 0.850553
0.870146 0.924132 0.812558
0.894682 0.892485 0.754391
0.929137 0.843076 0.686397
0.867857 0.958343 0.891752
0.869383 0.958618 0.892363
0.876188 0.959777 0.895384
0.889311 0.961975 0.901457
0.901976 0.963592 0.904845
0.914366 0.963104 0.902037
0.921508 0.955413 0.874083
0.944549 0.941405 0.828336
0.147250 0.177981 0.144503
0.184237 0.165164 0.148226
0.371649 0.132753 0.140932
0.566461 0.174746 0.122866
0.717556 0.212039 0.084779
0.834165 0.244114 0.000000
0.925353 0.273564 0.000000
1.000000 0.297795 0.000000
0.147372 0.207767 0.154086
0.193484 0.209751 0.159945
0.388800 0.215885 0.149722
0.576287 0.233066 0.124147
0.721920 0.254398 0.091676
0.835569 0.275669 0.011109
0.922606 0.296422 0.000000
1.000000 0.315312 0.000000
0.219181 0.431708 0.263798
0.279973 0.442298 0.276158
0.429694 0.435706 0.246403
0.609705 0.409827 0.191836
0.743526 0.394781 0.166415
0.848814 0.389960 0.153689
0.929198 0.390387 0.151949
1.000000 0.395483 0.147158
0.410315 0.637354 0.465278
0.431739 0.644373 0.470161
0.522515 0.674403 0.495338
0.620966 0.622339 0.415198
0.741726 0.573480 0.341985
0.854673 0.552789 0.328435
0.928588 0.529595 0.311650
1.000000 0.517144 0.300114
0.590539 0.774258 0.643793
0.598962 0.776669 0.645808
0.637232 0.789181 0.657862
0.695766 0.795377 0.658289
0.738918 0.739590 0.564965
0.811490 0.679622 0.477424
0.910185 0.667048 0.471534
0.990692 0.652918 0.464607
0.694636 0.858030 0.742824
0.700038 0.860105 0.744869
0.721798 0.868376 0.752834
0.764218 0.883848 0.768307
0.796658 0.870817 0.746395
0.825650 0.825559 0.680293
0.871061 0.769680 0.603021
0.961700 0.766171 0.597040
0.783322 0.920653 0.822354
0.785458 0.921141 0.822751
0.797604 0.924712 0.827115
0.822660 0.932006 0.837095
0.857481 0.940978 0.850523
0.867704 0.921813 0.812497
0.890379 0.888579 0.752956
0.923827 0.838407 0.684291
0.864042 0.956817 0.889250
0.866361 0.957275 0.890501
0.873198 0.958526 0.893431
0.886748 0.960906 0.899748
0.904814 0.963775 0.908141
0.916136 0.963287 0.905058
0.921660 0.955291 0.875883
0.943999 0.940978 0.829923
0.000000 0.253971 0.337652
0.000000 0.200137 0.343877
0.397528 0.142306 0.345556
0.581811 0.147494 0.321904
0.714534 0.179446 0.269291
0.815671 0.286076 0.279423
0.908659 0.328801 0.282109
0.991119 0.353368 0.274907
0.000000 0.332891 0.352483
0.138674 0.305333 0.356725
0.402594 0.234897 0.361303
0.578180 0.242313 0.331609
0.708064 0.255863 0.284672
0.814969 0.321782 0.294957
0.905486 0.348669 0.289525
0.987274 0.368444 0.281621
0.241520 0.450141 0.395148
0.294102 0.450568 0.400092
0.427344 0.451637 0.417517
0.582544 0.431373 0.389868
0.717128 0.427161 0.367590
0.825315 0.429999 0.353613
0.908080 0.434424 0.343023
0.987121 0.439765 0.332219
0.422278 0.603449 0.508873
0.444892 0.609094 0.517937
0.523522 0.632685 0.549859
0.617487 0.628870 0.530022
0.735714 0.595422 0.480690
0.832670 0.575402 0.460365
0.909270 0.558923 0.441016
0.984100 0.548760 0.424018
0.587427 0.751461 0.655879
0.598016 0.753567 0.659968
0.640467 0.765347 0.678157
0.707942 0.795102 0.705440
0.737148 0.743069 0.631434
0.805234 0.693538 0.559991
0.899382 0.684932 0.554559
0.975341 0.670130 0.539422
0.692897 0.842954 0.748898
0.701839 0.844602 0.753384
0.722896 0.853727 0.762203
0.763180 0.870695 0.778500
0.801572 0.870573 0.772915
0.821805 0.824460 0.708858
0.865660 0.775326 0.643702
0.954528 0.775509 0.641901
0.787137 0.914580 0.829709
0.789517 0.915282 0.830381
0.800931 0.918975 0.834592
0.825101 0.926848 0.844572
0.860166 0.937499 0.859495
0.872343 0.923064 0.830900
0.890745 0.890379 0.773556
0.924407 0.844327 0.709712
0.865965 0.954742 0.892943
0.867216 0.954955 0.893339
0.874052 0.956359 0.896361
0.888640 0.959289 0.903563
0.906767 0.962554 0.912169
0.921508 0.963684 0.914672
0.924712 0.955993 0.887022
0.944030 0.941833 0.841978
0.000000 0.359960 0.544915
0.000000 0.335119 0.548363
0.267826 0.255802 0.548119
0.563104 0.227329 0.539361
0.708522 0.273106 0.507012
0.812192 0.301427 0.459449
0.888426 0.330327 0.418555
0.951415 0.402686 0.429450
0.000000 0.433692 0.554559
0.000000 0.414557 0.555779
0.294224 0.336553 0.556390
0.564691 0.302770 0.547417
0.706294 0.326757 0.515618
0.809262 0.338994 0.468147
0.884825 0.357214 0.426825
0.950591 0.419532 0.438544
0.291203 0.554894 0.573785
0.331487 0.554742 0.575189
0.422858 0.520714 0.575799
0.566979 0.457801 0.569116
0.702205 0.461677 0.548180
0.801480 0.450721 0.503136
0.871244 0.476051 0.490791
0.954498 0.487831 0.482063
0.418891 0.631708 0.606378
0.437629 0.630945 0.607385
0.504540 0.630091 0.613397
0.602502 0.629358 0.624994
0.702846 0.603449 0.597314
0.790341 0.590417 0.573632
0.870878 0.582879 0.555474
0.951904 0.578637 0.539757
0.565515 0.713558 0.660304
0.575799 0.715358 0.663752
0.616815 0.725093 0.679988
0.681483 0.748318 0.710018
0.734005 0.746517 0.700801
0.797055 0.714992 0.659113
0.878141 0.704891 0.645350
0.950774 0.690608 0.624811
0.684382 0.821286 0.754940
0.692317 0.824796 0.759457
0.713436 0.830900 0.768185
0.756832 0.846159 0.788479
0.815702 0.875608 0.816648
0.820462 0.827085 0.753597
0.863218 0.787045 0.700984
0.946929 0.788693 0.700343
0.775082 0.902220 0.829465
0.779416 0.903288 0.831510
0.796048 0.907225 0.839292
0.826139 0.916533 0.854093
0.862211 0.930205 0.871244
0.882658 0.927031 0.862150
0.890532 0.892546 0.804349
0.924010 0.851652 0.746212
0.863462 0.951385 0.895750
0.866453 0.951598 0.897276
0.876585 0.952941 0.902434
0.890318 0.956207 0.908965
0.908904 0.960266 0.918029
0.929778 0.964355 0.928862
0.929656 0.957183 0.904356
0.944274 0.943267 0.861570
0.000000 0.474098 0.688777
0.000000 0.462440 0.690089
0.055604 0.401038 0.690761
0.470649 0.360632 0.683742
0.682582 0.339727 0.673091
0.801358 0.372625 0.642023
0.876127 0.401617 0.598627
0.948425 0.417548 0.562097
0.000000 0.521538 0.691707
0.122988 0.511315 0.693019
0.247654 0.458167 0.693446
0.479255 0.405615 0.686000
0.682551 0.379583 0.676112
0.798306 0.403601 0.645502
0.872923 0.423896 0.602991
0.945678 0.434424 0.566522
0.375860 0.622492 0.699428
0.396063 0.617914 0.699214
0.435309 0.588190 0.698909
0.509941 0.524193 0.696132
0.679835 0.489296 0.684108
0.783871 0.494942 0.655543
0.859464 0.494850 0.616907
0.933776 0.489937 0.580529
0.481727 0.695949 0.713405
0.496284 0.695613 0.713649
0.550011 0.695308 0.715663
0.609491 0.672908 0.714504
0.686122 0.620233 0.704677
0.770413 0.615595 0.684016
0.844419 0.593347 0.646418
0.917937 0.580102 0.614130
0.567864 0.739223 0.724910
0.576257 0.739101 0.725643
0.607172 0.737972 0.727749
0.655604 0.736324 0.731655
0.711879 0.733577 0.736202
0.769345 0.709743 0.713466
0.840482 0.696437 0.693202
0.918822 0.687434 0.676204
0.646387 0.774472 0.738064
0.650599 0.774685 0.738979
0.669001 0.778042 0.744686
0.708309 0.792599 0.762753
0.765499 0.817990 0.791470
0.810788 0.821897 0.789975
0.859068 0.795163 0.754238
0.934905 0.791928 0.746609
0.745998 0.876829 0.820371
0.748928 0.877470 0.821317
0.763058 0.881498 0.826963
0.794827 0.891386 0.841520
0.841550 0.906981 0.865019
0.891295 0.929808 0.891417
0.886198 0.890959 0.832670
0.921447 0.855558 0.781399
0.833768 0.942443 0.883940
0.836667 0.942809 0.885191
0.849119 0.944427 0.890806
0.874418 0.948577 0.903563
0.902251 0.954314 0.918090
0.927153 0.960876 0.931273
0.934569 0.958343 0.922240
0.942290 0.942779 0.879606
0.152560 0.570886 0.779812
0.185153 0.564721 0.780301
0.264225 0.532341 0.779751
0.407080 0.483223 0.779721
0.608789 0.450172 0.771542
0.766751 0.434150 0.760952
0.866148 0.459907 0.735927
0.937102 0.491066 0.707881
0.273991 0.595117 0.776608
0.285527 0.588586 0.776547
0.327794 0.559258 0.776852
0.422675 0.505669 0.776516
0.607965 0.471962 0.768399
0.762570 0.453315 0.758358
0.860807 0.475196 0.734524
0.932555 0.501457 0.707393
0.468879 0.677302 0.782345
0.471321 0.672206 0.782101
0.482399 0.650263 0.781857
0.502312 0.596185 0.779538
0.623072 0.557519 0.771725
0.759304 0.531762 0.761776
0.851133 0.542535 0.741238
0.923674 0.553002 0.716487
0.563745 0.750393 0.792660
0.570520 0.748104 0.791928
0.598444 0.739803 0.790829
0.628321 0.716854 0.790219
0.661524 0.669551 0.785306
0.761929 0.638605 0.773556
0.840757 0.637201 0.757626
0.913787 0.627863 0.733883
0.612390 0.785000 0.796567
0.618189 0.784817 0.796750
0.641138 0.784298 0.797757
0.680659 0.783963 0.800412
0.718502 0.765530 0.797879
0.765133 0.720302 0.785092
0.832914 0.710994 0.770382
0.904356 0.687343 0.740475
0.658473 0.813931 0.802396
0.663508 0.814664 0.803586
0.678859 0.814023 0.804623
0.706416 0.813107 0.806760
0.744259 0.811398 0.809537
0.792508 0.810605 0.814755
0.841825 0.787594 0.793149
0.911254 0.775631 0.775387
0.721340 0.850523 0.818357
0.724514 0.851133 0.819333
0.734646 0.851530 0.821073
0.753902 0.852415 0.824491
0.796384 0.869017 0.844022
0.854124 0.894224 0.873533
0.884977 0.892576 0.866636
0.924773 0.866911 0.830625
0.804288 0.926818 0.877653
0.806302 0.927153 0.878233
0.816770 0.929351 0.882048
0.839170 0.934630 0.891173
0.873350 0.942260 0.906218
0.914763 0.951965 0.927611
0.943175 0.961089 0.942901
0.941344 0.943450 0.902434
0.362737 0.650111 0.846708
0.370153 0.646418 0.847135
0.394049 0.627863 0.847349
0.435035 0.585748 0.848234
0.559930 0.555505 0.844236
0.708766 0.516808 0.836240
0.834287 0.506706 0.827634
0.922576 0.526940 0.808896
0.404974 0.665766 0.844938
0.410407 0.662318 0.845396
0.428046 0.644404 0.845670
0.459052 0.603418 0.846128
0.566217 0.569757 0.842466
0.707851 0.530877 0.834287
0.831022 0.517967 0.825406
0.918334 0.535180 0.806912
0.520653 0.721096 0.845731
0.522454 0.717708 0.845731
0.529381 0.702693 0.845548
0.543877 0.669459 0.845518
0.599329 0.628351 0.842802
0.714565 0.591882 0.835019
0.828580 0.573846 0.827115
0.912505 0.584863 0.811612
0.603204 0.780728 0.851011
0.607660 0.778897 0.850462
0.627497 0.772305 0.849577
0.637018 0.749599 0.848875
0.647456 0.704646 0.847501
0.729122 0.674525 0.839902
0.826902 0.650629 0.831601
0.904814 0.650813 0.818723
0.651270 0.828336 0.857633
0.655207 0.828000 0.857511
0.672267 0.827359 0.857939
0.696529 0.816403 0.856962
0.720455 0.792081 0.854276
0.744839 0.748104 0.848600
0.827115 0.719295 0.838102
0.901213 0.714931 0.827878
0.687037 0.855680 0.863096
0.690425 0.855650 0.863340
0.704005 0.855375 0.864164
0.729183 0.854917 0.865843
0.764736 0.854185 0.868467
0.797696 0.837339 0.866819
0.837705 0.793881 0.854643
0.903227 0.783505 0.842039
0.727565 0.882689 0.870329
0.730343 0.882841 0.870726
0.740566 0.882628 0.871580
0.760250 0.882383 0.873411
0.788296 0.881895 0.876036
0.823758 0.881102 0.879393
0.865507 0.879088 0.882719
0.911131 0.856443 0.860990
0.784665 0.914092 0.883360
0.786496 0.914244 0.883757
0.794644 0.915068 0.885496
0.809262 0.916045 0.888243
0.830350 0.917357 0.892149
0.872557 0.929870 0.909117
0.923888 0.947295 0.934417
0.941131 0.944823 0.926818
0.503929 0.728725 0.907866
0.506737 0.726284 0.908110
0.515709 0.714168 0.908415
0.533745 0.688533 0.909697
0.578332 0.652949 0.910460
0.682490 0.629480 0.907652
0.804532 0.589044 0.903624
0.908537 0.583551 0.898192
0.522057 0.737667 0.906767
0.524468 0.735348 0.907042
0.532341 0.723720 0.907500
0.547784 0.698634 0.908659
0.585351 0.661769 0.909606
0.685267 0.638544 0.906767
0.803830 0.598199 0.902525
0.906706 0.590600 0.897002
0.580652 0.770871 0.905913
0.581964 0.768582 0.906065
0.586572 0.758206 0.906340
0.597803 0.736843 0.907805
0.613397 0.696376 0.909178
0.698238 0.674128 0.906126
0.805020 0.637293 0.901884
0.903960 0.624262 0.896696
0.650446 0.817502 0.906523
0.654932 0.816800 0.906615
0.657191 0.808438 0.906859
0.662531 0.790738 0.907652
0.671229 0.758358 0.908751
0.717617 0.725917 0.907500
0.808072 0.693568 0.903197
0.901610 0.674769 0.898253
0.682002 0.858824 0.910063
0.684962 0.858030 0.910185
0.695338 0.853696 0.910124
0.721492 0.846525 0.910216
0.733516 0.824826 0.910369
0.740505 0.782589 0.910765
0.811887 0.753811 0.906371
0.900328 0.730434 0.901457
0.720729 0.892302 0.914733
0.723018 0.892119 0.914733
0.733303 0.891539 0.914946
0.754177 0.891020 0.915923
0.778653 0.882872 0.916564
0.802457 0.861753 0.916747
0.825742 0.822721 0.915221
0.903593 0.795743 0.909636
0.757382 0.918212 0.921447
0.759396 0.918120 0.921538
0.768246 0.917754 0.921935
0.785702 0.917327 0.923003
0.811673 0.916838 0.924804
0.845121 0.916594 0.927581
0.872831 0.902831 0.927672
0.910063 0.865446 0.920775
0.799313 0.940581 0.927306
0.800870 0.940520 0.927398
0.807889 0.940398 0.928008
0.821958 0.940368 0.929442
0.842618 0.940246 0.931579
0.869017 0.940154 0.934447
0.900175 0.940215 0.938140
0.932311 0.939330 0.941314
