20 Preset/Ins style/【3】LUT video cho PR-AE-FCPX/Tone (8).cube
# Created by Adobe Lightroom plugin Export LUT (1.24.0)
# www.johnrellis.com/lightroom/exportlut.htm
# Preset: INS网红琥珀色-素材江湖06
# Color profile: C:\Program Files (x86)\Common Files\Adobe\Color\Profiles\Recommended\VideoHD.icc
LUT_3D_SIZE 5
DOMAIN_MIN 0.000000 0.000000 0.000000
DOMAIN_MAX 0.903226 0.903226 0.903226
0.070314 0.094728 0.101564
0.134371 0.100160 0.108766
0.474464 0.000000 0.106966
0.826932 0.196445 0.174746
1.000000 0.451118 0.334386
0.000000 0.193545 0.134066
0.169039 0.204440 0.136873
0.541009 0.244327 0.167178
0.840360 0.361273 0.257908
1.000000 0.521569 0.392645
0.027497 0.593194 0.387030
0.310674 0.598505 0.400458
0.574334 0.600092 0.410864
0.844358 0.652338 0.495369
0.974426 0.714565 0.592432
0.560906 0.823148 0.666621
0.599786 0.822202 0.674250
0.693843 0.819913 0.688258
0.810208 0.826169 0.698634
0.937896 0.856504 0.756497
0.802823 0.933837 0.855131
0.810788 0.933867 0.856840
0.840299 0.935760 0.864927
0.880308 0.935576 0.873106
0.930083 0.941375 0.875425
0.000000 0.107393 0.291112
0.181369 0.092378 0.311437
0.549096 0.000000 0.341344
0.836667 0.266941 0.393378
0.976959 0.534478 0.514641
0.000000 0.249668 0.338903
0.215061 0.266697 0.356176
0.571283 0.293034 0.402594
0.822721 0.415442 0.442969
0.971801 0.587213 0.550561
0.095613 0.624140 0.526848
0.323339 0.628901 0.534051
0.613977 0.635859 0.560845
0.827787 0.677760 0.613794
0.952972 0.734981 0.672572
0.567224 0.829068 0.711910
0.603632 0.827970 0.716365
0.709316 0.826627 0.733974
0.814084 0.830869 0.745998
0.933715 0.862882 0.795804
0.802701 0.935302 0.863340
0.814237 0.935088 0.866911
0.843412 0.935271 0.873533
0.882811 0.935363 0.881895
0.929839 0.940978 0.884215
0.000000 0.217960 0.707485
0.170352 0.233219 0.714870
0.586114 0.273411 0.744900
0.850217 0.363256 0.751125
0.988342 0.544976 0.755062
0.176028 0.388983 0.710689
0.315190 0.396612 0.718959
0.595605 0.425483 0.748562
0.837644 0.483558 0.763699
0.973297 0.606561 0.766384
0.390417 0.630945 0.743526
0.461646 0.636439 0.744564
0.642237 0.670588 0.765042
0.814969 0.705196 0.801205
0.934661 0.750027 0.799863
0.596612 0.826993 0.821927
0.627070 0.829007 0.824552
0.718074 0.834409 0.831083
0.832395 0.850889 0.848966
0.923186 0.878141 0.871824
0.797147 0.941741 0.892424
0.808927 0.941283 0.894224
0.849424 0.940185 0.901457
0.895964 0.940459 0.911589
0.934569 0.944457 0.915312
0.407050 0.461128 0.897063
0.461860 0.470954 0.897612
0.620203 0.508354 0.902190
0.798520 0.570764 0.911406
0.943572 0.651698 0.921324
0.489235 0.557336 0.893156
0.526360 0.563287 0.894499
0.647456 0.587579 0.899748
0.800809 0.633112 0.909758
0.936645 0.691646 0.921080
0.601587 0.705562 0.885405
0.626246 0.710811 0.885496
0.705898 0.730739 0.891203
0.802884 0.748348 0.900664
0.923369 0.786191 0.920531
0.697108 0.824735 0.898558
0.712398 0.827085 0.898924
0.763058 0.834928 0.899290
0.841825 0.857939 0.909209
0.927184 0.880461 0.926513
0.800900 0.937835 0.938872
0.808011 0.938567 0.938842
0.835172 0.941772 0.938384
0.892424 0.946044 0.940948
0.943297 0.950195 0.947936
0.663325 0.678096 0.965820
0.676967 0.680873 0.965728
0.731014 0.696254 0.966400
0.810361 0.720302 0.967651
0.896269 0.754879 0.970428
0.683345 0.708644 0.962158
0.695155 0.710964 0.962310
0.741451 0.721675 0.963226
0.813352 0.740383 0.964965
0.895659 0.771145 0.968658
0.742367 0.790616 0.956359
0.748348 0.790402 0.956329
0.778317 0.794858 0.957488
0.831113 0.804959 0.960174
0.902251 0.830076 0.966491
0.794614 0.862943 0.957458
0.800290 0.863920 0.957427
0.827054 0.871031 0.958526
0.873625 0.886168 0.962768
0.920897 0.897124 0.967559
0.847898 0.928832 0.966827
0.851713 0.929381 0.966705
0.870542 0.933318 0.967163
0.901732 0.940124 0.967651
0.945892 0.953002 0.970184
