20 Preset/Ins style/【3】LUT video cho PR-AE-FCPX/Tone (8).cube
# Created by Adobe Lightroom plugin Export LUT (1.24.0)
# www.johnrellis.com/lightroom/exportlut.htm
# Preset: INS网红琥珀色-素材江湖06
# Color profile: C:\Program Files (x86)\Common Files\Adobe\Color\Profiles\Recommended\VideoHD.icc
LUT_3D_SIZE 32
DOMAIN_MIN 0.0 0.0 0.0
DOMAIN_MAX 1.0 1.0 1.0
0.070314 0.094728 0.101564
0.070314 0.094728 0.101564
0.070314 0.094728 0.101564
0.070314 0.094728 0.101564
0.087129 0.096101 0.103059
0.099214 0.097475 0.105135
0.113893 0.098939 0.107027
0.134371 0.100160 0.108766
0.163272 0.100984 0.109712
0.200229 0.100130 0.110628
0.244938 0.096651 0.110933
0.296269 0.089509 0.110445
0.352880 0.066896 0.109560
0.413184 0.027070 0.107515
0.474464 0.000000 0.106966
0.534447 0.000000 0.108675
0.592554 0.000000 0.113008
0.647700 0.000000 0.120150
0.698787 0.017029 0.130037
0.745724 0.108736 0.142428
0.788602 0.154574 0.157656
0.826932 0.196445 0.174746
0.860594 0.236423 0.194369
0.891539 0.275029 0.214572
0.920104 0.312932 0.237064
0.946441 0.350378 0.260594
0.969970 0.386145 0.285374
0.990967 0.419745 0.310094
1.000000 0.451118 0.334386
1.000000 0.480598 0.358618
1.000000 0.508202 0.382147
1.000000 0.534081 0.405737
0.070314 0.094728 0.101564
0.070314 0.094728 0.101564
0.070314 0.094728 0.101564
0.071595 0.095064 0.101503
0.088228 0.096040 0.103059
0.100282 0.097719 0.105074
0.115297 0.099123 0.106996
0.136416 0.100862 0.108949
0.166415 0.101350 0.109895
0.204105 0.100771 0.110689
0.249943 0.097230 0.110903
0.302098 0.089784 0.110292
0.359503 0.066804 0.109194
0.419989 0.026551 0.107332
0.481178 0.000000 0.107179
0.540734 0.000000 0.109285
0.598688 0.000000 0.113924
0.653193 0.000000 0.121462
0.704219 0.040894 0.131228
0.750820 0.116884 0.144411
0.793606 0.161654 0.159670
0.831510 0.203403 0.177371
0.864805 0.243076 0.197421
0.895476 0.281254 0.218051
0.923644 0.319341 0.241093
0.949584 0.356390 0.264714
0.972717 0.391547 0.289067
0.993194 0.424781 0.314153
1.000000 0.455848 0.338659
1.000000 0.484871 0.362890
1.000000 0.512200 0.386572
1.000000 0.537896 0.409766
0.070314 0.094728 0.101564
0.070314 0.094728 0.101564
0.070314 0.094728 0.101564
0.076539 0.095247 0.101808
0.090181 0.096956 0.103609
0.101472 0.099458 0.105531
0.117342 0.101717 0.107301
0.140352 0.103395 0.108858
0.171237 0.104524 0.109987
0.210391 0.103883 0.110353
0.256901 0.101015 0.110353
0.309667 0.094270 0.109834
0.367468 0.080232 0.108431
0.427436 0.044099 0.107637
0.488167 0.004395 0.108248
0.547417 0.000000 0.110933
0.604730 0.000000 0.116518
0.658625 0.009613 0.124453
0.708919 0.090455 0.134951
0.755032 0.134524 0.148379
0.797208 0.175692 0.163943
0.834409 0.214939 0.182071
0.867247 0.252873 0.201694
0.897459 0.290349 0.223209
0.925475 0.327398 0.245518
0.951080 0.363470 0.269505
0.973846 0.398474 0.294438
0.994141 0.430976 0.319097
1.000000 0.461280 0.342962
1.000000 0.489876 0.367315
1.000000 0.516594 0.390570
1.000000 0.542016 0.413611
0.067536 0.099733 0.102754
0.066835 0.100130 0.102693
0.069795 0.100374 0.102998
0.080110 0.101015 0.103212
0.092042 0.102632 0.104616
0.105013 0.104707 0.106142
0.122347 0.107210 0.107790
0.147341 0.109255 0.109194
0.180148 0.111055 0.109743
0.220279 0.111177 0.109865
0.268132 0.109438 0.109834
0.320714 0.104982 0.109255
0.378027 0.096712 0.109133
0.437446 0.082643 0.109590
0.497475 0.056916 0.111482
0.556542 0.043580 0.115694
0.613794 0.057038 0.121950
0.667231 0.097078 0.131624
0.717159 0.129732 0.143008
0.762509 0.165103 0.157626
0.803952 0.200778 0.173007
0.840177 0.237247 0.191958
0.871824 0.272313 0.211612
0.900969 0.307408 0.232395
0.927977 0.341924 0.254520
0.952544 0.376257 0.278325
0.974578 0.409064 0.302312
0.994324 0.439826 0.326207
1.000000 0.468818 0.349523
1.000000 0.496651 0.373236
1.000000 0.523003 0.396429
1.000000 0.548119 0.419928
0.063783 0.111849 0.107973
0.066072 0.111788 0.107637
0.072694 0.111879 0.108248
0.082216 0.112093 0.108827
0.093111 0.113588 0.108492
0.107881 0.116091 0.108858
0.129824 0.118532 0.109926
0.158389 0.121157 0.110964
0.193820 0.123293 0.111543
0.235599 0.124483 0.112184
0.283726 0.124086 0.112337
0.336645 0.121767 0.112490
0.393194 0.117556 0.113039
0.452155 0.112795 0.114778
0.510765 0.110140 0.118105
0.568139 0.114260 0.124086
0.623774 0.124941 0.131472
0.675532 0.144137 0.141878
0.723720 0.170138 0.154696
0.768154 0.199588 0.169558
0.808255 0.231540 0.186252
0.843351 0.263798 0.204318
0.874174 0.295689 0.223941
0.902617 0.327672 0.244266
0.928893 0.359991 0.265934
0.953002 0.392187 0.288945
0.974609 0.422950 0.312230
0.994110 0.452308 0.335607
1.000000 0.480201 0.358923
1.000000 0.506920 0.382269
1.000000 0.532464 0.405371
1.000000 0.556970 0.428351
0.053315 0.129915 0.114504
0.053620 0.129915 0.114199
0.060548 0.129976 0.114443
0.079103 0.130220 0.114900
0.093446 0.130983 0.115541
0.109163 0.133516 0.114870
0.134310 0.137545 0.114260
0.167300 0.140719 0.115175
0.208499 0.143221 0.116152
0.251774 0.145663 0.116823
0.299779 0.146853 0.117617
0.352392 0.147524 0.118502
0.408301 0.147494 0.120760
0.465370 0.148989 0.124453
0.522698 0.152499 0.129305
0.578454 0.160128 0.136660
0.631800 0.172396 0.146151
0.681941 0.190463 0.157412
0.728725 0.212467 0.170748
0.771939 0.238315 0.185367
0.810849 0.265995 0.201999
0.844450 0.294102 0.219638
0.854307 0.298924 0.224063
0.884428 0.328618 0.242649
0.912413 0.359106 0.263340
0.938293 0.389899 0.285100
0.961975 0.420081 0.308141
0.983185 0.449165 0.330724
1.000000 0.477089 0.353887
1.000000 0.503868 0.377264
1.000000 0.529503 0.400488
1.000000 0.554345 0.423713
0.019104 0.153384 0.121675
0.022370 0.153536 0.121645
0.027527 0.153841 0.120974
0.049897 0.154177 0.121370
0.085359 0.154543 0.122774
0.106264 0.156344 0.122988
0.131044 0.160464 0.122560
0.166506 0.165988 0.120790
0.207218 0.169863 0.122164
0.254734 0.172671 0.124269
0.305241 0.174868 0.126162
0.355322 0.177920 0.129183
0.409247 0.181125 0.132387
0.464698 0.185794 0.137209
0.520897 0.192599 0.143893
0.576104 0.201724 0.152346
0.629084 0.214878 0.162325
0.678523 0.231266 0.174289
0.724239 0.251102 0.187655
0.766293 0.272770 0.201755
0.803311 0.295506 0.216587
0.835142 0.318212 0.232273
0.863951 0.341588 0.248875
0.890990 0.366125 0.266361
0.916625 0.391669 0.285069
0.940917 0.418860 0.305943
0.963470 0.445686 0.327214
0.983917 0.472389 0.349584
1.000000 0.498390 0.372412
1.000000 0.523583 0.395117
1.000000 0.547784 0.417731
1.000000 0.571313 0.440742
0.000000 0.193545 0.134066
0.000000 0.193790 0.134249
0.000000 0.194003 0.134371
0.000000 0.194858 0.133333
0.037385 0.195102 0.134737
0.099184 0.195804 0.137331
0.131960 0.199130 0.137972
0.169039 0.204440 0.136873
0.215244 0.211368 0.135134
0.264805 0.215732 0.137881
0.320104 0.219760 0.141665
0.379980 0.223453 0.146883
0.432654 0.228763 0.151949
0.486671 0.235660 0.158846
0.541009 0.244327 0.167178
0.593957 0.255467 0.176913
0.644404 0.268864 0.188296
0.691829 0.284825 0.200626
0.735500 0.302708 0.214206
0.775265 0.322026 0.228794
0.809842 0.341588 0.242802
0.840360 0.361273 0.257908
0.867857 0.381476 0.274144
0.893950 0.402838 0.290929
0.918578 0.425696 0.309300
0.942260 0.449470 0.328832
0.963897 0.473793 0.349950
0.983703 0.497932 0.371008
1.000000 0.521569 0.392645
1.000000 0.545098 0.415259
1.000000 0.567468 0.436957
1.000000 0.589380 0.458991
0.000000 0.244327 0.154025
0.000000 0.244602 0.154147
0.000000 0.244907 0.154604
0.000000 0.245823 0.155581
0.000000 0.246738 0.154940
0.069245 0.247410 0.157687
0.131136 0.248203 0.161501
0.173281 0.252415 0.161959
0.218753 0.258518 0.160708
0.272313 0.265782 0.157992
0.328710 0.271550 0.162295
0.388220 0.277531 0.169070
0.450324 0.284001 0.178347
0.507591 0.291569 0.187778
0.559594 0.300664 0.197238
0.610101 0.311894 0.207614
0.658167 0.324926 0.219486
0.702968 0.339727 0.232334
0.744564 0.355474 0.244877
0.781796 0.371984 0.258457
0.814572 0.388281 0.272404
0.843687 0.405097 0.287083
0.870268 0.422522 0.302403
0.895506 0.441047 0.318425
0.919524 0.460792 0.335607
0.942290 0.481910 0.354528
0.963317 0.503471 0.374304
0.982330 0.525292 0.395026
0.999451 0.546868 0.415991
1.000000 0.568048 0.436957
1.000000 0.588952 0.458473
1.000000 0.609277 0.479713
0.000000 0.302861 0.181979
0.000000 0.303197 0.182193
0.000000 0.303655 0.182956
0.000000 0.304631 0.184054
0.000000 0.306310 0.186252
0.000000 0.307561 0.186313
0.126345 0.308385 0.190646
0.182437 0.309606 0.195834
0.229282 0.314733 0.196109
0.279789 0.321019 0.194705
0.335210 0.326452 0.192752
0.397528 0.336004 0.197208
0.458747 0.343908 0.208194
0.520043 0.352667 0.220462
0.580224 0.362249 0.233860
0.627131 0.371832 0.244358
0.671382 0.382788 0.255131
0.712917 0.394934 0.267002
0.751675 0.408026 0.278752
0.786465 0.421668 0.291936
0.817899 0.435492 0.305150
0.846220 0.449561 0.319127
0.872435 0.464881 0.333989
0.897490 0.481361 0.349432
0.921019 0.499031 0.366491
0.943023 0.517662 0.384863
0.963012 0.536767 0.404059
0.981201 0.555962 0.423682
0.997589 0.575219 0.443214
1.000000 0.594141 0.463172
1.000000 0.612879 0.483223
1.000000 0.631342 0.503319
0.000000 0.368750 0.218753
0.000000 0.368963 0.218906
0.000000 0.369482 0.219913
0.000000 0.370062 0.221378
0.000000 0.371252 0.223606
0.000000 0.372839 0.223178
0.127474 0.373205 0.227176
0.194247 0.373632 0.232242
0.246860 0.373938 0.238254
0.294041 0.379644 0.237125
0.345495 0.385382 0.235721
0.401343 0.391089 0.234165
0.463142 0.401038 0.239078
0.522881 0.409949 0.252018
0.580804 0.419562 0.265904
0.636378 0.430426 0.281224
0.683680 0.440681 0.294102
0.723018 0.450507 0.305150
0.759243 0.461158 0.316411
0.791989 0.471992 0.328466
0.821744 0.482887 0.340581
0.848661 0.494362 0.353521
0.873991 0.507164 0.367956
0.897948 0.521019 0.382605
0.920684 0.536187 0.398657
0.941741 0.552575 0.416175
0.961059 0.569207 0.434058
0.978546 0.586206 0.452399
0.994293 0.603296 0.471229
1.000000 0.620356 0.490211
1.000000 0.637385 0.509300
1.000000 0.654139 0.528191
0.000000 0.432441 0.260197
0.000000 0.432685 0.260227
0.000000 0.432746 0.260685
0.000000 0.433265 0.262364
0.000000 0.433936 0.264805
0.035248 0.434852 0.268742
0.145998 0.435981 0.268101
0.212619 0.435798 0.272465
0.266789 0.435737 0.277775
0.314702 0.436561 0.282933
0.360510 0.441566 0.281743
0.410040 0.446693 0.280552
0.442329 0.433112 0.265171
0.501152 0.442878 0.268467
0.557763 0.452461 0.282414
0.612604 0.463081 0.297063
0.664637 0.474434 0.312902
0.714199 0.486519 0.329412
0.750027 0.495338 0.340612
0.782376 0.504295 0.351324
0.811704 0.513603 0.363378
0.838895 0.523583 0.375555
0.864652 0.534691 0.389014
0.888975 0.547417 0.403754
0.912169 0.561486 0.419593
0.933684 0.576562 0.436622
0.953460 0.592096 0.454292
0.971435 0.608209 0.472480
0.987488 0.624537 0.491402
1.000000 0.640681 0.510155
1.000000 0.656764 0.529137
1.000000 0.672480 0.547692
0.000000 0.481697 0.295354
0.000000 0.481788 0.295537
0.000000 0.482368 0.296757
0.000000 0.483436 0.298528
0.000000 0.484596 0.301396
0.107607 0.486152 0.305547
0.177157 0.487861 0.307317
0.232120 0.488167 0.309911
0.284154 0.487800 0.314549
0.330907 0.486854 0.319646
0.373022 0.487312 0.322057
0.415137 0.490394 0.319829
0.460090 0.493477 0.317266
0.507866 0.496864 0.315373
0.561547 0.505150 0.316045
0.613764 0.514519 0.330358
0.664179 0.524956 0.345769
0.712032 0.535851 0.362219
0.755215 0.546288 0.379492
0.790738 0.555291 0.395026
0.818173 0.562158 0.405432
0.843626 0.570031 0.417273
0.867979 0.579278 0.429786
0.891020 0.589776 0.443488
0.912932 0.601556 0.458320
0.933165 0.614313 0.473945
0.951629 0.627710 0.490730
0.968536 0.641444 0.507439
0.983795 0.655482 0.524681
0.997528 0.669642 0.542290
1.000000 0.683711 0.559747
1.000000 0.697536 0.576837
0.000000 0.540307 0.341436
0.000000 0.540642 0.341802
0.000000 0.541344 0.342962
0.000000 0.542107 0.344884
0.095064 0.543236 0.347478
0.172457 0.544427 0.351263
0.232486 0.545586 0.356176
0.267491 0.546441 0.354742
0.315160 0.545830 0.358862
0.359319 0.544732 0.363165
0.400732 0.543114 0.367926
0.438727 0.543603 0.368902
0.478035 0.546258 0.366644
0.519951 0.549279 0.364508
0.564355 0.552758 0.362890
0.614038 0.560601 0.362432
0.663050 0.570367 0.377661
0.708492 0.580133 0.394141
0.750240 0.589319 0.411322
0.787716 0.598291 0.429236
0.821530 0.607172 0.447303
0.846952 0.613916 0.459449
0.869841 0.621424 0.471412
0.891722 0.629938 0.483955
0.912322 0.639796 0.497475
0.931334 0.650538 0.512047
0.948821 0.661830 0.527184
0.964721 0.673640 0.542962
0.979217 0.685817 0.559045
0.992615 0.697932 0.574762
1.000000 0.710018 0.590570
1.000000 0.721981 0.605951
0.027497 0.593194 0.387030
0.048524 0.593317 0.387304
0.100771 0.593957 0.388281
0.144625 0.594629 0.389868
0.187594 0.595605 0.392432
0.232151 0.596765 0.396063
0.277134 0.597559 0.400275
0.310674 0.598505 0.400458
0.349004 0.597986 0.402655
0.389685 0.596704 0.406531
0.428077 0.595148 0.410681
0.464668 0.593072 0.415106
0.498787 0.594385 0.414343
0.535424 0.597009 0.412573
0.574334 0.600092 0.410864
0.615412 0.603906 0.410010
0.661433 0.611566 0.409613
0.704494 0.619471 0.424231
0.744442 0.627558 0.441382
0.781003 0.635523 0.458991
0.813993 0.643580 0.476997
0.844358 0.652338 0.495369
0.871153 0.661463 0.513359
0.891691 0.668574 0.525231
0.911101 0.676631 0.537591
0.928862 0.685481 0.550958
0.945342 0.694881 0.564660
0.960449 0.704677 0.578668
0.974426 0.714565 0.592432
0.987304 0.724483 0.606043
0.999207 0.734463 0.619593
1.000000 0.744472 0.633021
0.198398 0.641840 0.432380
0.201694 0.641810 0.432471
0.211368 0.641962 0.433173
0.230045 0.642267 0.434394
0.256504 0.642634 0.436347
0.287510 0.643000 0.439033
0.322179 0.643183 0.442329
0.359442 0.643153 0.446540
0.382361 0.643000 0.444007
0.417945 0.641779 0.447395
0.453071 0.640436 0.451270
0.487587 0.638911 0.455543
0.520867 0.637751 0.460273
0.552880 0.640497 0.459541
0.587091 0.643366 0.458595
0.623316 0.646754 0.458350
0.661006 0.650233 0.458015
0.702327 0.656825 0.457893
0.739406 0.662623 0.470802
0.774624 0.669490 0.488075
0.806729 0.676753 0.505669
0.836545 0.684718 0.523705
0.863920 0.693629 0.543084
0.888853 0.703151 0.562554
0.909148 0.711086 0.577325
0.925963 0.718074 0.588830
0.941527 0.725521 0.600732
0.956146 0.733333 0.612543
0.969604 0.741482 0.624628
0.982147 0.749874 0.636713
0.993866 0.758450 0.648981
1.000000 0.767086 0.661128
0.282414 0.683986 0.476875
0.284550 0.684016 0.476967
0.290105 0.684047 0.477424
0.302434 0.684108 0.478431
0.320378 0.684169 0.480201
0.343938 0.684230 0.482429
0.371038 0.684108 0.485420
0.401770 0.683925 0.489204
0.420874 0.684016 0.486976
0.451270 0.682887 0.490028
0.482368 0.681666 0.493507
0.513207 0.680385 0.497322
0.543420 0.679072 0.501854
0.572473 0.678676 0.505547
0.601740 0.681056 0.504875
0.632776 0.683711 0.504662
0.665187 0.686580 0.504479
0.698665 0.689540 0.504356
0.735439 0.695033 0.504204
0.768063 0.699641 0.515343
0.799710 0.706447 0.532860
0.828977 0.713832 0.551019
0.855985 0.722042 0.569696
0.880674 0.730526 0.588128
0.902953 0.739162 0.606287
0.922881 0.747951 0.624292
0.938262 0.754208 0.635431
0.952117 0.760372 0.645502
0.965057 0.766964 0.655940
0.977264 0.773831 0.666468
0.988708 0.780941 0.677180
0.999512 0.788266 0.687953
0.350469 0.718715 0.517967
0.351019 0.718532 0.517845
0.338537 0.710170 0.507408
0.347936 0.710170 0.508446
0.362280 0.710170 0.509850
0.381018 0.710140 0.512139
0.403815 0.710140 0.515099
0.429847 0.709987 0.518669
0.454047 0.709865 0.521080
0.473121 0.709438 0.520043
0.500298 0.708431 0.523156
0.528038 0.707362 0.526940
0.555718 0.706508 0.531243
0.583490 0.705776 0.536370
0.609979 0.706722 0.539391
0.637110 0.709499 0.540124
0.665858 0.712459 0.540887
0.695613 0.715572 0.541650
0.726101 0.718685 0.542535
0.758297 0.722927 0.543175
0.789975 0.729305 0.553277
0.819394 0.736629 0.571374
0.846616 0.744442 0.589746
0.871397 0.752560 0.608057
0.893919 0.760830 0.626184
0.914153 0.769100 0.643732
0.932372 0.777340 0.660700
0.948455 0.785153 0.676509
0.961059 0.790616 0.685817
0.972869 0.796384 0.695186
0.984009 0.802335 0.704707
0.994537 0.808560 0.714412
0.405829 0.746761 0.554284
0.405493 0.746029 0.553368
0.407263 0.745327 0.552758
0.413092 0.744594 0.552789
0.422919 0.744045 0.553521
0.437140 0.743740 0.555413
0.455482 0.743526 0.558251
0.476967 0.743313 0.561761
0.500999 0.743008 0.566308
0.513725 0.743069 0.563897
0.536339 0.742306 0.566735
0.559991 0.741421 0.570306
0.583856 0.740658 0.574090
0.608118 0.739956 0.578576
0.631983 0.739559 0.583825
0.655055 0.741085 0.585657
0.678981 0.743618 0.586267
0.704128 0.746151 0.586877
0.730190 0.748714 0.587518
0.756771 0.751278 0.588067
0.783871 0.753780 0.588495
0.813840 0.760800 0.595850
0.840604 0.767971 0.613306
0.864988 0.775265 0.630701
0.887114 0.782681 0.647944
0.907195 0.790188 0.664851
0.925292 0.797604 0.681209
0.941619 0.804898 0.697047
0.956390 0.811948 0.711818
0.969238 0.818112 0.723934
0.979980 0.823026 0.732296
0.990234 0.828214 0.740658
0.466438 0.776089 0.596094
0.465614 0.775448 0.595209
0.466987 0.774746 0.594537
0.471046 0.774075 0.594476
0.478859 0.773526 0.595117
0.490120 0.773159 0.596857
0.504570 0.772946 0.599207
0.521813 0.772763 0.602533
0.541405 0.772488 0.606470
0.553918 0.772641 0.605829
0.570886 0.772152 0.607263
0.590814 0.771450 0.610285
0.611322 0.770809 0.613672
0.632258 0.770230 0.617395
0.653254 0.769802 0.621851
0.674067 0.769497 0.626551
0.694270 0.771633 0.627375
0.715572 0.773831 0.627802
0.737881 0.776120 0.628656
0.760952 0.778317 0.629053
0.784451 0.780606 0.629725
0.808347 0.782742 0.630060
0.835203 0.788968 0.634852
0.859129 0.795590 0.651575
0.880919 0.802396 0.668208
0.900847 0.809201 0.684382
0.918914 0.815946 0.700008
0.935210 0.822568 0.715175
0.950011 0.829007 0.729519
0.963500 0.835294 0.742855
0.975799 0.841398 0.755703
0.986450 0.846586 0.765591
0.519707 0.802518 0.635279
0.519219 0.802029 0.634546
0.520134 0.801419 0.633967
0.523491 0.800870 0.633936
0.529351 0.800443 0.634607
0.538293 0.800137 0.636042
0.549859 0.799893 0.638087
0.563775 0.799710 0.641077
0.579614 0.799435 0.644404
0.592798 0.799435 0.645563
0.604150 0.799283 0.645167
0.620874 0.798703 0.647822
0.638392 0.798184 0.650568
0.656367 0.797635 0.653925
0.674830 0.797177 0.657710
0.693111 0.796872 0.661769
0.710872 0.796963 0.664912
0.728573 0.798581 0.664942
0.747127 0.800198 0.665064
0.766567 0.801724 0.664973
0.786526 0.803220 0.664668
0.807095 0.804746 0.664576
0.828031 0.806363 0.664240
0.852354 0.811795 0.667628
0.873686 0.817533 0.682155
0.893492 0.823667 0.697566
0.911498 0.829831 0.712642
0.927947 0.835935 0.727108
0.942901 0.841855 0.740871
0.956634 0.847715 0.754055
0.969207 0.853422 0.766476
0.980682 0.859068 0.778408
0.560906 0.823148 0.666621
0.560967 0.822965 0.666346
0.562219 0.822812 0.666407
0.565484 0.822629 0.666865
0.571069 0.822507 0.667903
0.578668 0.822385 0.669459
0.588403 0.822324 0.671626
0.599786 0.822202 0.674250
0.613092 0.821927 0.677180
0.625727 0.821775 0.679347
0.633112 0.821805 0.677577
0.647303 0.821286 0.679805
0.662287 0.820829 0.682399
0.677852 0.820340 0.685115
0.693843 0.819913 0.688258
0.710079 0.819608 0.691859
0.726253 0.819303 0.695644
0.741878 0.820035 0.697597
0.757900 0.821592 0.697963
0.774716 0.823056 0.698146
0.792203 0.824643 0.698421
0.810208 0.826169 0.698634
0.828672 0.827726 0.698787
0.847532 0.829404 0.699153
0.869718 0.834745 0.702510
0.888762 0.839689 0.714656
0.906645 0.845335 0.729213
0.922942 0.850980 0.743160
0.937896 0.856504 0.756497
0.951598 0.861967 0.769192
0.964202 0.867369 0.781369
0.975769 0.872740 0.793088
0.604486 0.844358 0.700557
0.604486 0.844236 0.700343
0.605646 0.844083 0.700435
0.608331 0.843931 0.700862
0.612573 0.843809 0.701747
0.618769 0.843687 0.703120
0.626612 0.843595 0.704921
0.636103 0.843412 0.707118
0.647150 0.843198 0.709773
0.658442 0.842954 0.712154
0.663447 0.843107 0.709926
0.675319 0.842649 0.711788
0.687861 0.842222 0.713832
0.701137 0.841764 0.716213
0.714900 0.841367 0.718929
0.728817 0.841001 0.721859
0.743069 0.840635 0.725032
0.757107 0.840360 0.728420
0.770718 0.841428 0.729000
0.784939 0.842710 0.729183
0.799863 0.843992 0.729397
0.815366 0.845304 0.729488
0.831388 0.846647 0.729641
0.847807 0.848051 0.729824
0.865751 0.850889 0.732631
0.885954 0.855955 0.735683
0.902892 0.860197 0.745724
0.919036 0.865446 0.759243
0.933928 0.870634 0.772152
0.947570 0.875761 0.784482
0.960113 0.880797 0.796201
0.971679 0.885832 0.807462
0.641108 0.861906 0.729305
0.640894 0.861662 0.728908
0.641749 0.861540 0.729000
0.644251 0.861509 0.729580
0.648249 0.861570 0.730648
0.653742 0.861631 0.732265
0.660670 0.861692 0.734279
0.669154 0.861753 0.736660
0.678828 0.861753 0.739437
0.688380 0.861784 0.741695
0.692653 0.862150 0.740017
0.702876 0.861967 0.741878
0.713710 0.861753 0.744015
0.725216 0.861509 0.746304
0.737301 0.861357 0.748928
0.749508 0.861204 0.751705
0.762051 0.861051 0.754696
0.774441 0.860868 0.757717
0.786526 0.860929 0.760098
0.798459 0.861997 0.760220
0.810910 0.863066 0.760281
0.824094 0.864195 0.760372
0.837827 0.865415 0.760647
0.852079 0.866758 0.761044
0.866819 0.868254 0.761654
0.881865 0.869810 0.762509
0.900389 0.874723 0.765316
0.915770 0.878569 0.773800
0.930663 0.883635 0.786648
0.944305 0.888609 0.798795
0.956847 0.893523 0.810391
0.968353 0.898375 0.821622
0.679866 0.879759 0.760037
0.679744 0.879545 0.759670
0.680415 0.879423 0.759731
0.682246 0.879332 0.760159
0.685328 0.879271 0.760922
0.689662 0.879210 0.762142
0.695155 0.879118 0.763577
0.701991 0.878965 0.765469
0.709865 0.878782 0.767636
0.716396 0.878752 0.768582
0.719905 0.878965 0.767117
0.728267 0.878721 0.768673
0.737392 0.878508 0.770443
0.747097 0.878355 0.772396
0.757321 0.878233 0.774594
0.767941 0.878111 0.777066
0.778805 0.878019 0.779629
0.789700 0.877897 0.782345
0.800504 0.877775 0.785031
0.810941 0.878294 0.786160
0.821592 0.879271 0.786252
0.832822 0.880278 0.786435
0.844602 0.881346 0.786648
0.856901 0.882506 0.786923
0.869657 0.883787 0.787442
0.882841 0.885161 0.788052
0.896300 0.886595 0.788693
0.912963 0.890990 0.791348
0.927367 0.894774 0.798215
0.941100 0.899626 0.810330
0.953735 0.904479 0.822019
0.965240 0.909148 0.833005
0.713649 0.894926 0.786465
0.713619 0.894865 0.786374
0.714290 0.894804 0.786496
0.715969 0.894743 0.786923
0.718532 0.894713 0.787686
0.722194 0.894682 0.788815
0.726925 0.894621 0.790158
0.732692 0.894530 0.791897
0.739376 0.894408 0.793912
0.743282 0.894530 0.793820
0.746822 0.894682 0.793057
0.753719 0.894499 0.794369
0.761318 0.894347 0.795773
0.769467 0.894224 0.797452
0.778164 0.894133 0.799374
0.787228 0.894072 0.801480
0.796567 0.894072 0.803769
0.806027 0.894011 0.806058
0.815518 0.893950 0.808377
0.824887 0.893828 0.810697
0.833951 0.894743 0.810910
0.843565 0.895720 0.811154
0.853635 0.896727 0.811429
0.864317 0.897856 0.811887
0.875425 0.899077 0.812467
0.886870 0.900389 0.813107
0.898741 0.901793 0.813962
0.910857 0.903227 0.814878
0.925383 0.906859 0.817411
0.939269 0.911040 0.823270
0.951659 0.915435 0.834226
0.962768 0.919310 0.843809
0.746456 0.909422 0.812070
0.746487 0.909361 0.811978
0.747036 0.909270 0.812070
0.748318 0.909239 0.812436
0.750332 0.909148 0.812985
0.753170 0.909026 0.813718
0.756710 0.908782 0.814572
0.760983 0.908476 0.815702
0.765316 0.908141 0.816495
0.766293 0.908110 0.814786
0.769497 0.907866 0.814206
0.774685 0.907469 0.814755
0.780575 0.907103 0.815488
0.787106 0.906798 0.816556
0.794247 0.906615 0.817838
0.801999 0.906523 0.819516
0.810117 0.906493 0.821469
0.818448 0.906493 0.823453
0.826841 0.906462 0.825528
0.835294 0.906432 0.827604
0.843595 0.906798 0.828946
0.851987 0.907713 0.829313
0.860868 0.908751 0.829709
0.870237 0.909880 0.830320
0.880064 0.911101 0.831052
0.890318 0.912413 0.831937
0.900908 0.913787 0.832944
0.911772 0.915251 0.834073
0.922759 0.916594 0.834867
0.935180 0.919158 0.836515
0.948394 0.923278 0.841123
0.959594 0.926940 0.850034
0.772854 0.921111 0.832181
0.773037 0.921080 0.832242
0.773617 0.921080 0.832425
0.774807 0.921080 0.832853
0.776699 0.921080 0.833494
0.779355 0.921050 0.834379
0.782681 0.920989 0.835508
0.786740 0.920897 0.836851
0.787869 0.921050 0.836088
0.789242 0.921233 0.835142
0.793484 0.921080 0.835874
0.798184 0.920958 0.836667
0.803433 0.920867 0.837644
0.809171 0.920775 0.838834
