20 Preset/Ins style/【3】LUT video cho PR-AE-FCPX/Tone (2).cube
# Created by Adobe Lightroom plugin Export LUT (1.24.0)
# www.johnrellis.com/lightroom/exportlut.htm
# Preset: INS网红琥珀色-素材江湖13
# Color profile: C:\Program Files (x86)\Common Files\Adobe\Color\Profiles\Recommended\VideoHD.icc
LUT_3D_SIZE 32
DOMAIN_MIN 0.0 0.0 0.0
DOMAIN_MAX 1.0 1.0 1.0
0.155337 0.168338 0.126131
0.155337 0.168338 0.126131
0.155337 0.168338 0.126131
0.156039 0.168246 0.126101
0.172763 0.167483 0.126070
0.207797 0.164706 0.125948
0.256382 0.159579 0.125246
0.315251 0.156954 0.122591
0.376379 0.155276 0.117983
0.434791 0.156619 0.111604
0.488594 0.160220 0.103029
0.537285 0.165194 0.093172
0.582086 0.172061 0.075257
0.623682 0.179629 0.042206
0.662287 0.188174 0.007202
0.698268 0.197757 0.000000
0.732143 0.208103 0.000000
0.764157 0.217990 0.000000
0.794522 0.227329 0.000000
0.822965 0.236973 0.000000
0.848783 0.245212 0.000000
0.872313 0.252903 0.000000
0.897612 0.261082 0.000000
0.921569 0.267948 0.000000
0.943389 0.273869 0.000000
0.963806 0.279728 0.000000
0.983520 0.285344 0.000000
1.000000 0.290562 0.000000
1.000000 0.295872 0.000000
1.000000 0.301030 0.000000
1.000000 0.305730 0.000000
1.000000 0.310582 0.000000
0.155337 0.168338 0.126131
0.155337 0.168338 0.126131
0.155337 0.168338 0.126131
0.156252 0.168399 0.126070
0.173373 0.167422 0.126070
0.207950 0.164858 0.125917
0.255161 0.161349 0.124971
0.313176 0.159121 0.122316
0.374029 0.158328 0.117586
0.432074 0.159823 0.111269
0.485451 0.163546 0.103059
0.534142 0.168246 0.092927
0.578973 0.174655 0.075135
0.620752 0.182589 0.041627
0.659297 0.191012 0.006836
0.695552 0.200229 0.000000
0.729580 0.210025 0.000000
0.761654 0.219364 0.000000
0.792050 0.228794 0.000000
0.820523 0.237858 0.000000
0.846403 0.246098 0.000000
0.869871 0.253544 0.000000
0.894835 0.261509 0.000000
0.918212 0.268040 0.000000
0.939696 0.273716 0.000000
0.959838 0.279210 0.000000
0.979461 0.284520 0.000000
0.998901 0.289891 0.000000
1.000000 0.295079 0.000000
1.000000 0.300175 0.000000
1.000000 0.304845 0.000000
1.000000 0.309575 0.000000
0.155337 0.168338 0.126131
0.155337 0.168338 0.126131
0.155337 0.168338 0.126131
0.158328 0.168215 0.126070
0.177035 0.168215 0.126040
0.211460 0.168612 0.125277
0.259159 0.169039 0.123445
0.316503 0.169528 0.120180
0.376410 0.170993 0.114839
0.433387 0.173434 0.108095
0.486213 0.176944 0.099184
0.534600 0.181460 0.088350
0.578943 0.187320 0.063050
0.620294 0.194064 0.031525
0.658839 0.201450 0.000000
0.694850 0.210056 0.000000
0.728786 0.218601 0.000000
0.760891 0.227817 0.000000
0.791379 0.235904 0.000000
0.819760 0.244236 0.000000
0.845609 0.251926 0.000000
0.869169 0.259281 0.000000
0.893980 0.265812 0.000000
0.916930 0.271489 0.000000
0.938018 0.276890 0.000000
0.958038 0.281895 0.000000
0.977508 0.287266 0.000000
0.996887 0.292302 0.000000
1.000000 0.297429 0.000000
1.000000 0.302464 0.000000
1.000000 0.306889 0.000000
1.000000 0.311467 0.000000
0.152651 0.173953 0.125826
0.152529 0.174136 0.125795
0.154025 0.174838 0.125612
0.162051 0.175723 0.125185
0.183505 0.178836 0.124086
0.219486 0.182589 0.122377
0.269139 0.186770 0.119326
0.325780 0.190829 0.114748
0.384680 0.194430 0.108217
0.439887 0.197726 0.100435
0.491218 0.201572 0.090120
0.538018 0.205356 0.069764
0.581842 0.210636 0.037873
0.622461 0.216129 0.005890
0.660334 0.222080 0.000000
0.695827 0.229282 0.000000
0.729183 0.236057 0.000000
0.760678 0.243748 0.000000
0.790768 0.250431 0.000000
0.818692 0.257420 0.000000
0.844114 0.262699 0.000000
0.867552 0.267704 0.000000
0.892119 0.273106 0.000000
0.914611 0.278386 0.000000
0.935821 0.283330 0.000000
0.956115 0.288304 0.000000
0.976013 0.293278 0.000000
0.995758 0.298192 0.000000
1.000000 0.302983 0.000000
1.000000 0.307927 0.000000
1.000000 0.312627 0.000000
1.000000 0.316716 0.000000
0.146548 0.199191 0.124544
0.147768 0.199802 0.124361
0.152987 0.201633 0.123720
0.166751 0.203403 0.122316
0.190433 0.202426 0.121248
0.227207 0.206394 0.117372
0.280339 0.215427 0.111299
0.338567 0.222568 0.104067
0.394873 0.227817 0.095735
0.448096 0.232029 0.083528
0.497078 0.235050 0.057984
0.542962 0.238529 0.027893
0.585718 0.241764 0.000000
0.625788 0.246098 0.000000
0.663325 0.250797 0.000000
0.698451 0.255985 0.000000
0.731655 0.260563 0.000000
0.762814 0.264683 0.000000
0.792386 0.269108 0.000000
0.819730 0.272953 0.000000
0.844755 0.276646 0.000000
0.868956 0.280888 0.000000
0.892515 0.285466 0.000000
0.914580 0.289769 0.000000
0.935454 0.294133 0.000000
0.955688 0.298711 0.000000
0.975494 0.303136 0.000000
0.995148 0.307683 0.000000
1.000000 0.312169 0.000000
1.000000 0.316594 0.000000
1.000000 0.320928 0.000000
1.000000 0.325017 0.000000
0.132998 0.248661 0.123934
0.135042 0.249516 0.123568
0.144686 0.252171 0.122652
0.164797 0.258274 0.119448
0.202457 0.257603 0.116609
0.241306 0.250919 0.114443
0.284550 0.249424 0.108827
0.348211 0.260746 0.093416
0.408331 0.267491 0.072023
0.461280 0.271061 0.040253
0.508354 0.272831 0.010529
0.552483 0.274723 0.000000
0.594018 0.276707 0.000000
0.632929 0.278264 0.000000
0.669459 0.280583 0.000000
0.703883 0.282933 0.000000
0.736324 0.285069 0.000000
0.767117 0.287663 0.000000
0.796170 0.290501 0.000000
0.822873 0.293095 0.000000
0.847318 0.295659 0.000000
0.872404 0.299474 0.000000
0.912718 0.309056 0.000000
0.935058 0.313451 0.000000
0.955779 0.317357 0.000000
0.975555 0.321569 0.000000
0.994568 0.325536 0.000000
1.000000 0.329503 0.000000
1.000000 0.333440 0.000000
1.000000 0.337377 0.000000
1.000000 0.340887 0.000000
1.000000 0.344274 0.000000
0.085756 0.328588 0.124147
0.093294 0.329625 0.123476
0.118196 0.332433 0.121584
0.155520 0.339391 0.117556
0.205692 0.347845 0.110262
0.267124 0.336492 0.105470
0.315801 0.322332 0.100954
0.356542 0.307774 0.096407
0.422644 0.317174 0.044068
0.478279 0.319554 0.003876
0.531792 0.320287 0.000000
0.574243 0.319005 0.000000
0.613916 0.318090 0.000000
0.650935 0.317510 0.000000
0.685817 0.317082 0.000000
0.718379 0.316991 0.000000
0.749325 0.317235 0.000000
0.778927 0.317998 0.000000
0.806546 0.319005 0.000000
0.832242 0.320165 0.000000
0.858701 0.322484 0.000000
0.884489 0.325719 0.000000
0.908385 0.329137 0.000000
0.931029 0.332769 0.000000
0.952392 0.336400 0.000000
0.972381 0.339971 0.000000
0.991485 0.342962 0.000000
1.000000 0.346166 0.000000
1.000000 0.349432 0.000000
1.000000 0.352392 0.000000
1.000000 0.355413 0.000000
1.000000 0.358129 0.000000
0.077729 0.397559 0.146059
0.089204 0.398199 0.146059
0.118318 0.400763 0.144289
0.161715 0.406012 0.142214
0.211826 0.413855 0.138277
0.272984 0.414832 0.130495
0.331212 0.401038 0.119081
0.379706 0.383703 0.105684
0.412055 0.357885 0.101381
0.476356 0.365087 0.029755
0.528283 0.364294 0.000000
0.577996 0.363531 0.000000
0.622156 0.361303 0.000000
0.658015 0.358160 0.000000
0.691798 0.355566 0.000000
0.723384 0.353277 0.000000
0.753628 0.351720 0.000000
0.782376 0.350683 0.000000
0.809171 0.349798 0.000000
0.835630 0.350134 0.000000
0.861784 0.351751 0.000000
0.885679 0.353307 0.000000
0.908324 0.355138 0.000000
0.930022 0.357580 0.000000
0.950744 0.360113 0.000000
0.970336 0.362463 0.000000
0.989075 0.364721 0.000000
1.000000 0.366918 0.000000
1.000000 0.369146 0.000000
1.000000 0.371710 0.000000
1.000000 0.373785 0.000000
1.000000 0.375952 0.000000
0.153811 0.458534 0.196536
0.157717 0.459174 0.196902
0.173861 0.460945 0.197177
0.202731 0.465156 0.196872
0.241489 0.471412 0.196262
0.289189 0.480232 0.196170
0.342657 0.473426 0.184176
0.393500 0.457740 0.165652
0.437171 0.439246 0.144869
0.465644 0.410132 0.129946
0.521843 0.410651 0.096803
0.572961 0.410040 0.050813
0.619562 0.407355 0.011475
0.663386 0.404517 0.000000
0.699306 0.400183 0.000000
0.730190 0.395666 0.000000
0.759609 0.392035 0.000000
0.787259 0.388952 0.000000
0.814817 0.387182 0.000000
0.841032 0.386389 0.000000
0.865080 0.385840 0.000000
0.887358 0.385809 0.000000
0.908873 0.386206 0.000000
0.929778 0.387121 0.000000
0.949889 0.388342 0.000000
0.969024 0.389410 0.000000
0.987396 0.390784 0.000000
1.000000 0.391852 0.000000
1.000000 0.393286 0.000000
1.000000 0.394629 0.000000
1.000000 0.396246 0.000000
1.000000 0.397467 0.000000
0.229099 0.513573 0.261479
0.231266 0.513909 0.261540
0.240635 0.515129 0.261997
0.259464 0.518578 0.262547
0.285679 0.523644 0.263951
0.321569 0.530785 0.266117
0.364569 0.538476 0.267002
0.408667 0.525109 0.248234
0.450721 0.508171 0.225742
0.488594 0.488838 0.199863
0.513298 0.458747 0.177157
0.560510 0.453193 0.152590
0.610925 0.452705 0.130800
0.654932 0.449561 0.118288
0.696773 0.446021 0.106874
0.736202 0.442695 0.095247
0.765957 0.437507 0.089357
0.795041 0.433936 0.088563
0.821561 0.430335 0.086915
0.845640 0.427405 0.089265
0.867674 0.424598 0.093202
0.888457 0.422217 0.097017
0.908537 0.420722 0.102266
0.928191 0.419745 0.104952
0.947204 0.418982 0.108675
0.965667 0.418738 0.111116
0.983764 0.418647 0.114290
1.000000 0.418830 0.115389
1.000000 0.419318 0.115145
1.000000 0.420111 0.114961
1.000000 0.420966 0.112612
1.000000 0.421759 0.107881
0.290959 0.562280 0.324041
0.291936 0.562585 0.324071
0.299260 0.563958 0.325322
0.312322 0.566918 0.326543
0.331945 0.571466 0.328771
0.359167 0.577996 0.331731
0.393286 0.586358 0.335851
0.431617 0.587304 0.331914
0.468513 0.573114 0.311437
0.504173 0.556054 0.287663
0.536858 0.535698 0.259159
0.557702 0.505394 0.231022
0.596185 0.494057 0.208652
0.646052 0.494423 0.188235
0.688777 0.491859 0.180026
0.730282 0.489601 0.174685
0.768521 0.486763 0.170504
0.800870 0.482185 0.167819
0.825223 0.476204 0.166476
0.847654 0.470588 0.165377
0.868498 0.465583 0.164981
0.888396 0.461555 0.166018
0.907958 0.458412 0.167361
0.927062 0.455634 0.168460
0.945678 0.453590 0.169314
0.963745 0.451972 0.170962
0.981720 0.450752 0.170932
0.999603 0.449928 0.171450
1.000000 0.449378 0.171176
1.000000 0.449104 0.170230
1.000000 0.449256 0.168551
1.000000 0.449348 0.165957
0.346075 0.609857 0.385534
0.347417 0.610346 0.385565
0.352148 0.611475 0.386236
0.362280 0.614069 0.388067
0.377630 0.618189 0.390417
0.398901 0.623682 0.394141
0.426184 0.631373 0.398566
0.459388 0.640558 0.404242
0.491920 0.633967 0.392645
0.523369 0.618982 0.371221
0.553887 0.601312 0.346197
0.583368 0.581842 0.318578
0.616693 0.566430 0.307073
0.648829 0.550469 0.284337
0.699123 0.552636 0.268681
0.740078 0.550011 0.262181
0.776364 0.545586 0.258518
0.809323 0.540612 0.256352
0.838834 0.535241 0.255467
0.862181 0.528405 0.252934
0.881956 0.521263 0.250584
0.900816 0.515099 0.248905
0.919188 0.509545 0.246586
0.937072 0.504967 0.245335
0.954559 0.500969 0.244236
0.971710 0.497322 0.242466
0.988678 0.493904 0.239872
1.000000 0.491188 0.237583
1.000000 0.488930 0.235569
1.000000 0.487068 0.233036
1.000000 0.485634 0.229953
1.000000 0.484321 0.226505
0.404944 0.662104 0.452918
0.405585 0.662135 0.453040
0.409430 0.662898 0.453285
0.416876 0.664820 0.454383
0.428565 0.667414 0.456336
0.445045 0.671382 0.459144
0.467445 0.677394 0.463966
0.495613 0.685420 0.471199
0.527672 0.693477 0.478737
0.554833 0.683101 0.461830
0.583459 0.671015 0.442176
0.612390 0.656184 0.419074
0.639704 0.637812 0.391028
0.656519 0.609155 0.359564
0.679896 0.586908 0.334325
0.725795 0.588251 0.321080
0.763607 0.584802 0.312627
0.795804 0.579187 0.308721
0.825010 0.573144 0.305943
0.852079 0.567285 0.304601
0.877592 0.561791 0.303685
0.896330 0.554376 0.300267
0.914336 0.547570 0.296788
0.932158 0.541619 0.293156
0.949523 0.536309 0.290410
0.966644 0.531731 0.287572
0.983612 0.527642 0.285039
1.000000 0.524041 0.282048
1.000000 0.520897 0.278965
1.000000 0.518486 0.276585
1.000000 0.516289 0.273472
1.000000 0.514641 0.270481
0.458747 0.702510 0.511009
0.459174 0.702510 0.511070
0.462074 0.703120 0.511376
0.467781 0.704311 0.512352
0.477180 0.706447 0.514122
0.490333 0.709621 0.517052
0.508293 0.714076 0.521477
0.530266 0.719722 0.527153
0.556451 0.726528 0.534752
0.581842 0.727687 0.533471
0.603601 0.717952 0.516258
0.627344 0.706294 0.496101
0.651972 0.692012 0.471687
0.675776 0.674281 0.442603
0.692470 0.648066 0.408240
0.706050 0.618341 0.377905
0.746578 0.618128 0.366278
0.781888 0.614221 0.356268
0.810880 0.608270 0.352789
0.837980 0.602258 0.349798
0.863676 0.596490 0.348302
0.888273 0.591333 0.347021
0.910277 0.585840 0.345800
0.927886 0.578973 0.341527
0.945251 0.572686 0.337194
0.962310 0.567254 0.333867
0.979248 0.562219 0.329870
0.996216 0.557824 0.326299
1.000000 0.554009 0.323033
1.000000 0.550866 0.320073
1.000000 0.548241 0.316991
1.000000 0.546075 0.314122
0.510338 0.734951 0.562982
0.510674 0.735103 0.562921
0.512596 0.735286 0.563134
0.516869 0.736110 0.563653
0.523735 0.737545 0.564874
0.533745 0.739773 0.566949
0.547356 0.743099 0.570336
0.564691 0.747738 0.575250
0.585657 0.753414 0.581628
0.610224 0.760464 0.589960
0.628168 0.756100 0.581109
0.645472 0.746426 0.563500
0.664424 0.734890 0.543053
0.684565 0.720790 0.518212
0.704982 0.703517 0.487465
0.721126 0.679835 0.451728
0.727413 0.645136 0.416724
0.763821 0.644038 0.406256
0.797269 0.640253 0.395605
0.824430 0.634516 0.392157
0.850217 0.628962 0.389899
0.874998 0.623835 0.387945
0.898802 0.619043 0.387060
0.921691 0.614679 0.386633
0.940917 0.608881 0.383246
0.957885 0.602655 0.378882
0.974884 0.596979 0.374365
0.991913 0.592157 0.370672
1.000000 0.587884 0.366979
1.000000 0.584497 0.364141
1.000000 0.581750 0.362036
1.000000 0.579461 0.359655
0.554955 0.761379 0.606226
0.555474 0.761532 0.606378
0.557244 0.762020 0.606806
0.560662 0.762875 0.607599
0.566552 0.764431 0.609125
0.574853 0.766629 0.611383
0.586114 0.769894 0.614893
0.600214 0.774136 0.619562
0.617304 0.779385 0.625330
0.637049 0.785580 0.632044
0.657893 0.791012 0.637507
0.669642 0.782315 0.623194
0.682582 0.771939 0.605432
0.696712 0.759609 0.583673
0.712062 0.744839 0.557183
0.728420 0.727352 0.526055
0.743618 0.705501 0.489601
0.748165 0.671809 0.454017
0.777737 0.666316 0.441627
0.809506 0.663203 0.432136
0.836698 0.658625 0.427863
0.861875 0.653956 0.426123
0.886076 0.649622 0.425238
0.909453 0.645441 0.424262
0.932006 0.641596 0.423896
0.953735 0.638056 0.424140
0.970947 0.632319 0.420050
0.988037 0.626856 0.415320
1.000000 0.622187 0.411719
1.000000 0.618219 0.408209
1.000000 0.614710 0.405280
1.000000 0.611749 0.402228
0.592004 0.784939 0.641901
0.592370 0.785092 0.641962
0.593683 0.785397 0.642267
0.596612 0.786252 0.643183
0.601312 0.787686 0.644526
0.608118 0.789822 0.646509
0.617121 0.792599 0.649470
0.628595 0.796384 0.653223
0.642206 0.800839 0.657801
0.658259 0.806241 0.663142
0.676478 0.812436 0.669245
0.691737 0.812680 0.667720
0.701747 0.803708 0.654017
0.712459 0.793149 0.637324
0.723964 0.780667 0.616724
0.736355 0.766079 0.591394
0.749905 0.749142 0.560998
0.764218 0.729244 0.525414
0.767086 0.696651 0.490578
0.791440 0.687526 0.474983
0.821805 0.685451 0.467109
0.849332 0.681941 0.461891
0.873686 0.678096 0.460883
0.897337 0.674372 0.460060
0.920165 0.670863 0.459724
0.942351 0.667597 0.459693
0.963867 0.664576 0.459968
0.983764 0.661128 0.459358
1.000000 0.656153 0.455421
1.000000 0.651728 0.451545
1.000000 0.647944 0.448371
1.000000 0.644648 0.445624
0.624506 0.807736 0.673365
0.624872 0.807889 0.673579
0.638911 0.817929 0.686397
0.641260 0.818753 0.687068
0.644953 0.819974 0.688136
0.650233 0.821714 0.689693
0.657252 0.824063 0.691829
0.666194 0.827176 0.694636
0.677180 0.831052 0.698207
0.690333 0.835721 0.702510
0.705318 0.841001 0.707393
0.722072 0.846769 0.712856
0.731563 0.841520 0.704860
0.739498 0.831907 0.691371
0.747890 0.820645 0.675471
0.756619 0.807614 0.656031
0.765866 0.792538 0.632136
0.776028 0.775540 0.603204
0.787533 0.756161 0.568322
0.789334 0.725093 0.533013
0.808743 0.712398 0.513817
0.837522 0.710842 0.506706
0.864927 0.708095 0.500328
0.888243 0.704524 0.498970
0.910765 0.700893 0.497719
0.932647 0.697353 0.496712
0.953887 0.694087 0.496132
0.974640 0.691035 0.495766
0.994934 0.688380 0.495888
1.000000 0.684749 0.493996
1.000000 0.680537 0.490517
1.000000 0.676936 0.487556
0.655238 0.831540 0.703212
0.656550 0.832486 0.704372
0.658686 0.833707 0.705776
0.661799 0.835233 0.707424
0.665766 0.836820 0.709163
0.670649 0.838682 0.710842
0.676814 0.840787 0.712856
0.684504 0.843534 0.715206
0.693874 0.846830 0.718227
0.705074 0.850767 0.721950
0.717891 0.855375 0.726223
0.732418 0.860380 0.730983
0.746883 0.863951 0.733944
0.753292 0.855833 0.722469
0.760220 0.846372 0.709163
0.767636 0.835447 0.693751
0.775601 0.822873 0.675715
0.783993 0.808682 0.654261
0.793179 0.792660 0.628412
0.803494 0.774594 0.597192
0.805203 0.745937 0.563378
0.821103 0.731044 0.542046
0.849027 0.730404 0.536126
0.876341 0.728573 0.529473
0.899260 0.725612 0.527825
0.921294 0.722591 0.527001
0.942657 0.719722 0.526268
0.963561 0.717037 0.526207
0.984039 0.714687 0.526574
1.000000 0.712703 0.527214
1.000000 0.711025 0.528710
1.000000 0.707485 0.526299
0.677546 0.849180 0.724727
0.678798 0.850034 0.725795
0.680873 0.851225 0.727230
0.683650 0.852628 0.728756
0.687282 0.854154 0.730404
0.691646 0.855802 0.732021
0.696986 0.857725 0.733761
0.703578 0.860014 0.735866
0.711757 0.862882 0.738552
0.721340 0.866209 0.741756
0.732540 0.870115 0.745480
0.745083 0.874449 0.749783
0.758999 0.879088 0.754269
0.769162 0.878172 0.751827
0.774716 0.870268 0.740444
0.780850 0.861143 0.727382
0.787503 0.850584 0.712245
0.794644 0.838621 0.694942
0.802396 0.825162 0.675349
0.810697 0.810086 0.652155
0.819852 0.793118 0.624018
0.821195 0.766445 0.593042
0.833768 0.749355 0.569116
0.860716 0.749477 0.564111
0.887083 0.748409 0.558434
0.910521 0.746212 0.555688
0.931975 0.743801 0.555047
0.952972 0.741604 0.554986
0.973571 0.739651 0.555566
0.993744 0.738003 0.556512
1.000000 0.736599 0.558221
1.000000 0.735256 0.559716
0.699458 0.866178 0.745510
0.700649 0.866941 0.746487
0.702419 0.867857 0.747646
0.704829 0.869047 0.748989
0.707942 0.870359 0.750423
0.711818 0.871794 0.751858
0.716426 0.873472 0.753445
0.722316 0.875486 0.755428
0.729366 0.877958 0.757778
0.737881 0.880888 0.760678
0.747646 0.884184 0.764065
0.758633 0.887907 0.767849
0.770840 0.891997 0.772000
0.784146 0.896178 0.776486
0.790066 0.891386 0.768978
0.795010 0.883940 0.757809
0.800717 0.875456 0.745296
0.807126 0.865812 0.730983
0.814176 0.855009 0.715114
0.821866 0.842924 0.697261
0.830137 0.829282 0.676783
0.838926 0.813962 0.652644
0.840146 0.789639 0.625452
0.849729 0.771023 0.600885
0.876005 0.772152 0.597406
0.901701 0.772183 0.593164
0.925628 0.771115 0.590082
0.946624 0.769711 0.590753
0.967163 0.768460 0.591974
0.987243 0.767361 0.593530
1.000000 0.766415 0.595483
1.000000 0.765408 0.597620
0.726772 0.885985 0.770779
0.727321 0.886259 0.771206
0.728267 0.886687 0.771664
0.729763 0.887236 0.772305
0.732021 0.888029 0.773129
0.734951 0.889006 0.774014
0.738888 0.890257 0.775326
0.743893 0.891936 0.777005
0.750118 0.893980 0.779110
0.757565 0.896483 0.781796
0.766110 0.899321 0.784848
0.775784 0.902495 0.788357
0.786435 0.905913 0.792142
0.798062 0.909483 0.796201
0.808621 0.911437 0.797848
0.812222 0.905364 0.788113
0.816434 0.898375 0.777096
0.821347 0.890471 0.764797
0.827024 0.881468 0.750881
0.833402 0.871275 0.735409
0.840391 0.859739 0.717861
0.847929 0.846799 0.698238
0.855924 0.832151 0.675532
0.856596 0.809110 0.650446
0.863066 0.788571 0.624781
0.888334 0.790219 0.621851
0.913298 0.790921 0.618585
0.937591 0.790768 0.615290
0.958160 0.790066 0.616693
0.978180 0.789456 0.618494
0.997589 0.788754 0.620539
1.000000 0.788083 0.622797
0.747311 0.900175 0.789456
0.747799 0.900389 0.789822
0.748653 0.900786 0.790280
0.750057 0.901274 0.790860
0.752071 0.901946 0.791592
0.754696 0.902770 0.792508
0.758145 0.903899 0.793668
0.762631 0.905333 0.795193
0.768063 0.907073 0.797147
0.774594 0.909178 0.799557
0.782101 0.911528 0.802365
0.790677 0.914214 0.805570
0.800046 0.917082 0.809018
0.810300 0.920165 0.812802
0.821317 0.923369 0.816892
0.827939 0.922148 0.814054
0.831083 0.916655 0.804532
0.834897 0.910430 0.794003
0.839445 0.903258 0.782010
0.844816 0.895140 0.768795
0.850889 0.885893 0.753933
0.857694 0.875425 0.737362
0.865141 0.863584 0.718624
0.873075 0.850278 0.697444
0.871916 0.826719 0.671382
0.877775 0.807187 0.647639
0.900450 0.807004 0.643122
0.924743 0.808347 0.640833
0.948669 0.808927 0.638270
0.969451 0.808804 0.639338
0.988922 0.808652 0.641779
1.000000 0.808438 0.644495
0.770871 0.914885 0.810361
0.771542 0.915190 0.810849
0.772244 0.915465 0.811246
0.773251 0.915740 0.811521
0.774624 0.916075 0.811887
0.776516 0.916594 0.812345
0.779080 0.917235 0.813016
0.782406 0.918120 0.813931
0.786770 0.919310 0.815305
0.791989 0.920806 0.817014
0.798093 0.922515 0.819089
0.805173 0.924559 0.821653
0.813138 0.926757 0.824491
0.821775 0.929107 0.827573
0.831113 0.931579 0.830900
0.841062 0.934142 0.834531
0.843656 0.930327 0.827054
0.846220 0.925292 0.817594
0.849638 0.919615 0.807218
0.854032 0.913207 0.795834
0.859220 0.906004 0.783230
0.865202 0.897704 0.769131
0.871824 0.888182 0.753079
0.879088 0.877256 0.734981
0.886870 0.864775 0.714382
0.888060 0.844785 0.692164
0.893919 0.826688 0.670588
0.913603 0.824094 0.663905
0.937102 0.825742 0.662074
0.960174 0.826719 0.660243
0.980987 0.826993 0.660670
0.999481 0.827054 0.663600
0.788663 0.925231 0.825834
0.789212 0.925505 0.826291
0.789975 0.925750 0.826719
0.790982 0.926085 0.827115
0.792386 0.926482 0.827634
0.794369 0.927001 0.828275
0.796963 0.927733 0.829221
0.800351 0.928649 0.830411
0.804440 0.929808 0.831968
0.809354 0.931151 0.833860
0.814969 0.932677 0.835966
0.821347 0.934417 0.838437
0.828336 0.936248 0.841123
0.835935 0.938170 0.843992
0.843992 0.940154 0.847013
0.852537 0.942229 0.850217
0.859342 0.942748 0.850553
0.860807 0.938964 0.842405
0.863035 0.934630 0.833433
0.866148 0.929717 0.823514
0.870146 0.924132 0.812558
0.874998 0.917784 0.800412
0.880735 0.910491 0.786893
0.887297 0.902098 0.771572
0.894682 0.892485 0.754391
0.902892 0.881498 0.734951
0.905425 0.863981 0.714229
0.911559 0.847227 0.694240
0.929137 0.843076 0.686397
0.951659 0.845121 0.685634
0.973571 0.846372 0.684779
0.993896 0.846830 0.684871
0.808743 0.935576 0.842985
0.809079 0.935698 0.843229
0.809567 0.935821 0.843473
0.810391 0.936065 0.843778
0.811551 0.936339 0.844175
0.813199 0.936767 0.844724
0.815396 0.937316 0.845518
0.818235 0.938018 0.846525
0.821744 0.938903 0.847837
0.825956 0.939940 0.849454
0.830808 0.941161 0.851377
0.836332 0.942504 0.853544
0.842374 0.943999 0.855955
0.848966 0.945525 0.858518
0.855955 0.947112 0.861234
0.863340 0.948730 0.864164
0.871183 0.950408 0.867247
0.874479 0.949126 0.863767
0.875700 0.945922 0.856046
0.877714 0.942290 0.847562
0.880552 0.938109 0.838224
0.884245 0.933318 0.827726
0.888792 0.927825 0.816129
0.894285 0.921447 0.802945
0.900755 0.914092 0.788235
0.908232 0.905730 0.771756
0.916777 0.896147 0.753262
0.920806 0.880858 0.733577
0.927001 0.865324 0.714839
0.942809 0.859892 0.705989
0.964416 0.862181 0.706111
0.985138 0.863706 0.706416
0.826932 0.943938 0.858274
0.827207 0.943999 0.858488
0.827665 0.944152 0.858701
0.828458 0.944335 0.859068
0.829679 0.944610 0.859586
0.831418 0.945068 0.860349
0.833921 0.945708 0.861540
0.837064 0.946502 0.863035
0.840848 0.947448 0.864897
0.845274 0.948516 0.867033
0.850278 0.949706 0.869474
0.855711 0.950988 0.872038
0.861479 0.952270 0.874784
0.867491 0.953552 0.877531
0.873686 0.954833 0.880308
0.880034 0.956085 0.883055
0.886595 0.957305 0.885863
0.893278 0.958495 0.888640
0.893584 0.956359 0.882414
0.894499 0.953948 0.875395
0.896086 0.951141 0.867704
0.898436 0.947875 0.859068
0.901518 0.944091 0.849271
0.905577 0.939727 0.838254
0.910735 0.934600 0.825864
0.917082 0.928710 0.812009
0.924743 0.921935 0.796475
0.933745 0.914244 0.779324
0.939635 0.901884 0.760983
0.946258 0.888090 0.743709
0.960662 0.881987 0.734371
0.980255 0.884062 0.735592
0.850614 0.952728 0.877745
0.850706 0.952758 0.877775
0.850919 0.952789 0.877836
0.851408 0.952880 0.878019
0.852262 0.953063 0.878294
0.853452 0.953277 0.878782
0.855131 0.953643 0.879454
0.857298 0.954070 0.880369
0.859983 0.954589 0.881529
0.863157 0.955261 0.882902
0.866819 0.955962 0.884550
0.870939 0.956756 0.886381
0.875456 0.957580 0.888396
0.880247 0.958465 0.890501
