20 Preset/Ins style/【3】LUT video cho PR-AE-FCPX/Tone (10).cube
# Created by Adobe Lightroom plugin Export LUT (1.24.0)
# www.johnrellis.com/lightroom/exportlut.htm
# Preset: INS网红琥珀色-素材江湖08
# Color profile: C:\Program Files (x86)\Common Files\Adobe\Color\Profiles\Recommended\VideoHD.icc
LUT_3D_SIZE 8
DOMAIN_MIN 0.000000 0.000000 0.000000
DOMAIN_MAX 0.903226 0.903226 0.903226
0.000000 0.000000 0.000000
0.223484 0.000000 0.000000
0.545098 0.000000 0.000000
0.767514 0.000000 0.000000
0.905791 0.000000 0.000000
0.999756 0.000000 0.000000
1.000000 0.000000 0.000000
1.000000 0.000000 0.000000
0.092866 0.160372 0.095216
0.175265 0.159976 0.136233
0.510155 0.154299 0.095277
0.756100 0.000000 0.000000
0.898802 0.000000 0.000000
0.989227 0.000000 0.000000
1.000000 0.000000 0.000000
1.000000 0.000000 0.000000
0.225376 0.380774 0.098390
0.304753 0.387152 0.138735
0.489723 0.430579 0.328740
0.733913 0.452857 0.259190
0.893767 0.416205 0.187991
0.986267 0.382910 0.147768
1.000000 0.372320 0.148287
1.000000 0.387030 0.185061
0.428534 0.614649 0.163394
0.479164 0.621332 0.206577
0.633112 0.650965 0.368109
0.762325 0.721431 0.629084
0.866270 0.706386 0.545861
0.938659 0.659907 0.464240
1.000000 0.624933 0.421973
1.000000 0.614527 0.426123
0.581140 0.740017 0.309697
0.607324 0.744839 0.337957
0.695521 0.765103 0.450263
0.795895 0.798001 0.620844
0.847135 0.829587 0.772763
0.895537 0.808835 0.712520
0.935363 0.778408 0.662654
0.995727 0.769986 0.649195
0.678279 0.819852 0.456641
0.694789 0.824216 0.480262
0.743465 0.832853 0.550500
0.809476 0.845609 0.658198
0.863371 0.861265 0.768307
0.897887 0.881315 0.839658
0.928435 0.872862 0.810941
0.961151 0.864439 0.792966
0.740993 0.867765 0.591852
0.749569 0.869108 0.603449
0.779721 0.873014 0.643214
0.827420 0.880705 0.709377
0.876036 0.891508 0.781979
0.914855 0.905455 0.836637
0.939361 0.918334 0.882200
0.965545 0.913176 0.859525
0.819699 0.917540 0.744381
0.822019 0.917632 0.742672
0.835355 0.918822 0.744717
0.867399 0.923796 0.778958
0.898253 0.927153 0.809262
0.932891 0.936034 0.846311
0.958587 0.943816 0.884459
0.968566 0.946258 0.913939
0.106020 0.103975 0.131167
0.221561 0.000000 0.111116
0.523644 0.000000 0.002991
0.742153 0.000000 0.000000
0.890074 0.000000 0.000000
0.982300 0.000000 0.000000
1.000000 0.000000 0.000000
1.000000 0.000000 0.000000
0.140200 0.151247 0.148501
0.198795 0.178347 0.160616
0.490455 0.188785 0.123781
0.738552 0.129519 0.047791
0.889128 0.000000 0.000000
0.980194 0.000000 0.000000
1.000000 0.000000 0.000000
1.000000 0.101228 0.000000
0.259739 0.384192 0.151339
0.327398 0.388647 0.182773
0.488563 0.427192 0.326024
0.719905 0.454017 0.262974
0.878202 0.424353 0.197696
0.973968 0.392187 0.156832
1.000000 0.373297 0.145388
1.000000 0.379522 0.174441
0.427710 0.600092 0.193149
0.476570 0.606989 0.226261
0.623468 0.635492 0.362371
0.744472 0.698512 0.601678
0.852049 0.686519 0.519066
0.928923 0.645533 0.441840
0.996185 0.611353 0.398810
1.000000 0.599054 0.401770
0.584741 0.737026 0.317235
0.609827 0.741238 0.341375
0.694179 0.759915 0.447303
0.790311 0.790677 0.611475
0.842618 0.822690 0.761349
0.892271 0.802548 0.702174
0.932799 0.772335 0.652735
0.993072 0.762692 0.637964
0.677302 0.816648 0.452399
0.691188 0.819272 0.471107
0.740078 0.828580 0.541802
0.806577 0.842222 0.650965
0.860685 0.858305 0.763272
0.895598 0.879149 0.837064
0.926329 0.870756 0.808316
0.958923 0.861540 0.789120
0.737270 0.865080 0.583886
0.744656 0.865690 0.593225
0.774899 0.869596 0.633600
0.823545 0.877684 0.702052
0.873533 0.889311 0.778439
0.912566 0.903410 0.834379
0.937072 0.916197 0.879698
0.963012 0.910674 0.856596
0.814359 0.914855 0.737758
0.817594 0.915373 0.737209
0.830747 0.916442 0.738399
0.863859 0.921599 0.774655
0.900023 0.928740 0.811154
0.933288 0.936400 0.846708
0.958251 0.943511 0.884062
0.968383 0.946014 0.913634
0.200015 0.176455 0.281132
0.275944 0.092683 0.318700
0.537957 0.000000 0.250340
0.761807 0.000000 0.184878
0.899535 0.000000 0.112276
0.985138 0.000000 0.000000
1.000000 0.142061 0.000000
1.000000 0.162844 0.000000
0.245212 0.250523 0.283879
0.290135 0.208560 0.325994
0.565148 0.000000 0.254124
0.766018 0.000000 0.194339
0.896361 0.000000 0.138674
0.981018 0.165255 0.068666
1.000000 0.224308 0.000000
1.000000 0.230808 0.003693
0.329625 0.405493 0.369604
0.347204 0.429725 0.352331
0.532250 0.467781 0.409125
0.740993 0.462989 0.344244
0.883421 0.439460 0.271366
0.972290 0.430549 0.211856
1.000000 0.422461 0.188144
1.000000 0.415045 0.205051
0.448341 0.620111 0.362158
0.494789 0.624659 0.359289
0.640253 0.656062 0.480079
0.754116 0.713191 0.634546
0.849943 0.693324 0.549920
0.926329 0.659449 0.469520
0.992523 0.630518 0.427131
1.000000 0.615015 0.424048
0.588006 0.738186 0.407294
0.614191 0.743679 0.430488
0.699397 0.764797 0.519799
0.794827 0.797543 0.653040
0.845121 0.826596 0.770138
0.892790 0.805539 0.707210
0.932616 0.776761 0.659754
0.992737 0.766567 0.643824
0.679011 0.815976 0.497475
0.693202 0.818967 0.514092
0.742916 0.828733 0.575097
0.808621 0.842496 0.669215
0.861051 0.858213 0.767575
0.895048 0.878172 0.835508
0.926055 0.870420 0.807919
0.959472 0.862028 0.789700
0.741543 0.865965 0.594690
0.749111 0.866728 0.603479
0.779049 0.870481 0.640162
0.825834 0.878141 0.705531
0.874388 0.889433 0.779721
0.913146 0.903716 0.835264
0.938109 0.916808 0.880156
0.964721 0.911925 0.857908
0.813260 0.915007 0.739406
0.815244 0.914885 0.737087
0.827237 0.915618 0.734188
0.862181 0.921324 0.772824
0.899016 0.928496 0.810178
0.933288 0.936706 0.846677
0.958648 0.943938 0.884428
0.968780 0.946288 0.913848
0.317113 0.255222 0.456764
0.355932 0.213718 0.477668
0.624598 0.000000 0.538842
0.803922 0.000000 0.375921
0.919677 0.000000 0.280858
0.963409 0.000000 0.207004
1.000000 0.000000 0.129152
1.000000 0.000000 0.065766
0.359503 0.331151 0.474556
0.386358 0.292607 0.493263
0.645472 0.000000 0.546532
0.822751 0.000000 0.378820
0.913207 0.000000 0.293828
0.972961 0.000000 0.213901
1.000000 0.000000 0.150912
1.000000 0.172671 0.113893
0.472877 0.472541 0.472786
0.489265 0.488869 0.489143
0.619471 0.410468 0.545678
0.785641 0.358007 0.443549
0.900633 0.306554 0.357580
0.978576 0.333623 0.299596
1.000000 0.373022 0.262486
1.000000 0.408698 0.237766
0.551904 0.628687 0.595056
0.556573 0.640558 0.594598
0.627253 0.663752 0.577600
0.749264 0.708858 0.658167
0.835203 0.676265 0.587823
0.925658 0.645808 0.519829
0.991241 0.618280 0.461921
1.000000 0.612360 0.433814
0.607568 0.754452 0.590448
0.619165 0.754330 0.581201
0.692622 0.766659 0.599145
0.796567 0.805631 0.714656
0.846220 0.831998 0.789364
0.886320 0.807126 0.731319
0.932433 0.778042 0.675319
0.994507 0.768490 0.647333
0.685908 0.821408 0.607141
0.695369 0.822751 0.604456
0.740230 0.829648 0.632807
0.810330 0.845731 0.718105
0.864225 0.864805 0.800778
0.898863 0.882658 0.845121
0.926574 0.871458 0.812222
0.961151 0.862119 0.789700
0.740902 0.866667 0.662043
0.745144 0.866789 0.658473
0.770199 0.869078 0.665858
0.824216 0.878935 0.729671
0.876127 0.892027 0.794369
0.915496 0.906279 0.841794
0.939208 0.917327 0.880278
0.966522 0.912474 0.858152
0.812955 0.916838 0.752346
0.815061 0.916899 0.749935
0.824979 0.917388 0.739437
0.857877 0.921599 0.768765
0.896605 0.928679 0.807889
0.932372 0.936919 0.845426
0.958862 0.944335 0.884398
0.969482 0.946746 0.914122
0.448951 0.362585 0.604334
0.468635 0.335302 0.613611
0.592523 0.144350 0.641444
0.793698 0.000000 0.617853
0.945617 0.000000 0.490455
1.000000 0.000000 0.375769
1.000000 0.000000 0.293126
1.000000 0.000000 0.217716
0.478096 0.416907 0.613519
0.493294 0.390814 0.622583
0.606012 0.236088 0.649561
0.801907 0.000000 0.623987
0.949737 0.000000 0.495552
1.000000 0.000000 0.384497
1.000000 0.000000 0.297642
1.000000 0.000000 0.221347
0.559960 0.566491 0.619318
0.563958 0.561517 0.633539
0.619257 0.470802 0.665309
0.801602 0.304143 0.639368
0.932799 0.327825 0.528038
0.977234 0.135103 0.417090
1.000000 0.000000 0.319158
1.000000 0.000000 0.243046
0.639796 0.642939 0.640711
0.646326 0.649989 0.647395
0.673091 0.678798 0.674769
0.764889 0.658076 0.674037
0.858701 0.595514 0.606134
0.936034 0.565332 0.541680
1.000000 0.534386 0.474891
1.000000 0.514427 0.417212
0.686549 0.751431 0.721706
0.688594 0.756588 0.722744
0.694545 0.771786 0.712642
0.782498 0.799863 0.747646
0.835721 0.820371 0.786496
0.871885 0.785794 0.728328
0.937346 0.754910 0.675044
1.000000 0.732570 0.631128
0.703487 0.823545 0.719051
0.706569 0.823819 0.715694
0.722744 0.823606 0.698756
0.790494 0.836362 0.734493
0.856931 0.862119 0.815549
0.896513 0.881926 0.850919
0.921111 0.866758 0.816892
0.958953 0.853025 0.786007
0.752102 0.866758 0.746365
0.753048 0.866575 0.742916
0.760311 0.866514 0.729366
0.797024 0.870542 0.729702
0.866392 0.889250 0.804685
0.914763 0.908904 0.856504
0.941619 0.921050 0.889586
0.966491 0.910552 0.857206
0.804990 0.914031 0.793729
0.806485 0.914092 0.792020
0.814023 0.914611 0.784878
0.834562 0.917144 0.771542
0.882689 0.925536 0.804776
0.926879 0.935729 0.843870
0.957092 0.943267 0.881621
0.969238 0.946044 0.912993
0.574334 0.478370 0.706203
0.583642 0.459907 0.710292
0.638209 0.359625 0.722713
0.796262 0.000000 0.741634
0.904997 0.000000 0.684077
1.000000 0.000000 0.582300
1.000000 0.000000 0.469886
1.000000 0.000000 0.388342
0.583215 0.507652 0.705806
0.590234 0.489418 0.709255
0.640711 0.398901 0.722713
0.794705 0.000000 0.740780
0.903349 0.000000 0.683131
1.000000 0.000000 0.583246
1.000000 0.000000 0.474189
1.000000 0.000000 0.389807
0.633112 0.622889 0.717067
0.632959 0.610224 0.720272
0.657496 0.545953 0.733364
0.795346 0.331243 0.751522
0.902800 0.214939 0.694728
1.000000 0.329412 0.605951
1.000000 0.174472 0.501946
1.000000 0.000000 0.404944
0.710903 0.719844 0.713527
0.713832 0.723018 0.716548
0.704921 0.715328 0.742611
0.768734 0.626368 0.767849
0.879301 0.597833 0.724697
0.957183 0.557610 0.650416
1.000000 0.405371 0.539055
1.000000 0.199008 0.427405
0.740322 0.751675 0.743679
0.743404 0.754971 0.746822
0.756161 0.768582 0.759854
0.779416 0.792844 0.783383
0.828794 0.771725 0.764736
0.889433 0.730282 0.716152
0.955779 0.680568 0.656611
1.000000 0.635065 0.594263
0.776150 0.821103 0.800473
0.777768 0.823392 0.801846
0.780850 0.829679 0.802914
0.785122 0.836332 0.791897
0.848203 0.859342 0.828977
0.888518 0.874876 0.850858
0.908873 0.847959 0.808591
0.974517 0.830716 0.773098
0.797330 0.869688 0.821988
0.796994 0.870542 0.820829
0.795651 0.871458 0.814145
0.802090 0.872374 0.801297
0.843595 0.881346 0.807919
0.912718 0.911772 0.872007
0.945922 0.926940 0.902953
0.968963 0.910643 0.865690
0.817655 0.915190 0.841184
0.817685 0.915099 0.839841
0.819547 0.915679 0.834958
0.827298 0.917479 0.825254
0.849729 0.919432 0.806546
0.913603 0.934234 0.848844
0.957092 0.947845 0.896513
0.971801 0.949950 0.920714
0.670680 0.591821 0.782681
0.675380 0.580591 0.784939
0.700862 0.520623 0.791897
0.784207 0.343786 0.803342
0.934478 0.000000 0.808255
0.987396 0.000000 0.737819
1.000000 0.000000 0.647425
1.000000 0.000000 0.557549
0.672724 0.606775 0.781033
0.676875 0.596338 0.783413
0.699977 0.540154 0.790372
0.779934 0.374792 0.801480
0.932341 0.000000 0.807309
0.984863 0.000000 0.736355
1.000000 0.000000 0.647089
1.000000 0.000000 0.558526
0.694148 0.674647 0.784207
0.694789 0.666011 0.785824
0.705898 0.622217 0.792081
0.770657 0.497658 0.803220
0.930114 0.000000 0.812497
0.980896 0.000000 0.742214
1.000000 0.282719 0.662440
1.000000 0.243931 0.582788
0.737209 0.754971 0.782315
0.735531 0.752041 0.784878
0.735988 0.738766 0.795987
0.755917 0.665492 0.806607
0.901640 0.441474 0.819150
0.951995 0.485176 0.755184
1.000000 0.549676 0.697627
1.000000 0.421546 0.613306
0.782681 0.796170 0.786679
0.783627 0.797177 0.787625
0.788998 0.802609 0.793027
0.786862 0.802914 0.808103
0.829313 0.717983 0.822843
0.908995 0.708705 0.783597
0.974426 0.661097 0.723568
1.000000 0.526818 0.632136
0.804562 0.817990 0.808530
0.805844 0.819211 0.809812
0.810941 0.824125 0.814847
0.820554 0.833249 0.824308
0.835203 0.846799 0.838621
0.864622 0.824949 0.821592
0.919493 0.785885 0.777218
1.000000 0.739986 0.726558
0.835996 0.860899 0.850217
0.836332 0.861875 0.850980
0.837156 0.865537 0.853422
0.839200 0.872618 0.856870
0.841733 0.882078 0.853330
0.895903 0.903563 0.877043
0.940276 0.921935 0.905119
0.966583 0.893278 0.857267
0.850980 0.909178 0.881743
0.851286 0.909880 0.881834
0.852934 0.912902 0.882292
0.855467 0.918212 0.880949
0.855985 0.923308 0.869322
0.877989 0.925658 0.847379
0.953674 0.952117 0.912322
0.978637 0.961242 0.942168
0.761257 0.721065 0.847318
0.762692 0.714839 0.848447
0.770565 0.682307 0.852018
0.806607 0.597498 0.860197
0.906889 0.340764 0.872251
1.000000 0.000000 0.859403
1.000000 0.000000 0.794217
1.000000 0.000000 0.721889
0.761349 0.727260 0.845823
0.762539 0.721401 0.846952
0.769711 0.690608 0.850767
0.803464 0.608667 0.858701
0.902129 0.366644 0.870756
1.000000 0.000000 0.858854
1.000000 0.000000 0.793179
1.000000 0.000000 0.722103
0.769741 0.759915 0.843565
0.769497 0.754635 0.844511
0.771389 0.728450 0.848020
0.795712 0.661830 0.856229
0.884276 0.470497 0.867826
1.000000 0.000000 0.861387
1.000000 0.000000 0.794308
1.000000 0.176699 0.730068
0.790341 0.804898 0.839109
0.790219 0.803281 0.840482
0.788144 0.791379 0.844724
0.789548 0.744961 0.851743
0.848539 0.618219 0.862669
1.000000 0.000000 0.870207
1.000000 0.291936 0.799496
1.000000 0.462135 0.749081
0.826932 0.839231 0.830564
0.827207 0.839597 0.831327
0.819486 0.835203 0.836545
0.810758 0.824094 0.847410
0.814694 0.766171 0.856779
0.951751 0.526482 0.870390
0.994110 0.564019 0.811185
1.000000 0.646052 0.778897
0.837461 0.848875 0.840818
0.837705 0.849119 0.841093
0.839322 0.850584 0.842649
0.843381 0.854276 0.846616
0.844450 0.856931 0.855222
0.857084 0.796872 0.868070
0.943267 0.760708 0.841428
1.000000 0.758816 0.811704
0.854612 0.864286 0.857450
0.855100 0.864714 0.857939
0.857328 0.866728 0.860105
0.862364 0.871122 0.864927
0.870848 0.878538 0.873106
0.884215 0.890105 0.885954
0.923827 0.877745 0.886442
0.988098 0.800473 0.815457
0.894469 0.898894 0.895781
0.895048 0.899413 0.896330
0.896544 0.902007 0.898985
0.897917 0.907805 0.904417
0.900542 0.916564 0.911803
0.904845 0.928527 0.918547
0.920104 0.937377 0.906126
0.982147 0.968231 0.958984
