20 Preset/Ins style/【3】LUT video cho PR-AE-FCPX/Tone (5).cube
# Created by Adobe Lightroom plugin Export LUT (1.24.0)
# www.johnrellis.com/lightroom/exportlut.htm
# Preset: INS网红琥珀色-素材江湖03
# Color profile: C:\Program Files (x86)\Common Files\Adobe\Color\Profiles\Recommended\VideoHD.icc
LUT_3D_SIZE 5
DOMAIN_MIN 0.000000 0.000000 0.000000
DOMAIN_MAX 0.903226 0.903226 0.903226
0.082856 0.058595 0.033234
0.370642 0.090333 0.030365
0.860166 0.249485 0.000000
1.000000 0.528252 0.386572
1.000000 0.692012 0.616876
0.175235 0.236393 0.097200
0.325078 0.277745 0.151614
0.820920 0.429450 0.200534
0.998444 0.590082 0.445289
1.000000 0.726802 0.653559
0.448585 0.565301 0.343847
0.525658 0.576654 0.377050
0.721736 0.660639 0.534783
0.919646 0.751339 0.646113
1.000000 0.799222 0.725338
0.653956 0.763455 0.594568
0.689326 0.771725 0.616632
0.763149 0.783841 0.674128
0.847105 0.819547 0.751247
0.956939 0.873686 0.814145
0.790127 0.882048 0.768582
0.803708 0.884916 0.776516
0.836545 0.885374 0.791196
0.885161 0.897093 0.831357
0.937407 0.920195 0.874022
0.071321 0.108431 0.160433
0.274388 0.162783 0.186618
0.807279 0.210513 0.228061
0.987518 0.524102 0.449470
1.000000 0.687831 0.631922
0.180545 0.259770 0.205386
0.367773 0.322515 0.269108
0.785580 0.437537 0.342229
0.966125 0.587335 0.497230
1.000000 0.716457 0.657496
0.448249 0.558770 0.402686
0.532006 0.580713 0.436133
0.700282 0.643366 0.546105
0.903502 0.738277 0.648219
0.993896 0.799954 0.737789
0.654017 0.760525 0.616327
0.688869 0.769711 0.637476
0.764553 0.785397 0.690883
0.845182 0.819699 0.758999
0.954742 0.874083 0.819638
0.785580 0.880095 0.771176
0.799039 0.882750 0.778561
0.844785 0.893217 0.806668
0.889647 0.902098 0.840696
0.940917 0.924681 0.881498
0.000000 0.196078 0.428229
0.253696 0.253330 0.460731
0.652796 0.444221 0.553613
0.943572 0.550011 0.621698
1.000000 0.713039 0.715694
0.000000 0.320745 0.458686
0.331365 0.369055 0.504692
0.676936 0.519432 0.585687
0.938750 0.589593 0.628351
1.000000 0.740871 0.734463
0.382116 0.556725 0.519677
0.489540 0.585229 0.553124
0.727596 0.693233 0.673152
0.884581 0.751431 0.721920
0.977813 0.808530 0.781033
0.627710 0.749050 0.656336
0.672267 0.758938 0.681117
0.767330 0.791836 0.734981
0.844907 0.826505 0.788998
0.951507 0.876219 0.837675
0.751217 0.867002 0.767941
0.769253 0.871397 0.777646
0.828672 0.887144 0.810971
0.884428 0.900267 0.847044
0.937255 0.922942 0.885863
0.000000 0.312474 0.651148
0.097658 0.350469 0.677577
0.636744 0.543114 0.716426
0.816922 0.679561 0.760922
0.961578 0.752468 0.807309
0.000000 0.383551 0.653437
0.232822 0.417670 0.677455
0.648768 0.579828 0.720089
0.815122 0.696712 0.762997
0.958831 0.761624 0.808530
0.221683 0.554376 0.664546
0.356878 0.570581 0.678553
0.676020 0.674281 0.743130
0.824033 0.755947 0.783474
0.962310 0.802579 0.823484
0.507225 0.718715 0.690822
0.557641 0.726253 0.700679
0.707729 0.764889 0.748531
0.852476 0.841947 0.832212
0.954620 0.878294 0.864286
0.631769 0.838499 0.746151
0.660273 0.843626 0.756222
0.760739 0.868162 0.801083
0.879332 0.905455 0.866087
0.937987 0.927733 0.902953
0.000000 0.438453 0.817838
0.058473 0.464637 0.823239
0.607507 0.594232 0.834348
0.819699 0.769558 0.849516
0.904814 0.817838 0.873869
0.000000 0.466590 0.811612
0.109407 0.490028 0.817624
0.607874 0.609949 0.832120
0.819455 0.774075 0.849332
0.904814 0.823056 0.875029
0.000000 0.547509 0.799863
0.000000 0.553155 0.802365
0.573999 0.646906 0.827512
0.819974 0.791440 0.854063
0.910704 0.847715 0.885588
0.000000 0.706294 0.804257
0.000000 0.707546 0.805814
0.485023 0.722957 0.818173
0.799496 0.812833 0.866423
0.923308 0.884764 0.903929
0.417853 0.841978 0.813046
0.464973 0.842466 0.814755
0.612421 0.850217 0.827573
0.789853 0.874205 0.860410
0.943359 0.939666 0.935088
