20 Preset/Ins style/【3】LUT video cho PR-AE-FCPX/Tone (11).cube
# Created by Adobe Lightroom plugin Export LUT (1.24.0)
# www.johnrellis.com/lightroom/exportlut.htm
# Preset: INS网红琥珀色-素材江湖09
# Color profile: C:\Program Files (x86)\Common Files\Adobe\Color\Profiles\Recommended\VideoHD.icc
LUT_3D_SIZE 32
DOMAIN_MIN 0.0 0.0 0.0
DOMAIN_MAX 1.0 1.0 1.0
0.000000 0.000000 0.000000
0.000000 0.000000 0.000000
0.000000 0.000000 0.000000
0.139040 0.000000 0.018006
0.227817 0.000000 0.058198
0.310307 0.000000 0.095033
0.381628 0.000000 0.101411
0.443702 0.000000 0.100130
0.499153 0.000000 0.094423
0.549279 0.000000 0.090394
0.596185 0.000000 0.095338
0.640955 0.000000 0.101320
0.684199 0.000000 0.107210
0.725856 0.000000 0.113588
0.765469 0.000000 0.120485
0.801205 0.000000 0.128389
0.833219 0.000000 0.136782
0.861143 0.000000 0.146609
0.888914 0.000000 0.158175
0.915007 0.000000 0.171633
0.938323 0.000000 0.184878
0.959319 0.000000 0.197726
0.978210 0.000000 0.210422
0.996063 0.000000 0.223148
1.000000 0.000000 0.235447
1.000000 0.000000 0.248081
1.000000 0.000000 0.260929
1.000000 0.045075 0.273960
1.000000 0.113558 0.287449
1.000000 0.145815 0.301366
1.000000 0.171298 0.315831
1.000000 0.194522 0.330968
0.000000 0.000000 0.000000
0.000000 0.000000 0.000000
0.000000 0.000000 0.000000
0.143954 0.000000 0.020020
0.229831 0.000000 0.059266
0.309422 0.000000 0.091493
0.378698 0.000000 0.094057
0.440253 0.000000 0.091829
0.496101 0.000000 0.085420
0.545312 0.000000 0.090791
0.591730 0.000000 0.096254
0.636683 0.000000 0.101472
0.680049 0.000000 0.107454
0.721981 0.000000 0.113405
0.761501 0.000000 0.120516
0.797787 0.000000 0.128267
0.830137 0.000000 0.136904
0.858640 0.000000 0.146456
0.886381 0.000000 0.157900
0.912078 0.000000 0.170779
0.935058 0.000000 0.183627
0.955932 0.000000 0.196384
0.974670 0.000000 0.208835
0.992523 0.000000 0.221286
1.000000 0.000000 0.233738
1.000000 0.000000 0.246006
1.000000 0.000000 0.258793
1.000000 0.035157 0.271763
1.000000 0.109712 0.285252
1.000000 0.141512 0.299138
1.000000 0.168246 0.313787
1.000000 0.191806 0.328923
0.007172 0.004669 0.003754
0.009125 0.006622 0.005707
0.015290 0.012482 0.010407
0.150668 0.028077 0.020020
0.225406 0.016266 0.041260
0.299992 0.000000 0.063447
0.369024 0.000000 0.078981
0.430732 0.000000 0.087068
0.485725 0.000000 0.091676
0.536492 0.000000 0.094820
0.584009 0.000000 0.098482
0.629999 0.000000 0.103700
0.673640 0.000000 0.109285
0.715572 0.000000 0.115511
0.755917 0.000000 0.122133
0.792538 0.000000 0.129885
0.825589 0.000000 0.138643
0.854520 0.000000 0.148318
0.882902 0.000000 0.159854
0.908598 0.000000 0.172457
0.931640 0.000000 0.185000
0.952453 0.000000 0.197604
0.971496 0.000000 0.209689
0.989471 0.000000 0.222171
1.000000 0.000000 0.234226
1.000000 0.000000 0.246433
1.000000 0.002502 0.259190
1.000000 0.095766 0.272129
1.000000 0.129854 0.285496
1.000000 0.155734 0.299413
1.000000 0.177859 0.313848
1.000000 0.199496 0.328923
0.120699 0.107332 0.100130
0.121767 0.108492 0.101015
0.125277 0.111147 0.103395
0.134279 0.117891 0.101350
0.198550 0.138857 0.101747
0.274083 0.149294 0.099336
0.346471 0.142153 0.099977
0.410712 0.125460 0.100099
0.469490 0.096284 0.100710
0.521843 0.016022 0.102174
0.571344 0.000000 0.104616
0.618128 0.000000 0.108888
0.662776 0.000000 0.114107
0.705562 0.000000 0.120241
0.746426 0.000000 0.126772
0.783658 0.000000 0.134401
0.817685 0.000000 0.142763
0.847196 0.000000 0.152285
0.876402 0.000000 0.163821
0.901701 0.000000 0.175601
0.924681 0.000000 0.187778
0.945647 0.000000 0.199771
0.965118 0.000000 0.211826
0.983673 0.000000 0.223941
1.000000 0.000000 0.236271
1.000000 0.084749 0.248631
1.000000 0.119081 0.261540
1.000000 0.142519 0.274601
1.000000 0.162966 0.287968
1.000000 0.182193 0.301884
1.000000 0.200015 0.316045
1.000000 0.217716 0.330877
0.174533 0.155978 0.145357
0.175143 0.156283 0.145724
0.177249 0.158267 0.147524
0.179873 0.162112 0.146883
0.190188 0.166171 0.141726
0.246342 0.183688 0.138033
0.316991 0.199832 0.125582
0.382330 0.202396 0.118196
0.443549 0.195102 0.115633
0.499275 0.183505 0.114931
0.550591 0.169467 0.115480
0.599420 0.154086 0.118807
0.645655 0.138247 0.123140
0.689876 0.122042 0.128603
0.732143 0.104311 0.134859
0.770748 0.089662 0.142306
0.806668 0.056275 0.150271
0.838743 0.045808 0.159854
0.868528 0.052888 0.171054
0.894224 0.069886 0.182589
0.917449 0.092866 0.194095
0.938903 0.107088 0.205753
0.958801 0.122194 0.217350
0.978058 0.135378 0.229282
0.996551 0.148562 0.241306
1.000000 0.163394 0.253635
1.000000 0.176638 0.266178
1.000000 0.190127 0.279118
1.000000 0.202914 0.292302
1.000000 0.216007 0.305852
1.000000 0.229648 0.319890
1.000000 0.243290 0.334325
0.223484 0.200504 0.187167
0.224125 0.200961 0.187716
0.225620 0.202365 0.188968
0.227909 0.205539 0.190097
0.230503 0.209049 0.184573
0.241794 0.210605 0.176913
0.289616 0.224613 0.173159
0.357336 0.240543 0.156771
0.415076 0.250156 0.141421
0.471992 0.250004 0.135836
0.526329 0.244785 0.134249
0.577295 0.238651 0.135317
0.625391 0.231815 0.138643
0.671290 0.225223 0.142885
0.715236 0.218723 0.148226
0.756161 0.211948 0.154788
0.793454 0.206088 0.162081
0.828855 0.202976 0.171969
0.859434 0.200412 0.182162
0.885740 0.199954 0.193118
0.909667 0.200809 0.204257
0.931731 0.203433 0.215427
0.968597 0.223880 0.239231
0.987610 0.229191 0.251255
1.000000 0.234531 0.263371
1.000000 0.241062 0.275181
1.000000 0.247837 0.286687
1.000000 0.255314 0.298405
1.000000 0.263310 0.310948
1.000000 0.272038 0.323827
1.000000 0.281407 0.337316
1.000000 0.291447 0.351202
0.277592 0.250553 0.234745
0.278172 0.250950 0.235142
0.279515 0.252262 0.236362
0.282200 0.255497 0.238773
0.281498 0.257816 0.233433
0.285649 0.259525 0.225315
0.296086 0.258854 0.216007
0.335393 0.268650 0.213535
0.400061 0.284764 0.195254
0.455604 0.294530 0.178927
0.504875 0.301518 0.163760
0.557427 0.302190 0.161898
0.608118 0.300206 0.162814
0.655940 0.297124 0.165377
0.701534 0.293462 0.169162
0.743618 0.289067 0.173953
0.785580 0.286107 0.181643
0.822232 0.283421 0.190829
0.853574 0.280552 0.200778
0.881163 0.278080 0.212009
0.906737 0.277256 0.224186
0.930755 0.277379 0.236606
0.953185 0.279179 0.249271
0.974456 0.281651 0.261234
0.994629 0.284825 0.273594
1.000000 0.288792 0.285222
1.000000 0.292393 0.296086
1.000000 0.296788 0.307073
1.000000 0.302068 0.318059
1.000000 0.307683 0.330083
1.000000 0.314580 0.343175
1.000000 0.322362 0.356725
0.324773 0.295109 0.277409
0.325048 0.295537 0.277775
0.326421 0.296757 0.278965
0.329381 0.299687 0.281773
0.327367 0.300877 0.276829
0.327642 0.302373 0.269810
0.332952 0.303105 0.260899
0.342077 0.300359 0.250706
0.371984 0.306493 0.251102
0.433417 0.323125 0.232883
0.487709 0.334020 0.216770
0.535515 0.341833 0.202548
0.578790 0.347875 0.189639
0.628290 0.348882 0.190585
0.676081 0.348058 0.193088
0.723751 0.348058 0.198672
0.766964 0.346319 0.205234
0.804532 0.343267 0.213230
0.837186 0.339391 0.222049
0.865782 0.336370 0.232090
0.892149 0.333928 0.242313
0.916930 0.332372 0.253452
0.940246 0.331945 0.264652
0.962310 0.332403 0.276005
0.983124 0.333684 0.287236
1.000000 0.335027 0.298100
1.000000 0.336767 0.308293
1.000000 0.339055 0.318578
1.000000 0.341955 0.329046
1.000000 0.345983 0.339666
1.000000 0.350530 0.351629
1.000000 0.356603 0.364996
0.373175 0.342107 0.322820
0.373785 0.342687 0.323369
0.374823 0.343694 0.324346
0.377295 0.346136 0.326757
0.376257 0.347387 0.323980
0.374670 0.347875 0.317723
0.375555 0.348180 0.309850
0.380804 0.347906 0.300053
0.388220 0.343755 0.289342
0.410590 0.346471 0.291112
0.468666 0.363653 0.275303
0.520684 0.374975 0.260075
0.567346 0.382879 0.246189
0.611170 0.390021 0.234836
0.654627 0.395789 0.227420
0.702724 0.397528 0.230137
0.746487 0.397162 0.234226
0.785489 0.394965 0.240055
0.819425 0.391730 0.246769
0.849332 0.388342 0.254978
0.876707 0.385199 0.263828
0.902281 0.383062 0.273381
0.926421 0.381476 0.283482
0.949371 0.380468 0.293492
0.971038 0.380163 0.303655
0.991394 0.380133 0.313542
1.000000 0.380560 0.323339
1.000000 0.381415 0.332982
1.000000 0.383154 0.342870
1.000000 0.385473 0.352819
1.000000 0.388586 0.363317
1.000000 0.392706 0.375555
0.421027 0.389532 0.369116
0.421210 0.389715 0.369329
0.422156 0.390661 0.370214
0.424231 0.392828 0.372381
0.424689 0.394446 0.372015
0.422126 0.394507 0.366461
0.420661 0.394141 0.359197
0.421881 0.393683 0.350713
0.426734 0.392279 0.340398
0.432654 0.386938 0.329595
0.452155 0.388617 0.329839
0.504723 0.405097 0.318791
0.556146 0.417517 0.304631
0.602502 0.426307 0.291600
0.644984 0.432685 0.278996
0.683589 0.437385 0.267674
0.723384 0.440192 0.263859
0.764431 0.440253 0.267796
0.800351 0.438270 0.273014
0.831785 0.435462 0.279667
0.860044 0.432197 0.286961
0.886259 0.429267 0.294865
0.910887 0.426673 0.303319
0.934142 0.424750 0.311803
0.956359 0.422950 0.320562
0.977325 0.421942 0.329442
0.997559 0.421393 0.338659
1.000000 0.421271 0.347631
1.000000 0.422095 0.357244
1.000000 0.423529 0.367071
1.000000 0.425849 0.377203
1.000000 0.428901 0.387732
0.465461 0.434791 0.413733
0.465766 0.435035 0.414008
0.466835 0.436164 0.415106
0.468757 0.438148 0.417029
0.471321 0.441077 0.419501
0.468574 0.440864 0.414649
0.466285 0.440314 0.408209
0.465919 0.440284 0.401221
0.468513 0.440070 0.392950
0.474434 0.439399 0.383520
0.479896 0.433600 0.372747
0.496407 0.433600 0.371405
0.542504 0.447761 0.362860
0.591302 0.459236 0.347753
0.635798 0.467201 0.333501
0.675807 0.472633 0.320806
0.711757 0.476020 0.308812
0.743954 0.478157 0.298589
0.779080 0.478309 0.299351
0.811948 0.476539 0.304387
0.841398 0.473793 0.310521
0.868620 0.471046 0.316991
0.894285 0.468635 0.324437
0.918669 0.466224 0.332158
0.941711 0.464240 0.340185
0.963531 0.462776 0.348333
0.984558 0.461707 0.356909
1.000000 0.461189 0.365545
1.000000 0.461311 0.374487
1.000000 0.462135 0.383886
1.000000 0.463935 0.393896
1.000000 0.466224 0.404028
0.512322 0.483558 0.462196
0.512627 0.483803 0.462440
0.513603 0.484871 0.463478
0.515679 0.487007 0.465705
0.518944 0.490486 0.469123
0.518303 0.491707 0.467262
0.516045 0.491707 0.461982
0.514458 0.491279 0.455390
0.514488 0.490639 0.447608
0.516594 0.489204 0.438300
0.521477 0.486854 0.427283
0.525414 0.479652 0.415564
0.555077 0.493446 0.427100
0.596460 0.505699 0.420722
0.642786 0.515953 0.404150
0.683833 0.521935 0.388708
0.719753 0.524834 0.374792
0.750942 0.525780 0.362463
0.778439 0.525444 0.351568
0.803342 0.524437 0.342504
0.833249 0.522393 0.347570
0.860807 0.519951 0.352941
0.886778 0.517174 0.358770
0.911223 0.514824 0.365393
0.934386 0.512505 0.372229
0.956390 0.510399 0.379248
0.977600 0.508324 0.386175
0.998047 0.507012 0.393591
1.000000 0.506340 0.401617
1.000000 0.506249 0.409857
1.000000 0.506950 0.418738
1.000000 0.508476 0.428107
0.569024 0.543786 0.522667
0.569146 0.543908 0.522820
0.569512 0.544366 0.523278
0.570947 0.545892 0.524804
0.573053 0.548150 0.527092
0.573724 0.549798 0.527245
0.570397 0.548638 0.521538
0.567529 0.547448 0.514733
0.565759 0.546136 0.506981
0.565881 0.544762 0.498390
0.568536 0.543297 0.488777
0.574151 0.541283 0.478126
0.578180 0.534081 0.466773
0.588891 0.529320 0.460822
0.625452 0.540612 0.458259
0.668757 0.549889 0.441871
0.706111 0.554681 0.426490
0.738338 0.556237 0.412329
0.766690 0.555932 0.399756
0.791806 0.554711 0.388647
0.814939 0.553033 0.378759
0.838834 0.551720 0.374609
0.865904 0.550011 0.379919
0.891569 0.548058 0.385595
0.915801 0.546258 0.392035
0.938842 0.544488 0.398474
0.960998 0.542992 0.405554
0.982422 0.541772 0.412573
1.000000 0.541070 0.420233
1.000000 0.541192 0.428534
1.000000 0.541802 0.437049
1.000000 0.543389 0.446601
0.608972 0.586999 0.566400
0.608972 0.586938 0.566400
0.609277 0.587335 0.566766
0.610010 0.588098 0.567559
0.611566 0.589776 0.569268
0.614008 0.592462 0.571954
0.610742 0.591089 0.566888
0.607416 0.589502 0.560632
0.605066 0.588281 0.553979
0.603784 0.586755 0.546136
0.604364 0.585473 0.537713
0.607080 0.583703 0.528099
0.612207 0.581201 0.517052
0.615167 0.573205 0.505028
0.622644 0.565942 0.496529
0.652461 0.574426 0.496162
0.691218 0.581689 0.479225
0.724422 0.584771 0.463722
0.753750 0.585382 0.449500
0.779568 0.584436 0.436835
0.803525 0.582788 0.425452
0.826200 0.581170 0.415595
0.847684 0.579950 0.407355
0.872038 0.578973 0.407599
0.897307 0.577966 0.413519
0.921263 0.576959 0.419715
0.944274 0.575860 0.426276
0.966522 0.575067 0.433265
0.988342 0.574701 0.440772
1.000000 0.574914 0.448707
1.000000 0.575769 0.457343
1.000000 0.577386 0.466529
0.643488 0.624628 0.604761
0.643519 0.624659 0.604761
0.643671 0.624811 0.604944
0.644190 0.625360 0.605524
0.645289 0.626551 0.606744
0.647059 0.628473 0.608698
0.646204 0.628748 0.607172
0.643153 0.627283 0.601984
0.640497 0.625971 0.596216
0.638819 0.624842 0.589960
0.638087 0.623590 0.582788
0.638941 0.622095 0.574548
0.641505 0.620142 0.565179
0.645869 0.617090 0.554070
0.647608 0.608545 0.541741
0.652216 0.599329 0.530968
0.675410 0.605310 0.532799
0.709560 0.610803 0.516136
0.739681 0.612787 0.500450
0.766537 0.612726 0.486213
0.791287 0.611658 0.473457
0.814633 0.610285 0.462257
0.836881 0.608881 0.452491
0.858183 0.607721 0.444160
0.878813 0.606836 0.436988
0.903288 0.606622 0.441718
0.927123 0.606439 0.448188
0.950256 0.606470 0.455238
0.972961 0.606775 0.462745
0.995422 0.607782 0.470954
1.000000 0.609369 0.479927
1.000000 0.611658 0.489631
0.671351 0.655116 0.635981
0.671534 0.655268 0.636133
0.671839 0.655604 0.636500
0.672480 0.656275 0.637201
0.673579 0.657527 0.638483
0.675319 0.659419 0.640436
0.676875 0.661463 0.642023
0.674678 0.660609 0.638361
0.672511 0.659754 0.634089
0.670649 0.658717 0.629023
0.669093 0.657465 0.623133
0.668299 0.655665 0.616022
0.668421 0.653468 0.607813
0.669886 0.650507 0.598169
0.672755 0.646448 0.586664
0.673396 0.637659 0.574182
0.676081 0.627649 0.561975
0.693690 0.631708 0.565789
0.724300 0.636255 0.549981
0.751919 0.638025 0.535149
0.777584 0.638361 0.521721
0.801846 0.637903 0.509636
0.824826 0.637079 0.499001
0.846891 0.636225 0.489601
0.868193 0.635401 0.481453
0.888914 0.635004 0.474678
0.910033 0.635218 0.471901
0.933928 0.636103 0.478798
0.957305 0.637171 0.486122
0.980285 0.638697 0.494270
1.000000 0.640558 0.502800
1.000000 0.642878 0.511772
0.694759 0.680690 0.662287
0.694820 0.680751 0.662379
0.695064 0.681056 0.662715
0.695674 0.681697 0.663355
0.696742 0.682826 0.664546
0.698238 0.684504 0.666285
0.700343 0.686793 0.668635
0.699275 0.686824 0.666773
0.697230 0.685969 0.663172
0.695338 0.685023 0.658991
0.693660 0.683864 0.654108
0.692348 0.682429 0.648493
0.691707 0.680629 0.641993
0.691707 0.678157 0.634150
0.692775 0.675074 0.625086
0.695003 0.670954 0.614618
0.695338 0.662928 0.603204
0.696620 0.652888 0.591028
0.710872 0.656062 0.595422
0.737697 0.660029 0.582025
0.763882 0.662287 0.568475
0.788693 0.663142 0.555871
0.812253 0.663294 0.544701
0.834745 0.663111 0.534813
0.856535 0.662776 0.526085
0.877653 0.662654 0.518669
0.898405 0.662806 0.512505
0.918975 0.663508 0.507744
0.941283 0.665248 0.510063
0.964996 0.667384 0.517815
0.988586 0.669886 0.526238
1.000000 0.672724 0.534936
0.716396 0.704372 0.686763
0.716548 0.704494 0.686915
0.724361 0.713100 0.695796
0.724910 0.713710 0.696407
0.725795 0.714656 0.697414
0.727047 0.715969 0.698787
0.728695 0.717800 0.700679
0.729274 0.718898 0.701045
0.727260 0.718013 0.697841
0.725216 0.716945 0.694026
0.723323 0.715846 0.689754
0.721614 0.714382 0.684749
0.720180 0.712459 0.678889
0.719081 0.709957 0.671962
0.718593 0.706935 0.664149
0.718959 0.703243 0.655268
0.720058 0.698451 0.645319
0.719448 0.690455 0.634577
0.719509 0.680659 0.622950
0.731472 0.682460 0.625269
0.754269 0.685847 0.615106
0.778683 0.688258 0.602777
0.802060 0.689540 0.591455
0.824491 0.690089 0.581079
0.846189 0.690028 0.571466
0.867247 0.689845 0.562951
0.887938 0.689906 0.555718
0.908476 0.690364 0.549737
0.929107 0.691524 0.545281
0.949981 0.693660 0.542626
0.973693 0.696712 0.549340
0.997864 0.700069 0.557641
0.737942 0.727901 0.711177
0.738643 0.728664 0.711971
0.739590 0.729671 0.712978
0.740658 0.730861 0.714229
0.741878 0.732174 0.715602
0.743160 0.733547 0.717067
0.744656 0.735225 0.718776
0.746517 0.737209 0.720851
0.744717 0.736477 0.718105
0.742855 0.735561 0.714839
0.740993 0.734524 0.711086
0.739193 0.733303 0.706752
0.737514 0.731655 0.701625
0.736110 0.729641 0.695796
0.735256 0.727199 0.689174
0.734920 0.724147 0.681575
0.735500 0.720729 0.673304
0.736538 0.716274 0.664118
0.736233 0.709102 0.654719
0.736446 0.700435 0.644678
0.747036 0.701534 0.645991
0.767147 0.705043 0.639033
0.790463 0.708125 0.628260
0.812863 0.709957 0.618158
0.834531 0.711116 0.608881
0.855680 0.711818 0.600488
0.876432 0.712490 0.593133
0.897093 0.713375 0.586938
0.917845 0.714839 0.582208
0.938903 0.717037 0.578820
0.960479 0.720089 0.577050
0.983124 0.723964 0.578210
0.754208 0.745632 0.729580
0.754910 0.746365 0.730343
0.755825 0.747311 0.731350
0.756771 0.748348 0.732448
0.757900 0.749599 0.733761
0.759030 0.750851 0.735012
0.760342 0.752285 0.736538
0.761959 0.754025 0.738338
0.761868 0.754543 0.737911
0.760067 0.753689 0.734981
0.758267 0.752743 0.731655
0.756527 0.751675 0.727901
0.754788 0.750271 0.723415
0.753262 0.748623 0.718379
0.752071 0.746609 0.712703
0.751339 0.744198 0.706325
0.751186 0.741360 0.699153
0.751858 0.738155 0.691310
0.752987 0.734005 0.682887
0.752865 0.727413 0.674220
0.753262 0.719509 0.664973
0.762478 0.719905 0.665431
0.780117 0.723171 0.660883
0.802518 0.726558 0.651087
0.824125 0.728908 0.641993
0.845182 0.730678 0.633753
0.865934 0.732082 0.626459
0.886595 0.733547 0.620142
0.907408 0.735439 0.615076
0.928527 0.737911 0.611414
0.950225 0.741054 0.609033
0.972442 0.744930 0.607813
0.769772 0.762448 0.747158
0.770321 0.763088 0.747799
0.771054 0.763851 0.748592
0.771908 0.764767 0.749569
0.772885 0.765835 0.750668
0.773861 0.766873 0.751766
0.775021 0.768124 0.753048
0.776425 0.769680 0.754696
0.777859 0.771298 0.756222
0.776181 0.770596 0.753689
0.774472 0.769741 0.750759
0.772793 0.768795 0.747372
0.771084 0.767636 0.743587
0.769528 0.766293 0.739223
0.768276 0.764675 0.734340
0.767269 0.762783 0.728908
0.766903 0.760678 0.722988
0.767269 0.758267 0.716457
0.768460 0.755734 0.709590
0.769955 0.752224 0.702235
0.770474 0.746700 0.694759
0.771359 0.740017 0.686854
0.779690 0.739956 0.686763
0.795346 0.743191 0.684443
0.817227 0.747097 0.675685
0.838437 0.750088 0.667597
0.859281 0.752560 0.660395
0.880095 0.754910 0.654200
0.901091 0.757473 0.649165
0.922454 0.760464 0.645350
0.944274 0.763912 0.642573
0.966674 0.768002 0.641047
0.787381 0.781460 0.767025
0.787625 0.781765 0.767300
0.787961 0.782101 0.767697
0.788327 0.782528 0.768093
0.788876 0.783108 0.768734
0.789548 0.783810 0.769467
0.790494 0.784817 0.770535
0.791684 0.786099 0.771878
0.793149 0.787655 0.773526
0.792813 0.787961 0.772793
0.791287 0.787350 0.770291
0.789731 0.786557 0.767391
0.788083 0.785611 0.764034
0.786557 0.784451 0.760220
0.785092 0.783047 0.755917
0.783993 0.781521 0.751217
0.783261 0.779690 0.745937
0.783017 0.777646 0.740291
0.783474 0.775448 0.734157
0.784756 0.772946 0.727504
0.786007 0.769497 0.720516
0.786435 0.764126 0.713313
0.787228 0.757748 0.705684
0.794217 0.756771 0.704616
0.807706 0.759579 0.703822
0.828885 0.763607 0.695552
0.849882 0.767086 0.688197
0.870726 0.770260 0.681788
0.891752 0.773404 0.676417
0.913146 0.776761 0.672114
0.934997 0.780545 0.669001
0.957427 0.784817 0.666926
0.800748 0.795895 0.782132
0.800961 0.796048 0.782345
0.801236 0.796384 0.782650
0.801602 0.796780 0.783078
0.802060 0.797269 0.783597
0.802701 0.797971 0.784298
0.803494 0.798825 0.785214
0.804501 0.799893 0.786343
0.805875 0.801328 0.787839
0.806943 0.802640 0.788968
0.805509 0.802090 0.786770
0.804074 0.801511 0.784268
0.802548 0.800717 0.781308
0.801114 0.799802 0.778012
0.799802 0.798795 0.774350
0.798672 0.797513 0.770260
0.797818 0.796170 0.765805
0.797421 0.794583 0.760922
0.797543 0.792874 0.755703
0.798215 0.790890 0.749966
0.799802 0.788815 0.743954
0.801175 0.785641 0.737575
0.801846 0.780819 0.731014
0.802823 0.775021 0.724025
0.807431 0.771908 0.720516
0.819059 0.774289 0.721187
0.839994 0.778836 0.713619
0.860838 0.782864 0.707027
0.881926 0.786679 0.701350
0.903349 0.790677 0.696803
0.925292 0.794980 0.693355
0.947784 0.799619 0.691005
0.814939 0.811032 0.798032
0.815213 0.811337 0.798367
0.815427 0.811582 0.798611
0.815702 0.811826 0.798856
0.815885 0.812070 0.799130
0.816220 0.812436 0.799527
0.816709 0.812924 0.800046
0.817350 0.813626 0.800778
0.818296 0.814603 0.801816
0.819455 0.815854 0.803128
0.818845 0.815854 0.802090
0.817288 0.815152 0.799619
0.815732 0.814298 0.796841
0.814145 0.813382 0.793729
0.812650 0.812314 0.790249
0.811307 0.811124 0.786496
0.810178 0.809812 0.782284
0.809506 0.808438 0.777920
0.809323 0.807065 0.773312
0.809751 0.805600 0.768429
0.810819 0.804013 0.763272
0.812589 0.802182 0.757626
0.814054 0.799283 0.751736
0.814755 0.794675 0.745480
0.815702 0.789181 0.738827
0.821012 0.787167 0.736507
0.830838 0.789181 0.738460
0.851499 0.793973 0.731411
0.872435 0.798489 0.725277
0.893736 0.803037 0.720333
0.915496 0.807736 0.716518
0.937774 0.812802 0.713832
0.825834 0.822629 0.810269
0.826108 0.822904 0.810544
0.826322 0.823148 0.810788
0.826566 0.823423 0.811093
0.826871 0.823789 0.811460
0.827298 0.824216 0.811917
0.827909 0.824826 0.812589
0.828641 0.825650 0.813413
0.829648 0.826688 0.814511
0.830808 0.827970 0.815885
0.831693 0.829038 0.816770
0.830411 0.828580 0.814725
0.829007 0.828000 0.812345
0.827604 0.827329 0.809628
0.826139 0.826413 0.806546
0.824796 0.825437 0.803159
0.823697 0.824369 0.799466
0.822873 0.823270 0.795590
0.822507 0.822141 0.791501
0.822629 0.820951 0.787198
0.823331 0.819730 0.782620
0.824674 0.818387 0.777798
0.826627 0.816831 0.772580
0.828214 0.814176 0.767178
0.829221 0.810056 0.761501
0.830442 0.805173 0.755520
0.835355 0.803098 0.753140
0.844785 0.805142 0.755581
0.864714 0.810422 0.750240
0.885863 0.815671 0.745052
0.907469 0.820981 0.740932
0.929473 0.826444 0.737911
0.837369 0.834867 0.823178
0.837491 0.834989 0.823301
0.837644 0.835142 0.823453
0.837827 0.835355 0.823667
0.838071 0.835630 0.823941
0.838376 0.835996 0.824338
0.838865 0.836484 0.824857
0.839536 0.837156 0.825589
0.840269 0.837980 0.826444
0.841306 0.839048 0.827573
0.842435 0.840238 0.828855
0.842130 0.840482 0.828153
0.840879 0.840085 0.826078
0.839536 0.839506 0.823667
0.838193 0.838834 0.820920
0.836912 0.838071 0.817960
0.835813 0.837247 0.814725
0.834928 0.836362 0.811215
0.834470 0.835477 0.807614
0.834440 0.834623 0.803769
0.834867 0.833738 0.799802
0.835904 0.832731 0.795590
0.837461 0.831601 0.791012
0.839628 0.830289 0.786160
0.841306 0.827787 0.781064
0.842496 0.824063 0.775845
0.843992 0.819638 0.770382
0.848600 0.817411 0.767788
0.857847 0.819547 0.770199
0.876646 0.825040 0.766934
0.897978 0.831052 0.762631
0.919738 0.837125 0.759396
0.847654 0.845762 0.834653
0.847776 0.845853 0.834775
0.847868 0.845975 0.834897
0.848112 0.846220 0.835142
0.848386 0.846525 0.835508
0.848844 0.846983 0.835966
0.849516 0.847684 0.836728
0.850370 0.848600 0.837675
0.851438 0.849729 0.838865
0.852659 0.851011 0.840238
0.854063 0.852506 0.841825
0.855344 0.853910 0.843168
0.854582 0.853971 0.841703
0.853635 0.853880 0.839933
0.852659 0.853696 0.837827
0.851621 0.853269 0.835355
0.850645 0.852750 0.832609
0.849882 0.852201 0.829618
0.849485 0.851682 0.826566
0.849393 0.851133 0.823270
0.849699 0.850584 0.819821
0.850523 0.849973 0.816159
0.851804 0.849180 0.812192
0.853635 0.848325 0.807980
0.856077 0.847288 0.803433
0.857939 0.845090 0.798795
0.859495 0.841794 0.794034
0.861357 0.837888 0.789151
0.865812 0.835721 0.786587
0.874846 0.837858 0.788937
0.892332 0.843503 0.787686
0.913634 0.850065 0.784207
0.860105 0.858824 0.848539
0.860136 0.858854 0.848569
0.860166 0.858885 0.848600
0.860288 0.859037 0.848722
0.860441 0.859190 0.848875
0.860716 0.859434 0.849180
0.861082 0.859861 0.849607
0.861570 0.860410 0.850187
0.862272 0.861082 0.850919
0.863035 0.861906 0.851774
0.864012 0.862882 0.852842
0.865019 0.863981 0.853971
0.865049 0.864469 0.853727
0.864042 0.864347 0.851987
