20 Preset/Ins style/【3】LUT video cho PR-AE-FCPX/Tone (6).cube
# Created by Adobe Lightroom plugin Export LUT (1.24.0)
# www.johnrellis.com/lightroom/exportlut.htm
# Preset: INS网红琥珀色-素材江湖04
# Color profile: C:\Program Files (x86)\Common Files\Adobe\Color\Profiles\Recommended\VideoHD.icc
LUT_3D_SIZE 8
DOMAIN_MIN 0.000000 0.000000 0.000000
DOMAIN_MAX 0.903226 0.903226 0.903226
0.001343 0.001953 0.004211
0.209079 0.032319 0.059998
0.746487 0.000000 0.000000
0.989288 0.285405 0.000000
1.000000 0.477943 0.129305
1.000000 0.639490 0.290593
1.000000 0.720638 0.406226
1.000000 0.772671 0.509697
0.000000 0.267704 0.187533
0.196323 0.189242 0.126619
0.797116 0.281743 0.000000
0.996368 0.378393 0.000000
1.000000 0.512993 0.000000
1.000000 0.642267 0.245274
1.000000 0.717556 0.374823
1.000000 0.770382 0.489570
0.000000 0.766598 0.484413
0.000000 0.779782 0.462654
0.592554 0.533349 0.297124
0.964599 0.653254 0.196567
1.000000 0.697169 0.134737
1.000000 0.729488 0.255314
1.000000 0.762356 0.345586
1.000000 0.794553 0.478553
0.000000 0.922240 0.736233
0.000000 0.926299 0.730190
0.000000 0.921660 0.511864
0.805753 0.760830 0.554284
0.981903 0.816159 0.598749
1.000000 0.842069 0.489448
1.000000 0.833768 0.491402
1.000000 0.830320 0.488563
0.422309 0.971374 0.849302
0.395575 0.972992 0.847257
0.242466 0.980774 0.839658
0.593530 0.955840 0.625147
0.881773 0.840146 0.693111
0.982300 0.865995 0.729122
1.000000 0.889403 0.697414
1.000000 0.880461 0.614771
0.677241 0.991241 0.903563
0.680354 0.992340 0.904601
0.660548 0.995087 0.901488
0.641810 0.996490 0.865934
0.822934 0.969146 0.752316
0.934417 0.893400 0.784146
0.994049 0.905943 0.809537
1.000000 0.921263 0.796750
0.812589 0.996857 0.935851
0.812253 0.997070 0.935729
0.804562 0.998108 0.933745
0.789395 1.000000 0.929778
0.774777 1.000000 0.873106
0.901640 0.980377 0.823423
0.971099 0.934569 0.843565
1.000000 0.934783 0.864134
0.899962 0.993591 0.957061
0.899413 0.993652 0.956847
0.897551 0.993957 0.956054
0.894255 0.994446 0.954528
0.875944 0.996399 0.948730
0.858732 0.998657 0.894591
0.941192 0.987518 0.878416
0.992798 0.966674 0.898802
0.000000 0.050904 0.196048
0.147921 0.140902 0.182986
0.681392 0.097902 0.173587
0.951995 0.350622 0.180056
1.000000 0.510124 0.203220
1.000000 0.633692 0.273228
1.000000 0.708156 0.365881
1.000000 0.763058 0.480446
0.000000 0.219303 0.226291
0.263127 0.227695 0.223148
0.727840 0.315160 0.202640
0.959930 0.435248 0.190951
1.000000 0.555840 0.224521
1.000000 0.652766 0.285863
1.000000 0.712062 0.346624
1.000000 0.763455 0.465919
0.000000 0.717037 0.507439
0.000000 0.734920 0.487190
0.580163 0.514000 0.382452
0.951293 0.670802 0.331029
1.000000 0.704707 0.332891
1.000000 0.734951 0.369757
1.000000 0.762173 0.406836
1.000000 0.786191 0.450385
0.000000 0.901091 0.729152
0.000000 0.905669 0.723934
0.000000 0.903960 0.549523
0.781369 0.735866 0.558373
0.969909 0.804196 0.593133
1.000000 0.834501 0.522911
1.000000 0.829618 0.520226
1.000000 0.829496 0.517754
0.483864 0.964141 0.848783
0.460395 0.965545 0.846281
0.348028 0.973022 0.837919
0.601740 0.948363 0.637140
0.871427 0.830259 0.689631
0.978210 0.861784 0.726101
1.000000 0.887572 0.701350
1.000000 0.880766 0.634363
0.685115 0.988037 0.902190
0.681086 0.988769 0.901640
0.663050 0.991699 0.898894
0.645655 0.993622 0.867063
0.822293 0.965972 0.754971
0.930358 0.889616 0.784268
0.992767 0.904692 0.809049
1.000000 0.920531 0.797391
0.811460 0.996002 0.935027
0.808316 0.996277 0.934264
0.800381 0.997345 0.932250
0.786404 0.999481 0.928649
0.775662 0.999542 0.874449
0.900511 0.979126 0.823362
0.968170 0.931090 0.840513
1.000000 0.932341 0.860258
0.898192 0.993622 0.956603
0.898619 0.993622 0.956634
0.896544 0.993927 0.955779
0.893339 0.994446 0.954284
0.885924 0.995422 0.951293
0.865232 0.997986 0.899321
0.941405 0.987366 0.880156
0.992401 0.966217 0.899168
0.160769 0.149477 0.575280
0.447059 0.192569 0.560418
0.591547 0.543511 0.542443
0.863035 0.446601 0.459266
0.996887 0.592309 0.483925
1.000000 0.702693 0.538323
1.000000 0.757809 0.567437
1.000000 0.789487 0.580957
0.243076 0.323613 0.556481
0.458045 0.360754 0.542382
0.596948 0.577356 0.560327
0.851713 0.487526 0.456855
0.993164 0.626368 0.503471
1.000000 0.715358 0.547051
1.000000 0.761898 0.567468
1.000000 0.791562 0.579950
0.379614 0.621851 0.555352
0.455940 0.617884 0.552056
0.662776 0.597925 0.524895
0.896849 0.692592 0.561028
0.992950 0.740383 0.584527
1.000000 0.773770 0.597070
1.000000 0.797299 0.604852
1.000000 0.813870 0.607019
0.509728 0.864073 0.757931
0.516167 0.864958 0.756802
0.434089 0.879179 0.708583
0.767391 0.729732 0.645167
0.969085 0.830381 0.689754
1.000000 0.850462 0.683375
1.000000 0.850401 0.672999
1.000000 0.850492 0.658686
0.661830 0.944396 0.858793
0.653040 0.946166 0.857725
0.611872 0.953979 0.853086
0.689143 0.938201 0.724849
0.864591 0.827573 0.734401
0.979797 0.874662 0.765957
1.000000 0.898466 0.758358
1.000000 0.892332 0.727413
0.752987 0.979828 0.908782
0.750851 0.980591 0.908537
0.737636 0.983520 0.906310
0.715785 0.987213 0.889555
0.838743 0.961944 0.788235
0.925322 0.885618 0.799710
0.993439 0.909697 0.823819
1.000000 0.924987 0.818540
0.847532 0.992401 0.941466
0.845457 0.992615 0.940887
0.838590 0.993561 0.938933
0.827146 0.995544 0.935637
0.814328 0.995972 0.895354
0.907286 0.978302 0.843168
0.967315 0.931243 0.852689
1.000000 0.936706 0.870817
0.912963 0.992004 0.960327
0.912139 0.992096 0.960021
0.910430 0.992370 0.959289
0.909239 0.992737 0.958373
0.903624 0.993561 0.955871
0.885222 0.995789 0.914672
0.944244 0.987152 0.891234
0.991791 0.966400 0.905303
0.517479 0.386999 0.805264
0.626642 0.436439 0.801175
0.810178 0.595270 0.772396
0.804898 0.787655 0.772030
0.929656 0.732204 0.736965
0.995148 0.702144 0.649317
1.000000 0.772732 0.686183
1.000000 0.812802 0.707881
0.560845 0.516197 0.791165
0.641718 0.543145 0.786404
0.796506 0.643946 0.764248
0.804440 0.798947 0.778256
0.930724 0.719631 0.718654
0.994903 0.719844 0.661982
1.000000 0.781369 0.693782
1.000000 0.817502 0.712337
0.476753 0.658106 0.751247
0.549004 0.654170 0.743160
0.740749 0.694728 0.727504
0.814542 0.757229 0.744625
0.916960 0.719722 0.677028
0.996582 0.782803 0.713130
1.000000 0.821500 0.735439
1.000000 0.840543 0.738552
0.657221 0.821286 0.769162
0.678950 0.816770 0.764645
0.712825 0.810391 0.758206
0.829282 0.790158 0.732540
0.945922 0.837003 0.767849
0.999573 0.851652 0.772702
1.000000 0.862303 0.772183
1.000000 0.868070 0.764675
0.756161 0.924865 0.866087
0.760830 0.923674 0.865385
0.767880 0.922728 0.862425
0.763882 0.922942 0.803311
0.866300 0.834806 0.782040
0.984710 0.893675 0.817533
1.000000 0.910094 0.821408
1.000000 0.903349 0.804013
0.832853 0.967773 0.919005
0.836942 0.968719 0.920439
0.828977 0.971496 0.919005
0.812955 0.977417 0.916289
0.865324 0.958953 0.836820
0.919219 0.882292 0.825681
0.995727 0.920592 0.852262
1.000000 0.933043 0.852720
0.889830 0.987030 0.949950
0.889616 0.987274 0.949889
0.887388 0.988159 0.949157
0.882506 0.989837 0.947448
0.871580 0.991119 0.928466
0.918578 0.977905 0.874510
0.965057 0.930541 0.870268
1.000000 0.942657 0.885985
0.935882 0.989471 0.966644
0.935637 0.989502 0.966522
0.934630 0.989715 0.966003
0.933013 0.990082 0.965087
0.929686 0.990692 0.963317
0.914519 0.992493 0.937743
0.948516 0.986847 0.908385
0.990845 0.966918 0.915801
0.721492 0.622889 0.892424
0.759701 0.646632 0.890227
0.853758 0.718685 0.879332
0.899168 0.791592 0.856382
0.905852 0.881437 0.875181
0.961303 0.853269 0.859922
1.000000 0.798428 0.784329
1.000000 0.821744 0.777859
0.733730 0.679774 0.884550
0.766140 0.695674 0.883330
0.850858 0.746242 0.875273
0.896788 0.803708 0.856565
0.905730 0.884947 0.877134
0.961395 0.848783 0.854215
1.000000 0.796445 0.777920
1.000000 0.826230 0.781338
0.716701 0.752987 0.864042
0.746914 0.761227 0.863798
0.831662 0.789975 0.861418
0.881773 0.823178 0.847990
0.901610 0.887755 0.876829
0.956359 0.821744 0.818448
0.997925 0.802487 0.768734
1.000000 0.841367 0.792020
0.704768 0.827451 0.849851
0.717098 0.824338 0.846250
0.757809 0.809262 0.829923
0.845914 0.827024 0.820218
0.888640 0.824521 0.811398
0.948669 0.823545 0.792203
1.000000 0.853056 0.809751
1.000000 0.870420 0.815335
0.796719 0.891417 0.859525
0.803677 0.890013 0.858152
0.825589 0.883726 0.851774
0.824949 0.881712 0.845029
0.900633 0.863127 0.825315
0.977966 0.898161 0.853330
1.000000 0.903624 0.852720
1.000000 0.904601 0.844907
0.849851 0.953613 0.914916
0.852049 0.953582 0.915160
0.858885 0.952941 0.915190
0.865324 0.954467 0.915007
0.867674 0.948730 0.865171
0.921721 0.886809 0.847990
0.997711 0.932250 0.883207
1.000000 0.940795 0.886381
0.899870 0.983795 0.952148
0.901457 0.983520 0.952239
0.909148 0.982574 0.953155
0.915435 0.983185 0.954253
0.912016 0.986114 0.953185
0.924346 0.977203 0.900908
0.958587 0.925658 0.884092
1.000000 0.948089 0.901335
0.932372 0.989441 0.966400
0.934569 0.989227 0.966888
0.943481 0.988281 0.968902
0.950713 0.987762 0.970550
0.949798 0.988190 0.969696
0.942840 0.989166 0.960723
0.951720 0.986542 0.925811
0.988586 0.965545 0.924376
0.827573 0.763119 0.941497
0.843595 0.772152 0.940520
0.892302 0.800961 0.936584
0.947173 0.845670 0.934051
0.956054 0.876493 0.917357
0.952483 0.930297 0.928618
0.978393 0.917662 0.923217
1.000000 0.877714 0.881590
0.828061 0.779782 0.935973
0.842161 0.786007 0.935027
0.889982 0.810788 0.933196
0.942382 0.847745 0.929870
0.951568 0.875944 0.913329
0.950713 0.929870 0.927428
0.978149 0.914305 0.919829
1.000000 0.873838 0.876616
0.833158 0.825772 0.931243
0.845121 0.828855 0.930785
0.886717 0.842344 0.929534
0.935058 0.866209 0.925841
0.944427 0.886625 0.910277
0.950652 0.935698 0.931029
0.980407 0.906737 0.911406
1.000000 0.869780 0.866758
0.800443 0.855344 0.918120
0.812131 0.855467 0.917052
0.856962 0.860594 0.915099
0.919036 0.882017 0.917235
0.934356 0.898650 0.905577
0.953399 0.929961 0.927214
0.984131 0.886046 0.885222
1.000000 0.863462 0.844205
0.813443 0.899382 0.910491
0.817746 0.897978 0.908873
0.833646 0.891630 0.901946
0.855039 0.874479 0.883970
0.906188 0.889860 0.881315
0.933898 0.868681 0.857786
0.982177 0.879728 0.858701
1.000000 0.899260 0.871458
0.870939 0.938567 0.918334
0.875090 0.938476 0.918456
0.886259 0.935698 0.915648
0.899199 0.931121 0.911009
0.897002 0.930449 0.906035
0.948913 0.914488 0.889403
0.995972 0.940887 0.914153
1.000000 0.938872 0.907591
0.920500 0.976806 0.954650
0.922118 0.976989 0.955200
0.926207 0.977234 0.956268
0.933410 0.977661 0.958068
0.942473 0.977813 0.959655
0.934020 0.977539 0.933532
0.961639 0.932494 0.906554
1.000000 0.958984 0.929015
0.938903 0.987762 0.968383
0.939635 0.987701 0.968536
0.943969 0.987518 0.969574
0.952697 0.987091 0.971832
0.965881 0.985870 0.975097
0.966583 0.986328 0.974884
0.958190 0.986389 0.947814
0.986114 0.964965 0.936889
0.882750 0.829648 0.970459
0.890043 0.832761 0.969787
0.917479 0.847807 0.968109
0.953521 0.873625 0.965179
0.980499 0.905425 0.961639
0.977203 0.923308 0.948394
0.973175 0.956237 0.956268
0.983795 0.952453 0.955200
0.887358 0.842344 0.970367
0.893858 0.844755 0.969696
0.919646 0.857847 0.968170
0.954101 0.881254 0.965698
0.980560 0.911254 0.962829
0.977813 0.927977 0.950622
0.974395 0.958892 0.958618
0.984863 0.954009 0.956695
0.887755 0.865171 0.966308
0.894316 0.867521 0.966064
0.918364 0.877684 0.965301
0.951232 0.896147 0.963806
0.977752 0.921569 0.962493
0.975708 0.934264 0.951141
0.974395 0.961700 0.960388
0.986297 0.951507 0.954467
0.875578 0.886381 0.960327
0.882292 0.887968 0.960204
0.907897 0.895872 0.960235
0.942535 0.909850 0.959777
0.971679 0.930510 0.960113
0.971679 0.940276 0.950011
0.974578 0.965637 0.963104
0.989471 0.946593 0.949554
0.851804 0.911376 0.955138
0.856291 0.911406 0.954986
0.877226 0.911650 0.954009
0.918608 0.917082 0.953521
0.960845 0.935271 0.956054
0.968994 0.947112 0.950683
0.976959 0.962737 0.961547
0.995727 0.934630 0.935821
0.887022 0.948516 0.957214
0.889006 0.948150 0.956817
0.897032 0.946593 0.955200
0.909270 0.942321 0.950958
0.921263 0.929961 0.939727
0.955016 0.938506 0.936400
0.973266 0.925963 0.922362
1.000000 0.924010 0.912505
0.921599 0.972045 0.961151
0.922789 0.971771 0.960876
0.929290 0.971130 0.960510
0.940032 0.969757 0.959472
0.953002 0.967407 0.957519
0.955047 0.965637 0.955047
0.978058 0.955932 0.942382
0.998383 0.966979 0.953826
0.953979 0.984253 0.971588
0.954559 0.984253 0.971740
0.956542 0.984253 0.972259
0.961822 0.984344 0.973877
0.969329 0.984527 0.976226
0.977630 0.984405 0.978729
0.975982 0.984833 0.974395
0.984405 0.967468 0.953460
0.920623 0.880674 0.986694
0.924407 0.882597 0.986358
0.939208 0.892027 0.985168
0.960510 0.907622 0.983001
0.980621 0.928130 0.980407
0.991028 0.947143 0.977508
0.988373 0.959258 0.971618
0.983368 0.972137 0.972259
0.923033 0.887510 0.986328
0.926543 0.889250 0.986023
0.940459 0.897520 0.984894
0.960998 0.912139 0.982910
0.980468 0.931395 0.980468
0.990723 0.949432 0.977783
0.988312 0.960906 0.972290
0.983612 0.972961 0.972930
0.926818 0.904356 0.984894
0.930083 0.905852 0.984649
0.942596 0.912505 0.983795
0.960998 0.923583 0.982116
0.979400 0.939910 0.980285
0.989532 0.955657 0.978271
0.987762 0.964813 0.973571
0.983978 0.974823 0.974334
0.927886 0.922759 0.983337
0.930755 0.923766 0.983154
0.942412 0.928740 0.982513
0.959991 0.937621 0.981415
0.977508 0.950256 0.980133
0.988037 0.963500 0.979004
0.987152 0.969665 0.975280
0.984558 0.977386 0.976318
0.915679 0.934813 0.982300
0.919249 0.935668 0.982116
0.933867 0.940276 0.981659
0.954009 0.947753 0.980926
0.973877 0.958404 0.980194
0.986267 0.970062 0.979889
0.986908 0.974670 0.977478
0.985473 0.980102 0.978637
0.914916 0.954314 0.980987
0.917144 0.954559 0.980987
0.924956 0.955261 0.980865
0.937041 0.955749 0.980407
0.963073 0.962066 0.979797
0.982544 0.972290 0.979828
0.986725 0.977813 0.978882
0.986419 0.981384 0.979980
0.935790 0.973877 0.980102
0.937224 0.973968 0.980102
0.942901 0.974273 0.980072
0.951843 0.974670 0.979950
0.962371 0.974914 0.979583
0.970916 0.973388 0.978302
0.986053 0.979431 0.979400
0.988525 0.977234 0.976379
0.955871 0.984985 0.980163
0.957000 0.984894 0.980163
0.960876 0.984619 0.980102
0.967010 0.984131 0.980041
0.974640 0.983673 0.980133
0.981567 0.983398 0.980529
0.984955 0.983459 0.981048
0.988800 0.981872 0.978393
