20 Preset/Ins style/【3】LUT video cho PR-AE-FCPX/Tone (12).cube
# Created by Adobe Lightroom plugin Export LUT (1.24.0)
# www.johnrellis.com/lightroom/exportlut.htm
# Preset: INS网红琥珀色-素材江湖10
# Color profile: C:\Program Files (x86)\Common Files\Adobe\Color\Profiles\Recommended\VideoHD.icc
LUT_3D_SIZE 32
DOMAIN_MIN 0.0 0.0 0.0
DOMAIN_MAX 1.0 1.0 1.0
0.000000 0.000000 0.000000
0.000000 0.000000 0.000000
0.006928 0.000305 0.000946
0.082368 0.002472 0.008179
0.125521 0.005921 0.019745
0.171389 0.013733 0.033082
0.226169 0.019989 0.039490
0.287968 0.008148 0.043061
0.354986 0.000000 0.039643
0.423774 0.000000 0.030549
0.494881 0.000000 0.015412
0.566033 0.000000 0.000000
0.636683 0.000000 0.000000
0.704128 0.000000 0.000000
0.765072 0.000000 0.000000
0.818448 0.000000 0.000000
0.865110 0.000000 0.000000
0.905364 0.008301 0.000000
0.939086 0.139345 0.000000
0.973846 0.205600 0.000000
1.000000 0.255619 0.000000
1.000000 0.298619 0.000000
1.000000 0.336339 0.067659
1.000000 0.370886 0.116945
1.000000 0.402777 0.150973
1.000000 0.433051 0.182681
1.000000 0.462409 0.214755
1.000000 0.491188 0.247135
1.000000 0.519829 0.281498
1.000000 0.549004 0.317967
1.000000 0.578729 0.357855
1.000000 0.609155 0.400946
0.000000 0.000000 0.000000
0.000000 0.000000 0.000000
0.009888 0.001068 0.001923
0.085512 0.003021 0.009125
0.126192 0.010040 0.020233
0.171267 0.023896 0.032868
0.224552 0.029511 0.040742
0.285161 0.017975 0.043580
0.351446 0.000000 0.039155
0.419867 0.000000 0.030030
0.490059 0.000000 0.016205
0.560418 0.000000 0.000000
0.630854 0.000000 0.000000
0.698329 0.000000 0.000000
0.759548 0.000000 0.000000
0.813657 0.000000 0.000000
0.860990 0.000000 0.000000
0.901701 0.011109 0.000000
0.936034 0.139925 0.000000
0.970123 0.203128 0.000000
0.996948 0.252232 0.000000
1.000000 0.292912 0.000000
1.000000 0.330114 0.043366
1.000000 0.363745 0.108339
1.000000 0.395636 0.142885
1.000000 0.425452 0.174380
1.000000 0.454566 0.206149
1.000000 0.483772 0.238071
1.000000 0.512657 0.272129
1.000000 0.541863 0.309087
1.000000 0.572045 0.348699
1.000000 0.602747 0.391852
0.000000 0.012085 0.007385
0.000000 0.014282 0.008209
0.018433 0.014435 0.007843
0.089876 0.028717 0.012238
0.129183 0.044282 0.023255
0.174807 0.062562 0.035035
0.228733 0.070771 0.042237
0.288853 0.062715 0.043305
0.354376 0.039826 0.037659
0.421820 0.000000 0.028229
0.491157 0.000000 0.013031
0.561303 0.000000 0.000000
0.631067 0.000000 0.000000
0.697688 0.000000 0.000000
0.758419 0.000000 0.000000
0.812039 0.000000 0.000000
0.859251 0.000000 0.000000
0.900023 0.097871 0.000000
0.935058 0.161349 0.000000
0.968353 0.215763 0.000000
0.994873 0.260014 0.000000
1.000000 0.299443 0.000000
1.000000 0.334722 0.036866
1.000000 0.367041 0.106661
1.000000 0.397528 0.140536
1.000000 0.426307 0.171481
1.000000 0.455268 0.202792
1.000000 0.483742 0.235325
1.000000 0.512230 0.269810
1.000000 0.541466 0.306218
1.000000 0.570947 0.345495
1.000000 0.601495 0.388739
0.015900 0.070527 0.045380
0.021576 0.069856 0.046509
0.036347 0.070497 0.045014
0.089784 0.080232 0.042298
0.129458 0.096498 0.049439
0.180667 0.106783 0.048432
0.240085 0.111391 0.042969
0.299931 0.112032 0.039612
0.364965 0.107362 0.031128
0.430854 0.096284 0.019989
0.499336 0.069520 0.002533
0.567529 0.010803 0.000000
0.636378 0.000000 0.000000
0.701503 0.000000 0.000000
0.760494 0.000000 0.000000
0.812802 0.005585 0.000000
0.858793 0.106172 0.000000
0.898680 0.154299 0.000000
0.933959 0.198215 0.000000
0.964996 0.239567 0.000000
0.990417 0.276219 0.000000
1.000000 0.311223 0.000000
1.000000 0.343694 0.023621
1.000000 0.374090 0.100984
1.000000 0.403510 0.137728
1.000000 0.432685 0.171023
1.000000 0.461463 0.203647
1.000000 0.489601 0.236790
1.000000 0.517754 0.271305
1.000000 0.546197 0.308019
1.000000 0.574884 0.347204
1.000000 0.604089 0.388891
0.059571 0.109865 0.093751
0.067933 0.109255 0.094179
0.078523 0.109560 0.093660
0.092897 0.114107 0.089265
0.130098 0.119631 0.085267
0.180301 0.135134 0.081758
0.238865 0.148684 0.071595
0.305333 0.154665 0.051026
0.376318 0.154849 0.025055
0.442725 0.151888 0.004425
0.509056 0.145815 0.000000
0.576226 0.138369 0.000000
0.643061 0.131411 0.000000
0.706905 0.130343 0.000000
0.764614 0.138125 0.000000
0.815976 0.158297 0.000000
0.861143 0.182315 0.000000
0.900053 0.212589 0.000000
0.935210 0.244999 0.000000
0.964630 0.277317 0.000000
0.989075 0.307958 0.000000
1.000000 0.337316 0.000000
1.000000 0.365728 0.028473
1.000000 0.393164 0.104585
1.000000 0.420539 0.141817
1.000000 0.447700 0.175479
1.000000 0.474525 0.208408
1.000000 0.501061 0.241184
1.000000 0.527520 0.275792
1.000000 0.554376 0.311864
1.000000 0.581750 0.350469
1.000000 0.609613 0.391241
0.089296 0.148043 0.122530
0.092287 0.147646 0.123110
0.102724 0.146334 0.124300
0.102022 0.151186 0.116304
0.129641 0.156802 0.110872
0.180179 0.162814 0.104829
0.241764 0.180911 0.098909
0.308171 0.195895 0.086641
0.378943 0.207309 0.056275
0.451514 0.210452 0.012970
0.523674 0.210025 0.000000
0.595209 0.207919 0.000000
0.659968 0.208133 0.000000
0.721035 0.211948 0.000000
0.776089 0.220096 0.000000
0.825010 0.233951 0.000000
0.868040 0.252598 0.000000
0.905730 0.274510 0.000000
0.939391 0.300267 0.000000
0.966705 0.325658 0.000000
0.989990 0.350408 0.000000
1.000000 0.374945 0.000000
1.000000 0.440070 0.134249
1.000000 0.464149 0.168795
1.000000 0.487098 0.200443
1.000000 0.509636 0.231815
1.000000 0.531823 0.263127
1.000000 0.554131 0.295201
1.000000 0.576959 0.328527
1.000000 0.600397 0.364385
1.000000 0.624231 0.401678
1.000000 0.648371 0.441077
0.107210 0.204440 0.163607
0.111452 0.204196 0.164340
0.128084 0.202029 0.167269
0.125246 0.206149 0.159274
0.139284 0.212009 0.150027
0.183688 0.218082 0.141268
0.251255 0.224369 0.132815
0.326604 0.245029 0.123781
0.398199 0.260960 0.107698
0.472663 0.274113 0.087861
0.548608 0.283146 0.026612
0.621973 0.286381 0.000000
0.690608 0.289555 0.000000
0.752041 0.295079 0.000000
0.802853 0.303227 0.000000
0.846189 0.314672 0.000000
0.884428 0.328801 0.000000
0.921660 0.350134 0.000000
0.951751 0.371160 0.000000
0.977264 0.391913 0.000000
1.000000 0.414038 0.000000
1.000000 0.436957 0.094453
1.000000 0.460334 0.135714
1.000000 0.483864 0.170840
1.000000 0.506401 0.204929
1.000000 0.527947 0.237308
1.000000 0.548089 0.268986
1.000000 0.568444 0.300389
1.000000 0.589227 0.333318
1.000000 0.610346 0.367529
1.000000 0.632288 0.404059
1.000000 0.654932 0.442206
0.131533 0.261295 0.206821
0.135561 0.261082 0.207492
0.152041 0.259525 0.210483
0.158297 0.261479 0.207401
0.153658 0.267308 0.192599
0.188754 0.273350 0.184390
0.243778 0.278935 0.173617
0.319738 0.284672 0.163821
0.399207 0.305974 0.156985
0.471839 0.322728 0.141665
0.547112 0.337713 0.126131
0.621607 0.351995 0.107973
0.689570 0.359899 0.081270
0.749416 0.366094 0.018860
0.801785 0.373419 0.000000
0.847349 0.382269 0.000000
0.889616 0.397131 0.000000
0.922057 0.411444 0.000000
0.949187 0.425849 0.000000
0.973083 0.441108 0.049165
0.995026 0.458076 0.106325
1.000000 0.476173 0.140505
1.000000 0.495094 0.170443
1.000000 0.514458 0.200320
1.000000 0.533715 0.227817
1.000000 0.551843 0.253361
1.000000 0.569909 0.280858
1.000000 0.587762 0.311650
1.000000 0.606470 0.343755
1.000000 0.625727 0.377356
1.000000 0.645594 0.412818
1.000000 0.666621 0.450324
0.170596 0.324743 0.258762
0.175082 0.324651 0.259709
0.189487 0.323522 0.262547
0.203372 0.323919 0.263523
0.192264 0.329046 0.248844
0.208835 0.334447 0.236576
0.251347 0.339788 0.226444
0.313542 0.344640 0.213993
0.392767 0.350042 0.204410
0.474311 0.371405 0.200137
0.548272 0.390295 0.188235
0.621088 0.407477 0.177554
0.688563 0.423957 0.168093
0.747555 0.438788 0.157931
0.800229 0.448249 0.144747
0.847562 0.459480 0.133516
0.886503 0.468605 0.125795
0.918975 0.476814 0.120302
0.946685 0.484474 0.121523
0.969482 0.494972 0.143557
0.990448 0.507164 0.165438
1.000000 0.520592 0.189151
1.000000 0.535149 0.213809
1.000000 0.550439 0.238010
1.000000 0.566033 0.261845
1.000000 0.581231 0.284581
1.000000 0.596368 0.307897
1.000000 0.611872 0.331273
1.000000 0.628260 0.360113
1.000000 0.645319 0.392828
1.000000 0.663325 0.427527
1.000000 0.682094 0.463203
0.221530 0.392676 0.317540
0.224582 0.392523 0.318273
0.237217 0.391669 0.321080
0.257359 0.390570 0.325505
0.247868 0.394690 0.313359
0.243381 0.399664 0.295903
0.274083 0.404089 0.286442
0.321904 0.408698 0.274876
0.386297 0.412146 0.260655
0.466682 0.416846 0.252049
0.548363 0.438575 0.251438
0.618128 0.458686 0.243320
0.684443 0.478584 0.238132
0.744961 0.498909 0.234806
0.797940 0.517937 0.233188
0.842161 0.530175 0.229068
0.878813 0.536461 0.224552
0.910399 0.541772 0.221958
0.937896 0.546654 0.221866
0.962829 0.552178 0.222934
0.985534 0.558190 0.225986
1.000000 0.566400 0.240543
1.000000 0.575921 0.258640
1.000000 0.586847 0.277256
1.000000 0.597955 0.296941
1.000000 0.609827 0.316197
1.000000 0.622217 0.337194
1.000000 0.635401 0.358221
1.000000 0.649653 0.381323
1.000000 0.664881 0.408728
1.000000 0.681514 0.443030
1.000000 0.698909 0.478279
0.276371 0.460060 0.377874
0.278782 0.459907 0.378454
0.290135 0.459663 0.381537
0.311681 0.458991 0.387793
0.307744 0.462074 0.379706
0.296880 0.467109 0.363378
0.311192 0.471809 0.351232
0.347234 0.476143 0.341100
0.398352 0.480415 0.329259
0.464515 0.483406 0.314611
0.547387 0.490303 0.309850
0.625818 0.514122 0.315221
0.687770 0.535729 0.311589
0.743374 0.554650 0.308629
0.792569 0.571405 0.307225
0.834318 0.585260 0.308659
0.869566 0.596887 0.311681
0.899718 0.600092 0.309178
0.926574 0.603052 0.307683
0.951019 0.606256 0.307103
0.973663 0.609491 0.307561
0.994446 0.613458 0.309667
1.000000 0.618860 0.314061
1.000000 0.625635 0.324987
1.000000 0.634058 0.341009
1.000000 0.643336 0.358434
1.000000 0.653223 0.376104
1.000000 0.664149 0.395056
1.000000 0.676051 0.415930
1.000000 0.688991 0.437995
1.000000 0.703334 0.465431
1.000000 0.718898 0.499214
0.340917 0.532128 0.445411
0.343542 0.532036 0.446113
0.352483 0.531945 0.448646
0.371618 0.531914 0.454810
0.377203 0.533898 0.452857
0.368109 0.537957 0.439368
0.365576 0.544701 0.424079
0.393103 0.550042 0.416876
0.433875 0.555352 0.407813
0.488075 0.560174 0.396674
0.553185 0.563439 0.383429
0.626856 0.568261 0.378912
0.723720 0.622950 0.424689
0.772152 0.640558 0.424292
0.812802 0.652979 0.424903
0.847501 0.662379 0.426276
0.877623 0.669856 0.428809
0.904601 0.676967 0.432715
0.929412 0.681422 0.434119
0.952300 0.681941 0.431006
0.973510 0.682582 0.428626
0.993072 0.683864 0.427680
1.000000 0.685695 0.427802
1.000000 0.688441 0.429480
1.000000 0.691768 0.431495
1.000000 0.696132 0.437507
1.000000 0.702052 0.449866
1.000000 0.709133 0.463447
1.000000 0.717281 0.479011
1.000000 0.726680 0.496132
1.000000 0.737270 0.515007
1.000000 0.749538 0.539971
0.441382 0.624109 0.539574
0.442878 0.624018 0.540002
0.449958 0.623560 0.541924
0.465156 0.623377 0.546838
0.477516 0.623407 0.549187
0.469215 0.625849 0.538109
0.459510 0.629816 0.521904
0.470466 0.633112 0.510948
0.498146 0.636652 0.502831
0.537102 0.640497 0.494026
0.586816 0.644892 0.484291
0.644892 0.649104 0.473579
0.707759 0.655146 0.473579
0.760311 0.670619 0.485115
0.800443 0.685420 0.488319
0.833951 0.694942 0.489876
0.863218 0.702083 0.491646
0.889769 0.707912 0.493111
0.914000 0.713375 0.495491
0.936126 0.718624 0.499123
0.957031 0.719814 0.497047
0.976715 0.720119 0.494545
0.995270 0.720974 0.492988
1.000000 0.722560 0.492439
1.000000 0.724788 0.493294
1.000000 0.727565 0.494820
1.000000 0.730831 0.496651
1.000000 0.735225 0.501213
1.000000 0.741909 0.514580
1.000000 0.749874 0.529381
1.000000 0.758907 0.545983
1.000000 0.769192 0.564752
0.515587 0.683619 0.603937
0.516258 0.683223 0.603784
0.521386 0.682734 0.605249
0.531487 0.681849 0.608026
0.547723 0.680903 0.613336
0.540673 0.681727 0.604425
0.531975 0.683864 0.591730
0.527367 0.686580 0.577264
0.544457 0.688777 0.570001
0.570397 0.691798 0.562585
0.605615 0.695338 0.554986
0.648859 0.698665 0.546410
0.697902 0.701381 0.536645
0.749630 0.704311 0.536767
0.790494 0.713313 0.546502
0.822599 0.723751 0.548669
0.850797 0.730587 0.548730
0.876341 0.736141 0.549248
0.900267 0.741024 0.550195
0.922148 0.745449 0.552117
0.942626 0.749813 0.554345
0.961822 0.754116 0.557305
0.980438 0.754543 0.555108
0.998169 0.755581 0.553796
1.000000 0.757015 0.553216
1.000000 0.759121 0.553643
1.000000 0.761593 0.554681
1.000000 0.764767 0.556664
1.000000 0.768704 0.559808
1.000000 0.773739 0.565057
1.000000 0.781277 0.579095
1.000000 0.790066 0.595575
0.578302 0.730495 0.656306
0.579217 0.730282 0.656489
0.582574 0.729763 0.657252
0.590143 0.728908 0.659388
0.601923 0.727901 0.663142
0.602258 0.727565 0.659541
0.595117 0.728603 0.650111
0.587366 0.730556 0.637476
0.592340 0.732448 0.628901
0.608759 0.734554 0.622858
0.632166 0.736965 0.616938
0.662470 0.739498 0.610285
0.698299 0.741543 0.602594
0.738643 0.742550 0.593194
0.780758 0.743099 0.592554
0.813474 0.747921 0.599634
0.841001 0.756130 0.600641
0.865660 0.761624 0.600153
0.888670 0.766232 0.599969
0.910185 0.770291 0.600397
0.930388 0.774228 0.601678
0.949462 0.778500 0.604273
0.967437 0.783017 0.607752
0.984741 0.785641 0.608667
1.000000 0.786648 0.607263
1.000000 0.788113 0.606561
1.000000 0.790158 0.607080
1.000000 0.792905 0.608850
1.000000 0.796445 0.611719
1.000000 0.801053 0.616541
1.000000 0.806607 0.623224
1.000000 0.813046 0.631769
0.631678 0.764828 0.698116
0.632502 0.764920 0.698543
0.635798 0.764797 0.699580
0.641596 0.764614 0.701595
0.651270 0.764401 0.705196
0.657649 0.764584 0.706508
0.653315 0.765805 0.700710
0.648280 0.767697 0.692775
0.644953 0.769955 0.683436
0.654170 0.771420 0.678859
0.667781 0.772885 0.673762
0.686091 0.774105 0.667506
0.709346 0.774838 0.660182
0.737301 0.774807 0.651087
0.769436 0.773709 0.640101
0.803769 0.772702 0.637995
0.832029 0.775631 0.642878
0.856474 0.782650 0.643183
0.878630 0.787472 0.642725
0.899626 0.791653 0.642542
0.919615 0.795804 0.643488
0.938598 0.800076 0.645686
0.956664 0.804440 0.648463
0.973754 0.808988 0.652125
0.989899 0.813626 0.656123
1.000000 0.815274 0.655756
1.000000 0.817075 0.656031
1.000000 0.819333 0.656947
1.000000 0.822293 0.658930
1.000000 0.825956 0.662440
1.000000 0.830381 0.667231
1.000000 0.835508 0.673701
0.673579 0.792721 0.731868
0.674403 0.792721 0.732174
0.676478 0.792691 0.732937
0.681178 0.792721 0.734707
0.688289 0.792813 0.737484
0.698146 0.793118 0.741695
0.694789 0.794003 0.737301
0.690974 0.795346 0.731624
0.686702 0.797116 0.724086
0.688746 0.798550 0.718379
0.697353 0.799741 0.714351
0.709316 0.800778 0.709621
0.725093 0.801450 0.704036
0.744625 0.801602 0.697261
0.768185 0.800961 0.689021
0.795224 0.799557 0.679286
0.824796 0.798459 0.677180
0.849699 0.800565 0.680903
0.871824 0.806790 0.681147
0.891875 0.811124 0.680659
0.911345 0.815305 0.680964
0.930083 0.819394 0.682124
0.947936 0.823545 0.684169
0.964904 0.827817 0.686824
0.981079 0.832120 0.689998
0.996338 0.836637 0.693782
1.000000 0.840299 0.696529
1.000000 0.842374 0.697200
1.000000 0.844938 0.698665
1.000000 0.848051 0.701259
1.000000 0.851804 0.705165
1.000000 0.856138 0.710323
0.708827 0.818753 0.761929
0.709377 0.818906 0.762203
0.728054 0.831724 0.777615
0.731441 0.831876 0.778988
0.736690 0.831998 0.781155
0.744076 0.832273 0.784298
0.745083 0.832670 0.783169
0.741848 0.833341 0.778592
0.738430 0.834440 0.772976
0.735256 0.835752 0.766079
0.740475 0.836362 0.762722
0.748043 0.836820 0.758846
0.758022 0.836790 0.753933
0.770871 0.836301 0.748196
0.786709 0.835172 0.741299
0.805631 0.833402 0.733242
0.827695 0.830930 0.723903
0.852110 0.829007 0.721096
0.873167 0.829404 0.722530
0.892363 0.834134 0.721706
0.910155 0.837552 0.720607
0.927581 0.841123 0.720546
0.944518 0.844602 0.721035
0.960662 0.848051 0.722164
0.975952 0.851408 0.723659
0.990570 0.854826 0.725521
1.000000 0.858427 0.727871
1.000000 0.862364 0.731106
1.000000 0.864836 0.732418
1.000000 0.867399 0.734188
1.000000 0.870512 0.737179
1.000000 0.874174 0.741512
0.742763 0.844755 0.791775
0.744533 0.845792 0.793118
0.747494 0.847013 0.795071
0.751766 0.848081 0.797421
0.757137 0.849027 0.800137
0.763851 0.849607 0.803220
0.768399 0.850065 0.804654
0.765713 0.850523 0.800931
0.762448 0.851286 0.796139
0.759152 0.852293 0.790249
0.759792 0.853086 0.785519
0.765103 0.853452 0.782223
0.772274 0.853513 0.778103
0.781796 0.853208 0.773251
0.793759 0.852537 0.767758
0.808560 0.851377 0.761410
0.826200 0.849729 0.754055
0.846525 0.847684 0.746120
0.868894 0.846250 0.744320
0.888396 0.846586 0.746059
0.906218 0.851194 0.745876
0.923156 0.854978 0.745693
0.939483 0.858579 0.746059
0.955200 0.861997 0.746853
0.970184 0.865263 0.747860
0.984436 0.868498 0.749325
0.998047 0.871885 0.751247
1.000000 0.875486 0.753964
1.000000 0.879484 0.757534
1.000000 0.883543 0.761624
1.000000 0.886351 0.764248
1.000000 0.889677 0.768276
0.766049 0.862242 0.812314
0.767666 0.863218 0.813596
0.770413 0.864347 0.815457
0.774105 0.865354 0.817563
0.778958 0.866300 0.820066
0.784756 0.866850 0.822782
0.791745 0.867308 0.825986
0.789792 0.867643 0.823148
0.787045 0.868223 0.819272
0.783993 0.868956 0.814359
0.780850 0.869932 0.808347
0.784543 0.870207 0.805447
0.789731 0.870298 0.801999
0.796780 0.870176 0.797971
0.805875 0.869749 0.793362
0.817166 0.868986 0.788113
0.830961 0.867765 0.782162
0.847105 0.866270 0.775509
0.865812 0.864500 0.768399
0.886198 0.863249 0.767117
0.903868 0.863188 0.768795
0.920256 0.867491 0.768826
0.935973 0.871305 0.769162
0.951141 0.874784 0.769711
0.965606 0.878019 0.770504
0.979492 0.881193 0.771572
0.992706 0.884398 0.773129
1.000000 0.887785 0.775448
1.000000 0.891539 0.778683
1.000000 0.895659 0.782895
1.000000 0.900145 0.788235
1.000000 0.903868 0.793027
0.788724 0.878843 0.832303
0.790097 0.879637 0.833371
0.792386 0.880552 0.834897
0.795499 0.881376 0.836698
0.799710 0.882139 0.838834
0.804654 0.882628 0.841154
0.810727 0.883024 0.843961
0.812436 0.883421 0.843778
0.810056 0.883879 0.840543
0.807492 0.884489 0.836576
0.804623 0.885252 0.831632
0.804318 0.885863 0.827329
0.808042 0.885954 0.824338
0.813199 0.885954 0.820981
0.820127 0.885710 0.817136
0.828885 0.885313 0.812894
0.839872 0.884764 0.808286
0.853147 0.884031 0.803311
0.868742 0.883207 0.798093
0.886534 0.882292 0.792599
0.905516 0.881743 0.792477
0.921874 0.881926 0.794827
0.936858 0.886076 0.795346
0.951507 0.890013 0.796384
0.965454 0.893614 0.797513
0.978729 0.896971 0.798886
0.991302 0.900237 0.800534
1.000000 0.903624 0.802823
1.000000 0.907195 0.805966
1.000000 0.911070 0.810056
1.000000 0.915190 0.815091
1.000000 0.919493 0.821347
0.817227 0.898772 0.857053
0.817899 0.899107 0.857511
0.819059 0.899382 0.858183
0.821042 0.899596 0.859098
0.823941 0.899809 0.860380
0.827695 0.899931 0.861967
0.832639 0.900145 0.864164
0.837217 0.900420 0.865995
0.835203 0.900786 0.863371
0.833066 0.901335 0.860197
0.830655 0.901976 0.856199
0.828061 0.902770 0.851377
0.830076 0.902953 0.848508
0.833829 0.902983 0.845670
0.838804 0.902831 0.842374
0.845365 0.902525 0.838743
0.853574 0.902068 0.834714
0.863737 0.901427 0.830320
0.875792 0.900664 0.825650
0.889860 0.899748 0.820645
0.905791 0.898680 0.815305
0.922423 0.897856 0.814817
0.936706 0.897246 0.816281
0.949737 0.900481 0.816068
0.962799 0.903929 0.816770
0.975494 0.907317 0.817929
0.987640 0.910643 0.819547
0.999268 0.914031 0.821714
1.000000 0.917571 0.824704
1.000000 0.921263 0.828489
1.000000 0.925170 0.833280
1.000000 0.929107 0.838956
0.836759 0.912505 0.874113
0.837308 0.912779 0.874510
0.838346 0.912993 0.875090
0.840055 0.913207 0.875914
0.842588 0.913390 0.877012
0.845823 0.913542 0.878416
0.850095 0.913725 0.880339
0.855436 0.914000 0.882750
0.855619 0.914366 0.881773
0.853758 0.914824 0.879149
0.851652 0.915404 0.875883
0.849424 0.916075 0.871977
0.848386 0.916625 0.868009
0.851194 0.916747 0.865660
0.855009 0.916777 0.863066
0.860075 0.916686 0.860105
0.866575 0.916503 0.856870
0.874540 0.916197 0.853300
0.884245 0.915770 0.849516
0.895598 0.915221 0.845457
0.908659 0.914580 0.841093
0.923308 0.913787 0.836484
0.938262 0.912993 0.836088
0.950958 0.912078 0.837339
0.960601 0.912810 0.833890
0.972412 0.916045 0.834592
0.984100 0.919432 0.836118
0.995300 0.922881 0.838224
1.000000 0.926390 0.841062
1.000000 0.930083 0.844724
1.000000 0.933837 0.849271
1.000000 0.937377 0.854215
0.858610 0.927459 0.892973
0.859312 0.927794 0.893492
0.860136 0.928008 0.893950
0.861418 0.928008 0.894438
0.863096 0.927916 0.895048
0.865446 0.927764 0.895903
0.868620 0.927611 0.897093
0.872648 0.927520 0.898711
0.875273 0.927489 0.899351
0.873228 0.927581 0.896818
0.870939 0.927733 0.893706
0.868589 0.928069 0.890135
0.866117 0.928466 0.885893
0.866575 0.928527 0.882811
0.869017 0.928313 0.880156
0.872435 0.928069 0.877287
0.877134 0.927764 0.874174
0.883207 0.927489 0.871000
0.890929 0.927276 0.867796
0.900298 0.927031 0.864469
0.911162 0.926757 0.861021
0.923430 0.926329 0.857237
0.936858 0.925689 0.853056
0.950195 0.924743 0.852445
0.961303 0.923247 0.853178
0.971313 0.925444 0.852293
0.981781 0.928283 0.852842
0.992370 0.931518 0.854490
1.000000 0.934905 0.856901
1.000000 0.938231 0.859953
1.000000 0.941558 0.863645
1.000000 0.945006 0.868345
0.873381 0.937835 0.905821
0.874022 0.938140 0.906279
0.874846 0.938323 0.906737
0.876036 0.938415 0.907286
0.877745 0.938476 0.907988
0.880064 0.938537 0.908965
0.883146 0.938628 0.910277
0.887053 0.938781 0.912016
0.891722 0.939055 0.914183
0.891142 0.939361 0.912902
0.889525 0.939696 0.910643
0.887724 0.940093 0.907897
0.885679 0.940551 0.904540
0.883848 0.940917 0.900694
0.885557 0.940856 0.898528
0.887999 0.940673 0.896056
0.891417 0.940490 0.893431
0.896025 0.940307 0.890745
0.901976 0.940215 0.887968
0.909300 0.940124 0.885191
0.917998 0.940032 0.882292
0.927977 0.939879 0.879271
0.939147 0.939605 0.875944
0.951385 0.939178 0.872221
0.963226 0.938293 0.871763
0.973114 0.936675 0.872496
0.981994 0.938659 0.871885
0.991333 0.941344 0.872709
1.000000 0.944396 0.874632
1.000000 0.947448 0.877165
1.000000 0.950591 0.880583
1.000000 0.953765 0.884947
0.889738 0.949004 0.919799
0.890074 0.949157 0.920012
0.890654 0.949248 0.920317
0.891600 0.949279 0.920684
0.892973 0.949279 0.921233
0.894926 0.949279 0.922026
0.897490 0.949310 0.923095
0.900725 0.949401 0.924468
0.904662 0.949523 0.926238
0.906920 0.949737 0.926879
0.905486 0.950042 0.924987
0.903929 0.950408 0.922789
0.902251 0.950835 0.920104
0.900298 0.951263 0.916838
0.899962 0.951446 0.914000
0.901732 0.951415 0.911986
0.904265 0.951324 0.909789
0.907713 0.951293 0.907530
0.912322 0.951324 0.905272
0.918059 0.951385 0.902983
0.924987 0.951476 0.900664
0.933013 0.951537 0.898161
0.942107 0.951476 0.895445
0.952239 0.951324 0.892454
0.963378 0.950988 0.889189
0.973785 0.949950 0.888457
0.982452 0.947906 0.888853
0.990143 0.949401 0.887938
0.998230 0.951537 0.888426
1.000000 0.954559 0.890837
1.000000 0.957610 0.894072
1.000000 0.960693 0.898283
0.903532 0.958526 0.931518
0.903807 0.958618 0.931701
0.904326 0.958709 0.931945
0.905241 0.958801 0.932341
0.906554 0.958892 0.932952
0.908507 0.959045 0.933837
0.911192 0.959380 0.935119
0.914519 0.959777 0.936736
0.918486 0.960266 0.938750
0.923003 0.960876 0.941070
0.923125 0.961578 0.940551
0.922515 0.962371 0.939361
0.921782 0.963134 0.937835
0.920714 0.963836 0.935790
0.919371 0.964508 0.933135
0.920531 0.964752 0.931579
0.922393 0.964874 0.930022
0.924926 0.965026 0.928344
0.928313 0.965240 0.926696
0.932555 0.965484 0.924987
0.937743 0.965728 0.923217
0.943725 0.965881 0.921172
0.950561 0.965881 0.918914
0.958343 0.965820 0.916411
0.967071 0.965606 0.913634
0.976776 0.965301 0.910582
0.985748 0.964141 0.909819
0.993164 0.961883 0.910124
0.999573 0.963012 0.909331
1.000000 0.964660 0.909911
1.000000 0.967376 0.912840
1.000000 0.970092 0.916686
0.921263 0.970092 0.946044
0.921355 0.970092 0.946105
0.921630 0.970062 0.946197
0.922210 0.970031 0.946410
0.923156 0.970001 0.946746
0.924529 0.970001 0.947295
0.926390 0.970001 0.948058
0.928740 0.970062 0.949096
0.931609 0.970153 0.950347
0.934936 0.970306 0.951904
0.936889 0.970550 0.952544
0.936065 0.970977 0.951385
0.935149 0.971466 0.949920
0.934081 0.971984 0.948150
