20 Preset/Ins style/【3】LUT video cho PR-AE-FCPX/Tone (12).cube
# Created by Adobe Lightroom plugin Export LUT (1.24.0)
# www.johnrellis.com/lightroom/exportlut.htm
# Preset: INS网红琥珀色-素材江湖10
# Color profile: C:\Program Files (x86)\Common Files\Adobe\Color\Profiles\Recommended\VideoHD.icc
LUT_3D_SIZE 8
DOMAIN_MIN 0.000000 0.000000 0.000000
DOMAIN_MAX 0.903226 0.903226 0.903226
0.000000 0.000000 0.000000
0.125521 0.005921 0.019745
0.354986 0.000000 0.039643
0.636683 0.000000 0.000000
0.865110 0.000000 0.000000
1.000000 0.255619 0.000000
1.000000 0.402777 0.150973
1.000000 0.519829 0.281498
0.059571 0.109865 0.093751
0.130098 0.119631 0.085267
0.376318 0.154849 0.025055
0.643061 0.131411 0.000000
0.861143 0.182315 0.000000
0.989075 0.307958 0.000000
1.000000 0.420539 0.141817
1.000000 0.527520 0.275792
0.170596 0.324743 0.258762
0.192264 0.329046 0.248844
0.392767 0.350042 0.204410
0.688563 0.423957 0.168093
0.886503 0.468605 0.125795
0.990448 0.507164 0.165438
1.000000 0.566033 0.261845
1.000000 0.628260 0.360113
0.441382 0.624109 0.539574
0.477516 0.623407 0.549187
0.498146 0.636652 0.502831
0.707759 0.655146 0.473579
0.863218 0.702083 0.491646
0.957031 0.719814 0.497047
1.000000 0.724788 0.493294
1.000000 0.741909 0.514580
0.673579 0.792721 0.731868
0.688289 0.792813 0.737484
0.686702 0.797116 0.724086
0.725093 0.801450 0.704036
0.824796 0.798459 0.677180
0.911345 0.815305 0.680964
0.981079 0.832120 0.689998
1.000000 0.844938 0.698665
0.788724 0.878843 0.832303
0.799710 0.882139 0.838834
0.810056 0.883879 0.840543
0.808042 0.885954 0.824338
0.839872 0.884764 0.808286
0.905516 0.881743 0.792477
0.965454 0.893614 0.797513
1.000000 0.907195 0.805966
0.873381 0.937835 0.905821
0.877745 0.938476 0.907988
0.891722 0.939055 0.914183
0.885679 0.940551 0.904540
0.891417 0.940490 0.893431
0.917998 0.940032 0.882292
0.963226 0.938293 0.871763
1.000000 0.944396 0.874632
0.932952 0.977661 0.955596
0.934600 0.977600 0.956237
0.941772 0.977630 0.959228
0.946807 0.978454 0.960174
0.939513 0.977630 0.949676
0.949004 0.979217 0.945678
0.968536 0.980560 0.940215
0.998077 0.979522 0.933806
0.000000 0.021454 0.107546
0.095277 0.073365 0.091005
0.324651 0.000000 0.103212
0.594385 0.000000 0.101808
0.836820 0.070893 0.084382
0.976226 0.265049 0.107393
1.000000 0.391943 0.174533
1.000000 0.504143 0.261204
0.015656 0.121736 0.120058
0.139498 0.130373 0.122835
0.351171 0.153780 0.125582
0.614282 0.156558 0.112673
0.842374 0.209812 0.100710
0.972900 0.319097 0.127382
1.000000 0.418769 0.186770
1.000000 0.517205 0.268345
0.192386 0.325048 0.270451
0.245304 0.325139 0.281895
0.387396 0.345159 0.245853
0.664485 0.419318 0.232914
0.863310 0.456367 0.207370
0.969635 0.495674 0.230014
1.000000 0.546624 0.284855
1.000000 0.610163 0.360266
0.418616 0.599115 0.518029
0.462928 0.599359 0.532433
0.487282 0.613306 0.497871
0.675624 0.621973 0.461006
0.838376 0.672786 0.470863
0.937469 0.693477 0.476936
1.000000 0.701534 0.474525
1.000000 0.724300 0.502586
0.664698 0.786007 0.725002
0.678462 0.785519 0.729702
0.684138 0.788113 0.720821
0.714351 0.789944 0.695705
0.812131 0.784787 0.665797
0.900786 0.804349 0.671809
0.973144 0.823667 0.683528
1.000000 0.837064 0.691890
0.780301 0.873045 0.825467
0.787655 0.873808 0.828794
0.803128 0.876127 0.833890
0.800931 0.879240 0.818326
0.833402 0.879057 0.803525
0.900633 0.877562 0.789975
0.961486 0.890196 0.795224
1.000000 0.903807 0.803006
0.866880 0.933959 0.900786
0.869688 0.933623 0.901640
0.884062 0.934234 0.907927
0.881010 0.936217 0.900420
0.887724 0.937377 0.890379
0.914336 0.936950 0.879210
0.959380 0.934417 0.867460
0.997833 0.940673 0.869688
0.929351 0.976013 0.953155
0.931701 0.976318 0.954253
0.938994 0.976318 0.957275
0.945556 0.977203 0.959167
0.942443 0.979004 0.952453
0.950103 0.979736 0.947204
0.968292 0.980316 0.940459
0.997742 0.979187 0.933898
0.000000 0.097169 0.300664
0.152132 0.130068 0.283207
0.259770 0.196017 0.243229
0.579461 0.000000 0.284703
0.804837 0.000000 0.244816
0.956512 0.288334 0.299168
1.000000 0.432898 0.351659
1.000000 0.539269 0.410040
0.000000 0.162478 0.306371
0.178592 0.187442 0.295842
0.296269 0.234714 0.273167
0.589960 0.127047 0.273136
0.810208 0.179507 0.267460
0.950927 0.342626 0.313634
1.000000 0.455634 0.357733
1.000000 0.551904 0.414984
0.000000 0.333898 0.319127
0.141878 0.342412 0.321782
0.402075 0.371191 0.343664
0.647761 0.409613 0.349218
0.839078 0.459419 0.365759
0.947387 0.514366 0.391760
1.000000 0.570367 0.429114
1.000000 0.630274 0.478340
0.406561 0.601465 0.532097
0.453986 0.607202 0.545190
0.539574 0.622309 0.564385
0.676692 0.630701 0.538598
0.827176 0.685023 0.556329
0.924468 0.702205 0.560723
1.000000 0.715267 0.563256
1.000000 0.740108 0.589410
0.655818 0.781155 0.722469
0.671138 0.782437 0.728054
0.716182 0.788510 0.746365
0.728573 0.792569 0.723262
0.811582 0.789456 0.701991
0.895262 0.810788 0.706813
0.966979 0.829892 0.716823
1.000000 0.840604 0.719387
0.776516 0.870878 0.824155
0.784054 0.872129 0.827665
0.811887 0.875425 0.840696
0.808804 0.878202 0.827543
0.835111 0.877653 0.813107
0.897398 0.876341 0.801053
0.958221 0.891264 0.807584
1.000000 0.906279 0.816739
0.867063 0.935210 0.902525
0.870054 0.935058 0.903502
0.883940 0.935607 0.909239
0.890471 0.937255 0.908568
0.892515 0.938231 0.897276
0.916747 0.938140 0.886870
0.960357 0.936614 0.877165
0.998444 0.944182 0.880339
0.928557 0.976959 0.953796
0.930053 0.976806 0.954253
0.937530 0.976898 0.957244
0.950225 0.977905 0.962982
0.945892 0.979675 0.956085
0.952728 0.980713 0.951354
0.969696 0.981445 0.945006
0.997955 0.980255 0.938445
0.000000 0.166629 0.574853
0.119509 0.205936 0.571771
0.454200 0.380896 0.532616
0.512871 0.400458 0.482033
0.739742 0.341588 0.513237
0.932097 0.259495 0.467048
1.000000 0.360266 0.442176
1.000000 0.520439 0.510430
0.000000 0.253727 0.575586
0.219760 0.284276 0.571038
0.476143 0.420142 0.542657
0.532586 0.426581 0.499428
0.757839 0.360571 0.519341
0.930022 0.294713 0.462287
1.000000 0.407660 0.458869
1.000000 0.543999 0.522789
0.000000 0.383154 0.551995
0.192264 0.391272 0.552178
0.482704 0.470619 0.549950
0.568322 0.479316 0.523980
0.800931 0.420050 0.506584
0.918822 0.463844 0.491005
0.995148 0.568444 0.545586
1.000000 0.638666 0.586358
0.000000 0.564538 0.542779
0.000000 0.568627 0.543114
0.467018 0.599207 0.572259
0.663752 0.633906 0.602838
0.804715 0.665217 0.612482
0.897490 0.685481 0.623133
0.973541 0.711696 0.640223
1.000000 0.742489 0.661341
0.594354 0.766323 0.709804
0.625055 0.767391 0.716030
0.696681 0.779202 0.739803
0.744442 0.793149 0.753719
0.807767 0.793027 0.739010
0.888121 0.816953 0.746609
0.960021 0.831846 0.751766
1.000000 0.840635 0.750790
0.765866 0.867582 0.822446
0.776699 0.871244 0.828275
0.804746 0.875822 0.840208
0.835294 0.882963 0.852873
0.846220 0.882353 0.836362
0.897124 0.878721 0.823331
0.955840 0.895171 0.829404
1.000000 0.910033 0.837888
0.859464 0.934325 0.901122
0.863828 0.935088 0.903044
0.880461 0.937438 0.910307
0.909209 0.941741 0.924590
0.904967 0.942901 0.912749
0.922637 0.941924 0.901854
0.961089 0.939361 0.891417
0.998352 0.947875 0.894102
0.926635 0.979492 0.955627
0.928557 0.979492 0.956268
0.936492 0.979644 0.959167
0.950805 0.980194 0.965209
0.955047 0.981262 0.964599
0.957153 0.982391 0.958404
0.971649 0.983093 0.952239
0.998230 0.982177 0.946258
0.190188 0.327886 0.775998
0.332860 0.364752 0.774777
0.579583 0.500877 0.761288
0.716304 0.693263 0.733364
0.723293 0.628901 0.696254
0.810819 0.567803 0.678920
0.963378 0.513329 0.664363
1.000000 0.520989 0.636225
0.294621 0.399756 0.772549
0.391669 0.429511 0.771969
0.596155 0.539849 0.761166
0.721065 0.702785 0.736843
0.726802 0.638788 0.700099
0.817594 0.574884 0.681941
0.964691 0.522728 0.663081
1.000000 0.532250 0.635187
0.322759 0.504631 0.758938
0.396124 0.519432 0.760067
0.599237 0.598260 0.752316
0.726894 0.717647 0.741024
0.730587 0.657862 0.702693
0.836790 0.592432 0.682002
0.960784 0.559258 0.653437
1.000000 0.574121 0.630335
0.341741 0.616083 0.725948
0.388830 0.619623 0.725704
0.530449 0.637720 0.726345
0.713558 0.713832 0.731930
0.736110 0.674556 0.696834
0.866636 0.636866 0.671015
0.948150 0.655543 0.664851
1.000000 0.705989 0.692836
0.260105 0.715419 0.688991
0.304173 0.717983 0.690089
0.446387 0.720729 0.688472
0.708156 0.760708 0.739193
0.787442 0.779538 0.752316
0.868254 0.796048 0.757687
0.943725 0.805631 0.760250
1.000000 0.818753 0.766049
0.662623 0.836576 0.786130
0.678828 0.838102 0.789609
0.734188 0.842985 0.802670
0.802335 0.858671 0.830320
0.836912 0.870268 0.840848
0.885618 0.872343 0.833677
0.949187 0.892454 0.843992
1.000000 0.905303 0.849729
0.824949 0.923217 0.887358
0.829129 0.923674 0.888457
0.847593 0.926757 0.894957
0.884916 0.934600 0.911589
0.915679 0.942443 0.925811
0.923033 0.941527 0.912810
0.958007 0.938170 0.902037
0.996185 0.947814 0.903532
0.905791 0.977630 0.949584
0.908354 0.977691 0.950256
0.919097 0.978149 0.953491
0.939757 0.980316 0.961639
0.962188 0.982025 0.971649
0.961303 0.983368 0.965728
0.972198 0.983734 0.959106
0.997101 0.982300 0.952148
0.510704 0.533532 0.878172
0.556115 0.559350 0.876646
0.676478 0.644099 0.867948
0.788144 0.755978 0.857847
0.840146 0.847868 0.844724
0.825315 0.776028 0.810819
0.871183 0.731136 0.794522
0.978668 0.701808 0.796109
0.531273 0.566583 0.870329
0.568750 0.585809 0.868589
0.679316 0.658289 0.861875
0.783810 0.755520 0.851957
0.835935 0.844175 0.840513
0.821805 0.773373 0.807034
0.867063 0.728267 0.789883
0.978149 0.699855 0.792630
0.565301 0.643732 0.865324
0.605402 0.663264 0.862608
0.698024 0.711299 0.858885
0.788296 0.775418 0.851713
0.842039 0.850156 0.846372
0.825528 0.783597 0.810575
0.863676 0.735378 0.786648
0.985809 0.711696 0.792630
0.551324 0.701656 0.846159
0.572839 0.705623 0.845274
0.669459 0.736019 0.846616
0.783230 0.793057 0.850156
0.851469 0.858366 0.855802
0.832425 0.797757 0.815427
0.895323 0.755550 0.798062
1.000000 0.733761 0.790127
0.560540 0.756710 0.814084
0.577111 0.758450 0.813993
0.635889 0.766354 0.814328
0.718837 0.782040 0.817472
0.822660 0.831174 0.830686
0.829435 0.786526 0.795590
0.921996 0.763394 0.779416
1.000000 0.765805 0.772213
0.467079 0.802426 0.777005
0.484932 0.804196 0.778317
0.537774 0.806760 0.778897
0.647578 0.811521 0.782803
0.811093 0.848478 0.830930
0.873655 0.866178 0.845335
0.942687 0.879484 0.851957
1.000000 0.885313 0.852720
0.691035 0.903655 0.857877
0.702541 0.905455 0.860685
0.744411 0.910124 0.869474
0.819242 0.917632 0.887266
0.896666 0.934020 0.917723
0.928862 0.944579 0.930144
0.957519 0.941131 0.918486
0.997742 0.951751 0.920897
0.851469 0.975860 0.941131
0.856199 0.975647 0.941711
0.877745 0.975860 0.945739
0.912779 0.978088 0.954742
0.945129 0.981689 0.965698
0.971954 0.985382 0.977539
0.974701 0.985779 0.969482
0.996521 0.983825 0.961852
0.663386 0.685878 0.939605
0.685634 0.701137 0.939422
0.747677 0.743069 0.934844
0.825559 0.803586 0.929168
0.888396 0.865415 0.922057
0.912627 0.912474 0.913695
0.898131 0.856901 0.886412
0.926604 0.819455 0.870909
0.662440 0.692103 0.932708
0.684230 0.706569 0.933104
0.744381 0.745052 0.929290
0.819516 0.800504 0.923430
0.882139 0.860533 0.916442
0.905760 0.906554 0.907103
0.888975 0.847837 0.877043
0.917540 0.808652 0.860288
0.688563 0.742641 0.930571
0.703456 0.749660 0.930053
0.753872 0.774746 0.927001
0.824521 0.817929 0.923125
0.885283 0.868254 0.917998
0.911162 0.911620 0.912230
0.895689 0.857908 0.883787
0.923735 0.821714 0.867582
0.675685 0.775296 0.926940
0.688228 0.778531 0.926421
0.739559 0.796262 0.924956
0.823392 0.836759 0.923400
0.890257 0.880003 0.923064
0.923369 0.923095 0.923796
0.904784 0.871092 0.892393
0.927245 0.831083 0.869474
0.655756 0.806088 0.905913
0.662562 0.805753 0.904601
0.696803 0.810269 0.903899
0.768215 0.828580 0.908019
0.866728 0.871702 0.913787
0.922637 0.922698 0.923064
0.899046 0.868376 0.884459
0.949493 0.837705 0.873320
0.644434 0.839475 0.881956
0.652491 0.840452 0.882353
0.683314 0.843595 0.883482
0.736782 0.850492 0.886503
0.806577 0.862272 0.892363
0.907774 0.907103 0.913542
0.901915 0.867155 0.876646
0.989044 0.850736 0.870268
0.560967 0.874571 0.856382
0.569604 0.875578 0.857237
0.596460 0.876432 0.857237
0.644038 0.878996 0.857969
0.708919 0.878996 0.854826
0.880644 0.914794 0.903563
0.946319 0.933684 0.923674
0.998260 0.939940 0.924010
0.664607 0.964935 0.922118
0.674861 0.965515 0.923278
0.717342 0.968780 0.929229
0.785336 0.972381 0.937621
0.871916 0.976287 0.950317
0.952941 0.982696 0.971069
0.980682 0.988983 0.982330
0.996063 0.986511 0.973724
0.745296 0.770809 0.980102
0.756893 0.777951 0.979767
0.793851 0.799191 0.976226
0.851713 0.837339 0.972015
0.907164 0.880858 0.966430
0.944884 0.924285 0.960174
0.954711 0.949371 0.954711
0.951110 0.912352 0.940581
0.743404 0.773129 0.977386
0.754940 0.780056 0.977203
0.792538 0.801297 0.974395
0.849454 0.837461 0.970184
0.905150 0.880064 0.964904
0.943511 0.923156 0.958984
0.953063 0.947845 0.953094
0.948150 0.909331 0.937560
0.747921 0.793759 0.974945
0.758236 0.798703 0.974548
0.793759 0.815671 0.972107
0.852628 0.849638 0.970245
0.906676 0.886534 0.965515
0.944793 0.925872 0.960266
0.955474 0.950744 0.955413
0.948943 0.911559 0.938323
0.717189 0.801999 0.974731
0.731167 0.807950 0.974395
0.784360 0.832090 0.971099
0.846616 0.860624 0.969299
0.906065 0.894621 0.966949
0.948363 0.931975 0.964538
0.962127 0.958343 0.961944
0.954223 0.920043 0.943847
0.677943 0.823972 0.965423
0.689662 0.826902 0.966033
0.727840 0.834592 0.966430
0.801938 0.856962 0.968353
0.889311 0.894926 0.966369
0.945678 0.932769 0.966705
0.968872 0.966491 0.968566
0.960235 0.929686 0.949950
0.682734 0.865537 0.955932
0.687404 0.865232 0.955444
0.710109 0.866026 0.954833
0.756527 0.871214 0.956115
0.828641 0.885710 0.961181
0.933440 0.931579 0.969970
0.980163 0.977661 0.980285
0.969696 0.943267 0.959197
0.692958 0.911803 0.953674
0.698085 0.911955 0.953704
0.719844 0.912810 0.954009
0.762875 0.916106 0.956054
0.819303 0.920470 0.958068
0.887449 0.930205 0.962951
0.970611 0.966705 0.976684
0.967803 0.939178 0.951904
0.614343 0.950896 0.943297
0.618036 0.950652 0.942962
0.636744 0.950866 0.942901
0.674556 0.952758 0.944244
0.725856 0.954986 0.945312
0.786984 0.957763 0.945525
0.918914 0.967437 0.958679
0.991363 0.984344 0.979980
