20 Preset/Ins style/【3】LUT video cho PR-AE-FCPX/Tone (4).cube
# Created by Adobe Lightroom plugin Export LUT (1.24.0)
# www.johnrellis.com/lightroom/exportlut.htm
# Preset: INS网红琥珀色-素材江湖02
# Color profile: C:\Program Files (x86)\Common Files\Adobe\Color\Profiles\Recommended\VideoHD.icc
LUT_3D_SIZE 8
DOMAIN_MIN 0.000000 0.000000 0.000000
DOMAIN_MAX 0.903226 0.903226 0.903226
0.055299 0.041871 0.033845
0.079927 0.042359 0.033295
0.255680 0.031800 0.014923
0.548119 0.000000 0.000000
0.827451 0.000000 0.000000
1.000000 0.018891 0.000000
1.000000 0.233890 0.000000
1.000000 0.330083 0.000000
0.069368 0.055787 0.038453
0.092653 0.070893 0.031159
0.252873 0.104921 0.006073
0.533745 0.081270 0.000000
0.807156 0.036744 0.000000
0.995361 0.173220 0.000000
1.000000 0.262119 0.000000
1.000000 0.343114 0.000000
0.184817 0.185489 0.103182
0.200320 0.197269 0.071046
0.275151 0.206210 0.000000
0.565972 0.295842 0.000000
0.836362 0.360052 0.000000
1.000000 0.394629 0.000000
1.000000 0.429603 0.000000
1.000000 0.469673 0.154940
0.412543 0.445228 0.269047
0.419837 0.450324 0.246799
0.469978 0.470985 0.000000
0.550835 0.438605 0.000000
0.853941 0.569543 0.000000
0.981079 0.630671 0.326696
1.000000 0.627710 0.351476
1.000000 0.629908 0.389410
0.621607 0.684627 0.519554
0.626490 0.686580 0.515404
0.638758 0.690730 0.418067
0.697719 0.691279 0.151827
0.731533 0.610040 0.000000
0.932525 0.682734 0.000000
1.000000 0.744442 0.491463
1.000000 0.775814 0.616907
0.756100 0.813779 0.705684
0.765255 0.820371 0.714626
0.767330 0.822080 0.680903
0.781613 0.821317 0.579980
0.833524 0.811246 0.325597
0.867155 0.742214 0.000000
0.999542 0.781216 0.247562
1.000000 0.827695 0.614221
0.848966 0.892363 0.822568
0.851316 0.893767 0.824063
0.853361 0.894896 0.816373
0.854673 0.895476 0.778775
0.868925 0.893370 0.692287
0.921874 0.888090 0.484718
0.967193 0.838956 0.000000
1.000000 0.850736 0.417578
0.913878 0.944335 0.896300
0.914458 0.944579 0.896330
0.917601 0.945953 0.897154
0.919799 0.948638 0.885618
0.918059 0.946075 0.846860
0.938140 0.950011 0.791958
0.990875 0.952819 0.653529
1.000000 0.921263 0.397864
0.054047 0.046204 0.042298
0.082948 0.040223 0.048157
0.231113 0.000000 0.040650
0.492226 0.000000 0.002167
0.782773 0.000000 0.000000
0.980316 0.000000 0.000000
1.000000 0.208225 0.000000
1.000000 0.313725 0.000000
0.074800 0.058259 0.047028
0.097078 0.076570 0.053864
0.250248 0.088777 0.045777
0.506950 0.000000 0.000000
0.785000 0.000000 0.000000
0.975402 0.153567 0.000000
1.000000 0.250675 0.000000
1.000000 0.332677 0.000000
0.192935 0.187381 0.126650
0.205600 0.196750 0.117617
0.275761 0.204593 0.000000
0.548089 0.290898 0.029786
0.808835 0.340276 0.000000
0.979034 0.374029 0.000000
1.000000 0.406561 0.000000
1.000000 0.451637 0.167697
0.392462 0.416724 0.271031
0.402686 0.423072 0.266117
0.446571 0.444678 0.128969
0.513878 0.404273 0.000000
0.805478 0.528099 0.000000
0.950896 0.591730 0.291020
1.000000 0.595026 0.313451
1.000000 0.605127 0.358709
0.612634 0.673243 0.519860
0.616754 0.674067 0.517205
0.625757 0.675685 0.428534
0.676967 0.670863 0.188235
0.706935 0.585809 0.000000
0.915648 0.667231 0.000000
1.000000 0.734646 0.491981
1.000000 0.763973 0.601190
0.745541 0.803708 0.696345
0.749050 0.805539 0.697536
0.753475 0.808530 0.669795
0.768856 0.809354 0.572686
0.821500 0.800656 0.331518
0.857389 0.732998 0.000000
0.992462 0.776120 0.271214
1.000000 0.823941 0.616175
0.840848 0.885527 0.814908
0.840970 0.885161 0.813657
0.843839 0.886442 0.807919
0.845670 0.887663 0.770230
0.861936 0.887327 0.686732
0.914244 0.881498 0.479805
0.956176 0.828763 0.000000
1.000000 0.842771 0.402686
0.909178 0.940734 0.891814
0.910643 0.941619 0.892851
0.913695 0.942962 0.893492
0.916350 0.945769 0.883085
0.921599 0.948730 0.855497
0.938689 0.950866 0.798917
0.988830 0.951934 0.659205
1.000000 0.920073 0.404547
0.000000 0.098299 0.132387
0.042054 0.051881 0.153964
0.250431 0.000000 0.170199
0.510124 0.000000 0.170230
0.785550 0.000000 0.144503
0.982238 0.000000 0.195285
1.000000 0.273075 0.250431
1.000000 0.389441 0.316167
0.100801 0.130617 0.135134
0.101076 0.115846 0.155337
0.269017 0.018463 0.172030
0.515801 0.000000 0.160708
0.782040 0.000000 0.162753
0.973175 0.146395 0.200961
1.000000 0.302342 0.247562
1.000000 0.402228 0.311620
0.224521 0.196628 0.175570
0.242344 0.211704 0.191012
0.330388 0.251804 0.197971
0.573114 0.289097 0.215854
0.824216 0.340551 0.233005
0.975982 0.394141 0.263401
1.000000 0.447517 0.310246
1.000000 0.501457 0.371160
0.428229 0.445563 0.370214
0.440253 0.456245 0.374701
0.476265 0.480354 0.324681
0.560266 0.444434 0.096925
0.817868 0.573999 0.347601
0.946777 0.616785 0.435523
1.000000 0.628168 0.459693
1.000000 0.641321 0.489387
0.623804 0.677516 0.576684
0.629023 0.680568 0.577020
0.645167 0.690517 0.551568
0.684657 0.687465 0.378973
0.725917 0.604547 0.000000
0.918914 0.693568 0.348730
0.981018 0.769467 0.626825
1.000000 0.779629 0.657923
0.750546 0.804532 0.721492
0.754238 0.806821 0.723201
0.763943 0.812070 0.719905
0.769772 0.810758 0.639246
0.813626 0.800687 0.447883
0.854002 0.732174 0.000000
0.984100 0.786496 0.428870
1.000000 0.841154 0.693599
0.846220 0.888396 0.828794
0.846525 0.888212 0.827939
0.850340 0.889433 0.826902
0.850584 0.889952 0.797696
0.861326 0.888426 0.726192
0.908110 0.882933 0.557336
0.956176 0.832975 0.177127
1.000000 0.854429 0.518029
0.910674 0.941344 0.897063
0.910887 0.941314 0.896666
0.913725 0.942596 0.897215
0.918883 0.946258 0.893706
0.922545 0.948943 0.868284
0.938170 0.951751 0.818814
0.984497 0.953246 0.699855
1.000000 0.922606 0.472511
0.000000 0.173068 0.294133
0.000000 0.153048 0.321782
0.265385 0.000000 0.412848
0.524437 0.000000 0.396063
0.782284 0.000000 0.375952
0.971313 0.000000 0.357244
1.000000 0.157565 0.384833
1.000000 0.429816 0.479652
0.000000 0.220615 0.309209
0.000000 0.203708 0.331701
0.281224 0.100130 0.418677
0.541588 0.000000 0.402167
0.796933 0.000000 0.382544
0.970855 0.000000 0.362707
1.000000 0.276036 0.411139
1.000000 0.455909 0.489784
0.265537 0.308873 0.301152
0.280003 0.317571 0.315618
0.317998 0.293828 0.405798
0.582483 0.233707 0.409186
0.818204 0.233921 0.400397
0.958953 0.370153 0.441474
1.000000 0.499580 0.511315
1.000000 0.571435 0.558373
0.453742 0.438392 0.424842
0.464698 0.447120 0.435981
0.504601 0.498512 0.484901
0.622522 0.541772 0.481514
0.803372 0.593072 0.533684
0.927520 0.620813 0.557061
1.000000 0.651423 0.588983
1.000000 0.680446 0.621668
0.649134 0.688441 0.651423
0.651606 0.690883 0.651484
0.669184 0.705959 0.656947
0.694911 0.714748 0.591821
0.764096 0.659602 0.395850
0.898863 0.751247 0.630091
0.968261 0.792508 0.713985
1.000000 0.797971 0.725002
0.768002 0.813962 0.766049
0.774868 0.819547 0.771878
0.782834 0.824277 0.772915
0.791073 0.828428 0.747494
0.813596 0.816648 0.621424
0.856352 0.744289 0.321111
0.968566 0.816281 0.629816
1.000000 0.869352 0.789273
0.851804 0.890471 0.846769
0.853422 0.891508 0.847532
0.858793 0.894621 0.849210
0.866758 0.899199 0.845914
0.868742 0.896818 0.793027
0.901244 0.889311 0.670039
0.950713 0.838315 0.384680
1.000000 0.870878 0.653681
0.915953 0.944366 0.908843
0.916442 0.944579 0.908873
0.918883 0.945769 0.909270
0.924529 0.948486 0.910704
0.926604 0.950835 0.892363
0.937285 0.953094 0.850614
0.976745 0.954681 0.756710
1.000000 0.927062 0.571374
0.000000 0.298283 0.527764
0.000000 0.282567 0.548119
0.000000 0.181369 0.611810
0.580438 0.000000 0.687098
0.801358 0.000000 0.658991
0.952026 0.000000 0.581750
1.000000 0.089631 0.552697
1.000000 0.388952 0.577050
0.000000 0.343572 0.536126
0.000000 0.330816 0.556023
0.000000 0.236332 0.617365
0.589349 0.000000 0.689723
0.801480 0.000000 0.655787
0.951019 0.000000 0.580438
1.000000 0.217350 0.559380
1.000000 0.424475 0.586908
0.284031 0.459266 0.531548
0.296300 0.462531 0.549889
0.299992 0.417182 0.610498
0.602777 0.327459 0.688594
0.799985 0.274815 0.645502
0.936065 0.288670 0.581537
1.000000 0.411353 0.583673
1.000000 0.526329 0.618067
0.463416 0.550652 0.547662
0.474220 0.555108 0.553857
0.519738 0.575738 0.582177
0.613458 0.573083 0.679744
0.791379 0.538079 0.643000
0.910613 0.571008 0.636988
0.985321 0.633295 0.666621
1.000000 0.685847 0.700008
0.636774 0.649836 0.644129
0.643244 0.655421 0.650599
0.666407 0.675624 0.673976
0.701656 0.721828 0.712459
0.774197 0.732967 0.693294
0.874571 0.766964 0.734768
0.957458 0.779507 0.746914
1.000000 0.791440 0.760586
0.753201 0.791379 0.769589
0.756344 0.794034 0.772213
0.766873 0.802182 0.779812
0.783322 0.815702 0.786252
0.793912 0.813230 0.728969
0.850736 0.776150 0.604700
0.943725 0.848264 0.776852
0.992554 0.880461 0.835874
0.851316 0.885801 0.859525
0.851255 0.885710 0.858885
0.853635 0.887510 0.858488
0.864225 0.894835 0.862577
0.871763 0.899199 0.847196
0.886107 0.889647 0.759335
0.931701 0.835721 0.526757
1.000000 0.884703 0.758755
0.911803 0.939849 0.912688
0.912200 0.940093 0.912688
0.914366 0.941375 0.913024
0.922026 0.946197 0.916869
0.930205 0.950561 0.917784
0.933806 0.952209 0.883391
0.963561 0.952758 0.807767
1.000000 0.925261 0.643671
0.000000 0.456550 0.726986
0.000000 0.444800 0.736446
0.000000 0.366430 0.767086
0.446296 0.273747 0.821469
0.826139 0.000000 0.853574
0.955932 0.104036 0.813138
1.000000 0.255772 0.734707
1.000000 0.422278 0.708034
0.000000 0.479194 0.716670
0.000000 0.467933 0.724117
0.000000 0.403815 0.758389
0.447761 0.311315 0.809201
0.816831 0.167849 0.843626
0.943725 0.191501 0.801663
1.000000 0.286351 0.728267
1.000000 0.437263 0.706050
0.349584 0.594812 0.722744
0.348852 0.588739 0.729366
0.359716 0.554223 0.758755
0.502464 0.472572 0.802274
0.814481 0.408209 0.838315
0.929046 0.408362 0.794125
1.000000 0.443000 0.732387
1.000000 0.546166 0.727840
0.541955 0.674128 0.700404
0.546014 0.676844 0.706905
0.574151 0.689326 0.738979
0.605737 0.663722 0.793179
0.810208 0.638025 0.836332
0.906279 0.619898 0.795743
0.984100 0.632563 0.761593
1.000000 0.685389 0.770932
0.641382 0.726406 0.720302
0.646052 0.728206 0.722683
0.666499 0.736538 0.733669
0.704616 0.752651 0.755093
0.780087 0.756130 0.812802
0.872343 0.735897 0.784207
0.950774 0.753292 0.787503
1.000000 0.778927 0.802670
0.755886 0.779721 0.774502
0.760708 0.783841 0.779019
0.770809 0.791318 0.787778
0.788388 0.806912 0.804410
0.812039 0.833371 0.826291
0.861662 0.841428 0.817350
0.936492 0.868040 0.849638
0.995331 0.873381 0.855589
0.849668 0.877958 0.865782
0.851865 0.879911 0.867735
0.857023 0.884520 0.871946
0.868132 0.893523 0.880461
0.882109 0.904692 0.887633
0.886137 0.902281 0.852232
0.920897 0.866667 0.748928
0.985382 0.915038 0.867399
0.914702 0.938354 0.922911
0.914916 0.938476 0.922972
0.917906 0.940429 0.924956
0.922454 0.944213 0.927031
0.929076 0.949004 0.928679
0.937102 0.953979 0.923491
0.951446 0.953338 0.867399
1.000000 0.927123 0.734707
0.070802 0.597833 0.837736
0.116793 0.591363 0.842191
0.185183 0.550805 0.857511
0.376013 0.467445 0.884886
0.680323 0.389136 0.914183
0.930327 0.371466 0.923247
1.000000 0.406256 0.893889
1.000000 0.472602 0.828702
0.231785 0.615503 0.832914
0.241886 0.609979 0.837461
0.269780 0.573663 0.852842
0.395514 0.491585 0.879973
0.680354 0.420386 0.909911
0.925444 0.399390 0.919310
1.000000 0.424475 0.888426
1.000000 0.480568 0.824826
0.451453 0.688808 0.826566
0.452308 0.684565 0.830045
0.457435 0.661433 0.844083
0.488350 0.594598 0.871702
0.697169 0.551324 0.901396
0.915160 0.530846 0.913848
0.997131 0.539696 0.881315
1.000000 0.570947 0.830625
0.598566 0.758633 0.813443
0.602014 0.758114 0.816129
0.616785 0.755825 0.829923
0.627161 0.730098 0.856168
0.722866 0.694484 0.888945
0.900084 0.677852 0.907500
0.972412 0.669154 0.876860
1.000000 0.675227 0.838224
0.686580 0.790127 0.797574
0.688899 0.789975 0.797971
0.701289 0.791958 0.802121
0.722011 0.805356 0.831205
0.745144 0.788663 0.870237
0.883330 0.778927 0.899687
0.947234 0.763180 0.871489
1.000000 0.766934 0.850950
0.759884 0.829679 0.822385
0.761929 0.830625 0.823575
0.769467 0.834318 0.828336
0.784970 0.839994 0.836393
0.807919 0.848203 0.848722
0.862089 0.855772 0.892638
0.931151 0.841459 0.874418
0.989410 0.853330 0.878325
0.840726 0.864652 0.859373
0.842313 0.865812 0.860655
0.847532 0.869291 0.864775
0.857877 0.876463 0.873106
0.873228 0.887327 0.885832
0.892241 0.907317 0.903288
0.925597 0.912444 0.897215
0.978637 0.928252 0.917357
0.910979 0.929137 0.922271
0.911650 0.929870 0.922911
0.914946 0.933013 0.925811
0.920714 0.938323 0.930632
0.929961 0.946166 0.937957
0.941863 0.955352 0.945556
0.947875 0.958312 0.929686
0.981628 0.938445 0.851682
0.507408 0.742763 0.913603
0.508843 0.739101 0.915618
0.509422 0.718105 0.922667
0.522118 0.666224 0.937957
0.644465 0.617151 0.955352
0.830747 0.575555 0.970001
0.987823 0.588373 0.972076
1.000000 0.606867 0.955108
0.527581 0.751583 0.910918
0.529076 0.748379 0.912932
0.530114 0.729519 0.920256
0.540246 0.681300 0.935271
0.650477 0.632868 0.953002
0.830076 0.592889 0.968109
0.984985 0.601190 0.970397
1.000000 0.615595 0.952972
0.605188 0.788876 0.904936
0.605188 0.786252 0.906676
0.604211 0.772610 0.913542
0.612146 0.740230 0.928588
0.679377 0.695430 0.946807
0.830777 0.661036 0.963012
0.975860 0.662470 0.966552
1.000000 0.666743 0.948516
0.692622 0.833341 0.895262
0.695552 0.833188 0.897124
0.694331 0.826535 0.903838
0.696651 0.809079 0.917632
0.719387 0.771969 0.937469
0.833280 0.748745 0.956481
0.963317 0.744961 0.962036
1.000000 0.738949 0.942992
0.744320 0.858061 0.879759
0.745663 0.858762 0.881651
0.749569 0.859586 0.888334
0.767391 0.861448 0.903105
0.773098 0.843626 0.923705
0.833097 0.820676 0.946960
0.951263 0.814481 0.958312
1.000000 0.805203 0.939940
0.797971 0.881834 0.883116
0.798581 0.881651 0.883207
0.802213 0.881468 0.884215
0.811063 0.882139 0.887419
0.823606 0.888396 0.903990
0.844450 0.880980 0.935180
0.941314 0.879057 0.957519
0.990753 0.868040 0.941253
0.854215 0.908721 0.901915
0.854887 0.909026 0.902312
0.857847 0.910277 0.904112
0.864225 0.913329 0.908232
0.874296 0.916838 0.913664
0.889403 0.920958 0.921172
0.921599 0.925231 0.951202
0.977630 0.917449 0.943023
0.908721 0.928313 0.923369
0.909270 0.928618 0.923735
0.911864 0.930175 0.925628
0.917540 0.933715 0.929839
0.926116 0.939147 0.936248
0.937682 0.946777 0.945190
0.951476 0.958740 0.957183
0.972076 0.965332 0.958312
