20 Preset/Ins style/【3】LUT video cho PR-AE-FCPX/Tone (4).cube
# Created by Adobe Lightroom plugin Export LUT (1.24.0)
# www.johnrellis.com/lightroom/exportlut.htm
# Preset: INS网红琥珀色-素材江湖02
# Color profile: C:\Program Files (x86)\Common Files\Adobe\Color\Profiles\Recommended\VideoHD.icc
LUT_3D_SIZE 32
DOMAIN_MIN 0.0 0.0 0.0
DOMAIN_MAX 1.0 1.0 1.0
0.055299 0.041871 0.033845
0.055299 0.041871 0.033845
0.057282 0.041657 0.033845
0.062531 0.042176 0.033661
0.079927 0.042359 0.033295
0.105287 0.041962 0.032105
0.146487 0.044800 0.029450
0.197543 0.044251 0.023011
0.255680 0.031800 0.014923
0.320745 0.005066 0.001465
0.392615 0.000000 0.000000
0.469245 0.000000 0.000000
0.548119 0.000000 0.000000
0.626276 0.000000 0.000000
0.700038 0.000000 0.000000
0.767666 0.000000 0.000000
0.827451 0.000000 0.000000
0.878599 0.000000 0.000000
0.923705 0.000000 0.000000
0.973205 0.000000 0.000000
1.000000 0.018891 0.000000
1.000000 0.129488 0.000000
1.000000 0.172183 0.000000
1.000000 0.206027 0.000000
1.000000 0.233890 0.000000
1.000000 0.259739 0.000000
1.000000 0.283787 0.000000
1.000000 0.306859 0.000000
1.000000 0.330083 0.000000
1.000000 0.354162 0.000000
1.000000 0.379065 0.095766
1.000000 0.405219 0.165774
0.055299 0.041871 0.033845
0.055299 0.041871 0.033845
0.057282 0.041657 0.033845
0.062531 0.042176 0.033661
0.079927 0.042359 0.033295
0.105074 0.043183 0.031952
0.144808 0.046906 0.029328
0.193973 0.047395 0.023133
0.250980 0.036622 0.015290
0.314549 0.012421 0.002319
0.384894 0.000000 0.000000
0.460151 0.000000 0.000000
0.538262 0.000000 0.000000
0.616022 0.000000 0.000000
0.689845 0.000000 0.000000
0.758297 0.000000 0.000000
0.819547 0.000000 0.000000
0.871733 0.000000 0.000000
0.917540 0.000000 0.000000
0.966827 0.000000 0.000000
1.000000 0.003937 0.000000
1.000000 0.121157 0.000000
1.000000 0.165621 0.000000
1.000000 0.198276 0.000000
1.000000 0.226535 0.000000
1.000000 0.251255 0.000000
1.000000 0.275151 0.000000
1.000000 0.298711 0.000000
1.000000 0.322179 0.000000
1.000000 0.346136 0.000000
1.000000 0.371130 0.026184
1.000000 0.397345 0.146151
0.056580 0.042847 0.033692
0.056580 0.042847 0.033692
0.057862 0.043824 0.033539
0.063111 0.044373 0.033356
0.080903 0.045502 0.033967
0.106691 0.049287 0.032136
0.147524 0.057679 0.027588
0.195651 0.059358 0.022370
0.251377 0.054078 0.012848
0.313817 0.033845 0.000763
0.382971 0.000000 0.000000
0.457343 0.000000 0.000000
0.534264 0.000000 0.000000
0.611139 0.000000 0.000000
0.684718 0.000000 0.000000
0.753109 0.000000 0.000000
0.814420 0.000000 0.000000
0.867247 0.000000 0.000000
0.913420 0.000000 0.000000
0.963653 0.000000 0.000000
1.000000 0.070405 0.000000
1.000000 0.137057 0.000000
1.000000 0.173526 0.000000
1.000000 0.204288 0.000000
1.000000 0.229923 0.000000
1.000000 0.253727 0.000000
1.000000 0.276860 0.000000
1.000000 0.299535 0.000000
1.000000 0.322362 0.000000
1.000000 0.346105 0.000000
1.000000 0.370306 0.000000
1.000000 0.396002 0.137118
0.057832 0.046021 0.035492
0.059815 0.045777 0.035492
0.060670 0.047974 0.034058
0.067903 0.048280 0.033875
0.088106 0.054322 0.032532
0.108125 0.062135 0.032563
0.149722 0.077607 0.026917
0.198978 0.083558 0.019287
0.256657 0.084230 0.008240
0.318944 0.076661 0.000000
0.386786 0.047974 0.000000
0.458991 0.006806 0.000000
0.534661 0.000000 0.000000
0.609857 0.000000 0.000000
0.681666 0.000000 0.000000
0.748867 0.000000 0.000000
0.809415 0.000000 0.000000
0.861540 0.000000 0.000000
0.907317 0.000000 0.000000
0.957733 0.042054 0.000000
0.997864 0.122713 0.000000
1.000000 0.159152 0.000000
1.000000 0.189395 0.000000
1.000000 0.215763 0.000000
1.000000 0.240024 0.000000
1.000000 0.263188 0.000000
1.000000 0.285832 0.000000
1.000000 0.308141 0.000000
1.000000 0.330083 0.000000
1.000000 0.352911 0.000000
1.000000 0.376135 0.003998
1.000000 0.400122 0.136263
0.069368 0.055787 0.038453
0.068666 0.057008 0.038300
0.071534 0.058961 0.036866
0.082490 0.065370 0.033448
0.092653 0.070893 0.031159
0.119966 0.086946 0.027649
0.152987 0.093782 0.024537
0.196841 0.100465 0.018372
0.252873 0.104921 0.006073
0.315679 0.106203 0.000000
0.384985 0.103853 0.000000
0.459541 0.096193 0.000000
0.533745 0.081270 0.000000
0.608087 0.049195 0.000000
0.679347 0.023346 0.000000
0.746212 0.018158 0.000000
0.807156 0.036744 0.000000
0.859617 0.083101 0.000000
0.908476 0.112520 0.000000
0.956817 0.145174 0.000000
0.995361 0.173220 0.000000
1.000000 0.197848 0.000000
1.000000 0.220249 0.000000
1.000000 0.241398 0.000000
1.000000 0.262119 0.000000
1.000000 0.282658 0.000000
1.000000 0.302403 0.000000
1.000000 0.322911 0.000000
1.000000 0.343114 0.000000
1.000000 0.364263 0.000000
1.000000 0.385626 0.023285
1.000000 0.408270 0.140871
0.088380 0.081910 0.043153
0.088014 0.082643 0.044129
0.090150 0.085145 0.041230
0.096681 0.090608 0.035920
0.111452 0.098360 0.027527
0.125185 0.100099 0.023499
0.165042 0.112367 0.015076
0.209079 0.121401 0.007507
0.254795 0.127901 0.005097
0.317540 0.133974 0.000000
0.386084 0.137972 0.000000
0.460151 0.140047 0.000000
0.536797 0.140780 0.000000
0.613367 0.141085 0.000000
0.686732 0.143984 0.000000
0.752468 0.148867 0.000000
0.811673 0.157870 0.000000
0.863005 0.169223 0.000000
0.915465 0.187930 0.000000
0.960693 0.207309 0.000000
0.997223 0.225986 0.000000
1.000000 0.244297 0.000000
1.000000 0.303166 0.000000
1.000000 0.320134 0.000000
1.000000 0.336400 0.000000
1.000000 0.352636 0.000000
1.000000 0.368872 0.000000
1.000000 0.385534 0.000000
1.000000 0.402960 0.082887
1.000000 0.420966 0.148257
1.000000 0.440040 0.195865
1.000000 0.459693 0.237583
0.115175 0.114351 0.059510
0.115541 0.114595 0.059327
0.118166 0.116121 0.057252
0.125795 0.121675 0.043549
0.140291 0.129091 0.026764
0.163333 0.138277 0.007263
0.177218 0.135256 0.002960
0.228489 0.150759 0.000000
0.289403 0.164920 0.000000
0.346685 0.174166 0.000000
0.414984 0.185214 0.000000
0.491829 0.194278 0.000000
0.568536 0.202152 0.000000
0.643336 0.209659 0.000000
0.713252 0.217960 0.000000
0.777432 0.226413 0.000000
0.833890 0.234592 0.000000
0.889891 0.247929 0.000000
0.940948 0.264622 0.000000
0.982544 0.280064 0.000000
1.000000 0.295537 0.000000
1.000000 0.311406 0.000000
1.000000 0.327916 0.000000
1.000000 0.344305 0.000000
1.000000 0.360327 0.000000
1.000000 0.375708 0.000000
1.000000 0.389563 0.000000
1.000000 0.404120 0.000000
1.000000 0.419318 0.096590
1.000000 0.435035 0.153384
1.000000 0.451820 0.197665
1.000000 0.469734 0.238285
0.146700 0.146151 0.084627
0.147189 0.146517 0.084413
0.149599 0.147738 0.083711
0.155306 0.152590 0.066987
0.166140 0.159304 0.040192
0.185855 0.167849 0.007965
0.213138 0.177035 0.000000
0.223819 0.168215 0.000000
0.281163 0.186252 0.000000
0.353552 0.206760 0.000000
0.419562 0.220951 0.000000
0.490272 0.238682 0.000000
0.564782 0.252262 0.000000
0.638025 0.263218 0.000000
0.707118 0.273533 0.000000
0.770260 0.283299 0.000000
0.832151 0.295933 0.000000
0.888975 0.309148 0.000000
0.937224 0.321111 0.000000
0.977661 0.331487 0.000000
1.000000 0.342107 0.000000
1.000000 0.353887 0.000000
1.000000 0.366461 0.000000
1.000000 0.379309 0.000000
1.000000 0.392462 0.000000
1.000000 0.404700 0.000000
1.000000 0.416693 0.000000
1.000000 0.428595 0.000000
1.000000 0.441505 0.120394
1.000000 0.455451 0.169284
1.000000 0.470192 0.210086
1.000000 0.486336 0.248753
0.184817 0.185489 0.103182
0.185428 0.185733 0.103059
0.187533 0.186893 0.102602
0.191684 0.191165 0.094179
0.200320 0.197269 0.071046
0.215518 0.205020 0.026123
0.238132 0.213260 0.000000
0.268315 0.221683 0.000000
0.275151 0.206210 0.000000
0.337743 0.226963 0.000000
0.418006 0.253269 0.000000
0.493812 0.274998 0.000000
0.565972 0.295842 0.000000
0.637354 0.317906 0.000000
0.704952 0.329961 0.000000
0.775784 0.346777 0.000000
0.836362 0.360052 0.000000
0.887846 0.370214 0.000000
0.932769 0.378943 0.000000
0.971313 0.386786 0.000000
1.000000 0.394629 0.000000
1.000000 0.402533 0.000000
1.000000 0.410651 0.000000
1.000000 0.419654 0.000000
1.000000 0.429603 0.000000
1.000000 0.439277 0.000000
1.000000 0.448829 0.000000
1.000000 0.458778 0.104677
1.000000 0.469673 0.154940
1.000000 0.481239 0.195193
1.000000 0.494179 0.231540
1.000000 0.508110 0.267063
0.228702 0.232822 0.125917
0.229282 0.233097 0.125795
0.231418 0.233982 0.125154
0.234684 0.237491 0.117006
0.240574 0.242374 0.101259
0.251682 0.248783 0.065492
0.269871 0.256138 0.000000
0.295445 0.263859 0.000000
0.323064 0.267582 0.000000
0.327825 0.247166 0.000000
0.393317 0.269963 0.000000
0.477302 0.300542 0.000000
0.560418 0.328679 0.000000
0.638056 0.356817 0.000000
0.713741 0.388708 0.000000
0.779995 0.410315 0.000000
0.836088 0.421607 0.000000
0.885618 0.430579 0.000000
0.928832 0.437964 0.000000
0.965667 0.443793 0.000000
0.997406 0.448981 0.000000
1.000000 0.453468 0.000000
1.000000 0.458198 0.000000
1.000000 0.463447 0.000000
1.000000 0.468421 0.000000
1.000000 0.473365 0.000000
1.000000 0.479622 0.088319
1.000000 0.487739 0.141512
1.000000 0.496925 0.182101
1.000000 0.507225 0.218235
1.000000 0.518975 0.253544
1.000000 0.531823 0.288243
0.274540 0.283879 0.154025
0.274998 0.284092 0.154147
0.277104 0.285374 0.153628
0.280186 0.288334 0.146426
0.284977 0.293065 0.130556
0.293889 0.299046 0.106355
0.308782 0.305913 0.043366
0.329778 0.313054 0.000000
0.357366 0.319829 0.000000
0.380682 0.317082 0.000000
0.386206 0.294713 0.000000
0.459052 0.323095 0.000000
0.549859 0.360937 0.000000
0.641993 0.398444 0.000000
0.714168 0.426154 0.000000
0.778897 0.453956 0.000000
0.833249 0.481056 0.000000
0.880247 0.488411 0.000000
0.921233 0.493935 0.000000
0.956481 0.497993 0.000000
0.987457 0.500725 0.000000
1.000000 0.503716 0.000000
1.000000 0.507073 0.077363
1.000000 0.510430 0.111696
1.000000 0.513725 0.137453
1.000000 0.517418 0.160678
1.000000 0.521263 0.181918
1.000000 0.525628 0.202182
1.000000 0.530632 0.223423
1.000000 0.538689 0.252873
1.000000 0.548730 0.284977
1.000000 0.559777 0.316777
0.327214 0.344671 0.193149
0.327764 0.345068 0.192996
0.329931 0.346197 0.192416
0.332891 0.348882 0.187533
0.336797 0.352911 0.171298
0.343816 0.358129 0.147402
0.355657 0.364446 0.111208
0.375494 0.373449 0.006531
0.401801 0.382544 0.000000
0.433509 0.390478 0.000000
0.453651 0.382238 0.000000
0.458289 0.356085 0.000000
0.577111 0.423468 0.000000
0.672541 0.467842 0.000000
0.759060 0.505608 0.000000
0.822538 0.530205 0.000000
0.872526 0.552239 0.000000
0.912139 0.574884 0.177707
0.944121 0.588891 0.246769
0.973846 0.589014 0.249577
1.000000 0.588617 0.255497
1.000000 0.588128 0.262150
1.000000 0.587671 0.270573
1.000000 0.587976 0.280766
1.000000 0.588251 0.291325
1.000000 0.588647 0.301305
1.000000 0.589075 0.310979
1.000000 0.590143 0.321752
1.000000 0.592065 0.334051
1.000000 0.594995 0.347845
1.000000 0.599115 0.363409
1.000000 0.604700 0.381628
0.412543 0.445228 0.269047
0.412879 0.445197 0.268589
0.414221 0.445838 0.268254
0.417304 0.447883 0.263737
0.419837 0.450324 0.246799
0.424720 0.453956 0.222171
0.434211 0.458991 0.187533
0.448951 0.464729 0.138399
0.469978 0.470985 0.000000
0.497200 0.477211 0.000000
0.529961 0.482979 0.000000
0.546166 0.468147 0.000000
0.550835 0.438605 0.000000
0.622034 0.466407 0.000000
0.715480 0.511894 0.000000
0.793637 0.545830 0.000000
0.853941 0.569543 0.000000
0.897368 0.587945 0.000000
0.930938 0.606928 0.198550
0.955962 0.627924 0.308629
0.981079 0.630671 0.326696
1.000000 0.629633 0.330877
1.000000 0.628595 0.336522
1.000000 0.628016 0.343725
1.000000 0.627710 0.351476
1.000000 0.627649 0.360235
1.000000 0.627802 0.368872
1.000000 0.628412 0.378637
1.000000 0.629908 0.389410
1.000000 0.632532 0.402289
1.000000 0.635950 0.416663
1.000000 0.640589 0.432685
0.477150 0.521233 0.336431
0.476905 0.520806 0.335943
0.477913 0.520714 0.334783
0.479835 0.521111 0.332311
0.480049 0.521477 0.314427
0.482399 0.522423 0.290715
0.488045 0.524590 0.257664
0.498116 0.527611 0.215549
0.513878 0.531762 0.158572
0.535668 0.536187 0.000000
0.562951 0.540398 0.000000
0.593988 0.543633 0.000000
0.602930 0.521172 0.000000
0.605188 0.489174 0.000000
0.668574 0.511528 0.000000
0.753445 0.552178 0.000000
0.822721 0.581109 0.000000
0.879576 0.603296 0.000000
0.917601 0.619013 0.000000
0.946654 0.635492 0.220554
0.968475 0.654292 0.329107
0.986450 0.670466 0.400519
1.000000 0.669337 0.404089
1.000000 0.668605 0.409674
1.000000 0.667872 0.415656
1.000000 0.667506 0.422583
1.000000 0.667140 0.429664
1.000000 0.667414 0.438239
1.000000 0.668269 0.447364
1.000000 0.670375 0.459022
1.000000 0.673213 0.471656
1.000000 0.677333 0.486427
0.533501 0.587304 0.402777
0.533684 0.587060 0.402289
0.533928 0.586633 0.401068
0.535546 0.586419 0.398962
0.535302 0.585565 0.383764
0.535515 0.584924 0.360418
0.538659 0.585595 0.331334
0.545678 0.587121 0.294041
0.557427 0.589410 0.246067
0.574701 0.592798 0.183810
0.597040 0.596094 0.018982
0.623651 0.598596 0.000000
0.652308 0.598993 0.000000
0.654566 0.570001 0.000000
0.654414 0.535698 0.000000
0.709438 0.551812 0.000000
0.785672 0.587121 0.000000
0.848661 0.613153 0.000000
0.900572 0.633051 0.000000
0.935302 0.647150 0.000000
0.961089 0.662074 0.244846
0.980468 0.679652 0.352422
0.994141 0.699641 0.441779
1.000000 0.706844 0.473579
1.000000 0.705898 0.477760
1.000000 0.705287 0.483253
1.000000 0.704982 0.489601
1.000000 0.705348 0.497505
1.000000 0.706477 0.506706
1.000000 0.708797 0.518181
1.000000 0.712184 0.531518
1.000000 0.716487 0.546288
0.580713 0.640681 0.463050
0.581170 0.641077 0.463325
0.582086 0.641352 0.463020
0.583978 0.641932 0.462165
0.585199 0.642420 0.453559
0.586023 0.642756 0.433906
0.588952 0.644068 0.409216
0.594629 0.646021 0.378668
0.603967 0.648188 0.338872
0.617121 0.650324 0.289342
0.634180 0.651575 0.222751
0.654810 0.651759 0.111238
0.677821 0.649744 0.000000
0.701991 0.645228 0.000000
0.697505 0.610468 0.000000
0.695033 0.574640 0.000000
0.741604 0.584283 0.000000
0.811460 0.616083 0.000000
0.869352 0.639948 0.000000
0.916472 0.657954 0.000000
0.950622 0.672053 0.096681
0.974365 0.686580 0.269413
0.991638 0.703456 0.376562
1.000000 0.722530 0.465888
1.000000 0.742214 0.539635
1.000000 0.742000 0.544610
1.000000 0.742000 0.550500
1.000000 0.742275 0.557092
1.000000 0.743130 0.565026
1.000000 0.744717 0.574121
1.000000 0.746944 0.584497
1.000000 0.749935 0.596094
0.621607 0.684627 0.519554
0.621820 0.684657 0.519646
0.622522 0.684901 0.519219
0.624414 0.685664 0.518914
0.626490 0.686580 0.515404
0.626947 0.687129 0.499580
0.628534 0.688045 0.478523
0.632288 0.689357 0.451820
0.638758 0.690730 0.418067
0.648310 0.692073 0.376623
0.661585 0.692927 0.324346
0.678218 0.692897 0.256626
0.697719 0.691279 0.151827
0.719142 0.687709 0.000000
0.740078 0.680354 0.000000
0.733547 0.644404 0.000000
0.731533 0.610040 0.000000
0.771725 0.615076 0.000000
0.836942 0.644770 0.000000
0.889555 0.666041 0.000000
0.932525 0.682734 0.000000
0.966064 0.696681 0.145541
0.987366 0.710384 0.296513
1.000000 0.726375 0.402533
1.000000 0.744442 0.491463
1.000000 0.763973 0.566918
1.000000 0.774563 0.604211
1.000000 0.774990 0.610101
1.000000 0.775814 0.616907
1.000000 0.777096 0.624659
1.000000 0.778927 0.633509
1.000000 0.781247 0.643183
0.662287 0.725887 0.576867
0.662715 0.726284 0.577203
0.690455 0.752804 0.614710
0.691798 0.753414 0.614710
0.694148 0.754269 0.614466
0.693660 0.754269 0.602106
0.693812 0.754391 0.585473
0.695064 0.754604 0.563317
0.698390 0.755123 0.535576
0.704280 0.755550 0.500786
0.713130 0.755581 0.458137
0.725216 0.754757 0.404395
0.740108 0.752346 0.335821
0.757656 0.748074 0.240665
0.776638 0.741726 0.000000
0.793454 0.730770 0.000000
0.784512 0.693355 0.000000
0.781735 0.658808 0.000000
0.814817 0.658442 0.000000
0.872587 0.683345 0.000000
0.918059 0.700679 0.000000
0.955413 0.714900 0.000000
0.985687 0.727230 0.215396
1.000000 0.739406 0.344701
1.000000 0.753475 0.444617
1.000000 0.769406 0.528069
1.000000 0.786099 0.596490
1.000000 0.802670 0.652583
1.000000 0.804929 0.663233
1.000000 0.805722 0.669154
1.000000 0.807187 0.676509
1.000000 0.809049 0.684718
0.705135 0.767514 0.636133
0.707485 0.769619 0.639277
0.710475 0.772030 0.642481
0.713741 0.774441 0.645197
0.717250 0.776638 0.647303
0.718379 0.777615 0.641474
0.718349 0.777768 0.627985
0.718776 0.777859 0.609918
0.720699 0.778012 0.587701
0.724361 0.778225 0.560052
0.730526 0.778256 0.524804
0.739376 0.777768 0.481178
0.751034 0.776089 0.425696
0.765621 0.773159 0.355993
0.782650 0.768673 0.263005
0.801297 0.762325 0.061067
0.816678 0.750851 0.000000
0.808499 0.715541 0.000000
0.807645 0.684108 0.000000
0.837644 0.682307 0.000000
0.891234 0.705074 0.000000
0.933867 0.721828 0.000000
0.968444 0.735195 0.094850
0.996033 0.746792 0.254673
1.000000 0.758022 0.366705
1.000000 0.771298 0.465980
1.000000 0.786282 0.547814
1.000000 0.802090 0.615198
1.000000 0.817746 0.669795
1.000000 0.829343 0.705470
1.000000 0.830625 0.711757
1.000000 0.832303 0.718898
0.730983 0.791409 0.671290
0.733150 0.793332 0.674189
0.735927 0.795560 0.677333
0.738918 0.797696 0.680140
0.742092 0.799710 0.682277
0.743984 0.800900 0.680171
0.743679 0.801053 0.669368
0.743740 0.801114 0.655360
0.744686 0.801144 0.637476
0.746853 0.801205 0.615198
0.750851 0.801144 0.587579
0.757046 0.800870 0.552911
0.765682 0.799741 0.508415
0.777340 0.797787 0.452705
0.791714 0.794675 0.383551
0.808499 0.790249 0.292271
0.826993 0.784115 0.139254
0.840024 0.771389 0.000000
0.833799 0.739071 0.000000
0.834989 0.710811 0.000000
0.861326 0.706630 0.000000
0.910277 0.727108 0.000000
0.949737 0.742489 0.000000
0.981323 0.754879 0.165347
1.000000 0.765499 0.291173
1.000000 0.775906 0.390570
1.000000 0.788449 0.488197
1.000000 0.802792 0.569116
1.000000 0.817685 0.634333
1.000000 0.832761 0.688197
1.000000 0.847562 0.732906
1.000000 0.852720 0.748531
0.756100 0.813779 0.705684
0.757992 0.815305 0.708034
0.760220 0.817044 0.710597
0.762692 0.818784 0.712825
0.765255 0.820371 0.714626
0.767697 0.821622 0.715419
0.767330 0.821836 0.706813
0.767025 0.821927 0.695186
0.767330 0.822080 0.680903
0.768612 0.822141 0.662806
0.771176 0.822110 0.640986
0.775418 0.821927 0.614160
0.781613 0.821317 0.579980
0.790219 0.820066 0.536797
0.801785 0.817990 0.481575
0.816251 0.815091 0.413703
0.833524 0.811246 0.325597
0.852934 0.806302 0.192844
0.865385 0.794064 0.000000
0.862577 0.766140 0.000000
0.867155 0.742214 0.000000
0.891447 0.737423 0.000000
0.935912 0.755550 0.000000
0.971649 0.769680 0.000000
0.999542 0.781216 0.247562
1.000000 0.791440 0.357427
1.000000 0.801358 0.443183
1.000000 0.813962 0.538354
1.000000 0.827695 0.614221
1.000000 0.841611 0.674647
1.000000 0.855589 0.724544
1.000000 0.868467 0.763729
0.789609 0.842527 0.750057
0.790341 0.843107 0.750881
0.791165 0.843656 0.751522
0.792142 0.844144 0.752010
0.793301 0.844724 0.752224
0.794705 0.845212 0.752132
0.794888 0.845365 0.747433
0.794247 0.845335 0.738338
0.794095 0.845365 0.727138
0.794705 0.845579 0.713375
0.796170 0.845731 0.696071
0.798886 0.845792 0.674952
0.803098 0.845457 0.649226
0.809232 0.844633 0.616968
0.817716 0.843259 0.576074
0.829007 0.841276 0.523461
0.843381 0.838437 0.456916
0.860502 0.834836 0.372686
0.880034 0.830198 0.253391
0.891020 0.817288 0.000000
0.889586 0.791409 0.000000
0.895171 0.769436 0.000000
0.915648 0.762203 0.000000
0.954864 0.776791 0.000000
0.986542 0.788754 0.119631
1.000000 0.799039 0.289464
1.000000 0.808682 0.393347
1.000000 0.818296 0.476356
1.000000 0.830045 0.563165
1.000000 0.842924 0.636255
1.000000 0.856077 0.695216
1.000000 0.868742 0.741909
0.810208 0.860044 0.775967
0.810758 0.860472 0.776577
0.811460 0.860929 0.777127
0.812345 0.861448 0.777554
0.813352 0.861906 0.777798
0.814603 0.862394 0.777859
0.815610 0.862821 0.776333
0.815030 0.862852 0.769253
0.814786 0.863005 0.760525
0.815030 0.863218 0.749813
0.815946 0.863432 0.736568
0.817594 0.863645 0.720333
0.820462 0.863615 0.700191
0.824796 0.863310 0.674708
0.831113 0.862638 0.643885
0.839719 0.861509 0.605859
0.851194 0.859892 0.557244
0.865812 0.857664 0.493935
0.883482 0.854673 0.413184
0.903624 0.850889 0.302220
0.914061 0.838163 0.177676
0.914824 0.815183 0.000000
0.922301 0.795621 0.000000
0.940856 0.787411 0.000000
0.970855 0.794644 0.000000
0.999359 0.805112 0.178347
1.000000 0.814725 0.323705
1.000000 0.823911 0.423743
1.000000 0.833280 0.505852
1.000000 0.843839 0.583124
1.000000 0.856077 0.654841
1.000000 0.868742 0.712612
0.834195 0.880064 0.805173
0.835050 0.880705 0.806149
0.835569 0.881071 0.806546
0.835935 0.881163 0.806485
0.836210 0.881132 0.805997
0.836667 0.881041 0.805325
0.837278 0.880980 0.804501
0.836393 0.880583 0.798947
0.835355 0.880125 0.791073
0.834653 0.879820 0.781704
0.834440 0.879515 0.770504
0.834958 0.879332 0.756924
0.836362 0.879026 0.740566
0.838834 0.878508 0.720302
0.842710 0.877714 0.694942
0.848569 0.876616 0.663386
0.856931 0.875212 0.625422
0.868254 0.873564 0.578454
0.882963 0.871580 0.517418
0.901091 0.869261 0.439063
0.921782 0.866331 0.334142
0.931609 0.853788 0.231174
0.933867 0.832670 0.000000
0.942199 0.814694 0.000000
0.958282 0.804929 0.000000
0.988586 0.814176 0.000000
1.000000 0.822751 0.234684
1.000000 0.831083 0.362371
1.000000 0.839414 0.457740
1.000000 0.848142 0.536675
1.000000 0.857328 0.603662
1.000000 0.868956 0.673396
0.848966 0.892363 0.822568
0.849668 0.892882 0.823362
0.850217 0.893309 0.823880
0.850767 0.893584 0.824033
0.851316 0.893767 0.824063
0.852049 0.894011 0.823972
0.853147 0.894377 0.823911
0.853758 0.894774 0.822080
0.853361 0.894896 0.816373
0.853178 0.895109 0.809659
0.853208 0.895262 0.801236
0.853666 0.895445 0.790951
0.854673 0.895476 0.778775
0.856321 0.895323 0.763363
0.858946 0.894896 0.744564
0.862974 0.894224 0.721279
0.868925 0.893370 0.692287
0.877379 0.892363 0.656519
0.888823 0.891203 0.613001
0.903593 0.889830 0.557855
0.921874 0.888090 0.484718
0.943236 0.885771 0.385595
0.952728 0.873655 0.300175
0.956939 0.854795 0.174929
0.967193 0.838956 0.000000
0.982483 0.828855 0.000000
1.000000 0.835996 0.076814
1.000000 0.843015 0.301366
1.000000 0.850736 0.417578
1.000000 0.858732 0.508446
1.000000 0.866850 0.581476
1.000000 0.874662 0.639643
0.866331 0.906584 0.842741
0.866697 0.906828 0.843107
0.867002 0.907012 0.843290
0.867338 0.907164 0.843351
0.867735 0.907286 0.843259
0.868315 0.907439 0.843107
0.869108 0.907683 0.842954
0.870176 0.908080 0.842893
0.869871 0.908232 0.838621
0.869657 0.908415 0.833036
0.869505 0.908629 0.826139
0.869749 0.908873 0.817990
0.870390 0.909087 0.808286
0.871519 0.909148 0.796475
0.873320 0.908995 0.781704
0.876127 0.908690 0.764157
0.880400 0.908232 0.742550
0.886595 0.907774 0.716213
0.895323 0.907225 0.683558
0.906981 0.906615 0.642817
0.921813 0.905760 0.592248
0.940063 0.904540 0.524651
0.961273 0.902464 0.432654
0.970855 0.890898 0.356420
0.976562 0.873777 0.254246
0.987976 0.859403 0.000000
1.000000 0.848997 0.000000
1.000000 0.854063 0.189456
1.000000 0.859770 0.349401
1.000000 0.866941 0.458808
1.000000 0.874327 0.545037
1.000000 0.881621 0.612482
0.880766 0.918303 0.859159
0.881010 0.918486 0.859403
0.881346 0.918700 0.859617
0.881712 0.918883 0.859770
0.882322 0.919188 0.860014
0.883207 0.919615 0.860349
0.884611 0.920409 0.861082
0.886412 0.921416 0.862058
0.887999 0.922515 0.861723
0.888792 0.923613 0.858518
0.889769 0.924773 0.854520
0.890959 0.925902 0.849577
0.892271 0.926970 0.843442
0.893797 0.927825 0.835599
0.895689 0.928466 0.825895
0.897948 0.928801 0.813626
0.901152 0.928985 0.798734
0.905669 0.929076 0.780819
0.911986 0.929229 0.759426
0.920531 0.929381 0.732937
0.931731 0.929412 0.699489
0.946044 0.929229 0.655482
0.963867 0.928649 0.597772
0.984649 0.927184 0.522545
0.995178 0.917144 0.458625
1.000000 0.902647 0.378210
1.000000 0.890288 0.267552
1.000000 0.880064 0.098421
1.000000 0.882231 0.327459
1.000000 0.885679 0.446845
1.000000 0.891447 0.541192
1.000000 0.897093 0.612055
0.901213 0.934417 0.882231
0.901244 0.934417 0.882231
0.901305 0.934417 0.882200
0.901457 0.934447 0.882109
0.901701 0.934539 0.882017
0.902129 0.934661 0.881956
0.902800 0.934936 0.882017
0.903716 0.935302 0.882170
0.904936 0.935851 0.882444
0.905180 0.936339 0.879637
0.905333 0.936889 0.875700
0.905699 0.937530 0.871061
0.906310 0.938170 0.865476
0.907103 0.938781 0.858732
