20 Preset/Ins style/【3】LUT video cho PR-AE-FCPX/Tone (4).cube
# Created by Adobe Lightroom plugin Export LUT (1.24.0)
# www.johnrellis.com/lightroom/exportlut.htm
# Preset: INS网红琥珀色-素材江湖02
# Color profile: C:\Program Files (x86)\Common Files\Adobe\Color\Profiles\Recommended\VideoHD.icc
LUT_3D_SIZE 5
DOMAIN_MIN 0.000000 0.000000 0.000000
DOMAIN_MAX 0.903226 0.903226 0.903226
0.055299 0.041871 0.033845
0.197543 0.044251 0.023011
0.700038 0.000000 0.000000
1.000000 0.129488 0.000000
1.000000 0.330083 0.000000
0.146700 0.146151 0.084627
0.223819 0.168215 0.000000
0.707118 0.273533 0.000000
1.000000 0.353887 0.000000
1.000000 0.441505 0.120394
0.533501 0.587304 0.402777
0.545678 0.587121 0.294041
0.654414 0.535698 0.000000
0.980468 0.679652 0.352422
1.000000 0.706477 0.506706
0.789609 0.842527 0.750057
0.794247 0.845335 0.738338
0.817716 0.843259 0.576074
0.895171 0.769436 0.000000
1.000000 0.830045 0.563165
0.913878 0.944335 0.896300
0.916472 0.945464 0.896818
0.914061 0.944427 0.863523
0.947204 0.951019 0.770260
1.000000 0.921263 0.397864
0.023835 0.083467 0.105409
0.194125 0.000000 0.133425
0.642023 0.000000 0.108797
1.000000 0.033967 0.138582
1.000000 0.355779 0.242985
0.177035 0.154116 0.136202
0.260533 0.195041 0.151461
0.687678 0.240635 0.152865
1.000000 0.344396 0.185824
1.000000 0.455146 0.298558
0.522637 0.565393 0.447974
0.544732 0.578668 0.417243
0.630335 0.511376 0.000000
0.946929 0.688869 0.489357
1.000000 0.716976 0.566827
0.790463 0.840696 0.764065
0.800107 0.845792 0.767208
0.814786 0.843137 0.634974
0.889708 0.766690 0.000000
1.000000 0.840421 0.637842
0.914275 0.944152 0.899901
0.916564 0.945098 0.900145
0.921599 0.949187 0.882414
0.948302 0.954101 0.797971
1.000000 0.926360 0.478889
0.000000 0.230808 0.409918
0.000000 0.136507 0.488808
0.669306 0.000000 0.532372
0.991424 0.000000 0.464668
1.000000 0.399786 0.521202
0.225986 0.362737 0.419776
0.226291 0.319493 0.487984
0.700313 0.157534 0.541588
0.980957 0.252262 0.485878
1.000000 0.543908 0.592065
0.549859 0.550134 0.541924
0.581201 0.578424 0.575219
0.709560 0.650416 0.601343
0.919188 0.707820 0.662623
1.000000 0.743862 0.702327
0.793820 0.834745 0.800870
0.796750 0.836423 0.799374
0.814603 0.846677 0.774411
0.876463 0.776150 0.455024
0.997711 0.876036 0.800320
0.912139 0.940917 0.908751
0.915007 0.942657 0.909880
0.926085 0.948425 0.913207
0.938933 0.951751 0.848753
1.000000 0.923735 0.596063
0.000000 0.482033 0.751369
0.000000 0.434028 0.779660
0.605432 0.249424 0.854948
0.973297 0.192691 0.831815
1.000000 0.402777 0.727871
0.270512 0.579614 0.746059
0.283360 0.548913 0.769406
0.619928 0.419532 0.843290
0.950774 0.378454 0.815885
1.000000 0.497200 0.737423
0.590845 0.701534 0.711574
0.611170 0.708186 0.722164
0.670771 0.704005 0.807767
0.900877 0.669398 0.799527
1.000000 0.717037 0.789273
0.783047 0.807401 0.802243
0.788998 0.811246 0.807004
0.816434 0.835630 0.832456
0.878569 0.860685 0.838987
0.989197 0.885618 0.869413
0.913481 0.936675 0.923033
0.916472 0.938842 0.925200
0.928038 0.947509 0.932708
0.940826 0.956237 0.926879
0.996399 0.927947 0.757443
0.507408 0.742763 0.913603
0.508446 0.725277 0.920226
0.568475 0.639734 0.946685
0.878325 0.578973 0.971221
1.000000 0.606867 0.955108
0.583795 0.778347 0.907134
0.583551 0.765835 0.913573
0.609979 0.693416 0.940093
0.874479 0.642725 0.966217
1.000000 0.653407 0.950347
0.715450 0.846921 0.888182
0.724636 0.846983 0.894469
0.735286 0.825559 0.919677
0.864866 0.782895 0.954437
1.000000 0.771878 0.940551
0.812772 0.890318 0.888731
0.815854 0.890410 0.889677
0.831266 0.892271 0.895689
0.862516 0.891142 0.939147
0.987060 0.880888 0.941283
0.908721 0.928313 0.923369
0.910948 0.929625 0.924956
0.921508 0.936217 0.932799
0.941131 0.949096 0.947936
0.972076 0.965332 0.958312
