20 Preset/Ins style/【3】LUT video cho PR-AE-FCPX/Tone (7).cube
# Created by Adobe Lightroom plugin Export LUT (1.24.0)
# www.johnrellis.com/lightroom/exportlut.htm
# Preset: INS网红琥珀色-素材江湖05
# Color profile: C:\Program Files (x86)\Common Files\Adobe\Color\Profiles\Recommended\VideoHD.icc
LUT_3D_SIZE 8
DOMAIN_MIN 0.000000 0.000000 0.000000
DOMAIN_MAX 0.903226 0.903226 0.903226
0.001343 0.001953 0.004211
0.170108 0.046784 0.077272
0.671962 0.000000 0.096773
0.934966 0.262364 0.117494
1.000000 0.475837 0.222110
1.000000 0.605646 0.363378
1.000000 0.687221 0.483253
1.000000 0.749020 0.588586
0.000000 0.220035 0.166720
0.191165 0.173373 0.107057
0.712917 0.250431 0.000000
0.940398 0.370092 0.047669
1.000000 0.523705 0.219303
1.000000 0.624292 0.364141
1.000000 0.695399 0.483650
1.000000 0.753170 0.589166
0.000000 0.700710 0.410712
0.000000 0.704005 0.382849
0.644190 0.520958 0.182223
0.917967 0.619379 0.221195
0.996185 0.673487 0.282689
1.000000 0.700465 0.395422
1.000000 0.739071 0.511833
1.000000 0.778286 0.608820
0.000000 0.895933 0.650813
0.000000 0.897581 0.636988
0.000000 0.893400 0.256626
0.828458 0.750179 0.431037
0.932555 0.778927 0.530175
0.972015 0.799161 0.557763
0.993561 0.800168 0.582788
1.000000 0.814450 0.637293
0.000000 0.929107 0.758938
0.000000 0.930602 0.753323
0.000000 0.936980 0.727626
0.387701 0.917205 0.423102
0.879454 0.838132 0.614527
0.918212 0.834775 0.688655
0.954589 0.851499 0.708003
0.988556 0.860136 0.710048
0.469245 0.943023 0.824399
0.450996 0.944030 0.822354
0.336461 0.947723 0.810727
0.221805 0.949523 0.740078
0.706447 0.924529 0.601740
0.887816 0.872404 0.731777
0.915679 0.872343 0.780667
0.955322 0.888945 0.792630
0.657343 0.962554 0.876890
0.651698 0.962951 0.875731
0.622095 0.964569 0.869932
0.548943 0.968353 0.857359
0.576684 0.964904 0.766384
0.808469 0.940612 0.727138
0.901762 0.901396 0.805875
0.929595 0.900999 0.830900
0.724025 0.986816 0.914549
0.722408 0.986908 0.914061
0.714717 0.987366 0.911955
0.696468 0.988464 0.907256
0.655299 0.990295 0.893156
0.689296 0.986450 0.799527
0.867796 0.963531 0.801328
0.933379 0.930632 0.840574
0.002014 0.048127 0.183413
0.127626 0.129519 0.169314
0.658015 0.007904 0.165743
0.921691 0.335180 0.183688
1.000000 0.512871 0.233280
1.000000 0.617182 0.358099
1.000000 0.690517 0.478737
1.000000 0.749050 0.584649
0.000000 0.197665 0.209262
0.238407 0.205203 0.207523
0.686580 0.287846 0.201785
0.923125 0.421088 0.206729
1.000000 0.555505 0.260533
1.000000 0.636103 0.362676
1.000000 0.699611 0.481727
1.000000 0.753750 0.586450
0.000000 0.673274 0.449226
0.000000 0.679774 0.418402
0.643763 0.506523 0.317266
0.904143 0.643275 0.340887
0.980774 0.688106 0.380499
1.000000 0.710597 0.439399
1.000000 0.739010 0.505455
1.000000 0.777310 0.604334
0.000000 0.882536 0.664302
0.000000 0.884855 0.650782
0.000000 0.882078 0.359380
0.820157 0.740536 0.479683
0.925444 0.781674 0.557702
0.963439 0.801328 0.587182
0.986114 0.802853 0.606195
1.000000 0.812863 0.632380
0.000000 0.923522 0.766964
0.000000 0.924987 0.761471
0.000000 0.931518 0.736416
0.443061 0.912993 0.470314
0.875578 0.835294 0.632380
0.915007 0.836149 0.698634
0.950988 0.853330 0.718807
0.984375 0.861479 0.721157
0.513268 0.939757 0.827665
0.497108 0.940520 0.825284
0.406744 0.944060 0.814023
0.317937 0.946258 0.750790
0.715175 0.922423 0.624109
0.885801 0.871611 0.739834
0.914153 0.873228 0.785122
0.953765 0.889830 0.797055
0.671717 0.960693 0.878294
0.665278 0.960998 0.876890
0.637812 0.962554 0.871214
0.570397 0.966247 0.858976
0.593866 0.963104 0.774716
0.810269 0.939635 0.735836
0.900511 0.900694 0.808530
0.928954 0.900999 0.831815
0.728145 0.986114 0.914946
0.726650 0.986236 0.914549
0.719112 0.986694 0.912413
0.702052 0.987732 0.907897
0.664851 0.989929 0.896574
0.697169 0.985840 0.806271
0.868284 0.963348 0.804807
0.933074 0.930449 0.841733
0.111543 0.123171 0.531395
0.411261 0.134768 0.511589
0.564172 0.488655 0.494820
0.871519 0.397925 0.421424
0.973022 0.566522 0.450355
0.994720 0.671260 0.514794
1.000000 0.724453 0.565576
1.000000 0.761105 0.604730
0.205600 0.280888 0.523186
0.437751 0.309087 0.505425
0.587945 0.526482 0.520989
0.860868 0.461799 0.430976
0.965179 0.606317 0.475715
0.988128 0.688777 0.531182
0.998566 0.732845 0.574151
1.000000 0.766323 0.611048
0.389136 0.601862 0.535302
0.452369 0.598413 0.532219
0.668757 0.576440 0.502373
0.858427 0.664912 0.535393
0.941009 0.717250 0.560052
0.967468 0.745449 0.589410
0.984344 0.768521 0.617853
1.000000 0.790249 0.643519
0.375830 0.846586 0.718441
0.337835 0.846220 0.709316
0.000000 0.852964 0.603449
0.805081 0.737362 0.609949
0.904601 0.803342 0.661402
0.937224 0.816129 0.683284
0.962158 0.820157 0.691005
0.986664 0.828092 0.699062
0.520958 0.905150 0.795621
0.496071 0.906432 0.791440
0.339391 0.912596 0.771145
0.575860 0.901366 0.609766
0.864164 0.831388 0.700526
0.903868 0.846616 0.744289
0.939147 0.864591 0.764370
0.970886 0.869627 0.763699
0.644526 0.929290 0.842985
0.635157 0.929961 0.841001
0.588952 0.932738 0.831571
0.516899 0.936187 0.792630
0.745937 0.916533 0.698817
0.878874 0.870146 0.771084
0.909300 0.878630 0.805264
0.949950 0.895109 0.815427
0.721553 0.955932 0.886046
0.718196 0.956085 0.885069
0.701625 0.956970 0.880674
0.655207 0.959869 0.870054
0.657527 0.957763 0.808469
0.819852 0.937469 0.770962
0.897826 0.900359 0.821744
0.929290 0.903502 0.838468
0.746731 0.984588 0.918303
0.745113 0.984649 0.917784
0.738552 0.984985 0.915801
0.724453 0.985931 0.911772
0.695705 0.987701 0.904082
0.720363 0.983917 0.827787
0.870115 0.963256 0.817441
0.932555 0.930388 0.846830
0.488930 0.318608 0.792111
0.603510 0.364599 0.785794
0.792325 0.537865 0.750362
0.771176 0.768887 0.750393
0.909331 0.700862 0.706691
0.960143 0.682460 0.621973
0.967590 0.749355 0.666835
0.980957 0.788571 0.700862
0.535088 0.456672 0.776364
0.621241 0.484596 0.770382
0.777157 0.595789 0.740902
0.768399 0.781125 0.756649
0.912596 0.685573 0.684535
0.954101 0.701228 0.635920
0.963561 0.758785 0.676509
0.978729 0.793881 0.706966
0.456184 0.632319 0.741909
0.537346 0.628290 0.733089
0.730190 0.672816 0.711299
0.792966 0.729854 0.717983
0.895384 0.704280 0.654414
0.932341 0.761135 0.687465
0.949157 0.793576 0.714778
0.971252 0.814542 0.731044
0.637507 0.809720 0.753597
0.660883 0.805447 0.749538
0.674708 0.792935 0.733639
0.802792 0.775479 0.711086
0.878172 0.814725 0.742519
0.907561 0.825315 0.753628
0.933379 0.835050 0.761532
0.961395 0.844022 0.765499
0.698970 0.889067 0.824308
0.700771 0.887907 0.822904
0.680110 0.886198 0.811612
0.667750 0.886564 0.724483
0.852201 0.836332 0.764675
0.889220 0.861967 0.799405
0.922759 0.876646 0.813046
0.953094 0.878721 0.808591
0.759640 0.915496 0.861967
0.756222 0.915953 0.861051
0.735866 0.917510 0.854917
0.672511 0.922393 0.837949
0.781827 0.908598 0.775662
0.868559 0.869383 0.810239
0.905089 0.886290 0.829404
0.947845 0.901946 0.836149
0.768856 0.949889 0.894133
0.767056 0.950011 0.893523
0.759182 0.950469 0.890806
0.739803 0.951720 0.884459
0.727138 0.951049 0.851530
0.832212 0.934752 0.812497
0.894347 0.899504 0.837675
0.930541 0.907469 0.848325
0.777584 0.982208 0.924651
0.776272 0.982269 0.924224
0.770382 0.982574 0.922301
0.757900 0.983307 0.918334
0.736049 0.984588 0.911559
0.745480 0.981872 0.856931
0.870909 0.963531 0.833127
0.931701 0.930205 0.855436
0.696864 0.584741 0.877379
0.732937 0.609766 0.874418
0.818631 0.692958 0.862760
0.857511 0.771603 0.840085
0.837430 0.862150 0.845396
0.878080 0.842283 0.834043
0.929259 0.783688 0.760769
0.950835 0.802304 0.758114
0.707546 0.646357 0.869566
0.737392 0.663233 0.867247
0.813687 0.721492 0.858061
0.851926 0.782040 0.837430
0.836637 0.863890 0.846098
0.879362 0.837888 0.829038
0.929381 0.780545 0.753841
0.949126 0.807156 0.762631
0.687617 0.728359 0.851591
0.715023 0.736019 0.850156
0.791775 0.765988 0.844175
0.834745 0.802945 0.826902
0.835599 0.863066 0.844663
0.888426 0.811612 0.798276
0.923583 0.791012 0.752834
0.943359 0.824582 0.779171
0.663630 0.811734 0.835935
0.676143 0.808530 0.832731
0.719142 0.791409 0.816403
0.802304 0.810391 0.798917
0.848844 0.808103 0.789212
0.885435 0.813352 0.776852
0.908812 0.836728 0.795682
0.937285 0.851682 0.806088
0.771633 0.873014 0.839322
0.777432 0.871946 0.838437
0.789822 0.867674 0.834073
0.760861 0.861601 0.814389
0.844083 0.850919 0.811734
0.876432 0.868498 0.830381
0.905638 0.874174 0.832456
0.938048 0.879271 0.831632
0.795682 0.909087 0.869841
0.796048 0.908629 0.869352
0.796780 0.906188 0.866545
0.785061 0.903166 0.857603
0.799832 0.899321 0.820706
0.863432 0.873869 0.834134
0.904631 0.893339 0.848508
0.947814 0.907195 0.853483
0.793454 0.947478 0.900969
0.794614 0.946838 0.900511
0.798978 0.944244 0.898680
0.792233 0.943267 0.894041
0.766690 0.945129 0.884733
0.834531 0.932311 0.838254
0.889891 0.897429 0.851652
0.933104 0.912413 0.860258
0.792477 0.981903 0.930083
0.794553 0.981506 0.930083
0.802792 0.979797 0.929900
0.798856 0.979492 0.927092
0.779507 0.980621 0.920653
0.767819 0.980102 0.891569
0.867216 0.964630 0.848997
0.929778 0.929320 0.865965
0.776944 0.750332 0.899504
0.789303 0.760006 0.898131
0.827054 0.792813 0.892790
0.864225 0.836606 0.884947
0.866941 0.856626 0.869474
0.866728 0.892454 0.879484
0.893400 0.882750 0.876341
0.922728 0.857969 0.848447
0.780758 0.770718 0.895354
0.791470 0.777798 0.894194
0.826200 0.803677 0.889769
0.861906 0.840330 0.882902
0.864775 0.857847 0.867979
0.866026 0.892973 0.879454
0.893004 0.881102 0.874418
0.921996 0.856687 0.846281
0.783352 0.809934 0.885771
0.792386 0.813931 0.885039
0.822599 0.829801 0.882200
0.855161 0.851286 0.877745
0.858579 0.862974 0.864469
0.864591 0.895933 0.880705
0.892241 0.875273 0.867033
0.918273 0.853788 0.839139
0.759670 0.831571 0.874296
0.770535 0.833860 0.873198
0.805142 0.843320 0.870115
0.842008 0.858061 0.868284
0.848722 0.867185 0.857786
0.864744 0.886015 0.872557
0.889311 0.860899 0.847227
0.914366 0.847166 0.822416
0.781003 0.871916 0.869139
0.783902 0.871061 0.867948
0.794003 0.866941 0.862791
0.806790 0.855253 0.850675
0.836301 0.866667 0.848142
0.856962 0.852506 0.832181
0.885222 0.861387 0.835996
0.920073 0.872587 0.842985
0.817960 0.900603 0.875639
0.819760 0.900175 0.875212
0.826413 0.898009 0.873045
0.830686 0.893339 0.867979
0.815976 0.886564 0.854459
0.863310 0.881132 0.852903
0.901915 0.895964 0.863706
0.936187 0.900481 0.862821
0.826474 0.940826 0.906615
0.826871 0.940673 0.906493
0.827756 0.939849 0.905608
0.828763 0.937621 0.902953
0.824338 0.932921 0.895262
0.826749 0.929290 0.859617
0.889281 0.900542 0.866056
0.939086 0.920134 0.877012
0.818814 0.978485 0.935821
0.819303 0.978485 0.935821
0.821500 0.978485 0.935882
0.825498 0.978454 0.935851
0.832975 0.975280 0.933043
0.804685 0.976989 0.923095
0.858457 0.966186 0.869566
0.927306 0.928313 0.879728
0.825956 0.831937 0.923949
0.832090 0.836332 0.923735
0.850736 0.847349 0.921477
0.876951 0.861906 0.918639
0.900389 0.877531 0.914458
0.892058 0.887358 0.897246
0.896544 0.917510 0.909026
0.916381 0.911833 0.908385
0.824918 0.835691 0.920378
0.830777 0.839567 0.920409
0.848722 0.849241 0.918486
0.873960 0.862181 0.915648
0.897124 0.876951 0.911498
0.888426 0.885801 0.894041
0.893309 0.915557 0.906340
0.913573 0.908598 0.904784
0.827085 0.853941 0.916533
0.831205 0.855375 0.916228
0.846281 0.860441 0.914794
0.870054 0.869352 0.912779
0.893767 0.881956 0.909575
0.885557 0.889036 0.892973
0.894347 0.919219 0.908995
0.916747 0.907469 0.903868
0.817716 0.866453 0.909880
0.821439 0.867094 0.909575
0.836057 0.870176 0.908568
0.860899 0.877256 0.907836
0.886656 0.887968 0.906249
0.883238 0.895140 0.893400
0.895506 0.924651 0.912963
0.918364 0.901823 0.897307
0.796780 0.878264 0.900511
0.798184 0.877165 0.899290
0.809506 0.875517 0.896483
0.835111 0.876951 0.894835
0.868620 0.886839 0.895384
0.874693 0.895567 0.887572
0.892363 0.911223 0.901305
0.915709 0.888579 0.879637
0.810788 0.905455 0.902007
0.812253 0.904997 0.901488
0.817655 0.902617 0.898802
0.826566 0.897124 0.892790
0.836088 0.884886 0.880003
0.861906 0.891600 0.877287
0.879942 0.882261 0.866880
0.910369 0.883818 0.863035
0.833158 0.933104 0.912047
0.834714 0.933074 0.912047
0.840177 0.931884 0.910857
0.850401 0.929442 0.908354
0.861997 0.924315 0.903105
0.849485 0.912535 0.887419
0.890990 0.907164 0.882597
0.938170 0.921874 0.892241
0.857389 0.970916 0.941009
0.857939 0.971038 0.941161
0.860777 0.971588 0.942107
0.864256 0.971862 0.942718
0.867308 0.971496 0.942199
0.869352 0.967803 0.937652
0.847929 0.966735 0.903044
0.924987 0.929351 0.896544
0.851682 0.861723 0.949310
0.855070 0.863005 0.949279
0.867063 0.867033 0.947967
0.888457 0.875212 0.946624
0.913878 0.886839 0.944518
0.930205 0.899565 0.938933
0.921324 0.911315 0.924498
0.924315 0.937865 0.933654
0.850309 0.863127 0.947570
0.853666 0.864408 0.947631
0.865721 0.868345 0.946654
0.886778 0.875975 0.945251
0.912169 0.887175 0.943267
0.928771 0.899657 0.937865
0.919738 0.910857 0.923308
0.923186 0.937346 0.932860
0.847196 0.870390 0.945251
0.850309 0.871275 0.945159
0.861936 0.874327 0.944244
0.883635 0.881590 0.943999
0.908965 0.891356 0.942138
0.926818 0.902892 0.937255
0.918761 0.913237 0.923461
0.923796 0.939544 0.934325
0.836759 0.878904 0.941650
0.839994 0.879698 0.941741
0.852293 0.882261 0.941283
0.874418 0.887999 0.940978
0.901976 0.896971 0.940185
0.924895 0.908965 0.937774
0.918547 0.918090 0.925017
0.926360 0.944396 0.938201
0.813993 0.887785 0.935790
0.817227 0.888151 0.935973
0.829007 0.888670 0.935668
0.852964 0.892088 0.935912
0.886107 0.900145 0.935973
0.918212 0.913085 0.936400
0.916686 0.921965 0.925414
0.930144 0.950652 0.943511
0.804074 0.909453 0.934081
0.805203 0.908782 0.933501
0.810391 0.906340 0.931426
0.820615 0.901610 0.927855
0.851682 0.900938 0.927642
0.900603 0.914488 0.932677
0.917388 0.928161 0.928557
0.932525 0.949157 0.943023
0.819272 0.941344 0.943084
0.820584 0.941100 0.942840
0.825742 0.939910 0.941772
0.835386 0.937102 0.939239
0.848295 0.931243 0.933837
0.860960 0.917845 0.921477
0.903624 0.923430 0.919554
0.920073 0.920684 0.912963
0.839445 0.966674 0.949615
0.840696 0.966369 0.949340
0.846464 0.965637 0.948730
0.858427 0.964904 0.948333
0.875517 0.963348 0.947143
0.895781 0.960021 0.944244
0.894957 0.948638 0.931273
0.925200 0.936828 0.917540
