20 Preset/Ins style/【3】LUT video cho PR-AE-FCPX/Tone (9).cube
# Created by Adobe Lightroom plugin Export LUT (1.24.0)
# www.johnrellis.com/lightroom/exportlut.htm
# Preset: INS网红琥珀色-素材江湖07
# Color profile: C:\Program Files (x86)\Common Files\Adobe\Color\Profiles\Recommended\VideoHD.icc
LUT_3D_SIZE 32
DOMAIN_MIN 0.0 0.0 0.0
DOMAIN_MAX 1.0 1.0 1.0
0.070314 0.094728 0.101564
0.070314 0.094728 0.101564
0.085908 0.095430 0.102419
0.105348 0.097108 0.104738
0.132753 0.101503 0.107942
0.181552 0.104128 0.111238
0.244205 0.102052 0.112276
0.308598 0.092836 0.111666
0.368292 0.067353 0.109560
0.421210 0.024628 0.106905
0.469245 0.000000 0.104128
0.513909 0.000000 0.101381
0.556847 0.000000 0.098787
0.598871 0.000000 0.096834
0.640986 0.000000 0.093904
0.683345 0.000000 0.090974
0.725246 0.000000 0.086275
0.764279 0.063325 0.079683
0.799649 0.118105 0.074342
0.831083 0.153597 0.074983
0.858610 0.184970 0.082551
0.883696 0.214908 0.095766
0.907622 0.244175 0.108766
0.930205 0.271366 0.119692
0.951324 0.296269 0.130434
0.971344 0.319890 0.140963
0.990478 0.342473 0.150088
1.000000 0.363867 0.159030
1.000000 0.384558 0.168185
1.000000 0.405310 0.181949
1.000000 0.425757 0.196719
1.000000 0.445747 0.211337
0.069612 0.095125 0.101503
0.071595 0.095064 0.101503
0.087343 0.096101 0.102693
0.105989 0.098939 0.104829
0.133852 0.103456 0.108339
0.182925 0.106477 0.111208
0.245212 0.104158 0.112276
0.308629 0.095979 0.111330
0.368292 0.076295 0.109529
0.420905 0.035431 0.106844
0.468849 0.000000 0.103548
0.513176 0.000000 0.101015
0.555932 0.000000 0.098695
0.598016 0.000000 0.096345
0.639918 0.000000 0.093935
0.682429 0.000000 0.090578
0.724361 0.000000 0.085603
0.763272 0.076143 0.079957
0.798734 0.121309 0.073671
0.829984 0.155489 0.074800
0.857481 0.186343 0.083986
0.882475 0.215396 0.096071
0.906065 0.244358 0.108980
0.928466 0.270634 0.120027
0.949462 0.295659 0.131014
0.969451 0.318669 0.140658
0.988678 0.340917 0.149386
1.000000 0.362432 0.158572
1.000000 0.383032 0.167086
1.000000 0.403845 0.181308
1.000000 0.424292 0.195712
1.000000 0.444404 0.210269
0.071839 0.103456 0.104372
0.076051 0.104005 0.104616
0.087007 0.103365 0.106630
0.107118 0.107118 0.107118
0.138735 0.111879 0.110018
0.191104 0.115908 0.111513
0.253422 0.114778 0.111635
0.315618 0.108583 0.110506
0.373449 0.098665 0.108431
0.424903 0.080751 0.105745
0.472023 0.041627 0.102449
0.515709 0.003876 0.099916
0.558190 0.000000 0.097353
0.599969 0.000000 0.095369
0.641871 0.000000 0.092287
0.684230 0.000000 0.088685
0.725704 0.048280 0.083040
0.764309 0.105165 0.076387
0.799252 0.136446 0.073121
0.829953 0.167636 0.080507
0.857176 0.196475 0.090730
0.882048 0.224430 0.101534
0.905425 0.251408 0.113558
0.927642 0.276555 0.124239
0.948486 0.300237 0.134340
0.968414 0.322545 0.143832
0.987549 0.344610 0.153048
1.000000 0.365393 0.161563
1.000000 0.385595 0.168521
1.000000 0.405982 0.181033
1.000000 0.425910 0.195499
1.000000 0.445747 0.210117
0.082795 0.120485 0.114260
0.085908 0.120638 0.114504
0.094270 0.120882 0.115877
0.105013 0.120943 0.119814
0.143160 0.130800 0.118441
0.202945 0.136294 0.115511
0.265812 0.137789 0.113161
0.327153 0.134646 0.109621
0.383948 0.127108 0.106050
0.434028 0.117037 0.102541
0.479500 0.105623 0.099580
0.522057 0.093965 0.096834
0.563989 0.084840 0.094057
0.605402 0.078492 0.091676
0.646540 0.082765 0.089509
0.688502 0.097841 0.084169
0.728634 0.117159 0.082948
0.765743 0.141390 0.083986
0.799374 0.166201 0.089265
0.829343 0.191287 0.095583
0.856199 0.215854 0.102510
0.880858 0.240848 0.113100
0.903990 0.264958 0.123140
0.925902 0.288182 0.133486
0.946990 0.310460 0.142733
0.967102 0.332036 0.152010
0.986419 0.352972 0.160861
1.000000 0.373266 0.169070
1.000000 0.392370 0.175174
1.000000 0.411566 0.182559
1.000000 0.430732 0.196475
1.000000 0.449866 0.211093
0.081514 0.154238 0.124239
0.086366 0.154086 0.124514
0.099153 0.154177 0.125429
0.120119 0.153841 0.128847
0.143832 0.155856 0.136721
0.205844 0.171603 0.131136
0.276890 0.173617 0.122255
0.337285 0.170871 0.117342
0.391211 0.165743 0.112947
0.440040 0.158663 0.108522
0.485267 0.150423 0.104219
0.528130 0.143191 0.100465
0.569299 0.139071 0.098970
0.610254 0.139223 0.097780
0.650965 0.143252 0.097871
0.691585 0.153567 0.098878
0.731228 0.166720 0.098848
0.767514 0.184573 0.102266
0.800565 0.203983 0.106325
0.829953 0.224094 0.112276
0.856352 0.244572 0.119936
0.880888 0.265934 0.128420
0.903441 0.286900 0.138613
0.925261 0.307317 0.147738
0.946105 0.327489 0.156252
0.966186 0.347326 0.164797
0.985504 0.366552 0.172641
1.000000 0.385138 0.179080
1.000000 0.403296 0.185428
1.000000 0.421149 0.191226
1.000000 0.438575 0.198459
1.000000 0.456855 0.213046
0.062654 0.203372 0.136110
0.073854 0.203342 0.136049
0.099184 0.202914 0.136904
0.130343 0.202884 0.140169
0.166995 0.203311 0.148196
0.204135 0.207919 0.162478
0.274296 0.224918 0.153109
0.342687 0.222812 0.138979
0.400610 0.213504 0.128939
0.447547 0.207584 0.124514
0.490974 0.201266 0.121035
0.533227 0.196963 0.118196
0.574487 0.195193 0.117556
0.615412 0.196323 0.117739
0.656489 0.200015 0.118196
0.697292 0.207858 0.119295
0.735500 0.218784 0.121187
0.771054 0.232547 0.124880
0.803159 0.247562 0.128786
0.831662 0.263462 0.134951
0.857725 0.280735 0.142184
0.881590 0.298100 0.150149
0.912932 0.325689 0.163363
0.934478 0.343969 0.172122
0.954925 0.361608 0.179965
0.974334 0.378943 0.187625
0.992950 0.395727 0.195010
1.000000 0.411933 0.200687
1.000000 0.428077 0.206149
1.000000 0.443824 0.210758
1.000000 0.459297 0.215061
1.000000 0.474739 0.221134
0.057282 0.260746 0.154726
0.074159 0.260685 0.154879
0.105745 0.260075 0.155612
0.140352 0.259648 0.157992
0.185550 0.260594 0.166781
0.229679 0.261112 0.179751
0.273228 0.268864 0.200259
0.341344 0.284276 0.190280
0.401495 0.280186 0.172549
0.456703 0.268070 0.156954
0.501579 0.260655 0.151797
0.543053 0.258122 0.151064
0.583978 0.257267 0.151034
0.624994 0.258640 0.150881
0.665919 0.262425 0.151339
0.706020 0.268284 0.151583
0.743648 0.276402 0.152590
0.778103 0.286015 0.154971
0.808530 0.297551 0.158663
0.836179 0.310094 0.164187
0.862547 0.324498 0.170535
0.886534 0.339269 0.177920
0.909422 0.355047 0.185550
0.931334 0.370642 0.193423
0.952178 0.386084 0.200137
0.971801 0.401526 0.206912
0.990570 0.415808 0.212131
1.000000 0.430365 0.217319
1.000000 0.444862 0.222141
1.000000 0.458930 0.226413
1.000000 0.473152 0.229618
1.000000 0.487160 0.231968
0.109163 0.310460 0.180453
0.115389 0.310521 0.181003
0.132784 0.310033 0.181430
0.162661 0.309117 0.183505
0.202823 0.309483 0.190311
0.248539 0.311070 0.202731
0.291051 0.313298 0.219333
0.333562 0.322972 0.244236
0.393286 0.337133 0.236118
0.447425 0.334203 0.218509
0.499458 0.326207 0.202976
0.547662 0.317723 0.192355
0.588495 0.317144 0.191379
0.629145 0.318456 0.190738
0.670161 0.321660 0.190188
0.709041 0.326055 0.189883
0.745571 0.332189 0.190005
0.778958 0.338994 0.190921
0.808865 0.346563 0.192935
0.837217 0.356085 0.195865
0.862638 0.366094 0.200107
0.886076 0.377325 0.205081
0.908293 0.389380 0.211368
0.929870 0.401831 0.216953
0.950317 0.414710 0.223087
0.969909 0.427131 0.227970
0.988373 0.439673 0.233036
1.000000 0.452033 0.236881
1.000000 0.464576 0.240543
1.000000 0.477455 0.244327
1.000000 0.489967 0.246647
1.000000 0.502770 0.248661
0.162661 0.354711 0.213169
0.165835 0.354803 0.213230
0.177401 0.354192 0.213870
0.198154 0.353613 0.215732
0.227543 0.353002 0.219059
0.268772 0.354833 0.230594
0.309331 0.357214 0.245029
0.347936 0.360662 0.263188
0.387518 0.372412 0.288853
0.441535 0.386816 0.282139
0.492622 0.387640 0.266941
0.542809 0.384070 0.252811
0.592889 0.377295 0.238651
0.635737 0.376623 0.233768
0.675807 0.379278 0.231876
0.713466 0.382513 0.230442
0.748623 0.386664 0.229618
0.780667 0.391272 0.229648
0.810422 0.397009 0.230228
0.837247 0.403265 0.232029
0.861784 0.410101 0.234409
0.884977 0.417731 0.236973
0.907317 0.426215 0.240482
0.928893 0.435523 0.243595
0.949096 0.445594 0.248081
0.968353 0.455695 0.251804
0.986633 0.466163 0.255680
1.000000 0.476600 0.258824
1.000000 0.487465 0.261997
1.000000 0.498421 0.264317
1.000000 0.509758 0.266850
1.000000 0.521202 0.268070
0.214206 0.394781 0.247745
0.216220 0.394781 0.247807
0.223758 0.394293 0.248325
0.238590 0.393713 0.249454
0.259068 0.392767 0.251347
0.291447 0.393988 0.259281
0.328649 0.396643 0.271763
0.365667 0.400458 0.287083
0.400336 0.405310 0.304967
0.438972 0.419409 0.330724
0.490730 0.435492 0.325414
0.539513 0.439094 0.311192
0.588983 0.438972 0.297490
0.638209 0.436500 0.283665
0.682918 0.433295 0.272557
0.719142 0.435615 0.270024
0.753170 0.438575 0.268467
0.783993 0.441718 0.268132
0.812100 0.445014 0.267765
0.837675 0.448829 0.268376
0.861357 0.453071 0.269139
0.883787 0.457893 0.270573
0.905516 0.463600 0.272160
0.926513 0.470253 0.273533
0.946654 0.477302 0.275212
0.965850 0.484871 0.277073
0.984222 0.493019 0.279088
1.000000 0.501854 0.281346
1.000000 0.511040 0.283726
1.000000 0.520745 0.286076
1.000000 0.530907 0.287938
1.000000 0.541222 0.289036
0.259709 0.432502 0.280369
0.260563 0.432532 0.280430
0.266728 0.432227 0.280919
0.277806 0.431708 0.281712
0.293767 0.430945 0.283299
0.316655 0.431220 0.287510
0.349981 0.434424 0.298192
0.384314 0.438636 0.311345
0.418860 0.443915 0.326757
0.452125 0.450507 0.344640
0.492195 0.467842 0.370764
0.543267 0.485359 0.365515
0.591089 0.491249 0.351324
0.638636 0.492958 0.337469
0.683955 0.491920 0.324559
0.725612 0.488075 0.311925
0.758938 0.487373 0.306798
0.787686 0.488411 0.305241
0.813993 0.489845 0.304051
0.838224 0.491402 0.303593
0.861143 0.493568 0.303319
0.883085 0.496529 0.303136
0.904234 0.500572 0.304112
0.924743 0.505180 0.304723
0.944549 0.510491 0.305272
0.963439 0.516411 0.306432
0.981720 0.522881 0.307256
0.999359 0.529778 0.308080
1.000000 0.537255 0.308873
1.000000 0.545342 0.309606
1.000000 0.554192 0.311437
1.000000 0.563317 0.312505
0.299260 0.470710 0.310491
0.300420 0.470710 0.310552
0.304723 0.470527 0.310979
0.313695 0.470192 0.311864
0.326543 0.469673 0.312840
0.343755 0.468818 0.314549
0.371771 0.471992 0.322911
0.404334 0.476600 0.334386
0.437995 0.482551 0.347967
0.472023 0.489662 0.364172
0.505425 0.498085 0.382544
0.548913 0.519554 0.410773
0.608911 0.546624 0.412543
0.654200 0.552789 0.398383
0.695888 0.553643 0.384833
0.734279 0.550896 0.371679
0.769039 0.545739 0.359136
0.799924 0.540185 0.348608
0.824155 0.539727 0.346868
0.847166 0.539879 0.344884
0.868925 0.540307 0.343847
0.889738 0.541619 0.342931
0.909880 0.543633 0.341985
0.929259 0.546532 0.341924
0.947997 0.550011 0.341924
0.965942 0.554040 0.341894
0.983337 0.558526 0.341527
1.000000 0.563714 0.341711
1.000000 0.569421 0.342046
1.000000 0.575769 0.342016
1.000000 0.582666 0.341955
1.000000 0.589960 0.341222
0.336400 0.513146 0.340063
0.337011 0.513115 0.339971
0.340734 0.512718 0.340398
0.348241 0.512230 0.340703
0.359289 0.511559 0.341772
0.373907 0.510704 0.342962
0.395819 0.512016 0.347509
0.426856 0.517418 0.358068
0.460212 0.524254 0.370977
0.495308 0.532586 0.386175
0.531518 0.542840 0.404242
0.567224 0.554437 0.425696
0.612024 0.578454 0.459022
0.657099 0.594476 0.455787
0.696223 0.598688 0.441627
0.731838 0.597772 0.427405
0.764675 0.593805 0.413397
0.795071 0.587854 0.400000
0.823667 0.581048 0.386938
0.847227 0.577783 0.380865
0.868162 0.577020 0.378424
0.888212 0.577173 0.376776
0.907652 0.577966 0.375525
0.926635 0.579644 0.374334
0.944884 0.581781 0.373724
0.962493 0.584771 0.373327
0.979583 0.588281 0.372961
0.996124 0.592432 0.372564
1.000000 0.597162 0.372412
1.000000 0.602625 0.372442
1.000000 0.608484 0.372229
1.000000 0.614954 0.372015
0.367895 0.554803 0.366247
0.368688 0.554742 0.366186
0.372168 0.554345 0.366339
0.378546 0.553765 0.366705
0.388525 0.553063 0.367315
0.401740 0.552300 0.368597
0.418708 0.551354 0.369970
0.446876 0.556268 0.379004
0.479164 0.562890 0.390936
0.513390 0.570764 0.405432
0.548791 0.580072 0.422797
0.584375 0.590539 0.443732
0.618433 0.602197 0.468208
0.658534 0.624567 0.506493
0.695796 0.636957 0.504326
0.729152 0.639429 0.489357
0.759731 0.637049 0.473457
0.788846 0.632563 0.457984
0.816800 0.626734 0.443091
0.843076 0.619989 0.428931
0.867582 0.613489 0.416388
0.887053 0.612634 0.413703
0.905882 0.612512 0.411872
0.924254 0.613184 0.410071
0.942077 0.614466 0.408667
0.959258 0.616480 0.407843
0.975952 0.618952 0.406989
0.992126 0.622065 0.406317
1.000000 0.625940 0.405921
1.000000 0.630396 0.405707
1.000000 0.635462 0.405615
1.000000 0.641199 0.405463
0.398657 0.594476 0.391760
0.399451 0.594354 0.391882
0.402075 0.594049 0.391943
0.407935 0.593408 0.392096
0.416999 0.592554 0.392554
0.428992 0.591547 0.393500
0.444068 0.590570 0.394659
0.466224 0.592309 0.399969
0.496559 0.598322 0.411322
0.529686 0.605463 0.425666
0.563684 0.613764 0.442786
0.597955 0.622950 0.463447
0.630945 0.632776 0.487526
0.661067 0.643305 0.514580
0.695674 0.663478 0.553765
0.726497 0.673243 0.551843
0.755673 0.675013 0.536980
0.782986 0.672938 0.521050
0.809537 0.668757 0.504997
0.835050 0.663142 0.489357
0.859800 0.656764 0.473915
0.883635 0.650355 0.459571
0.903899 0.647120 0.451850
0.921630 0.646937 0.449378
0.938811 0.647364 0.447425
0.955566 0.648463 0.445686
0.971801 0.650141 0.444556
0.987701 0.652552 0.443641
1.000000 0.655634 0.443061
1.000000 0.659480 0.442939
1.000000 0.663996 0.443061
1.000000 0.668971 0.443275
0.429084 0.629511 0.417823
0.429816 0.629541 0.417853
0.432532 0.629297 0.418006
0.437324 0.628901 0.418341
0.445624 0.628290 0.418860
0.456428 0.627588 0.419776
0.470130 0.626825 0.420935
0.486397 0.626062 0.422827
0.514916 0.631250 0.434333
0.545922 0.637415 0.448554
0.577874 0.644221 0.465492
0.610132 0.651759 0.485634
0.641291 0.659876 0.508385
0.670100 0.668544 0.533227
0.695674 0.677607 0.559136
0.725612 0.695796 0.595422
0.752895 0.704677 0.593927
0.778775 0.706538 0.580133
0.803250 0.704799 0.565118
0.827298 0.701198 0.549828
0.851011 0.696742 0.534966
0.874205 0.691554 0.520378
0.896727 0.686091 0.506432
0.918456 0.680598 0.493050
0.935149 0.680507 0.490272
0.951354 0.680964 0.488319
0.967163 0.682063 0.486671
0.982696 0.683742 0.485267
0.997864 0.686061 0.484382
1.000000 0.689052 0.483864
1.000000 0.692653 0.483619
1.000000 0.696834 0.483680
0.460121 0.659785 0.445228
0.460792 0.659724 0.445136
0.462623 0.659571 0.445411
0.467231 0.659266 0.445655
0.474189 0.658747 0.446357
0.483711 0.658198 0.447181
0.495674 0.657496 0.448310
0.510124 0.656764 0.450080
0.531731 0.658686 0.457191
0.560266 0.663844 0.471290
0.590387 0.669734 0.488167
0.620508 0.676204 0.507469
0.649592 0.683192 0.528618
0.677150 0.690761 0.551385
0.702388 0.698878 0.575158
0.725185 0.707607 0.599207
0.752895 0.725185 0.632166
0.777279 0.733303 0.631067
0.800381 0.735134 0.618708
0.822324 0.733700 0.604822
0.844327 0.731167 0.591363
0.866117 0.727687 0.578027
0.887541 0.723690 0.564935
0.908507 0.719265 0.552148
0.929076 0.714565 0.539178
0.947082 0.712093 0.531334
0.962371 0.712673 0.529168
0.977478 0.713802 0.527398
0.992218 0.715541 0.526299
1.000000 0.717922 0.525536
1.000000 0.720882 0.525109
1.000000 0.724361 0.525048
0.492927 0.686610 0.475380
0.493385 0.686641 0.475654
0.502251 0.691524 0.482277
0.505852 0.691279 0.482704
0.511589 0.690883 0.483223
0.519554 0.690303 0.483986
0.529503 0.689601 0.485054
0.541802 0.688746 0.486458
0.556115 0.688045 0.488685
0.582300 0.692470 0.502586
0.609277 0.697475 0.518578
0.636683 0.703029 0.536431
0.663569 0.709255 0.555779
0.689326 0.715969 0.576196
0.713344 0.723262 0.597070
0.735592 0.730953 0.618311
0.755795 0.739101 0.639490
0.781186 0.755550 0.669093
0.802457 0.762448 0.668086
0.822995 0.763851 0.656336
0.842466 0.762539 0.643702
0.862211 0.760433 0.631525
0.881865 0.757595 0.619501
0.901274 0.754330 0.607752
0.920439 0.750454 0.595880
0.939300 0.746456 0.584009
0.957977 0.742367 0.572076
0.972686 0.742428 0.568933
0.986877 0.743496 0.567193
1.000000 0.745205 0.566003
1.000000 0.747585 0.565332
1.000000 0.750393 0.564996
0.527367 0.711727 0.508659
0.528405 0.712123 0.509331
0.530480 0.712551 0.510185
0.534203 0.712642 0.510918
0.539391 0.712642 0.512016
0.546227 0.712306 0.512810
0.554803 0.711727 0.513878
0.565087 0.711025 0.515099
0.576959 0.710231 0.516655
0.596002 0.712154 0.524834
0.620691 0.716732 0.539483
0.646021 0.721950 0.555993
0.670954 0.727687 0.573449
0.695308 0.733944 0.591943
0.718441 0.740719 0.610956
0.740352 0.747921 0.630335
0.760769 0.755550 0.649989
0.779477 0.763546 0.669825
0.803220 0.779416 0.698421
0.822293 0.785702 0.698238
0.840787 0.786862 0.687160
0.858854 0.786160 0.675746
0.876982 0.784543 0.664607
0.895018 0.782254 0.653712
0.912932 0.779507 0.642878
0.930663 0.776547 0.632410
0.948272 0.773434 0.621942
0.965850 0.770230 0.611505
0.981964 0.768582 0.604181
0.995636 0.769863 0.602777
1.000000 0.771756 0.602136
1.000000 0.774105 0.601709
0.556878 0.733516 0.538140
0.557763 0.733913 0.538811
0.559686 0.734310 0.539574
0.562829 0.734524 0.540490
0.567346 0.734554 0.541497
0.573144 0.734310 0.542260
0.580377 0.733852 0.543175
0.589288 0.733211 0.544366
0.599481 0.732570 0.545861
0.611688 0.732143 0.548241
0.633967 0.736385 0.561578
0.657008 0.741207 0.576440
0.679988 0.746548 0.592096
0.702937 0.752377 0.608850
0.725032 0.758633 0.626123
0.746151 0.765316 0.643824
0.766293 0.772335 0.661921
0.785031 0.779690 0.680598
0.802365 0.787442 0.699794
0.823911 0.802060 0.726894
0.840848 0.807614 0.727352
0.857298 0.808438 0.716793
0.873838 0.807980 0.706294
0.890501 0.806699 0.695918
0.907195 0.804868 0.685786
0.923796 0.802670 0.675929
0.940520 0.800198 0.666072
0.957061 0.797787 0.656703
0.973663 0.795438 0.647578
0.990265 0.793301 0.638819
1.000000 0.794034 0.636103
1.000000 0.795956 0.635645
0.585016 0.754910 0.567376
0.585779 0.755276 0.567834
0.587304 0.755612 0.568566
0.590112 0.755795 0.569390
0.593805 0.755856 0.570184
0.598840 0.755642 0.570855
0.604974 0.755276 0.571740
0.612421 0.754757 0.572656
0.621271 0.754208 0.573846
0.631403 0.753628 0.575494
0.647761 0.755642 0.583307
0.668544 0.760037 0.596521
0.689906 0.764981 0.610712
0.710994 0.770291 0.625757
0.732021 0.776089 0.641627
0.752407 0.782315 0.657832
0.772061 0.788846 0.675013
0.790707 0.795773 0.692805
0.808194 0.803037 0.711177
0.824247 0.810544 0.729885
0.843900 0.824125 0.755428
0.859068 0.829282 0.756832
0.873686 0.829831 0.746944
0.888914 0.829740 0.737545
0.904265 0.828916 0.728267
0.919707 0.827573 0.719234
0.935271 0.825925 0.710231
0.950896 0.824155 0.701625
0.966552 0.822416 0.693416
0.982330 0.820798 0.685481
0.998108 0.819272 0.677852
1.000000 0.818509 0.671687
0.613947 0.778042 0.598322
0.614374 0.778164 0.598535
0.615442 0.778225 0.598810
0.617334 0.778195 0.599145
0.620356 0.777981 0.599542
0.624384 0.777646 0.599908
0.629603 0.777279 0.600580
0.636042 0.776822 0.601373
0.643702 0.776333 0.602350
0.652522 0.775845 0.603784
0.663020 0.775662 0.606043
0.681941 0.779690 0.618036
0.701442 0.784146 0.630823
0.721096 0.788998 0.644343
0.740780 0.794247 0.658747
0.760128 0.799832 0.673915
0.778927 0.805692 0.689845
0.796933 0.811856 0.706416
0.813931 0.818296 0.723445
0.829709 0.824949 0.740719
0.844205 0.831846 0.758175
0.861723 0.843900 0.781338
0.874968 0.848295 0.782956
0.887755 0.848325 0.773312
0.901518 0.848173 0.764553
0.915679 0.847593 0.756130
0.930053 0.846677 0.747951
0.944640 0.845518 0.740108
0.959380 0.844297 0.732570
0.974212 0.843168 0.725429
0.989136 0.842100 0.718654
1.000000 0.841123 0.712154
0.637598 0.798001 0.624292
0.638025 0.798093 0.624537
0.638941 0.798123 0.624811
0.640681 0.798093 0.625086
0.643214 0.797971 0.625422
0.646693 0.797726 0.625818
0.651301 0.797391 0.626337
0.656947 0.796994 0.627039
0.663661 0.796597 0.627924
0.671473 0.796201 0.629175
0.680232 0.795743 0.630549
0.694209 0.797726 0.637476
0.712123 0.801755 0.649012
0.730495 0.806180 0.661585
0.749020 0.810910 0.675105
0.767422 0.815946 0.689296
0.785458 0.821286 0.704341
0.802853 0.826871 0.719814
0.819364 0.832700 0.735744
0.834806 0.838712 0.751949
0.849241 0.844968 0.768246
0.862425 0.851347 0.784390
0.878202 0.862150 0.805203
0.889921 0.866087 0.807340
0.900481 0.864897 0.796933
0.912963 0.864775 0.788876
0.926116 0.864500 0.781491
0.939513 0.864012 0.774441
0.953216 0.863340 0.767636
0.967132 0.862669 0.761349
0.981201 0.862089 0.755428
0.995300 0.861570 0.749966
0.661402 0.818540 0.650935
0.661860 0.818692 0.651270
0.662623 0.818753 0.651423
0.664027 0.818631 0.651637
0.666072 0.818418 0.651698
0.668971 0.818021 0.651911
0.672786 0.817563 0.652033
0.677516 0.817044 0.652399
0.683314 0.816495 0.653010
0.689998 0.815976 0.653773
0.697566 0.815396 0.654719
0.706569 0.815122 0.656550
0.722988 0.818570 0.667048
0.739864 0.822293 0.678523
0.757168 0.826352 0.690822
0.774289 0.830686 0.703853
0.791287 0.835355 0.717617
0.807858 0.840299 0.732021
0.823789 0.845518 0.746822
0.838865 0.850980 0.761990
0.853117 0.856657 0.777218
0.866270 0.862455 0.792325
0.878325 0.868315 0.807034
0.892485 0.877836 0.825437
0.902831 0.881285 0.827878
0.912779 0.880705 0.819242
0.923980 0.880491 0.811856
0.936126 0.880461 0.805356
0.948608 0.880247 0.799222
0.961425 0.879973 0.793606
0.974456 0.879789 0.788479
0.987640 0.879728 0.784024
0.682063 0.836332 0.674464
0.682490 0.836484 0.674769
0.683223 0.836545 0.675013
0.684443 0.836515 0.675196
0.686458 0.836362 0.675410
0.689143 0.836179 0.675715
0.692714 0.835904 0.676143
0.697139 0.835630 0.676661
0.702419 0.835294 0.677394
0.708614 0.834989 0.678340
0.715572 0.834562 0.679347
0.723323 0.834165 0.680659
0.735439 0.835721 0.686793
0.751278 0.839048 0.697536
0.767269 0.842588 0.708858
0.783322 0.846372 0.720974
0.799222 0.850462 0.733669
0.814908 0.854826 0.746914
0.829953 0.859434 0.760586
0.844511 0.864286 0.774533
0.858274 0.869383 0.788571
0.871214 0.874571 0.802487
0.883177 0.879850 0.816159
0.894133 0.885161 0.829374
0.906737 0.893523 0.845518
0.915923 0.896666 0.848539
0.924681 0.895964 0.840604
0.934813 0.895720 0.833951
0.946075 0.896025 0.828611
0.957702 0.896239 0.823758
0.969604 0.896422 0.819425
0.981598 0.896422 0.815274
0.704097 0.854398 0.699702
0.704280 0.854490 0.699794
0.704860 0.854520 0.699977
0.705989 0.854429 0.700130
0.707668 0.854337 0.700313
0.710079 0.854124 0.700557
0.713161 0.853880 0.700832
0.717037 0.853605 0.701320
0.721736 0.853300 0.701961
0.727230 0.853025 0.702754
0.733516 0.852689 0.703761
0.740475 0.852354 0.704860
0.748196 0.852079 0.706386
0.762692 0.854978 0.716274
0.777676 0.858061 0.726894
0.792508 0.861387 0.737942
0.807431 0.864958 0.749691
0.822171 0.868803 0.761807
0.836423 0.872862 0.774380
0.850278 0.877165 0.787137
0.863554 0.881682 0.800046
0.876097 0.886290 0.812863
0.887785 0.890959 0.825376
0.898619 0.895689 0.837583
0.908476 0.900420 0.849424
0.919615 0.907591 0.863523
0.927611 0.910369 0.866941
0.935424 0.909575 0.859617
0.944457 0.909300 0.853605
0.954925 0.909941 0.849424
0.965545 0.910277 0.845304
0.976410 0.910521 0.841581
0.725368 0.871519 0.724331
0.725643 0.871550 0.724453
0.726131 0.871580 0.724636
0.727169 0.871580 0.724819
0.728756 0.871519 0.725093
0.731014 0.871489 0.725551
0.734127 0.871489 0.726192
0.737972 0.871519 0.727047
0.742519 0.871580 0.728206
0.747799 0.871641 0.729488
0.753872 0.871702 0.730922
0.760464 0.871733 0.732509
0.767666 0.871702 0.734157
0.778195 0.873045 0.739803
0.791989 0.875883 0.749691
0.805783 0.878843 0.759945
0.819547 0.881926 0.770596
0.833127 0.885252 0.781643
0.846525 0.888792 0.792966
0.859525 0.892515 0.804471
0.871977 0.896391 0.816037
0.883879 0.900389 0.827604
0.895048 0.904417 0.838865
0.905425 0.908507 0.849912
0.915007 0.912566 0.860655
0.923705 0.916625 0.871031
0.933227 0.922515 0.883055
0.939940 0.924865 0.886687
0.946593 0.923919 0.879942
0.954376 0.923339 0.874235
0.963653 0.923888 0.870573
0.973236 0.924346 0.867308
0.750179 0.890288 0.753079
0.750301 0.890288 0.753079
0.750668 0.890227 0.753140
0.751492 0.890196 0.753201
0.752773 0.890074 0.753384
0.754635 0.889952 0.753597
0.757137 0.889860 0.754025
0.760189 0.889738 0.754513
0.764004 0.889616 0.755154
0.768429 0.889525 0.756008
0.773465 0.889403 0.757015
0.779080 0.889281 0.758083
0.785275 0.889158 0.759396
0.791897 0.889006 0.760769
