20 Preset/Ins style/【3】LUT video cho PR-AE-FCPX/Tone (1).cube
# Created by Adobe Lightroom plugin Export LUT (1.24.0)
# www.johnrellis.com/lightroom/exportlut.htm
# Preset: INS网红琥珀色-素材江湖12
# Color profile: C:\Program Files (x86)\Common Files\Adobe\Color\Profiles\Recommended\VideoHD.icc
LUT_3D_SIZE 32
DOMAIN_MIN 0.0 0.0 0.0
DOMAIN_MAX 1.0 1.0 1.0
0.046174 0.107851 0.099947
0.049409 0.108064 0.099886
0.063600 0.108248 0.100130
0.086427 0.108980 0.100587
0.103670 0.109651 0.101259
0.125978 0.110140 0.102480
0.155734 0.110201 0.102998
0.192874 0.108919 0.103792
0.235874 0.105074 0.103792
0.284276 0.097566 0.103426
0.336889 0.082704 0.102205
0.391333 0.038209 0.099733
0.445777 0.000000 0.097047
0.498634 0.000000 0.094148
0.549462 0.000000 0.090028
0.597467 0.000000 0.084321
0.642634 0.000000 0.075929
0.684871 0.000000 0.064424
0.724331 0.000000 0.051911
0.761410 0.000000 0.041169
0.795895 0.000000 0.028046
0.827939 0.000000 0.016510
0.864988 0.000000 0.002991
0.898650 0.000000 0.000000
0.928618 0.007935 0.000000
0.955291 0.115389 0.000000
0.979675 0.157900 0.000000
1.000000 0.191928 0.000000
1.000000 0.223148 0.000000
1.000000 0.251987 0.000000
1.000000 0.280003 0.000000
1.000000 0.307347 0.000000
0.046693 0.109133 0.100465
0.048676 0.109071 0.100465
0.062837 0.109255 0.100710
0.088014 0.109529 0.100465
0.104494 0.110201 0.101167
0.126650 0.110689 0.101991
0.155489 0.110872 0.102876
0.191775 0.109529 0.103395
0.234165 0.106325 0.103700
0.281773 0.099580 0.103029
0.333562 0.088502 0.101778
0.387366 0.047364 0.099855
0.441657 0.000000 0.097597
0.494209 0.000000 0.094423
0.544762 0.000000 0.090455
0.593194 0.000000 0.085023
0.638605 0.000000 0.078462
0.681117 0.000000 0.066346
0.720638 0.000000 0.053742
0.757565 0.000000 0.042878
0.792081 0.000000 0.031250
0.824186 0.000000 0.018555
0.860166 0.000000 0.005585
0.893004 0.000000 0.000000
0.922759 0.000000 0.000000
0.949310 0.106233 0.000000
0.973877 0.149325 0.000000
0.997040 0.185031 0.000000
1.000000 0.216129 0.000000
1.000000 0.245640 0.000000
1.000000 0.274083 0.000000
1.000000 0.302007 0.000000
0.048249 0.113436 0.102663
0.051209 0.113649 0.102998
0.064424 0.113558 0.102907
0.088716 0.113802 0.102327
0.106020 0.114076 0.102327
0.129152 0.114687 0.102754
0.158999 0.114870 0.103212
0.195377 0.113680 0.103304
0.237339 0.111116 0.103517
0.284398 0.105409 0.103090
0.335210 0.095155 0.101900
0.388342 0.068605 0.099886
0.441779 0.013184 0.097597
0.493935 0.000000 0.094423
0.544396 0.000000 0.090364
0.592126 0.000000 0.085756
0.637354 0.000000 0.078889
0.679713 0.000000 0.067018
0.719142 0.000000 0.055726
0.756313 0.000000 0.043244
0.790921 0.000000 0.031617
0.823148 0.000000 0.019257
0.858793 0.000000 0.005890
0.890959 0.000000 0.000000
0.920134 0.022126 0.000000
0.946593 0.114687 0.000000
0.971191 0.154818 0.000000
0.994324 0.187930 0.000000
1.000000 0.218540 0.000000
1.000000 0.247257 0.000000
1.000000 0.274693 0.000000
1.000000 0.302068 0.000000
0.050599 0.122774 0.108034
0.053864 0.122957 0.108003
0.070130 0.122744 0.108949
0.088411 0.123171 0.109071
0.105531 0.123964 0.108309
0.134279 0.124483 0.105867
0.167269 0.124453 0.105501
0.203586 0.123751 0.105440
0.245975 0.121431 0.104829
0.292363 0.116823 0.103914
0.342596 0.108492 0.102205
0.394232 0.095094 0.100069
0.446693 0.060975 0.097658
0.497688 0.002075 0.094331
0.546899 0.000000 0.090211
0.593744 0.000000 0.085878
0.637720 0.000000 0.079408
0.679225 0.000000 0.068666
0.717922 0.000000 0.057404
0.754269 0.000000 0.046998
0.788510 0.000000 0.033204
0.821622 0.000000 0.024292
0.855802 0.000000 0.009461
0.887236 0.000000 0.000000
0.916747 0.091371 0.000000
0.943847 0.134920 0.000000
0.969116 0.169345 0.000000
0.992950 0.199741 0.000000
1.000000 0.228183 0.000000
1.000000 0.255558 0.000000
1.000000 0.281743 0.000000
1.000000 0.307164 0.000000
0.044678 0.140658 0.113924
0.048676 0.140566 0.113924
0.068757 0.140993 0.114656
0.092592 0.141268 0.115297
0.110842 0.142000 0.114870
0.134218 0.141451 0.113863
0.172213 0.142824 0.110262
0.214206 0.141176 0.107424
0.257298 0.138918 0.105989
0.302953 0.135531 0.104555
0.351781 0.129122 0.102388
0.402197 0.119844 0.100435
0.453162 0.106386 0.097536
0.503258 0.088655 0.094301
0.551324 0.041260 0.090761
0.597559 0.000000 0.086244
0.641321 0.000000 0.079072
0.682399 0.000000 0.068727
0.720546 0.000000 0.059480
0.756466 0.000000 0.046632
0.790036 0.000000 0.037171
0.824063 0.000000 0.025879
0.856779 0.030365 0.014557
0.887541 0.101411 0.002228
0.916625 0.134829 0.000000
0.943511 0.165194 0.000000
0.968658 0.192660 0.000000
0.992157 0.218814 0.000000
1.000000 0.244450 0.000000
1.000000 0.268833 0.000000
1.000000 0.292882 0.000000
1.000000 0.316808 0.000000
0.000000 0.173373 0.118746
0.002472 0.173587 0.118929
0.030823 0.173770 0.119326
0.083680 0.175174 0.120180
0.117342 0.176120 0.121187
0.147219 0.175875 0.119692
0.175845 0.171298 0.118746
0.222599 0.171939 0.113069
0.272068 0.169253 0.107851
0.321508 0.164523 0.103975
0.369451 0.159182 0.101991
0.418708 0.152438 0.099428
0.467872 0.144106 0.096895
0.516136 0.134646 0.093721
0.562890 0.123049 0.090333
0.607721 0.111116 0.086488
0.650416 0.100191 0.079164
0.690181 0.091035 0.070771
0.727413 0.086976 0.061341
0.762387 0.090394 0.050416
0.795743 0.099947 0.040864
0.830137 0.118746 0.028473
0.891417 0.169497 0.011353
0.921874 0.193149 0.002014
0.948791 0.215030 0.000000
0.973083 0.236606 0.000000
0.995300 0.257603 0.000000
1.000000 0.278111 0.000000
1.000000 0.298253 0.000000
1.000000 0.318517 0.000000
1.000000 0.338445 0.004730
1.000000 0.358404 0.022187
0.000000 0.231113 0.124483
0.000000 0.231724 0.124788
0.000000 0.232242 0.125521
0.000000 0.233921 0.126650
0.112734 0.236271 0.129061
0.164370 0.236362 0.129458
0.207095 0.234043 0.126680
0.241520 0.223026 0.125429
0.295598 0.221530 0.117067
0.350256 0.216281 0.108614
0.404700 0.207980 0.100008
0.454200 0.200320 0.096407
0.501366 0.193271 0.094636
0.547204 0.186191 0.092073
0.591119 0.179904 0.088258
0.632746 0.173556 0.083742
0.672175 0.168612 0.078035
0.709407 0.165499 0.071168
0.744778 0.166415 0.061341
0.778408 0.169528 0.054749
0.815793 0.179873 0.043000
0.851438 0.194095 0.035950
0.885069 0.210941 0.027741
0.916381 0.229374 0.019440
0.944396 0.247654 0.015625
0.969207 0.266545 0.013336
0.991516 0.283940 0.008576
1.000000 0.301152 0.006897
1.000000 0.318639 0.008484
1.000000 0.335607 0.014496
1.000000 0.353399 0.024689
1.000000 0.371313 0.042512
0.000000 0.291844 0.133211
0.000000 0.291875 0.133852
0.000000 0.292576 0.134585
0.000000 0.294743 0.136324
0.056825 0.297124 0.138918
0.165103 0.300694 0.144045
0.220615 0.299382 0.142916
0.269535 0.295476 0.138918
0.306432 0.281468 0.137087
0.360143 0.275883 0.129274
0.415991 0.269108 0.116976
0.468574 0.259464 0.105379
0.516258 0.248051 0.095857
0.561669 0.241062 0.092073
0.603388 0.234745 0.090333
0.642939 0.229618 0.087739
0.680842 0.225986 0.083436
0.716518 0.223514 0.079988
0.750576 0.223697 0.072663
0.786740 0.228214 0.066560
0.821836 0.235752 0.059388
0.854887 0.245731 0.053925
0.886442 0.258152 0.050355
0.916045 0.272251 0.046601
0.943053 0.286870 0.042054
0.967163 0.301427 0.040650
0.988922 0.315526 0.043885
1.000000 0.329717 0.042145
1.000000 0.343969 0.042695
1.000000 0.358862 0.048981
1.000000 0.373938 0.060304
1.000000 0.390082 0.078309
0.000000 0.356603 0.150729
0.000000 0.357000 0.150912
0.000000 0.357885 0.151705
0.000000 0.359472 0.154299
0.000000 0.362158 0.157900
0.149874 0.365606 0.163546
0.234134 0.370062 0.171176
0.287266 0.366430 0.167056
0.337133 0.361364 0.161624
0.380316 0.349981 0.157229
0.425879 0.337438 0.151583
0.480354 0.329412 0.135134
0.530388 0.318608 0.121065
0.576532 0.306310 0.106783
0.617639 0.294835 0.095613
0.656153 0.288609 0.094087
0.692103 0.284520 0.092073
0.726467 0.281834 0.091249
0.762692 0.283268 0.088258
0.796689 0.286534 0.087739
0.829099 0.291539 0.083925
0.859983 0.298863 0.084901
0.889647 0.307805 0.083314
0.917632 0.318181 0.083955
0.943359 0.329290 0.083955
0.966461 0.340337 0.086183
0.987732 0.351385 0.085878
1.000000 0.362951 0.085817
1.000000 0.374578 0.088472
1.000000 0.386664 0.091890
1.000000 0.399542 0.097261
1.000000 0.412970 0.102358
0.000000 0.422705 0.174990
0.000000 0.422431 0.176547
0.000000 0.422705 0.178775
0.000000 0.424079 0.181491
0.000000 0.426368 0.185458
0.131868 0.429328 0.191379
0.233494 0.433448 0.199283
0.308629 0.437140 0.207919
0.356909 0.431739 0.201816
0.404944 0.425727 0.194644
0.451057 0.418128 0.187076
0.486885 0.399329 0.184329
0.538598 0.390631 0.164706
0.585412 0.379736 0.148318
0.628565 0.367407 0.130770
0.667872 0.354498 0.112612
0.705745 0.347417 0.104891
0.741878 0.345647 0.104646
0.775570 0.345190 0.103792
0.807156 0.346136 0.104097
0.836942 0.348363 0.105196
0.865263 0.352148 0.105165
0.892241 0.357305 0.106508
0.917754 0.363714 0.106294
0.941588 0.370611 0.106233
0.963592 0.378424 0.107393
0.984283 0.386725 0.108248
1.000000 0.395483 0.108217
1.000000 0.405035 0.110658
1.000000 0.415229 0.114382
1.000000 0.426123 0.118410
1.000000 0.437995 0.123507
0.000000 0.483314 0.206210
0.000000 0.483528 0.207492
0.000000 0.483436 0.212284
0.000000 0.484993 0.214939
0.000000 0.487373 0.219272
0.133303 0.490455 0.225681
0.240330 0.494636 0.234165
0.320531 0.499825 0.245029
0.384710 0.501946 0.251316
0.429206 0.496407 0.244663
0.473640 0.489693 0.236210
0.517174 0.482521 0.226810
0.546471 0.461799 0.225254
0.594934 0.454475 0.205783
0.640406 0.445441 0.186954
0.681697 0.434852 0.169253
0.719509 0.423316 0.150332
0.753048 0.411017 0.131472
0.785580 0.406897 0.126314
0.815061 0.405097 0.126589
0.843107 0.404639 0.127260
0.869810 0.405585 0.128847
0.895293 0.408118 0.130129
0.919493 0.411353 0.130220
0.942168 0.415717 0.131258
0.963378 0.420813 0.132692
0.983429 0.426612 0.133028
1.000000 0.432990 0.133669
1.000000 0.440009 0.135714
1.000000 0.447852 0.138582
1.000000 0.456703 0.142489
1.000000 0.466407 0.146639
0.000000 0.544030 0.245457
0.000000 0.543877 0.246860
0.000000 0.543908 0.251469
0.000000 0.545068 0.255680
0.000000 0.547295 0.259892
0.166629 0.550134 0.266514
0.261936 0.554253 0.274540
0.338567 0.559045 0.285496
0.409949 0.564691 0.298405
0.461738 0.564660 0.300999
0.503441 0.560021 0.294347
0.544945 0.555291 0.287236
0.612329 0.574731 0.300267
0.637903 0.555230 0.296147
0.681331 0.548608 0.279301
0.721035 0.538354 0.257084
0.756649 0.526482 0.236393
0.789456 0.513664 0.214542
0.819577 0.500481 0.192538
0.845975 0.488350 0.175051
0.872435 0.484871 0.173068
0.895933 0.482216 0.173526
0.917876 0.480659 0.174685
0.938842 0.480446 0.175631
0.958648 0.480995 0.176272
0.977111 0.482094 0.176394
0.994049 0.483619 0.176883
1.000000 0.486000 0.176730
1.000000 0.489174 0.178317
1.000000 0.493507 0.179782
1.000000 0.499184 0.182040
1.000000 0.506065 0.185092
0.000000 0.612390 0.298741
0.000000 0.612360 0.299413
0.000000 0.611780 0.304082
0.000000 0.612726 0.309209
0.147890 0.614160 0.313512
0.235355 0.616754 0.319707
0.309606 0.620539 0.328344
0.379217 0.625422 0.339788
0.445533 0.631952 0.353460
0.510185 0.639948 0.370703
0.553002 0.639918 0.370642
0.591089 0.636957 0.365606
0.628992 0.633722 0.358953
0.665614 0.628748 0.350774
0.686000 0.609430 0.344640
0.725002 0.603326 0.332128
0.760067 0.592828 0.307683
0.791562 0.580285 0.285771
0.820554 0.566918 0.263554
0.847135 0.553491 0.241032
0.871611 0.539544 0.217838
0.893523 0.529656 0.206088
0.915557 0.525933 0.204013
0.935912 0.523400 0.203372
0.955230 0.521904 0.203220
0.973175 0.521141 0.203372
0.989837 0.521050 0.203769
1.000000 0.521660 0.203311
1.000000 0.523278 0.203952
1.000000 0.526299 0.204959
1.000000 0.530266 0.207218
1.000000 0.535668 0.210269
0.000000 0.669215 0.351141
0.000000 0.668879 0.351598
0.107607 0.668299 0.355261
0.182620 0.667628 0.360266
0.237278 0.668299 0.363500
0.293523 0.669612 0.368353
0.351507 0.672084 0.375860
0.410163 0.675593 0.385290
0.468696 0.680629 0.397650
0.527001 0.687587 0.413123
0.584466 0.695827 0.431189
0.617151 0.692744 0.426093
0.650080 0.689296 0.420264
0.682612 0.684749 0.412451
0.713649 0.678309 0.402472
0.728450 0.657496 0.392065
0.762234 0.650752 0.382452
0.792874 0.639826 0.357641
0.821042 0.627344 0.333745
0.846220 0.613855 0.312016
0.869932 0.600183 0.289799
0.892638 0.586877 0.266728
0.913420 0.573968 0.245548
0.933776 0.567254 0.236301
0.952850 0.563867 0.234501
0.970245 0.561425 0.234195
0.986542 0.559655 0.233310
1.000000 0.558526 0.232792
1.000000 0.558648 0.232853
1.000000 0.560021 0.233219
1.000000 0.562676 0.235050
1.000000 0.566613 0.236667
0.209201 0.716670 0.400214
0.214908 0.716396 0.400732
0.236484 0.715785 0.403418
0.274357 0.714748 0.408362
0.307652 0.714839 0.411017
0.347173 0.715267 0.414893
0.392859 0.716945 0.421180
0.442054 0.719875 0.429664
0.493477 0.723995 0.440803
0.545586 0.729488 0.455207
0.597864 0.736324 0.472511
0.643122 0.741115 0.485847
0.671626 0.737911 0.479988
0.700038 0.733639 0.472663
0.727749 0.728084 0.463355
0.753964 0.720699 0.451087
0.768795 0.702724 0.438514
0.793973 0.692622 0.431403
0.820554 0.681209 0.406592
0.845396 0.668727 0.382147
0.868162 0.655665 0.360052
0.890166 0.642969 0.337865
0.911223 0.630213 0.315435
0.931334 0.617884 0.292760
0.949035 0.605554 0.272374
0.967010 0.601038 0.266514
0.983185 0.597772 0.264744
0.998474 0.595758 0.264256
1.000000 0.594842 0.264195
1.000000 0.595148 0.264622
1.000000 0.597070 0.266850
1.000000 0.600275 0.268833
0.299870 0.755367 0.445869
0.303410 0.755367 0.446632
0.316442 0.755032 0.449287
0.342107 0.754330 0.454475
0.368017 0.754940 0.457496
0.399573 0.755856 0.461860
0.437324 0.757748 0.468421
0.479133 0.760464 0.477058
0.523674 0.763760 0.488167
0.569329 0.767910 0.501549
0.615351 0.772732 0.516747
0.660517 0.778073 0.534020
0.693446 0.778714 0.539239
0.716548 0.774014 0.530632
0.739406 0.768246 0.520592
0.762234 0.761593 0.508843
0.784848 0.753994 0.495613
0.800107 0.739406 0.481453
0.818540 0.726833 0.475532
0.842466 0.716365 0.452979
0.865293 0.704860 0.429358
0.886839 0.693294 0.407782
0.907286 0.681453 0.386511
0.926848 0.669734 0.364569
0.945464 0.657801 0.342443
0.963256 0.646296 0.319829
0.979095 0.636652 0.304112
0.995178 0.633234 0.299290
1.000000 0.631037 0.298589
1.000000 0.630121 0.298436
1.000000 0.630457 0.298924
1.000000 0.632074 0.300084
0.370336 0.786984 0.489509
0.372839 0.786862 0.490181
0.381567 0.786526 0.492256
0.402319 0.786130 0.497475
0.422309 0.786679 0.500481
0.446571 0.787594 0.504784
0.477424 0.788968 0.510857
0.512474 0.790982 0.518944
0.549920 0.793393 0.528801
0.589166 0.796506 0.540642
0.629603 0.800015 0.554498
0.669917 0.804135 0.570214
0.708644 0.808103 0.587427
0.732052 0.806119 0.585657
0.751461 0.801511 0.576165
0.771176 0.795987 0.565179
0.791135 0.789883 0.552911
0.811063 0.782956 0.539696
0.826749 0.771511 0.525109
0.840269 0.757412 0.517601
0.861814 0.748775 0.500664
0.882628 0.738033 0.477913
0.902312 0.727230 0.456428
0.921080 0.716335 0.435828
0.939269 0.705196 0.414618
0.956786 0.694240 0.393072
0.973785 0.683497 0.371130
0.990112 0.673091 0.348882
1.000000 0.666712 0.337316
1.000000 0.664637 0.333837
1.000000 0.663905 0.334173
1.000000 0.664546 0.335088
0.435279 0.814878 0.534722
0.437263 0.815000 0.535515
0.476295 0.826658 0.561303
0.489631 0.826261 0.565606
0.504326 0.826474 0.568750
0.523003 0.826871 0.572717
0.545769 0.827481 0.578088
0.572747 0.828489 0.585077
0.602411 0.829892 0.594018
0.634760 0.831662 0.604700
0.667323 0.833616 0.617273
0.700221 0.835843 0.631189
0.732113 0.838254 0.645899
0.762142 0.840604 0.661158
0.775845 0.836423 0.651118
0.790249 0.831662 0.639643
0.805447 0.826200 0.626673
0.821408 0.820188 0.612573
0.838071 0.813535 0.597375
0.853452 0.805020 0.581567
0.862791 0.790158 0.571191
0.881071 0.782254 0.558465
0.899443 0.772183 0.535332
0.917144 0.761685 0.512993
0.934020 0.750942 0.491524
0.950469 0.740108 0.469734
0.966827 0.729274 0.447059
0.982818 0.719020 0.424720
0.998840 0.709102 0.401587
1.000000 0.700252 0.381048
1.000000 0.696742 0.373144
1.000000 0.696010 0.370977
0.503960 0.839658 0.585504
0.507927 0.840543 0.588128
0.516594 0.841215 0.592340
0.530877 0.841703 0.598535
0.543938 0.842435 0.602716
0.559228 0.842985 0.606989
0.578424 0.843534 0.611994
0.600702 0.844175 0.618128
0.625330 0.845060 0.626062
0.652033 0.846281 0.635431
0.680476 0.847837 0.646540
0.708888 0.849546 0.658869
0.737179 0.851438 0.671839
0.764034 0.853452 0.685298
0.785794 0.854154 0.693538
0.797452 0.850370 0.683955
0.810025 0.846159 0.673426
0.823362 0.841520 0.661707
0.837675 0.836545 0.649165
0.852842 0.831266 0.635554
0.868223 0.825284 0.621118
0.875761 0.811490 0.610803
0.892302 0.805417 0.602625
0.909209 0.796536 0.580774
0.925841 0.787106 0.558526
0.941894 0.777401 0.537346
0.957671 0.767788 0.516289
0.973388 0.758297 0.494942
0.989166 0.749172 0.473487
1.000000 0.740780 0.452125
1.000000 0.732876 0.430091
1.000000 0.726223 0.412360
0.553796 0.855131 0.623590
0.556786 0.855894 0.625910
0.564416 0.856565 0.630121
0.575189 0.856992 0.635554
0.586481 0.857694 0.639582
0.599176 0.858122 0.643702
0.614557 0.858610 0.648157
0.632349 0.859037 0.653681
0.652796 0.859739 0.660609
0.675074 0.860624 0.668696
0.698421 0.861753 0.678096
0.722805 0.863157 0.688624
0.746914 0.864714 0.699825
0.770596 0.866514 0.711604
0.793179 0.868406 0.723751
0.808377 0.867735 0.725551
0.818173 0.864378 0.717098
0.828946 0.860655 0.707362
0.840543 0.856626 0.696956
0.853086 0.852384 0.685786
0.866331 0.847776 0.673823
0.880308 0.843046 0.661128
0.886931 0.830930 0.650324
0.901823 0.826291 0.646296
0.917510 0.818570 0.625269
0.933165 0.810300 0.603815
0.948577 0.801846 0.582910
0.963836 0.793484 0.562982
0.979217 0.785336 0.542931
0.994781 0.777615 0.522728
1.000000 0.770504 0.503044
1.000000 0.763882 0.482429
0.600793 0.869169 0.661830
0.603815 0.869780 0.664057
0.609918 0.870268 0.667536
0.618097 0.870634 0.671901
0.626551 0.871153 0.675227
0.636774 0.871611 0.678737
0.649042 0.872007 0.682734
0.663386 0.872404 0.687495
0.680079 0.873045 0.693416
0.698299 0.873808 0.700313
0.718044 0.874723 0.708400
0.738430 0.875944 0.717372
0.758938 0.877317 0.726864
0.779477 0.878874 0.737026
0.799557 0.880583 0.747768
0.818845 0.882567 0.758724
0.829038 0.880949 0.755978
0.837797 0.878233 0.749020
0.847501 0.875395 0.741604
0.857969 0.872374 0.733700
0.869261 0.869230 0.725246
0.881132 0.865873 0.716182
0.893584 0.862181 0.706050
0.899718 0.852293 0.696681
0.912810 0.848997 0.695735
0.927123 0.843229 0.679255
0.941833 0.836606 0.660151
0.956634 0.829740 0.640986
0.971313 0.823026 0.623133
0.986297 0.816526 0.605005
1.000000 0.810361 0.587060
1.000000 0.804501 0.568597
0.656550 0.885557 0.709102
0.658015 0.885740 0.710109
0.661311 0.885801 0.711849
0.665400 0.885893 0.713649
0.670985 0.886046 0.715511
0.678157 0.886198 0.717800
0.687434 0.886442 0.720821
0.698726 0.886778 0.724666
0.711818 0.887236 0.729549
0.726528 0.887968 0.735500
0.742611 0.888884 0.742275
0.759518 0.890013 0.749905
0.776669 0.891234 0.757961
0.793820 0.892607 0.766354
0.810910 0.894163 0.774929
0.827359 0.895903 0.783627
0.842710 0.897459 0.791165
0.849516 0.895079 0.785794
0.856962 0.892576 0.779934
0.865080 0.889860 0.773465
0.873838 0.887022 0.766232
0.883268 0.883940 0.758511
0.893278 0.880674 0.749722
0.903929 0.877104 0.739864
0.910124 0.869108 0.731136
0.921141 0.865415 0.729061
0.934081 0.861173 0.717647
0.947784 0.855924 0.701503
0.961852 0.850492 0.684962
0.975921 0.845121 0.669245
0.990326 0.839872 0.653254
1.000000 0.834745 0.636774
0.693324 0.897154 0.741360
0.694453 0.897307 0.742153
0.696620 0.897459 0.743252
0.699794 0.897673 0.744564
0.704280 0.897826 0.746120
0.709957 0.898009 0.748135
0.717433 0.898222 0.750729
0.726528 0.898589 0.753994
0.737209 0.899046 0.758175
0.749416 0.899718 0.763149
0.762509 0.900603 0.768704
0.776394 0.901610 0.774868
0.790860 0.902831 0.781369
0.805631 0.904173 0.788327
0.820249 0.905669 0.795468
0.834897 0.907256 0.802762
0.849363 0.909117 0.810361
0.860410 0.909575 0.813596
0.866606 0.907561 0.809171
0.873350 0.905333 0.804257
0.880583 0.903044 0.799069
0.888365 0.900542 0.793332
0.896635 0.897856 0.786923
0.905394 0.895018 0.779934
0.913176 0.889860 0.767239
0.919402 0.883574 0.759792
0.928771 0.879789 0.757595
0.940642 0.876982 0.750576
0.953521 0.872801 0.736782
0.966796 0.868589 0.723018
0.980316 0.864439 0.709651
0.994049 0.860502 0.696529
0.730678 0.910246 0.774899
0.731807 0.910491 0.775784
0.733150 0.910704 0.776455
0.735164 0.910765 0.777066
0.737911 0.910704 0.777768
0.741909 0.910674 0.778836
0.746944 0.910643 0.780117
0.753445 0.910704 0.781979
0.761227 0.910887 0.784543
0.770321 0.911284 0.787808
0.780575 0.911803 0.791623
0.791745 0.912535 0.796048
0.803647 0.913390 0.800961
0.815793 0.914397 0.806180
0.828336 0.915496 0.811643
0.840940 0.916716 0.817411
0.853727 0.918181 0.823514
0.866484 0.919829 0.829953
0.874144 0.919219 0.829557
0.879973 0.917449 0.825834
0.886259 0.915618 0.821897
0.892943 0.913573 0.817472
0.899992 0.911315 0.812284
0.907347 0.908782 0.806607
0.915038 0.905943 0.799893
0.923125 0.902831 0.792416
0.929198 0.897642 0.786099
0.937102 0.893736 0.783505
0.947936 0.891844 0.779721
0.959686 0.888609 0.768826
0.972076 0.885374 0.757595
0.984802 0.882200 0.746456
0.754055 0.920104 0.796048
0.754849 0.920348 0.796750
0.755978 0.920531 0.797391
0.757839 0.920714 0.798123
0.760403 0.920806 0.798978
0.763973 0.920928 0.800137
0.768765 0.921141 0.801785
0.774563 0.921447 0.803799
0.781582 0.921904 0.806394
0.789609 0.922454 0.809445
0.798459 0.923064 0.812924
0.808042 0.923827 0.816861
0.818204 0.924681 0.821042
0.828733 0.925597 0.825406
0.839628 0.926604 0.829984
0.850706 0.927672 0.834806
0.861845 0.928862 0.839933
0.873259 0.930297 0.845335
0.884611 0.931914 0.851164
0.889464 0.930449 0.848142
0.894774 0.928862 0.844816
0.900481 0.927214 0.841306
0.906493 0.925414 0.837430
0.912840 0.923369 0.833036
0.919493 0.921172 0.828092
0.926513 0.918730 0.822538
0.933898 0.916106 0.816434
0.939910 0.912108 0.811490
0.946777 0.908507 0.809537
0.956664 0.907500 0.808713
0.967437 0.905119 0.800412
0.978576 0.902586 0.791775
0.777981 0.930999 0.817929
0.778408 0.931151 0.818265
0.779294 0.931243 0.818631
0.780728 0.931334 0.819120
0.782834 0.931395 0.819791
0.785702 0.931487 0.820706
0.789456 0.931670 0.821958
0.794247 0.931914 0.823545
0.800015 0.932250 0.825589
0.806607 0.932677 0.828092
0.814176 0.933227 0.830961
0.822385 0.933928 0.834226
0.831205 0.934722 0.837766
0.840360 0.935515 0.841550
0.849851 0.936339 0.845457
0.859617 0.937255 0.849607
0.869566 0.938293 0.854002
0.879759 0.939452 0.858732
0.890043 0.940856 0.863828
0.898405 0.941466 0.866575
0.902861 0.940215 0.863828
0.907713 0.938811 0.860929
0.912840 0.937316 0.857694
0.918334 0.935637 0.854002
0.924010 0.933806 0.850004
0.930083 0.931762 0.845457
0.936492 0.929595 0.840543
0.943267 0.927276 0.835172
0.949279 0.924102 0.831022
0.955322 0.920745 0.829557
0.964385 0.920226 0.830411
0.974243 0.918303 0.823697
0.798032 0.940673 0.836027
0.798428 0.940764 0.836301
0.799191 0.940917 0.836637
0.800473 0.940978 0.837156
0.802426 0.941161 0.837919
0.805325 0.941405 0.839048
0.809140 0.941833 0.840726
0.813962 0.942382 0.842863
0.819699 0.943084 0.845457
0.826169 0.943908 0.848447
0.833433 0.944793 0.851804
0.841184 0.945769 0.855344
0.849302 0.946715 0.859098
0.857664 0.947692 0.862852
0.866209 0.948608 0.866636
0.874784 0.949462 0.870420
0.883452 0.950347 0.874266
0.892271 0.951324 0.878325
0.901213 0.952422 0.882719
0.910216 0.953674 0.887327
0.915648 0.953429 0.887419
0.919554 0.952361 0.885100
0.923674 0.951171 0.882414
0.928099 0.949859 0.879515
0.932860 0.948394 0.876188
0.937865 0.946807 0.872587
0.943267 0.945098 0.868620
0.948974 0.943236 0.864317
0.955077 0.941253 0.859678
0.960723 0.938720 0.855955
0.965820 0.935576 0.854856
0.973846 0.935058 0.855741
0.823606 0.952392 0.858824
0.823697 0.952392 0.858854
0.824155 0.952392 0.858976
0.825010 0.952422 0.859220
0.826474 0.952483 0.859678
0.828519 0.952544 0.860349
0.831296 0.952728 0.861326
0.834745 0.952972 0.862638
0.838987 0.953277 0.864286
0.843961 0.953674 0.866239
0.849546 0.954131 0.868498
0.855680 0.954681 0.871061
0.862364 0.955291 0.873838
0.869322 0.955901 0.876799
