20 Preset/Ins style/【3】LUT video cho PR-AE-FCPX/Tone (7).cube
# Created by Adobe Lightroom plugin Export LUT (1.24.0)
# www.johnrellis.com/lightroom/exportlut.htm
# Preset: INS网红琥珀色-素材江湖05
# Color profile: C:\Program Files (x86)\Common Files\Adobe\Color\Profiles\Recommended\VideoHD.icc
LUT_3D_SIZE 5
DOMAIN_MIN 0.000000 0.000000 0.000000
DOMAIN_MAX 0.903226 0.903226 0.903226
0.001343 0.001953 0.004211
0.562982 0.000000 0.098024
0.993317 0.378515 0.162783
1.000000 0.628870 0.395422
1.000000 0.749020 0.588586
0.000000 0.607538 0.346014
0.559442 0.439124 0.138308
0.984039 0.606714 0.160067
1.000000 0.691402 0.418433
1.000000 0.771298 0.604303
0.000000 0.920104 0.716060
0.000000 0.926360 0.680964
0.863066 0.805905 0.533471
0.952117 0.824369 0.640772
1.000000 0.835264 0.660395
0.536980 0.947539 0.839292
0.477821 0.950164 0.830838
0.433204 0.950591 0.692348
0.890227 0.879728 0.753445
0.947662 0.893126 0.806088
0.724025 0.986816 0.914549
0.717372 0.987182 0.912657
0.676722 0.989136 0.902342
0.735470 0.982147 0.789639
0.933379 0.930632 0.840574
0.000000 0.104524 0.437629
0.468086 0.383154 0.403937
0.947448 0.475288 0.374762
1.000000 0.674067 0.486885
1.000000 0.754849 0.588037
0.294865 0.515679 0.457038
0.601740 0.496651 0.431464
0.927428 0.650874 0.477089
0.987915 0.726497 0.541680
1.000000 0.775296 0.605951
0.276371 0.895354 0.755001
0.000000 0.903258 0.726131
0.846250 0.794491 0.631373
0.934630 0.837675 0.707485
0.983429 0.846036 0.716701
0.645228 0.938720 0.851835
0.610285 0.940887 0.844724
0.565667 0.941863 0.747036
0.884459 0.878569 0.779202
0.945006 0.896880 0.819272
0.741421 0.985351 0.917601
0.735378 0.985657 0.915770
0.705745 0.987366 0.907439
0.747677 0.981201 0.808011
0.933165 0.930755 0.845579
0.619287 0.460456 0.852598
0.789151 0.584436 0.834318
0.816739 0.831388 0.814359
0.938537 0.732082 0.706661
0.965515 0.797391 0.734035
0.617975 0.650202 0.817533
0.753933 0.695521 0.807095
0.815579 0.834012 0.814450
0.929107 0.749844 0.703395
0.959075 0.815244 0.752590
0.711116 0.853727 0.808988
0.739223 0.845884 0.800595
0.832212 0.822690 0.769894
0.894163 0.853025 0.802609
0.945983 0.864988 0.806638
0.781064 0.921691 0.874632
0.783841 0.918486 0.871641
0.735622 0.922057 0.846647
0.869657 0.876310 0.830381
0.943969 0.906432 0.847440
0.792874 0.980713 0.927977
0.790707 0.980621 0.926665
0.768032 0.981964 0.919310
0.763699 0.979431 0.849577
0.930602 0.929595 0.860197
0.790494 0.775296 0.904997
0.822965 0.801297 0.900786
0.876707 0.856321 0.889189
0.873747 0.898711 0.886809
0.920714 0.872526 0.866667
0.796963 0.816220 0.895384
0.822965 0.830533 0.892851
0.871702 0.863188 0.885710
0.872435 0.901213 0.887694
0.919127 0.868162 0.859831
0.763821 0.850675 0.876829
0.785855 0.850645 0.872740
0.848905 0.867369 0.868650
0.867124 0.882963 0.869963
0.909026 0.854887 0.831693
0.823117 0.908537 0.884642
0.828611 0.906798 0.882841
0.836606 0.898528 0.873838
0.869444 0.887419 0.860288
0.936431 0.905516 0.869871
0.828275 0.976928 0.937377
0.830289 0.977020 0.937560
0.836881 0.976959 0.937407
0.811612 0.975921 0.923766
0.926452 0.928038 0.883696
0.851682 0.861723 0.949310
0.863127 0.865629 0.948333
0.901061 0.880644 0.945708
0.930205 0.902007 0.936065
0.924315 0.937865 0.933654
0.848753 0.868559 0.946227
0.859770 0.871763 0.945586
0.897154 0.884489 0.943481
0.927672 0.904173 0.934783
0.924163 0.939330 0.934386
0.826658 0.882750 0.939178
0.837858 0.884215 0.938689
0.879637 0.893614 0.937835
0.922087 0.911925 0.933623
0.927642 0.947021 0.940276
0.807797 0.918029 0.936675
0.812436 0.916167 0.935058
0.830686 0.907774 0.928557
0.905058 0.918944 0.932341
0.931456 0.944762 0.939178
0.839445 0.966674 0.949615
0.844511 0.965789 0.948821
0.866484 0.964294 0.947906
0.900908 0.958648 0.942992
0.925200 0.936828 0.917540
