20 Preset/Ins style/【3】LUT video cho PR-AE-FCPX/Tone (8).cube
# Created by Adobe Lightroom plugin Export LUT (1.24.0)
# www.johnrellis.com/lightroom/exportlut.htm
# Preset: INS网红琥珀色-素材江湖06
# Color profile: C:\Program Files (x86)\Common Files\Adobe\Color\Profiles\Recommended\VideoHD.icc
LUT_3D_SIZE 8
DOMAIN_MIN 0.000000 0.000000 0.000000
DOMAIN_MAX 0.903226 0.903226 0.903226
0.070314 0.094728 0.101564
0.087129 0.096101 0.103059
0.163272 0.100984 0.109712
0.352880 0.066896 0.109560
0.592554 0.000000 0.113008
0.788602 0.154574 0.157656
0.920104 0.312932 0.237064
1.000000 0.451118 0.334386
0.063783 0.111849 0.107973
0.093111 0.113588 0.108492
0.193820 0.123293 0.111543
0.393194 0.117556 0.113039
0.623774 0.124941 0.131472
0.808255 0.231540 0.186252
0.928893 0.359991 0.265934
1.000000 0.480201 0.358923
0.000000 0.244327 0.154025
0.000000 0.246738 0.154940
0.218753 0.258518 0.160708
0.450324 0.284001 0.178347
0.658167 0.324926 0.219486
0.814572 0.388281 0.272404
0.919524 0.460792 0.335607
0.999451 0.546868 0.415991
0.000000 0.481697 0.295354
0.000000 0.484596 0.301396
0.284154 0.487800 0.314549
0.460090 0.493477 0.317266
0.664179 0.524956 0.345769
0.818173 0.562158 0.405432
0.912932 0.601556 0.458320
0.983795 0.655482 0.524681
0.282414 0.683986 0.476875
0.320378 0.684169 0.480201
0.420874 0.684016 0.486976
0.543420 0.679072 0.501854
0.665187 0.686580 0.504479
0.799710 0.706447 0.532860
0.902953 0.739162 0.606287
0.965057 0.766964 0.655940
0.519707 0.802518 0.635279
0.529351 0.800443 0.634607
0.579614 0.799435 0.644404
0.638392 0.798184 0.650568
0.710872 0.796963 0.664912
0.786526 0.803220 0.664668
0.873686 0.817533 0.682155
0.942901 0.841855 0.740871
0.679866 0.879759 0.760037
0.685328 0.879271 0.760922
0.709865 0.878782 0.767636
0.737392 0.878508 0.770443
0.778805 0.878019 0.779629
0.821592 0.879271 0.786252
0.869657 0.883787 0.787442
0.927367 0.894774 0.798215
0.802823 0.933837 0.855131
0.805966 0.933776 0.856199
0.811673 0.933989 0.856168
0.826017 0.933806 0.858671
0.851194 0.935790 0.867430
0.874357 0.935424 0.872251
0.899474 0.937682 0.873594
0.930083 0.941375 0.875425
0.053773 0.100313 0.136110
0.095766 0.097444 0.140078
0.197818 0.092012 0.149020
0.392065 0.000580 0.168246
0.599481 0.141238 0.214267
0.791775 0.247349 0.266667
0.918425 0.372534 0.331426
1.000000 0.490669 0.409491
0.035065 0.124361 0.152224
0.094820 0.125368 0.155673
0.215396 0.125795 0.171389
0.404120 0.127810 0.185977
0.615778 0.198703 0.233433
0.799435 0.292821 0.286412
0.921599 0.405188 0.351263
1.000000 0.513787 0.428229
0.000000 0.270329 0.228641
0.000000 0.275120 0.231266
0.250736 0.286473 0.245670
0.457374 0.311437 0.267735
0.655726 0.360052 0.307591
0.810513 0.422858 0.352789
0.917876 0.495949 0.409522
0.994629 0.575128 0.476967
0.000000 0.508598 0.360357
0.000000 0.510155 0.363836
0.322637 0.514000 0.379675
0.490059 0.519188 0.387671
0.686275 0.553246 0.420447
0.821500 0.586267 0.468666
0.912657 0.625788 0.515648
0.979431 0.676143 0.572992
0.294041 0.691951 0.510765
0.331426 0.692622 0.514092
0.443580 0.693050 0.526482
0.561913 0.691279 0.540551
0.677363 0.698085 0.547784
0.804562 0.718013 0.576501
0.903166 0.750515 0.642786
0.961730 0.775631 0.682155
0.528771 0.807614 0.655573
0.541497 0.807248 0.657435
0.589471 0.806119 0.665736
0.650843 0.804501 0.673487
0.719844 0.802182 0.686458
0.790249 0.807187 0.685359
0.874571 0.821622 0.702541
0.942382 0.846342 0.758053
0.685817 0.882719 0.770840
0.692592 0.882872 0.772854
0.716548 0.882444 0.779110
0.746029 0.881865 0.783291
0.784665 0.880705 0.790646
0.825864 0.881621 0.797330
0.872374 0.886595 0.799161
0.928527 0.897795 0.810300
0.806149 0.935424 0.859892
0.808621 0.935149 0.860472
0.818997 0.935058 0.863523
0.830411 0.935119 0.864256
0.850980 0.935149 0.868772
0.875120 0.935393 0.874632
0.900542 0.938079 0.877134
0.930571 0.941772 0.878904
0.000000 0.111452 0.350561
0.000000 0.109560 0.354742
0.227024 0.091035 0.379278
0.436225 0.000000 0.377966
0.656733 0.000000 0.413581
0.810452 0.240604 0.440772
0.912291 0.369635 0.464607
0.970855 0.533776 0.538811
0.000000 0.158022 0.363012
0.000000 0.159457 0.368475
0.238163 0.160464 0.392065
0.452918 0.149752 0.404211
0.665675 0.185031 0.436316
0.812192 0.297368 0.457862
0.911925 0.404242 0.477974
0.966094 0.560784 0.557214
0.000000 0.307469 0.407782
0.026673 0.311040 0.408911
0.283391 0.331548 0.428382
0.481300 0.345159 0.461860
0.669123 0.371679 0.480201
0.801053 0.428504 0.490333
0.888914 0.519432 0.530053
0.958923 0.615930 0.594202
0.000000 0.513207 0.498360
0.151827 0.514733 0.500786
0.334813 0.524315 0.510124
0.520806 0.548333 0.533410
0.665888 0.569909 0.550622
0.781979 0.600366 0.575402
0.877165 0.644556 0.611780
0.950805 0.696590 0.655726
0.297002 0.705928 0.613001
0.329564 0.706783 0.614527
0.438148 0.706935 0.618891
0.577508 0.707271 0.630610
0.690791 0.710018 0.646357
0.801480 0.732143 0.673060
0.883604 0.757748 0.706081
0.943389 0.784421 0.734401
0.534020 0.814237 0.710231
0.545556 0.813779 0.710872
0.591608 0.812955 0.715755
0.663813 0.812039 0.725917
0.734981 0.811521 0.737819
0.795865 0.813504 0.740841
0.872160 0.828580 0.757259
0.936614 0.853696 0.800076
0.685145 0.884764 0.793759
0.691554 0.884855 0.795224
0.715816 0.884703 0.800259
0.755703 0.884062 0.809323
0.794553 0.883757 0.816495
0.832670 0.883238 0.823667
0.873228 0.887694 0.823880
0.925841 0.899138 0.834287
0.805020 0.936706 0.868070
0.808408 0.936767 0.869169
0.820584 0.936553 0.872770
0.840116 0.935943 0.878233
0.856870 0.936217 0.880400
0.879210 0.936217 0.884916
0.902922 0.938293 0.887785
0.930999 0.942046 0.889281
0.000000 0.163485 0.604303
0.000000 0.165530 0.604913
0.209689 0.175937 0.619989
0.476875 0.183688 0.646906
0.685176 0.207248 0.660395
0.827146 0.290440 0.658381
0.929747 0.408148 0.670771
0.987366 0.531304 0.673884
0.000000 0.229068 0.603967
0.000000 0.231418 0.606897
0.248631 0.240787 0.621576
0.481392 0.250645 0.647028
0.683040 0.271122 0.664210
0.823972 0.337285 0.664942
0.925505 0.440223 0.677516
0.983032 0.551415 0.680598
0.082582 0.378912 0.619928
0.179141 0.384741 0.624018
0.334539 0.400275 0.639094
0.506828 0.414923 0.662409
0.681209 0.433417 0.684901
0.809201 0.468147 0.685420
0.904723 0.532403 0.694636
0.965515 0.609705 0.696773
0.248753 0.539147 0.653986
0.287846 0.541344 0.654963
0.401740 0.549706 0.657862
0.542687 0.576318 0.680629
0.679133 0.600488 0.711543
0.796353 0.619654 0.723354
0.883513 0.653925 0.727596
0.942321 0.698726 0.732326
0.395605 0.689967 0.713375
0.417731 0.691066 0.714778
0.492103 0.694697 0.718990
0.591028 0.701472 0.724910
0.695491 0.717342 0.736995
0.793759 0.737819 0.762753
0.862455 0.754330 0.763729
0.916899 0.792233 0.789303
0.544915 0.810178 0.780819
0.552300 0.809079 0.779782
0.592645 0.810941 0.782925
0.657343 0.814298 0.788479
0.734676 0.821439 0.798581
0.808377 0.824887 0.809567
0.872465 0.841550 0.825345
0.925536 0.860746 0.843626
0.682216 0.889525 0.832944
0.687648 0.889250 0.833188
0.710536 0.888548 0.835142
0.750088 0.887572 0.839384
0.799313 0.887419 0.847379
0.842557 0.888212 0.855924
0.877165 0.891142 0.859037
0.924865 0.903899 0.869718
0.798703 0.938659 0.881224
0.801968 0.938598 0.881926
0.814878 0.938384 0.884733
0.837247 0.938018 0.889982
0.865171 0.937804 0.897520
0.885740 0.938140 0.900786
0.907591 0.939178 0.904326
0.932250 0.942718 0.904997
0.000000 0.284794 0.784604
0.000000 0.287877 0.784512
0.310613 0.304997 0.790219
0.496223 0.329564 0.799588
0.666804 0.365057 0.814633
0.812253 0.414649 0.826810
0.912749 0.475746 0.822385
0.980316 0.567895 0.819455
0.129427 0.339208 0.782498
0.192203 0.340124 0.782223
0.341375 0.351110 0.787686
0.505943 0.371832 0.798703
0.667292 0.402655 0.814145
0.809110 0.446540 0.827207
0.908751 0.500877 0.823850
0.976745 0.584955 0.821469
0.313787 0.467445 0.781613
0.336431 0.468788 0.782681
0.418463 0.476875 0.788632
0.538476 0.492714 0.799649
0.672999 0.517540 0.815305
0.801266 0.552789 0.831815
0.895384 0.587366 0.830930
0.964630 0.645106 0.830167
0.406348 0.585351 0.783078
0.425360 0.588800 0.784573
0.494392 0.602533 0.790341
0.589258 0.624018 0.801144
0.686549 0.642145 0.815824
0.788388 0.666041 0.832944
0.878355 0.686122 0.840055
0.947723 0.718776 0.839200
0.505516 0.701442 0.804898
0.517174 0.702296 0.804776
0.562158 0.706508 0.804929
0.631006 0.715175 0.805783
0.714931 0.739742 0.822660
0.791287 0.758602 0.841306
0.870817 0.774105 0.852781
0.931121 0.795499 0.852293
0.607721 0.801877 0.839597
0.614801 0.802182 0.839750
0.643183 0.804044 0.840787
0.687984 0.806638 0.841428
0.748623 0.815396 0.846220
0.807797 0.825559 0.851164
0.872038 0.845731 0.870451
0.916686 0.858640 0.870359
0.688533 0.885557 0.875212
0.693446 0.886076 0.875578
0.712428 0.887449 0.876310
0.747982 0.888731 0.877623
0.795773 0.891447 0.881712
0.845335 0.897032 0.888731
0.887877 0.899718 0.895171
0.929931 0.914122 0.906584
0.790463 0.944457 0.903716
0.794125 0.944396 0.904143
0.808103 0.943938 0.905730
0.830594 0.942626 0.907836
0.860777 0.941955 0.912352
0.892363 0.942046 0.918883
0.915251 0.942687 0.923095
0.936309 0.945586 0.924437
0.340948 0.416693 0.876097
0.361334 0.419165 0.876036
0.437995 0.433326 0.878538
0.544366 0.456031 0.882170
0.661219 0.487709 0.888212
0.774533 0.528283 0.895903
0.875700 0.577935 0.904997
0.952880 0.628229 0.907103
0.387243 0.459663 0.877958
0.404273 0.462287 0.878416
0.466407 0.472541 0.880400
0.561089 0.490730 0.883940
0.669184 0.517296 0.889342
0.776852 0.553399 0.896483
0.874632 0.598505 0.905516
0.951080 0.643793 0.908049
0.465034 0.551812 0.872435
0.476692 0.553674 0.873106
0.520104 0.560143 0.875242
0.595453 0.575433 0.880247
0.684901 0.595453 0.886046
0.777981 0.621820 0.893553
0.867185 0.654810 0.903441
0.942412 0.687556 0.908080
0.542168 0.648768 0.868803
0.553491 0.652216 0.869505
0.593957 0.664179 0.871519
0.641535 0.671046 0.874723
0.706691 0.683467 0.880735
0.781247 0.701534 0.889250
0.858793 0.724727 0.900786
0.931365 0.745754 0.907897
0.602625 0.728511 0.869169
0.610193 0.730312 0.869688
0.638849 0.737270 0.871733
0.686946 0.750118 0.875853
0.743282 0.766384 0.882841
0.798215 0.779019 0.891508
0.862119 0.795804 0.903929
0.927520 0.808408 0.910796
0.667597 0.804898 0.884367
0.671412 0.804837 0.883940
0.690608 0.807309 0.884062
0.723720 0.812100 0.884306
0.766903 0.820066 0.885161
0.820523 0.838254 0.895262
0.870542 0.851865 0.906981
0.926238 0.863432 0.914122
0.728389 0.873259 0.905913
0.731014 0.873320 0.905760
0.744259 0.874662 0.905974
0.768582 0.877409 0.906462
0.802029 0.881834 0.907286
0.843503 0.888457 0.909728
0.885679 0.898009 0.915129
0.930694 0.914916 0.928069
0.793088 0.941772 0.933806
0.795712 0.942016 0.933837
0.805386 0.942596 0.933593
0.822599 0.943542 0.932677
0.850523 0.945037 0.932738
0.886564 0.946807 0.936339
0.919219 0.947417 0.939971
0.941588 0.949126 0.943389
0.541344 0.568109 0.936217
0.552270 0.572564 0.936919
0.584314 0.580346 0.937133
0.640131 0.596216 0.938079
0.708858 0.616754 0.939605
0.781552 0.641230 0.941588
0.851652 0.668879 0.944244
0.916197 0.700313 0.948119
0.546746 0.579797 0.932128
0.557855 0.584466 0.933074
0.587762 0.591150 0.933471
0.639277 0.603143 0.934325
0.704982 0.620203 0.935760
0.775662 0.640711 0.937530
0.845457 0.664881 0.940032
0.911009 0.693629 0.944091
0.603845 0.649866 0.930297
0.609216 0.650843 0.930419
0.629541 0.653132 0.930480
0.668940 0.660121 0.931395
0.721523 0.670008 0.932616
0.783352 0.685664 0.935119
0.848478 0.708705 0.939452
0.910826 0.736202 0.945373
0.667292 0.727993 0.927611
0.670497 0.728206 0.927642
0.683192 0.728481 0.927581
0.712215 0.733608 0.929046
0.751492 0.739895 0.930816
0.801266 0.751827 0.934295
0.855344 0.768521 0.939178
0.910002 0.786862 0.945495
0.692897 0.774838 0.923095
0.694972 0.774441 0.922545
0.709957 0.777676 0.922454
0.741268 0.787167 0.923980
0.774289 0.793973 0.926482
0.813321 0.801602 0.930175
0.858915 0.813382 0.935576
0.911803 0.832517 0.945220
0.724117 0.821836 0.922148
0.727535 0.822599 0.922210
0.740230 0.825010 0.922087
0.765164 0.831724 0.923980
0.799344 0.841855 0.927153
0.839628 0.855619 0.932830
0.876371 0.865629 0.938964
0.919982 0.877806 0.947662
0.774044 0.876616 0.934508
0.777188 0.877409 0.934813
0.786160 0.878752 0.934813
0.803677 0.881773 0.935088
0.827451 0.885954 0.935210
0.857023 0.892424 0.935943
0.895140 0.906676 0.942718
0.930877 0.917205 0.950530
0.822538 0.930175 0.952117
0.824399 0.930480 0.952209
0.832761 0.932189 0.952911
0.845335 0.934173 0.953155
0.862577 0.936706 0.953094
0.884947 0.940368 0.952972
0.915038 0.945068 0.954101
0.943908 0.950774 0.957336
0.663325 0.678096 0.965820
0.668360 0.680110 0.966033
0.681880 0.682002 0.965667
0.711818 0.690608 0.966125
0.751858 0.702022 0.966613
0.797940 0.715846 0.967315
0.847745 0.734707 0.968750
0.896269 0.754879 0.970428
0.665156 0.683253 0.963928
0.670130 0.685389 0.964172
0.684413 0.688136 0.964172
0.712642 0.695216 0.964538
0.751644 0.705715 0.965179
0.797116 0.718776 0.966003
0.846036 0.735653 0.967407
0.894469 0.754665 0.969146
0.689265 0.717830 0.961059
0.692561 0.718654 0.961181
0.703883 0.719905 0.961120
0.731258 0.728542 0.962371
0.763790 0.735012 0.962921
0.803372 0.743801 0.963745
0.848905 0.758267 0.965576
0.895079 0.775143 0.967834
0.723873 0.765927 0.957733
0.726955 0.766934 0.957977
0.736141 0.768063 0.958160
0.756069 0.772549 0.959075
0.783719 0.778347 0.960204
0.817868 0.785885 0.961700
0.857603 0.797482 0.964080
0.899382 0.811765 0.967010
0.753475 0.809445 0.955383
0.756954 0.810849 0.955596
0.766293 0.813138 0.955535
0.783139 0.817105 0.956359
0.804807 0.820829 0.957641
0.833433 0.826810 0.959594
0.868528 0.836973 0.962737
0.907256 0.851194 0.966827
0.781491 0.849577 0.955779
0.782589 0.849516 0.955596
0.789090 0.850431 0.955474
0.804623 0.854398 0.955962
0.829252 0.862181 0.957519
0.858824 0.872374 0.960937
0.889769 0.883024 0.964996
0.918791 0.889769 0.967742
0.819425 0.892363 0.961059
0.820615 0.892485 0.960967
0.825772 0.893156 0.960693
0.836790 0.895171 0.960418
0.853666 0.898863 0.960510
0.877287 0.905821 0.962158
0.904265 0.914397 0.964813
0.929625 0.920500 0.967895
0.847898 0.928832 0.966827
0.848722 0.928893 0.966735
0.853391 0.929717 0.966735
0.863706 0.931884 0.967010
0.878141 0.934905 0.967285
0.896391 0.938933 0.967559
0.919188 0.944427 0.968048
0.945892 0.953002 0.970184
