20 Preset/Ins style/【3】LUT video cho PR-AE-FCPX/Tone (11).cube
# Created by Adobe Lightroom plugin Export LUT (1.24.0)
# www.johnrellis.com/lightroom/exportlut.htm
# Preset: INS网红琥珀色-素材江湖09
# Color profile: C:\Program Files (x86)\Common Files\Adobe\Color\Profiles\Recommended\VideoHD.icc
LUT_3D_SIZE 8
DOMAIN_MIN 0.000000 0.000000 0.000000
DOMAIN_MAX 0.903226 0.903226 0.903226
0.000000 0.000000 0.000000
0.227817 0.000000 0.058198
0.499153 0.000000 0.094423
0.684199 0.000000 0.107210
0.833219 0.000000 0.136782
0.938323 0.000000 0.184878
1.000000 0.000000 0.235447
1.000000 0.113558 0.287449
0.174533 0.155978 0.145357
0.190188 0.166171 0.141726
0.443549 0.195102 0.115633
0.645655 0.138247 0.123140
0.806668 0.056275 0.150271
0.917449 0.092866 0.194095
0.996551 0.148562 0.241306
1.000000 0.202914 0.292302
0.373175 0.342107 0.322820
0.376257 0.347387 0.323980
0.388220 0.343755 0.289342
0.567346 0.382879 0.246189
0.746487 0.397162 0.234226
0.876707 0.385199 0.263828
0.971038 0.380163 0.303655
1.000000 0.383154 0.342870
0.569024 0.543786 0.522667
0.573053 0.548150 0.527092
0.565759 0.546136 0.506981
0.578180 0.534081 0.466773
0.706111 0.554681 0.426490
0.814939 0.553033 0.378759
0.915801 0.546258 0.392035
1.000000 0.541070 0.420233
0.694759 0.680690 0.662287
0.696742 0.682826 0.664546
0.697230 0.685969 0.663172
0.691707 0.680629 0.641993
0.695338 0.662928 0.603204
0.763882 0.662287 0.568475
0.856535 0.662776 0.526085
0.941283 0.665248 0.510063
0.769772 0.762448 0.747158
0.772885 0.765835 0.750668
0.777859 0.771298 0.756222
0.771084 0.767636 0.743587
0.766903 0.760678 0.722988
0.770474 0.746700 0.694759
0.817227 0.747097 0.675685
0.901091 0.757473 0.649165
0.825834 0.822629 0.810269
0.826871 0.823789 0.811460
0.829648 0.826688 0.814511
0.829007 0.828000 0.812345
0.823697 0.824369 0.799466
0.823331 0.819730 0.782620
0.829221 0.810056 0.761501
0.864714 0.810422 0.750240
0.869505 0.868681 0.858946
0.869871 0.869017 0.859342
0.871489 0.870726 0.861143
0.874846 0.874235 0.864866
0.868650 0.870970 0.854551
0.868009 0.871122 0.845274
0.873198 0.870848 0.833066
0.883482 0.865782 0.817685
0.130373 0.124483 0.137819
0.162692 0.000000 0.175906
0.489357 0.000000 0.213962
0.662409 0.000000 0.177676
0.814633 0.000000 0.198886
0.919615 0.000000 0.231815
0.996124 0.048524 0.267704
1.000000 0.163943 0.305760
0.187961 0.167849 0.156497
0.222965 0.196597 0.179751
0.448554 0.211276 0.181643
0.636225 0.193606 0.193179
0.796963 0.173037 0.212741
0.906798 0.176272 0.243015
0.985199 0.198093 0.276249
1.000000 0.228794 0.312413
0.388067 0.356725 0.337102
0.395666 0.364477 0.344335
0.401160 0.359045 0.314763
0.566430 0.393957 0.280186
0.738857 0.402380 0.273136
0.866026 0.391272 0.294224
0.957183 0.383703 0.322606
1.000000 0.385962 0.356176
0.562463 0.536797 0.515618
0.567315 0.541985 0.520867
0.564080 0.543511 0.507744
0.568719 0.525994 0.465003
0.691402 0.544732 0.424903
0.800534 0.544640 0.380194
0.903655 0.538903 0.395148
0.993408 0.535760 0.423285
0.694331 0.680201 0.661830
0.695918 0.682002 0.663661
0.697261 0.685481 0.663691
0.689204 0.677852 0.640711
0.690272 0.658076 0.600458
0.758846 0.658137 0.566400
0.850797 0.658961 0.525658
0.936126 0.661402 0.511498
0.768399 0.760983 0.745602
0.769833 0.762539 0.747250
0.775540 0.768704 0.753658
0.769741 0.765957 0.742519
0.765621 0.759304 0.722591
0.769284 0.745998 0.695430
0.815702 0.746181 0.675746
0.898344 0.755581 0.648798
0.824674 0.821408 0.808957
0.824979 0.821744 0.809293
0.827756 0.824674 0.812436
0.828122 0.826841 0.811521
0.823270 0.823850 0.799496
0.822507 0.818936 0.782498
0.827176 0.808194 0.760372
0.862211 0.807980 0.748104
0.869017 0.868132 0.858396
0.869718 0.868864 0.859159
0.871336 0.870542 0.860960
0.874876 0.874235 0.864866
0.871916 0.874266 0.858427
0.870115 0.873198 0.848020
0.874052 0.871855 0.834714
0.883940 0.866484 0.819028
0.174136 0.190280 0.291417
0.165591 0.152316 0.320470
0.353704 0.087068 0.378027
0.701961 0.000000 0.501213
0.825315 0.169009 0.397772
0.920653 0.195682 0.369909
0.994110 0.240726 0.380041
1.000000 0.278996 0.401678
0.289220 0.273747 0.287846
0.271397 0.256443 0.313664
0.404486 0.225345 0.391058
0.676417 0.220676 0.427344
0.813230 0.233494 0.365393
0.909789 0.251377 0.364202
0.984070 0.286625 0.382574
1.000000 0.312444 0.404639
0.395270 0.363897 0.344060
0.413611 0.382116 0.361913
0.441871 0.403845 0.376196
0.601312 0.423011 0.364294
0.763333 0.424353 0.375769
0.872068 0.421057 0.391424
0.956298 0.422004 0.410101
1.000000 0.426886 0.432227
0.577996 0.553460 0.532433
0.585016 0.560998 0.540063
0.597131 0.576440 0.551110
0.591760 0.554925 0.508751
0.703792 0.568139 0.471107
0.806699 0.563958 0.443549
0.905943 0.561456 0.461585
0.992615 0.560143 0.483742
0.701778 0.688350 0.670222
0.704158 0.691005 0.672938
0.714717 0.702571 0.684901
0.704982 0.694545 0.664210
0.701595 0.674403 0.628107
0.764523 0.673426 0.594507
0.849516 0.671382 0.556512
0.936675 0.674006 0.550988
0.775143 0.768307 0.753231
0.776822 0.770108 0.755123
0.782742 0.776486 0.761807
0.780331 0.776516 0.756313
0.773892 0.768338 0.736172
0.774624 0.753719 0.709010
0.820035 0.753994 0.688441
0.900145 0.762264 0.663081
0.832090 0.829282 0.817288
0.832517 0.829740 0.817746
0.835203 0.832578 0.820737
0.838193 0.836667 0.823514
0.831998 0.832578 0.810971
0.829770 0.826963 0.793942
0.833310 0.816098 0.772274
0.869078 0.816403 0.759091
0.875059 0.874418 0.865049
0.875273 0.874632 0.865324
0.876982 0.876432 0.867216
0.881254 0.880858 0.871916
0.879576 0.881621 0.867826
0.877195 0.880400 0.857603
0.880064 0.878447 0.844053
0.888670 0.872374 0.827787
0.243503 0.265660 0.411933
0.240940 0.254582 0.427314
0.291264 0.183841 0.481453
0.507012 0.194156 0.552758
0.823178 0.225040 0.722652
0.926055 0.308171 0.622400
0.980987 0.375219 0.550652
1.000000 0.403021 0.533379
0.328588 0.330175 0.414099
0.319860 0.319402 0.427771
0.339574 0.266758 0.479683
0.534844 0.273045 0.562188
0.844419 0.289647 0.710933
0.916381 0.352972 0.598962
0.972808 0.402564 0.536095
1.000000 0.414099 0.529534
0.452522 0.421485 0.400580
0.461524 0.430701 0.409674
0.456611 0.430579 0.469123
0.621485 0.441566 0.591577
0.800931 0.448829 0.565301
0.883085 0.458778 0.519951
0.961059 0.464363 0.519493
1.000000 0.477913 0.533562
0.547295 0.520562 0.499306
0.556909 0.530816 0.509606
0.597681 0.574701 0.553979
0.613092 0.582727 0.553582
0.716548 0.584222 0.521630
0.818753 0.586206 0.532677
0.907836 0.587243 0.547021
0.991394 0.587976 0.562646
0.702449 0.689113 0.671015
0.705287 0.692256 0.674250
0.718410 0.706569 0.689052
0.724971 0.715541 0.693507
0.714809 0.692958 0.658808
0.773922 0.691707 0.627863
0.849943 0.685756 0.594629
0.941863 0.690517 0.606714
0.784115 0.777981 0.763394
0.787289 0.781399 0.766934
0.793576 0.788144 0.774014
0.801907 0.797910 0.782895
0.791501 0.787442 0.762203
0.785855 0.768765 0.732570
0.829587 0.767514 0.709041
0.905028 0.771847 0.683803
0.841306 0.839048 0.827573
0.842405 0.840208 0.828794
0.846433 0.844450 0.833310
0.854276 0.852720 0.842039
0.849577 0.850309 0.833402
0.843687 0.842161 0.814755
0.843076 0.828489 0.790890
0.879545 0.828336 0.774563
0.885893 0.885649 0.877012
0.886290 0.886076 0.877470
0.888243 0.888090 0.879606
0.892302 0.892271 0.884092
0.894377 0.895598 0.885557
0.889860 0.893034 0.874540
0.890379 0.889769 0.860258
0.897185 0.882811 0.843168
0.321355 0.347601 0.519097
0.319188 0.341711 0.528679
0.324346 0.308995 0.563989
0.412024 0.215396 0.617823
0.620356 0.294255 0.690944
0.827909 0.406989 0.822995
0.990448 0.437720 0.791226
1.000000 0.485908 0.728084
0.371283 0.386847 0.520531
0.367681 0.381201 0.529992
0.365026 0.351720 0.564233
0.433753 0.272526 0.617243
0.634943 0.342107 0.693965
0.838315 0.445319 0.821286
0.983612 0.466133 0.777493
1.000000 0.504601 0.720241
0.495735 0.487709 0.514580
0.492927 0.487068 0.525139
0.472206 0.465370 0.559289
0.503685 0.414405 0.615351
0.684688 0.478248 0.702602
0.895171 0.525689 0.794675
0.955962 0.543908 0.722683
1.000000 0.558495 0.685542
0.569116 0.543877 0.522759
0.574151 0.549310 0.528283
0.595850 0.572747 0.551965
0.611627 0.587610 0.613306
0.770169 0.620813 0.701167
0.842863 0.615320 0.653071
0.918242 0.611261 0.640467
0.998230 0.605188 0.642481
0.658320 0.640833 0.621363
0.663691 0.646693 0.627344
0.684382 0.669306 0.650629
0.720790 0.709133 0.691707
0.718929 0.700282 0.675990
0.777676 0.692348 0.642664
0.866423 0.694148 0.647486
0.956298 0.692805 0.656672
0.769223 0.761868 0.746517
0.772183 0.765042 0.749844
0.781247 0.774868 0.760098
0.798093 0.793027 0.779141
0.800687 0.797177 0.778714
0.790982 0.777066 0.749020
0.838102 0.775174 0.723018
0.910796 0.773465 0.696529
0.844083 0.841978 0.830686
0.844785 0.842710 0.831449
0.848631 0.846769 0.835752
0.858518 0.857206 0.846769
0.868711 0.868559 0.857511
0.857572 0.857420 0.836484
0.851560 0.839750 0.808927
0.890105 0.837766 0.786893
0.891997 0.891997 0.883757
0.892546 0.892515 0.884337
0.894957 0.895048 0.887022
0.901244 0.901518 0.893919
0.908904 0.909331 0.902281
0.905882 0.908659 0.895811
0.902434 0.903075 0.879698
0.905547 0.893523 0.859861
0.393378 0.427771 0.623224
0.391608 0.423651 0.628656
0.386450 0.401404 0.648066
0.406622 0.347539 0.684901
0.513146 0.283085 0.721492
0.694942 0.389410 0.780484
0.869017 0.514794 0.885557
1.000000 0.547143 0.930694
0.421454 0.449317 0.618921
0.418738 0.445045 0.623804
0.412024 0.424781 0.643824
0.425666 0.374823 0.679713
0.522728 0.316716 0.716854
0.701869 0.417975 0.778836
0.870909 0.537774 0.883543
1.000000 0.560235 0.920256
0.520195 0.531701 0.616663
0.515343 0.527337 0.621424
0.500481 0.509483 0.641291
0.498146 0.471077 0.674220
0.568750 0.428107 0.713069
0.737972 0.528405 0.783932
0.886656 0.621576 0.886259
1.000000 0.612634 0.886137
0.622034 0.605341 0.591760
0.621637 0.607660 0.598840
0.623407 0.617609 0.628901
0.610224 0.603754 0.668208
0.646540 0.577661 0.711635
0.793271 0.661006 0.800046
0.946319 0.680568 0.866941
1.000000 0.674159 0.828367
0.661952 0.644770 0.625360
0.664393 0.647456 0.628168
0.674983 0.659052 0.640070
0.695399 0.681361 0.663020
0.714626 0.695888 0.708400
0.834012 0.722774 0.761624
0.900603 0.713832 0.740780
0.978973 0.708248 0.738643
0.729274 0.718441 0.701350
0.732845 0.722316 0.705379
0.744472 0.735012 0.718532
0.767453 0.759945 0.744533
0.803159 0.798459 0.784817
0.796994 0.785763 0.765713
0.848203 0.773342 0.729915
0.940246 0.775814 0.736629
0.828305 0.825284 0.813046
0.830625 0.827695 0.815610
0.838651 0.836240 0.824613
0.855070 0.853544 0.842924
0.874723 0.874113 0.864744
0.879606 0.880461 0.867491
0.864378 0.855802 0.832853
0.908568 0.851194 0.804349
0.899504 0.899748 0.892027
0.900633 0.900847 0.893217
0.903960 0.904295 0.896910
0.909453 0.909911 0.902892
0.917845 0.918456 0.912047
0.929992 0.930999 0.925139
0.920653 0.922515 0.907042
0.918395 0.909331 0.883391
0.479438 0.515618 0.709621
0.477455 0.512474 0.712917
0.467872 0.495308 0.724514
0.459327 0.455756 0.747127
0.476326 0.370397 0.779263
0.591760 0.345037 0.808133
0.752773 0.462287 0.853605
0.901915 0.578332 0.936919
0.496529 0.529107 0.705928
0.494575 0.526268 0.709316
0.484535 0.509758 0.720974
0.473945 0.471748 0.743191
0.487922 0.392218 0.775448
0.597925 0.368048 0.804623
0.756832 0.481727 0.851377
0.902770 0.590417 0.934874
0.564569 0.586023 0.699458
0.560845 0.582422 0.702327
0.548241 0.567742 0.713893
0.534264 0.537102 0.736294
0.538079 0.475166 0.768826
0.629969 0.456153 0.800595
0.782925 0.566613 0.854093
0.916014 0.648371 0.938384
0.651026 0.656031 0.685817
0.650385 0.656031 0.689265
0.640101 0.648615 0.701381
0.622187 0.628992 0.724727
0.617792 0.592370 0.758297
0.683650 0.578576 0.794919
0.821439 0.666651 0.862058
0.937255 0.724361 0.945098
0.699916 0.686305 0.668116
0.700679 0.687190 0.669001
0.705257 0.692164 0.674189
0.705287 0.702113 0.703090
0.693324 0.691615 0.743893
0.731075 0.677729 0.786770
0.861906 0.752621 0.874266
0.990570 0.771481 0.937987
0.729061 0.718166 0.701106
0.730343 0.719570 0.702541
0.735531 0.725277 0.708461
0.746151 0.736843 0.720455
0.763851 0.756008 0.740444
0.782010 0.771878 0.786740
0.908415 0.810697 0.859220
0.975799 0.799039 0.843534
0.784451 0.778317 0.763729
0.786313 0.780331 0.765835
0.793454 0.788052 0.773922
0.808560 0.804227 0.790890
0.833982 0.831296 0.819394
0.874784 0.874144 0.864805
0.870176 0.864012 0.848844
0.927886 0.849302 0.811551
0.877104 0.876555 0.867338
0.878477 0.877989 0.868864
0.884642 0.884398 0.875669
0.896544 0.896666 0.888731
0.915984 0.916533 0.910002
0.937133 0.937957 0.932982
0.946288 0.948089 0.941497
0.934539 0.928832 0.911864
0.590509 0.626276 0.799344
0.588342 0.623682 0.801389
0.577813 0.609949 0.808713
0.559045 0.579004 0.824491
0.537316 0.514946 0.848508
0.539879 0.381476 0.880552
0.665248 0.401556 0.900725
0.807431 0.518334 0.929870
0.599084 0.633417 0.796567
0.597131 0.631037 0.798642
0.587243 0.618463 0.806271
0.569024 0.588952 0.821836
0.547601 0.528069 0.845884
0.548638 0.402106 0.878080
0.669703 0.419135 0.898497
0.810575 0.533013 0.928496
0.634821 0.664210 0.790066
0.632013 0.661463 0.792081
0.623011 0.651087 0.799527
0.608972 0.629297 0.815793
0.589960 0.580926 0.839414
0.585504 0.479164 0.871733
0.691981 0.488685 0.894408
0.827298 0.592248 0.928283
0.690303 0.710658 0.778073
0.688197 0.709071 0.780179
0.678401 0.700587 0.788205
0.662562 0.683284 0.804440
0.649012 0.653193 0.828458
0.646662 0.589685 0.861357
0.729335 0.587823 0.888640
0.853666 0.668452 0.931060
0.743221 0.746548 0.752560
0.742428 0.746822 0.755337
0.737972 0.746426 0.765591
0.729732 0.743526 0.786313
0.707454 0.721096 0.812467
0.702876 0.684871 0.846921
0.763516 0.671962 0.881621
0.885344 0.745876 0.937163
0.775174 0.768307 0.753262
0.775448 0.768612 0.753567
0.777188 0.770474 0.755550
0.781613 0.775235 0.760494
0.779995 0.782376 0.783749
0.764248 0.771237 0.830411
0.798276 0.750820 0.876310
0.924193 0.828336 0.948913
0.801968 0.797177 0.783474
0.802548 0.797818 0.784146
0.805081 0.800534 0.787015
0.810666 0.806485 0.793271
0.819883 0.816342 0.803616
0.834287 0.831601 0.819730
0.844388 0.843290 0.867857
0.968780 0.907958 0.960540
0.849973 0.848203 0.837247
0.850645 0.848905 0.838041
0.853971 0.852384 0.841703
0.861234 0.860014 0.849760
0.873777 0.873136 0.863676
0.899107 0.899321 0.891569
0.937682 0.938537 0.933562
0.946807 0.944213 0.936248
