20 Preset/Ins style/【3】LUT video cho PR-AE-FCPX/Tone (11).cube
# Created by Adobe Lightroom plugin Export LUT (1.24.0)
# www.johnrellis.com/lightroom/exportlut.htm
# Preset: INS网红琥珀色-素材江湖09
# Color profile: C:\Program Files (x86)\Common Files\Adobe\Color\Profiles\Recommended\VideoHD.icc
LUT_3D_SIZE 5
DOMAIN_MIN 0.000000 0.000000 0.000000
DOMAIN_MAX 0.903226 0.903226 0.903226
0.000000 0.000000 0.000000
0.443702 0.000000 0.100130
0.765469 0.000000 0.120485
0.959319 0.000000 0.197726
1.000000 0.113558 0.287449
0.324773 0.295109 0.277409
0.342077 0.300359 0.250706
0.676081 0.348058 0.193088
0.916930 0.332372 0.253452
1.000000 0.341955 0.329046
0.643488 0.624628 0.604761
0.643153 0.627283 0.601984
0.647608 0.608545 0.541741
0.814633 0.610285 0.462257
0.972961 0.606775 0.462745
0.787381 0.781460 0.767025
0.791684 0.786099 0.771878
0.785092 0.783047 0.755917
0.786435 0.764126 0.713313
0.891752 0.773404 0.676417
0.869505 0.868681 0.858946
0.870909 0.870115 0.860502
0.870115 0.871031 0.858366
0.868681 0.871153 0.842588
0.883482 0.865782 0.817685
0.167880 0.177768 0.253666
0.309087 0.028717 0.330663
0.754604 0.098390 0.350134
0.937591 0.161746 0.331304
1.000000 0.248508 0.372290
0.351476 0.320897 0.302220
0.394903 0.357488 0.331518
0.694820 0.376135 0.329473
0.903410 0.370397 0.358221
1.000000 0.380957 0.399847
0.646357 0.627741 0.607935
0.659236 0.641871 0.622339
0.648310 0.613886 0.560815
0.804868 0.614679 0.489174
0.967620 0.618372 0.504295
0.793301 0.787869 0.773709
0.798123 0.792996 0.779141
0.794034 0.792081 0.768124
0.790860 0.770596 0.724819
0.892790 0.778073 0.686671
0.874876 0.874235 0.864866
0.876280 0.875731 0.866423
0.880003 0.880613 0.869871
0.876158 0.878874 0.852720
0.889067 0.872496 0.827176
0.284398 0.307713 0.466621
0.288823 0.271916 0.507713
0.570550 0.242893 0.630365
0.946868 0.355688 0.736995
1.000000 0.456703 0.625727
0.453071 0.441016 0.463539
0.429999 0.418738 0.502647
0.636957 0.415503 0.649378
0.914855 0.471992 0.663081
1.000000 0.511345 0.602808
0.607416 0.585260 0.564660
0.635035 0.615320 0.595300
0.673060 0.649287 0.622675
0.815976 0.646662 0.594324
0.971283 0.647425 0.615381
0.800137 0.795193 0.781399
0.804898 0.800290 0.786770
0.820401 0.818082 0.803159
0.804990 0.790402 0.757900
0.900114 0.789639 0.713039
0.888365 0.888243 0.879759
0.890684 0.890654 0.882322
0.899351 0.899535 0.891814
0.895445 0.898436 0.880064
0.899992 0.886625 0.849638
0.409827 0.445350 0.643122
0.403479 0.428779 0.659602
0.437446 0.326207 0.716915
0.708614 0.406256 0.797604
0.996185 0.570855 0.939727
0.498421 0.517571 0.637201
0.485084 0.501457 0.653010
0.494881 0.424872 0.709071
0.737484 0.505028 0.798672
1.000000 0.609918 0.931029
0.649165 0.630793 0.611109
0.657465 0.639887 0.620386
0.653956 0.645319 0.690150
0.818875 0.704524 0.817350
0.996826 0.704097 0.834043
0.745235 0.735836 0.719387
0.753750 0.745113 0.729030
0.792660 0.787167 0.772976
0.814847 0.805081 0.786191
0.935241 0.792874 0.753384
0.895079 0.895171 0.887144
0.900420 0.900633 0.893004
0.916014 0.916594 0.910063
0.935149 0.936400 0.930480
0.922148 0.913878 0.890074
0.590509 0.626276 0.799344
0.581048 0.614527 0.806180
0.547753 0.552728 0.835477
0.560632 0.353613 0.885435
0.807431 0.518334 0.929870
0.623499 0.654566 0.792569
0.615473 0.645289 0.799466
0.586664 0.595514 0.828519
0.587579 0.426246 0.880583
0.822660 0.575677 0.928771
0.718410 0.732082 0.768276
0.714046 0.729763 0.776699
0.683680 0.700710 0.807126
0.679866 0.620600 0.863035
0.868376 0.706172 0.933288
0.781796 0.775479 0.760739
0.783536 0.777340 0.762722
0.792447 0.786923 0.772732
0.781704 0.786984 0.837766
0.934264 0.849088 0.952056
0.849973 0.848203 0.837247
0.852811 0.851164 0.840421
0.866514 0.865537 0.855619
0.907378 0.907774 0.900603
0.946807 0.944213 0.936248
