20 Preset/Ins style/【3】LUT video cho PR-AE-FCPX/Tone (5).cube
# Created by Adobe Lightroom plugin Export LUT (1.24.0)
# www.johnrellis.com/lightroom/exportlut.htm
# Preset: INS网红琥珀色-素材江湖03
# Color profile: C:\Program Files (x86)\Common Files\Adobe\Color\Profiles\Recommended\VideoHD.icc
LUT_3D_SIZE 8
DOMAIN_MIN 0.000000 0.000000 0.000000
DOMAIN_MAX 0.903226 0.903226 0.903226
0.082856 0.058595 0.033234
0.154391 0.084840 0.042969
0.453925 0.080598 0.012512
0.755245 0.164004 0.000000
0.927794 0.328557 0.128908
1.000000 0.497017 0.342504
1.000000 0.604578 0.495644
1.000000 0.692012 0.616876
0.113222 0.116976 0.057160
0.156893 0.130251 0.078370
0.433448 0.180941 0.021393
0.720272 0.237034 0.000000
0.907042 0.361120 0.151736
0.997864 0.491615 0.324285
1.000000 0.591699 0.471077
1.000000 0.682399 0.600305
0.204135 0.280156 0.117098
0.250431 0.288243 0.129824
0.384741 0.329198 0.191714
0.698329 0.435004 0.225589
0.890715 0.516625 0.306889
0.974884 0.588159 0.429541
1.000000 0.667750 0.559808
1.000000 0.732906 0.658381
0.361242 0.471656 0.255436
0.394263 0.477516 0.264805
0.491249 0.499611 0.321996
0.649226 0.579187 0.438788
0.842191 0.674952 0.529320
0.938048 0.710292 0.582116
0.984466 0.744564 0.647669
1.000000 0.779416 0.706294
0.514488 0.633478 0.417487
0.534112 0.637873 0.425818
0.597070 0.651453 0.461372
0.673793 0.669551 0.525017
0.764126 0.713802 0.607019
0.870665 0.766506 0.665888
0.941375 0.797848 0.713466
0.991424 0.822049 0.749386
0.621820 0.736751 0.551995
0.639551 0.744381 0.566888
0.681697 0.754086 0.592981
0.726711 0.759762 0.628595
0.773312 0.769467 0.673976
0.832731 0.802090 0.728511
0.908141 0.841367 0.770871
0.963378 0.866972 0.807034
0.712917 0.813748 0.672084
0.720485 0.816129 0.677546
0.743923 0.821134 0.691371
0.776242 0.826871 0.713161
0.807736 0.830564 0.737362
0.840970 0.839414 0.769711
0.884886 0.863676 0.807065
0.940551 0.891051 0.834623
0.790127 0.882048 0.768582
0.793606 0.882689 0.770565
0.808774 0.886137 0.779629
0.835935 0.893065 0.796994
0.849638 0.887724 0.801083
0.877958 0.894835 0.824796
0.904997 0.903868 0.850492
0.937407 0.920195 0.874022
0.089693 0.084810 0.088655
0.140352 0.096651 0.090455
0.406897 0.011994 0.089540
0.692988 0.167544 0.113741
0.895720 0.329839 0.199527
0.989197 0.472175 0.339086
1.000000 0.576654 0.470588
1.000000 0.668391 0.591150
0.108827 0.126162 0.094820
0.173037 0.145388 0.107393
0.405127 0.183688 0.115236
0.686000 0.247013 0.138766
0.886473 0.370275 0.221439
0.979217 0.487343 0.347631
1.000000 0.579004 0.467018
1.000000 0.665278 0.583185
0.220798 0.285557 0.161135
0.266087 0.296574 0.172427
0.387213 0.334508 0.224582
0.677272 0.429145 0.262242
0.864286 0.501244 0.324712
0.955901 0.569848 0.424201
1.000000 0.639490 0.529442
1.000000 0.710780 0.632868
0.354986 0.458137 0.271214
0.387488 0.466041 0.281834
0.480262 0.487251 0.330571
0.616022 0.546929 0.418494
0.813657 0.637201 0.490333
0.919371 0.676539 0.541985
0.972534 0.715267 0.611078
1.000000 0.758999 0.681361
0.508507 0.625452 0.424323
0.526116 0.628473 0.430701
0.587854 0.640925 0.461494
0.659022 0.653712 0.514977
0.748714 0.695674 0.587854
0.859861 0.751217 0.648920
0.934081 0.785916 0.699702
0.985687 0.812192 0.738094
0.610742 0.726833 0.545281
0.622644 0.729824 0.552087
0.667201 0.740963 0.578912
0.715663 0.748775 0.617060
0.764858 0.760281 0.665003
0.827237 0.796109 0.723171
0.903655 0.836118 0.765743
0.959503 0.861784 0.801511
0.701442 0.804868 0.661372
0.706264 0.805081 0.663081
0.730526 0.810147 0.677150
0.766171 0.817624 0.701808
0.800992 0.823972 0.730007
0.834958 0.833127 0.762844
0.878508 0.856626 0.799039
0.934966 0.884276 0.826627
0.780758 0.875395 0.759609
0.785855 0.877165 0.763333
0.801175 0.880491 0.772396
0.829770 0.888121 0.790738
0.854154 0.891966 0.808133
0.879240 0.896178 0.827481
0.903960 0.902953 0.849973
0.936431 0.919310 0.873320
0.025879 0.119112 0.197940
0.147555 0.129000 0.204440
0.332280 0.197147 0.236118
0.686793 0.152834 0.273869
0.900420 0.325231 0.322393
0.975769 0.509758 0.458381
1.000000 0.620996 0.567498
1.000000 0.704463 0.659022
0.106142 0.170443 0.212894
0.178531 0.184329 0.229435
0.361028 0.245853 0.260258
0.687129 0.198215 0.260258
0.882597 0.374792 0.341741
0.964141 0.522148 0.461616
1.000000 0.620783 0.561822
1.000000 0.702358 0.653315
0.209079 0.307500 0.253117
0.267185 0.323644 0.270634
0.436744 0.384955 0.335851
0.679072 0.446265 0.373724
0.856199 0.527794 0.443824
0.942016 0.601770 0.523430
0.988556 0.670161 0.604120
1.000000 0.732021 0.679347
0.370947 0.487221 0.362676
0.415167 0.499763 0.383764
0.520684 0.530053 0.429572
0.640711 0.581903 0.500298
0.814237 0.660731 0.568383
0.907500 0.699733 0.613611
0.961944 0.738460 0.667903
1.000000 0.776089 0.719112
0.517845 0.632715 0.483436
0.536004 0.637415 0.490883
0.605280 0.658350 0.523644
0.675319 0.673915 0.571862
0.757015 0.713619 0.635767
0.858885 0.763333 0.685817
0.931182 0.794339 0.724361
0.980865 0.820188 0.759915
0.615045 0.727535 0.578668
0.626856 0.730831 0.585473
0.669032 0.741604 0.609430
0.719905 0.752163 0.643763
0.765774 0.763027 0.683864
0.826047 0.797879 0.735348
0.901762 0.838224 0.776822
0.958618 0.865568 0.812650
0.704280 0.806577 0.680049
0.709285 0.807065 0.682124
0.731777 0.811460 0.693782
0.769253 0.820432 0.716945
0.802487 0.826078 0.741665
0.836637 0.836057 0.773190
0.881132 0.861173 0.809506
0.937865 0.889860 0.837736
0.777279 0.874571 0.764553
0.780301 0.874784 0.765743
0.795834 0.878141 0.774533
0.826749 0.887327 0.794766
0.853941 0.892576 0.812894
0.880461 0.898100 0.833188
0.905760 0.905425 0.855589
0.937865 0.921538 0.878233
0.000000 0.164858 0.349493
0.000000 0.176425 0.366979
0.343084 0.263645 0.387060
0.555352 0.353857 0.448798
0.834592 0.410346 0.528008
0.960113 0.479347 0.534356
0.998871 0.614038 0.612879
1.000000 0.710658 0.695399
0.000000 0.217288 0.368750
0.116274 0.231052 0.384771
0.373724 0.307378 0.409522
0.573053 0.388769 0.468086
0.838682 0.438392 0.535882
0.955749 0.503868 0.542840
0.992615 0.628016 0.621576
1.000000 0.716640 0.699184
0.139498 0.338964 0.398108
0.211429 0.349798 0.410285
0.426246 0.407660 0.463111
0.616022 0.483009 0.515526
0.851499 0.498878 0.533745
0.933806 0.606470 0.598230
0.974182 0.698756 0.678737
1.000000 0.754025 0.730800
0.328313 0.490944 0.448402
0.368200 0.500023 0.459144
0.509087 0.547906 0.515160
0.667140 0.620264 0.592798
0.805234 0.666255 0.628168
0.889067 0.707027 0.667720
0.947234 0.748623 0.711360
0.990295 0.786740 0.753140
0.496254 0.633722 0.536980
0.519982 0.642390 0.548638
0.611109 0.674250 0.598627
0.698787 0.703334 0.648554
0.768368 0.737118 0.694026
0.860227 0.780362 0.733700
0.927855 0.806699 0.759945
0.974792 0.830289 0.788846
0.629419 0.736721 0.636408
0.644770 0.743130 0.646876
0.681239 0.752712 0.664942
0.739132 0.771664 0.698634
0.779751 0.781399 0.727596
0.831632 0.809506 0.764492
0.902770 0.846250 0.799741
0.959380 0.871336 0.828153
0.699916 0.805570 0.701717
0.706752 0.807614 0.705684
0.731899 0.814725 0.719600
0.774563 0.827909 0.744839
0.811002 0.836179 0.768521
0.842710 0.844663 0.794125
0.884215 0.867247 0.824521
0.940337 0.895537 0.851225
0.771786 0.875975 0.776272
0.775723 0.876707 0.778164
0.791928 0.880156 0.786648
0.821561 0.887602 0.803433
0.854887 0.895689 0.823331
0.881621 0.900938 0.842039
0.907713 0.908721 0.863798
0.940307 0.925444 0.886717
0.000000 0.229343 0.500023
0.000000 0.241642 0.514488
0.305180 0.301884 0.539300
0.565026 0.453712 0.577630
0.724361 0.525017 0.635798
0.872038 0.589685 0.679530
0.962493 0.643091 0.699550
1.000000 0.714809 0.738399
0.000000 0.269505 0.510460
0.000000 0.282261 0.524743
0.334630 0.337591 0.552697
0.578729 0.478309 0.589166
0.728328 0.542596 0.642420
0.874113 0.601038 0.683864
0.961303 0.650874 0.701961
1.000000 0.721431 0.741695
0.000000 0.367529 0.528588
0.120150 0.374121 0.537194
0.389899 0.430915 0.583703
0.609247 0.540734 0.616114
0.735286 0.592432 0.657160
0.873198 0.630426 0.687953
0.957336 0.671717 0.703853
0.997436 0.741054 0.748775
0.248081 0.503075 0.558343
0.295659 0.510674 0.565881
0.443610 0.545251 0.600183
0.652277 0.628534 0.663935
0.766232 0.672297 0.695827
0.883665 0.688045 0.703304
0.941192 0.740047 0.738582
0.982177 0.785153 0.776852
0.435126 0.615106 0.582025
0.459297 0.621515 0.589380
0.547601 0.646876 0.618952
0.685786 0.706569 0.687984
0.771542 0.747341 0.731807
0.853635 0.775570 0.753628
0.917266 0.801114 0.777768
0.967590 0.827237 0.804288
0.552239 0.700069 0.621942
0.568688 0.705440 0.629877
0.628382 0.724666 0.659724
0.714229 0.757015 0.710414
0.773434 0.779446 0.744930
0.829099 0.811490 0.782528
0.901488 0.848569 0.817136
0.958862 0.870634 0.838041
0.654200 0.789425 0.696895
0.661952 0.791165 0.700526
0.698299 0.800504 0.720912
0.750332 0.816953 0.749691
0.807126 0.837278 0.783413
0.840818 0.845945 0.806699
0.882078 0.867796 0.834226
0.939086 0.895598 0.859281
0.726436 0.860868 0.761898
0.734615 0.861875 0.766506
0.755245 0.866056 0.776181
0.796048 0.878019 0.799405
0.841581 0.891203 0.825071
0.876585 0.899870 0.846799
0.904601 0.907744 0.868070
0.937774 0.924437 0.890379
0.000000 0.301244 0.631891
0.000000 0.312383 0.642054
0.259007 0.359106 0.667506
0.555596 0.477119 0.694484
0.717891 0.637934 0.719997
0.806912 0.662531 0.747250
0.891112 0.712581 0.775113
0.973388 0.751827 0.801236
0.000000 0.324010 0.627893
0.000000 0.333349 0.635584
0.276341 0.374823 0.660700
0.550988 0.480659 0.685206
0.712337 0.634699 0.713191
0.802609 0.661372 0.742611
0.889830 0.710384 0.771908
0.971405 0.750149 0.798123
0.000000 0.403632 0.641169
0.000000 0.412177 0.647883
0.347753 0.455787 0.677089
0.578698 0.539269 0.699458
0.725948 0.668910 0.726253
0.806302 0.692317 0.753140
0.897337 0.729885 0.781613
0.970336 0.766232 0.804501
0.175265 0.515343 0.656123
0.234623 0.519646 0.659785
0.390173 0.542992 0.679500
0.617456 0.626154 0.728023
0.755337 0.724666 0.757229
0.820890 0.744045 0.778225
0.910307 0.768643 0.801541
0.972961 0.796353 0.818906
0.353704 0.622858 0.665980
0.382025 0.627314 0.670130
0.480934 0.647181 0.688289
0.625055 0.688228 0.723598
0.765286 0.754971 0.771389
0.839506 0.776852 0.791897
0.917540 0.793973 0.804166
0.967193 0.827787 0.830106
0.497932 0.699092 0.670314
0.516503 0.703944 0.675990
0.576501 0.715999 0.691127
0.667628 0.739467 0.720485
0.770901 0.790524 0.777859
0.838834 0.826535 0.815915
0.906401 0.852354 0.837949
0.958251 0.871824 0.856718
0.577203 0.761044 0.691157
0.590600 0.764889 0.696895
0.635462 0.776883 0.715236
0.706935 0.800992 0.750149
0.792050 0.835874 0.800778
0.846342 0.856870 0.831510
0.887755 0.877501 0.856077
0.946197 0.905058 0.880949
0.653376 0.843870 0.747280
0.659052 0.844358 0.748806
0.686824 0.849302 0.759426
0.739712 0.862211 0.784268
0.808835 0.880156 0.821317
0.869963 0.900755 0.855497
0.903197 0.909819 0.877531
0.937743 0.926757 0.899809
0.000000 0.363470 0.729519
0.000000 0.372045 0.734676
0.209140 0.408698 0.748562
0.512810 0.494301 0.762173
0.700435 0.624079 0.776761
0.793790 0.729427 0.795468
0.856474 0.744686 0.813626
0.913024 0.779690 0.831113
0.000000 0.376196 0.723995
0.000000 0.384680 0.729427
0.231327 0.421454 0.744778
0.511894 0.499336 0.757870
0.697230 0.624018 0.772854
0.790036 0.726894 0.791348
0.852537 0.740993 0.809049
0.909575 0.775418 0.826444
0.000000 0.430243 0.724971
0.000000 0.436896 0.728756
0.276585 0.469032 0.743587
0.531121 0.541680 0.761898
0.706569 0.651545 0.777035
0.795621 0.744076 0.797360
0.856016 0.759274 0.816403
0.913725 0.791318 0.835233
0.000000 0.508080 0.725826
0.000000 0.509880 0.726955
0.282902 0.528374 0.738064
0.546685 0.600000 0.767483
0.719844 0.692164 0.787503
0.807980 0.774502 0.811124
0.862547 0.787472 0.828702
0.925933 0.811093 0.847684
0.163912 0.603113 0.727169
0.216190 0.604608 0.728237
0.351049 0.614771 0.736233
0.510674 0.640009 0.754696
0.711543 0.720333 0.793606
0.816464 0.799313 0.821378
0.866941 0.811551 0.837583
0.940764 0.833951 0.860258
0.348882 0.694820 0.732143
0.370916 0.697169 0.734401
0.449866 0.706752 0.743374
0.570733 0.727077 0.761379
0.697871 0.761135 0.791012
0.825864 0.823423 0.838224
0.889006 0.847105 0.858976
0.954437 0.865080 0.874662
0.487556 0.761349 0.733608
0.501610 0.763210 0.735958
0.551507 0.768948 0.743740
0.632715 0.781918 0.760647
0.725093 0.804440 0.788388
0.826596 0.850004 0.840208
0.893309 0.886412 0.878782
0.950988 0.906981 0.896757
0.528374 0.815457 0.739895
0.540002 0.817075 0.742611
0.586236 0.824796 0.755032
0.657923 0.837949 0.776303
0.744991 0.858793 0.808896
0.835691 0.890318 0.855009
0.902525 0.915129 0.892363
0.940063 0.932341 0.915068
0.000000 0.438453 0.817838
0.000000 0.445624 0.819974
0.230259 0.475898 0.825162
0.504997 0.543908 0.831540
0.690608 0.648890 0.837186
0.800961 0.747463 0.846250
0.857969 0.806516 0.860472
0.904814 0.817838 0.873869
0.000000 0.444404 0.813901
0.000000 0.451545 0.816190
0.231449 0.481361 0.822324
0.502831 0.546868 0.829313
0.688624 0.649653 0.835355
0.799557 0.747219 0.844907
0.856443 0.805783 0.859007
0.903441 0.817105 0.872557
0.000000 0.474586 0.809415
0.000000 0.480385 0.811246
0.230961 0.506310 0.817319
0.507195 0.571374 0.829465
0.690517 0.665126 0.835660
0.800320 0.754879 0.845823
0.857969 0.812985 0.860960
0.904479 0.824338 0.875029
0.000000 0.514488 0.801083
0.000000 0.519463 0.803311
0.127993 0.540826 0.810300
0.486091 0.598688 0.824735
0.686397 0.686152 0.837034
0.802457 0.769223 0.850004
0.862913 0.828031 0.867063
0.908354 0.839292 0.881743
0.000000 0.588769 0.798947
0.000000 0.590082 0.800259
0.000000 0.591943 0.802945
0.354009 0.609186 0.811398
0.650599 0.697322 0.834653
0.795773 0.779355 0.852873
0.868406 0.845457 0.874266
0.913603 0.857206 0.890105
0.000000 0.679683 0.799985
0.000000 0.679469 0.800015
0.000000 0.680720 0.801816
0.363256 0.688075 0.808408
0.556909 0.708553 0.821958
0.772061 0.790127 0.858000
0.879515 0.868162 0.888121
0.921599 0.879484 0.901457
0.134066 0.771817 0.807797
0.186984 0.772244 0.808408
0.313664 0.774716 0.811215
0.462196 0.782315 0.818845
0.610040 0.797574 0.832822
0.740658 0.821225 0.853635
0.873411 0.875822 0.894041
0.931975 0.903960 0.914061
0.417853 0.841978 0.813046
0.430732 0.841855 0.813230
0.481361 0.842924 0.815732
0.564721 0.846952 0.822446
0.661952 0.854520 0.833982
0.764065 0.868803 0.853483
0.866941 0.899077 0.890288
0.943359 0.939666 0.935088
