20 Preset/Ins style/【3】LUT video cho PR-AE-FCPX/Tone (6).cube
# Created by Adobe Lightroom plugin Export LUT (1.24.0)
# www.johnrellis.com/lightroom/exportlut.htm
# Preset: INS网红琥珀色-素材江湖04
# Color profile: C:\Program Files (x86)\Common Files\Adobe\Color\Profiles\Recommended\VideoHD.icc
LUT_3D_SIZE 32
DOMAIN_MIN 0.0 0.0 0.0
DOMAIN_MAX 1.0 1.0 1.0
0.001343 0.001953 0.004211
0.019867 0.003082 0.008209
0.080690 0.009216 0.016327
0.120729 0.025574 0.033234
0.209079 0.032319 0.059998
0.361425 0.000000 0.072084
0.517998 0.000000 0.055177
0.645075 0.000000 0.025788
0.746487 0.000000 0.000000
0.828061 0.000000 0.000000
0.894316 0.146456 0.000000
0.946990 0.221134 0.000000
0.989288 0.285405 0.000000
1.000000 0.341833 0.000000
1.000000 0.391394 0.000000
1.000000 0.436164 0.088228
1.000000 0.477943 0.129305
1.000000 0.525353 0.172152
1.000000 0.570886 0.216556
1.000000 0.608545 0.255283
1.000000 0.639490 0.290593
1.000000 0.665095 0.322667
1.000000 0.686244 0.351720
1.000000 0.704555 0.379522
1.000000 0.720638 0.406226
1.000000 0.735073 0.432013
1.000000 0.748409 0.457862
1.000000 0.760830 0.483558
1.000000 0.772671 0.509697
1.000000 0.784085 0.536248
1.000000 0.795041 0.563317
1.000000 0.805631 0.590661
0.000000 0.014466 0.025238
0.011536 0.010498 0.015259
0.084932 0.018738 0.010376
0.123354 0.031220 0.028870
0.212985 0.039887 0.053803
0.364508 0.000000 0.064118
0.517113 0.000000 0.047730
0.641505 0.000000 0.017182
0.742885 0.000000 0.000000
0.824552 0.000000 0.000000
0.890776 0.150820 0.000000
0.943420 0.220645 0.000000
0.986297 0.284062 0.000000
1.000000 0.339788 0.000000
1.000000 0.389197 0.000000
1.000000 0.433783 0.068574
1.000000 0.475776 0.120943
1.000000 0.522179 0.165896
1.000000 0.566888 0.209598
1.000000 0.603784 0.247929
1.000000 0.634485 0.282658
1.000000 0.660060 0.314549
1.000000 0.681331 0.343236
1.000000 0.699794 0.371038
1.000000 0.716213 0.397711
1.000000 0.730861 0.423774
1.000000 0.744564 0.449989
1.000000 0.757382 0.476081
1.000000 0.769589 0.502708
1.000000 0.781277 0.529686
1.000000 0.792569 0.557122
1.000000 0.803403 0.584985
0.000000 0.074128 0.087770
0.000000 0.077729 0.087495
0.056367 0.053010 0.066163
0.126833 0.074891 0.045228
0.241154 0.087526 0.024384
0.393164 0.066133 0.028443
0.537499 0.000000 0.006836
0.655512 0.000000 0.000000
0.752193 0.021698 0.000000
0.830137 0.122408 0.000000
0.893858 0.184512 0.000000
0.945251 0.242252 0.000000
0.987030 0.298711 0.000000
1.000000 0.350317 0.000000
1.000000 0.396948 0.000000
1.000000 0.439643 0.008301
1.000000 0.479835 0.104829
1.000000 0.525658 0.155489
1.000000 0.568444 0.200717
1.000000 0.604303 0.240024
1.000000 0.634302 0.275517
1.000000 0.659602 0.307683
1.000000 0.680659 0.337011
1.000000 0.698939 0.365118
1.000000 0.715114 0.392035
1.000000 0.729702 0.418341
1.000000 0.743435 0.444556
1.000000 0.756252 0.471138
1.000000 0.768521 0.498085
1.000000 0.780301 0.525383
1.000000 0.791562 0.553155
1.000000 0.802457 0.581140
0.000000 0.136385 0.125856
0.000000 0.138460 0.126131
0.000000 0.144015 0.098421
0.109346 0.110872 0.104189
0.228458 0.136294 0.094148
0.447028 0.163638 0.000000
0.581262 0.163394 0.000000
0.686427 0.165438 0.000000
0.774228 0.179843 0.000000
0.845579 0.206729 0.000000
0.904509 0.243748 0.000000
0.952117 0.285893 0.000000
0.991363 0.331701 0.000000
1.000000 0.375708 0.000000
1.000000 0.415900 0.000000
1.000000 0.454414 0.000000
1.000000 0.491005 0.032593
1.000000 0.534905 0.133425
1.000000 0.573510 0.182864
1.000000 0.606287 0.223819
1.000000 0.634333 0.260594
1.000000 0.658778 0.293675
1.000000 0.679469 0.324315
1.000000 0.697841 0.353948
1.000000 0.714382 0.382757
1.000000 0.729580 0.410925
1.000000 0.743618 0.438819
1.000000 0.756741 0.466590
1.000000 0.769039 0.494423
1.000000 0.780728 0.522271
1.000000 0.791806 0.549950
1.000000 0.802304 0.577600
0.000000 0.267704 0.187533
0.000000 0.269993 0.186893
0.000000 0.278996 0.183749
0.000000 0.277775 0.000000
0.196323 0.189242 0.126619
0.355840 0.211093 0.116670
0.568872 0.254276 0.000000
0.716335 0.275944 0.000000
0.797116 0.281743 0.000000
0.863615 0.295995 0.000000
0.916442 0.316411 0.000000
0.960632 0.345159 0.000000
0.996368 0.378393 0.000000
1.000000 0.412573 0.000000
1.000000 0.445502 0.000000
1.000000 0.479164 0.000000
1.000000 0.512993 0.000000
1.000000 0.552697 0.089967
1.000000 0.586877 0.157778
1.000000 0.616449 0.205264
1.000000 0.642267 0.245274
1.000000 0.664637 0.280919
1.000000 0.684047 0.313481
1.000000 0.701656 0.344854
1.000000 0.717556 0.374823
1.000000 0.732235 0.404211
1.000000 0.745815 0.432929
1.000000 0.758511 0.461341
1.000000 0.770382 0.489570
1.000000 0.781704 0.517632
1.000000 0.792386 0.545495
1.000000 0.802609 0.573205
0.000000 0.424994 0.254459
0.000000 0.426978 0.253941
0.000000 0.433295 0.248753
0.000000 0.443244 0.213138
0.000000 0.417090 0.000000
0.310399 0.280003 0.151492
0.462013 0.292180 0.153384
0.655634 0.343359 0.000000
0.802823 0.381842 0.000000
0.879637 0.394293 0.000000
0.928862 0.403998 0.000000
0.970825 0.421637 0.000000
1.000000 0.442390 0.000000
1.000000 0.465217 0.000000
1.000000 0.489265 0.000000
1.000000 0.515526 0.000000
1.000000 0.547906 0.000000
1.000000 0.580377 0.000000
1.000000 0.609033 0.117494
1.000000 0.634424 0.180941
1.000000 0.656916 0.228153
1.000000 0.676692 0.267765
1.000000 0.719326 0.346777
1.000000 0.732998 0.377844
1.000000 0.745266 0.407233
1.000000 0.756619 0.435309
1.000000 0.767239 0.462440
1.000000 0.777188 0.489082
1.000000 0.786801 0.515404
1.000000 0.796048 0.541711
1.000000 0.804898 0.567651
1.000000 0.813382 0.593286
0.000000 0.585779 0.337041
0.000000 0.587488 0.336461
0.000000 0.591608 0.331243
0.000000 0.601587 0.321721
0.000000 0.593652 0.098451
0.000000 0.534264 0.000000
0.435767 0.384466 0.192081
0.562493 0.387182 0.212680
0.731777 0.444190 0.128725
0.858305 0.484718 0.000000
0.949279 0.516472 0.000000
0.984100 0.521660 0.000000
1.000000 0.530053 0.000000
1.000000 0.541558 0.000000
1.000000 0.556054 0.000000
1.000000 0.576959 0.000000
1.000000 0.602930 0.000000
1.000000 0.626093 0.000000
1.000000 0.647303 0.023163
1.000000 0.667811 0.164614
1.000000 0.686854 0.224308
1.000000 0.704372 0.272251
1.000000 0.720302 0.314122
1.000000 0.734798 0.352422
1.000000 0.747646 0.387182
1.000000 0.759060 0.418647
1.000000 0.769223 0.448096
1.000000 0.778683 0.476020
1.000000 0.787778 0.503410
1.000000 0.796475 0.530205
1.000000 0.804929 0.556817
1.000000 0.813107 0.583001
0.000000 0.688991 0.410895
0.000000 0.689509 0.409888
0.000000 0.692775 0.405646
0.000000 0.699153 0.397101
0.000000 0.705959 0.361761
0.000000 0.682155 0.000000
0.257023 0.603632 0.000000
0.521294 0.462562 0.241337
0.620905 0.459419 0.276341
0.769924 0.518578 0.225589
0.880217 0.560601 0.138735
0.960418 0.591791 0.000000
1.000000 0.604425 0.000000
1.000000 0.607324 0.000000
1.000000 0.617548 0.000000
1.000000 0.633722 0.000000
1.000000 0.649378 0.000000
1.000000 0.663905 0.026398
1.000000 0.677729 0.129946
1.000000 0.691096 0.174197
1.000000 0.704005 0.208743
1.000000 0.716335 0.240238
1.000000 0.729641 0.286778
1.000000 0.742275 0.329534
1.000000 0.753872 0.367437
1.000000 0.764004 0.401526
1.000000 0.773251 0.432959
1.000000 0.781949 0.462440
1.000000 0.790341 0.491188
1.000000 0.798489 0.519066
1.000000 0.806394 0.546593
1.000000 0.814176 0.573510
0.000000 0.766598 0.484413
0.000000 0.767208 0.483833
0.000000 0.769100 0.480354
0.000000 0.773648 0.473823
0.000000 0.779782 0.462654
0.000000 0.771847 0.300237
0.000000 0.745266 0.000000
0.437171 0.658289 0.139895
0.592554 0.533349 0.297124
0.669368 0.524285 0.340215
0.800137 0.582879 0.308385
0.896178 0.625299 0.264805
0.964599 0.653254 0.196567
1.000000 0.674525 0.000000
1.000000 0.684199 0.000000
1.000000 0.690272 0.060975
1.000000 0.697169 0.134737
1.000000 0.704616 0.171878
1.000000 0.712398 0.201602
1.000000 0.720760 0.228977
1.000000 0.729488 0.255314
1.000000 0.738094 0.278111
1.000000 0.746578 0.301396
1.000000 0.754543 0.322057
1.000000 0.762356 0.345586
1.000000 0.771145 0.382879
1.000000 0.779294 0.416754
1.000000 0.787015 0.448249
1.000000 0.794553 0.478553
1.000000 0.801877 0.507744
1.000000 0.809140 0.536156
1.000000 0.816281 0.563928
0.000000 0.823819 0.555932
0.000000 0.824125 0.554894
0.000000 0.825284 0.552483
0.000000 0.828031 0.547204
0.000000 0.832700 0.538750
0.000000 0.835966 0.506096
0.000000 0.819394 0.247288
0.000000 0.787655 0.000000
0.549798 0.702693 0.246830
0.650324 0.593439 0.354223
0.708431 0.579187 0.399603
0.825254 0.638819 0.385382
0.911162 0.683040 0.366552
0.969604 0.709468 0.337591
1.000000 0.727779 0.289891
1.000000 0.740505 0.208316
1.000000 0.741878 0.229892
1.000000 0.744564 0.251194
1.000000 0.748013 0.268925
1.000000 0.752255 0.288151
1.000000 0.756771 0.305241
1.000000 0.761501 0.322087
1.000000 0.766384 0.337743
1.000000 0.771237 0.351293
1.000000 0.775845 0.364172
1.000000 0.780117 0.375372
1.000000 0.785031 0.393683
1.000000 0.791867 0.428351
1.000000 0.798672 0.460914
1.000000 0.805386 0.492409
1.000000 0.812070 0.522728
1.000000 0.818753 0.552178
0.000000 0.862425 0.615991
0.000000 0.862608 0.615778
0.000000 0.863615 0.614191
0.000000 0.865751 0.610254
0.000000 0.869139 0.604059
0.000000 0.873777 0.595087
0.000000 0.868711 0.486641
0.000000 0.854765 0.200626
0.253483 0.813504 0.205417
0.639155 0.744381 0.336217
0.707362 0.654231 0.419745
0.751247 0.639490 0.467536
0.851133 0.692714 0.461646
0.921386 0.727596 0.452277
0.971923 0.749142 0.435309
1.000000 0.765316 0.406104
1.000000 0.776608 0.360388
1.000000 0.781247 0.321294
1.000000 0.781094 0.332677
1.000000 0.781765 0.344030
1.000000 0.783047 0.355169
1.000000 0.784909 0.365972
1.000000 0.787411 0.377600
1.000000 0.789975 0.388190
1.000000 0.792569 0.396887
1.000000 0.795163 0.405035
1.000000 0.797665 0.412451
1.000000 0.800046 0.418616
1.000000 0.804685 0.443885
1.000000 0.810544 0.477424
1.000000 0.816464 0.509361
1.000000 0.822385 0.540215
0.000000 0.890043 0.668940
0.000000 0.890349 0.668544
0.000000 0.891173 0.667170
0.000000 0.892821 0.664637
0.000000 0.895720 0.661128
0.000000 0.900420 0.656519
0.000000 0.904936 0.639033
0.000000 0.896147 0.486458
0.000000 0.882414 0.282139
0.508904 0.841276 0.342473
0.716030 0.784360 0.422553
0.755917 0.707546 0.482307
0.803769 0.712245 0.555596
0.884154 0.754604 0.558984
0.938933 0.779812 0.557763
0.983276 0.798367 0.548791
1.000000 0.811368 0.529808
1.000000 0.819883 0.500084
1.000000 0.824460 0.456886
1.000000 0.823453 0.440925
1.000000 0.821408 0.444526
1.000000 0.820005 0.448127
1.000000 0.819120 0.451942
1.000000 0.818845 0.456062
1.000000 0.818631 0.458686
1.000000 0.818662 0.461494
1.000000 0.818601 0.462470
1.000000 0.818814 0.463935
1.000000 0.819089 0.464851
1.000000 0.820432 0.473854
1.000000 0.824857 0.505821
1.000000 0.829557 0.536706
0.000000 0.922240 0.736233
0.000000 0.922332 0.735927
0.000000 0.922881 0.734859
0.000000 0.924224 0.733028
0.000000 0.926299 0.730190
0.000000 0.929290 0.726162
0.000000 0.933654 0.720699
0.000000 0.930694 0.658473
0.000000 0.921660 0.511864
0.174746 0.902770 0.401617
0.648829 0.863157 0.455848
0.780331 0.819883 0.511223
0.805753 0.760830 0.554284
0.820890 0.738674 0.593561
0.890959 0.775692 0.601770
0.941222 0.799008 0.603784
0.981903 0.816159 0.598749
1.000000 0.828183 0.585443
1.000000 0.836118 0.563897
1.000000 0.840635 0.532738
1.000000 0.842069 0.489448
1.000000 0.839170 0.489815
1.000000 0.836942 0.490974
1.000000 0.835111 0.490700
1.000000 0.833768 0.491402
1.000000 0.832670 0.491554
1.000000 0.831724 0.491066
1.000000 0.830930 0.490150
1.000000 0.830320 0.488563
1.000000 0.829831 0.487068
1.000000 0.829465 0.485786
1.000000 0.833433 0.518975
0.000000 0.940154 0.775814
0.000000 0.940154 0.775509
0.000000 0.940490 0.774411
0.000000 0.941344 0.772549
0.000000 0.942809 0.769863
0.000000 0.944976 0.766354
0.000000 0.948028 0.762020
0.000000 0.951720 0.753872
0.000000 0.943969 0.661280
0.000000 0.935424 0.514946
0.472023 0.913176 0.468879
0.721248 0.875120 0.523980
0.813962 0.837095 0.565698
0.832029 0.788174 0.597162
0.837125 0.762905 0.630549
0.897642 0.794064 0.639673
0.944121 0.815335 0.642267
0.981170 0.830991 0.639612
1.000000 0.842283 0.630610
1.000000 0.849882 0.615259
1.000000 0.854368 0.592218
1.000000 0.856260 0.560449
1.000000 0.855009 0.532647
1.000000 0.852079 0.530175
1.000000 0.849668 0.528466
1.000000 0.847562 0.525963
1.000000 0.845579 0.522637
1.000000 0.843870 0.519707
1.000000 0.842374 0.516320
1.000000 0.841093 0.513115
1.000000 0.839780 0.508537
1.000000 0.838499 0.503441
0.000000 0.953521 0.806455
0.000000 0.953582 0.806180
0.000000 0.953826 0.805295
0.000000 0.954406 0.803708
0.000000 0.955474 0.801297
0.000000 0.957092 0.798337
0.000000 0.959503 0.794827
0.000000 0.962768 0.790768
0.000000 0.961486 0.755886
0.000000 0.954376 0.664790
0.010193 0.946044 0.530327
0.613336 0.919829 0.537041
0.773892 0.886168 0.580652
0.840726 0.852079 0.612207
0.852476 0.809537 0.634699
0.850797 0.782803 0.662593
0.904509 0.810056 0.672023
0.947143 0.829526 0.675105
0.981353 0.844144 0.674128
1.000000 0.854673 0.668147
1.000000 0.861906 0.656825
1.000000 0.866453 0.639796
1.000000 0.868589 0.615717
1.000000 0.868284 0.581994
1.000000 0.865446 0.566461
1.000000 0.862394 0.561791
1.000000 0.859648 0.556970
1.000000 0.857237 0.552544
1.000000 0.855009 0.547478
1.000000 0.853056 0.542687
1.000000 0.851164 0.537102
1.000000 0.849241 0.530419
0.285618 0.963500 0.829984
0.283238 0.963622 0.829923
0.273655 0.963958 0.829465
0.254276 0.964508 0.828519
0.217350 0.965515 0.827085
0.148806 0.966918 0.825284
0.000000 0.968994 0.823117
0.000000 0.971740 0.820462
0.000000 0.975189 0.817258
0.000000 0.970062 0.760952
0.232670 0.963745 0.672999
0.465644 0.951843 0.585351
0.700740 0.926421 0.595911
0.813138 0.895995 0.627527
0.862089 0.864591 0.649317
0.867704 0.825589 0.665553
0.861295 0.798245 0.688838
0.910185 0.823056 0.698390
0.949859 0.841398 0.702327
0.981445 0.855222 0.702785
1.000000 0.865415 0.699336
1.000000 0.872709 0.691524
1.000000 0.877256 0.678859
1.000000 0.879484 0.660090
1.000000 0.879484 0.634333
1.000000 0.877256 0.599786
1.000000 0.873899 0.593713
1.000000 0.870756 0.587488
1.000000 0.867826 0.580560
1.000000 0.865080 0.573571
1.000000 0.862455 0.566155
1.000000 0.859770 0.557214
0.422309 0.971374 0.849302
0.421607 0.971435 0.849241
0.416846 0.971679 0.848875
0.408057 0.972229 0.848203
0.395575 0.972992 0.847257
0.375830 0.974212 0.845914
0.346075 0.975952 0.844205
0.306737 0.978058 0.842191
0.242466 0.980774 0.839658
0.239170 0.980774 0.820279
0.336339 0.975708 0.761929
0.402960 0.970184 0.675532
0.593530 0.955840 0.625147
0.757595 0.931640 0.639979
0.841886 0.904448 0.663874
0.879881 0.875731 0.680720
0.881773 0.840146 0.693111
0.870665 0.812253 0.713375
0.916472 0.835660 0.723171
0.953216 0.852873 0.727596
0.982300 0.865995 0.729122
1.000000 0.875883 0.727260
1.000000 0.882841 0.721798
1.000000 0.887297 0.712184
1.000000 0.889403 0.697414
1.000000 0.889433 0.676600
1.000000 0.887480 0.647700
1.000000 0.883879 0.622004
1.000000 0.880461 0.614771
1.000000 0.877134 0.605982
1.000000 0.873960 0.597620
1.000000 0.870695 0.587335
0.518456 0.977966 0.866941
0.518608 0.978058 0.867002
0.559686 0.981323 0.875517
0.555474 0.981720 0.875059
0.549340 0.982269 0.874327
0.539422 0.983154 0.873198
0.526879 0.984314 0.871855
0.508995 0.985901 0.870054
0.486976 0.987884 0.868040
0.457374 0.990295 0.865537
0.481941 0.987549 0.832334
0.512139 0.983398 0.778500
0.539086 0.978729 0.698909
0.695949 0.963348 0.678309
0.811704 0.940887 0.693446
0.872953 0.917021 0.709712
0.901152 0.891112 0.720394
0.899779 0.858457 0.728237
0.884398 0.830442 0.743709
0.926482 0.851560 0.751980
0.959625 0.867155 0.755795
0.985809 0.879088 0.757137
1.000000 0.887938 0.755825
1.000000 0.894102 0.751583
1.000000 0.897765 0.743496
1.000000 0.899351 0.731350
1.000000 0.899016 0.713741
1.000000 0.896849 0.689143
1.000000 0.892943 0.655756
1.000000 0.888914 0.639216
1.000000 0.885191 0.629053
1.000000 0.881468 0.617884
0.596429 0.984070 0.883696
0.599207 0.984344 0.884337
0.601312 0.984710 0.884916
0.601282 0.985229 0.885191
0.598810 0.985901 0.885069
0.593500 0.986633 0.884459
0.585199 0.987549 0.883421
0.573022 0.988830 0.881956
0.558770 0.990295 0.880308
0.540124 0.992187 0.878264
0.530510 0.992889 0.867948
0.552026 0.989654 0.829709
0.571435 0.985962 0.776181
0.614527 0.980133 0.710689
0.746304 0.965118 0.701503
0.839261 0.943999 0.718532
0.888884 0.922515 0.731197
0.912413 0.899077 0.740078
0.910613 0.869352 0.747036
0.893065 0.841154 0.760983
0.932494 0.861204 0.768917
0.963470 0.876249 0.773220
0.987671 0.887602 0.774899
1.000000 0.895933 0.774289
1.000000 0.901640 0.770901
1.000000 0.905089 0.764462
1.000000 0.906615 0.754635
1.000000 0.906401 0.740658
1.000000 0.904509 0.721065
1.000000 0.900847 0.693111
1.000000 0.895781 0.658747
1.000000 0.891722 0.646906
0.639887 0.987884 0.894133
0.642206 0.988098 0.894713
0.643946 0.988464 0.895201
0.644770 0.988861 0.895537
0.643336 0.989410 0.895506
0.639643 0.989990 0.895018
0.633600 0.990753 0.894163
0.625940 0.991669 0.893065
0.616083 0.992859 0.891691
0.603906 0.994263 0.890074
0.588952 0.995941 0.888090
0.594293 0.994720 0.866789
0.607568 0.991913 0.828855
0.620874 0.988769 0.776455
0.685359 0.981140 0.732601
0.789792 0.966735 0.728786
0.862638 0.948119 0.741909
0.903532 0.928832 0.751827
0.923583 0.907683 0.759030
0.921813 0.880613 0.764950
0.904875 0.853696 0.777310
0.939117 0.870756 0.784726
0.967681 0.885008 0.788968
0.990112 0.895659 0.790555
1.000000 0.903380 0.790280
1.000000 0.908629 0.787625
1.000000 0.911803 0.782376
1.000000 0.913207 0.774411
1.000000 0.913024 0.762997
1.000000 0.911376 0.747189
1.000000 0.908049 0.724544
1.000000 0.902831 0.691005
0.677241 0.991241 0.903563
0.678981 0.991424 0.904021
0.680598 0.991638 0.904417
0.681270 0.991943 0.904662
0.680354 0.992340 0.904601
0.677516 0.992828 0.904204
0.673152 0.993439 0.903502
0.667475 0.994171 0.902556
0.660548 0.995087 0.901488
0.652216 0.996185 0.900145
0.642054 0.997467 0.898558
0.632685 0.998505 0.893828
0.641810 0.996490 0.865934
0.651118 0.994141 0.829099
0.660456 0.991424 0.777768
0.736934 0.982696 0.751919
0.822934 0.969146 0.752316
0.882261 0.952880 0.763027
0.917174 0.935943 0.771725
0.935180 0.917388 0.778317
0.934417 0.893400 0.784146
0.920470 0.869200 0.795651
0.948211 0.882597 0.802762
0.974060 0.896056 0.807370
0.994049 0.905943 0.809537
1.000000 0.912963 0.809720
1.000000 0.917571 0.807645
1.000000 0.920226 0.803342
1.000000 0.921263 0.796750
1.000000 0.920867 0.787411
1.000000 0.919127 0.774533
1.000000 0.915862 0.756191
0.724300 0.994324 0.914946
0.724849 0.994385 0.915099
0.724849 0.994507 0.915129
0.724147 0.994659 0.915007
0.722377 0.994934 0.914672
0.719692 0.995239 0.914153
0.716091 0.995697 0.913481
0.711696 0.996277 0.912657
0.706172 0.996979 0.911620
0.700374 0.997833 0.910552
0.692958 0.998840 0.909209
0.684382 0.999969 0.907652
0.682338 0.999847 0.895079
0.687343 0.998291 0.867948
0.692317 0.996521 0.832151
0.698573 0.994385 0.783322
0.779599 0.985107 0.772183
0.850706 0.972564 0.775143
0.899229 0.958404 0.783291
0.929412 0.943328 0.790097
0.945586 0.926665 0.795438
0.945464 0.904814 0.800259
0.933440 0.882353 0.810605
0.954986 0.891966 0.817105
0.978180 0.904265 0.821408
0.996216 0.913329 0.823545
1.000000 0.919707 0.823819
1.000000 0.923919 0.822232
1.000000 0.926238 0.818601
1.000000 0.927001 0.812711
1.000000 0.926360 0.804105
1.000000 0.924376 0.792172
0.755489 0.995789 0.922423
0.755856 0.995850 0.922515
0.756100 0.995911 0.922576
0.755459 0.996063 0.922454
0.754421 0.996216 0.922210
0.752346 0.996490 0.921782
0.749355 0.996887 0.921172
0.746059 0.997345 0.920470
0.742031 0.997894 0.919615
0.737392 0.998566 0.918669
0.731838 0.999359 0.917510
0.725307 1.000000 0.916167
0.717281 1.000000 0.914549
0.718807 1.000000 0.895293
0.721065 0.999420 0.869047
0.723629 0.998138 0.834592
0.741207 0.995361 0.795987
0.810788 0.987030 0.788052
0.871580 0.975494 0.793210
0.912963 0.963195 0.800381
0.939666 0.949981 0.806516
0.954650 0.935363 0.811551
0.955535 0.915892 0.816129
0.945617 0.895476 0.826108
0.960693 0.900237 0.829862
0.981628 0.911559 0.833890
0.998077 0.919951 0.836149
1.000000 0.925811 0.836606
1.000000 0.929656 0.835477
1.000000 0.931640 0.832242
1.000000 0.932128 0.826932
1.000000 0.931243 0.818936
0.790158 0.996643 0.930541
0.791165 0.996643 0.930755
0.791226 0.996704 0.930755
0.790280 0.996826 0.930541
0.788724 0.996948 0.930175
0.786496 0.997162 0.929656
0.783413 0.997436 0.928954
0.779934 0.997803 0.928130
0.775875 0.998230 0.927214
0.771267 0.998779 0.926146
0.766171 0.999390 0.924956
0.760128 1.000000 0.923644
0.753567 1.000000 0.922118
0.747799 1.000000 0.915648
0.747097 1.000000 0.895415
0.746487 1.000000 0.869566
0.746639 0.999176 0.835599
0.775082 0.995544 0.807584
0.833158 0.988312 0.799649
0.886778 0.977630 0.806882
0.923125 0.966796 0.813535
0.947295 0.955077 0.819394
0.961395 0.942016 0.824094
0.962982 0.924529 0.828336
0.954528 0.905638 0.837766
0.966705 0.909209 0.843626
0.985290 0.919341 0.847135
1.000000 0.926848 0.849119
1.000000 0.932006 0.849454
1.000000 0.935271 0.848356
1.000000 0.936858 0.845457
1.000000 0.937072 0.840604
0.812589 0.996857 0.935851
0.813321 0.996857 0.936034
0.813565 0.996887 0.936065
0.813260 0.996948 0.935973
0.812253 0.997070 0.935729
0.811032 0.997223 0.935393
0.809171 0.997467 0.934936
0.807126 0.997742 0.934386
0.804562 0.998108 0.933745
0.801663 0.998505 0.932982
0.798245 0.998993 0.932067
0.794156 0.999542 0.931029
0.789395 1.000000 0.929778
0.783505 1.000000 0.928283
0.779599 1.000000 0.917021
0.777005 1.000000 0.897673
0.774777 1.000000 0.873106
0.773251 0.999969 0.841001
0.807462 0.995972 0.822446
0.856748 0.989441 0.817136
0.901640 0.980377 0.823423
0.933318 0.971099 0.829313
0.955077 0.961059 0.834623
0.968505 0.949798 0.839261
0.971099 0.934569 0.843565
0.964508 0.917845 0.853056
0.973175 0.919219 0.859007
0.989380 0.928099 0.862089
1.000000 0.934783 0.864134
1.000000 0.939178 0.864530
1.000000 0.941833 0.863676
1.000000 0.942931 0.861173
0.837247 0.996582 0.941680
0.837461 0.996582 0.941741
0.837491 0.996612 0.941711
0.837064 0.996643 0.941619
0.836362 0.996735 0.941405
0.835142 0.996887 0.941070
0.833768 0.997070 0.940703
0.831937 0.997284 0.940185
0.829892 0.997559 0.939605
0.827573 0.997894 0.938933
0.824918 0.998260 0.938140
0.821714 0.998688 0.937224
0.818021 0.999176 0.936187
0.813565 0.999725 0.934936
0.808286 1.000000 0.933043
0.804593 1.000000 0.918334
0.800961 1.000000 0.899962
0.797635 1.000000 0.876555
0.795315 1.000000 0.846433
0.832609 0.996216 0.835386
0.875242 0.990326 0.832242
0.913481 0.982635 0.837766
0.941405 0.974701 0.843015
0.961303 0.966033 0.847959
0.974121 0.956359 0.852476
0.977661 0.943236 0.856901
0.972503 0.928344 0.866300
0.978241 0.927733 0.872282
0.992370 0.935485 0.874876
1.000000 0.941375 0.876921
1.000000 0.945190 0.877623
1.000000 0.947387 0.877073
0.857328 0.996033 0.946532
0.857572 0.996002 0.946563
0.857542 0.996033 0.946563
0.857389 0.996063 0.946502
0.857145 0.996124 0.946380
0.856687 0.996216 0.946227
0.856443 0.996307 0.946075
0.856138 0.996429 0.945892
0.855894 0.996551 0.945708
0.855619 0.996704 0.945495
0.855039 0.996918 0.945159
0.854215 0.997131 0.944732
0.852781 0.997406 0.944152
0.850706 0.997742 0.943359
0.847929 0.998138 0.942382
0.843870 0.998566 0.937346
0.839506 0.998932 0.924193
0.835019 0.999298 0.907805
0.831052 0.999634 0.887419
0.830228 0.999664 0.862882
0.861662 0.996185 0.855711
0.895781 0.991394 0.854032
0.926665 0.985443 0.858152
0.950561 0.979187 0.862608
0.968353 0.972442 0.867094
0.980652 0.964843 0.871611
0.985351 0.954528 0.876463
0.982025 0.942229 0.885954
0.985290 0.940337 0.892180
0.996368 0.946166 0.893797
1.000000 0.950713 0.895567
1.000000 0.953491 0.896178
0.883604 0.994690 0.952911
0.883635 0.994690 0.952911
0.883513 0.994690 0.952880
0.883116 0.994720 0.952728
0.882628 0.994812 0.952575
0.882017 0.994873 0.952392
0.881346 0.994965 0.952148
0.880522 0.995087 0.951843
0.879667 0.995209 0.951507
0.878660 0.995361 0.951110
0.877531 0.995544 0.950652
0.876249 0.995758 0.950134
0.874632 0.995972 0.949523
0.872587 0.996246 0.948730
