20 Preset/Ins style/【3】LUT video cho PR-AE-FCPX/Tone (6).cube
# Created by Adobe Lightroom plugin Export LUT (1.24.0)
# www.johnrellis.com/lightroom/exportlut.htm
# Preset: INS网红琥珀色-素材江湖04
# Color profile: C:\Program Files (x86)\Common Files\Adobe\Color\Profiles\Recommended\VideoHD.icc
LUT_3D_SIZE 5
DOMAIN_MIN 0.000000 0.000000 0.000000
DOMAIN_MAX 0.903226 0.903226 0.903226
0.001343 0.001953 0.004211
0.645075 0.000000 0.025788
1.000000 0.391394 0.000000
1.000000 0.665095 0.322667
1.000000 0.772671 0.509697
0.000000 0.688991 0.410895
0.521294 0.462562 0.241337
1.000000 0.617548 0.000000
1.000000 0.716335 0.240238
1.000000 0.790341 0.491188
0.000000 0.953521 0.806455
0.000000 0.962768 0.790768
0.852476 0.809537 0.634699
1.000000 0.866453 0.639796
1.000000 0.855009 0.547478
0.724300 0.994324 0.914946
0.711696 0.996277 0.912657
0.692317 0.996521 0.832151
0.945464 0.904814 0.800259
1.000000 0.926238 0.818601
0.899962 0.993591 0.957061
0.898100 0.993866 0.956329
0.880552 0.995789 0.950652
0.867033 0.997986 0.880278
0.992798 0.966674 0.898802
0.000000 0.113619 0.478492
0.501640 0.439979 0.452491
0.963470 0.498360 0.400610
1.000000 0.702907 0.489357
1.000000 0.776425 0.527977
0.286717 0.543267 0.483040
0.597559 0.525109 0.457771
0.967407 0.672663 0.496986
1.000000 0.753964 0.532128
1.000000 0.798398 0.554253
0.528374 0.919188 0.811093
0.430701 0.930388 0.801968
0.827634 0.787686 0.671443
1.000000 0.872709 0.702327
1.000000 0.868284 0.665583
0.776242 0.988037 0.920623
0.768063 0.989990 0.919036
0.747585 0.991119 0.858946
0.941283 0.901457 0.812558
1.000000 0.928954 0.831846
0.912627 0.992187 0.960266
0.910918 0.992432 0.959533
0.904601 0.993408 0.956695
0.883207 0.996246 0.896391
0.992554 0.967590 0.906371
0.637781 0.517571 0.857023
0.805234 0.630213 0.841947
0.863401 0.843046 0.831815
0.986999 0.752010 0.734066
1.000000 0.819913 0.749660
0.639033 0.681453 0.824613
0.774014 0.721157 0.817166
0.863005 0.852506 0.837003
0.978576 0.762234 0.722011
1.000000 0.837583 0.765682
0.742947 0.859464 0.819699
0.776974 0.851041 0.811460
0.867002 0.831693 0.786740
0.996277 0.878355 0.817441
1.000000 0.887572 0.809567
0.858366 0.971588 0.930053
0.867674 0.969268 0.929503
0.852964 0.977874 0.924193
0.927001 0.891447 0.846006
1.000000 0.939330 0.874662
0.938079 0.988952 0.967407
0.942016 0.988617 0.968261
0.940215 0.989258 0.966949
0.921294 0.991577 0.935668
0.989471 0.965606 0.918334
0.840604 0.779080 0.947997
0.885435 0.804562 0.945892
0.964233 0.870512 0.939147
0.958007 0.936736 0.935607
1.000000 0.900450 0.907073
0.846555 0.824033 0.941527
0.883238 0.836515 0.940185
0.958099 0.883543 0.935698
0.956756 0.940154 0.937041
1.000000 0.894224 0.898558
0.800137 0.876280 0.922240
0.830259 0.874601 0.919432
0.932036 0.898436 0.919951
0.958953 0.929168 0.927642
1.000000 0.872953 0.855955
0.887022 0.949248 0.931853
0.895048 0.947051 0.929595
0.914794 0.940673 0.923156
0.957305 0.925139 0.902831
1.000000 0.945281 0.918547
0.942168 0.986969 0.969116
0.945983 0.986847 0.970092
0.960357 0.986328 0.973938
0.971130 0.985840 0.976410
0.985382 0.964935 0.940398
0.920623 0.880674 0.986694
0.934630 0.889006 0.985565
0.971221 0.917449 0.981720
0.991516 0.950195 0.976501
0.983368 0.972137 0.972259
0.925719 0.899321 0.985260
0.937804 0.905577 0.984375
0.970977 0.928466 0.981353
0.990387 0.956054 0.977203
0.983795 0.974090 0.973754
0.925353 0.930297 0.982666
0.936461 0.934203 0.982269
0.967895 0.949401 0.980743
0.987976 0.969177 0.979156
0.985016 0.978820 0.977539
0.918456 0.959350 0.980438
0.925292 0.959899 0.980377
0.945647 0.960540 0.979583
0.983978 0.974792 0.979828
0.986755 0.981109 0.979858
0.955871 0.984985 0.980163
0.959655 0.984710 0.980133
0.970733 0.983886 0.980072
0.982940 0.983337 0.980621
0.988800 0.981872 0.978393
