20 Preset/Ins style/【3】LUT video cho PR-AE-FCPX/Tone (12).cube
# Created by Adobe Lightroom plugin Export LUT (1.24.0)
# www.johnrellis.com/lightroom/exportlut.htm
# Preset: INS网红琥珀色-素材江湖10
# Color profile: C:\Program Files (x86)\Common Files\Adobe\Color\Profiles\Recommended\VideoHD.icc
LUT_3D_SIZE 5
DOMAIN_MIN 0.000000 0.000000 0.000000
DOMAIN_MAX 0.903226 0.903226 0.903226
0.000000 0.000000 0.000000
0.287968 0.008148 0.043061
0.765072 0.000000 0.000000
1.000000 0.298619 0.000000
1.000000 0.519829 0.281498
0.131533 0.261295 0.206821
0.319738 0.284672 0.163821
0.801785 0.373419 0.000000
1.000000 0.476173 0.140505
1.000000 0.606470 0.343755
0.578302 0.730495 0.656306
0.587366 0.730556 0.637476
0.780758 0.743099 0.592554
0.949462 0.778500 0.604273
1.000000 0.796445 0.611719
0.817227 0.898772 0.857053
0.837217 0.900420 0.865995
0.838804 0.902831 0.842374
0.922423 0.897856 0.814817
1.000000 0.917571 0.824704
0.932952 0.977661 0.955596
0.939391 0.977600 0.958190
0.940215 0.976654 0.953155
0.952880 0.979644 0.944579
0.998077 0.979522 0.933806
0.000000 0.084138 0.235508
0.205295 0.157900 0.193240
0.698909 0.000000 0.197665
0.981231 0.323369 0.269047
1.000000 0.524437 0.364385
0.000000 0.275761 0.264012
0.330541 0.304265 0.280461
0.749294 0.364630 0.288975
0.975494 0.478309 0.332799
1.000000 0.600855 0.424201
0.549187 0.709071 0.638483
0.624079 0.714778 0.663539
0.756283 0.719997 0.608484
0.928313 0.769192 0.630976
1.000000 0.795682 0.645533
0.813046 0.896391 0.854917
0.835233 0.899046 0.865293
0.843595 0.902098 0.849943
0.919554 0.896544 0.823087
1.000000 0.917937 0.833005
0.931762 0.978180 0.955749
0.938262 0.978119 0.958251
0.948150 0.979339 0.959991
0.956420 0.981537 0.950103
0.998840 0.981415 0.939757
0.000000 0.238651 0.693263
0.455421 0.382971 0.677455
0.633417 0.519219 0.601526
0.924071 0.403326 0.589776
1.000000 0.485359 0.545342
0.165774 0.408911 0.679896
0.490547 0.490303 0.671412
0.656550 0.565332 0.622431
0.923217 0.462928 0.577996
1.000000 0.582971 0.591882
0.000000 0.647639 0.623438
0.351293 0.655024 0.623835
0.736477 0.719417 0.690120
0.897032 0.751522 0.702327
1.000000 0.785183 0.721401
0.772763 0.878935 0.836240
0.796536 0.882383 0.844358
0.857359 0.897795 0.870573
0.912444 0.893950 0.848478
1.000000 0.918486 0.857206
0.917174 0.978088 0.952117
0.926146 0.978698 0.955352
0.955352 0.980438 0.967498
0.960143 0.982452 0.959503
0.997162 0.981445 0.947631
0.548150 0.568963 0.892546
0.662898 0.644526 0.886778
0.829587 0.806455 0.869474
0.841947 0.795560 0.828397
0.952453 0.731807 0.813230
0.598474 0.654963 0.881346
0.683589 0.699489 0.877623
0.830961 0.815702 0.868009
0.841367 0.799680 0.827573
0.957519 0.735256 0.811154
0.570886 0.734463 0.846830
0.627131 0.743099 0.844816
0.805966 0.814145 0.851835
0.832181 0.798703 0.813657
0.989349 0.755032 0.802243
0.504570 0.822843 0.798764
0.543603 0.823606 0.798154
0.710811 0.837430 0.811185
0.892851 0.883818 0.865629
1.000000 0.897948 0.869474
0.820279 0.975677 0.937743
0.843931 0.975921 0.941283
0.921050 0.979461 0.958618
0.974762 0.986877 0.979431
0.996429 0.984375 0.964691
0.745296 0.770809 0.980102
0.781918 0.791989 0.977234
0.881010 0.859037 0.969421
0.950713 0.935088 0.958801
0.951110 0.912352 0.940581
0.748836 0.789334 0.976104
0.783963 0.806943 0.974090
0.880217 0.864714 0.967773
0.950896 0.935912 0.959136
0.950164 0.912535 0.939635
0.699428 0.812039 0.971160
0.739193 0.823484 0.970550
0.866484 0.876585 0.966308
0.953307 0.939971 0.963653
0.956237 0.923644 0.945861
0.692103 0.879911 0.956909
0.711971 0.880461 0.956481
0.793332 0.889220 0.959106
0.945068 0.942046 0.972381
0.969512 0.943267 0.958465
0.614343 0.950896 0.943297
0.630274 0.950683 0.942809
0.699153 0.953948 0.944976
0.804379 0.958312 0.945129
0.991363 0.984344 0.979980
