20 Preset/Ins style/【3】LUT video cho PR-AE-FCPX/Tone (10).cube
# Created by Adobe Lightroom plugin Export LUT (1.24.0)
# www.johnrellis.com/lightroom/exportlut.htm
# Preset: INS网红琥珀色-素材江湖08
# Color profile: C:\Program Files (x86)\Common Files\Adobe\Color\Profiles\Recommended\VideoHD.icc
LUT_3D_SIZE 5
DOMAIN_MIN 0.000000 0.000000 0.000000
DOMAIN_MAX 0.903226 0.903226 0.903226
0.000000 0.000000 0.000000
0.470161 0.000000 0.000000
0.840787 0.000000 0.000000
1.000000 0.000000 0.000000
1.000000 0.000000 0.000000
0.183902 0.323766 0.109407
0.403021 0.353887 0.268559
0.839261 0.349554 0.148074
1.000000 0.298894 0.065827
1.000000 0.327428 0.137453
0.514702 0.686305 0.236027
0.632441 0.706172 0.359197
0.818936 0.791012 0.713680
0.919524 0.733150 0.587152
1.000000 0.699916 0.546380
0.699001 0.835996 0.498512
0.740200 0.842435 0.556817
0.842802 0.862058 0.723201
0.909575 0.891722 0.851591
0.961944 0.879088 0.812711
0.819699 0.917540 0.744381
0.829099 0.918029 0.738125
0.879789 0.923186 0.790738
0.940520 0.938231 0.855924
0.968566 0.946258 0.913939
0.174319 0.162509 0.235874
0.452705 0.000000 0.215824
0.833463 0.000000 0.103456
0.999512 0.000000 0.000000
1.000000 0.108034 0.000000
0.276463 0.339147 0.310460
0.448005 0.390661 0.338354
0.825345 0.376226 0.226841
0.993561 0.363561 0.132235
1.000000 0.353429 0.153170
0.521294 0.680995 0.332280
0.636652 0.703792 0.430304
0.810147 0.779385 0.700954
0.914672 0.729000 0.579706
1.000000 0.700252 0.546136
0.704005 0.835325 0.521416
0.745174 0.842222 0.574395
0.844663 0.861845 0.726558
0.908782 0.890623 0.849973
0.961364 0.878233 0.811643
0.817838 0.917113 0.744259
0.826963 0.917449 0.737606
0.882750 0.925994 0.794308
0.941833 0.939574 0.857267
0.969390 0.946990 0.914672
0.383520 0.307652 0.537713
0.523827 0.109407 0.580896
0.887419 0.000000 0.436439
0.992157 0.000000 0.269596
1.000000 0.000000 0.123598
0.489937 0.496193 0.553338
0.554528 0.403204 0.605035
0.887846 0.245121 0.467964
0.986206 0.000000 0.298070
1.000000 0.213413 0.209415
0.626886 0.696559 0.665614
0.636316 0.719051 0.653437
0.804074 0.776455 0.731106
0.912810 0.717067 0.625055
1.000000 0.677180 0.543877
0.706203 0.836088 0.674525
0.724147 0.834928 0.656062
0.839170 0.860807 0.773800
0.910857 0.893828 0.859800
0.960510 0.873899 0.807187
0.807187 0.914427 0.770840
0.815549 0.915282 0.763912
0.869047 0.922484 0.784421
0.937713 0.937591 0.852201
0.968994 0.946014 0.913146
0.596155 0.501518 0.723232
0.632013 0.430213 0.734524
0.880919 0.000000 0.758083
1.000000 0.000000 0.597711
1.000000 0.000000 0.428229
0.630213 0.599725 0.729030
0.647974 0.545403 0.739406
0.886992 0.000000 0.766445
1.000000 0.216648 0.611383
1.000000 0.000000 0.442329
0.731106 0.741787 0.734249
0.741176 0.752590 0.744533
0.827237 0.662409 0.787961
0.942016 0.606226 0.668757
1.000000 0.369970 0.487098
0.794766 0.833188 0.815732
0.795926 0.837339 0.816983
0.805264 0.847684 0.803311
0.901518 0.886564 0.864225
0.969085 0.847166 0.796109
0.825620 0.915557 0.853849
0.825589 0.916442 0.849821
0.837644 0.919982 0.832731
0.923674 0.938323 0.863371
0.973358 0.952544 0.925811
0.761257 0.721065 0.847318
0.767056 0.693629 0.850736
0.846799 0.509392 0.865904
1.000000 0.000000 0.840330
1.000000 0.000000 0.721889
0.766842 0.749844 0.844511
0.768856 0.726741 0.847898
0.832975 0.571405 0.862364
1.000000 0.000000 0.840574
1.000000 0.000000 0.727993
0.805234 0.823087 0.834989
0.801144 0.817624 0.839597
0.800351 0.753597 0.853452
1.000000 0.236606 0.847349
1.000000 0.559777 0.762234
0.842039 0.853056 0.845304
0.843656 0.854490 0.846860
0.851835 0.861814 0.854765
0.873716 0.804929 0.872282
1.000000 0.772732 0.815366
0.894469 0.898894 0.895781
0.896361 0.901061 0.898100
0.899107 0.911803 0.907927
0.906340 0.932067 0.918883
0.982147 0.968231 0.958984
