20 Preset/Ins style/【3】LUT video cho PR-AE-FCPX/Tone (13).cube
# Created by Adobe Lightroom plugin Export LUT (1.24.0)
# www.johnrellis.com/lightroom/exportlut.htm
# Preset: INS网红琥珀色-素材江湖11
# Color profile: C:\Program Files (x86)\Common Files\Adobe\Color\Profiles\Recommended\VideoHD.icc
LUT_3D_SIZE 5
DOMAIN_MIN 0.000000 0.000000 0.000000
DOMAIN_MAX 0.903226 0.903226 0.903226
0.000000 0.000000 0.000000
0.259342 0.000000 0.078035
0.592370 0.000000 0.076478
0.867002 0.005310 0.098085
1.000000 0.323033 0.168551
0.131258 0.226688 0.185031
0.247013 0.222599 0.145785
0.598291 0.241733 0.083803
0.860319 0.281498 0.107301
1.000000 0.417090 0.188907
0.439033 0.592889 0.520378
0.437598 0.581079 0.489631
0.554925 0.505272 0.356847
0.806271 0.564111 0.354803
1.000000 0.620264 0.321569
0.712306 0.840665 0.775814
0.741573 0.843107 0.788113
0.707149 0.814328 0.715023
0.757534 0.716793 0.557916
0.944518 0.786831 0.592523
0.900053 0.965362 0.933715
0.910094 0.965576 0.937804
0.903288 0.960327 0.923949
0.897154 0.948486 0.878782
0.958373 0.916869 0.784054
0.000000 0.084932 0.214817
0.187045 0.149020 0.177279
0.570642 0.000000 0.172213
0.834897 0.166964 0.204685
1.000000 0.332769 0.229679
0.044099 0.247196 0.238102
0.277562 0.257603 0.241154
0.578943 0.269047 0.230533
0.832181 0.305394 0.236332
1.000000 0.412634 0.256779
0.425574 0.576654 0.511528
0.490822 0.578241 0.529992
0.543999 0.497383 0.391638
0.791409 0.562524 0.399664
0.997742 0.619623 0.377661
0.707240 0.836881 0.773220
0.739010 0.841123 0.787320
0.718166 0.816861 0.730587
0.755123 0.716243 0.576104
0.942351 0.788296 0.610468
0.897765 0.965698 0.933501
0.907927 0.965911 0.937469
0.917021 0.964782 0.935454
0.904326 0.952331 0.889921
0.962402 0.921599 0.796628
0.000000 0.198581 0.553826
0.342718 0.301762 0.535851
0.499825 0.407721 0.474037
0.825620 0.280583 0.480110
1.000000 0.294530 0.408881
0.153323 0.330114 0.546349
0.380621 0.387335 0.537041
0.530846 0.451545 0.501030
0.824399 0.338140 0.465583
1.000000 0.399420 0.435004
0.119966 0.536736 0.519371
0.300572 0.544701 0.520012
0.596643 0.566094 0.540887
0.801053 0.582940 0.527062
0.982238 0.617243 0.521813
0.659693 0.811276 0.752071
0.691157 0.816709 0.762051
0.761440 0.829404 0.783963
0.753231 0.721065 0.636225
0.942565 0.796048 0.668360
0.873533 0.963897 0.926452
0.887694 0.964996 0.931487
0.932708 0.968750 0.950317
0.915129 0.956817 0.913146
0.956573 0.918212 0.810178
0.381842 0.432837 0.814328
0.524071 0.495583 0.810361
0.739956 0.693782 0.791775
0.759365 0.685817 0.738399
0.915770 0.601434 0.731899
0.436805 0.516625 0.805997
0.547173 0.558892 0.803220
0.741878 0.708766 0.790585
0.760067 0.693782 0.739040
0.926390 0.606134 0.730739
0.412665 0.627192 0.770413
0.487007 0.636011 0.770443
0.719509 0.721279 0.778805
0.763729 0.712215 0.737819
0.968933 0.634455 0.716518
0.343297 0.737697 0.715602
0.393500 0.739742 0.715389
0.603388 0.759915 0.731197
0.789364 0.776913 0.747127
0.970764 0.791806 0.735317
0.719112 0.954376 0.899840
0.756039 0.955383 0.905455
0.876341 0.962463 0.932647
0.955230 0.974060 0.962554
0.954437 0.920562 0.847410
0.669184 0.689418 0.977722
0.718318 0.718013 0.974914
0.847257 0.813474 0.964996
0.940703 0.921752 0.951415
0.940398 0.890562 0.927001
0.675776 0.720943 0.975128
0.722835 0.744564 0.972961
0.850065 0.826841 0.964904
0.943694 0.925780 0.954131
0.941588 0.893828 0.928283
0.605035 0.761471 0.970214
0.662501 0.776425 0.970459
0.837247 0.850401 0.965515
0.950256 0.934936 0.962402
0.948638 0.908141 0.935790
0.579065 0.852415 0.949401
0.611444 0.854002 0.949981
0.728634 0.864439 0.953796
0.931365 0.928618 0.966094
0.956970 0.923796 0.942840
0.422492 0.929229 0.916594
0.453010 0.929534 0.916594
0.561364 0.931914 0.917479
0.721859 0.936522 0.917174
0.968444 0.953216 0.943328
