20 Preset/Ins style/【3】LUT video cho PR-AE-FCPX/Tone (7).cube
# Created by Adobe Lightroom plugin Export LUT (1.24.0)
# www.johnrellis.com/lightroom/exportlut.htm
# Preset: INS网红琥珀色-素材江湖05
# Color profile: C:\Program Files (x86)\Common Files\Adobe\Color\Profiles\Recommended\VideoHD.icc
LUT_3D_SIZE 32
DOMAIN_MIN 0.0 0.0 0.0
DOMAIN_MAX 1.0 1.0 1.0
0.001343 0.001953 0.004211
0.014618 0.002564 0.008392
0.069368 0.008392 0.017823
0.111452 0.024750 0.041932
0.170108 0.046784 0.077272
0.285283 0.032502 0.092958
0.431159 0.000000 0.098177
0.562982 0.000000 0.098024
0.671962 0.000000 0.096773
0.760739 0.000000 0.095033
0.832975 0.116243 0.096376
0.890349 0.195529 0.103609
0.934966 0.262364 0.117494
0.968414 0.323033 0.137667
0.993317 0.378515 0.162783
1.000000 0.429633 0.191409
1.000000 0.475837 0.222110
1.000000 0.516106 0.257145
1.000000 0.550286 0.293584
1.000000 0.579736 0.329259
1.000000 0.605646 0.363378
1.000000 0.628870 0.395422
1.000000 0.649805 0.425635
1.000000 0.669184 0.454932
1.000000 0.687221 0.483253
1.000000 0.704005 0.510704
1.000000 0.719844 0.537469
1.000000 0.734829 0.563470
1.000000 0.749020 0.588586
1.000000 0.762753 0.613245
1.000000 0.775998 0.637201
1.000000 0.788724 0.660273
0.000000 0.012299 0.019867
0.013428 0.009308 0.010895
0.071748 0.015900 0.019013
0.112673 0.032044 0.043122
0.172824 0.053742 0.077119
0.288457 0.044495 0.092897
0.432288 0.000000 0.097200
0.563348 0.000000 0.097139
0.672389 0.000000 0.095216
0.760342 0.000000 0.093507
0.832364 0.128359 0.094331
0.889982 0.200687 0.101625
0.934386 0.266148 0.115480
0.967895 0.325658 0.136172
0.992706 0.380316 0.161196
1.000000 0.430854 0.190066
1.000000 0.476814 0.221439
1.000000 0.516686 0.256291
1.000000 0.550286 0.292149
1.000000 0.579309 0.327794
1.000000 0.605188 0.361730
1.000000 0.628199 0.393805
1.000000 0.649165 0.423926
1.000000 0.668391 0.453040
1.000000 0.686366 0.481514
1.000000 0.703120 0.508995
1.000000 0.718990 0.535790
1.000000 0.734005 0.561761
1.000000 0.748257 0.587060
1.000000 0.762020 0.611749
1.000000 0.775326 0.635798
1.000000 0.788174 0.659113
0.000000 0.066407 0.082002
0.000000 0.070008 0.081697
0.065736 0.045838 0.047791
0.113466 0.064973 0.052125
0.182742 0.089021 0.075624
0.303014 0.092897 0.089937
0.446235 0.052644 0.093019
0.573449 0.000000 0.090761
0.679438 0.010559 0.086610
0.765469 0.104341 0.082216
0.835508 0.167391 0.084413
0.891936 0.226871 0.093965
0.935363 0.284703 0.110048
0.968078 0.339910 0.132113
0.992554 0.391943 0.159060
1.000000 0.440253 0.188937
1.000000 0.484199 0.220737
1.000000 0.522423 0.255955
1.000000 0.554772 0.292241
1.000000 0.582757 0.327611
1.000000 0.607996 0.361486
1.000000 0.630488 0.393683
1.000000 0.650874 0.423774
1.000000 0.669917 0.453071
1.000000 0.687465 0.481300
1.000000 0.704036 0.508812
1.000000 0.719692 0.535485
1.000000 0.734585 0.561547
1.000000 0.748745 0.586877
1.000000 0.762448 0.611597
1.000000 0.775540 0.635584
1.000000 0.788327 0.658808
0.000000 0.123415 0.117281
0.000000 0.124727 0.116213
0.000000 0.128298 0.088808
0.111849 0.106020 0.091951
0.187900 0.119936 0.095888
0.333776 0.143526 0.075319
0.473426 0.144839 0.069734
0.593439 0.146090 0.056306
0.693996 0.159854 0.041352
0.775814 0.187503 0.033906
0.842954 0.226505 0.038361
0.896025 0.271580 0.062593
0.937774 0.320409 0.096651
0.969055 0.368994 0.124239
0.992493 0.415167 0.154482
1.000000 0.459724 0.186160
1.000000 0.499550 0.219638
1.000000 0.534722 0.255833
1.000000 0.564355 0.292241
1.000000 0.590295 0.327611
1.000000 0.613642 0.361547
1.000000 0.635187 0.393683
1.000000 0.654658 0.423713
1.000000 0.672938 0.452979
1.000000 0.690181 0.481636
1.000000 0.706508 0.509300
1.000000 0.721889 0.536217
1.000000 0.736507 0.562371
1.000000 0.750393 0.587640
1.000000 0.763851 0.612299
1.000000 0.776791 0.636103
1.000000 0.789273 0.659205
0.000000 0.220035 0.166720
0.000000 0.221500 0.165896
0.000000 0.225620 0.161807
0.000000 0.229648 0.007385
0.191165 0.173373 0.107057
0.319158 0.181155 0.111757
0.484474 0.213046 0.062776
0.619440 0.237980 0.000000
0.712917 0.250431 0.000000
0.789364 0.270603 0.000000
0.851835 0.297826 0.000000
0.901701 0.332341 0.000000
0.940398 0.370092 0.047669
0.969909 0.410498 0.108827
0.992187 0.450233 0.146548
1.000000 0.489021 0.182437
1.000000 0.523705 0.219303
1.000000 0.553704 0.257145
1.000000 0.579858 0.294255
1.000000 0.602960 0.330205
1.000000 0.624292 0.364141
1.000000 0.643915 0.396033
1.000000 0.661982 0.426001
1.000000 0.679164 0.455238
1.000000 0.695399 0.483650
1.000000 0.711025 0.511406
1.000000 0.725673 0.538109
1.000000 0.739712 0.563989
1.000000 0.753170 0.589166
1.000000 0.766140 0.613550
1.000000 0.778683 0.637140
1.000000 0.790860 0.659937
0.000000 0.352544 0.222782
0.000000 0.353033 0.221347
0.000000 0.355596 0.217166
0.000000 0.360540 0.181827
0.000000 0.357824 0.000000
0.318395 0.257450 0.111940
0.456031 0.254551 0.126223
0.603784 0.295659 0.062409
0.724819 0.338231 0.000000
0.804471 0.361181 0.000000
0.862119 0.379614 0.000000
0.907958 0.404608 0.000000
0.943297 0.433021 0.000000
0.970550 0.464271 0.071290
0.991363 0.495888 0.135134
1.000000 0.527153 0.178805
1.000000 0.555413 0.220340
1.000000 0.579614 0.260533
1.000000 0.600946 0.298985
1.000000 0.620752 0.335149
1.000000 0.639216 0.368963
1.000000 0.656611 0.400885
1.000000 0.679225 0.441566
1.000000 0.694484 0.470039
1.000000 0.708858 0.497566
1.000000 0.722744 0.524224
1.000000 0.736110 0.549920
1.000000 0.748867 0.574884
1.000000 0.761288 0.599054
1.000000 0.773342 0.622461
1.000000 0.785000 0.645136
1.000000 0.796414 0.666987
0.000000 0.492287 0.284428
0.000000 0.492500 0.283238
0.000000 0.493782 0.278202
0.000000 0.497963 0.268437
0.000000 0.497444 0.000000
0.000000 0.475410 0.000000
0.452644 0.350500 0.116243
0.574517 0.341039 0.151156
0.697230 0.385962 0.107027
0.795682 0.429816 0.000000
0.870451 0.471199 0.000000
0.912688 0.487495 0.000000
0.945922 0.506828 0.000000
0.971344 0.528527 0.000000
0.990356 0.550988 0.123323
1.000000 0.574212 0.178531
1.000000 0.594141 0.226474
1.000000 0.612268 0.269749
1.000000 0.628748 0.309300
1.000000 0.644678 0.346014
1.000000 0.660273 0.380529
1.000000 0.675135 0.412665
1.000000 0.689601 0.443091
1.000000 0.703548 0.472419
1.000000 0.716945 0.500359
1.000000 0.729824 0.527001
1.000000 0.742123 0.552605
1.000000 0.753964 0.577173
1.000000 0.765652 0.600977
1.000000 0.777005 0.624048
1.000000 0.788144 0.646448
1.000000 0.799008 0.667964
0.000000 0.607538 0.346014
0.000000 0.607660 0.345281
0.000000 0.608545 0.339971
0.000000 0.610071 0.330388
0.000000 0.611475 0.281132
0.000000 0.606256 0.000000
0.259129 0.563165 0.000000
0.559442 0.439124 0.138308
0.660273 0.424628 0.195102
0.761807 0.469642 0.169162
0.841550 0.511955 0.138705
0.900633 0.551476 0.099245
0.939361 0.578668 0.085786
0.964019 0.591669 0.127352
0.984039 0.606714 0.160067
0.998322 0.620447 0.192874
1.000000 0.632013 0.229801
1.000000 0.643610 0.275029
1.000000 0.655177 0.315587
1.000000 0.667170 0.352392
1.000000 0.679347 0.386511
1.000000 0.691402 0.418433
1.000000 0.703273 0.448432
1.000000 0.715358 0.477607
1.000000 0.727199 0.505394
1.000000 0.738643 0.531670
1.000000 0.749813 0.556817
1.000000 0.760586 0.580865
1.000000 0.771298 0.604303
1.000000 0.781949 0.627008
1.000000 0.792355 0.648951
1.000000 0.802640 0.670069
0.000000 0.700710 0.410712
0.000000 0.701167 0.409766
0.000000 0.701411 0.405127
0.000000 0.702510 0.396735
0.000000 0.704005 0.382849
0.000000 0.700923 0.180972
0.000000 0.690028 0.000000
0.439551 0.633539 0.000000
0.644190 0.520958 0.182223
0.725734 0.502953 0.250095
0.808927 0.546044 0.237736
0.871977 0.584924 0.227970
0.917967 0.619379 0.221195
0.952361 0.649928 0.217868
0.973419 0.663050 0.234928
0.986786 0.668513 0.258396
0.996185 0.673487 0.282689
1.000000 0.678462 0.306401
1.000000 0.684077 0.329900
1.000000 0.691646 0.361761
1.000000 0.700465 0.395422
1.000000 0.709743 0.426734
1.000000 0.719112 0.456153
1.000000 0.729061 0.484535
1.000000 0.739071 0.511833
1.000000 0.748989 0.537621
1.000000 0.758907 0.562402
1.000000 0.768582 0.586053
1.000000 0.778286 0.608820
1.000000 0.787961 0.631006
1.000000 0.797635 0.652430
1.000000 0.807187 0.673060
0.000000 0.773617 0.476265
0.000000 0.773770 0.474830
0.000000 0.773983 0.471382
0.000000 0.774655 0.463600
0.000000 0.775784 0.452003
0.000000 0.775570 0.394507
0.000000 0.769741 0.000000
0.000000 0.751949 0.000000
0.559106 0.692012 0.000000
0.709834 0.592889 0.238010
0.775204 0.572747 0.311498
0.841825 0.612329 0.309178
0.891081 0.646723 0.310399
0.927794 0.675868 0.314031
0.955779 0.699153 0.317662
0.973480 0.713130 0.326146
0.983032 0.713405 0.344213
0.990265 0.714565 0.362921
0.996216 0.716640 0.381170
1.000000 0.719905 0.399145
1.000000 0.723903 0.416449
1.000000 0.728939 0.436683
1.000000 0.735958 0.465187
1.000000 0.743648 0.492500
1.000000 0.751675 0.518791
1.000000 0.760037 0.543908
1.000000 0.768490 0.568048
1.000000 0.777066 0.591180
1.000000 0.785794 0.613672
1.000000 0.794614 0.635309
1.000000 0.803433 0.656245
1.000000 0.812345 0.676539
0.000000 0.826780 0.538720
0.000000 0.826902 0.537438
0.000000 0.827207 0.534997
0.000000 0.827695 0.528099
0.000000 0.828702 0.517998
0.000000 0.829892 0.503685
0.000000 0.826810 0.347814
0.000000 0.821500 0.000000
0.000000 0.795499 0.000000
0.651575 0.739193 0.080507
0.761074 0.654383 0.302037
0.811612 0.634089 0.376074
0.863767 0.668147 0.379248
0.902983 0.696590 0.385779
0.933410 0.719661 0.393072
0.954101 0.734859 0.401312
0.967651 0.744106 0.410376
0.977081 0.747768 0.420966
0.983795 0.747402 0.433692
0.989502 0.748013 0.447333
0.994568 0.749508 0.460060
0.999054 0.751736 0.472633
1.000000 0.755001 0.486336
1.000000 0.759182 0.502525
1.000000 0.765499 0.527947
1.000000 0.772335 0.552331
1.000000 0.779416 0.575616
1.000000 0.786740 0.598108
1.000000 0.794369 0.619806
1.000000 0.802243 0.640986
1.000000 0.810239 0.661311
1.000000 0.818326 0.680903
0.000000 0.865599 0.596185
0.000000 0.865782 0.595148
0.000000 0.866087 0.592859
0.000000 0.866697 0.587793
0.000000 0.867582 0.579797
0.000000 0.868681 0.567590
0.000000 0.869139 0.520836
0.000000 0.864683 0.298466
0.000000 0.854368 0.000000
0.432563 0.823880 0.000000
0.720577 0.776059 0.228000
0.798978 0.706081 0.365332
0.840024 0.691432 0.446082
0.881346 0.719570 0.453498
0.913237 0.741787 0.462928
0.935424 0.756771 0.472663
0.949767 0.765621 0.482734
0.960662 0.771786 0.490913
0.970214 0.777279 0.498207
0.977417 0.777737 0.505394
0.983062 0.777310 0.514580
0.988312 0.777646 0.523003
0.993164 0.778836 0.531914
0.997711 0.780789 0.540856
1.000000 0.783291 0.550256
1.000000 0.787472 0.567163
1.000000 0.792905 0.588891
1.000000 0.798825 0.609827
1.000000 0.805142 0.630304
1.000000 0.811826 0.650111
1.000000 0.818753 0.669306
1.000000 0.825925 0.687953
0.000000 0.895933 0.650813
0.000000 0.896056 0.650416
0.000000 0.896178 0.647974
0.000000 0.896757 0.644007
0.000000 0.897581 0.636988
0.000000 0.898589 0.627100
0.000000 0.900206 0.613367
0.000000 0.897704 0.503716
0.000000 0.893400 0.256626
0.000000 0.877073 0.000000
0.580468 0.845518 0.175387
0.771511 0.807248 0.324102
0.828458 0.750179 0.431037
0.855558 0.728756 0.498970
0.890623 0.752285 0.508965
0.916350 0.769070 0.519127
0.932555 0.778927 0.530175
0.944121 0.785306 0.539666
0.954131 0.790585 0.547417
0.963317 0.795285 0.553674
0.972015 0.799161 0.557763
0.977844 0.798337 0.563500
0.983276 0.798276 0.569940
0.988495 0.798978 0.576287
0.993561 0.800168 0.582788
0.998322 0.801968 0.589807
1.000000 0.804288 0.597375
1.000000 0.809110 0.617548
1.000000 0.814450 0.637293
1.000000 0.820188 0.656458
1.000000 0.826261 0.674952
1.000000 0.832670 0.692958
0.000000 0.911742 0.688289
0.000000 0.911833 0.687953
0.000000 0.912139 0.686183
0.000000 0.912596 0.682582
0.000000 0.913451 0.676875
0.000000 0.914672 0.668940
0.000000 0.916106 0.658289
0.000000 0.916960 0.626184
0.000000 0.913756 0.482399
0.000000 0.910277 0.209689
0.243198 0.889677 0.196384
0.667720 0.860807 0.292180
0.805722 0.829252 0.396521
0.847990 0.781125 0.485145
0.868009 0.759548 0.547967
0.897276 0.778500 0.558526
0.916014 0.789517 0.568933
0.928496 0.796475 0.579461
0.938781 0.801816 0.588281
0.948241 0.806485 0.595056
0.957275 0.810666 0.600183
0.966003 0.814786 0.604395
0.973571 0.816831 0.608026
0.979370 0.816526 0.612146
0.985046 0.816739 0.616144
0.990509 0.817563 0.620600
0.995819 0.818753 0.625177
1.000000 0.820401 0.630030
1.000000 0.824186 0.645258
1.000000 0.828977 0.663539
1.000000 0.834195 0.681239
1.000000 0.839872 0.698543
0.000000 0.920104 0.716060
0.000000 0.920073 0.715877
0.000000 0.920317 0.714626
0.000000 0.920989 0.711452
0.000000 0.921721 0.707210
0.000000 0.922972 0.700526
0.000000 0.924437 0.692195
0.000000 0.926360 0.680964
0.000000 0.925261 0.610071
0.000000 0.922393 0.463386
0.000000 0.915923 0.278874
0.471321 0.895506 0.293553
0.724483 0.870726 0.378729
0.830503 0.846677 0.459419
0.863066 0.805905 0.533471
0.877592 0.784451 0.591211
0.899687 0.798001 0.602350
0.913878 0.805631 0.612238
0.924468 0.811185 0.622004
0.934173 0.815854 0.629541
0.943236 0.820218 0.635767
0.952117 0.824369 0.640772
0.961028 0.828336 0.644465
0.969940 0.832120 0.647150
0.976806 0.832639 0.648920
0.982757 0.832639 0.651392
0.988617 0.833066 0.653986
0.994354 0.834012 0.657282
1.000000 0.835264 0.660395
1.000000 0.838224 0.671565
1.000000 0.842710 0.688533
1.000000 0.847593 0.705074
0.000000 0.925139 0.738979
0.000000 0.925231 0.738643
0.000000 0.925444 0.737575
0.000000 0.926024 0.735256
0.000000 0.926787 0.731899
0.000000 0.927916 0.726772
0.000000 0.929442 0.720058
0.000000 0.931304 0.711330
0.000000 0.932982 0.692012
0.000000 0.930266 0.599207
0.000000 0.927581 0.454353
0.000000 0.916869 0.359533
0.582147 0.898711 0.368750
0.762539 0.877226 0.449531
0.846159 0.858244 0.514855
0.873625 0.824796 0.576501
0.883299 0.803281 0.628992
0.899748 0.812772 0.639734
0.911254 0.818570 0.648798
0.921019 0.823575 0.657435
0.930266 0.828122 0.664576
0.939239 0.832395 0.670466
0.948119 0.836576 0.675441
0.957183 0.840482 0.678798
0.966430 0.844144 0.680720
0.975372 0.847166 0.681666
0.981628 0.847044 0.682948
0.987945 0.847227 0.684016
0.994232 0.847868 0.685512
1.000000 0.848783 0.687007
1.000000 0.851316 0.696071
1.000000 0.855436 0.711635
0.000000 0.929107 0.758938
0.000000 0.929229 0.758572
0.000000 0.929442 0.757839
0.000000 0.929870 0.756191
0.000000 0.930602 0.753323
0.000000 0.931640 0.749325
0.000000 0.933074 0.743801
0.000000 0.934844 0.736599
0.000000 0.936980 0.727626
0.000000 0.936461 0.683284
0.000000 0.933806 0.590265
0.000000 0.931243 0.452003
0.387701 0.917205 0.423102
0.656001 0.900450 0.438880
0.788113 0.882139 0.507561
0.856535 0.866331 0.562615
0.879454 0.838132 0.614527
0.885771 0.817716 0.662257
0.898558 0.824887 0.672755
0.908904 0.829953 0.680720
0.918212 0.834775 0.688655
0.927306 0.839261 0.695155
0.936248 0.843595 0.700862
0.945312 0.847684 0.705104
0.954589 0.851499 0.708003
0.964050 0.855131 0.709651
0.973754 0.858457 0.709926
0.981994 0.859983 0.709682
0.988556 0.860136 0.710048
0.995239 0.860533 0.710292
1.000000 0.861265 0.710811
1.000000 0.863554 0.718715
0.000000 0.932555 0.777279
0.000000 0.932616 0.777127
0.000000 0.933227 0.778836
0.000000 0.933654 0.777432
0.000000 0.934386 0.775051
0.000000 0.935271 0.771847
0.000000 0.936431 0.767453
0.000000 0.938079 0.761624
0.000000 0.940063 0.754238
0.000000 0.942229 0.743771
0.000000 0.939605 0.681758
0.000000 0.937072 0.592615
0.000000 0.933471 0.476722
0.530632 0.918273 0.482185
0.709377 0.902892 0.506645
0.808652 0.887022 0.563226
0.863706 0.873320 0.608515
0.882567 0.849119 0.651942
0.886595 0.830198 0.693782
0.897368 0.836088 0.703059
0.907164 0.840940 0.710292
0.916289 0.845609 0.717250
0.925353 0.850034 0.723201
0.934447 0.854246 0.727901
0.943755 0.858183 0.731380
0.953216 0.861906 0.733700
0.962921 0.865385 0.734890
0.972839 0.868589 0.734798
0.983001 0.871550 0.733364
0.990295 0.872007 0.732784
0.997345 0.872221 0.732052
1.000000 0.872679 0.731411
0.232303 0.935973 0.794491
0.233188 0.936034 0.794583
0.226627 0.936248 0.794339
0.203006 0.936645 0.793271
0.159152 0.937163 0.791653
0.000000 0.938079 0.788937
0.000000 0.939147 0.785153
0.000000 0.940612 0.780331
0.000000 0.942321 0.774350
0.000000 0.944427 0.766934
0.000000 0.944488 0.739406
0.000000 0.941894 0.678859
0.000000 0.939513 0.592950
0.361639 0.932769 0.523491
0.610132 0.919432 0.526360
0.744564 0.905150 0.556695
0.822812 0.891203 0.604395
0.868803 0.878904 0.643549
0.884123 0.857237 0.681025
0.886656 0.839811 0.718746
0.896696 0.845396 0.727230
0.906126 0.850217 0.734157
0.915221 0.854917 0.740536
0.924346 0.859312 0.745937
0.933623 0.863493 0.750057
0.943084 0.867460 0.753292
0.952819 0.871122 0.755093
0.962768 0.874632 0.756100
0.972930 0.877806 0.755917
0.983337 0.880705 0.754391
0.993103 0.882719 0.752071
1.000000 0.882780 0.750637
0.379797 0.939330 0.809720
0.382238 0.939330 0.809934
0.377935 0.939574 0.809628
0.369909 0.939879 0.808896
0.353826 0.940398 0.807431
0.327184 0.941131 0.805234
0.283543 0.942138 0.802121
0.216373 0.943267 0.798276
0.000000 0.944854 0.793240
0.000000 0.946715 0.787106
0.000000 0.948882 0.779751
0.000000 0.946777 0.738705
0.000000 0.944457 0.679622
0.259739 0.942138 0.597833
0.503136 0.933104 0.564721
0.665217 0.921599 0.565911
0.771664 0.908080 0.600885
0.834989 0.895537 0.641352
0.873564 0.884428 0.675074
0.885801 0.864836 0.707454
0.886931 0.848844 0.741482
0.896483 0.854124 0.749111
0.905791 0.858946 0.755398
0.915038 0.863523 0.760891
0.924254 0.867979 0.765896
0.933745 0.872160 0.769619
0.943450 0.876127 0.772335
0.953460 0.879850 0.774105
0.963653 0.883360 0.774960
0.974151 0.886503 0.774441
0.984741 0.889372 0.772946
0.995453 0.891844 0.770047
0.469245 0.943023 0.824399
0.467872 0.943175 0.824308
0.465888 0.943328 0.824125
0.461280 0.943603 0.823575
0.450996 0.944030 0.822354
0.436194 0.944610 0.820554
0.414405 0.945373 0.818082
0.381964 0.946410 0.814755
0.336461 0.947723 0.810727
0.264500 0.949279 0.805661
0.079042 0.951202 0.799527
0.000000 0.951751 0.782620
0.221805 0.949523 0.740078
0.323491 0.947234 0.684474
0.392767 0.945068 0.607599
0.587640 0.934539 0.602350
0.706447 0.924529 0.601740
0.793088 0.911681 0.639551
0.845304 0.900298 0.674983
0.878172 0.890043 0.703761
0.887816 0.872404 0.731777
0.887633 0.857664 0.762905
0.896971 0.862760 0.769528
0.906249 0.867704 0.775631
0.915679 0.872343 0.780667
0.925139 0.876860 0.785183
0.934936 0.881132 0.788540
0.945037 0.885161 0.791073
0.955322 0.888945 0.792630
0.965942 0.892424 0.793088
0.976593 0.895598 0.792721
0.987274 0.898009 0.790249
0.536980 0.947539 0.839292
0.536034 0.947631 0.839200
0.534234 0.947723 0.838926
0.530083 0.947936 0.838285
0.522728 0.948272 0.837186
0.512444 0.948699 0.835630
0.498390 0.949340 0.833616
0.477821 0.950164 0.830838
0.450843 0.951232 0.827420
0.415961 0.952483 0.823423
0.364324 0.954101 0.818326
0.287480 0.955993 0.812406
0.322759 0.954833 0.786069
0.382940 0.952728 0.745327
0.433204 0.950591 0.692348
0.505211 0.947021 0.636133
0.646876 0.937133 0.636500
0.739986 0.928038 0.637140
0.810575 0.915984 0.674281
0.854643 0.905394 0.704189
0.882689 0.895781 0.729335
0.890227 0.879728 0.753445
0.889342 0.866423 0.780758
0.898009 0.870695 0.787320
0.907408 0.875547 0.792660
0.917082 0.880247 0.797177
0.926940 0.884794 0.801144
0.937102 0.889097 0.804135
0.947662 0.893126 0.806088
0.958373 0.896880 0.807248
0.969085 0.900053 0.807004
0.979675 0.902770 0.805722
0.585260 0.952178 0.852384
0.584466 0.952239 0.852293
0.583001 0.952361 0.852049
0.580285 0.952514 0.851621
0.574670 0.952789 0.850645
0.567224 0.953155 0.849363
0.556786 0.953674 0.847623
0.542229 0.954376 0.845304
0.524498 0.955169 0.842588
0.499947 0.956268 0.839048
0.470130 0.957519 0.835080
0.428504 0.959075 0.830137
0.387274 0.960357 0.820645
0.431312 0.958343 0.789883
0.470497 0.956268 0.751522
0.503685 0.954376 0.701442
0.584588 0.949218 0.666499
0.690028 0.940520 0.666133
0.767269 0.931701 0.671992
0.825834 0.920531 0.703853
0.863462 0.910674 0.729885
0.887572 0.901671 0.751614
0.893248 0.886870 0.773037
0.891905 0.875181 0.797208
0.899809 0.878202 0.803098
0.909514 0.882994 0.807553
0.919707 0.887633 0.811154
0.930205 0.892119 0.814115
0.940978 0.896391 0.816312
0.951781 0.900145 0.817411
0.962585 0.903532 0.817685
0.973297 0.906493 0.817044
0.625605 0.957397 0.865354
0.625544 0.957488 0.865354
0.625025 0.957519 0.865232
0.622492 0.957641 0.864744
0.618036 0.957885 0.863890
0.611658 0.958160 0.862699
0.603632 0.958556 0.861143
0.592828 0.959075 0.859190
0.579522 0.959686 0.856779
0.561822 0.960540 0.853849
0.539574 0.961608 0.850309
0.511833 0.962860 0.846189
0.475288 0.964355 0.841276
0.472511 0.964111 0.824918
0.502220 0.962188 0.795163
0.529198 0.960327 0.758236
0.554223 0.958495 0.710048
0.639399 0.952178 0.692042
0.722683 0.944457 0.690791
0.789242 0.935698 0.700710
0.838804 0.925444 0.728206
0.871641 0.916075 0.751522
0.892607 0.907530 0.770840
0.896880 0.893828 0.789914
0.895476 0.883177 0.810636
0.903105 0.885435 0.816312
0.913329 0.890043 0.819547
0.924071 0.894652 0.822354
0.934936 0.898802 0.824125
0.945861 0.902708 0.825376
0.956786 0.906279 0.825986
0.967559 0.909483 0.825895
0.657343 0.962554 0.876890
0.657221 0.962585 0.876890
0.656367 0.962676 0.876738
0.654719 0.962768 0.876371
0.651698 0.962951 0.875731
0.647150 0.963165 0.874815
0.640467 0.963561 0.873503
0.632624 0.963989 0.871946
0.622095 0.964569 0.869932
0.609461 0.965270 0.867582
0.593347 0.966125 0.864683
0.573388 0.967132 0.861295
0.548943 0.968353 0.857359
0.516747 0.969818 0.852537
0.534203 0.968383 0.830259
0.556085 0.966644 0.801877
0.576684 0.964904 0.766384
0.596612 0.963226 0.721523
0.681758 0.956207 0.716121
0.750179 0.949310 0.714107
0.808469 0.940612 0.727138
0.851499 0.930968 0.751583
0.880217 0.922148 0.772213
0.898497 0.914031 0.789609
0.901762 0.901396 0.805875
0.900938 0.891264 0.822263
0.908049 0.892454 0.827054
0.918578 0.896696 0.829099
0.929595 0.900999 0.830900
0.940734 0.905058 0.832181
0.951781 0.908843 0.833066
0.962676 0.912261 0.833341
0.684047 0.968139 0.888029
0.684138 0.968170 0.888060
0.683497 0.968231 0.887938
0.682185 0.968292 0.887633
0.679957 0.968414 0.887114
0.676265 0.968597 0.886320
0.671748 0.968872 0.885313
0.665705 0.969207 0.884001
0.657221 0.969696 0.882322
0.647608 0.970245 0.880339
0.635004 0.970977 0.877897
0.619959 0.971832 0.875059
0.601556 0.972839 0.871733
0.578607 0.974060 0.867826
0.563745 0.974609 0.858762
0.580682 0.973114 0.836332
0.597620 0.971496 0.808927
0.613489 0.970001 0.774838
0.640436 0.967651 0.738888
0.715236 0.960937 0.737514
0.773526 0.954681 0.735073
0.825559 0.946105 0.750454
0.863401 0.937102 0.772091
0.888975 0.928588 0.790311
0.905180 0.920714 0.804776
0.907866 0.908537 0.817563
0.907378 0.898558 0.830564
0.913878 0.898619 0.834958
0.924468 0.902647 0.836393
0.935790 0.906889 0.837766
0.947021 0.910857 0.838712
0.958007 0.914519 0.839353
0.701930 0.974182 0.897765
0.701747 0.974212 0.897734
0.701228 0.974243 0.897612
0.700343 0.974304 0.897398
0.698848 0.974395 0.897032
0.696895 0.974548 0.896544
0.693690 0.974762 0.895842
0.690059 0.975036 0.895018
0.685298 0.975372 0.893919
0.678614 0.975860 0.892515
0.670710 0.976410 0.890837
0.660334 0.977111 0.888731
0.646448 0.978027 0.886046
0.630152 0.979065 0.882963
0.609674 0.980255 0.879301
0.609277 0.979950 0.865965
0.622858 0.978576 0.844633
0.635950 0.977234 0.818753
0.648615 0.975921 0.786526
0.683009 0.972778 0.761135
0.744442 0.966735 0.758938
0.794675 0.960967 0.755550
0.841520 0.952392 0.772091
0.875425 0.943694 0.791104
0.898314 0.935698 0.805905
0.913329 0.928099 0.817136
0.915862 0.916381 0.827420
0.915679 0.906371 0.838193
0.921416 0.905333 0.842405
0.931884 0.909117 0.843381
0.943206 0.913268 0.844572
0.954314 0.917144 0.845457
0.715267 0.980926 0.907073
0.715206 0.980926 0.907073
0.714961 0.980926 0.906981
0.714168 0.980987 0.906767
0.713130 0.981018 0.906493
0.711482 0.981109 0.906065
0.709529 0.981231 0.905516
0.706630 0.981415 0.904784
0.703334 0.981628 0.903929
0.698970 0.981903 0.902892
0.693568 0.982269 0.901579
0.686427 0.982727 0.899931
0.677577 0.983246 0.897948
0.666377 0.983917 0.895537
