20 Preset/Ins style/【3】LUT video cho PR-AE-FCPX/Tone (5).cube
# Created by Adobe Lightroom plugin Export LUT (1.24.0)
# www.johnrellis.com/lightroom/exportlut.htm
# Preset: INS网红琥珀色-素材江湖03
# Color profile: C:\Program Files (x86)\Common Files\Adobe\Color\Profiles\Recommended\VideoHD.icc
LUT_3D_SIZE 32
DOMAIN_MIN 0.0 0.0 0.0
DOMAIN_MAX 1.0 1.0 1.0
0.082856 0.058595 0.033234
0.086793 0.060121 0.034058
0.096376 0.063966 0.035279
0.113832 0.074189 0.039551
0.154391 0.084840 0.042969
0.214939 0.091096 0.043915
0.289128 0.093416 0.040436
0.370642 0.090333 0.030365
0.453925 0.080598 0.012512
0.536461 0.077394 0.000000
0.616114 0.094270 0.000000
0.689937 0.124514 0.000000
0.755245 0.164004 0.000000
0.812314 0.206516 0.000000
0.860166 0.249485 0.000000
0.897948 0.289952 0.071748
0.927794 0.328557 0.128908
0.961151 0.378332 0.188388
0.986206 0.422858 0.243503
1.000000 0.462318 0.295048
1.000000 0.497017 0.342504
1.000000 0.528252 0.386572
1.000000 0.555718 0.425971
1.000000 0.581048 0.462409
1.000000 0.604578 0.495644
1.000000 0.626947 0.526818
1.000000 0.648798 0.557458
1.000000 0.670436 0.587366
1.000000 0.692012 0.616876
1.000000 0.713222 0.645472
1.000000 0.733639 0.672786
1.000000 0.753384 0.698878
0.084474 0.062745 0.034882
0.085725 0.062531 0.034882
0.096925 0.067140 0.035950
0.114839 0.077119 0.039094
0.154665 0.086824 0.043610
0.212802 0.093538 0.044495
0.284703 0.096498 0.041505
0.363409 0.095491 0.031098
0.445899 0.090425 0.013947
0.527092 0.088106 0.000000
0.605829 0.099153 0.000000
0.679957 0.125948 0.000000
0.745632 0.162509 0.000000
0.803555 0.203311 0.000000
0.852537 0.245609 0.000000
0.891936 0.286229 0.059174
0.922972 0.325078 0.123964
0.956329 0.372992 0.182132
0.981415 0.416419 0.235233
1.000000 0.454322 0.284276
1.000000 0.488472 0.330480
1.000000 0.518730 0.373205
1.000000 0.546014 0.411872
1.000000 0.571099 0.447669
1.000000 0.594659 0.481056
1.000000 0.617090 0.512963
1.000000 0.639155 0.543755
1.000000 0.661280 0.574426
1.000000 0.683589 0.605249
1.000000 0.705592 0.635126
1.000000 0.727016 0.663813
1.000000 0.747463 0.690974
0.089693 0.074922 0.037537
0.091279 0.076661 0.038361
0.097017 0.078828 0.041077
0.116640 0.088136 0.043427
0.158145 0.095888 0.045686
0.214603 0.104433 0.046509
0.284276 0.110323 0.042390
0.360967 0.111696 0.031678
0.441016 0.111391 0.015381
0.520745 0.112703 0.000000
0.599359 0.122683 0.000000
0.673152 0.144045 0.000000
0.738705 0.175814 0.000000
0.796597 0.213321 0.000000
0.846281 0.252781 0.000000
0.886351 0.291478 0.069062
0.918273 0.328496 0.125826
0.951965 0.375036 0.182071
0.977081 0.416388 0.232975
0.996063 0.453315 0.280766
1.000000 0.486671 0.326390
1.000000 0.516930 0.368780
1.000000 0.543603 0.406867
1.000000 0.568231 0.442512
1.000000 0.591394 0.475624
1.000000 0.613581 0.507073
1.000000 0.635706 0.538170
1.000000 0.657862 0.569055
1.000000 0.680232 0.599908
1.000000 0.702571 0.630579
1.000000 0.724117 0.659541
1.000000 0.744717 0.687007
0.098970 0.092714 0.046296
0.100343 0.093355 0.047120
0.106386 0.094545 0.049683
0.119203 0.099580 0.055787
0.159701 0.112703 0.057282
0.221164 0.125185 0.050660
0.288121 0.134218 0.045106
0.361639 0.139742 0.033417
0.439826 0.143374 0.015320
0.517418 0.148440 0.000000
0.594598 0.158297 0.000000
0.666529 0.176699 0.000000
0.732082 0.203159 0.000000
0.789303 0.235386 0.000000
0.838926 0.269932 0.005646
0.879240 0.305333 0.089876
0.912413 0.339849 0.134554
0.945129 0.382086 0.185794
0.969574 0.419196 0.231937
0.988525 0.452857 0.276402
1.000000 0.483680 0.318761
1.000000 0.512413 0.359655
1.000000 0.538781 0.397345
1.000000 0.563867 0.434119
1.000000 0.588067 0.468879
1.000000 0.611414 0.502434
1.000000 0.634699 0.535332
1.000000 0.657710 0.567651
1.000000 0.680568 0.599481
1.000000 0.702907 0.630091
1.000000 0.724056 0.658717
1.000000 0.743984 0.685328
0.113222 0.116976 0.057160
0.115419 0.117311 0.057954
0.123598 0.118959 0.060975
0.134890 0.120607 0.068177
0.156893 0.130251 0.078370
0.211246 0.150027 0.072358
0.281407 0.164187 0.058900
0.359258 0.173861 0.036957
0.433448 0.180941 0.021393
0.508965 0.188174 0.001953
0.584100 0.198489 0.000000
0.655543 0.214694 0.000000
0.720272 0.237034 0.000000
0.778317 0.264805 0.000000
0.828824 0.295293 0.053437
0.870329 0.326970 0.110140
0.907042 0.361120 0.151736
0.938811 0.398230 0.198184
0.963256 0.431800 0.241398
0.982513 0.462623 0.283787
0.997864 0.491615 0.324285
1.000000 0.518364 0.363287
1.000000 0.543694 0.400275
1.000000 0.568017 0.436225
1.000000 0.591699 0.471077
1.000000 0.614954 0.504601
1.000000 0.637659 0.537224
1.000000 0.660182 0.569085
1.000000 0.682399 0.600305
1.000000 0.704067 0.630182
1.000000 0.724636 0.658167
1.000000 0.744106 0.684443
0.130617 0.147707 0.069581
0.132326 0.148196 0.070222
0.141665 0.150149 0.072450
0.153933 0.152255 0.079164
0.170809 0.155337 0.087861
0.202396 0.170504 0.094575
0.269535 0.195529 0.089448
0.345922 0.211185 0.080415
0.429755 0.223728 0.047608
0.508263 0.233829 0.022797
0.581048 0.245396 0.012909
0.651087 0.261326 0.010956
0.714839 0.280980 0.029175
0.772000 0.305303 0.072694
0.822446 0.331914 0.107729
0.864408 0.359442 0.139162
0.903502 0.392676 0.179660
0.934325 0.425025 0.221805
0.958434 0.454658 0.262791
0.977722 0.482460 0.302464
0.993225 0.508629 0.341436
1.000000 0.533562 0.378454
1.000000 0.609430 0.490150
1.000000 0.630732 0.522087
1.000000 0.650782 0.551446
1.000000 0.670130 0.579644
1.000000 0.688930 0.606531
1.000000 0.707057 0.632013
1.000000 0.724453 0.656031
1.000000 0.741146 0.678767
1.000000 0.757076 0.700313
1.000000 0.772061 0.720394
0.152773 0.195132 0.084779
0.155276 0.195651 0.084962
0.164889 0.197818 0.087098
0.180972 0.200870 0.090913
0.200229 0.203586 0.097688
0.223453 0.207401 0.108888
0.268070 0.228672 0.119966
0.349554 0.259068 0.116487
0.432380 0.278050 0.112703
0.518944 0.294621 0.108125
0.604669 0.311345 0.096742
0.672480 0.328099 0.106020
0.732906 0.346899 0.120302
0.786893 0.367864 0.139101
0.833097 0.389960 0.162325
0.874479 0.415717 0.193790
0.912108 0.447181 0.235843
0.940307 0.474769 0.276280
0.962585 0.501030 0.315648
0.980896 0.526513 0.355047
0.996033 0.552056 0.395239
1.000000 0.577783 0.435523
1.000000 0.603021 0.474800
1.000000 0.627466 0.512139
1.000000 0.650080 0.545983
1.000000 0.670710 0.576349
1.000000 0.689448 0.603815
1.000000 0.707149 0.629175
1.000000 0.724056 0.652888
1.000000 0.740047 0.675135
1.000000 0.755550 0.696284
1.000000 0.770260 0.716243
0.175235 0.236393 0.097200
0.177310 0.237003 0.097963
0.186282 0.238804 0.099001
0.203769 0.242649 0.102541
0.223117 0.244755 0.110140
0.247196 0.247959 0.121431
0.273014 0.252415 0.136416
0.325078 0.277745 0.151614
0.409461 0.311131 0.153597
0.492439 0.333623 0.155642
0.575372 0.354376 0.162966
0.654261 0.373754 0.160800
0.721126 0.392370 0.164828
0.774105 0.410315 0.180758
0.820920 0.429450 0.200534
0.866514 0.456519 0.234257
0.901030 0.480079 0.268284
0.928313 0.501732 0.301915
0.950744 0.523095 0.336309
0.969482 0.544793 0.371832
0.985260 0.567224 0.407874
0.998444 0.590082 0.445289
1.000000 0.612940 0.482063
1.000000 0.635370 0.517235
1.000000 0.656580 0.549798
1.000000 0.675868 0.579004
1.000000 0.693843 0.605798
1.000000 0.710597 0.630243
1.000000 0.726802 0.653559
1.000000 0.742275 0.675380
1.000000 0.757137 0.696010
1.000000 0.771511 0.715694
0.204135 0.280156 0.117098
0.206241 0.280705 0.117342
0.214298 0.282322 0.119142
0.231113 0.286015 0.122652
0.250431 0.288243 0.129824
0.273899 0.290929 0.141360
0.299443 0.294469 0.155215
0.326757 0.299840 0.173251
0.384741 0.329198 0.191714
0.470314 0.365332 0.199405
0.551110 0.391211 0.206607
0.628168 0.414191 0.217411
0.698329 0.435004 0.225589
0.760952 0.454261 0.230411
0.817563 0.479164 0.252293
0.858366 0.498878 0.279057
0.890715 0.516625 0.306889
0.917113 0.533654 0.335943
0.939605 0.550896 0.365454
0.958648 0.569055 0.396796
0.974884 0.588159 0.429541
0.988556 0.608118 0.463508
1.000000 0.628351 0.497017
1.000000 0.648463 0.529442
1.000000 0.667750 0.559808
1.000000 0.685481 0.587366
1.000000 0.702083 0.612818
1.000000 0.717800 0.636286
1.000000 0.732906 0.658381
1.000000 0.747311 0.679042
1.000000 0.761440 0.698970
1.000000 0.774990 0.717861
0.237858 0.325017 0.143496
0.239536 0.325231 0.143984
0.246860 0.326635 0.145754
0.262272 0.329747 0.149172
0.281254 0.332555 0.155398
0.302403 0.334264 0.165408
0.327123 0.337194 0.178653
0.353979 0.341588 0.195254
0.381384 0.347417 0.214969
0.443061 0.380194 0.236301
0.526299 0.417517 0.247898
0.600946 0.444099 0.258274
0.673030 0.470375 0.274174
0.741878 0.498024 0.297032
0.800473 0.520256 0.309575
0.846891 0.537774 0.324376
0.879362 0.552483 0.348333
0.906096 0.567102 0.374243
0.928801 0.582025 0.401007
0.948058 0.597223 0.429114
0.964385 0.612848 0.457221
0.978180 0.628748 0.485176
0.989837 0.644923 0.513359
0.999786 0.661341 0.540826
1.000000 0.677363 0.567193
1.000000 0.692958 0.592401
1.000000 0.708186 0.616297
1.000000 0.722988 0.638972
1.000000 0.737484 0.660670
1.000000 0.751644 0.681361
1.000000 0.765438 0.701167
1.000000 0.778805 0.720180
0.271885 0.367010 0.172335
0.273075 0.367224 0.172915
0.280095 0.368811 0.174594
0.293675 0.371893 0.178225
0.313329 0.376013 0.184237
0.333227 0.378119 0.194003
0.356817 0.381079 0.206027
0.382879 0.384955 0.221683
0.410376 0.390478 0.240360
0.439521 0.398871 0.262699
0.502373 0.433204 0.285618
0.585901 0.475868 0.305882
0.657496 0.506828 0.323400
0.722530 0.533623 0.343206
0.779202 0.556085 0.365179
0.825620 0.573480 0.382147
0.863493 0.587091 0.396063
0.894133 0.599176 0.412818
0.916747 0.611292 0.435645
0.936034 0.623774 0.459754
0.952789 0.636561 0.483772
0.967071 0.649958 0.508568
0.979431 0.663935 0.533684
0.990082 0.678157 0.558373
0.999207 0.692409 0.582788
1.000000 0.706416 0.605921
1.000000 0.720150 0.628138
1.000000 0.733486 0.649012
1.000000 0.746670 0.669093
1.000000 0.759670 0.688594
1.000000 0.772427 0.707210
1.000000 0.784970 0.725307
0.309697 0.412451 0.206790
0.311528 0.412818 0.207126
0.317266 0.414160 0.208438
0.329625 0.417060 0.212436
0.348425 0.421698 0.218112
0.367773 0.424475 0.227024
0.389990 0.427283 0.238407
0.414832 0.430945 0.253117
0.441352 0.435798 0.270329
0.472084 0.445167 0.293675
0.507439 0.460548 0.322515
0.570611 0.498268 0.350591
0.683314 0.578973 0.418402
0.743954 0.607752 0.440314
0.792996 0.628656 0.462776
0.832670 0.644648 0.485512
0.865507 0.657588 0.505852
0.894255 0.667475 0.517388
0.918883 0.676326 0.529656
0.937957 0.685084 0.545464
0.952544 0.694453 0.564416
0.965148 0.704128 0.583398
0.976196 0.713954 0.602289
0.985901 0.724239 0.620966
0.994629 0.734310 0.638697
1.000000 0.743954 0.655116
1.000000 0.753170 0.670466
1.000000 0.762387 0.685328
1.000000 0.771756 0.700038
1.000000 0.781338 0.714687
1.000000 0.791257 0.729488
1.000000 0.801511 0.744564
0.361242 0.471656 0.255436
0.362493 0.471748 0.255375
0.367620 0.472358 0.256687
0.378180 0.474495 0.259800
0.394263 0.477516 0.264805
0.414008 0.480995 0.272587
0.436744 0.485878 0.285710
0.462837 0.491859 0.302129
0.491249 0.499611 0.321996
0.521447 0.508965 0.345037
0.552850 0.520867 0.372564
0.589532 0.540642 0.406500
0.649226 0.579187 0.438788
0.714626 0.617151 0.464790
0.766995 0.643061 0.487739
0.808286 0.661097 0.509148
0.842191 0.674952 0.529320
0.870939 0.686458 0.548913
0.896330 0.695491 0.561181
0.918547 0.703090 0.571283
0.938048 0.710292 0.582116
0.952056 0.718410 0.598138
0.963928 0.726925 0.615076
0.974731 0.735714 0.631617
0.984466 0.744564 0.647669
0.993286 0.753292 0.663172
1.000000 0.761959 0.677821
1.000000 0.770565 0.692134
1.000000 0.779416 0.706294
1.000000 0.788510 0.720485
1.000000 0.797879 0.734859
1.000000 0.807614 0.749416
0.405951 0.520256 0.299138
0.406561 0.520226 0.299290
0.411444 0.520958 0.300755
0.420905 0.522942 0.303807
0.435676 0.526116 0.309270
0.455848 0.531029 0.317021
0.474434 0.533410 0.327184
0.495796 0.536736 0.340002
0.520134 0.541741 0.356481
0.546654 0.548882 0.376776
0.574304 0.558068 0.400458
0.602502 0.569207 0.427527
0.636744 0.589044 0.460548
0.689418 0.623316 0.489448
0.743404 0.654292 0.512474
0.786069 0.674952 0.532708
0.820676 0.689540 0.551080
0.850126 0.701534 0.568750
0.875731 0.712062 0.586328
0.898009 0.721004 0.601282
0.918517 0.728054 0.610346
0.936889 0.734951 0.620356
0.952544 0.741939 0.631647
0.964233 0.749599 0.646418
0.974762 0.757382 0.660975
0.984436 0.765133 0.675013
0.993347 0.772824 0.688411
1.000000 0.780575 0.701595
1.000000 0.788571 0.714687
1.000000 0.796994 0.728206
1.000000 0.805814 0.741909
1.000000 0.814939 0.755886
0.448585 0.565301 0.343847
0.449592 0.565362 0.344274
0.453010 0.565545 0.345037
0.460792 0.566644 0.347051
0.473030 0.568536 0.351110
0.490059 0.572045 0.357702
0.507439 0.574456 0.365942
0.525658 0.576654 0.377050
0.546563 0.580255 0.390845
0.569940 0.585901 0.408453
0.594751 0.593317 0.429297
0.620539 0.602564 0.453193
0.645594 0.612940 0.478981
0.677028 0.632044 0.509789
0.721736 0.660639 0.534783
0.765469 0.685054 0.554894
0.801328 0.702144 0.572869
0.831235 0.714961 0.589227
0.857481 0.725887 0.605402
0.880369 0.735470 0.621180
0.900572 0.744320 0.636713
0.919646 0.751339 0.646113
0.937011 0.757656 0.654749
0.952758 0.763943 0.663935
0.965515 0.770413 0.674952
0.975921 0.777218 0.687495
0.985565 0.784207 0.699916
0.994537 0.791501 0.712490
1.000000 0.799222 0.725338
1.000000 0.807401 0.738582
1.000000 0.816037 0.752193
1.000000 0.825010 0.766018
0.483955 0.601617 0.382177
0.484993 0.602014 0.382727
0.488472 0.602655 0.383948
0.495216 0.603967 0.386542
0.506615 0.606409 0.391028
0.521904 0.610040 0.397681
0.540063 0.614496 0.406806
0.556542 0.616968 0.417060
0.575677 0.620691 0.430274
0.596368 0.625177 0.445777
0.618097 0.630732 0.463294
0.640253 0.637049 0.482765
0.661738 0.643915 0.503349
0.682063 0.650904 0.524620
0.707698 0.666163 0.551354
0.744717 0.688899 0.572015
0.781582 0.708980 0.589685
0.812802 0.724178 0.606256
0.839628 0.736110 0.621393
0.863615 0.746426 0.636286
0.884916 0.755856 0.651118
0.904204 0.764645 0.665858
0.921874 0.772274 0.677577
0.938598 0.778592 0.685695
0.953826 0.784634 0.694087
0.967834 0.790585 0.702632
0.978515 0.796963 0.713863
0.988128 0.803647 0.725460
0.997070 0.810636 0.737301
1.000000 0.818021 0.749447
1.000000 0.825650 0.761746
1.000000 0.833616 0.774258
0.514488 0.633478 0.417487
0.515465 0.633631 0.417700
0.518303 0.634302 0.418799
0.524468 0.635676 0.421576
0.534112 0.637873 0.425818
0.547723 0.641321 0.431800
0.565087 0.646143 0.440620
0.580529 0.648768 0.450172
0.597070 0.651453 0.461372
0.615106 0.654994 0.474647
0.634455 0.659205 0.489998
0.654292 0.664057 0.506767
0.673793 0.669551 0.525017
0.692439 0.674983 0.543755
0.709651 0.680659 0.563195
0.731960 0.694148 0.588434
0.764126 0.713802 0.607019
0.795987 0.731441 0.623285
0.824155 0.745510 0.638514
0.848600 0.756527 0.652125
0.870665 0.766506 0.665888
0.890806 0.775540 0.679591
0.908873 0.783871 0.692958
0.925383 0.791714 0.705898
0.941375 0.797848 0.713466
0.956085 0.803738 0.721279
0.969818 0.809506 0.729305
0.981994 0.815457 0.738216
0.991424 0.822049 0.749386
1.000000 0.828824 0.760739
1.000000 0.835935 0.772305
1.000000 0.843290 0.784024
0.545373 0.665034 0.454414
0.546166 0.665461 0.454871
0.572137 0.688075 0.485145
0.577264 0.689174 0.487495
0.585473 0.690913 0.491432
0.596857 0.693477 0.497169
0.611261 0.696925 0.504784
0.626184 0.699855 0.513390
0.639887 0.701564 0.522972
0.655238 0.703883 0.534447
0.671504 0.706661 0.547387
0.688014 0.709865 0.561486
0.704128 0.712978 0.576379
0.719509 0.716182 0.591669
0.733639 0.719356 0.607172
0.746426 0.722499 0.622492
0.763760 0.732876 0.643214
0.790494 0.748623 0.657008
0.817166 0.762722 0.669093
0.841306 0.774350 0.680781
0.862791 0.783597 0.691676
0.882506 0.792081 0.702907
0.900664 0.799710 0.713954
0.917174 0.806760 0.724880
0.932189 0.813199 0.735286
0.946563 0.818662 0.742977
0.960204 0.823484 0.748989
0.973083 0.828428 0.755550
0.985229 0.833646 0.762783
0.995361 0.839506 0.771969
1.000000 0.845914 0.782559
1.000000 0.852598 0.793423
0.579858 0.698390 0.497536
0.582452 0.700282 0.500359
0.586877 0.702754 0.504356
0.593500 0.705409 0.509117
0.602014 0.708217 0.514611
0.612512 0.710933 0.520409
0.625177 0.713954 0.527398
0.640345 0.717464 0.535973
0.652033 0.718654 0.543969
0.665309 0.720272 0.553704
0.679622 0.722408 0.564874
0.694453 0.724910 0.577447
0.709224 0.727413 0.590509
0.723476 0.730068 0.604425
0.737026 0.732815 0.618433
0.749538 0.735714 0.632349
0.761044 0.738827 0.646418
0.777462 0.749447 0.666255
0.802976 0.764767 0.679072
0.827756 0.778317 0.691005
0.850431 0.789548 0.702388
0.870817 0.798947 0.713283
0.889464 0.807218 0.724025
0.906523 0.814603 0.734463
0.922118 0.821225 0.744381
0.936522 0.827451 0.754116
0.949981 0.833249 0.763149
0.963317 0.838163 0.769070
0.975891 0.843290 0.775692
0.987793 0.848722 0.783017
0.998840 0.854337 0.790982
1.000000 0.860594 0.801022
0.600702 0.717800 0.524346
0.603296 0.719631 0.527214
0.607446 0.721950 0.531060
0.613153 0.724361 0.535637
0.620966 0.726925 0.541009
0.630396 0.729335 0.546624
0.641352 0.731899 0.552819
0.654688 0.734951 0.560632
0.666865 0.736873 0.568597
0.678279 0.738033 0.576867
0.690822 0.739590 0.586542
0.704097 0.741573 0.597589
0.717372 0.743648 0.609247
0.730617 0.746029 0.621576
0.743313 0.748440 0.633997
0.755276 0.751034 0.646693
0.766506 0.753750 0.659205
0.776822 0.756771 0.671778
0.792386 0.767300 0.690242
0.816342 0.781704 0.701717
0.839078 0.794125 0.712642
0.860044 0.804654 0.723323
0.879149 0.813748 0.733791
0.896727 0.821714 0.743984
0.912718 0.828672 0.753536
0.927550 0.835080 0.762875
0.941375 0.841093 0.771908
0.954345 0.847044 0.781125
0.967163 0.852445 0.788235
0.979492 0.857755 0.794919
0.991028 0.863249 0.802274
1.000000 0.868803 0.809995
0.621820 0.736751 0.551995
0.624079 0.738277 0.554589
0.627558 0.740139 0.557977
0.632746 0.742214 0.562127
0.639551 0.744381 0.566888
0.647669 0.746365 0.571862
0.657282 0.748592 0.577661
0.669001 0.751247 0.584741
0.681697 0.754086 0.592981
0.691859 0.755062 0.600305
0.703029 0.756374 0.608911
0.714778 0.757961 0.618555
0.726711 0.759762 0.628595
0.738735 0.761776 0.639307
0.750668 0.764034 0.650599
0.762112 0.766537 0.662104
0.773312 0.769467 0.673976
0.784085 0.772854 0.686275
0.794888 0.777401 0.699306
0.809812 0.787869 0.716976
0.832731 0.802090 0.728511
0.854124 0.814237 0.739803
0.873564 0.824430 0.750515
0.891600 0.833463 0.761013
0.908141 0.841367 0.770871
0.923339 0.848356 0.780179
0.937499 0.854765 0.789120
0.950835 0.860899 0.798001
0.963378 0.866972 0.807034
0.975250 0.872831 0.815427
0.986816 0.878050 0.822019
0.997345 0.883268 0.829007
0.653956 0.763455 0.594568
0.655085 0.764096 0.595727
0.657008 0.764797 0.597284
0.660273 0.765652 0.599451
0.665217 0.766720 0.602319
0.671412 0.767910 0.605890
0.679469 0.769558 0.610651
0.689326 0.771725 0.616632
0.701106 0.774502 0.624170
0.711055 0.776120 0.631189
0.720760 0.777310 0.638605
0.731106 0.778744 0.646845
0.741695 0.780270 0.655512
0.752407 0.782010 0.664607
0.763149 0.783841 0.674128
0.773678 0.785885 0.683925
0.783871 0.788174 0.693935
0.793759 0.790738 0.704158
0.803220 0.793759 0.714748
0.813382 0.798276 0.726284
0.826535 0.807218 0.741512
0.847105 0.819547 0.751247
0.866117 0.829862 0.760647
0.883482 0.838621 0.769558
0.900084 0.846769 0.778775
0.915679 0.854154 0.787808
0.930297 0.860990 0.796628
0.944060 0.867430 0.805356
0.956939 0.873686 0.814145
0.969055 0.879759 0.822995
0.980224 0.885649 0.831846
0.990997 0.890837 0.838651
0.673701 0.780117 0.620691
0.674586 0.780636 0.621607
0.676387 0.781247 0.623163
0.679377 0.782071 0.625086
0.683375 0.783047 0.627588
0.689021 0.784176 0.630884
0.695979 0.785611 0.635065
0.704677 0.787533 0.640375
0.714931 0.790036 0.646967
0.725582 0.792447 0.654170
0.734066 0.793484 0.660487
0.743252 0.794766 0.667628
0.752865 0.796170 0.675227
0.762722 0.797726 0.683253
0.772641 0.799496 0.691737
0.782559 0.801450 0.700618
0.792325 0.803677 0.709773
0.801907 0.806088 0.719142
0.811185 0.808835 0.728908
0.820066 0.811948 0.738857
0.830106 0.816861 0.750149
0.842344 0.825162 0.763882
0.861173 0.836332 0.772854
0.878569 0.845731 0.781460
0.891997 0.850278 0.784848
0.907591 0.857939 0.793301
0.922576 0.865232 0.802029
0.936736 0.872068 0.810697
0.950134 0.878599 0.819303
0.962707 0.884886 0.828000
0.974426 0.891020 0.836881
0.985046 0.896941 0.845762
0.698695 0.800900 0.653559
0.699947 0.801663 0.654871
0.701411 0.802182 0.656123
0.703517 0.802548 0.657191
0.706355 0.802884 0.658534
0.710323 0.803281 0.660365
0.715450 0.803891 0.662745
0.722042 0.804868 0.666163
0.730220 0.806302 0.670710
0.739681 0.808316 0.676326
0.747219 0.808957 0.681086
0.754849 0.809567 0.686427
0.762905 0.810300 0.692317
0.771298 0.811154 0.698573
0.779873 0.812100 0.705196
0.788571 0.813260 0.712276
0.797330 0.814725 0.719814
0.806241 0.816617 0.728054
0.815183 0.818997 0.736995
0.824063 0.821927 0.746456
0.832639 0.825193 0.756222
0.842618 0.830472 0.767208
0.854032 0.838102 0.779660
0.871275 0.848051 0.787533
0.887083 0.856260 0.794705
0.901701 0.863127 0.801358
0.916228 0.870054 0.808835
0.930388 0.876890 0.816770
0.943877 0.883421 0.824857
0.956695 0.889738 0.833158
0.968719 0.895933 0.841642
0.979706 0.901946 0.850340
0.712917 0.813748 0.672084
0.714076 0.814450 0.673304
0.715511 0.815061 0.674525
0.717647 0.815549 0.675837
0.720485 0.816129 0.677546
0.724453 0.816922 0.679713
0.729671 0.817929 0.682765
0.736202 0.819364 0.686610
0.743923 0.821134 0.691371
0.752926 0.823392 0.697169
0.761776 0.825315 0.702876
0.768826 0.826047 0.707820
0.776242 0.826871 0.713161
0.783902 0.827695 0.718837
0.791745 0.828489 0.724605
0.799649 0.829404 0.730770
0.807736 0.830564 0.737362
0.815946 0.832090 0.744564
0.824308 0.834134 0.752499
0.832700 0.836576 0.760952
0.840970 0.839414 0.769711
0.848966 0.842466 0.778653
0.858427 0.847684 0.788876
0.869078 0.854643 0.799924
0.884886 0.863676 0.807065
0.899596 0.871244 0.813626
0.913268 0.877684 0.819821
0.926909 0.884245 0.826780
0.940551 0.891051 0.834623
0.953429 0.897520 0.842588
0.965423 0.903716 0.850675
0.976349 0.909606 0.858915
0.731502 0.830106 0.695888
0.732113 0.830442 0.696498
0.733120 0.830777 0.697261
0.734829 0.831174 0.698207
0.737301 0.831571 0.699519
0.740658 0.832151 0.701320
0.745083 0.832975 0.703822
0.750729 0.834104 0.706935
0.757412 0.835538 0.710964
0.765255 0.837400 0.715785
0.774136 0.839567 0.721370
0.781125 0.840604 0.726131
0.787869 0.841306 0.730892
0.794919 0.842008 0.735897
0.802121 0.842741 0.741176
0.809415 0.843503 0.746609
0.816892 0.844480 0.752560
0.824582 0.845762 0.758968
0.832456 0.847471 0.766049
0.840482 0.849638 0.773709
0.848417 0.852140 0.781704
0.856107 0.854856 0.789853
0.863401 0.857633 0.797848
0.872374 0.862638 0.807187
0.882170 0.868803 0.816861
0.896666 0.876829 0.822995
0.910277 0.883665 0.828824
0.922972 0.889494 0.834318
0.935760 0.895628 0.840757
0.948852 0.902403 0.848569
0.961028 0.908812 0.856504
0.972137 0.914885 0.864591
0.747036 0.844388 0.715541
0.747524 0.844694 0.716091
0.748531 0.845029 0.716793
0.750088 0.845457 0.717830
0.752621 0.846067 0.719417
0.756252 0.847044 0.721767
0.761257 0.848569 0.725216
0.767422 0.850492 0.729641
0.774777 0.852842 0.734920
0.783200 0.855589 0.740993
0.792416 0.858671 0.747799
0.801450 0.861418 0.754482
0.808591 0.863035 0.760128
0.815763 0.864469 0.765682
0.822904 0.865751 0.771176
0.829801 0.866789 0.776364
0.836728 0.867765 0.781704
0.843778 0.868956 0.787350
0.851041 0.870512 0.793515
0.858457 0.872374 0.800137
0.865782 0.874540 0.807034
0.872984 0.876860 0.814084
0.879820 0.879179 0.820981
0.886259 0.881529 0.827817
0.894469 0.886076 0.835782
0.903258 0.891356 0.843870
0.916258 0.898253 0.848966
0.928313 0.904051 0.853758
0.939483 0.908995 0.858366
0.950591 0.914092 0.863859
0.962127 0.920195 0.871122
0.972473 0.925841 0.878508
0.773526 0.866941 0.748409
0.773648 0.867002 0.748470
0.774197 0.867063 0.748745
0.775326 0.867185 0.749294
0.777127 0.867460 0.750210
0.779812 0.867918 0.751644
0.783413 0.868620 0.753689
0.787961 0.869627 0.756405
0.793454 0.870939 0.759792
0.799954 0.872557 0.763882
0.807187 0.874418 0.768551
0.815213 0.876555 0.773770
0.821714 0.877775 0.778256
0.827817 0.878599 0.782559
