20 Preset/Ins style/【3】LUT video cho PR-AE-FCPX/Tone (13).cube
# Created by Adobe Lightroom plugin Export LUT (1.24.0)
# www.johnrellis.com/lightroom/exportlut.htm
# Preset: INS网红琥珀色-素材江湖11
# Color profile: C:\Program Files (x86)\Common Files\Adobe\Color\Profiles\Recommended\VideoHD.icc
LUT_3D_SIZE 32
DOMAIN_MIN 0.0 0.0 0.0
DOMAIN_MAX 1.0 1.0 1.0
0.000000 0.000000 0.000000
0.000000 0.000000 0.000000
0.000000 0.000000 0.000000
0.002960 0.000763 0.000977
0.121828 0.006500 0.019959
0.167605 0.014954 0.044678
0.212314 0.010101 0.062501
0.259342 0.000000 0.078035
0.307836 0.000000 0.083925
0.357061 0.000000 0.086732
0.406348 0.000000 0.085725
0.454627 0.000000 0.083894
0.502037 0.000000 0.081361
0.547997 0.000000 0.078462
0.592370 0.000000 0.076478
0.635065 0.000000 0.079042
0.675654 0.000000 0.079713
0.714534 0.000000 0.082246
0.751614 0.000000 0.085115
0.795743 0.000000 0.088258
0.834043 0.000000 0.092287
0.867002 0.005310 0.098085
0.895293 0.115114 0.104524
0.921141 0.158328 0.111879
0.945403 0.193271 0.121523
0.968872 0.226322 0.130953
0.992126 0.258152 0.141817
1.000000 0.290043 0.154330
1.000000 0.323033 0.168551
1.000000 0.357427 0.184970
1.000000 0.393347 0.203555
1.000000 0.430488 0.225467
0.000000 0.000000 0.000000
0.000000 0.000000 0.000000
0.000000 0.000000 0.000000
0.004944 0.000519 0.000946
0.122560 0.007233 0.020935
0.167605 0.014954 0.044678
0.211795 0.008362 0.062806
0.257633 0.000000 0.076539
0.305638 0.000000 0.084169
0.354070 0.000000 0.086610
0.402960 0.000000 0.086183
0.451179 0.000000 0.083833
0.498177 0.000000 0.080659
0.544152 0.000000 0.077882
0.588312 0.000000 0.077089
0.631220 0.000000 0.078920
0.672206 0.000000 0.080385
0.711147 0.000000 0.081941
0.748562 0.000000 0.084382
0.791379 0.000000 0.088075
0.829068 0.000000 0.092500
0.861631 0.000000 0.097108
0.889769 0.108797 0.103090
0.915526 0.152163 0.109895
0.939757 0.187564 0.118410
0.963195 0.219669 0.128298
0.986603 0.250980 0.139315
1.000000 0.283238 0.151308
1.000000 0.316106 0.165499
1.000000 0.350622 0.181582
1.000000 0.386633 0.199985
1.000000 0.423865 0.221592
0.000000 0.000000 0.000000
0.000000 0.000000 0.000000
0.000000 0.000000 0.000000
0.032288 0.002960 0.003479
0.129152 0.008453 0.024720
0.171420 0.016632 0.046235
0.213474 0.027832 0.065522
0.258244 0.027466 0.080262
0.305364 0.015015 0.085176
0.353552 0.000000 0.087434
0.401953 0.000000 0.086519
0.449775 0.000000 0.084230
0.496376 0.000000 0.081788
0.541955 0.000000 0.079286
0.586389 0.000000 0.076875
0.628901 0.000000 0.077852
0.669764 0.000000 0.080262
0.708766 0.000000 0.080903
0.747219 0.000000 0.083864
0.788998 0.000000 0.088106
0.826261 0.000000 0.092500
0.858610 0.039887 0.096895
0.886809 0.120089 0.102846
0.912566 0.158541 0.109957
0.936553 0.191531 0.118471
0.960082 0.221836 0.127382
0.983459 0.252781 0.138064
1.000000 0.283970 0.150668
1.000000 0.316472 0.164462
1.000000 0.350469 0.180179
1.000000 0.385718 0.198581
1.000000 0.422766 0.220249
0.000000 0.037476 0.023163
0.000000 0.039643 0.025116
0.000000 0.046418 0.027588
0.069245 0.051667 0.027741
0.133730 0.080385 0.039185
0.175326 0.089296 0.058473
0.216922 0.092866 0.076753
0.261173 0.092622 0.084504
0.308019 0.088655 0.087770
0.355505 0.071443 0.088472
0.403143 0.040253 0.088258
0.449989 0.002472 0.084657
0.496315 0.000000 0.081544
0.541161 0.000000 0.077882
0.584802 0.000000 0.077089
0.626947 0.000000 0.078309
0.667292 0.000000 0.079286
0.705806 0.000000 0.081636
0.745144 0.000000 0.084016
0.784787 0.000000 0.087739
0.820706 0.013214 0.091096
0.852567 0.101595 0.095857
0.880888 0.139345 0.101564
0.907195 0.171145 0.108614
0.932067 0.200748 0.117220
0.956298 0.230533 0.127016
0.980499 0.260533 0.138552
1.000000 0.290929 0.150179
1.000000 0.322850 0.164950
1.000000 0.356115 0.180362
1.000000 0.390356 0.198764
1.000000 0.426001 0.219669
0.013306 0.116457 0.096040
0.023713 0.115267 0.095796
0.064363 0.113069 0.097475
0.090669 0.112917 0.096071
0.125643 0.116579 0.092592
0.168551 0.126101 0.094850
0.215183 0.130312 0.092683
0.265232 0.129244 0.088716
0.310521 0.126772 0.090272
0.357031 0.122072 0.090303
0.403571 0.114290 0.088899
0.449714 0.104891 0.086213
0.495094 0.092714 0.082887
0.539849 0.069917 0.078431
0.583246 0.040131 0.077424
0.625452 0.023041 0.076722
0.665980 0.010620 0.078920
0.704524 0.017578 0.080354
0.745235 0.045716 0.084077
0.783597 0.090974 0.087861
0.818631 0.118379 0.091371
0.850004 0.144167 0.096132
0.878172 0.170169 0.101564
0.904570 0.195499 0.109285
0.929656 0.220920 0.118044
0.954101 0.247776 0.128389
0.978454 0.274907 0.139406
1.000000 0.303593 0.151919
1.000000 0.333623 0.165652
1.000000 0.365393 0.181918
1.000000 0.398291 0.199680
1.000000 0.432593 0.220645
0.081727 0.147463 0.122988
0.086397 0.146883 0.123049
0.100191 0.144778 0.124331
0.109194 0.144137 0.122927
0.124514 0.147982 0.117098
0.162844 0.149630 0.112093
0.207645 0.159640 0.111635
0.255253 0.165316 0.109316
0.307439 0.166598 0.102937
0.362219 0.163394 0.092531
0.407935 0.159304 0.089998
0.453498 0.153780 0.087251
0.498054 0.148104 0.082856
0.542199 0.142092 0.079469
0.585199 0.137270 0.076020
0.627039 0.134005 0.078431
0.667170 0.132601 0.078309
0.707149 0.134798 0.081483
0.748104 0.142367 0.084901
0.785336 0.154788 0.089113
0.819577 0.170718 0.092073
0.850370 0.188205 0.097902
0.906706 0.238193 0.113130
0.931670 0.259739 0.122530
0.955627 0.282109 0.132631
0.978943 0.305852 0.144289
1.000000 0.330602 0.155581
1.000000 0.356847 0.169741
1.000000 0.384405 0.184115
1.000000 0.413153 0.201755
1.000000 0.443366 0.220859
1.000000 0.474189 0.242283
0.107576 0.186648 0.153292
0.110384 0.186313 0.153933
0.122377 0.184329 0.155520
0.129427 0.184237 0.153201
0.134157 0.187198 0.144320
0.163333 0.188327 0.137087
0.206668 0.187747 0.129976
0.256016 0.197971 0.127932
0.305150 0.205020 0.123384
0.356146 0.209323 0.118929
0.410864 0.208988 0.108248
0.464393 0.205539 0.095735
0.513207 0.200809 0.082734
0.556176 0.196872 0.079225
0.598230 0.194186 0.078279
0.638697 0.192050 0.079408
0.677699 0.191440 0.081361
0.721706 0.196139 0.084382
0.761685 0.203891 0.089052
0.798856 0.214267 0.092164
0.833555 0.227726 0.096712
0.865110 0.244022 0.104005
0.894316 0.262364 0.112825
0.921660 0.282506 0.122530
0.947601 0.303624 0.133913
0.972045 0.325994 0.144656
0.995483 0.348760 0.157229
1.000000 0.372686 0.170565
1.000000 0.398138 0.185763
1.000000 0.424781 0.201907
1.000000 0.453101 0.220981
1.000000 0.482063 0.242100
0.131258 0.226688 0.185031
0.134005 0.226505 0.185794
0.145235 0.224765 0.187655
0.151522 0.224430 0.185794
0.146242 0.226352 0.172793
0.167269 0.226963 0.164675
0.201999 0.225864 0.154879
0.247013 0.222599 0.145785
0.296605 0.232029 0.142550
0.345678 0.240299 0.136904
0.396521 0.245823 0.131807
0.446754 0.249577 0.127199
0.499275 0.248569 0.115053
0.549645 0.245823 0.100618
0.598291 0.241733 0.083803
0.638453 0.239872 0.083223
0.682429 0.242283 0.084169
0.722957 0.245365 0.089204
0.760616 0.250309 0.091585
0.795987 0.258244 0.095705
0.829435 0.268772 0.100557
0.860319 0.281498 0.107301
0.889067 0.296300 0.116548
0.916136 0.313024 0.126284
0.941924 0.331609 0.137057
0.966400 0.351141 0.148592
0.989960 0.371801 0.160739
1.000000 0.393622 0.173983
1.000000 0.417090 0.188907
1.000000 0.441993 0.205203
1.000000 0.468116 0.224033
1.000000 0.495430 0.244968
0.160830 0.272251 0.222812
0.163180 0.272099 0.223545
0.172671 0.270970 0.225162
0.183597 0.269810 0.226047
0.174533 0.270970 0.213321
0.182956 0.271336 0.201999
0.207919 0.269841 0.191806
0.244846 0.266514 0.179843
0.289250 0.260380 0.168734
0.338293 0.268437 0.164858
0.387488 0.277470 0.159365
0.436805 0.283879 0.154849
0.486122 0.288609 0.151247
0.534844 0.291478 0.145754
0.586175 0.291630 0.134340
0.637018 0.291783 0.122316
0.684413 0.291051 0.109102
0.724605 0.292790 0.103853
0.760494 0.296452 0.105715
0.794766 0.302708 0.108186
0.827024 0.310979 0.111238
0.856931 0.321599 0.115938
0.885191 0.333806 0.123232
0.911894 0.347936 0.132052
0.937469 0.363897 0.142885
0.961883 0.380987 0.153964
0.985412 0.399359 0.166262
1.000000 0.419318 0.179568
1.000000 0.440803 0.194430
1.000000 0.463539 0.210819
1.000000 0.487678 0.229343
1.000000 0.512963 0.249943
0.196414 0.320714 0.264866
0.198978 0.320562 0.265324
0.207034 0.319615 0.267063
0.222110 0.318120 0.270542
0.213199 0.318334 0.259403
0.206912 0.318212 0.243809
0.224002 0.316014 0.233371
0.251652 0.312627 0.220615
0.288396 0.306767 0.206149
0.330938 0.297948 0.193179
0.378241 0.304265 0.189517
0.426001 0.313664 0.185000
0.475532 0.321935 0.182162
0.526513 0.330053 0.181796
0.576410 0.336797 0.181460
0.625727 0.340185 0.175204
0.672908 0.341253 0.164218
0.717372 0.342138 0.152743
0.758541 0.343725 0.140200
0.794247 0.347723 0.134615
0.825040 0.354376 0.136873
0.853483 0.362280 0.140169
0.880339 0.371679 0.145022
0.905852 0.382818 0.150301
0.930724 0.395544 0.156252
0.954864 0.409857 0.162478
0.978485 0.426001 0.171847
1.000000 0.443946 0.185245
1.000000 0.463630 0.200015
1.000000 0.485176 0.216556
1.000000 0.507927 0.235599
1.000000 0.531945 0.256474
0.235142 0.368261 0.307500
0.237034 0.367956 0.307774
0.244541 0.367620 0.309941
0.259373 0.366339 0.313848
0.255894 0.366064 0.306615
0.245518 0.366094 0.291966
0.250278 0.364111 0.278569
0.268956 0.360632 0.266239
0.297124 0.355169 0.251469
0.332952 0.347417 0.234806
0.375067 0.337499 0.221103
0.422400 0.344152 0.219150
0.470527 0.355688 0.217014
0.519707 0.365026 0.215885
0.567834 0.372930 0.215335
0.614618 0.379889 0.215061
0.659602 0.386633 0.215427
0.704036 0.389014 0.205081
0.745205 0.391638 0.194827
0.783749 0.394751 0.183993
0.819120 0.398077 0.171664
0.849302 0.403143 0.166873
0.875731 0.410925 0.170596
0.901061 0.420050 0.174197
0.925750 0.430976 0.179446
0.949859 0.443641 0.184207
0.973663 0.457832 0.190677
0.997345 0.473823 0.197452
1.000000 0.491432 0.209689
1.000000 0.510887 0.226291
1.000000 0.531945 0.244907
1.000000 0.554406 0.266056
0.278508 0.418250 0.353521
0.280369 0.418128 0.353979
0.286107 0.417945 0.355657
0.298772 0.417395 0.359472
0.302495 0.416785 0.357122
0.292393 0.416175 0.343999
0.286015 0.416144 0.328618
0.299016 0.414008 0.317906
0.320226 0.409918 0.304692
0.348943 0.403784 0.288914
0.384405 0.394415 0.270390
0.422309 0.381109 0.254704
0.487007 0.403113 0.266636
0.535882 0.415686 0.265629
0.583551 0.425757 0.265080
0.629755 0.434638 0.264836
0.673396 0.442878 0.264836
0.714626 0.451087 0.264988
0.753780 0.458106 0.261936
0.791073 0.461830 0.251347
0.825162 0.465431 0.241550
0.856413 0.468788 0.230777
0.885679 0.472602 0.220218
0.912200 0.478737 0.215335
0.935821 0.487495 0.219028
0.958953 0.497536 0.222324
0.981750 0.508629 0.226596
1.000000 0.521355 0.232120
1.000000 0.535607 0.238712
1.000000 0.551629 0.248417
1.000000 0.569635 0.266606
1.000000 0.589380 0.287480
0.339483 0.488258 0.418616
0.340551 0.488075 0.418830
0.346136 0.487678 0.420294
0.357092 0.487343 0.423804
0.366644 0.486366 0.425147
0.356878 0.484932 0.413031
0.345006 0.483192 0.396155
0.347112 0.479683 0.381903
0.360510 0.474922 0.368658
0.381476 0.468482 0.353033
0.409583 0.460243 0.335241
0.443427 0.449134 0.314794
0.478706 0.433570 0.297063
0.520989 0.435981 0.294438
0.568963 0.449836 0.294682
0.614405 0.460700 0.294560
0.657527 0.470130 0.294377
0.698085 0.478828 0.294255
0.736446 0.487709 0.294774
0.771939 0.496590 0.295903
0.805844 0.501488 0.288853
0.837766 0.505364 0.279637
0.867765 0.509453 0.270665
0.896666 0.514336 0.261387
0.924865 0.520226 0.251652
0.950805 0.527764 0.246250
0.973968 0.537743 0.249912
0.997040 0.549187 0.254673
1.000000 0.562219 0.260563
1.000000 0.577081 0.268620
1.000000 0.593500 0.279149
1.000000 0.611994 0.299779
0.390204 0.543084 0.471321
0.390753 0.542718 0.471229
0.395605 0.542229 0.472450
0.404547 0.541283 0.474891
0.418524 0.540337 0.479347
0.410010 0.537713 0.468452
0.398199 0.535119 0.453132
0.388006 0.531701 0.434668
0.395636 0.526299 0.421302
0.409552 0.520012 0.406317
0.429999 0.512291 0.389502
0.456458 0.502007 0.369696
0.487282 0.488655 0.347601
0.517937 0.470436 0.327550
0.555718 0.469734 0.323186
0.600793 0.483253 0.323247
0.642908 0.494026 0.322881
0.682643 0.503838 0.322942
0.720668 0.513207 0.322911
0.756222 0.522301 0.323735
0.789151 0.531029 0.325017
0.820371 0.539239 0.325902
0.851011 0.543877 0.317723
0.880644 0.549187 0.309972
0.909514 0.554986 0.301701
0.937560 0.561822 0.293584
0.965087 0.569299 0.284489
0.990936 0.578363 0.280156
1.000000 0.590173 0.285374
1.000000 0.603723 0.292393
1.000000 0.618952 0.302007
1.000000 0.635920 0.314977
0.439033 0.592889 0.520378
0.439948 0.592584 0.520500
0.443427 0.592096 0.521233
0.450752 0.591241 0.523217
0.462623 0.590082 0.526726
0.461891 0.587701 0.521416
0.450874 0.584588 0.507836
0.437598 0.581079 0.489631
0.435706 0.576196 0.473884
0.444221 0.570153 0.459724
0.458198 0.562737 0.443427
0.477943 0.553399 0.424811
0.501946 0.541619 0.403845
0.528862 0.525963 0.379004
0.554925 0.505272 0.356847
0.588159 0.501701 0.350530
0.630274 0.515068 0.350774
0.669306 0.526024 0.350408
0.706630 0.536217 0.350591
0.742031 0.545922 0.351171
0.774960 0.554955 0.352575
0.806271 0.564111 0.354803
0.835721 0.573327 0.358129
0.865049 0.580774 0.356023
0.894408 0.586877 0.349065
0.923095 0.593805 0.342107
0.951263 0.601556 0.335027
0.979248 0.610315 0.328374
1.000000 0.620264 0.321569
1.000000 0.632166 0.319829
1.000000 0.646906 0.329595
1.000000 0.663325 0.341894
0.484047 0.637201 0.564599
0.485145 0.637293 0.565026
0.488472 0.637171 0.566033
0.495460 0.636957 0.568231
0.506065 0.636683 0.571862
0.513390 0.635920 0.572625
0.504082 0.633417 0.561547
0.492714 0.630549 0.546654
0.481727 0.626978 0.528466
0.486366 0.621241 0.515435
0.494667 0.613764 0.499611
0.507530 0.604608 0.481788
0.524193 0.592828 0.460609
0.544152 0.578088 0.436194
0.566155 0.559625 0.408423
0.587366 0.536645 0.383856
0.616480 0.530694 0.375769
0.655879 0.544152 0.376287
0.692531 0.555505 0.376501
0.727932 0.566155 0.377295
0.761227 0.576135 0.378882
0.792935 0.585931 0.381689
0.822934 0.595758 0.385321
0.851926 0.605890 0.389502
0.880247 0.616724 0.394568
0.909636 0.624445 0.389654
0.938506 0.632685 0.384375
0.967102 0.641688 0.379461
0.995392 0.651606 0.374609
1.000000 0.662623 0.370520
1.000000 0.674678 0.366796
1.000000 0.688472 0.369207
0.526787 0.677150 0.604974
0.527642 0.677089 0.605280
0.530327 0.677119 0.606104
0.536278 0.677119 0.608148
0.545892 0.677119 0.611536
0.558587 0.677455 0.616541
0.551080 0.675380 0.607599
0.540764 0.672633 0.595056
0.528923 0.669551 0.579034
0.524773 0.664820 0.564019
0.529259 0.658228 0.549798
0.537407 0.649989 0.533410
0.549187 0.639521 0.514061
0.564019 0.626307 0.491707
0.581201 0.610132 0.465797
0.600031 0.590692 0.436683
0.617945 0.567010 0.410407
0.643580 0.559228 0.401007
0.680934 0.573083 0.402197
0.715694 0.584680 0.403204
0.749020 0.595544 0.405097
0.780880 0.606012 0.407843
0.810941 0.616388 0.411780
0.840299 0.626917 0.416419
0.868986 0.638087 0.421881
0.897337 0.649928 0.428351
0.925902 0.661006 0.431250
0.955016 0.670497 0.427832
0.983825 0.680751 0.425055
1.000000 0.691859 0.423133
1.000000 0.703914 0.422034
1.000000 0.716884 0.421698
0.570855 0.714229 0.644282
0.571740 0.714382 0.644709
0.593683 0.730068 0.662501
0.598444 0.730159 0.664179
0.605798 0.730312 0.666987
0.616236 0.730587 0.671077
0.616114 0.729183 0.667842
0.606775 0.726436 0.657313
0.596460 0.723476 0.644434
0.584436 0.719692 0.627710
0.584436 0.713802 0.614862
0.587030 0.706508 0.599725
0.592462 0.697017 0.581476
0.601129 0.685084 0.560143
0.612787 0.670466 0.535363
0.626734 0.652644 0.507073
0.641871 0.631037 0.474647
0.655634 0.605554 0.445991
0.677180 0.595300 0.434058
0.711818 0.608606 0.435431
0.743771 0.619562 0.437049
0.774716 0.630304 0.439826
0.804410 0.640650 0.443580
0.833310 0.651179 0.447944
0.861631 0.661952 0.452918
0.889525 0.673152 0.458778
0.917021 0.684932 0.465339
0.944366 0.697414 0.472999
0.972778 0.708095 0.473457
1.000000 0.719051 0.472908
1.000000 0.730953 0.473426
1.000000 0.743587 0.475135
0.615625 0.751614 0.684077
0.617700 0.752987 0.685695
0.621271 0.754543 0.687922
0.626764 0.755978 0.690761
0.634058 0.757198 0.694179
0.643122 0.758022 0.698085
0.649226 0.757809 0.699428
0.641382 0.755184 0.690669
0.632563 0.752224 0.679927
0.622034 0.748775 0.666163
0.615747 0.744106 0.652399
0.616052 0.737819 0.639704
0.617945 0.729824 0.623987
0.622400 0.720119 0.605463
0.629938 0.708309 0.583948
0.640314 0.693843 0.559167
0.653193 0.676417 0.530602
0.667384 0.655970 0.498939
0.680415 0.631373 0.470130
0.700008 0.620508 0.457740
0.732845 0.633814 0.460456
0.763699 0.645624 0.463783
0.793362 0.656886 0.468025
0.822324 0.667994 0.472816
0.850797 0.679255 0.477943
0.878935 0.690822 0.483925
0.906798 0.702876 0.490791
0.934386 0.715450 0.498848
0.961822 0.728847 0.508110
0.989136 0.742336 0.516991
1.000000 0.754360 0.519219
1.000000 0.766995 0.522698
0.645960 0.779843 0.712764
0.647761 0.781186 0.714260
0.651209 0.782742 0.716457
0.655726 0.784176 0.718959
0.662043 0.785550 0.722072
0.669856 0.786404 0.725521
0.679408 0.787137 0.729671
0.674403 0.785000 0.723323
0.666529 0.782132 0.713954
0.657649 0.778897 0.702602
0.647211 0.775113 0.688319
0.646265 0.769467 0.677394
0.646632 0.762539 0.664424
0.648707 0.754238 0.649165
0.652766 0.744137 0.631067
0.659205 0.732296 0.609766
0.668330 0.718135 0.584894
0.679866 0.701350 0.556634
0.693141 0.681758 0.524987
0.705318 0.658442 0.496529
0.722774 0.646235 0.483131
0.753719 0.659419 0.486946
0.783322 0.671626 0.491524
0.812345 0.683528 0.496651
0.840970 0.695399 0.502312
0.869200 0.707515 0.508507
0.897246 0.719875 0.515587
0.925231 0.732692 0.523857
0.953002 0.746181 0.533532
0.980285 0.760433 0.544823
1.000000 0.775265 0.558038
1.000000 0.788785 0.566308
0.675135 0.807736 0.740902
0.676631 0.808865 0.742214
0.679408 0.810208 0.744045
0.683558 0.811429 0.746304
0.689235 0.812558 0.749050
0.696162 0.813352 0.752132
0.704677 0.814023 0.755856
0.705928 0.813230 0.754269
0.698939 0.810788 0.746242
0.691005 0.807980 0.736507
0.681514 0.804532 0.724208
0.675196 0.800168 0.711940
0.674586 0.794156 0.700893
0.675502 0.786954 0.688197
0.677821 0.778378 0.673335
0.681819 0.768429 0.656062
0.688014 0.756771 0.635950
0.696437 0.743191 0.612299
0.707362 0.727779 0.585382
0.720394 0.709834 0.554925
0.732509 0.688594 0.527703
0.748959 0.676417 0.514366
0.778561 0.689937 0.519921
0.808164 0.703517 0.526390
0.837400 0.716915 0.533196
0.866270 0.730220 0.540703
0.894957 0.743496 0.548669
0.923461 0.757107 0.557824
0.951629 0.771115 0.568444
0.979126 0.785550 0.580682
1.000000 0.800290 0.594507
1.000000 0.815061 0.609613
0.712306 0.840665 0.775814
0.713161 0.841123 0.776425
0.714778 0.841550 0.777249
0.717556 0.841917 0.778531
0.721828 0.842252 0.780301
0.727443 0.842527 0.782559
0.734707 0.842893 0.785641
0.741573 0.843107 0.788113
0.735164 0.841001 0.781125
0.727993 0.838651 0.772732
0.719692 0.835874 0.762478
0.710048 0.832578 0.749783
0.707210 0.827665 0.739284
0.706569 0.821592 0.727993
0.707149 0.814328 0.715023
0.709468 0.805844 0.700465
0.713313 0.795712 0.683589
0.718868 0.784115 0.664240
0.726284 0.770748 0.641932
0.735592 0.755306 0.615839
0.746731 0.737484 0.585321
0.757534 0.716793 0.557916
0.772030 0.703456 0.543236
0.800168 0.716518 0.548547
0.829129 0.730343 0.555413
0.858152 0.744289 0.563073
0.887083 0.758328 0.571771
0.915984 0.772457 0.581384
0.944518 0.786831 0.592523
0.972290 0.801358 0.604852
0.998932 0.815946 0.618494
1.000000 0.830594 0.633478
0.741054 0.864195 0.802182
0.741787 0.864530 0.802670
0.743343 0.864866 0.803464
0.745937 0.865232 0.804654
0.749660 0.865537 0.806241
0.754696 0.865812 0.808316
0.761135 0.866148 0.811032
0.769314 0.866636 0.814664
0.767758 0.865599 0.811460
0.761135 0.863615 0.804074
0.753628 0.861357 0.795254
0.744991 0.858671 0.784543
0.737331 0.855192 0.772732
0.735653 0.850309 0.762875
0.735012 0.844511 0.751614
0.735683 0.837675 0.738857
0.737850 0.829587 0.724300
0.741665 0.820157 0.707973
0.747250 0.809201 0.689662
0.754299 0.796536 0.668574
0.762997 0.782010 0.644282
0.773068 0.765164 0.615656
0.783230 0.745724 0.589136
0.796811 0.732296 0.573724
0.820981 0.741695 0.575494
0.849516 0.755795 0.583062
0.878691 0.770504 0.592065
0.907866 0.785183 0.602136
0.936797 0.799924 0.613397
0.965087 0.814664 0.625757
0.992340 0.829587 0.639673
1.000000 0.844541 0.655085
0.774624 0.888670 0.831632
0.775662 0.889158 0.832364
0.776944 0.889403 0.833005
0.778897 0.889464 0.833738
0.781552 0.889372 0.834684
0.785489 0.889189 0.836057
0.790402 0.889036 0.837858
0.796841 0.888945 0.840391
0.800626 0.888457 0.840970
0.794278 0.886473 0.834318
0.786831 0.884184 0.826200
0.778408 0.881590 0.816464
0.769070 0.878660 0.804898
0.763912 0.874601 0.794430
0.761685 0.869505 0.783993
0.760403 0.863554 0.772183
0.760494 0.856718 0.758968
0.762234 0.848875 0.744289
0.765927 0.840024 0.728176
0.771450 0.829892 0.710292
0.778592 0.818326 0.690517
0.787045 0.804837 0.667659
0.796506 0.788968 0.640711
0.805905 0.770840 0.615930
0.817960 0.756741 0.599542
0.844358 0.769253 0.605310
0.872404 0.783139 0.613153
0.901457 0.797848 0.622797
0.930419 0.812528 0.633570
0.959014 0.827420 0.645869
0.986572 0.842496 0.659815
1.000000 0.857450 0.675288
0.799741 0.905913 0.853239
0.800687 0.906279 0.853880
0.801877 0.906584 0.854551
0.803799 0.906737 0.855375
0.806485 0.906859 0.856443
0.810178 0.906950 0.857939
0.815091 0.907164 0.859953
0.821256 0.907408 0.862608
0.828641 0.907805 0.865965
0.825681 0.906767 0.862150
0.819760 0.905211 0.855802
0.812833 0.903349 0.848051
0.804807 0.901122 0.838590
0.796201 0.898375 0.827451
0.793210 0.894377 0.818357
0.790921 0.889647 0.807980
0.789609 0.884184 0.796353
0.789700 0.877989 0.783474
0.791531 0.870970 0.769284
0.795193 0.863066 0.753750
0.800504 0.853941 0.736294
0.807462 0.843473 0.716976
0.815671 0.831235 0.695155
0.824796 0.816922 0.670161
0.834195 0.800900 0.647700
0.845762 0.787472 0.632227
0.871916 0.799893 0.638483
0.899779 0.813565 0.646967
0.929198 0.828824 0.658289
0.957855 0.843961 0.670863
0.985260 0.858946 0.684871
1.000000 0.873777 0.700740
0.827481 0.923461 0.876310
0.827939 0.923644 0.876616
0.828855 0.923766 0.877043
0.830350 0.923827 0.877653
0.832609 0.923857 0.878508
0.835691 0.923919 0.879728
0.839841 0.923980 0.881407
0.844938 0.924132 0.883543
0.851164 0.924376 0.886290
0.854185 0.924163 0.886748
0.848936 0.922881 0.881407
0.843137 0.921416 0.875120
0.836240 0.919677 0.867338
0.828305 0.917662 0.857908
0.822324 0.914824 0.848447
0.819577 0.911162 0.839719
0.817502 0.906920 0.829770
0.816556 0.902068 0.818601
0.817105 0.896696 0.806485
0.819150 0.890593 0.792966
0.822934 0.883665 0.778073
0.828305 0.875669 0.761349
0.835142 0.866361 0.742580
0.843320 0.855467 0.721340
0.852598 0.842710 0.697353
0.862303 0.828855 0.677028
0.873594 0.816281 0.662531
0.899077 0.828031 0.669001
0.926024 0.841215 0.678065
0.954894 0.856626 0.690944
0.982147 0.871855 0.705531
1.000000 0.886839 0.722225
0.851377 0.938048 0.895842
0.851774 0.938140 0.896086
0.852598 0.938293 0.896452
0.853971 0.938384 0.897063
0.856138 0.938537 0.898009
0.859251 0.938750 0.899351
0.863432 0.939208 0.901305
0.868650 0.939788 0.903777
0.874846 0.940459 0.906798
0.881926 0.941283 0.910369
0.880186 0.941100 0.907958
0.876493 0.940551 0.903868
0.871794 0.939788 0.898558
0.866148 0.938750 0.891966
0.859373 0.937346 0.883665
0.856321 0.934936 0.876555
0.854093 0.931975 0.868681
0.852689 0.928588 0.859892
0.852354 0.924773 0.850034
0.853269 0.920500 0.839078
0.855680 0.915618 0.826841
0.859739 0.910094 0.813169
0.865293 0.903624 0.797635
0.872496 0.896086 0.780026
0.881254 0.887388 0.760250
0.891539 0.877348 0.737942
0.902617 0.866484 0.719570
0.914580 0.855985 0.706691
0.938079 0.866484 0.713710
0.962127 0.878233 0.723598
0.987884 0.893095 0.739071
1.000000 0.907561 0.756680
0.880430 0.954406 0.918578
0.880552 0.954406 0.918639
0.881041 0.954376 0.918791
0.881926 0.954376 0.919127
0.883452 0.954345 0.919677
0.885649 0.954345 0.920531
0.888548 0.954406 0.921752
0.892210 0.954528 0.923278
0.896666 0.954711 0.925231
0.901823 0.954955 0.927550
0.904387 0.954955 0.928161
0.900816 0.954284 0.924559
0.896635 0.953460 0.920104
0.891722 0.952514 0.914702
