20 Preset/Ins style/【3】LUT video cho PR-AE-FCPX/Tone (2).cube
# Created by Adobe Lightroom plugin Export LUT (1.24.0)
# www.johnrellis.com/lightroom/exportlut.htm
# Preset: INS网红琥珀色-素材江湖13
# Color profile: C:\Program Files (x86)\Common Files\Adobe\Color\Profiles\Recommended\VideoHD.icc
LUT_3D_SIZE 5
DOMAIN_MIN 0.000000 0.000000 0.000000
DOMAIN_MAX 0.903226 0.903226 0.903226
0.155337 0.168338 0.126131
0.315251 0.156954 0.122591
0.662287 0.188174 0.007202
0.872313 0.252903 0.000000
1.000000 0.295872 0.000000
0.077729 0.397559 0.146059
0.379706 0.383703 0.105684
0.691798 0.355566 0.000000
0.885679 0.353307 0.000000
1.000000 0.369146 0.000000
0.510338 0.734951 0.562982
0.564691 0.747738 0.575250
0.704982 0.703517 0.487465
0.874998 0.623835 0.387945
1.000000 0.587884 0.366979
0.726772 0.885985 0.770779
0.743893 0.891936 0.777005
0.808621 0.911437 0.797848
0.847929 0.846799 0.698238
0.958160 0.790066 0.616693
0.867857 0.958343 0.891752
0.873869 0.959411 0.894316
0.892058 0.962066 0.900175
0.915251 0.961608 0.896330
0.944549 0.941405 0.828336
0.000000 0.226139 0.273899
0.340856 0.146731 0.285130
0.649104 0.131258 0.227481
0.845975 0.281224 0.228397
0.993744 0.331701 0.216251
0.185855 0.394507 0.330816
0.373510 0.396796 0.352270
0.653956 0.376471 0.307958
0.852262 0.386725 0.282689
0.993530 0.403418 0.269261
0.504479 0.698207 0.580682
0.564782 0.710597 0.603449
0.684596 0.690639 0.554986
0.852079 0.631403 0.481453
0.987884 0.605402 0.457893
0.728084 0.873136 0.777401
0.745357 0.880278 0.784634
0.810849 0.904753 0.810513
0.844358 0.845365 0.721492
0.950835 0.794888 0.650721
0.869108 0.956359 0.894682
0.874968 0.957488 0.897185
0.898436 0.961761 0.907958
0.921141 0.962432 0.907500
0.945495 0.943084 0.841947
0.000000 0.418158 0.625116
0.000000 0.343053 0.627710
0.626764 0.286198 0.612055
0.827085 0.348974 0.547509
0.954070 0.386114 0.479652
0.298344 0.567071 0.640681
0.368231 0.531487 0.639551
0.627955 0.437232 0.627832
0.814633 0.445899 0.567285
0.942748 0.459358 0.510430
0.494118 0.693202 0.674250
0.539727 0.691432 0.676967
0.664332 0.688075 0.688411
0.793057 0.653193 0.647791
0.933013 0.638483 0.616999
0.694667 0.827237 0.771054
0.710780 0.831113 0.777005
0.782712 0.856840 0.811063
0.836271 0.843595 0.784695
0.936156 0.807218 0.732937
0.849149 0.947051 0.889281
0.860349 0.948577 0.894835
0.895109 0.954955 0.912566
0.932769 0.963470 0.931487
0.942565 0.942229 0.868376
0.214817 0.587732 0.794614
0.276127 0.564904 0.795529
0.495644 0.492653 0.792782
0.781765 0.449897 0.775906
0.931640 0.495979 0.731624
0.433845 0.663691 0.795071
0.446784 0.644526 0.795010
0.533684 0.567681 0.792294
0.775357 0.516869 0.775143
0.921355 0.542596 0.736690
0.595483 0.777066 0.806210
0.618799 0.776669 0.806790
0.670375 0.743191 0.802609
0.771847 0.675044 0.785855
0.902861 0.663203 0.758267
0.678492 0.833188 0.821714
0.689967 0.832029 0.821775
0.735866 0.830777 0.825650
0.810788 0.827909 0.832090
0.908782 0.793759 0.795102
0.795346 0.921050 0.875669
0.805264 0.923369 0.879301
0.846708 0.933715 0.895872
0.918608 0.951629 0.930602
0.941222 0.943725 0.908476
0.503929 0.728725 0.907866
0.512444 0.718196 0.908263
0.545830 0.668299 0.910643
0.711238 0.621515 0.906798
0.908537 0.583551 0.898192
0.564263 0.761013 0.906249
0.569451 0.751644 0.906676
0.591180 0.707210 0.908629
0.719997 0.655848 0.905516
0.905241 0.614740 0.897276
0.663111 0.836912 0.908141
0.677668 0.833616 0.907958
0.698177 0.807187 0.908354
0.744869 0.746395 0.907073
0.900450 0.701411 0.899290
0.730587 0.899199 0.916686
0.739559 0.898741 0.916899
0.776333 0.897826 0.918761
0.820096 0.871733 0.919036
0.904692 0.812680 0.911986
0.799313 0.940581 0.927306
0.805478 0.940429 0.927794
0.831571 0.940307 0.930449
0.876463 0.940154 0.935302
0.932311 0.939330 0.941314
