20 Preset/Ins style/【3】LUT video cho PR-AE-FCPX/Tone (1).cube
# Created by Adobe Lightroom plugin Export LUT (1.24.0)
# www.johnrellis.com/lightroom/exportlut.htm
# Preset: INS网红琥珀色-素材江湖12
# Color profile: C:\Program Files (x86)\Common Files\Adobe\Color\Profiles\Recommended\VideoHD.icc
LUT_3D_SIZE 8
DOMAIN_MIN 0.000000 0.000000 0.000000
DOMAIN_MAX 0.903226 0.903226 0.903226
0.046174 0.107851 0.099947
0.103670 0.109651 0.101259
0.235874 0.105074 0.103792
0.445777 0.000000 0.097047
0.642634 0.000000 0.075929
0.795895 0.000000 0.028046
0.928618 0.007935 0.000000
1.000000 0.223148 0.000000
0.044678 0.140658 0.113924
0.110842 0.142000 0.114870
0.257298 0.138918 0.105989
0.453162 0.106386 0.097536
0.641321 0.000000 0.079072
0.790036 0.000000 0.037171
0.916625 0.134829 0.000000
1.000000 0.244450 0.000000
0.000000 0.356603 0.150729
0.000000 0.362158 0.157900
0.337133 0.361364 0.161624
0.530388 0.318608 0.121065
0.692103 0.284520 0.092073
0.829099 0.291539 0.083925
0.943359 0.329290 0.083955
1.000000 0.374578 0.088472
0.000000 0.612390 0.298741
0.147890 0.614160 0.313512
0.445533 0.631952 0.353460
0.628992 0.633722 0.358953
0.760067 0.592828 0.307683
0.871611 0.539544 0.217838
0.955230 0.521904 0.203220
1.000000 0.523278 0.203952
0.370336 0.786984 0.489509
0.422309 0.786679 0.500481
0.549920 0.793393 0.528801
0.708644 0.808103 0.587427
0.791135 0.789883 0.552911
0.861814 0.748775 0.500664
0.939269 0.705196 0.414618
1.000000 0.666712 0.337316
0.600793 0.869169 0.661830
0.626551 0.871153 0.675227
0.680079 0.873045 0.693416
0.758938 0.877317 0.726864
0.829038 0.880949 0.755978
0.869261 0.869230 0.725246
0.912810 0.848997 0.695735
0.971313 0.823026 0.623133
0.754055 0.920104 0.796048
0.760403 0.920806 0.798978
0.781582 0.921904 0.806394
0.818204 0.924681 0.821042
0.861845 0.928862 0.839933
0.894774 0.928862 0.844816
0.919493 0.921172 0.828092
0.946777 0.908507 0.809537
0.841886 0.960571 0.874601
0.844511 0.960693 0.875486
0.855528 0.961456 0.879789
0.875792 0.963073 0.888304
0.896422 0.962829 0.893828
0.926116 0.966064 0.908873
0.941527 0.964080 0.904906
0.958038 0.959594 0.893248
0.035767 0.111910 0.138613
0.102876 0.110811 0.141085
0.232090 0.102235 0.137911
0.421424 0.067475 0.148226
0.619043 0.000000 0.144778
0.772824 0.000000 0.138186
0.899443 0.089509 0.131441
1.000000 0.217350 0.118929
0.000000 0.144717 0.153902
0.101472 0.146120 0.154879
0.244022 0.149660 0.157107
0.440528 0.131228 0.155001
0.628260 0.084352 0.150301
0.777218 0.083650 0.143496
0.896300 0.158206 0.135439
0.995483 0.242771 0.120943
0.000000 0.339544 0.211582
0.000000 0.343481 0.211826
0.320012 0.351965 0.232181
0.511528 0.317052 0.193668
0.671778 0.293400 0.178256
0.805264 0.296635 0.171603
0.914397 0.321172 0.165743
1.000000 0.364050 0.158755
0.000000 0.588769 0.316411
0.000000 0.590173 0.319890
0.403540 0.603510 0.369726
0.593011 0.604211 0.377813
0.721004 0.561517 0.324865
0.836301 0.511986 0.249363
0.928313 0.502403 0.238224
1.000000 0.508995 0.232425
0.291112 0.777035 0.481361
0.353246 0.775265 0.490120
0.520195 0.777890 0.527703
0.683650 0.791623 0.579278
0.771878 0.773922 0.551293
0.845914 0.734249 0.501183
0.927947 0.693690 0.420966
0.996277 0.658869 0.352178
0.560510 0.863859 0.644312
0.586847 0.863127 0.654932
0.656153 0.863920 0.680598
0.743191 0.869261 0.716701
0.821744 0.875334 0.753445
0.863523 0.864775 0.725887
0.907713 0.844663 0.696315
0.966888 0.818082 0.622583
0.738216 0.915831 0.786679
0.746365 0.915038 0.790066
0.768734 0.916106 0.797757
0.808469 0.919463 0.814054
0.855863 0.924956 0.835752
0.891051 0.925811 0.842802
0.915282 0.917296 0.824521
0.942779 0.904112 0.804654
0.835538 0.958282 0.870756
0.839109 0.958740 0.872465
0.850309 0.959472 0.876707
0.871397 0.961273 0.885527
0.898070 0.963561 0.897124
0.926268 0.966125 0.910338
0.941161 0.963806 0.905760
0.957458 0.959197 0.893919
0.000000 0.120699 0.304082
0.000000 0.118105 0.307530
0.257359 0.088838 0.318273
0.475898 0.000000 0.304753
0.640955 0.000000 0.283665
0.766690 0.139284 0.288945
0.881865 0.247410 0.303960
0.987152 0.300206 0.293950
0.000000 0.167208 0.322393
0.000000 0.163577 0.325872
0.262852 0.151675 0.332952
0.478950 0.114992 0.317296
0.637018 0.129030 0.296056
0.757534 0.231418 0.309270
0.878843 0.270817 0.305730
0.983246 0.317205 0.294896
0.000000 0.337011 0.372168
0.000000 0.339025 0.372717
0.278752 0.345800 0.373602
0.488808 0.341161 0.364660
0.642206 0.355291 0.357275
0.781003 0.361547 0.345953
0.893614 0.378058 0.333684
0.987762 0.406439 0.320287
0.000000 0.564263 0.437232
0.000000 0.566918 0.440406
0.285710 0.575128 0.448157
0.569299 0.596429 0.492622
0.699611 0.560967 0.443000
0.815579 0.535149 0.409247
0.910857 0.530510 0.392065
0.989593 0.535271 0.374243
0.187778 0.753841 0.545739
0.258732 0.754208 0.547631
0.426581 0.757168 0.558770
0.636133 0.769070 0.612573
0.757778 0.770565 0.627161
0.830411 0.733181 0.573754
0.913329 0.693019 0.500084
0.982177 0.670161 0.458839
0.507774 0.855009 0.660487
0.528344 0.855283 0.664729
0.598932 0.854826 0.680476
0.715328 0.856565 0.725154
0.809628 0.867216 0.770687
0.853696 0.860166 0.756008
0.897276 0.842466 0.728023
0.957244 0.818418 0.663325
0.711086 0.913787 0.785000
0.717128 0.913420 0.786374
0.748348 0.912200 0.798032
0.797665 0.914061 0.818692
0.847593 0.920226 0.840116
0.890166 0.925139 0.855863
0.913390 0.917601 0.840238
0.940703 0.906126 0.823331
0.821592 0.957275 0.867796
0.825895 0.957000 0.869627
0.843137 0.956970 0.877562
0.866575 0.959411 0.887480
0.894682 0.962036 0.899351
0.924743 0.965362 0.913603
0.941955 0.964263 0.912871
0.957214 0.959686 0.901213
0.000000 0.136934 0.501946
0.000000 0.136141 0.506035
0.189975 0.125490 0.511467
0.458137 0.000000 0.520073
0.665095 0.000000 0.500023
0.799893 0.000000 0.464698
0.889281 0.189181 0.435248
0.969512 0.272526 0.413123
0.000000 0.192721 0.519036
0.000000 0.192905 0.520134
0.211795 0.187625 0.523552
0.466682 0.150790 0.529992
0.670039 0.117342 0.510369
0.798642 0.156832 0.473152
0.886107 0.243351 0.442329
0.965728 0.307988 0.420569
0.000000 0.356725 0.537926
0.000000 0.359960 0.538781
0.266575 0.363745 0.544854
0.477241 0.351843 0.549950
0.673518 0.351476 0.540948
0.794308 0.366522 0.508049
0.884733 0.398016 0.483192
0.951751 0.456275 0.479133
0.000000 0.554589 0.589776
0.000000 0.554162 0.588861
0.287968 0.555749 0.588220
0.500999 0.561578 0.589624
0.665217 0.555413 0.585321
0.768612 0.547326 0.553368
0.863584 0.555627 0.539605
0.955596 0.558404 0.516686
0.000000 0.722896 0.641108
0.000000 0.721798 0.640406
0.314122 0.720577 0.641108
0.512505 0.726101 0.648798
0.714931 0.746609 0.691554
0.799435 0.720119 0.652857
0.884062 0.694911 0.611841
0.955444 0.684230 0.584955
0.416114 0.839139 0.707027
0.447333 0.841245 0.712123
0.526390 0.840879 0.718074
0.645991 0.842161 0.736294
0.771511 0.848051 0.778164
0.841367 0.854734 0.797421
0.882261 0.838285 0.768826
0.942565 0.814481 0.712245
0.666438 0.906310 0.793057
0.675929 0.906401 0.795438
0.710048 0.906523 0.803738
0.763210 0.907713 0.818875
0.829953 0.912016 0.846036
0.886168 0.923033 0.872282
0.909178 0.916594 0.860807
0.936034 0.906371 0.845396
0.798734 0.956146 0.867643
0.802609 0.956146 0.868803
0.818204 0.956298 0.873869
0.850950 0.956573 0.887358
0.886503 0.959197 0.902342
0.920043 0.963409 0.917418
0.942992 0.964843 0.923766
0.956847 0.960479 0.912963
0.000000 0.180087 0.671107
0.000000 0.181094 0.673396
0.105776 0.180270 0.675196
0.417273 0.161929 0.678676
0.635798 0.089540 0.684321
0.800381 0.121736 0.668696
0.905943 0.174044 0.629572
0.983124 0.258946 0.587640
0.000000 0.235966 0.679438
0.000000 0.236973 0.681636
0.169680 0.235630 0.682612
0.428840 0.223209 0.683925
0.638148 0.188937 0.688289
0.799741 0.206973 0.672908
0.903990 0.234409 0.633570
0.980255 0.295079 0.590570
0.000000 0.393896 0.693233
0.000000 0.394537 0.694545
0.261265 0.389471 0.696315
0.454261 0.381903 0.695827
0.635492 0.366369 0.695613
0.789151 0.371313 0.682673
0.892332 0.375982 0.644800
0.966155 0.398505 0.598566
0.000000 0.552056 0.709712
0.154788 0.553033 0.709438
0.336919 0.558770 0.709560
0.491829 0.564263 0.714351
0.634882 0.554681 0.715999
0.778256 0.550958 0.709926
0.875395 0.539788 0.670436
0.946441 0.534752 0.620569
0.182315 0.697200 0.739620
0.235721 0.697627 0.739834
0.366857 0.697963 0.739681
0.512108 0.699428 0.739528
0.647883 0.702754 0.738552
0.764309 0.699733 0.738460
0.845487 0.683436 0.699702
0.914183 0.680079 0.673365
0.306615 0.808835 0.764462
0.332036 0.808652 0.764675
0.411658 0.806455 0.762844
0.524132 0.804562 0.761746
0.648005 0.805051 0.763272
0.794400 0.822110 0.797574
0.857481 0.816342 0.785489
0.920806 0.796689 0.748165
0.541802 0.890623 0.801755
0.552941 0.890288 0.801877
0.599603 0.890013 0.804685
0.683650 0.891081 0.815915
0.770779 0.894224 0.833799
0.851530 0.903105 0.862852
0.898314 0.909483 0.874907
0.926177 0.898375 0.856260
0.739803 0.949554 0.861753
0.745052 0.949432 0.862669
0.766384 0.949340 0.867033
0.806394 0.950835 0.878141
0.852842 0.952697 0.892882
0.904479 0.957336 0.915404
0.942168 0.964141 0.933867
0.953979 0.958984 0.922301
0.000000 0.252049 0.804898
0.000000 0.254337 0.806119
0.178256 0.256504 0.806516
0.420569 0.255863 0.807675
0.603052 0.243717 0.806546
0.762844 0.222507 0.804685
0.894316 0.262303 0.795315
0.981445 0.296605 0.761990
0.000000 0.293919 0.802090
0.000000 0.294408 0.801968
0.206058 0.294194 0.801602
0.421302 0.290532 0.801511
0.598352 0.280217 0.801297
0.756802 0.263462 0.800717
0.888212 0.294865 0.792386
0.976745 0.320317 0.759792
0.080079 0.432044 0.811368
0.147066 0.428168 0.811215
0.301610 0.426062 0.810391
0.452644 0.417884 0.806546
0.605524 0.410559 0.805356
0.751919 0.400153 0.804776
0.880217 0.414252 0.798306
0.967651 0.419562 0.765225
0.277348 0.575158 0.814084
0.303593 0.575311 0.813535
0.392767 0.578546 0.813993
0.505211 0.580377 0.817685
0.624414 0.574823 0.817502
0.747982 0.564630 0.816007
0.868467 0.563500 0.811765
0.952880 0.550378 0.776394
0.339208 0.687678 0.818051
0.360723 0.688014 0.817777
0.434302 0.690181 0.817166
0.540032 0.695644 0.816617
0.646021 0.701442 0.817655
0.739681 0.694331 0.817533
0.848142 0.685634 0.815396
0.929107 0.662318 0.777371
0.413703 0.787808 0.830167
0.431769 0.788876 0.831022
0.484260 0.788907 0.830533
0.566979 0.789578 0.829770
0.661616 0.791348 0.828672
0.759396 0.798367 0.829679
0.840818 0.799130 0.830686
0.896544 0.781125 0.796719
0.509636 0.878019 0.854154
0.520836 0.878233 0.854490
0.556329 0.877409 0.853819
0.617182 0.876066 0.852445
0.693263 0.874723 0.850675
0.776669 0.875181 0.852079
0.873503 0.891905 0.879759
0.913603 0.883970 0.864744
0.637232 0.938506 0.871611
0.643671 0.938323 0.871611
0.672633 0.938445 0.873136
0.724727 0.940063 0.877836
0.790555 0.942657 0.886687
0.860441 0.946471 0.903563
0.924743 0.955718 0.930602
0.950683 0.957305 0.934173
0.000000 0.333440 0.883299
0.141024 0.335424 0.884062
0.293523 0.335790 0.883330
0.444038 0.336980 0.882933
0.586755 0.333165 0.881468
0.721218 0.324834 0.879362
0.844938 0.314183 0.876585
0.948974 0.346868 0.868833
0.096254 0.358831 0.879118
0.172946 0.360845 0.880156
0.302922 0.360388 0.879606
0.443366 0.358251 0.878538
0.581933 0.352392 0.876921
0.714046 0.341985 0.874205
0.837034 0.327001 0.870939
0.941527 0.353033 0.862669
0.261082 0.461952 0.880491
0.284306 0.461524 0.880369
0.360845 0.458656 0.879271
0.470832 0.454719 0.878050
0.590967 0.447364 0.875883
0.713497 0.437995 0.873899
0.833066 0.428107 0.873014
0.937682 0.445563 0.867887
0.375006 0.589258 0.880095
0.388098 0.588617 0.879484
0.442054 0.589319 0.878447
0.516869 0.584161 0.878294
0.611810 0.576776 0.876768
0.717433 0.568872 0.875914
0.825498 0.559350 0.875547
0.926299 0.560327 0.871519
0.435248 0.688808 0.875364
0.444617 0.688045 0.874418
0.484565 0.687739 0.873503
0.553887 0.689296 0.873716
0.639429 0.691676 0.873716
0.720607 0.683070 0.872801
0.812650 0.672938 0.872435
0.911467 0.671412 0.872831
0.481331 0.775326 0.879271
0.491463 0.775753 0.879271
0.528893 0.776761 0.878904
0.592554 0.779141 0.878202
0.670771 0.782956 0.876799
0.752743 0.790555 0.877836
0.819028 0.786465 0.878538
0.900145 0.777554 0.877409
0.555932 0.854337 0.889830
0.564111 0.854826 0.890166
0.591028 0.854948 0.889921
0.639826 0.855711 0.889677
0.701900 0.856657 0.888914
0.768154 0.858701 0.888304
0.834867 0.863127 0.888640
0.897185 0.859556 0.884672
0.621759 0.927733 0.910796
0.626917 0.927855 0.910887
0.649348 0.928344 0.911406
0.684260 0.928252 0.910796
0.729641 0.928008 0.909270
0.783413 0.928496 0.907073
0.864652 0.934142 0.914580
0.943359 0.952178 0.944274
0.346441 0.428199 0.937346
0.362799 0.428992 0.937560
0.414466 0.426886 0.936461
0.501488 0.426215 0.936004
0.602899 0.422553 0.934997
0.708339 0.414527 0.933410
0.813870 0.404303 0.932219
0.913115 0.390509 0.929992
0.351720 0.443458 0.934844
0.367315 0.444434 0.935119
0.418372 0.442817 0.934508
0.501976 0.440650 0.933898
0.601312 0.436164 0.932952
0.705867 0.427497 0.931456
0.810086 0.415137 0.929931
0.909117 0.398840 0.927520
0.391760 0.510765 0.931975
0.403479 0.510704 0.931945
0.444648 0.507713 0.931243
0.520836 0.507927 0.931884
0.608942 0.500633 0.930602
0.705287 0.489326 0.928801
0.805661 0.476478 0.927703
0.903044 0.458778 0.925994
0.458412 0.609247 0.927733
0.465217 0.608331 0.928038
0.490822 0.603143 0.927886
0.548882 0.600275 0.927855
0.624018 0.594110 0.927337
0.709529 0.583948 0.926421
0.801816 0.571649 0.925933
0.894774 0.554070 0.925231
0.486336 0.690150 0.924346
0.494820 0.690578 0.924559
0.521416 0.688685 0.924163
0.583612 0.693385 0.923644
0.645869 0.689631 0.923095
0.716182 0.680232 0.922545
0.797543 0.669886 0.922728
0.884489 0.657771 0.923430
0.539422 0.774166 0.923430
0.543999 0.773556 0.923033
0.566308 0.772427 0.921813
0.611261 0.772671 0.920592
0.667384 0.771908 0.921141
0.743679 0.779049 0.922576
0.809873 0.776333 0.924559
0.882139 0.770413 0.926268
0.606714 0.852079 0.931884
0.611139 0.852079 0.931762
0.629999 0.852049 0.931334
0.665156 0.852262 0.930571
0.713008 0.852689 0.929381
0.768276 0.853330 0.927886
0.827329 0.854795 0.927855
0.882475 0.848173 0.927764
0.657557 0.912749 0.938903
0.660517 0.912627 0.938781
0.674647 0.912688 0.938659
0.702632 0.913420 0.938872
0.740749 0.914305 0.938964
0.786831 0.915465 0.938842
0.841794 0.917540 0.938811
0.902159 0.921569 0.939025
