20 Preset/Ins style/【3】LUT video cho PR-AE-FCPX/Tone (10).cube
# Created by Adobe Lightroom plugin Export LUT (1.24.0)
# www.johnrellis.com/lightroom/exportlut.htm
# Preset: INS网红琥珀色-素材江湖08
# Color profile: C:\Program Files (x86)\Common Files\Adobe\Color\Profiles\Recommended\VideoHD.icc
LUT_3D_SIZE 32
DOMAIN_MIN 0.0 0.0 0.0
DOMAIN_MAX 1.0 1.0 1.0
0.000000 0.000000 0.000000
0.000000 0.000000 0.000000
0.001984 0.000000 0.000000
0.147829 0.000000 0.000000
0.223484 0.000000 0.000000
0.304875 0.000000 0.000000
0.389166 0.000000 0.000000
0.470161 0.000000 0.000000
0.545098 0.000000 0.000000
0.611627 0.000000 0.000000
0.670344 0.000000 0.000000
0.722103 0.000000 0.000000
0.767514 0.000000 0.000000
0.806790 0.000000 0.000000
0.840787 0.000000 0.000000
0.873411 0.000000 0.000000
0.905791 0.000000 0.000000
0.933104 0.000000 0.000000
0.957092 0.000000 0.000000
0.979187 0.000000 0.000000
0.999756 0.000000 0.000000
1.000000 0.000000 0.000000
1.000000 0.000000 0.000000
1.000000 0.000000 0.000000
1.000000 0.000000 0.000000
1.000000 0.000000 0.000000
1.000000 0.000000 0.000000
1.000000 0.000000 0.000000
1.000000 0.000000 0.000000
1.000000 0.000000 0.000000
1.000000 0.000000 0.000000
1.000000 0.130465 0.000000
0.000000 0.000000 0.000000
0.000000 0.000000 0.000000
0.017884 0.000000 0.000000
0.151522 0.000000 0.000000
0.225162 0.000000 0.000000
0.304387 0.000000 0.000000
0.387701 0.000000 0.000000
0.468025 0.000000 0.000000
0.542321 0.000000 0.000000
0.607324 0.000000 0.000000
0.666102 0.000000 0.000000
0.718532 0.000000 0.000000
0.764248 0.000000 0.000000
0.803738 0.000000 0.000000
0.838132 0.000000 0.000000
0.871031 0.000000 0.000000
0.902861 0.000000 0.000000
0.929931 0.000000 0.000000
0.953887 0.000000 0.000000
0.975769 0.000000 0.000000
0.996124 0.000000 0.000000
1.000000 0.000000 0.000000
1.000000 0.000000 0.000000
1.000000 0.000000 0.000000
1.000000 0.000000 0.000000
1.000000 0.000000 0.000000
1.000000 0.000000 0.000000
1.000000 0.000000 0.000000
1.000000 0.000000 0.000000
1.000000 0.000000 0.000000
1.000000 0.000000 0.000000
1.000000 0.116243 0.000000
0.002319 0.011872 0.005097
0.000000 0.015473 0.005798
0.041627 0.022889 0.011872
0.150362 0.028534 0.010956
0.220249 0.009308 0.010437
0.300298 0.000000 0.004456
0.383673 0.000000 0.000000
0.463203 0.000000 0.000000
0.536339 0.000000 0.000000
0.602899 0.000000 0.000000
0.662867 0.000000 0.000000
0.715999 0.000000 0.000000
0.762173 0.000000 0.000000
0.802090 0.000000 0.000000
0.836698 0.000000 0.000000
0.870207 0.000000 0.000000
0.901335 0.000000 0.000000
0.928069 0.000000 0.000000
0.951904 0.000000 0.000000
0.973846 0.000000 0.000000
0.994232 0.000000 0.000000
1.000000 0.000000 0.000000
1.000000 0.000000 0.000000
1.000000 0.000000 0.000000
1.000000 0.000000 0.000000
1.000000 0.000000 0.000000
1.000000 0.000000 0.000000
1.000000 0.000000 0.000000
1.000000 0.000000 0.000000
1.000000 0.000000 0.000000
1.000000 0.000000 0.000000
1.000000 0.130800 0.000000
0.021881 0.109957 0.055665
0.030457 0.111635 0.051301
0.096345 0.114260 0.044953
0.124483 0.112459 0.094606
0.191867 0.130800 0.099397
0.277165 0.129213 0.091432
0.366461 0.108309 0.076417
0.450050 0.021363 0.050874
0.527764 0.000000 0.025757
0.597009 0.000000 0.004334
0.659297 0.000000 0.000000
0.713191 0.000000 0.000000
0.760494 0.000000 0.000000
0.800565 0.000000 0.000000
0.835508 0.000000 0.000000
0.869718 0.000000 0.000000
0.899748 0.000000 0.000000
0.925628 0.000000 0.000000
0.948943 0.000000 0.000000
0.970459 0.000000 0.000000
0.990478 0.000000 0.000000
1.000000 0.000000 0.000000
1.000000 0.000000 0.000000
1.000000 0.000000 0.000000
1.000000 0.000000 0.000000
1.000000 0.000000 0.000000
1.000000 0.000000 0.000000
1.000000 0.000000 0.000000
1.000000 0.000000 0.000000
1.000000 0.000000 0.000000
1.000000 0.088319 0.000000
1.000000 0.164096 0.000000
0.092866 0.160372 0.095216
0.098848 0.161196 0.092836
0.123323 0.163943 0.084443
0.153140 0.158450 0.107881
0.175265 0.159976 0.136233
0.251621 0.181003 0.132052
0.335485 0.186954 0.123629
0.426764 0.176547 0.109468
0.510155 0.154299 0.095277
0.584344 0.116335 0.076356
0.650263 0.000000 0.044038
0.707179 0.000000 0.014954
0.756100 0.000000 0.000000
0.797879 0.000000 0.000000
0.834287 0.000000 0.000000
0.869139 0.000000 0.000000
0.898802 0.000000 0.000000
0.924590 0.000000 0.000000
0.947936 0.000000 0.000000
0.969299 0.000000 0.000000
0.989227 0.000000 0.000000
1.000000 0.000000 0.000000
1.000000 0.000000 0.000000
1.000000 0.000000 0.000000
1.000000 0.000000 0.000000
1.000000 0.000000 0.000000
1.000000 0.000000 0.000000
1.000000 0.000000 0.000000
1.000000 0.000000 0.000000
1.000000 0.107240 0.000000
1.000000 0.160647 0.000000
1.000000 0.207156 0.008026
0.122042 0.208133 0.108827
0.126101 0.208988 0.107759
0.146731 0.211551 0.100649
0.176547 0.209293 0.114412
0.205875 0.204501 0.137636
0.236149 0.211490 0.171664
0.323339 0.237003 0.161654
0.399054 0.243290 0.151369
0.488014 0.239872 0.134463
0.569879 0.226017 0.117433
0.640803 0.204501 0.101320
0.701534 0.178988 0.083558
0.753017 0.148592 0.050202
0.796078 0.115969 0.020691
0.835904 0.063355 0.000000
0.870237 0.000000 0.000000
0.899596 0.000000 0.000000
0.925414 0.000000 0.000000
0.948699 0.000000 0.000000
0.969940 0.000000 0.000000
0.989654 0.000000 0.000000
1.000000 0.000000 0.000000
1.000000 0.095491 0.000000
1.000000 0.114473 0.000000
1.000000 0.131197 0.000000
1.000000 0.148013 0.000000
1.000000 0.166537 0.000000
1.000000 0.186770 0.000000
1.000000 0.209720 0.000000
1.000000 0.235691 0.045655
1.000000 0.264225 0.099031
1.000000 0.296361 0.129885
0.150088 0.268101 0.113344
0.154513 0.268711 0.111971
0.174075 0.270939 0.105287
0.205570 0.270848 0.117678
0.243290 0.269230 0.139498
0.276982 0.266117 0.171115
0.320012 0.282261 0.218265
0.415564 0.310399 0.202945
0.489418 0.315007 0.186893
0.559442 0.312016 0.171542
0.638300 0.302373 0.150759
0.703212 0.289586 0.133181
0.756527 0.274388 0.116823
0.804990 0.262028 0.102052
0.846036 0.249790 0.086427
0.879484 0.238407 0.055695
0.908263 0.227634 0.027893
0.933410 0.218143 0.003082
0.956176 0.211002 0.000000
0.977356 0.207370 0.000000
0.997528 0.206821 0.000000
1.000000 0.209262 0.000000
1.000000 0.213596 0.000000
1.000000 0.219150 0.000000
1.000000 0.225742 0.000000
1.000000 0.233890 0.000000
1.000000 0.242222 0.008484
1.000000 0.253849 0.046235
1.000000 0.269047 0.089265
1.000000 0.287236 0.111940
1.000000 0.309392 0.135256
1.000000 0.336126 0.161257
0.183902 0.323766 0.109407
0.188052 0.324407 0.107485
0.204654 0.325994 0.102937
0.234470 0.326757 0.117372
0.272343 0.327672 0.138491
0.313725 0.328557 0.168521
0.350164 0.328985 0.209354
0.403021 0.353887 0.268559
0.496376 0.381506 0.251164
0.565270 0.384314 0.231205
0.621759 0.379889 0.215579
0.685359 0.374029 0.196872
0.748440 0.368841 0.179110
0.798581 0.359899 0.163058
0.839261 0.349554 0.148074
0.873045 0.338628 0.134798
0.902129 0.328283 0.122072
0.927733 0.317906 0.109346
0.950866 0.309941 0.099062
0.972259 0.303929 0.089723
0.992401 0.300511 0.076814
1.000000 0.298894 0.065827
1.000000 0.298314 0.064088
1.000000 0.299199 0.073671
1.000000 0.301762 0.087373
1.000000 0.304936 0.097871
1.000000 0.309697 0.109194
1.000000 0.317082 0.122286
1.000000 0.327428 0.137453
1.000000 0.341772 0.155245
1.000000 0.359594 0.175021
1.000000 0.382483 0.198856
0.225376 0.380774 0.098390
0.229679 0.381567 0.096223
0.242954 0.382116 0.103029
0.269261 0.384344 0.117342
0.304753 0.387152 0.138735
0.348211 0.390356 0.169009
0.392096 0.394202 0.207736
0.427558 0.396033 0.259525
0.489723 0.430579 0.328740
0.576654 0.456703 0.310735
0.641688 0.462318 0.290715
0.692622 0.460090 0.274388
0.733913 0.452857 0.259190
0.785702 0.447333 0.238590
0.828214 0.438087 0.219699
0.863462 0.427222 0.202884
0.893767 0.416205 0.187991
0.920317 0.405859 0.174990
0.944152 0.396368 0.164187
0.966155 0.388464 0.154879
0.986267 0.382910 0.147768
1.000000 0.378485 0.144015
1.000000 0.375250 0.142855
1.000000 0.373205 0.144198
1.000000 0.372320 0.148287
1.000000 0.372717 0.154849
1.000000 0.374823 0.162387
1.000000 0.379583 0.172763
1.000000 0.387030 0.185061
1.000000 0.397986 0.200504
1.000000 0.413092 0.219272
1.000000 0.432197 0.241825
0.269108 0.438209 0.093935
0.272892 0.438514 0.096345
0.283879 0.439399 0.104128
0.307164 0.441993 0.119203
0.339940 0.445411 0.141817
0.381537 0.450324 0.172030
0.427558 0.455848 0.210544
0.475105 0.464271 0.259464
0.510826 0.469856 0.322789
0.578546 0.514244 0.402411
0.652644 0.536889 0.384649
0.703059 0.538659 0.360906
0.742855 0.533257 0.339757
0.774746 0.523491 0.321233
0.810117 0.514336 0.301183
0.848234 0.505974 0.280858
0.880919 0.496529 0.263401
0.909483 0.486610 0.247684
0.934722 0.477180 0.234714
0.957610 0.468116 0.223178
0.977783 0.460273 0.214694
0.995483 0.452918 0.208194
1.000000 0.446204 0.204440
1.000000 0.441444 0.203250
1.000000 0.437446 0.204471
1.000000 0.435431 0.208347
1.000000 0.435096 0.213626
1.000000 0.437354 0.221683
1.000000 0.442847 0.233066
1.000000 0.451606 0.247166
1.000000 0.464546 0.265568
1.000000 0.481239 0.287846
0.313390 0.493355 0.102022
0.316106 0.493660 0.103914
0.326848 0.495460 0.112459
0.348333 0.499001 0.127962
0.379431 0.504234 0.151400
0.419593 0.511070 0.182040
0.466835 0.519646 0.221683
0.516136 0.529442 0.269596
0.563104 0.540337 0.327733
0.591638 0.545708 0.397436
0.650996 0.589746 0.478737
0.707851 0.605737 0.459998
0.748287 0.604822 0.434638
0.781308 0.597833 0.410681
0.808225 0.587182 0.388525
0.830381 0.574640 0.368780
0.864378 0.567010 0.347875
0.894804 0.557885 0.328496
0.921508 0.548577 0.312139
0.945068 0.539574 0.297978
0.965698 0.530053 0.285863
0.983703 0.521111 0.276799
0.999908 0.513298 0.271092
1.000000 0.506554 0.267338
1.000000 0.500786 0.266270
1.000000 0.497047 0.267582
1.000000 0.495552 0.271733
1.000000 0.496254 0.278630
1.000000 0.499855 0.288182
1.000000 0.506584 0.301488
1.000000 0.517235 0.319066
1.000000 0.531792 0.341009
0.364019 0.551690 0.122042
0.366888 0.552148 0.124300
0.376013 0.553582 0.132174
0.395270 0.556817 0.147860
0.423560 0.561547 0.170352
0.460792 0.568017 0.201114
0.504540 0.576226 0.239139
0.551568 0.585626 0.285405
0.597528 0.596246 0.340826
0.637049 0.608209 0.404089
0.658534 0.614527 0.477333
0.707057 0.654414 0.551537
0.771603 0.690608 0.564172
0.802640 0.686732 0.538994
0.828367 0.677699 0.513146
0.849943 0.665797 0.488228
0.868162 0.651911 0.464240
0.889586 0.640009 0.441718
0.916014 0.630701 0.421241
0.938567 0.620508 0.403510
0.958251 0.609735 0.388037
0.975616 0.599451 0.375433
0.991363 0.589776 0.365454
1.000000 0.581537 0.358862
1.000000 0.574914 0.355261
1.000000 0.569696 0.353613
1.000000 0.566247 0.354589
1.000000 0.565301 0.358587
1.000000 0.567010 0.366339
1.000000 0.571557 0.377325
1.000000 0.579736 0.392920
1.000000 0.591730 0.413489
0.428534 0.614649 0.163394
0.429603 0.614771 0.164126
0.438361 0.615625 0.171695
0.454658 0.617945 0.185489
0.479164 0.621332 0.206577
0.511681 0.626093 0.234867
0.549981 0.632837 0.271366
0.592004 0.640986 0.316075
0.633112 0.650965 0.368109
0.671290 0.662684 0.428382
0.703853 0.676234 0.494392
0.723354 0.687739 0.568566
0.762325 0.721431 0.629084
0.797574 0.728298 0.612726
0.825040 0.725612 0.591852
0.847410 0.717494 0.569024
0.866270 0.706386 0.545861
0.882353 0.693324 0.522789
0.896391 0.679438 0.500999
0.918334 0.669795 0.481575
0.938659 0.659907 0.464240
0.956878 0.649989 0.449470
0.973297 0.640650 0.437507
0.988556 0.632044 0.428138
1.000000 0.624933 0.421973
1.000000 0.619257 0.418219
1.000000 0.615442 0.417609
1.000000 0.613703 0.420081
1.000000 0.614527 0.426123
1.000000 0.618036 0.435981
1.000000 0.624659 0.449928
1.000000 0.634882 0.468666
0.473426 0.652888 0.198672
0.474403 0.652827 0.199344
0.481300 0.653620 0.205905
0.494881 0.655238 0.217411
0.515953 0.658015 0.236301
0.543206 0.662165 0.261662
0.576471 0.668025 0.295018
0.612451 0.675349 0.335393
0.649744 0.684443 0.383734
0.685420 0.695064 0.438422
0.717861 0.707271 0.498360
0.744900 0.720668 0.559472
0.762264 0.733333 0.627100
0.794369 0.760464 0.674861
0.822293 0.763760 0.658991
0.843992 0.759304 0.639368
0.861906 0.750484 0.617945
0.877562 0.739559 0.596643
0.891569 0.727352 0.575616
0.904051 0.714656 0.555352
0.918761 0.703273 0.537011
0.937560 0.694484 0.521599
0.954620 0.685908 0.508690
0.970489 0.677943 0.498268
0.985595 0.670985 0.490272
1.000000 0.665400 0.485054
1.000000 0.661128 0.482368
1.000000 0.658900 0.483040
1.000000 0.658900 0.487129
1.000000 0.661585 0.495399
1.000000 0.667048 0.507256
1.000000 0.675868 0.523766
0.514702 0.686305 0.236027
0.516075 0.686397 0.237308
0.521111 0.686946 0.241917
0.532525 0.688380 0.252415
0.550225 0.690822 0.269261
0.573144 0.694392 0.292088
0.601038 0.699519 0.322301
0.632441 0.706172 0.359197
0.665461 0.714260 0.403052
0.698390 0.723934 0.453315
0.729122 0.734829 0.507103
0.756863 0.746822 0.562737
0.778592 0.758083 0.616205
0.794919 0.771572 0.676051
0.818936 0.791012 0.713680
0.839628 0.790738 0.698238
0.856779 0.785428 0.680140
0.871672 0.776822 0.660548
0.885130 0.766690 0.640955
0.897429 0.755642 0.621759
0.908843 0.744198 0.603571
0.919524 0.733150 0.587152
0.935943 0.725154 0.573846
0.952270 0.718135 0.563104
0.967895 0.711696 0.554192
0.982910 0.706325 0.547814
0.997467 0.702327 0.544182
1.000000 0.700130 0.543572
1.000000 0.699916 0.546380
1.000000 0.702327 0.553002
1.000000 0.707607 0.563745
1.000000 0.715816 0.578393
0.550072 0.714778 0.272709
0.551415 0.715114 0.274357
0.556329 0.715846 0.279057
0.565728 0.717403 0.288365
0.581231 0.720089 0.304082
0.601007 0.723720 0.325414
0.625391 0.728908 0.353674
0.653193 0.735225 0.388159
0.682643 0.742794 0.428565
0.712306 0.751431 0.473823
0.740780 0.760769 0.521904
0.767086 0.770718 0.570703
0.790188 0.780972 0.618158
0.806363 0.788876 0.663630
0.818509 0.799710 0.715938
0.834958 0.812528 0.745388
0.851316 0.810758 0.730465
0.865629 0.805539 0.713924
0.878355 0.797787 0.696132
0.890288 0.788785 0.678492
0.901518 0.779294 0.661738
0.912200 0.769772 0.646265
0.922393 0.760586 0.632349
0.934936 0.752895 0.620630
0.950927 0.747616 0.611963
0.966339 0.743099 0.605280
0.981231 0.739681 0.601099
0.995941 0.737484 0.599359
1.000000 0.737179 0.600671
1.000000 0.739010 0.605371
1.000000 0.743252 0.613550
1.000000 0.750027 0.625177
0.581140 0.740017 0.309697
0.582391 0.740169 0.310918
0.586023 0.740810 0.314580
0.594507 0.742397 0.323613
0.607324 0.744839 0.337957
0.624537 0.748318 0.357641
0.645380 0.752834 0.382910
0.669642 0.758511 0.414069
0.695521 0.765103 0.450263
0.722377 0.772641 0.490761
0.748684 0.780941 0.533898
0.773648 0.789578 0.577569
0.795895 0.798001 0.620844
0.814389 0.805783 0.662562
0.825620 0.810788 0.702541
0.834714 0.820096 0.749722
0.847135 0.829587 0.772763
0.860746 0.827604 0.759121
0.873289 0.823056 0.744137
0.884642 0.816281 0.727871
0.895537 0.808835 0.712520
0.906035 0.800931 0.697932
0.916106 0.792996 0.684565
0.925872 0.785397 0.672694
0.935363 0.778408 0.662654
0.950683 0.774655 0.655879
0.965972 0.771847 0.651179
0.980926 0.770199 0.648859
0.995727 0.769986 0.649195
1.000000 0.771633 0.652522
1.000000 0.775326 0.658900
1.000000 0.781430 0.668605
0.610559 0.763729 0.348211
0.611322 0.763912 0.349126
0.627375 0.774289 0.370794
0.633997 0.775601 0.378515
0.644617 0.777737 0.391455
0.658869 0.780697 0.409064
0.676387 0.784512 0.431586
0.696712 0.789242 0.459113
0.719020 0.794766 0.491371
0.742123 0.800870 0.526879
0.765011 0.807034 0.564233
0.786831 0.813169 0.602655
0.806424 0.818936 0.640375
0.823575 0.824491 0.677363
0.837156 0.829740 0.712276
0.843931 0.832517 0.745693
0.851194 0.840635 0.784817
0.862364 0.847654 0.799130
0.873075 0.845640 0.787594
0.883360 0.841733 0.775051
0.893126 0.835996 0.760983
0.902922 0.829709 0.747250
0.912566 0.823087 0.734340
0.921904 0.816464 0.722591
0.931060 0.809995 0.711971
0.940093 0.804196 0.703212
0.952270 0.800595 0.697169
0.967376 0.798947 0.693507
0.982238 0.798672 0.692500
0.997131 0.800076 0.694362
1.000000 0.803311 0.699245
1.000000 0.808713 0.707118
0.639490 0.787442 0.390539
0.641352 0.788388 0.393011
0.645228 0.789853 0.398322
0.652430 0.791775 0.407172
0.662257 0.794247 0.419501
0.674678 0.797055 0.435554
0.690089 0.800351 0.456062
0.707515 0.804196 0.480507
0.727077 0.808591 0.508995
0.747311 0.813291 0.540276
0.767910 0.818235 0.573907
0.787930 0.823178 0.608331
0.806577 0.828000 0.643000
0.823331 0.832731 0.676997
0.837552 0.837278 0.709773
0.848875 0.841855 0.741238
0.853941 0.844297 0.770840
0.862486 0.852720 0.802762
0.873350 0.858824 0.813443
0.882841 0.857237 0.803861
0.891905 0.854246 0.793729
0.900664 0.850065 0.783047
0.909422 0.845212 0.772213
0.918242 0.839933 0.761563
0.927123 0.834501 0.751308
0.935973 0.829435 0.742580
0.944854 0.825071 0.735531
0.954528 0.822141 0.730953
0.969604 0.822110 0.729183
0.984649 0.823514 0.730037
0.999817 0.826627 0.733700
1.000000 0.831571 0.740230
0.659907 0.804562 0.423194
0.661494 0.805386 0.425788
0.665156 0.806699 0.430549
0.670924 0.808347 0.438422
0.679408 0.810361 0.449744
0.690425 0.812619 0.464668
0.703243 0.815183 0.482429
0.718624 0.818143 0.504479
0.735592 0.821500 0.529564
0.753414 0.825193 0.557214
0.771878 0.829068 0.587121
0.790280 0.833066 0.618097
0.807797 0.837064 0.649531
0.823972 0.841062 0.680873
0.838346 0.845182 0.711360
0.850645 0.849424 0.740597
0.860472 0.853849 0.768276
0.865080 0.856138 0.792050
0.874723 0.864561 0.818326
0.885008 0.869718 0.826322
0.893431 0.868254 0.817868
0.901549 0.865782 0.809354
0.909453 0.862516 0.800748
0.917357 0.858793 0.792233
0.925353 0.854765 0.783963
0.933501 0.850767 0.776303
0.941955 0.847074 0.769589
0.950683 0.844266 0.764645
0.959869 0.842710 0.761990
0.973480 0.843839 0.762142
0.988922 0.846799 0.764553
1.000000 0.851255 0.769406
0.678279 0.819852 0.456641
0.679683 0.820493 0.458625
0.682521 0.821469 0.462989
0.687556 0.822721 0.470192
0.694789 0.824216 0.480262
0.703944 0.825925 0.492927
0.715297 0.827909 0.509148
0.728542 0.830228 0.528344
0.743465 0.832853 0.550500
0.759457 0.835782 0.575158
0.776333 0.838926 0.601953
0.793149 0.842222 0.629847
0.809476 0.845609 0.658198
0.825071 0.849180 0.686641
0.839597 0.852995 0.714931
0.852384 0.857023 0.742275
0.863371 0.861265 0.768307
0.872740 0.865782 0.790707
0.877562 0.868162 0.810086
0.888121 0.876646 0.832792
0.897887 0.881315 0.839658
0.905882 0.880095 0.831907
0.913420 0.878019 0.824460
0.920958 0.875578 0.817533
0.928435 0.872862 0.810941
0.936034 0.870085 0.804837
0.943908 0.867491 0.799466
0.952209 0.865476 0.795346
0.961151 0.864439 0.792966
0.970886 0.864775 0.792660
0.983246 0.867033 0.794461
0.999390 0.871244 0.797787
0.699001 0.835996 0.498512
0.699825 0.836271 0.499702
0.701717 0.836667 0.502525
0.705470 0.837278 0.507744
0.711299 0.838193 0.515770
0.718868 0.839292 0.526452
0.728634 0.840696 0.540215
0.740200 0.842435 0.556817
0.753231 0.844450 0.576135
0.767544 0.846769 0.597894
0.782681 0.849332 0.621454
0.798215 0.852171 0.646326
0.813657 0.855283 0.671839
0.828672 0.858518 0.697597
0.842802 0.862058 0.723201
0.855772 0.865721 0.748318
0.867155 0.869627 0.771847
0.877256 0.873747 0.792020
0.885954 0.877836 0.809506
0.890776 0.879973 0.825467
0.900938 0.887938 0.846159
0.909575 0.891722 0.851591
0.916716 0.890196 0.843839
0.923522 0.888029 0.836423
0.930632 0.885832 0.829923
0.937926 0.883604 0.824125
0.945434 0.881559 0.819181
0.953368 0.879942 0.815305
0.961944 0.879088 0.812711
0.971344 0.879240 0.811673
0.981659 0.880735 0.812589
0.993164 0.883787 0.815610
0.713222 0.847074 0.529992
0.713802 0.847257 0.530938
0.715663 0.847623 0.533623
0.718929 0.848112 0.538109
0.723964 0.848783 0.545037
0.730678 0.849699 0.554528
0.739193 0.850797 0.566461
0.749477 0.852201 0.580987
0.761257 0.853910 0.598169
0.774380 0.855924 0.617426
0.788205 0.858244 0.638209
0.802670 0.860838 0.660426
0.817350 0.863645 0.683497
0.831724 0.866697 0.706813
0.845518 0.869993 0.730282
0.858396 0.873442 0.753384
0.870176 0.877165 0.774838
0.880827 0.881041 0.793423
0.890471 0.885100 0.809720
0.898558 0.888792 0.824430
0.903258 0.890867 0.839048
0.912871 0.898405 0.858427
0.920714 0.901549 0.862882
0.927367 0.900053 0.855375
0.932586 0.896880 0.847013
0.939513 0.894957 0.840909
0.946868 0.893278 0.835782
0.954559 0.891966 0.831693
0.962860 0.891173 0.828702
0.971893 0.891203 0.827146
0.981842 0.892454 0.827329
0.992859 0.895079 0.829526
0.729061 0.858671 0.565454
0.729976 0.858946 0.566827
0.731380 0.859190 0.568841
0.734157 0.859525 0.572503
0.738308 0.859922 0.577905
0.743984 0.860502 0.585443
0.751217 0.861265 0.595056
0.760067 0.862272 0.607019
0.770443 0.863584 0.621241
0.781918 0.865202 0.637354
0.794491 0.867063 0.655238
0.807706 0.869261 0.674556
0.821286 0.871672 0.694759
0.834775 0.874296 0.715511
0.847898 0.877134 0.736477
0.860349 0.880156 0.757259
0.871977 0.883482 0.776547
0.882719 0.887022 0.793576
0.892729 0.890806 0.808896
0.902007 0.894713 0.822843
0.909392 0.898039 0.836545
0.913787 0.899992 0.850309
0.922667 0.907012 0.868559
0.929656 0.909545 0.872099
0.935790 0.907958 0.864683
0.941802 0.905821 0.857633
0.948486 0.904143 0.851865
0.955871 0.902922 0.847318
0.963775 0.902129 0.843839
0.972351 0.902098 0.841703
0.981811 0.903075 0.841215
0.992248 0.905394 0.842649
0.740993 0.867765 0.591852
0.741695 0.868009 0.593042
0.743191 0.868315 0.595087
0.745663 0.868650 0.598352
0.749569 0.869108 0.603449
0.754940 0.869749 0.610346
0.761715 0.870573 0.619257
0.770077 0.871672 0.630335
0.779721 0.873014 0.643214
0.790555 0.874601 0.657832
0.802274 0.876402 0.673884
0.814755 0.878477 0.691310
0.827420 0.880705 0.709377
0.840238 0.883146 0.728023
0.852750 0.885710 0.746822
0.864744 0.888487 0.765255
0.876036 0.891508 0.781979
0.886656 0.894774 0.797116
0.896727 0.898222 0.810971
0.906188 0.901823 0.823850
0.914855 0.905455 0.836637
0.921355 0.908263 0.849516
0.925475 0.910155 0.862638
0.933135 0.916289 0.879362
0.939361 0.918334 0.882200
0.945312 0.916838 0.875090
0.951202 0.915007 0.868498
0.957916 0.913695 0.863218
0.965545 0.913176 0.859525
0.973785 0.913237 0.857023
0.982788 0.914183 0.856077
0.992645 0.916289 0.856931
0.755947 0.878447 0.623499
0.756283 0.878538 0.623713
0.757229 0.878660 0.624262
0.759518 0.878935 0.627100
0.762936 0.879301 0.631312
0.767605 0.879850 0.637140
0.773709 0.880583 0.644800
0.781155 0.881468 0.654139
0.789914 0.882628 0.665278
0.799771 0.884031 0.677974
0.810575 0.885649 0.692073
0.822080 0.887480 0.707393
0.833921 0.889494 0.723445
0.845945 0.891691 0.740078
0.857786 0.894041 0.756893
0.869169 0.896574 0.772732
0.880064 0.899321 0.787320
0.890471 0.902312 0.800809
0.900420 0.905455 0.813291
0.909880 0.908751 0.825254
0.918669 0.912047 0.837247
0.926604 0.915373 0.849180
0.932097 0.917571 0.861143
0.935760 0.919280 0.873625
0.942107 0.924376 0.888792
0.947570 0.925963 0.890959
0.953368 0.924620 0.884184
0.959167 0.923064 0.878019
0.965820 0.922087 0.873259
0.973724 0.922271 0.870420
0.982269 0.923156 0.869017
0.991577 0.925109 0.869291
0.773007 0.889555 0.661311
0.773312 0.889647 0.661463
0.773953 0.889738 0.661311
0.775174 0.889769 0.660517
0.777066 0.889830 0.659358
0.781308 0.890379 0.663905
0.787320 0.891295 0.671290
0.794705 0.892454 0.680415
0.803372 0.893889 0.691157
0.812985 0.895506 0.703212
0.823575 0.897398 0.716579
0.834623 0.899413 0.730678
0.846036 0.901579 0.745510
0.857328 0.903807 0.760067
0.868345 0.906126 0.773892
0.878874 0.908507 0.786618
0.889036 0.910979 0.798489
0.898894 0.913603 0.809720
0.908415 0.916381 0.820523
0.917540 0.919249 0.831418
0.926085 0.922118 0.842344
0.933867 0.924926 0.853330
0.940703 0.927611 0.864195
0.944976 0.929107 0.875212
0.947784 0.930236 0.886595
0.952422 0.934051 0.899901
0.957153 0.935119 0.901427
0.962951 0.934081 0.895171
0.968841 0.932921 0.889677
0.975463 0.932433 0.885618
0.983551 0.933440 0.883848
0.992248 0.935302 0.883696
0.798154 0.904540 0.707454
0.798215 0.904540 0.707362
0.798581 0.904509 0.706996
0.799374 0.904509 0.706203
0.800717 0.904479 0.705043
0.802701 0.904448 0.703395
0.806058 0.904692 0.703731
0.812161 0.905425 0.710628
0.819272 0.906371 0.718837
0.827420 0.907500 0.728328
0.836393 0.908812 0.738949
0.845975 0.910307 0.750362
0.855833 0.911986 0.762051
0.865751 0.913817 0.773495
