20 Preset/Ins style/【3】LUT video cho PR-AE-FCPX/Tone (1).cube
# Created by Adobe Lightroom plugin Export LUT (1.24.0)
# www.johnrellis.com/lightroom/exportlut.htm
# Preset: INS网红琥珀色-素材江湖12
# Color profile: C:\Program Files (x86)\Common Files\Adobe\Color\Profiles\Recommended\VideoHD.icc
LUT_3D_SIZE 5
DOMAIN_MIN 0.000000 0.000000 0.000000
DOMAIN_MAX 0.903226 0.903226 0.903226
0.046174 0.107851 0.099947
0.192874 0.108919 0.103792
0.549462 0.000000 0.090028
0.827939 0.000000 0.016510
1.000000 0.223148 0.000000
0.000000 0.291844 0.133211
0.269535 0.295476 0.138918
0.603388 0.234745 0.090333
0.854887 0.245731 0.053925
1.000000 0.343969 0.042695
0.209201 0.716670 0.400214
0.442054 0.719875 0.429664
0.727749 0.728084 0.463355
0.890166 0.642969 0.337865
1.000000 0.594842 0.264195
0.656550 0.885557 0.709102
0.698726 0.886778 0.724666
0.810910 0.894163 0.774929
0.883268 0.883940 0.758511
0.961852 0.850492 0.684962
0.841886 0.960571 0.874601
0.851865 0.961151 0.878294
0.882322 0.961517 0.887449
0.931731 0.966369 0.910765
0.958038 0.959594 0.893248
0.000000 0.118257 0.250187
0.208499 0.100160 0.263767
0.546288 0.000000 0.241855
0.791226 0.171206 0.259678
0.988678 0.271336 0.246128
0.000000 0.280369 0.312993
0.220859 0.287449 0.314855
0.554864 0.293858 0.302892
0.810941 0.305608 0.286381
0.992645 0.365270 0.269505
0.000000 0.675105 0.460883
0.307683 0.677699 0.469001
0.679622 0.694118 0.528252
0.854734 0.621790 0.421729
0.994354 0.602655 0.383124
0.602991 0.879454 0.703609
0.655024 0.879179 0.720150
0.795743 0.885374 0.781521
0.875608 0.880186 0.780270
0.953460 0.848783 0.710719
0.831937 0.958892 0.873320
0.845731 0.958953 0.879301
0.883513 0.962036 0.894408
0.933745 0.967193 0.918090
0.958587 0.960845 0.901946
0.000000 0.154604 0.591608
0.000000 0.153231 0.596429
0.551873 0.000000 0.606561
0.831632 0.004211 0.560784
0.976410 0.265873 0.496681
0.000000 0.332952 0.615717
0.172061 0.328252 0.618036
0.563317 0.307469 0.624170
0.824918 0.314824 0.580621
0.967315 0.378363 0.515496
0.000000 0.632258 0.670741
0.263981 0.632319 0.669947
0.579889 0.638422 0.671168
0.790555 0.623896 0.642847
0.934936 0.623041 0.600855
0.403449 0.847135 0.744411
0.475990 0.845609 0.746029
0.684932 0.848997 0.771481
0.851286 0.865873 0.826200
0.928466 0.834195 0.762325
0.772732 0.952392 0.863096
0.790127 0.952697 0.868009
0.849088 0.954345 0.887938
0.921904 0.961822 0.920378
0.954772 0.959106 0.915984
0.000000 0.267643 0.824399
0.083406 0.271275 0.825528
0.506859 0.267094 0.825193
0.782864 0.241306 0.822904
0.974029 0.304082 0.793149
0.000000 0.394690 0.826169
0.242130 0.393317 0.825620
0.520195 0.385687 0.824186
0.773800 0.366949 0.821347
0.963561 0.392706 0.793118
0.321904 0.625666 0.824399
0.390509 0.626703 0.823178
0.564904 0.630976 0.825467
0.750576 0.612146 0.822141
0.934905 0.600549 0.800504
0.460914 0.807828 0.848508
0.499184 0.807095 0.847379
0.627222 0.808621 0.846311
0.780575 0.816037 0.845579
0.893919 0.800504 0.819516
0.608118 0.935241 0.878141
0.628107 0.934905 0.877714
0.731594 0.937652 0.884642
0.863859 0.945159 0.907683
0.949523 0.956603 0.937102
0.346441 0.428199 0.937346
0.397711 0.427039 0.936675
0.551354 0.424933 0.935668
0.735195 0.412421 0.933135
0.913115 0.390509 0.929992
0.381842 0.491463 0.933227
0.424292 0.489967 0.932891
0.559014 0.484321 0.931914
0.731502 0.468452 0.929656
0.906157 0.443854 0.927428
0.467811 0.647639 0.926421
0.501610 0.649134 0.925475
0.595178 0.643122 0.924498
0.729580 0.624659 0.922820
0.889097 0.602930 0.923827
0.559258 0.796384 0.926055
0.578454 0.795682 0.925139
0.655543 0.796536 0.922972
0.767239 0.800473 0.923674
0.880949 0.790829 0.925902
0.657557 0.912749 0.938903
0.669764 0.912627 0.938659
0.720699 0.913909 0.938994
0.799802 0.915862 0.938842
0.902159 0.921569 0.939025
