20 Preset/Ins style/【3】LUT video cho PR-AE-FCPX/Tone (9).cube
# Created by Adobe Lightroom plugin Export LUT (1.24.0)
# www.johnrellis.com/lightroom/exportlut.htm
# Preset: INS网红琥珀色-素材江湖07
# Color profile: C:\Program Files (x86)\Common Files\Adobe\Color\Profiles\Recommended\VideoHD.icc
LUT_3D_SIZE 8
DOMAIN_MIN 0.000000 0.000000 0.000000
DOMAIN_MAX 0.903226 0.903226 0.903226
0.070314 0.094728 0.101564
0.132753 0.101503 0.107942
0.368292 0.067353 0.109560
0.556847 0.000000 0.098787
0.725246 0.000000 0.086275
0.858610 0.184970 0.082551
0.951324 0.296269 0.130434
1.000000 0.384558 0.168185
0.081514 0.154238 0.124239
0.143832 0.155856 0.136721
0.391211 0.165743 0.112947
0.569299 0.139071 0.098970
0.731228 0.166720 0.098848
0.856352 0.244572 0.119936
0.946105 0.327489 0.156252
1.000000 0.403296 0.185428
0.162661 0.354711 0.213169
0.227543 0.353002 0.219059
0.387518 0.372412 0.288853
0.592889 0.377295 0.238651
0.748623 0.386664 0.229618
0.861784 0.410101 0.234409
0.949096 0.445594 0.248081
1.000000 0.487465 0.261997
0.336400 0.513146 0.340063
0.359289 0.511559 0.341772
0.460212 0.524254 0.370977
0.612024 0.578454 0.459022
0.764675 0.593805 0.413397
0.868162 0.577020 0.378424
0.944884 0.581781 0.373724
1.000000 0.597162 0.372412
0.460121 0.659785 0.445228
0.474189 0.658747 0.446357
0.531731 0.658686 0.457191
0.649592 0.683192 0.528618
0.752895 0.725185 0.632166
0.844327 0.731167 0.591363
0.929076 0.714565 0.539178
0.992218 0.715541 0.526299
0.585016 0.754910 0.567376
0.593805 0.755856 0.570184
0.621271 0.754208 0.573846
0.689906 0.764981 0.610712
0.772061 0.788846 0.675013
0.843900 0.824125 0.755428
0.904265 0.828916 0.728267
0.966552 0.822416 0.693416
0.682063 0.836332 0.674464
0.686458 0.836362 0.675410
0.702419 0.835294 0.677394
0.735439 0.835721 0.686793
0.799222 0.850462 0.733669
0.858274 0.869383 0.788571
0.906737 0.893523 0.845518
0.946075 0.896025 0.828611
0.772457 0.906889 0.778958
0.774807 0.906798 0.779324
0.784878 0.906615 0.781216
0.803983 0.906493 0.785367
0.838743 0.909392 0.803830
0.884672 0.919890 0.840848
0.923674 0.931487 0.877562
0.952392 0.943694 0.910918
0.073213 0.107790 0.152804
0.140383 0.104677 0.156924
0.358251 0.051575 0.148318
0.532067 0.136538 0.170626
0.699092 0.180697 0.180911
0.836545 0.251835 0.193118
0.932006 0.327672 0.211215
1.000000 0.398749 0.226352
0.055695 0.166415 0.177401
0.172183 0.173251 0.182376
0.372168 0.190463 0.186740
0.542321 0.205539 0.192142
0.705898 0.238651 0.200778
0.838132 0.293584 0.211276
0.930236 0.354345 0.226322
1.000000 0.416358 0.238926
0.218235 0.359625 0.266178
0.263340 0.357824 0.269810
0.393347 0.377905 0.318120
0.575982 0.384405 0.286717
0.730739 0.398871 0.280674
0.846220 0.420142 0.280125
0.933379 0.450538 0.286320
1.000000 0.489754 0.293736
0.349889 0.512047 0.361212
0.371069 0.511070 0.362890
0.461738 0.520500 0.386358
0.604089 0.572198 0.469642
0.751949 0.582513 0.420600
0.853422 0.570275 0.393713
0.932799 0.576684 0.388434
1.000000 0.593896 0.387304
0.466285 0.658839 0.459388
0.479469 0.657588 0.460090
0.530602 0.654658 0.465827
0.646326 0.678614 0.534234
0.747738 0.720729 0.634516
0.838529 0.725521 0.592462
0.923949 0.710109 0.543908
0.986816 0.713710 0.535027
0.586633 0.752804 0.573968
0.593652 0.752499 0.574914
0.620844 0.751064 0.578790
0.686702 0.761013 0.612299
0.769436 0.785946 0.676539
0.842100 0.822782 0.757565
0.902190 0.826993 0.729274
0.964569 0.820462 0.695033
0.680934 0.834348 0.676509
0.684535 0.833799 0.676539
0.700374 0.832700 0.678401
0.732021 0.832517 0.685908
0.797177 0.848356 0.733852
0.856657 0.867765 0.788754
0.905241 0.892149 0.845487
0.944610 0.894408 0.827665
0.770871 0.905547 0.779110
0.773617 0.905730 0.779965
0.783658 0.905486 0.781765
0.802762 0.905425 0.785977
0.839780 0.910216 0.807065
0.884977 0.920165 0.842741
0.923522 0.931426 0.878569
0.952300 0.943755 0.911772
0.000000 0.134127 0.322667
0.124300 0.132296 0.327581
0.366186 0.121431 0.337774
0.546807 0.175998 0.316533
0.675563 0.226810 0.299199
0.797848 0.321874 0.324651
0.902770 0.382666 0.337652
0.991913 0.438636 0.343847
0.141115 0.216159 0.330999
0.201907 0.218631 0.335393
0.379644 0.223545 0.345373
0.540642 0.247959 0.328527
0.665980 0.289097 0.319463
0.800015 0.349615 0.336156
0.902434 0.400031 0.344549
0.990387 0.451820 0.350347
0.258061 0.370825 0.367895
0.301732 0.374914 0.370214
0.419867 0.389197 0.381476
0.546807 0.393133 0.371862
0.696742 0.413336 0.373388
0.817075 0.440955 0.376379
0.909300 0.472999 0.380835
0.991333 0.510338 0.384955
0.375525 0.529137 0.431830
0.401434 0.530022 0.434882
0.474861 0.528954 0.440650
0.610040 0.575494 0.502617
0.743038 0.574029 0.469184
0.834440 0.576654 0.462715
0.916075 0.587915 0.459907
0.989441 0.607111 0.459083
0.496010 0.665156 0.518181
0.508537 0.664271 0.519005
0.553979 0.661524 0.523369
0.650935 0.678676 0.572412
0.748592 0.723323 0.657343
0.832975 0.722652 0.617853
0.911467 0.713771 0.588037
0.975189 0.720577 0.582116
0.603906 0.755123 0.610315
0.610346 0.754971 0.611231
0.635065 0.753536 0.614130
0.686641 0.757656 0.632258
0.768887 0.784543 0.694179
0.841428 0.824521 0.773953
0.899168 0.825650 0.741543
0.961517 0.820005 0.711666
0.689326 0.836362 0.698787
0.692805 0.835874 0.698817
0.707698 0.834592 0.700069
0.735500 0.833066 0.703883
0.796323 0.847074 0.744839
0.856931 0.868132 0.799466
0.906249 0.894591 0.855711
0.944762 0.895995 0.836454
0.774350 0.906493 0.791348
0.776455 0.906310 0.791470
0.786191 0.906065 0.793088
0.805447 0.906310 0.797482
0.838254 0.909422 0.812467
0.885069 0.920317 0.848631
0.924254 0.932341 0.884215
0.953002 0.945159 0.916838
0.000000 0.197391 0.459846
0.159274 0.203494 0.463600
0.346715 0.222629 0.476204
0.545769 0.247593 0.485176
0.721218 0.291234 0.493904
0.819547 0.306462 0.445472
0.890715 0.347692 0.412879
0.957885 0.445502 0.434577
0.215885 0.276707 0.463813
0.254337 0.279789 0.466865
0.378882 0.289189 0.479347
0.550805 0.300389 0.489754
0.719966 0.327825 0.497658
0.816312 0.333257 0.448280
0.884672 0.378058 0.422766
0.958129 0.460975 0.442451
0.324529 0.396399 0.473945
0.349798 0.401526 0.478706
0.432105 0.411170 0.494148
0.569635 0.415930 0.508080
0.713832 0.423438 0.502525
0.806210 0.417304 0.458320
0.873106 0.476081 0.465187
0.961608 0.523522 0.479103
0.389075 0.535485 0.529351
0.410529 0.536889 0.530541
0.490517 0.545556 0.538109
0.612390 0.563012 0.555108
0.705470 0.555840 0.531792
0.796170 0.570062 0.532555
0.881071 0.591119 0.537652
0.960632 0.617273 0.543603
0.507469 0.677272 0.596124
0.523369 0.676692 0.597192
0.580591 0.676173 0.604028
0.650599 0.676570 0.615839
0.744289 0.716121 0.671534
0.822507 0.709529 0.645289
0.891600 0.713649 0.639063
0.958434 0.723537 0.635523
0.625605 0.763027 0.665675
0.633845 0.763912 0.668086
0.655360 0.763210 0.668818
0.694057 0.761013 0.673091
0.769284 0.784329 0.722072
0.839475 0.822782 0.784909
0.895171 0.821530 0.757961
0.956268 0.817136 0.735592
0.699977 0.840208 0.733913
0.703792 0.840116 0.734463
0.718898 0.839414 0.736141
0.745785 0.838254 0.739712
0.793820 0.845274 0.762203
0.857267 0.868986 0.816159
0.907561 0.897826 0.869871
0.944549 0.896971 0.848020
0.780240 0.909483 0.813016
0.782467 0.909422 0.813321
0.791928 0.909117 0.814603
0.809964 0.908873 0.817624
0.834623 0.908446 0.821897
0.883635 0.920073 0.856992
0.924956 0.933562 0.892973
0.954253 0.947662 0.925292
0.217502 0.290135 0.599664
0.259831 0.294285 0.602564
0.383948 0.307347 0.612268
0.549432 0.320714 0.631495
0.710536 0.337560 0.637598
0.833005 0.383978 0.629786
0.908598 0.417212 0.593561
0.973785 0.439185 0.553552
0.284825 0.339849 0.601892
0.313024 0.341802 0.604883
0.409522 0.348486 0.614588
0.557092 0.355932 0.632715
0.711269 0.367803 0.639521
0.830442 0.409979 0.631891
0.904936 0.436286 0.595361
0.970581 0.454108 0.556023
0.372961 0.440101 0.609186
0.390356 0.441199 0.611475
0.458381 0.445075 0.620661
0.576471 0.452094 0.638148
0.712337 0.461250 0.645747
0.817960 0.496162 0.640131
0.889769 0.500023 0.601923
0.958007 0.503532 0.563684
0.435859 0.543236 0.621546
0.452430 0.545006 0.621881
0.516655 0.558618 0.631495
0.610224 0.577142 0.651789
0.716640 0.588373 0.663111
0.801236 0.598016 0.653193
0.869902 0.581720 0.613428
0.929564 0.598352 0.596826
0.525414 0.665736 0.667170
0.537926 0.666651 0.667933
0.583642 0.670527 0.670893
0.653956 0.680293 0.678950
0.731014 0.692683 0.692164
0.786282 0.679530 0.666255
0.860533 0.689418 0.665614
0.935241 0.705806 0.668513
0.612390 0.768063 0.716609
0.619806 0.768032 0.717037
0.648035 0.767117 0.717952
0.696071 0.766873 0.721828
0.753262 0.771237 0.735042
0.828519 0.808377 0.783566
0.887083 0.804501 0.764584
0.943206 0.809537 0.760098
0.696864 0.844144 0.770962
0.700923 0.843809 0.771054
0.718013 0.843076 0.772488
0.750912 0.843107 0.777920
0.785763 0.841886 0.781369
0.851316 0.864805 0.827726
0.904936 0.895415 0.875029
0.943297 0.893614 0.855894
0.775265 0.911284 0.833494
0.778653 0.911131 0.834226
0.792752 0.910796 0.837736
0.809537 0.911467 0.839170
0.835264 0.910979 0.842954
0.875975 0.917082 0.862089
0.923613 0.933410 0.900725
0.955077 0.949828 0.933959
0.326787 0.371527 0.716426
0.350042 0.373785 0.717983
0.431647 0.380865 0.722652
0.553429 0.393072 0.733516
0.692775 0.409155 0.749447
0.815091 0.435767 0.749081
0.904570 0.492897 0.741329
0.971008 0.544121 0.732235
0.356695 0.400305 0.714382
0.375738 0.401617 0.715602
0.446998 0.406683 0.720668
0.558526 0.415961 0.730922
0.692226 0.430640 0.746975
0.811978 0.455421 0.747463
0.900389 0.508659 0.740963
0.967437 0.553552 0.731685
0.427008 0.483650 0.716365
0.440528 0.484596 0.717433
0.493385 0.488746 0.722408
0.582879 0.496651 0.731502
0.698695 0.513115 0.747372
0.806210 0.532464 0.749508
0.890288 0.570733 0.746944
0.957702 0.593347 0.734615
0.499886 0.579522 0.716945
0.512261 0.582300 0.718196
0.559869 0.594537 0.725002
0.625238 0.605066 0.736599
0.713741 0.619501 0.753658
0.803006 0.629816 0.758846
0.880858 0.650446 0.760647
0.945525 0.647486 0.738460
0.563104 0.667384 0.730556
0.571496 0.668360 0.730587
0.603876 0.672572 0.731228
0.659022 0.685481 0.740902
0.726589 0.700435 0.761044
0.803525 0.708705 0.770993
0.871061 0.713191 0.766201
0.932311 0.693812 0.731106
0.625208 0.757687 0.767453
0.631647 0.758541 0.768276
0.654475 0.760220 0.769680
0.695155 0.764370 0.773251
0.749691 0.773007 0.780789
0.814023 0.786160 0.794583
0.859403 0.773159 0.770321
0.924743 0.784176 0.772244
0.689906 0.849454 0.817929
0.694362 0.849943 0.818540
0.711299 0.851133 0.819913
0.743404 0.851652 0.821469
0.787411 0.852018 0.824460
0.835142 0.854459 0.833219
0.898894 0.887785 0.876219
0.943267 0.884123 0.861051
0.765927 0.916594 0.862425
0.768368 0.916411 0.862364
0.779538 0.916045 0.862821
0.801358 0.915953 0.864652
0.834775 0.915831 0.869657
0.866514 0.915618 0.873381
0.919707 0.931975 0.907988
0.955962 0.951415 0.940948
0.421912 0.449134 0.810910
0.437415 0.451698 0.812558
0.490974 0.456886 0.815030
0.579797 0.468177 0.821012
0.687617 0.485115 0.829770
0.801755 0.510552 0.841581
0.891600 0.540917 0.837491
0.956878 0.584161 0.828397
0.433845 0.465400 0.805600
0.448371 0.467994 0.807553
0.498054 0.472480 0.810300
0.581140 0.481483 0.815793
0.685023 0.496498 0.824399
0.796017 0.518730 0.835782
0.884886 0.544549 0.831235
0.950744 0.583917 0.822202
0.490913 0.536889 0.805875
0.500603 0.537835 0.806516
0.538598 0.540703 0.808591
0.606744 0.548119 0.813993
0.695338 0.559777 0.822141
0.795804 0.578088 0.834653
0.880980 0.597345 0.833951
0.947234 0.628809 0.829465
0.558618 0.624598 0.805722
0.566552 0.625971 0.805966
0.592645 0.627832 0.807980
0.643641 0.634119 0.814328
0.713558 0.642481 0.823545
0.799435 0.656275 0.837858
0.877226 0.666957 0.839933
0.940551 0.687160 0.837461
0.593805 0.686030 0.799954
0.598779 0.686213 0.799832
0.622644 0.690272 0.802579
0.667262 0.700282 0.811276
0.723629 0.708156 0.821988
0.797391 0.719844 0.837034
0.869749 0.727810 0.841978
0.933654 0.747005 0.846159
0.637598 0.759121 0.819699
0.642359 0.759548 0.819852
0.660700 0.760739 0.820035
0.694240 0.763546 0.820615
0.742519 0.772000 0.826505
0.806027 0.788998 0.846677
0.873350 0.799619 0.857298
0.929870 0.804837 0.855528
0.694026 0.837034 0.852110
0.698299 0.837705 0.852750
0.712703 0.838468 0.853300
0.740291 0.840635 0.855009
0.778622 0.844114 0.857755
0.826413 0.851438 0.863706
0.881987 0.864042 0.875761
0.923796 0.855528 0.859190
0.758389 0.917174 0.895903
0.761288 0.917449 0.896178
0.774044 0.919036 0.897948
0.795407 0.920867 0.899687
0.825711 0.922484 0.901396
0.863920 0.923003 0.903288
0.903197 0.923613 0.907866
0.954314 0.949371 0.943725
0.524804 0.539757 0.886931
0.534356 0.541436 0.887633
0.567315 0.543908 0.887999
0.628565 0.552392 0.890929
0.707576 0.564508 0.895171
0.794858 0.580072 0.900999
0.883879 0.601129 0.908965
0.953491 0.621668 0.905272
0.530877 0.550500 0.883787
0.540032 0.552239 0.884550
0.572137 0.555138 0.885557
0.630488 0.562219 0.888334
0.707179 0.573205 0.892729
0.793027 0.587549 0.898772
0.880919 0.606195 0.906615
0.950225 0.624353 0.902678
0.562249 0.598047 0.880186
0.569238 0.598810 0.880613
0.595514 0.600275 0.881529
0.648127 0.607965 0.885954
0.715084 0.614618 0.890105
0.793240 0.624079 0.895964
0.877379 0.638880 0.904906
0.945312 0.651972 0.901823
0.598871 0.659083 0.876371
0.604700 0.659876 0.877043
0.625849 0.661067 0.878386
0.667353 0.665126 0.882109
0.725124 0.670588 0.887388
0.795346 0.678218 0.894530
0.873686 0.690700 0.904540
0.939574 0.699611 0.903227
0.617792 0.710719 0.872953
0.623041 0.711696 0.873716
0.641108 0.713100 0.874846
0.681331 0.720119 0.878660
0.731014 0.724514 0.884123
0.794308 0.731624 0.892058
0.867765 0.743954 0.903380
0.933288 0.752956 0.905516
0.649378 0.770413 0.876188
0.652033 0.769711 0.875547
0.664668 0.768338 0.873808
0.692866 0.770047 0.874846
0.738308 0.778042 0.882139
0.798947 0.790494 0.894194
0.869017 0.806943 0.909026
0.933043 0.817716 0.915373
0.703090 0.843809 0.899138
0.705776 0.843717 0.898985
0.717098 0.843473 0.898528
0.740047 0.844144 0.898466
0.773495 0.845701 0.898680
0.816831 0.850431 0.901122
0.874144 0.864866 0.916411
0.933898 0.874632 0.924895
0.762203 0.909331 0.923888
0.764126 0.909270 0.923796
0.773312 0.909575 0.924010
0.792233 0.910979 0.925048
0.819455 0.912993 0.926482
0.854154 0.916075 0.928588
0.896361 0.921813 0.932586
0.941802 0.932586 0.941070
