20 Preset/Japan Style/【3】LUT video cho PR-AE-FCPX/LUT VIDEO/Japan Style LUT (2).cube
# Created by Adobe Lightroom plugin Export LUT (1.24.0)
# www.johnrellis.com/lightroom/exportlut.htm
# Preset: 02日系基础色（素材江湖）
# Color profile: C:\Program Files (x86)\Common Files\Adobe\Color\Profiles\Recommended\VideoHD.icc
LUT_3D_SIZE 5
DOMAIN_MIN 0.000000 0.000000 0.000000
DOMAIN_MAX 0.903226 0.903226 0.903226
0.000000 0.000000 0.000000
0.408209 0.177676 0.112428
0.777554 0.311101 0.166354
1.000000 0.417121 0.256748
1.000000 0.504814 0.364965
0.000000 0.373144 0.199771
0.370855 0.400519 0.168856
0.780270 0.460700 0.106386
0.997772 0.493507 0.244419
1.000000 0.542290 0.361425
0.000000 0.657191 0.368902
0.301457 0.665858 0.363409
0.696681 0.699672 0.341161
0.957641 0.686152 0.337346
1.000000 0.669184 0.360327
0.309453 0.834501 0.511650
0.394690 0.835477 0.508965
0.617853 0.842863 0.502586
0.888762 0.867979 0.508934
1.000000 0.841398 0.496956
0.582727 0.973571 0.672114
0.608545 0.974151 0.671473
0.707546 0.978149 0.672511
0.853330 0.980407 0.668299
1.000000 0.981415 0.655451
0.000000 0.128573 0.414771
0.349126 0.060548 0.394446
0.755856 0.321721 0.389960
0.994202 0.460487 0.386847
1.000000 0.517021 0.372595
0.000000 0.360754 0.428046
0.328527 0.369146 0.418433
0.739467 0.458228 0.424109
0.984588 0.526604 0.410773
1.000000 0.552544 0.370520
0.000000 0.651575 0.479683
0.304570 0.659236 0.476661
0.692195 0.697078 0.473915
0.947448 0.701472 0.483345
1.000000 0.685298 0.444923
0.354650 0.829831 0.567895
0.432654 0.830503 0.569055
0.626154 0.836515 0.562188
0.884550 0.866514 0.579553
1.000000 0.850553 0.574792
0.594812 0.972320 0.697230
0.619989 0.973083 0.697139
0.708309 0.974151 0.692256
0.853178 0.977874 0.690883
1.000000 0.980163 0.683284
0.000000 0.205234 0.685359
0.129854 0.161074 0.678889
0.638361 0.161898 0.655726
0.917723 0.406073 0.608972
1.000000 0.650904 0.662654
0.000000 0.306249 0.684413
0.236545 0.315801 0.680751
0.632593 0.357794 0.661433
0.905669 0.500725 0.626062
1.000000 0.675959 0.670161
0.000000 0.607996 0.688411
0.246799 0.613703 0.685695
0.615137 0.635584 0.671229
0.874846 0.714534 0.692439
1.000000 0.756313 0.691951
0.277012 0.813535 0.690181
0.401587 0.815396 0.692775
0.634180 0.819974 0.698116
0.864195 0.855131 0.721004
1.000000 0.871275 0.732723
0.541375 0.972473 0.749508
0.590692 0.971984 0.755764
0.725277 0.971405 0.774105
0.857603 0.975280 0.771572
1.000000 0.981048 0.779751
0.000000 0.292088 0.857664
0.000000 0.276768 0.854856
0.482002 0.196658 0.847379
0.823239 0.260410 0.827512
1.000000 0.485969 0.769711
0.000000 0.281254 0.859922
0.000000 0.267155 0.858488
0.503624 0.292851 0.849851
0.819852 0.393011 0.828885
1.000000 0.547814 0.775814
0.000000 0.549645 0.852873
0.254337 0.561089 0.848325
0.546715 0.590509 0.838193
0.795743 0.618433 0.816678
1.000000 0.695857 0.794675
0.265080 0.768338 0.851804
0.375616 0.774166 0.851011
0.593500 0.790799 0.845304
0.804105 0.810330 0.833982
1.000000 0.881498 0.863188
0.240787 0.967803 0.869383
0.355474 0.967712 0.867124
0.589166 0.967163 0.858152
0.842313 0.968017 0.871458
0.998047 0.980957 0.893706
0.000000 0.402441 0.984497
0.000000 0.398199 0.983246
0.221592 0.373724 0.980407
0.646235 0.309880 0.973083
0.953491 0.276585 0.959808
0.000000 0.398901 0.981750
0.000000 0.393164 0.980743
0.254704 0.368109 0.977447
0.649592 0.303197 0.969726
0.947143 0.360784 0.954681
0.000000 0.399329 0.984436
0.000000 0.406104 0.981750
0.315496 0.436683 0.974731
0.656733 0.483284 0.961334
0.937377 0.562005 0.948760
0.000000 0.650904 0.979187
0.000000 0.657008 0.976501
0.400122 0.693111 0.969665
0.689387 0.728115 0.962402
0.944488 0.772946 0.960021
0.000000 0.867399 0.987366
0.000000 0.872618 0.987030
0.467353 0.891447 0.985290
0.746334 0.920317 0.979889
0.955810 0.952422 0.971466
