20 Preset/Japan Style/【3】LUT video cho PR-AE-FCPX/LUT VIDEO/Japan Style LUT (1).cube
# Created by Adobe Lightroom plugin Export LUT (1.24.0)
# www.johnrellis.com/lightroom/exportlut.htm
# Preset: 01日系常用（素材江湖）
# Color profile: C:\Program Files (x86)\Common Files\Adobe\Color\Profiles\Recommended\VideoHD.icc
LUT_3D_SIZE 8
DOMAIN_MIN 0.000000 0.000000 0.000000
DOMAIN_MAX 0.903226 0.903226 0.903226
0.029145 0.032685 0.028840
0.138674 0.041535 0.025025
0.360113 0.000000 0.001678
0.600702 0.000000 0.000000
0.811582 0.000000 0.000000
0.951995 0.000000 0.000000
1.000000 0.181247 0.000000
1.000000 0.270634 0.000000
0.020905 0.144869 0.054475
0.127840 0.150912 0.033661
0.350622 0.163119 0.000000
0.587274 0.118257 0.000000
0.798825 0.090303 0.000000
0.941711 0.176425 0.000000
1.000000 0.251987 0.000000
1.000000 0.310887 0.000000
0.000000 0.374517 0.082887
0.101534 0.370794 0.112337
0.318303 0.367407 0.000000
0.553124 0.369512 0.000000
0.767025 0.385290 0.000000
0.915587 0.404059 0.000000
1.000000 0.421851 0.000000
1.000000 0.436713 0.000000
0.000000 0.613336 0.226627
0.212406 0.611261 0.240696
0.403113 0.605646 0.268711
0.552880 0.587640 0.101228
0.720851 0.571374 0.000000
0.873136 0.582177 0.000000
0.985321 0.579065 0.000000
1.000000 0.571557 0.000000
0.384710 0.769039 0.396490
0.417212 0.767758 0.404486
0.518578 0.764004 0.438270
0.614923 0.755032 0.410285
0.715999 0.732448 0.261387
0.822110 0.698360 0.000000
0.943114 0.698726 0.000000
1.000000 0.690028 0.000000
0.535607 0.857847 0.547997
0.551507 0.858183 0.554559
0.603204 0.855863 0.573388
0.680781 0.852049 0.607843
0.729122 0.843046 0.537255
0.810422 0.826658 0.408759
0.907591 0.799283 0.169223
1.000000 0.790463 0.000000
0.643153 0.919860 0.658961
0.650813 0.919615 0.661921
0.679042 0.917906 0.671717
0.727413 0.915007 0.690883
0.771237 0.911315 0.690669
0.809201 0.906401 0.632563
0.877806 0.897612 0.534264
0.976837 0.885191 0.355840
0.728023 0.964935 0.739376
0.732113 0.964660 0.740749
0.749172 0.963561 0.746975
0.780301 0.961578 0.759396
0.817990 0.957488 0.773678
0.841489 0.957214 0.753231
0.875944 0.956847 0.709804
0.934081 0.954589 0.638514
0.020752 0.044434 0.152773
0.148196 0.020172 0.157687
0.363073 0.000000 0.151827
0.596521 0.000000 0.147463
0.806790 0.000000 0.127657
0.947173 0.000000 0.096132
1.000000 0.180819 0.022004
1.000000 0.271885 0.000000
0.000000 0.160342 0.152071
0.134279 0.161654 0.152499
0.357061 0.155032 0.148013
0.589471 0.112886 0.137148
0.798489 0.077882 0.113039
0.939513 0.173770 0.055634
1.000000 0.251743 0.000000
1.000000 0.311894 0.000000
0.000000 0.380072 0.187655
0.125521 0.377356 0.202426
0.326879 0.371679 0.176059
0.557610 0.373083 0.069062
0.767025 0.382330 0.000000
0.911742 0.398566 0.000000
1.000000 0.416510 0.000000
1.000000 0.433936 0.000000
0.006592 0.609674 0.284398
0.213931 0.608148 0.295659
0.415625 0.603418 0.339178
0.547570 0.582757 0.219242
0.714046 0.565820 0.000000
0.865812 0.575280 0.000000
0.978424 0.572747 0.000000
1.000000 0.567590 0.000000
0.383948 0.767147 0.427832
0.416083 0.765743 0.434577
0.517662 0.761624 0.464546
0.615106 0.752499 0.450935
0.710964 0.728908 0.314672
0.817929 0.695521 0.011109
0.939391 0.695979 0.000000
1.000000 0.687709 0.000000
0.537804 0.855894 0.563531
0.551934 0.855375 0.568017
0.603632 0.853269 0.585870
0.681086 0.849973 0.618738
0.729610 0.841489 0.560449
0.808011 0.825467 0.440650
0.904631 0.797543 0.232517
1.000000 0.789120 0.121889
0.645228 0.918486 0.666346
0.651911 0.917937 0.668299
0.679835 0.916258 0.677668
0.728176 0.913603 0.696437
0.774105 0.910338 0.700771
0.809842 0.905364 0.644892
0.875944 0.896147 0.550011
0.973785 0.883177 0.379400
0.729213 0.964263 0.743160
0.733700 0.964111 0.744930
0.750576 0.963012 0.750973
0.781521 0.961089 0.763210
0.821256 0.958038 0.780056
0.844450 0.957305 0.761196
0.877104 0.956664 0.718135
0.933898 0.954376 0.648981
0.000000 0.068544 0.397650
0.000000 0.034516 0.401251
0.360540 0.000000 0.408392
0.606195 0.000000 0.394659
0.811215 0.000000 0.390753
0.947753 0.000000 0.382788
1.000000 0.226627 0.376257
1.000000 0.313634 0.364691
0.000000 0.189120 0.390326
0.000000 0.175540 0.393530
0.357763 0.146365 0.402991
0.600793 0.086854 0.392493
0.804593 0.010010 0.387976
0.941070 0.177523 0.379004
1.000000 0.279698 0.369543
1.000000 0.344335 0.358862
0.000000 0.387243 0.387366
0.000000 0.387610 0.387427
0.333959 0.387366 0.387945
0.580438 0.382330 0.381811
0.779934 0.383825 0.370184
0.914702 0.401587 0.359564
1.000000 0.425299 0.351324
1.000000 0.448066 0.344457
0.000000 0.612970 0.418097
0.000000 0.612268 0.424353
0.401892 0.608942 0.455207
0.558648 0.593927 0.429267
0.725521 0.578485 0.342809
0.869902 0.578088 0.314336
0.977996 0.575158 0.315740
1.000000 0.572473 0.316777
0.368353 0.765805 0.521233
0.406317 0.764797 0.526848
0.517937 0.761837 0.550835
0.639155 0.757900 0.586175
0.711238 0.734554 0.480140
0.818936 0.702022 0.351629
0.937560 0.698360 0.306950
1.000000 0.687953 0.270542
0.553857 0.854673 0.622065
0.567376 0.854368 0.625666
0.616999 0.852659 0.639765
0.691524 0.850065 0.666072
0.742245 0.843015 0.644526
0.805081 0.826566 0.550439
0.898619 0.796994 0.392370
1.000000 0.790402 0.350469
0.663050 0.918639 0.702480
0.669368 0.918151 0.704158
0.695308 0.916594 0.711818
0.740627 0.914214 0.727474
0.792569 0.911254 0.744839
0.819333 0.906279 0.697932
0.875914 0.897276 0.619959
0.969024 0.883787 0.483375
0.741970 0.964355 0.765469
0.745724 0.964080 0.766629
0.761746 0.963043 0.772152
0.791592 0.961456 0.783627
0.829374 0.958618 0.798886
0.855161 0.957366 0.789944
0.883146 0.956786 0.750912
0.934600 0.954559 0.689876
0.000000 0.086091 0.629480
0.000000 0.059998 0.631403
0.319005 0.000000 0.635248
0.605219 0.000000 0.640681
0.800839 0.000000 0.629572
0.935363 0.000000 0.609796
1.000000 0.219303 0.586267
1.000000 0.355413 0.577020
0.000000 0.197604 0.625971
0.000000 0.194247 0.627131
0.323400 0.170504 0.631617
0.603052 0.000000 0.638727
0.797513 0.000000 0.627863
0.930022 0.147860 0.607691
1.000000 0.287358 0.586328
1.000000 0.393347 0.580163
0.000000 0.416144 0.605737
0.000000 0.415534 0.607782
0.309880 0.395941 0.616510
0.583917 0.372869 0.627039
0.778408 0.373358 0.617975
0.907103 0.406744 0.602838
0.996735 0.460639 0.595453
1.000000 0.514549 0.600488
0.000000 0.606409 0.608606
0.000000 0.605524 0.608148
0.281926 0.602716 0.607630
0.549615 0.598718 0.607813
0.734096 0.594812 0.602045
0.862364 0.594171 0.593072
0.962951 0.596735 0.584741
1.000000 0.600092 0.576989
0.055116 0.763394 0.618280
0.229679 0.762112 0.619837
0.442329 0.757809 0.630671
0.627527 0.754269 0.662257
0.716365 0.742214 0.647883
0.816800 0.714412 0.571893
0.930388 0.705135 0.544213
1.000000 0.696529 0.543847
0.539666 0.853208 0.681147
0.559472 0.853391 0.685969
0.620935 0.851438 0.700435
0.699367 0.850217 0.721401
0.773648 0.849027 0.743984
0.807706 0.830594 0.675441
0.891203 0.802335 0.573663
0.992493 0.794522 0.545434
0.678340 0.918425 0.747189
0.685023 0.918273 0.748989
0.710994 0.917357 0.756069
0.755459 0.915831 0.769711
0.809171 0.913970 0.789456
0.837888 0.909209 0.769100
0.878477 0.899107 0.707424
0.960906 0.883421 0.604822
0.759060 0.965362 0.799161
0.762692 0.965148 0.800259
0.777951 0.964233 0.805051
0.805325 0.962585 0.814359
0.840970 0.960082 0.827481
0.873014 0.957885 0.833585
0.893462 0.957214 0.800137
0.936797 0.955077 0.748348
0.000000 0.126436 0.779690
0.000000 0.119844 0.780331
0.329412 0.050843 0.781216
0.586114 0.000000 0.783993
0.785367 0.000000 0.785550
0.921141 0.000000 0.770809
1.000000 0.191073 0.741421
1.000000 0.338109 0.715358
0.000000 0.224460 0.776944
0.000000 0.221225 0.777737
0.337072 0.203799 0.779019
0.583856 0.146761 0.781552
0.781216 0.000000 0.783536
0.916472 0.142672 0.768734
1.000000 0.267063 0.740108
1.000000 0.378424 0.715358
0.000000 0.442054 0.764096
0.000000 0.429145 0.765377
0.335088 0.409491 0.767819
0.566613 0.392798 0.770535
0.759762 0.373449 0.773556
0.893248 0.395056 0.758572
0.987030 0.439429 0.734615
1.000000 0.497047 0.716762
0.000000 0.609918 0.746731
0.146731 0.609796 0.746395
0.382330 0.610712 0.745205
0.552483 0.601801 0.751278
0.724086 0.592187 0.757534
0.855070 0.597162 0.746517
0.951232 0.612696 0.733669
1.000000 0.633509 0.727047
0.000000 0.745541 0.742702
0.157778 0.745022 0.742641
0.378241 0.742428 0.742306
0.558068 0.739010 0.741817
0.703731 0.736263 0.741390
0.818845 0.733486 0.738125
0.917449 0.729213 0.730617
1.000000 0.726101 0.723354
0.381537 0.847562 0.733639
0.412146 0.846891 0.734707
0.508080 0.843717 0.738582
0.632441 0.839170 0.748745
0.755703 0.840024 0.776150
0.814511 0.833310 0.769497
0.886473 0.809201 0.709529
0.982147 0.800443 0.689052
0.627100 0.918181 0.771572
0.636805 0.917693 0.773190
0.675135 0.916320 0.780819
0.743343 0.914488 0.799954
0.808133 0.913848 0.820340
0.860410 0.913115 0.836423
0.882994 0.900572 0.783932
0.953307 0.882170 0.707027
0.756924 0.966369 0.826444
0.763516 0.966003 0.829038
0.780941 0.965118 0.834165
0.810758 0.963836 0.843381
0.847959 0.961730 0.855680
0.887449 0.959442 0.871031
0.906035 0.957855 0.852201
0.939330 0.955016 0.807706
0.000000 0.193027 0.873899
0.115633 0.191196 0.874083
0.367010 0.178622 0.873899
0.567346 0.143954 0.874388
0.738827 0.025483 0.875303
0.882689 0.002411 0.874327
1.000000 0.213870 0.866728
1.000000 0.333928 0.833127
0.000000 0.264408 0.870298
0.162203 0.263157 0.870268
0.374029 0.254398 0.870451
0.565423 0.233310 0.870909
0.733883 0.202945 0.871916
0.877501 0.200504 0.871489
0.995331 0.278233 0.863828
1.000000 0.370306 0.831388
0.170779 0.438575 0.861845
0.237980 0.437476 0.861875
0.393439 0.432380 0.862211
0.560784 0.422370 0.862303
0.718654 0.412024 0.863798
0.859892 0.410834 0.864561
0.976318 0.444007 0.856779
1.000000 0.490700 0.828092
0.350072 0.624567 0.844022
0.379400 0.624750 0.844022
0.476783 0.627497 0.844663
0.573754 0.613092 0.848356
0.703243 0.607843 0.851102
0.834012 0.602380 0.854002
0.945861 0.611749 0.846616
1.000000 0.627161 0.825956
0.387701 0.732906 0.833036
0.412726 0.733089 0.832792
0.496437 0.734463 0.831876
0.607996 0.738460 0.830411
0.708003 0.738308 0.834226
0.812894 0.732204 0.839811
0.916747 0.730892 0.834501
0.996521 0.735897 0.823392
0.413031 0.832670 0.829770
0.434241 0.832700 0.830045
0.503044 0.831449 0.829740
0.600885 0.829618 0.829252
0.703944 0.827817 0.828763
0.805051 0.827695 0.829587
0.894194 0.826505 0.827848
0.972259 0.823270 0.822354
0.498024 0.918395 0.819303
0.513909 0.918120 0.820035
0.570245 0.916472 0.822477
0.658167 0.913817 0.828305
0.758358 0.911376 0.840238
0.853361 0.911559 0.864622
0.892424 0.905333 0.855985
0.951965 0.888243 0.806760
0.694331 0.970581 0.842863
0.700771 0.970184 0.843839
0.727932 0.968872 0.848783
0.776059 0.966735 0.859434
0.839628 0.963897 0.878996
0.889952 0.962036 0.896391
0.924102 0.960601 0.905333
0.943908 0.956176 0.867460
0.250797 0.266178 0.941802
0.295598 0.267796 0.942779
0.414038 0.263157 0.942107
0.559960 0.256229 0.942046
0.699825 0.245060 0.941772
0.828641 0.234104 0.941466
0.945342 0.259434 0.938994
1.000000 0.335637 0.932464
0.257481 0.309209 0.934661
0.300481 0.311040 0.936065
0.413794 0.306523 0.935698
0.554009 0.296880 0.935149
0.691951 0.283848 0.934569
0.819669 0.267765 0.933562
0.935882 0.278508 0.930419
1.000000 0.336858 0.923400
0.331060 0.460761 0.930358
0.356451 0.460121 0.930327
0.440833 0.455024 0.929351
0.559686 0.448341 0.928801
0.684596 0.437873 0.927703
0.807401 0.429358 0.927825
0.924865 0.439399 0.928161
1.000000 0.477424 0.924773
0.484138 0.645686 0.918517
0.486885 0.640894 0.918456
0.506462 0.623438 0.918639
0.589899 0.620111 0.919127
0.688167 0.612879 0.919127
0.796506 0.608148 0.921111
0.908568 0.608728 0.923217
1.000000 0.617884 0.920989
0.511376 0.736263 0.901854
0.519371 0.734859 0.900725
0.560723 0.734340 0.899870
0.633448 0.737362 0.901030
0.699916 0.728603 0.903380
0.787381 0.722286 0.905760
0.889860 0.717342 0.909483
0.989349 0.725582 0.909850
0.513909 0.812070 0.895750
0.525963 0.812558 0.895811
0.569696 0.813535 0.895537
0.639460 0.815854 0.895201
0.721584 0.819699 0.894194
0.802548 0.823423 0.899504
0.886320 0.822202 0.905821
0.969726 0.820859 0.902220
0.527581 0.900298 0.897734
0.539910 0.900786 0.898375
0.577691 0.900145 0.898100
0.642878 0.899474 0.898131
0.720394 0.897887 0.897368
0.802426 0.896818 0.897124
0.882719 0.897948 0.898802
0.953887 0.898161 0.898344
0.563806 0.974151 0.885863
0.575219 0.973846 0.886412
0.621881 0.973144 0.889586
0.689784 0.970550 0.893248
0.769558 0.966827 0.898924
0.851926 0.963500 0.909667
0.925475 0.962402 0.930999
0.950072 0.958282 0.921050
0.349676 0.323766 0.986511
0.372351 0.324407 0.986877
0.443000 0.318547 0.985687
0.549554 0.313970 0.985748
0.663935 0.305303 0.985534
0.775814 0.292454 0.985077
0.885466 0.280064 0.985626
0.989105 0.299443 0.983520
0.353674 0.353368 0.982605
0.375555 0.354223 0.983093
0.444984 0.349981 0.982574
0.548089 0.343816 0.982422
0.660792 0.334630 0.982269
0.772030 0.321660 0.981964
0.880949 0.305425 0.982147
0.984680 0.315373 0.979797
0.390326 0.466011 0.976349
0.406622 0.465766 0.976440
0.462776 0.461067 0.975830
0.556970 0.461830 0.977356
0.658595 0.452033 0.976776
0.763394 0.438117 0.976043
0.870390 0.425391 0.976776
0.974395 0.426856 0.975280
0.459358 0.606317 0.966339
0.471107 0.606806 0.966674
0.509789 0.603601 0.966491
0.579187 0.601160 0.967193
0.663935 0.594965 0.967712
0.757198 0.585107 0.968200
0.857816 0.575006 0.969787
0.960113 0.570336 0.969818
0.545159 0.723293 0.954009
0.555474 0.724544 0.954406
0.585595 0.724392 0.954040
0.622217 0.715694 0.955505
0.680476 0.706722 0.956329
0.757626 0.698177 0.957397
0.848936 0.690669 0.960052
0.947753 0.688289 0.962737
0.561364 0.797330 0.945647
0.566552 0.796658 0.944976
0.592462 0.795926 0.943267
0.642115 0.796628 0.942870
0.709194 0.799100 0.945129
0.777951 0.799039 0.950347
0.858610 0.802152 0.955993
0.945525 0.804532 0.960967
0.577600 0.874144 0.948608
0.583978 0.874052 0.948394
0.610864 0.873991 0.947692
0.662623 0.875578 0.947356
0.730495 0.878721 0.947112
0.806149 0.884794 0.947662
0.875517 0.889311 0.952331
0.942535 0.887053 0.956146
0.595605 0.955535 0.951751
0.601099 0.955261 0.951537
0.627466 0.954772 0.951354
0.677485 0.954589 0.951720
0.740352 0.953979 0.951843
0.808743 0.952972 0.951690
0.879515 0.952026 0.951659
0.943145 0.951446 0.951843
