20 Preset/Japan Style/【3】LUT video cho PR-AE-FCPX/LUT VIDEO/Japan Style LUT (10).cube
# Created by Adobe Lightroom plugin Export LUT (1.24.0)
# www.johnrellis.com/lightroom/exportlut.htm
# Preset: 10日系胶片（素材江湖）
# Color profile: C:\Program Files (x86)\Common Files\Adobe\Color\Profiles\Recommended\VideoHD.icc
LUT_3D_SIZE 32
DOMAIN_MIN 0.0 0.0 0.0
DOMAIN_MAX 1.0 1.0 1.0
0.000000 0.011994 0.014374
0.000000 0.013184 0.015381
0.000000 0.014405 0.016358
0.000000 0.018524 0.019135
0.013794 0.024567 0.022339
0.088106 0.026520 0.028412
0.132601 0.024323 0.033539
0.187839 0.006317 0.037507
0.253178 0.000000 0.039857
0.327428 0.000000 0.040864
0.409430 0.000000 0.039185
0.496620 0.000000 0.033570
0.587121 0.000000 0.023133
0.677546 0.000000 0.009003
0.762173 0.000000 0.000000
0.836820 0.000000 0.000000
0.901396 0.000000 0.000000
0.956725 0.000000 0.000000
1.000000 0.000000 0.000000
1.000000 0.000000 0.000000
1.000000 0.000000 0.000000
1.000000 0.000000 0.000000
1.000000 0.000000 0.000000
1.000000 0.000000 0.000000
1.000000 0.000000 0.043641
1.000000 0.000000 0.101961
1.000000 0.000000 0.133608
1.000000 0.101717 0.163882
1.000000 0.189822 0.194186
1.000000 0.246006 0.224887
1.000000 0.291783 0.257450
1.000000 0.332891 0.291173
0.000000 0.015595 0.016205
0.000000 0.014405 0.016358
0.000000 0.018006 0.015900
0.000000 0.020935 0.018830
0.014069 0.026734 0.023163
0.085389 0.030335 0.029114
0.130800 0.028626 0.033143
0.184909 0.010956 0.037293
0.249638 0.000000 0.039704
0.322850 0.000000 0.040864
0.403693 0.000000 0.039399
0.490425 0.000000 0.034180
0.580346 0.000000 0.024018
0.670466 0.000000 0.007874
0.755581 0.000000 0.000000
0.831052 0.000000 0.000000
0.896513 0.000000 0.000000
0.952544 0.000000 0.000000
1.000000 0.000000 0.000000
1.000000 0.000000 0.000000
1.000000 0.000000 0.000000
1.000000 0.000000 0.000000
1.000000 0.000000 0.000000
1.000000 0.000000 0.000000
1.000000 0.000000 0.026154
1.000000 0.000000 0.095003
1.000000 0.000000 0.127626
1.000000 0.060304 0.157900
1.000000 0.178683 0.188205
1.000000 0.237308 0.219516
1.000000 0.285039 0.252384
1.000000 0.326940 0.285924
0.000000 0.026398 0.022797
0.000000 0.026398 0.022797
0.000000 0.025208 0.022950
0.000000 0.032715 0.019593
0.008362 0.038544 0.023926
0.082307 0.044312 0.028443
0.129274 0.042817 0.032471
0.183322 0.026825 0.036500
0.247257 0.000000 0.038819
0.319585 0.000000 0.038636
0.400305 0.000000 0.036805
0.486488 0.000000 0.031281
0.575921 0.000000 0.020539
0.665675 0.000000 0.005158
0.750912 0.000000 0.000000
0.826505 0.000000 0.000000
0.892393 0.000000 0.000000
0.948852 0.000000 0.000000
0.996918 0.000000 0.000000
1.000000 0.000000 0.000000
1.000000 0.000000 0.000000
1.000000 0.000000 0.000000
1.000000 0.000000 0.000000
1.000000 0.000000 0.000000
1.000000 0.000000 0.013458
1.000000 0.000000 0.089479
1.000000 0.000000 0.122713
1.000000 0.089357 0.154269
1.000000 0.182742 0.185336
1.000000 0.240055 0.216709
1.000000 0.286076 0.249393
1.000000 0.327245 0.283055
0.000000 0.050416 0.035706
0.000000 0.050202 0.035676
0.000000 0.051179 0.034394
0.000000 0.046906 0.037079
0.000000 0.061158 0.030152
0.076722 0.072084 0.028199
0.127077 0.072969 0.031922
0.181552 0.059602 0.034546
0.245823 0.023285 0.036255
0.317845 0.000000 0.035370
0.398047 0.000000 0.032563
0.483192 0.000000 0.025849
0.572168 0.000000 0.013916
0.661158 0.000000 0.000000
0.745937 0.000000 0.000000
0.821378 0.000000 0.000000
0.887022 0.000000 0.000000
0.943542 0.000000 0.000000
0.991821 0.000000 0.000000
1.000000 0.000000 0.000000
1.000000 0.000000 0.000000
1.000000 0.000000 0.000000
1.000000 0.000000 0.000000
1.000000 0.000000 0.000000
1.000000 0.000000 0.000000
1.000000 0.000000 0.072572
1.000000 0.000000 0.116670
1.000000 0.129732 0.150515
1.000000 0.200565 0.182467
1.000000 0.251957 0.214878
1.000000 0.294743 0.247807
1.000000 0.333501 0.281224
0.000000 0.088533 0.052674
0.000000 0.088472 0.052644
0.000000 0.088655 0.051362
0.000000 0.087221 0.049165
0.000000 0.081788 0.054536
0.038636 0.092164 0.045930
0.121828 0.098726 0.029999
0.177615 0.097444 0.030274
0.241428 0.088350 0.030854
0.313115 0.039796 0.028382
0.392370 0.000000 0.023102
0.477333 0.000000 0.014435
0.565423 0.000000 0.000061
0.654597 0.000000 0.000000
0.739437 0.000000 0.000000
0.815274 0.000000 0.000000
0.882170 0.000000 0.000000
0.939239 0.000000 0.000000
0.987884 0.000000 0.000000
1.000000 0.000000 0.000000
1.000000 0.000000 0.000000
1.000000 0.000000 0.000000
1.000000 0.000000 0.000000
1.000000 0.000000 0.000000
1.000000 0.000000 0.000000
1.000000 0.000000 0.044678
1.000000 0.087129 0.110872
1.000000 0.174563 0.146181
1.000000 0.227481 0.179171
1.000000 0.270542 0.212284
1.000000 0.308843 0.245457
1.000000 0.344427 0.279332
0.000000 0.112428 0.072663
0.000000 0.112734 0.072511
0.000000 0.113100 0.069886
0.000000 0.112398 0.066407
0.000000 0.109224 0.067140
0.003784 0.103731 0.075807
0.093477 0.115541 0.064790
0.163760 0.124819 0.035737
0.238529 0.125368 0.019043
0.311284 0.116579 0.014923
0.390509 0.094423 0.005371
0.475563 0.000000 0.000000
0.563653 0.000000 0.000000
0.652125 0.000000 0.000000
0.736873 0.000000 0.000000
0.813016 0.000000 0.000000
0.879423 0.000000 0.000000
0.936767 0.000000 0.000000
0.985412 0.000000 0.000000
1.000000 0.000000 0.000000
1.000000 0.000000 0.000000
1.000000 0.000000 0.000000
1.000000 0.000000 0.000000
1.000000 0.000000 0.000000
1.000000 0.131014 0.000000
1.000000 0.188724 0.095216
1.000000 0.230533 0.136049
1.000000 0.266392 0.170443
1.000000 0.299077 0.203372
1.000000 0.329808 0.235935
1.000000 0.359136 0.269078
1.000000 0.387640 0.302037
0.000000 0.148989 0.089265
0.000000 0.149386 0.088716
0.000000 0.150454 0.087160
0.000000 0.149813 0.084199
0.000000 0.148257 0.080659
0.000000 0.142306 0.085267
0.061494 0.134432 0.092073
0.138216 0.150607 0.084504
0.223026 0.163668 0.042695
0.317052 0.169009 0.000000
0.404242 0.163943 0.000000
0.491127 0.151247 0.000000
0.579858 0.128664 0.000000
0.668238 0.088106 0.000000
0.750576 0.000000 0.000000
0.823453 0.000000 0.000000
0.887419 0.000000 0.000000
0.942596 0.000000 0.000000
0.989532 0.000000 0.000000
1.000000 0.000000 0.000000
1.000000 0.000000 0.000000
1.000000 0.000000 0.000000
1.000000 0.115114 0.000000
1.000000 0.170565 0.000000
1.000000 0.210208 0.000000
1.000000 0.244022 0.052125
1.000000 0.272679 0.122499
1.000000 0.299657 0.160891
1.000000 0.326116 0.196170
1.000000 0.351537 0.229892
1.000000 0.376684 0.263310
1.000000 0.401984 0.296544
0.000000 0.189212 0.100404
0.000000 0.189487 0.100313
0.000000 0.190372 0.098451
0.000000 0.190524 0.095857
0.000000 0.189151 0.093568
0.000000 0.186130 0.091371
0.056550 0.178836 0.098177
0.114107 0.169986 0.106416
0.182895 0.189212 0.101350
0.278264 0.207492 0.054017
0.382116 0.218082 0.000000
0.484749 0.221561 0.000000
0.573083 0.219272 0.000000
0.660792 0.211521 0.000000
0.742458 0.200656 0.000000
0.815122 0.187808 0.000000
0.878996 0.175967 0.000000
0.934569 0.166140 0.000000
0.983307 0.163760 0.000000
1.000000 0.173892 0.000000
1.000000 0.190311 0.000000
1.000000 0.210208 0.000000
1.000000 0.231907 0.000000
1.000000 0.254429 0.000000
1.000000 0.276799 0.000000
1.000000 0.297704 0.000000
1.000000 0.317998 0.106172
1.000000 0.337682 0.151247
1.000000 0.358190 0.189120
1.000000 0.379156 0.224704
1.000000 0.400305 0.259098
1.000000 0.422492 0.293980
0.000000 0.237125 0.114870
0.000000 0.237430 0.114748
0.000000 0.238285 0.113436
0.000000 0.239506 0.109926
0.000000 0.238041 0.107393
0.000000 0.235904 0.104097
0.000000 0.230961 0.104952
0.122621 0.222660 0.114290
0.162387 0.213138 0.124636
0.234989 0.235630 0.121950
0.339757 0.260685 0.079774
0.449653 0.277165 0.000000
0.562249 0.287480 0.000000
0.655146 0.291264 0.000000
0.736110 0.292424 0.000000
0.808316 0.288334 0.000000
0.872160 0.283543 0.000000
0.928496 0.280583 0.000000
0.979095 0.281651 0.000000
1.000000 0.285313 0.000000
1.000000 0.291875 0.000000
1.000000 0.300816 0.000000
1.000000 0.311711 0.000000
1.000000 0.324041 0.000000
1.000000 0.337255 0.000000
1.000000 0.350774 0.000000
1.000000 0.364691 0.083589
1.000000 0.379309 0.141543
1.000000 0.394842 0.183444
1.000000 0.411017 0.220920
1.000000 0.428687 0.257053
1.000000 0.446998 0.292088
0.000000 0.293187 0.132998
0.000000 0.293309 0.132692
0.000000 0.293919 0.131350
0.000000 0.295537 0.128176
0.000000 0.294438 0.124483
0.000000 0.291997 0.120607
0.000000 0.288975 0.115755
0.103059 0.282658 0.121675
0.175326 0.273472 0.133486
0.216129 0.263371 0.146670
0.291966 0.288731 0.147860
0.402472 0.319219 0.103243
0.516716 0.340490 0.000000
0.628626 0.355749 0.000000
0.728054 0.364202 0.000000
0.800504 0.365972 0.000000
0.866270 0.368353 0.000000
0.924743 0.368536 0.000000
0.973846 0.368383 0.000000
1.000000 0.369207 0.000000
1.000000 0.371191 0.000000
1.000000 0.374304 0.000000
1.000000 0.378790 0.000000
1.000000 0.384771 0.000000
1.000000 0.391547 0.000000
1.000000 0.399542 0.000000
1.000000 0.408576 0.004852
1.000000 0.418830 0.125551
1.000000 0.430579 0.174166
1.000000 0.443549 0.215457
1.000000 0.457893 0.253300
1.000000 0.473579 0.290806
0.000000 0.353002 0.154208
0.000000 0.353216 0.154116
0.000000 0.353948 0.152682
0.000000 0.355627 0.149660
0.000000 0.355993 0.144564
0.000000 0.354070 0.140871
0.000000 0.351537 0.135714
0.000000 0.348058 0.129671
0.169833 0.340642 0.142550
0.234745 0.331670 0.157382
0.276860 0.321386 0.173678
0.353887 0.348119 0.180667
0.468940 0.383062 0.133486
0.584588 0.408148 0.000000
0.694484 0.426398 0.000000
0.791257 0.437873 0.000000
0.862547 0.441230 0.000000
0.918547 0.442298 0.000000
0.966094 0.442359 0.000000
1.000000 0.440711 0.000000
1.000000 0.439612 0.000000
1.000000 0.439307 0.000000
1.000000 0.440497 0.000000
1.000000 0.442176 0.000000
1.000000 0.445289 0.000000
1.000000 0.449592 0.000000
1.000000 0.454902 0.000000
1.000000 0.461646 0.112703
1.000000 0.469825 0.169100
1.000000 0.479408 0.213138
1.000000 0.490608 0.252781
1.000000 0.503197 0.291356
0.000000 0.419471 0.181308
0.000000 0.419684 0.180850
0.000000 0.420203 0.179568
0.000000 0.421851 0.176638
0.000000 0.423468 0.170413
0.000000 0.421759 0.166903
0.000000 0.419715 0.161563
0.000000 0.416480 0.154910
0.140139 0.412116 0.154299
0.238865 0.404578 0.170413
0.300542 0.395727 0.187808
0.344488 0.386450 0.207584
0.447181 0.436011 0.237400
0.572930 0.478706 0.189822
0.688502 0.506340 0.117556
0.787564 0.521813 0.000000
0.869383 0.528893 0.000000
0.934325 0.530297 0.000000
0.977722 0.527703 0.000000
1.000000 0.524926 0.000000
1.000000 0.521355 0.000000
1.000000 0.517571 0.000000
1.000000 0.514580 0.000000
1.000000 0.512840 0.000000
1.000000 0.511986 0.000000
1.000000 0.512078 0.000000
1.000000 0.513146 0.000000
1.000000 0.515709 0.132479
1.000000 0.519890 0.184634
1.000000 0.525383 0.227756
1.000000 0.532677 0.266941
1.000000 0.541680 0.304479
0.000000 0.499245 0.221042
0.000000 0.499214 0.220554
0.000000 0.499184 0.218967
0.000000 0.500008 0.216159
0.000000 0.501122 0.211704
0.000000 0.499306 0.204288
0.000000 0.496437 0.198581
0.000000 0.493172 0.191806
0.000000 0.490791 0.184909
0.237400 0.487861 0.192966
0.323674 0.483986 0.213565
0.388373 0.479896 0.237278
0.438056 0.475166 0.263249
0.517967 0.503899 0.291905
0.639765 0.545281 0.248783
0.743954 0.568475 0.194339
0.830533 0.580102 0.109529
0.901640 0.584131 0.000000
0.959014 0.583429 0.000000
0.999268 0.579339 0.000000
1.000000 0.574090 0.000000
1.000000 0.568963 0.000000
1.000000 0.564050 0.000000
1.000000 0.560021 0.000000
1.000000 0.556909 0.000000
1.000000 0.555016 0.000000
1.000000 0.554131 0.000000
1.000000 0.554498 0.117800
1.000000 0.556390 0.179141
1.000000 0.559899 0.226108
1.000000 0.564904 0.267155
1.000000 0.571649 0.306249
0.000000 0.568597 0.263279
0.000000 0.568566 0.262821
0.000000 0.568750 0.261295
0.000000 0.569238 0.258732
0.000000 0.570336 0.254978
0.000000 0.570336 0.247288
0.000000 0.568200 0.242161
0.000000 0.565789 0.235966
0.000000 0.563287 0.229129
0.216648 0.560906 0.220798
0.326635 0.557549 0.238651
0.404425 0.553948 0.261967
0.466133 0.549584 0.287449
0.513970 0.544488 0.314641
0.585138 0.567468 0.351202
0.695521 0.602594 0.312016
0.787411 0.620844 0.266300
0.863127 0.629419 0.210849
0.925200 0.631708 0.128756
0.975097 0.629633 0.000000
1.000000 0.624353 0.000000
1.000000 0.617914 0.000000
1.000000 0.611780 0.000000
1.000000 0.605951 0.000000
1.000000 0.601221 0.000000
1.000000 0.597620 0.000000
1.000000 0.594781 0.000000
1.000000 0.593347 0.108919
1.000000 0.593164 0.177005
1.000000 0.594690 0.226566
1.000000 0.597772 0.269780
1.000000 0.602472 0.310002
0.000000 0.636744 0.312871
0.000000 0.636713 0.312627
0.000000 0.636500 0.311192
0.000000 0.636316 0.308446
0.000000 0.636347 0.304387
0.000000 0.636408 0.296513
0.000000 0.633753 0.291295
0.000000 0.631006 0.285527
0.000000 0.628168 0.278660
0.180056 0.625452 0.271244
0.322545 0.622675 0.269474
0.412238 0.619379 0.291264
0.482460 0.615778 0.315587
0.539361 0.611292 0.341436
0.583398 0.605554 0.368170
0.643061 0.621820 0.410498
0.741604 0.651240 0.375372
0.822171 0.665980 0.335637
0.888823 0.672267 0.290105
0.943114 0.673121 0.236240
0.986877 0.670130 0.163088
1.000000 0.664607 0.000000
1.000000 0.657435 0.000000
1.000000 0.650324 0.000000
1.000000 0.643275 0.000000
1.000000 0.638178 0.000000
1.000000 0.634150 0.000000
1.000000 0.631312 0.106264
1.000000 0.629786 0.180453
1.000000 0.629755 0.232029
1.000000 0.631525 0.277714
1.000000 0.634638 0.318944
0.000000 0.691646 0.362066
0.000000 0.691798 0.361883
0.000000 0.691890 0.361151
0.000000 0.691890 0.359289
0.000000 0.692073 0.356909
0.000000 0.692592 0.353643
0.000000 0.691402 0.346380
0.000000 0.689235 0.341436
0.000000 0.686915 0.335912
0.154940 0.684169 0.329381
0.317388 0.680842 0.321599
0.416876 0.677028 0.327794
0.491859 0.672724 0.349279
0.552941 0.667659 0.372290
0.602411 0.661769 0.395880
0.641505 0.655329 0.420874
0.690578 0.666377 0.466377
0.777676 0.691310 0.435309
0.848936 0.703487 0.400214
0.907744 0.708522 0.361425
0.955657 0.708858 0.317754
0.995300 0.705928 0.266148
1.000000 0.700435 0.199649
1.000000 0.692714 0.030945
1.000000 0.685267 0.000000
1.000000 0.677729 0.000000
1.000000 0.672267 0.000000
1.000000 0.668238 0.117037
1.000000 0.665278 0.189303
1.000000 0.663844 0.241184
1.000000 0.663630 0.286107
1.000000 0.664942 0.328008
0.000000 0.737118 0.410742
0.000000 0.737148 0.410285
0.000000 0.737087 0.409857
0.000000 0.737148 0.408850
0.000000 0.737209 0.407263
0.000000 0.737514 0.405524
0.000000 0.737057 0.399451
0.000000 0.734981 0.394995
0.000000 0.732631 0.389899
0.147402 0.729946 0.384375
0.313756 0.726741 0.377630
0.416327 0.723140 0.369543
0.495308 0.719112 0.384161
0.559838 0.714656 0.405249
0.613550 0.709529 0.426917
0.657618 0.703853 0.449744
0.692439 0.697902 0.472999
0.733608 0.706050 0.518730
0.809110 0.726802 0.494087
0.871611 0.736812 0.463294
0.922972 0.741085 0.430121
0.965789 0.740993 0.392462
1.000000 0.737942 0.349706
1.000000 0.732418 0.298253
1.000000 0.724941 0.230961
1.000000 0.716609 0.161715
1.000000 0.708675 0.098299
1.000000 0.702754 0.134096
1.000000 0.699001 0.203372
1.000000 0.696284 0.254368
1.000000 0.694850 0.298833
1.000000 0.694789 0.340978
0.000000 0.776577 0.460365
0.000000 0.776730 0.460609
0.000000 0.789883 0.479896
0.000000 0.789822 0.479591
0.000000 0.789548 0.479011
0.000000 0.789273 0.478492
0.000000 0.788846 0.475593
0.000000 0.786770 0.470649
0.000000 0.784451 0.466163
0.245731 0.781674 0.460761
0.359014 0.778561 0.454810
0.446479 0.774899 0.447517
0.522026 0.770474 0.441810
0.585107 0.765835 0.460090
0.638331 0.760708 0.478950
0.682826 0.755245 0.498573
0.719326 0.749294 0.518242
0.748196 0.743343 0.538781
0.781460 0.748440 0.578332
0.842252 0.763760 0.561334
0.894682 0.771237 0.534112
0.938445 0.773922 0.504570
0.975402 0.772915 0.471046
1.000000 0.769192 0.432929
1.000000 0.763149 0.387274
1.000000 0.755215 0.331548
1.000000 0.745480 0.258183
1.000000 0.736904 0.214725
1.000000 0.730373 0.221592
1.000000 0.726741 0.270909
1.000000 0.724208 0.314733
1.000000 0.722866 0.355474
0.000000 0.812192 0.513939
0.000000 0.813199 0.515648
0.000000 0.814176 0.517723
0.000000 0.814878 0.519280
0.000000 0.815274 0.520836
0.000000 0.815152 0.521752
0.000000 0.814603 0.522881
0.000000 0.813169 0.517052
0.150484 0.810971 0.512963
0.288823 0.808469 0.508324
0.379309 0.805692 0.502800
0.456031 0.802426 0.496590
0.524529 0.798520 0.488960
0.586877 0.794278 0.491218
0.640528 0.789853 0.508293
0.686397 0.785214 0.526177
0.725216 0.780392 0.544518
0.757259 0.775601 0.563317
0.783200 0.770932 0.582666
0.812131 0.775174 0.618616
0.862669 0.787533 0.608667
0.908568 0.794278 0.586206
0.947082 0.796567 0.561212
0.980194 0.795529 0.531945
1.000000 0.791989 0.497597
1.000000 0.786313 0.456428
1.000000 0.778866 0.406653
1.000000 0.769741 0.344945
1.000000 0.760067 0.282444
1.000000 0.753902 0.287297
1.000000 0.750576 0.329595
1.000000 0.748318 0.369726
0.000000 0.835935 0.556542
0.000000 0.836759 0.558160
0.000000 0.837583 0.560235
0.000000 0.838132 0.562249
0.000000 0.838376 0.564141
0.000000 0.838010 0.565667
0.000000 0.837400 0.566918
0.157168 0.836393 0.563806
0.268406 0.834409 0.560143
0.347784 0.832151 0.556054
0.416754 0.829587 0.551415
0.480018 0.826719 0.546319
0.539086 0.823362 0.539788
0.595605 0.819577 0.532464
0.647547 0.815610 0.541375
0.692897 0.811582 0.557488
0.732082 0.807401 0.573846
0.765225 0.803250 0.590356
0.792935 0.799344 0.607721
0.815366 0.795621 0.625330
0.839719 0.798734 0.657008
0.880797 0.808164 0.652338
0.920684 0.813870 0.633356
0.954650 0.815732 0.611688
0.984131 0.814817 0.586389
1.000000 0.811643 0.556207
1.000000 0.806546 0.519738
1.000000 0.799680 0.474891
1.000000 0.791165 0.419379
1.000000 0.780819 0.346624
1.000000 0.774838 0.347906
1.000000 0.771908 0.387030
0.000000 0.855741 0.598016
0.000000 0.856352 0.599695
0.000000 0.856870 0.601495
0.000000 0.857145 0.603357
0.000000 0.857176 0.605127
0.118898 0.856718 0.606531
0.233310 0.855985 0.608057
0.303685 0.855131 0.607965
0.355230 0.853544 0.604150
0.408942 0.851560 0.600763
0.461555 0.849332 0.596857
0.512230 0.846769 0.592493
0.561913 0.843931 0.587091
0.610437 0.840696 0.581323
0.657984 0.837125 0.575006
0.701534 0.833616 0.589258
0.740108 0.830167 0.604334
0.773770 0.826871 0.620050
0.802609 0.823880 0.636378
0.826780 0.821134 0.652949
0.846372 0.818723 0.669978
0.866789 0.821317 0.698268
0.899413 0.828458 0.697902
0.933623 0.833433 0.682704
0.963073 0.835142 0.664942
0.989105 0.834409 0.643732
1.000000 0.831754 0.618128
1.000000 0.827359 0.586847
1.000000 0.821378 0.548577
1.000000 0.813504 0.498909
1.000000 0.803342 0.431861
1.000000 0.796567 0.419806
0.202457 0.874998 0.646601
0.209659 0.875151 0.647364
0.225528 0.875151 0.648005
0.251225 0.874968 0.648707
0.285557 0.874510 0.649592
0.323522 0.873808 0.650538
0.366430 0.872892 0.651881
0.411536 0.871824 0.653742
0.442817 0.870665 0.650172
0.479805 0.869017 0.647425
0.518303 0.867124 0.644343
0.557824 0.864958 0.640772
0.597742 0.862547 0.636683
0.637812 0.859770 0.631678
0.677485 0.856779 0.626032
0.716823 0.853544 0.625818
0.752621 0.850340 0.638636
0.784329 0.847288 0.652033
0.811856 0.844388 0.665827
0.835386 0.841733 0.679866
0.855131 0.839261 0.694087
0.871183 0.837003 0.708431
0.887480 0.838499 0.731899
0.913115 0.843595 0.733242
0.942565 0.847654 0.719570
0.968505 0.849180 0.703883
0.991943 0.848661 0.685328
1.000000 0.846433 0.663142
1.000000 0.842649 0.635767
1.000000 0.837247 0.601312
1.000000 0.829892 0.556054
1.000000 0.820035 0.492683
0.355932 0.887510 0.682429
0.358770 0.887633 0.682948
0.366796 0.887572 0.683589
0.380316 0.887388 0.684321
0.399298 0.886961 0.685267
0.423255 0.886290 0.686397
0.452064 0.885405 0.687739
0.484688 0.884337 0.689693
0.510582 0.883452 0.688319
0.537987 0.882017 0.686091
0.567346 0.880430 0.683650
0.598413 0.878599 0.680751
0.630671 0.876524 0.677333
0.663691 0.874266 0.673426
0.697108 0.871794 0.668971
0.730526 0.869139 0.664088
0.763577 0.866331 0.669215
0.793362 0.863645 0.681086
0.819608 0.861112 0.693202
0.842405 0.858732 0.705592
0.862058 0.856565 0.718135
0.878569 0.854582 0.730678
0.892149 0.852720 0.743191
0.905608 0.853788 0.762875
0.924285 0.856046 0.762112
0.949981 0.859648 0.750027
0.973175 0.861234 0.736477
0.994263 0.861021 0.720607
1.000000 0.859159 0.701076
1.000000 0.855833 0.676814
1.000000 0.850858 0.645533
1.000000 0.843839 0.603113
0.468025 0.899290 0.720119
0.471321 0.899413 0.720912
0.476112 0.899382 0.721462
0.484047 0.899046 0.721859
0.495552 0.898497 0.722255
0.511131 0.897704 0.722774
0.530266 0.896727 0.723537
0.553063 0.895567 0.724788
0.577020 0.894377 0.725521
0.593469 0.893187 0.722042
0.614618 0.891661 0.719295
0.637995 0.889982 0.716274
0.663050 0.888121 0.712978
0.689082 0.886076 0.709255
0.716030 0.883818 0.704921
0.743526 0.881437 0.700099
0.771542 0.878904 0.695003
0.799039 0.876371 0.703975
0.823789 0.874022 0.714504
0.845945 0.871916 0.725673
0.865354 0.870024 0.736934
0.882109 0.868223 0.748135
0.896147 0.866484 0.758968
0.907652 0.864775 0.769436
0.918822 0.865293 0.785489
0.934905 0.868009 0.789029
0.957092 0.871122 0.778103
0.977600 0.872648 0.766140
0.996735 0.872526 0.751827
1.000000 0.870909 0.734615
1.000000 0.867857 0.712581
1.000000 0.863066 0.683528
0.537835 0.907652 0.747524
0.540429 0.907744 0.748135
0.544305 0.907744 0.748775
0.550774 0.907530 0.749386
0.560479 0.907073 0.750118
0.573266 0.906462 0.751095
0.589380 0.905699 0.752407
0.608759 0.904784 0.754238
0.630610 0.903746 0.756527
0.644953 0.902953 0.754635
0.661585 0.901793 0.752804
0.680079 0.900511 0.750698
0.699733 0.899046 0.748287
0.720455 0.897368 0.745266
0.741817 0.895567 0.741695
0.764004 0.893584 0.737819
0.786893 0.891508 0.733639
0.810269 0.889372 0.732113
0.832731 0.887266 0.740963
0.853208 0.885344 0.750393
0.871458 0.883574 0.759976
0.887541 0.881987 0.769528
0.901427 0.880430 0.778958
0.913268 0.878965 0.788052
0.923064 0.877501 0.796780
0.932464 0.877867 0.809903
0.945129 0.879911 0.814023
0.964233 0.882811 0.804685
0.982391 0.884459 0.794644
0.999390 0.884550 0.782589
1.000000 0.883146 0.767391
1.000000 0.880156 0.747494
0.605493 0.916075 0.775753
0.606622 0.916136 0.776089
0.609430 0.916045 0.776486
0.614374 0.915801 0.777005
0.621546 0.915404 0.777584
0.631434 0.914855 0.778470
0.644129 0.914153 0.779690
0.659205 0.913329 0.781247
0.676692 0.912383 0.783352
0.690272 0.911650 0.783139
0.703029 0.910704 0.781582
0.717067 0.909667 0.779843
0.732479 0.908507 0.777920
0.748684 0.907195 0.775540
0.765774 0.905699 0.772763
0.783474 0.904112 0.769497
0.802060 0.902434 0.766140
0.821378 0.900694 0.762387
0.841215 0.898924 0.764706
0.859892 0.897185 0.772549
0.876829 0.895628 0.780606
0.892058 0.894133 0.788754
0.905455 0.892729 0.796658
0.917174 0.891325 0.804288
0.927153 0.889982 0.811673
0.935546 0.888609 0.818723
0.943572 0.888762 0.829160
0.953521 0.890227 0.833463
0.970062 0.892821 0.825132
0.986236 0.894621 0.816617
1.000000 0.894865 0.806058
1.000000 0.893523 0.792386
0.659480 0.923644 0.799680
0.660426 0.923674 0.799924
0.662745 0.923613 0.800290
0.666865 0.923430 0.800839
0.672999 0.923156 0.801663
0.681788 0.922759 0.802853
0.693324 0.922362 0.804654
0.706966 0.921843 0.806973
0.722621 0.921294 0.809812
0.739071 0.920775 0.812772
0.748409 0.920500 0.811765
0.760250 0.919951 0.811368
0.772824 0.919310 0.810727
0.785794 0.918547 0.809659
0.799222 0.917632 0.808164
0.812985 0.916503 0.806027
0.827268 0.915282 0.803647
0.842222 0.914031 0.800992
0.857786 0.912749 0.798276
0.873686 0.911345 0.802884
0.888457 0.910002 0.809201
0.901915 0.908721 0.815518
0.913970 0.907469 0.821530
0.924712 0.906218 0.827481
0.934173 0.904967 0.833188
0.942351 0.903716 0.838712
0.949340 0.902495 0.844053
0.955871 0.902434 0.851835
0.963348 0.903227 0.855833
0.977020 0.905425 0.848264
0.990875 0.907073 0.840848
1.000000 0.907134 0.831449
0.719966 0.932799 0.827146
0.720211 0.932799 0.827176
0.721584 0.932708 0.827329
0.724331 0.932525 0.827634
0.728664 0.932250 0.828183
0.734829 0.931853 0.829007
0.742733 0.931426 0.830167
0.752438 0.930877 0.831693
0.763699 0.930297 0.833555
0.776272 0.929686 0.835843
0.783780 0.929351 0.835233
0.791958 0.928832 0.834470
0.800931 0.928222 0.833494
0.810575 0.927520 0.832364
