20 Preset/Japan Style/【3】LUT video cho PR-AE-FCPX/LUT VIDEO/Japan Style LUT (14).cube
# Created by Adobe Lightroom plugin Export LUT (1.24.0)
# www.johnrellis.com/lightroom/exportlut.htm
# Preset: 14日系胶片（素材江湖）
# Color profile: C:\Program Files (x86)\Common Files\Adobe\Color\Profiles\Recommended\VideoHD.icc
LUT_3D_SIZE 8
DOMAIN_MIN 0.000000 0.000000 0.000000
DOMAIN_MAX 0.903226 0.903226 0.903226
0.137331 0.162112 0.124025
0.138857 0.162173 0.123964
0.189395 0.161959 0.123110
0.338476 0.162509 0.114931
0.517296 0.163729 0.093965
0.710384 0.162509 0.023102
0.903624 0.173098 0.037568
1.000000 0.200443 0.130587
0.136416 0.164218 0.124178
0.139559 0.164675 0.123995
0.188998 0.171695 0.121370
0.325322 0.183078 0.111635
0.497292 0.192599 0.089937
0.688045 0.199313 0.016175
0.873655 0.209903 0.017273
1.000000 0.227787 0.118349
0.050996 0.233616 0.110475
0.105379 0.233890 0.111147
0.218082 0.240452 0.103151
0.352697 0.259159 0.084962
0.511925 0.280278 0.032837
0.715206 0.307439 0.000000
0.897490 0.325658 0.054841
1.000000 0.334600 0.147097
0.000000 0.386450 0.097414
0.000000 0.384924 0.101991
0.193240 0.390051 0.099245
0.398901 0.410742 0.000000
0.590906 0.437720 0.000000
0.752895 0.453315 0.000000
0.896880 0.459052 0.105440
1.000000 0.456550 0.174868
0.000000 0.579339 0.133333
0.000000 0.578576 0.137514
0.000000 0.581659 0.156893
0.367468 0.587396 0.122225
0.574548 0.585779 0.000000
0.746426 0.583062 0.000000
0.875975 0.581140 0.089143
0.981933 0.576532 0.209598
0.000000 0.739254 0.230686
0.000000 0.746059 0.241886
0.000000 0.746517 0.257145
0.290440 0.746029 0.263615
0.522698 0.739834 0.220462
0.713680 0.732784 0.145754
0.876585 0.718563 0.024781
0.974365 0.700465 0.227420
0.000000 0.852354 0.382635
0.000000 0.853208 0.387884
0.000000 0.851957 0.397314
0.317082 0.850858 0.419776
0.483894 0.845426 0.394903
0.645930 0.839658 0.354253
0.806394 0.831937 0.298619
0.955138 0.813077 0.228061
0.351781 0.928008 0.555474
0.363439 0.927794 0.557275
0.410834 0.927245 0.566613
0.488258 0.926635 0.586511
0.545495 0.919341 0.572412
0.644038 0.917937 0.550927
0.756710 0.915007 0.520775
0.879362 0.908080 0.469429
0.137270 0.162081 0.126192
0.139590 0.162051 0.126131
0.183474 0.157870 0.130678
0.322454 0.142000 0.126589
0.492775 0.136721 0.120699
0.679225 0.136599 0.115023
0.859312 0.147036 0.125063
0.992645 0.176944 0.157046
0.136110 0.164370 0.126558
0.140139 0.164584 0.126711
0.191745 0.165408 0.126925
0.322759 0.168246 0.123903
0.489418 0.173465 0.117403
0.675349 0.180697 0.113191
0.845518 0.190677 0.120668
0.980163 0.209201 0.150454
0.067262 0.228458 0.127230
0.104952 0.229465 0.125002
0.213169 0.234867 0.119234
0.343053 0.249424 0.114412
0.497383 0.268193 0.110872
0.683864 0.289799 0.108614
0.853574 0.303502 0.123262
0.987121 0.316014 0.164767
0.000000 0.368719 0.132845
0.000000 0.368475 0.135622
0.185336 0.374060 0.139803
0.370153 0.382483 0.107057
0.539330 0.400366 0.074342
0.698177 0.418921 0.108339
0.852415 0.431556 0.131594
0.976654 0.436774 0.179660
0.000000 0.564904 0.166842
0.000000 0.562799 0.169528
0.000000 0.562554 0.183383
0.351568 0.563104 0.161074
0.548119 0.557946 0.087251
0.718563 0.559655 0.000000
0.854948 0.564538 0.131289
0.966705 0.563836 0.216739
0.000000 0.724025 0.242069
0.000000 0.724666 0.245701
0.000000 0.726192 0.259953
0.278660 0.728786 0.272313
0.512047 0.725399 0.235264
0.704555 0.722377 0.176272
0.866911 0.709438 0.120363
0.965667 0.692470 0.238865
0.000000 0.842100 0.377691
0.000000 0.840665 0.377386
0.000000 0.839261 0.386053
0.297795 0.839445 0.409827
0.475746 0.837003 0.395331
0.638605 0.831510 0.355627
0.797757 0.822354 0.296941
0.945800 0.803403 0.226078
0.328527 0.923339 0.546624
0.347601 0.923827 0.551476
0.395972 0.923217 0.559899
0.477241 0.922789 0.580316
0.563439 0.921477 0.594324
0.650111 0.918273 0.565484
0.756619 0.913817 0.527947
0.878599 0.906798 0.476478
0.139162 0.160189 0.187533
0.154879 0.158694 0.189609
0.209964 0.151949 0.192996
0.335424 0.122927 0.217105
0.505913 0.020447 0.234806
0.702541 0.000000 0.240909
0.878019 0.000000 0.255497
1.000000 0.134524 0.280674
0.119509 0.164401 0.192264
0.142824 0.162997 0.192569
0.212161 0.158206 0.195529
0.336522 0.142519 0.211643
0.501640 0.119051 0.226474
0.695003 0.014618 0.232273
0.864469 0.104067 0.249210
0.993957 0.177493 0.274174
0.048585 0.231296 0.201450
0.115328 0.231479 0.201816
0.220157 0.232547 0.203342
0.351965 0.239811 0.211398
0.517998 0.250675 0.222385
0.703944 0.263523 0.236149
0.865873 0.279088 0.253483
0.990784 0.302525 0.281010
0.000000 0.367712 0.242741
0.109773 0.369299 0.244724
0.205814 0.376074 0.235935
0.376989 0.384009 0.225895
0.549340 0.399176 0.229191
0.713832 0.415961 0.245457
0.865812 0.428138 0.264866
0.983276 0.436439 0.295872
0.000000 0.553918 0.279515
0.000000 0.554833 0.271031
0.058991 0.558129 0.275639
0.353918 0.564294 0.280491
0.555230 0.561700 0.243076
0.723018 0.559075 0.229984
0.855680 0.562524 0.271000
0.967559 0.564691 0.317906
0.000000 0.715663 0.322179
0.000000 0.716854 0.325963
0.000000 0.717952 0.337163
0.303044 0.720668 0.359808
0.511711 0.717403 0.330755
0.700343 0.714931 0.290929
0.861326 0.703944 0.270451
0.962310 0.692409 0.339391
0.000000 0.840024 0.441749
0.000000 0.838926 0.441779
0.175845 0.836667 0.446967
0.353887 0.835630 0.465431
0.497566 0.833646 0.464027
0.646357 0.829648 0.429572
0.801450 0.823423 0.383001
0.946929 0.806394 0.336065
0.377996 0.920958 0.580926
0.386053 0.920439 0.581140
0.427863 0.919799 0.588830
0.505760 0.920348 0.610773
0.587732 0.919158 0.633234
0.666499 0.917205 0.609094
0.765133 0.913603 0.575647
0.881163 0.907103 0.527642
0.149783 0.150515 0.324804
0.176028 0.147036 0.328374
0.252811 0.133059 0.330907
0.356085 0.102266 0.335790
0.499184 0.000000 0.357733
0.686336 0.000000 0.388190
0.856596 0.000000 0.398932
0.988128 0.000000 0.406928
0.115511 0.157382 0.333989
0.154482 0.154726 0.334722
0.247593 0.144228 0.336339
0.360174 0.127077 0.340520
0.504906 0.078584 0.359564
0.689601 0.000000 0.386297
0.855680 0.000000 0.395697
0.986114 0.097169 0.406714
0.000000 0.239322 0.338384
0.000946 0.236057 0.338872
0.221775 0.228153 0.339696
0.359564 0.225620 0.341314
0.523491 0.217960 0.362707
0.710048 0.217380 0.386542
0.876616 0.245274 0.406744
0.991394 0.301732 0.427558
0.000000 0.370245 0.354711
0.000000 0.369421 0.353979
0.218723 0.369177 0.354559
0.377661 0.370703 0.357397
0.540795 0.380529 0.369757
0.708125 0.393072 0.384741
0.859556 0.410895 0.405127
0.976745 0.434180 0.430457
0.000000 0.545373 0.406165
0.000000 0.544091 0.405798
0.251713 0.544091 0.410101
0.381750 0.555840 0.411200
0.560204 0.557519 0.395758
0.722591 0.556176 0.399115
0.854307 0.563745 0.425971
0.963989 0.570336 0.452491
0.202243 0.705684 0.482460
0.226963 0.711879 0.485603
0.262852 0.713832 0.470344
0.385046 0.718654 0.474067
0.537011 0.719295 0.477028
0.704555 0.712123 0.437263
0.855009 0.700862 0.429206
0.953887 0.696162 0.476539
0.279454 0.830808 0.542107
0.289616 0.831632 0.541436
0.331884 0.833127 0.539208
0.441474 0.833738 0.557000
0.552239 0.833890 0.578546
0.667445 0.829435 0.545403
0.805692 0.822171 0.501366
0.941833 0.806577 0.470344
0.456550 0.919188 0.642725
0.463996 0.919005 0.643824
0.495888 0.918364 0.649866
0.553155 0.917723 0.663691
0.623316 0.916594 0.683009
0.692531 0.915007 0.675776
0.778256 0.912322 0.647242
0.885588 0.907469 0.607111
0.163027 0.123903 0.498787
0.195377 0.117464 0.501732
0.285618 0.089509 0.502861
0.400702 0.000000 0.506340
0.527123 0.000000 0.509819
0.677058 0.000000 0.525872
0.839048 0.000000 0.539422
0.976043 0.000000 0.541314
0.121584 0.136507 0.504967
0.167453 0.131991 0.508354
0.275822 0.113344 0.509178
0.397711 0.062074 0.508354
0.529290 0.000000 0.512505
0.680110 0.000000 0.527031
0.840238 0.000000 0.538476
0.975311 0.000000 0.540398
0.000000 0.226444 0.511162
0.000000 0.225284 0.511437
0.227787 0.220371 0.510216
0.384192 0.212589 0.511070
0.526574 0.201572 0.511467
0.676722 0.178103 0.518730
0.836881 0.157748 0.530175
0.967010 0.215488 0.534691
0.000000 0.376349 0.516381
0.000000 0.374456 0.516136
0.170993 0.368109 0.517723
0.369726 0.360632 0.519341
0.534081 0.357916 0.519310
0.691768 0.353460 0.523247
0.842588 0.372168 0.534752
0.960723 0.412726 0.550225
0.000000 0.523491 0.522728
0.000000 0.523949 0.523217
0.173251 0.523247 0.523339
0.372656 0.522545 0.523308
0.538140 0.519738 0.521447
0.690578 0.529808 0.533532
0.832151 0.545159 0.550622
0.945403 0.563958 0.571038
0.000000 0.670771 0.540307
0.000000 0.670924 0.541283
0.235080 0.668116 0.542229
0.411719 0.667018 0.551598
0.535607 0.678248 0.562829
0.689235 0.685603 0.555383
0.832303 0.685878 0.565881
0.934020 0.692744 0.597009
0.350866 0.811460 0.623804
0.366369 0.810300 0.623865
0.428870 0.808225 0.629084
0.498512 0.811734 0.632715
0.577020 0.817166 0.640955
0.677699 0.816922 0.641779
0.800961 0.809903 0.601404
0.926299 0.796139 0.583307
0.522393 0.905241 0.705715
0.524895 0.905272 0.704677
0.536675 0.905730 0.701411
0.571160 0.909361 0.703853
0.638514 0.909453 0.720272
0.711055 0.909148 0.737362
0.784909 0.906767 0.711452
0.884825 0.901823 0.674678
0.162356 0.011048 0.687190
0.200320 0.000000 0.688594
0.302678 0.000000 0.686183
0.425757 0.000000 0.685451
0.559960 0.000000 0.689326
0.695094 0.000000 0.688472
0.835630 0.000000 0.689601
0.966369 0.000000 0.682460
0.115419 0.092653 0.677821
0.168215 0.083650 0.677577
0.285527 0.008148 0.676783
0.415381 0.000000 0.677119
0.549767 0.000000 0.678492
0.686000 0.000000 0.678767
0.827390 0.000000 0.681422
0.960388 0.000000 0.676326
0.000000 0.215763 0.687709
0.000000 0.214145 0.687434
0.229709 0.208316 0.687495
0.394690 0.194797 0.681910
0.542687 0.178195 0.680842
0.686488 0.157198 0.680629
0.831510 0.130129 0.682856
0.959838 0.128389 0.673854
0.000000 0.373083 0.694362
0.000000 0.369940 0.692836
0.093233 0.360388 0.692409
0.372717 0.361059 0.696895
0.544793 0.358770 0.696956
0.697597 0.354803 0.693690
0.841398 0.353887 0.690608
0.959991 0.366247 0.678157
0.000000 0.520592 0.681331
0.000000 0.519677 0.680964
0.073854 0.517021 0.680781
0.355169 0.514214 0.681697
0.528283 0.511009 0.680476
0.682429 0.508568 0.677790
0.823728 0.507836 0.673945
0.939269 0.534295 0.678187
0.000000 0.663233 0.674830
0.000000 0.665400 0.677394
0.144930 0.664210 0.676234
0.364141 0.662470 0.675074
0.526207 0.659754 0.672663
0.680415 0.662074 0.675868
0.813046 0.678614 0.694057
0.921569 0.693477 0.710201
0.169192 0.801450 0.689418
0.218479 0.802304 0.691524
0.328191 0.801633 0.694606
0.461677 0.800443 0.702113
0.600671 0.799435 0.718318
0.699519 0.805509 0.732052
0.802548 0.801785 0.712917
0.913817 0.797055 0.714260
0.475380 0.899046 0.746944
0.483497 0.898405 0.747066
0.523827 0.897337 0.751736
0.596857 0.897093 0.764614
0.667109 0.898009 0.775235
0.723964 0.901396 0.782712
0.796109 0.901671 0.784939
0.886076 0.897032 0.752926
0.146426 0.000000 0.819699
0.186862 0.000000 0.821561
0.292821 0.000000 0.820249
0.417212 0.000000 0.820249
0.546319 0.000000 0.818448
0.676814 0.000000 0.815518
0.807492 0.000000 0.811673
0.936980 0.000000 0.806607
0.095094 0.000000 0.810117
0.154788 0.000000 0.812680
0.276707 0.000000 0.811826
0.406378 0.000000 0.810239
0.536797 0.000000 0.807858
0.666377 0.000000 0.803433
0.795041 0.000000 0.798032
0.922454 0.000000 0.791867
0.000000 0.190311 0.815457
0.000000 0.188937 0.815305
0.214145 0.180911 0.813016
0.379858 0.166110 0.810880
0.523491 0.141207 0.806760
0.661433 0.103426 0.803586
0.798734 0.011200 0.803128
0.932403 0.000000 0.800809
0.000000 0.340642 0.819974
0.000000 0.338842 0.818387
0.000000 0.334752 0.815457
0.343206 0.331456 0.814450
0.509850 0.325292 0.811063
0.660029 0.321630 0.809659
0.803220 0.322026 0.809384
0.934417 0.322301 0.802731
0.000000 0.494209 0.808347
0.000000 0.491646 0.806302
0.000000 0.486030 0.803891
0.308385 0.480568 0.803677
0.491707 0.477333 0.801755
0.647089 0.474891 0.799222
0.791806 0.476661 0.798032
0.925078 0.488258 0.796139
0.000000 0.636347 0.799466
0.000000 0.636378 0.799680
0.000000 0.635737 0.799771
0.330663 0.635340 0.800137
0.503258 0.635645 0.799771
0.657252 0.641352 0.801297
0.792966 0.644587 0.801083
0.911284 0.644709 0.793820
0.000000 0.777890 0.799283
0.000000 0.778836 0.800198
0.204440 0.778195 0.799771
0.378882 0.777768 0.799588
0.526299 0.775723 0.797665
0.662440 0.773556 0.795743
0.785641 0.772763 0.795102
0.896330 0.786496 0.809964
0.281010 0.889525 0.793729
0.304814 0.889586 0.794644
0.389654 0.890410 0.799924
0.495644 0.889677 0.806424
0.607935 0.888273 0.815793
0.722011 0.887968 0.831846
0.808042 0.893400 0.848539
0.887266 0.890929 0.832914
0.116060 0.000000 0.917082
0.163821 0.000000 0.917815
0.271153 0.000000 0.915618
0.392157 0.000000 0.915465
0.516533 0.000000 0.914305
0.641382 0.000000 0.911925
0.767727 0.000000 0.910277
0.892729 0.000000 0.906645
0.000031 0.000000 0.912352
0.128664 0.000000 0.913207
0.256016 0.000000 0.912200
0.383703 0.000000 0.911467
0.510765 0.000000 0.910307
0.636988 0.000000 0.907927
0.762997 0.000000 0.905394
0.887480 0.000000 0.900999
0.000000 0.147890 0.910307
0.000000 0.145785 0.910399
0.185183 0.134707 0.908904
0.354253 0.116335 0.911101
0.494484 0.047242 0.908598
0.627039 0.000000 0.904845
0.757504 0.000000 0.902586
0.884855 0.000000 0.898741
0.000000 0.292912 0.908354
0.000000 0.292882 0.908812
0.000000 0.289647 0.907805
0.298070 0.285649 0.907866
0.468635 0.278477 0.906554
0.614527 0.268986 0.904082
0.752316 0.260563 0.902312
0.884367 0.251652 0.899260
0.000000 0.440650 0.903624
0.000000 0.440192 0.904295
0.000000 0.432990 0.903319
0.217472 0.428870 0.902922
0.435492 0.424628 0.900877
0.596246 0.419806 0.898314
0.742397 0.419226 0.897002
0.880461 0.423957 0.896300
0.000000 0.587732 0.896971
0.000000 0.585992 0.896025
0.000000 0.581109 0.894011
0.175326 0.576165 0.893065
0.422278 0.576043 0.893797
0.597528 0.584100 0.896452
0.747494 0.595056 0.899077
0.881559 0.605341 0.899840
0.000000 0.733516 0.896208
0.000000 0.733089 0.895903
0.000000 0.731868 0.894896
0.285985 0.731777 0.894591
0.466407 0.733089 0.894438
0.621515 0.738613 0.895293
0.758663 0.748043 0.898528
0.876524 0.749050 0.897002
0.082002 0.869078 0.897704
0.142763 0.868772 0.897368
0.267338 0.868376 0.897093
0.403723 0.868742 0.897612
0.530266 0.868620 0.897704
0.650355 0.868009 0.897154
0.766293 0.867430 0.896727
0.873106 0.867002 0.896300
