20 Preset/Japan Style/【3】LUT video cho PR-AE-FCPX/LUT VIDEO/Japan Style LUT (5).cube
# Created by Adobe Lightroom plugin Export LUT (1.24.0)
# www.johnrellis.com/lightroom/exportlut.htm
# Preset: 05日系基础色（素材江湖）
# Color profile: C:\Program Files (x86)\Common Files\Adobe\Color\Profiles\Recommended\VideoHD.icc
LUT_3D_SIZE 32
DOMAIN_MIN 0.0 0.0 0.0
DOMAIN_MAX 1.0 1.0 1.0
0.000000 0.000000 0.000000
0.015747 0.001587 0.000000
0.088228 0.006195 0.000000
0.132479 0.023377 0.000000
0.197269 0.052216 0.000000
0.262150 0.082307 0.000000
0.316808 0.098695 0.000000
0.371832 0.111208 0.000000
0.429023 0.123629 0.000000
0.484260 0.138857 0.000000
0.537591 0.153079 0.000000
0.588800 0.167788 0.000000
0.639368 0.182681 0.000000
0.690272 0.197543 0.000000
0.740352 0.212711 0.000000
0.787686 0.228000 0.000000
0.835721 0.245090 0.000000
0.876127 0.261692 0.000000
0.909789 0.276829 0.000000
0.938689 0.291661 0.046021
0.964111 0.305241 0.093538
0.986419 0.318120 0.117525
1.000000 0.330480 0.139712
1.000000 0.342412 0.160555
1.000000 0.354437 0.181399
1.000000 0.366705 0.202182
1.000000 0.378943 0.222751
1.000000 0.391547 0.244144
1.000000 0.404425 0.265171
1.000000 0.417823 0.286839
1.000000 0.431800 0.309239
1.000000 0.446326 0.332097
0.002380 0.014282 0.000000
0.013581 0.014160 0.000000
0.087739 0.023133 0.000000
0.132845 0.038849 0.000000
0.197360 0.068940 0.000000
0.261021 0.092714 0.000000
0.315343 0.104524 0.000000
0.369757 0.115480 0.000000
0.426673 0.128298 0.000000
0.481880 0.142611 0.000000
0.534722 0.156710 0.000000
0.585870 0.170871 0.000000
0.636500 0.184817 0.000000
0.687221 0.199619 0.000000
0.737209 0.214450 0.000000
0.784970 0.229740 0.000000
0.832425 0.246403 0.000000
0.872923 0.262303 0.000000
0.906584 0.277684 0.000000
0.935668 0.291539 0.042512
0.961151 0.305089 0.092714
0.983612 0.317601 0.115908
1.000000 0.329808 0.137819
1.000000 0.341680 0.158450
1.000000 0.353796 0.178958
1.000000 0.365637 0.199649
1.000000 0.377661 0.220066
1.000000 0.390295 0.241459
1.000000 0.403174 0.262852
1.000000 0.416449 0.284154
1.000000 0.430457 0.306767
1.000000 0.444862 0.329229
0.014710 0.077790 0.000000
0.025605 0.077638 0.000000
0.088014 0.082979 0.000000
0.134768 0.092195 0.000000
0.198276 0.106935 0.000000
0.259739 0.118898 0.000000
0.313176 0.127199 0.000000
0.367193 0.136141 0.000000
0.423285 0.147585 0.000000
0.478523 0.158724 0.000000
0.531487 0.171176 0.000000
0.582635 0.183627 0.000000
0.633082 0.196811 0.000000
0.683680 0.210208 0.000000
0.733913 0.224002 0.000000
0.782223 0.238499 0.000000
0.829068 0.253696 0.000000
0.869505 0.268681 0.000000
0.903441 0.282933 0.000641
0.932769 0.296483 0.050690
0.958618 0.309300 0.095003
0.981201 0.321691 0.117556
1.000000 0.333318 0.138979
1.000000 0.344701 0.159487
1.000000 0.356390 0.179751
1.000000 0.367803 0.200259
1.000000 0.379950 0.220554
1.000000 0.392126 0.241398
1.000000 0.404822 0.262608
1.000000 0.418006 0.284215
1.000000 0.431647 0.306615
1.000000 0.445899 0.329259
0.027619 0.126650 0.007263
0.032471 0.127077 0.005829
0.087709 0.128328 0.007294
0.142885 0.137118 0.000000
0.204746 0.148165 0.000000
0.258061 0.155062 0.000000
0.309972 0.161074 0.000000
0.362860 0.168399 0.000000
0.418952 0.176883 0.000000
0.473854 0.186374 0.000000
0.526848 0.196658 0.000000
0.577691 0.206760 0.000000
0.628290 0.218112 0.000000
0.678737 0.229801 0.000000
0.729030 0.241672 0.000000
0.778164 0.254765 0.000000
0.823941 0.268009 0.000000
0.863951 0.281437 0.000000
0.897948 0.293889 0.021515
0.927428 0.306065 0.068574
0.953460 0.317632 0.100801
0.976410 0.329198 0.121767
0.996857 0.340002 0.142458
1.000000 0.350988 0.162478
1.000000 0.362097 0.182406
1.000000 0.373541 0.202365
1.000000 0.385260 0.223575
1.000000 0.397223 0.244541
1.000000 0.409491 0.265263
1.000000 0.422431 0.287144
1.000000 0.435645 0.308873
1.000000 0.449439 0.331212
0.000000 0.187320 0.034913
0.000000 0.187381 0.030182
0.082582 0.186740 0.041535
0.134554 0.190494 0.027588
0.203403 0.197543 0.000000
0.261357 0.199649 0.000000
0.305638 0.199924 0.000000
0.356054 0.204715 0.000000
0.411505 0.211917 0.000000
0.466163 0.220096 0.000000
0.518761 0.228031 0.000000
0.570001 0.236576 0.000000
0.620447 0.245762 0.000000
0.671351 0.255680 0.000000
0.721950 0.265995 0.000000
0.772030 0.277714 0.000000
0.817838 0.288731 0.000000
0.858213 0.300298 0.018250
0.892699 0.311345 0.053864
0.922759 0.321813 0.091157
0.949157 0.332189 0.111452
0.972473 0.342260 0.130770
0.993256 0.352087 0.149508
1.000000 0.362127 0.168826
1.000000 0.372564 0.188327
1.000000 0.383185 0.208530
1.000000 0.394202 0.229007
1.000000 0.405554 0.249485
1.000000 0.417182 0.270207
1.000000 0.429389 0.291264
1.000000 0.441993 0.312657
1.000000 0.455177 0.334508
0.000000 0.236515 0.093507
0.000000 0.236667 0.092103
0.079225 0.235782 0.095186
0.131624 0.234958 0.103426
0.183749 0.240513 0.080385
0.252049 0.245304 0.007355
0.310246 0.247196 0.000000
0.356451 0.246860 0.004791
0.403388 0.249424 0.015595
0.458106 0.256901 0.008331
0.510674 0.263767 0.002747
0.562127 0.271000 0.001495
0.612879 0.278599 0.003204
0.663813 0.287022 0.008453
0.716304 0.296422 0.013031
0.766445 0.305913 0.025299
0.812009 0.315373 0.041749
0.853056 0.324895 0.068849
0.888090 0.334020 0.092134
0.918517 0.342931 0.108644
0.945251 0.351812 0.126070
0.968902 0.360571 0.143435
1.000000 0.378149 0.176516
1.000000 0.387274 0.194766
1.000000 0.396399 0.213657
1.000000 0.405890 0.232700
1.000000 0.415808 0.252354
1.000000 0.426062 0.272007
1.000000 0.436835 0.291600
1.000000 0.448066 0.311894
1.000000 0.459815 0.332189
1.000000 0.472114 0.353094
0.000000 0.285008 0.129152
0.000000 0.285161 0.127749
0.075257 0.284459 0.129000
0.132937 0.283635 0.136263
0.177615 0.285557 0.133242
0.234562 0.290562 0.111086
0.303014 0.295171 0.061341
0.367315 0.300450 0.019104
0.413672 0.299382 0.039826
0.458808 0.299840 0.062867
0.507286 0.303441 0.075929
0.559136 0.309819 0.075013
0.610376 0.316381 0.077211
0.664210 0.324407 0.079591
0.718624 0.333257 0.083711
0.768338 0.341100 0.089937
0.813901 0.348882 0.096529
0.854307 0.356542 0.106600
0.888945 0.364202 0.118837
0.919493 0.371557 0.132753
0.946807 0.379248 0.148775
0.971221 0.386999 0.166293
0.993133 0.395300 0.184909
1.000000 0.403784 0.203372
1.000000 0.412268 0.222660
1.000000 0.421271 0.241794
1.000000 0.429969 0.260349
1.000000 0.439246 0.279149
1.000000 0.449134 0.298711
1.000000 0.459358 0.318212
1.000000 0.470130 0.338018
1.000000 0.481666 0.358434
0.000000 0.333440 0.154940
0.000000 0.333440 0.154513
0.015869 0.333104 0.155795
0.119753 0.332464 0.161227
0.171023 0.331456 0.168978
0.222385 0.335973 0.153902
0.283604 0.340215 0.132357
0.353124 0.343633 0.098390
0.418647 0.349340 0.067384
0.463111 0.346563 0.088716
0.506462 0.345434 0.099397
0.549126 0.345251 0.109224
0.601526 0.352056 0.111299
0.655421 0.359380 0.112184
0.708339 0.366613 0.113344
0.757412 0.373053 0.116091
0.802701 0.379461 0.121462
0.843748 0.385840 0.128542
0.879210 0.391791 0.138643
0.910307 0.397955 0.151003
0.938170 0.404303 0.165805
0.963195 0.410651 0.181888
0.985748 0.417456 0.198947
1.000000 0.424567 0.216861
1.000000 0.432136 0.235142
1.000000 0.439612 0.253208
1.000000 0.447456 0.271489
1.000000 0.455543 0.289494
1.000000 0.464240 0.307866
1.000000 0.473610 0.326940
1.000000 0.483406 0.346349
1.000000 0.494118 0.366491
0.000000 0.384039 0.180270
0.000000 0.384222 0.180148
0.000000 0.383734 0.182010
0.092348 0.383459 0.186496
0.158755 0.382635 0.193271
0.212314 0.383978 0.191073
0.270024 0.387152 0.174380
0.334813 0.390051 0.151400
0.403326 0.392035 0.120607
0.468391 0.396155 0.100649
0.513207 0.393408 0.111482
0.557000 0.392157 0.120760
0.600336 0.391821 0.130678
0.645808 0.393805 0.137514
0.698054 0.400336 0.138155
0.746792 0.406134 0.140932
0.792203 0.411505 0.144961
0.833677 0.416968 0.151583
0.869627 0.422004 0.160708
0.901305 0.426978 0.172213
0.929686 0.432044 0.185519
0.955077 0.437232 0.200259
0.978058 0.442664 0.216495
0.999237 0.448463 0.233127
1.000000 0.454627 0.249912
1.000000 0.460975 0.267308
1.000000 0.467597 0.284764
1.000000 0.474647 0.302129
1.000000 0.482277 0.320165
1.000000 0.490455 0.338384
1.000000 0.499428 0.357244
1.000000 0.509117 0.376867
0.000000 0.433845 0.209628
0.000000 0.433783 0.210239
0.000000 0.433417 0.212131
0.041047 0.433021 0.216037
0.148470 0.432502 0.222141
0.207553 0.431586 0.231022
0.260319 0.433936 0.215946
0.319707 0.436561 0.197299
0.384924 0.438758 0.173770
0.453773 0.439887 0.143099
0.519127 0.443183 0.121889
0.562371 0.439124 0.132113
0.604974 0.436408 0.141665
0.647517 0.435340 0.150332
0.689235 0.435004 0.159426
0.735042 0.438575 0.164462
0.780941 0.443977 0.169284
0.823239 0.449287 0.175662
0.859953 0.453651 0.184451
0.892180 0.457679 0.195163
0.920836 0.461524 0.207370
0.946380 0.465309 0.220493
0.969543 0.469245 0.235233
0.990845 0.473640 0.249882
1.000000 0.478340 0.265843
1.000000 0.483314 0.281529
1.000000 0.488777 0.298466
1.000000 0.494697 0.315099
1.000000 0.501335 0.332403
1.000000 0.508598 0.350317
1.000000 0.516747 0.369055
1.000000 0.525841 0.388800
0.000000 0.481270 0.244724
0.000000 0.481209 0.245243
0.000000 0.481178 0.247044
0.044587 0.481147 0.250828
0.151461 0.481178 0.256901
0.210636 0.481209 0.265354
0.260929 0.482277 0.263981
0.313146 0.484413 0.247532
0.371893 0.486122 0.226322
0.435767 0.486793 0.200534
0.502953 0.486152 0.167453
0.568292 0.488746 0.144442
0.611017 0.484230 0.154391
0.653254 0.480995 0.163333
0.693782 0.478737 0.172885
0.732357 0.477150 0.183139
0.769467 0.476478 0.193820
0.811978 0.481331 0.200015
0.849058 0.485237 0.208194
0.881682 0.488502 0.217868
0.910796 0.491279 0.228916
0.936828 0.494026 0.241581
0.960601 0.497108 0.254734
0.982483 0.500267 0.268925
1.000000 0.503807 0.283513
1.000000 0.507836 0.298741
1.000000 0.512169 0.314427
1.000000 0.517174 0.330694
1.000000 0.522759 0.347326
1.000000 0.529137 0.364965
1.000000 0.536400 0.383490
1.000000 0.544701 0.402838
0.000000 0.530999 0.284276
0.000000 0.531029 0.284825
0.000000 0.531060 0.286381
0.094636 0.531029 0.289860
0.163699 0.531060 0.294926
0.219181 0.530907 0.302373
0.270054 0.531029 0.311894
0.314611 0.532586 0.298466
0.366155 0.534051 0.280125
0.424109 0.534813 0.258091
0.486885 0.534356 0.230533
0.552361 0.532799 0.196933
0.634791 0.548760 0.179080
0.676844 0.543053 0.189242
0.715816 0.537713 0.199527
0.752682 0.533471 0.210025
0.787167 0.529992 0.220829
0.818631 0.526970 0.232395
0.850217 0.526635 0.242802
0.882017 0.528588 0.252079
0.910369 0.530114 0.262852
0.935851 0.531426 0.274327
0.959167 0.532769 0.286259
0.980529 0.534630 0.299290
1.000000 0.536828 0.312779
1.000000 0.539330 0.326818
1.000000 0.542138 0.340856
1.000000 0.545678 0.355871
1.000000 0.550042 0.371862
1.000000 0.555138 0.388312
1.000000 0.561334 0.405921
1.000000 0.568566 0.424659
0.000000 0.589746 0.329961
0.000000 0.589654 0.330022
0.005585 0.589227 0.331365
0.122652 0.588769 0.333776
0.179904 0.588098 0.337835
0.231479 0.587396 0.343755
0.280827 0.587030 0.351751
0.325353 0.587335 0.351720
0.370794 0.588220 0.336034
0.423163 0.588952 0.316777
0.481636 0.589502 0.294041
0.544793 0.589227 0.266728
0.610742 0.587396 0.233646
0.675807 0.588006 0.205814
0.715877 0.582300 0.216678
0.752438 0.576562 0.227115
0.785824 0.571221 0.237552
0.815976 0.566064 0.248447
0.843656 0.561547 0.260166
0.869017 0.557916 0.272068
0.897032 0.558129 0.282597
0.923308 0.558892 0.293187
0.947387 0.559777 0.304692
0.969635 0.560876 0.317174
0.990051 0.562249 0.329961
1.000000 0.564019 0.343297
1.000000 0.566247 0.357549
1.000000 0.569085 0.372198
1.000000 0.572686 0.387884
1.000000 0.577203 0.404334
1.000000 0.582727 0.422004
1.000000 0.589471 0.441047
0.000000 0.635462 0.365484
0.000000 0.635340 0.365698
0.089998 0.634882 0.366491
0.142123 0.634241 0.368383
0.191409 0.633478 0.371954
0.238529 0.632776 0.376715
0.286290 0.632288 0.383764
0.331884 0.632013 0.392248
0.372930 0.632471 0.381567
0.419501 0.633021 0.365118
0.472328 0.633387 0.345983
0.529870 0.633051 0.323583
0.591394 0.631739 0.296635
0.654047 0.629053 0.264836
0.715633 0.627893 0.235355
0.752346 0.620996 0.245426
0.784298 0.613214 0.255772
0.813382 0.606043 0.266270
0.840299 0.599603 0.277562
0.865110 0.593896 0.288823
0.888121 0.589075 0.300786
0.911192 0.586389 0.312871
0.936034 0.586877 0.323766
0.959014 0.587488 0.335637
0.980072 0.588312 0.348486
0.999420 0.589563 0.361456
1.000000 0.591089 0.375402
1.000000 0.593378 0.390143
1.000000 0.596338 0.405615
1.000000 0.600275 0.422309
1.000000 0.605280 0.440070
1.000000 0.611627 0.459602
0.104494 0.678187 0.400702
0.113039 0.678126 0.401129
0.134981 0.677699 0.401801
0.169345 0.677119 0.403449
0.210025 0.676295 0.406317
0.252811 0.675441 0.410559
0.296025 0.674861 0.416510
0.339971 0.674678 0.424384
0.381384 0.674739 0.427222
0.421698 0.675135 0.412360
0.468116 0.675319 0.395727
0.520165 0.675105 0.375952
0.575769 0.674159 0.353674
0.634333 0.672023 0.326879
0.693599 0.668391 0.295293
0.750332 0.664607 0.265354
0.782650 0.655726 0.275547
0.810849 0.646479 0.285618
0.837095 0.637934 0.296117
0.861418 0.630518 0.306828
0.884031 0.623987 0.317937
0.905577 0.618799 0.329931
0.926055 0.614740 0.342626
0.948180 0.613947 0.354833
0.969818 0.614374 0.367163
0.989776 0.615106 0.380407
1.000000 0.616297 0.394324
1.000000 0.618128 0.409186
1.000000 0.620783 0.425208
1.000000 0.624414 0.442237
1.000000 0.629297 0.461006
1.000000 0.635523 0.481331
0.165560 0.716518 0.435798
0.169711 0.716548 0.436194
0.183688 0.716396 0.437049
0.206668 0.716091 0.438697
0.239017 0.715694 0.441779
0.275303 0.715328 0.445899
0.314672 0.715145 0.451789
0.355749 0.715084 0.459541
0.397070 0.715267 0.468818
0.432654 0.715419 0.461769
0.471473 0.715145 0.446113
0.515740 0.714351 0.427955
0.564477 0.712886 0.407416
0.616663 0.710414 0.384009
0.670497 0.706844 0.356725
0.725429 0.702205 0.325719
0.778042 0.696223 0.295079
0.807187 0.686091 0.304906
0.832944 0.676051 0.315160
0.857023 0.666835 0.325109
0.879606 0.658900 0.335821
0.901091 0.652369 0.347356
0.921538 0.647120 0.359625
0.940948 0.643030 0.372869
0.959747 0.640436 0.386999
0.980224 0.640925 0.400397
0.999054 0.641840 0.414496
1.000000 0.643336 0.429664
1.000000 0.645624 0.445991
1.000000 0.648951 0.463661
1.000000 0.653437 0.482673
1.000000 0.659358 0.503471
0.229313 0.749081 0.472297
0.231968 0.748959 0.472419
0.239719 0.748928 0.473243
0.256870 0.748684 0.474891
0.280461 0.748409 0.477699
0.309728 0.748104 0.481849
0.342626 0.747860 0.487282
0.379034 0.747585 0.494423
0.416236 0.747524 0.503136
0.452064 0.747494 0.509789
0.481575 0.747311 0.495247
0.516899 0.746761 0.478645
0.557580 0.745541 0.459937
0.602319 0.743526 0.438605
0.650416 0.740658 0.414649
0.700649 0.736812 0.387457
0.752071 0.732052 0.356970
0.801419 0.725185 0.327428
0.828763 0.714107 0.335576
0.852567 0.703304 0.345281
0.875059 0.694087 0.355322
0.896544 0.686091 0.366339
0.916869 0.679591 0.378332
0.936187 0.674311 0.391485
0.954467 0.670253 0.405280
0.971801 0.667475 0.420142
0.989654 0.667170 0.435431
1.000000 0.668482 0.451148
1.000000 0.670649 0.468116
1.000000 0.673762 0.486336
1.000000 0.678218 0.506462
1.000000 0.683680 0.527276
0.295628 0.777615 0.511437
0.296757 0.777676 0.511711
0.320897 0.784421 0.523369
0.331273 0.784298 0.524926
0.347936 0.783963 0.527459
0.369329 0.783597 0.531182
0.394476 0.783139 0.536034
0.423438 0.782712 0.542382
0.454200 0.782406 0.550286
0.486275 0.782162 0.559380
0.511681 0.781888 0.555474
0.536767 0.781338 0.540459
0.566735 0.780270 0.522942
0.601862 0.778470 0.502617
0.641169 0.775906 0.479652
0.684291 0.772488 0.454383
0.730434 0.768154 0.426184
0.778714 0.763058 0.395361
0.824949 0.755276 0.366400
0.850675 0.742916 0.371679
0.872709 0.731716 0.381018
0.893706 0.722286 0.391241
0.913695 0.714229 0.402686
0.932616 0.707515 0.414710
0.950500 0.701991 0.427955
0.967346 0.697871 0.441993
0.983215 0.695094 0.457435
0.998016 0.693843 0.474434
1.000000 0.695674 0.491768
1.000000 0.698695 0.510643
1.000000 0.702785 0.530907
1.000000 0.707515 0.551232
0.361425 0.803861 0.553491
0.363958 0.804410 0.554711
0.369726 0.804929 0.556451
0.379461 0.805295 0.558801
0.392920 0.805417 0.561761
0.409857 0.805234 0.565423
0.430396 0.804898 0.569909
0.453620 0.804501 0.575280
0.479316 0.804074 0.582025
0.506523 0.803738 0.590082
0.534234 0.803525 0.598749
0.551904 0.803250 0.585809
0.574212 0.802548 0.570764
0.601068 0.801358 0.553429
0.632502 0.799619 0.533654
0.668330 0.797208 0.510796
0.708248 0.794064 0.485451
0.751461 0.790219 0.457771
0.797696 0.785611 0.427588
0.842100 0.778225 0.399786
0.866880 0.765499 0.403174
0.888029 0.754971 0.413062
0.907988 0.745907 0.424292
0.926879 0.738064 0.436042
0.944640 0.731655 0.448890
0.961425 0.726528 0.462928
0.977203 0.722896 0.478096
0.991760 0.720821 0.495338
1.000000 0.720455 0.514031
1.000000 0.722499 0.534142
1.000000 0.725887 0.553765
1.000000 0.730220 0.574060
0.413123 0.824247 0.589441
0.415229 0.824735 0.590448
0.420020 0.825223 0.592218
0.427466 0.825559 0.594415
0.438300 0.825742 0.597253
0.451789 0.825620 0.600549
0.467750 0.825315 0.604364
0.486793 0.824918 0.609277
0.508019 0.824491 0.615167
0.530755 0.824125 0.622217
0.554864 0.823758 0.630457
0.573968 0.823575 0.630274
0.589349 0.823239 0.617121
0.608942 0.822568 0.602167
0.632959 0.821378 0.585290
0.661250 0.819760 0.566186
0.694057 0.817533 0.544335
0.730800 0.814694 0.519921
0.771420 0.811185 0.492805
0.815335 0.807065 0.462959
0.858091 0.800046 0.435554
0.881926 0.787045 0.437110
0.901915 0.777035 0.448005
0.920836 0.768338 0.459602
0.938537 0.761044 0.472145
0.955200 0.755123 0.486091
0.970733 0.750637 0.501274
0.985229 0.747738 0.517937
0.998444 0.746609 0.536706
1.000000 0.746670 0.555840
1.000000 0.748440 0.576623
1.000000 0.752346 0.596979
0.462165 0.842771 0.625269
0.463996 0.843198 0.626276
0.467628 0.843565 0.627741
0.473671 0.843809 0.629755
0.481971 0.843900 0.632136
0.492592 0.843809 0.635157
0.505547 0.843534 0.638575
0.520745 0.843168 0.642878
0.537896 0.842832 0.648096
0.556939 0.842466 0.654231
0.576989 0.842130 0.661158
0.597742 0.841825 0.669001
0.610010 0.841733 0.661158
0.623713 0.841367 0.648768
0.641108 0.840726 0.634241
0.662348 0.839811 0.617884
0.688075 0.838437 0.599634
0.718166 0.836667 0.579217
0.752316 0.834470 0.557000
0.790616 0.831693 0.531914
0.832670 0.828305 0.504265
0.874052 0.822110 0.478157
0.896971 0.809232 0.477974
0.915831 0.800015 0.490211
0.933562 0.792172 0.503044
0.950072 0.785702 0.517113
0.965393 0.780667 0.532311
0.979522 0.777157 0.549004
0.992218 0.774960 0.566461
1.000000 0.774258 0.585168
1.000000 0.775235 0.605310
1.000000 0.777829 0.626642
0.514061 0.861723 0.665278
0.514855 0.861906 0.665705
0.516960 0.861936 0.666377
0.520684 0.861936 0.667445
0.526574 0.861784 0.669123
0.534203 0.861540 0.671138
0.544091 0.861265 0.673915
0.555932 0.860929 0.677394
0.569543 0.860624 0.681575
0.584863 0.860319 0.686702
0.601465 0.860044 0.692531
0.618921 0.859800 0.699092
0.634485 0.859586 0.702235
0.644221 0.859434 0.692439
0.656703 0.859098 0.680995
0.672358 0.858549 0.667964
0.691554 0.857664 0.653071
0.714504 0.856504 0.636133
0.741543 0.854948 0.616846
0.772915 0.852934 0.595422
0.808408 0.850401 0.571588
0.847929 0.847227 0.545617
0.887480 0.841489 0.520287
0.909209 0.828458 0.517784
0.926696 0.819760 0.529931
0.943114 0.812619 0.543481
0.958312 0.806821 0.557977
0.972137 0.802335 0.573419
0.984771 0.799283 0.589960
0.995880 0.797818 0.608118
1.000000 0.797940 0.627619
1.000000 0.799619 0.648310
0.552422 0.876616 0.696803
0.552911 0.876738 0.697047
0.554314 0.876799 0.697505
0.557397 0.876799 0.698512
0.561913 0.876707 0.699763
0.568139 0.876524 0.701595
0.576043 0.876249 0.703853
0.585626 0.875975 0.706783
0.596887 0.875731 0.710384
0.609583 0.875456 0.714626
0.623499 0.875212 0.719539
0.638392 0.874937 0.725032
0.653956 0.874693 0.731075
0.664485 0.874632 0.728481
0.673640 0.874571 0.719661
0.685176 0.874327 0.709346
0.699702 0.873930 0.697871
0.717311 0.873259 0.684688
0.738430 0.872374 0.669673
0.763241 0.871122 0.652857
0.792111 0.869505 0.633631
0.825040 0.867399 0.611688
0.862211 0.864744 0.587518
0.899901 0.859831 0.564324
0.919799 0.845975 0.556939
0.935729 0.837675 0.568566
0.950683 0.831083 0.582055
0.964416 0.825895 0.596796
0.976867 0.822171 0.612970
0.987854 0.820005 0.630579
0.997314 0.819394 0.649470
1.000000 0.820066 0.668635
0.590600 0.891142 0.728573
0.591302 0.891295 0.728908
0.592157 0.891356 0.729213
0.593866 0.891325 0.729519
0.597101 0.891142 0.730343
0.601709 0.890837 0.731472
0.607630 0.890471 0.733028
0.614984 0.890074 0.735073
0.623926 0.889647 0.737728
0.634180 0.889281 0.741024
0.645533 0.888853 0.744778
0.657954 0.888487 0.749142
0.671168 0.888121 0.754025
0.684932 0.887755 0.759335
0.691279 0.887694 0.751949
0.699519 0.887541 0.743557
0.710231 0.887327 0.734127
0.723476 0.886961 0.723568
0.739834 0.886503 0.711910
0.759457 0.885832 0.698970
0.782528 0.884886 0.684321
0.809232 0.883635 0.667689
0.839567 0.881804 0.648524
0.873991 0.879332 0.626062
0.909514 0.874907 0.603479
0.928985 0.862242 0.596582
0.943267 0.854520 0.607843
0.956725 0.848600 0.621698
0.968933 0.844175 0.636896
0.979858 0.841154 0.653071
0.989288 0.839597 0.670405
0.997131 0.839506 0.688533
0.621210 0.902647 0.754086
0.621790 0.902770 0.754452
0.622614 0.902861 0.754696
0.623651 0.902892 0.754788
0.626154 0.902831 0.755398
0.630152 0.902647 0.756588
0.635431 0.902434 0.758206
0.642023 0.902190 0.760250
0.649653 0.901976 0.762692
0.658564 0.901732 0.765713
0.668421 0.901457 0.769131
0.679255 0.901152 0.772946
0.690700 0.900847 0.777127
0.702724 0.900511 0.781674
0.712398 0.900298 0.782559
0.718349 0.900359 0.776028
0.726070 0.900298 0.768582
0.735988 0.900237 0.760403
0.748257 0.900023 0.751186
0.763088 0.899657 0.740841
0.780972 0.899077 0.729305
0.801877 0.898253 0.716335
0.826108 0.897124 0.701717
0.853971 0.895537 0.684932
0.885527 0.893492 0.665797
0.918700 0.889921 0.646326
0.936889 0.878050 0.638758
0.949584 0.870970 0.649714
0.961547 0.865995 0.663691
0.972198 0.862364 0.678584
0.981384 0.860105 0.694514
0.989014 0.859220 0.711269
0.652888 0.913725 0.779812
0.653254 0.913787 0.780026
0.653742 0.913817 0.780117
0.654658 0.913817 0.780209
0.655940 0.913787 0.780209
0.659052 0.913664 0.781125
0.663416 0.913451 0.782437
0.668757 0.913237 0.784054
0.675196 0.912993 0.786099
0.682673 0.912749 0.788602
0.691066 0.912474 0.791470
0.700313 0.912200 0.794736
0.710231 0.911925 0.798306
0.720516 0.911528 0.802029
0.731289 0.911131 0.806027
0.737514 0.911070 0.803433
0.743008 0.911131 0.797513
0.750118 0.911162 0.790829
0.759152 0.911131 0.783474
0.770474 0.911009 0.775448
0.784085 0.910796 0.766506
0.800320 0.910399 0.756497
0.819394 0.909758 0.745205
0.841459 0.908782 0.732418
0.866789 0.907469 0.717891
0.895598 0.905730 0.701350
0.926268 0.902892 0.684443
0.943175 0.891722 0.676448
0.954253 0.885222 0.686610
0.964691 0.881041 0.700526
0.973663 0.878233 0.715389
0.981048 0.876738 0.731197
0.681971 0.923156 0.802701
0.682185 0.923217 0.802792
0.682673 0.923217 0.802884
0.683497 0.923247 0.803037
0.684779 0.923247 0.803220
0.686671 0.923278 0.803555
0.690761 0.923217 0.804990
0.695796 0.923156 0.806790
0.701808 0.923095 0.808988
0.708644 0.923033 0.811490
0.716335 0.922942 0.814359
0.724666 0.922850 0.817441
0.733516 0.922667 0.820768
0.742672 0.922454 0.824216
0.752163 0.922148 0.827756
0.761563 0.921813 0.831113
0.765530 0.922026 0.826688
0.770596 0.922210 0.821653
0.777188 0.922362 0.816159
0.785458 0.922484 0.810117
0.795560 0.922515 0.803464
0.807706 0.922423 0.796048
0.821988 0.922148 0.787655
0.838773 0.921691 0.778256
0.858244 0.920928 0.767544
0.880674 0.919890 0.755337
0.906340 0.918517 0.741604
0.933776 0.916320 0.727718
0.948821 0.906157 0.720027
0.957946 0.900298 0.729061
0.966369 0.897002 0.742641
0.973175 0.894957 0.757076
0.714565 0.932403 0.826902
0.714565 0.932403 0.826932
0.714870 0.932372 0.826932
0.715358 0.932372 0.826902
0.716243 0.932341 0.826963
0.717525 0.932280 0.827024
0.719783 0.932219 0.827543
0.723598 0.932036 0.828733
0.728115 0.931853 0.830198
0.733455 0.931609 0.831968
0.739467 0.931395 0.833982
0.746151 0.931151 0.836271
0.753384 0.930846 0.838773
0.761013 0.930541 0.841459
