20 Preset/Japan Style/【3】LUT video cho PR-AE-FCPX/LUT VIDEO/Japan Style LUT (26).cube
# Created by Adobe Lightroom plugin Export LUT (1.24.0)
# www.johnrellis.com/lightroom/exportlut.htm
# Preset: 26日系绿偏橘（素材江湖）
# Color profile: C:\Program Files (x86)\Common Files\Adobe\Color\Profiles\Recommended\VideoHD.icc
LUT_3D_SIZE 8
DOMAIN_MIN 0.000000 0.000000 0.000000
DOMAIN_MAX 0.903226 0.903226 0.903226
0.035401 0.047730 0.025544
0.104494 0.056947 0.027863
0.247532 0.029267 0.029450
0.460395 0.000000 0.005005
0.682673 0.000000 0.000000
0.837919 0.000000 0.000000
0.936553 0.036316 0.000000
0.996857 0.251255 0.000000
0.088167 0.103914 0.053651
0.111391 0.105562 0.051514
0.254490 0.109773 0.023804
0.457404 0.000000 0.000000
0.673335 0.000000 0.000000
0.829252 0.000000 0.000000
0.924041 0.125124 0.000000
0.988434 0.263401 0.000000
0.171939 0.223575 0.114717
0.207004 0.225223 0.111818
0.269535 0.219181 0.105776
0.488838 0.237339 0.000000
0.690272 0.240208 0.000000
0.835477 0.274022 0.000000
0.925566 0.332189 0.000000
0.986572 0.384344 0.000000
0.315465 0.394568 0.198398
0.338872 0.393347 0.194766
0.427710 0.391150 0.183993
0.495857 0.391302 0.182101
0.702113 0.443915 0.088594
0.829709 0.488777 0.000000
0.907927 0.500206 0.000000
0.967895 0.511833 0.003662
0.483406 0.557549 0.318364
0.497047 0.556573 0.315679
0.552667 0.555810 0.308049
0.618372 0.553399 0.298558
0.655695 0.538567 0.284154
0.773342 0.563989 0.235111
0.873167 0.597131 0.218540
0.942351 0.622065 0.236362
0.604456 0.664179 0.453986
0.615351 0.667567 0.458869
0.642817 0.666194 0.452888
0.692531 0.664057 0.442481
0.722042 0.655512 0.428443
0.748470 0.643336 0.414252
0.826780 0.660365 0.397742
0.913146 0.687617 0.399634
0.688167 0.744594 0.588983
0.692348 0.745144 0.589471
0.706142 0.743832 0.584894
0.733913 0.742336 0.577722
0.770657 0.738033 0.565637
0.786831 0.731899 0.555749
0.808225 0.723415 0.545830
0.863493 0.734096 0.543084
0.753597 0.815671 0.707759
0.755520 0.815579 0.707301
0.764187 0.815671 0.706172
0.781918 0.816312 0.704860
0.803525 0.809689 0.688258
0.829129 0.809110 0.686671
0.844999 0.807218 0.685786
0.863096 0.801999 0.681666
0.038514 0.058900 0.082399
0.105837 0.065705 0.084077
0.223331 0.080354 0.087984
0.425208 0.000000 0.086854
0.650416 0.000000 0.043793
0.814542 0.000000 0.000000
0.912871 0.093263 0.000000
0.979858 0.248112 0.000000
0.046235 0.115236 0.092866
0.110933 0.118166 0.097078
0.246250 0.121859 0.095491
0.441993 0.077333 0.085664
0.656580 0.000000 0.036347
0.814267 0.000000 0.000000
0.907561 0.152316 0.000000
0.974426 0.264012 0.000000
0.152773 0.227115 0.134981
0.195499 0.232212 0.146212
0.268589 0.229709 0.139162
0.477913 0.248814 0.096284
0.673610 0.245701 0.024964
0.816770 0.270909 0.000000
0.905760 0.316960 0.000000
0.972442 0.371130 0.000000
0.295048 0.388037 0.213230
0.322515 0.389044 0.216098
0.416388 0.391791 0.207187
0.474861 0.381781 0.199466
0.673548 0.423499 0.131685
0.806760 0.467414 0.000000
0.889464 0.478462 0.020935
0.954925 0.496559 0.089143
0.472847 0.555077 0.333013
0.485298 0.553338 0.329564
0.538567 0.550561 0.319799
0.605402 0.544762 0.306188
0.640314 0.527672 0.289281
0.762417 0.554681 0.242008
0.863981 0.589624 0.229465
0.934783 0.614252 0.243839
0.594202 0.658869 0.456031
0.601343 0.658778 0.455177
0.629633 0.657954 0.450019
0.681422 0.656977 0.441321
0.714717 0.649989 0.429450
0.742947 0.639918 0.418341
0.822385 0.657160 0.400671
0.908476 0.684077 0.401648
0.680537 0.739315 0.584741
0.683131 0.738216 0.582269
0.697108 0.736812 0.577356
0.725917 0.735958 0.571283
0.765866 0.733577 0.562493
0.782223 0.727504 0.552361
0.802853 0.717708 0.539910
0.858824 0.727871 0.533989
0.748257 0.811673 0.702785
0.750851 0.812345 0.703700
0.759426 0.812253 0.702205
0.777401 0.812985 0.701015
0.804623 0.813199 0.697414
0.829282 0.810544 0.691585
0.843748 0.806821 0.686946
0.861875 0.801389 0.682277
0.000000 0.084260 0.182101
0.077668 0.085908 0.186007
0.245518 0.076905 0.195712
0.431708 0.101472 0.196384
0.623102 0.113497 0.209812
0.799191 0.159030 0.213931
0.899931 0.256901 0.212741
0.969024 0.335729 0.208377
0.000000 0.128573 0.197482
0.095033 0.127962 0.201022
0.257725 0.134554 0.207279
0.426032 0.165469 0.208591
0.626673 0.159243 0.213748
0.796292 0.199069 0.215244
0.895201 0.272374 0.208865
0.964874 0.344793 0.203922
0.000000 0.266758 0.225986
0.118807 0.269444 0.228794
0.275059 0.275029 0.238468
0.471839 0.281926 0.235080
0.669917 0.291173 0.229984
0.809049 0.323095 0.223209
0.896117 0.366735 0.216922
0.962188 0.412696 0.214176
0.224949 0.408789 0.252750
0.263584 0.414282 0.264408
0.396979 0.428565 0.306889
0.491157 0.424201 0.295415
0.681209 0.464759 0.266239
0.802426 0.488533 0.256168
0.883726 0.502190 0.261204
0.948791 0.519524 0.266606
0.431739 0.566613 0.367437
0.452888 0.567407 0.375586
0.525841 0.570489 0.399847
0.611994 0.568719 0.387182
0.646937 0.554437 0.370825
0.765896 0.578729 0.336645
0.859037 0.608057 0.336553
0.927794 0.623651 0.350134
0.575769 0.664607 0.485115
0.586145 0.665431 0.491402
0.619501 0.665614 0.501732
0.668116 0.663722 0.491432
0.709957 0.657649 0.477821
0.737575 0.648310 0.466835
0.819242 0.666896 0.452461
0.902434 0.694423 0.464576
0.673823 0.744533 0.607813
0.677913 0.743954 0.609735
0.692042 0.742245 0.608362
0.718746 0.740475 0.600977
0.759548 0.738674 0.590692
0.779141 0.733028 0.581933
0.800626 0.725368 0.572747
0.859007 0.737667 0.569604
0.743893 0.813687 0.715053
0.745968 0.813352 0.715328
0.754147 0.813169 0.713680
0.772549 0.814755 0.713832
0.799161 0.814847 0.709957
0.827787 0.813535 0.705531
0.842557 0.810330 0.701472
0.860563 0.805081 0.696590
0.000000 0.100832 0.324224
0.000000 0.103243 0.330846
0.200595 0.106752 0.346380
0.453559 0.028321 0.359716
0.653803 0.092866 0.347509
0.764248 0.276005 0.374701
0.856992 0.346624 0.383520
0.933074 0.410956 0.389899
0.000000 0.140627 0.343847
0.000000 0.143740 0.347082
0.220615 0.150729 0.359564
0.465614 0.137728 0.371130
0.655055 0.177951 0.358587
0.759792 0.311986 0.384955
0.856199 0.364019 0.387213
0.931914 0.422797 0.392157
0.000000 0.265476 0.366705
0.000000 0.265934 0.369970
0.246586 0.273320 0.383093
0.479652 0.287938 0.393133
0.645869 0.343481 0.394293
0.761105 0.402899 0.412848
0.861295 0.446632 0.419532
0.932677 0.481666 0.416907
0.000000 0.466773 0.410468
0.087190 0.467628 0.411994
0.303197 0.472694 0.420722
0.493233 0.480232 0.437598
0.657557 0.491951 0.435737
0.772580 0.508568 0.434302
0.857786 0.528588 0.433936
0.927367 0.548119 0.431952
0.402930 0.585412 0.446418
0.415625 0.586389 0.448310
0.466835 0.593408 0.459632
0.587396 0.602808 0.510033
0.648554 0.593805 0.493294
0.761593 0.616602 0.480476
0.846159 0.634241 0.482002
0.912108 0.639979 0.487190
0.543786 0.679896 0.528008
0.558068 0.682918 0.537377
0.595178 0.683162 0.554894
0.655268 0.685115 0.582086
0.709285 0.681086 0.567987
0.732784 0.670375 0.552941
0.816281 0.688594 0.540246
0.892210 0.713375 0.557610
0.650660 0.750851 0.625208
0.656123 0.751278 0.628595
0.676692 0.752071 0.641077
0.709926 0.752956 0.655177
0.747494 0.750973 0.645258
0.775845 0.745693 0.633906
0.795865 0.737087 0.622217
0.857755 0.750698 0.618677
0.730343 0.819211 0.724025
0.733181 0.819211 0.725673
0.745266 0.819425 0.732998
0.765164 0.819974 0.739315
0.790219 0.819608 0.734554
0.824949 0.818631 0.728695
0.839658 0.815885 0.724666
0.858335 0.811643 0.720943
0.000000 0.127108 0.490486
0.000000 0.130129 0.495521
0.056611 0.136507 0.506981
0.412116 0.122744 0.528405
0.656397 0.097108 0.538567
0.797208 0.213504 0.518059
0.847532 0.385534 0.517601
0.882200 0.513909 0.560510
0.000000 0.162966 0.502525
0.000000 0.165896 0.507103
0.129458 0.172854 0.516930
0.423316 0.169589 0.533898
0.659327 0.172335 0.544060
0.794247 0.258915 0.522148
0.842893 0.408850 0.523247
0.878264 0.526421 0.566369
0.000000 0.282383 0.520439
0.000000 0.283970 0.523491
0.193088 0.282414 0.532433
0.446082 0.299260 0.548760
0.657618 0.322210 0.554681
0.771450 0.382269 0.530938
0.822416 0.481941 0.542290
0.870573 0.553887 0.574090
0.000000 0.454688 0.540887
0.000000 0.454963 0.542321
0.246281 0.455482 0.549554
0.459602 0.467048 0.567437
0.649439 0.493355 0.577813
0.738674 0.533959 0.566033
0.794278 0.582788 0.587457
0.880186 0.590204 0.580652
0.237675 0.618616 0.573877
0.273503 0.619196 0.575525
0.380987 0.620111 0.580255
0.513695 0.622339 0.589502
0.634150 0.625757 0.601678
0.731075 0.631434 0.599664
0.813870 0.639948 0.598047
0.886290 0.648707 0.595026
0.520226 0.676936 0.582818
0.529686 0.677638 0.585473
0.561791 0.678828 0.593469
0.600916 0.684291 0.603479
0.675563 0.690578 0.636866
0.719509 0.687556 0.628504
0.806485 0.709957 0.629541
0.879210 0.727565 0.637140
0.609766 0.755001 0.640894
0.611933 0.754726 0.640406
0.631647 0.754177 0.648157
0.672694 0.756344 0.669856
0.724361 0.758877 0.694881
0.766567 0.755062 0.682307
0.785763 0.746212 0.669551
0.854429 0.760739 0.663325
0.692836 0.818235 0.716854
0.696223 0.818173 0.718563
0.710292 0.818326 0.726345
0.739284 0.821256 0.745113
0.773281 0.822660 0.760159
0.808011 0.822263 0.753628
0.832547 0.819394 0.747433
0.851164 0.814267 0.741451
0.000000 0.164187 0.640711
0.000000 0.166751 0.643091
0.000000 0.171969 0.647578
0.378241 0.175051 0.661707
0.624262 0.189151 0.678279
0.780056 0.256260 0.676143
0.862608 0.367437 0.647456
0.899504 0.498329 0.643305
0.000000 0.191623 0.637903
0.000000 0.193240 0.639094
0.000000 0.199283 0.644373
0.380804 0.205173 0.656397
0.618585 0.223148 0.672358
0.773800 0.282200 0.671504
0.856748 0.382757 0.644343
0.894652 0.505638 0.642023
0.000000 0.303197 0.653010
0.000000 0.296971 0.654292
0.136385 0.302678 0.658991
0.411536 0.315465 0.664485
0.621332 0.346258 0.677333
0.765316 0.393591 0.677333
0.843534 0.464607 0.653071
0.881254 0.555871 0.655940
0.000000 0.450507 0.658961
0.000000 0.452155 0.659480
0.256565 0.462196 0.665309
0.445655 0.473365 0.678645
0.622553 0.505211 0.690700
0.750515 0.537255 0.692683
0.822385 0.575738 0.675257
0.862150 0.628656 0.683894
0.166140 0.604303 0.665034
0.212955 0.604120 0.665553
0.332525 0.603693 0.668147
0.470008 0.603113 0.674220
0.608209 0.614466 0.687984
0.726467 0.634791 0.696651
0.791012 0.656519 0.689845
0.837858 0.686427 0.705165
0.419196 0.708736 0.685542
0.434913 0.709834 0.687495
0.480385 0.709621 0.689357
0.550774 0.709957 0.693629
0.630701 0.711482 0.700496
0.714199 0.718563 0.714534
0.790433 0.725765 0.716548
0.860563 0.731655 0.715816
0.604547 0.760678 0.702022
0.610101 0.761624 0.704005
0.628534 0.762936 0.708217
0.661646 0.765866 0.717556
0.693629 0.770748 0.725765
0.748165 0.774502 0.747738
0.779599 0.766781 0.734005
0.853910 0.784909 0.736141
0.676143 0.822660 0.745418
0.677119 0.822477 0.744961
0.683558 0.822995 0.745418
0.699153 0.825284 0.749142
0.737850 0.826810 0.766964
0.787106 0.829129 0.789364
0.825681 0.827604 0.781582
0.844114 0.822110 0.774289
0.000000 0.205081 0.745205
0.000000 0.207279 0.746853
0.000000 0.212619 0.749294
0.356481 0.221530 0.755123
0.577508 0.244022 0.762417
0.740139 0.310307 0.771054
0.844633 0.385229 0.764584
0.899321 0.476112 0.734493
0.000000 0.226139 0.741817
0.000000 0.228519 0.743679
0.000000 0.233982 0.746242
0.358373 0.243046 0.751064
0.573938 0.265599 0.758114
0.734798 0.325811 0.766415
0.838865 0.392859 0.759274
0.894469 0.477272 0.729397
0.000000 0.310307 0.747158
0.000000 0.312230 0.747646
0.060273 0.318822 0.749142
0.386297 0.332769 0.753079
0.578424 0.359503 0.758755
0.728084 0.413306 0.767056
0.830045 0.467659 0.762966
0.886229 0.534478 0.738338
0.000000 0.455604 0.748806
0.000000 0.456031 0.748745
0.250706 0.461799 0.750668
0.413519 0.462165 0.755978
0.580713 0.488136 0.761379
0.716732 0.530999 0.770260
0.814725 0.566369 0.769223
0.872648 0.605249 0.749447
0.000000 0.578576 0.744717
0.082368 0.576806 0.744015
0.261601 0.571984 0.744228
0.430579 0.580743 0.749996
0.573663 0.594842 0.758785
0.698970 0.621790 0.768521
0.796017 0.644587 0.771572
0.858976 0.670893 0.761135
0.347662 0.698085 0.753567
0.362036 0.698024 0.753933
0.412818 0.697169 0.755001
0.490486 0.695308 0.757382
0.580682 0.691615 0.761105
0.687312 0.702632 0.774563
0.784176 0.723507 0.784726
0.840085 0.739956 0.779904
0.509331 0.781582 0.773526
0.516228 0.781949 0.774258
0.540185 0.781827 0.775235
0.583459 0.782132 0.777646
0.639857 0.782620 0.781155
0.704829 0.784909 0.787381
0.774411 0.791440 0.798611
0.842283 0.796841 0.799588
0.652613 0.825345 0.784237
0.655787 0.825650 0.784970
0.669673 0.827420 0.788418
0.693324 0.829526 0.793515
0.726772 0.832670 0.801755
0.758389 0.837522 0.809445
0.808865 0.841337 0.827329
0.838163 0.836149 0.817899
0.000000 0.261906 0.831998
0.000000 0.263920 0.832578
0.000000 0.268681 0.832609
0.377050 0.281834 0.834623
0.561761 0.309575 0.837156
0.703761 0.365270 0.839994
0.811917 0.443977 0.842252
0.892943 0.506493 0.836271
0.000000 0.277928 0.829770
0.000000 0.279942 0.830442
0.062470 0.285496 0.830991
0.378668 0.298131 0.832761
0.560143 0.325231 0.835294
0.701106 0.378454 0.838224
0.808865 0.452369 0.840299
0.889982 0.510704 0.834165
0.000000 0.343877 0.828733
0.000000 0.345556 0.829007
0.159854 0.351110 0.829313
0.394934 0.367712 0.832181
0.561486 0.393500 0.833890
0.695216 0.438666 0.836179
0.801450 0.501640 0.839109
0.882506 0.547143 0.833707
0.000000 0.465705 0.825223
0.010224 0.467567 0.825772
0.206760 0.453651 0.827634
0.403021 0.466835 0.829526
0.558160 0.490822 0.831754
0.686000 0.527398 0.834775
0.790799 0.575891 0.839597
0.871611 0.605310 0.835416
0.000000 0.561944 0.821134
0.000000 0.562554 0.821714
0.216831 0.562280 0.822354
0.412482 0.573846 0.824491
0.544823 0.581323 0.828092
0.670497 0.606836 0.831998
0.775784 0.641901 0.838621
0.859373 0.665400 0.837949
0.218692 0.676997 0.820951
0.235935 0.675624 0.820554
0.299840 0.670649 0.819944
0.395819 0.662013 0.820157
0.522850 0.662043 0.823728
0.654017 0.681239 0.832425
0.763210 0.711696 0.842405
0.849638 0.733883 0.846281
0.441047 0.775998 0.830442
0.446784 0.775662 0.830411
0.471290 0.774166 0.830320
0.517479 0.772030 0.831022
0.579400 0.768704 0.832456
0.653132 0.764096 0.835355
0.749996 0.775784 0.846067
0.839536 0.796262 0.854215
0.577417 0.848600 0.846586
0.580468 0.848447 0.846525
0.594385 0.848264 0.846952
0.622126 0.848539 0.848356
0.661860 0.848753 0.850370
0.711971 0.849363 0.853391
0.771664 0.851469 0.858579
0.837034 0.857877 0.868437
