20 Preset/Japan Style/【3】LUT video cho PR-AE-FCPX/LUT VIDEO/Japan Style LUT (11).cube
# Created by Adobe Lightroom plugin Export LUT (1.24.0)
# www.johnrellis.com/lightroom/exportlut.htm
# Preset: 11日系胶片（素材江湖）
# Color profile: C:\Program Files (x86)\Common Files\Adobe\Color\Profiles\Recommended\VideoHD.icc
LUT_3D_SIZE 8
DOMAIN_MIN 0.000000 0.000000 0.000000
DOMAIN_MAX 0.903226 0.903226 0.903226
0.000000 0.000000 0.000000
0.000000 0.009186 0.000000
0.350256 0.000000 0.021942
0.688075 0.000000 0.084535
0.909117 0.287968 0.201663
1.000000 0.462104 0.356878
1.000000 0.575769 0.489326
1.000000 0.662470 0.602777
0.000000 0.072114 0.012573
0.000000 0.088838 0.000000
0.384649 0.099275 0.000000
0.695003 0.114717 0.000000
0.907866 0.303502 0.155215
1.000000 0.458167 0.322881
1.000000 0.566735 0.463020
1.000000 0.655482 0.586419
0.000000 0.344213 0.138277
0.000000 0.349248 0.095949
0.329686 0.372808 0.000000
0.756527 0.394995 0.000000
0.939910 0.429572 0.000000
1.000000 0.513115 0.244633
1.000000 0.596185 0.434791
1.000000 0.669459 0.573877
0.000000 0.611902 0.358526
0.000000 0.614618 0.359442
0.000000 0.614282 0.301305
0.643488 0.650599 0.210025
0.917845 0.652949 0.196170
1.000000 0.633631 0.225895
1.000000 0.640101 0.340734
1.000000 0.684596 0.523095
0.000000 0.775326 0.547601
0.000000 0.774594 0.548943
0.078248 0.774441 0.512413
0.507744 0.771420 0.491127
0.804898 0.779019 0.438605
0.952270 0.760525 0.441718
1.000000 0.732540 0.430274
1.000000 0.716243 0.444068
0.370764 0.845823 0.682979
0.419806 0.846250 0.688991
0.496162 0.844480 0.684627
0.576043 0.841245 0.662470
0.719844 0.838437 0.645777
0.881712 0.837980 0.617273
0.959655 0.820584 0.622950
1.000000 0.799557 0.607782
0.628595 0.875914 0.778714
0.642481 0.875334 0.780911
0.686885 0.872648 0.787015
0.699153 0.872618 0.771298
0.750301 0.868864 0.762875
0.827390 0.867826 0.754025
0.913237 0.866545 0.738003
0.958434 0.852934 0.736202
0.782345 0.889769 0.844022
0.787259 0.889403 0.845029
0.806424 0.888090 0.849302
0.817624 0.887907 0.847593
0.824765 0.886564 0.839567
0.850095 0.885527 0.836973
0.886168 0.885679 0.832364
0.928740 0.884764 0.820951
0.000000 0.000000 0.040833
0.000000 0.000000 0.024964
0.301671 0.001221 0.079164
0.651789 0.050965 0.051881
0.894377 0.281468 0.153384
0.999481 0.443580 0.315618
1.000000 0.556390 0.455573
1.000000 0.647547 0.579614
0.000000 0.059907 0.086427
0.000000 0.086061 0.090761
0.332006 0.120790 0.092866
0.665034 0.171298 0.044556
0.900511 0.307225 0.106416
1.000000 0.451026 0.294377
1.000000 0.555566 0.439368
1.000000 0.644068 0.567651
0.000000 0.329778 0.204776
0.000000 0.339635 0.203586
0.319554 0.361730 0.130098
0.721218 0.398199 0.000000
0.913634 0.443946 0.094209
1.000000 0.502098 0.206790
1.000000 0.580407 0.402533
1.000000 0.656550 0.551568
0.000000 0.595544 0.383337
0.000000 0.598169 0.384222
0.000000 0.601007 0.341222
0.613001 0.627802 0.270756
0.893309 0.636896 0.260319
0.998688 0.628168 0.287694
1.000000 0.633082 0.341161
1.000000 0.673732 0.500420
0.000000 0.769619 0.557488
0.000000 0.768551 0.557733
0.110628 0.768093 0.526177
0.496803 0.762203 0.503166
0.790829 0.770016 0.453925
0.944030 0.756008 0.461433
1.000000 0.732296 0.455573
1.000000 0.719478 0.472145
0.349371 0.842557 0.682490
0.390753 0.841825 0.685054
0.498116 0.839384 0.688991
0.568994 0.837369 0.663813
0.713649 0.835050 0.649348
0.877470 0.835966 0.625940
0.956237 0.820005 0.633478
0.998383 0.800107 0.619562
0.615106 0.874723 0.775967
0.626093 0.873899 0.776699
0.672450 0.871214 0.782467
0.691829 0.870939 0.769070
0.746731 0.867491 0.762448
0.824552 0.866484 0.754086
0.911192 0.865171 0.737575
0.957122 0.851865 0.736202
0.775051 0.889433 0.841855
0.781277 0.889128 0.843290
0.801053 0.887755 0.847532
0.816281 0.887236 0.847410
0.828855 0.886778 0.843046
0.851438 0.885496 0.839200
0.886046 0.885496 0.833677
0.928283 0.884611 0.822629
0.000000 0.000366 0.216861
0.000000 0.000000 0.209140
0.219974 0.000000 0.188876
0.599115 0.000000 0.244785
0.837125 0.387060 0.380255
0.973602 0.501549 0.431403
1.000000 0.572717 0.468635
1.000000 0.651942 0.577905
0.000000 0.090425 0.247837
0.000000 0.094667 0.254734
0.252659 0.103700 0.232792
0.589258 0.224582 0.294133
0.835630 0.411261 0.388800
0.969787 0.513573 0.435370
1.000000 0.576684 0.466560
1.000000 0.649500 0.567407
0.000000 0.292393 0.338903
0.000000 0.306523 0.343847
0.283391 0.353674 0.363439
0.616938 0.428016 0.392248
0.854337 0.507622 0.425086
0.969574 0.571252 0.459602
1.000000 0.615137 0.488319
1.000000 0.658106 0.547173
0.000000 0.589288 0.491829
0.000000 0.593133 0.493843
0.223484 0.605188 0.496254
0.597650 0.625513 0.456214
0.870634 0.653407 0.477028
0.963134 0.665888 0.506065
1.000000 0.680598 0.531731
1.000000 0.690242 0.544060
0.000000 0.764126 0.613153
0.000000 0.763821 0.613519
0.322454 0.763149 0.618494
0.523125 0.759884 0.592004
0.781704 0.770474 0.566705
0.926268 0.766232 0.584039
0.986908 0.754726 0.590631
1.000000 0.748989 0.599878
0.355993 0.839994 0.707942
0.396246 0.839445 0.709987
0.513512 0.836515 0.716701
0.595819 0.834592 0.701991
0.717586 0.831449 0.690913
0.868986 0.834531 0.678492
0.944671 0.824155 0.691524
0.984436 0.810269 0.685969
0.615778 0.874540 0.786831
0.626947 0.873777 0.787533
0.671809 0.871000 0.791867
0.716426 0.868833 0.790249
0.757168 0.866361 0.780636
0.827085 0.865568 0.775021
0.907866 0.865476 0.765469
0.950835 0.855070 0.768215
0.769772 0.889738 0.843870
0.774685 0.889342 0.844633
0.795529 0.887877 0.848631
0.826200 0.886198 0.855131
0.833494 0.886320 0.848875
0.854887 0.885100 0.845945
0.887480 0.885374 0.841855
0.927031 0.884764 0.833005
0.000000 0.026703 0.420844
0.000000 0.019196 0.420417
0.172213 0.000000 0.418006
0.490791 0.000000 0.401831
0.809140 0.250248 0.462562
0.925994 0.517174 0.563409
0.968688 0.652705 0.645197
1.000000 0.694820 0.664668
0.000000 0.095308 0.448554
0.000000 0.108064 0.451606
0.200809 0.111208 0.448249
0.505608 0.133639 0.431983
0.805905 0.319280 0.485023
0.916197 0.550927 0.585168
0.967102 0.659419 0.648890
1.000000 0.698970 0.667109
0.000000 0.268315 0.496925
0.000000 0.279179 0.499886
0.186984 0.327520 0.519615
0.523796 0.375525 0.510185
0.789792 0.491554 0.557153
0.894072 0.643336 0.647608
0.962097 0.695766 0.675105
0.995636 0.721340 0.684565
0.000000 0.530907 0.583398
0.000000 0.537011 0.585016
0.000000 0.562097 0.595300
0.551720 0.608179 0.620813
0.780850 0.662684 0.649500
0.898741 0.703944 0.673426
0.956512 0.732052 0.691066
0.988952 0.747005 0.698054
0.000000 0.758999 0.694484
0.000000 0.758877 0.694728
0.299290 0.757839 0.695155
0.583551 0.758877 0.701839
0.763088 0.767544 0.687922
0.900145 0.780606 0.711543
0.949645 0.783444 0.722469
0.978668 0.784451 0.724849
0.370733 0.838651 0.753353
0.415320 0.839017 0.756191
0.520806 0.836057 0.758511
0.652979 0.832395 0.764950
0.732265 0.828946 0.751431
0.859434 0.834104 0.747616
0.929381 0.831174 0.762844
0.965942 0.824125 0.761959
0.603052 0.874418 0.803677
0.617121 0.873808 0.804776
0.666835 0.871275 0.808713
0.739651 0.867399 0.816617
0.778836 0.865690 0.810941
0.832700 0.864530 0.806455
0.902953 0.865629 0.801968
0.942260 0.859251 0.807431
0.757778 0.890990 0.848569
0.763821 0.890562 0.849424
0.787137 0.888914 0.852995
0.822324 0.886564 0.859403
0.842161 0.885801 0.859129
0.860594 0.884794 0.856413
0.889281 0.885069 0.853788
0.925292 0.885069 0.848325
0.000000 0.073762 0.598138
0.000000 0.064576 0.598901
0.000000 0.028870 0.599207
0.465949 0.000000 0.598993
0.710842 0.128542 0.587793
0.917937 0.408423 0.622766
0.970428 0.598474 0.671229
0.962860 0.738491 0.755856
0.000000 0.128389 0.613245
0.000000 0.131899 0.614740
0.000000 0.137789 0.614252
0.477119 0.143221 0.611414
0.714321 0.224674 0.601160
0.912016 0.445747 0.633661
0.964416 0.616602 0.681147
0.958770 0.746700 0.762264
0.000000 0.268467 0.634852
0.000000 0.275517 0.638849
0.000000 0.317021 0.650477
0.491676 0.349035 0.648768
0.716426 0.414832 0.642145
0.885557 0.555840 0.668971
0.938659 0.681392 0.719478
0.948089 0.768368 0.778408
0.000000 0.481819 0.679866
0.000000 0.486885 0.680415
0.000000 0.507988 0.683833
0.476753 0.559533 0.702052
0.715114 0.613275 0.703182
0.855009 0.688685 0.729335
0.905241 0.764828 0.777218
0.948302 0.785214 0.786984
0.000000 0.693324 0.733333
0.000000 0.695918 0.734188
0.000000 0.705440 0.737240
0.507836 0.723659 0.745144
0.727260 0.750393 0.762051
0.850217 0.778683 0.779843
0.913512 0.797391 0.792294
0.948608 0.806699 0.796994
0.163363 0.827451 0.788693
0.260075 0.827207 0.789395
0.441993 0.825498 0.791196
0.606958 0.822904 0.793027
0.742336 0.822202 0.797665
0.843931 0.828702 0.796536
0.915587 0.836027 0.814664
0.945647 0.835782 0.817136
0.555200 0.874144 0.824796
0.568017 0.873411 0.824674
0.619013 0.870909 0.825071
0.706508 0.866850 0.829007
0.792844 0.862791 0.836820
0.832609 0.861112 0.830991
0.896880 0.864347 0.831113
0.934600 0.862058 0.837369
0.699611 0.893919 0.849760
0.708858 0.893309 0.850523
0.743801 0.890898 0.853758
0.797177 0.887633 0.860716
0.844511 0.884703 0.868315
0.864378 0.884154 0.866667
0.889250 0.884123 0.864714
0.922911 0.884703 0.861601
0.000000 0.131868 0.744961
0.000000 0.128634 0.745205
0.000000 0.129183 0.743038
0.418555 0.125582 0.740414
0.698634 0.176120 0.736294
0.862852 0.310765 0.718013
0.965026 0.546136 0.731868
0.977996 0.690333 0.761898
0.000000 0.170199 0.744808
0.000000 0.172519 0.744503
0.000000 0.179263 0.742977
0.421698 0.189761 0.740658
0.696101 0.237705 0.736904
0.856596 0.348333 0.719631
0.958618 0.562097 0.734646
0.974517 0.696437 0.764187
0.000000 0.284001 0.755978
0.000000 0.289189 0.757076
0.000000 0.328435 0.758694
0.435828 0.350072 0.755398
0.694850 0.396521 0.752224
0.845823 0.482063 0.739742
0.938598 0.635431 0.756680
0.960662 0.731197 0.782406
0.000000 0.463813 0.768124
0.000000 0.466957 0.767239
0.000000 0.483833 0.768399
0.432776 0.537316 0.778653
0.690364 0.579187 0.778256
0.829618 0.643946 0.774563
0.913573 0.725582 0.790646
0.941436 0.780392 0.811765
0.000000 0.644678 0.790585
0.000000 0.646601 0.790311
0.000000 0.654902 0.789639
0.390600 0.671656 0.789395
0.670985 0.711757 0.798093
0.816037 0.748623 0.802792
0.893339 0.789303 0.818631
0.921050 0.825071 0.842435
0.000000 0.786923 0.816007
0.000000 0.788449 0.816770
0.289647 0.791043 0.816983
0.520989 0.796170 0.818418
0.693538 0.804959 0.823026
0.827756 0.822080 0.836545
0.894041 0.837949 0.848844
0.927428 0.845182 0.853361
0.451179 0.872526 0.851377
0.476326 0.872099 0.851713
0.554803 0.869902 0.851926
0.667018 0.866361 0.853208
0.771481 0.862943 0.855772
0.844083 0.860746 0.858762
0.892302 0.863767 0.858213
0.928862 0.866850 0.865782
0.651484 0.896178 0.865751
0.659785 0.895628 0.865721
0.695277 0.893462 0.866270
0.752590 0.890013 0.868070
0.816281 0.886015 0.872038
0.868925 0.883330 0.878843
0.889433 0.883024 0.876738
0.920836 0.884642 0.876158
0.000000 0.225772 0.842252
0.000000 0.226963 0.843595
0.000000 0.218296 0.841703
0.408484 0.229465 0.839048
0.663630 0.261357 0.832883
0.853086 0.324376 0.827085
0.945983 0.445258 0.797787
0.979461 0.636225 0.793698
0.000000 0.229221 0.835966
0.000000 0.234287 0.837736
0.000000 0.241154 0.836027
0.396094 0.253819 0.832456
0.649195 0.280430 0.825589
0.838865 0.334966 0.818906
0.934936 0.444160 0.789944
0.976104 0.626764 0.786954
0.000000 0.320531 0.843107
0.000000 0.335973 0.842741
0.000000 0.356939 0.839963
0.404761 0.370153 0.835203
0.644953 0.395422 0.827909
0.829618 0.447211 0.822141
0.923247 0.542901 0.802914
0.962249 0.684749 0.805020
0.000000 0.460731 0.845304
0.000000 0.462440 0.844541
0.000000 0.474250 0.842924
0.399817 0.521721 0.841306
0.639612 0.546593 0.836088
0.817014 0.596582 0.831510
0.902800 0.664942 0.821988
0.942840 0.748318 0.825589
0.000000 0.605890 0.845884
0.000000 0.604608 0.844114
0.000000 0.606409 0.840574
0.169619 0.613733 0.836637
0.606836 0.666285 0.837949
0.787778 0.697536 0.835721
0.879820 0.743496 0.833158
0.925719 0.798703 0.844144
0.000000 0.743008 0.853178
0.000000 0.744045 0.853086
0.000000 0.747097 0.852079
0.347814 0.753201 0.850156
0.577264 0.761013 0.847135
0.777035 0.788907 0.851286
0.874113 0.817411 0.856016
0.916167 0.839628 0.864988
0.194980 0.842466 0.865690
0.261173 0.842954 0.866026
0.394995 0.843015 0.865629
0.547570 0.843473 0.865415
0.687098 0.844266 0.865202
0.803220 0.848051 0.867094
0.881529 0.858305 0.875456
0.918425 0.867674 0.882658
0.511986 0.899168 0.885435
0.530205 0.898558 0.885374
0.600031 0.895995 0.885496
0.692073 0.891417 0.885130
0.782132 0.886503 0.885435
0.849760 0.883665 0.887297
0.893004 0.882689 0.889982
0.918761 0.884459 0.889586
0.000000 0.353124 0.897551
0.000000 0.354894 0.897734
0.000000 0.350164 0.895598
0.413519 0.347417 0.893278
0.634546 0.341985 0.889067
0.812100 0.378759 0.881834
0.941833 0.434211 0.877226
0.986297 0.537591 0.843473
0.000000 0.345251 0.895262
0.000000 0.347112 0.895567
0.000000 0.344823 0.894102
0.411658 0.339910 0.891386
0.627832 0.350561 0.886687
0.805478 0.389349 0.879423
0.935851 0.439704 0.874296
0.982422 0.537438 0.840818
0.000000 0.382116 0.894408
0.000000 0.390814 0.893889
0.000000 0.393133 0.891722
0.414221 0.409949 0.890318
0.620600 0.425910 0.884916
0.793454 0.456336 0.877256
0.922118 0.504662 0.872099
0.969482 0.587640 0.843046
0.000000 0.444221 0.892790
0.000000 0.449165 0.892790
0.000000 0.465400 0.891051
0.385809 0.514244 0.887114
0.603021 0.531884 0.882811
0.776303 0.561089 0.876432
0.900847 0.605982 0.871000
0.949584 0.666468 0.849790
0.000000 0.552514 0.889738
0.000000 0.554253 0.889769
0.000000 0.554803 0.888060
0.000000 0.576165 0.885801
0.558892 0.631312 0.879515
0.743618 0.652522 0.873960
0.874022 0.689143 0.868681
0.928466 0.736660 0.857023
0.000000 0.683772 0.888792
0.000000 0.682765 0.888090
0.000000 0.681239 0.885924
0.000000 0.682216 0.882963
0.350805 0.687007 0.878996
0.709865 0.741604 0.876036
0.853483 0.773434 0.874571
0.912261 0.808652 0.871397
0.000000 0.798825 0.890379
0.000000 0.798886 0.890074
0.000000 0.799405 0.888823
0.160952 0.802213 0.887022
0.497230 0.806119 0.884367
0.682887 0.811551 0.881498
0.841215 0.832181 0.881895
0.907286 0.852781 0.885252
0.203555 0.874479 0.896239
0.250980 0.874296 0.896056
0.385504 0.873594 0.895628
0.540246 0.872770 0.895201
0.680781 0.871916 0.894560
0.791318 0.872129 0.893980
0.864775 0.874510 0.894469
0.912169 0.880583 0.898619
