20 Preset/Japan Style/【3】LUT video cho PR-AE-FCPX/LUT VIDEO/Japan Style LUT (22).cube
# Created by Adobe Lightroom plugin Export LUT (1.24.0)
# www.johnrellis.com/lightroom/exportlut.htm
# Preset: 22日系室外山涧（素材江湖）
# Color profile: C:\Program Files (x86)\Common Files\Adobe\Color\Profiles\Recommended\VideoHD.icc
LUT_3D_SIZE 32
DOMAIN_MIN 0.0 0.0 0.0
DOMAIN_MAX 1.0 1.0 1.0
0.091341 0.095827 0.110750
0.090700 0.095888 0.110445
0.086915 0.095857 0.110170
0.082551 0.095003 0.109346
0.090211 0.093721 0.108095
0.114534 0.092622 0.106752
0.155398 0.089662 0.105623
0.208835 0.078004 0.104585
0.270390 0.037263 0.103456
0.337987 0.000000 0.102052
0.410346 0.000000 0.100465
0.485084 0.000000 0.098238
0.559869 0.000000 0.095888
0.632074 0.000000 0.092653
0.699062 0.000000 0.089479
0.760006 0.000000 0.085389
0.817533 0.000000 0.082277
0.869108 0.000000 0.082521
0.912596 0.000000 0.087984
0.949920 0.000000 0.095491
0.981537 0.000000 0.106966
1.000000 0.000000 0.120821
1.000000 0.143496 0.136873
1.000000 0.201633 0.154910
1.000000 0.246921 0.174350
1.000000 0.286717 0.196048
1.000000 0.322911 0.219028
1.000000 0.356573 0.244297
1.000000 0.388861 0.270787
1.000000 0.420386 0.299870
1.000000 0.451148 0.330846
1.000000 0.481605 0.363775
0.090974 0.095491 0.110475
0.090211 0.095552 0.110475
0.086763 0.095125 0.109926
0.083192 0.094606 0.109071
0.090974 0.093629 0.108095
0.115755 0.093263 0.106661
0.156771 0.090608 0.105470
0.209201 0.080690 0.104372
0.270970 0.040955 0.103243
0.338354 0.000000 0.101808
0.410254 0.000000 0.100099
0.484688 0.000000 0.098177
0.558892 0.000000 0.095399
0.630854 0.000000 0.092226
0.697658 0.000000 0.088991
0.758724 0.000000 0.085023
0.816129 0.000000 0.081147
0.867094 0.000000 0.081636
0.910460 0.000000 0.087373
0.947631 0.000000 0.095186
0.979278 0.000000 0.105837
1.000000 0.000000 0.119142
1.000000 0.142306 0.135073
1.000000 0.200565 0.152621
1.000000 0.245884 0.172122
1.000000 0.284489 0.193851
1.000000 0.320745 0.216556
1.000000 0.354650 0.241733
1.000000 0.386877 0.268711
1.000000 0.418372 0.297429
1.000000 0.449256 0.328313
1.000000 0.479896 0.361059
0.089784 0.092897 0.108858
0.089784 0.092897 0.108858
0.087251 0.093141 0.108858
0.086183 0.093233 0.108522
0.095888 0.094697 0.107210
0.122713 0.096895 0.106081
0.164584 0.096010 0.104921
0.217868 0.090089 0.103548
0.279332 0.062745 0.102022
0.345739 0.000000 0.100679
0.416968 0.000000 0.098634
0.490700 0.000000 0.096223
0.563684 0.000000 0.093477
0.634485 0.000000 0.090089
0.700496 0.000000 0.085359
0.760555 0.000000 0.080110
0.817258 0.000000 0.075471
0.867155 0.000000 0.077363
0.909911 0.000000 0.081819
0.946777 0.000000 0.091493
0.978332 0.000000 0.103395
1.000000 0.074556 0.117586
1.000000 0.160800 0.133700
1.000000 0.211887 0.151217
1.000000 0.253483 0.171176
1.000000 0.290593 0.192477
1.000000 0.325750 0.216068
1.000000 0.358709 0.240726
1.000000 0.390356 0.267491
1.000000 0.421271 0.296422
1.000000 0.451392 0.327306
1.000000 0.481544 0.360296
0.085847 0.094118 0.107424
0.086030 0.094118 0.107088
0.086030 0.094118 0.107088
0.089235 0.095796 0.106844
0.104860 0.100496 0.105684
0.136599 0.107881 0.104311
0.181582 0.112886 0.102266
0.235569 0.109560 0.100618
0.296941 0.099092 0.099306
0.362646 0.067109 0.097139
0.432654 0.000000 0.094972
0.503807 0.000000 0.091768
0.575402 0.000000 0.088319
0.643793 0.000000 0.081880
0.707362 0.000000 0.074495
0.765682 0.000000 0.066712
0.820401 0.000000 0.061189
0.868223 0.000000 0.059754
0.909514 0.000000 0.069368
0.945342 0.000000 0.084352
0.976318 0.012543 0.098390
1.000000 0.140810 0.113405
1.000000 0.191470 0.130434
1.000000 0.233066 0.148898
1.000000 0.270359 0.169192
1.000000 0.304753 0.191348
1.000000 0.337530 0.215152
1.000000 0.368841 0.240513
1.000000 0.399084 0.267643
1.000000 0.428779 0.296635
1.000000 0.457954 0.327581
1.000000 0.486946 0.360327
0.055818 0.112093 0.107973
0.057801 0.112032 0.107973
0.057893 0.112734 0.106203
0.076295 0.113375 0.106661
0.105653 0.121309 0.105043
0.159060 0.129793 0.101656
0.207187 0.138186 0.098512
0.261906 0.144869 0.094423
0.322210 0.145083 0.090089
0.387243 0.133394 0.088258
0.454688 0.114351 0.083986
0.523552 0.081544 0.076692
0.591821 0.000000 0.066987
0.657313 0.000000 0.055940
0.718013 0.000000 0.046509
0.774472 0.000000 0.036866
0.826474 0.000000 0.031312
0.871733 0.000000 0.034363
0.911498 0.004578 0.042786
0.946105 0.114534 0.066346
0.976226 0.161563 0.090791
1.000000 0.200015 0.108248
1.000000 0.234531 0.126802
1.000000 0.266697 0.146181
1.000000 0.297246 0.167666
1.000000 0.327703 0.190738
1.000000 0.356420 0.215244
1.000000 0.385199 0.240848
1.000000 0.413123 0.268101
1.000000 0.440803 0.297215
1.000000 0.468208 0.327947
1.000000 0.495705 0.360906
0.000000 0.152041 0.111788
0.000000 0.152255 0.111116
0.000000 0.152193 0.108858
0.000000 0.152621 0.107301
0.058350 0.157626 0.107790
0.139254 0.172671 0.102235
0.235019 0.184756 0.092561
0.301610 0.187930 0.083742
0.360235 0.192660 0.070253
0.421607 0.198154 0.046540
0.484932 0.195682 0.029145
0.551049 0.182864 0.020752
0.615503 0.168734 0.013184
0.676753 0.157290 0.004425
0.733608 0.149996 0.000000
0.787259 0.150057 0.000000
0.835569 0.157473 0.000000
0.878111 0.171603 0.000000
0.915618 0.190494 0.005188
0.948577 0.212558 0.031891
0.977356 0.236332 0.073213
1.000000 0.260014 0.101137
1.000000 0.300816 0.132540
1.000000 0.324468 0.155428
1.000000 0.348363 0.178195
1.000000 0.372015 0.202914
1.000000 0.395911 0.228092
1.000000 0.420142 0.254154
1.000000 0.444373 0.282048
1.000000 0.468910 0.311345
1.000000 0.493385 0.342351
1.000000 0.518364 0.374762
0.000000 0.211429 0.117861
0.000000 0.211673 0.117189
0.000000 0.211429 0.114168
0.000000 0.211795 0.108919
0.000000 0.210788 0.111635
0.057069 0.222507 0.108858
0.194705 0.243137 0.096834
0.324041 0.258335 0.060121
0.416144 0.259556 0.020478
0.475349 0.260899 0.000000
0.533898 0.264652 0.000000
0.591211 0.271458 0.000000
0.648310 0.271489 0.000000
0.704463 0.264683 0.000000
0.758877 0.262333 0.000000
0.807950 0.262455 0.000000
0.851896 0.266667 0.000000
0.890623 0.273442 0.000000
0.925017 0.283360 0.000000
0.955871 0.296147 0.000000
0.983185 0.311284 0.041840
1.000000 0.327092 0.097322
1.000000 0.345006 0.123964
1.000000 0.363958 0.150149
1.000000 0.383612 0.175540
1.000000 0.403876 0.201328
1.000000 0.423835 0.227573
1.000000 0.444373 0.254582
1.000000 0.465705 0.282628
1.000000 0.487404 0.311986
1.000000 0.509697 0.342962
1.000000 0.532525 0.375555
0.000000 0.276493 0.127230
0.000000 0.276341 0.126741
0.000000 0.276280 0.123476
0.000000 0.276066 0.116854
0.000000 0.275364 0.113161
0.000000 0.273472 0.121828
0.115908 0.293675 0.111971
0.264347 0.316594 0.091524
0.409857 0.335302 0.014710
0.525780 0.337652 0.000000
0.581598 0.336858 0.000000
0.633082 0.339635 0.000000
0.682429 0.346380 0.000000
0.729061 0.356512 0.000000
0.774929 0.359991 0.000000
0.819059 0.356237 0.000000
0.858762 0.355322 0.000000
0.894469 0.356329 0.000000
0.926665 0.360021 0.000000
0.955688 0.366430 0.000000
0.981567 0.375036 0.000000
1.000000 0.384924 0.077028
1.000000 0.396612 0.116365
1.000000 0.409888 0.146700
1.000000 0.424781 0.174624
1.000000 0.440284 0.201633
1.000000 0.456489 0.228885
1.000000 0.473671 0.256260
1.000000 0.491768 0.284459
1.000000 0.510704 0.314122
1.000000 0.530297 0.345312
1.000000 0.550866 0.378088
0.000000 0.345769 0.143313
0.000000 0.346044 0.142061
0.000000 0.345586 0.138979
0.000000 0.345251 0.132235
0.000000 0.344640 0.121981
0.000000 0.342748 0.127871
0.000000 0.345647 0.134310
0.190433 0.368383 0.119936
0.344030 0.392370 0.094270
0.495491 0.412970 0.000000
0.629358 0.422126 0.000000
0.678065 0.420722 0.000000
0.721645 0.421973 0.000000
0.761654 0.426093 0.000000
0.798428 0.432441 0.000000
0.831754 0.440040 0.000000
0.865141 0.441352 0.000000
0.898222 0.437110 0.000000
0.928252 0.435523 0.000000
0.955596 0.436530 0.000000
0.980041 0.439521 0.000000
1.000000 0.444282 0.039124
1.000000 0.450721 0.110506
1.000000 0.459388 0.144472
1.000000 0.469642 0.175235
1.000000 0.480903 0.203799
1.000000 0.493324 0.231724
1.000000 0.507073 0.259892
1.000000 0.521843 0.288762
1.000000 0.537621 0.318639
1.000000 0.554681 0.349981
1.000000 0.572595 0.382879
0.000000 0.416815 0.165927
0.000000 0.416602 0.164736
0.000000 0.416388 0.161776
0.000000 0.415717 0.154757
0.000000 0.415076 0.144320
0.000000 0.413581 0.137881
0.000000 0.410590 0.151553
0.000000 0.420325 0.152651
0.276768 0.443488 0.137362
0.429450 0.467231 0.112093
0.576501 0.489631 0.031647
0.700649 0.503410 0.000000
0.755550 0.500511 0.000000
0.791073 0.498360 0.000000
0.822538 0.498329 0.000000
0.851469 0.500420 0.000000
0.878202 0.504448 0.000000
0.903044 0.510430 0.000000
0.928985 0.510216 0.000000
0.954803 0.506371 0.000000
0.977874 0.504448 0.000000
0.998535 0.504173 0.003326
1.000000 0.505760 0.106050
1.000000 0.509972 0.143862
1.000000 0.515648 0.176364
1.000000 0.522820 0.206302
1.000000 0.531731 0.235142
1.000000 0.541985 0.263615
1.000000 0.553643 0.293462
1.000000 0.566674 0.323949
1.000000 0.580987 0.355474
1.000000 0.596612 0.388373
0.000000 0.485206 0.195041
0.000000 0.485267 0.194705
0.000000 0.485267 0.191836
0.000000 0.484871 0.185183
0.000000 0.484321 0.175326
0.000000 0.483650 0.161929
0.000000 0.481300 0.168795
0.000000 0.477943 0.184207
0.199496 0.494148 0.180087
0.367926 0.515709 0.166537
0.512139 0.536980 0.147341
0.644129 0.558679 0.117525
0.756954 0.575189 0.024079
0.816007 0.571435 0.000000
0.844480 0.565820 0.000000
0.869749 0.562676 0.000000
0.892973 0.561761 0.000000
0.914763 0.562646 0.000000
0.935149 0.565545 0.000000
0.954070 0.569848 0.000000
0.974090 0.567956 0.000000
0.993927 0.563470 0.000000
1.000000 0.561700 0.106416
1.000000 0.561669 0.148013
1.000000 0.563531 0.182467
1.000000 0.567254 0.213352
1.000000 0.572808 0.242496
1.000000 0.579858 0.271733
1.000000 0.588464 0.301518
1.000000 0.598627 0.332006
1.000000 0.610254 0.363745
1.000000 0.623438 0.396582
0.000000 0.551659 0.232029
0.000000 0.551568 0.231052
0.000000 0.551354 0.228183
0.000000 0.551019 0.222629
0.000000 0.550378 0.213382
0.000000 0.549401 0.201511
0.000000 0.548058 0.193301
0.000000 0.544518 0.207736
0.004700 0.542443 0.222385
0.308598 0.561547 0.215518
0.455299 0.580896 0.205844
0.583520 0.599969 0.193576
0.711604 0.630945 0.191836
0.808194 0.644495 0.173251
0.871458 0.644312 0.165835
0.893980 0.635737 0.141238
0.914183 0.629450 0.124758
0.932555 0.625605 0.120211
0.949737 0.623682 0.114107
0.965759 0.623407 0.107485
0.980621 0.624292 0.103304
0.994476 0.626673 0.101320
1.000000 0.623835 0.135042
1.000000 0.620050 0.173007
1.000000 0.618311 0.204532
1.000000 0.618372 0.234562
1.000000 0.620111 0.262455
1.000000 0.623682 0.290898
1.000000 0.629023 0.319799
1.000000 0.635859 0.349645
1.000000 0.644404 0.380438
1.000000 0.654810 0.413123
0.000000 0.617945 0.277440
0.000000 0.617914 0.277256
0.000000 0.617212 0.274357
0.000000 0.616571 0.268467
0.000000 0.615351 0.260746
0.000000 0.613947 0.249577
0.000000 0.612177 0.234745
0.000000 0.608881 0.240940
0.000000 0.604761 0.255924
0.255497 0.608148 0.265354
0.410437 0.625422 0.261662
0.536706 0.642573 0.257725
0.648737 0.659541 0.254002
0.749081 0.676081 0.249363
0.835172 0.689113 0.241367
0.901579 0.692226 0.243168
0.921111 0.682948 0.223423
0.938689 0.675349 0.204593
0.954040 0.669856 0.201480
0.968353 0.666011 0.197452
0.981720 0.663691 0.193698
0.994507 0.663020 0.191897
1.000000 0.664088 0.191928
1.000000 0.666743 0.194156
1.000000 0.664363 0.218357
1.000000 0.661616 0.247562
1.000000 0.660853 0.275669
1.000000 0.661769 0.303807
1.000000 0.664546 0.332158
1.000000 0.669062 0.361791
1.000000 0.675380 0.392432
1.000000 0.683467 0.425208
0.000000 0.666712 0.319554
0.000000 0.666499 0.318822
0.000000 0.666133 0.316777
0.000000 0.665278 0.311864
0.000000 0.663935 0.304082
0.000000 0.662623 0.294957
0.000000 0.661067 0.282567
0.000000 0.658778 0.273655
0.000000 0.654749 0.287175
0.209720 0.650416 0.302129
0.362463 0.658442 0.307683
0.487922 0.673152 0.307561
0.596612 0.687892 0.307652
0.693843 0.702235 0.307774
0.781521 0.716121 0.307500
0.857084 0.727352 0.304295
0.917296 0.732143 0.306371
0.941344 0.723384 0.295232
0.956573 0.714961 0.277684
0.969940 0.708125 0.268498
0.982147 0.702937 0.264652
0.993957 0.699825 0.261997
1.000000 0.698421 0.260807
1.000000 0.698665 0.261479
1.000000 0.700404 0.264042
1.000000 0.703487 0.269505
1.000000 0.701411 0.293614
1.000000 0.700038 0.320439
1.000000 0.700465 0.348363
1.000000 0.702815 0.377142
1.000000 0.706813 0.408026
1.000000 0.712825 0.440528
0.000000 0.708186 0.361669
0.000000 0.708034 0.361028
0.000000 0.707637 0.359228
0.000000 0.706874 0.355108
0.000000 0.705745 0.348974
0.000000 0.704372 0.340551
0.000000 0.702846 0.329992
0.000000 0.701259 0.317998
0.000000 0.698116 0.321813
0.196262 0.693996 0.335302
0.327794 0.689754 0.351110
0.448920 0.701259 0.353887
0.553185 0.713832 0.355993
0.647059 0.726223 0.358343
0.731746 0.738277 0.360510
0.807889 0.749752 0.362921
0.874327 0.759457 0.363317
0.929290 0.765743 0.365423
0.956359 0.757473 0.361181
0.969543 0.748562 0.343664
0.981811 0.741085 0.329564
0.992676 0.735927 0.327062
1.000000 0.732387 0.324865
1.000000 0.730587 0.324010
1.000000 0.730190 0.325139
1.000000 0.731258 0.328283
1.000000 0.733669 0.334051
1.000000 0.737331 0.342168
1.000000 0.736019 0.368750
1.000000 0.736355 0.397498
1.000000 0.738643 0.428016
1.000000 0.742977 0.460395
0.000000 0.743038 0.402991
0.000000 0.743008 0.402564
0.000000 0.742763 0.400855
0.000000 0.742214 0.397559
0.000000 0.741543 0.392706
0.000000 0.740536 0.386053
0.000000 0.739437 0.377539
0.000000 0.738247 0.367895
0.000000 0.736477 0.360693
0.203616 0.732692 0.372290
0.329412 0.728603 0.385657
0.420874 0.727443 0.397620
0.519951 0.737789 0.400977
0.608209 0.748104 0.404120
0.688777 0.757992 0.407294
0.762173 0.767758 0.410620
0.828885 0.777249 0.414099
0.887449 0.785458 0.416388
0.938109 0.792966 0.418402
0.966888 0.785611 0.422004
0.978820 0.777157 0.405402
0.990295 0.770138 0.391302
1.000000 0.764981 0.386023
1.000000 0.761563 0.384894
1.000000 0.759548 0.385168
1.000000 0.759060 0.387091
1.000000 0.759792 0.391394
1.000000 0.761807 0.397650
1.000000 0.765133 0.406989
1.000000 0.769100 0.420935
1.000000 0.769558 0.450477
1.000000 0.772000 0.482399
0.000000 0.772641 0.442725
0.000000 0.772519 0.441993
0.000000 0.772366 0.440833
0.000000 0.771939 0.438087
0.000000 0.771328 0.434394
0.000000 0.770626 0.429175
0.000000 0.769589 0.422034
0.000000 0.768399 0.414191
0.000000 0.767117 0.404944
0.225193 0.764309 0.408057
0.337163 0.760494 0.419806
0.416327 0.756527 0.432807
0.494697 0.758633 0.441413
0.577691 0.767330 0.445594
0.653590 0.775875 0.449561
0.723659 0.784146 0.453681
0.787594 0.792264 0.457893
0.845975 0.800198 0.462928
0.897704 0.807370 0.466499
0.943145 0.813870 0.469245
0.974517 0.810086 0.479713
0.985840 0.802243 0.464271
0.996399 0.795926 0.451759
1.000000 0.790982 0.443732
1.000000 0.787716 0.443458
1.000000 0.785824 0.444678
1.000000 0.785214 0.447578
1.000000 0.785916 0.452796
1.000000 0.787869 0.460853
1.000000 0.791165 0.472053
1.000000 0.795773 0.486763
1.000000 0.800534 0.508568
0.000000 0.797879 0.481270
0.000000 0.797910 0.481422
0.000000 0.801968 0.487617
0.000000 0.801633 0.485420
0.000000 0.801144 0.482277
0.000000 0.800381 0.478187
0.101045 0.799435 0.472511
0.174685 0.798337 0.465858
0.227085 0.797055 0.458198
0.281102 0.795377 0.452277
0.367407 0.791836 0.462196
0.435798 0.788052 0.473396
0.494179 0.783810 0.485359
0.563348 0.788296 0.491127
0.632258 0.795285 0.495369
0.696712 0.802029 0.499702
0.756527 0.808652 0.503990
0.811582 0.815183 0.508629
0.861936 0.821622 0.513725
0.907225 0.827817 0.518456
0.947570 0.833371 0.522759
0.977478 0.832334 0.532494
0.991150 0.825711 0.524865
1.000000 0.819821 0.512902
1.000000 0.815030 0.503288
1.000000 0.811826 0.502464
1.000000 0.810025 0.504417
1.000000 0.809476 0.508537
1.000000 0.810239 0.515160
1.000000 0.812436 0.525078
1.000000 0.816068 0.538781
1.000000 0.820523 0.554803
0.142245 0.820218 0.520806
0.149020 0.820523 0.521080
0.160525 0.820768 0.521111
0.177127 0.820768 0.519890
0.199527 0.820554 0.518090
0.222629 0.820005 0.514641
0.249088 0.819242 0.510338
0.276616 0.818235 0.504784
0.305699 0.817014 0.498482
0.335485 0.815732 0.491676
0.388922 0.813260 0.494362
0.448829 0.809903 0.504082
0.501762 0.806119 0.514427
0.550195 0.802701 0.525505
0.613062 0.808804 0.530083
0.672663 0.814786 0.534600
0.728634 0.820706 0.539544
0.780819 0.826505 0.544884
0.829435 0.832303 0.550439
0.873869 0.838071 0.556268
0.914214 0.843748 0.562036
0.950439 0.849241 0.567956
0.979004 0.850492 0.577447
0.994263 0.844846 0.577356
1.000000 0.839689 0.566827
1.000000 0.835538 0.559075
1.000000 0.832761 0.557092
1.000000 0.831388 0.560784
1.000000 0.831357 0.566918
1.000000 0.832761 0.576196
1.000000 0.835203 0.587854
1.000000 0.838407 0.601129
0.280034 0.837888 0.555444
0.283452 0.838132 0.555993
0.287968 0.838376 0.555901
0.295598 0.838407 0.555261
0.306615 0.838224 0.553979
0.319341 0.837766 0.551354
0.334295 0.837156 0.547692
0.351904 0.836271 0.543267
0.371862 0.835233 0.538323
0.393530 0.834073 0.532952
0.418738 0.832670 0.528161
0.469825 0.829618 0.536614
0.516381 0.826322 0.545830
0.559197 0.822873 0.555993
0.604273 0.822232 0.564446
0.657862 0.827512 0.569207
0.709285 0.832700 0.574090
0.757626 0.837858 0.579370
0.803281 0.842985 0.584924
0.845670 0.848112 0.590784
0.884794 0.853269 0.596887
0.920439 0.858427 0.603326
0.952941 0.863706 0.610101
0.980285 0.866728 0.619623
0.996399 0.862181 0.626123
1.000000 0.857725 0.617914
1.000000 0.854307 0.612085
1.000000 0.852079 0.609766
1.000000 0.851438 0.615930
1.000000 0.851926 0.623926
1.000000 0.853239 0.633356
1.000000 0.855680 0.645319
0.366888 0.853727 0.590143
0.368750 0.853971 0.590692
0.372137 0.854124 0.590967
0.377325 0.854154 0.590539
0.384222 0.853971 0.589288
0.392645 0.853574 0.587030
0.403174 0.853056 0.584253
0.416236 0.852293 0.580896
0.430732 0.851408 0.576989
0.447303 0.850401 0.572656
0.464942 0.849241 0.567773
0.496407 0.847257 0.569879
0.536217 0.844358 0.577783
0.573754 0.841367 0.586511
0.609125 0.838193 0.595880
0.651118 0.839872 0.602594
0.697230 0.844511 0.607538
0.741787 0.849210 0.612909
0.783932 0.853910 0.618738
0.823819 0.858640 0.625025
0.860960 0.863401 0.631464
0.895201 0.868162 0.638361
0.926757 0.872892 0.645350
0.955840 0.878019 0.653590
0.981659 0.882597 0.663203
0.997925 0.879088 0.675776
1.000000 0.875639 0.670314
1.000000 0.873198 0.667781
1.000000 0.871641 0.667567
1.000000 0.871244 0.672724
1.000000 0.872007 0.681453
1.000000 0.873899 0.692531
0.443580 0.869322 0.628016
0.444526 0.869383 0.628321
0.446113 0.869352 0.628046
0.448890 0.869230 0.627375
0.453437 0.868986 0.626184
0.459144 0.868589 0.624353
0.466590 0.868070 0.621912
0.475959 0.867430 0.619257
0.486946 0.866667 0.615930
0.499245 0.865843 0.612360
0.513359 0.864897 0.608850
0.528466 0.863828 0.604852
0.562066 0.861357 0.611872
0.594324 0.858762 0.619409
0.625147 0.856046 0.627588
0.654322 0.853208 0.636164
0.693721 0.856565 0.641382
0.733089 0.860655 0.646418
0.771298 0.864775 0.651881
0.807706 0.868925 0.657465
0.842222 0.873075 0.663508
0.874418 0.877256 0.669886
0.904387 0.881468 0.676509
0.932067 0.885679 0.683558
0.958099 0.890532 0.692103
0.982513 0.896483 0.702235
0.997436 0.893889 0.716243
1.000000 0.891051 0.715877
1.000000 0.889036 0.714412
1.000000 0.888060 0.715663
1.000000 0.888182 0.720912
1.000000 0.889616 0.731502
0.501396 0.882109 0.660883
0.502068 0.882139 0.661097
0.503410 0.882109 0.660822
0.505760 0.882048 0.660487
0.508934 0.881804 0.659358
0.513603 0.881498 0.658076
0.519280 0.881071 0.656245
0.526513 0.880522 0.653986
0.535088 0.879942 0.651484
0.545159 0.879240 0.648768
0.556176 0.878447 0.645686
0.568292 0.877592 0.642634
0.588495 0.876097 0.644068
0.616083 0.873869 0.650629
0.642969 0.871550 0.657832
0.668940 0.869200 0.665522
0.695827 0.867887 0.673152
0.730526 0.871550 0.678065
0.764645 0.875242 0.683375
0.797574 0.878996 0.688899
0.829068 0.882780 0.694850
0.858885 0.886595 0.701015
0.886961 0.890471 0.707607
0.913176 0.894377 0.714534
0.937194 0.897734 0.719753
0.960266 0.902342 0.728786
0.981689 0.907225 0.738552
0.996612 0.906920 0.751247
1.000000 0.904845 0.755978
1.000000 0.903655 0.756802
1.000000 0.903502 0.760372
1.000000 0.904326 0.766659
0.556664 0.894499 0.694850
0.557397 0.894560 0.695125
0.558404 0.894560 0.695033
0.560021 0.894438 0.694606
0.562158 0.894194 0.693568
0.565423 0.893858 0.692287
0.569360 0.893400 0.690517
0.574456 0.892882 0.688502
0.580896 0.892271 0.686244
0.588525 0.891661 0.683925
0.597101 0.890929 0.681392
0.606653 0.890135 0.678737
0.617304 0.889311 0.676173
0.639612 0.887449 0.681239
0.662715 0.885405 0.687312
0.685145 0.883330 0.693935
0.707088 0.881254 0.701045
0.732540 0.881621 0.707362
0.762631 0.885008 0.712398
0.792172 0.888426 0.717830
0.820615 0.891936 0.723812
0.847990 0.895506 0.729946
0.873808 0.899046 0.736324
0.897978 0.902434 0.742214
0.920714 0.905760 0.748074
0.942046 0.909087 0.754055
0.962493 0.913298 0.762325
0.981689 0.918151 0.772519
0.996094 0.919432 0.784817
1.000000 0.918151 0.793637
1.000000 0.917815 0.796658
1.000000 0.918517 0.802152
0.602808 0.905089 0.725124
0.603479 0.905180 0.725460
0.604364 0.905150 0.725429
0.605646 0.905089 0.725093
0.607568 0.904936 0.724453
0.610224 0.904723 0.723568
0.613886 0.904417 0.722438
0.618524 0.904082 0.721340
0.623957 0.903685 0.719783
0.630579 0.903227 0.718349
0.637720 0.902708 0.716579
0.645869 0.902129 0.714809
0.654749 0.901518 0.713130
0.668177 0.900481 0.714137
0.687617 0.898863 0.719570
0.706935 0.897154 0.725338
0.726009 0.895476 0.731716
0.744594 0.893858 0.738521
0.768551 0.895659 0.744076
0.793820 0.898650 0.748867
0.818662 0.901671 0.753933
0.842649 0.904784 0.759243
0.865690 0.907897 0.764706
0.887755 0.911009 0.770230
0.908629 0.914122 0.775845
0.928405 0.917296 0.781582
0.947021 0.920439 0.787442
0.965148 0.924498 0.795712
0.982330 0.929473 0.806363
0.996002 0.932219 0.818540
1.000000 0.931792 0.830167
1.000000 0.932433 0.835019
0.649348 0.915648 0.756802
0.649805 0.915679 0.757046
0.650355 0.915679 0.756954
0.651484 0.915587 0.756710
0.652979 0.915465 0.756252
0.655085 0.915282 0.755581
0.657923 0.915068 0.754788
0.661646 0.914824 0.753933
0.666072 0.914519 0.752956
0.671382 0.914153 0.751919
0.677424 0.913787 0.750759
0.684230 0.913420 0.749783
0.691646 0.912963 0.748745
0.699245 0.912413 0.747433
0.714015 0.911070 0.751003
0.730037 0.909667 0.755886
0.746029 0.908202 0.761013
0.761868 0.906798 0.766598
0.777432 0.905455 0.772641
0.799069 0.908171 0.776944
0.820554 0.910948 0.781582
0.841611 0.913787 0.786404
0.862028 0.916655 0.791409
0.881743 0.919554 0.796506
0.900633 0.922454 0.801633
0.918669 0.925383 0.806882
0.935912 0.928344 0.812314
0.952270 0.931334 0.817838
0.968231 0.935241 0.825681
0.983612 0.940398 0.836606
0.996490 0.944427 0.848539
1.000000 0.944823 0.861448
0.691646 0.925505 0.786648
0.691829 0.925505 0.786587
0.692409 0.925505 0.786618
0.693324 0.925475 0.786526
0.694728 0.925383 0.786313
0.696590 0.925322 0.785946
0.699245 0.925231 0.785733
0.702724 0.925109 0.785489
0.706752 0.925017 0.785183
0.711482 0.924865 0.784848
0.716976 0.924712 0.784695
0.722835 0.924559 0.784360
0.729274 0.924315 0.784054
0.735836 0.924041 0.783627
0.744808 0.923491 0.784695
0.758175 0.922423 0.788998
0.771481 0.921355 0.793454
0.784756 0.920317 0.798276
0.797971 0.919341 0.803464
0.812497 0.919432 0.808560
0.830411 0.921965 0.812650
0.848173 0.924590 0.816983
0.865568 0.927214 0.821439
0.882536 0.929931 0.826047
0.898955 0.932647 0.830655
0.914885 0.935393 0.835477
0.930236 0.938170 0.840299
0.944915 0.941009 0.845365
0.958953 0.943816 0.850553
0.972656 0.947509 0.857664
0.986053 0.952789 0.868528
0.997833 0.957855 0.880003
0.734432 0.935790 0.817014
0.734554 0.935790 0.817075
0.734829 0.935760 0.816983
0.735286 0.935698 0.816739
0.736294 0.935637 0.816587
0.737667 0.935546 0.816312
0.739559 0.935424 0.816007
0.741848 0.935302 0.815610
0.744900 0.935180 0.815366
0.748318 0.935027 0.814939
0.752316 0.934874 0.814664
0.756832 0.934691 0.814359
0.761776 0.934508 0.814145
0.767086 0.934325 0.813931
