20 Preset/Japan Style/【3】LUT video cho PR-AE-FCPX/LUT VIDEO/Japan Style LUT (8).cube
# Created by Adobe Lightroom plugin Export LUT (1.24.0)
# www.johnrellis.com/lightroom/exportlut.htm
# Preset: 08日系基础色（素材江湖）
# Color profile: C:\Program Files (x86)\Common Files\Adobe\Color\Profiles\Recommended\VideoHD.icc
LUT_3D_SIZE 32
DOMAIN_MIN 0.0 0.0 0.0
DOMAIN_MAX 1.0 1.0 1.0
0.000000 0.000000 0.000000
0.016175 0.000397 0.000763
0.057710 0.001251 0.002075
0.105013 0.004944 0.004425
0.139498 0.012543 0.008576
0.181277 0.019196 0.011872
0.223545 0.031342 0.016999
0.265232 0.039124 0.023041
0.305852 0.045319 0.025208
0.345464 0.049958 0.029175
0.385718 0.049714 0.032532
0.426612 0.051179 0.034180
0.468421 0.047761 0.036896
0.511101 0.042512 0.040040
0.554376 0.034943 0.044709
0.598108 0.026337 0.052827
0.642451 0.016144 0.064210
0.687465 0.004730 0.079072
0.731624 0.000000 0.089143
0.774441 0.000000 0.097200
0.818357 0.000000 0.105959
0.868223 0.000000 0.117098
0.909606 0.007050 0.128939
0.945739 0.047120 0.140139
0.977630 0.089357 0.150820
1.000000 0.112001 0.161501
1.000000 0.132235 0.172213
1.000000 0.152102 0.183200
1.000000 0.171786 0.194400
1.000000 0.192020 0.206302
1.000000 0.212467 0.219181
1.000000 0.233799 0.233371
0.001221 0.012116 0.001709
0.009155 0.011200 0.001678
0.054963 0.013825 0.003815
0.103151 0.016754 0.006317
0.138735 0.024109 0.009339
0.179873 0.033600 0.014618
0.221714 0.043305 0.019074
0.262730 0.051423 0.023072
0.303014 0.057771 0.026581
0.342443 0.062562 0.029603
0.382177 0.065522 0.032898
0.422797 0.065614 0.033936
0.464271 0.063447 0.036896
0.506615 0.058686 0.040436
0.549645 0.051606 0.045533
0.593286 0.044282 0.053895
0.637659 0.036072 0.065339
0.682704 0.022309 0.079500
0.726925 0.009888 0.089113
0.769589 0.001343 0.096986
0.813413 0.000000 0.105531
0.861814 0.000000 0.116365
0.902464 0.019776 0.127291
0.938201 0.054994 0.137881
0.970153 0.091066 0.148318
0.998932 0.110109 0.158755
1.000000 0.129030 0.169070
1.000000 0.148653 0.179843
1.000000 0.167941 0.190768
1.000000 0.187930 0.202548
1.000000 0.208377 0.215488
1.000000 0.229526 0.229465
0.002686 0.056397 0.010346
0.010590 0.057679 0.012268
0.052522 0.060975 0.006500
0.101961 0.062928 0.009155
0.136904 0.076295 0.017060
0.178195 0.086000 0.021759
0.220401 0.090883 0.024964
0.261265 0.093721 0.027985
0.301244 0.096651 0.030243
0.340459 0.097841 0.032471
0.380041 0.098848 0.034821
0.420661 0.098360 0.036194
0.461860 0.098146 0.039216
0.503929 0.097536 0.042664
0.546899 0.095155 0.047944
0.590234 0.092988 0.057710
0.634546 0.090150 0.068238
0.679500 0.084810 0.081971
0.723842 0.075990 0.090639
0.766751 0.068635 0.097963
0.811643 0.063996 0.106813
0.858976 0.069856 0.117372
0.899077 0.083986 0.128023
0.934569 0.097292 0.138277
0.966217 0.110872 0.148440
0.995117 0.124544 0.158236
1.000000 0.141024 0.168795
1.000000 0.157656 0.179171
1.000000 0.175174 0.190005
1.000000 0.193698 0.201755
1.000000 0.212314 0.214359
1.000000 0.232578 0.228214
0.013214 0.105867 0.030640
0.019135 0.106325 0.032563
0.052308 0.107210 0.032654
0.102235 0.109224 0.019959
0.140017 0.113588 0.018311
0.178256 0.120027 0.033173
0.219913 0.124788 0.035309
0.260410 0.127535 0.035645
0.300603 0.128725 0.036103
0.339666 0.129885 0.037049
0.379278 0.130587 0.038270
0.419257 0.130678 0.040833
0.460426 0.130678 0.043885
0.502068 0.130953 0.048402
0.544457 0.129793 0.055085
0.587396 0.129030 0.066072
0.631006 0.127230 0.078370
0.675319 0.126070 0.087770
0.719173 0.123568 0.094606
0.761685 0.121798 0.101717
0.807492 0.120333 0.109743
0.852720 0.122133 0.119448
0.892180 0.126070 0.129732
0.927886 0.132113 0.139528
0.960571 0.140688 0.149264
0.990600 0.151034 0.159518
1.000000 0.163577 0.169955
1.000000 0.177096 0.180575
1.000000 0.191958 0.191379
1.000000 0.208072 0.203159
1.000000 0.225101 0.215457
1.000000 0.242893 0.228855
0.000519 0.153841 0.052857
0.011414 0.153811 0.053773
0.053193 0.153536 0.059937
0.102480 0.154147 0.048859
0.140536 0.153994 0.030213
0.180026 0.154330 0.019745
0.218387 0.158541 0.033021
0.258152 0.162936 0.046326
0.298039 0.164492 0.045197
0.337041 0.165469 0.046204
0.376410 0.165835 0.046632
0.416541 0.166354 0.048920
0.457435 0.166476 0.054475
0.499184 0.166964 0.061128
0.541619 0.167147 0.069337
0.584680 0.167269 0.080659
0.628870 0.166659 0.088014
0.673579 0.166079 0.094270
0.717617 0.165469 0.100130
0.760220 0.164126 0.106813
0.807706 0.164462 0.115389
0.851347 0.165743 0.124422
0.889921 0.168032 0.133974
0.925475 0.171969 0.143282
0.958190 0.177279 0.153017
0.988464 0.184909 0.163119
1.000000 0.193515 0.173068
1.000000 0.204196 0.183322
1.000000 0.215915 0.194186
1.000000 0.229221 0.205478
1.000000 0.243626 0.217594
1.000000 0.259251 0.230686
0.000000 0.207462 0.071504
0.000000 0.207584 0.072267
0.017670 0.206699 0.078676
0.096651 0.205905 0.079469
0.139956 0.203861 0.057862
0.180575 0.199680 0.030701
0.217868 0.194217 0.011566
0.256870 0.196811 0.026947
0.296452 0.200565 0.048035
0.336980 0.203952 0.063722
0.376562 0.204410 0.066102
0.416938 0.205142 0.069062
0.458015 0.205661 0.076204
0.499855 0.206332 0.082979
0.542443 0.207187 0.088594
0.586084 0.207584 0.093477
0.630335 0.208103 0.098238
0.675471 0.208011 0.103029
0.719539 0.207431 0.108949
0.764950 0.207553 0.115572
0.811856 0.208560 0.123995
0.854154 0.209964 0.132387
0.931304 0.225498 0.153933
0.964813 0.230106 0.164797
0.994659 0.235325 0.175174
1.000000 0.241978 0.185641
1.000000 0.249058 0.196323
1.000000 0.257816 0.206760
1.000000 0.267613 0.217716
1.000000 0.278447 0.229282
1.000000 0.290288 0.241489
1.000000 0.303075 0.254276
0.000000 0.272038 0.094179
0.000000 0.271977 0.094881
0.000000 0.271092 0.097688
0.079225 0.270024 0.102571
0.137606 0.266545 0.095766
0.184360 0.259922 0.075044
0.225223 0.251072 0.035828
0.260410 0.238895 0.001160
0.300206 0.240452 0.023896
0.341894 0.244419 0.052857
0.385992 0.249485 0.085847
0.429267 0.252415 0.094942
0.471260 0.253025 0.098024
0.513725 0.253819 0.100984
0.556756 0.254215 0.104128
0.600061 0.254398 0.108522
0.644617 0.254704 0.112093
0.689052 0.254551 0.116609
0.733394 0.254612 0.122225
0.785214 0.256809 0.130251
0.833310 0.258946 0.138705
0.877104 0.261204 0.148318
0.916960 0.263981 0.158938
0.953338 0.267887 0.169528
0.985840 0.272068 0.180087
1.000000 0.277226 0.190890
1.000000 0.282444 0.200687
1.000000 0.288518 0.210941
1.000000 0.295995 0.221592
1.000000 0.304234 0.232334
1.000000 0.313695 0.244114
1.000000 0.324376 0.256596
0.000000 0.325811 0.116579
0.000000 0.325536 0.117830
0.000000 0.324895 0.119570
0.028107 0.323919 0.123873
0.129458 0.321324 0.126650
0.179263 0.314641 0.112795
0.222965 0.305303 0.095949
0.262181 0.293217 0.060731
0.295354 0.278721 0.014343
0.333196 0.276951 0.034485
0.376654 0.281529 0.073213
0.422065 0.287663 0.097139
0.469368 0.294896 0.114504
0.512718 0.296635 0.118624
0.555810 0.297185 0.120699
0.599237 0.297520 0.123415
0.643702 0.297978 0.126375
0.688350 0.298039 0.130129
0.739101 0.300450 0.136294
0.786954 0.302037 0.142916
0.832151 0.303410 0.150484
0.873991 0.304692 0.158968
0.912596 0.306371 0.168460
0.948180 0.308690 0.178408
0.980346 0.311711 0.188357
1.000000 0.314794 0.198306
1.000000 0.318486 0.207980
1.000000 0.322759 0.217594
1.000000 0.328130 0.227573
1.000000 0.334600 0.238437
1.000000 0.341924 0.249607
1.000000 0.350866 0.261845
0.000000 0.381048 0.145113
0.000000 0.381109 0.145449
0.000000 0.380346 0.147311
0.000000 0.379431 0.150820
0.121798 0.377752 0.156100
0.176638 0.372137 0.150240
0.221622 0.362646 0.134798
0.262974 0.350713 0.115541
0.299504 0.336187 0.092042
0.331334 0.319097 0.037720
0.367010 0.313573 0.045960
0.411994 0.319615 0.087007
0.458961 0.326543 0.107027
0.507713 0.334417 0.125093
0.557519 0.342016 0.139803
0.601312 0.342473 0.141176
0.648157 0.344030 0.143557
0.697871 0.346441 0.147738
0.745235 0.347601 0.152499
0.790494 0.348394 0.158053
0.833341 0.348791 0.164614
0.873289 0.349432 0.172274
0.910582 0.349950 0.181216
0.945251 0.351080 0.190249
0.976715 0.352789 0.199649
1.000000 0.354498 0.208804
1.000000 0.356634 0.218143
1.000000 0.359594 0.227390
1.000000 0.363348 0.237125
1.000000 0.367956 0.247257
1.000000 0.373907 0.258335
1.000000 0.380774 0.269993
0.000000 0.439857 0.175204
0.000000 0.439582 0.175448
0.000000 0.438880 0.176761
0.000000 0.437690 0.179660
0.109987 0.436072 0.183902
0.175357 0.433173 0.188174
0.222477 0.423285 0.173953
0.264714 0.411505 0.156466
0.303685 0.396490 0.135897
0.337804 0.379187 0.111299
0.366339 0.358495 0.076356
0.399268 0.348943 0.059663
0.445747 0.355901 0.095613
0.494179 0.364111 0.115297
0.545892 0.373449 0.133791
0.603784 0.385870 0.152560
0.658778 0.394171 0.164218
0.706508 0.395453 0.167239
0.752071 0.395972 0.171115
0.795529 0.395758 0.176089
0.835966 0.395117 0.181369
0.873259 0.394049 0.188083
0.908049 0.393103 0.195529
0.940612 0.392737 0.203128
0.970581 0.392554 0.211032
0.997955 0.392981 0.219394
1.000000 0.393744 0.228122
1.000000 0.395331 0.237003
1.000000 0.397925 0.246494
1.000000 0.401556 0.256779
1.000000 0.406287 0.267582
1.000000 0.412024 0.279545
0.000000 0.498756 0.204135
0.000000 0.498695 0.204410
0.000000 0.498268 0.205875
0.000000 0.497444 0.208164
0.096559 0.496254 0.212039
0.172641 0.494697 0.217258
0.225864 0.488441 0.212711
0.270085 0.476783 0.196689
0.310704 0.462409 0.177584
0.347662 0.445258 0.155215
0.379614 0.424781 0.128725
0.405615 0.401556 0.097383
0.435340 0.387152 0.070588
0.486275 0.397070 0.102510
0.539696 0.408087 0.122988
0.595880 0.419684 0.143069
0.653559 0.430945 0.162600
0.709987 0.441077 0.182834
0.757046 0.443641 0.191409
0.798459 0.442420 0.195224
0.836973 0.440528 0.199924
0.872831 0.438514 0.205509
0.906584 0.436927 0.212192
0.938262 0.435340 0.219089
0.967651 0.434211 0.226535
0.994598 0.433570 0.234348
1.000000 0.433417 0.242649
1.000000 0.434028 0.251072
1.000000 0.435431 0.260227
1.000000 0.437842 0.270024
1.000000 0.441382 0.280858
1.000000 0.445899 0.292485
0.000000 0.564599 0.235569
0.000000 0.564569 0.235874
0.000000 0.564294 0.236851
0.000000 0.563592 0.239139
0.072267 0.562799 0.242618
0.171176 0.561395 0.247471
0.233463 0.560174 0.253605
0.279484 0.548638 0.238071
0.322026 0.534600 0.219608
0.363104 0.520287 0.199405
0.400244 0.502373 0.175387
0.432013 0.480842 0.147982
0.480995 0.477638 0.120333
0.502342 0.450965 0.080751
0.559533 0.462928 0.111818
0.618830 0.474952 0.136110
0.676997 0.485359 0.159854
0.733455 0.494514 0.183383
0.786557 0.502556 0.207614
0.834928 0.509453 0.231846
0.870054 0.505852 0.237491
0.902007 0.501701 0.242588
0.931823 0.497719 0.248051
0.959655 0.494392 0.254490
0.985443 0.491402 0.260990
1.000000 0.488808 0.267765
1.000000 0.486427 0.274418
1.000000 0.484962 0.281529
1.000000 0.484321 0.289586
1.000000 0.484718 0.298161
1.000000 0.486213 0.307836
1.000000 0.488991 0.318486
0.000000 0.647486 0.282567
0.000000 0.647395 0.282658
0.000000 0.646632 0.283513
0.000000 0.646265 0.285527
0.116457 0.645197 0.288762
0.195895 0.644068 0.293400
0.258488 0.643275 0.299870
0.309758 0.638300 0.296757
0.353063 0.627161 0.278264
0.395422 0.613581 0.256687
0.436255 0.597681 0.231846
0.473701 0.578363 0.204166
0.505303 0.554620 0.172305
0.528405 0.525048 0.135500
0.543572 0.492287 0.088991
0.598322 0.500816 0.113039
0.656062 0.511406 0.140169
0.711727 0.520256 0.166018
0.764767 0.527947 0.191257
0.813382 0.534234 0.216770
0.857450 0.539696 0.242191
0.895689 0.542870 0.263371
0.924895 0.538170 0.268132
0.952514 0.534051 0.273289
0.978180 0.530236 0.279179
1.000000 0.527031 0.285374
1.000000 0.524224 0.291966
1.000000 0.521996 0.298772
1.000000 0.520745 0.306340
1.000000 0.520531 0.315038
1.000000 0.521233 0.324346
1.000000 0.523156 0.335119
0.000000 0.714229 0.333135
0.000000 0.713832 0.333074
0.000000 0.712856 0.333471
0.117861 0.711421 0.334386
0.180392 0.709499 0.336431
0.235477 0.707332 0.339757
0.288914 0.705348 0.344640
0.340276 0.703517 0.351324
0.378912 0.693904 0.334417
0.417609 0.681880 0.312413
0.456886 0.667720 0.287694
0.494972 0.650599 0.260319
0.529686 0.629786 0.228763
0.558434 0.604364 0.193332
0.578729 0.573053 0.151919
0.590509 0.537499 0.101808
0.633967 0.535241 0.114290
0.689357 0.544366 0.144442
0.742855 0.552270 0.172305
0.792294 0.558587 0.199588
0.837583 0.563867 0.226596
0.879088 0.568841 0.253422
0.916594 0.573938 0.280278
0.947387 0.574487 0.296361
0.972747 0.570123 0.301579
0.996429 0.566369 0.307103
1.000000 0.562921 0.313054
1.000000 0.560052 0.319677
1.000000 0.557977 0.326879
1.000000 0.557092 0.335058
1.000000 0.557153 0.344427
1.000000 0.558312 0.355016
0.182284 0.765835 0.386725
0.186191 0.765591 0.386633
0.197543 0.764706 0.386572
0.221408 0.763119 0.386877
0.253269 0.760891 0.387884
0.290440 0.758328 0.390051
0.331670 0.756039 0.393683
0.375708 0.753902 0.399481
0.415076 0.749477 0.396765
0.446876 0.739376 0.374548
0.481025 0.727718 0.350256
0.516686 0.713741 0.322484
0.551232 0.696742 0.291539
0.582818 0.675349 0.256321
0.608667 0.648707 0.216342
0.626062 0.616052 0.171298
0.635798 0.579553 0.117250
0.667567 0.567315 0.115694
0.721279 0.575525 0.149172
0.771756 0.582269 0.179629
0.818235 0.587701 0.208957
0.861234 0.592676 0.237186
0.900206 0.597345 0.265385
0.935302 0.602167 0.293339
0.966430 0.607172 0.321050
0.990997 0.605310 0.331762
1.000000 0.601404 0.337377
1.000000 0.598322 0.343938
1.000000 0.596094 0.351202
1.000000 0.594903 0.359777
1.000000 0.594873 0.369787
1.000000 0.595911 0.381109
0.284764 0.805661 0.440620
0.287388 0.805661 0.440894
0.294621 0.805203 0.441291
0.308202 0.804349 0.441932
0.329351 0.803006 0.443488
0.356451 0.801419 0.446082
0.388922 0.800015 0.450385
0.425299 0.798581 0.456428
0.464546 0.797238 0.464302
0.490089 0.790372 0.447852
0.515435 0.780484 0.422461
0.543481 0.768368 0.393652
0.573053 0.753475 0.361273
0.602258 0.735134 0.325170
0.629145 0.712764 0.284855
0.651759 0.685725 0.241093
0.667933 0.653376 0.191958
0.677058 0.617517 0.135470
0.697627 0.596033 0.116976
0.749508 0.603662 0.154421
0.797910 0.610071 0.187106
0.842863 0.615534 0.218418
0.883787 0.620569 0.248692
0.920806 0.625330 0.278416
0.953674 0.630121 0.307958
0.982788 0.635218 0.337407
1.000000 0.640650 0.366674
1.000000 0.637110 0.372717
1.000000 0.634394 0.379797
1.000000 0.632593 0.387823
1.000000 0.631678 0.397101
1.000000 0.631769 0.407660
0.369177 0.837858 0.495399
0.370703 0.837736 0.495491
0.375128 0.837400 0.495827
0.384924 0.836790 0.496651
0.399786 0.835813 0.498299
0.419745 0.834714 0.500725
0.444526 0.833402 0.504540
0.473396 0.831998 0.509758
0.504967 0.830625 0.516320
0.533745 0.827726 0.516381
0.551446 0.819852 0.492653
0.571984 0.810330 0.465034
0.595087 0.798550 0.433295
0.620050 0.783993 0.397833
0.645594 0.766201 0.358373
0.669947 0.744564 0.315099
0.691188 0.718898 0.268193
0.707301 0.688441 0.216953
0.717983 0.654719 0.157809
0.727993 0.624567 0.121492
0.777951 0.631861 0.161440
0.824643 0.637964 0.196780
0.867308 0.643275 0.229709
0.906004 0.648188 0.261692
0.940551 0.652857 0.292943
0.971191 0.657588 0.324163
0.998413 0.662654 0.355291
1.000000 0.668330 0.386603
1.000000 0.672236 0.411749
1.000000 0.670069 0.419654
1.000000 0.668757 0.428809
1.000000 0.668330 0.439246
0.446204 0.866209 0.551995
0.447272 0.866331 0.552392
0.488655 0.879057 0.582727
0.494759 0.878599 0.583459
0.504417 0.877806 0.584649
0.517632 0.876707 0.586511
0.534264 0.875395 0.589166
0.554467 0.873960 0.592859
0.577813 0.872496 0.597955
0.603632 0.871031 0.604303
0.618097 0.865995 0.590600
0.630091 0.858427 0.565515
0.644434 0.848936 0.535485
0.661189 0.837186 0.500084
0.679835 0.822843 0.459358
0.700038 0.805417 0.413794
0.720577 0.784298 0.364324
0.739620 0.759426 0.311833
0.755001 0.730220 0.255711
0.767056 0.698329 0.191806
0.767727 0.660060 0.134096
0.814603 0.666102 0.176455
0.857755 0.671107 0.213535
0.896727 0.675349 0.248295
0.931395 0.679011 0.281315
0.962158 0.682612 0.313390
0.989654 0.686397 0.344945
1.000000 0.690730 0.376837
1.000000 0.695979 0.409339
1.000000 0.702388 0.442878
1.000000 0.704921 0.463691
1.000000 0.704005 0.473762
0.522911 0.893187 0.613275
0.526696 0.894163 0.615961
0.532555 0.895048 0.619104
0.540337 0.895598 0.622187
0.550011 0.895689 0.625177
0.561242 0.895140 0.627497
0.574762 0.894072 0.629938
0.590753 0.892821 0.632807
0.609369 0.891478 0.636805
0.630335 0.890043 0.641779
0.649958 0.887907 0.643183
0.657801 0.881895 0.622187
0.667414 0.874388 0.596246
0.679500 0.865293 0.565911
0.694057 0.854215 0.530877
0.710811 0.840757 0.490181
0.729274 0.824674 0.444068
0.748653 0.805631 0.394049
0.767697 0.783169 0.340887
0.784268 0.756954 0.284245
0.796353 0.726406 0.221195
0.800259 0.690974 0.155642
0.839445 0.691402 0.185550
0.880217 0.696101 0.224582
0.916564 0.700038 0.260288
0.948974 0.703548 0.294682
0.977874 0.706966 0.328252
1.000000 0.710811 0.361730
1.000000 0.715419 0.395453
1.000000 0.720943 0.430152
1.000000 0.727626 0.466133
1.000000 0.735225 0.502251
0.573266 0.910918 0.655268
0.576623 0.911833 0.657771
0.581659 0.912688 0.660731
0.588037 0.913268 0.663630
0.596033 0.913420 0.666377
0.605158 0.912993 0.668513
0.615625 0.912200 0.670497
0.628351 0.911070 0.672877
0.643244 0.909880 0.676081
0.659998 0.908598 0.679896
0.678401 0.907256 0.684596
0.688777 0.903593 0.675166
0.695094 0.897734 0.654200
0.703456 0.890623 0.629206
0.713741 0.882017 0.599420
0.726375 0.871733 0.564599
0.741421 0.859312 0.524407
0.758389 0.844602 0.478645
0.776730 0.827329 0.427955
0.795407 0.807095 0.373480
0.812558 0.783261 0.315465
0.826169 0.755428 0.252232
0.833585 0.723415 0.185336
0.863584 0.716365 0.196170
0.901671 0.720699 0.236545
0.935668 0.724331 0.273777
0.966003 0.727626 0.309453
0.993286 0.731136 0.344701
1.000000 0.735164 0.380407
1.000000 0.740017 0.416480
1.000000 0.745815 0.453773
1.000000 0.752438 0.491279
0.619471 0.927428 0.694728
0.622126 0.928130 0.696803
0.626001 0.928801 0.699123
0.631159 0.929229 0.701534
0.637415 0.929351 0.703731
0.644526 0.929015 0.705470
0.652918 0.928374 0.707149
0.663020 0.927459 0.709194
0.674952 0.926513 0.711757
0.688655 0.925414 0.714931
0.703761 0.924254 0.718746
0.718685 0.922728 0.721187
0.722713 0.918120 0.704433
0.728237 0.912566 0.684504
0.735561 0.905852 0.660700
0.744839 0.898039 0.632471
0.756466 0.888792 0.599542
0.770626 0.877958 0.561273
0.787167 0.865354 0.518517
0.805539 0.850614 0.469978
0.824796 0.833341 0.415961
0.843534 0.812955 0.357641
0.859861 0.788846 0.293431
0.871122 0.760433 0.225650
0.893980 0.747341 0.217288
0.929473 0.751583 0.260197
0.960998 0.755184 0.300206
0.989227 0.758663 0.338933
1.000000 0.762448 0.377661
1.000000 0.766781 0.416754
1.000000 0.771847 0.456580
1.000000 0.777584 0.496101
0.673610 0.946410 0.741756
0.674708 0.946654 0.742519
0.676448 0.946746 0.743282
0.679011 0.946654 0.744015
0.682704 0.946380 0.744747
0.687343 0.945861 0.745449
0.693507 0.945159 0.746487
0.701228 0.944396 0.747890
0.710536 0.943542 0.749813
0.721401 0.942718 0.752468
0.733608 0.941772 0.755612
0.746822 0.940764 0.759182
0.754269 0.938201 0.753231
0.757595 0.933898 0.737667
0.762173 0.928740 0.718929
0.768368 0.922667 0.696742
0.776425 0.915465 0.670405
0.786648 0.907042 0.639429
0.799161 0.897246 0.602960
0.814084 0.885771 0.560693
0.831022 0.872251 0.512566
0.849271 0.856413 0.458259
0.867704 0.837736 0.397009
0.884733 0.815549 0.330449
0.898405 0.789944 0.260380
0.915557 0.771389 0.230747
0.948882 0.775387 0.275486
0.978668 0.778988 0.317815
1.000000 0.782559 0.359045
1.000000 0.786374 0.400061
1.000000 0.790646 0.441596
1.000000 0.795499 0.483131
0.708034 0.959045 0.771847
0.708858 0.959197 0.772396
0.710262 0.959289 0.773068
0.712428 0.959228 0.773709
0.715358 0.959014 0.774350
0.719234 0.958618 0.775021
0.724178 0.958068 0.775875
0.730404 0.957458 0.777035
0.738003 0.956786 0.778714
0.746944 0.956054 0.780850
0.756985 0.955291 0.783413
0.767971 0.954467 0.786343
0.779416 0.953491 0.789181
0.781491 0.950195 0.777066
0.784512 0.946319 0.762783
0.788632 0.941711 0.745693
0.794400 0.936309 0.725429
0.801846 0.930022 0.701503
0.811429 0.922637 0.673152
0.823117 0.914031 0.639643
0.837156 0.903960 0.600214
0.853330 0.892149 0.554253
0.871275 0.878202 0.501396
0.890043 0.861784 0.440925
0.904997 0.838743 0.365454
0.921294 0.816403 0.293706
0.934936 0.793790 0.243076
0.966400 0.797696 0.289921
0.994720 0.801236 0.334417
1.000000 0.804807 0.378058
1.000000 0.808713 0.422095
1.000000 0.812955 0.466194
0.744747 0.971923 0.803464
0.745876 0.972137 0.804318
0.746975 0.972198 0.804776
0.748196 0.972045 0.804898
0.749874 0.971649 0.804868
0.752224 0.971130 0.804776
0.755276 0.970459 0.804746
0.759426 0.969665 0.804959
0.764767 0.968841 0.805539
0.771267 0.967987 0.806546
0.778714 0.967071 0.807858
0.787320 0.966155 0.809689
0.796689 0.965179 0.811795
0.802090 0.963226 0.807828
0.803281 0.959960 0.795712
0.805417 0.956207 0.781582
0.808865 0.951781 0.765011
0.813931 0.946777 0.745815
0.820951 0.941131 0.723476
0.830106 0.934630 0.697475
0.841428 0.927123 0.666865
0.854887 0.918273 0.630274
0.870359 0.907713 0.586328
0.887633 0.895140 0.534722
0.906065 0.880125 0.474739
0.924681 0.862242 0.405524
0.943420 0.843076 0.331456
0.954772 0.817014 0.258366
0.984314 0.820371 0.306645
1.000000 0.823545 0.353338
1.000000 0.826871 0.399329
1.000000 0.830686 0.446296
0.768307 0.980407 0.823484
0.769192 0.980621 0.824186
0.770291 0.980682 0.824704
0.771572 0.980621 0.825040
0.773312 0.980407 0.825345
0.775692 0.980102 0.825681
0.778897 0.979706 0.826169
0.782895 0.979278 0.826932
0.787869 0.978820 0.827939
0.793759 0.978271 0.829282
0.800381 0.977661 0.830808
0.807828 0.976959 0.832609
0.815824 0.976196 0.834531
0.824338 0.975341 0.836545
0.825101 0.972961 0.827481
0.826139 0.970123 0.816373
0.828000 0.966827 0.803403
0.831205 0.963043 0.788479
0.835904 0.958801 0.771267
0.842435 0.953979 0.751308
0.850858 0.948394 0.727749
0.861326 0.941894 0.699855
0.873899 0.934234 0.666377
0.888701 0.925139 0.625879
0.905577 0.914366 0.577173
0.924254 0.901579 0.519799
0.943969 0.886473 0.452918
0.965667 0.870939 0.377935
0.979644 0.847684 0.303532
1.000000 0.846494 0.333806
1.000000 0.849454 0.384009
1.000000 0.852476 0.434089
0.793759 0.988708 0.844755
0.794278 0.988769 0.845060
0.794888 0.988800 0.845274
0.795834 0.988678 0.845487
0.797177 0.988525 0.845670
0.799069 0.988251 0.845884
0.801541 0.987915 0.846220
0.804715 0.987518 0.846738
0.808743 0.987060 0.847501
0.813565 0.986603 0.848569
0.819059 0.986053 0.849760
0.825315 0.985473 0.851255
0.832059 0.984833 0.852903
0.839231 0.984100 0.854582
0.843534 0.982818 0.852140
0.843870 0.980743 0.843198
0.844877 0.978332 0.832944
0.846769 0.975555 0.821073
0.849943 0.972412 0.807675
0.854429 0.968872 0.792203
0.860563 0.964813 0.774258
0.868376 0.960052 0.752956
0.878050 0.954467 0.727413
0.889860 0.947814 0.696437
0.903929 0.939971 0.658991
0.920256 0.930663 0.613458
0.938933 0.919677 0.558618
0.959228 0.906767 0.494270
0.983276 0.894652 0.420691
0.999725 0.874571 0.347356
1.000000 0.869749 0.358129
1.000000 0.872282 0.411963
0.814511 0.994995 0.861723
0.814847 0.995026 0.861967
0.815457 0.995026 0.862211
0.816373 0.994995 0.862486
0.817746 0.994873 0.862852
0.819760 0.994781 0.863432
0.822721 0.994690 0.864408
0.826383 0.994568 0.865751
0.830900 0.994415 0.867369
0.835996 0.994263 0.869230
0.841703 0.994079 0.871305
0.847837 0.993835 0.873472
0.854246 0.993500 0.875669
0.860838 0.993072 0.877745
0.867582 0.992523 0.879728
0.868315 0.991333 0.873930
0.868711 0.989807 0.866239
0.869657 0.988037 0.857328
0.871489 0.986023 0.847349
0.874327 0.983734 0.835874
0.878355 0.981048 0.822690
0.883696 0.977935 0.807279
0.890471 0.974212 0.788815
0.898985 0.969848 0.766720
0.909667 0.964630 0.739925
0.922759 0.958495 0.707332
0.938476 0.951263 0.667506
0.956970 0.942779 0.618921
0.978119 0.932860 0.559472
1.000000 0.923796 0.490333
1.000000 0.907927 0.420233
1.000000 0.900267 0.410925
0.841398 1.000000 0.883207
0.841459 1.000000 0.883207
0.841703 1.000000 0.883238
0.842191 1.000000 0.883268
0.843076 1.000000 0.883391
0.844358 1.000000 0.883574
0.846159 1.000000 0.883940
0.848478 1.000000 0.884459
0.851377 1.000000 0.885222
0.854856 0.999695 0.886137
0.858854 0.999359 0.887205
0.863310 0.998993 0.888457
0.868223 0.998566 0.889799
0.873411 0.998047 0.891203
