20 Preset/Japan Style/【3】LUT video cho PR-AE-FCPX/LUT VIDEO/Japan Style LUT (18).cube
# Created by Adobe Lightroom plugin Export LUT (1.24.0)
# www.johnrellis.com/lightroom/exportlut.htm
# Preset: 18日系清新（素材江湖）
# Color profile: C:\Program Files (x86)\Common Files\Adobe\Color\Profiles\Recommended\VideoHD.icc
LUT_3D_SIZE 32
DOMAIN_MIN 0.0 0.0 0.0
DOMAIN_MAX 1.0 1.0 1.0
0.000000 0.000000 0.000000
0.003967 0.000000 0.000000
0.033997 0.000549 0.002655
0.089143 0.007904 0.006073
0.138888 0.025086 0.011444
0.206912 0.051514 0.014893
0.280003 0.089204 0.013855
0.354406 0.109682 0.012390
0.431983 0.130953 0.008942
0.513634 0.154818 0.005035
0.601343 0.180087 0.005524
0.692531 0.207767 0.007172
0.780423 0.235050 0.026795
0.860594 0.262486 0.066499
0.926024 0.287785 0.106477
0.978546 0.311192 0.139773
1.000000 0.334234 0.172732
1.000000 0.356542 0.206241
1.000000 0.377630 0.236881
1.000000 0.403601 0.274449
1.000000 0.428992 0.310887
1.000000 0.452125 0.343084
1.000000 0.472969 0.371862
1.000000 0.492103 0.397620
1.000000 0.509880 0.421363
1.000000 0.526818 0.443580
1.000000 0.542809 0.464027
1.000000 0.558312 0.483925
1.000000 0.573419 0.503075
1.000000 0.588281 0.521660
1.000000 0.602747 0.539452
1.000000 0.617517 0.557733
0.000275 0.002167 0.000824
0.002258 0.001953 0.000824
0.032441 0.006348 0.001892
0.089296 0.013489 0.005310
0.137972 0.032319 0.010529
0.204288 0.062928 0.016022
0.275456 0.092866 0.015900
0.348089 0.112581 0.014313
0.424353 0.133425 0.010925
0.504570 0.156039 0.008240
0.590112 0.181369 0.010224
0.680415 0.207950 0.010925
0.768246 0.235050 0.027161
0.849729 0.261967 0.065705
0.916655 0.286931 0.105287
0.970977 0.310491 0.138369
1.000000 0.333471 0.170809
1.000000 0.355291 0.203647
1.000000 0.376532 0.234501
1.000000 0.401373 0.270237
1.000000 0.426001 0.305333
1.000000 0.448005 0.336706
1.000000 0.468269 0.364660
1.000000 0.487068 0.390387
1.000000 0.504479 0.413519
1.000000 0.520775 0.435004
1.000000 0.536858 0.456092
1.000000 0.552636 0.476417
1.000000 0.567742 0.495521
1.000000 0.582849 0.514488
1.000000 0.597772 0.533013
1.000000 0.612573 0.551354
0.000000 0.028016 0.015473
0.003937 0.028107 0.016419
0.023560 0.030457 0.013458
0.086915 0.041718 0.013977
0.138613 0.068635 0.017945
0.202853 0.094789 0.020844
0.272343 0.111879 0.020905
0.343328 0.129427 0.020325
0.417762 0.148959 0.021454
0.496529 0.169924 0.021698
0.581048 0.193637 0.023529
0.671138 0.219181 0.025727
0.758175 0.245426 0.044190
0.840085 0.271550 0.081117
0.908476 0.295293 0.110842
0.963622 0.318151 0.141665
1.000000 0.339727 0.173678
1.000000 0.361059 0.205478
1.000000 0.381323 0.235935
1.000000 0.405737 0.271336
1.000000 0.429236 0.305577
1.000000 0.450599 0.336278
1.000000 0.469978 0.363989
1.000000 0.488014 0.388983
1.000000 0.504967 0.412055
1.000000 0.520745 0.433265
1.000000 0.536828 0.454261
1.000000 0.552331 0.474372
1.000000 0.567376 0.493751
1.000000 0.582422 0.512779
1.000000 0.597009 0.531090
1.000000 0.611872 0.549554
0.000000 0.081147 0.050904
0.000031 0.082094 0.051698
0.022156 0.086213 0.050385
0.075288 0.090669 0.042359
0.136477 0.104555 0.037537
0.202243 0.126528 0.033936
0.269200 0.142306 0.035554
0.337835 0.158572 0.038056
0.411292 0.176364 0.040131
0.488716 0.196078 0.044678
0.572259 0.217929 0.051514
0.660090 0.242039 0.058625
0.747341 0.266545 0.082124
0.828885 0.291112 0.100465
0.897795 0.313115 0.123018
0.953826 0.334203 0.151034
0.999634 0.353704 0.181399
1.000000 0.373419 0.210605
1.000000 0.392157 0.240482
1.000000 0.414740 0.274723
1.000000 0.435370 0.306035
1.000000 0.455055 0.335790
1.000000 0.473457 0.362615
1.000000 0.490883 0.387579
1.000000 0.507561 0.410986
1.000000 0.524163 0.433875
1.000000 0.540551 0.455695
1.000000 0.556176 0.476570
1.000000 0.571313 0.496254
1.000000 0.586206 0.515373
1.000000 0.600458 0.533532
1.000000 0.614343 0.550958
0.000000 0.126497 0.099245
0.000000 0.127016 0.099458
0.000000 0.129671 0.099794
0.040253 0.131502 0.092042
0.117708 0.138094 0.087556
0.188144 0.150393 0.073457
0.256046 0.173129 0.068452
0.326635 0.193027 0.066468
0.397772 0.209354 0.073487
0.473426 0.227787 0.082551
0.554803 0.248051 0.089570
0.641993 0.271092 0.095460
0.728542 0.294102 0.106050
0.811460 0.317601 0.120119
0.882902 0.338476 0.141024
0.941161 0.358221 0.166354
0.989349 0.376074 0.193668
1.000000 0.393652 0.222477
1.000000 0.411872 0.252415
1.000000 0.431678 0.285100
1.000000 0.450477 0.314977
1.000000 0.468086 0.342718
1.000000 0.485054 0.369329
1.000000 0.501244 0.393683
1.000000 0.517296 0.416938
1.000000 0.533379 0.439826
1.000000 0.548852 0.461372
1.000000 0.563867 0.481819
1.000000 0.578332 0.501152
1.000000 0.592340 0.519554
1.000000 0.606134 0.537621
1.000000 0.619409 0.554589
0.000000 0.171420 0.132601
0.000000 0.172000 0.132692
0.000000 0.173739 0.132418
0.030793 0.177157 0.132998
0.091859 0.176699 0.120607
0.157748 0.186038 0.115114
0.234592 0.195956 0.103914
0.306981 0.220066 0.103822
0.384924 0.246799 0.102876
0.461769 0.266606 0.108034
0.542199 0.286442 0.114076
0.628962 0.308965 0.120974
0.715511 0.331426 0.131594
0.798734 0.353613 0.145480
0.871458 0.373449 0.164370
0.931487 0.390661 0.188479
0.980468 0.406836 0.213809
1.000000 0.422187 0.241154
1.000000 0.439704 0.271763
1.000000 0.456977 0.302647
1.000000 0.473457 0.331212
1.000000 0.489326 0.358221
1.000000 0.537224 0.429572
1.000000 0.552819 0.453529
1.000000 0.567193 0.475349
1.000000 0.580804 0.495155
1.000000 0.593652 0.513664
1.000000 0.605829 0.530510
1.000000 0.618006 0.547051
1.000000 0.629694 0.562707
1.000000 0.641169 0.577905
1.000000 0.652247 0.592309
0.000000 0.225376 0.174166
0.000000 0.225834 0.174044
0.000000 0.227024 0.173800
0.000000 0.229984 0.174044
0.088045 0.231754 0.168673
0.134218 0.228733 0.158450
0.204929 0.242008 0.151247
0.289830 0.252689 0.138247
0.370184 0.279149 0.141054
0.457923 0.311131 0.143862
0.553124 0.344030 0.145937
0.642267 0.366888 0.155856
0.729274 0.388434 0.167697
0.811063 0.408545 0.181765
0.879942 0.425147 0.200351
0.936431 0.438483 0.223117
0.983215 0.451270 0.246921
1.000000 0.465492 0.275181
1.000000 0.482582 0.308080
1.000000 0.498421 0.339849
1.000000 0.514488 0.370336
1.000000 0.530663 0.399817
1.000000 0.547326 0.428962
1.000000 0.563714 0.455970
1.000000 0.578943 0.480293
1.000000 0.592706 0.501488
1.000000 0.604700 0.519585
1.000000 0.616175 0.536645
1.000000 0.627192 0.552331
1.000000 0.637842 0.567437
1.000000 0.648493 0.582055
1.000000 0.658900 0.596124
0.000000 0.267338 0.207614
0.000000 0.267552 0.207675
0.000000 0.268498 0.207340
0.000000 0.270726 0.207279
0.052766 0.273655 0.207675
0.119783 0.273259 0.194644
0.171298 0.269291 0.189944
0.243259 0.286442 0.182528
0.328649 0.300237 0.171664
0.414862 0.325505 0.174624
0.508446 0.361761 0.180514
0.610437 0.400885 0.184665
0.703822 0.429664 0.193637
0.786435 0.449317 0.207279
0.857664 0.464729 0.224796
0.916320 0.476722 0.245274
0.966033 0.488350 0.269108
1.000000 0.502831 0.299229
1.000000 0.515679 0.329107
1.000000 0.528252 0.357946
1.000000 0.541253 0.386084
1.000000 0.554742 0.414099
1.000000 0.569116 0.442023
1.000000 0.583368 0.468086
1.000000 0.596948 0.491615
1.000000 0.609033 0.512016
1.000000 0.620050 0.529992
1.000000 0.630091 0.546014
1.000000 0.640284 0.561669
1.000000 0.650263 0.576532
1.000000 0.659998 0.590661
1.000000 0.669886 0.604608
0.000000 0.309483 0.241978
0.000000 0.309819 0.241978
0.000000 0.310521 0.241855
0.000000 0.312322 0.241703
0.000000 0.314733 0.241581
0.128847 0.317418 0.240269
0.150546 0.314702 0.221775
0.208408 0.313054 0.220584
0.281254 0.331731 0.214481
0.371740 0.350317 0.204501
0.461616 0.373175 0.206790
0.560388 0.413886 0.215427
0.663325 0.454170 0.223362
0.761593 0.490883 0.233341
0.835996 0.507469 0.250034
0.898070 0.519371 0.271031
0.953796 0.532372 0.298222
0.997742 0.543084 0.325689
1.000000 0.552605 0.352819
1.000000 0.562219 0.380011
1.000000 0.572503 0.406989
1.000000 0.583734 0.433997
1.000000 0.595697 0.460548
1.000000 0.607691 0.485267
1.000000 0.619165 0.507561
1.000000 0.629541 0.527031
1.000000 0.639216 0.544427
1.000000 0.648341 0.560174
1.000000 0.657313 0.575036
1.000000 0.666072 0.589075
1.000000 0.675196 0.603143
1.000000 0.683955 0.616175
0.000000 0.352697 0.276799
0.000000 0.352667 0.276585
0.000000 0.353185 0.276402
0.000000 0.354376 0.276066
0.000000 0.356268 0.275639
0.092988 0.358740 0.275639
0.157992 0.358892 0.267338
0.182834 0.355413 0.249546
0.244450 0.356207 0.250248
0.319249 0.376410 0.244999
0.411841 0.397436 0.236515
0.504936 0.418097 0.236301
0.607080 0.461738 0.247593
0.707942 0.502159 0.259709
0.805234 0.540307 0.276768
0.881804 0.565850 0.299474
0.936980 0.576226 0.325689
0.981659 0.584588 0.352850
1.000000 0.591913 0.379522
1.000000 0.599207 0.406256
1.000000 0.606744 0.431525
1.000000 0.614862 0.456275
1.000000 0.623224 0.479408
1.000000 0.631952 0.500908
1.000000 0.640650 0.521111
1.000000 0.648890 0.538933
1.000000 0.657221 0.556085
1.000000 0.665217 0.571405
1.000000 0.673518 0.586419
1.000000 0.682094 0.601221
1.000000 0.690608 0.615229
1.000000 0.698909 0.628382
0.000000 0.393622 0.309422
0.000000 0.393652 0.309392
0.000000 0.394354 0.309270
0.000000 0.395514 0.308965
0.000000 0.397284 0.308721
0.000000 0.399969 0.308629
0.154818 0.403326 0.309453
0.184970 0.401190 0.293706
0.220249 0.396826 0.280308
0.281254 0.401709 0.280491
0.359655 0.423651 0.275456
0.454170 0.447028 0.268162
0.553765 0.467445 0.266667
0.660792 0.515557 0.283391
0.762570 0.558099 0.301946
0.846891 0.590265 0.324895
0.913787 0.614252 0.351263
0.962188 0.625208 0.378363
0.998352 0.630274 0.404089
1.000000 0.635157 0.429908
1.000000 0.640284 0.454353
1.000000 0.645930 0.477638
1.000000 0.652369 0.499733
1.000000 0.659113 0.520623
1.000000 0.665980 0.539544
1.000000 0.672999 0.557397
1.000000 0.679805 0.573388
1.000000 0.686824 0.588525
1.000000 0.694087 0.603296
1.000000 0.701472 0.617273
1.000000 0.709041 0.630762
1.000000 0.716274 0.643244
0.000000 0.438575 0.344701
0.000000 0.438727 0.344640
0.000000 0.439155 0.344518
0.000000 0.440345 0.344335
0.000000 0.442176 0.344152
0.000000 0.444526 0.343999
0.095003 0.447852 0.344213
0.188693 0.449928 0.340429
0.210300 0.446296 0.320623
0.256229 0.440772 0.311833
0.321538 0.452644 0.312749
0.406439 0.479622 0.310399
0.542962 0.543023 0.326268
0.651637 0.560449 0.324193
0.758572 0.607263 0.349920
0.844602 0.641413 0.380560
0.910307 0.665217 0.412970
0.960143 0.682734 0.444892
0.997894 0.696345 0.474861
1.000000 0.697749 0.498177
1.000000 0.699733 0.520378
1.000000 0.702296 0.540368
1.000000 0.705318 0.558618
1.000000 0.709255 0.576318
1.000000 0.713283 0.591974
1.000000 0.717372 0.606195
1.000000 0.721096 0.618433
1.000000 0.725093 0.629999
1.000000 0.729335 0.640864
1.000000 0.733913 0.651514
1.000000 0.738735 0.661738
1.000000 0.743893 0.671809
0.000000 0.498817 0.391333
0.000000 0.498756 0.391211
0.000000 0.498634 0.390723
0.000000 0.499001 0.389929
0.000000 0.499550 0.388769
0.000000 0.500572 0.387488
0.000000 0.504631 0.388037
0.162875 0.509972 0.389746
0.217685 0.511315 0.379278
0.240543 0.509575 0.358648
0.303105 0.505882 0.356847
0.377111 0.526238 0.359167
0.471870 0.557702 0.359930
0.580987 0.588891 0.358251
0.688624 0.607843 0.356939
0.786435 0.642786 0.382818
0.862028 0.672175 0.416236
0.919738 0.692714 0.449592
0.963745 0.707881 0.480537
0.997436 0.719814 0.508965
1.000000 0.726375 0.533074
1.000000 0.727382 0.553246
1.000000 0.729030 0.571740
1.000000 0.731472 0.588830
1.000000 0.734371 0.604791
1.000000 0.737514 0.618952
1.000000 0.740597 0.631647
1.000000 0.743923 0.643366
1.000000 0.747524 0.654383
1.000000 0.751583 0.665126
1.000000 0.755795 0.675288
1.000000 0.760555 0.685573
0.000000 0.552026 0.432349
0.000000 0.551812 0.432136
0.000000 0.551598 0.431495
0.000000 0.551598 0.430518
0.000000 0.551995 0.429328
0.000000 0.553002 0.428229
0.000000 0.555077 0.427375
0.027405 0.558038 0.427192
0.220432 0.562219 0.428168
0.244175 0.559503 0.408026
0.267124 0.557336 0.386419
0.340520 0.551995 0.389807
0.418708 0.576074 0.392157
0.513176 0.605646 0.393194
0.618677 0.634058 0.391913
0.720394 0.650477 0.389563
0.807126 0.672175 0.413031
0.873991 0.697749 0.448524
0.925872 0.716182 0.481910
0.965515 0.729915 0.512566
0.996216 0.741024 0.540520
1.000000 0.750698 0.566339
1.000000 0.753719 0.586542
1.000000 0.755062 0.604059
1.000000 0.756863 0.619837
1.000000 0.759030 0.633997
1.000000 0.761227 0.646509
1.000000 0.763699 0.658137
1.000000 0.766537 0.669001
1.000000 0.769772 0.679347
1.000000 0.773617 0.689967
1.000000 0.777829 0.700130
0.000000 0.602045 0.471473
0.000000 0.601923 0.471260
0.000000 0.601373 0.470436
0.000000 0.600671 0.468910
0.000000 0.600031 0.467048
0.000000 0.599756 0.465095
0.000000 0.600366 0.463416
0.000000 0.602136 0.462531
0.172396 0.605066 0.462806
0.252445 0.606226 0.456153
0.274876 0.603479 0.435340
0.310796 0.600122 0.418952
0.378271 0.593774 0.421820
0.458717 0.621332 0.424598
0.551171 0.648371 0.425238
0.650172 0.672175 0.424292
0.745388 0.685969 0.421881
0.822965 0.697139 0.442054
0.883726 0.720272 0.478523
0.930510 0.737057 0.512078
0.966674 0.750057 0.542779
0.994934 0.760983 0.570947
1.000000 0.770443 0.596399
1.000000 0.778134 0.618585
1.000000 0.778805 0.634119
1.000000 0.779965 0.648249
1.000000 0.781399 0.660853
1.000000 0.783413 0.672969
1.000000 0.785946 0.684352
1.000000 0.789120 0.695613
1.000000 0.792905 0.706874
1.000000 0.797116 0.717891
0.000000 0.644526 0.504997
0.000000 0.644648 0.504967
0.000000 0.644556 0.504509
0.000000 0.644404 0.503716
0.000000 0.644221 0.502281
0.000000 0.644465 0.501030
0.000000 0.645594 0.500053
0.000000 0.647456 0.499672
0.099947 0.649989 0.500237
0.254215 0.653162 0.502068
0.292271 0.650752 0.486732
0.312352 0.646448 0.464820
0.355810 0.639796 0.452216
0.418097 0.635187 0.453040
0.495583 0.659297 0.454383
0.581994 0.681331 0.454810
0.673793 0.700984 0.454017
0.766232 0.716762 0.451270
0.834226 0.717311 0.466896
0.890196 0.738918 0.504570
0.933532 0.755215 0.539117
0.967315 0.768338 0.570916
0.993469 0.779416 0.599725
1.000000 0.788815 0.624720
1.000000 0.796902 0.646540
1.000000 0.801114 0.663386
1.000000 0.802090 0.676631
1.000000 0.803464 0.688808
1.000000 0.805386 0.700404
1.000000 0.807828 0.711330
1.000000 0.810727 0.722011
1.000000 0.814145 0.732540
0.000000 0.681727 0.534966
0.000000 0.681697 0.534844
0.000000 0.681666 0.534478
0.000000 0.681544 0.533867
0.000000 0.681514 0.532830
0.000000 0.681788 0.531853
0.000000 0.682460 0.530999
0.000000 0.683497 0.530419
0.000000 0.684962 0.530510
0.224735 0.686763 0.531884
0.313787 0.687739 0.530785
0.330755 0.683558 0.510613
0.347112 0.678584 0.488258
0.396551 0.670710 0.480934
0.454994 0.669795 0.481239
0.529168 0.690578 0.482856
0.609735 0.709407 0.483864
0.694636 0.726436 0.484108
0.780179 0.740627 0.483131
0.845090 0.736538 0.492775
0.896635 0.757015 0.531029
0.936919 0.772915 0.566674
0.967864 0.785824 0.598901
0.992248 0.796689 0.627161
1.000000 0.805722 0.651087
1.000000 0.813596 0.671962
1.000000 0.820493 0.690150
1.000000 0.822446 0.703548
1.000000 0.823911 0.715358
1.000000 0.825895 0.726650
1.000000 0.828489 0.737728
1.000000 0.831571 0.748409
0.000000 0.716274 0.564233
0.000000 0.716518 0.564416
0.000000 0.737301 0.583154
0.000000 0.737148 0.582696
0.000000 0.736873 0.581964
0.000000 0.736446 0.581018
0.000000 0.736141 0.580224
0.000000 0.735988 0.579706
0.053315 0.736049 0.579797
0.253666 0.736324 0.581018
0.347173 0.736782 0.583520
0.387976 0.734371 0.574456
0.398871 0.729244 0.554101
0.409003 0.723049 0.531395
0.456764 0.713313 0.527123
0.508843 0.714412 0.526299
0.576226 0.730617 0.527398
0.648371 0.745357 0.527947
0.723537 0.758633 0.528191
0.800351 0.770138 0.527825
0.860563 0.765713 0.534386
0.906920 0.780301 0.569299
0.942443 0.794949 0.604486
0.970153 0.806668 0.634546
0.992035 0.816159 0.659602
1.000000 0.824002 0.680842
1.000000 0.830777 0.699245
1.000000 0.836912 0.715724
1.000000 0.841733 0.730098
1.000000 0.843107 0.741299
1.000000 0.845212 0.752407
1.000000 0.847868 0.763210
0.000000 0.750881 0.595666
0.000000 0.752560 0.597314
0.000000 0.754269 0.598932
0.000000 0.755673 0.600031
0.000000 0.756558 0.600763
0.000000 0.756619 0.600549
0.000000 0.756283 0.600122
0.000000 0.755795 0.599542
0.011658 0.755428 0.599634
0.242741 0.755215 0.600549
0.335454 0.755062 0.602533
0.410407 0.754879 0.605951
0.421515 0.750484 0.588891
0.429633 0.745174 0.568780
0.443793 0.738766 0.550439
0.487373 0.729366 0.547539
0.537682 0.733974 0.547478
0.600732 0.748806 0.549767
0.668055 0.762661 0.551751
0.737819 0.775235 0.553704
0.808957 0.786343 0.555077
0.866941 0.784909 0.562158
0.910796 0.794400 0.592615
0.943908 0.808591 0.627161
0.969940 0.819821 0.655940
0.990570 0.829038 0.680079
1.000000 0.836790 0.700771
1.000000 0.843687 0.719265
1.000000 0.850004 0.735805
1.000000 0.856046 0.751125
1.000000 0.859770 0.764065
1.000000 0.862242 0.775509
0.000000 0.771756 0.615717
0.000000 0.773251 0.617182
0.000000 0.774868 0.618860
0.000000 0.776150 0.620233
0.000000 0.776944 0.621088
0.000000 0.777035 0.621210
0.000000 0.776547 0.620813
0.000000 0.775937 0.620630
0.097749 0.775326 0.620722
0.248325 0.774685 0.621515
0.335302 0.774075 0.623285
0.407050 0.773495 0.626368
0.451514 0.771511 0.623438
0.457679 0.767025 0.606012
0.463966 0.761898 0.587304
0.483162 0.755245 0.573846
0.520043 0.746334 0.570611
0.568658 0.753964 0.571832
0.626856 0.767483 0.574792
0.688777 0.780087 0.577691
0.752926 0.791623 0.580743
0.817899 0.802029 0.583642
0.873167 0.802945 0.590723
0.914580 0.807950 0.615961
0.945495 0.821500 0.649073
0.969940 0.832364 0.676783
0.989349 0.841337 0.700099
1.000000 0.849210 0.720790
1.000000 0.856321 0.739345
1.000000 0.863035 0.756405
1.000000 0.869474 0.772274
1.000000 0.875792 0.787259
0.000000 0.791531 0.635492
0.000000 0.792782 0.636957
0.000000 0.794034 0.638331
0.000000 0.794980 0.639490
0.000000 0.795560 0.640314
0.000000 0.795499 0.640558
0.000000 0.795010 0.640375
0.000000 0.794308 0.640375
0.149233 0.793576 0.640772
0.264103 0.792782 0.641718
0.343297 0.791928 0.643427
0.410559 0.791043 0.646296
0.471382 0.789975 0.650690
0.489693 0.786740 0.640864
0.494240 0.782467 0.624445
0.498909 0.777768 0.606989
0.522545 0.771328 0.598810
0.554833 0.763760 0.596460
0.602930 0.774716 0.600580
0.657221 0.787778 0.605890
0.714199 0.800015 0.611353
0.772610 0.811276 0.616907
0.831327 0.821347 0.622095
0.883055 0.824613 0.629664
0.921508 0.826352 0.650599
0.949737 0.839536 0.682582
0.971923 0.850248 0.709377
0.989410 0.859434 0.732753
1.000000 0.867613 0.753536
1.000000 0.875151 0.772335
1.000000 0.882231 0.789517
1.000000 0.889097 0.805600
0.000000 0.817014 0.663355
0.000000 0.817441 0.663935
0.000000 0.817685 0.664332
0.000000 0.817685 0.664515
0.000000 0.817380 0.664515
0.000000 0.816739 0.664332
0.000000 0.815946 0.664240
0.079225 0.815061 0.664363
0.223239 0.814145 0.664912
0.304540 0.813199 0.666224
0.371588 0.812222 0.668330
0.432227 0.811093 0.671565
0.488014 0.809812 0.675776
0.531914 0.808194 0.678218
0.534997 0.804532 0.664363
0.538262 0.800443 0.649378
0.541650 0.796078 0.633661
0.566491 0.789578 0.629175
0.593408 0.783047 0.626947
0.638087 0.795041 0.631586
0.686213 0.806485 0.636316
0.736629 0.817075 0.641169
0.788357 0.826810 0.645930
0.840818 0.835538 0.650324
0.889250 0.839933 0.656611
0.925444 0.838590 0.672480
0.951873 0.851469 0.703700
0.972625 0.862242 0.730434
0.989014 0.871672 0.753872
1.000000 0.880125 0.774868
1.000000 0.887968 0.793820
1.000000 0.895445 0.811490
0.000000 0.832883 0.681392
0.000000 0.833249 0.681849
0.000000 0.833402 0.682307
0.000000 0.833371 0.682521
0.000000 0.833066 0.682673
0.000000 0.832517 0.682765
0.000000 0.831754 0.682918
0.192447 0.830838 0.683345
0.270817 0.829923 0.684230
0.336217 0.828855 0.685695
0.394812 0.827787 0.688106
0.449592 0.826596 0.691279
0.499580 0.825376 0.695155
0.545739 0.824125 0.699672
0.566827 0.821897 0.695491
0.569726 0.818631 0.683009
0.572869 0.815091 0.669764
0.578424 0.811063 0.657221
0.602838 0.805173 0.655177
0.628779 0.802152 0.654475
0.669490 0.813260 0.659663
0.712978 0.823728 0.664790
0.758419 0.833494 0.670039
0.804959 0.842496 0.675166
0.848997 0.847562 0.673671
0.895659 0.853849 0.679683
0.929137 0.850034 0.692439
0.954070 0.862455 0.722957
0.973693 0.873411 0.749813
0.989044 0.883116 0.773556
1.000000 0.892088 0.795254
1.000000 0.900542 0.815183
0.000000 0.850980 0.703822
0.000000 0.851469 0.704646
0.000000 0.851591 0.704982
0.000000 0.851255 0.705013
0.028443 0.850553 0.704799
0.156802 0.849577 0.704463
0.217350 0.848325 0.704158
0.271977 0.846891 0.704036
0.323735 0.845396 0.704402
0.373754 0.843870 0.705501
0.421576 0.842252 0.707088
0.467872 0.840665 0.709468
0.511254 0.839078 0.712337
0.552087 0.837491 0.715724
0.590509 0.835843 0.719600
0.593469 0.832700 0.708858
0.595087 0.829282 0.696590
0.597375 0.825895 0.684169
0.607050 0.821866 0.675410
0.629389 0.816770 0.674189
0.655543 0.816892 0.675288
0.693416 0.827298 0.680751
0.733272 0.836942 0.686061
0.774411 0.845731 0.690883
0.816556 0.853635 0.695430
0.859251 0.860838 0.699672
0.903441 0.868406 0.705531
0.933623 0.865141 0.717891
0.957488 0.874510 0.744442
0.975647 0.885496 0.771176
0.989837 0.895506 0.795224
1.000000 0.904448 0.816617
0.102724 0.862516 0.718441
0.122103 0.862943 0.719173
0.145785 0.863096 0.719722
0.174990 0.862913 0.719997
0.208682 0.862516 0.720241
0.246281 0.861845 0.720516
0.286198 0.861021 0.721004
0.328283 0.860136 0.721920
0.370703 0.859068 0.723201
0.413275 0.857969 0.724971
0.454414 0.856718 0.727047
0.494453 0.855467 0.729549
0.532891 0.854093 0.732448
0.569421 0.852659 0.735653
0.604028 0.851164 0.739162
0.625696 0.849241 0.738155
0.626734 0.846342 0.727687
0.628351 0.843412 0.716884
0.630732 0.840574 0.706050
0.643702 0.836912 0.701167
0.663264 0.832609 0.700435
0.688899 0.835203 0.702907
0.723171 0.844694 0.708614
0.759060 0.853574 0.714199
0.796109 0.861753 0.719631
0.834043 0.869322 0.724880
0.872404 0.876280 0.730220
0.911986 0.883818 0.737514
0.940856 0.883421 0.750881
0.963043 0.890806 0.774929
0.979309 0.901549 0.800900
0.991699 0.911284 0.824033
0.257633 0.875883 0.737240
0.261357 0.876066 0.737636
0.269657 0.876066 0.737942
0.282506 0.875822 0.738216
0.300938 0.875334 0.738399
0.323888 0.874693 0.738796
0.351232 0.873899 0.739376
0.381903 0.872953 0.740230
0.414862 0.871916 0.741360
0.449104 0.870817 0.742977
0.484169 0.869657 0.744991
0.518975 0.868467 0.747402
0.552911 0.867277 0.750179
0.585657 0.865995 0.753201
0.617304 0.864591 0.756527
0.647364 0.863279 0.760250
0.654932 0.861173 0.754360
0.656306 0.858824 0.745144
0.658564 0.856504 0.736049
0.661250 0.854337 0.726894
0.676875 0.851041 0.725307
0.694301 0.847532 0.725154
0.719387 0.852140 0.728817
0.750362 0.860807 0.734585
0.782681 0.868925 0.740169
0.816007 0.876463 0.745754
0.850126 0.883543 0.751461
0.884611 0.890135 0.757290
0.920226 0.897581 0.765560
0.947570 0.899260 0.779202
0.968261 0.904814 0.800473
0.982910 0.915648 0.826413
0.335912 0.887480 0.754177
0.338231 0.887633 0.754543
0.344091 0.887633 0.754910
0.353826 0.887510 0.755337
0.367987 0.887236 0.755917
0.387243 0.886931 0.756893
0.411322 0.886748 0.758511
0.438972 0.886503 0.760555
0.469093 0.886381 0.763210
0.500786 0.886168 0.766293
0.533379 0.885985 0.769924
0.565332 0.885771 0.773709
0.596796 0.885466 0.777859
0.626764 0.885008 0.781979
0.655299 0.884459 0.786160
0.682063 0.883696 0.790280
0.703273 0.882872 0.792569
0.705013 0.881315 0.785794
0.707332 0.879911 0.779019
0.710262 0.878599 0.772427
0.714992 0.877287 0.766690
0.730098 0.875029 0.767422
0.744717 0.872709 0.768124
0.768002 0.878843 0.773190
0.794339 0.886564 0.779171
0.821683 0.893797 0.785183
0.849577 0.900511 0.790982
0.877989 0.906798 0.796933
0.906645 0.912840 0.803250
0.936248 0.919707 0.812009
0.960388 0.923552 0.826627
0.977783 0.928038 0.845365
0.440589 0.904082 0.781674
0.441169 0.904051 0.781735
0.444038 0.903899 0.781796
0.449348 0.903685 0.781949
0.458015 0.903319 0.782254
0.470222 0.902861 0.782895
0.485695 0.902342 0.783749
0.504356 0.901762 0.785061
0.525628 0.901183 0.786740
0.549065 0.900572 0.788846
0.574029 0.899962 0.791379
0.599634 0.899413 0.794308
0.625788 0.898802 0.797543
0.651514 0.898222 0.801053
