20 Preset/Japan Style/【3】LUT video cho PR-AE-FCPX/LUT VIDEO/Japan Style LUT (20).cube
# Created by Adobe Lightroom plugin Export LUT (1.24.0)
# www.johnrellis.com/lightroom/exportlut.htm
# Preset: 20日系少女风（素材江湖）
# Color profile: C:\Program Files (x86)\Common Files\Adobe\Color\Profiles\Recommended\VideoHD.icc
LUT_3D_SIZE 5
DOMAIN_MIN 0.000000 0.000000 0.000000
DOMAIN_MAX 0.903226 0.903226 0.903226
0.096864 0.096864 0.096864
0.319005 0.105989 0.076417
0.700801 0.168948 0.000000
0.986816 0.248783 0.000000
1.000000 0.279911 0.000000
0.000000 0.304540 0.041016
0.282963 0.300542 0.000000
0.706966 0.355016 0.000000
0.980804 0.364019 0.000000
1.000000 0.358129 0.000000
0.000000 0.642084 0.000000
0.000000 0.637659 0.000000
0.580438 0.620539 0.000000
0.926787 0.600488 0.000000
1.000000 0.549432 0.000000
0.000000 0.844877 0.000000
0.000000 0.841611 0.000000
0.230564 0.828428 0.000000
0.754391 0.804990 0.000000
1.000000 0.743679 0.000000
0.000000 0.957336 0.178012
0.000000 0.955810 0.175784
0.000000 0.950011 0.174350
0.519890 0.938109 0.092164
0.867582 0.921080 0.000000
0.122530 0.039033 0.361364
0.342016 0.000000 0.350134
0.704463 0.000000 0.310063
0.982513 0.000000 0.201511
1.000000 0.208896 0.000000
0.000000 0.314427 0.351080
0.281590 0.296727 0.339178
0.691279 0.284245 0.281437
0.975555 0.301366 0.197238
1.000000 0.314641 0.000000
0.000000 0.644892 0.332403
0.000000 0.643732 0.280613
0.582300 0.624170 0.246799
0.931914 0.595178 0.182528
1.000000 0.537255 0.000000
0.000000 0.844144 0.268345
0.000000 0.840848 0.266331
0.257267 0.827695 0.258579
0.754696 0.804440 0.169345
1.000000 0.742794 0.000000
0.000000 0.955474 0.318303
0.000000 0.954009 0.317479
0.000000 0.948028 0.313451
0.530968 0.936828 0.285313
0.869017 0.920684 0.152071
0.193606 0.000000 0.741878
0.376898 0.000000 0.736080
0.695033 0.000000 0.715084
0.962921 0.000000 0.664851
1.000000 0.000000 0.511833
0.000000 0.244205 0.732235
0.276249 0.225956 0.728145
0.674983 0.032868 0.709255
0.950072 0.000000 0.649653
1.000000 0.182650 0.506004
0.000000 0.621118 0.694575
0.000000 0.616663 0.690333
0.574792 0.598962 0.667903
0.868162 0.583581 0.609277
1.000000 0.566217 0.549187
0.000000 0.834592 0.607172
0.000000 0.831235 0.608240
0.479377 0.815335 0.621210
0.759762 0.797787 0.580285
1.000000 0.762203 0.548455
0.000000 0.946532 0.584802
0.000000 0.943236 0.600488
0.346288 0.939971 0.581811
0.602289 0.931121 0.573541
0.878691 0.919921 0.529625
0.241306 0.000000 0.922362
0.354589 0.000000 0.919890
0.601160 0.000000 0.909728
0.868467 0.000000 0.891112
1.000000 0.000000 0.840513
0.125887 0.189487 0.915435
0.302922 0.178103 0.913237
0.579461 0.104768 0.904082
0.858396 0.000000 0.886412
1.000000 0.000000 0.834379
0.000000 0.524224 0.887602
0.199374 0.525475 0.883696
0.532403 0.520500 0.874540
0.811673 0.474739 0.856962
1.000000 0.494270 0.812802
0.000000 0.777829 0.848600
0.000000 0.778195 0.846677
0.498116 0.779538 0.837980
0.763210 0.777157 0.819577
0.947662 0.771664 0.783749
0.000000 0.947570 0.762997
0.000000 0.945617 0.763729
0.404456 0.937499 0.767330
0.720729 0.923735 0.790433
0.896971 0.919890 0.780758
0.267582 0.000000 1.000000
0.336828 0.000000 1.000000
0.518425 0.000000 0.998627
0.734829 0.000000 0.989044
0.955871 0.000000 0.974975
0.224643 0.092805 0.999268
0.307225 0.063355 0.998108
0.503105 0.000000 0.993561
0.725154 0.000000 0.984131
0.950103 0.000000 0.970764
0.140841 0.432380 0.984009
0.253727 0.428473 0.982544
0.470375 0.417548 0.978027
0.698116 0.390295 0.969207
0.933318 0.364965 0.958831
0.169955 0.679072 0.958770
0.283391 0.681331 0.957092
0.507805 0.694301 0.951873
0.704616 0.695460 0.946349
0.914672 0.693904 0.942199
0.000000 0.883757 0.938842
0.140932 0.884611 0.938018
0.482185 0.890929 0.936431
0.718563 0.900877 0.933104
0.907530 0.914122 0.930297
