20 Preset/Japan Style/【3】LUT video cho PR-AE-FCPX/LUT VIDEO/Japan Style LUT (22).cube
# Created by Adobe Lightroom plugin Export LUT (1.24.0)
# www.johnrellis.com/lightroom/exportlut.htm
# Preset: 22日系室外山涧（素材江湖）
# Color profile: C:\Program Files (x86)\Common Files\Adobe\Color\Profiles\Recommended\VideoHD.icc
LUT_3D_SIZE 8
DOMAIN_MIN 0.000000 0.000000 0.000000
DOMAIN_MAX 0.903226 0.903226 0.903226
0.091341 0.095827 0.110750
0.090211 0.093721 0.108095
0.270390 0.037263 0.103456
0.559869 0.000000 0.095888
0.817533 0.000000 0.082277
0.981537 0.000000 0.106966
1.000000 0.246921 0.174350
1.000000 0.388861 0.270787
0.055818 0.112093 0.107973
0.105653 0.121309 0.105043
0.322210 0.145083 0.090089
0.591821 0.000000 0.066987
0.826474 0.000000 0.031312
0.976226 0.161563 0.090791
1.000000 0.297246 0.167666
1.000000 0.413123 0.268101
0.000000 0.345769 0.143313
0.000000 0.344640 0.121981
0.344030 0.392370 0.094270
0.721645 0.421973 0.000000
0.865141 0.441352 0.000000
0.980041 0.439521 0.000000
1.000000 0.469642 0.175235
1.000000 0.521843 0.288762
0.000000 0.617945 0.277440
0.000000 0.615351 0.260746
0.000000 0.604761 0.255924
0.648737 0.659541 0.254002
0.921111 0.682948 0.223423
0.981720 0.663691 0.193698
1.000000 0.664363 0.218357
1.000000 0.664546 0.332158
0.000000 0.772641 0.442725
0.000000 0.771328 0.434394
0.000000 0.767117 0.404944
0.494697 0.758633 0.441413
0.787594 0.792264 0.457893
0.974517 0.810086 0.479713
1.000000 0.787716 0.443458
1.000000 0.787869 0.460853
0.366888 0.853727 0.590143
0.384222 0.853971 0.589288
0.430732 0.851408 0.576989
0.536217 0.844358 0.577783
0.697230 0.844511 0.607538
0.860960 0.863401 0.631464
0.981659 0.882597 0.663203
1.000000 0.871641 0.667567
0.602808 0.905089 0.725124
0.607568 0.904936 0.724453
0.623957 0.903685 0.719783
0.654749 0.901518 0.713130
0.726009 0.895476 0.731716
0.818662 0.901671 0.753933
0.908629 0.914122 0.775845
0.982330 0.929473 0.806363
0.770871 0.945190 0.843290
0.772549 0.945129 0.843168
0.779812 0.944945 0.842771
0.793942 0.944762 0.842863
0.814389 0.942779 0.843870
0.853819 0.941527 0.860807
0.904479 0.950866 0.876249
0.951751 0.960906 0.892546
0.092439 0.095827 0.107485
0.086183 0.095613 0.107912
0.245304 0.027802 0.127321
0.541650 0.000000 0.129641
0.801724 0.000000 0.136385
0.965942 0.000000 0.156435
1.000000 0.227756 0.205997
1.000000 0.376684 0.288609
0.059388 0.104494 0.117403
0.101778 0.111421 0.121096
0.302556 0.117800 0.124727
0.579217 0.000000 0.126436
0.815854 0.000000 0.129702
0.966949 0.143557 0.151400
1.000000 0.286229 0.203403
1.000000 0.403449 0.287541
0.000000 0.340795 0.188418
0.000000 0.343572 0.180240
0.341680 0.378302 0.162692
0.702968 0.409369 0.091676
0.854337 0.422766 0.000000
0.971618 0.424903 0.128450
1.000000 0.455665 0.209232
1.000000 0.511162 0.304570
0.000000 0.609216 0.315160
0.000000 0.607324 0.299870
0.000000 0.598932 0.280217
0.637812 0.645747 0.284276
0.908843 0.668879 0.254734
0.972747 0.652552 0.224186
1.000000 0.652247 0.243992
1.000000 0.655421 0.343236
0.000000 0.770077 0.464485
0.000000 0.768643 0.456306
0.157992 0.763882 0.426459
0.494362 0.752621 0.453803
0.783566 0.786862 0.468849
0.970581 0.805447 0.490211
1.000000 0.783932 0.452766
1.000000 0.784695 0.466804
0.383185 0.851530 0.599481
0.395514 0.850950 0.596490
0.440589 0.848508 0.584344
0.537713 0.842191 0.581811
0.695888 0.841733 0.612329
0.859678 0.861601 0.637018
0.980377 0.881041 0.668635
1.000000 0.870115 0.669886
0.604639 0.903593 0.727779
0.607965 0.903136 0.726070
0.623926 0.901854 0.721065
0.654963 0.899840 0.714412
0.725429 0.894285 0.732296
0.817411 0.900206 0.754604
0.907622 0.912688 0.775753
0.981872 0.928161 0.805600
0.769589 0.944335 0.843107
0.771817 0.944366 0.843290
0.778988 0.944152 0.842771
0.793179 0.943969 0.842802
0.817075 0.943328 0.846952
0.854978 0.941741 0.862455
0.904448 0.950561 0.876951
0.951751 0.960693 0.893065
0.022583 0.098054 0.169039
0.037751 0.094759 0.174380
0.218967 0.008179 0.191592
0.528130 0.000000 0.249149
0.770901 0.000000 0.280797
0.953155 0.000000 0.276371
1.000000 0.179904 0.313573
1.000000 0.361822 0.375433
0.000000 0.097444 0.200656
0.000000 0.090150 0.211337
0.280247 0.012726 0.227451
0.545342 0.000000 0.273899
0.793973 0.000000 0.258885
0.954650 0.000000 0.280186
1.000000 0.249241 0.313634
1.000000 0.389502 0.375311
0.000000 0.308049 0.287449
0.000000 0.324132 0.293004
0.355779 0.345861 0.314061
0.663081 0.368505 0.290166
0.845151 0.361486 0.283330
0.964202 0.383734 0.293217
1.000000 0.430762 0.327398
1.000000 0.496712 0.390051
0.000000 0.606256 0.395727
0.000000 0.609369 0.403845
0.305058 0.611170 0.405432
0.643946 0.635950 0.410346
0.893523 0.655970 0.384070
0.960266 0.644343 0.348608
1.000000 0.635279 0.365820
1.000000 0.644862 0.427070
0.000000 0.768551 0.528557
0.209781 0.767941 0.535485
0.371527 0.764187 0.522118
0.533562 0.752560 0.518944
0.786252 0.783169 0.541802
0.960418 0.801297 0.557763
1.000000 0.781277 0.516594
1.000000 0.783017 0.517082
0.467659 0.849241 0.650507
0.477333 0.848783 0.647852
0.510185 0.846403 0.635645
0.566033 0.841825 0.616724
0.703487 0.837064 0.645777
0.859342 0.858854 0.670436
0.976593 0.878813 0.701686
1.000000 0.869078 0.696162
0.634882 0.902403 0.753384
0.637781 0.902007 0.751736
0.651514 0.900694 0.746426
0.678431 0.898650 0.738735
0.735378 0.894011 0.747768
0.820401 0.898528 0.770169
0.908415 0.912200 0.791592
0.981537 0.928771 0.820554
0.778195 0.943908 0.852049
0.779538 0.943786 0.851652
0.786282 0.943572 0.850919
0.800412 0.943603 0.850950
0.820279 0.943389 0.852140
0.858122 0.942016 0.867399
0.905852 0.950378 0.882139
0.952605 0.960845 0.897795
0.000000 0.102602 0.319707
0.000000 0.102937 0.323583
0.175509 0.000000 0.376410
0.518883 0.000000 0.390051
0.802243 0.000000 0.426368
0.916442 0.000000 0.476844
1.000000 0.174319 0.484291
1.000000 0.294743 0.483711
0.000000 0.092775 0.351568
0.000000 0.084901 0.362951
0.203677 0.000000 0.410620
0.563928 0.000000 0.419562
0.807950 0.000000 0.442695
0.912566 0.142702 0.487343
1.000000 0.199680 0.472816
1.000000 0.334905 0.487739
0.000000 0.210819 0.420661
0.000000 0.213687 0.430488
0.140139 0.214481 0.482918
0.658137 0.258183 0.497536
0.807584 0.329564 0.503502
0.937591 0.307622 0.471778
1.000000 0.374273 0.473518
1.000000 0.462776 0.507988
0.000000 0.570214 0.529992
0.000000 0.578058 0.534356
0.082948 0.606012 0.550317
0.661006 0.612390 0.583886
0.850675 0.624018 0.547601
0.940795 0.599664 0.514488
1.000000 0.595911 0.511467
1.000000 0.617121 0.538231
0.000000 0.767605 0.590936
0.000000 0.766995 0.594690
0.393103 0.765072 0.616663
0.621668 0.760525 0.633326
0.791501 0.775692 0.649165
0.942351 0.791470 0.648920
0.986877 0.774105 0.606378
1.000000 0.771328 0.598871
0.394659 0.850401 0.678553
0.438605 0.850156 0.684108
0.563409 0.846647 0.702235
0.649775 0.842252 0.702510
0.725582 0.833249 0.704799
0.861173 0.855558 0.727169
0.971527 0.875517 0.755367
1.000000 0.866331 0.737819
0.617182 0.902983 0.769589
0.632746 0.902373 0.772976
0.688777 0.899901 0.786587
0.718898 0.897978 0.782071
0.754025 0.895140 0.776791
0.826261 0.895811 0.797208
0.909789 0.910979 0.816312
0.982116 0.929686 0.842618
0.776364 0.944854 0.861051
0.782589 0.944549 0.862882
0.801816 0.943664 0.867979
0.813840 0.943481 0.866575
0.831022 0.943420 0.865751
0.862974 0.942626 0.875792
0.907774 0.949767 0.890623
0.954162 0.961151 0.906004
0.000000 0.109499 0.510765
0.000000 0.109438 0.513725
0.000000 0.022950 0.551446
0.508019 0.000000 0.627100
0.789731 0.000000 0.603571
0.966735 0.000000 0.596521
1.000000 0.200198 0.618585
1.000000 0.421607 0.669459
0.000000 0.110140 0.528191
0.000000 0.089143 0.538170
0.000000 0.000000 0.576989
0.525963 0.000000 0.642603
0.807645 0.000000 0.618341
0.964233 0.000000 0.604089
1.000000 0.265537 0.624475
1.000000 0.444465 0.673945
0.000000 0.130770 0.588586
0.000000 0.117952 0.598596
0.000000 0.072816 0.627588
0.535424 0.000000 0.680476
0.847410 0.000000 0.661372
0.944579 0.319341 0.633051
0.988739 0.423621 0.648219
1.000000 0.499153 0.673793
0.000000 0.430793 0.637720
0.000000 0.435309 0.642390
0.000000 0.455055 0.661921
0.550439 0.498512 0.708614
0.841032 0.575463 0.714717
0.899809 0.583368 0.693080
0.981903 0.555535 0.657343
1.000000 0.570977 0.650202
0.000000 0.739803 0.702358
0.000000 0.742519 0.704372
0.000000 0.750729 0.711910
0.587549 0.760647 0.729732
0.802213 0.761166 0.756741
0.912169 0.767514 0.734859
0.968597 0.741451 0.694545
1.000000 0.731563 0.688228
0.000000 0.850156 0.718318
0.000000 0.849271 0.720699
0.416602 0.845090 0.730922
0.641535 0.839353 0.754971
0.765225 0.836576 0.771267
0.863432 0.848966 0.787289
0.961761 0.866117 0.799161
0.995239 0.856626 0.774899
0.505241 0.905791 0.778439
0.526360 0.904936 0.780301
0.601678 0.902037 0.789303
0.715908 0.897734 0.811063
0.785214 0.894743 0.820157
0.830991 0.890471 0.825284
0.911131 0.908080 0.843046
0.981933 0.926268 0.866148
0.705379 0.948333 0.851530
0.715175 0.947814 0.853452
0.752377 0.945830 0.861723
0.811154 0.943572 0.878202
0.843381 0.942901 0.883421
0.866392 0.943084 0.885191
0.908141 0.947662 0.899809
0.955383 0.960357 0.914549
0.000000 0.119478 0.693019
0.000000 0.119753 0.694423
0.000000 0.065614 0.709926
0.257176 0.000000 0.754788
0.766720 0.000000 0.798886
0.955688 0.000000 0.763333
1.000000 0.000000 0.729030
1.000000 0.352270 0.739162
0.000000 0.119905 0.699092
0.000000 0.120211 0.699825
0.000000 0.029145 0.721340
0.329168 0.000000 0.762203
0.772274 0.000000 0.802243
0.959258 0.000000 0.766873
1.000000 0.000000 0.730587
1.000000 0.382116 0.741146
0.000000 0.050599 0.740902
0.000000 0.032105 0.744350
0.000000 0.000000 0.758755
0.348913 0.000000 0.786038
0.785519 0.000000 0.824552
0.970336 0.000000 0.785183
1.000000 0.351354 0.745693
1.000000 0.489998 0.755612
0.000000 0.301915 0.741665
0.000000 0.300359 0.747005
0.000000 0.296178 0.769589
0.253422 0.271733 0.803830
0.781674 0.338842 0.836210
0.948699 0.489204 0.808011
0.986358 0.583703 0.777676
1.000000 0.620294 0.781704
0.000000 0.618952 0.778836
0.000000 0.621118 0.780392
0.000000 0.629603 0.787137
0.324193 0.646448 0.800595
0.745998 0.691218 0.826169
0.903899 0.745113 0.832151
0.939117 0.727962 0.810666
0.995331 0.708339 0.792264
0.000000 0.836179 0.806577
0.000000 0.836759 0.807645
0.000000 0.837217 0.810330
0.498970 0.838102 0.817075
0.747250 0.841123 0.832273
0.874479 0.843381 0.852720
0.944671 0.846464 0.838956
0.987121 0.828244 0.815335
0.136416 0.911467 0.811002
0.243687 0.910674 0.812375
0.432746 0.907225 0.817563
0.616846 0.901610 0.829374
0.769375 0.896818 0.850217
0.854917 0.895476 0.865263
0.915435 0.905730 0.876921
0.979736 0.920928 0.889006
0.591272 0.954009 0.856077
0.604273 0.953368 0.857084
0.654963 0.951110 0.862150
0.734127 0.947753 0.873045
0.822873 0.944305 0.891600
0.879332 0.943725 0.905241
0.909300 0.944457 0.912535
0.957794 0.959869 0.927001
0.000000 0.135164 0.839536
0.000000 0.135592 0.842130
0.000000 0.135805 0.843412
0.000000 0.000000 0.864286
0.596155 0.000000 0.889982
0.922210 0.000000 0.903014
1.000000 0.000000 0.871122
1.000000 0.000000 0.822049
0.000000 0.134279 0.834226
0.000000 0.134951 0.837308
0.000000 0.116030 0.840482
0.000000 0.000000 0.860410
0.605768 0.000000 0.885222
0.916960 0.000000 0.895933
1.000000 0.000000 0.862516
1.000000 0.000000 0.813138
0.000000 0.137514 0.853574
0.000000 0.121889 0.855100
0.000000 0.012482 0.862455
0.000000 0.000000 0.877379
0.672328 0.000000 0.896300
0.921721 0.000000 0.902953
1.000000 0.000000 0.872129
1.000000 0.307836 0.825254
0.000000 0.158572 0.872953
0.000000 0.144076 0.874205
0.000000 0.071687 0.878050
0.000000 0.000000 0.887907
0.607935 0.000000 0.901366
0.927855 0.000000 0.915770
1.000000 0.327733 0.880705
1.000000 0.561059 0.840909
0.000000 0.467079 0.851194
0.000000 0.462745 0.849973
0.000000 0.449744 0.850156
0.000000 0.434791 0.864408
0.521172 0.436194 0.887480
0.876402 0.545342 0.903349
0.981079 0.648524 0.878660
1.000000 0.713069 0.858610
0.000000 0.733059 0.861295
0.000000 0.733547 0.861845
0.000000 0.733883 0.863462
0.000000 0.734066 0.866941
0.514427 0.739864 0.872801
0.831479 0.784298 0.891264
0.941009 0.828885 0.896666
0.967437 0.816556 0.882719
0.000000 0.902068 0.875303
0.000000 0.902098 0.875975
0.000000 0.899962 0.876463
0.338048 0.895964 0.878691
0.655268 0.892515 0.883848
0.832303 0.895811 0.896178
0.922728 0.900664 0.912932
0.969360 0.902129 0.903563
0.123110 0.962951 0.875364
0.232364 0.962188 0.876280
0.427802 0.959411 0.880888
0.599969 0.953918 0.887907
0.743893 0.947906 0.898833
0.854337 0.944884 0.915373
0.919982 0.946929 0.931029
0.960998 0.958618 0.942504
0.000000 0.154086 0.930724
0.000000 0.154269 0.931609
0.000000 0.154086 0.930724
0.000000 0.071656 0.935149
0.000000 0.000000 0.945647
0.767269 0.000000 0.956268
1.000000 0.000000 0.958740
1.000000 0.000000 0.935271
0.000000 0.153292 0.928161
0.000000 0.153719 0.929137
0.000000 0.153719 0.929198
0.000000 0.044312 0.933654
0.000000 0.000000 0.944030
0.769955 0.000000 0.954803
1.000000 0.000000 0.956390
1.000000 0.000000 0.931975
0.000000 0.154482 0.932067
0.000000 0.154696 0.932341
0.000000 0.154482 0.931914
0.000000 0.000000 0.940002
0.294591 0.000000 0.947845
0.791104 0.000000 0.956939
1.000000 0.000000 0.957427
1.000000 0.000000 0.932097
0.000000 0.156771 0.940002
0.000000 0.156985 0.940520
0.000000 0.128847 0.941405
0.000000 0.000000 0.947875
0.427070 0.000000 0.954955
0.808347 0.000000 0.962341
1.000000 0.000000 0.961639
1.000000 0.000000 0.933410
0.000000 0.313634 0.935576
0.000000 0.301091 0.936980
0.000000 0.241337 0.939757
0.000000 0.107057 0.945434
0.000000 0.000000 0.950164
0.722652 0.000000 0.956756
0.992615 0.000000 0.960388
1.000000 0.419684 0.928252
0.000000 0.582208 0.919310
0.000000 0.577295 0.918639
0.000000 0.558892 0.917418
0.000000 0.523644 0.917388
0.000000 0.470283 0.925902
0.594629 0.473884 0.941192
0.928985 0.624567 0.948089
1.000000 0.735042 0.928038
0.000000 0.811276 0.918547
0.000000 0.810483 0.918364
0.000000 0.807156 0.917845
0.000000 0.801907 0.918090
0.000000 0.792203 0.918608
0.557794 0.789181 0.920287
0.879210 0.837400 0.934874
0.969512 0.880735 0.938293
0.000000 0.965881 0.930632
0.000000 0.965209 0.930510
0.000000 0.962799 0.930724
0.000000 0.955962 0.930724
0.468757 0.945953 0.930999
0.743160 0.939178 0.934020
0.890715 0.941924 0.943389
0.962432 0.950866 0.958892
