20 Preset/Japan Style/【3】LUT video cho PR-AE-FCPX/LUT VIDEO/Japan Style LUT (7).cube
# Created by Adobe Lightroom plugin Export LUT (1.24.0)
# www.johnrellis.com/lightroom/exportlut.htm
# Preset: 07日系基础色（素材江湖）
# Color profile: C:\Program Files (x86)\Common Files\Adobe\Color\Profiles\Recommended\VideoHD.icc
LUT_3D_SIZE 32
DOMAIN_MIN 0.0 0.0 0.0
DOMAIN_MAX 1.0 1.0 1.0
0.000000 0.000000 0.000000
0.012879 0.001801 0.002899
0.095369 0.010498 0.005371
0.154482 0.033600 0.017731
0.210178 0.073304 0.039582
0.263096 0.097871 0.065431
0.316136 0.117556 0.089448
0.362890 0.135958 0.102327
0.407050 0.152346 0.115877
0.454017 0.167391 0.124483
0.503685 0.182254 0.131685
0.552544 0.196933 0.138766
0.598810 0.211063 0.146731
0.644312 0.225162 0.154330
0.691310 0.239445 0.161410
0.739559 0.254215 0.168856
0.785580 0.269474 0.177340
0.826291 0.284764 0.186679
0.862547 0.299046 0.198550
0.894316 0.313390 0.211337
0.922820 0.326604 0.223789
0.949065 0.339391 0.236423
0.973968 0.351324 0.248142
0.998260 0.362982 0.261021
1.000000 0.375006 0.273991
1.000000 0.387335 0.288670
1.000000 0.399939 0.303929
1.000000 0.413306 0.320653
1.000000 0.427100 0.337957
1.000000 0.441535 0.356237
1.000000 0.456519 0.375189
1.000000 0.471473 0.393805
0.000000 0.017884 0.005493
0.018219 0.016846 0.002991
0.098726 0.030671 0.004700
0.157168 0.054292 0.015747
0.212284 0.087251 0.036622
0.265293 0.105837 0.067170
0.319097 0.123842 0.088685
0.365820 0.141115 0.104494
0.411261 0.156863 0.115999
0.459205 0.171664 0.125704
0.509209 0.186648 0.132784
0.558343 0.200900 0.139406
0.604608 0.214725 0.147433
0.650416 0.228885 0.154971
0.697810 0.242710 0.161929
0.746059 0.257908 0.169436
0.791287 0.273045 0.177554
0.831388 0.287663 0.188724
0.867155 0.302312 0.199893
0.898650 0.316258 0.212863
0.927062 0.329381 0.225284
0.953307 0.341863 0.238132
0.978088 0.353979 0.250706
1.000000 0.365850 0.263218
1.000000 0.377783 0.276768
1.000000 0.389960 0.291203
1.000000 0.402716 0.306706
1.000000 0.416114 0.323217
1.000000 0.429938 0.340826
1.000000 0.444373 0.359136
1.000000 0.459205 0.377813
1.000000 0.474250 0.396643
0.000000 0.091554 0.028870
0.020081 0.093080 0.033539
0.100465 0.095979 0.021271
0.159426 0.107424 0.009033
0.214115 0.117342 0.031342
0.267643 0.130282 0.059419
0.321386 0.143893 0.087221
0.368078 0.157931 0.102846
0.413977 0.171664 0.113588
0.462226 0.185061 0.122835
0.512993 0.198459 0.131044
0.562249 0.211215 0.138277
0.608484 0.224582 0.146029
0.654627 0.237827 0.154208
0.702388 0.251438 0.160769
0.750759 0.265873 0.168826
0.795468 0.280278 0.178042
0.835019 0.294560 0.188540
0.870420 0.308141 0.201175
0.901488 0.321660 0.213443
0.929534 0.334325 0.226017
0.955474 0.346532 0.238865
0.980163 0.358190 0.251225
1.000000 0.369726 0.263737
1.000000 0.381353 0.277623
1.000000 0.393317 0.292027
1.000000 0.406043 0.307622
1.000000 0.419226 0.324437
1.000000 0.432929 0.342229
1.000000 0.447486 0.360967
1.000000 0.461952 0.379431
1.000000 0.476753 0.397986
0.000000 0.147524 0.082490
0.004974 0.147799 0.082734
0.100801 0.149416 0.073915
0.160739 0.152224 0.049683
0.215885 0.158053 0.028229
0.269810 0.166415 0.042969
0.322667 0.176150 0.075227
0.368811 0.185672 0.098817
0.415625 0.195651 0.109346
0.464820 0.206546 0.120180
0.516136 0.218570 0.128389
0.564874 0.229953 0.136294
0.611872 0.241825 0.143618
0.658564 0.254276 0.151705
0.706996 0.266728 0.159030
0.755764 0.280491 0.166781
0.800412 0.293950 0.176577
0.839902 0.307042 0.188602
0.875151 0.320256 0.201236
0.906096 0.332677 0.214511
0.934203 0.344182 0.227237
0.959930 0.355688 0.240360
0.984283 0.366430 0.252476
1.000000 0.377142 0.265537
1.000000 0.388006 0.278782
1.000000 0.399329 0.293339
1.000000 0.411322 0.308537
1.000000 0.423896 0.325353
1.000000 0.437110 0.343206
1.000000 0.450965 0.361364
1.000000 0.465492 0.380346
1.000000 0.480232 0.399084
0.000000 0.195132 0.121981
0.009308 0.195468 0.120638
0.100282 0.195804 0.118227
0.155032 0.198184 0.111421
0.212863 0.203067 0.099458
0.271916 0.210208 0.086122
0.325628 0.215976 0.053223
0.372076 0.221653 0.089998
0.420203 0.229038 0.102846
0.470680 0.238315 0.113527
0.522057 0.247684 0.122408
0.570855 0.257572 0.129610
0.617395 0.267247 0.139010
0.664515 0.277775 0.146975
0.712856 0.289220 0.155612
0.760647 0.301488 0.163485
0.804379 0.312810 0.174105
0.842741 0.324529 0.186435
0.877287 0.335637 0.199985
0.908019 0.346532 0.213321
0.935882 0.357031 0.226596
0.961547 0.367041 0.239780
0.985687 0.376745 0.252323
1.000000 0.386389 0.264897
1.000000 0.396582 0.278447
1.000000 0.407233 0.293187
1.000000 0.418463 0.309300
1.000000 0.430426 0.325841
1.000000 0.443183 0.343816
1.000000 0.456611 0.362219
1.000000 0.470802 0.381445
1.000000 0.485328 0.400519
0.000000 0.234470 0.149325
0.007599 0.234562 0.148806
0.095369 0.234958 0.147677
0.147799 0.237064 0.143709
0.202670 0.240848 0.136538
0.263615 0.250156 0.127901
0.320531 0.256352 0.119417
0.370367 0.259556 0.109865
0.420264 0.265568 0.102541
0.471992 0.273198 0.102022
0.523064 0.281285 0.112123
0.571771 0.288701 0.121736
0.618402 0.297124 0.130312
0.665614 0.305943 0.139773
0.714015 0.315831 0.148623
0.761501 0.325994 0.157900
0.804135 0.335790 0.169314
0.842435 0.345251 0.181888
0.876677 0.354528 0.195590
0.907195 0.363531 0.209964
0.935027 0.372473 0.224369
0.960662 0.380987 0.237766
0.963378 0.379065 0.238895
0.988098 0.387915 0.252293
1.000000 0.396979 0.266056
1.000000 0.406653 0.280674
1.000000 0.416907 0.296330
1.000000 0.427924 0.312902
1.000000 0.439979 0.331151
1.000000 0.452796 0.349798
1.000000 0.466468 0.369451
1.000000 0.480995 0.389502
0.000000 0.265171 0.170840
0.000000 0.265537 0.169802
0.078248 0.265782 0.169100
0.136416 0.266758 0.167025
0.188083 0.270268 0.163058
0.241978 0.275151 0.157626
0.299596 0.283757 0.152682
0.353948 0.289616 0.145418
0.404059 0.294133 0.139895
0.455451 0.300633 0.133974
0.506615 0.307774 0.128206
0.554894 0.314794 0.125551
0.601953 0.322484 0.121340
0.649195 0.330419 0.126284
0.697810 0.338994 0.137026
0.746609 0.348486 0.146365
0.791287 0.357061 0.157961
0.830808 0.365148 0.172549
0.865904 0.372686 0.186801
0.896696 0.379858 0.201785
0.924071 0.386542 0.215518
0.948730 0.392828 0.228519
0.971771 0.399145 0.241672
0.994385 0.405829 0.254337
1.000000 0.412909 0.267277
1.000000 0.421118 0.282078
1.000000 0.430304 0.297826
1.000000 0.440497 0.315068
1.000000 0.451850 0.333501
1.000000 0.464027 0.352850
1.000000 0.477119 0.372717
1.000000 0.491066 0.393072
0.000000 0.303624 0.195560
0.000000 0.303624 0.196384
0.043977 0.303655 0.194827
0.127199 0.304356 0.193454
0.180636 0.305913 0.190646
0.233616 0.309789 0.187686
0.286046 0.314488 0.183963
0.342718 0.323064 0.180941
0.400336 0.331792 0.176516
0.453498 0.337377 0.171847
0.506249 0.343755 0.166873
0.555291 0.349218 0.163180
0.603082 0.355505 0.160708
0.651606 0.362707 0.157748
0.701717 0.371435 0.154116
0.750912 0.380102 0.150637
0.795285 0.387854 0.150027
0.834379 0.393957 0.166323
0.868956 0.399634 0.182559
0.899443 0.404730 0.198672
0.926543 0.409766 0.213474
0.951171 0.414343 0.227115
0.974304 0.419074 0.240604
0.996918 0.424292 0.253727
1.000000 0.430274 0.267277
1.000000 0.437263 0.282170
1.000000 0.445441 0.298619
1.000000 0.454597 0.316503
1.000000 0.465003 0.335332
1.000000 0.476387 0.354986
1.000000 0.488716 0.375189
1.000000 0.501579 0.395148
0.000000 0.337560 0.224430
0.000000 0.337652 0.224125
0.026032 0.337804 0.224033
0.121706 0.338231 0.222599
0.173770 0.338811 0.220554
0.225193 0.341955 0.218662
0.275883 0.346685 0.216587
0.329503 0.353277 0.213138
0.389105 0.364324 0.210269
0.449592 0.374609 0.205966
0.502495 0.379858 0.202548
0.552605 0.384619 0.199557
0.601434 0.389715 0.197635
0.650568 0.396002 0.195560
0.701289 0.403723 0.193271
0.750515 0.411200 0.190982
0.794583 0.417578 0.189364
0.834043 0.422980 0.188876
0.869139 0.427375 0.188968
0.899992 0.431159 0.192813
0.927184 0.434272 0.209384
0.951843 0.437476 0.223728
0.975189 0.440589 0.237308
0.998077 0.444495 0.251530
1.000000 0.449256 0.266117
1.000000 0.455055 0.282109
1.000000 0.462043 0.298833
1.000000 0.470161 0.316991
1.000000 0.479530 0.336339
1.000000 0.489784 0.356115
1.000000 0.501183 0.376684
1.000000 0.513359 0.397192
0.000000 0.371862 0.253422
0.000000 0.371984 0.253056
0.045075 0.372381 0.252964
0.124483 0.372869 0.252049
0.172915 0.373754 0.250156
0.220676 0.375463 0.248447
0.270726 0.380743 0.247532
0.322728 0.387396 0.245792
0.378515 0.396582 0.243900
0.440436 0.408911 0.240421
0.500114 0.418189 0.237552
0.550530 0.422248 0.235630
0.600732 0.426978 0.233402
0.651453 0.432471 0.231174
0.702205 0.438819 0.228611
0.749813 0.444373 0.226658
0.792630 0.448920 0.224643
0.831357 0.452491 0.224033
0.865904 0.455299 0.222934
0.896971 0.457801 0.222538
0.925444 0.459876 0.222110
0.951720 0.461860 0.221744
0.976104 0.464057 0.234470
0.999756 0.467048 0.249729
1.000000 0.470741 0.265263
1.000000 0.475593 0.282322
1.000000 0.481422 0.300053
1.000000 0.488319 0.318669
1.000000 0.496559 0.338628
1.000000 0.505638 0.358648
1.000000 0.515801 0.379095
1.000000 0.526696 0.399420
0.000000 0.410895 0.279973
0.000000 0.410986 0.280003
0.037263 0.411200 0.279850
0.122255 0.411627 0.278874
0.171359 0.412207 0.277195
0.218997 0.413123 0.275334
0.268009 0.416571 0.273808
0.319066 0.422827 0.272496
0.372808 0.430304 0.270665
0.431098 0.440955 0.269078
0.489937 0.450263 0.266453
0.546563 0.457984 0.264134
0.597101 0.462257 0.262791
0.649042 0.467414 0.260227
0.700954 0.473091 0.257481
0.747951 0.477424 0.255436
0.790372 0.480415 0.253941
0.828733 0.482704 0.252995
0.863127 0.484413 0.252506
0.894347 0.485634 0.252140
0.923033 0.486580 0.251408
0.949645 0.487465 0.250675
0.975097 0.488838 0.249577
0.999969 0.490181 0.247501
1.000000 0.492561 0.263371
1.000000 0.496315 0.280827
1.000000 0.501122 0.299901
1.000000 0.506920 0.319249
1.000000 0.513848 0.339422
1.000000 0.521904 0.359808
1.000000 0.530968 0.380377
1.000000 0.540673 0.400824
0.000000 0.448920 0.301366
0.000000 0.449012 0.301305
0.000000 0.449012 0.300572
0.106325 0.449287 0.300114
0.163455 0.449805 0.298680
0.214389 0.450172 0.297185
0.263523 0.450874 0.294194
0.314763 0.456580 0.293431
0.367346 0.463203 0.292119
0.421698 0.470527 0.290623
0.479896 0.480476 0.290379
0.535454 0.487556 0.288609
0.570336 0.479347 0.278355
0.620935 0.484596 0.276646
0.672084 0.490211 0.274968
0.721798 0.495583 0.272526
0.765957 0.499092 0.271183
0.805936 0.501518 0.270298
0.841917 0.503105 0.269841
0.874357 0.504051 0.269200
0.904234 0.504814 0.268986
0.932067 0.505608 0.268742
0.959106 0.506493 0.268070
0.985351 0.507988 0.266789
1.000000 0.509545 0.265415
1.000000 0.511833 0.271733
1.000000 0.515709 0.291325
1.000000 0.520775 0.311437
1.000000 0.527062 0.332677
1.000000 0.534386 0.354528
1.000000 0.542779 0.376257
1.000000 0.551781 0.397528
0.000000 0.475746 0.316075
0.000000 0.475929 0.316106
0.000000 0.476204 0.316228
0.092714 0.476844 0.315557
0.154391 0.477760 0.314794
0.206882 0.478737 0.313695
0.255924 0.479774 0.311864
0.305699 0.482551 0.310307
0.356420 0.488441 0.310002
0.408545 0.494514 0.308812
0.461463 0.500999 0.307073
0.517449 0.509880 0.306920
0.569909 0.515435 0.304936
0.624079 0.522271 0.302434
0.674861 0.527184 0.300603
0.722377 0.530755 0.299138
0.766262 0.533288 0.297826
0.806516 0.534783 0.297368
0.841917 0.535332 0.297368
0.874174 0.535424 0.297765
0.903929 0.535271 0.297856
0.932006 0.535210 0.297704
0.959106 0.535546 0.297276
0.985504 0.536034 0.295781
1.000000 0.536797 0.294255
1.000000 0.537652 0.292515
1.000000 0.538750 0.291875
1.000000 0.542626 0.313237
1.000000 0.547570 0.334813
1.000000 0.553735 0.357000
1.000000 0.560815 0.378729
1.000000 0.568627 0.400031
0.000000 0.510887 0.337438
0.000000 0.511162 0.337621
0.000000 0.511742 0.337804
0.098787 0.512230 0.337102
0.157626 0.513024 0.336736
0.208469 0.513970 0.335668
0.257481 0.514580 0.334051
0.304173 0.515099 0.331548
0.353918 0.519860 0.331548
0.404669 0.525841 0.331212
0.456550 0.532036 0.330144
0.509117 0.538598 0.328832
0.565728 0.548394 0.329961
0.619379 0.555047 0.327581
0.673396 0.561944 0.326177
0.721218 0.565576 0.325444
0.764248 0.567102 0.325292
0.803769 0.567834 0.325536
0.839841 0.567803 0.325597
0.872129 0.567010 0.326024
0.901762 0.566064 0.326268
0.930022 0.565240 0.326726
0.957366 0.564935 0.326207
0.983825 0.564691 0.324895
1.000000 0.564752 0.323674
1.000000 0.564965 0.321202
1.000000 0.564935 0.318273
1.000000 0.564843 0.314611
1.000000 0.568597 0.336217
1.000000 0.573602 0.358953
1.000000 0.579522 0.380987
1.000000 0.586175 0.402197
0.000000 0.543206 0.359258
0.000000 0.543359 0.359167
0.045167 0.543847 0.359136
0.122194 0.544427 0.358892
0.170596 0.545281 0.358343
0.216953 0.546075 0.357580
0.261936 0.546807 0.356237
0.306798 0.547295 0.354070
0.352270 0.549157 0.352361
0.402136 0.555016 0.352575
0.451759 0.561334 0.352605
0.503563 0.568139 0.351781
0.556207 0.575586 0.350958
0.614740 0.587060 0.352819
0.667414 0.593439 0.351263
0.716915 0.598108 0.351263
0.760861 0.600031 0.352148
0.799680 0.600153 0.353155
0.835142 0.599420 0.353918
0.868040 0.598352 0.354345
0.898528 0.596918 0.354559
0.927001 0.595636 0.354650
0.954620 0.594751 0.354559
0.981140 0.594110 0.353948
1.000000 0.593500 0.352422
1.000000 0.592950 0.350317
1.000000 0.592279 0.347539
1.000000 0.591394 0.343450
1.000000 0.589868 0.337560
1.000000 0.593530 0.360266
1.000000 0.598077 0.382086
1.000000 0.603296 0.403326
0.093599 0.575128 0.381140
0.101045 0.575067 0.380743
0.120821 0.575250 0.380682
0.152468 0.575555 0.380285
0.189242 0.576074 0.379461
0.228794 0.576440 0.378668
0.269444 0.576745 0.376989
0.310704 0.576837 0.374975
0.352605 0.576776 0.371893
0.398871 0.581445 0.371954
0.447639 0.588067 0.372595
0.498054 0.595575 0.372900
0.550530 0.603937 0.372900
0.604974 0.613184 0.372778
0.662074 0.624414 0.376654
0.710658 0.628809 0.376989
0.756191 0.631647 0.378088
0.795956 0.632105 0.379797
0.830777 0.630945 0.381170
0.863310 0.629084 0.382055
0.894011 0.627436 0.382208
0.923552 0.625818 0.381903
0.951263 0.624445 0.381903
0.977844 0.623102 0.380835
1.000000 0.621912 0.379583
1.000000 0.620661 0.377447
1.000000 0.619471 0.374884
1.000000 0.617853 0.371099
1.000000 0.615869 0.365515
1.000000 0.614008 0.361425
1.000000 0.617517 0.383764
1.000000 0.621851 0.405402
0.139803 0.607111 0.401862
0.143984 0.607111 0.401770
0.155398 0.607202 0.401648
0.178927 0.607477 0.401129
0.209384 0.607660 0.400336
0.243137 0.608026 0.399390
0.279911 0.608179 0.397986
0.318822 0.608301 0.396002
0.358129 0.608331 0.393469
0.399969 0.609949 0.391424
0.447547 0.616724 0.392370
0.496315 0.624231 0.393347
0.546868 0.632319 0.393927
0.598871 0.640742 0.394903
0.652674 0.649928 0.396094
0.704433 0.657771 0.400824
0.748623 0.660090 0.401709
0.789364 0.661097 0.403571
0.825803 0.660487 0.405341
0.858122 0.658442 0.406592
0.888945 0.656580 0.407416
0.918700 0.654780 0.407568
0.947295 0.653162 0.407080
0.974456 0.651545 0.406012
1.000000 0.649866 0.404822
1.000000 0.648157 0.403143
1.000000 0.646326 0.400549
1.000000 0.644190 0.396674
1.000000 0.641779 0.391669
1.000000 0.638849 0.384466
1.000000 0.637293 0.385351
1.000000 0.640620 0.407507
0.168795 0.637354 0.419989
0.170535 0.637201 0.419959
0.171237 0.627039 0.413275
0.190738 0.627161 0.412818
0.216953 0.627405 0.412177
0.248142 0.627771 0.411017
0.281834 0.628138 0.409979
0.318181 0.628382 0.408484
0.355566 0.628534 0.406073
0.394354 0.628565 0.403296
0.437751 0.633478 0.403632
0.484565 0.640558 0.404883
0.532769 0.648280 0.406256
0.582635 0.656428 0.407843
0.633631 0.665003 0.409308
0.685939 0.674250 0.412696
0.733944 0.680385 0.417609
0.774990 0.681941 0.419745
0.813046 0.682612 0.422156
0.848112 0.682185 0.424445
0.879728 0.680751 0.426520
0.910002 0.679347 0.427192
0.939239 0.677913 0.427344
0.967224 0.676570 0.427161
0.994171 0.675227 0.426184
1.000000 0.673640 0.425055
1.000000 0.671809 0.423041
1.000000 0.669764 0.420111
1.000000 0.667201 0.415473
1.000000 0.664118 0.409308
1.000000 0.660304 0.400946
1.000000 0.659998 0.409766
0.189914 0.663416 0.434913
0.191104 0.662562 0.434455
0.198734 0.661646 0.433631
0.214145 0.660883 0.432685
0.236362 0.660334 0.431830
0.263554 0.660273 0.430793
0.295354 0.660487 0.429786
0.329656 0.660700 0.428229
0.365332 0.660761 0.426459
0.402411 0.660822 0.424048
0.441688 0.662226 0.422309
0.486427 0.668574 0.424079
0.532799 0.675502 0.426001
0.580438 0.682856 0.427955
0.628931 0.690578 0.430091
0.678553 0.698543 0.432380
0.728298 0.706661 0.437232
0.771023 0.710018 0.442237
0.808408 0.710048 0.444587
0.843351 0.709529 0.446540
0.876005 0.708583 0.448707
0.906279 0.706996 0.450111
0.935332 0.705440 0.450568
0.963256 0.703883 0.450782
0.990143 0.702388 0.450233
1.000000 0.700679 0.448951
1.000000 0.698604 0.446876
1.000000 0.696223 0.444343
1.000000 0.693324 0.439948
1.000000 0.689906 0.434058
1.000000 0.685847 0.426276
1.000000 0.680873 0.415930
0.220493 0.693111 0.453132
0.220584 0.692256 0.452491
0.226596 0.691371 0.451667
0.238560 0.690608 0.450904
0.257542 0.690120 0.449928
0.282261 0.689906 0.448920
0.310582 0.689998 0.447822
0.342321 0.690028 0.446662
0.376013 0.690089 0.445136
0.410834 0.690089 0.442908
0.447089 0.689937 0.440681
0.488746 0.694270 0.441505
0.532982 0.700557 0.443793
0.578515 0.707301 0.446143
0.625055 0.714260 0.448890
0.672267 0.721492 0.451667
0.719936 0.728817 0.454627
0.766293 0.735500 0.461219
0.804990 0.737209 0.466316
0.839506 0.736477 0.468544
0.872099 0.735348 0.470466
0.902556 0.733944 0.472419
0.931518 0.732235 0.473335
0.959319 0.730617 0.473915
0.985962 0.729000 0.474098
1.000000 0.727169 0.473274
1.000000 0.724971 0.471290
1.000000 0.722438 0.468452
1.000000 0.719326 0.464424
1.000000 0.715602 0.458686
1.000000 0.711238 0.450996
1.000000 0.705898 0.440650
0.253788 0.720760 0.471351
0.253849 0.720027 0.470680
0.258457 0.719265 0.469856
0.268437 0.718593 0.469062
0.284123 0.718135 0.468116
0.304936 0.717983 0.467201
0.330144 0.717952 0.466255
0.358343 0.717983 0.465217
0.389136 0.718013 0.463722
0.422004 0.717891 0.461860
0.456123 0.717708 0.459663
0.492714 0.718990 0.458564
0.535180 0.724819 0.461158
0.578607 0.730739 0.464179
0.623011 0.737118 0.467414
0.667597 0.743557 0.470741
0.712520 0.750027 0.474128
0.757992 0.756558 0.477211
0.800534 0.761807 0.485115
0.835538 0.761837 0.488930
0.867155 0.759976 0.490608
0.896880 0.757870 0.491646
0.924743 0.755550 0.492653
0.952117 0.753536 0.493111
0.978363 0.751583 0.493294
1.000000 0.749508 0.492500
1.000000 0.747189 0.490730
1.000000 0.744503 0.487922
1.000000 0.741238 0.483680
1.000000 0.737362 0.477485
1.000000 0.732845 0.470069
1.000000 0.727535 0.460334
0.282780 0.742550 0.485847
0.283360 0.742275 0.485512
0.287327 0.742061 0.485237
0.296208 0.741909 0.484901
0.310063 0.741939 0.484291
0.328313 0.742000 0.483772
0.350347 0.742184 0.483101
0.375677 0.742214 0.482124
0.403784 0.742123 0.480781
0.433478 0.742031 0.479072
0.464759 0.741817 0.477028
0.497658 0.741512 0.474617
0.536767 0.745663 0.476661
0.578119 0.751186 0.479957
0.620447 0.756954 0.483528
0.662898 0.763058 0.487373
0.706142 0.769223 0.491493
0.749325 0.775540 0.495735
0.792721 0.781888 0.499886
0.832578 0.786557 0.509361
0.864958 0.785977 0.513146
0.894652 0.783993 0.514611
0.922545 0.781765 0.515740
0.948577 0.779263 0.517144
0.974487 0.777279 0.517754
0.999451 0.775204 0.517327
1.000000 0.772854 0.516014
1.000000 0.770077 0.513542
1.000000 0.766812 0.509422
1.000000 0.762905 0.503563
1.000000 0.758236 0.495796
1.000000 0.752651 0.485847
0.322423 0.767697 0.505547
0.322820 0.767514 0.505241
0.326238 0.767300 0.504875
0.333349 0.767208 0.504509
0.344396 0.767117 0.503960
0.359533 0.767147 0.503502
0.378271 0.767239 0.502647
0.400122 0.767239 0.501671
0.424659 0.767239 0.500450
0.451423 0.767086 0.499031
0.479835 0.766873 0.496986
0.509789 0.766598 0.494728
0.543542 0.768124 0.494301
0.582757 0.773159 0.497963
0.622736 0.778439 0.502190
0.663203 0.784024 0.506462
0.704128 0.789792 0.510979
0.745235 0.795651 0.515740
0.786435 0.801633 0.520104
0.827543 0.807584 0.524773
0.864103 0.811307 0.535454
0.893553 0.809720 0.537865
0.920806 0.807248 0.539239
0.946380 0.804379 0.539788
0.971984 0.803311 0.543725
0.996063 0.801022 0.543969
1.000000 0.798642 0.542870
1.000000 0.795956 0.540642
1.000000 0.792752 0.536889
1.000000 0.788876 0.531395
1.000000 0.784207 0.524102
1.000000 0.777890 0.513115
0.359350 0.789670 0.523522
0.359442 0.789242 0.523033
0.361761 0.789120 0.522667
0.367987 0.789151 0.522484
0.377722 0.789395 0.522271
0.391028 0.789761 0.522210
0.407446 0.790188 0.522057
0.426703 0.790585 0.521477
0.448829 0.790921 0.520745
0.472877 0.791165 0.519646
0.498787 0.791409 0.518364
0.526299 0.791501 0.516503
0.555138 0.791531 0.514305
0.592004 0.796170 0.518395
0.630243 0.801480 0.523278
0.669032 0.806943 0.528557
0.708156 0.812680 0.533745
0.747311 0.818418 0.539208
0.786313 0.824094 0.544213
0.825254 0.829648 0.548913
0.863493 0.834806 0.554040
0.896696 0.837491 0.564263
0.923217 0.834836 0.565545
0.948119 0.831876 0.566369
0.971588 0.828580 0.566827
0.993469 0.825193 0.567559
1.000000 0.822599 0.567224
1.000000 0.820249 0.565820
1.000000 0.817380 0.562890
1.000000 0.813840 0.558434
1.000000 0.809140 0.551507
1.000000 0.802609 0.540917
0.405280 0.815244 0.547204
0.405249 0.814908 0.546807
0.406897 0.814725 0.546349
0.411658 0.814664 0.546044
0.419379 0.814755 0.545769
0.429816 0.814847 0.545403
0.443000 0.815000 0.544793
0.458991 0.815091 0.543908
0.477211 0.815122 0.542718
0.497810 0.815152 0.541466
0.520317 0.815152 0.539849
0.544854 0.815152 0.538018
0.570764 0.815213 0.535973
0.602441 0.817716 0.537530
0.638300 0.822660 0.542565
0.675013 0.827878 0.547906
0.712062 0.833280 0.553429
0.749111 0.838743 0.558801
0.786160 0.844083 0.563928
0.823056 0.849302 0.568627
0.859953 0.854307 0.573083
0.895384 0.858549 0.578820
0.925139 0.859617 0.587335
0.949157 0.856260 0.588067
0.971801 0.852659 0.588251
0.993194 0.848783 0.588006
1.000000 0.844755 0.587671
1.000000 0.841581 0.586542
1.000000 0.838926 0.584375
1.000000 0.835416 0.580255
1.000000 0.830442 0.573297
1.000000 0.824155 0.563378
0.444953 0.839261 0.568750
0.445136 0.839109 0.568505
0.446906 0.839017 0.568261
0.450874 0.839078 0.568078
0.457252 0.839170 0.567926
0.466224 0.839353 0.567590
0.477607 0.839536 0.567041
0.491371 0.839719 0.566278
0.507408 0.839841 0.565484
0.525505 0.839994 0.564172
0.545708 0.840085 0.562799
0.567620 0.840116 0.561181
0.591089 0.840238 0.559228
0.617212 0.841032 0.558099
0.650904 0.845609 0.563195
0.685145 0.850492 0.568322
0.719936 0.855436 0.573785
0.755001 0.860472 0.578882
0.790005 0.865324 0.583978
0.824887 0.870024 0.588708
0.859648 0.874601 0.593103
0.894347 0.878996 0.597314
0.926604 0.881926 0.603479
0.953002 0.881529 0.610590
0.974914 0.877714 0.610956
0.995666 0.873594 0.610620
1.000000 0.869261 0.609796
1.000000 0.864714 0.608820
1.000000 0.860655 0.606683
1.000000 0.856748 0.602289
1.000000 0.851865 0.595880
1.000000 0.845670 0.586633
0.483955 0.865049 0.591180
0.484077 0.864958 0.590936
0.485603 0.864836 0.590692
0.488838 0.864775 0.590448
0.494087 0.864744 0.590051
0.501366 0.864622 0.589349
0.510307 0.864378 0.588342
0.521447 0.863981 0.586999
0.534417 0.863523 0.585321
0.549401 0.862913 0.583337
0.566369 0.862272 0.580987
0.585199 0.861723 0.578607
0.605921 0.861234 0.576043
0.628260 0.860929 0.573358
0.657893 0.863890 0.576410
0.690028 0.868101 0.580896
0.722774 0.872496 0.585870
0.755886 0.876951 0.590814
0.789029 0.881285 0.595605
0.822324 0.885527 0.600214
0.855467 0.889616 0.604456
0.888579 0.893645 0.608698
0.921721 0.897612 0.612665
0.951110 0.899382 0.619287
0.975067 0.897948 0.625147
0.995483 0.893736 0.625025
1.000000 0.888792 0.623529
1.000000 0.883574 0.621485
1.000000 0.878019 0.619013
1.000000 0.872862 0.615412
1.000000 0.868284 0.609674
1.000000 0.862486 0.601404
0.512200 0.886412 0.607080
0.512505 0.886412 0.607080
0.514092 0.886442 0.607080
0.517205 0.886564 0.606989
0.522210 0.886687 0.606897
0.529107 0.886809 0.606531
0.537774 0.886900 0.606073
0.548333 0.886992 0.605371
0.560815 0.887022 0.604486
0.575250 0.887022 0.603235
0.591302 0.886961 0.601862
0.609186 0.886900 0.600244
0.628779 0.886870 0.598352
0.649897 0.886961 0.596429
