20 Preset/Japan Style/【3】LUT video cho PR-AE-FCPX/LUT VIDEO/Japan Style LUT (2).cube
# Created by Adobe Lightroom plugin Export LUT (1.24.0)
# www.johnrellis.com/lightroom/exportlut.htm
# Preset: 02日系基础色（素材江湖）
# Color profile: C:\Program Files (x86)\Common Files\Adobe\Color\Profiles\Recommended\VideoHD.icc
LUT_3D_SIZE 8
DOMAIN_MIN 0.000000 0.000000 0.000000
DOMAIN_MAX 0.903226 0.903226 0.903226
0.000000 0.000000 0.000000
0.230808 0.102571 0.043214
0.464576 0.198276 0.122225
0.675074 0.273960 0.150759
0.861692 0.346746 0.189853
0.977478 0.404944 0.243778
1.000000 0.453437 0.297612
1.000000 0.504814 0.364965
0.000000 0.236759 0.129213
0.224002 0.250736 0.098299
0.477668 0.291661 0.094942
0.694759 0.339086 0.135409
0.875364 0.392035 0.187289
0.987762 0.435248 0.246250
1.000000 0.475044 0.302861
1.000000 0.520165 0.370153
0.000000 0.418219 0.229679
0.138582 0.422797 0.223606
0.424567 0.452644 0.198062
0.668727 0.484138 0.167178
0.859190 0.505882 0.140597
0.974640 0.515068 0.224796
1.000000 0.528588 0.288609
1.000000 0.556725 0.362036
0.000000 0.578698 0.322271
0.000000 0.582116 0.320684
0.367773 0.593835 0.311528
0.610864 0.623560 0.290410
0.811673 0.634058 0.280369
0.944579 0.625147 0.269993
1.000000 0.617517 0.272038
1.000000 0.625940 0.358953
0.000000 0.722530 0.413428
0.142489 0.723629 0.412146
0.359960 0.726162 0.406317
0.560479 0.737789 0.399634
0.763912 0.758877 0.393530
0.912657 0.751278 0.397498
1.000000 0.733211 0.386450
1.000000 0.714229 0.362341
0.268742 0.816098 0.493263
0.295903 0.814298 0.490028
0.400397 0.815579 0.486641
0.538476 0.817624 0.479683
0.702480 0.832609 0.484535
0.865690 0.847684 0.484077
0.982940 0.836423 0.486946
1.000000 0.815946 0.467414
0.442786 0.897581 0.582116
0.454475 0.897368 0.581079
0.505150 0.898558 0.579644
0.588922 0.900206 0.576074
0.700893 0.906035 0.576654
0.826932 0.915740 0.582391
0.953307 0.924651 0.582788
1.000000 0.911254 0.581292
0.582727 0.973571 0.672114
0.589715 0.973754 0.672023
0.617792 0.974304 0.671168
0.667018 0.974395 0.667475
0.743374 0.978210 0.669245
0.830442 0.980041 0.668727
0.923278 0.981353 0.665431
1.000000 0.981415 0.655451
0.000000 0.074525 0.262730
0.214115 0.000000 0.251743
0.469612 0.187228 0.234012
0.684749 0.297856 0.235111
0.873960 0.373053 0.208347
0.990356 0.423987 0.249302
1.000000 0.467720 0.305943
1.000000 0.515435 0.374304
0.000000 0.229343 0.280186
0.198886 0.237369 0.273167
0.454658 0.286168 0.267491
0.684474 0.348974 0.251652
0.873991 0.407660 0.228275
0.991547 0.447364 0.247318
1.000000 0.484993 0.307591
1.000000 0.528435 0.377081
0.000000 0.416938 0.320256
0.137453 0.422553 0.315129
0.417731 0.447883 0.303319
0.664729 0.484382 0.294530
0.858854 0.512627 0.281346
0.980529 0.525078 0.264836
1.000000 0.539117 0.298314
1.000000 0.565332 0.371710
0.000000 0.588128 0.378698
0.045838 0.590784 0.377661
0.374151 0.598383 0.367987
0.621637 0.633906 0.358953
0.821805 0.646601 0.359045
0.952972 0.640162 0.351904
1.000000 0.631830 0.333837
1.000000 0.633356 0.369909
0.000000 0.723659 0.442695
0.163577 0.725216 0.442329
0.367834 0.728847 0.437659
0.566064 0.741176 0.433845
0.769680 0.764340 0.433661
0.915984 0.757748 0.439643
1.000000 0.741268 0.429664
1.000000 0.722011 0.398260
0.296818 0.818418 0.516533
0.325109 0.818631 0.515770
0.419562 0.819760 0.512566
0.549554 0.821347 0.505241
0.708370 0.835294 0.510491
0.867399 0.849882 0.511833
0.982727 0.840146 0.515709
1.000000 0.821469 0.497597
0.460639 0.900298 0.599268
0.474128 0.901091 0.599634
0.521996 0.902373 0.598718
0.601312 0.903624 0.594842
0.707546 0.908049 0.593408
0.831266 0.917876 0.599878
0.955871 0.927489 0.602930
1.000000 0.914855 0.602502
0.593011 0.975555 0.683619
0.598688 0.975311 0.682765
0.626184 0.975952 0.682155
0.674098 0.976013 0.678492
0.741878 0.976349 0.673091
0.830564 0.979309 0.674891
0.924010 0.981476 0.674189
1.000000 0.981689 0.665248
0.000000 0.139742 0.455695
0.000000 0.120150 0.450965
0.392187 0.093172 0.435981
0.611475 0.232639 0.419318
0.828183 0.370947 0.434730
0.954894 0.456092 0.436774
1.000000 0.501793 0.425055
1.000000 0.521508 0.391241
0.000000 0.196109 0.461219
0.110445 0.202976 0.457923
0.390448 0.233646 0.445014
0.612421 0.299046 0.431830
0.827390 0.411719 0.448341
0.954498 0.481270 0.448096
1.000000 0.518791 0.433021
1.000000 0.535515 0.400000
0.000000 0.399847 0.471107
0.000000 0.401434 0.469245
0.372107 0.411017 0.460853
0.600824 0.458320 0.464790
0.810636 0.509453 0.468147
0.942962 0.547204 0.463996
1.000000 0.570306 0.451484
1.000000 0.578973 0.421576
0.000000 0.565087 0.486091
0.000000 0.565972 0.485603
0.357183 0.574548 0.483375
0.588190 0.605646 0.483253
0.790127 0.633875 0.492317
0.922667 0.646326 0.493935
1.000000 0.652949 0.484779
1.000000 0.651209 0.459297
0.000000 0.711940 0.522057
0.154604 0.712978 0.521630
0.366461 0.716701 0.520806
0.552392 0.723812 0.515404
0.752438 0.750881 0.526574
0.895598 0.755917 0.541466
1.000000 0.752926 0.538537
1.000000 0.741787 0.514916
0.318090 0.811734 0.571405
0.351873 0.811582 0.573053
0.452949 0.812619 0.578393
0.566827 0.815702 0.574151
0.710353 0.828824 0.579431
0.860960 0.846799 0.587732
0.971984 0.843778 0.593957
1.000000 0.832242 0.580896
0.477729 0.895201 0.636255
0.495186 0.895689 0.638849
0.539940 0.897612 0.638788
0.614527 0.899901 0.636774
0.712123 0.903655 0.634211
0.831876 0.914885 0.643458
0.951324 0.925414 0.648920
1.000000 0.915801 0.649775
0.603815 0.973663 0.709194
0.610986 0.974029 0.709590
0.637507 0.974792 0.709377
0.682368 0.974548 0.705318
0.748013 0.975158 0.700740
0.832609 0.977569 0.701015
0.924163 0.980255 0.702358
1.000000 0.981079 0.696986
0.000000 0.184817 0.615869
0.000000 0.171664 0.610925
0.323156 0.090150 0.602747
0.559869 0.147158 0.586725
0.759976 0.259586 0.563867
0.915679 0.427375 0.562341
1.000000 0.569940 0.595972
1.000000 0.610407 0.588556
0.000000 0.167483 0.611963
0.000000 0.158541 0.609766
0.334508 0.188449 0.602686
0.555047 0.234653 0.586938
0.753750 0.309026 0.565118
0.911650 0.455818 0.568780
1.000000 0.583612 0.601160
1.000000 0.620417 0.592920
0.000000 0.368658 0.619745
0.000000 0.371191 0.618921
0.331487 0.384344 0.613062
0.553185 0.404273 0.599481
0.738430 0.441444 0.575280
0.891783 0.551324 0.594507
0.993011 0.622950 0.611383
1.000000 0.649073 0.600580
0.000000 0.544610 0.623835
0.000000 0.546868 0.623224
0.318914 0.554406 0.619165
0.538140 0.563317 0.608789
0.729183 0.602319 0.608423
0.873381 0.662654 0.632197
0.983886 0.692866 0.635065
1.000000 0.705501 0.621393
0.000000 0.690242 0.627619
0.000000 0.691432 0.627527
0.324468 0.694362 0.625330
0.533379 0.698024 0.620539
0.717037 0.724086 0.632959
0.860197 0.750881 0.652247
0.970275 0.767971 0.657130
1.000000 0.773007 0.646418
0.271031 0.796384 0.642145
0.307134 0.794888 0.640894
0.429053 0.796414 0.644404
0.570275 0.798978 0.650935
0.696162 0.808072 0.652613
0.843839 0.835477 0.671565
0.954894 0.845243 0.682734
1.000000 0.845243 0.676905
0.440375 0.888823 0.678401
0.458503 0.888670 0.679469
0.525475 0.889036 0.684535
0.620386 0.890532 0.692409
0.711788 0.894682 0.690303
0.826902 0.907408 0.700404
0.944213 0.922393 0.713771
1.000000 0.918303 0.717342
0.574578 0.970459 0.732937
0.586786 0.970489 0.734981
0.633906 0.970489 0.743587
0.689631 0.970977 0.746944
0.753567 0.972290 0.744045
0.833463 0.974517 0.742641
0.923796 0.978393 0.747982
1.000000 0.980163 0.746975
0.000000 0.226535 0.741512
0.000000 0.217990 0.738918
0.166262 0.180148 0.734859
0.496162 0.000000 0.726284
0.701686 0.181765 0.712795
0.868650 0.310735 0.678950
0.979767 0.467842 0.656458
1.000000 0.630335 0.690303
0.000000 0.215579 0.739406
0.000000 0.207218 0.736751
0.242313 0.169711 0.733181
0.495460 0.187716 0.725978
0.699397 0.246006 0.712978
0.864286 0.348058 0.679652
0.976440 0.490364 0.660731
1.000000 0.643244 0.695521
0.000000 0.335637 0.739590
0.000000 0.337896 0.738582
0.270726 0.349157 0.735592
0.496529 0.372381 0.728847
0.693080 0.405005 0.715846
0.852598 0.457832 0.685939
0.964477 0.574853 0.681422
1.000000 0.691402 0.716915
0.000000 0.511864 0.740475
0.000000 0.515557 0.739681
0.310185 0.528618 0.735897
0.505821 0.543084 0.728115
0.680446 0.558221 0.716518
0.824277 0.591638 0.693629
0.947112 0.679316 0.712520
1.000000 0.747982 0.738613
0.000000 0.657984 0.738857
0.000000 0.659205 0.738003
0.331640 0.665461 0.735164
0.526513 0.679744 0.729183
0.676967 0.693629 0.720851
0.809415 0.716091 0.716548
0.942565 0.775296 0.748196
1.000000 0.797787 0.748623
0.207553 0.784115 0.744289
0.261692 0.784512 0.743893
0.398840 0.786862 0.742336
0.541741 0.788937 0.736904
0.680964 0.795010 0.732937
0.820859 0.819455 0.746609
0.939269 0.846555 0.765438
1.000000 0.858396 0.765713
0.350744 0.881865 0.745754
0.376318 0.882444 0.746181
0.459358 0.883940 0.746822
0.576959 0.885100 0.748348
0.703731 0.888212 0.755489
0.815457 0.898070 0.761318
0.937194 0.920684 0.785977
1.000000 0.924346 0.793606
0.475044 0.972930 0.766323
0.493355 0.972930 0.767941
0.560357 0.972717 0.774594
0.657130 0.970855 0.785336
0.758816 0.970428 0.800504
0.833890 0.972412 0.797208
0.923400 0.977447 0.805142
1.000000 0.980896 0.810880
0.000000 0.273411 0.827970
0.000000 0.268681 0.826658
0.000000 0.249851 0.825620
0.381842 0.202518 0.821469
0.612818 0.121645 0.815396
0.797024 0.240635 0.802060
0.951568 0.361456 0.773709
1.000000 0.504173 0.739406
0.000000 0.271946 0.833646
0.000000 0.267887 0.833249
0.000000 0.249027 0.831449
0.402747 0.202457 0.827207
0.615564 0.206668 0.818997
0.798306 0.291569 0.804654
0.951354 0.390723 0.776516
1.000000 0.525750 0.744228
0.000000 0.291142 0.831998
0.000000 0.294499 0.831754
0.166140 0.306554 0.829587
0.425086 0.333593 0.826566
0.617029 0.373663 0.816861
0.791409 0.417884 0.803433
0.939422 0.477760 0.777829
1.000000 0.588586 0.754940
0.000000 0.482856 0.829068
0.000000 0.488289 0.828794
0.285710 0.501854 0.825834
0.457343 0.511955 0.818906
0.620661 0.529320 0.810147
0.778744 0.554833 0.798947
0.915892 0.595209 0.778897
1.000000 0.673732 0.771633
0.000000 0.624048 0.829679
0.146670 0.626734 0.829191
0.340978 0.638453 0.826566
0.515373 0.661799 0.820737
0.648707 0.676112 0.813687
0.778347 0.687587 0.804349
0.904631 0.705684 0.789456
1.000000 0.773465 0.803128
0.243900 0.748714 0.830594
0.283299 0.749447 0.829343
0.399847 0.755642 0.827573
0.533227 0.765743 0.824155
0.660975 0.778134 0.819486
0.778714 0.787015 0.810697
0.902098 0.809415 0.807889
1.000000 0.864164 0.839872
0.267277 0.861143 0.838315
0.296513 0.861295 0.837461
0.393286 0.863798 0.835935
0.517510 0.868437 0.832670
0.645411 0.874815 0.826932
0.782589 0.880278 0.821134
0.917266 0.908537 0.847318
1.000000 0.927184 0.862913
0.308110 0.968841 0.842222
0.336431 0.969146 0.842161
0.425635 0.969390 0.840879
0.548455 0.969635 0.838560
0.689937 0.969360 0.840909
0.827878 0.969238 0.858427
0.916442 0.973846 0.862364
1.000000 0.981048 0.877195
0.000000 0.339239 0.922301
0.000000 0.338018 0.923522
0.000000 0.326970 0.921843
0.226017 0.303502 0.919646
0.513054 0.258061 0.914885
0.717311 0.157595 0.907622
0.888823 0.300328 0.893400
1.000000 0.406989 0.868040
0.000000 0.331823 0.915923
0.000000 0.331029 0.917571
0.000000 0.320256 0.916167
0.246799 0.296208 0.913237
0.514672 0.248875 0.907530
0.709804 0.209415 0.897856
0.877562 0.317235 0.882353
1.000000 0.408484 0.856535
0.000000 0.330480 0.922057
0.000000 0.327977 0.921752
0.000000 0.316503 0.919188
0.316991 0.292027 0.915557
0.533013 0.303044 0.907225
0.711574 0.363226 0.896208
0.877012 0.423346 0.885496
1.000000 0.496773 0.864469
0.000000 0.446540 0.924407
0.000000 0.448310 0.923613
0.126345 0.454688 0.919615
0.384955 0.470649 0.915312
0.559686 0.491249 0.907408
0.721950 0.521569 0.899046
0.876036 0.562524 0.889433
1.000000 0.607141 0.869169
0.000000 0.586725 0.914824
0.000000 0.588251 0.912810
0.270329 0.600458 0.908904
0.454841 0.624445 0.904753
0.589929 0.635462 0.898680
0.727138 0.650538 0.890410
0.863798 0.669612 0.881407
0.994629 0.700557 0.869627
0.000000 0.705074 0.909148
0.148074 0.707546 0.908995
0.324712 0.716976 0.907439
0.481270 0.733242 0.904784
0.622766 0.752895 0.900572
0.745235 0.766690 0.897337
0.868620 0.778622 0.890684
0.986999 0.796658 0.876249
0.243931 0.820127 0.913542
0.281621 0.822202 0.914153
0.380499 0.826596 0.912749
0.506157 0.835264 0.910796
0.631556 0.845762 0.906737
0.756497 0.859709 0.901946
0.873472 0.874998 0.897917
0.986389 0.907378 0.905852
0.000000 0.937041 0.933715
0.138094 0.938079 0.933898
0.319799 0.943053 0.935698
0.470436 0.949187 0.934722
0.611841 0.955932 0.930114
0.752255 0.962097 0.920928
0.891051 0.964935 0.916655
0.988800 0.978210 0.937865
0.000000 0.402441 0.984497
0.000000 0.403082 0.985077
0.000000 0.395789 0.982696
0.000000 0.383307 0.981445
0.382879 0.360479 0.978607
0.598505 0.322301 0.974060
0.783291 0.259190 0.969543
0.953491 0.276585 0.959808
0.000000 0.398138 0.980987
0.000000 0.398932 0.981659
0.000000 0.392157 0.980194
0.000000 0.379004 0.978393
0.385046 0.355840 0.975525
0.598230 0.317327 0.970977
0.780880 0.250919 0.965393
0.947906 0.294743 0.954192
0.000000 0.397253 0.980896
0.000000 0.395972 0.980865
0.000000 0.388739 0.978973
0.000000 0.378668 0.979706
0.401678 0.354467 0.975708
0.604517 0.314122 0.969909
0.782559 0.296818 0.963561
0.943755 0.381476 0.951446
0.000000 0.397314 0.982696
0.000000 0.396521 0.982940
0.000000 0.389837 0.981537
0.000000 0.377935 0.980499
0.420142 0.358465 0.977600
0.615503 0.403967 0.970153
0.783871 0.450996 0.962005
0.940887 0.502770 0.951354
0.000000 0.488045 0.980682
0.000000 0.492622 0.980896
0.000000 0.505516 0.978546
0.185397 0.512139 0.976196
0.443336 0.528313 0.971038
0.621912 0.551080 0.963806
0.783597 0.584283 0.956268
0.936584 0.622614 0.949035
0.000000 0.615930 0.976013
0.000000 0.616938 0.974884
0.000000 0.623651 0.971679
0.232090 0.643214 0.967987
0.496742 0.677882 0.964263
0.647120 0.692988 0.963073
0.797543 0.717708 0.961089
0.943450 0.745205 0.958526
0.000000 0.738949 0.976410
0.000000 0.740291 0.975799
0.000000 0.746731 0.973510
0.263584 0.762112 0.970825
0.501518 0.782956 0.967529
0.672206 0.808804 0.965240
0.814908 0.833066 0.966278
0.949096 0.855528 0.965087
0.000000 0.867399 0.987366
0.000000 0.868620 0.987121
0.000000 0.874784 0.987121
0.368780 0.885008 0.986145
0.553460 0.898528 0.984039
0.709529 0.915435 0.980804
0.848112 0.935515 0.976867
0.955810 0.952422 0.971466
