20 Preset/Japan Style/【3】LUT video cho PR-AE-FCPX/LUT VIDEO/Japan Style LUT (7).cube
# Created by Adobe Lightroom plugin Export LUT (1.24.0)
# www.johnrellis.com/lightroom/exportlut.htm
# Preset: 07日系基础色（素材江湖）
# Color profile: C:\Program Files (x86)\Common Files\Adobe\Color\Profiles\Recommended\VideoHD.icc
LUT_3D_SIZE 5
DOMAIN_MIN 0.000000 0.000000 0.000000
DOMAIN_MAX 0.903226 0.903226 0.903226
0.000000 0.000000 0.000000
0.362890 0.135958 0.102327
0.691310 0.239445 0.161410
0.949065 0.339391 0.236423
1.000000 0.427100 0.337957
0.000000 0.303624 0.195560
0.342718 0.323064 0.180941
0.701717 0.371435 0.154116
0.951171 0.414343 0.227115
1.000000 0.465003 0.335332
0.000000 0.543206 0.359258
0.306798 0.547295 0.354070
0.667414 0.593439 0.351263
0.927001 0.595636 0.354650
1.000000 0.589868 0.337560
0.282780 0.742550 0.485847
0.375677 0.742214 0.482124
0.620447 0.756954 0.483528
0.894652 0.783993 0.514611
1.000000 0.766812 0.509422
0.549523 0.912352 0.629786
0.580835 0.912566 0.627649
0.703182 0.918639 0.626856
0.899413 0.936736 0.651942
1.000000 0.923033 0.659724
0.000000 0.191989 0.415839
0.252995 0.204166 0.401190
0.642542 0.293706 0.388373
0.930968 0.415198 0.407324
1.000000 0.472053 0.386877
0.000000 0.347417 0.427405
0.238956 0.348363 0.421515
0.635096 0.401587 0.424994
0.925719 0.471870 0.428656
1.000000 0.511192 0.409003
0.000000 0.559899 0.477089
0.263828 0.564141 0.475868
0.637018 0.603540 0.480018
0.905333 0.626062 0.493812
1.000000 0.631800 0.478523
0.252628 0.747585 0.547723
0.366461 0.747524 0.548272
0.600275 0.752590 0.544518
0.877501 0.791592 0.587793
1.000000 0.788022 0.588708
0.554528 0.913970 0.663905
0.585077 0.914427 0.662379
0.694545 0.915221 0.654231
0.889311 0.934417 0.678737
1.000000 0.925994 0.690852
0.000000 0.339117 0.687984
0.000000 0.350103 0.683192
0.476631 0.368292 0.666011
0.811978 0.421881 0.622614
1.000000 0.619318 0.662623
0.000000 0.430274 0.683925
0.000000 0.429206 0.683162
0.480415 0.444282 0.670985
0.804929 0.477302 0.632380
1.000000 0.652888 0.677668
0.000000 0.590814 0.695338
0.000000 0.594934 0.693690
0.499519 0.608301 0.684871
0.786069 0.634577 0.666957
1.000000 0.733303 0.708400
0.000000 0.758877 0.711177
0.211276 0.761776 0.711604
0.550744 0.764126 0.704677
0.812406 0.793759 0.721798
1.000000 0.834195 0.746761
0.449165 0.925170 0.743160
0.509056 0.924498 0.745174
0.678157 0.923919 0.755154
0.858457 0.933776 0.763272
1.000000 0.942626 0.794217
0.000000 0.447517 0.863523
0.000000 0.457038 0.860838
0.169772 0.504967 0.853208
0.651392 0.535210 0.839353
0.946014 0.588464 0.822080
0.000000 0.498116 0.863066
0.000000 0.503655 0.861936
0.241550 0.545800 0.855131
0.660945 0.577295 0.842130
0.944244 0.619898 0.825711
0.000000 0.614099 0.864195
0.000000 0.620783 0.861997
0.355993 0.649744 0.855467
0.684810 0.681331 0.842069
0.942321 0.703365 0.830350
0.000000 0.753658 0.869566
0.000000 0.758450 0.869230
0.453803 0.775235 0.864622
0.725948 0.797787 0.855924
0.962585 0.827237 0.845274
0.000000 0.929046 0.903746
0.000000 0.931029 0.901793
0.468696 0.937743 0.890837
0.783780 0.937407 0.874998
0.992554 0.960357 0.908110
0.000000 0.556420 1.000000
0.000000 0.560052 1.000000
0.000000 0.601892 1.000000
0.575372 0.686702 0.991943
0.817288 0.713588 0.984222
0.000000 0.574945 1.000000
0.000000 0.578027 1.000000
0.000000 0.620569 1.000000
0.588708 0.703639 0.990631
0.820920 0.726925 0.983734
0.000000 0.631769 1.000000
0.000000 0.633783 1.000000
0.000000 0.675471 1.000000
0.628626 0.758663 0.989899
0.839322 0.776577 0.985748
0.000000 0.729732 1.000000
0.000000 0.733089 1.000000
0.000000 0.757961 1.000000
0.621180 0.814084 0.997467
0.877775 0.856687 0.990509
0.000000 0.864958 1.000000
0.000000 0.869535 1.000000
0.264225 0.887480 1.000000
0.668544 0.917113 1.000000
0.940276 0.960876 0.993744
