20 Preset/Japan Style/【3】LUT video cho PR-AE-FCPX/LUT VIDEO/Japan Style LUT (25).cube
# Created by Adobe Lightroom plugin Export LUT (1.24.0)
# www.johnrellis.com/lightroom/exportlut.htm
# Preset: 25日系绿色低饱和（素材江湖）
# Color profile: C:\Program Files (x86)\Common Files\Adobe\Color\Profiles\Recommended\VideoHD.icc
LUT_3D_SIZE 8
DOMAIN_MIN 0.000000 0.000000 0.000000
DOMAIN_MAX 0.903226 0.903226 0.903226
0.040009 0.078370 0.088746
0.095338 0.083528 0.092012
0.167361 0.093080 0.101625
0.282261 0.083467 0.111269
0.444923 0.000000 0.120516
0.636591 0.000000 0.128786
0.809110 0.000000 0.138064
0.946960 0.000000 0.155612
0.043366 0.104646 0.108766
0.068910 0.110414 0.107820
0.160861 0.114748 0.115541
0.279301 0.110262 0.121370
0.442664 0.056184 0.129274
0.631098 0.000000 0.136873
0.800565 0.000000 0.145235
0.940948 0.004303 0.162081
0.010315 0.157534 0.150912
0.055848 0.160311 0.155612
0.109834 0.182498 0.146700
0.286412 0.197330 0.170626
0.466102 0.193942 0.171023
0.655726 0.181643 0.174411
0.821012 0.192325 0.182284
0.951202 0.247349 0.202090
0.000000 0.242802 0.209049
0.000000 0.244236 0.211917
0.131624 0.246830 0.221653
0.195926 0.309911 0.202548
0.510704 0.368719 0.260533
0.692531 0.371740 0.264683
0.835904 0.381811 0.266911
0.951843 0.413794 0.288121
0.000000 0.355993 0.279881
0.000000 0.356664 0.281773
0.124086 0.360937 0.292271
0.207034 0.338567 0.284215
0.325536 0.466377 0.267613
0.689845 0.560143 0.342931
0.830442 0.571923 0.422492
0.937346 0.588922 0.439887
0.000000 0.483589 0.362066
0.000000 0.486336 0.365484
0.097230 0.486946 0.372229
0.282872 0.487251 0.388403
0.286107 0.422827 0.342840
0.486976 0.624872 0.362737
0.815000 0.727413 0.482399
0.910613 0.752621 0.646265
0.000000 0.630304 0.474067
0.000000 0.630457 0.475593
0.181582 0.628229 0.479530
0.329076 0.623529 0.488441
0.399908 0.594049 0.472938
0.383246 0.548669 0.420752
0.639246 0.760067 0.505577
0.896391 0.847227 0.645441
0.351720 0.781033 0.634699
0.363958 0.780423 0.635401
0.410101 0.778378 0.638819
0.481666 0.774075 0.645380
0.550866 0.758633 0.644587
0.541009 0.718349 0.593988
0.563592 0.739376 0.578973
0.781552 0.877867 0.691218
0.042145 0.078218 0.111238
0.092927 0.082277 0.108705
0.165408 0.088991 0.112551
0.272374 0.093202 0.127596
0.430945 0.000000 0.136660
0.616632 0.000000 0.144503
0.788296 0.000000 0.151888
0.932403 0.000000 0.165866
0.023987 0.108217 0.120882
0.080354 0.111360 0.124392
0.159792 0.116548 0.129519
0.274083 0.115450 0.136812
0.434638 0.083009 0.144411
0.618982 0.000000 0.151369
0.786679 0.000000 0.158328
0.929320 0.000000 0.172152
0.013031 0.162173 0.158633
0.057588 0.164706 0.162905
0.120180 0.183566 0.161105
0.281559 0.197269 0.180728
0.455512 0.193301 0.181918
0.639490 0.179294 0.184756
0.802029 0.181613 0.190799
0.938231 0.233463 0.207553
0.000000 0.245701 0.213993
0.000000 0.247288 0.216861
0.143252 0.254093 0.230869
0.200595 0.304204 0.211795
0.488960 0.354376 0.269871
0.669978 0.357000 0.265232
0.818265 0.366979 0.266972
0.940459 0.400305 0.286809
0.000000 0.359350 0.284428
0.000000 0.359838 0.286168
0.124697 0.363195 0.295537
0.216037 0.344366 0.290898
0.327398 0.460273 0.274693
0.679896 0.549462 0.351537
0.822568 0.563134 0.419471
0.931945 0.580957 0.436347
0.000000 0.484169 0.364569
0.000000 0.484718 0.366278
0.095888 0.485908 0.373327
0.281987 0.487160 0.389471
0.293675 0.428504 0.348699
0.488838 0.622309 0.369299
0.811643 0.722896 0.489143
0.908019 0.748501 0.642847
0.000000 0.628534 0.473823
0.000000 0.627466 0.474220
0.172946 0.625269 0.477974
0.325597 0.621546 0.487617
0.406561 0.596857 0.477913
0.386023 0.545098 0.422339
0.637110 0.756313 0.506126
0.893309 0.843259 0.644251
0.341497 0.778592 0.631983
0.356115 0.778775 0.633600
0.403357 0.776577 0.636866
0.476936 0.772519 0.643732
0.556023 0.763272 0.650782
0.548211 0.722591 0.600763
0.564355 0.737484 0.579950
0.781888 0.877317 0.692927
0.040131 0.080354 0.157626
0.094270 0.083040 0.158053
0.151614 0.095003 0.153628
0.267308 0.082033 0.162020
0.427375 0.000000 0.160830
0.608026 0.000000 0.178592
0.781979 0.000000 0.189425
0.930327 0.000000 0.202853
0.000183 0.108522 0.171023
0.080476 0.111604 0.171084
0.153475 0.116579 0.165743
0.270329 0.107362 0.170413
0.429847 0.000000 0.171511
0.609339 0.000000 0.186130
0.780850 0.000000 0.194919
0.928191 0.000000 0.208194
0.000000 0.176669 0.194369
0.000000 0.179568 0.197055
0.149660 0.188266 0.206577
0.286137 0.188693 0.206455
0.453559 0.182925 0.211917
0.632929 0.165133 0.217441
0.795895 0.162905 0.224674
0.934203 0.216251 0.239658
0.000000 0.267552 0.239689
0.000000 0.270390 0.243168
0.146822 0.278721 0.255528
0.241947 0.316075 0.257084
0.488685 0.350805 0.298100
0.665705 0.350530 0.293675
0.815213 0.361089 0.297154
0.938781 0.395087 0.314488
0.000000 0.383001 0.309575
0.000000 0.383856 0.311376
0.127169 0.388525 0.320531
0.271458 0.389014 0.335119
0.366430 0.472633 0.319951
0.680903 0.548028 0.411170
0.818509 0.559655 0.438727
0.929473 0.578088 0.454444
0.000000 0.505119 0.387854
0.000000 0.505852 0.389563
0.114565 0.507225 0.396307
0.295628 0.508598 0.411139
0.342199 0.465583 0.385779
0.511650 0.626642 0.406622
0.809384 0.719417 0.533318
0.906523 0.747005 0.650629
0.000000 0.644495 0.494697
0.000000 0.643671 0.495216
0.192172 0.641169 0.498329
0.338964 0.637140 0.506981
0.450202 0.624262 0.514244
0.413733 0.545312 0.441169
0.651942 0.760067 0.536065
0.894194 0.843351 0.673671
0.343359 0.785702 0.643519
0.355291 0.784878 0.643763
0.403906 0.782773 0.647028
0.480629 0.779782 0.654963
0.561059 0.771206 0.662165
0.573510 0.737179 0.625177
0.573602 0.734493 0.590173
0.787564 0.878508 0.706416
0.017151 0.085389 0.226444
0.089265 0.087251 0.227665
0.185489 0.084138 0.229923
0.257603 0.091768 0.217929
0.404730 0.000000 0.227329
0.589837 0.000000 0.227024
0.765866 0.000000 0.214725
0.913970 0.000000 0.237736
0.000000 0.111391 0.241459
0.069978 0.111299 0.241611
0.187503 0.108736 0.242191
0.264561 0.112734 0.227848
0.411963 0.024567 0.234287
0.595270 0.000000 0.232242
0.767727 0.000000 0.223178
0.915160 0.000000 0.244785
0.000000 0.180819 0.270359
0.000000 0.181125 0.273442
0.159213 0.183383 0.277043
0.281804 0.185122 0.262181
0.438849 0.160372 0.262913
0.620203 0.004395 0.255039
0.784054 0.000000 0.262303
0.927031 0.123140 0.277501
0.000000 0.292760 0.302983
0.000000 0.295476 0.305303
0.000000 0.307042 0.315648
0.299657 0.323888 0.334844
0.479011 0.311437 0.322820
0.646571 0.311589 0.324529
0.800473 0.322301 0.329747
0.931640 0.358648 0.344121
0.000000 0.420600 0.358587
0.000000 0.422950 0.360784
0.102327 0.433906 0.371740
0.309178 0.445319 0.391760
0.433661 0.492317 0.400183
0.675013 0.539757 0.465309
0.811978 0.543786 0.462593
0.926421 0.562524 0.475166
0.000000 0.548455 0.437629
0.000000 0.550958 0.440772
0.140291 0.551873 0.446326
0.323278 0.554070 0.459754
0.444282 0.543694 0.469764
0.557916 0.639918 0.477607
0.807431 0.718471 0.607294
0.905180 0.740719 0.659785
0.000000 0.671687 0.532189
0.000000 0.671778 0.533471
0.215640 0.670954 0.537987
0.362554 0.668452 0.547234
0.489815 0.661921 0.561822
0.486915 0.599664 0.504326
0.676417 0.766049 0.585901
0.894774 0.842069 0.718502
0.340002 0.801358 0.667536
0.353826 0.800870 0.668238
0.405829 0.798886 0.671382
0.484596 0.795071 0.677760
0.569024 0.787442 0.684962
0.619104 0.764767 0.671717
0.588830 0.725063 0.605798
0.797818 0.880766 0.730220
0.000000 0.085969 0.323369
0.081666 0.083589 0.324529
0.205661 0.056855 0.326207
0.333410 0.000000 0.326421
0.406683 0.000000 0.299962
0.559655 0.000000 0.307042
0.743709 0.000000 0.310124
0.909422 0.000000 0.302678
0.000000 0.108827 0.336614
0.047150 0.107393 0.337285
0.206485 0.097169 0.338109
0.341924 0.027985 0.336584
0.414069 0.030060 0.308171
0.565087 0.000000 0.312932
0.747311 0.000000 0.314397
0.911009 0.000000 0.305821
0.000000 0.169955 0.372045
0.000000 0.170413 0.372778
0.174716 0.176547 0.372290
0.355352 0.163638 0.370794
0.437140 0.164431 0.338750
0.582605 0.105165 0.334966
0.759091 0.000000 0.331670
0.915465 0.000000 0.317449
0.000000 0.303349 0.404181
0.000000 0.304295 0.406653
0.000000 0.306889 0.418097
0.316411 0.310246 0.427802
0.473274 0.308568 0.401160
0.620050 0.279454 0.386358
0.784085 0.233555 0.370855
0.924254 0.222232 0.359747
0.000000 0.446784 0.441505
0.000000 0.449256 0.443580
0.000000 0.458686 0.452461
0.252293 0.476875 0.470253
0.493996 0.496559 0.495491
0.655726 0.470497 0.467018
0.796902 0.476143 0.463905
0.922179 0.497597 0.471870
0.000000 0.575036 0.494179
0.000000 0.576837 0.496223
0.000000 0.582788 0.503014
0.316594 0.595544 0.519158
0.490730 0.604700 0.541833
0.610163 0.651545 0.563378
0.799405 0.706386 0.650294
0.904356 0.714199 0.652979
0.000000 0.706447 0.585595
0.000000 0.705653 0.585595
0.187442 0.703822 0.587335
0.361273 0.702205 0.595300
0.506249 0.698909 0.610132
0.593011 0.677180 0.607782
0.704463 0.771237 0.643610
0.893767 0.838437 0.767208
0.256260 0.816861 0.689998
0.279026 0.816373 0.690730
0.356756 0.814511 0.694087
0.463294 0.812802 0.703243
0.565454 0.806943 0.712093
0.654475 0.795529 0.719753
0.624506 0.733181 0.642603
0.808347 0.880735 0.756588
0.000000 0.048157 0.449836
0.103151 0.036805 0.450660
0.242100 0.000000 0.450874
0.393988 0.000000 0.451972
0.518578 0.000000 0.444190
0.583673 0.000000 0.400336
0.717311 0.000000 0.401465
0.893553 0.000000 0.413428
0.000000 0.094545 0.456764
0.077546 0.090394 0.456672
0.237278 0.038148 0.456855
0.392828 0.000000 0.457130
0.521935 0.000000 0.449439
0.585199 0.000000 0.404395
0.717403 0.000000 0.404211
0.892546 0.000000 0.415106
0.000000 0.171847 0.490150
0.000000 0.170687 0.489967
0.202823 0.162966 0.489418
0.390906 0.135622 0.488045
0.546777 0.059632 0.481483
0.605982 0.092500 0.431250
0.732906 0.000000 0.424353
0.900053 0.000000 0.429267
0.000000 0.300847 0.533043
0.000000 0.299199 0.534874
0.000000 0.287022 0.539849
0.347539 0.297307 0.542321
0.572595 0.287175 0.539971
0.640131 0.285924 0.486580
0.760403 0.247257 0.467597
0.914275 0.193759 0.459937
0.000000 0.462898 0.558190
0.000000 0.463691 0.560082
0.000000 0.467506 0.567803
0.150027 0.472023 0.584192
0.506004 0.476783 0.595117
0.655573 0.471412 0.559075
0.778439 0.429816 0.525139
0.922118 0.398016 0.500114
0.000000 0.605463 0.592950
0.000000 0.607752 0.595270
0.000000 0.612726 0.601007
0.158999 0.622583 0.612512
0.451270 0.638300 0.631586
0.660761 0.661616 0.661463
0.791592 0.633814 0.625269
0.910307 0.640436 0.622644
0.000000 0.730495 0.653620
0.000000 0.731594 0.655177
0.000000 0.733913 0.658961
0.310735 0.738552 0.667353
0.513207 0.746395 0.683192
0.653101 0.747951 0.701320
0.747524 0.785824 0.722530
0.895140 0.836454 0.807401
0.227329 0.842527 0.741543
0.254612 0.842283 0.741726
0.343572 0.842100 0.744167
0.437324 0.839536 0.746731
0.547112 0.834348 0.751339
0.661799 0.826658 0.761715
0.715145 0.797848 0.743435
0.826963 0.883543 0.795346
0.121431 0.000000 0.605951
0.177096 0.000000 0.606744
0.307317 0.000000 0.606592
0.465064 0.000000 0.606867
0.630396 0.000000 0.605798
0.709895 0.000000 0.575433
0.766354 0.000000 0.519799
0.868437 0.000000 0.510521
0.078401 0.000000 0.608789
0.156558 0.000000 0.609766
0.298497 0.000000 0.609522
0.459174 0.000000 0.608515
0.626154 0.000000 0.607019
0.710262 0.000000 0.578302
0.763180 0.000000 0.519921
0.863920 0.000000 0.509087
0.000000 0.148043 0.633509
0.000000 0.144350 0.633356
0.253452 0.123598 0.632105
0.444526 0.000000 0.630426
0.623804 0.000000 0.627405
0.732265 0.000000 0.608484
0.775418 0.000000 0.540703
0.873167 0.000000 0.525994
0.000000 0.260136 0.669154
0.000000 0.253971 0.669032
0.000000 0.272740 0.668391
0.381353 0.265995 0.666865
0.603021 0.242893 0.663478
0.749844 0.226474 0.651637
0.791287 0.233433 0.579736
0.884672 0.198947 0.555505
0.000000 0.458045 0.690517
0.000000 0.456336 0.690883
0.000000 0.450050 0.695125
0.000000 0.431403 0.702815
0.518273 0.443000 0.701411
0.737972 0.442237 0.696437
0.793362 0.427070 0.629603
0.895476 0.391119 0.598505
0.000000 0.620661 0.710384
0.000000 0.620966 0.711421
0.000000 0.621820 0.715175
0.000000 0.623011 0.722744
0.364843 0.623713 0.735531
0.658686 0.635096 0.745541
0.787747 0.627192 0.708400
0.898131 0.581201 0.666865
0.000000 0.746395 0.740475
0.000000 0.747219 0.741543
0.000000 0.748989 0.744198
0.000000 0.753079 0.750210
0.418097 0.760067 0.759823
0.618708 0.773098 0.776181
0.786740 0.794430 0.802152
0.892729 0.766537 0.766201
0.000000 0.857603 0.797604
0.000000 0.857725 0.798032
0.000000 0.858640 0.800504
0.323827 0.859403 0.804044
0.510430 0.860594 0.809689
0.664393 0.863615 0.819974
0.774868 0.858946 0.829038
0.856992 0.891081 0.847684
0.264775 0.000000 0.774441
0.298009 0.000000 0.774746
0.404700 0.000000 0.773373
0.551598 0.000000 0.772580
0.706294 0.000000 0.770901
0.845457 0.000000 0.766598
0.885893 0.000000 0.716915
0.940398 0.000000 0.660761
0.243992 0.000000 0.775265
0.280278 0.000000 0.775540
0.393530 0.000000 0.774685
0.544488 0.000000 0.773587
0.701717 0.000000 0.771725
0.844358 0.000000 0.767849
0.885710 0.000000 0.718929
0.938262 0.000000 0.660731
0.073426 0.027039 0.785794
0.178042 0.000000 0.785702
0.341131 0.000000 0.784543
0.517937 0.000000 0.784543
0.687495 0.000000 0.781827
0.840269 0.000000 0.777798
0.892424 0.000000 0.735409
0.939300 0.000000 0.670771
0.000000 0.233524 0.804044
0.000000 0.239841 0.804135
0.077241 0.237156 0.803037
0.437385 0.211521 0.801846
0.647669 0.164218 0.799161
0.819089 0.104585 0.795163
0.902800 0.092714 0.767453
0.940856 0.145693 0.692531
0.000000 0.415259 0.823239
0.000000 0.410407 0.823697
0.000000 0.386633 0.823545
0.000000 0.376867 0.823484
0.544549 0.395422 0.819120
0.764797 0.389441 0.814389
0.896727 0.386664 0.800839
0.935332 0.378637 0.723384
0.000000 0.613092 0.831724
0.000000 0.611383 0.831815
0.000000 0.604578 0.832700
0.000000 0.590967 0.836027
0.065278 0.565515 0.841825
0.659724 0.590753 0.838560
0.865843 0.601770 0.835172
0.919615 0.576898 0.772427
0.000000 0.763027 0.846677
0.000000 0.762753 0.846769
0.000000 0.761349 0.847501
0.000000 0.759457 0.849699
0.102968 0.757351 0.853605
0.527428 0.755825 0.860716
0.780941 0.765621 0.866575
0.896025 0.751431 0.832303
0.000000 0.872496 0.870146
0.000000 0.872404 0.870237
0.000000 0.872313 0.870939
0.000000 0.872679 0.872923
0.383978 0.873564 0.875975
0.589929 0.875975 0.880858
0.754513 0.883116 0.890105
0.895506 0.900664 0.908965
