20 Preset/Japan Style/【3】LUT video cho PR-AE-FCPX/LUT VIDEO/Japan Style LUT (4).cube
# Created by Adobe Lightroom plugin Export LUT (1.24.0)
# www.johnrellis.com/lightroom/exportlut.htm
# Preset: 04日系基础色（素材江湖）
# Color profile: C:\Program Files (x86)\Common Files\Adobe\Color\Profiles\Recommended\VideoHD.icc
LUT_3D_SIZE 5
DOMAIN_MIN 0.000000 0.000000 0.000000
DOMAIN_MAX 0.903226 0.903226 0.903226
0.000000 0.000000 0.000000
0.368444 0.136965 0.103975
0.703304 0.239506 0.163729
0.958648 0.338933 0.241337
1.000000 0.428809 0.345464
0.060914 0.302342 0.186740
0.357519 0.324498 0.168032
0.718166 0.373236 0.127993
0.961547 0.413031 0.233402
1.000000 0.465583 0.342931
0.188510 0.540551 0.337652
0.352117 0.548028 0.333410
0.697292 0.594568 0.323827
0.945525 0.590082 0.316167
1.000000 0.588190 0.348180
0.355413 0.739803 0.460945
0.430732 0.739376 0.456672
0.664973 0.762295 0.463813
0.919768 0.778378 0.484565
1.000000 0.754665 0.470008
0.579431 0.911986 0.608240
0.610346 0.912169 0.605829
0.741848 0.923247 0.615595
0.931273 0.939117 0.635431
1.000000 0.914763 0.634760
0.000000 0.181674 0.390570
0.275181 0.196445 0.374212
0.671321 0.296849 0.364324
0.949584 0.405676 0.367224
1.000000 0.458686 0.350530
0.000000 0.340063 0.401434
0.278355 0.343206 0.393622
0.666651 0.399878 0.396643
0.945434 0.463264 0.389960
1.000000 0.493080 0.355932
0.119875 0.558099 0.451942
0.328557 0.562371 0.450477
0.675776 0.607446 0.455451
0.928405 0.620172 0.460578
1.000000 0.617151 0.435279
0.353643 0.745602 0.524956
0.426246 0.744900 0.520684
0.649439 0.760281 0.524559
0.905394 0.787228 0.558282
1.000000 0.774990 0.549889
0.582788 0.913603 0.641718
0.613031 0.914031 0.639887
0.727993 0.917449 0.636194
0.921508 0.937255 0.662348
1.000000 0.918059 0.665339
0.000000 0.326390 0.654688
0.000000 0.332982 0.649653
0.517998 0.351110 0.628351
0.846464 0.432288 0.592615
1.000000 0.627100 0.645228
0.000000 0.419104 0.651087
0.000000 0.417395 0.650019
0.524437 0.430854 0.634180
0.842069 0.492470 0.605829
1.000000 0.649195 0.653040
0.000000 0.588006 0.663447
0.000000 0.591608 0.661433
0.547539 0.601923 0.650477
0.830564 0.662348 0.659663
1.000000 0.720607 0.676173
0.206058 0.759518 0.678798
0.352453 0.761105 0.678767
0.604303 0.761166 0.674372
0.853086 0.800351 0.704311
1.000000 0.825132 0.716793
0.525505 0.923766 0.726192
0.572992 0.923247 0.728695
0.707454 0.923491 0.732509
0.893584 0.939269 0.749966
1.000000 0.935912 0.767880
0.000000 0.435065 0.833921
0.000000 0.443671 0.830991
0.281987 0.483711 0.822324
0.701686 0.512535 0.805661
0.972900 0.585992 0.774929
0.000000 0.488899 0.833341
0.000000 0.494026 0.832029
0.334478 0.532067 0.824308
0.708766 0.556878 0.808743
0.971038 0.617700 0.780301
0.000000 0.612604 0.834501
0.000000 0.618433 0.832059
0.432380 0.646937 0.824552
0.725154 0.669184 0.809110
0.968444 0.701747 0.790829
0.000000 0.758206 0.840482
0.169986 0.762753 0.840024
0.515862 0.776577 0.835019
0.760952 0.792905 0.825040
0.993957 0.853727 0.845914
0.005737 0.938903 0.879240
0.275731 0.939940 0.876921
0.551324 0.938354 0.861082
0.821134 0.937102 0.853086
1.000000 0.957946 0.889220
0.000000 0.545129 0.993256
0.000000 0.549310 0.992401
0.000000 0.601099 0.986847
0.607141 0.666133 0.976074
0.866575 0.693294 0.965454
0.000000 0.566522 0.992035
0.000000 0.570092 0.991333
0.000000 0.621515 0.985412
0.618647 0.684993 0.974701
0.868803 0.707942 0.965057
0.000000 0.631373 0.993347
0.000000 0.634974 0.992218
0.000000 0.682063 0.985626
0.651972 0.745327 0.974792
0.881895 0.761440 0.968566
0.000000 0.746090 0.997406
0.000000 0.749996 0.996216
0.000000 0.772305 0.992035
0.660151 0.817899 0.985046
0.910704 0.847898 0.977813
0.000000 0.890929 1.000000
0.000000 0.894163 1.000000
0.393774 0.907256 1.000000
0.707851 0.929717 0.995727
0.954620 0.961120 0.987091
