20 Preset/Japan Style/【3】LUT video cho PR-AE-FCPX/LUT VIDEO/Japan Style LUT (30).cube
# Created by Adobe Lightroom plugin Export LUT (1.24.0)
# www.johnrellis.com/lightroom/exportlut.htm
# Preset: 30日系岩井俊二风（素材江湖）
# Color profile: C:\Program Files (x86)\Common Files\Adobe\Color\Profiles\Recommended\VideoHD.icc
LUT_3D_SIZE 32
DOMAIN_MIN 0.0 0.0 0.0
DOMAIN_MAX 1.0 1.0 1.0
0.000000 0.000000 0.000000
0.018708 0.002350 0.000458
0.081025 0.008270 0.009674
0.123110 0.024933 0.019593
0.167849 0.051728 0.043030
0.221714 0.085481 0.069184
0.276188 0.104372 0.088319
0.328740 0.120851 0.094453
0.378790 0.135622 0.099397
0.426215 0.151278 0.103304
0.472541 0.167391 0.106600
0.517845 0.183444 0.111666
0.562493 0.200412 0.116091
0.606531 0.216953 0.122286
0.649500 0.234134 0.129122
0.691127 0.251591 0.136141
0.734676 0.270024 0.145296
0.776120 0.288151 0.155642
0.813474 0.304753 0.167025
0.847410 0.320684 0.179538
0.878508 0.335424 0.192813
0.906401 0.349310 0.206241
0.931090 0.362341 0.220005
0.954192 0.375036 0.234684
0.976043 0.387243 0.249699
0.996612 0.399603 0.265141
1.000000 0.411841 0.280400
1.000000 0.424109 0.296513
1.000000 0.436652 0.312688
1.000000 0.449775 0.329198
1.000000 0.463447 0.346197
1.000000 0.477852 0.363439
0.004028 0.009461 0.004273
0.018494 0.010101 0.003906
0.082429 0.019165 0.010407
0.124086 0.032227 0.021912
0.168856 0.058808 0.044221
0.221744 0.090669 0.069917
0.275883 0.107210 0.087739
0.327886 0.122621 0.094606
0.377874 0.137911 0.099397
0.424964 0.153506 0.102235
0.471077 0.168978 0.106752
0.516381 0.184787 0.111238
0.561089 0.201236 0.116121
0.604913 0.217838 0.122042
0.647761 0.234958 0.128420
0.689570 0.251987 0.136294
0.732723 0.270451 0.145296
0.773922 0.288334 0.155001
0.811185 0.304692 0.166354
0.844968 0.320348 0.178439
0.875975 0.335119 0.191531
0.903899 0.348669 0.205051
0.928649 0.361700 0.218814
0.951873 0.374273 0.233188
0.973754 0.386603 0.248203
0.994476 0.398688 0.263432
1.000000 0.410773 0.278782
1.000000 0.423224 0.294896
1.000000 0.435737 0.311284
1.000000 0.448737 0.327581
1.000000 0.462409 0.344701
1.000000 0.476844 0.362188
0.019532 0.047364 0.023651
0.031098 0.050355 0.028656
0.090028 0.056062 0.029938
0.126864 0.070771 0.033387
0.172396 0.090211 0.049500
0.224613 0.105776 0.071168
0.277501 0.120577 0.088594
0.328771 0.133883 0.094179
0.377661 0.148440 0.097749
0.424720 0.162295 0.101869
0.470710 0.176486 0.106142
0.515740 0.191592 0.110048
0.560235 0.207279 0.115053
0.603906 0.223392 0.121340
0.646754 0.239902 0.127779
0.688319 0.256748 0.134981
0.731441 0.274357 0.144259
0.772183 0.291752 0.154421
0.809293 0.307652 0.165743
0.843259 0.322728 0.178134
0.874388 0.337224 0.190860
0.902342 0.350744 0.204166
0.927245 0.363409 0.217929
0.950530 0.375769 0.232181
0.972473 0.387884 0.247318
0.993317 0.399725 0.262760
1.000000 0.411841 0.278050
1.000000 0.423987 0.294347
1.000000 0.436347 0.310552
1.000000 0.449409 0.327062
1.000000 0.462898 0.344244
1.000000 0.477180 0.361456
0.050690 0.099916 0.073121
0.062867 0.100191 0.073884
0.099794 0.102541 0.072786
0.134646 0.107149 0.077150
0.179507 0.117647 0.082490
0.230198 0.129915 0.084352
0.281346 0.142519 0.088289
0.330755 0.154238 0.092927
0.379126 0.166110 0.097047
0.425483 0.178317 0.100893
0.471077 0.191440 0.104768
0.515496 0.204898 0.108522
0.559747 0.219669 0.113252
0.603174 0.234501 0.120027
0.645686 0.250004 0.125856
0.687129 0.265660 0.134310
0.729732 0.282444 0.143343
0.769833 0.298650 0.152926
0.806516 0.313817 0.164218
0.840085 0.328313 0.176608
0.871122 0.341802 0.189090
0.899168 0.354711 0.202670
0.924468 0.367010 0.216342
0.948089 0.379034 0.230747
0.970550 0.390753 0.246098
0.991760 0.402655 0.261753
1.000000 0.414618 0.277531
1.000000 0.426581 0.293614
1.000000 0.438819 0.310094
1.000000 0.451606 0.327001
1.000000 0.464851 0.344030
1.000000 0.478798 0.361181
0.086946 0.133181 0.104616
0.093629 0.133242 0.104158
0.113802 0.135073 0.104128
0.144045 0.138521 0.103670
0.188754 0.148226 0.103761
0.238193 0.158633 0.104280
0.286717 0.168246 0.103243
0.334691 0.177890 0.102480
0.381170 0.188632 0.101808
0.426429 0.199557 0.102510
0.470985 0.211246 0.103944
0.515129 0.223911 0.106111
0.558831 0.236881 0.110842
0.602106 0.250523 0.117525
0.644556 0.265080 0.123964
0.686152 0.280064 0.131868
0.728542 0.294957 0.141939
0.768307 0.309575 0.154177
0.804898 0.323766 0.166049
0.838437 0.336980 0.178836
0.869505 0.349706 0.191989
0.897581 0.361944 0.205386
0.922942 0.373388 0.219211
0.946807 0.385077 0.232242
0.969390 0.396521 0.245579
0.990784 0.407874 0.261631
1.000000 0.419318 0.277195
1.000000 0.430976 0.293675
1.000000 0.442725 0.309972
1.000000 0.455146 0.326940
1.000000 0.467994 0.343755
1.000000 0.481666 0.360906
0.105715 0.167361 0.124117
0.109987 0.167453 0.124025
0.128054 0.168856 0.123659
0.156069 0.171267 0.123293
0.194797 0.177310 0.122103
0.244511 0.188602 0.121675
0.294377 0.198520 0.121187
0.340581 0.205936 0.120424
0.385321 0.214267 0.120119
0.429847 0.222934 0.121187
0.473579 0.232914 0.122896
0.517082 0.244053 0.125277
0.560327 0.255589 0.129610
0.603082 0.268254 0.135927
0.645136 0.281193 0.143008
0.687434 0.295109 0.150912
0.729000 0.308812 0.160464
0.768551 0.322850 0.170169
0.804868 0.335760 0.180819
0.838193 0.348150 0.192935
0.869108 0.360204 0.204929
0.897032 0.371771 0.216953
0.934417 0.389441 0.236973
0.957397 0.400275 0.249271
0.979095 0.411017 0.261631
0.999664 0.421668 0.273808
1.000000 0.432319 0.285588
1.000000 0.443091 0.300786
1.000000 0.454353 0.317174
1.000000 0.466041 0.333471
1.000000 0.478462 0.350286
1.000000 0.491463 0.367132
0.123201 0.204654 0.146365
0.127749 0.204959 0.146242
0.143557 0.205966 0.146181
0.170871 0.208255 0.145083
0.205539 0.211246 0.144961
0.249821 0.219120 0.143191
0.300389 0.230381 0.143221
0.350683 0.239689 0.143404
0.394110 0.245884 0.143771
0.437324 0.252689 0.145571
0.481025 0.260777 0.147585
0.523827 0.270207 0.151522
0.566583 0.280461 0.156008
0.608850 0.291600 0.160922
0.650874 0.303258 0.167575
0.693996 0.316350 0.174990
0.735622 0.329198 0.183017
0.774472 0.341894 0.191562
0.810086 0.353765 0.201572
0.843290 0.365209 0.211856
0.874388 0.376623 0.222843
0.902586 0.387610 0.234073
0.928435 0.398352 0.246281
0.952758 0.409033 0.258366
0.975494 0.419593 0.270115
0.996674 0.430060 0.281437
1.000000 0.440162 0.292088
1.000000 0.450324 0.302708
1.000000 0.460822 0.316197
1.000000 0.471870 0.332708
1.000000 0.483711 0.349615
1.000000 0.496162 0.366369
0.141482 0.241032 0.170993
0.145327 0.241337 0.171389
0.159762 0.242008 0.170840
0.184787 0.243748 0.170657
0.216587 0.246159 0.170199
0.254643 0.249760 0.169253
0.300725 0.258671 0.167941
0.350195 0.268742 0.169711
0.398322 0.277745 0.171695
0.440253 0.283299 0.174228
0.482948 0.289830 0.175967
0.525536 0.297520 0.179202
0.567651 0.306340 0.182528
0.609308 0.315862 0.186374
0.652430 0.326970 0.192111
0.694026 0.338048 0.198398
0.734401 0.349432 0.204593
0.772610 0.360296 0.212558
0.807858 0.371069 0.220310
0.840818 0.381262 0.229191
0.871519 0.391577 0.238529
0.899626 0.401434 0.248447
0.925444 0.411292 0.258885
0.949859 0.421118 0.269657
0.972686 0.431067 0.280430
0.994049 0.440772 0.291051
1.000000 0.450385 0.301274
1.000000 0.459937 0.310613
1.000000 0.469551 0.320012
1.000000 0.479744 0.332555
1.000000 0.490822 0.349248
1.000000 0.502708 0.366278
0.162539 0.277928 0.199100
0.165866 0.278355 0.199252
0.177554 0.278721 0.199252
0.199954 0.279973 0.198581
0.229709 0.282048 0.198611
0.264988 0.285008 0.197696
0.304631 0.289708 0.197055
0.350500 0.297673 0.196475
0.397070 0.306737 0.199252
0.444160 0.315618 0.202670
0.485939 0.321141 0.205325
0.527825 0.327642 0.207614
0.569451 0.335241 0.210147
0.612238 0.343999 0.213993
0.654383 0.353399 0.218723
0.694881 0.362982 0.223087
0.734585 0.372686 0.228153
0.771908 0.382208 0.234012
0.806607 0.391272 0.240177
0.839170 0.400366 0.247807
0.869657 0.409369 0.255802
0.897398 0.418158 0.264652
0.923033 0.426947 0.274205
0.947478 0.435828 0.283696
0.970397 0.444892 0.292912
0.991791 0.453773 0.302251
1.000000 0.462654 0.311589
1.000000 0.471626 0.320470
1.000000 0.480781 0.329259
1.000000 0.489845 0.337896
1.000000 0.499733 0.349706
1.000000 0.510857 0.366796
0.183444 0.315099 0.227695
0.186007 0.315251 0.227726
0.196506 0.315709 0.227481
0.216678 0.316777 0.227481
0.243259 0.318364 0.227085
0.275822 0.320531 0.226658
0.312566 0.323430 0.225681
0.353399 0.328862 0.224979
0.397955 0.336034 0.224338
0.442756 0.344457 0.228824
0.489204 0.353399 0.232364
0.529992 0.359167 0.235111
0.572259 0.366033 0.238102
0.614160 0.373632 0.240909
0.655268 0.381537 0.243839
0.695613 0.389746 0.247715
0.734798 0.398138 0.251469
0.771695 0.406378 0.256626
0.806119 0.414191 0.261753
0.838224 0.422095 0.267796
0.868162 0.429664 0.274388
0.895262 0.437049 0.281651
0.920562 0.444434 0.289799
0.944549 0.452247 0.297551
0.967193 0.460060 0.305913
0.988617 0.468086 0.313970
1.000000 0.476143 0.322271
1.000000 0.484413 0.330388
1.000000 0.492958 0.338842
1.000000 0.501549 0.346715
1.000000 0.510338 0.354894
1.000000 0.520287 0.367376
0.204288 0.351598 0.254856
0.206332 0.351751 0.254795
0.215457 0.352178 0.255070
0.233616 0.352911 0.254490
0.257939 0.354314 0.254154
0.287877 0.356146 0.253910
0.322850 0.358862 0.253117
0.359808 0.362005 0.252323
0.401556 0.367773 0.251682
0.444984 0.374701 0.251957
0.489235 0.382940 0.257176
0.535180 0.392493 0.260746
0.575830 0.398505 0.264469
0.616663 0.404730 0.266697
0.657038 0.411231 0.268772
0.696803 0.418311 0.271397
0.735531 0.425238 0.274174
0.771511 0.432074 0.278050
0.805325 0.438605 0.282658
0.836912 0.444862 0.287755
0.866331 0.451209 0.293126
0.893095 0.457374 0.299138
0.918273 0.463905 0.305913
0.942229 0.470466 0.312902
0.964904 0.477424 0.319921
0.986297 0.484596 0.327520
1.000000 0.492012 0.334905
1.000000 0.499489 0.342290
1.000000 0.507225 0.349676
1.000000 0.515312 0.357092
1.000000 0.523491 0.364630
1.000000 0.531853 0.372015
0.225956 0.388373 0.280949
0.228214 0.388373 0.280491
0.236240 0.388647 0.280400
0.251530 0.389563 0.280735
0.273777 0.390723 0.280339
0.301579 0.392218 0.279881
0.334142 0.394568 0.278874
0.369512 0.397375 0.278264
0.407874 0.401251 0.277073
0.449897 0.407752 0.276982
0.493233 0.414679 0.278721
0.536278 0.422675 0.284215
0.590387 0.439124 0.292424
0.631189 0.444923 0.295506
0.671046 0.450568 0.298100
0.710628 0.456153 0.299809
0.747707 0.461402 0.302098
0.782620 0.466316 0.304723
0.815213 0.471168 0.308354
0.845670 0.476051 0.311986
0.873686 0.480629 0.316869
0.899321 0.485298 0.321935
0.923613 0.490150 0.327611
0.946715 0.495552 0.333471
0.968536 0.501213 0.339666
0.989349 0.507103 0.345922
1.000000 0.513115 0.352148
1.000000 0.519524 0.358434
1.000000 0.526329 0.364965
1.000000 0.533379 0.371527
1.000000 0.540581 0.377966
1.000000 0.548150 0.384436
0.249760 0.427741 0.306493
0.251438 0.427680 0.306249
0.258518 0.427893 0.306554
0.272435 0.428382 0.305913
0.292424 0.429084 0.305821
0.318029 0.430701 0.305272
0.348852 0.432990 0.304692
0.383032 0.435767 0.304387
0.419532 0.439368 0.304082
0.459052 0.444099 0.303563
0.501488 0.450538 0.303532
0.544488 0.457862 0.306126
0.587610 0.465949 0.311131
0.631586 0.474403 0.314855
0.671901 0.480201 0.317967
0.710323 0.485115 0.320531
0.746700 0.489296 0.322332
0.780758 0.492958 0.324224
0.812711 0.496590 0.326726
0.842618 0.500114 0.330388
0.870024 0.503471 0.333959
0.895598 0.507134 0.338384
0.919768 0.511101 0.343328
0.942992 0.515587 0.348180
0.964935 0.520348 0.353674
0.985870 0.525475 0.359228
1.000000 0.530968 0.364935
1.000000 0.536736 0.370581
1.000000 0.542748 0.376501
1.000000 0.549248 0.382483
1.000000 0.555993 0.388495
1.000000 0.563043 0.394781
0.272526 0.464851 0.329381
0.273869 0.464790 0.329168
0.280644 0.464973 0.329381
0.292821 0.465370 0.329015
0.310979 0.466072 0.328496
0.334630 0.467140 0.328069
0.362615 0.468849 0.327794
0.394507 0.470985 0.326909
0.429206 0.473732 0.325994
0.465980 0.477272 0.325322
0.505730 0.482460 0.325139
0.547356 0.488380 0.325200
0.589380 0.495064 0.328344
0.630915 0.502281 0.332769
0.673152 0.509667 0.335912
0.711421 0.514397 0.338567
0.746242 0.517662 0.341314
0.779385 0.520256 0.343053
0.810819 0.522789 0.345312
0.840024 0.525292 0.347692
0.867002 0.527581 0.351019
0.892424 0.530266 0.354772
0.916716 0.533440 0.358862
0.939879 0.537102 0.363287
0.961883 0.541070 0.368109
0.982940 0.545464 0.372992
1.000000 0.550134 0.378027
1.000000 0.555230 0.383429
1.000000 0.560601 0.388739
1.000000 0.566461 0.394324
1.000000 0.572656 0.400092
1.000000 0.579187 0.405859
0.295109 0.501030 0.350500
0.296696 0.501152 0.350439
0.302556 0.501030 0.350103
0.313359 0.501335 0.349859
0.329961 0.501762 0.349371
0.351385 0.502464 0.348791
0.376959 0.503716 0.348180
0.406714 0.505455 0.347539
0.439368 0.507805 0.346532
0.474617 0.510826 0.345617
0.511803 0.514519 0.344976
0.551537 0.519554 0.344884
0.592401 0.525048 0.344793
0.632868 0.531029 0.348272
0.673121 0.537163 0.352087
0.712032 0.542718 0.355077
0.747189 0.545983 0.357763
0.779049 0.547875 0.360510
0.809537 0.549493 0.362768
0.838163 0.550866 0.365118
0.864683 0.552270 0.367651
0.889891 0.554101 0.370825
0.914000 0.556542 0.374426
0.937041 0.559380 0.378454
0.959014 0.562524 0.382544
0.980102 0.566125 0.387030
1.000000 0.570184 0.391577
1.000000 0.574670 0.396490
1.000000 0.579583 0.401526
1.000000 0.584955 0.406867
1.000000 0.590845 0.412512
1.000000 0.596887 0.417975
0.317998 0.535668 0.369268
0.319371 0.535698 0.369238
0.324407 0.535882 0.368994
0.334051 0.536065 0.368658
0.349248 0.536431 0.368505
0.368597 0.537316 0.367987
0.392737 0.538598 0.367254
0.420630 0.540215 0.366796
0.451453 0.542473 0.366278
0.484962 0.545006 0.365515
0.520439 0.547906 0.364660
0.557794 0.551507 0.363928
0.596490 0.555779 0.363226
0.636072 0.560143 0.363195
0.674067 0.564630 0.366247
0.710719 0.568811 0.370092
0.746395 0.572473 0.372992
0.778927 0.574670 0.375830
0.808469 0.575769 0.378668
0.836088 0.576471 0.381384
0.862364 0.577173 0.383734
0.887510 0.578393 0.386633
0.911498 0.580163 0.390112
0.934539 0.582269 0.393408
0.956542 0.584894 0.397375
0.977691 0.587976 0.401404
0.997955 0.591424 0.405921
1.000000 0.595239 0.410224
1.000000 0.599573 0.414862
1.000000 0.604334 0.419898
1.000000 0.609522 0.424811
1.000000 0.615015 0.430091
0.340398 0.568933 0.386511
0.341375 0.568963 0.386389
0.345434 0.569055 0.386389
0.354620 0.569329 0.385962
0.367987 0.569726 0.385840
0.386175 0.570520 0.385321
0.408392 0.571496 0.384680
0.434424 0.572900 0.384436
0.463294 0.574762 0.383520
0.494881 0.576928 0.382788
0.528801 0.579461 0.382086
0.564172 0.582513 0.380865
0.601221 0.585870 0.380438
0.638880 0.589380 0.379919
0.676448 0.592432 0.379736
0.711513 0.595239 0.383520
0.745144 0.598016 0.387366
0.778042 0.600427 0.390509
0.808255 0.601923 0.393469
0.834958 0.601862 0.396674
0.860594 0.602350 0.399634
0.885435 0.602899 0.402197
0.909361 0.604059 0.405188
0.932219 0.605646 0.408606
0.954162 0.607630 0.412116
0.975250 0.610101 0.415900
0.995636 0.613001 0.420050
1.000000 0.616388 0.424079
1.000000 0.620233 0.428595
1.000000 0.624475 0.433082
1.000000 0.629114 0.437995
1.000000 0.634180 0.443061
0.363561 0.601892 0.402808
0.364050 0.602014 0.403021
0.372778 0.608301 0.406287
0.380713 0.608545 0.405982
0.393042 0.608942 0.405646
0.409583 0.609491 0.405371
0.429908 0.610315 0.404852
0.454292 0.611414 0.404089
0.481575 0.612909 0.403510
0.511711 0.614740 0.402594
0.543938 0.616846 0.401617
0.577813 0.619287 0.400855
0.613245 0.621729 0.399664
0.648951 0.623774 0.399054
0.683894 0.625330 0.398901
0.718013 0.626246 0.399054
0.749905 0.627375 0.403143
0.780758 0.628595 0.406531
0.810117 0.629450 0.409888
0.837308 0.629664 0.412818
0.861906 0.629145 0.416022
0.885893 0.629389 0.419196
0.909178 0.629847 0.421942
0.931609 0.630640 0.424903
0.953094 0.631800 0.427955
0.973816 0.633417 0.431159
0.993866 0.635554 0.434699
1.000000 0.638209 0.438514
1.000000 0.641321 0.442390
1.000000 0.645045 0.446815
1.000000 0.649287 0.451575
1.000000 0.653803 0.456245
0.387945 0.635767 0.419471
0.388922 0.636439 0.419715
0.393194 0.637110 0.420081
0.400793 0.637903 0.420203
0.412085 0.638605 0.420172
0.427344 0.639216 0.419928
0.446265 0.639918 0.419593
0.468666 0.640864 0.418677
0.493996 0.642023 0.417975
0.522271 0.643458 0.417304
0.552544 0.645258 0.416327
0.584619 0.647181 0.415747
0.618158 0.649195 0.414557
0.652583 0.651026 0.413519
0.685817 0.651789 0.413428
0.718776 0.652094 0.413611
0.750790 0.652277 0.414038
0.780362 0.652735 0.418585
0.808591 0.653040 0.422614
0.835447 0.653162 0.426123
0.860746 0.653193 0.429664
0.884428 0.652979 0.432868
0.907286 0.653223 0.436255
0.929259 0.653742 0.439429
0.950652 0.654475 0.442237
0.971283 0.655634 0.445411
0.991241 0.657313 0.448768
1.000000 0.659480 0.452369
1.000000 0.662165 0.456153
1.000000 0.665431 0.460304
1.000000 0.669245 0.464790
1.000000 0.673396 0.469398
0.410590 0.665827 0.433936
0.411933 0.666407 0.433997
0.415717 0.667109 0.434241
0.422339 0.667842 0.434455
0.432929 0.668482 0.434577
0.446906 0.669032 0.434455
0.464057 0.669642 0.434028
0.484901 0.670283 0.433539
0.508293 0.671260 0.432837
0.534539 0.672297 0.432166
0.562982 0.673640 0.431464
0.593194 0.675257 0.430549
0.625055 0.676814 0.429480
0.658106 0.678584 0.428382
0.690822 0.679316 0.428168
0.722194 0.679103 0.428290
0.753079 0.678645 0.428809
0.782498 0.677760 0.429908
0.809354 0.677333 0.434577
0.835172 0.676844 0.438636
0.859770 0.676539 0.442725
0.883360 0.676234 0.446265
0.905821 0.676173 0.449928
0.927520 0.676448 0.453407
0.948455 0.677058 0.456855
0.968963 0.677882 0.459815
0.988800 0.679103 0.462837
1.000000 0.680873 0.466346
1.000000 0.683192 0.470039
1.000000 0.686091 0.474098
1.000000 0.689479 0.478431
1.000000 0.693233 0.482948
0.434943 0.695033 0.448341
0.436255 0.695491 0.448646
0.439490 0.696071 0.448768
0.445747 0.696681 0.448890
0.455268 0.697200 0.448890
0.467781 0.697688 0.448920
0.483375 0.698116 0.448310
0.502342 0.698726 0.448096
0.523949 0.699489 0.447395
0.548425 0.700313 0.446937
0.574945 0.701381 0.446265
0.603296 0.702602 0.445502
0.633265 0.704005 0.444495
0.664515 0.705379 0.443641
0.697047 0.706935 0.442847
0.727687 0.706569 0.442939
0.757168 0.705531 0.443549
0.785641 0.704097 0.444556
0.812528 0.702754 0.446845
0.837552 0.701900 0.451881
0.861540 0.701289 0.456611
0.884550 0.700832 0.460792
0.906340 0.700404 0.464790
0.927855 0.700618 0.468879
0.948669 0.701137 0.472663
0.968780 0.702113 0.476509
0.988525 0.703182 0.479805
1.000000 0.704707 0.483253
1.000000 0.706844 0.487160
1.000000 0.709438 0.491249
1.000000 0.712520 0.495613
1.000000 0.715663 0.499763
0.463600 0.726223 0.464973
0.464607 0.726406 0.465156
0.467048 0.726650 0.465095
0.472236 0.726833 0.465156
0.480629 0.727016 0.464912
0.491676 0.727169 0.464668
0.505760 0.727474 0.464485
0.522881 0.727871 0.463996
0.542779 0.728450 0.463325
0.565240 0.729183 0.463050
0.589807 0.730068 0.462470
0.616480 0.731075 0.461891
0.644709 0.732174 0.461097
0.674250 0.733303 0.460212
0.704921 0.734463 0.459266
0.736263 0.735378 0.458442
0.763851 0.733425 0.459419
0.790677 0.731228 0.460426
0.816556 0.729030 0.461982
0.841276 0.726925 0.464515
0.864134 0.725612 0.469703
0.885985 0.724422 0.474189
0.906981 0.723384 0.478401
0.926909 0.722469 0.482368
0.947173 0.722652 0.486275
0.967102 0.723323 0.490120
0.986542 0.724453 0.494057
1.000000 0.726040 0.498177
1.000000 0.727871 0.501976
1.000000 0.730190 0.506035
1.000000 0.732876 0.510277
1.000000 0.735531 0.514305
0.490150 0.753292 0.480140
0.491035 0.753414 0.480293
0.493477 0.753597 0.480354
0.498207 0.753780 0.480293
0.505425 0.753902 0.480201
0.515343 0.754086 0.480110
0.528008 0.754269 0.479744
0.543755 0.754543 0.479347
0.561730 0.754971 0.478889
0.582300 0.755581 0.478584
0.604913 0.756222 0.478157
0.629603 0.756924 0.477577
0.655695 0.757778 0.476936
0.683436 0.758572 0.476387
0.712184 0.759487 0.475685
0.741878 0.760433 0.475013
0.770871 0.760220 0.474861
0.796384 0.757534 0.476356
0.821286 0.754879 0.477852
0.845274 0.752346 0.479561
0.868009 0.750088 0.482643
0.889128 0.748379 0.487739
0.909331 0.746944 0.492500
0.928679 0.745785 0.496773
0.946075 0.743496 0.499580
0.965332 0.743648 0.503471
0.984558 0.744625 0.507713
1.000000 0.746090 0.512016
1.000000 0.748013 0.516411
1.000000 0.750179 0.520653
1.000000 0.752407 0.524712
1.000000 0.754849 0.528832
0.520012 0.780117 0.497688
0.520867 0.780362 0.497902
0.522911 0.780484 0.497871
0.527062 0.780484 0.497841
0.533227 0.780423 0.497536
0.541924 0.780331 0.497169
0.552850 0.780270 0.496773
0.566400 0.780240 0.496254
0.582422 0.780270 0.495766
0.600855 0.780453 0.495216
0.621180 0.780697 0.494575
0.643549 0.781125 0.494026
0.667567 0.781552 0.493446
0.692958 0.782010 0.492683
0.719661 0.782498 0.491890
0.747250 0.783047 0.491279
0.775875 0.783658 0.490486
0.802060 0.782101 0.491005
0.825834 0.779110 0.492653
0.848875 0.776303 0.494514
0.871153 0.773556 0.496712
0.892241 0.771054 0.500023
0.911681 0.769284 0.505211
0.930327 0.767605 0.509789
0.948150 0.766110 0.514061
0.965148 0.764736 0.517967
0.983246 0.764828 0.521965
1.000000 0.766018 0.526299
1.000000 0.767666 0.530816
1.000000 0.769406 0.534997
1.000000 0.771542 0.539300
1.000000 0.773617 0.543297
0.547539 0.803006 0.513878
0.548363 0.803189 0.514153
0.550347 0.803372 0.514336
0.553887 0.803433 0.514244
0.559625 0.803433 0.514275
0.567193 0.803494 0.514000
0.577295 0.803555 0.513878
0.589685 0.803677 0.513420
0.604181 0.803891 0.513115
0.620905 0.804166 0.512779
0.639460 0.804501 0.512444
0.660029 0.804837 0.512139
0.682124 0.805203 0.511742
0.705531 0.805600 0.511254
0.730129 0.805966 0.510491
0.755886 0.806363 0.509880
0.782528 0.806821 0.509239
0.810025 0.807401 0.508721
0.833310 0.804685 0.510124
0.855375 0.801450 0.512016
0.876707 0.798428 0.514122
0.897276 0.795560 0.516350
0.916655 0.793027 0.520073
0.934661 0.791104 0.525231
0.951965 0.789364 0.529870
0.968475 0.787869 0.534264
0.984405 0.786465 0.538079
1.000000 0.786618 0.542260
1.000000 0.787808 0.546593
1.000000 0.789395 0.550958
1.000000 0.791135 0.555200
1.000000 0.793027 0.559350
0.577935 0.826078 0.532738
0.578393 0.826169 0.532769
0.580163 0.826261 0.532921
0.583215 0.826291 0.532891
0.588098 0.826261 0.532708
0.594781 0.826230 0.532525
0.603662 0.826291 0.532341
0.614496 0.826352 0.531945
0.627375 0.826474 0.531762
0.642267 0.826658 0.531518
0.659144 0.826871 0.531273
0.677699 0.827146 0.530846
0.697719 0.827451 0.530602
0.719020 0.827787 0.530083
0.741848 0.828061 0.529717
0.765438 0.828397 0.528985
0.790249 0.828733 0.528527
0.815885 0.829191 0.528038
0.841825 0.829313 0.527886
0.862760 0.825895 0.529870
0.883116 0.822690 0.532006
0.902922 0.819577 0.534447
0.921874 0.816587 0.536706
0.939849 0.813962 0.540276
0.956542 0.811948 0.545281
0.972503 0.810117 0.549676
0.987793 0.808225 0.553552
1.000000 0.806485 0.557061
1.000000 0.806149 0.560845
1.000000 0.807492 0.565209
1.000000 0.809018 0.569543
1.000000 0.810666 0.573754
0.607477 0.847684 0.551629
0.607935 0.847745 0.551629
0.609400 0.847837 0.551690
0.612146 0.847898 0.551812
0.616510 0.847990 0.551843
0.622797 0.848112 0.551751
0.630976 0.848356 0.551904
0.640986 0.848722 0.552239
0.653010 0.849149 0.552392
0.666835 0.849668 0.552728
0.682429 0.850248 0.553033
0.699580 0.850828 0.553338
0.718196 0.851377 0.553429
0.737911 0.851896 0.553521
0.758785 0.852354 0.553399
0.780606 0.852720 0.553094
0.803433 0.853056 0.552941
0.827237 0.853422 0.552575
0.851774 0.853910 0.552392
0.875090 0.853117 0.553155
0.894377 0.849699 0.555261
0.913146 0.846433 0.557580
0.931243 0.843320 0.559869
0.948608 0.840146 0.562036
0.964874 0.837247 0.564996
0.980011 0.834897 0.569482
0.994568 0.832670 0.573419
1.000000 0.830564 0.576898
1.000000 0.828580 0.580133
1.000000 0.827787 0.583581
1.000000 0.829038 0.588037
1.000000 0.830320 0.592035
0.641535 0.871122 0.574792
0.641810 0.871092 0.574762
0.642939 0.871092 0.574792
0.645228 0.871092 0.574731
0.648890 0.871092 0.574609
0.654170 0.871061 0.574487
0.661067 0.871122 0.574548
0.669581 0.871214 0.574334
0.679744 0.871397 0.574395
0.691798 0.871611 0.574334
0.705287 0.871855 0.574243
0.720333 0.872160 0.574182
0.736873 0.872465 0.574121
0.754726 0.872770 0.574151
