20 Preset/Japan Style/【3】LUT video cho PR-AE-FCPX/LUT VIDEO/Japan Style LUT (27).cube
# Created by Adobe Lightroom plugin Export LUT (1.24.0)
# www.johnrellis.com/lightroom/exportlut.htm
# Preset: 27日系室内白色微蓝（素材江湖）
# Color profile: C:\Program Files (x86)\Common Files\Adobe\Color\Profiles\Recommended\VideoHD.icc
LUT_3D_SIZE 8
DOMAIN_MIN 0.000000 0.000000 0.000000
DOMAIN_MAX 0.903226 0.903226 0.903226
0.000000 0.000000 0.091554
0.162600 0.000000 0.088411
0.383734 0.000000 0.052461
0.583764 0.000000 0.041321
0.773373 0.000000 0.070100
0.925475 0.114260 0.133730
1.000000 0.185428 0.198917
1.000000 0.244999 0.258610
0.000000 0.165438 0.060731
0.168521 0.166323 0.057832
0.389807 0.187930 0.037934
0.585229 0.188052 0.037598
0.772335 0.196048 0.088167
0.922850 0.214511 0.144961
1.000000 0.245701 0.206851
1.000000 0.283940 0.264683
0.000000 0.345037 0.055055
0.168368 0.344427 0.056153
0.343938 0.342046 0.063935
0.568109 0.381201 0.092927
0.781857 0.404273 0.140688
0.925780 0.399481 0.194369
1.000000 0.399207 0.250706
1.000000 0.406012 0.301518
0.000000 0.501091 0.112856
0.163546 0.500359 0.113527
0.329198 0.499092 0.116030
0.491341 0.498878 0.120027
0.702083 0.542412 0.161624
0.916106 0.585046 0.265049
1.000000 0.569665 0.320775
1.000000 0.554131 0.361944
0.002289 0.642542 0.156008
0.157900 0.641993 0.156252
0.313390 0.640772 0.157748
0.467323 0.639094 0.161074
0.617609 0.635737 0.165286
0.789700 0.655421 0.215732
0.975952 0.694423 0.340490
1.000000 0.703273 0.444556
0.096590 0.757870 0.210147
0.167636 0.758633 0.211276
0.301701 0.757565 0.211948
0.443122 0.755612 0.214115
0.584436 0.752529 0.217899
0.724849 0.749020 0.222873
0.870848 0.752407 0.260288
1.000000 0.784329 0.405402
0.148684 0.862425 0.264530
0.192172 0.862455 0.264988
0.301122 0.861540 0.265293
0.428199 0.860044 0.266911
0.559899 0.857481 0.268864
0.693050 0.854704 0.272679
0.826810 0.851377 0.277928
0.954192 0.842130 0.288243
0.201785 0.960845 0.317754
0.229160 0.960723 0.317754
0.314672 0.960357 0.318395
0.427192 0.959686 0.320470
0.546746 0.956481 0.318578
0.673091 0.954772 0.322332
0.801450 0.952392 0.327031
0.930632 0.948699 0.331487
0.000000 0.000000 0.185733
0.163455 0.000000 0.185916
0.362921 0.000000 0.192813
0.555871 0.000000 0.202976
0.747280 0.094057 0.220615
0.906218 0.164767 0.246769
1.000000 0.226291 0.281773
1.000000 0.278691 0.320867
0.000000 0.165469 0.186954
0.164645 0.164645 0.186648
0.367132 0.172000 0.195132
0.560479 0.185275 0.207614
0.750088 0.207431 0.225437
0.906340 0.238254 0.252567
1.000000 0.273869 0.287083
1.000000 0.311162 0.325109
0.000000 0.342168 0.190127
0.166934 0.341619 0.190555
0.341222 0.339849 0.190616
0.563409 0.382025 0.221897
0.762356 0.401434 0.249454
0.909209 0.404150 0.278660
1.000000 0.409003 0.314488
1.000000 0.419532 0.351904
0.014618 0.497444 0.199771
0.166751 0.496956 0.199832
0.328191 0.495888 0.200534
0.486397 0.494057 0.201694
0.695399 0.539086 0.239658
0.906554 0.585321 0.327550
1.000000 0.570520 0.365911
1.000000 0.559686 0.400519
0.036683 0.640253 0.218540
0.162142 0.639582 0.218387
0.313695 0.637964 0.218753
0.465248 0.635615 0.220066
0.613581 0.631739 0.221988
0.786709 0.654200 0.266300
0.971527 0.695949 0.382055
1.000000 0.706233 0.475349
0.110048 0.755428 0.252384
0.173434 0.755245 0.252659
0.303136 0.754330 0.253300
0.442664 0.752743 0.254948
0.582910 0.750118 0.257816
0.722805 0.747250 0.261845
0.869566 0.752316 0.296788
1.000000 0.785794 0.435126
0.157839 0.860227 0.293919
0.197818 0.859800 0.293645
0.302892 0.858885 0.293858
0.428595 0.857603 0.295293
0.559503 0.855650 0.297459
0.691890 0.852964 0.300389
0.824674 0.849454 0.304417
0.952087 0.840940 0.314641
0.206882 0.959319 0.338781
0.234012 0.959411 0.339361
0.317357 0.958953 0.339940
0.428412 0.958373 0.341741
0.549371 0.957122 0.343908
0.674189 0.954833 0.345892
0.801419 0.952026 0.349004
0.930175 0.948302 0.352453
0.000000 0.000000 0.365484
0.162051 0.000000 0.365270
0.343420 0.000000 0.362921
0.507012 0.000000 0.357153
0.695979 0.122591 0.379858
0.862028 0.219516 0.406897
0.987976 0.304173 0.438758
1.000000 0.364691 0.468452
0.000000 0.164248 0.363348
0.158083 0.163607 0.362860
0.341314 0.163668 0.360967
0.508324 0.172519 0.360357
0.695552 0.212253 0.383703
0.860594 0.274327 0.412207
0.986938 0.334997 0.441321
1.000000 0.386389 0.470954
0.000000 0.339239 0.359411
0.165927 0.338933 0.359014
0.336065 0.337774 0.357916
0.521477 0.359350 0.379248
0.710079 0.385718 0.404273
0.868498 0.413733 0.431495
0.988281 0.441932 0.459815
1.000000 0.469490 0.488716
0.061036 0.495674 0.356176
0.174350 0.495399 0.356786
0.328161 0.494514 0.356664
0.483497 0.493355 0.356207
0.701625 0.552575 0.412696
0.876829 0.586145 0.471382
0.988006 0.587366 0.498451
1.000000 0.591485 0.525200
0.106783 0.637659 0.359686
0.178744 0.637263 0.359594
0.317815 0.636194 0.359442
0.465248 0.634668 0.359625
0.611841 0.631647 0.359686
0.789975 0.664088 0.410590
0.964385 0.714473 0.520928
1.000000 0.725032 0.584619
0.159609 0.753231 0.372473
0.203067 0.753170 0.372534
0.315709 0.752285 0.372808
0.447211 0.750637 0.373083
0.583062 0.748196 0.373877
0.720211 0.745724 0.375830
0.870329 0.758145 0.414984
1.000000 0.798489 0.546593
0.201480 0.859281 0.394232
0.231022 0.858915 0.393957
0.320928 0.857877 0.393530
0.437720 0.856443 0.393835
0.563439 0.854520 0.394629
0.692897 0.852232 0.396368
0.823972 0.849454 0.399023
0.953124 0.845121 0.415015
0.241886 0.958312 0.420539
0.263279 0.958129 0.420325
0.335882 0.957702 0.420783
0.439979 0.957397 0.422492
0.556023 0.956207 0.423865
0.677821 0.954314 0.425330
0.802731 0.951781 0.427253
0.929747 0.948241 0.429389
0.000000 0.000000 0.528008
0.138094 0.000000 0.527977
0.326207 0.000000 0.525597
0.492287 0.000763 0.522057
0.643885 0.094270 0.514641
0.802762 0.173068 0.523766
0.943359 0.284825 0.545403
1.000000 0.395575 0.581140
0.000000 0.163546 0.526513
0.143832 0.163851 0.526024
0.326482 0.166354 0.524132
0.490974 0.172091 0.521233
0.641810 0.185183 0.514122
0.803281 0.234043 0.526970
0.941772 0.324651 0.550561
1.000000 0.424628 0.589014
0.000000 0.334173 0.520623
0.162142 0.334569 0.520287
0.326604 0.335210 0.518730
0.484443 0.335180 0.516625
0.634089 0.338231 0.512474
0.805966 0.385046 0.543420
0.937835 0.451850 0.578363
1.000000 0.520623 0.621790
0.000000 0.492256 0.515923
0.162173 0.491859 0.515526
0.321843 0.491127 0.514580
0.475776 0.490333 0.513268
0.657496 0.524834 0.547601
0.811673 0.560204 0.583337
0.936675 0.595331 0.620661
1.000000 0.625299 0.654780
0.115450 0.635370 0.509850
0.184085 0.634913 0.509880
0.322789 0.633539 0.510796
0.465522 0.632349 0.511742
0.607324 0.630396 0.511070
0.794308 0.687648 0.590021
0.941222 0.739925 0.682948
1.000000 0.744808 0.709224
0.224369 0.751125 0.515282
0.254582 0.751675 0.516106
0.341894 0.750729 0.515587
0.459174 0.749416 0.515404
0.586481 0.747402 0.515129
0.717159 0.744869 0.514885
0.872465 0.773434 0.575280
1.000000 0.824674 0.709071
0.262242 0.856870 0.522942
0.283116 0.856809 0.523064
0.354131 0.856352 0.523033
0.456611 0.855375 0.523156
0.572992 0.853758 0.523033
0.695796 0.851591 0.523186
0.821988 0.848997 0.523796
0.953216 0.853422 0.557122
0.297520 0.957153 0.537713
0.313420 0.957061 0.537652
0.371801 0.956664 0.537682
0.462226 0.956054 0.538170
0.569024 0.954864 0.538628
0.684474 0.953155 0.539117
0.804990 0.950988 0.540093
0.928649 0.948089 0.541497
0.000000 0.000000 0.678798
0.091371 0.000000 0.678706
0.303593 0.008057 0.676631
0.469184 0.070741 0.673579
0.624140 0.114839 0.669398
0.765286 0.153811 0.658350
0.880858 0.211917 0.638636
1.000000 0.330663 0.662348
0.000000 0.166598 0.677180
0.110933 0.167056 0.677241
0.305943 0.171359 0.675624
0.468940 0.179599 0.672297
0.622980 0.191592 0.668544
0.763241 0.212589 0.657527
0.881132 0.255863 0.641199
1.000000 0.360967 0.666346
0.000000 0.332891 0.671687
0.151797 0.333074 0.671443
0.312474 0.333593 0.670100
0.466957 0.335119 0.667659
0.616693 0.337804 0.664118
0.753079 0.345617 0.653010
0.880919 0.380652 0.652338
1.000000 0.461952 0.684413
0.043610 0.483406 0.665126
0.165377 0.483619 0.664759
0.316564 0.484993 0.663630
0.464546 0.486885 0.661738
0.607904 0.487160 0.659358
0.738399 0.490578 0.650690
0.879789 0.543816 0.685634
0.995331 0.605524 0.731197
0.095369 0.627649 0.658259
0.172244 0.627649 0.658167
0.313756 0.627100 0.657527
0.458381 0.626337 0.656336
0.596429 0.625086 0.654505
0.752529 0.667109 0.702846
0.885924 0.706355 0.752377
0.991180 0.737697 0.795773
0.212131 0.745510 0.644953
0.245609 0.745266 0.645319
0.343603 0.743740 0.646204
0.465461 0.741482 0.649195
0.585534 0.740871 0.651423
0.708675 0.740749 0.652247
0.874388 0.800748 0.755917
0.990600 0.853880 0.866300
0.292607 0.853025 0.651331
0.311681 0.852689 0.651606
0.378119 0.851774 0.653285
0.472694 0.851072 0.655238
0.579675 0.850126 0.655085
0.695399 0.848478 0.654627
0.816129 0.846494 0.654322
0.950805 0.867247 0.720974
0.332616 0.953460 0.662104
0.345708 0.953368 0.662013
0.395697 0.953002 0.661860
0.478431 0.953063 0.663294
0.577874 0.952178 0.663478
0.687739 0.950774 0.663508
0.803799 0.948913 0.663813
0.924071 0.946319 0.664057
0.000000 0.059052 0.819272
0.000000 0.069612 0.819089
0.255314 0.096132 0.817227
0.428199 0.123751 0.814511
0.582361 0.153689 0.811307
0.728298 0.183047 0.807004
0.864347 0.217288 0.796994
0.975128 0.266697 0.773220
0.000000 0.175937 0.816129
0.000000 0.177493 0.815732
0.261143 0.183627 0.814298
0.428992 0.195193 0.811978
0.581231 0.210788 0.808652
0.726192 0.229587 0.804715
0.861387 0.255222 0.794980
0.972564 0.294499 0.772427
0.000000 0.332677 0.812680
0.087251 0.333135 0.812345
0.280064 0.334752 0.811307
0.433845 0.337865 0.808499
0.580224 0.343999 0.805539
0.721859 0.352270 0.802274
0.854276 0.365454 0.792844
0.965881 0.387060 0.774014
0.096925 0.479011 0.807614
0.171237 0.480049 0.807095
0.310399 0.484657 0.805783
0.444495 0.486824 0.805295
0.580529 0.489387 0.803403
0.715572 0.492714 0.800626
0.842344 0.498939 0.792050
0.957031 0.517418 0.786252
0.141848 0.612451 0.800534
0.194156 0.612848 0.800290
0.316350 0.614649 0.799527
0.451789 0.618769 0.798337
0.580316 0.622522 0.796658
0.704494 0.622461 0.794858
0.825772 0.623133 0.789761
0.953826 0.671412 0.831357
0.184360 0.740108 0.796170
0.223972 0.740322 0.796506
0.328405 0.740017 0.796048
0.450629 0.739467 0.795377
0.573449 0.738643 0.794308
0.695735 0.738369 0.794156
0.846098 0.788083 0.861936
0.959136 0.824277 0.906859
0.261723 0.851133 0.790982
0.283970 0.851194 0.791440
0.357153 0.850584 0.792111
0.460365 0.849546 0.793484
0.574395 0.848142 0.795834
0.689021 0.846799 0.797086
0.806332 0.845396 0.796841
0.950225 0.896300 0.903075
0.315465 0.951843 0.794125
0.330541 0.951629 0.794247
0.388037 0.951080 0.795712
0.477028 0.950408 0.799252
0.578668 0.949432 0.802487
0.684810 0.948363 0.802518
0.797971 0.946960 0.802853
0.915557 0.944823 0.802945
0.000000 0.115969 0.947906
0.000000 0.119631 0.948302
0.162448 0.132265 0.947143
0.374090 0.154665 0.945647
0.532982 0.180484 0.943236
0.678889 0.208652 0.940093
0.818479 0.237400 0.936461
0.952728 0.266392 0.931212
0.000000 0.187686 0.943969
0.000000 0.189822 0.944579
0.174655 0.196201 0.943633
0.375433 0.207858 0.941833
0.531731 0.224094 0.939269
0.675990 0.243870 0.935668
0.814084 0.265232 0.931548
0.947021 0.287633 0.925719
0.000000 0.331060 0.942504
0.000000 0.331670 0.942321
0.213901 0.333654 0.941039
0.386664 0.338109 0.939361
0.535058 0.345006 0.936584
0.675502 0.354833 0.933745
0.812558 0.367590 0.931670
0.944427 0.382696 0.927092
0.000000 0.478859 0.939361
0.123629 0.478737 0.938872
0.269230 0.479103 0.937560
0.408087 0.481392 0.936553
0.543236 0.484077 0.934478
0.676967 0.489265 0.932769
0.809384 0.496162 0.931365
0.935821 0.503502 0.925811
0.120485 0.602838 0.932555
0.174899 0.602991 0.931731
0.297063 0.605585 0.930449
0.430152 0.612238 0.929412
0.551446 0.613916 0.928161
0.674708 0.614588 0.926635
0.800565 0.616205 0.925536
0.924498 0.620233 0.922728
0.172000 0.724269 0.927092
0.209537 0.724697 0.927123
0.310918 0.725826 0.926909
0.430854 0.727840 0.926665
0.554314 0.730373 0.926116
0.676448 0.733455 0.926329
0.797116 0.733944 0.925963
0.915373 0.733455 0.922484
0.210849 0.843351 0.925750
0.239689 0.843656 0.926085
0.324529 0.843503 0.925841
0.436072 0.843381 0.925689
0.554253 0.842710 0.924987
0.673884 0.841917 0.924254
0.792569 0.841428 0.923980
0.941375 0.893492 0.965209
0.278111 0.949004 0.919829
0.296910 0.949004 0.920012
0.364630 0.949248 0.921080
0.459663 0.948669 0.921874
0.567407 0.947478 0.922637
0.680262 0.946166 0.923796
0.793118 0.944854 0.924376
0.908141 0.943114 0.923735
0.000000 0.141756 1.000000
0.000000 0.144259 1.000000
0.157992 0.153140 1.000000
0.355657 0.170230 1.000000
0.507073 0.193027 1.000000
0.647303 0.218448 1.000000
0.783200 0.246311 1.000000
0.915953 0.272496 1.000000
0.000000 0.196750 1.000000
0.000000 0.198642 1.000000
0.168002 0.204227 1.000000
0.357519 0.215183 1.000000
0.507225 0.231174 1.000000
0.646601 0.250828 1.000000
0.781430 0.272557 1.000000
0.913420 0.293797 1.000000
0.000000 0.324559 1.000000
0.000000 0.325170 1.000000
0.207584 0.327367 1.000000
0.371801 0.333989 1.000000
0.513176 0.341314 1.000000
0.648096 0.350958 1.000000
0.780636 0.363409 1.000000
0.911345 0.375738 1.000000
0.009247 0.463264 1.000000
0.135592 0.463783 1.000000
0.264103 0.464790 1.000000
0.394903 0.467689 1.000000
0.524407 0.471504 1.000000
0.652857 0.476265 1.000000
0.781308 0.482673 1.000000
0.909239 0.489357 1.000000
0.187991 0.590631 1.000000
0.222080 0.591882 1.000000
0.314275 0.595178 1.000000
0.422858 0.597559 1.000000
0.537530 0.598322 1.000000
0.657343 0.599390 1.000000
0.780636 0.601892 1.000000
0.906218 0.605158 1.000000
0.212436 0.706874 1.000000
0.236973 0.706783 1.000000
0.317388 0.707301 1.000000
0.427131 0.709682 1.000000
0.546593 0.714412 1.000000
0.665064 0.718227 1.000000
0.785458 0.721492 0.999603
0.907774 0.724086 0.998749
0.252689 0.824918 0.996399
0.272770 0.824949 0.996307
0.342290 0.825132 0.995941
0.442969 0.826200 0.995514
0.555901 0.828000 0.994903
0.673701 0.830838 0.994263
0.792569 0.834623 0.993835
0.908843 0.834257 0.992615
0.307927 0.940764 0.989166
0.322728 0.940673 0.989075
0.379889 0.940520 0.988891
0.469673 0.940673 0.988647
0.574060 0.940581 0.988159
0.684474 0.940154 0.987427
0.797971 0.939422 0.986450
0.911681 0.938048 0.985199
