20 Preset/Japan Style/【3】LUT video cho PR-AE-FCPX/LUT VIDEO/Japan Style LUT (10).cube
# Created by Adobe Lightroom plugin Export LUT (1.24.0)
# www.johnrellis.com/lightroom/exportlut.htm
# Preset: 10日系胶片（素材江湖）
# Color profile: C:\Program Files (x86)\Common Files\Adobe\Color\Profiles\Recommended\VideoHD.icc
LUT_3D_SIZE 5
DOMAIN_MIN 0.000000 0.000000 0.000000
DOMAIN_MAX 0.903226 0.903226 0.903226
0.000000 0.011994 0.014374
0.187839 0.006317 0.037507
0.762173 0.000000 0.000000
1.000000 0.000000 0.000000
1.000000 0.189822 0.194186
0.000000 0.189212 0.100404
0.114107 0.169986 0.106416
0.742458 0.200656 0.000000
1.000000 0.210208 0.000000
1.000000 0.358190 0.189120
0.000000 0.636744 0.312871
0.000000 0.631006 0.285527
0.583398 0.605554 0.368170
1.000000 0.664607 0.000000
1.000000 0.629786 0.180453
0.202457 0.874998 0.646601
0.411536 0.871824 0.653742
0.677485 0.856779 0.626032
0.871183 0.837003 0.708431
1.000000 0.842649 0.635767
0.759396 0.940459 0.846128
0.786465 0.939025 0.850675
0.833951 0.933684 0.845518
0.909636 0.928710 0.844236
0.965148 0.921416 0.871946
0.000000 0.062867 0.159518
0.128115 0.070588 0.142580
0.721431 0.000000 0.140780
1.000000 0.000000 0.000000
1.000000 0.258305 0.166781
0.000000 0.193088 0.216037
0.150912 0.220005 0.224613
0.715206 0.234287 0.188846
1.000000 0.297490 0.000000
1.000000 0.379828 0.157534
0.000000 0.629755 0.435157
0.000000 0.635309 0.421332
0.579095 0.609552 0.459632
1.000000 0.667109 0.331762
1.000000 0.635431 0.169406
0.251164 0.872984 0.685847
0.429206 0.870237 0.691157
0.688167 0.857145 0.678492
0.871244 0.839780 0.741207
1.000000 0.847379 0.684169
0.755184 0.940551 0.851347
0.782437 0.938994 0.855283
0.846036 0.935668 0.860533
0.913054 0.930663 0.855802
0.966217 0.924102 0.881071
0.000000 0.131258 0.473884
0.000000 0.135836 0.474678
0.550378 0.130343 0.466011
1.000000 0.186801 0.504295
1.000000 0.456458 0.507073
0.000000 0.242130 0.516136
0.000000 0.261784 0.533562
0.580591 0.309239 0.525750
1.000000 0.389746 0.552636
1.000000 0.538720 0.546044
0.000000 0.598840 0.647456
0.000000 0.612757 0.652522
0.628992 0.673060 0.684932
0.948486 0.713130 0.691279
1.000000 0.720516 0.649958
0.315984 0.870146 0.792813
0.444343 0.866392 0.790433
0.713649 0.859159 0.794339
0.876768 0.850278 0.819821
1.000000 0.859709 0.790341
0.711910 0.941863 0.867338
0.747982 0.940185 0.870451
0.845182 0.935821 0.882322
0.913481 0.931975 0.879881
0.965881 0.926940 0.899504
0.000000 0.252018 0.781430
0.000000 0.257633 0.781186
0.598596 0.277989 0.778378
0.905089 0.402411 0.761990
1.000000 0.627832 0.778531
0.000000 0.329473 0.790311
0.000000 0.353460 0.790890
0.595453 0.382696 0.787076
0.893309 0.498573 0.773617
1.000000 0.668544 0.791409
0.000000 0.576867 0.808438
0.000000 0.579919 0.806088
0.566491 0.635920 0.815579
0.866056 0.711604 0.815640
1.000000 0.777493 0.834714
0.158267 0.835660 0.859373
0.347509 0.835721 0.858854
0.647547 0.840116 0.861265
0.884764 0.860563 0.877836
0.996704 0.871458 0.880308
0.667781 0.945190 0.913115
0.702022 0.943847 0.913176
0.801694 0.939849 0.912261
0.914214 0.937041 0.917967
0.968109 0.934752 0.927459
0.400763 0.518242 0.935363
0.482033 0.522789 0.933867
0.704097 0.547051 0.928557
0.917998 0.603479 0.918090
1.000000 0.693599 0.895079
0.402564 0.567498 0.932891
0.481605 0.571435 0.931640
0.698116 0.590661 0.926604
0.908629 0.638300 0.916838
1.000000 0.719051 0.896452
0.000000 0.656825 0.931853
0.330694 0.664424 0.930388
0.672755 0.711604 0.924315
0.881010 0.738857 0.916747
0.984741 0.794217 0.905394
0.306950 0.823758 0.934813
0.385046 0.822873 0.933715
0.590906 0.820890 0.930053
0.852049 0.839841 0.926421
0.972473 0.872679 0.926390
0.620325 0.923949 0.948821
0.653498 0.923552 0.948608
0.762966 0.923735 0.948577
0.880949 0.927764 0.948882
0.970581 0.943694 0.955505
