20 Preset/Japan Style/【3】LUT video cho PR-AE-FCPX/LUT VIDEO/Japan Style LUT (25).cube
# Created by Adobe Lightroom plugin Export LUT (1.24.0)
# www.johnrellis.com/lightroom/exportlut.htm
# Preset: 25日系绿色低饱和（素材江湖）
# Color profile: C:\Program Files (x86)\Common Files\Adobe\Color\Profiles\Recommended\VideoHD.icc
LUT_3D_SIZE 32
DOMAIN_MIN 0.0 0.0 0.0
DOMAIN_MAX 1.0 1.0 1.0
0.040009 0.078370 0.088746
0.043671 0.078035 0.089174
0.053864 0.078737 0.089479
0.077241 0.080568 0.090425
0.095338 0.083528 0.092012
0.110628 0.087037 0.093904
0.127596 0.089570 0.096681
0.146273 0.091585 0.099306
0.167361 0.093080 0.101625
0.191135 0.093568 0.104494
0.218509 0.092622 0.106630
0.248508 0.090333 0.108858
0.282261 0.083467 0.111269
0.318700 0.069123 0.113527
0.358556 0.040040 0.115908
0.400671 0.003967 0.118288
0.444923 0.000000 0.120516
0.490394 0.000000 0.122621
0.536767 0.000000 0.124575
0.585870 0.000000 0.126986
0.636591 0.000000 0.128786
0.684016 0.000000 0.131167
0.727962 0.000000 0.133150
0.770016 0.000000 0.135470
0.809110 0.000000 0.138064
0.846067 0.000000 0.141329
0.881163 0.000000 0.145022
0.914702 0.000000 0.149447
0.946960 0.000000 0.155612
0.978149 0.001221 0.162783
1.000000 0.128267 0.172091
1.000000 0.181949 0.184115
0.040681 0.078981 0.089540
0.041962 0.079591 0.089479
0.051850 0.080262 0.090211
0.075227 0.082094 0.091157
0.094667 0.085054 0.092744
0.109987 0.088319 0.094972
0.126650 0.090547 0.097353
0.145113 0.092653 0.099947
0.166506 0.093690 0.102327
0.190127 0.094636 0.104738
0.217441 0.093874 0.106905
0.247410 0.091646 0.109407
0.280644 0.085634 0.111574
0.317113 0.071809 0.113863
0.356634 0.045014 0.116213
0.398871 0.009400 0.118563
0.443061 0.000000 0.120851
0.488502 0.000000 0.122927
0.534752 0.000000 0.124910
0.583642 0.000000 0.127169
0.633509 0.000000 0.129091
0.680262 0.000000 0.131106
0.723781 0.000000 0.133272
0.765682 0.000000 0.135714
0.805051 0.000000 0.137850
0.841978 0.000000 0.141146
0.877256 0.000000 0.144747
0.911070 0.000000 0.149325
0.943633 0.000000 0.155001
0.975158 0.000000 0.162264
1.000000 0.124025 0.171206
1.000000 0.178897 0.182834
0.041535 0.085115 0.092836
0.042512 0.085725 0.093202
0.046632 0.087587 0.092592
0.069093 0.088838 0.094728
0.092164 0.091035 0.096162
0.107393 0.093172 0.098299
0.124758 0.094850 0.100649
0.144167 0.096284 0.102419
0.165316 0.097749 0.104707
0.189364 0.097871 0.106783
0.216587 0.097169 0.108919
0.246921 0.095033 0.110994
0.279973 0.091096 0.113100
0.316411 0.081849 0.115297
0.355962 0.057496 0.117342
0.398047 0.023529 0.119600
0.442237 0.000000 0.121828
0.487648 0.000000 0.124208
0.534112 0.000000 0.126070
0.583001 0.000000 0.128206
0.632349 0.000000 0.130159
0.678920 0.000000 0.132448
0.722286 0.000000 0.134340
0.763973 0.000000 0.136538
0.803128 0.000000 0.139223
0.840177 0.000000 0.141970
0.875456 0.000000 0.145541
0.909300 0.000000 0.150210
0.941985 0.000000 0.155825
0.973632 0.009949 0.162753
1.000000 0.128756 0.171969
1.000000 0.181277 0.183658
0.041199 0.094362 0.099641
0.042878 0.094301 0.099977
0.051453 0.095064 0.101289
0.057496 0.097993 0.098665
0.086671 0.099580 0.102968
0.103395 0.101411 0.104921
0.121645 0.102937 0.106355
0.141482 0.103944 0.107729
0.163668 0.104829 0.108919
0.188296 0.104860 0.110567
0.215976 0.104158 0.112276
0.246403 0.102205 0.114290
0.280003 0.098451 0.116274
0.316472 0.092958 0.118318
0.355840 0.080507 0.120546
0.397833 0.049378 0.122713
0.441993 0.008362 0.124788
0.487098 0.000000 0.126711
0.533165 0.000000 0.128817
0.581811 0.000000 0.130831
0.630091 0.000000 0.132784
0.675898 0.000000 0.134615
0.719112 0.000000 0.136690
0.760952 0.000000 0.138674
0.800687 0.000000 0.141146
0.838315 0.000000 0.144167
0.874144 0.000000 0.148104
0.908507 0.000000 0.152590
0.941436 0.000000 0.158175
0.973053 0.070039 0.165408
1.000000 0.143343 0.174502
1.000000 0.190860 0.185824
0.043366 0.104646 0.108766
0.044770 0.104585 0.109407
0.053346 0.105257 0.110536
0.061677 0.105287 0.111452
0.068910 0.110414 0.107820
0.099763 0.113252 0.110353
0.115969 0.113252 0.114443
0.137331 0.114382 0.115023
0.160861 0.114748 0.115541
0.186221 0.115053 0.116732
0.214542 0.114382 0.118013
0.245457 0.113252 0.119539
0.279301 0.110262 0.121370
0.316381 0.105715 0.123262
0.356146 0.098970 0.125216
0.398413 0.088655 0.127352
0.442664 0.056184 0.129274
0.488136 0.011627 0.131197
0.534417 0.000000 0.133028
0.583520 0.000000 0.134798
0.631098 0.000000 0.136873
0.676265 0.000000 0.138521
0.719112 0.000000 0.140719
0.760952 0.000000 0.142672
0.800565 0.000000 0.145235
0.838224 0.000000 0.148104
0.874022 0.000000 0.151797
0.908232 0.000000 0.156527
0.940948 0.004303 0.162081
0.972351 0.115816 0.169284
1.000000 0.163272 0.178286
1.000000 0.205295 0.189883
0.040528 0.115297 0.118196
0.041810 0.115572 0.118166
0.048798 0.115908 0.119509
0.061707 0.117220 0.121859
0.070100 0.116091 0.121675
0.079561 0.124727 0.116060
0.114626 0.130220 0.117433
0.132662 0.127047 0.125124
0.157198 0.128145 0.125216
0.184237 0.128756 0.125643
0.213718 0.128542 0.126192
0.245823 0.127535 0.127535
0.280461 0.125795 0.129061
0.318059 0.122835 0.130648
0.358434 0.118166 0.132021
0.401343 0.110933 0.133883
0.445747 0.100649 0.135714
0.491585 0.084382 0.137575
0.539452 0.039063 0.139162
0.587854 0.000000 0.140902
0.634913 0.000000 0.142672
0.679622 0.000000 0.144503
0.744930 0.000000 0.148104
0.785397 0.000000 0.150515
0.823270 0.000000 0.153353
0.858854 0.000000 0.156863
0.892760 0.000305 0.160983
0.925017 0.094270 0.166384
0.955932 0.136202 0.172641
0.985595 0.172457 0.180575
1.000000 0.207858 0.190585
1.000000 0.242832 0.203159
0.031678 0.128267 0.128603
0.032959 0.128481 0.128573
0.039979 0.128786 0.129793
0.053193 0.129915 0.131624
0.072786 0.130098 0.133242
0.079286 0.129946 0.132235
0.089723 0.142092 0.125460
0.133608 0.152743 0.125338
0.155978 0.146731 0.135744
0.183566 0.146914 0.138308
0.215702 0.147311 0.138369
0.249454 0.147311 0.139132
0.286046 0.146487 0.140230
0.325170 0.144381 0.141238
0.366613 0.141329 0.142489
0.409949 0.136629 0.143679
0.455085 0.129976 0.145052
0.501671 0.120729 0.146487
0.551690 0.109621 0.148196
0.600916 0.095735 0.149905
0.648829 0.072267 0.151614
0.694759 0.042145 0.153384
0.738857 0.024811 0.155489
0.781003 0.026612 0.157778
0.820279 0.053376 0.160800
0.856565 0.094240 0.164248
0.890562 0.118257 0.168429
0.922789 0.145266 0.173495
0.953521 0.172793 0.179843
0.982879 0.201389 0.187930
1.000000 0.231205 0.198032
1.000000 0.262577 0.210575
0.023163 0.142031 0.139010
0.024872 0.142000 0.139254
0.031464 0.142489 0.140078
0.044678 0.143465 0.141726
0.068269 0.144594 0.144808
0.082429 0.143587 0.144442
0.085725 0.145724 0.142367
0.098390 0.160739 0.135470
0.154391 0.178256 0.133608
0.182773 0.170016 0.145937
0.212070 0.169223 0.153628
0.248020 0.170016 0.153475
0.286229 0.170077 0.153689
0.326421 0.169284 0.154177
0.368841 0.167575 0.154665
0.412909 0.164553 0.155367
0.458442 0.160616 0.156374
0.507408 0.155398 0.157565
0.556390 0.149386 0.158785
0.604395 0.142763 0.160189
0.651087 0.136690 0.161563
0.696162 0.131411 0.163180
0.739559 0.130282 0.165103
0.781094 0.133669 0.167391
0.819760 0.141939 0.170321
0.855772 0.154147 0.173587
0.889433 0.169436 0.177951
0.921416 0.187900 0.183108
0.951934 0.209720 0.189578
0.981140 0.233219 0.197879
1.000000 0.259373 0.207797
1.000000 0.287480 0.220554
0.010315 0.157534 0.150912
0.010285 0.157900 0.151278
0.017884 0.158114 0.151827
0.033082 0.158938 0.153292
0.055848 0.160311 0.155612
0.085664 0.161257 0.158694
0.092805 0.158541 0.156893
0.092470 0.164462 0.153841
0.109834 0.182498 0.146700
0.175509 0.205081 0.142794
0.213993 0.198489 0.157107
0.246220 0.195712 0.171481
0.286412 0.197330 0.170626
0.328405 0.197726 0.170260
0.372534 0.197208 0.170260
0.417548 0.195804 0.170291
0.466102 0.193942 0.171023
0.514672 0.191501 0.171633
0.562646 0.187747 0.172427
0.609949 0.184573 0.173281
0.655726 0.181643 0.174411
0.699855 0.180484 0.175753
0.742336 0.181369 0.177340
0.782986 0.185031 0.179477
0.821012 0.192325 0.182284
0.856382 0.201694 0.185946
0.889647 0.214328 0.190158
0.921111 0.229557 0.195377
0.951202 0.247349 0.202090
0.979980 0.267674 0.210330
1.000000 0.290837 0.220890
1.000000 0.315770 0.233768
0.000000 0.175357 0.163607
0.000000 0.175692 0.163943
0.000946 0.175875 0.164431
0.016144 0.176577 0.165743
0.038911 0.177768 0.167849
0.078248 0.179324 0.171206
0.095186 0.178561 0.172061
0.102724 0.174960 0.169894
0.100923 0.185733 0.166171
0.124056 0.207279 0.158511
0.199374 0.235203 0.152926
0.249027 0.231418 0.167849
0.287266 0.227848 0.184878
0.329839 0.228946 0.190372
0.376593 0.230503 0.189578
0.424994 0.230838 0.189242
0.473823 0.230472 0.189120
0.522423 0.229587 0.188937
0.570336 0.227848 0.189212
0.617182 0.226505 0.189456
0.661830 0.225345 0.190158
0.704219 0.225376 0.190890
0.745296 0.227054 0.192142
0.784329 0.231174 0.193973
0.821042 0.236698 0.196658
0.855528 0.245121 0.200015
0.888273 0.255711 0.204410
0.919463 0.268742 0.209812
0.949310 0.284337 0.216739
0.977935 0.302770 0.225406
1.000000 0.323461 0.236240
1.000000 0.346654 0.249699
0.000000 0.194949 0.177310
0.000000 0.195224 0.177584
0.000000 0.195529 0.178012
0.000000 0.196109 0.179202
0.020813 0.197086 0.181064
0.060761 0.198703 0.184054
0.097841 0.200504 0.188266
0.107301 0.197208 0.186069
0.114656 0.192447 0.183566
0.112306 0.209873 0.179416
0.142672 0.235416 0.171328
0.225864 0.269688 0.162936
0.290623 0.270359 0.179629
0.335943 0.266484 0.199374
0.382574 0.267735 0.213352
0.432166 0.269505 0.212009
0.481514 0.270115 0.210758
0.530175 0.270054 0.209873
0.577813 0.269566 0.209232
0.623621 0.269047 0.208957
0.667414 0.269200 0.208865
0.709071 0.269902 0.209140
0.749233 0.272251 0.210361
0.787198 0.276066 0.211978
0.823056 0.281682 0.214298
0.856809 0.289128 0.217929
0.888884 0.298405 0.222385
0.919432 0.310124 0.228122
0.948760 0.324407 0.235172
0.976776 0.340520 0.244175
1.000000 0.359380 0.255436
1.000000 0.380560 0.269291
0.000000 0.216922 0.192050
0.000000 0.216983 0.192172
0.000000 0.217258 0.192721
0.000000 0.217868 0.193729
0.000000 0.218814 0.195560
0.038483 0.220279 0.198062
0.091676 0.222019 0.201694
0.113771 0.222080 0.204135
0.121584 0.217166 0.200687
0.128908 0.211978 0.198154
0.127291 0.237675 0.193790
0.165286 0.268376 0.185672
0.267582 0.319677 0.176425
0.351629 0.326696 0.194461
0.404700 0.321538 0.218357
0.456397 0.322026 0.242863
0.507225 0.323766 0.243137
0.556725 0.324285 0.240757
0.603906 0.324437 0.239200
0.648554 0.324712 0.237858
0.690822 0.325170 0.236973
0.730648 0.326360 0.236851
0.768063 0.328283 0.237217
0.803433 0.332067 0.238987
0.836820 0.336858 0.241337
0.868498 0.343359 0.244663
0.898405 0.351293 0.249241
0.927092 0.361242 0.254978
0.954406 0.373114 0.262455
0.980804 0.387030 0.271550
1.000000 0.403510 0.283177
1.000000 0.422278 0.297612
0.000000 0.242802 0.209049
0.000000 0.242924 0.209049
0.000000 0.242985 0.209537
0.000000 0.243473 0.210452
0.000000 0.244236 0.211917
0.012726 0.245518 0.214298
0.081239 0.247288 0.217746
0.115938 0.249516 0.222446
0.131624 0.246830 0.221653
0.139254 0.240452 0.217533
0.143374 0.241062 0.215000
0.148074 0.272374 0.210849
0.195926 0.309911 0.202548
0.301061 0.362158 0.187015
0.400641 0.375158 0.205753
0.457465 0.368994 0.233280
0.510704 0.368719 0.260533
0.560754 0.370733 0.271946
0.607538 0.371313 0.268864
0.651392 0.371679 0.266514
0.692531 0.371740 0.264683
0.731594 0.372869 0.263554
0.768185 0.374640 0.263798
0.803006 0.377600 0.264836
0.835904 0.381811 0.266911
0.866941 0.387366 0.270298
0.896513 0.394324 0.274723
0.924743 0.403113 0.280613
0.951843 0.413794 0.288121
0.977722 0.426795 0.297765
1.000000 0.441260 0.309606
1.000000 0.458564 0.324437
0.000000 0.269780 0.226291
0.000000 0.269657 0.226322
0.000000 0.269902 0.226841
0.000000 0.270237 0.227420
0.000000 0.270939 0.228855
0.000000 0.271824 0.230900
0.054047 0.273289 0.233799
0.109133 0.275029 0.237736
0.141421 0.276799 0.242405
0.149233 0.270024 0.237583
0.156649 0.262058 0.232883
0.157900 0.269596 0.230350
0.169619 0.305882 0.226413
0.225834 0.348455 0.217685
0.336004 0.407446 0.197726
0.450629 0.426276 0.216556
0.508721 0.418647 0.248142
0.561975 0.417151 0.278630
0.610864 0.420233 0.304509
0.654047 0.420661 0.300816
0.694759 0.420783 0.297673
0.732967 0.421302 0.295811
0.769039 0.422705 0.295415
0.803189 0.425147 0.296056
0.835355 0.428687 0.297704
0.865904 0.433478 0.300816
0.894926 0.439460 0.305089
0.922606 0.446967 0.310857
0.949096 0.456306 0.318547
0.974487 0.467536 0.328161
0.998535 0.480751 0.340398
1.000000 0.496590 0.355383
0.000000 0.297948 0.243839
0.000000 0.297917 0.243931
0.000000 0.298039 0.244327
0.000000 0.298192 0.244968
0.000000 0.298650 0.246098
0.000000 0.299290 0.247745
0.015412 0.300450 0.250370
0.100069 0.301976 0.253941
0.137728 0.303685 0.258244
0.160311 0.301549 0.258793
0.168124 0.292943 0.253239
0.174136 0.283635 0.247776
0.175235 0.300420 0.246006
0.194003 0.341466 0.242435
0.257633 0.388159 0.233585
0.372961 0.451759 0.211276
0.499336 0.476936 0.228977
0.557488 0.468696 0.264408
0.609186 0.466346 0.298100
0.656153 0.469306 0.332311
0.696559 0.470680 0.336767
0.734096 0.471107 0.333959
0.769406 0.471839 0.332525
0.802701 0.473671 0.332586
0.834257 0.476204 0.333745
0.864286 0.480110 0.336339
0.892699 0.485084 0.340551
0.919951 0.491585 0.346319
0.946075 0.499855 0.353887
0.970886 0.510185 0.364019
0.994537 0.522545 0.376715
1.000000 0.537133 0.392248
0.000000 0.326665 0.261692
0.000000 0.326787 0.261845
0.000000 0.326909 0.262181
0.000000 0.327092 0.262852
0.000000 0.327581 0.264042
0.000000 0.328344 0.265568
0.000000 0.329381 0.267948
0.083742 0.330877 0.271183
0.132235 0.332586 0.275395
0.169833 0.334569 0.280735
0.181369 0.327092 0.275914
0.187686 0.316472 0.269047
0.193027 0.305211 0.262821
0.194186 0.332769 0.261997
0.220706 0.377508 0.258610
0.290898 0.427314 0.250156
0.409735 0.491585 0.228672
0.539879 0.521508 0.245121
0.601221 0.516777 0.281926
0.651209 0.513725 0.319219
0.695521 0.516197 0.356146
0.734188 0.520287 0.377661
0.769039 0.520989 0.375555
0.801846 0.522332 0.374762
0.832853 0.524437 0.375494
0.862333 0.527367 0.377874
0.890257 0.531762 0.381720
0.916930 0.537224 0.387121
0.942290 0.544457 0.394690
0.966339 0.553307 0.404425
0.989197 0.564263 0.416724
1.000000 0.577234 0.432105
0.000000 0.355993 0.279881
0.000000 0.355962 0.279881
0.000000 0.356054 0.280125
0.000000 0.356329 0.280888
0.000000 0.356664 0.281773
0.000000 0.357397 0.283360
0.000000 0.358312 0.285588
0.044739 0.359503 0.288487
0.124086 0.360937 0.292271
0.165652 0.362463 0.297002
0.196078 0.361364 0.299596
0.202243 0.350652 0.291966
0.207034 0.338567 0.284215
0.212192 0.325139 0.277501
0.214817 0.365667 0.277928
0.249363 0.414099 0.275364
0.325536 0.466377 0.267613
0.445869 0.529900 0.249058
0.576562 0.563622 0.264714
0.642298 0.563287 0.302831
0.689845 0.560143 0.342931
0.731411 0.562005 0.383795
0.767819 0.569238 0.423957
0.800046 0.570336 0.422461
0.830442 0.571923 0.422492
0.859251 0.574304 0.424262
0.886687 0.577935 0.427527
0.912718 0.582666 0.432715
0.937346 0.588922 0.439887
0.960723 0.596826 0.449348
0.982879 0.606409 0.461402
1.000000 0.618189 0.476570
0.000000 0.386725 0.299077
0.000000 0.386694 0.299077
0.000000 0.393866 0.303899
0.000000 0.394141 0.304570
0.000000 0.394446 0.305608
0.000000 0.394873 0.306950
0.000000 0.395483 0.308843
0.004211 0.396216 0.311376
0.119295 0.397131 0.314672
0.166690 0.398260 0.318883
0.206668 0.399512 0.324163
0.223972 0.392309 0.320684
0.227695 0.379309 0.311498
0.230381 0.364691 0.302007
0.233860 0.357244 0.295933
0.242405 0.404791 0.297673
0.285435 0.456916 0.296117
0.368597 0.511101 0.290257
0.487953 0.572381 0.275364
0.616205 0.608667 0.290959
0.684321 0.612116 0.330724
0.728634 0.608179 0.375097
0.766964 0.609674 0.418524
0.799771 0.616541 0.461769
0.828855 0.620600 0.477028
0.856382 0.622156 0.477455
0.882628 0.624475 0.479286
0.907530 0.628046 0.483314
0.931273 0.632868 0.489387
0.953765 0.639643 0.498268
0.975250 0.648066 0.509514
0.995544 0.658564 0.523949
0.000000 0.420050 0.320317
0.000000 0.420752 0.320745
0.000000 0.421637 0.321630
0.000000 0.422400 0.322515
0.000000 0.423133 0.323796
0.000000 0.423621 0.325078
0.000000 0.424109 0.326940
0.000000 0.424598 0.329168
0.110140 0.425299 0.332128
0.162173 0.426032 0.335851
0.204013 0.426947 0.340429
0.241520 0.427314 0.345739
0.244968 0.414130 0.335576
0.247288 0.399603 0.325505
0.248569 0.383795 0.315343
0.250980 0.387274 0.311101
0.267002 0.438209 0.314305
0.317754 0.492683 0.314397
0.405341 0.547753 0.310887
0.522820 0.607385 0.300450
0.645777 0.644923 0.316930
0.717342 0.652735 0.358556
0.759121 0.649042 0.405737
0.794644 0.650538 0.451759
0.824735 0.657008 0.497169
0.850828 0.665370 0.530938
0.876249 0.667323 0.531975
0.900359 0.670130 0.534966
0.923430 0.674311 0.540154
0.945312 0.680018 0.547936
0.966247 0.687312 0.558312
0.986206 0.696223 0.571191
0.000000 0.450996 0.340368
0.000000 0.451667 0.340764
0.000000 0.452552 0.341711
0.000000 0.453315 0.342687
0.000000 0.454017 0.343847
0.000000 0.454536 0.345190
0.000000 0.454871 0.346868
0.000000 0.455085 0.348852
0.101839 0.455543 0.351507
0.159976 0.455940 0.354803
0.203861 0.456306 0.358831
0.242954 0.456794 0.363714
0.265507 0.451423 0.362646
0.267430 0.436774 0.351446
0.267826 0.420813 0.340215
0.266819 0.403204 0.328740
0.271214 0.420020 0.327916
0.295384 0.474037 0.332738
0.353582 0.530144 0.334844
0.444678 0.585443 0.334295
0.557519 0.641718 0.329412
0.673945 0.679683 0.346563
0.747738 0.691218 0.390051
0.786801 0.687587 0.440162
0.819608 0.689204 0.487984
0.847074 0.695613 0.534783
0.870298 0.705715 0.578973
0.893217 0.709560 0.586969
0.915557 0.713008 0.591028
0.936919 0.717708 0.597375
0.957366 0.723903 0.606256
0.976898 0.731472 0.617578
0.000000 0.483589 0.362066
0.000000 0.484352 0.362768
0.000000 0.484932 0.363287
0.000000 0.485695 0.364294
0.000000 0.486336 0.365484
0.000000 0.486549 0.366583
0.000000 0.486732 0.368017
0.000000 0.486824 0.369940
0.097230 0.486946 0.372229
0.159457 0.487282 0.375341
0.205447 0.487373 0.378912
0.245701 0.487404 0.383185
0.282872 0.487251 0.388403
0.289860 0.475257 0.379614
0.289586 0.459510 0.367376
0.288304 0.442115 0.355108
0.286107 0.422827 0.342840
0.295048 0.455055 0.346349
0.327794 0.512291 0.353429
0.394079 0.569940 0.358862
0.486976 0.624872 0.362737
0.593591 0.677211 0.364477
0.703487 0.715480 0.384161
0.778927 0.730343 0.429938
0.815000 0.727413 0.482399
0.844938 0.729335 0.532738
0.869871 0.735439 0.579248
0.890867 0.744900 0.622736
0.910613 0.752621 0.646265
0.931121 0.756680 0.651545
0.950896 0.761868 0.658961
0.969848 0.768338 0.668788
0.000000 0.521904 0.388891
0.000000 0.522179 0.389227
0.000000 0.522423 0.389532
0.000000 0.522484 0.390021
0.000000 0.522728 0.390936
0.000000 0.522484 0.391638
0.000000 0.522393 0.392950
0.000000 0.522301 0.394568
0.104189 0.522179 0.396735
0.166140 0.522148 0.399359
0.212406 0.521904 0.402625
0.252811 0.521691 0.406439
0.290288 0.520989 0.410773
0.318181 0.517235 0.412146
0.316320 0.501610 0.398840
0.314122 0.484291 0.385260
0.310063 0.465034 0.371221
0.307988 0.444404 0.358740
0.322576 0.492958 0.367224
0.364477 0.552026 0.376898
0.436072 0.609522 0.385504
0.526757 0.661433 0.393866
0.626154 0.709102 0.401160
0.729061 0.746639 0.421973
0.804532 0.763638 0.468666
0.837583 0.760922 0.522484
0.865110 0.762722 0.572168
0.888029 0.768399 0.617762
0.907408 0.777218 0.660151
0.924224 0.787839 0.696712
0.943297 0.792325 0.702754
0.961791 0.797787 0.710872
0.000000 0.556909 0.414618
0.000000 0.556970 0.414710
0.000000 0.557214 0.415137
0.000000 0.557336 0.415625
0.000000 0.557244 0.416266
0.000000 0.557214 0.417182
0.000000 0.556878 0.418250
0.000000 0.556603 0.419776
0.119905 0.556359 0.421637
0.177127 0.555962 0.423987
0.222171 0.555596 0.426886
0.262119 0.554955 0.430304
0.299168 0.554070 0.434089
0.334325 0.552880 0.438605
0.345312 0.542718 0.431586
0.341680 0.526116 0.417212
0.337102 0.507805 0.402289
0.331395 0.487404 0.387182
0.329839 0.471351 0.375952
0.353521 0.531945 0.389685
0.403876 0.591974 0.402625
0.478523 0.647730 0.415473
0.566155 0.696590 0.428840
0.658595 0.740139 0.441901
0.751949 0.775082 0.460395
0.824125 0.791073 0.509392
0.857847 0.791165 0.561517
0.883177 0.792874 0.610315
0.904479 0.798215 0.655085
0.922484 0.806455 0.695918
0.938048 0.816922 0.733272
0.954742 0.824094 0.749233
0.000000 0.595422 0.444862
0.000000 0.595697 0.445228
0.000000 0.595880 0.445533
0.000000 0.595758 0.445899
0.000000 0.595392 0.446235
0.000000 0.594751 0.446632
0.000000 0.593927 0.447211
0.053223 0.593164 0.448188
0.146639 0.592218 0.449531
0.195590 0.591211 0.451240
0.237064 0.590173 0.453407
0.275029 0.588952 0.456031
0.310613 0.587549 0.459205
0.344732 0.585718 0.462684
0.376440 0.583062 0.466316
0.371313 0.567041 0.450874
0.365454 0.549279 0.434791
0.358648 0.529656 0.418433
0.351080 0.508141 0.401953
0.353307 0.507561 0.396216
0.385382 0.569879 0.412604
0.442603 0.629541 0.429114
0.517571 0.682094 0.446143
0.601434 0.727626 0.463813
0.687098 0.767147 0.481147
0.775204 0.802579 0.503807
0.842496 0.816739 0.551904
0.877043 0.819455 0.602197
0.900450 0.821103 0.649165
0.920134 0.826078 0.692103
0.937011 0.833768 0.731106
0.951751 0.843442 0.765896
0.000000 0.630304 0.474067
0.000000 0.630640 0.474403
0.000000 0.630823 0.474891
0.000000 0.630762 0.475135
0.000000 0.630457 0.475593
0.000000 0.630091 0.476204
0.018708 0.629541 0.477058
0.132418 0.628931 0.478065
0.181582 0.628229 0.479530
0.222354 0.627375 0.481239
0.259922 0.626368 0.483314
0.295262 0.625025 0.485603
0.329076 0.623529 0.488441
0.361822 0.621485 0.491463
0.392676 0.619043 0.494789
0.407050 0.610803 0.489937
0.399908 0.594049 0.472938
0.392370 0.575555 0.455604
0.383398 0.554955 0.437629
0.373510 0.532433 0.419532
0.383246 0.548669 0.420752
0.423774 0.612024 0.440803
0.485481 0.668727 0.461707
0.560021 0.718044 0.483436
0.639246 0.760067 0.505577
0.717983 0.795621 0.527581
0.798184 0.829374 0.550408
0.860960 0.841978 0.597131
0.896391 0.847227 0.645441
0.917937 0.848997 0.690608
0.936278 0.853696 0.731258
0.952148 0.860838 0.767208
0.000000 0.667140 0.507683
0.000000 0.667353 0.507927
0.000000 0.667323 0.508080
0.000000 0.667170 0.508476
0.032074 0.666865 0.508812
0.114595 0.666346 0.509300
0.155032 0.665766 0.509972
0.191073 0.665003 0.510918
0.225528 0.664088 0.512078
0.258946 0.663050 0.513512
0.291630 0.661707 0.515282
0.322759 0.660304 0.517327
0.353307 0.658534 0.519585
0.383368 0.656428 0.522210
0.412360 0.653712 0.524865
0.440284 0.650538 0.527977
0.437720 0.637476 0.514000
0.428717 0.620935 0.495979
0.419074 0.602258 0.477211
0.408759 0.581170 0.457984
0.397833 0.557610 0.438666
0.416999 0.591913 0.448585
0.464759 0.653223 0.472602
0.528985 0.706508 0.497871
0.601160 0.751858 0.523430
0.675013 0.790249 0.548455
0.746700 0.822110 0.572198
0.819150 0.853544 0.594507
0.877501 0.864652 0.639368
0.913664 0.871946 0.685328
0.933837 0.873686 0.728298
0.951263 0.878294 0.766232
0.152255 0.702876 0.543420
0.155459 0.702968 0.543572
0.161715 0.703029 0.543908
0.172091 0.702937 0.544274
0.188113 0.702724 0.544762
0.207767 0.702480 0.545434
0.230228 0.702388 0.546685
0.255436 0.702083 0.548119
0.281865 0.701900 0.550042
0.309636 0.701503 0.552209
0.337133 0.700984 0.554650
0.365057 0.700130 0.557214
0.392981 0.698939 0.560082
0.420142 0.697169 0.562737
0.446693 0.694850 0.565576
0.472572 0.691829 0.568292
0.488594 0.685817 0.566033
0.478645 0.671565 0.547906
0.468055 0.655695 0.528862
0.456428 0.637568 0.508751
0.443641 0.616876 0.487587
0.432959 0.593042 0.467506
0.464118 0.644312 0.488411
0.517845 0.701289 0.517601
0.581537 0.749813 0.546715
0.648920 0.790555 0.574792
0.715908 0.824094 0.601251
0.779843 0.851621 0.626062
0.843473 0.880217 0.647333
0.896757 0.889616 0.688746
0.933135 0.898436 0.731441
0.952026 0.900267 0.770565
0.266880 0.744106 0.589410
0.267521 0.744106 0.589410
0.270420 0.743954 0.589502
0.275639 0.743740 0.589746
0.283909 0.743374 0.589990
0.295232 0.742794 0.590356
0.309728 0.742306 0.591150
0.326635 0.741543 0.591974
0.345220 0.740780 0.593133
0.366064 0.739834 0.594659
0.388190 0.738705 0.596338
0.410773 0.737331 0.598199
0.434119 0.735744 0.600275
0.457069 0.733700 0.602289
