20 Preset/Japan Style/【3】LUT video cho PR-AE-FCPX/LUT VIDEO/Japan Style LUT (14).cube
# Created by Adobe Lightroom plugin Export LUT (1.24.0)
# www.johnrellis.com/lightroom/exportlut.htm
# Preset: 14日系胶片（素材江湖）
# Color profile: C:\Program Files (x86)\Common Files\Adobe\Color\Profiles\Recommended\VideoHD.icc
LUT_3D_SIZE 5
DOMAIN_MIN 0.000000 0.000000 0.000000
DOMAIN_MAX 0.903226 0.903226 0.903226
0.137331 0.162112 0.124025
0.163668 0.162051 0.123629
0.425544 0.163516 0.106325
0.764645 0.162753 0.008240
1.000000 0.200443 0.130587
0.106325 0.205753 0.116732
0.188663 0.212589 0.111940
0.425177 0.246128 0.082033
0.767788 0.284031 0.000000
1.000000 0.307988 0.146487
0.000000 0.486854 0.111299
0.000000 0.482368 0.127687
0.495094 0.504936 0.000000
0.783536 0.517632 0.000000
0.991730 0.515190 0.187350
0.000000 0.779232 0.275853
0.000000 0.779599 0.289158
0.406867 0.776547 0.290929
0.740291 0.761257 0.188052
0.969726 0.728939 0.226993
0.351781 0.928008 0.555474
0.395300 0.927398 0.563165
0.500328 0.919921 0.572564
0.671351 0.917510 0.545006
0.879362 0.908080 0.469429
0.137972 0.161349 0.157687
0.178653 0.157198 0.163363
0.411231 0.102724 0.195468
0.737423 0.000000 0.204593
0.994537 0.139895 0.241093
0.100557 0.204257 0.171420
0.188937 0.205814 0.173220
0.421546 0.219089 0.185367
0.737362 0.239109 0.203830
0.990967 0.274693 0.245823
0.000000 0.458412 0.227390
0.038880 0.459876 0.222629
0.459815 0.466865 0.196719
0.747677 0.487068 0.209751
0.981384 0.506004 0.281987
0.000000 0.769253 0.345861
0.000000 0.770565 0.357946
0.420905 0.769802 0.373846
0.736324 0.754208 0.292424
0.963378 0.725124 0.317601
0.390143 0.924987 0.584009
0.426490 0.924224 0.590143
0.548211 0.922454 0.621149
0.690425 0.918883 0.596612
0.884123 0.910491 0.527825
0.157137 0.140108 0.409033
0.246189 0.123507 0.412604
0.440009 0.000000 0.420325
0.723049 0.000000 0.460548
0.982086 0.000000 0.473823
0.000000 0.202243 0.421485
0.199863 0.197818 0.420722
0.442298 0.184726 0.424475
0.728328 0.130312 0.455146
0.980987 0.218662 0.477546
0.000000 0.444923 0.436683
0.143832 0.443763 0.436072
0.457893 0.443793 0.438239
0.736660 0.464332 0.462715
0.961913 0.501762 0.504021
0.214054 0.732967 0.537438
0.321019 0.728298 0.540124
0.480415 0.738338 0.543359
0.729091 0.734493 0.513268
0.939330 0.716945 0.529168
0.479652 0.911315 0.666957
0.495613 0.912322 0.666468
0.591424 0.912474 0.687709
0.715724 0.910399 0.695338
0.883268 0.903014 0.633112
0.160067 0.000000 0.715816
0.271458 0.000000 0.717494
0.488289 0.000000 0.718441
0.721431 0.000000 0.717067
0.954681 0.000000 0.710353
0.000000 0.174075 0.715663
0.202701 0.165805 0.715053
0.470192 0.130282 0.713191
0.713069 0.000000 0.709010
0.948363 0.000000 0.702296
0.000000 0.431830 0.706233
0.000000 0.424018 0.703151
0.425360 0.412024 0.701869
0.697322 0.402228 0.693568
0.939178 0.414343 0.692683
0.000000 0.699550 0.714351
0.000000 0.696834 0.711543
0.447181 0.694392 0.709773
0.709438 0.692256 0.708400
0.912871 0.714290 0.732509
0.446876 0.897612 0.757290
0.489876 0.897093 0.761746
0.626886 0.896605 0.783169
0.749050 0.901091 0.802670
0.886442 0.895750 0.772763
0.116060 0.000000 0.917082
0.242435 0.000000 0.916014
0.454292 0.000000 0.915221
0.673030 0.000000 0.911559
0.892729 0.000000 0.906645
0.000000 0.102693 0.911925
0.166049 0.084657 0.911376
0.432593 0.000000 0.910124
0.663264 0.000000 0.906065
0.887877 0.000000 0.901915
0.000000 0.363287 0.907164
0.000000 0.359838 0.905272
0.362127 0.351934 0.902342
0.637781 0.337896 0.896757
0.881529 0.337133 0.896788
0.000000 0.628595 0.899809
0.000000 0.625360 0.898192
0.343908 0.620996 0.896330
0.639399 0.626123 0.895903
0.880186 0.644617 0.899016
0.082002 0.869078 0.897704
0.234653 0.868406 0.897093
0.468544 0.868833 0.897795
0.679927 0.867857 0.897063
0.873106 0.867002 0.896300
