20 Preset/Japan Style/【3】LUT video cho PR-AE-FCPX/LUT VIDEO/Japan Style LUT (23).cube
# Created by Adobe Lightroom plugin Export LUT (1.24.0)
# www.johnrellis.com/lightroom/exportlut.htm
# Preset: 23日系低饱和（素材江湖）
# Color profile: C:\Program Files (x86)\Common Files\Adobe\Color\Profiles\Recommended\VideoHD.icc
LUT_3D_SIZE 32
DOMAIN_MIN 0.0 0.0 0.0
DOMAIN_MAX 1.0 1.0 1.0
0.000000 0.000000 0.000000
0.000000 0.000000 0.000000
0.005249 0.000519 0.000000
0.043977 0.004028 0.000000
0.109071 0.013794 0.000000
0.176730 0.014557 0.000000
0.260166 0.000000 0.000000
0.347875 0.000000 0.000000
0.432990 0.000000 0.000000
0.512108 0.000000 0.000000
0.586145 0.000000 0.000000
0.653285 0.000000 0.000000
0.712306 0.000000 0.000000
0.762905 0.000000 0.000000
0.806058 0.000000 0.000000
0.842008 0.000000 0.000000
0.872984 0.000000 0.000000
0.900084 0.083314 0.000000
0.924071 0.162570 0.000000
0.945495 0.214420 0.000000
0.964843 0.256138 0.000000
0.982238 0.292638 0.000000
0.998077 0.325048 0.000000
1.000000 0.354955 0.000000
1.000000 0.382269 0.000000
1.000000 0.407538 0.000000
1.000000 0.430701 0.000000
1.000000 0.451881 0.092164
1.000000 0.471107 0.149569
1.000000 0.488808 0.193515
1.000000 0.504784 0.234073
1.000000 0.519371 0.271855
0.000000 0.000000 0.000000
0.000000 0.000000 0.000000
0.005829 0.002716 0.000000
0.045106 0.008392 0.000000
0.109560 0.020325 0.000000
0.177646 0.022827 0.000000
0.260807 0.000000 0.000000
0.347753 0.000000 0.000000
0.432624 0.000000 0.000000
0.511833 0.000000 0.000000
0.585412 0.000000 0.000000
0.652461 0.000000 0.000000
0.711452 0.000000 0.000000
0.761959 0.000000 0.000000
0.804776 0.000000 0.000000
0.840696 0.000000 0.000000
0.871763 0.000000 0.000000
0.898924 0.091310 0.000000
0.922850 0.165225 0.000000
0.944366 0.215457 0.000000
0.963684 0.256779 0.000000
0.981170 0.292485 0.000000
0.996979 0.324865 0.000000
1.000000 0.354589 0.000000
1.000000 0.382055 0.000000
1.000000 0.406958 0.000000
1.000000 0.430030 0.000000
1.000000 0.451331 0.090394
1.000000 0.470588 0.147585
1.000000 0.488258 0.192294
1.000000 0.504448 0.232700
1.000000 0.519036 0.270451
0.001282 0.000977 0.000000
0.000580 0.002197 0.000000
0.006104 0.011658 0.000000
0.041535 0.030152 0.000000
0.111391 0.053285 0.000000
0.181857 0.061067 0.000000
0.265751 0.027802 0.000000
0.352056 0.000000 0.000000
0.435981 0.000000 0.000000
0.514214 0.000000 0.000000
0.587274 0.000000 0.000000
0.653834 0.000000 0.000000
0.712093 0.000000 0.000000
0.762081 0.000000 0.000000
0.804288 0.000000 0.000000
0.839841 0.000000 0.000000
0.870542 0.000000 0.000000
0.897459 0.123598 0.000000
0.921508 0.181704 0.000000
0.942992 0.227176 0.000000
0.962432 0.265660 0.000000
0.979889 0.300145 0.000000
0.995789 0.330846 0.000000
1.000000 0.359533 0.000000
1.000000 0.386023 0.000000
1.000000 0.410254 0.000000
1.000000 0.433082 0.000000
1.000000 0.453803 0.096376
1.000000 0.472724 0.151614
1.000000 0.490181 0.194705
1.000000 0.505913 0.234714
1.000000 0.520378 0.272557
0.000000 0.041077 0.021576
0.000000 0.042054 0.023682
0.003998 0.043336 0.029023
0.028626 0.065827 0.008545
0.109499 0.095827 0.001556
0.187442 0.107088 0.000000
0.271672 0.102998 0.000000
0.357275 0.080659 0.000000
0.440711 0.000000 0.000000
0.518425 0.000000 0.000000
0.590723 0.000000 0.000000
0.655756 0.000000 0.000000
0.713130 0.000000 0.000000
0.762356 0.000000 0.000000
0.803342 0.000000 0.000000
0.838102 0.000000 0.000000
0.868437 0.115633 0.000000
0.895018 0.169772 0.000000
0.918883 0.212161 0.000000
0.940368 0.249485 0.000000
0.959777 0.282933 0.000000
0.977325 0.314183 0.000000
0.993408 0.342718 0.000000
1.000000 0.369390 0.000000
1.000000 0.394537 0.000000
1.000000 0.417975 0.000000
1.000000 0.439796 0.000000
1.000000 0.459632 0.112032
1.000000 0.477790 0.160555
1.000000 0.494606 0.202670
1.000000 0.509819 0.240909
1.000000 0.523827 0.277989
0.000000 0.099367 0.066651
0.000000 0.099825 0.075410
0.007202 0.100252 0.084688
0.031006 0.104402 0.083253
0.089082 0.122347 0.046754
0.176669 0.150790 0.013825
0.270481 0.158389 0.000000
0.361944 0.152926 0.000000
0.444862 0.137148 0.000000
0.521691 0.116365 0.000000
0.592523 0.088502 0.000000
0.656794 0.040833 0.000000
0.713069 0.033692 0.000000
0.761288 0.088380 0.000000
0.801236 0.121218 0.000000
0.835294 0.157076 0.000000
0.865629 0.188754 0.000000
0.892180 0.221927 0.000000
0.915953 0.252659 0.000000
0.937469 0.282078 0.000000
0.956878 0.310216 0.000000
0.974548 0.337011 0.000000
0.990723 0.362005 0.000000
1.000000 0.385962 0.000000
1.000000 0.408698 0.000000
1.000000 0.430396 0.000000
1.000000 0.450233 0.054780
1.000000 0.468727 0.131350
1.000000 0.485786 0.175051
1.000000 0.501518 0.214084
1.000000 0.515862 0.251011
1.000000 0.529137 0.286198
0.000000 0.145449 0.100038
0.000000 0.145907 0.103151
0.000000 0.146883 0.112123
0.023590 0.147005 0.116793
0.083162 0.159396 0.108888
0.136660 0.183902 0.076875
0.248234 0.218418 0.007233
0.350134 0.222202 0.000000
0.446326 0.222080 0.000000
0.524681 0.211429 0.000000
0.594568 0.201602 0.000000
0.657771 0.196872 0.000000
0.713313 0.198642 0.000000
0.759731 0.207187 0.000000
0.798642 0.220005 0.000000
0.832517 0.236576 0.000000
0.862303 0.256809 0.000000
0.888823 0.278050 0.000000
0.912566 0.300267 0.000000
0.934020 0.322515 0.000000
0.953429 0.345251 0.000000
0.971191 0.367071 0.000000
0.992035 0.396216 0.000000
1.000000 0.416297 0.000000
1.000000 0.435340 0.000000
1.000000 0.453529 0.063142
1.000000 0.470466 0.129641
1.000000 0.486427 0.169345
1.000000 0.501396 0.206455
1.000000 0.515343 0.241032
1.000000 0.528191 0.275578
1.000000 0.539940 0.308232
0.000000 0.203128 0.123934
0.000000 0.203769 0.127474
0.000000 0.205417 0.141726
0.001434 0.205325 0.146792
0.090211 0.205051 0.155215
0.133455 0.226780 0.131807
0.195285 0.254856 0.092226
0.322301 0.295323 0.000000
0.424414 0.297978 0.000000
0.517174 0.299351 0.000000
0.597467 0.298131 0.000000
0.661189 0.294774 0.000000
0.715358 0.295262 0.000000
0.760159 0.298650 0.000000
0.798062 0.304692 0.000000
0.830961 0.314061 0.000000
0.860288 0.325628 0.000000
0.886381 0.339513 0.000000
0.909789 0.355108 0.000000
0.931304 0.371313 0.000000
0.950958 0.388495 0.000000
0.968994 0.405737 0.000000
0.985809 0.423011 0.000000
1.000000 0.440131 0.000000
1.000000 0.456336 0.052674
1.000000 0.472175 0.122621
1.000000 0.486793 0.160647
1.000000 0.500816 0.194949
1.000000 0.514183 0.228153
1.000000 0.526543 0.259556
1.000000 0.538231 0.291539
1.000000 0.548943 0.322850
0.000000 0.264530 0.158724
0.000000 0.264958 0.162173
0.000000 0.266331 0.175937
0.000000 0.266423 0.184237
0.093111 0.265934 0.191592
0.140414 0.272709 0.190982
0.190097 0.297093 0.161440
0.258366 0.324804 0.114443
0.387366 0.368688 0.000000
0.486275 0.371649 0.000000
0.575586 0.376257 0.000000
0.652430 0.382116 0.000000
0.708980 0.381903 0.000000
0.752956 0.379828 0.000000
0.790555 0.380255 0.000000
0.823453 0.383154 0.000000
0.852750 0.389105 0.000000
0.879026 0.396826 0.000000
0.902770 0.406165 0.000000
0.924468 0.417334 0.000000
0.944366 0.429206 0.000000
0.962737 0.441718 0.000000
0.979919 0.454658 0.008026
0.996338 0.467781 0.097200
1.000000 0.481025 0.132967
1.000000 0.493843 0.165347
1.000000 0.506126 0.194827
1.000000 0.517998 0.224063
1.000000 0.529320 0.253117
1.000000 0.540307 0.282902
1.000000 0.550378 0.311864
1.000000 0.559991 0.341100
0.000000 0.327611 0.204379
0.000000 0.328038 0.207706
0.000000 0.329015 0.219760
0.000000 0.329320 0.229740
0.110170 0.328710 0.236515
0.160952 0.328161 0.246311
0.201450 0.342718 0.232029
0.255863 0.366522 0.199374
0.324437 0.392676 0.152499
0.452277 0.438087 0.096529
0.545861 0.443091 0.047578
0.625757 0.448493 0.000000
0.690883 0.452522 0.000000
0.743557 0.456123 0.000000
0.781460 0.451850 0.000000
0.814633 0.450141 0.000000
0.844266 0.450690 0.000000
0.870878 0.453437 0.000000
0.894926 0.457893 0.000000
0.916899 0.463905 0.015778
0.937163 0.471168 0.075135
0.955840 0.479469 0.107912
0.973449 0.488289 0.134463
0.990234 0.497871 0.158907
1.000000 0.507805 0.182773
1.000000 0.517754 0.207462
1.000000 0.527550 0.231785
1.000000 0.537285 0.256992
1.000000 0.546868 0.283146
1.000000 0.555901 0.309239
1.000000 0.564752 0.336309
1.000000 0.572961 0.363378
0.000000 0.389502 0.255894
0.000000 0.389685 0.259037
0.000000 0.390265 0.269627
0.088808 0.390539 0.280125
0.143130 0.389990 0.286198
0.187808 0.389227 0.294530
0.227298 0.390326 0.303471
0.269566 0.410895 0.278599
0.324926 0.433082 0.245365
0.391516 0.456214 0.200229
0.511650 0.499489 0.158633
0.595361 0.504509 0.146304
0.663783 0.507713 0.136080
0.719417 0.509667 0.128328
0.766415 0.511406 0.120302
0.804685 0.511192 0.117861
0.834836 0.508019 0.121920
0.861906 0.506706 0.130465
0.886442 0.507103 0.139834
0.908812 0.509209 0.151186
0.929442 0.512383 0.163546
0.948394 0.516594 0.178470
0.966278 0.521904 0.193332
0.983337 0.528222 0.210483
0.999481 0.535058 0.229191
1.000000 0.542412 0.249027
1.000000 0.549950 0.269413
1.000000 0.557519 0.291386
1.000000 0.565209 0.314153
1.000000 0.572747 0.338262
1.000000 0.580163 0.363104
1.000000 0.587091 0.387640
0.000000 0.447364 0.310521
0.013428 0.447486 0.312352
0.104768 0.448096 0.322240
0.152499 0.448585 0.333928
0.187991 0.448371 0.339239
0.224979 0.448096 0.346929
0.261234 0.447608 0.356573
0.295628 0.454902 0.353765
0.338750 0.473335 0.328344
0.392706 0.492683 0.295537
0.455573 0.512566 0.252445
0.564904 0.551537 0.219760
0.636408 0.554284 0.215610
0.695125 0.555108 0.213016
0.744198 0.555566 0.210575
0.786770 0.556329 0.209537
0.823819 0.557519 0.207401
0.852720 0.554925 0.209476
0.877440 0.552331 0.214969
0.900114 0.551141 0.220829
0.921019 0.551171 0.228031
0.940307 0.552514 0.237705
0.958587 0.555077 0.249180
0.976043 0.558618 0.261936
0.992584 0.562921 0.276219
1.000000 0.567956 0.292882
1.000000 0.573449 0.310369
1.000000 0.579126 0.329107
1.000000 0.584985 0.349279
1.000000 0.590936 0.370306
1.000000 0.596826 0.392401
1.000000 0.602502 0.414893
0.157290 0.501335 0.365118
0.163119 0.501488 0.367193
0.182559 0.501793 0.374640
0.214023 0.502281 0.387701
0.239048 0.502007 0.392187
0.268528 0.501396 0.398199
0.299992 0.500908 0.406226
0.330663 0.500267 0.415747
0.363561 0.512139 0.402197
0.406012 0.528130 0.377691
0.457069 0.544305 0.346868
0.514214 0.560662 0.308293
0.616297 0.597925 0.289769
0.676692 0.598474 0.289616
0.727260 0.598016 0.290043
0.771176 0.597742 0.289830
0.809262 0.597559 0.290043
0.842802 0.597589 0.290257
0.872007 0.597345 0.290654
0.894560 0.593713 0.293217
0.915465 0.591333 0.297154
0.934844 0.590112 0.302647
0.953307 0.590082 0.309850
0.970703 0.591302 0.319829
0.987243 0.593347 0.330999
1.000000 0.596094 0.343786
1.000000 0.599237 0.357458
1.000000 0.602930 0.372808
1.000000 0.607019 0.390051
1.000000 0.611170 0.407935
1.000000 0.615442 0.427131
1.000000 0.619715 0.446723
0.238560 0.551934 0.419959
0.241245 0.551904 0.421180
0.254429 0.551995 0.427588
0.278599 0.552178 0.440375
0.297581 0.551476 0.444526
0.320104 0.550652 0.449317
0.345830 0.549828 0.455329
0.372564 0.548974 0.463111
0.399420 0.549920 0.469245
0.431800 0.562890 0.450690
0.472053 0.576226 0.428168
0.518059 0.589288 0.400488
0.567864 0.601892 0.366857
0.650355 0.628473 0.345220
0.704128 0.628717 0.347662
0.749813 0.628199 0.349371
0.789456 0.627619 0.350591
0.824369 0.626947 0.351171
0.855344 0.626429 0.352209
0.882933 0.626154 0.352850
0.905913 0.624140 0.354162
0.925658 0.621332 0.356970
0.944335 0.619562 0.362127
0.962219 0.618982 0.368231
0.979065 0.619318 0.376806
0.994903 0.620447 0.386633
1.000000 0.622156 0.398505
1.000000 0.624353 0.411414
1.000000 0.627008 0.425757
1.000000 0.629938 0.441627
1.000000 0.633051 0.458137
1.000000 0.636286 0.475990
0.303655 0.590295 0.465278
0.305180 0.590265 0.466163
0.315129 0.590173 0.471534
0.332738 0.589990 0.481483
0.350561 0.589471 0.488624
0.368200 0.588678 0.492195
0.389136 0.587762 0.497108
0.411444 0.586786 0.503136
0.434821 0.586053 0.510674
0.458808 0.590265 0.508782
0.488930 0.600916 0.491798
0.524437 0.611414 0.471626
0.564599 0.621668 0.447333
0.607782 0.631556 0.417426
0.680903 0.654658 0.398322
0.729091 0.654749 0.401312
0.770077 0.653925 0.403510
0.805966 0.653040 0.405188
0.838163 0.652155 0.406348
0.866728 0.651331 0.407263
0.892607 0.650629 0.408362
0.916381 0.650324 0.409857
0.935668 0.647639 0.412482
0.953704 0.645716 0.416846
0.970886 0.644587 0.422156
0.986938 0.644404 0.430152
1.000000 0.644770 0.439094
1.000000 0.645716 0.449897
1.000000 0.647120 0.461982
1.000000 0.648951 0.475563
1.000000 0.650965 0.489906
1.000000 0.653193 0.505608
0.361517 0.621088 0.506157
0.363500 0.621057 0.507195
0.369940 0.620935 0.511131
0.383551 0.620661 0.519249
0.400610 0.620172 0.528344
0.414313 0.619379 0.531304
0.430732 0.618585 0.535210
0.449195 0.617670 0.540093
0.468727 0.616815 0.546044
0.488930 0.616205 0.553246
0.510552 0.622705 0.544976
0.537621 0.631342 0.529931
0.568841 0.639826 0.511864
0.604028 0.648157 0.490211
0.642176 0.656214 0.463630
0.708064 0.677211 0.445838
0.751553 0.677211 0.449378
0.788479 0.676265 0.451637
0.821408 0.675227 0.453407
0.851041 0.674128 0.454719
0.877806 0.673182 0.456214
0.902434 0.672541 0.457832
0.925200 0.672175 0.460212
0.945403 0.671168 0.462989
0.962646 0.668971 0.466377
0.978943 0.667567 0.471839
0.994049 0.666865 0.479164
1.000000 0.666804 0.487892
1.000000 0.667170 0.497749
1.000000 0.668055 0.509178
1.000000 0.669184 0.521965
1.000000 0.670558 0.535790
0.412268 0.646082 0.542657
0.413642 0.646113 0.543481
0.419104 0.645991 0.546899
0.429267 0.645716 0.553185
0.445380 0.645411 0.563592
0.456825 0.644831 0.566613
0.469947 0.644190 0.569909
0.485298 0.643488 0.574029
0.501854 0.642756 0.579004
0.518944 0.642115 0.584771
0.536156 0.642267 0.589624
0.555840 0.649317 0.577905
0.579736 0.656519 0.564202
0.607446 0.663600 0.547845
0.638361 0.670527 0.528008
0.671931 0.677241 0.504601
0.730617 0.695796 0.487984
0.771450 0.696773 0.491554
0.805234 0.695796 0.493660
0.835569 0.694759 0.495705
0.863249 0.693812 0.497841
0.888823 0.693111 0.499886
0.912352 0.692622 0.502525
0.934081 0.692226 0.505516
0.954040 0.691890 0.508659
0.970947 0.690211 0.512200
0.986175 0.688624 0.517662
1.000000 0.687587 0.524498
1.000000 0.687129 0.532525
1.000000 0.687037 0.542077
1.000000 0.687312 0.552728
1.000000 0.687831 0.564630
0.456672 0.667201 0.574945
0.457801 0.667170 0.575616
0.461769 0.667048 0.578210
0.470344 0.666835 0.583581
0.483284 0.666529 0.591882
0.495247 0.666102 0.597498
0.505882 0.665583 0.600244
0.518456 0.664942 0.603571
0.532311 0.664271 0.607538
0.546868 0.663630 0.612207
0.561883 0.663050 0.617487
0.577081 0.665339 0.616968
0.595056 0.671565 0.606531
0.616510 0.677821 0.594079
0.641291 0.684047 0.579309
0.669032 0.690028 0.561822
0.698878 0.695918 0.541039
0.750942 0.712612 0.525414
0.789914 0.714534 0.529046
0.821012 0.713649 0.531456
0.849454 0.712917 0.534112
0.875792 0.712276 0.536614
0.899992 0.711788 0.539513
0.922301 0.711330 0.542748
0.942840 0.710903 0.546136
0.961547 0.710536 0.549798
0.978302 0.709804 0.553735
0.992432 0.708003 0.558923
1.000000 0.706783 0.565606
1.000000 0.705959 0.573480
1.000000 0.705531 0.582635
1.000000 0.705287 0.592706
0.497322 0.685969 0.603906
0.497993 0.685939 0.604364
0.506157 0.687861 0.609827
0.512718 0.687709 0.613977
0.523095 0.687404 0.620508
0.535332 0.687037 0.627649
0.543847 0.686549 0.629603
0.553887 0.685939 0.632105
0.565332 0.685389 0.635248
0.577630 0.684749 0.638880
0.590387 0.684199 0.642878
0.603326 0.683650 0.647486
0.616876 0.687465 0.642725
0.633143 0.692897 0.633509
0.652338 0.698299 0.622644
0.674250 0.703639 0.609674
0.698756 0.708888 0.594110
0.725399 0.714076 0.575830
0.771206 0.729213 0.561242
0.808530 0.732021 0.564508
0.837491 0.731441 0.567407
0.864195 0.730983 0.570397
0.888884 0.730526 0.573510
0.911589 0.730068 0.576867
0.932433 0.729519 0.580072
0.951385 0.728969 0.583673
0.968658 0.728328 0.587396
0.984131 0.727687 0.591516
0.997314 0.726192 0.596338
1.000000 0.724697 0.602808
1.000000 0.723476 0.610132
1.000000 0.722499 0.618372
0.534752 0.703365 0.629541
0.535668 0.703548 0.630152
0.538842 0.703670 0.632166
0.544854 0.703639 0.635859
0.553429 0.703517 0.641199
0.564843 0.703273 0.648249
0.573205 0.702876 0.651087
0.581598 0.702388 0.653071
0.591241 0.701869 0.655634
0.601862 0.701350 0.658473
0.612909 0.700893 0.661830
0.624445 0.700465 0.665644
0.636042 0.700221 0.669093
0.648768 0.705104 0.662043
0.663996 0.710079 0.653864
0.681788 0.715053 0.644251
0.701839 0.719966 0.633021
0.724025 0.724910 0.619806
0.748257 0.729793 0.604334
0.789273 0.744106 0.591150
0.825162 0.747768 0.594415
0.852445 0.747677 0.597803
0.877653 0.747463 0.601160
0.900847 0.747158 0.604395
0.922057 0.746731 0.607752
0.941436 0.746181 0.611322
0.958984 0.745571 0.615106
0.974731 0.744808 0.619165
0.988647 0.743954 0.623499
1.000000 0.742855 0.628290
1.000000 0.741024 0.634516
1.000000 0.739345 0.641535
0.566705 0.719051 0.650690
0.567712 0.719234 0.651270
0.570397 0.719356 0.652918
0.575128 0.719356 0.655818
0.582513 0.719265 0.660304
0.592096 0.719081 0.666163
0.601373 0.718807 0.670802
0.608576 0.718379 0.672511
0.616846 0.717952 0.674586
0.625971 0.717525 0.676936
0.635798 0.717067 0.679744
0.646082 0.716701 0.682887
0.656519 0.716304 0.686305
0.667109 0.717708 0.686580
0.679255 0.722225 0.680171
0.693568 0.726864 0.672877
0.710018 0.731472 0.664332
0.728389 0.736110 0.654444
0.748653 0.740810 0.643091
0.770657 0.745449 0.629816
0.807309 0.759121 0.617700
0.841581 0.763485 0.620691
0.867247 0.763638 0.624262
0.890867 0.763577 0.627771
0.912474 0.763302 0.631281
0.932128 0.762844 0.634913
0.949889 0.762203 0.638605
0.965881 0.761379 0.642603
0.979919 0.760433 0.646937
0.992035 0.759304 0.651698
1.000000 0.757961 0.656794
1.000000 0.756039 0.662715
0.596612 0.734432 0.669886
0.597406 0.734554 0.670344
0.599573 0.734676 0.671626
0.603601 0.734707 0.674067
0.609735 0.734646 0.677760
0.617914 0.734493 0.682704
0.628046 0.734249 0.688808
0.634424 0.733944 0.690455
0.641505 0.733608 0.692164
0.649561 0.733242 0.694270
0.658289 0.732845 0.696681
0.667506 0.732479 0.699397
0.676997 0.732204 0.702388
0.686641 0.731899 0.705715
0.696590 0.734554 0.703395
0.708125 0.738888 0.697475
0.721553 0.743282 0.690730
0.736873 0.747768 0.683101
0.753994 0.752346 0.674556
0.772732 0.756954 0.664698
0.792996 0.761624 0.653346
0.825834 0.774868 0.642573
0.858366 0.779812 0.645106
0.882322 0.780148 0.648920
0.904234 0.780148 0.652644
0.924132 0.779843 0.656489
0.942046 0.779263 0.660304
0.958038 0.778378 0.664485
0.972076 0.777279 0.668879
0.984070 0.775967 0.673701
0.993927 0.774380 0.678950
1.000000 0.772549 0.684565
0.626123 0.750546 0.688624
0.626642 0.750576 0.688930
0.628260 0.750607 0.689906
0.631556 0.750515 0.691859
0.636713 0.750423 0.694942
0.643519 0.750210 0.699062
0.652308 0.749966 0.704402
0.660182 0.749722 0.708248
0.666438 0.749416 0.709712
0.673518 0.749142 0.711543
0.681270 0.748836 0.713680
0.689509 0.748531 0.716121
0.698207 0.748287 0.718837
0.706996 0.748013 0.721736
0.715908 0.747799 0.724941
0.725154 0.751583 0.720424
0.736080 0.755734 0.714870
0.748531 0.759976 0.708614
0.762722 0.764340 0.701564
0.778408 0.768765 0.693629
0.795590 0.773251 0.684627
0.814023 0.777737 0.674525
0.843595 0.790372 0.664820
0.873716 0.795621 0.666285
0.895750 0.795743 0.670100
0.915831 0.795590 0.674006
0.933898 0.795041 0.678157
0.950011 0.794156 0.682460
0.964050 0.792996 0.687068
0.975982 0.791501 0.692134
0.985687 0.789700 0.697505
0.993133 0.787625 0.703304
0.652064 0.765652 0.705226
0.652461 0.765713 0.705470
0.653956 0.765682 0.706386
0.656794 0.765682 0.708125
0.661250 0.765560 0.710780
0.667231 0.765408 0.714382
0.674891 0.765194 0.719112
0.684108 0.765011 0.724819
0.689754 0.764767 0.726253
0.696071 0.764523 0.727901
0.702907 0.764279 0.729793
0.710384 0.764065 0.731930
0.718196 0.763851 0.734310
0.726314 0.763668 0.736995
0.734524 0.763516 0.739895
0.742733 0.764279 0.741390
0.751614 0.768276 0.736721
0.761868 0.772366 0.731563
0.773587 0.776608 0.725704
0.786679 0.780880 0.719173
0.801205 0.785306 0.711910
0.816983 0.789731 0.703700
0.833982 0.794156 0.694423
0.860533 0.806088 0.685695
0.887816 0.811063 0.685786
0.907805 0.810758 0.689693
0.926024 0.810269 0.694087
0.942107 0.809445 0.698726
0.956176 0.808164 0.703578
0.968048 0.806485 0.708797
0.977630 0.804471 0.714443
0.983368 0.803128 0.719844
0.677424 0.781552 0.721828
0.677913 0.781643 0.722133
0.679225 0.781643 0.722927
0.681666 0.781552 0.724392
0.685328 0.781399 0.726650
0.690608 0.781186 0.729854
0.697139 0.780941 0.733883
0.705135 0.780697 0.738888
0.712367 0.780423 0.742550
0.717830 0.780179 0.743954
0.723842 0.779873 0.745510
0.730465 0.779660 0.747402
0.737514 0.779416 0.749508
0.744747 0.779232 0.751797
0.752285 0.779019 0.754330
0.759823 0.778927 0.757076
0.767330 0.780697 0.756619
0.775662 0.784634 0.752163
0.785245 0.788693 0.747280
0.796170 0.792905 0.741848
0.808347 0.797177 0.735866
0.821744 0.801511 0.729122
0.836271 0.805783 0.721553
0.851774 0.810025 0.713069
0.875486 0.820920 0.704982
0.900877 0.826291 0.705043
0.918547 0.825345 0.709102
0.934661 0.824369 0.713832
0.948638 0.822904 0.718898
0.960327 0.821042 0.724361
0.969696 0.818784 0.730220
0.974273 0.816220 0.735592
0.699825 0.796872 0.736934
0.700221 0.796963 0.737209
0.701350 0.796994 0.737911
0.703517 0.796963 0.739254
0.706905 0.796841 0.741329
0.711543 0.796719 0.744198
0.717464 0.796567 0.747890
0.724819 0.796414 0.752499
0.733242 0.796292 0.757839
0.738735 0.796139 0.759731
0.744228 0.795956 0.761227
0.750210 0.795804 0.762966
0.756619 0.795651 0.764920
0.763302 0.795499 0.766995
0.770169 0.795377 0.769284
0.777218 0.795254 0.771786
0.784298 0.795193 0.774472
0.791165 0.797971 0.772427
0.798978 0.801846 0.768246
0.807919 0.805844 0.763699
0.818021 0.809934 0.758633
0.829191 0.814054 0.753048
0.841459 0.818143 0.746822
0.854643 0.822202 0.739895
0.868803 0.826200 0.732113
0.889647 0.835966 0.724849
0.912474 0.841123 0.724483
0.927764 0.839261 0.728756
0.941558 0.837644 0.734127
0.952941 0.835508 0.739834
0.961883 0.832914 0.746029
0.965057 0.828855 0.751125
0.721614 0.812955 0.752285
0.721889 0.812985 0.752438
0.722927 0.812955 0.753079
0.724819 0.812924 0.754299
0.727749 0.812833 0.756100
0.731899 0.812711 0.758694
0.737179 0.812589 0.762020
0.743679 0.812436 0.766140
0.751247 0.812314 0.770993
0.758694 0.812161 0.775357
0.763607 0.812039 0.776699
0.768978 0.811887 0.778256
0.774807 0.811795 0.779995
0.780911 0.811673 0.781949
0.787228 0.811551 0.784024
0.793729 0.811460 0.786282
0.800290 0.811429 0.788724
0.806943 0.811490 0.791409
0.813230 0.815061 0.787991
0.820432 0.818814 0.784115
0.828702 0.822629 0.779904
0.837949 0.826474 0.775265
0.848051 0.830320 0.770077
0.859098 0.834104 0.764340
0.871000 0.837797 0.757931
0.883635 0.841398 0.750820
0.901671 0.849760 0.744259
0.921874 0.854368 0.743587
0.934600 0.851469 0.747860
0.945739 0.849027 0.753933
0.954131 0.846220 0.760342
0.956237 0.840604 0.765469
0.741878 0.828794 0.767178
0.742184 0.828824 0.767361
0.743038 0.828824 0.767910
0.744747 0.828824 0.768978
0.747463 0.828733 0.770718
0.751278 0.828672 0.773129
0.756222 0.828672 0.776303
0.762295 0.828641 0.780179
0.769345 0.828641 0.784787
0.777340 0.828702 0.790097
0.783505 0.828733 0.793088
0.788540 0.828763 0.794675
0.793942 0.828824 0.796445
0.799588 0.828824 0.798306
0.805478 0.828794 0.800320
0.811429 0.828763 0.802457
0.817472 0.828763 0.804715
0.823575 0.828794 0.807187
0.829526 0.829587 0.808621
0.835233 0.833066 0.805356
0.841794 0.836545 0.801846
0.849149 0.840055 0.797971
0.857237 0.843503 0.793668
0.866178 0.846921 0.788907
0.875822 0.850187 0.783658
0.886229 0.853361 0.777859
0.897337 0.856382 0.771389
0.912291 0.862974 0.765713
0.929381 0.866545 0.764920
0.939055 0.862394 0.769131
0.944823 0.857969 0.775113
0.947265 0.851652 0.780789
0.763088 0.845243 0.783444
0.763241 0.845243 0.783536
0.763973 0.845212 0.783993
0.765469 0.845151 0.784970
0.767910 0.845060 0.786496
0.771237 0.844938 0.788663
0.775601 0.844816 0.791470
0.780911 0.844694 0.794919
0.787167 0.844572 0.799069
0.794308 0.844480 0.803861
0.802243 0.844358 0.809262
0.806699 0.844327 0.810697
0.811368 0.844266 0.812222
0.816342 0.844175 0.813870
