20 Preset/Japan Style/【3】LUT video cho PR-AE-FCPX/LUT VIDEO/Japan Style LUT (29).cube
# Created by Adobe Lightroom plugin Export LUT (1.24.0)
# www.johnrellis.com/lightroom/exportlut.htm
# Preset: 29日系提亮绿色（素材江湖）
# Color profile: C:\Program Files (x86)\Common Files\Adobe\Color\Profiles\Recommended\VideoHD.icc
LUT_3D_SIZE 5
DOMAIN_MIN 0.000000 0.000000 0.000000
DOMAIN_MAX 0.903226 0.903226 0.903226
0.105867 0.109255 0.095613
0.219516 0.100099 0.092226
0.511101 0.057252 0.033509
0.727901 0.069368 0.060609
0.936309 0.161013 0.164126
0.000000 0.257450 0.038025
0.251957 0.280400 0.000000
0.529870 0.264134 0.000000
0.742733 0.259678 0.109895
0.945495 0.284398 0.194491
0.000000 0.552026 0.198032
0.048096 0.553979 0.205631
0.539391 0.588800 0.108003
0.795743 0.548577 0.205783
0.959960 0.521752 0.295506
0.098909 0.781369 0.376654
0.221714 0.783658 0.381811
0.452735 0.796353 0.375555
0.759274 0.812924 0.329168
0.982818 0.775875 0.372625
0.449073 0.936309 0.575677
0.471412 0.936522 0.579614
0.541619 0.934905 0.587335
0.693172 0.941100 0.569757
0.893462 0.939696 0.552575
0.083955 0.105501 0.204959
0.239567 0.050690 0.230289
0.497658 0.000000 0.235142
0.701198 0.136812 0.246769
0.907652 0.203189 0.277684
0.000000 0.253452 0.233646
0.243687 0.252659 0.241550
0.504509 0.260105 0.249454
0.712306 0.275273 0.265934
0.915770 0.301305 0.294713
0.049409 0.532982 0.302739
0.221530 0.536614 0.308293
0.523278 0.563561 0.279881
0.763699 0.534600 0.327337
0.944823 0.525231 0.365850
0.223301 0.773190 0.424781
0.287053 0.775998 0.429694
0.467018 0.788296 0.433845
0.757595 0.806790 0.397070
0.976074 0.772824 0.431250
0.476967 0.934081 0.601343
0.496895 0.934234 0.604608
0.572351 0.935454 0.621149
0.706935 0.940673 0.608453
0.897002 0.940002 0.593317
0.000000 0.097261 0.434485
0.222080 0.049348 0.448615
0.504723 0.000000 0.486000
0.690028 0.215946 0.460914
0.882719 0.262760 0.464759
0.000000 0.244144 0.444892
0.208957 0.234562 0.455787
0.505547 0.230411 0.489509
0.686030 0.314794 0.467811
0.882200 0.331060 0.470314
0.162783 0.508843 0.478584
0.277775 0.507988 0.480751
0.492164 0.502373 0.487709
0.690822 0.508751 0.495125
0.901488 0.515221 0.503624
0.368811 0.742306 0.546777
0.411719 0.740627 0.551415
0.515526 0.753780 0.562676
0.748653 0.782467 0.557488
0.948058 0.759609 0.586938
0.541802 0.924895 0.673915
0.559899 0.925566 0.677882
0.625299 0.927764 0.693019
0.733181 0.933104 0.702296
0.901793 0.936004 0.690150
0.000000 0.141848 0.605005
0.191806 0.138094 0.613275
0.438605 0.103487 0.645960
0.703792 0.084016 0.685145
0.886717 0.283818 0.666194
0.000000 0.248081 0.607721
0.197635 0.248203 0.614923
0.438178 0.245518 0.645228
0.700710 0.252354 0.683589
0.883055 0.347356 0.666163
0.206638 0.451240 0.592462
0.270146 0.454902 0.601801
0.436713 0.458106 0.638911
0.695674 0.470405 0.684382
0.879759 0.512963 0.674220
0.271672 0.704738 0.674708
0.324620 0.703548 0.674983
0.480415 0.702266 0.679866
0.688411 0.697353 0.689082
0.891325 0.705684 0.699702
0.561547 0.912627 0.756130
0.584375 0.912779 0.760830
0.670405 0.914031 0.782589
0.771603 0.920653 0.809415
0.909056 0.930388 0.815732
0.000000 0.230655 0.820645
0.194949 0.227756 0.824002
0.418219 0.212924 0.839414
0.656641 0.164736 0.867308
0.897551 0.169589 0.888762
0.000000 0.295750 0.818296
0.196353 0.293828 0.821897
0.416663 0.285039 0.837125
0.653895 0.259922 0.865232
0.895933 0.260868 0.887938
0.000000 0.453315 0.811032
0.121218 0.439979 0.815244
0.391608 0.438911 0.831083
0.638941 0.434760 0.860929
0.893889 0.441016 0.889708
0.000000 0.644831 0.808896
0.141482 0.639918 0.807340
0.340276 0.621180 0.806577
0.593622 0.619989 0.851774
0.890990 0.662593 0.895537
0.361303 0.898405 0.880003
0.396612 0.897765 0.880369
0.519066 0.896086 0.883085
0.693355 0.891844 0.888182
0.879881 0.887602 0.898375
