20 Preset/Japan Style/【3】LUT video cho PR-AE-FCPX/LUT VIDEO/Japan Style LUT (6).cube
# Created by Adobe Lightroom plugin Export LUT (1.24.0)
# www.johnrellis.com/lightroom/exportlut.htm
# Preset: 06日系基础色（素材江湖）
# Color profile: C:\Program Files (x86)\Common Files\Adobe\Color\Profiles\Recommended\VideoHD.icc
LUT_3D_SIZE 8
DOMAIN_MIN 0.000000 0.000000 0.000000
DOMAIN_MAX 0.903226 0.903226 0.903226
0.000000 0.000000 0.000000
0.139895 0.028534 0.000000
0.325536 0.124758 0.000000
0.458869 0.171725 0.000000
0.618402 0.213474 0.000000
0.773312 0.254551 0.000000
0.910460 0.291814 0.000000
1.000000 0.324315 0.000000
0.000641 0.146029 0.000000
0.147921 0.154421 0.000000
0.324285 0.192691 0.000000
0.461128 0.215824 0.000000
0.621607 0.249607 0.000000
0.776394 0.284459 0.000000
0.912291 0.315312 0.000000
1.000000 0.342870 0.000000
0.094301 0.309056 0.055116
0.164614 0.307500 0.090181
0.294469 0.308507 0.032044
0.453132 0.332586 0.000000
0.622095 0.356085 0.000000
0.775357 0.376043 0.000000
0.908141 0.392340 0.000000
1.000000 0.408484 0.000000
0.088533 0.460822 0.197726
0.158114 0.460975 0.204471
0.285557 0.459815 0.209262
0.425544 0.453651 0.178653
0.601678 0.484871 0.139315
0.771206 0.500786 0.109834
0.904295 0.504936 0.077729
1.000000 0.509545 0.061494
0.000000 0.632563 0.289860
0.000000 0.632349 0.294957
0.245396 0.631769 0.315953
0.412696 0.623590 0.294957
0.566735 0.609400 0.255863
0.743404 0.632074 0.216983
0.887633 0.633722 0.211765
1.000000 0.627436 0.224949
0.000000 0.775479 0.409857
0.000000 0.774777 0.412879
0.265751 0.773953 0.427710
0.413214 0.770413 0.435889
0.553033 0.760220 0.405921
0.694545 0.745205 0.363775
0.854520 0.756741 0.333776
0.979187 0.753902 0.347021
0.323308 0.882567 0.547417
0.341131 0.882261 0.550164
0.405615 0.881407 0.561944
0.499611 0.879759 0.584985
0.585290 0.875151 0.570459
0.686549 0.867369 0.537804
0.804501 0.856565 0.495399
0.947967 0.866484 0.475319
0.548608 0.958129 0.692317
0.555596 0.957946 0.694118
0.583276 0.957214 0.701595
0.631952 0.955779 0.716182
0.689845 0.954650 0.729091
0.742031 0.952148 0.712551
0.812985 0.948486 0.690547
0.902281 0.943938 0.664149
0.085237 0.039033 0.071931
0.147829 0.068086 0.045319
0.336004 0.009552 0.041199
0.457160 0.169924 0.022278
0.614923 0.214359 0.000000
0.770718 0.253544 0.000000
0.909483 0.289097 0.000000
1.000000 0.321324 0.000000
0.000000 0.167391 0.089815
0.181064 0.170321 0.087770
0.325902 0.192416 0.079164
0.456855 0.218875 0.055421
0.616449 0.250645 0.000000
0.771878 0.282261 0.000000
0.910185 0.312108 0.000000
1.000000 0.340398 0.000000
0.173037 0.312352 0.156680
0.199863 0.312108 0.155276
0.303349 0.311864 0.147341
0.455329 0.334203 0.132204
0.620050 0.355627 0.109071
0.773678 0.374182 0.047547
0.908171 0.391028 0.000000
1.000000 0.407416 0.000000
0.131960 0.464576 0.230014
0.182315 0.464546 0.235447
0.296117 0.463416 0.244236
0.431647 0.457435 0.217563
0.606195 0.487312 0.188663
0.774960 0.501335 0.169772
0.905608 0.504967 0.150515
1.000000 0.509026 0.142458
0.000000 0.633051 0.312810
0.000000 0.633112 0.317906
0.264195 0.632868 0.337865
0.419928 0.625696 0.322362
0.570642 0.611627 0.283299
0.745815 0.633295 0.248417
0.888884 0.634089 0.244327
1.000000 0.628107 0.253941
0.000000 0.775875 0.425635
0.125521 0.775631 0.429023
0.285740 0.774838 0.443366
0.424323 0.771633 0.454749
0.558129 0.761318 0.424720
0.696620 0.746059 0.382727
0.855161 0.757198 0.354345
0.979400 0.754543 0.366064
0.342046 0.882811 0.558831
0.359472 0.882689 0.561852
0.420142 0.881895 0.573388
0.510369 0.880186 0.595605
0.593164 0.875608 0.583825
0.690669 0.867948 0.551202
0.806424 0.857359 0.509239
0.948333 0.867155 0.489662
0.555657 0.958282 0.698207
0.562249 0.958068 0.699855
0.589349 0.957305 0.707118
0.637201 0.955932 0.721431
0.693538 0.954253 0.734310
0.744961 0.951965 0.718318
0.814939 0.948516 0.696925
0.903105 0.943999 0.670588
0.140169 0.096803 0.272221
0.205783 0.118593 0.258335
0.300725 0.177890 0.232242
0.472999 0.156741 0.259861
0.613489 0.155367 0.222629
0.752438 0.218418 0.215610
0.896513 0.260166 0.204196
1.000000 0.298405 0.190433
0.150484 0.198856 0.277623
0.215610 0.206363 0.266300
0.306889 0.226291 0.242649
0.467353 0.208865 0.256840
0.607263 0.210452 0.224765
0.755703 0.254276 0.222507
0.898192 0.286778 0.207950
1.000000 0.319280 0.195743
0.163851 0.322911 0.276371
0.213504 0.322850 0.275273
0.329046 0.325505 0.274937
0.459419 0.329137 0.264256
0.612268 0.340520 0.253361
0.762142 0.355779 0.239811
0.898497 0.373266 0.225925
1.000000 0.391730 0.214054
0.206760 0.465492 0.325750
0.246281 0.465797 0.328923
0.321752 0.468330 0.327153
0.444678 0.462318 0.310887
0.612085 0.482795 0.294652
0.768307 0.490578 0.281407
0.898039 0.494453 0.266423
1.000000 0.499855 0.256992
0.215091 0.629084 0.404974
0.229892 0.629816 0.401404
0.315007 0.631342 0.404303
0.444160 0.627314 0.409033
0.578607 0.612757 0.371191
0.746548 0.631464 0.345373
0.887022 0.631312 0.342382
1.000000 0.626825 0.340581
0.225101 0.772763 0.482582
0.238956 0.773068 0.480476
0.340307 0.772641 0.493050
0.463539 0.771756 0.519066
0.574670 0.761898 0.488655
0.702480 0.746578 0.446845
0.854734 0.756435 0.421576
0.977569 0.753872 0.428565
0.393317 0.880461 0.594324
0.407568 0.880369 0.596979
0.459968 0.879820 0.607843
0.541070 0.878569 0.628290
0.619104 0.875059 0.628717
0.703639 0.867582 0.597070
0.810422 0.856931 0.555444
0.946502 0.866270 0.535851
0.574884 0.957519 0.716487
0.581567 0.957366 0.718288
0.607355 0.956725 0.725246
0.652735 0.955413 0.738460
0.711208 0.953826 0.757443
0.756985 0.951537 0.741421
0.821622 0.948211 0.720150
0.905638 0.943847 0.694179
0.165377 0.174441 0.467659
0.225040 0.188418 0.455634
0.334936 0.233555 0.410681
0.424689 0.260197 0.383612
0.644770 0.195865 0.445686
0.788113 0.151827 0.406195
0.900725 0.106996 0.342809
1.000000 0.223362 0.326604
0.177523 0.239536 0.466468
0.232914 0.245304 0.456550
0.341619 0.270481 0.417121
0.428321 0.285496 0.388891
0.646784 0.227329 0.445106
0.783413 0.192599 0.399908
0.897002 0.160159 0.336736
1.000000 0.256291 0.330816
0.115816 0.357549 0.488930
0.197696 0.354467 0.481880
0.345403 0.351812 0.447883
0.447669 0.357000 0.413001
0.638056 0.323186 0.428443
0.763760 0.298741 0.375952
0.882353 0.323919 0.355016
1.000000 0.353033 0.345739
0.003632 0.481697 0.460670
0.152743 0.481086 0.459297
0.312200 0.478889 0.454200
0.476631 0.479164 0.449897
0.617121 0.472633 0.429084
0.756863 0.472755 0.411780
0.886229 0.476692 0.396307
1.000000 0.483558 0.383490
0.186191 0.625116 0.487892
0.238437 0.625391 0.490242
0.370153 0.625940 0.500969
0.480903 0.630030 0.510277
0.595270 0.617273 0.485695
0.750515 0.628504 0.467964
0.882750 0.625055 0.459724
0.996338 0.621271 0.445869
0.372992 0.763607 0.577966
0.395850 0.762966 0.580865
0.436866 0.764553 0.579217
0.509087 0.766690 0.584680
0.606592 0.761929 0.584985
0.712947 0.746975 0.542840
0.854185 0.755001 0.520806
0.974548 0.752926 0.523156
0.493935 0.874205 0.664820
0.498848 0.874357 0.664332
0.519066 0.875273 0.662593
0.577752 0.875425 0.673365
0.657710 0.874479 0.693294
0.725216 0.867185 0.665522
0.818021 0.856626 0.626917
0.944274 0.865537 0.609247
0.613672 0.955200 0.752041
0.616907 0.955291 0.752163
0.630335 0.955535 0.752743
0.673854 0.954589 0.764981
0.730953 0.953246 0.783658
0.777493 0.951263 0.779965
0.833310 0.948058 0.758938
0.910307 0.943725 0.732967
0.167361 0.240299 0.668788
0.232242 0.247684 0.660670
0.365515 0.275639 0.629145
0.473610 0.316442 0.569451
0.573724 0.321233 0.548272
0.787228 0.245823 0.600885
0.934844 0.198550 0.573419
1.000000 0.201816 0.517754
0.181125 0.285924 0.666651
0.240116 0.289403 0.658991
0.367315 0.305394 0.630152
0.477150 0.337560 0.573449
0.575402 0.340459 0.550713
0.787839 0.272679 0.600946
0.930846 0.235569 0.570581
1.000000 0.233097 0.516014
0.127871 0.384009 0.674525
0.208225 0.383490 0.667994
0.365209 0.391455 0.643122
0.490547 0.410101 0.590387
0.583276 0.410651 0.561486
0.790799 0.363745 0.603021
0.915221 0.338811 0.560266
1.000000 0.321111 0.507195
0.000000 0.523369 0.678157
0.113161 0.522698 0.676478
0.329320 0.520409 0.669795
0.502037 0.514153 0.623438
0.600732 0.509789 0.583429
0.782193 0.479133 0.592004
0.888182 0.448646 0.536675
0.988769 0.442329 0.498848
0.000000 0.644007 0.636774
0.110445 0.643214 0.635615
0.305089 0.640040 0.630488
0.470253 0.634974 0.621576
0.626978 0.632074 0.614740
0.753170 0.617792 0.588708
0.871672 0.606531 0.564904
0.987976 0.601038 0.545190
0.232242 0.762020 0.635035
0.272496 0.761776 0.636316
0.390692 0.760739 0.642481
0.537163 0.758480 0.657954
0.647883 0.763912 0.678553
0.729549 0.750271 0.649409
0.856382 0.754604 0.630976
0.972473 0.750942 0.625849
0.482277 0.870909 0.710414
0.497383 0.870756 0.712612
0.551720 0.870207 0.721553
0.624964 0.870207 0.733486
0.681575 0.873167 0.739651
0.750729 0.869444 0.738613
0.829007 0.857847 0.703304
0.944610 0.865446 0.689448
0.656886 0.952544 0.799496
0.666407 0.952239 0.802213
0.680018 0.952636 0.802426
0.702937 0.953368 0.802487
0.748348 0.953277 0.812589
0.805325 0.951995 0.828305
0.849607 0.948852 0.808042
0.917601 0.944488 0.782498
0.204318 0.302708 0.814939
0.252598 0.307103 0.811032
0.377752 0.325566 0.795560
0.510338 0.361852 0.762966
0.610651 0.412665 0.707485
0.715206 0.402960 0.696895
0.895262 0.345006 0.728389
1.000000 0.315618 0.718563
0.217075 0.334905 0.815061
0.262242 0.338567 0.811551
0.383520 0.354498 0.796567
0.514611 0.385657 0.764553
0.614069 0.429389 0.710384
0.716609 0.418982 0.698756
0.895262 0.364660 0.729091
1.000000 0.337591 0.717708
0.244602 0.429480 0.814115
0.285435 0.431739 0.810971
0.398322 0.441138 0.796872
0.524681 0.459052 0.768093
0.623285 0.484565 0.718288
0.719448 0.473640 0.703243
0.893614 0.430274 0.730068
1.000000 0.408759 0.712276
0.235172 0.547631 0.822049
0.280461 0.548669 0.818906
0.405829 0.553552 0.804715
0.535882 0.559594 0.777829
0.639155 0.569360 0.733425
0.724483 0.559197 0.711604
0.890898 0.529046 0.732601
1.000000 0.504540 0.701320
0.230076 0.669825 0.806790
0.271061 0.670130 0.806058
0.388922 0.671534 0.802640
0.531762 0.675227 0.796475
0.658808 0.671077 0.760098
0.735653 0.659022 0.727779
0.884398 0.633967 0.730526
0.985260 0.593774 0.679164
0.234104 0.774655 0.773709
0.269261 0.774044 0.772793
0.373266 0.772335 0.770108
0.501884 0.768887 0.764706
0.631220 0.763485 0.756497
0.752132 0.758022 0.748501
0.856443 0.740932 0.722530
0.964965 0.728450 0.700649
0.327459 0.869078 0.755795
0.351598 0.868772 0.756527
0.436103 0.867857 0.760586
0.553033 0.866667 0.769223
0.679377 0.866178 0.785397
0.776333 0.870909 0.804562
0.842069 0.859617 0.780148
0.947051 0.863706 0.769436
0.576379 0.955688 0.815702
0.586389 0.955505 0.817075
0.625635 0.954620 0.822965
0.692988 0.952850 0.834989
0.777798 0.950683 0.855436
0.823301 0.952605 0.862913
0.871275 0.950744 0.863310
0.926970 0.945830 0.839384
0.290715 0.381659 0.921080
0.322728 0.387976 0.920104
0.417334 0.406958 0.911498
0.538262 0.441382 0.894530
0.651881 0.483589 0.865415
0.735561 0.531609 0.819913
0.834257 0.507347 0.818723
0.981842 0.454322 0.834226
0.301396 0.402808 0.915709
0.331151 0.408576 0.915099
0.420996 0.424964 0.906767
0.537011 0.453071 0.889372
0.647822 0.489876 0.859709
0.729213 0.532464 0.813016
0.825742 0.506798 0.810178
0.973114 0.452766 0.825803
0.351324 0.487587 0.916594
0.373053 0.489967 0.914855
0.447608 0.498573 0.906462
0.553063 0.516747 0.889830
0.657069 0.542107 0.860838
0.735897 0.574426 0.816800
0.828489 0.554986 0.814603
0.975097 0.512749 0.832670
0.406622 0.596307 0.919066
0.428077 0.599268 0.916930
0.492744 0.605402 0.908721
0.585046 0.615900 0.894347
0.678950 0.628534 0.868559
0.753017 0.646082 0.829099
0.832792 0.630426 0.822080
0.972412 0.595727 0.838285
0.393103 0.690181 0.921233
0.410834 0.690364 0.919921
0.485817 0.694575 0.912840
0.593194 0.704189 0.899413
0.689906 0.708980 0.876005
0.762844 0.710170 0.838895
0.829831 0.696345 0.822354
0.969696 0.677028 0.841733
0.400916 0.784695 0.899351
0.418799 0.785428 0.899138
0.483314 0.787655 0.898039
0.577386 0.791348 0.896178
0.683070 0.795712 0.893217
0.780880 0.791531 0.867369
0.843351 0.778561 0.839506
0.968566 0.759976 0.842618
0.396490 0.876890 0.879179
0.413336 0.877379 0.879393
0.467475 0.876555 0.878080
0.552880 0.875273 0.875731
0.651392 0.872099 0.870817
0.755123 0.867124 0.863676
0.857877 0.862333 0.857237
0.945647 0.848264 0.836881
0.428870 0.957244 0.856840
0.441596 0.957061 0.856992
0.504051 0.956847 0.860807
0.595789 0.955016 0.866331
0.704311 0.952026 0.875761
0.814176 0.949920 0.892302
0.892912 0.953063 0.911162
0.937499 0.947692 0.896086
0.393591 0.467628 0.981842
0.411475 0.472114 0.981140
0.471778 0.485908 0.976165
0.566278 0.515648 0.967559
0.670253 0.557092 0.952850
0.764187 0.603723 0.930419
0.833127 0.650965 0.898589
0.919066 0.616785 0.904692
0.399481 0.480690 0.979492
0.416938 0.485054 0.978820
0.475868 0.498512 0.974334
0.567956 0.525444 0.965576
0.670253 0.564141 0.950927
0.762936 0.607965 0.928496
0.830503 0.651453 0.895995
0.915587 0.616754 0.901366
0.433997 0.539055 0.977020
0.448493 0.541924 0.976135
0.500328 0.551904 0.971649
0.588006 0.577050 0.964324
0.681514 0.605859 0.949767
0.767453 0.638270 0.927550
0.832059 0.672786 0.896239
0.913542 0.642329 0.900359
0.488075 0.627161 0.974762
0.500389 0.629511 0.974060
0.543542 0.636225 0.970123
0.616266 0.650996 0.962646
0.699611 0.670039 0.949737
0.777890 0.690150 0.929778
0.838529 0.711849 0.900725
0.913603 0.688014 0.902281
0.480995 0.694881 0.976684
0.497475 0.698116 0.976043
0.549340 0.706569 0.972137
0.636713 0.726345 0.964050
0.710018 0.733791 0.952239
0.783932 0.742885 0.933776
0.844419 0.754940 0.906584
0.913756 0.739925 0.904753
0.475044 0.776272 0.973602
0.485267 0.776516 0.973144
0.528985 0.779171 0.971801
0.606928 0.786770 0.969909
0.703944 0.797696 0.960571
0.795560 0.810727 0.945556
0.861723 0.818601 0.923033
0.921447 0.812131 0.915709
0.496834 0.864805 0.963317
0.506554 0.865049 0.963134
0.545708 0.866178 0.962341
0.616358 0.869749 0.961486
0.706142 0.876066 0.960479
0.803403 0.886442 0.959991
0.882078 0.889464 0.945525
0.928161 0.878599 0.925780
0.524254 0.951354 0.954894
0.531975 0.951202 0.954650
0.566369 0.951080 0.954192
0.629877 0.951385 0.953796
0.709377 0.951385 0.952758
0.793088 0.950805 0.951019
0.873747 0.949340 0.948241
0.944366 0.946471 0.944488
