20 Preset/Japan Style/【3】LUT video cho PR-AE-FCPX/LUT VIDEO/Japan Style LUT (17).cube
# Created by Adobe Lightroom plugin Export LUT (1.24.0)
# www.johnrellis.com/lightroom/exportlut.htm
# Preset: 17日系清新（素材江湖）
# Color profile: C:\Program Files (x86)\Common Files\Adobe\Color\Profiles\Recommended\VideoHD.icc
LUT_3D_SIZE 5
DOMAIN_MIN 0.000000 0.000000 0.000000
DOMAIN_MAX 0.903226 0.903226 0.903226
0.059785 0.088075 0.068452
0.345892 0.070832 0.049897
0.754330 0.000000 0.000000
0.971191 0.211551 0.000000
1.000000 0.331151 0.000000
0.000000 0.311131 0.120577
0.289586 0.382666 0.000000
0.806363 0.441260 0.000000
0.978943 0.425025 0.000000
1.000000 0.442664 0.000000
0.000000 0.615412 0.282963
0.031708 0.612940 0.281682
0.637690 0.704433 0.000000
0.960723 0.721248 0.000000
1.000000 0.676692 0.181155
0.236454 0.784756 0.476204
0.317784 0.783627 0.476478
0.508537 0.793240 0.463508
0.793912 0.847013 0.337041
1.000000 0.844327 0.225467
0.540764 0.906828 0.672663
0.557397 0.906676 0.673396
0.615442 0.904479 0.672969
0.718715 0.924224 0.649439
0.899046 0.948791 0.561334
0.000000 0.086244 0.328710
0.332372 0.082521 0.315068
0.652461 0.000000 0.293706
0.915740 0.000000 0.224430
1.000000 0.262730 0.198917
0.000000 0.314885 0.324102
0.276341 0.348516 0.346197
0.705074 0.326818 0.297032
0.935882 0.351965 0.247532
1.000000 0.405035 0.217227
0.000000 0.623804 0.426062
0.179507 0.624781 0.395727
0.623377 0.692561 0.318761
0.942931 0.714656 0.366735
1.000000 0.670314 0.366033
0.278111 0.786618 0.526207
0.345464 0.785641 0.526421
0.515373 0.787259 0.522362
0.789181 0.844694 0.435279
1.000000 0.843198 0.387579
0.549157 0.906767 0.687404
0.564843 0.906554 0.687861
0.625086 0.906188 0.690761
0.723690 0.923461 0.672847
0.899687 0.949096 0.599298
0.102510 0.000000 0.683772
0.420813 0.000000 0.686336
0.719661 0.153841 0.674800
0.808255 0.308629 0.608057
1.000000 0.216434 0.553277
0.000000 0.211521 0.680995
0.322301 0.224033 0.682887
0.703334 0.355779 0.676905
0.808774 0.391760 0.611597
1.000000 0.294774 0.535760
0.000000 0.599176 0.632471
0.000000 0.610040 0.640040
0.584009 0.649989 0.668116
0.829770 0.623255 0.623072
1.000000 0.606714 0.578637
0.439124 0.781003 0.677760
0.483101 0.783230 0.680507
0.572015 0.791196 0.668635
0.777432 0.834684 0.653071
0.997528 0.847196 0.684443
0.604944 0.904509 0.751369
0.607172 0.905394 0.746456
0.642908 0.906706 0.738766
0.734218 0.914763 0.736629
0.900542 0.946624 0.697078
0.396033 0.000000 0.855863
0.522332 0.000000 0.856199
0.744717 0.000000 0.852384
0.898680 0.379065 0.835599
0.942992 0.458412 0.775082
0.375158 0.073426 0.850614
0.481422 0.092042 0.850034
0.719295 0.247868 0.847135
0.884184 0.461463 0.832670
0.934203 0.506584 0.774929
0.000000 0.437842 0.821897
0.000000 0.430610 0.824735
0.580011 0.522118 0.828061
0.837064 0.653712 0.825284
0.907561 0.640375 0.778683
0.000000 0.753964 0.784878
0.171572 0.756191 0.786252
0.500450 0.768856 0.793973
0.761135 0.803403 0.815824
0.937224 0.778561 0.781308
0.599023 0.897246 0.820401
0.616083 0.898344 0.821134
0.681971 0.903471 0.825193
0.763760 0.911864 0.822293
0.908049 0.943175 0.820188
0.495674 0.000000 0.971801
0.563043 0.000000 0.970703
0.738796 0.111818 0.966400
0.899107 0.379339 0.954894
1.000000 0.558618 0.935943
0.541253 0.000000 0.971221
0.596979 0.000000 0.970214
0.739773 0.188937 0.964782
0.887022 0.430121 0.952117
0.993683 0.588617 0.934173
0.292271 0.342016 0.962921
0.407446 0.354437 0.961456
0.642023 0.422278 0.955932
0.840879 0.564263 0.944701
0.972351 0.682765 0.930816
0.000000 0.639063 0.938628
0.000000 0.631830 0.938964
0.000000 0.600824 0.941833
0.730159 0.700221 0.936706
0.945769 0.807523 0.931182
0.252628 0.876829 0.909545
0.317266 0.877592 0.909636
0.492714 0.882597 0.911101
0.699580 0.895476 0.915068
0.909911 0.928222 0.934020
