20 Preset/Japan Style/【3】LUT video cho PR-AE-FCPX/LUT VIDEO/Japan Style LUT (13).cube
# Created by Adobe Lightroom plugin Export LUT (1.24.0)
# www.johnrellis.com/lightroom/exportlut.htm
# Preset: 13日系胶片（素材江湖）
# Color profile: C:\Program Files (x86)\Common Files\Adobe\Color\Profiles\Recommended\VideoHD.icc
LUT_3D_SIZE 8
DOMAIN_MIN 0.000000 0.000000 0.000000
DOMAIN_MAX 0.903226 0.903226 0.903226
0.000000 0.000000 0.000000
0.000000 0.000000 0.000000
0.090517 0.024628 0.000000
0.278935 0.000000 0.014496
0.508995 0.000000 0.027314
0.726558 0.117678 0.091981
0.881163 0.279942 0.179141
0.973602 0.411994 0.299107
0.000000 0.000000 0.000000
0.000000 0.006012 0.000000
0.099977 0.057557 0.000000
0.284428 0.038453 0.000000
0.507683 0.000000 0.000000
0.714717 0.132357 0.037324
0.869017 0.274907 0.153658
0.967987 0.406439 0.280369
0.000000 0.120180 0.051301
0.000000 0.122377 0.028534
0.071962 0.133700 0.000000
0.348791 0.178531 0.000000
0.569177 0.192264 0.000000
0.757473 0.246921 0.000000
0.898466 0.347539 0.100862
0.982971 0.451423 0.268376
0.000000 0.284428 0.120302
0.000000 0.288243 0.117464
0.000000 0.291539 0.066865
0.283818 0.328557 0.000000
0.602136 0.388373 0.000000
0.811856 0.424567 0.000000
0.924926 0.454078 0.000000
0.994415 0.513085 0.206363
0.000000 0.470619 0.230564
0.000000 0.471809 0.229801
0.000000 0.474952 0.186099
0.000000 0.481697 0.156588
0.479469 0.510307 0.000000
0.754147 0.557244 0.000000
0.920958 0.587335 0.000000
1.000000 0.599237 0.000000
0.000000 0.631037 0.368536
0.000000 0.636652 0.373632
0.000000 0.639521 0.355383
0.000000 0.638331 0.317601
0.367193 0.647883 0.283940
0.667811 0.670100 0.207553
0.872007 0.694667 0.233494
0.978820 0.709316 0.275303
0.000000 0.769741 0.518578
0.000000 0.770535 0.520531
0.000000 0.770108 0.523278
0.000000 0.770840 0.479133
0.349340 0.765133 0.461799
0.594965 0.773342 0.437812
0.812406 0.782162 0.395697
0.939300 0.785611 0.429175
0.300999 0.859342 0.678431
0.329198 0.858915 0.679988
0.422858 0.857450 0.687465
0.473945 0.858061 0.675044
0.530632 0.852750 0.648524
0.648341 0.850217 0.642115
0.783444 0.851957 0.630060
0.905119 0.851164 0.599512
0.000000 0.000000 0.000000
0.000000 0.000000 0.000000
0.060334 0.019898 0.004028
0.252537 0.028077 0.011597
0.487282 0.000000 0.006714
0.696407 0.107301 0.042725
0.856077 0.256870 0.148928
0.960113 0.390814 0.271733
0.000000 0.002411 0.003113
0.000000 0.005982 0.007202
0.077974 0.046693 0.013581
0.264988 0.063264 0.011902
0.496956 0.007446 0.000000
0.699214 0.135256 0.000000
0.853208 0.263310 0.131685
0.957214 0.390478 0.258091
0.000000 0.115023 0.082765
0.000000 0.119203 0.079133
0.058930 0.129763 0.038697
0.323857 0.169284 0.000000
0.538109 0.188540 0.000000
0.733547 0.237369 0.000000
0.875578 0.326390 0.015534
0.970672 0.431952 0.241306
0.000000 0.271580 0.137240
0.000000 0.275120 0.135103
0.000000 0.280980 0.105776
0.261570 0.306981 0.000000
0.561730 0.361730 0.000000
0.770993 0.400031 0.000000
0.900145 0.434150 0.000000
0.983337 0.494881 0.172274
0.000000 0.462043 0.242161
0.000000 0.462470 0.240879
0.000000 0.465766 0.202945
0.000000 0.467384 0.176089
0.460212 0.493202 0.004944
0.734798 0.543420 0.000000
0.909209 0.579095 0.000000
0.992828 0.593744 0.061433
0.000000 0.620905 0.370459
0.000000 0.622065 0.370977
0.000000 0.626032 0.365026
0.000000 0.626978 0.321691
0.355901 0.637293 0.292271
0.658412 0.662989 0.227237
0.865232 0.690089 0.252811
0.974609 0.706447 0.291508
0.000000 0.762661 0.514855
0.000000 0.761746 0.514031
0.000000 0.761410 0.516167
0.000000 0.763241 0.475288
0.337865 0.759548 0.461799
0.585809 0.767880 0.438605
0.804257 0.776516 0.395636
0.934844 0.781430 0.427619
0.253880 0.856809 0.672511
0.294591 0.856840 0.675471
0.398444 0.855283 0.682551
0.467597 0.855528 0.674525
0.543053 0.854276 0.659083
0.651026 0.850431 0.648524
0.782071 0.851377 0.633387
0.903960 0.850645 0.603449
0.000000 0.000000 0.087556
0.000000 0.000000 0.083253
0.014862 0.000000 0.073304
0.225223 0.000000 0.091096
0.448096 0.097780 0.134249
0.678492 0.178317 0.148898
0.859037 0.282750 0.158145
0.965026 0.403479 0.270420
0.000000 0.011719 0.096681
0.000000 0.014130 0.097749
0.021057 0.026795 0.090669
0.226627 0.045167 0.105287
0.450935 0.124666 0.137911
0.675929 0.197971 0.150668
0.854612 0.290867 0.154726
0.963104 0.404456 0.258396
0.000000 0.108186 0.125032
0.000000 0.111666 0.126711
0.016663 0.128511 0.132967
0.265232 0.166598 0.143984
0.494209 0.214176 0.154086
0.702480 0.278172 0.160678
0.866361 0.354070 0.168368
0.972198 0.438239 0.236088
0.000000 0.267887 0.202762
0.000000 0.272526 0.203372
0.000000 0.287419 0.202731
0.260105 0.307073 0.167330
0.555047 0.372717 0.169680
0.744106 0.413672 0.181277
0.883879 0.460548 0.200198
0.981323 0.508690 0.227115
0.000000 0.455634 0.300328
0.000000 0.457221 0.300145
0.000000 0.464759 0.300267
0.000000 0.468360 0.266697
0.459785 0.495247 0.219577
0.729091 0.550896 0.228733
0.895689 0.588434 0.253239
0.980591 0.608331 0.286168
0.000000 0.616022 0.410590
0.000000 0.617609 0.411414
0.000000 0.621485 0.412696
0.000000 0.625330 0.377234
0.355047 0.630640 0.355566
0.649317 0.658442 0.314641
0.857298 0.692042 0.349645
0.967712 0.713924 0.388922
0.000000 0.762814 0.541161
0.000000 0.762173 0.540673
0.000000 0.761196 0.541253
0.000000 0.762203 0.522210
0.350713 0.759274 0.498116
0.585229 0.766598 0.480995
0.802548 0.777829 0.451606
0.931518 0.786160 0.490242
0.203861 0.857084 0.681575
0.245853 0.856443 0.682399
0.369390 0.854887 0.688838
0.504967 0.853330 0.700130
0.550774 0.853696 0.675959
0.655390 0.849973 0.667903
0.782864 0.851469 0.656428
0.901793 0.851133 0.631403
0.000000 0.000000 0.168368
0.000000 0.000000 0.167819
0.004364 0.001709 0.163912
0.167544 0.000000 0.156374
0.414679 0.000000 0.184054
0.619806 0.164187 0.248569
0.798032 0.329656 0.324285
0.937530 0.426368 0.359442
0.000000 0.016663 0.183963
0.000000 0.023713 0.184756
0.000000 0.029877 0.180301
0.180850 0.022034 0.169772
0.420111 0.000000 0.196597
0.617945 0.208804 0.266514
0.799496 0.341863 0.328374
0.937682 0.434852 0.362341
0.000000 0.110750 0.214572
0.000000 0.112428 0.216983
0.000000 0.124544 0.227543
0.209262 0.139040 0.215549
0.433906 0.188296 0.246738
0.625483 0.319829 0.324498
0.820890 0.404395 0.359960
0.946532 0.479988 0.386389
0.000000 0.236393 0.277836
0.000000 0.240757 0.279271
0.000000 0.260441 0.286931
0.227970 0.296818 0.304173
0.461494 0.354253 0.330266
0.665766 0.415564 0.355779
0.836088 0.480385 0.381537
0.950896 0.538781 0.405615
0.000000 0.449592 0.390021
0.000000 0.451301 0.390112
0.000000 0.458228 0.390326
0.159915 0.473426 0.393164
0.446174 0.492378 0.364813
0.715358 0.561517 0.401343
0.862943 0.597131 0.428199
0.956786 0.627680 0.448524
0.000000 0.615961 0.482887
0.000000 0.620630 0.486580
0.000000 0.623194 0.485695
0.000000 0.630426 0.486793
0.365301 0.630732 0.455787
0.640650 0.657710 0.433356
0.846891 0.699458 0.477333
0.955566 0.727474 0.515343
0.000000 0.761135 0.583490
0.000000 0.761624 0.584222
0.000000 0.762387 0.586175
0.155825 0.763394 0.591455
0.384741 0.763760 0.565515
0.587274 0.766232 0.551690
0.796841 0.778470 0.532525
0.923552 0.792111 0.577600
0.000000 0.859770 0.701839
0.093019 0.859281 0.702937
0.317601 0.857450 0.708217
0.485542 0.854307 0.718807
0.568078 0.853635 0.707881
0.663416 0.850126 0.699245
0.782193 0.851102 0.691524
0.898039 0.852018 0.675471
0.000000 0.009766 0.288884
0.000000 0.009033 0.289189
0.000000 0.010864 0.288701
0.167575 0.000000 0.286259
0.336889 0.000000 0.274662
0.589349 0.000000 0.316136
0.780117 0.194736 0.358099
0.896605 0.444556 0.478950
0.000000 0.033631 0.303349
0.000000 0.035279 0.304479
0.000000 0.037537 0.302983
0.173465 0.005768 0.298497
0.344976 0.000000 0.286137
0.590936 0.000000 0.326482
0.779568 0.226413 0.367895
0.893492 0.461067 0.489204
0.000000 0.111147 0.328283
0.000000 0.111513 0.331853
0.000000 0.123812 0.341924
0.185611 0.131044 0.337957
0.364935 0.145510 0.326513
0.587243 0.214542 0.360418
0.767971 0.337987 0.414832
0.884154 0.509087 0.516960
0.000000 0.215793 0.375494
0.000000 0.219120 0.376867
0.000000 0.234684 0.383215
0.154269 0.271611 0.402899
0.387915 0.304692 0.397681
0.592676 0.369421 0.428901
0.752377 0.491127 0.504631
0.900267 0.561273 0.538018
0.000000 0.386419 0.442573
0.000000 0.390173 0.444160
0.000000 0.404181 0.449409
0.000000 0.430823 0.461128
0.398138 0.468391 0.481361
0.617365 0.525536 0.510948
0.798337 0.583581 0.540093
0.917876 0.633692 0.565026
0.000000 0.584314 0.537224
0.000000 0.586450 0.538476
0.000000 0.592309 0.541192
0.000000 0.601099 0.542901
0.370092 0.616083 0.546136
0.608240 0.640894 0.532860
0.828794 0.702541 0.591211
0.928313 0.729610 0.619532
0.000000 0.753262 0.635035
0.000000 0.752773 0.633875
0.000000 0.752804 0.631434
0.000000 0.755459 0.632807
0.415503 0.757412 0.640223
0.571252 0.755978 0.617700
0.780453 0.772885 0.610010
0.911681 0.794980 0.657252
0.000000 0.859464 0.716365
0.000000 0.858946 0.716945
0.000000 0.857023 0.720394
0.364508 0.854551 0.731594
0.572595 0.850156 0.744472
0.661402 0.848814 0.731807
0.772641 0.848295 0.725399
0.890440 0.850431 0.715236
0.000000 0.027436 0.429572
0.000000 0.025574 0.429694
0.000000 0.023896 0.428382
0.000000 0.000000 0.427680
0.338231 0.000000 0.425483
0.510857 0.000000 0.414710
0.751217 0.088380 0.463630
0.906676 0.323064 0.507012
0.000000 0.048798 0.431922
0.000000 0.049805 0.431800
0.000000 0.050568 0.431067
0.000000 0.013489 0.430335
0.339605 0.000000 0.428412
0.508629 0.000000 0.417426
0.745388 0.140871 0.465431
0.902159 0.335607 0.508751
0.000000 0.110353 0.453223
0.000000 0.110933 0.455451
0.000000 0.127199 0.460822
0.000000 0.130892 0.458503
0.355138 0.131655 0.456886
0.522454 0.158724 0.448951
0.747433 0.266392 0.493690
0.897581 0.404608 0.534691
0.000000 0.209049 0.481697
0.000000 0.211032 0.481727
0.000000 0.223056 0.487770
0.000000 0.259556 0.509117
0.372961 0.284062 0.510735
0.546044 0.325811 0.507622
0.755062 0.409247 0.545525
0.891783 0.512322 0.585138
0.000000 0.354192 0.528588
0.000000 0.356786 0.529046
0.000000 0.367620 0.531395
0.000000 0.388037 0.537652
0.331731 0.428626 0.558282
0.550195 0.470192 0.561151
0.748348 0.535821 0.593988
0.861692 0.644007 0.660670
0.000000 0.529625 0.586877
0.000000 0.533196 0.589014
0.000000 0.541161 0.591424
0.000000 0.556878 0.597375
0.275608 0.581567 0.609247
0.571496 0.625116 0.637537
0.770748 0.684779 0.676143
0.892302 0.728145 0.702632
0.000000 0.735225 0.690425
0.000000 0.736965 0.691707
0.000000 0.740749 0.693385
0.000000 0.747890 0.697536
0.311284 0.754971 0.701900
0.592462 0.757321 0.704768
0.765560 0.770108 0.696498
0.903258 0.804990 0.745510
0.000000 0.859373 0.764157
0.000000 0.858915 0.763516
0.000000 0.857847 0.762631
0.000000 0.856016 0.762844
0.447669 0.851713 0.766201
0.667964 0.846464 0.777859
0.761379 0.844694 0.766567
0.882444 0.849546 0.764309
0.000000 0.064363 0.573480
0.000000 0.063111 0.576349
0.000000 0.042908 0.574151
0.000000 0.000000 0.574243
0.303777 0.000000 0.570611
0.523339 0.000000 0.569421
0.679500 0.000000 0.550744
0.872892 0.217716 0.583917
0.000000 0.068757 0.562860
0.000000 0.071260 0.566705
0.000000 0.065431 0.565911
0.000000 0.025025 0.564080
0.290227 0.000000 0.558740
0.505180 0.000000 0.555261
0.656458 0.000000 0.534661
0.852873 0.206271 0.567712
0.000000 0.115084 0.583948
0.000000 0.122530 0.585199
0.000000 0.132174 0.583734
0.000000 0.131075 0.579461
0.297459 0.117586 0.572839
0.515099 0.096529 0.570764
0.673518 0.156008 0.562676
0.865812 0.316442 0.599359
0.000000 0.203372 0.601007
0.000000 0.203922 0.600641
0.000000 0.209232 0.602625
0.000000 0.239780 0.610864
0.302129 0.250523 0.607477
0.535943 0.274723 0.607752
0.697444 0.325719 0.608057
0.869352 0.439857 0.637049
0.000000 0.325353 0.621729
0.000000 0.324010 0.618341
0.000000 0.325322 0.614099
0.000000 0.331823 0.612970
0.209171 0.373419 0.632410
0.514153 0.401312 0.633692
0.690730 0.452766 0.636744
0.862058 0.558587 0.675319
0.000000 0.487953 0.663691
0.000000 0.489540 0.664210
0.000000 0.494179 0.664485
0.000000 0.502586 0.665675
0.000000 0.513054 0.667140
0.473732 0.555688 0.689479
0.708949 0.615564 0.700801
0.857023 0.684718 0.730587
0.000000 0.668208 0.721675
0.000000 0.670863 0.723232
0.000000 0.674586 0.723659
0.000000 0.683162 0.725917
0.000000 0.694606 0.728634
0.469062 0.714107 0.736965
0.726894 0.750118 0.761807
0.871763 0.794461 0.794858
0.000000 0.846006 0.803830
0.000000 0.846525 0.804257
0.000000 0.849149 0.806821
0.000000 0.849851 0.807950
0.217746 0.848478 0.809628
0.583642 0.846586 0.813138
0.766323 0.843198 0.817014
0.872801 0.847837 0.814145
0.000000 0.119051 0.716457
0.000000 0.119142 0.717922
0.000000 0.111482 0.713008
0.000000 0.078737 0.710567
0.263462 0.000000 0.704982
0.516686 0.000000 0.697108
0.708736 0.000000 0.699489
0.834592 0.000000 0.669306
0.000000 0.115511 0.708675
0.000000 0.115297 0.710323
0.000000 0.108095 0.707820
0.000000 0.068513 0.704036
0.252171 0.000000 0.698665
0.507073 0.000000 0.691279
0.696803 0.000000 0.691554
0.822629 0.000000 0.661128
0.000000 0.136110 0.711208
0.000000 0.140322 0.711421
0.000000 0.139193 0.707271
0.000000 0.136660 0.710079
0.243290 0.110597 0.703243
0.500969 0.000000 0.693874
0.692958 0.000000 0.694331
0.820310 0.112428 0.667720
0.000000 0.186313 0.713069
0.000000 0.187625 0.714565
0.000000 0.190524 0.715236
0.000000 0.220523 0.717617
0.198001 0.221683 0.714565
0.493812 0.219516 0.708949
0.694667 0.228458 0.708736
0.824857 0.289555 0.688502
0.000000 0.287144 0.719478
0.000000 0.287633 0.720211
0.000000 0.282689 0.717159
0.000000 0.288762 0.721370
0.000000 0.322942 0.724910
0.444953 0.333349 0.720241
0.677668 0.360510 0.718563
0.822019 0.420874 0.710658
0.000000 0.436805 0.746883
0.000000 0.434241 0.744594
0.000000 0.427955 0.738796
0.000000 0.421515 0.733120
0.000000 0.412909 0.728206
0.322393 0.461372 0.746639
0.662043 0.509056 0.754391
0.827878 0.586236 0.756222
0.000000 0.614435 0.784939
0.000000 0.613977 0.784146
0.000000 0.612512 0.781521
0.000000 0.613672 0.779629
0.000000 0.614923 0.777066
0.000000 0.616846 0.775235
0.602075 0.660548 0.787686
0.827634 0.729702 0.801816
0.000000 0.792325 0.832700
0.000000 0.792203 0.832242
0.000000 0.793545 0.831907
0.000000 0.797879 0.832639
0.000000 0.802579 0.832731
0.295293 0.807248 0.832334
0.642603 0.814237 0.834226
0.844541 0.833341 0.848661
