20 Preset/Japan Style/【3】LUT video cho PR-AE-FCPX/LUT VIDEO/Japan Style LUT (23).cube
# Created by Adobe Lightroom plugin Export LUT (1.24.0)
# www.johnrellis.com/lightroom/exportlut.htm
# Preset: 23日系低饱和（素材江湖）
# Color profile: C:\Program Files (x86)\Common Files\Adobe\Color\Profiles\Recommended\VideoHD.icc
LUT_3D_SIZE 8
DOMAIN_MIN 0.000000 0.000000 0.000000
DOMAIN_MAX 0.903226 0.903226 0.903226
0.000000 0.000000 0.000000
0.109071 0.013794 0.000000
0.432990 0.000000 0.000000
0.712306 0.000000 0.000000
0.872984 0.000000 0.000000
0.964843 0.256138 0.000000
1.000000 0.382269 0.000000
1.000000 0.471107 0.149569
0.000000 0.099367 0.066651
0.089082 0.122347 0.046754
0.444862 0.137148 0.000000
0.713069 0.033692 0.000000
0.865629 0.188754 0.000000
0.956878 0.310216 0.000000
1.000000 0.408698 0.000000
1.000000 0.485786 0.175051
0.000000 0.327611 0.204379
0.110170 0.328710 0.236515
0.324437 0.392676 0.152499
0.690883 0.452522 0.000000
0.844266 0.450690 0.000000
0.937163 0.471168 0.075135
1.000000 0.507805 0.182773
1.000000 0.546868 0.283146
0.238560 0.551934 0.419959
0.297581 0.551476 0.444526
0.399420 0.549920 0.469245
0.567864 0.601892 0.366857
0.789456 0.627619 0.350591
0.905913 0.624140 0.354162
0.979065 0.619318 0.376806
1.000000 0.627008 0.425757
0.456672 0.667201 0.574945
0.483284 0.666529 0.591882
0.532311 0.664271 0.607538
0.595056 0.671565 0.606531
0.698878 0.695918 0.541039
0.849454 0.712917 0.534112
0.942840 0.710903 0.546136
1.000000 0.706783 0.565606
0.596612 0.734432 0.669886
0.609735 0.734646 0.677760
0.641505 0.733608 0.692164
0.676997 0.732204 0.702388
0.721553 0.743282 0.690730
0.792996 0.761624 0.653346
0.904234 0.780148 0.652644
0.972076 0.777279 0.668879
0.699825 0.796872 0.736934
0.706905 0.796841 0.741329
0.733242 0.796292 0.757839
0.756619 0.795651 0.764920
0.784298 0.795193 0.774472
0.818021 0.809934 0.758633
0.868803 0.826200 0.732113
0.941558 0.837644 0.734127
0.782162 0.859648 0.798764
0.786557 0.859495 0.801633
0.804166 0.858946 0.813443
0.828519 0.858488 0.828550
0.845579 0.857237 0.834012
0.864866 0.859159 0.840116
0.885710 0.869291 0.828031
0.913725 0.876005 0.809903
0.000000 0.000000 0.079622
0.111025 0.013855 0.093233
0.418830 0.000000 0.074281
0.694240 0.000000 0.030732
0.857023 0.147158 0.000000
0.951751 0.297032 0.000000
1.000000 0.401923 0.098360
1.000000 0.480690 0.218296
0.000000 0.110719 0.086000
0.102724 0.136324 0.118685
0.425696 0.155306 0.105562
0.696620 0.162966 0.048890
0.852628 0.247654 0.000000
0.946502 0.343420 0.000000
1.000000 0.426764 0.132784
1.000000 0.494820 0.236912
0.000000 0.336889 0.249485
0.143954 0.338628 0.278935
0.336706 0.401709 0.213931
0.679408 0.457588 0.173220
0.832731 0.460609 0.169741
0.927794 0.480995 0.193393
0.997894 0.514092 0.244511
1.000000 0.550988 0.320226
0.250736 0.550286 0.434821
0.307286 0.550500 0.460456
0.402899 0.549645 0.483284
0.564660 0.599969 0.390692
0.781125 0.624689 0.379950
0.897673 0.623011 0.384039
0.972351 0.619440 0.401099
1.000000 0.627832 0.444160
0.459937 0.667079 0.580591
0.485389 0.666377 0.596429
0.534661 0.663996 0.613062
0.594781 0.670619 0.611719
0.696986 0.694789 0.549371
0.845792 0.711574 0.544854
0.939513 0.710658 0.556847
1.000000 0.706935 0.574426
0.596307 0.733852 0.671015
0.608423 0.733577 0.678187
0.641108 0.732601 0.693477
0.676539 0.731411 0.703670
0.720851 0.742519 0.692714
0.792020 0.761013 0.656916
0.902953 0.779538 0.656733
0.970947 0.777035 0.672236
0.698116 0.796109 0.736507
0.704799 0.795804 0.740566
0.731197 0.795224 0.757015
0.755581 0.794705 0.764981
0.783688 0.794614 0.774746
0.817288 0.809171 0.759365
0.867826 0.825284 0.732906
0.940856 0.836851 0.735012
0.779995 0.859190 0.797574
0.784726 0.859129 0.800656
0.802396 0.858579 0.812406
0.827817 0.858091 0.828458
0.846403 0.857847 0.835264
0.865263 0.859342 0.841154
0.885710 0.869230 0.828794
0.913695 0.876005 0.810758
0.000000 0.025147 0.221164
0.129885 0.003113 0.237095
0.391516 0.000000 0.246891
0.675990 0.000000 0.239384
0.838590 0.236240 0.254246
0.931334 0.369818 0.286992
0.999329 0.455024 0.326268
1.000000 0.515038 0.378973
0.000000 0.144137 0.251652
0.129000 0.149905 0.271183
0.396307 0.165255 0.272953
0.674434 0.206516 0.267521
0.831083 0.310063 0.277897
0.924956 0.405676 0.305669
0.995178 0.472847 0.338293
1.000000 0.526177 0.389075
0.000000 0.365454 0.294926
0.143587 0.372045 0.358648
0.372992 0.426215 0.358068
0.662959 0.467445 0.362097
0.811154 0.483711 0.361639
0.908690 0.509728 0.371893
0.981933 0.540368 0.397040
1.000000 0.571588 0.438727
0.260990 0.563409 0.473213
0.330022 0.564599 0.505730
0.429725 0.563561 0.539513
0.576287 0.610132 0.477455
0.772610 0.629603 0.483833
0.883421 0.630579 0.488563
0.960143 0.630793 0.496712
1.000000 0.639155 0.521965
0.472633 0.670497 0.601190
0.496803 0.669978 0.614923
0.551110 0.668360 0.637934
0.605188 0.674006 0.639368
0.701350 0.698878 0.591821
0.840879 0.713832 0.593469
0.933227 0.715328 0.603754
0.996216 0.711940 0.615045
0.601831 0.735561 0.679774
0.613397 0.735348 0.686244
0.649378 0.734554 0.704860
0.682826 0.733333 0.713832
0.724392 0.743526 0.705165
0.793820 0.762570 0.673976
0.901183 0.780087 0.676143
0.968566 0.778836 0.690089
0.698207 0.797726 0.739559
0.704829 0.797452 0.743465
0.731044 0.796750 0.759335
0.758633 0.796201 0.770626
0.786191 0.796048 0.779873
0.818875 0.809964 0.766567
0.868681 0.826322 0.742061
0.940368 0.837461 0.745724
0.775692 0.860197 0.796414
0.780240 0.859953 0.799283
0.798550 0.859312 0.811154
0.828397 0.858854 0.831235
0.847044 0.858579 0.837888
0.866300 0.859586 0.844846
0.886229 0.869535 0.832944
0.913268 0.876005 0.815549
0.000000 0.072084 0.417182
0.000000 0.048127 0.432929
0.396368 0.102022 0.413153
0.638788 0.207156 0.449042
0.808042 0.255863 0.433234
0.908904 0.387182 0.448035
0.978882 0.480415 0.476905
1.000000 0.543053 0.516869
0.000000 0.176394 0.440284
0.112276 0.181033 0.453864
0.407050 0.224552 0.443671
0.628199 0.279698 0.469825
0.803830 0.320897 0.450111
0.903441 0.421942 0.462043
0.974578 0.499519 0.488685
1.000000 0.554040 0.525322
0.000000 0.410620 0.488472
0.000000 0.414374 0.496437
0.389929 0.430243 0.518883
0.632959 0.446693 0.509483
0.784970 0.485054 0.507958
0.884703 0.526696 0.515770
0.961028 0.565362 0.535393
1.000000 0.594568 0.558404
0.159976 0.583368 0.500053
0.272343 0.583612 0.527489
0.461433 0.585870 0.603418
0.596063 0.620294 0.579919
0.762051 0.635737 0.591943
0.862058 0.637385 0.590753
0.942443 0.642847 0.594049
1.000000 0.652003 0.606287
0.468635 0.678218 0.619318
0.494667 0.677607 0.631800
0.573602 0.676631 0.671107
0.621881 0.679561 0.676661
0.710201 0.705440 0.645319
0.836606 0.717403 0.652735
0.926543 0.721645 0.659815
0.988647 0.717433 0.663386
0.607019 0.739986 0.692073
0.618952 0.740139 0.698360
0.658991 0.739406 0.719936
0.695125 0.738521 0.731807
0.732692 0.746792 0.727108
0.798978 0.766567 0.701289
0.900084 0.781521 0.706447
0.965667 0.781399 0.717556
0.692439 0.800717 0.741848
0.699641 0.800595 0.745846
0.727016 0.800107 0.761593
0.763821 0.799802 0.781003
0.791257 0.799619 0.789517
0.822080 0.811734 0.779812
0.870878 0.828641 0.757443
0.939635 0.837980 0.762844
0.763546 0.862913 0.792142
0.768612 0.862669 0.795193
0.788815 0.861814 0.807736
0.822538 0.860807 0.829923
0.847898 0.860288 0.842802
0.867765 0.860258 0.851072
0.886931 0.869932 0.840421
0.912810 0.876005 0.823972
0.000000 0.130831 0.583886
0.122408 0.129091 0.592615
0.498512 0.101106 0.621363
0.654200 0.289891 0.584161
0.769680 0.377325 0.592370
0.872770 0.420020 0.585931
0.955962 0.502770 0.596704
1.000000 0.568719 0.624079
0.000000 0.219608 0.591638
0.183627 0.223972 0.599786
0.503838 0.236240 0.627985
0.648707 0.352483 0.595300
0.761013 0.409064 0.599786
0.872740 0.436957 0.586175
0.952636 0.519432 0.603113
1.000000 0.578027 0.628656
0.000000 0.408972 0.598535
0.152926 0.417548 0.609094
0.462715 0.445808 0.638483
0.620996 0.489754 0.625696
0.737911 0.494820 0.618860
0.857511 0.529381 0.614343
0.940734 0.574945 0.626490
1.000000 0.610742 0.644648
0.000000 0.595819 0.622370
0.192874 0.596521 0.626184
0.445075 0.602594 0.644312
0.616754 0.624079 0.667720
0.743465 0.626795 0.662470
0.843503 0.636255 0.660243
0.927428 0.648402 0.663447
0.996857 0.659785 0.670680
0.436927 0.687678 0.634028
0.466987 0.687129 0.644770
0.559869 0.685908 0.681636
0.639979 0.685725 0.713283
0.723934 0.709834 0.695460
0.835080 0.719448 0.703273
0.918486 0.719112 0.703029
0.983642 0.716793 0.703578
0.590509 0.744747 0.696986
0.602808 0.744472 0.702571
0.647242 0.743374 0.723476
0.703304 0.742916 0.749844
0.738125 0.748104 0.750973
0.804471 0.770535 0.730587
0.900633 0.781857 0.738949
0.964080 0.782010 0.746639
0.673426 0.804990 0.740352
0.680293 0.804685 0.743740
0.707271 0.803861 0.757534
0.756039 0.803433 0.784512
0.793881 0.803403 0.800198
0.823972 0.812589 0.796231
0.873075 0.830900 0.775875
0.939300 0.837247 0.782895
0.726223 0.866758 0.775418
0.732753 0.866423 0.779049
0.758572 0.865110 0.793698
0.801724 0.863584 0.819760
0.846372 0.862425 0.848539
0.867979 0.862150 0.856535
0.887083 0.869932 0.850248
0.912413 0.876036 0.834409
0.192874 0.203159 0.691249
0.289586 0.206668 0.695216
0.528222 0.221653 0.710628
0.693233 0.319799 0.703426
0.779660 0.463478 0.680385
0.849668 0.509911 0.682795
0.921324 0.553063 0.693935
1.000000 0.592187 0.698848
0.226535 0.272801 0.691524
0.307073 0.277165 0.695155
0.525353 0.296757 0.709560
0.684901 0.371740 0.703517
0.771969 0.486549 0.683314
0.843900 0.523125 0.685237
0.921233 0.557855 0.692653
1.000000 0.598810 0.700587
0.230289 0.435920 0.691707
0.302373 0.441474 0.695033
0.497353 0.464240 0.708614
0.663386 0.508476 0.711177
0.750271 0.558221 0.697627
0.826535 0.569207 0.696590
0.923491 0.582788 0.692683
0.994934 0.626947 0.710292
0.215396 0.594629 0.694484
0.285649 0.594629 0.695735
0.454505 0.596704 0.701808
0.647242 0.627314 0.728817
0.726253 0.630304 0.717220
0.827390 0.627832 0.709377
0.916381 0.649653 0.716152
0.987152 0.670619 0.727779
0.404364 0.688228 0.697292
0.434394 0.688075 0.699519
0.527703 0.691005 0.709499
0.648585 0.700465 0.737667
0.740505 0.712612 0.746853
0.832731 0.714321 0.745266
0.911620 0.714778 0.743923
0.978607 0.717769 0.747280
0.562371 0.755032 0.705013
0.576898 0.754788 0.710353
0.626825 0.753445 0.729641
0.698909 0.752560 0.761044
0.750790 0.753048 0.781857
0.816953 0.775326 0.767819
0.905180 0.782193 0.775723
0.964813 0.776547 0.775570
0.651179 0.812070 0.743526
0.659144 0.811948 0.747005
0.689265 0.811154 0.760555
0.739712 0.810239 0.784909
0.797971 0.810513 0.816190
0.828000 0.814755 0.819272
0.877684 0.835447 0.800809
0.939605 0.837064 0.809751
0.696468 0.872221 0.770596
0.702052 0.871885 0.773251
0.725429 0.870665 0.784695
0.766812 0.868833 0.806088
0.822904 0.866453 0.838407
0.867521 0.865293 0.864469
0.887785 0.870115 0.864286
0.911681 0.876097 0.849485
0.381506 0.289708 0.765164
0.427466 0.294499 0.767086
0.573632 0.316258 0.774350
0.755856 0.375341 0.787320
0.798917 0.490730 0.754116
0.870024 0.574365 0.749447
0.927672 0.602533 0.752743
0.977661 0.639429 0.767239
0.385901 0.338476 0.763516
0.429023 0.343084 0.765438
0.569177 0.364080 0.772702
0.749081 0.415778 0.786404
0.793545 0.512566 0.755123
0.866178 0.583459 0.750729
0.924681 0.607935 0.753658
0.975891 0.642908 0.768093
0.374212 0.466224 0.758938
0.413947 0.470466 0.760739
0.543633 0.489357 0.768154
0.716762 0.528344 0.782925
0.779782 0.579828 0.761746
0.855497 0.617823 0.758358
0.917021 0.631983 0.760433
0.974762 0.657527 0.771450
0.321569 0.580133 0.746761
0.365087 0.583856 0.749325
0.498054 0.600610 0.760830
0.665309 0.624903 0.778622
0.765835 0.651606 0.774685
0.840482 0.663264 0.770687
0.905394 0.666651 0.771206
0.977905 0.677668 0.772305
0.356909 0.701839 0.763394
0.385229 0.700557 0.763638
0.477363 0.696010 0.765286
0.599145 0.688685 0.769955
0.755886 0.711360 0.794064
0.821286 0.705806 0.783658
0.907195 0.706233 0.780758
0.970886 0.724025 0.790341
0.488869 0.761135 0.759701
0.503960 0.760739 0.760769
0.559838 0.759274 0.765347
0.645777 0.759640 0.776120
0.746670 0.767666 0.799374
0.830442 0.778012 0.814267
0.903899 0.777615 0.811856
0.959503 0.778012 0.813718
0.590753 0.822141 0.750210
0.599878 0.822263 0.751827
0.639734 0.822354 0.760464
0.709377 0.820615 0.785336
0.781857 0.819242 0.818418
0.836820 0.820005 0.845121
0.885069 0.839048 0.834531
0.938872 0.836393 0.841642
0.661128 0.878782 0.770352
0.667994 0.878508 0.773159
0.695857 0.877287 0.785031
0.743526 0.874968 0.806577
0.802640 0.872160 0.836149
0.860197 0.870115 0.869322
0.889647 0.870329 0.882811
0.910521 0.876249 0.869932
0.535760 0.400366 0.837522
0.560632 0.404273 0.838285
0.648829 0.421912 0.841184
0.777035 0.462715 0.847532
0.876738 0.530571 0.847227
0.906126 0.605982 0.816892
0.954772 0.658015 0.812924
0.989899 0.685939 0.817746
0.530938 0.430976 0.835874
0.555291 0.434821 0.836667
0.642420 0.450660 0.839750
0.769894 0.487587 0.846189
0.872465 0.546075 0.846983
0.903716 0.614191 0.817746
0.953002 0.662531 0.814023
0.988678 0.689082 0.818723
0.505913 0.520165 0.831113
0.530205 0.522911 0.831907
0.616510 0.534997 0.835264
0.744106 0.560327 0.842802
0.858701 0.596124 0.847776
0.895628 0.644160 0.822293
0.947265 0.680751 0.819181
0.984100 0.702602 0.823545
0.440406 0.606622 0.823697
0.466896 0.608362 0.824979
0.561913 0.616785 0.829129
0.695979 0.632013 0.838010
0.838041 0.656825 0.851347
0.883391 0.686336 0.831144
0.937957 0.709804 0.828550
0.976379 0.725704 0.832364
0.355077 0.695521 0.822019
0.378485 0.693263 0.821836
0.455634 0.682918 0.820737
0.603510 0.684077 0.829252
0.774685 0.705898 0.847379
0.866667 0.729854 0.843687
0.925139 0.743191 0.840269
0.966186 0.755276 0.844388
0.375982 0.796536 0.840787
0.394720 0.794980 0.840665
0.462135 0.788540 0.840299
0.562951 0.775631 0.839750
0.678309 0.754788 0.839170
0.851011 0.777005 0.864225
0.907683 0.782773 0.854978
0.954681 0.790799 0.857694
0.481483 0.849668 0.828519
0.493477 0.849058 0.829038
0.539788 0.846525 0.831388
0.615869 0.841886 0.836393
0.709010 0.835691 0.844999
0.808682 0.831296 0.859709
0.889982 0.838712 0.876677
0.932647 0.840391 0.877165
0.590021 0.888731 0.803769
0.598077 0.888426 0.804868
0.630518 0.887205 0.809873
0.687556 0.885008 0.820310
0.759609 0.882048 0.837339
0.839353 0.877684 0.868132
0.894408 0.875395 0.899321
0.908049 0.876005 0.898009
