20 Preset/Japan Style/【3】LUT video cho PR-AE-FCPX/LUT VIDEO/Japan Style LUT (26).cube
# Created by Adobe Lightroom plugin Export LUT (1.24.0)
# www.johnrellis.com/lightroom/exportlut.htm
# Preset: 26日系绿偏橘（素材江湖）
# Color profile: C:\Program Files (x86)\Common Files\Adobe\Color\Profiles\Recommended\VideoHD.icc
LUT_3D_SIZE 5
DOMAIN_MIN 0.000000 0.000000 0.000000
DOMAIN_MAX 0.903226 0.903226 0.903226
0.035401 0.047730 0.025544
0.203952 0.049348 0.030335
0.577111 0.000000 0.000000
0.870451 0.000000 0.000000
0.996857 0.251255 0.000000
0.145602 0.189090 0.099580
0.224826 0.186740 0.093416
0.596063 0.185336 0.000000
0.865934 0.233066 0.000000
0.991669 0.356725 0.000000
0.403204 0.484138 0.255802
0.470069 0.480140 0.244053
0.590967 0.474434 0.232425
0.829923 0.538781 0.128939
0.954498 0.567742 0.156497
0.633021 0.690150 0.496834
0.654200 0.689265 0.492409
0.727993 0.684108 0.474434
0.765530 0.665034 0.448249
0.903868 0.700191 0.431342
0.753597 0.815671 0.707759
0.761227 0.815579 0.706416
0.788296 0.809445 0.689998
0.832853 0.808865 0.686702
0.863096 0.801999 0.681666
0.013153 0.078798 0.150729
0.201602 0.076478 0.161166
0.517021 0.092866 0.172457
0.830564 0.129671 0.168032
0.970489 0.304662 0.149874
0.004364 0.222873 0.187411
0.226352 0.229648 0.197391
0.567437 0.230533 0.188083
0.836454 0.275761 0.168826
0.967712 0.375769 0.156374
0.348913 0.487984 0.295018
0.442084 0.492714 0.322301
0.572412 0.479622 0.299138
0.812253 0.541985 0.248753
0.943236 0.572747 0.277317
0.620630 0.693141 0.526360
0.644892 0.693507 0.532433
0.720150 0.689967 0.514611
0.759792 0.670558 0.486885
0.898375 0.705989 0.474708
0.749294 0.816648 0.718410
0.756435 0.816281 0.716670
0.788266 0.816403 0.711940
0.833371 0.814267 0.704555
0.863493 0.807950 0.699733
0.000000 0.112490 0.408118
0.003998 0.120638 0.422705
0.560693 0.011017 0.450446
0.797299 0.290806 0.441382
0.907988 0.459480 0.479042
0.000000 0.239628 0.440681
0.150942 0.238590 0.450446
0.576471 0.259403 0.473030
0.778225 0.398596 0.467231
0.907164 0.497169 0.491798
0.042695 0.551171 0.497414
0.288334 0.553216 0.502708
0.574548 0.561913 0.526848
0.771603 0.579187 0.524712
0.905730 0.603540 0.523278
0.553246 0.702937 0.569451
0.579767 0.701839 0.578729
0.680018 0.706600 0.627588
0.744076 0.695247 0.604639
0.878599 0.728206 0.603388
0.712276 0.817014 0.718044
0.724910 0.817807 0.726131
0.767483 0.819760 0.746853
0.823880 0.818173 0.736233
0.853666 0.810727 0.726802
0.000000 0.171542 0.663600
0.000000 0.178042 0.669245
0.492012 0.186007 0.688808
0.796353 0.283116 0.696742
0.901915 0.482002 0.660517
0.000000 0.262455 0.671015
0.000000 0.269413 0.674647
0.504570 0.295445 0.689235
0.784634 0.375952 0.695766
0.888090 0.526421 0.666377
0.000000 0.514183 0.673030
0.182773 0.510765 0.674159
0.515587 0.532952 0.691707
0.748928 0.578759 0.702510
0.852476 0.645930 0.699519
0.452796 0.729915 0.711910
0.486030 0.728817 0.712215
0.594903 0.729641 0.719265
0.729702 0.737423 0.737057
0.853971 0.746334 0.735927
0.680018 0.823362 0.758694
0.686275 0.824247 0.759823
0.712459 0.828885 0.765347
0.793149 0.833005 0.800046
0.842405 0.824887 0.784115
0.000000 0.261906 0.831998
0.000000 0.266880 0.832395
0.475471 0.293065 0.835935
0.734096 0.384283 0.840970
0.892943 0.506493 0.836271
0.000000 0.323980 0.829557
0.000000 0.329595 0.830198
0.480629 0.356878 0.833219
0.726955 0.436988 0.838071
0.885344 0.538354 0.834745
0.000000 0.511772 0.823575
0.206210 0.516686 0.823789
0.477821 0.524254 0.827634
0.705104 0.574762 0.832883
0.865263 0.633875 0.835935
0.301091 0.706752 0.824247
0.343420 0.703426 0.823758
0.477302 0.691035 0.824247
0.678767 0.705043 0.834775
0.847074 0.750088 0.848295
0.577417 0.848600 0.846586
0.589624 0.848295 0.846769
0.640711 0.848661 0.849332
0.726101 0.849668 0.854429
0.837034 0.857877 0.868437
