20 Preset/Japan Style/【3】LUT video cho PR-AE-FCPX/LUT VIDEO/Japan Style LUT (13).cube
# Created by Adobe Lightroom plugin Export LUT (1.24.0)
# www.johnrellis.com/lightroom/exportlut.htm
# Preset: 13日系胶片（素材江湖）
# Color profile: C:\Program Files (x86)\Common Files\Adobe\Color\Profiles\Recommended\VideoHD.icc
LUT_3D_SIZE 5
DOMAIN_MIN 0.000000 0.000000 0.000000
DOMAIN_MAX 0.903226 0.903226 0.903226
0.000000 0.000000 0.000000
0.028931 0.016968 0.000000
0.395636 0.000000 0.023072
0.773983 0.165774 0.111116
0.973602 0.411994 0.299107
0.000000 0.095064 0.032441
0.018433 0.103700 0.000000
0.447150 0.143740 0.000000
0.792874 0.244114 0.000000
0.982208 0.443732 0.280766
0.000000 0.383703 0.170779
0.000000 0.384436 0.128817
0.386938 0.426001 0.000000
0.840482 0.507622 0.000000
0.998169 0.550866 0.127932
0.000000 0.675746 0.411597
0.000000 0.678370 0.413519
0.121065 0.675776 0.348821
0.709255 0.703182 0.255741
0.968292 0.730434 0.319951
0.300999 0.859342 0.678431
0.394995 0.857877 0.684871
0.474891 0.854185 0.651575
0.682948 0.850950 0.640253
0.905119 0.851164 0.599512
0.000000 0.000000 0.056733
0.000000 0.000000 0.043091
0.337774 0.048035 0.101228
0.733974 0.176577 0.098848
0.960693 0.395331 0.265904
0.000000 0.086305 0.099519
0.000000 0.099794 0.104311
0.379065 0.154116 0.113436
0.750179 0.256352 0.101015
0.968902 0.425177 0.245090
0.000000 0.364050 0.227604
0.000000 0.372564 0.225284
0.359625 0.400977 0.148470
0.803647 0.496956 0.134279
0.988251 0.554376 0.209323
0.000000 0.669276 0.443000
0.000000 0.672663 0.444953
0.160555 0.673732 0.397009
0.700862 0.699001 0.329870
0.961273 0.733883 0.396033
0.261265 0.859068 0.684901
0.369177 0.857450 0.690486
0.506035 0.856535 0.677699
0.690852 0.851774 0.664149
0.904204 0.852628 0.631006
0.000000 0.002350 0.225620
0.000000 0.005188 0.224063
0.250950 0.000000 0.211856
0.657954 0.069276 0.275151
0.911894 0.451881 0.437507
0.000000 0.094484 0.261051
0.000000 0.099825 0.270848
0.280583 0.109194 0.254520
0.652125 0.252293 0.327947
0.917205 0.483253 0.451270
0.000000 0.310918 0.361822
0.000000 0.326268 0.367193
0.313756 0.384619 0.395483
0.688930 0.487831 0.445136
0.934173 0.588190 0.491646
0.000000 0.651392 0.541833
0.000000 0.651301 0.538903
0.257633 0.663844 0.541497
0.673243 0.687922 0.504112
0.938750 0.747127 0.579797
0.000000 0.858427 0.705318
0.000000 0.857145 0.710323
0.523735 0.851530 0.728939
0.684749 0.847654 0.710140
0.893523 0.850431 0.691096
0.000000 0.031769 0.459480
0.000000 0.028504 0.459815
0.202976 0.000000 0.458839
0.548150 0.000000 0.445014
0.897704 0.296910 0.522698
0.000000 0.094575 0.477790
0.000000 0.107088 0.480903
0.215366 0.100130 0.479072
0.553765 0.108858 0.466346
0.889708 0.358556 0.538323
0.000000 0.261875 0.516045
0.000000 0.267979 0.514031
0.153689 0.318608 0.536889
0.557366 0.375006 0.530724
0.874754 0.535882 0.607630
0.000000 0.569329 0.625788
0.000000 0.574029 0.626154
0.000000 0.599847 0.636194
0.613977 0.660761 0.672724
0.885496 0.744717 0.726467
0.000000 0.858732 0.777493
0.000000 0.858488 0.777920
0.223117 0.854948 0.777646
0.696345 0.846494 0.789181
0.880308 0.849332 0.777188
0.000000 0.119051 0.716457
0.000000 0.113954 0.714015
0.000000 0.000000 0.708492
0.569574 0.000000 0.695796
0.834592 0.000000 0.669306
0.000000 0.127535 0.712795
0.000000 0.126986 0.710780
0.000000 0.103761 0.704707
0.557824 0.000000 0.692927
0.826383 0.012482 0.670222
0.000000 0.230533 0.715633
0.000000 0.230930 0.714046
0.000000 0.265568 0.716426
0.523919 0.273136 0.705318
0.821439 0.351354 0.696407
0.000000 0.488746 0.762692
0.000000 0.484108 0.758297
0.000000 0.474403 0.749111
0.389044 0.504540 0.754604
0.825437 0.622827 0.765743
0.000000 0.792325 0.832700
0.000000 0.792966 0.831907
0.000000 0.800381 0.832883
0.415137 0.808652 0.832425
0.844541 0.833341 0.848661
