20 Preset/Japan Style/【3】LUT video cho PR-AE-FCPX/LUT VIDEO/Japan Style LUT (1).cube
# Created by Adobe Lightroom plugin Export LUT (1.24.0)
# www.johnrellis.com/lightroom/exportlut.htm
# Preset: 01日系常用（素材江湖）
# Color profile: C:\Program Files (x86)\Common Files\Adobe\Color\Profiles\Recommended\VideoHD.icc
LUT_3D_SIZE 5
DOMAIN_MIN 0.000000 0.000000 0.000000
DOMAIN_MAX 0.903226 0.903226 0.903226
0.029145 0.032685 0.028840
0.300572 0.000000 0.010437
0.713863 0.000000 0.000000
0.979339 0.000000 0.000000
1.000000 0.270634 0.000000
0.000000 0.314580 0.044984
0.265354 0.311955 0.000000
0.680079 0.321294 0.000000
0.953857 0.359258 0.000000
1.000000 0.403204 0.000000
0.268803 0.704402 0.312230
0.430945 0.698177 0.350195
0.647883 0.670436 0.184054
0.878477 0.645167 0.000000
1.000000 0.632868 0.000000
0.568109 0.876555 0.582300
0.609796 0.874662 0.596948
0.715938 0.867765 0.620752
0.828916 0.846220 0.442481
1.000000 0.813413 0.110018
0.728023 0.964935 0.739376
0.743618 0.963897 0.744961
0.796811 0.959136 0.764340
0.848356 0.957244 0.744137
0.934081 0.954589 0.638514
0.000000 0.062867 0.333562
0.303105 0.000000 0.344915
0.713893 0.000000 0.325963
0.972107 0.026978 0.315618
1.000000 0.295903 0.294987
0.000000 0.329778 0.327092
0.280278 0.330755 0.327703
0.692805 0.320714 0.313176
0.948791 0.355901 0.292821
1.000000 0.410864 0.279332
0.224735 0.700252 0.435309
0.421942 0.696010 0.463294
0.642847 0.669551 0.398749
0.874083 0.643244 0.239109
1.000000 0.631800 0.215366
0.585657 0.875303 0.633753
0.625330 0.873869 0.645686
0.737514 0.868772 0.685420
0.825925 0.846738 0.542443
0.995636 0.813779 0.332128
0.739986 0.964843 0.760250
0.754726 0.963867 0.765255
0.807675 0.960296 0.785489
0.858030 0.957641 0.773404
0.935027 0.955169 0.679835
0.000000 0.101625 0.715328
0.228885 0.000549 0.717403
0.709377 0.000000 0.723751
0.953460 0.000000 0.690394
1.000000 0.347417 0.649866
0.000000 0.381048 0.701717
0.239811 0.350439 0.705653
0.692439 0.304356 0.714717
0.933318 0.352026 0.683101
1.000000 0.472419 0.656794
0.000000 0.685573 0.684535
0.226596 0.682673 0.684016
0.636133 0.676112 0.683680
0.862974 0.670588 0.673884
1.000000 0.668513 0.660517
0.542504 0.870695 0.716884
0.599481 0.868345 0.726101
0.745602 0.866148 0.764096
0.829557 0.850431 0.731044
0.977783 0.818723 0.628595
0.761166 0.965423 0.813596
0.775723 0.964721 0.817990
0.825956 0.961852 0.834318
0.885344 0.957946 0.849607
0.937469 0.954681 0.776577
0.000000 0.210025 0.891905
0.328679 0.203128 0.892119
0.647700 0.156832 0.892210
0.899840 0.135683 0.891600
1.000000 0.332280 0.860105
0.198611 0.397253 0.883330
0.359503 0.392554 0.883330
0.639185 0.375891 0.884092
0.883879 0.370764 0.884703
1.000000 0.451240 0.854490
0.401556 0.680018 0.851316
0.471229 0.679194 0.850217
0.636591 0.672175 0.854246
0.834501 0.656214 0.857206
1.000000 0.674830 0.843534
0.454108 0.852140 0.849363
0.508263 0.850919 0.848875
0.659113 0.848356 0.848203
0.826474 0.847013 0.848478
0.966308 0.843259 0.842618
0.673152 0.971679 0.851164
0.700404 0.970428 0.855009
0.792172 0.966430 0.872038
0.900267 0.962493 0.906401
0.945373 0.956695 0.881712
0.349676 0.323766 0.986511
0.420874 0.319860 0.985901
0.606867 0.310552 0.985779
0.803464 0.289830 0.985199
0.989105 0.299443 0.983520
0.381292 0.434638 0.978912
0.440101 0.431861 0.978759
0.605646 0.422583 0.978729
0.793484 0.403632 0.978485
0.978515 0.402625 0.977966
0.530755 0.681270 0.959625
0.536706 0.668238 0.959869
0.628290 0.654170 0.960388
0.775479 0.635279 0.961028
0.952819 0.628443 0.965667
0.572839 0.818906 0.947936
0.596094 0.818387 0.946624
0.687190 0.822171 0.944457
0.802762 0.822080 0.949920
0.945159 0.828214 0.960235
0.595605 0.955535 0.951751
0.618494 0.954894 0.951354
0.708095 0.954406 0.951873
0.826566 0.952758 0.951659
0.943145 0.951446 0.951843
