20 Preset/Japan Style/【3】LUT video cho PR-AE-FCPX/LUT VIDEO/Japan Style LUT (10).cube
# Created by Adobe Lightroom plugin Export LUT (1.24.0)
# www.johnrellis.com/lightroom/exportlut.htm
# Preset: 10日系胶片（素材江湖）
# Color profile: C:\Program Files (x86)\Common Files\Adobe\Color\Profiles\Recommended\VideoHD.icc
LUT_3D_SIZE 8
DOMAIN_MIN 0.000000 0.000000 0.000000
DOMAIN_MAX 0.903226 0.903226 0.903226
0.000000 0.011994 0.014374
0.013794 0.024567 0.022339
0.253178 0.000000 0.039857
0.587121 0.000000 0.023133
0.901396 0.000000 0.000000
1.000000 0.000000 0.000000
1.000000 0.000000 0.043641
1.000000 0.189822 0.194186
0.000000 0.088533 0.052674
0.000000 0.081788 0.054536
0.241428 0.088350 0.030854
0.565423 0.000000 0.000061
0.882170 0.000000 0.000000
1.000000 0.000000 0.000000
1.000000 0.000000 0.000000
1.000000 0.227481 0.179171
0.000000 0.237125 0.114870
0.000000 0.238041 0.107393
0.162387 0.213138 0.124636
0.562249 0.287480 0.000000
0.872160 0.283543 0.000000
1.000000 0.291875 0.000000
1.000000 0.337255 0.000000
1.000000 0.394842 0.183444
0.000000 0.499245 0.221042
0.000000 0.501122 0.211704
0.000000 0.490791 0.184909
0.438056 0.475166 0.263249
0.830533 0.580102 0.109529
1.000000 0.574090 0.000000
1.000000 0.556909 0.000000
1.000000 0.556390 0.179141
0.000000 0.737118 0.410742
0.000000 0.737209 0.407263
0.000000 0.732631 0.389899
0.495308 0.719112 0.384161
0.692439 0.697902 0.472999
0.922972 0.741085 0.430121
1.000000 0.724941 0.230961
1.000000 0.699001 0.203372
0.000000 0.855741 0.598016
0.000000 0.857176 0.605127
0.355230 0.853544 0.604150
0.561913 0.843931 0.587091
0.740108 0.830167 0.604334
0.846372 0.818723 0.669978
0.963073 0.835142 0.664942
1.000000 0.821378 0.548577
0.537835 0.907652 0.747524
0.560479 0.907073 0.750118
0.630610 0.903746 0.756527
0.699733 0.899046 0.748287
0.786893 0.891508 0.733639
0.871458 0.883574 0.759976
0.923064 0.877501 0.796780
0.982391 0.884459 0.794644
0.759396 0.940459 0.846128
0.766720 0.940032 0.847257
0.795743 0.938598 0.852476
0.827176 0.937072 0.853971
0.853239 0.932433 0.843076
0.898131 0.929656 0.839719
0.938628 0.925841 0.857053
0.965148 0.921416 0.871946
0.000000 0.031769 0.088777
0.000000 0.035462 0.077729
0.236454 0.000000 0.071107
0.543816 0.000000 0.017609
0.869993 0.000000 0.000000
1.000000 0.000000 0.000000
1.000000 0.000000 0.000000
1.000000 0.187839 0.170474
0.000000 0.091279 0.100404
0.000000 0.097078 0.101106
0.231754 0.099428 0.093172
0.542840 0.000000 0.019471
0.864347 0.000000 0.000000
1.000000 0.000000 0.000000
1.000000 0.000000 0.000000
1.000000 0.231937 0.159640
0.000000 0.237430 0.160586
0.000000 0.243198 0.155673
0.174319 0.227024 0.163577
0.551537 0.288640 0.022675
0.854887 0.294774 0.000000
1.000000 0.307225 0.000000
1.000000 0.335729 0.000000
1.000000 0.386664 0.155428
0.000000 0.487098 0.261723
0.000000 0.490181 0.255283
0.000000 0.488045 0.232364
0.423804 0.464515 0.288731
0.803159 0.559686 0.176394
1.000000 0.557488 0.000000
1.000000 0.544610 0.000000
1.000000 0.545769 0.140108
0.000000 0.731411 0.435218
0.000000 0.730709 0.431037
0.000000 0.726711 0.414466
0.483009 0.710262 0.399451
0.677516 0.687221 0.480049
0.913298 0.733547 0.440986
1.000000 0.720638 0.268742
1.000000 0.693965 0.176822
0.000000 0.851133 0.602838
0.000000 0.850614 0.604517
0.334386 0.847898 0.606806
0.550103 0.839048 0.592370
0.732387 0.826261 0.607813
0.842130 0.816464 0.674830
0.960143 0.833768 0.670192
1.000000 0.820493 0.559686
0.519371 0.905516 0.745144
0.537652 0.904387 0.745541
0.611200 0.901030 0.751369
0.689662 0.896422 0.746334
0.781613 0.889494 0.734432
0.867887 0.881651 0.759396
0.919799 0.875120 0.795132
0.980499 0.882322 0.792538
0.749722 0.939208 0.843534
0.758938 0.938994 0.845396
0.788602 0.937438 0.850401
0.823728 0.935851 0.853239
0.857664 0.933562 0.848936
0.899199 0.930144 0.843107
0.938415 0.925719 0.858457
0.964904 0.921324 0.873106
0.000000 0.075990 0.193942
0.000000 0.078035 0.190249
0.174594 0.081880 0.174319
0.526879 0.000000 0.189181
0.871397 0.000000 0.176425
1.000000 0.000000 0.130678
1.000000 0.177493 0.000000
1.000000 0.287846 0.172549
0.000000 0.114046 0.212680
0.000000 0.119295 0.215824
0.189670 0.128267 0.199161
0.532036 0.000000 0.205539
0.861082 0.000000 0.191623
1.000000 0.000000 0.147219
1.000000 0.233219 0.000000
1.000000 0.313970 0.163760
0.000000 0.241184 0.271427
0.000000 0.249027 0.274113
0.210147 0.278752 0.285435
0.547631 0.300694 0.276310
0.854185 0.323552 0.248386
1.000000 0.363470 0.201511
1.000000 0.397864 0.101534
1.000000 0.423987 0.155398
0.000000 0.504326 0.406378
0.000000 0.509392 0.405615
0.000000 0.524559 0.394476
0.462470 0.510948 0.420233
0.825925 0.585443 0.368078
0.999573 0.585321 0.326818
1.000000 0.581109 0.270573
1.000000 0.566003 0.153323
0.000000 0.734524 0.538384
0.000000 0.734859 0.536400
0.000000 0.736538 0.531823
0.502098 0.726467 0.512963
0.697719 0.710475 0.578576
0.913390 0.750881 0.552239
1.000000 0.738582 0.458137
1.000000 0.714382 0.378637
0.000000 0.850309 0.657710
0.000000 0.850004 0.659022
0.376257 0.847257 0.662654
0.572381 0.840238 0.656886
0.738857 0.828397 0.659022
0.843778 0.821103 0.717617
0.956451 0.839292 0.715755
1.000000 0.828702 0.634852
0.536004 0.905608 0.770321
0.553307 0.904601 0.770687
0.620905 0.901183 0.774166
0.708095 0.896422 0.776669
0.788785 0.890013 0.766323
0.871031 0.883268 0.783536
0.921752 0.878660 0.816739
0.980011 0.887022 0.815122
0.746426 0.939635 0.850278
0.753597 0.939086 0.850980
0.783902 0.937469 0.855375
0.830533 0.935943 0.863676
0.861967 0.933837 0.859831
0.901427 0.931121 0.853788
0.939849 0.927245 0.867735
0.965393 0.923247 0.881285
0.000000 0.109316 0.369665
0.000000 0.111788 0.371252
0.190280 0.112917 0.367193
0.414130 0.105348 0.355810
0.792813 0.000000 0.402869
1.000000 0.000000 0.377966
1.000000 0.293126 0.395636
1.000000 0.376928 0.343572
0.000000 0.143526 0.395605
0.000000 0.151980 0.398016
0.200870 0.157015 0.392950
0.430091 0.165164 0.380224
0.798398 0.062409 0.420325
1.000000 0.000000 0.398932
1.000000 0.340520 0.410254
1.000000 0.405524 0.356786
0.000000 0.261387 0.438483
0.000000 0.266117 0.441230
0.155856 0.292607 0.461280
0.459297 0.324865 0.450843
0.814725 0.343420 0.482612
1.000000 0.421881 0.494850
1.000000 0.495674 0.482704
1.000000 0.510338 0.417639
0.000000 0.485023 0.536950
0.000000 0.489906 0.538598
0.000000 0.513725 0.549035
0.499397 0.562310 0.575372
0.795682 0.594079 0.579492
0.963012 0.620630 0.575036
1.000000 0.637476 0.554711
1.000000 0.631312 0.496010
0.000000 0.744747 0.672969
0.000000 0.745144 0.672602
0.000000 0.745449 0.668360
0.529961 0.748226 0.666499
0.722316 0.739162 0.690578
0.914092 0.772519 0.679072
1.000000 0.768368 0.655451
1.000000 0.754238 0.610895
0.124910 0.853544 0.742519
0.255467 0.854459 0.745510
0.433875 0.851255 0.744656
0.618860 0.846921 0.747738
0.757504 0.837552 0.737789
0.852995 0.832242 0.780056
0.954437 0.849393 0.778470
1.000000 0.840726 0.727779
0.545495 0.905882 0.806882
0.565087 0.905303 0.807767
0.633509 0.902525 0.810849
0.730526 0.898253 0.817624
0.806943 0.893187 0.815732
0.877989 0.887358 0.819883
0.924895 0.883909 0.845731
0.979644 0.893309 0.843473
0.738674 0.941680 0.863737
0.746883 0.941222 0.864469
0.778744 0.939483 0.867918
0.828489 0.937163 0.874998
0.869902 0.935180 0.878050
0.904723 0.932677 0.873075
0.941833 0.929656 0.881804
0.966430 0.926635 0.894530
0.000000 0.157748 0.575372
0.000000 0.159640 0.577203
0.110414 0.162081 0.577050
0.454902 0.156466 0.576043
0.682673 0.184604 0.572808
0.945251 0.320745 0.608942
1.000000 0.389563 0.602014
1.000000 0.506340 0.613153
0.000000 0.194369 0.592035
0.000000 0.196628 0.593744
0.125399 0.200595 0.592950
0.462989 0.203738 0.589380
0.689418 0.240879 0.585962
0.943114 0.362493 0.619348
1.000000 0.425330 0.613458
1.000000 0.534813 0.627832
0.000000 0.295354 0.612970
0.000000 0.297642 0.617609
0.000000 0.321630 0.631647
0.474861 0.343481 0.631495
0.699245 0.395636 0.626215
0.928069 0.483223 0.652430
1.000000 0.531365 0.651118
1.000000 0.615015 0.668330
0.000000 0.477974 0.666102
0.000000 0.480751 0.666560
0.000000 0.494667 0.670649
0.455665 0.542565 0.692103
0.709529 0.596429 0.694179
0.912566 0.640162 0.714107
1.000000 0.683345 0.725673
1.000000 0.699886 0.705379
0.000000 0.691127 0.732021
0.000000 0.693782 0.733028
0.000000 0.703487 0.736477
0.478920 0.722835 0.745510
0.730495 0.752865 0.764553
0.890501 0.770718 0.770962
0.982025 0.781918 0.768795
1.000000 0.780636 0.748592
0.000000 0.844480 0.801846
0.000000 0.844511 0.802579
0.387884 0.843595 0.804379
0.591485 0.841398 0.804898
0.751400 0.838865 0.804196
0.855314 0.837644 0.823972
0.955169 0.855344 0.825071
1.000000 0.850431 0.808164
0.526909 0.905760 0.846494
0.542107 0.904936 0.845884
0.602228 0.902251 0.844633
0.706600 0.898222 0.846342
0.810269 0.894224 0.851865
0.877317 0.889281 0.847562
0.926360 0.887633 0.869993
0.980163 0.897704 0.866514
0.679652 0.943694 0.874693
0.691005 0.943053 0.875151
0.734005 0.940703 0.877531
0.802060 0.938109 0.884092
0.865385 0.935698 0.891997
0.905364 0.933837 0.892119
0.941833 0.931334 0.895079
0.966461 0.928954 0.907225
0.000000 0.232242 0.752285
0.000000 0.234287 0.752804
0.101045 0.237827 0.750546
0.473548 0.246128 0.750454
0.716701 0.276188 0.748775
0.876890 0.362860 0.735958
0.999878 0.551873 0.752956
1.000000 0.609674 0.756039
0.000000 0.259892 0.751766
0.000000 0.261204 0.751339
0.089418 0.265843 0.749935
0.467994 0.275608 0.749203
0.710292 0.306462 0.746822
0.870573 0.389227 0.736324
0.994903 0.564080 0.754513
1.000000 0.618585 0.757931
0.000000 0.345800 0.766384
0.000000 0.347234 0.767941
0.000000 0.375433 0.770779
0.469642 0.389380 0.766690
0.711543 0.427741 0.764431
0.864378 0.506462 0.757137
0.981994 0.631708 0.775387
1.000000 0.671962 0.778470
0.000000 0.499153 0.781003
0.000000 0.499794 0.779934
0.000000 0.509300 0.781857
0.462226 0.559411 0.795499
0.713924 0.597986 0.795926
0.857542 0.658350 0.794369
0.965515 0.725368 0.810513
1.000000 0.747127 0.811978
0.000000 0.669978 0.808621
0.000000 0.671199 0.808316
0.000000 0.677363 0.807828
0.411841 0.690791 0.808042
0.691585 0.727626 0.818997
0.846921 0.766506 0.824308
0.953826 0.792813 0.837186
1.000000 0.807340 0.840940
0.000000 0.812985 0.839261
0.000000 0.814420 0.840146
0.330358 0.816312 0.840513
0.541161 0.820371 0.842283
0.720089 0.828122 0.847288
0.863310 0.845884 0.862150
0.949798 0.856718 0.868711
1.000000 0.859129 0.864775
0.492439 0.903502 0.883085
0.515801 0.903258 0.883543
0.589258 0.901579 0.883909
0.697200 0.899168 0.885466
0.801358 0.897246 0.887083
0.881163 0.895476 0.886900
0.931823 0.894865 0.896361
0.984527 0.905730 0.894377
0.667903 0.945098 0.904967
0.675532 0.944579 0.904631
0.709194 0.942901 0.904051
0.766964 0.940459 0.903838
0.837430 0.937530 0.905364
0.903716 0.935973 0.911833
0.941375 0.934417 0.910643
0.967681 0.933410 0.923217
0.000000 0.343999 0.867918
0.000000 0.346746 0.868254
0.287999 0.352483 0.866514
0.521843 0.366308 0.863890
0.725338 0.393622 0.858915
0.889433 0.446326 0.855192
0.972015 0.541833 0.834714
1.000000 0.680720 0.834531
0.000000 0.362860 0.865446
0.000000 0.365789 0.866026
0.280583 0.371313 0.864439
0.514366 0.383185 0.861326
0.718044 0.409247 0.856382
0.882078 0.459266 0.852140
0.966125 0.548974 0.832273
1.000000 0.681941 0.832670
0.000000 0.425879 0.869902
0.000000 0.437507 0.869535
0.273259 0.454353 0.867643
0.511711 0.467414 0.864561
0.712978 0.493202 0.859525
0.873472 0.541436 0.855283
0.955749 0.618860 0.841611
1.000000 0.726619 0.845335
0.000000 0.539391 0.871305
0.000000 0.540246 0.870909
0.000000 0.549828 0.871000
0.502586 0.591455 0.870176
0.705135 0.613764 0.866423
0.861143 0.654353 0.862852
0.939971 0.712154 0.856413
0.993133 0.781033 0.862638
0.000000 0.672694 0.876188
0.000000 0.672023 0.875212
0.000000 0.672572 0.872740
0.368353 0.675563 0.869169
0.678187 0.718746 0.872251
0.840635 0.745815 0.870909
0.924559 0.786404 0.870207
0.986786 0.824430 0.880552
0.000000 0.798306 0.886931
0.000000 0.798703 0.886778
0.294499 0.799649 0.885924
0.485725 0.801419 0.884306
0.654231 0.804257 0.881865
0.830228 0.825101 0.886717
0.924071 0.850065 0.892332
0.985687 0.865232 0.900633
0.445563 0.880797 0.902983
0.466835 0.880888 0.903166
0.535912 0.880430 0.903014
0.641840 0.880095 0.903105
0.754910 0.880644 0.903593
0.854185 0.885039 0.906371
0.933257 0.898405 0.916106
0.983307 0.907042 0.919799
0.625299 0.943603 0.930877
0.636683 0.943267 0.930877
0.681636 0.942107 0.931060
0.749111 0.940002 0.931029
0.823636 0.938293 0.931609
0.889189 0.938384 0.932891
0.940246 0.939086 0.933989
0.969787 0.939452 0.940612
0.400763 0.518242 0.935363
0.426093 0.520439 0.935180
0.508019 0.524620 0.933349
0.634943 0.537469 0.930541
0.771969 0.558556 0.926024
0.892699 0.592065 0.919768
0.979278 0.632502 0.916045
1.000000 0.693599 0.895079
0.396857 0.529320 0.933928
0.422095 0.531792 0.933776
0.505394 0.536339 0.932219
0.631281 0.547845 0.929412
0.768215 0.567681 0.924956
0.889250 0.599817 0.918853
0.976043 0.638117 0.914916
1.000000 0.696986 0.894377
0.389654 0.577722 0.932494
0.423774 0.584161 0.931884
0.504326 0.587335 0.930358
0.630762 0.599756 0.928344
0.762814 0.614893 0.923949
0.880522 0.640620 0.918029
0.966155 0.675563 0.914244
1.000000 0.726314 0.896605
0.257450 0.622095 0.932372
0.306615 0.625635 0.932128
0.442115 0.638422 0.930632
0.619867 0.671931 0.926757
0.751675 0.684352 0.923217
0.867369 0.704707 0.918425
0.951568 0.733883 0.914794
0.990600 0.772396 0.902190
0.000000 0.701534 0.931151
0.000000 0.702052 0.930999
0.269505 0.702144 0.929717
0.522057 0.717403 0.927642
0.727596 0.752468 0.923369
0.847776 0.765927 0.919585
0.935821 0.788602 0.916167
0.979675 0.817227 0.909972
0.222965 0.800626 0.932921
0.254063 0.800046 0.932494
0.354955 0.798672 0.931151
0.489082 0.797330 0.928954
0.628870 0.795682 0.925719
0.828641 0.824094 0.924834
0.925048 0.840299 0.924132
0.973571 0.862547 0.923003
0.456641 0.874388 0.939452
0.470985 0.874205 0.939269
0.526482 0.873594 0.938598
0.617365 0.872984 0.937591
0.720760 0.872648 0.936034
0.815610 0.873136 0.934051
0.914824 0.884398 0.935271
0.970092 0.902434 0.937285
0.620325 0.923949 0.948821
0.629084 0.923827 0.948730
0.665370 0.923491 0.948577
0.727291 0.923461 0.948547
0.798489 0.924285 0.948516
0.865476 0.926726 0.948730
0.923644 0.932097 0.949920
0.970581 0.943694 0.955505
