20 Preset/Japan Style/【3】LUT video cho PR-AE-FCPX/LUT VIDEO/Japan Style LUT (26).cube
# Created by Adobe Lightroom plugin Export LUT (1.24.0)
# www.johnrellis.com/lightroom/exportlut.htm
# Preset: 26日系绿偏橘（素材江湖）
# Color profile: C:\Program Files (x86)\Common Files\Adobe\Color\Profiles\Recommended\VideoHD.icc
LUT_3D_SIZE 32
DOMAIN_MIN 0.0 0.0 0.0
DOMAIN_MAX 1.0 1.0 1.0
0.035401 0.047730 0.025544
0.039063 0.047303 0.026673
0.052827 0.049104 0.026154
0.082918 0.052064 0.027344
0.104494 0.056947 0.027863
0.131167 0.059846 0.029969
0.164736 0.058808 0.030030
0.203952 0.049348 0.030335
0.247532 0.029267 0.029450
0.294743 0.000000 0.025818
0.346227 0.000000 0.021180
0.401984 0.000000 0.015137
0.460395 0.000000 0.005005
0.519280 0.000000 0.000000
0.577111 0.000000 0.000000
0.631922 0.000000 0.000000
0.682673 0.000000 0.000000
0.728481 0.000000 0.000000
0.769467 0.000000 0.000000
0.804654 0.000000 0.000000
0.837919 0.000000 0.000000
0.870451 0.000000 0.000000
0.896208 0.000000 0.000000
0.917906 0.000000 0.000000
0.936553 0.036316 0.000000
0.953155 0.140444 0.000000
0.968505 0.184848 0.000000
0.982971 0.220279 0.000000
0.996857 0.251255 0.000000
1.000000 0.281132 0.000000
1.000000 0.309575 0.000000
1.000000 0.337713 0.000000
0.036652 0.050904 0.027344
0.038636 0.050660 0.027344
0.053651 0.053468 0.026673
0.084108 0.055238 0.026886
0.105043 0.060121 0.027405
0.131655 0.062989 0.028382
0.164553 0.061219 0.028595
0.202945 0.051453 0.029084
0.245396 0.034119 0.028107
0.291966 0.002625 0.025818
0.342504 0.000000 0.021302
0.397528 0.000000 0.014405
0.455085 0.000000 0.005737
0.513909 0.000000 0.000000
0.571405 0.000000 0.000000
0.626673 0.000000 0.000000
0.677943 0.000000 0.000000
0.724269 0.000000 0.000000
0.765530 0.000000 0.000000
0.800839 0.000000 0.000000
0.834165 0.000000 0.000000
0.866056 0.000000 0.000000
0.891447 0.000000 0.000000
0.913054 0.000000 0.000000
0.931975 0.000000 0.000000
0.948760 0.125917 0.000000
0.964416 0.174075 0.000000
0.979126 0.211551 0.000000
0.993439 0.243473 0.000000
1.000000 0.274174 0.000000
1.000000 0.303410 0.000000
1.000000 0.331518 0.000000
0.045777 0.064271 0.030976
0.047059 0.065248 0.030823
0.056977 0.064149 0.030793
0.084596 0.070710 0.029297
0.106355 0.076356 0.028504
0.133608 0.078553 0.027192
0.167575 0.075929 0.027375
0.205997 0.065461 0.025544
0.248844 0.046815 0.024537
0.294713 0.017487 0.020813
0.344488 0.000000 0.016297
0.398627 0.000000 0.010407
0.455665 0.000000 0.000488
0.513603 0.000000 0.000000
0.570703 0.000000 0.000000
0.625483 0.000000 0.000000
0.676387 0.000000 0.000000
0.722408 0.000000 0.000000
0.763272 0.000000 0.000000
0.798825 0.000000 0.000000
0.832731 0.000000 0.000000
0.864012 0.000000 0.000000
0.889189 0.000000 0.000000
0.910674 0.000000 0.000000
0.929381 0.009674 0.000000
0.946288 0.129213 0.000000
0.961975 0.176028 0.000000
0.976928 0.212284 0.000000
0.991363 0.243473 0.000000
1.000000 0.273686 0.000000
1.000000 0.302159 0.000000
1.000000 0.330266 0.000000
0.064698 0.086915 0.040375
0.067964 0.087404 0.040223
0.080415 0.088319 0.039704
0.088350 0.088197 0.040620
0.108919 0.091920 0.034699
0.137362 0.095277 0.032288
0.171206 0.095644 0.029572
0.209354 0.092073 0.027558
0.251926 0.084230 0.022827
0.297673 0.058747 0.018921
0.347906 0.015534 0.011597
0.401587 0.000000 0.003265
0.458442 0.000000 0.000000
0.515618 0.000000 0.000000
0.571801 0.000000 0.000000
0.625391 0.000000 0.000000
0.675013 0.000000 0.000000
0.719966 0.000000 0.000000
0.760159 0.000000 0.000000
0.795499 0.000000 0.000000
0.829465 0.000000 0.000000
0.859556 0.000000 0.000000
0.884520 0.000000 0.000000
0.906340 0.000000 0.000000
0.925750 0.068299 0.000000
0.943420 0.143130 0.000000
0.959747 0.186130 0.000000
0.975311 0.220462 0.000000
0.990051 0.251011 0.000000
1.000000 0.278843 0.000000
1.000000 0.306157 0.000000
1.000000 0.332708 0.000000
0.088167 0.103914 0.053651
0.089387 0.104158 0.053468
0.095583 0.104921 0.052796
0.103822 0.105440 0.052094
0.111391 0.105562 0.051514
0.138155 0.109529 0.044129
0.174319 0.113161 0.034974
0.212863 0.114748 0.027253
0.254490 0.109773 0.023804
0.299779 0.101625 0.018463
0.348638 0.085725 0.011353
0.401923 0.032776 0.002319
0.457404 0.000000 0.000000
0.514244 0.000000 0.000000
0.569970 0.000000 0.000000
0.623255 0.000000 0.000000
0.673335 0.000000 0.000000
0.718624 0.000000 0.000000
0.759274 0.000000 0.000000
0.794553 0.000000 0.000000
0.829252 0.000000 0.000000
0.858427 0.000000 0.000000
0.882902 0.000000 0.000000
0.904570 0.012634 0.000000
0.924041 0.125124 0.000000
0.941772 0.170565 0.000000
0.958221 0.205325 0.000000
0.973693 0.235477 0.000000
0.988434 0.263401 0.000000
1.000000 0.289067 0.000000
1.000000 0.313115 0.000000
1.000000 0.338231 0.000000
0.101839 0.126040 0.067628
0.103273 0.126436 0.067323
0.109773 0.126680 0.066773
0.122164 0.128084 0.065034
0.131777 0.128054 0.063142
0.141573 0.127352 0.062623
0.172000 0.131380 0.051179
0.217472 0.135012 0.034150
0.259800 0.136477 0.023529
0.306371 0.134493 0.014008
0.355322 0.125032 0.006348
0.407965 0.110628 0.000000
0.462959 0.087160 0.000000
0.518883 0.012512 0.000000
0.573663 0.000000 0.000000
0.626520 0.000000 0.000000
0.675563 0.000000 0.000000
0.720363 0.000000 0.000000
0.760311 0.000000 0.000000
0.796536 0.000000 0.000000
0.830320 0.000000 0.000000
0.858610 0.000000 0.000000
0.907378 0.164248 0.000000
0.927306 0.197543 0.000000
0.944854 0.225803 0.000000
0.960754 0.250675 0.000000
0.975402 0.273472 0.000000
0.989105 0.295323 0.000000
1.000000 0.316289 0.000000
1.000000 0.336217 0.000000
1.000000 0.355291 0.000000
1.000000 0.373449 0.000000
0.123201 0.158297 0.087343
0.124483 0.158389 0.087221
0.131014 0.158816 0.086671
0.144259 0.159915 0.084627
0.163119 0.160555 0.083009
0.172366 0.159457 0.081422
0.184207 0.157504 0.079957
0.218631 0.161166 0.064729
0.273533 0.165621 0.033692
0.323003 0.166903 0.016754
0.377356 0.166842 0.000000
0.432685 0.160525 0.000000
0.487556 0.148409 0.000000
0.542046 0.133700 0.000000
0.594965 0.115358 0.000000
0.644617 0.095247 0.000000
0.690822 0.065888 0.000000
0.732906 0.051850 0.000000
0.770413 0.069734 0.000000
0.809171 0.110475 0.000000
0.842618 0.143404 0.000000
0.871122 0.174716 0.000000
0.895964 0.204074 0.000000
0.917998 0.231266 0.000000
0.937346 0.255650 0.000000
0.954192 0.277958 0.000000
0.969421 0.297429 0.000000
0.983520 0.315709 0.000000
0.996918 0.333623 0.000000
1.000000 0.350347 0.000000
1.000000 0.366857 0.000000
1.000000 0.382849 0.000000
0.145602 0.189090 0.099580
0.146670 0.189456 0.099763
0.152834 0.189578 0.099184
0.165225 0.190433 0.097993
0.183810 0.191409 0.096437
0.201266 0.191073 0.095277
0.211887 0.189456 0.094087
0.224826 0.186740 0.093416
0.258122 0.189944 0.085817
0.318700 0.195651 0.045838
0.376471 0.198337 0.016480
0.432929 0.199527 0.000000
0.491218 0.201297 0.000000
0.544762 0.193606 0.000000
0.596063 0.185336 0.000000
0.644404 0.177523 0.000000
0.689540 0.173281 0.000000
0.730556 0.173495 0.000000
0.771145 0.181765 0.000000
0.807309 0.196445 0.000000
0.838590 0.213779 0.000000
0.865934 0.233066 0.000000
0.890166 0.253208 0.000000
0.911894 0.273167 0.000000
0.931182 0.292638 0.000000
0.948180 0.310124 0.000000
0.963622 0.326268 0.000000
0.977966 0.341588 0.000000
0.991669 0.356725 0.000000
1.000000 0.371618 0.000000
1.000000 0.385840 0.000000
1.000000 0.400092 0.000000
0.171939 0.223575 0.114717
0.173220 0.223697 0.114626
0.178470 0.224002 0.114351
0.189578 0.224704 0.113375
0.207004 0.225223 0.111818
0.230991 0.226169 0.109285
0.243320 0.224338 0.108278
0.255436 0.222263 0.106935
0.269535 0.219181 0.105776
0.301457 0.221317 0.100221
0.366979 0.228885 0.066773
0.432105 0.234287 0.018952
0.488838 0.237339 0.000000
0.545647 0.241794 0.000000
0.600153 0.245762 0.000000
0.646815 0.241794 0.000000
0.690272 0.240208 0.000000
0.733516 0.244205 0.000000
0.772335 0.251987 0.000000
0.805966 0.261936 0.000000
0.835477 0.274022 0.000000
0.861631 0.287541 0.000000
0.885191 0.302098 0.000000
0.906462 0.317296 0.000000
0.925566 0.332189 0.000000
0.942626 0.345983 0.000000
0.958221 0.358892 0.000000
0.972717 0.371649 0.000000
0.986572 0.384344 0.000000
0.999969 0.396674 0.000000
1.000000 0.409033 0.000000
1.000000 0.421118 0.000000
0.201602 0.261051 0.131930
0.202823 0.260960 0.131930
0.207187 0.261082 0.131472
0.217380 0.261387 0.130465
0.232822 0.261723 0.128939
0.254246 0.262211 0.126650
0.278599 0.261509 0.124483
0.288945 0.259739 0.123171
0.301396 0.256901 0.121492
0.316228 0.253178 0.120150
0.345922 0.254307 0.115785
0.413489 0.264012 0.091310
0.482612 0.272190 0.031678
0.539239 0.278141 0.000000
0.593835 0.285069 0.000000
0.645472 0.294316 0.000000
0.695186 0.304448 0.000000
0.736995 0.309087 0.000000
0.773159 0.315038 0.000000
0.804685 0.322210 0.000000
0.832456 0.330114 0.000000
0.856992 0.338720 0.000000
0.879179 0.348363 0.000000
0.899443 0.358801 0.000000
0.918029 0.369146 0.000000
0.934905 0.379583 0.000000
0.950652 0.389837 0.000000
0.965576 0.400275 0.000000
0.979889 0.410834 0.000000
0.993774 0.421637 0.000000
1.000000 0.432532 0.000000
1.000000 0.443336 0.000000
0.231907 0.298985 0.149783
0.233188 0.299046 0.149722
0.237644 0.299413 0.149447
0.246738 0.299779 0.148531
0.261418 0.300206 0.147341
0.281224 0.300786 0.145327
0.307439 0.301244 0.142428
0.326787 0.299779 0.140475
0.338170 0.297826 0.139132
0.351720 0.294835 0.137453
0.367071 0.290288 0.135744
0.395819 0.291020 0.131258
0.461097 0.302281 0.108217
0.529290 0.312718 0.059937
0.590967 0.324071 0.000000
0.644587 0.336034 0.000000
0.693294 0.349859 0.000000
0.736538 0.365576 0.000000
0.771481 0.372656 0.000000
0.801236 0.376837 0.000000
0.827726 0.381689 0.000000
0.851469 0.387304 0.000000
0.873259 0.394049 0.000000
0.893309 0.401404 0.000000
0.911803 0.408850 0.000000
0.928740 0.416724 0.000000
0.944671 0.424506 0.000000
0.959716 0.432776 0.000000
0.974304 0.441138 0.000000
0.988342 0.449928 0.000000
1.000000 0.459022 0.000000
1.000000 0.468147 0.000000
0.267277 0.341375 0.170504
0.268467 0.341405 0.170474
0.272892 0.341466 0.169589
0.281285 0.341741 0.168978
0.294774 0.342260 0.167514
0.313054 0.342748 0.165774
0.337133 0.343328 0.163424
0.366155 0.343816 0.160250
0.379309 0.341527 0.158968
0.391333 0.339086 0.157198
0.404944 0.335485 0.155062
0.420722 0.331151 0.153353
0.473487 0.350469 0.157473
0.540642 0.366888 0.135531
0.610986 0.383673 0.099550
0.670680 0.400671 0.017884
0.715358 0.414771 0.000000
0.754299 0.428717 0.000000
0.787900 0.442206 0.000000
0.817319 0.455238 0.000000
0.840940 0.456794 0.000000
0.862333 0.458839 0.000000
0.881987 0.461128 0.000000
0.900145 0.464546 0.000000
0.917021 0.468116 0.000000
0.932799 0.471748 0.000000
0.947570 0.475563 0.000000
0.961608 0.479835 0.000000
0.975189 0.484535 0.000000
0.988525 0.489906 0.000000
1.000000 0.495735 0.000000
1.000000 0.502159 0.000916
0.315465 0.394568 0.198398
0.316045 0.394537 0.198123
0.319646 0.394171 0.197543
0.327428 0.393866 0.196201
0.338872 0.393347 0.194766
0.354955 0.392798 0.192630
0.376501 0.392645 0.189731
0.402411 0.392370 0.186740
0.427710 0.391150 0.183993
0.441260 0.391608 0.183261
0.457588 0.392157 0.182712
0.476051 0.392248 0.182437
0.495857 0.391302 0.182101
0.524620 0.393286 0.179232
0.584833 0.409430 0.160098
0.648432 0.427192 0.128206
0.702113 0.443915 0.088594
0.741573 0.456367 0.023285
0.774624 0.467689 0.000000
0.803830 0.478523 0.000000
0.829709 0.488777 0.000000
0.852628 0.496407 0.000000
0.872313 0.496986 0.000000
0.890715 0.498390 0.000000
0.907927 0.500206 0.000000
0.924010 0.502525 0.000000
0.939269 0.505119 0.000000
0.953796 0.508293 0.000000
0.967895 0.511833 0.003662
0.981628 0.516289 0.046815
0.995026 0.520958 0.088258
1.000000 0.526390 0.107332
0.355779 0.436896 0.223423
0.356451 0.436744 0.223087
0.359838 0.436652 0.222751
0.366522 0.436408 0.221622
0.377478 0.436225 0.220249
0.392157 0.436225 0.218418
0.411749 0.436774 0.216678
0.436011 0.437354 0.214115
0.464851 0.438544 0.211307
0.484688 0.437964 0.209659
0.498024 0.437995 0.208927
0.513207 0.437934 0.208164
0.529900 0.437049 0.207340
0.547143 0.434852 0.206516
0.570611 0.434638 0.203525
0.621118 0.448280 0.186160
0.677546 0.465370 0.158114
0.724788 0.480049 0.128298
0.761807 0.491768 0.103395
0.791073 0.501061 0.085725
0.817319 0.509941 0.042420
0.841306 0.519036 0.003296
0.863249 0.527947 0.000000
0.882628 0.532097 0.000000
0.899962 0.532677 0.005066
0.916289 0.533776 0.040955
0.931823 0.535180 0.076234
0.946654 0.537163 0.095308
0.960937 0.539666 0.111055
0.974975 0.542901 0.123598
0.988617 0.546715 0.138125
1.000000 0.551232 0.153628
0.403204 0.484138 0.255802
0.403815 0.483955 0.255314
0.406378 0.483497 0.254795
0.411841 0.482704 0.253239
0.420356 0.481758 0.251530
0.432715 0.480812 0.249393
0.449226 0.480323 0.246860
0.470069 0.480140 0.244053
0.494606 0.480598 0.241154
0.522972 0.481697 0.238651
0.535363 0.480385 0.237705
0.547997 0.480385 0.236942
0.561975 0.479652 0.235630
0.576379 0.477913 0.234531
0.590967 0.474434 0.232425
0.609186 0.471870 0.228458
0.651179 0.483406 0.213504
0.701198 0.498939 0.189487
0.743954 0.511650 0.164034
0.779049 0.522484 0.143709
0.805539 0.530663 0.136782
0.829923 0.538781 0.128939
0.852323 0.546777 0.121706
0.872953 0.554772 0.115511
0.892058 0.562371 0.110079
0.908873 0.563928 0.120180
0.924559 0.564477 0.132753
0.939727 0.565759 0.144045
0.954498 0.567742 0.156497
0.968902 0.570336 0.169711
0.983001 0.573816 0.183230
0.996735 0.577874 0.197848
0.445197 0.523522 0.287022
0.445960 0.523674 0.287022
0.448341 0.523400 0.286625
0.453132 0.522972 0.285466
0.461189 0.522301 0.283909
0.472084 0.521874 0.282078
0.486824 0.521721 0.280156
0.505119 0.521813 0.278172
0.526848 0.522179 0.275883
0.551171 0.522759 0.273228
0.572747 0.521904 0.271092
0.582116 0.520958 0.269322
0.592279 0.519310 0.267155
0.603204 0.516777 0.264347
0.614191 0.513115 0.261112
0.625635 0.508141 0.257542
0.640131 0.503929 0.252873
0.674861 0.512657 0.240238
0.719783 0.526787 0.219883
0.759030 0.538354 0.198276
0.792416 0.548882 0.182742
0.818631 0.557275 0.177157
0.841550 0.565118 0.174868
0.862913 0.572747 0.173373
0.882597 0.580163 0.172488
0.901061 0.587304 0.172641
0.918212 0.593774 0.174929
0.933593 0.594293 0.185977
0.948425 0.595422 0.198093
0.962860 0.597162 0.209445
0.976898 0.599481 0.222232
0.990539 0.602411 0.235630
0.483406 0.557549 0.318364
0.484230 0.557488 0.318090
0.486152 0.557305 0.317784
0.490242 0.556970 0.317052
0.497047 0.556573 0.315679
0.506554 0.556207 0.314122
0.518914 0.555840 0.312169
0.534356 0.555779 0.310277
0.552667 0.555810 0.308049
0.573327 0.556023 0.305577
0.596155 0.556420 0.302708
0.609979 0.554650 0.300664
0.618372 0.553399 0.298558
0.627253 0.551141 0.295659
0.636408 0.548028 0.292424
0.645960 0.543847 0.288243
0.655695 0.538567 0.284154
0.667536 0.533593 0.279240
0.695888 0.539879 0.269169
0.736995 0.552941 0.252567
0.773342 0.563989 0.235111
0.804959 0.574029 0.222446
0.831266 0.582513 0.216068
0.852964 0.589960 0.217288
0.873167 0.597131 0.218540
0.892058 0.604150 0.221042
0.909850 0.610925 0.223972
0.926665 0.617609 0.228672
0.942351 0.622065 0.236362
0.956847 0.623255 0.248051
0.971038 0.624903 0.260685
0.984680 0.627222 0.274479
0.520409 0.589624 0.352483
0.521080 0.589685 0.352514
0.540581 0.605035 0.371221
0.544060 0.604852 0.370397
0.549371 0.604395 0.369329
0.557031 0.603815 0.367498
0.566705 0.603235 0.365667
0.579126 0.602594 0.363134
0.593774 0.602289 0.361059
0.610742 0.602045 0.358434
0.629450 0.601892 0.355779
0.649653 0.601556 0.352453
0.656001 0.598444 0.349493
0.662440 0.595636 0.345525
0.669123 0.592035 0.341009
0.675990 0.587671 0.336248
0.683192 0.582208 0.330327
0.690700 0.576104 0.324315
0.699367 0.569665 0.318395
0.721462 0.572839 0.309026
0.758236 0.584405 0.295140
0.791348 0.594171 0.280980
0.820615 0.602930 0.269535
0.846281 0.610742 0.261967
0.866056 0.616907 0.264652
0.884672 0.622889 0.267399
0.902312 0.628626 0.270115
0.919066 0.634394 0.274327
0.935088 0.640314 0.280247
0.950591 0.646296 0.287205
0.964904 0.649439 0.298528
0.978485 0.651087 0.312169
0.557061 0.621607 0.392554
0.558862 0.622950 0.394324
0.561761 0.624231 0.396002
0.566125 0.625208 0.397131
0.571679 0.625757 0.397162
0.578424 0.625635 0.396399
0.586969 0.625177 0.394659
0.597345 0.624506 0.392218
0.609857 0.623926 0.389837
0.624018 0.623529 0.387366
0.640101 0.623194 0.384771
0.657618 0.622827 0.381659
0.671687 0.620539 0.378210
0.677180 0.618250 0.374792
0.682979 0.615320 0.370733
0.689021 0.611749 0.365972
0.695552 0.607568 0.360998
0.702419 0.602777 0.355901
0.709865 0.597467 0.350408
0.717830 0.591821 0.345373
0.737148 0.594110 0.337438
0.771176 0.605524 0.327214
0.802365 0.615259 0.316167
0.830472 0.623438 0.305699
0.855131 0.630884 0.299870
0.875151 0.637079 0.301213
0.893065 0.642786 0.305547
0.910094 0.648524 0.311162
0.926513 0.654292 0.317296
0.942229 0.660334 0.325444
0.957305 0.666438 0.335454
0.971649 0.672541 0.346349
0.581353 0.643275 0.422644
0.582971 0.644526 0.424720
0.585840 0.645777 0.426368
0.589532 0.646784 0.427680
0.594476 0.647364 0.427955
0.600366 0.647333 0.427192
0.607355 0.646998 0.425849
0.616205 0.646357 0.423621
0.626581 0.645777 0.421607
0.638697 0.645258 0.419074
0.652613 0.644709 0.416236
0.667781 0.644282 0.413519
0.684047 0.643519 0.409857
0.692744 0.640833 0.406531
0.697719 0.638514 0.403082
0.703151 0.635554 0.398688
0.708766 0.632105 0.394110
0.714839 0.628046 0.388891
0.721401 0.623713 0.383856
0.728481 0.619043 0.379095
0.736049 0.614008 0.374212
0.753414 0.615808 0.367163
0.783505 0.625788 0.359564
0.813016 0.635309 0.351202
0.839841 0.643061 0.341711
0.863432 0.650294 0.338354
0.884092 0.656367 0.337316
0.901396 0.662104 0.343999
0.917998 0.667964 0.351934
0.933989 0.673945 0.360906
0.949371 0.680049 0.371344
0.963867 0.686213 0.383215
0.604456 0.664179 0.453986
0.605921 0.665187 0.455665
0.608209 0.666194 0.457343
0.611261 0.667048 0.458503
0.615351 0.667567 0.458869
0.620386 0.667506 0.458137
0.626398 0.667201 0.456886
0.633753 0.666712 0.455146
0.642817 0.666194 0.452888
0.653193 0.665644 0.450568
0.665126 0.665187 0.448280
0.678279 0.664698 0.445624
0.692531 0.664057 0.442481
0.707210 0.662776 0.438697
0.711849 0.660243 0.435584
0.716670 0.658015 0.432166
0.722042 0.655512 0.428443
0.727840 0.652705 0.424689
0.734188 0.649775 0.421088
0.741115 0.646632 0.417548
0.748470 0.643336 0.414252
0.756252 0.639612 0.411139
0.772030 0.641566 0.406500
0.798825 0.650752 0.402258
0.826780 0.660365 0.397742
0.852293 0.668208 0.391913
0.875212 0.675227 0.389990
0.896513 0.681483 0.389288
0.913146 0.687617 0.399634
0.929107 0.693751 0.410956
0.944366 0.699886 0.422827
0.958679 0.706081 0.435828
0.633021 0.690150 0.496834
0.633631 0.690547 0.497627
0.634821 0.690761 0.497902
0.636713 0.690852 0.497749
0.639460 0.690669 0.496986
0.643091 0.690303 0.495796
0.647974 0.689784 0.494209
0.654200 0.689265 0.492409
0.661585 0.688777 0.490547
0.670558 0.688380 0.488441
0.680690 0.687984 0.486397
0.692073 0.687587 0.484077
0.704463 0.687007 0.481270
0.717861 0.686336 0.477852
0.727993 0.684108 0.474434
0.732143 0.682185 0.471199
0.736660 0.679866 0.467353
0.741634 0.677394 0.463539
0.746944 0.674708 0.459815
0.752682 0.671748 0.455726
0.758907 0.668513 0.451820
0.765530 0.665034 0.448249
0.772427 0.661189 0.444221
0.786191 0.662074 0.439185
0.809689 0.669642 0.436042
0.836118 0.678889 0.433356
0.860594 0.686702 0.430243
0.883116 0.693660 0.429389
0.903868 0.700191 0.431342
0.921233 0.706416 0.440345
0.936492 0.712856 0.453773
0.950927 0.719203 0.467689
0.652247 0.708431 0.527794
0.652796 0.708736 0.528191
0.653834 0.708949 0.528557
0.655482 0.709041 0.528405
0.657771 0.708949 0.528099
0.660914 0.708675 0.527153
0.665064 0.708278 0.525780
0.670375 0.707820 0.524224
0.676783 0.707454 0.522545
0.684443 0.707118 0.520867
0.693263 0.706722 0.518853
0.703120 0.706477 0.516808
0.714046 0.706020 0.514366
0.725795 0.705531 0.511559
0.738491 0.704952 0.508598
0.744778 0.702663 0.505791
0.748928 0.700954 0.502678
0.753414 0.699062 0.499611
0.758267 0.696925 0.496223
0.763485 0.694575 0.493050
0.769100 0.692073 0.489754
0.775143 0.689296 0.486275
0.781460 0.686244 0.483009
0.788022 0.682887 0.479591
0.798337 0.680049 0.469032
0.819120 0.686519 0.466835
0.844388 0.695766 0.466438
0.867979 0.703731 0.466011
0.890227 0.710811 0.466255
0.910430 0.717708 0.471015
0.928557 0.724178 0.478920
0.943175 0.731014 0.494453
0.673579 0.729458 0.563836
0.674250 0.729946 0.564752
0.675135 0.730129 0.564904
0.676295 0.729915 0.564416
0.677852 0.729519 0.563409
0.680201 0.728878 0.561700
0.683223 0.728023 0.559594
0.687160 0.727169 0.557366
0.692226 0.726345 0.555108
0.698329 0.725551 0.552605
0.705440 0.724758 0.550072
0.713802 0.724056 0.547356
0.722957 0.723384 0.544701
0.733150 0.722530 0.541344
0.744045 0.721675 0.537926
0.754940 0.719936 0.534386
0.758419 0.717891 0.530968
0.762325 0.716091 0.527855
0.766659 0.714290 0.524987
0.771481 0.712551 0.522423
0.776669 0.710689 0.520043
0.782193 0.708583 0.517479
0.787930 0.705989 0.514244
0.793729 0.703029 0.510826
0.799771 0.699489 0.506828
0.810849 0.699214 0.502068
0.829068 0.704524 0.500450
0.853056 0.713466 0.501610
0.875822 0.721340 0.503044
0.897459 0.728389 0.504753
0.917113 0.735439 0.511009
0.935576 0.741970 0.517693
0.688167 0.744594 0.588983
0.688838 0.745022 0.589654
0.689601 0.745296 0.590143
0.690730 0.745296 0.589990
0.692348 0.745144 0.589471
0.694575 0.744869 0.588525
0.697566 0.744533 0.587427
0.701411 0.744228 0.586297
0.706142 0.743832 0.584894
0.711788 0.743557 0.583459
0.718288 0.743191 0.581811
0.725734 0.742824 0.579828
0.733913 0.742336 0.577722
0.742916 0.741726 0.575128
0.752621 0.740963 0.571954
0.763027 0.740139 0.568780
0.770657 0.738033 0.565637
0.774044 0.736446 0.562737
0.777859 0.734890 0.560204
0.782162 0.733425 0.557885
0.786831 0.731899 0.555749
0.791897 0.730251 0.553704
0.797116 0.728328 0.551324
0.802548 0.726009 0.548791
0.808225 0.723415 0.545830
0.814054 0.720394 0.542687
0.824216 0.720241 0.539269
0.840391 0.724880 0.539147
0.863493 0.734096 0.543084
0.885374 0.742245 0.547112
0.906126 0.749569 0.551568
0.925048 0.756527 0.558679
0.704646 0.762142 0.618402
0.704921 0.762387 0.618708
0.705440 0.762448 0.618830
0.706416 0.762387 0.618494
0.707790 0.762203 0.617945
0.709621 0.761929 0.617151
0.712276 0.761563 0.616052
0.715480 0.761227 0.614832
0.719478 0.760891 0.613642
0.724422 0.760586 0.612268
0.730098 0.760220 0.610712
0.736568 0.759945 0.609186
0.743893 0.759548 0.607263
0.751858 0.759060 0.605035
0.760555 0.758419 0.602380
0.769955 0.757717 0.599481
0.780117 0.757015 0.596429
0.784787 0.754910 0.594049
0.788235 0.753628 0.591791
0.792111 0.752438 0.589837
0.796384 0.751186 0.588128
0.800870 0.749874 0.586481
0.805661 0.748287 0.584405
0.810636 0.746395 0.582269
0.815732 0.744259 0.579889
0.821103 0.741726 0.577081
0.826719 0.739040 0.574243
0.836027 0.738674 0.571496
0.850370 0.742641 0.572229
0.872709 0.752041 0.578241
0.893828 0.760494 0.584497
0.913695 0.768124 0.591211
0.719051 0.778073 0.644587
0.719356 0.778256 0.644923
0.719844 0.778378 0.645045
0.720699 0.778439 0.645045
0.722042 0.778470 0.644953
0.724056 0.778561 0.644739
0.726925 0.778836 0.644892
0.730343 0.779263 0.645319
0.734676 0.779812 0.645716
0.739651 0.780453 0.646265
0.745418 0.781125 0.646784
0.751827 0.781735 0.646937
0.758785 0.782223 0.646937
0.766323 0.782498 0.646265
0.774380 0.782528 0.645167
0.782895 0.782254 0.643275
0.792081 0.781857 0.641138
0.800900 0.780575 0.639094
0.804074 0.779629 0.637446
0.807584 0.778744 0.636133
0.811429 0.777829 0.634882
0.815488 0.776852 0.633692
0.819821 0.775601 0.632166
0.824277 0.774136 0.630640
0.828946 0.772457 0.628687
0.833799 0.770474 0.626642
0.838926 0.768307 0.624384
0.844297 0.766018 0.622278
0.852811 0.765652 0.620569
0.865263 0.768887 0.622034
0.886259 0.778164 0.630030
0.905791 0.786435 0.638300
0.738888 0.799680 0.681422
0.738979 0.799710 0.681392
0.739223 0.799649 0.681270
0.739834 0.799557 0.680964
0.740841 0.799405 0.680476
0.742306 0.799252 0.679957
0.744350 0.799100 0.679377
0.747005 0.799039 0.678798
0.750240 0.799008 0.678309
0.754208 0.799039 0.677760
0.758694 0.799069 0.677211
0.763973 0.799161 0.676600
0.769833 0.799222 0.675776
0.776272 0.799191 0.674769
