20 Preset/Japan Style/【3】LUT video cho PR-AE-FCPX/LUT VIDEO/Japan Style LUT (7).cube
# Created by Adobe Lightroom plugin Export LUT (1.24.0)
# www.johnrellis.com/lightroom/exportlut.htm
# Preset: 07日系基础色（素材江湖）
# Color profile: C:\Program Files (x86)\Common Files\Adobe\Color\Profiles\Recommended\VideoHD.icc
LUT_3D_SIZE 8
DOMAIN_MIN 0.000000 0.000000 0.000000
DOMAIN_MAX 0.903226 0.903226 0.903226
0.000000 0.000000 0.000000
0.210178 0.073304 0.039582
0.407050 0.152346 0.115877
0.598810 0.211063 0.146731
0.785580 0.269474 0.177340
0.922820 0.326604 0.223789
1.000000 0.375006 0.273991
1.000000 0.427100 0.337957
0.000000 0.195132 0.121981
0.212863 0.203067 0.099458
0.420203 0.229038 0.102846
0.617395 0.267247 0.139010
0.804379 0.312810 0.174105
0.935882 0.357031 0.226596
1.000000 0.396582 0.278447
1.000000 0.443183 0.343816
0.000000 0.337560 0.224430
0.173770 0.338811 0.220554
0.389105 0.364324 0.210269
0.601434 0.389715 0.197635
0.794583 0.417578 0.189364
0.927184 0.434272 0.209384
1.000000 0.449256 0.266117
1.000000 0.479530 0.336339
0.000000 0.475746 0.316075
0.154391 0.477760 0.314794
0.356420 0.488441 0.310002
0.569909 0.515435 0.304936
0.766262 0.533288 0.297826
0.903929 0.535271 0.297856
1.000000 0.536797 0.294255
1.000000 0.547570 0.334813
0.139803 0.607111 0.401862
0.209384 0.607660 0.400336
0.358129 0.608331 0.393469
0.546868 0.632319 0.393927
0.748623 0.660090 0.401709
0.888945 0.656580 0.407416
1.000000 0.649866 0.404822
1.000000 0.641779 0.391669
0.253788 0.720760 0.471351
0.284123 0.718135 0.468116
0.389136 0.718013 0.463722
0.535180 0.724819 0.461158
0.712520 0.750027 0.474128
0.867155 0.759976 0.490608
0.978363 0.751583 0.493294
1.000000 0.741238 0.483680
0.405280 0.815244 0.547204
0.419379 0.814755 0.545769
0.477211 0.815122 0.542718
0.570764 0.815213 0.535973
0.712062 0.833280 0.553429
0.859953 0.854307 0.573083
0.971801 0.852659 0.588251
1.000000 0.838926 0.584375
0.549523 0.912352 0.629786
0.557946 0.912474 0.629267
0.591913 0.912566 0.626673
0.653346 0.912383 0.621149
0.758145 0.924193 0.635126
0.871000 0.934478 0.649165
0.984833 0.943206 0.658991
1.000000 0.923033 0.659724
0.000000 0.116670 0.263584
0.155703 0.132296 0.255314
0.395483 0.180240 0.238285
0.597314 0.251652 0.250401
0.792996 0.310704 0.240879
0.934661 0.359350 0.235660
1.000000 0.398077 0.279545
1.000000 0.444099 0.346502
0.000000 0.221744 0.278477
0.146151 0.223941 0.274083
0.382910 0.251591 0.270451
0.597925 0.291997 0.265782
0.796048 0.340459 0.257389
0.936278 0.381201 0.251743
1.000000 0.414740 0.280613
1.000000 0.457435 0.350164
0.000000 0.350988 0.315007
0.141421 0.353613 0.314061
0.366705 0.371588 0.308782
0.586267 0.398993 0.307073
0.790311 0.430915 0.303136
0.928008 0.451453 0.298375
1.000000 0.467659 0.292424
1.000000 0.493294 0.345373
0.000000 0.492317 0.373846
0.106935 0.494575 0.371679
0.345647 0.497902 0.363256
0.571679 0.529808 0.367498
0.774289 0.551690 0.369390
0.910369 0.555932 0.371191
1.000000 0.559411 0.367529
1.000000 0.560449 0.350866
0.113008 0.613458 0.434119
0.197940 0.615229 0.434119
0.355901 0.617456 0.429053
0.544488 0.639155 0.429786
0.749935 0.669276 0.441566
0.889982 0.667597 0.448676
1.000000 0.662715 0.446754
1.000000 0.655940 0.434180
0.252659 0.727077 0.495216
0.288426 0.727108 0.494881
0.392950 0.726589 0.490455
0.534264 0.729183 0.484840
0.711910 0.754391 0.500420
0.865446 0.765347 0.518090
0.976623 0.759365 0.522423
1.000000 0.751095 0.514092
0.421149 0.820310 0.568750
0.436713 0.820951 0.568841
0.491432 0.821500 0.566278
0.580011 0.821134 0.559106
0.714107 0.836393 0.572503
0.860472 0.858000 0.593133
0.972442 0.858488 0.609766
1.000000 0.846281 0.607050
0.558190 0.916228 0.644251
0.565362 0.915740 0.642939
0.598718 0.915953 0.640711
0.658656 0.915740 0.635340
0.752804 0.921447 0.639399
0.868376 0.933745 0.656641
0.983124 0.943969 0.669368
1.000000 0.924804 0.670588
0.000000 0.213260 0.457374
0.000000 0.218723 0.453590
0.285313 0.228397 0.443549
0.506981 0.260258 0.418738
0.721645 0.330510 0.429755
0.883238 0.415564 0.449134
0.994995 0.464576 0.449561
1.000000 0.493477 0.436225
0.000000 0.279454 0.459480
0.000000 0.276951 0.458564
0.283726 0.282506 0.450813
0.507744 0.298161 0.430671
0.724269 0.365301 0.444648
0.884367 0.437598 0.459663
0.997772 0.479957 0.457038
1.000000 0.506188 0.443549
0.000000 0.386175 0.471077
0.000000 0.386450 0.469642
0.270329 0.386297 0.465064
0.497292 0.396277 0.451423
0.718685 0.450843 0.470069
0.877775 0.492500 0.474617
0.992004 0.523613 0.472969
1.000000 0.543267 0.461006
0.000000 0.501183 0.489021
0.000000 0.501793 0.488808
0.277501 0.506126 0.485420
0.502373 0.520836 0.483864
0.716030 0.553246 0.494484
0.866361 0.577417 0.501915
0.982055 0.595789 0.502922
1.000000 0.607141 0.493294
0.000000 0.620813 0.523369
0.000000 0.621729 0.522850
0.307622 0.625116 0.520165
0.493233 0.628199 0.510613
0.708797 0.665034 0.530480
0.856016 0.679103 0.547112
0.971740 0.688136 0.551781
1.000000 0.690364 0.542992
0.193240 0.731319 0.562554
0.241337 0.731197 0.561852
0.373205 0.731868 0.561517
0.520256 0.731807 0.559014
0.686946 0.750942 0.571801
0.843320 0.771817 0.595300
0.957061 0.775814 0.603265
1.000000 0.774533 0.597894
0.401160 0.821347 0.610681
0.422889 0.821805 0.612421
0.496254 0.822721 0.617975
0.582605 0.823301 0.614649
0.699550 0.831937 0.617639
0.844755 0.856687 0.641749
0.958923 0.863096 0.659022
1.000000 0.855802 0.657771
0.559869 0.917296 0.678279
0.569451 0.917662 0.678767
0.601678 0.918029 0.676967
0.658289 0.917205 0.671107
0.742977 0.919463 0.667689
0.859434 0.932586 0.686641
0.973266 0.944121 0.702480
1.000000 0.929168 0.705623
0.000000 0.299413 0.618524
0.000000 0.307073 0.613672
0.000000 0.307256 0.609979
0.414099 0.322057 0.596948
0.634485 0.340368 0.572961
0.814755 0.407782 0.564752
0.948089 0.517754 0.586023
1.000000 0.603540 0.614343
0.000000 0.345464 0.612299
0.000000 0.343267 0.611231
0.000000 0.340673 0.608850
0.411170 0.348608 0.596582
0.630518 0.364294 0.574670
0.812589 0.426276 0.568994
0.945525 0.533654 0.592859
1.000000 0.611780 0.618189
0.000000 0.427863 0.619532
0.000000 0.428199 0.619013
0.000000 0.429145 0.616999
0.418097 0.437232 0.608515
0.625849 0.442786 0.586694
0.801450 0.488197 0.582788
0.929656 0.581689 0.611017
1.000000 0.633631 0.624231
0.000000 0.527581 0.627375
0.000000 0.528557 0.627344
0.000000 0.532738 0.625116
0.420966 0.537957 0.619287
0.625086 0.541070 0.606989
0.793332 0.590723 0.615167
0.926177 0.654383 0.642206
1.000000 0.681147 0.643061
0.000000 0.632502 0.637385
0.000000 0.633631 0.637659
0.175753 0.636225 0.637263
0.430640 0.639063 0.632441
0.621820 0.644465 0.623163
0.789914 0.686519 0.647700
0.923217 0.719081 0.663478
1.000000 0.738705 0.665583
0.000000 0.734737 0.658137
0.000000 0.732967 0.655818
0.283848 0.734371 0.654231
0.478431 0.734920 0.651179
0.635706 0.736660 0.648798
0.798367 0.769436 0.675135
0.924834 0.791287 0.691279
1.000000 0.802365 0.692531
0.321630 0.825467 0.676478
0.348882 0.825132 0.676509
0.439490 0.824765 0.677821
0.559014 0.824704 0.680659
0.673304 0.825986 0.680446
0.811795 0.849363 0.699428
0.937407 0.869108 0.725002
1.000000 0.871092 0.729030
0.499153 0.918822 0.713710
0.513085 0.918883 0.714626
0.566247 0.918883 0.718349
0.650111 0.918883 0.725307
0.730129 0.920226 0.720302
0.839719 0.929686 0.730434
0.956176 0.944457 0.753109
1.000000 0.936217 0.759640
0.000000 0.373144 0.744167
0.000000 0.377722 0.741665
0.000000 0.385840 0.738888
0.208499 0.398749 0.732387
0.531395 0.417609 0.721767
0.738827 0.434241 0.705196
0.881651 0.479774 0.673610
1.000000 0.600183 0.692561
0.000000 0.403021 0.740444
0.000000 0.404425 0.738003
0.000000 0.405829 0.736202
0.225772 0.420020 0.731960
0.532097 0.435523 0.722164
0.736690 0.449134 0.705928
0.879667 0.492531 0.675746
1.000000 0.610224 0.696071
0.000000 0.467720 0.739590
0.000000 0.467445 0.739040
0.000000 0.470710 0.738186
0.273838 0.487282 0.734768
0.537865 0.496468 0.726772
0.733455 0.506401 0.712581
0.873899 0.543847 0.685878
1.000000 0.650019 0.711635
0.000000 0.548058 0.744076
0.000000 0.549493 0.743771
0.000000 0.556695 0.741421
0.318059 0.568078 0.737026
0.548730 0.580713 0.729793
0.723171 0.589410 0.717525
0.861479 0.617060 0.698756
0.996704 0.706538 0.732113
0.000000 0.641962 0.748348
0.000000 0.642756 0.747799
0.000000 0.646296 0.745968
0.366735 0.654353 0.742092
0.576257 0.671260 0.736294
0.724392 0.677760 0.727382
0.869108 0.709987 0.727657
0.997620 0.775875 0.761898
0.000000 0.736294 0.758846
0.000000 0.736843 0.758541
0.205661 0.740139 0.757839
0.436652 0.745357 0.754025
0.603418 0.753201 0.749020
0.736049 0.756130 0.738735
0.885130 0.797391 0.762966
1.000000 0.828305 0.778225
0.000000 0.834653 0.770596
0.012146 0.835386 0.770474
0.303166 0.836820 0.768063
0.480903 0.835874 0.762325
0.634028 0.836301 0.758755
0.763973 0.839384 0.756130
0.911101 0.875212 0.793088
1.000000 0.891173 0.806943
0.342779 0.930022 0.774838
0.370428 0.929992 0.775387
0.461280 0.929686 0.777432
0.578637 0.927550 0.778836
0.705104 0.927337 0.785275
0.809415 0.927703 0.783444
0.933989 0.946044 0.811154
1.000000 0.947539 0.826291
0.000000 0.428626 0.832700
0.000000 0.431342 0.831388
0.000000 0.441810 0.830777
0.000000 0.465156 0.827054
0.398688 0.489296 0.821317
0.623804 0.507134 0.813077
0.805386 0.528099 0.802182
0.953796 0.576745 0.784817
0.000000 0.450721 0.837583
0.000000 0.453376 0.837247
0.000000 0.460487 0.835996
0.000000 0.484321 0.831968
0.409766 0.506188 0.825315
0.628321 0.521965 0.816251
0.807156 0.542504 0.805081
0.954833 0.588678 0.788113
0.000000 0.499336 0.833616
0.000000 0.500359 0.833677
0.000000 0.507042 0.832547
0.000000 0.529625 0.831052
0.434730 0.551751 0.825315
0.634821 0.565454 0.816556
0.804593 0.583246 0.806210
0.950988 0.620569 0.791623
0.000000 0.566003 0.834257
0.000000 0.568475 0.834379
0.000000 0.578027 0.832700
0.088350 0.590753 0.827909
0.477058 0.618952 0.821622
0.646479 0.629480 0.814420
0.801266 0.640955 0.806729
0.945800 0.667079 0.794491
0.000000 0.649012 0.840635
0.000000 0.650507 0.840360
0.000000 0.656306 0.838865
0.259861 0.668360 0.835142
0.516136 0.690303 0.829770
0.673976 0.705257 0.823331
0.814786 0.710536 0.816739
0.954162 0.727718 0.801724
0.000000 0.733303 0.846799
0.000000 0.733516 0.845701
0.000000 0.738216 0.844511
0.360082 0.747982 0.841825
0.548211 0.761105 0.838071
0.696590 0.772976 0.831296
0.830045 0.776181 0.820890
0.968841 0.816678 0.827176
0.000000 0.822416 0.858518
0.000000 0.822660 0.857664
0.164950 0.825742 0.856229
0.400183 0.831357 0.853117
0.565545 0.838590 0.847532
0.716426 0.846464 0.841001
0.849180 0.853880 0.835080
0.982055 0.900816 0.869749
0.000000 0.936065 0.881590
0.000000 0.936858 0.881407
0.150729 0.939055 0.878965
0.409491 0.938903 0.869230
0.599573 0.937499 0.857603
0.768643 0.936126 0.856779
0.891356 0.938781 0.858396
0.997986 0.958221 0.892546
0.000000 0.492164 0.931975
0.000000 0.494362 0.932189
0.000000 0.501701 0.930877
0.000000 0.531243 0.927337
0.318791 0.578607 0.921538
0.553979 0.597162 0.915129
0.727382 0.617639 0.906920
0.878477 0.637690 0.898283
0.000000 0.501427 0.929656
0.000000 0.503471 0.930022
0.000000 0.510094 0.928832
0.000000 0.538933 0.925200
0.325597 0.584344 0.919127
0.555077 0.602106 0.912291
0.725399 0.620600 0.903868
0.875364 0.639246 0.895140
0.000000 0.537682 0.930694
0.000000 0.538933 0.930480
0.000000 0.547906 0.928679
0.000000 0.572930 0.925017
0.360174 0.613672 0.918700
0.574975 0.635523 0.912108
0.733577 0.650721 0.905333
0.879179 0.667018 0.898924
0.000000 0.592554 0.931792
0.000000 0.595087 0.931548
0.000000 0.604974 0.929412
0.000000 0.624720 0.926299
0.408148 0.661006 0.920256
0.607111 0.687373 0.914214
0.747646 0.697108 0.908324
0.885496 0.707515 0.903349
0.000000 0.659236 0.931395
0.000000 0.660426 0.930602
0.000000 0.666560 0.928801
0.000000 0.680446 0.926238
0.434485 0.709377 0.920989
0.633967 0.738888 0.914855
0.760830 0.744381 0.909331
0.897581 0.753719 0.907927
0.000000 0.732570 0.932921
0.000000 0.733852 0.932738
0.000000 0.739254 0.931701
0.126131 0.751461 0.929473
0.462196 0.768704 0.925902
0.646418 0.789425 0.921935
0.785122 0.804318 0.916716
0.918975 0.811093 0.914214
0.000000 0.812955 0.938628
0.000000 0.814328 0.938659
0.000000 0.818845 0.937591
0.315404 0.827329 0.935760
0.513176 0.838590 0.932830
0.670222 0.852415 0.929259
0.815610 0.870878 0.925444
0.944274 0.876646 0.916533
0.000000 0.906279 0.960052
0.000000 0.907103 0.959869
0.000000 0.910674 0.959289
0.329564 0.916533 0.957000
0.520867 0.924559 0.952514
0.684138 0.934539 0.944640
0.844144 0.943633 0.935729
0.967926 0.957885 0.941436
0.000000 0.556420 1.000000
0.000000 0.557641 1.000000
0.000000 0.561334 1.000000
0.000000 0.577356 1.000000
0.200229 0.633661 0.999176
0.536797 0.682948 0.992889
0.683528 0.698207 0.988861
0.817288 0.713588 0.984222
0.000000 0.561028 1.000000
0.000000 0.562188 1.000000
0.000000 0.565942 1.000000
0.000000 0.582605 1.000000
0.208835 0.637354 0.998291
0.540063 0.686915 0.991974
0.684138 0.701045 0.987854
0.817044 0.715633 0.983215
0.000000 0.580987 1.000000
0.000000 0.581842 1.000000
0.000000 0.584955 1.000000
0.000000 0.605280 1.000000
0.253025 0.656458 0.997803
0.558404 0.706600 0.991150
0.693111 0.718288 0.987427
0.821958 0.731136 0.983337
0.000000 0.612940 1.000000
0.000000 0.613764 1.000000
0.000000 0.616541 1.000000
0.000000 0.638544 1.000000
0.291569 0.685908 0.997955
0.582391 0.737057 0.991547
0.709651 0.748745 0.988251
0.832547 0.759670 0.984924
0.000000 0.655421 1.000000
0.000000 0.655634 1.000000
0.000000 0.655421 1.000000
0.000000 0.673671 1.000000
0.275608 0.716335 0.999084
0.581323 0.761959 0.993103
0.728328 0.785611 0.989380
0.848508 0.797055 0.987396
0.000000 0.712947 1.000000
0.000000 0.712795 1.000000
0.000000 0.716121 1.000000
0.000000 0.728176 1.000000
0.174411 0.752499 1.000000
0.568780 0.794095 0.997375
0.759487 0.835813 0.993347
0.871794 0.844602 0.990326
0.000000 0.784421 1.000000
0.000000 0.785611 1.000000
0.000000 0.791165 1.000000
0.000000 0.804196 1.000000
0.324224 0.823606 1.000000
0.579217 0.846830 1.000000
0.767483 0.876646 0.997009
0.899870 0.897093 0.991577
0.000000 0.864958 1.000000
0.000000 0.866178 1.000000
0.000000 0.871244 1.000000
0.000000 0.881041 1.000000
0.415503 0.894652 1.000000
0.622400 0.911955 1.000000
0.798337 0.934630 0.998657
0.940276 0.960876 0.993744
