20 Preset/Japan Style/【3】LUT video cho PR-AE-FCPX/LUT VIDEO/Japan Style LUT (18).cube
# Created by Adobe Lightroom plugin Export LUT (1.24.0)
# www.johnrellis.com/lightroom/exportlut.htm
# Preset: 18日系清新（素材江湖）
# Color profile: C:\Program Files (x86)\Common Files\Adobe\Color\Profiles\Recommended\VideoHD.icc
LUT_3D_SIZE 5
DOMAIN_MIN 0.000000 0.000000 0.000000
DOMAIN_MAX 0.903226 0.903226 0.903226
0.000000 0.000000 0.000000
0.354406 0.109682 0.012390
0.926024 0.287785 0.106477
1.000000 0.452125 0.343084
1.000000 0.573419 0.503075
0.000000 0.267338 0.207614
0.243259 0.286442 0.182528
0.857664 0.464729 0.224796
1.000000 0.554742 0.414099
1.000000 0.640284 0.561669
0.000000 0.602045 0.471473
0.000000 0.602136 0.462531
0.551171 0.648371 0.425238
0.994934 0.760983 0.570947
1.000000 0.785946 0.684352
0.000000 0.817014 0.663355
0.079225 0.815061 0.664363
0.534997 0.804532 0.664363
0.736629 0.817075 0.641169
0.989014 0.871672 0.753872
0.499947 0.916106 0.801175
0.554559 0.914641 0.805722
0.681819 0.905333 0.813687
0.767941 0.905119 0.813962
0.889128 0.929259 0.842832
0.094942 0.000000 0.224918
0.318456 0.000000 0.246616
0.864256 0.269749 0.375097
1.000000 0.527276 0.521263
1.000000 0.639246 0.612757
0.000000 0.271519 0.291081
0.287358 0.302403 0.304387
0.811673 0.449134 0.411658
1.000000 0.597528 0.550622
1.000000 0.682765 0.642542
0.000000 0.594507 0.506249
0.000000 0.599329 0.501640
0.544305 0.625299 0.471626
0.974334 0.764248 0.626978
1.000000 0.801114 0.727871
0.000000 0.816007 0.682124
0.165713 0.814817 0.683192
0.581506 0.807553 0.697017
0.743130 0.815457 0.665980
0.984771 0.875853 0.774807
0.491188 0.916381 0.805814
0.546380 0.914672 0.809598
0.700313 0.911772 0.828458
0.788754 0.910918 0.831388
0.898405 0.934386 0.858152
0.229496 0.000000 0.558618
0.391424 0.000000 0.569207
0.757565 0.000000 0.590295
1.000000 0.482277 0.660182
1.000000 0.777218 0.805570
0.000000 0.308263 0.604547
0.341558 0.300359 0.605921
0.742519 0.277531 0.610132
1.000000 0.618952 0.711269
1.000000 0.795529 0.813962
0.000000 0.608972 0.654627
0.201938 0.619257 0.657069
0.642145 0.669184 0.672633
0.932311 0.789395 0.779324
1.000000 0.842313 0.829435
0.000000 0.819486 0.754330
0.213779 0.815518 0.749111
0.594293 0.812314 0.749966
0.770443 0.816739 0.742794
0.976715 0.891691 0.836881
0.383246 0.917449 0.820188
0.470832 0.916045 0.823514
0.668513 0.912352 0.837552
0.814786 0.912810 0.856901
0.900755 0.931762 0.869566
0.355840 0.000000 0.846616
0.461982 0.000000 0.847807
0.736812 0.000000 0.847135
1.000000 0.000000 0.803220
1.000000 0.591669 0.779660
0.298558 0.295842 0.848905
0.421332 0.291203 0.848112
0.708339 0.266667 0.844663
0.995544 0.310857 0.803342
1.000000 0.653223 0.797086
0.245365 0.616388 0.838437
0.381964 0.625788 0.836088
0.647761 0.641505 0.831937
0.901366 0.635065 0.810575
1.000000 0.807156 0.855863
0.321874 0.786770 0.832609
0.411841 0.789639 0.830930
0.626032 0.805753 0.830106
0.820371 0.834165 0.835996
0.972503 0.904906 0.900542
0.253483 0.926085 0.881010
0.362066 0.924926 0.880156
0.592340 0.921965 0.877989
0.815305 0.921965 0.887968
0.917113 0.936767 0.903197
0.418616 0.000000 0.968200
0.481575 0.000000 0.966735
0.673762 0.000000 0.962890
0.923949 0.000000 0.952178
1.000000 0.281285 0.885618
0.392187 0.257908 0.962066
0.458656 0.254948 0.960967
0.655207 0.243687 0.956970
0.906035 0.228824 0.946777
1.000000 0.376898 0.885374
0.416754 0.578088 0.945312
0.463844 0.574640 0.943786
0.625971 0.568688 0.939483
0.847410 0.553643 0.931365
1.000000 0.608484 0.891691
0.374395 0.749660 0.928038
0.436805 0.754177 0.926299
0.620020 0.777768 0.921965
0.803891 0.797360 0.917906
0.972198 0.814359 0.912474
0.421973 0.877134 0.924376
0.474678 0.879728 0.923980
0.639826 0.893278 0.925566
0.811734 0.915679 0.930816
0.943236 0.947295 0.947845
