20 Preset/Japan Style/【3】LUT video cho PR-AE-FCPX/LUT VIDEO/Japan Style LUT (29).cube
# Created by Adobe Lightroom plugin Export LUT (1.24.0)
# www.johnrellis.com/lightroom/exportlut.htm
# Preset: 29日系提亮绿色（素材江湖）
# Color profile: C:\Program Files (x86)\Common Files\Adobe\Color\Profiles\Recommended\VideoHD.icc
LUT_3D_SIZE 32
DOMAIN_MIN 0.0 0.0 0.0
DOMAIN_MAX 1.0 1.0 1.0
0.105867 0.109255 0.095613
0.105867 0.109255 0.095613
0.105867 0.109255 0.095613
0.105867 0.109255 0.095613
0.118593 0.107759 0.095552
0.141085 0.105409 0.095247
0.176730 0.103029 0.094209
0.219516 0.100099 0.092226
0.262882 0.097627 0.089296
0.307134 0.096162 0.083314
0.351568 0.092073 0.073823
0.394812 0.088380 0.062257
0.436042 0.080903 0.051514
0.474739 0.069886 0.043000
0.511101 0.057252 0.033509
0.545190 0.047608 0.024109
0.577417 0.038697 0.019623
0.608362 0.034058 0.018280
0.638544 0.033509 0.017609
0.668055 0.041444 0.022644
0.696681 0.050233 0.035859
0.727901 0.069368 0.060609
0.759792 0.088930 0.087617
0.790829 0.100679 0.100252
0.820798 0.111543 0.113771
0.850187 0.123720 0.125826
0.879088 0.136385 0.137850
0.907683 0.148257 0.151583
0.936309 0.161013 0.164126
0.964904 0.174868 0.178225
0.993500 0.189395 0.192935
1.000000 0.205081 0.208408
0.105867 0.109255 0.095613
0.105867 0.109255 0.095613
0.105867 0.109255 0.095613
0.105867 0.109255 0.095613
0.118593 0.107759 0.095552
0.141054 0.106416 0.095094
0.176699 0.104097 0.094057
0.218479 0.102235 0.091951
0.261967 0.099550 0.089082
0.305638 0.099336 0.082795
0.349706 0.096193 0.072877
0.392706 0.091493 0.061982
0.433967 0.087953 0.052094
0.472724 0.078889 0.042786
0.508934 0.069001 0.033173
0.543145 0.059541 0.024903
0.575647 0.051423 0.019135
0.606561 0.047456 0.016663
0.636713 0.045411 0.017456
0.666102 0.047669 0.023468
0.694697 0.058350 0.036530
0.725368 0.076692 0.062043
0.756588 0.092226 0.085328
0.786954 0.102663 0.099153
0.816617 0.113619 0.111330
0.845762 0.124697 0.123690
0.874571 0.135775 0.136019
0.903349 0.147280 0.149630
0.932067 0.159548 0.162325
0.960906 0.173312 0.175967
0.989746 0.187778 0.190341
1.000000 0.203494 0.206058
0.105867 0.109255 0.095613
0.105867 0.109255 0.095613
0.105867 0.109255 0.095613
0.106477 0.109194 0.095613
0.120699 0.110079 0.095094
0.143587 0.110292 0.094392
0.179355 0.110780 0.092775
0.220157 0.110475 0.090455
0.262821 0.111452 0.086305
0.306401 0.109957 0.079652
0.350317 0.107271 0.069093
0.392859 0.105928 0.058289
0.433875 0.103273 0.048432
0.472328 0.099336 0.038972
0.508507 0.095888 0.028260
0.542504 0.092042 0.021454
0.574884 0.088808 0.015839
0.605859 0.084718 0.014984
0.635950 0.082948 0.018219
0.665278 0.086824 0.023774
0.693935 0.090822 0.038148
0.724758 0.098726 0.060731
0.755489 0.106142 0.086702
0.785550 0.114656 0.099275
0.814908 0.124239 0.111574
0.843870 0.133272 0.123537
0.872587 0.143496 0.136172
0.901305 0.154452 0.149142
0.930114 0.165957 0.161501
0.959014 0.178775 0.175448
0.987945 0.191958 0.189517
1.000000 0.206912 0.204990
0.103700 0.112673 0.095094
0.104128 0.112947 0.095033
0.104891 0.113466 0.094942
0.110445 0.115023 0.094545
0.124575 0.118166 0.093599
0.148592 0.120333 0.092348
0.185000 0.124269 0.089876
0.224796 0.127108 0.086030
0.267155 0.129000 0.079713
0.310307 0.128908 0.070466
0.353246 0.128756 0.060212
0.395056 0.128115 0.050416
0.435615 0.126711 0.040253
0.473426 0.124636 0.031708
0.509117 0.121126 0.022919
0.542687 0.119844 0.015564
0.574701 0.116518 0.013031
0.605280 0.114687 0.013519
0.635096 0.114046 0.015839
0.664179 0.115145 0.025299
0.692622 0.117159 0.040162
0.723171 0.122408 0.066712
0.753292 0.128237 0.088411
0.782956 0.134768 0.101564
0.812558 0.141726 0.113405
0.841917 0.150057 0.125460
0.871214 0.159335 0.138338
0.900481 0.168704 0.150546
0.929442 0.178958 0.163638
0.958526 0.190463 0.176699
0.987182 0.202731 0.191135
1.000000 0.216037 0.205905
0.095796 0.129885 0.091890
0.096223 0.130098 0.091829
0.098665 0.130922 0.091585
0.108186 0.133394 0.090791
0.127657 0.137118 0.089357
0.157778 0.143038 0.085939
0.194553 0.148501 0.080446
0.231815 0.149935 0.074311
0.272984 0.152987 0.066468
0.314885 0.155154 0.058045
0.356909 0.156466 0.047883
0.398016 0.156466 0.037781
0.437476 0.155550 0.028992
0.475074 0.154208 0.020264
0.510460 0.152102 0.012360
0.543847 0.150179 0.008026
0.575738 0.148440 0.006165
0.606348 0.147036 0.008911
0.636011 0.146609 0.013489
0.665003 0.146792 0.025727
0.693904 0.149599 0.044770
0.724208 0.152529 0.073243
0.753780 0.156588 0.092378
0.783230 0.161196 0.105074
0.812711 0.166995 0.116640
0.842008 0.174044 0.128756
0.871244 0.180636 0.140963
0.900328 0.188724 0.153719
0.929137 0.197604 0.166537
0.957977 0.207126 0.179599
0.986511 0.218082 0.193179
1.000000 0.230350 0.208591
0.058442 0.162722 0.084810
0.060304 0.163241 0.084535
0.076326 0.163851 0.084718
0.094453 0.166506 0.082887
0.123751 0.172793 0.074800
0.161593 0.177829 0.063111
0.204532 0.184268 0.053254
0.244358 0.187198 0.046387
0.284855 0.188174 0.041627
0.323156 0.187869 0.038972
0.364385 0.188907 0.029755
0.404639 0.189120 0.020478
0.443183 0.188602 0.011536
0.479896 0.187564 0.005280
0.514580 0.186221 0.000000
0.547601 0.184787 0.000000
0.579065 0.182437 0.000092
0.609430 0.181552 0.006073
0.638849 0.181216 0.017456
0.667689 0.181155 0.036622
0.697688 0.182773 0.060639
0.727565 0.185794 0.085451
0.776577 0.195651 0.108339
0.806851 0.200504 0.121218
0.836515 0.205325 0.133425
0.865354 0.211093 0.146670
0.893706 0.216983 0.158572
0.921477 0.224277 0.171511
0.949035 0.231907 0.183688
0.976287 0.240696 0.197147
1.000000 0.250278 0.210575
1.000000 0.260929 0.224735
0.000000 0.211002 0.066255
0.000000 0.211215 0.065919
0.000000 0.211948 0.064607
0.022278 0.213443 0.064240
0.104952 0.218418 0.052399
0.156924 0.225620 0.033082
0.207614 0.230594 0.017243
0.261082 0.237522 0.000000
0.302983 0.237644 0.000000
0.344396 0.235904 0.000000
0.382177 0.232120 0.000000
0.419715 0.229984 0.000000
0.456947 0.228885 0.000000
0.492317 0.227359 0.000000
0.525780 0.224918 0.000000
0.557549 0.222995 0.000000
0.588281 0.220951 0.000458
0.618006 0.219883 0.012573
0.646967 0.219211 0.033478
0.676905 0.219486 0.057618
0.709010 0.221347 0.085451
0.740719 0.223697 0.100038
0.772030 0.227176 0.113771
0.803311 0.230869 0.126864
0.833860 0.234989 0.139101
0.863188 0.240177 0.152102
0.891600 0.244846 0.163729
0.919280 0.250553 0.175631
0.946593 0.256901 0.188022
0.973541 0.263890 0.201144
1.000000 0.271763 0.214237
1.000000 0.281041 0.228183
0.000000 0.257450 0.038025
0.000000 0.257786 0.038514
0.000000 0.258335 0.037171
0.000000 0.259342 0.036774
0.008667 0.262028 0.031495
0.132204 0.268528 0.007233
0.194583 0.276127 0.000000
0.251957 0.280400 0.000000
0.311070 0.287633 0.000000
0.353674 0.285252 0.000000
0.393469 0.281193 0.000000
0.431556 0.276249 0.000000
0.463111 0.269261 0.000000
0.497169 0.266819 0.000000
0.529870 0.264134 0.000000
0.561059 0.261326 0.000000
0.591241 0.259403 0.011536
0.620600 0.257328 0.031312
0.649989 0.256138 0.056123
0.681300 0.256931 0.083070
0.712123 0.257939 0.097414
0.742733 0.259678 0.109895
0.773190 0.261387 0.123903
0.803769 0.264103 0.135439
0.833799 0.267887 0.148440
0.862791 0.271244 0.159792
0.890959 0.275151 0.171450
0.918334 0.279606 0.183139
0.945495 0.284398 0.194491
0.972229 0.290501 0.207370
0.998688 0.297154 0.219944
1.000000 0.304814 0.233433
0.000000 0.304997 0.014679
0.000000 0.305241 0.014038
0.000000 0.305577 0.015106
0.000000 0.306615 0.015198
0.000000 0.307805 0.017609
0.081300 0.312322 0.000000
0.168948 0.318608 0.000000
0.235752 0.326299 0.000000
0.296239 0.329503 0.000000
0.357153 0.335576 0.000000
0.401923 0.332738 0.000000
0.439643 0.326299 0.000000
0.475074 0.319341 0.000000
0.506554 0.311467 0.000000
0.535241 0.305455 0.002075
0.565850 0.301976 0.020691
0.595636 0.299199 0.041321
0.625605 0.297154 0.064515
0.656458 0.296269 0.088258
0.686580 0.295842 0.100557
0.716426 0.295689 0.113069
0.746304 0.296452 0.124147
0.775967 0.297704 0.136629
0.805966 0.299779 0.147860
0.835416 0.302098 0.159274
0.863981 0.304784 0.170657
0.891661 0.307652 0.182040
0.918883 0.311009 0.192569
0.945647 0.315129 0.203922
0.972168 0.319524 0.215396
0.998230 0.325231 0.227909
1.000000 0.331487 0.240635
0.000000 0.351263 0.018952
0.000000 0.351171 0.020050
0.000000 0.351385 0.021271
0.000000 0.351873 0.023224
0.000000 0.353002 0.025147
0.000000 0.355077 0.022278
0.131594 0.360113 0.000000
0.210819 0.366155 0.000000
0.277409 0.372778 0.000000
0.337652 0.375097 0.000000
0.397894 0.378454 0.000000
0.445716 0.377081 0.000000
0.481392 0.368872 0.000000
0.514458 0.360571 0.000000
0.546197 0.353155 0.000000
0.573083 0.345129 0.027771
0.602411 0.341131 0.086824
0.633143 0.339147 0.099184
0.663294 0.337224 0.109957
0.692775 0.335912 0.120516
0.721981 0.335149 0.129854
0.750454 0.334600 0.141085
0.778988 0.334722 0.151644
0.807584 0.335576 0.161471
0.835874 0.336614 0.172000
0.863645 0.338170 0.182040
0.890990 0.340185 0.192111
0.917967 0.342626 0.202792
0.944732 0.345861 0.213504
0.971160 0.349584 0.225101
0.997345 0.354162 0.236667
1.000000 0.359564 0.248997
0.000000 0.393042 0.052308
0.000000 0.393225 0.050538
0.000000 0.393683 0.053101
0.000000 0.394079 0.055024
0.000000 0.394965 0.059358
0.000000 0.396277 0.067140
0.049714 0.399817 0.038422
0.180117 0.404761 0.000000
0.252445 0.410437 0.000000
0.317845 0.416693 0.000000
0.377905 0.418219 0.000000
0.435096 0.419562 0.000000
0.487098 0.420508 0.000000
0.521508 0.411261 0.000000
0.554528 0.403143 0.000000
0.586206 0.395575 0.000000
0.615564 0.388586 0.058259
0.641260 0.382391 0.117098
0.669459 0.379034 0.133364
0.698360 0.376837 0.142245
0.726772 0.374884 0.150912
0.754726 0.373571 0.159792
0.782895 0.373022 0.168704
0.810880 0.372656 0.177737
0.838743 0.372992 0.187137
0.866117 0.373877 0.196475
0.893095 0.375006 0.206088
0.919646 0.376654 0.215885
0.945953 0.378820 0.226352
0.972168 0.381628 0.236545
0.997833 0.385382 0.248051
1.000000 0.389685 0.259739
0.000000 0.433539 0.096407
0.000000 0.433539 0.096345
0.000000 0.433906 0.096101
0.000000 0.434455 0.097749
0.000000 0.435187 0.099641
0.000000 0.436194 0.102937
0.000000 0.438270 0.102876
0.144533 0.442695 0.079622
0.226810 0.447547 0.016358
0.294255 0.453010 0.000000
0.357794 0.458625 0.000000
0.417578 0.460700 0.000000
0.487068 0.473640 0.000000
0.543908 0.477424 0.000000
0.578424 0.467414 0.000000
0.610925 0.458137 0.000000
0.641230 0.449592 0.060700
0.670802 0.441962 0.112490
0.696803 0.435187 0.147555
0.720943 0.429633 0.176333
0.748867 0.426459 0.183749
0.776089 0.423987 0.191135
0.802914 0.421912 0.199283
0.829740 0.420600 0.206790
0.856199 0.419409 0.214908
0.881987 0.418769 0.223239
0.907225 0.418189 0.231174
0.932097 0.418372 0.239231
0.956664 0.419135 0.248203
0.981201 0.420356 0.257237
1.000000 0.422492 0.267430
1.000000 0.425330 0.278080
0.000000 0.476570 0.130465
0.000000 0.476722 0.130068
0.000000 0.476692 0.130922
0.000000 0.476844 0.132235
0.000000 0.477150 0.133486
0.000000 0.477638 0.136049
0.000000 0.478737 0.138766
0.108614 0.482490 0.132723
0.205081 0.487739 0.117586
0.275792 0.493721 0.093599
0.341222 0.500816 0.012177
0.404761 0.507683 0.000000
0.464820 0.510887 0.000000
0.523705 0.513725 0.000000
0.583795 0.519860 0.000000
0.617212 0.509422 0.000000
0.648768 0.499306 0.000000
0.677485 0.490028 0.105318
0.705684 0.481727 0.137301
0.732052 0.473945 0.162875
0.754421 0.467384 0.192508
0.777920 0.462684 0.211978
0.804532 0.459846 0.217960
0.830869 0.457618 0.225193
0.856962 0.455634 0.231785
0.882536 0.454139 0.239292
0.907683 0.453223 0.246586
0.932372 0.452461 0.254063
0.956878 0.452552 0.262150
0.981231 0.453162 0.270878
1.000000 0.454353 0.280247
1.000000 0.456489 0.290654
0.000000 0.514977 0.164309
0.000000 0.514885 0.164340
0.000000 0.514977 0.165103
0.000000 0.515007 0.165560
0.000000 0.515251 0.166842
0.000000 0.515831 0.169009
0.000000 0.516930 0.172366
0.050721 0.518822 0.173190
0.186282 0.523156 0.162478
0.257816 0.528496 0.148196
0.321233 0.534691 0.129183
0.382940 0.541558 0.101472
0.444587 0.547784 0.032288
0.502800 0.550652 0.005768
0.560021 0.552880 0.000000
0.620447 0.560082 0.000000
0.654322 0.549554 0.000000
0.684474 0.538811 0.088197
0.712276 0.528985 0.131777
0.738643 0.519860 0.161501
0.764401 0.511620 0.183230
0.787655 0.504631 0.207462
0.809415 0.499184 0.231968
0.833707 0.495613 0.244663
0.859464 0.493019 0.250767
0.884703 0.490913 0.257420
0.909545 0.489082 0.263798
0.933867 0.487648 0.270420
0.957977 0.486763 0.278202
0.981903 0.486702 0.286015
1.000000 0.487160 0.294865
1.000000 0.488411 0.304601
0.000000 0.552026 0.198032
0.000000 0.552026 0.197574
0.000000 0.551934 0.197818
0.000000 0.551843 0.198276
0.000000 0.551781 0.199161
0.000000 0.551995 0.200748
0.000000 0.552667 0.202914
0.048096 0.553979 0.205631
0.172091 0.556970 0.202182
0.243778 0.561822 0.191806
0.305913 0.567468 0.178744
0.364843 0.573907 0.162844
0.423682 0.580804 0.140444
0.482887 0.586511 0.116304
0.539391 0.588800 0.108003
0.594873 0.590478 0.094392
0.655604 0.598596 0.031861
0.689998 0.588861 0.097536
0.718776 0.577203 0.127901
0.745480 0.566278 0.157931
0.770657 0.556817 0.185214
0.795743 0.548577 0.205783
0.820706 0.541344 0.223148
0.841917 0.535332 0.247196
0.863157 0.530632 0.267948
0.887358 0.527581 0.276280
0.911864 0.525139 0.282017
0.935973 0.523095 0.288457
0.959960 0.521752 0.295506
0.983703 0.521080 0.303166
1.000000 0.521141 0.311986
1.000000 0.521843 0.321263
0.000000 0.586511 0.226902
0.000000 0.586572 0.227329
0.000000 0.586603 0.227817
0.000000 0.586694 0.227970
0.000000 0.586999 0.228641
0.000000 0.587427 0.230442
0.000000 0.588434 0.232456
0.091646 0.589776 0.235325
0.168215 0.591913 0.238163
0.236637 0.596399 0.230350
0.295781 0.601343 0.220829
0.351995 0.606897 0.208164
0.407568 0.612848 0.192447
0.463569 0.618952 0.172274
0.519585 0.622919 0.153994
0.573846 0.624323 0.147616
0.627283 0.625452 0.138918
0.688136 0.634058 0.119692
0.723262 0.625269 0.136629
0.750515 0.613153 0.160708
0.776974 0.602258 0.180301
0.801907 0.592859 0.207279
0.826596 0.584680 0.227848
0.851133 0.577325 0.244480
0.873930 0.570916 0.262608
0.894469 0.565881 0.284215
0.915221 0.562005 0.302159
0.938994 0.559289 0.307927
0.962463 0.557244 0.314305
0.985504 0.555749 0.321355
1.000000 0.554803 0.329290
1.000000 0.554559 0.338109
0.000000 0.619776 0.253788
0.000000 0.619837 0.253941
0.000000 0.619959 0.253849
0.000000 0.619989 0.254612
0.000000 0.620386 0.255253
0.000000 0.620966 0.256474
0.000000 0.621851 0.258579
0.111238 0.623102 0.261143
0.173800 0.624750 0.263890
0.230655 0.627893 0.262058
0.287022 0.632593 0.254032
0.340551 0.637781 0.244419
0.393652 0.643122 0.233219
0.446387 0.648707 0.218357
0.500481 0.654231 0.199802
0.554589 0.657404 0.186648
0.606958 0.658381 0.181704
0.658717 0.659388 0.175235
0.716945 0.666560 0.162264
0.755398 0.660761 0.171633
0.782101 0.648768 0.191165
0.808255 0.637720 0.207462
0.832883 0.628290 0.229374
0.856840 0.619959 0.250065
0.880644 0.612482 0.265660
0.903990 0.605585 0.279911
0.924285 0.599878 0.300542
0.944091 0.595636 0.319768
0.964874 0.592615 0.334081
0.987457 0.590448 0.340459
1.000000 0.588830 0.348241
1.000000 0.587732 0.356268
0.000000 0.653437 0.279454
0.000000 0.653590 0.279820
0.000000 0.664210 0.288609
0.000000 0.664454 0.289006
0.000000 0.664759 0.289464
0.000000 0.665156 0.290745
0.059632 0.665766 0.292149
0.146120 0.666773 0.294316
0.194949 0.668208 0.296574
0.237705 0.670100 0.299657
0.290654 0.674067 0.293126
0.341436 0.678370 0.285740
0.391089 0.682887 0.276066
0.441352 0.687373 0.264775
0.492042 0.691768 0.251347
0.543511 0.696132 0.234684
0.595209 0.697688 0.224796
0.645472 0.697871 0.219577
0.695216 0.697871 0.214755
0.749752 0.702510 0.205509
0.792233 0.700069 0.208774
0.817746 0.687556 0.224704
0.842679 0.676173 0.238499
0.866239 0.665736 0.256168
0.888609 0.656489 0.274632
0.910674 0.647944 0.290013
0.932280 0.640284 0.303502
0.953002 0.633509 0.318151
0.971557 0.628473 0.337865
0.990051 0.624964 0.356786
1.000000 0.622492 0.367895
1.000000 0.620661 0.375616
0.000000 0.688869 0.306340
0.000000 0.689815 0.307225
0.000000 0.691035 0.307988
0.000000 0.692073 0.309270
0.000000 0.692958 0.310430
0.000000 0.693660 0.311681
0.106996 0.694362 0.313176
0.160647 0.695125 0.314824
0.203403 0.696284 0.317082
0.241398 0.697841 0.319707
0.284672 0.700557 0.318395
0.332982 0.704372 0.312261
0.380438 0.708400 0.304265
0.427985 0.712551 0.295079
0.475868 0.716732 0.284520
0.524651 0.720821 0.271519
0.574823 0.724941 0.255863
0.624537 0.726253 0.249302
0.673793 0.726741 0.245914
0.722560 0.727169 0.241947
0.774105 0.730251 0.236515
0.821164 0.732052 0.236149
0.845914 0.719692 0.251560
0.869841 0.708064 0.264622
0.892790 0.697292 0.277012
0.914214 0.687678 0.295506
0.935241 0.678981 0.310826
0.956023 0.671107 0.324620
0.976684 0.664179 0.337072
0.995209 0.658808 0.355108
1.000000 0.654994 0.374517
1.000000 0.652491 0.393957
0.000000 0.718257 0.327733
0.000000 0.719295 0.328496
0.000000 0.720424 0.329534
0.000000 0.721462 0.330816
0.000000 0.722499 0.332006
0.078706 0.723140 0.333349
0.135439 0.723781 0.334569
0.177218 0.724514 0.336126
0.214481 0.725490 0.337957
0.249546 0.726680 0.340551
0.283299 0.728298 0.343206
0.328862 0.731655 0.338079
0.373693 0.735195 0.331670
0.418769 0.738949 0.324193
0.464240 0.742733 0.315404
0.510399 0.746609 0.304936
0.557794 0.750362 0.293065
0.606134 0.754116 0.278264
0.654444 0.755123 0.274174
0.702205 0.755550 0.271855
0.749660 0.756008 0.269200
0.798245 0.757534 0.265812
0.847074 0.761715 0.265171
0.872496 0.750179 0.277836
0.895262 0.738338 0.290257
0.917235 0.727291 0.301061
0.937835 0.717403 0.317601
0.958038 0.708583 0.332738
0.977966 0.700740 0.346990
0.997650 0.693812 0.359930
1.000000 0.687709 0.373510
1.000000 0.683650 0.393683
0.000000 0.747646 0.349523
0.000000 0.748501 0.350439
0.000000 0.749508 0.351324
0.000000 0.750454 0.352361
0.083040 0.751278 0.353613
0.126802 0.751919 0.354650
0.162844 0.752499 0.355871
0.195590 0.753170 0.357214
0.227817 0.754055 0.358984
0.259709 0.755123 0.361486
0.291142 0.756466 0.364141
0.327489 0.758633 0.363470
0.369757 0.761807 0.358221
0.412543 0.765133 0.351812
0.455726 0.768612 0.344549
0.499336 0.772213 0.336400
0.544518 0.775875 0.326818
0.590692 0.779721 0.315526
0.637934 0.783597 0.303227
0.685298 0.784787 0.301427
0.732143 0.785763 0.300725
0.778836 0.786679 0.299870
0.825040 0.787472 0.298894
0.874907 0.793240 0.299199
0.900816 0.782498 0.311040
0.922667 0.770687 0.322515
0.943694 0.759579 0.333379
0.963714 0.749508 0.347356
0.982818 0.740780 0.363226
1.000000 0.732998 0.377783
1.000000 0.725856 0.391485
1.000000 0.719448 0.404486
0.098909 0.781369 0.376654
0.102571 0.781704 0.377203
0.112337 0.782010 0.377783
0.127382 0.782315 0.378241
0.147555 0.782589 0.378790
0.170413 0.782773 0.379522
0.195377 0.783139 0.380560
0.221714 0.783658 0.381811
0.248661 0.784329 0.383368
0.276524 0.785336 0.385687
0.305455 0.786435 0.388373
0.334051 0.787900 0.391363
0.372595 0.790555 0.387091
0.412360 0.793393 0.381872
0.452735 0.796353 0.375555
0.493996 0.799466 0.368444
0.536248 0.802609 0.360510
0.579248 0.805722 0.351507
0.623560 0.808988 0.341161
0.669032 0.812131 0.329747
0.714412 0.812528 0.329717
0.759274 0.812924 0.329168
0.803922 0.813199 0.328222
0.848020 0.813291 0.327703
0.896880 0.819028 0.327947
0.922759 0.808774 0.338628
0.943511 0.797024 0.349859
0.963561 0.786007 0.360723
0.982818 0.775875 0.372625
1.000000 0.767147 0.388830
1.000000 0.759152 0.403571
1.000000 0.751858 0.417517
0.160159 0.808347 0.399908
0.162264 0.808621 0.400275
0.167422 0.808896 0.400671
0.176486 0.809171 0.401282
0.189853 0.809415 0.401831
0.206271 0.809659 0.402502
0.225315 0.809964 0.403479
0.246799 0.810391 0.404791
0.270054 0.811002 0.406500
0.294835 0.811826 0.408545
0.320256 0.812894 0.411109
0.346807 0.813962 0.414069
0.377325 0.815732 0.414069
0.414160 0.818296 0.409522
0.451575 0.820981 0.404395
0.490211 0.823667 0.398657
0.529747 0.826535 0.391943
0.570306 0.829343 0.384619
0.611566 0.832273 0.376379
0.654170 0.835111 0.366918
0.697871 0.837644 0.357610
0.741512 0.837919 0.358007
0.784787 0.838102 0.358343
0.827573 0.838163 0.358587
0.867857 0.835966 0.354620
0.916075 0.842100 0.355016
0.941741 0.832364 0.365881
0.961364 0.820768 0.377386
0.980377 0.809873 0.387976
0.998657 0.799680 0.398962
1.000000 0.790860 0.414466
1.000000 0.782864 0.429755
0.215946 0.836393 0.427344
0.218082 0.836790 0.428168
0.221317 0.837034 0.428351
0.227573 0.837064 0.428717
0.235691 0.837003 0.428901
0.247257 0.836881 0.429175
0.261051 0.836728 0.429694
0.277623 0.836698 0.430396
0.296422 0.836790 0.431495
0.316930 0.837125 0.433021
0.339025 0.837552 0.435004
0.362341 0.838224 0.437263
0.386603 0.838987 0.440192
0.418433 0.840757 0.436805
0.452674 0.842710 0.431800
0.487617 0.844816 0.426154
0.524132 0.846983 0.420050
0.561547 0.849363 0.413458
0.600214 0.851835 0.406531
0.640070 0.854459 0.398810
0.680964 0.857053 0.390234
0.722896 0.859068 0.382849
0.764706 0.859068 0.383520
0.805783 0.858885 0.384131
0.846586 0.858396 0.384649
0.886839 0.857755 0.384466
0.933684 0.863798 0.385046
0.958953 0.854490 0.395544
0.977295 0.842710 0.406226
0.994934 0.831815 0.416968
1.000000 0.821714 0.427680
1.000000 0.812619 0.441505
0.256870 0.858610 0.451026
0.258732 0.858976 0.451637
0.261601 0.859220 0.452094
0.266209 0.859373 0.452461
0.273136 0.859464 0.452888
0.282658 0.859556 0.453559
0.294774 0.859709 0.454414
0.309056 0.859953 0.455665
0.325139 0.860349 0.457069
0.343664 0.860838 0.459022
0.363134 0.861387 0.461189
0.384131 0.862058 0.463813
0.406043 0.862760 0.466835
0.431037 0.863828 0.467414
0.461372 0.865446 0.463020
0.493141 0.867124 0.458167
0.526024 0.868956 0.452766
0.560266 0.870878 0.446754
0.595697 0.872953 0.440772
0.632410 0.875120 0.434272
0.670283 0.877287 0.426978
0.709041 0.879393 0.419013
0.748684 0.880735 0.413275
0.788479 0.880430 0.414801
0.827726 0.880003 0.416083
0.866575 0.879362 0.417090
0.904906 0.878599 0.418097
0.947997 0.882811 0.420233
0.974914 0.875761 0.430610
0.991821 0.864195 0.441321
1.000000 0.853361 0.451881
1.000000 0.843320 0.462593
0.303136 0.881102 0.478920
0.304082 0.881285 0.479194
0.305943 0.881376 0.479408
0.309575 0.881437 0.479866
0.315190 0.881468 0.480323
0.322606 0.881468 0.480903
0.332128 0.881559 0.481605
0.343877 0.881712 0.482643
0.357427 0.881926 0.484077
0.372808 0.882261 0.485908
0.389960 0.882689 0.487953
0.408515 0.883146 0.490608
0.427863 0.883726 0.493446
0.448188 0.884306 0.496620
0.474067 0.885527 0.493843
0.501884 0.886961 0.489418
0.531304 0.888426 0.484657
0.562127 0.890013 0.479377
0.594354 0.891722 0.474098
0.627741 0.893553 0.468269
0.662470 0.895323 0.461982
0.698085 0.897063 0.455512
0.734524 0.898589 0.447883
0.771878 0.899229 0.443397
0.809476 0.898589 0.445106
0.846494 0.897826 0.446509
0.883238 0.896910 0.448157
0.919371 0.895872 0.449683
0.959045 0.898436 0.452705
0.986328 0.893156 0.463111
1.000000 0.882109 0.474128
1.000000 0.871519 0.485054
0.347082 0.900633 0.506981
0.347753 0.900755 0.507164
0.349371 0.900877 0.507378
0.352605 0.900969 0.508049
0.357183 0.901091 0.508598
0.364111 0.901305 0.509606
0.372930 0.901732 0.511162
0.383886 0.902251 0.513054
0.397101 0.902861 0.515770
0.411597 0.903624 0.518608
0.427802 0.904448 0.521965
0.445014 0.905303 0.525658
0.463233 0.906096 0.529656
0.481666 0.906828 0.533471
0.502190 0.907683 0.535454
0.526177 0.908934 0.532006
0.551415 0.910185 0.527947
0.577996 0.911467 0.523491
0.606012 0.912810 0.518853
0.635462 0.914214 0.514031
0.666072 0.915557 0.508934
0.697749 0.916838 0.503227
0.730190 0.917937 0.496712
0.763668 0.918853 0.489601
0.798154 0.918791 0.486336
0.832883 0.917815 0.488350
0.867308 0.916716 0.490333
0.901305 0.915496 0.492592
0.934936 0.914214 0.495033
0.970581 0.915282 0.498787
0.997162 0.911315 0.509148
1.000000 0.900572 0.520256
0.404334 0.921294 0.544518
0.404791 0.921294 0.544701
0.405707 0.921263 0.544793
0.407843 0.921263 0.545006
0.411109 0.921263 0.545251
0.415930 0.921233 0.545861
0.422309 0.921324 0.546777
0.430457 0.921447 0.547997
0.440040 0.921630 0.549737
0.451301 0.921874 0.551629
0.464118 0.922118 0.554162
0.477913 0.922454 0.556909
0.492836 0.922820 0.559930
0.508782 0.923156 0.563256
