20 Preset/Japan Style/【3】LUT video cho PR-AE-FCPX/LUT VIDEO/Japan Style LUT (1).cube
# Created by Adobe Lightroom plugin Export LUT (1.24.0)
# www.johnrellis.com/lightroom/exportlut.htm
# Preset: 01日系常用（素材江湖）
# Color profile: C:\Program Files (x86)\Common Files\Adobe\Color\Profiles\Recommended\VideoHD.icc
LUT_3D_SIZE 32
DOMAIN_MIN 0.0 0.0 0.0
DOMAIN_MAX 1.0 1.0 1.0
0.029145 0.032685 0.028840
0.038361 0.032776 0.028656
0.073274 0.033326 0.027893
0.105226 0.035431 0.027344
0.138674 0.041535 0.025025
0.186099 0.039582 0.020813
0.241581 0.024567 0.015534
0.300572 0.000000 0.010437
0.360113 0.000000 0.001678
0.419867 0.000000 0.000000
0.480415 0.000000 0.000000
0.540642 0.000000 0.000000
0.600702 0.000000 0.000000
0.658778 0.000000 0.000000
0.713863 0.000000 0.000000
0.764981 0.000000 0.000000
0.811582 0.000000 0.000000
0.852842 0.000000 0.000000
0.889586 0.000000 0.000000
0.922515 0.000000 0.000000
0.951995 0.000000 0.000000
0.979339 0.000000 0.000000
1.000000 0.098909 0.000000
1.000000 0.148135 0.000000
1.000000 0.181247 0.000000
1.000000 0.208804 0.000000
1.000000 0.232029 0.000000
1.000000 0.252567 0.000000
1.000000 0.270634 0.000000
1.000000 0.287663 0.000000
1.000000 0.303136 0.000000
1.000000 0.317449 0.000000
0.028840 0.041627 0.029877
0.033112 0.041199 0.028748
0.072541 0.043488 0.027649
0.104707 0.044617 0.026154
0.138582 0.051698 0.023651
0.185672 0.051179 0.019318
0.240940 0.035370 0.015320
0.299382 0.003815 0.008972
0.358831 0.000000 0.001373
0.418280 0.000000 0.000000
0.478248 0.000000 0.000000
0.538537 0.000000 0.000000
0.598352 0.000000 0.000000
0.656550 0.000000 0.000000
0.711696 0.000000 0.000000
0.763027 0.000000 0.000000
0.809842 0.000000 0.000000
0.851225 0.000000 0.000000
0.888090 0.000000 0.000000
0.921141 0.000000 0.000000
0.950561 0.000000 0.000000
0.977813 0.000000 0.000000
1.000000 0.104005 0.000000
1.000000 0.149905 0.000000
1.000000 0.182712 0.000000
1.000000 0.209323 0.000000
1.000000 0.231754 0.000000
1.000000 0.252445 0.000000
1.000000 0.270756 0.000000
1.000000 0.287388 0.000000
1.000000 0.302922 0.000000
1.000000 0.317266 0.000000
0.031250 0.074800 0.033234
0.038575 0.073884 0.035462
0.063050 0.078004 0.031037
0.101137 0.083955 0.023926
0.137972 0.089174 0.018677
0.185397 0.090608 0.014862
0.240513 0.085481 0.009155
0.298436 0.062470 0.003510
0.357183 0.020935 0.000000
0.416663 0.000000 0.000000
0.476204 0.000000 0.000000
0.536584 0.000000 0.000000
0.596033 0.000000 0.000000
0.653956 0.000000 0.000000
0.709224 0.000000 0.000000
0.760616 0.000000 0.000000
0.807584 0.000000 0.000000
0.848997 0.000000 0.000000
0.886107 0.000000 0.000000
0.919341 0.000000 0.000000
0.948943 0.000000 0.000000
0.976165 0.064942 0.000000
1.000000 0.132326 0.000000
1.000000 0.167422 0.000000
1.000000 0.196109 0.000000
1.000000 0.219211 0.000000
1.000000 0.241062 0.000000
1.000000 0.259892 0.000000
1.000000 0.277073 0.000000
1.000000 0.293462 0.000000
1.000000 0.307713 0.000000
1.000000 0.321660 0.000000
0.041108 0.104799 0.045258
0.046754 0.104585 0.046357
0.069551 0.104799 0.049226
0.097078 0.108644 0.035218
0.133974 0.116213 0.019776
0.184176 0.123262 0.005768
0.239750 0.124117 0.000000
0.296757 0.119448 0.000000
0.355291 0.110048 0.000000
0.414069 0.094057 0.000000
0.473884 0.048402 0.000000
0.533501 0.000000 0.000000
0.592950 0.000000 0.000000
0.650629 0.000000 0.000000
0.705562 0.000000 0.000000
0.756832 0.000000 0.000000
0.803830 0.000000 0.000000
0.845212 0.000000 0.000000
0.882353 0.000000 0.000000
0.915709 0.000000 0.000000
0.945495 0.099641 0.000000
0.972717 0.140169 0.000000
0.997040 0.170474 0.000000
1.000000 0.196353 0.000000
1.000000 0.219120 0.000000
1.000000 0.239719 0.000000
1.000000 0.258549 0.000000
1.000000 0.275364 0.000000
1.000000 0.290837 0.000000
1.000000 0.305577 0.000000
1.000000 0.318791 0.000000
1.000000 0.331456 0.000000
0.020905 0.144869 0.054475
0.028565 0.144686 0.055573
0.064240 0.143404 0.061402
0.096376 0.145357 0.055634
0.127840 0.150912 0.033661
0.174929 0.156649 0.008453
0.231601 0.164096 0.000000
0.291997 0.166781 0.000000
0.350622 0.163119 0.000000
0.409308 0.155886 0.000000
0.468513 0.146395 0.000000
0.528313 0.133822 0.000000
0.587274 0.118257 0.000000
0.645167 0.101717 0.000000
0.700252 0.085939 0.000000
0.751400 0.080446 0.000000
0.798825 0.090303 0.000000
0.840604 0.106844 0.000000
0.877836 0.130739 0.000000
0.911559 0.152865 0.000000
0.941711 0.176425 0.000000
0.968841 0.196841 0.000000
0.993256 0.216678 0.000000
1.000000 0.234714 0.000000
1.000000 0.251987 0.000000
1.000000 0.268711 0.000000
1.000000 0.283543 0.000000
1.000000 0.297917 0.000000
1.000000 0.310887 0.000000
1.000000 0.323369 0.000000
1.000000 0.335027 0.000000
1.000000 0.345983 0.000000
0.000000 0.195712 0.051728
0.000000 0.195712 0.052674
0.012848 0.194430 0.059907
0.089906 0.192386 0.071626
0.123751 0.196628 0.045777
0.167941 0.201053 0.015045
0.219028 0.202853 0.000000
0.280095 0.209232 0.000000
0.341558 0.212345 0.000000
0.403082 0.212619 0.000000
0.462654 0.207126 0.000000
0.522393 0.201602 0.000000
0.581537 0.195529 0.000000
0.639185 0.190158 0.000000
0.694270 0.187198 0.000000
0.745907 0.187167 0.000000
0.792935 0.192508 0.000000
0.834989 0.200748 0.000000
0.872709 0.211429 0.000000
0.906523 0.223972 0.000000
0.937163 0.238163 0.000000
0.964324 0.252323 0.000000
0.997345 0.273625 0.000000
1.000000 0.287205 0.000000
1.000000 0.299199 0.000000
1.000000 0.311559 0.000000
1.000000 0.322454 0.000000
1.000000 0.333227 0.000000
1.000000 0.343481 0.000000
1.000000 0.353094 0.000000
1.000000 0.362310 0.000000
1.000000 0.370886 0.000000
0.000000 0.255650 0.042634
0.000000 0.255741 0.042267
0.000000 0.254490 0.052003
0.033021 0.252659 0.068269
0.118746 0.252232 0.069154
0.164279 0.254978 0.025605
0.215793 0.257328 0.000000
0.269810 0.255436 0.000000
0.331456 0.259617 0.000000
0.394446 0.263157 0.000000
0.457527 0.264775 0.000000
0.519188 0.264652 0.000000
0.578607 0.261936 0.000000
0.636255 0.259922 0.000000
0.691066 0.259312 0.000000
0.742061 0.261204 0.000000
0.788998 0.265751 0.000000
0.830808 0.271916 0.000000
0.868254 0.279545 0.000000
0.902983 0.288640 0.000000
0.934417 0.298924 0.000000
0.962493 0.309026 0.000000
0.988312 0.318883 0.000000
1.000000 0.328954 0.000000
1.000000 0.338476 0.000000
1.000000 0.347631 0.000000
1.000000 0.355993 0.000000
1.000000 0.363836 0.000000
1.000000 0.371862 0.000000
1.000000 0.379248 0.000000
1.000000 0.386419 0.000000
1.000000 0.393164 0.000000
0.000000 0.314580 0.044984
0.000000 0.314336 0.049592
0.000000 0.313512 0.057862
0.000000 0.311986 0.078279
0.114321 0.309361 0.095125
0.164309 0.310216 0.074983
0.212436 0.311620 0.013275
0.265354 0.311955 0.000000
0.318944 0.308110 0.000000
0.379004 0.308904 0.000000
0.442847 0.313512 0.000000
0.505791 0.316747 0.000000
0.566888 0.319768 0.000000
0.625116 0.320897 0.000000
0.680079 0.321294 0.000000
0.731350 0.323491 0.000000
0.778347 0.327886 0.000000
0.820676 0.332647 0.000000
0.859068 0.338598 0.000000
0.894072 0.345556 0.000000
0.925505 0.352667 0.000000
0.953857 0.359258 0.000000
0.980072 0.366003 0.000000
1.000000 0.372869 0.000000
1.000000 0.379675 0.000000
1.000000 0.386114 0.000000
1.000000 0.392126 0.000000
1.000000 0.397742 0.000000
1.000000 0.403204 0.000000
1.000000 0.408698 0.000000
1.000000 0.413611 0.000000
1.000000 0.418708 0.000000
0.000000 0.374517 0.082887
0.000000 0.374548 0.083986
0.000000 0.373968 0.091127
0.000000 0.372503 0.099977
0.101534 0.370794 0.112337
0.174899 0.368719 0.122805
0.217990 0.369055 0.096712
0.266300 0.368780 0.023835
0.318303 0.367407 0.000000
0.371344 0.362371 0.000000
0.427405 0.359197 0.000000
0.490974 0.365057 0.000000
0.553124 0.369512 0.000000
0.612238 0.373632 0.000000
0.668147 0.378271 0.000000
0.719478 0.381659 0.000000
0.767025 0.385290 0.000000
0.810025 0.389685 0.000000
0.848722 0.394385 0.000000
0.883879 0.399298 0.000000
0.915587 0.404059 0.000000
0.944396 0.408392 0.000000
0.971069 0.412757 0.000000
0.996307 0.417426 0.000000
1.000000 0.421851 0.000000
1.000000 0.425727 0.000000
1.000000 0.429541 0.000000
1.000000 0.433234 0.000000
1.000000 0.436713 0.000000
1.000000 0.440009 0.000000
1.000000 0.443427 0.000000
1.000000 0.446571 0.000000
0.000000 0.435492 0.114656
0.000000 0.435523 0.115724
0.000000 0.434913 0.119631
0.000000 0.433936 0.126894
0.100252 0.432471 0.137636
0.184787 0.430243 0.152560
0.234623 0.428779 0.147890
0.276860 0.428138 0.119814
0.323369 0.426215 0.064637
0.373419 0.422858 0.000000
0.424964 0.416876 0.000000
0.475013 0.408820 0.000000
0.537530 0.415473 0.000000
0.597406 0.421210 0.000000
0.653895 0.426703 0.000000
0.706447 0.432837 0.000000
0.754543 0.439612 0.000000
0.798001 0.443183 0.000000
0.837095 0.446662 0.000000
0.872709 0.450172 0.000000
0.904784 0.452979 0.000000
0.933837 0.455238 0.000000
0.960876 0.457557 0.000000
0.986419 0.460121 0.000000
1.000000 0.462287 0.000000
1.000000 0.464454 0.000000
1.000000 0.466255 0.000000
1.000000 0.468116 0.000000
1.000000 0.470069 0.000000
1.000000 0.471901 0.000000
1.000000 0.473640 0.000000
1.000000 0.475410 0.000000
0.000000 0.495369 0.148531
0.000000 0.495430 0.149050
0.000000 0.495003 0.152316
0.000000 0.494331 0.158419
0.119875 0.493233 0.167727
0.198459 0.491859 0.180575
0.260746 0.489906 0.196414
0.298436 0.488441 0.176791
0.338933 0.486366 0.147341
0.383795 0.482979 0.101930
0.431128 0.477943 0.000000
0.479438 0.471321 0.000000
0.524620 0.460883 0.000000
0.582727 0.465553 0.000000
0.639887 0.472297 0.000000
0.692775 0.479072 0.000000
0.741268 0.485389 0.000000
0.784787 0.490608 0.000000
0.824063 0.494972 0.000000
0.859922 0.497017 0.000000
0.892576 0.498421 0.000000
0.922332 0.499367 0.000000
0.950072 0.500359 0.000000
0.976379 0.501213 0.000000
1.000000 0.501823 0.000000
1.000000 0.502495 0.000000
1.000000 0.502983 0.000000
1.000000 0.503471 0.000000
1.000000 0.503838 0.000000
1.000000 0.504295 0.000000
1.000000 0.504814 0.000000
1.000000 0.505241 0.000000
0.000000 0.554498 0.185092
0.000000 0.554376 0.185855
0.000000 0.554101 0.187900
0.017609 0.553613 0.193271
0.156497 0.552911 0.201205
0.223514 0.551629 0.212741
0.282658 0.550286 0.226230
0.330022 0.548394 0.231296
0.364782 0.546166 0.206577
0.403510 0.542901 0.174960
0.445808 0.538262 0.131411
0.489876 0.532372 0.011444
0.542626 0.531914 0.000000
0.583459 0.520348 0.000000
0.634668 0.521569 0.000000
0.687953 0.529015 0.000000
0.736019 0.535058 0.000000
0.779568 0.539666 0.000000
0.818814 0.543206 0.000000
0.854520 0.545892 0.000000
0.886992 0.547021 0.000000
0.916899 0.546471 0.000000
0.944945 0.545830 0.000000
0.971527 0.545098 0.000000
0.996490 0.544305 0.000000
1.000000 0.543206 0.000000
1.000000 0.541955 0.000000
1.000000 0.540764 0.000000
1.000000 0.539757 0.000000
1.000000 0.538567 0.000000
1.000000 0.537621 0.000000
1.000000 0.536675 0.000000
0.000000 0.613336 0.226627
0.022187 0.613184 0.226902
0.106172 0.612696 0.229343
0.158968 0.612207 0.233799
0.212406 0.611261 0.240696
0.264958 0.610315 0.250156
0.317113 0.609003 0.262669
0.367834 0.607477 0.278416
0.403113 0.605646 0.268711
0.436011 0.602564 0.242527
0.472938 0.598810 0.209384
0.512413 0.593957 0.166476
0.552880 0.587640 0.101228
0.592859 0.579644 0.000000
0.628626 0.567590 0.000000
0.672572 0.565057 0.000000
0.720851 0.571374 0.000000
0.764523 0.575738 0.000000
0.804166 0.578943 0.000000
0.840269 0.581170 0.000000
0.873136 0.582177 0.000000
0.903441 0.582788 0.000000
0.932158 0.582116 0.000000
0.959533 0.580743 0.000000
0.985321 0.579065 0.000000
1.000000 0.577417 0.000000
1.000000 0.575525 0.000000
1.000000 0.573449 0.000000
1.000000 0.571557 0.000000
1.000000 0.569696 0.000000
1.000000 0.567773 0.000000
1.000000 0.566033 0.000000
0.187869 0.662989 0.268772
0.190463 0.662898 0.269352
0.206851 0.662501 0.271427
0.234012 0.661830 0.275059
0.269932 0.660792 0.280583
0.310246 0.659632 0.288884
0.354223 0.658228 0.299870
0.398993 0.656672 0.312932
0.442145 0.654932 0.325780
0.468788 0.652216 0.302922
0.499580 0.648737 0.275273
0.532921 0.644465 0.242863
0.568292 0.639002 0.201358
0.604059 0.632166 0.143923
0.639399 0.623590 0.000000
0.670497 0.611017 0.000000
0.706203 0.603601 0.000000
0.749844 0.608331 0.000000
0.789792 0.611597 0.000000
0.826291 0.613733 0.000000
0.859678 0.614649 0.000000
0.890837 0.614923 0.000000
0.920104 0.614923 0.000000
0.947906 0.614405 0.000000
0.974365 0.612573 0.000000
0.999359 0.610346 0.000000
1.000000 0.607843 0.000000
1.000000 0.605249 0.000000
1.000000 0.602625 0.000000
1.000000 0.600031 0.000000
1.000000 0.597436 0.000000
1.000000 0.594995 0.000000
0.268803 0.704402 0.312230
0.271031 0.704341 0.312902
0.279911 0.704005 0.313939
0.298741 0.703304 0.317144
0.324651 0.702266 0.322026
0.356451 0.701015 0.329229
0.392096 0.699702 0.338476
0.430945 0.698177 0.350195
0.470253 0.696651 0.364324
0.501427 0.694667 0.362676
0.526024 0.691737 0.339361
0.553979 0.688014 0.310826
0.584070 0.683436 0.277745
0.615808 0.677607 0.236973
0.647883 0.670436 0.184054
0.679469 0.661677 0.100191
0.708034 0.649714 0.000000
0.736751 0.638544 0.000000
0.776181 0.641321 0.000000
0.813016 0.643610 0.000000
0.846830 0.644770 0.000000
0.878477 0.645167 0.000000
0.908385 0.645045 0.000000
0.936767 0.644434 0.000000
0.963653 0.643244 0.000000
0.989136 0.641718 0.000000
1.000000 0.638880 0.000000
1.000000 0.635920 0.000000
1.000000 0.632868 0.000000
1.000000 0.629816 0.000000
1.000000 0.626825 0.000000
1.000000 0.623804 0.000000
0.332128 0.739345 0.354833
0.334295 0.739315 0.355322
0.341222 0.739040 0.356603
0.354192 0.738582 0.359258
0.374365 0.737850 0.363714
0.399725 0.736934 0.370092
0.429236 0.735927 0.378393
0.461891 0.734798 0.389258
0.496315 0.733608 0.402106
0.531090 0.732296 0.417151
0.552667 0.729824 0.401038
0.575067 0.726375 0.376043
0.600122 0.722225 0.346990
0.627314 0.717067 0.312963
0.655512 0.710780 0.272892
0.684443 0.703334 0.223362
0.713375 0.694575 0.155276
0.740200 0.683497 0.000000
0.765988 0.671931 0.000000
0.799741 0.670863 0.000000
0.834165 0.672450 0.000000
0.866361 0.673213 0.000000
0.896910 0.673365 0.000000
0.925902 0.672877 0.000000
0.953338 0.671687 0.000000
0.979461 0.670130 0.000000
1.000000 0.668177 0.000000
1.000000 0.665553 0.000000
1.000000 0.662135 0.000000
1.000000 0.658717 0.000000
1.000000 0.655207 0.000000
1.000000 0.651667 0.000000
0.384710 0.769039 0.396490
0.386328 0.768917 0.396674
0.390875 0.768795 0.397925
0.401221 0.768368 0.400397
0.417212 0.767758 0.404486
0.437293 0.767056 0.409979
0.461555 0.766140 0.417182
0.489174 0.765072 0.426825
0.518578 0.764004 0.438270
0.549279 0.762753 0.451270
0.576349 0.761227 0.456855
0.594293 0.758511 0.435554
0.614923 0.755032 0.410285
0.637934 0.750790 0.381445
0.662776 0.745693 0.347997
0.689143 0.739498 0.307958
0.715999 0.732448 0.261387
0.743191 0.724239 0.201877
0.768917 0.714076 0.107576
0.792844 0.702571 0.000000
0.822110 0.698360 0.000000
0.854856 0.699519 0.000000
0.885801 0.699977 0.000000
0.915221 0.699672 0.000000
0.943114 0.698726 0.000000
0.969696 0.697169 0.000000
0.995026 0.695125 0.000000
1.000000 0.692775 0.000000
1.000000 0.690028 0.000000
1.000000 0.686824 0.000000
1.000000 0.682979 0.000000
1.000000 0.679072 0.000000
0.429816 0.795041 0.437934
0.430518 0.795041 0.438087
0.442084 0.799008 0.446693
0.449958 0.798672 0.448524
0.462013 0.798154 0.452033
0.478401 0.797421 0.456855
0.497841 0.796597 0.463264
0.520775 0.795590 0.471138
0.545769 0.794553 0.480842
0.572473 0.793393 0.492226
0.599695 0.792172 0.505303
0.618219 0.790158 0.497719
0.634211 0.787259 0.475868
0.652796 0.783627 0.450752
0.673671 0.779141 0.421363
0.696437 0.774014 0.387823
0.720729 0.767849 0.348608
0.745876 0.760891 0.303441
0.771481 0.753048 0.249241
0.796658 0.743862 0.176181
0.820035 0.733059 0.000000
0.845670 0.726009 0.000000
0.876646 0.726619 0.000000
0.906096 0.726375 0.000000
0.934142 0.725277 0.000000
0.960754 0.723598 0.000000
0.986267 0.721431 0.000000
1.000000 0.718959 0.000000
1.000000 0.716091 0.000000
1.000000 0.713161 0.000000
1.000000 0.709895 0.000000
1.000000 0.705959 0.000000
0.470405 0.818997 0.478950
0.471717 0.819333 0.479835
0.475532 0.819577 0.481392
0.482551 0.819608 0.483925
0.492897 0.819425 0.487465
0.506401 0.818906 0.491676
0.523186 0.818204 0.497475
0.542596 0.817319 0.504112
0.564233 0.816342 0.512596
0.587579 0.815274 0.522240
0.611933 0.814206 0.533532
0.636072 0.813016 0.544366
0.648280 0.810697 0.526085
0.663081 0.807828 0.504967
0.680262 0.804410 0.480446
0.699763 0.800290 0.452125
0.721309 0.795438 0.419043
0.744472 0.789853 0.381659
0.768887 0.783597 0.338811
0.793851 0.776547 0.287785
0.818875 0.768521 0.224765
0.842741 0.759213 0.134279
0.865782 0.749966 0.000000
0.895506 0.750057 0.000000
0.923796 0.749355 0.000000
0.950835 0.747982 0.000000
0.976623 0.746059 0.000000
1.000000 0.743679 0.000000
1.000000 0.740993 0.000000
1.000000 0.738064 0.000000
1.000000 0.734829 0.000000
1.000000 0.731350 0.000000
0.503960 0.839170 0.514275
0.505241 0.839445 0.515160
0.508354 0.839719 0.516564
0.514275 0.839750 0.518853
0.523003 0.839628 0.521935
0.534417 0.839261 0.525963
0.548302 0.838651 0.530724
0.565026 0.837858 0.536706
0.583734 0.836942 0.543969
0.604211 0.835996 0.552422
0.626001 0.834928 0.562097
0.648371 0.833921 0.572808
0.664912 0.832425 0.571679
0.676143 0.830259 0.553979
0.689693 0.827604 0.533288
0.705715 0.824338 0.509392
0.724025 0.820523 0.482063
0.744411 0.816068 0.450233
0.766537 0.811002 0.414221
0.790127 0.805325 0.372808
0.814511 0.798886 0.324956
0.839384 0.791806 0.267491
0.864073 0.783871 0.191592
0.886015 0.773831 0.077882
0.913725 0.772488 0.000000
0.941009 0.771450 0.000000
0.967071 0.769833 0.000000
0.992157 0.767666 0.000000
1.000000 0.765194 0.000000
1.000000 0.762325 0.000000
1.000000 0.759274 0.000000
1.000000 0.755886 0.000000
0.535607 0.857847 0.547997
0.536675 0.858091 0.548821
0.539452 0.858274 0.549981
0.544274 0.858335 0.551995
0.551507 0.858183 0.554559
0.561242 0.857816 0.558007
0.572930 0.857328 0.561913
0.587213 0.856626 0.567315
0.603204 0.855863 0.573388
0.621118 0.855009 0.580560
0.640314 0.854063 0.588922
0.660273 0.853086 0.598016
0.680781 0.852049 0.607843
0.691035 0.850431 0.596521
0.701595 0.848356 0.579858
0.714199 0.845914 0.560052
0.729122 0.843046 0.537255
0.746426 0.839689 0.511101
0.765866 0.835904 0.481666
0.787381 0.831540 0.447517
0.810422 0.826658 0.408759
0.834684 0.821134 0.363897
0.859556 0.815000 0.310765
0.885466 0.808713 0.243656
0.907591 0.799283 0.169223
0.933196 0.795804 0.114504
0.959533 0.794553 0.028656
0.984894 0.792721 0.000000
1.000000 0.790463 0.000000
1.000000 0.787778 0.000000
1.000000 0.784817 0.000000
1.000000 0.781460 0.000000
0.568109 0.876555 0.582300
0.568688 0.876616 0.582666
0.570550 0.876646 0.583429
0.574334 0.876493 0.584771
0.580102 0.876219 0.586603
0.587945 0.875792 0.589197
0.597864 0.875273 0.592706
0.609796 0.874662 0.596948
0.623682 0.873930 0.602075
0.639307 0.873167 0.608270
0.656092 0.872343 0.615198
0.673915 0.871458 0.623133
0.692439 0.870451 0.631586
0.707942 0.869322 0.634577
0.715938 0.867765 0.620752
0.725704 0.865904 0.604761
0.737545 0.863645 0.586450
0.751492 0.861051 0.565301
0.767666 0.858091 0.540520
0.786099 0.854612 0.512078
0.806638 0.850614 0.479438
0.828916 0.846220 0.442481
0.852567 0.841184 0.399542
0.877134 0.835599 0.349401
0.903410 0.830320 0.287724
0.926146 0.821927 0.223301
0.950195 0.816739 0.171542
0.975769 0.815335 0.145785
1.000000 0.813413 0.110018
1.000000 0.811063 0.003632
1.000000 0.808347 0.000000
1.000000 0.805234 0.000000
0.594690 0.892088 0.610040
0.595209 0.892119 0.610346
0.596796 0.892119 0.610986
0.599969 0.892027 0.612116
0.604883 0.891783 0.613672
0.611475 0.891447 0.615961
0.620020 0.890959 0.618860
0.630274 0.890410 0.622522
0.642359 0.889799 0.626917
0.656062 0.889067 0.632258
0.670893 0.888334 0.638331
0.686824 0.887480 0.645045
0.703578 0.886595 0.652522
0.720943 0.885588 0.660609
0.730587 0.884520 0.655116
0.738155 0.883146 0.641901
0.747524 0.881529 0.626703
0.758755 0.879606 0.609552
0.772030 0.877409 0.589654
0.787442 0.874784 0.566888
0.805020 0.871824 0.540520
0.824704 0.868467 0.509972
0.846372 0.864591 0.474952
0.869535 0.860258 0.434516
0.893126 0.854520 0.385046
0.919615 0.850278 0.327886
0.943450 0.843259 0.267796
0.966400 0.836912 0.215793
0.991363 0.835416 0.197147
1.000000 0.833463 0.175174
1.000000 0.831113 0.148836
1.000000 0.828367 0.109987
0.620996 0.907103 0.636835
0.621607 0.907225 0.637263
0.622950 0.907195 0.637720
0.625513 0.907042 0.638575
0.629419 0.906767 0.639887
0.635035 0.906340 0.641657
0.642054 0.905821 0.643854
0.650752 0.905211 0.646723
0.661097 0.904509 0.650446
0.672786 0.903777 0.654658
0.685817 0.902953 0.659693
0.699947 0.902098 0.665492
0.714931 0.901152 0.671839
0.730526 0.900145 0.678676
0.745327 0.899077 0.684108
0.750973 0.898039 0.672786
0.758206 0.896788 0.660121
0.767025 0.895384 0.645594
0.777768 0.893736 0.629267
0.790524 0.891875 0.610834
0.805295 0.889738 0.589685
0.822171 0.887236 0.565393
0.841093 0.884337 0.536980
0.861936 0.881010 0.503746
0.884489 0.877195 0.465431
0.908507 0.872923 0.420783
0.935088 0.869566 0.367407
0.960143 0.864073 0.310735
0.982605 0.856901 0.255711
1.000000 0.855344 0.241550
1.000000 0.853422 0.226322
1.000000 0.851072 0.209628
0.643153 0.919860 0.658961
0.643793 0.919951 0.659388
0.645014 0.919951 0.659968
0.647272 0.919829 0.660731
0.650813 0.919615 0.661921
0.655695 0.919310 0.663508
0.661982 0.918944 0.665705
0.669825 0.918456 0.668421
0.679042 0.917906 0.671717
0.689479 0.917327 0.675685
0.701167 0.916625 0.680171
0.713863 0.915862 0.685237
0.727413 0.915007 0.690883
0.741604 0.914092 0.696864
0.756191 0.913085 0.703334
0.765530 0.912200 0.701167
0.771237 0.911315 0.690669
0.778195 0.910338 0.678614
0.786770 0.909209 0.665156
0.796963 0.907927 0.649928
0.809201 0.906401 0.632563
0.823362 0.904692 0.612879
0.839506 0.902647 0.590448
0.857694 0.900298 0.564385
0.877806 0.897612 0.534264
0.899870 0.894530 0.498695
0.923583 0.891112 0.457465
0.950317 0.888701 0.408576
0.976837 0.885191 0.355840
0.999542 0.878416 0.305760
1.000000 0.876066 0.289860
1.000000 0.873259 0.275547
0.665522 0.932219 0.680781
0.665858 0.932219 0.680873
0.666896 0.932189 0.681300
0.668788 0.932097 0.681941
0.671870 0.931884 0.682948
0.676051 0.931609 0.684382
0.681575 0.931243 0.686152
0.688319 0.930785 0.688502
0.696315 0.930297 0.691341
0.705592 0.929717 0.694759
0.716060 0.929046 0.698695
0.727352 0.928344 0.703090
0.739498 0.927550 0.707942
0.752316 0.926696 0.713252
0.765713 0.925750 0.719051
0.779324 0.924773 0.725124
0.784146 0.924224 0.716670
0.789792 0.923613 0.706630
0.796750 0.922881 0.695613
0.805112 0.922057 0.682918
0.815122 0.921111 0.668788
0.826871 0.920012 0.652796
0.840391 0.918700 0.634516
0.855924 0.917113 0.613855
0.873411 0.915251 0.589929
0.892851 0.913146 0.562463
0.914336 0.910796 0.530266
0.937682 0.908141 0.492103
0.964233 0.906645 0.448066
0.992096 0.904906 0.398169
1.000000 0.898161 0.351263
1.000000 0.894133 0.326726
0.685878 0.943481 0.700099
0.686183 0.943481 0.700282
0.687068 0.943450 0.700587
0.688869 0.943389 0.701289
0.691585 0.943236 0.702235
0.695399 0.943023 0.703517
0.700526 0.942809 0.705470
0.706844 0.942535 0.707820
0.714290 0.942199 0.710689
0.722835 0.941833 0.714015
0.732509 0.941405 0.718013
0.742916 0.940887 0.722255
0.754147 0.940276 0.726925
0.765835 0.939605 0.731838
0.778042 0.938811 0.737209
0.790585 0.937957 0.742733
0.799710 0.937316 0.743099
0.804349 0.937011 0.734798
0.810056 0.936706 0.725704
0.816983 0.936309 0.715389
0.825193 0.935851 0.704005
0.834897 0.935271 0.691279
0.846128 0.934539 0.676753
0.859129 0.933715 0.660395
0.873930 0.932647 0.641688
0.890623 0.931456 0.620356
0.909300 0.929931 0.595666
0.929778 0.928008 0.566613
0.952331 0.925872 0.531914
0.977874 0.924559 0.490944
1.000000 0.924285 0.442969
1.000000 0.917876 0.400946
0.708461 0.955016 0.721279
0.708644 0.954986 0.721309
0.709377 0.954955 0.721553
0.710780 0.954833 0.721981
0.713100 0.954681 0.722774
0.716335 0.954437 0.723903
0.720577 0.954162 0.725307
0.725887 0.953826 0.727230
0.732204 0.953399 0.729549
0.739590 0.952972 0.732296
0.747829 0.952422 0.735470
0.756893 0.951873 0.738949
0.766781 0.951232 0.743008
0.777279 0.950530 0.747341
