20 Preset/Japan Style/【3】LUT video cho PR-AE-FCPX/LUT VIDEO/Japan Style LUT (9).cube
# Created by Adobe Lightroom plugin Export LUT (1.24.0)
# www.johnrellis.com/lightroom/exportlut.htm
# Preset: 09日系胶片（素材江湖）
# Color profile: C:\Program Files (x86)\Common Files\Adobe\Color\Profiles\Recommended\VideoHD.icc
LUT_3D_SIZE 5
DOMAIN_MIN 0.000000 0.000000 0.000000
DOMAIN_MAX 0.903226 0.903226 0.903226
0.000000 0.011994 0.014374
0.311467 0.000000 0.055879
0.818845 0.000000 0.051331
1.000000 0.000000 0.163882
1.000000 0.335241 0.325536
0.000000 0.292332 0.149508
0.261295 0.305730 0.000000
0.775784 0.242893 0.000000
1.000000 0.267979 0.117006
1.000000 0.418677 0.320043
0.000000 0.681849 0.466835
0.000000 0.679286 0.426947
0.692714 0.693080 0.339818
0.957214 0.618341 0.186984
1.000000 0.611322 0.287144
0.420996 0.840604 0.691920
0.498360 0.839322 0.695003
0.615534 0.833707 0.657527
0.884489 0.838956 0.606867
1.000000 0.807584 0.500664
0.699489 0.925414 0.829770
0.728267 0.924315 0.832914
0.755825 0.921508 0.813260
0.851102 0.919615 0.799710
0.983948 0.924285 0.757931
0.000000 0.093843 0.241581
0.227604 0.091920 0.212284
0.785611 0.000000 0.224460
1.000000 0.158328 0.148806
1.000000 0.356359 0.303929
0.000000 0.291936 0.325689
0.258427 0.328252 0.336919
0.751034 0.338781 0.289189
1.000000 0.347356 0.206424
1.000000 0.426093 0.297551
0.000000 0.675013 0.540948
0.220493 0.675288 0.541344
0.670466 0.683864 0.478645
0.929625 0.632319 0.391424
1.000000 0.614923 0.279545
0.438514 0.838804 0.713802
0.509087 0.837980 0.716182
0.632959 0.833646 0.689967
0.878569 0.838651 0.655848
1.000000 0.812650 0.574945
0.695521 0.925383 0.835111
0.724392 0.924132 0.837766
0.773404 0.923705 0.829526
0.856901 0.920928 0.815885
0.982544 0.926360 0.781064
0.000000 0.200290 0.576349
0.207492 0.217990 0.575952
0.636011 0.292515 0.558892
0.955627 0.432715 0.579431
1.000000 0.539696 0.580316
0.000000 0.344793 0.602777
0.228855 0.377203 0.612970
0.638422 0.439765 0.601373
0.938323 0.525536 0.618219
1.000000 0.587091 0.600916
0.000000 0.644404 0.680537
0.239872 0.653315 0.682948
0.650080 0.690150 0.701869
0.887419 0.700679 0.689052
1.000000 0.703639 0.647883
0.468238 0.836271 0.779507
0.522332 0.834226 0.777768
0.688258 0.832853 0.779446
0.866026 0.839414 0.763210
0.997742 0.821347 0.712764
0.654353 0.925658 0.851835
0.690120 0.924559 0.854032
0.796139 0.921294 0.863096
0.862852 0.919524 0.850553
0.975158 0.926360 0.830900
0.000000 0.373114 0.771084
0.301640 0.385290 0.770169
0.621790 0.431708 0.765347
0.842557 0.531090 0.749844
1.000000 0.647181 0.770291
0.000000 0.445716 0.774533
0.327489 0.469490 0.773709
0.619532 0.504509 0.769070
0.831540 0.587030 0.758602
1.000000 0.671992 0.778439
0.000000 0.618982 0.784207
0.285618 0.623987 0.781949
0.610986 0.667170 0.788510
0.820493 0.711177 0.791745
0.995575 0.751949 0.810422
0.432044 0.807156 0.830777
0.484627 0.807614 0.830442
0.643946 0.813718 0.833616
0.848814 0.836179 0.851743
0.984009 0.838834 0.842588
0.616510 0.928099 0.895415
0.648402 0.927367 0.895506
0.749874 0.924926 0.895048
0.883055 0.923125 0.900511
0.969085 0.929717 0.890990
0.506126 0.592370 0.902525
0.553796 0.595483 0.901091
0.704280 0.610895 0.896361
0.873991 0.640925 0.887633
0.976471 0.688685 0.871427
0.508659 0.624323 0.900786
0.554070 0.626703 0.899657
0.699519 0.637568 0.895354
0.867552 0.661097 0.887480
0.971588 0.706508 0.873106
0.400916 0.684169 0.901793
0.471321 0.688319 0.900694
0.670192 0.711849 0.897581
0.847654 0.726284 0.891447
0.959930 0.767636 0.883391
0.431403 0.809873 0.911925
0.466987 0.808347 0.910948
0.590753 0.803342 0.907774
0.814237 0.814542 0.906188
0.955779 0.847684 0.907683
0.569635 0.909850 0.933715
0.599420 0.909545 0.933623
0.707179 0.909606 0.934264
0.842771 0.912596 0.935607
0.962097 0.931151 0.945098
