20 Preset/Japan Style/【3】LUT video cho PR-AE-FCPX/LUT VIDEO/Japan Style LUT (24).cube
# Created by Adobe Lightroom plugin Export LUT (1.24.0)
# www.johnrellis.com/lightroom/exportlut.htm
# Preset: 24日系低饱和胶片（素材江湖）
# Color profile: C:\Program Files (x86)\Common Files\Adobe\Color\Profiles\Recommended\VideoHD.icc
LUT_3D_SIZE 8
DOMAIN_MIN 0.000000 0.000000 0.000000
DOMAIN_MAX 0.903226 0.903226 0.903226
0.088899 0.080842 0.086091
0.142336 0.077729 0.084016
0.343694 0.000000 0.065187
0.675532 0.000000 0.000000
0.937682 0.000000 0.000000
1.000000 0.261753 0.000000
1.000000 0.388464 0.000000
1.000000 0.450721 0.000000
0.099733 0.107485 0.099489
0.119173 0.113466 0.104616
0.339605 0.144472 0.037812
0.674250 0.086976 0.000000
0.927733 0.226047 0.000000
1.000000 0.366125 0.000000
1.000000 0.443427 0.000000
1.000000 0.485084 0.000000
0.121157 0.168887 0.129366
0.141817 0.180514 0.146120
0.202396 0.204013 0.148806
0.576226 0.358312 0.000000
0.890623 0.524773 0.000000
1.000000 0.560967 0.000000
1.000000 0.583734 0.000000
1.000000 0.595880 0.000000
0.138827 0.270939 0.172915
0.157992 0.283299 0.187381
0.205753 0.332616 0.232792
0.342809 0.376776 0.223667
0.731746 0.574609 0.056275
0.967712 0.701839 0.000000
1.000000 0.712490 0.000000
1.000000 0.699245 0.000000
0.123568 0.399542 0.220127
0.149111 0.410895 0.233402
0.245518 0.461982 0.297307
0.276463 0.533959 0.351843
0.495705 0.564813 0.327672
0.802365 0.679805 0.300206
0.991791 0.771481 0.282567
1.000000 0.805905 0.058900
0.082185 0.529290 0.274693
0.132631 0.539696 0.288304
0.249119 0.576410 0.345739
0.390784 0.637720 0.449500
0.429114 0.689113 0.503960
0.637720 0.694362 0.468177
0.854459 0.750027 0.471534
1.000000 0.833341 0.522301
0.154604 0.654566 0.348974
0.192905 0.659785 0.361578
0.304051 0.678920 0.413764
0.461494 0.711849 0.518364
0.553613 0.746548 0.598688
0.612909 0.774929 0.634333
0.746151 0.777096 0.611475
0.892576 0.806394 0.609491
0.349218 0.756863 0.465126
0.367285 0.758755 0.475441
0.435065 0.766873 0.518517
0.545953 0.782528 0.598901
0.660731 0.805264 0.692500
0.692439 0.832151 0.730037
0.740688 0.850278 0.744472
0.830442 0.852384 0.726619
0.090761 0.079164 0.117891
0.142336 0.080323 0.114412
0.324346 0.000000 0.100008
0.636774 0.000000 0.043244
0.919615 0.000000 0.000000
1.000000 0.295476 0.000000
1.000000 0.422431 0.000000
1.000000 0.466712 0.000000
0.087770 0.118929 0.121187
0.134432 0.117708 0.125795
0.314366 0.112306 0.112001
0.635889 0.000000 0.024262
0.913085 0.183352 0.000000
1.000000 0.359655 0.000000
1.000000 0.456825 0.000000
1.000000 0.498024 0.000000
0.137972 0.170504 0.139040
0.156832 0.180911 0.154330
0.218265 0.207797 0.170962
0.579248 0.355657 0.044465
0.878630 0.489509 0.000000
1.000000 0.538781 0.000000
1.000000 0.568444 0.000000
1.000000 0.589197 0.000000
0.153933 0.268925 0.178714
0.172274 0.280735 0.192569
0.234501 0.331945 0.246769
0.349248 0.373144 0.240513
0.725643 0.566461 0.144320
0.961425 0.695705 0.000000
1.000000 0.702937 0.000000
1.000000 0.693202 0.000000
0.143526 0.395972 0.223667
0.165621 0.406836 0.236423
0.254093 0.456184 0.298528
0.300359 0.528954 0.360357
0.497749 0.560418 0.339696
0.800931 0.678065 0.318761
0.989258 0.769802 0.313603
1.000000 0.805142 0.198611
0.113588 0.523857 0.275578
0.148806 0.532799 0.288060
0.254582 0.569574 0.344305
0.402502 0.633265 0.453773
0.439918 0.685847 0.508080
0.638788 0.693050 0.476509
0.854398 0.750118 0.482368
1.000000 0.832944 0.534112
0.155795 0.649470 0.346166
0.191196 0.654108 0.357794
0.299779 0.673610 0.409003
0.456825 0.707698 0.513359
0.557214 0.744106 0.599847
0.614252 0.773465 0.636774
0.745510 0.775448 0.613733
0.892393 0.806027 0.612573
0.340490 0.753780 0.458930
0.359442 0.756039 0.469764
0.428107 0.764218 0.512963
0.540642 0.780148 0.594079
0.664576 0.805325 0.695125
0.695064 0.831907 0.731716
0.741695 0.850034 0.746334
0.830838 0.852171 0.728389
0.080537 0.079347 0.203189
0.135927 0.078584 0.201114
0.288212 0.017365 0.197055
0.571862 0.000000 0.229862
0.893614 0.000000 0.130251
1.000000 0.000000 0.000000
1.000000 0.310369 0.000000
1.000000 0.436469 0.000000
0.088136 0.116182 0.215061
0.138796 0.116457 0.212741
0.285924 0.105440 0.205936
0.571099 0.000000 0.210941
0.888121 0.000000 0.138613
1.000000 0.066804 0.000000
1.000000 0.363226 0.000000
1.000000 0.463172 0.000000
0.018036 0.216129 0.213626
0.121950 0.216922 0.216892
0.266819 0.221958 0.238224
0.577203 0.255924 0.218723
0.866728 0.341161 0.159854
1.000000 0.450752 0.000000
1.000000 0.519585 0.000000
1.000000 0.557031 0.000000
0.185916 0.264164 0.191257
0.203891 0.276036 0.205814
0.283268 0.327733 0.271244
0.393561 0.388739 0.309850
0.755001 0.585077 0.290959
0.957031 0.680323 0.257420
1.000000 0.680903 0.152163
1.000000 0.677943 0.000000
0.191775 0.387640 0.235843
0.208896 0.398322 0.248325
0.283085 0.445411 0.306645
0.385687 0.530388 0.405615
0.528771 0.570214 0.402350
0.813535 0.688838 0.410712
0.988495 0.774228 0.440742
1.000000 0.799008 0.396399
0.177493 0.513695 0.283879
0.198856 0.522576 0.295720
0.280827 0.558556 0.348913
0.431342 0.625116 0.465675
0.492714 0.682063 0.536461
0.652247 0.694392 0.517906
0.859953 0.756374 0.535027
1.000000 0.837095 0.591547
0.180179 0.640375 0.345068
0.209171 0.645167 0.356359
0.306065 0.665156 0.405798
0.454963 0.700404 0.507469
0.583154 0.740352 0.614801
0.631342 0.773678 0.657404
0.752987 0.776638 0.636744
0.898863 0.813260 0.641077
0.322148 0.747799 0.445655
0.341009 0.749722 0.455909
0.411872 0.758236 0.499214
0.528130 0.775082 0.582300
0.657099 0.800778 0.687221
0.704189 0.829770 0.736873
0.747524 0.850462 0.755825
0.834104 0.852811 0.738338
0.000000 0.067567 0.354040
0.100099 0.058625 0.352789
0.284581 0.000000 0.344762
0.522911 0.000000 0.338476
0.816251 0.000000 0.397436
1.000000 0.000000 0.359472
1.000000 0.000000 0.220218
1.000000 0.211276 0.149111
0.000000 0.112245 0.366979
0.106050 0.110262 0.364965
0.289158 0.090364 0.356054
0.522515 0.000000 0.346349
0.814633 0.000000 0.399268
1.000000 0.000000 0.338231
1.000000 0.000000 0.229343
1.000000 0.289158 0.158175
0.000000 0.223850 0.392279
0.000000 0.217929 0.396124
0.275334 0.217624 0.387304
0.510857 0.207095 0.370489
0.810269 0.000000 0.394476
1.000000 0.000000 0.290379
1.000000 0.340368 0.278782
1.000000 0.470466 0.210819
0.000000 0.379065 0.354131
0.000000 0.380377 0.356725
0.217197 0.385351 0.368536
0.459510 0.410132 0.417792
0.773342 0.514183 0.426307
0.941924 0.576410 0.418158
1.000000 0.618006 0.399237
1.000000 0.637293 0.341711
0.163455 0.397620 0.259403
0.195590 0.400855 0.265232
0.312139 0.420661 0.310674
0.452827 0.515190 0.439673
0.574975 0.584497 0.497810
0.835050 0.706966 0.545586
0.986511 0.783536 0.600061
1.000000 0.776486 0.549218
0.232425 0.492714 0.291295
0.248234 0.502220 0.303014
0.312169 0.537224 0.351629
0.441718 0.604913 0.460609
0.569482 0.677211 0.582849
0.677913 0.698817 0.585473
0.872923 0.769833 0.618921
1.000000 0.845274 0.671046
0.194461 0.617121 0.333196
0.217990 0.622797 0.343969
0.303532 0.645563 0.391516
0.444800 0.684962 0.491249
0.617029 0.732784 0.633753
0.666804 0.772457 0.690394
0.765408 0.778347 0.673060
0.910185 0.825406 0.686183
0.269810 0.735134 0.413306
0.291569 0.737392 0.423529
0.371160 0.746609 0.467933
0.495521 0.764401 0.553521
0.636805 0.791135 0.666987
0.719051 0.824704 0.744594
0.757259 0.851041 0.772274
0.840146 0.854002 0.755673
0.000000 0.010620 0.551720
0.000000 0.000000 0.550805
0.286442 0.000000 0.543389
0.522393 0.000000 0.528923
0.757229 0.000000 0.518456
0.949157 0.000000 0.558434
1.000000 0.000000 0.592401
1.000000 0.000000 0.470314
0.000000 0.094423 0.559289
0.000000 0.086702 0.558282
0.290623 0.000000 0.550805
0.524163 0.000000 0.535210
0.754421 0.000000 0.522240
0.946441 0.000000 0.560601
1.000000 0.000000 0.592340
1.000000 0.000000 0.460029
0.000000 0.211032 0.580346
0.000000 0.209628 0.578576
0.274418 0.205844 0.571283
0.517205 0.189029 0.554650
0.738033 0.168551 0.534508
0.933410 0.000000 0.566400
1.000000 0.000000 0.557855
1.000000 0.000000 0.415045
0.000000 0.421912 0.573419
0.000000 0.420325 0.575799
0.119478 0.410315 0.586450
0.471382 0.403662 0.581964
0.698695 0.414832 0.558923
0.919219 0.258976 0.569970
1.000000 0.338720 0.491218
1.000000 0.513146 0.494087
0.000000 0.553124 0.505852
0.000000 0.553948 0.507622
0.000000 0.557824 0.516533
0.394568 0.564233 0.535760
0.625025 0.595941 0.595789
0.848905 0.678431 0.635462
0.979736 0.708400 0.642908
1.000000 0.722103 0.626856
0.000000 0.533013 0.359930
0.097566 0.534997 0.363439
0.257298 0.541405 0.377996
0.428412 0.553491 0.427741
0.599878 0.651362 0.591608
0.705440 0.701228 0.652399
0.895872 0.788693 0.705776
1.000000 0.856077 0.749386
0.192386 0.568750 0.303105
0.208377 0.574395 0.311528
0.270115 0.598138 0.348943
0.396429 0.646235 0.439826
0.578424 0.706508 0.592187
0.701625 0.762570 0.710018
0.779538 0.779080 0.712245
0.925719 0.840360 0.738979
0.000000 0.703365 0.335821
0.043641 0.706294 0.346197
0.245579 0.718257 0.391577
0.410529 0.740963 0.485054
0.584375 0.771603 0.618097
0.734035 0.813138 0.749660
0.770901 0.850523 0.794797
0.847166 0.854154 0.776425
0.000000 0.000000 0.720272
0.000000 0.000000 0.719448
0.322606 0.000000 0.714321
0.551385 0.000000 0.704646
0.750698 0.000000 0.687739
0.905669 0.000000 0.664271
1.000000 0.000000 0.674891
1.000000 0.000000 0.704860
0.000000 0.000000 0.720668
0.000000 0.000000 0.719417
0.321660 0.000000 0.714778
0.548302 0.000000 0.704463
0.746456 0.000000 0.687251
0.900633 0.000000 0.663874
1.000000 0.000000 0.675319
1.000000 0.000000 0.704829
0.000000 0.195651 0.729610
0.000000 0.194095 0.728450
0.308934 0.183536 0.723476
0.539147 0.156466 0.712062
0.735622 0.144656 0.695338
0.885039 0.213260 0.669947
1.000000 0.225071 0.683131
1.000000 0.178256 0.708766
0.000000 0.390661 0.738521
0.000000 0.390692 0.737087
0.213779 0.390631 0.732448
0.497810 0.394842 0.723842
0.702419 0.408667 0.708461
0.850767 0.441382 0.682399
0.986206 0.417578 0.697841
1.000000 0.367376 0.711299
0.000000 0.610437 0.700160
0.000000 0.609705 0.701259
0.000000 0.605951 0.706264
0.381018 0.596002 0.717586
0.634119 0.590539 0.716609
0.796536 0.600000 0.695521
0.967559 0.532189 0.705409
1.000000 0.572564 0.671229
0.000000 0.686000 0.633936
0.000000 0.686549 0.635645
0.000000 0.686183 0.639704
0.271336 0.685267 0.648737
0.554192 0.684382 0.666133
0.741024 0.707759 0.721157
0.921813 0.774411 0.766476
1.000000 0.794553 0.770871
0.000000 0.658015 0.467109
0.000000 0.658686 0.468360
0.000000 0.659907 0.472450
0.295995 0.661433 0.483345
0.509545 0.660822 0.523430
0.709194 0.738155 0.703853
0.800351 0.782498 0.760098
0.951446 0.864866 0.807584
0.000000 0.693202 0.304265
0.000000 0.692439 0.303990
0.000000 0.687922 0.324712
0.270359 0.695766 0.384222
0.466987 0.734707 0.514916
0.678553 0.783536 0.693294
0.792477 0.840421 0.805509
0.858305 0.855528 0.805295
0.148196 0.000000 0.835630
0.231662 0.000000 0.836790
0.399268 0.000000 0.832578
0.590631 0.000000 0.826230
0.763424 0.000000 0.815244
0.902495 0.000000 0.798856
0.998169 0.000000 0.765072
1.000000 0.245853 0.755367
0.106752 0.000000 0.827298
0.209140 0.000000 0.828977
0.385077 0.000000 0.825162
0.575250 0.000000 0.817716
0.748623 0.000000 0.805875
0.887816 0.000000 0.787716
0.985412 0.000000 0.753567
1.000000 0.225986 0.744991
0.000000 0.156710 0.834440
0.179599 0.152834 0.833585
0.370733 0.130648 0.828550
0.564508 0.054231 0.820676
0.735500 0.000000 0.807218
0.875212 0.150851 0.790127
0.975189 0.288273 0.760830
1.000000 0.363561 0.758694
0.000000 0.364660 0.840543
0.000000 0.362921 0.839078
0.304051 0.361425 0.833616
0.528374 0.365850 0.826749
0.706233 0.378088 0.814145
0.848966 0.414038 0.799039
0.950622 0.472236 0.771939
1.000000 0.494362 0.773770
0.000000 0.572442 0.826047
0.000000 0.566888 0.825101
0.000000 0.550134 0.826719
0.407935 0.549279 0.820981
0.631525 0.555810 0.810117
0.791135 0.568078 0.795010
0.907836 0.591028 0.772274
1.000000 0.591577 0.788205
0.000000 0.721736 0.784146
0.000000 0.721248 0.785092
0.000000 0.717647 0.787900
0.047547 0.710201 0.794186
0.531609 0.698421 0.805447
0.738613 0.695491 0.808743
0.872587 0.700618 0.791928
1.000000 0.670710 0.805417
0.000000 0.777829 0.732143
0.000000 0.778225 0.733394
0.000000 0.776028 0.734371
0.000000 0.772000 0.737667
0.416846 0.764767 0.743618
0.655787 0.759579 0.758358
0.823880 0.783108 0.809964
0.978058 0.852323 0.854643
0.000000 0.758389 0.573205
0.000000 0.758602 0.573510
0.000000 0.760708 0.576593
0.000000 0.758907 0.575952
0.311650 0.752316 0.574731
0.554223 0.739223 0.590570
0.783444 0.807828 0.784268
0.873716 0.857237 0.841611
0.311498 0.000000 0.910979
0.348638 0.000000 0.911223
0.459297 0.000000 0.907195
0.612940 0.000000 0.903410
0.762600 0.000000 0.896300
0.890776 0.000000 0.885039
0.997314 0.000000 0.871031
1.000000 0.235447 0.832486
0.292729 0.000000 0.906523
0.332250 0.000000 0.906920
0.448066 0.000000 0.904082
0.603296 0.000000 0.899687
0.754452 0.000000 0.892515
0.883757 0.000000 0.881285
0.990173 0.000000 0.866239
1.000000 0.241855 0.828122
0.242222 0.000000 0.905608
0.288640 0.000000 0.905272
0.418311 0.000000 0.901976
0.587304 0.000000 0.900389
0.739773 0.000000 0.891752
0.868833 0.000000 0.878904
0.976532 0.179049 0.864103
1.000000 0.337896 0.827939
0.000000 0.279362 0.905577
0.055024 0.279973 0.905547
0.337682 0.276555 0.902708
0.535119 0.276280 0.898802
0.703334 0.287266 0.891081
0.840482 0.322362 0.879301
0.952209 0.385901 0.864988
1.000000 0.466682 0.832395
0.000000 0.474708 0.902983
0.000000 0.474800 0.903227
0.000000 0.466987 0.900694
0.397803 0.470069 0.896147
0.622126 0.477089 0.887572
0.784176 0.494820 0.875822
0.910918 0.529686 0.862882
1.000000 0.578485 0.838254
0.000000 0.681514 0.882231
0.000000 0.678065 0.881804
0.000000 0.665217 0.882048
0.000000 0.640833 0.886290
0.470832 0.627161 0.886137
0.711727 0.642573 0.880003
0.866789 0.661311 0.872526
0.976593 0.685542 0.855741
0.000000 0.802579 0.855283
0.000000 0.801389 0.855192
0.000000 0.796719 0.855344
0.000000 0.788754 0.858061
0.162020 0.775875 0.863951
0.602899 0.761990 0.876799
0.812497 0.761898 0.883665
0.938323 0.763699 0.863066
0.000000 0.866361 0.821988
0.000000 0.865507 0.821622
0.000000 0.862974 0.821225
0.000000 0.858671 0.821897
0.000000 0.850248 0.822599
0.459205 0.837888 0.824582
0.710018 0.827634 0.833555
0.888365 0.851255 0.879240
