20 Preset/Japan Style/【3】LUT video cho PR-AE-FCPX/LUT VIDEO/Japan Style LUT (30).cube
# Created by Adobe Lightroom plugin Export LUT (1.24.0)
# www.johnrellis.com/lightroom/exportlut.htm
# Preset: 30日系岩井俊二风（素材江湖）
# Color profile: C:\Program Files (x86)\Common Files\Adobe\Color\Profiles\Recommended\VideoHD.icc
LUT_3D_SIZE 5
DOMAIN_MIN 0.000000 0.000000 0.000000
DOMAIN_MAX 0.903226 0.903226 0.903226
0.000000 0.000000 0.000000
0.328740 0.120851 0.094453
0.649500 0.234134 0.129122
0.906401 0.349310 0.206241
1.000000 0.436652 0.312688
0.141482 0.241032 0.170993
0.350195 0.268742 0.169711
0.652430 0.326970 0.192111
0.899626 0.401434 0.248447
1.000000 0.469551 0.320012
0.295109 0.501030 0.350500
0.406714 0.505455 0.347539
0.673121 0.537163 0.352087
0.889891 0.554101 0.370825
1.000000 0.579583 0.401526
0.463600 0.726223 0.464973
0.522881 0.727871 0.463996
0.704921 0.734463 0.459266
0.885985 0.724422 0.474189
1.000000 0.727871 0.501976
0.671778 0.891752 0.596094
0.696773 0.892058 0.595941
0.786801 0.891173 0.591699
0.929870 0.890837 0.593866
1.000000 0.868345 0.611292
0.000000 0.140352 0.363348
0.233982 0.137087 0.369055
0.608301 0.239536 0.370581
0.874327 0.367254 0.387671
1.000000 0.464454 0.406928
0.000000 0.275090 0.393683
0.268894 0.280217 0.396399
0.612421 0.336980 0.398993
0.872038 0.417182 0.402319
1.000000 0.495338 0.419959
0.233494 0.507591 0.452857
0.365209 0.514092 0.450019
0.640650 0.538415 0.450050
0.867552 0.564416 0.453193
1.000000 0.601831 0.468727
0.451423 0.729946 0.521080
0.511376 0.731746 0.520287
0.692439 0.738186 0.515404
0.873259 0.732998 0.526268
1.000000 0.742672 0.546777
0.671412 0.892058 0.626581
0.695460 0.892302 0.626429
0.785824 0.894194 0.626093
0.924743 0.894774 0.625422
1.000000 0.875181 0.639704
0.000000 0.279515 0.611414
0.000000 0.277592 0.613977
0.494057 0.307622 0.614984
0.820096 0.410498 0.591424
0.985534 0.574395 0.594690
0.000000 0.364538 0.619074
0.000000 0.358465 0.621149
0.506371 0.380316 0.620172
0.816709 0.464668 0.598505
0.980713 0.607050 0.606073
0.000000 0.535271 0.638819
0.135836 0.539269 0.638972
0.554498 0.561517 0.636866
0.810849 0.615503 0.624750
0.975586 0.685786 0.629755
0.352544 0.734188 0.666865
0.432258 0.736355 0.665675
0.640223 0.747799 0.663691
0.827420 0.763180 0.664637
0.977813 0.786313 0.667597
0.628901 0.893706 0.704494
0.663813 0.894072 0.708522
0.761044 0.896391 0.713649
0.895171 0.900603 0.710109
1.000000 0.890684 0.717128
0.000000 0.384894 0.789609
0.000000 0.398077 0.789242
0.183383 0.426459 0.789700
0.664668 0.492500 0.782864
0.938933 0.601434 0.766476
0.000000 0.439918 0.789517
0.000000 0.440925 0.789914
0.263554 0.473487 0.789334
0.671290 0.529808 0.782406
0.935332 0.627070 0.767239
0.000000 0.555200 0.793057
0.000000 0.561181 0.792142
0.401862 0.597498 0.789822
0.699428 0.641718 0.782376
0.931579 0.711635 0.773007
0.124575 0.714870 0.804715
0.285405 0.720211 0.803799
0.537407 0.744808 0.801480
0.760067 0.779507 0.797910
0.944121 0.817777 0.787839
0.443030 0.889250 0.838621
0.492409 0.891783 0.837308
0.641199 0.901183 0.830961
0.837980 0.908293 0.824949
0.971588 0.914244 0.827756
0.000000 0.464485 0.931151
0.000000 0.471168 0.930480
0.000000 0.522393 0.928344
0.540429 0.629114 0.920958
0.803830 0.700160 0.916197
0.000000 0.487831 0.929839
0.000000 0.493538 0.929412
0.000000 0.545251 0.926940
0.556451 0.649012 0.919463
0.808682 0.714412 0.915984
0.000000 0.554986 0.931548
0.000000 0.558892 0.930694
0.000000 0.612024 0.927184
0.608179 0.715846 0.919097
0.830747 0.766476 0.920256
0.000000 0.675410 0.937469
0.000000 0.680934 0.936553
0.000000 0.711391 0.934020
0.646479 0.792142 0.929717
0.867216 0.838468 0.928161
0.000000 0.833982 0.948058
0.024872 0.839261 0.947356
0.480415 0.861753 0.945922
0.727260 0.896452 0.944030
0.923644 0.932891 0.943633
