20 Preset/Japan Style/【3】LUT video cho PR-AE-FCPX/LUT VIDEO/Japan Style LUT (19).cube
# Created by Adobe Lightroom plugin Export LUT (1.24.0)
# www.johnrellis.com/lightroom/exportlut.htm
# Preset: 19日系清新（素材江湖）
# Color profile: C:\Program Files (x86)\Common Files\Adobe\Color\Profiles\Recommended\VideoHD.icc
LUT_3D_SIZE 5
DOMAIN_MIN 0.000000 0.000000 0.000000
DOMAIN_MAX 0.903226 0.903226 0.903226
0.000000 0.000000 0.000000
0.515984 0.000000 0.000000
0.918273 0.000000 0.000000
1.000000 0.210025 0.209995
1.000000 0.335119 0.335149
0.000000 0.478187 0.000000
0.468849 0.468544 0.000000
0.895415 0.446082 0.000000
1.000000 0.415351 0.233463
1.000000 0.438819 0.355688
0.101717 0.821408 0.104128
0.418799 0.815640 0.143709
0.803189 0.803220 0.073182
1.000000 0.726833 0.284092
1.000000 0.662593 0.404974
0.354467 0.969940 0.354589
0.453132 0.968078 0.366583
0.684718 0.959258 0.379919
0.940673 0.940703 0.346563
1.000000 0.868803 0.417121
0.477150 1.000000 0.477302
0.519524 1.000000 0.483711
0.645289 1.000000 0.490883
0.817441 1.000000 0.492042
1.000000 1.000000 0.476844
0.000000 0.000000 0.444953
0.461006 0.000000 0.461158
0.858640 0.107362 0.434424
1.000000 0.322728 0.450813
1.000000 0.425116 0.488045
0.000000 0.446387 0.433356
0.433173 0.433173 0.433173
0.839322 0.438148 0.438056
1.000000 0.457130 0.457191
1.000000 0.496590 0.496620
0.141054 0.797482 0.409491
0.418799 0.795529 0.419104
0.778012 0.778103 0.399847
1.000000 0.729793 0.479744
1.000000 0.693690 0.540093
0.435279 0.962829 0.502190
0.510674 0.961608 0.510765
0.708705 0.954437 0.524865
0.936980 0.936980 0.491402
1.000000 0.875303 0.536584
0.534691 1.000000 0.564569
0.568597 1.000000 0.568688
0.687282 1.000000 0.590021
0.834958 1.000000 0.587854
1.000000 1.000000 0.573724
0.000000 0.000000 0.773465
0.065736 0.000000 0.778347
0.789548 0.000000 0.789456
1.000000 0.297368 0.723659
1.000000 0.519371 0.706538
0.000000 0.434577 0.762356
0.000000 0.350439 0.770077
0.780789 0.377569 0.780819
1.000000 0.480781 0.727413
1.000000 0.607477 0.729274
0.000000 0.766018 0.746029
0.309636 0.761959 0.746212
0.749996 0.749996 0.749996
0.961791 0.759915 0.759915
1.000000 0.769894 0.769894
0.545739 0.942382 0.732113
0.607294 0.938384 0.740108
0.761959 0.936889 0.761959
0.927306 0.927306 0.747463
1.000000 0.898619 0.772030
0.656886 1.000000 0.746365
0.680415 1.000000 0.749996
0.762142 1.000000 0.762173
0.872282 1.000000 0.767575
1.000000 1.000000 0.749325
0.000000 0.014862 0.948638
0.000000 0.000000 0.949676
0.543053 0.000000 0.951049
0.950378 0.238285 0.950317
1.000000 0.459113 0.892241
0.000000 0.358465 0.941344
0.000000 0.311223 0.943267
0.544457 0.333501 0.943786
0.941619 0.418311 0.941588
1.000000 0.546929 0.889738
0.000000 0.699184 0.910216
0.000000 0.695857 0.909697
0.585077 0.665949 0.916838
0.917540 0.706996 0.917510
1.000000 0.751400 0.893187
0.393103 0.923278 0.904540
0.480110 0.920317 0.903380
0.698390 0.913603 0.903563
0.907347 0.907347 0.907347
1.000000 0.913878 0.913878
0.667048 1.000000 0.867643
0.700160 1.000000 0.872557
0.810056 1.000000 0.894133
0.914977 1.000000 0.914977
0.997406 0.997436 0.905333
0.000000 0.000000 1.000000
0.000000 0.000000 1.000000
0.097566 0.000000 1.000000
0.724666 0.000000 1.000000
1.000000 0.336126 1.000000
0.000000 0.242649 1.000000
0.000000 0.212284 1.000000
0.118074 0.228244 1.000000
0.726864 0.299290 1.000000
1.000000 0.441169 1.000000
0.000000 0.630365 1.000000
0.000000 0.614679 1.000000
0.317266 0.561517 1.000000
0.749233 0.602319 1.000000
1.000000 0.671656 1.000000
0.000000 0.844266 1.000000
0.000000 0.844327 1.000000
0.515221 0.847898 1.000000
0.791958 0.837217 1.000000
1.000000 0.879118 1.000000
0.485939 1.000000 0.992065
0.537896 1.000000 0.991791
0.702449 1.000000 0.991638
0.877897 0.997131 0.991089
0.991424 0.991424 0.991424
