20 Preset/Japan Style/【3】LUT video cho PR-AE-FCPX/LUT VIDEO/Japan Style LUT (24).cube
# Created by Adobe Lightroom plugin Export LUT (1.24.0)
# www.johnrellis.com/lightroom/exportlut.htm
# Preset: 24日系低饱和胶片（素材江湖）
# Color profile: C:\Program Files (x86)\Common Files\Adobe\Color\Profiles\Recommended\VideoHD.icc
LUT_3D_SIZE 32
DOMAIN_MIN 0.0 0.0 0.0
DOMAIN_MAX 1.0 1.0 1.0
0.088899 0.080842 0.086091
0.090364 0.080537 0.086091
0.099916 0.079316 0.085939
0.117708 0.079225 0.085176
0.142336 0.077729 0.084016
0.178561 0.068116 0.082918
0.223819 0.050233 0.079896
0.278660 0.013062 0.075227
0.343694 0.000000 0.065187
0.418189 0.000000 0.051240
0.500542 0.000000 0.031373
0.587854 0.000000 0.001190
0.675532 0.000000 0.000000
0.757748 0.000000 0.000000
0.830381 0.000000 0.000000
0.889830 0.000000 0.000000
0.937682 0.000000 0.000000
0.977173 0.000000 0.000000
1.000000 0.114351 0.000000
1.000000 0.204990 0.000000
1.000000 0.261753 0.000000
1.000000 0.303655 0.000000
1.000000 0.337957 0.000000
1.000000 0.365728 0.000000
1.000000 0.388464 0.000000
1.000000 0.408972 0.000000
1.000000 0.425818 0.000000
1.000000 0.439796 0.000000
1.000000 0.450721 0.000000
1.000000 0.460883 0.000000
1.000000 0.468482 0.000000
1.000000 0.474403 0.000000
0.088991 0.082216 0.086641
0.089723 0.082063 0.086610
0.099184 0.083742 0.085359
0.116579 0.083803 0.084627
0.142428 0.081392 0.083528
0.178134 0.076326 0.082246
0.223148 0.057679 0.079347
0.277501 0.022614 0.074220
0.342748 0.000000 0.063874
0.416785 0.000000 0.050141
0.498848 0.000000 0.029755
0.585657 0.000000 0.000000
0.673457 0.000000 0.000000
0.755764 0.000000 0.000000
0.828244 0.000000 0.000000
0.888182 0.000000 0.000000
0.936126 0.000000 0.000000
0.975738 0.000000 0.000000
1.000000 0.127657 0.000000
1.000000 0.210819 0.000000
1.000000 0.264073 0.000000
1.000000 0.305455 0.000000
1.000000 0.338964 0.000000
1.000000 0.366674 0.000000
1.000000 0.390204 0.000000
1.000000 0.409064 0.000000
1.000000 0.425360 0.000000
1.000000 0.439918 0.000000
1.000000 0.451179 0.000000
1.000000 0.460761 0.000000
1.000000 0.468879 0.000000
1.000000 0.475013 0.000000
0.090211 0.088563 0.088746
0.091218 0.088838 0.089509
0.094697 0.089693 0.089754
0.113558 0.093874 0.087098
0.140444 0.095644 0.082399
0.177340 0.094270 0.079377
0.222904 0.088899 0.074861
0.277775 0.063783 0.068574
0.342473 0.007874 0.057343
0.416815 0.000000 0.042664
0.498848 0.000000 0.020905
0.585962 0.000000 0.000000
0.672847 0.000000 0.000000
0.754818 0.000000 0.000000
0.827268 0.000000 0.000000
0.886687 0.000000 0.000000
0.934508 0.000000 0.000000
0.973907 0.000000 0.000000
1.000000 0.169863 0.000000
1.000000 0.235416 0.000000
1.000000 0.281834 0.000000
1.000000 0.320439 0.000000
1.000000 0.351293 0.000000
1.000000 0.376928 0.000000
1.000000 0.398688 0.000000
1.000000 0.416571 0.000000
1.000000 0.432837 0.000000
1.000000 0.445624 0.000000
1.000000 0.456672 0.000000
1.000000 0.465858 0.000000
1.000000 0.472969 0.000000
1.000000 0.478859 0.000000
0.093324 0.096986 0.092958
0.094850 0.097169 0.094148
0.098268 0.098634 0.096986
0.105837 0.099977 0.096254
0.132113 0.106233 0.092988
0.172824 0.113924 0.083558
0.221042 0.115114 0.071901
0.277226 0.110536 0.057588
0.343877 0.097780 0.042664
0.418433 0.042420 0.025483
0.500755 0.000000 0.000000
0.587366 0.000000 0.000000
0.674311 0.000000 0.000000
0.754940 0.000000 0.000000
0.826108 0.000000 0.000000
0.884581 0.000000 0.000000
0.931731 0.080903 0.000000
0.970611 0.177157 0.000000
1.000000 0.234562 0.000000
1.000000 0.280308 0.000000
1.000000 0.317113 0.000000
1.000000 0.348486 0.000000
1.000000 0.374945 0.000000
1.000000 0.397162 0.000000
1.000000 0.416205 0.000000
1.000000 0.432990 0.000000
1.000000 0.446967 0.000000
1.000000 0.457923 0.000000
1.000000 0.467689 0.000000
1.000000 0.475715 0.000000
1.000000 0.481910 0.000000
1.000000 0.487098 0.000000
0.099733 0.107485 0.099489
0.101106 0.107637 0.100526
0.105959 0.109346 0.104128
0.106691 0.111727 0.105806
0.119173 0.113466 0.104616
0.153384 0.122225 0.100374
0.203189 0.134646 0.090761
0.270970 0.147127 0.062226
0.339605 0.144472 0.037812
0.416175 0.136995 0.007782
0.500053 0.122896 0.000000
0.588220 0.107057 0.000000
0.674250 0.086976 0.000000
0.754360 0.097993 0.000000
0.823972 0.135348 0.000000
0.881071 0.184298 0.000000
0.927733 0.226047 0.000000
0.966033 0.268528 0.000000
0.998230 0.304234 0.000000
1.000000 0.336706 0.000000
1.000000 0.366125 0.000000
1.000000 0.389899 0.000000
1.000000 0.410193 0.000000
1.000000 0.427832 0.000000
1.000000 0.443427 0.000000
1.000000 0.456489 0.000000
1.000000 0.467720 0.000000
1.000000 0.477333 0.000000
1.000000 0.485084 0.000000
1.000000 0.491341 0.000000
1.000000 0.496345 0.000000
1.000000 0.500145 0.000000
0.104463 0.119722 0.105653
0.105776 0.119844 0.106630
0.109682 0.121645 0.109590
0.115846 0.124697 0.114626
0.114504 0.127718 0.115419
0.135195 0.130190 0.112734
0.175357 0.139681 0.108156
0.236423 0.158358 0.095949
0.317144 0.177310 0.062318
0.410132 0.197086 0.000000
0.494759 0.195743 0.000000
0.583154 0.197665 0.000000
0.669520 0.204013 0.000000
0.749569 0.222721 0.000000
0.819181 0.252659 0.000000
0.876036 0.285863 0.000000
0.921965 0.319554 0.000000
0.960113 0.351812 0.000000
0.991974 0.380621 0.000000
1.000000 0.403052 0.000000
1.000000 0.422583 0.000000
1.000000 0.439551 0.000000
1.000000 0.463416 0.000000
1.000000 0.475898 0.000000
1.000000 0.485145 0.000000
1.000000 0.493660 0.000000
1.000000 0.500877 0.000000
1.000000 0.506767 0.000000
1.000000 0.511681 0.000000
1.000000 0.515770 0.000000
1.000000 0.518425 0.000000
1.000000 0.520348 0.000000
0.109895 0.133974 0.112642
0.111025 0.134371 0.113191
0.113954 0.136202 0.115846
0.121736 0.139528 0.121828
0.124453 0.144106 0.125673
0.126528 0.148226 0.125734
0.154818 0.151003 0.122957
0.200687 0.160037 0.118257
0.273350 0.186831 0.102754
0.366247 0.214817 0.058930
0.476631 0.249668 0.000000
0.580560 0.281102 0.000000
0.667597 0.294072 0.000000
0.746700 0.312871 0.000000
0.815000 0.339025 0.000000
0.870481 0.364599 0.000000
0.916747 0.391638 0.000000
0.955047 0.416236 0.000000
0.987152 0.438911 0.000000
1.000000 0.459510 0.000000
1.000000 0.476600 0.000000
1.000000 0.491524 0.000000
1.000000 0.505119 0.000000
1.000000 0.514702 0.000000
1.000000 0.521080 0.000000
1.000000 0.526848 0.000000
1.000000 0.530694 0.000000
1.000000 0.534295 0.000000
1.000000 0.537102 0.000000
1.000000 0.539208 0.000000
1.000000 0.540002 0.000000
1.000000 0.540795 0.000000
0.115084 0.150362 0.120333
0.116243 0.150454 0.121157
0.119295 0.152193 0.123537
0.125917 0.155917 0.129152
0.136202 0.161715 0.137789
0.134340 0.166415 0.139132
0.142519 0.171695 0.138003
0.176822 0.175082 0.134859
0.225376 0.182193 0.130709
0.309636 0.217533 0.113100
0.412177 0.255955 0.063996
0.527337 0.301823 0.000000
0.644221 0.357153 0.000000
0.732784 0.395941 0.000000
0.801480 0.417304 0.000000
0.857939 0.438178 0.000000
0.904631 0.458595 0.000000
0.943328 0.475929 0.000000
0.976257 0.491646 0.000000
1.000000 0.505364 0.000000
1.000000 0.517845 0.000000
1.000000 0.528771 0.000000
1.000000 0.537713 0.000000
1.000000 0.546471 0.000000
1.000000 0.554253 0.000000
1.000000 0.561120 0.000000
1.000000 0.563745 0.000000
1.000000 0.564935 0.000000
1.000000 0.565454 0.000000
1.000000 0.565576 0.000000
1.000000 0.564935 0.000000
1.000000 0.563928 0.000000
0.121157 0.168887 0.129366
0.122377 0.169314 0.130037
0.125460 0.170962 0.132448
0.131594 0.174624 0.137423
0.141817 0.180514 0.146120
0.148226 0.187442 0.152926
0.145846 0.193820 0.154849
0.162631 0.199771 0.152560
0.202396 0.204013 0.148806
0.254795 0.210147 0.143343
0.348394 0.252781 0.125277
0.457343 0.302312 0.073487
0.576226 0.358312 0.000000
0.688960 0.420478 0.000000
0.781949 0.484169 0.000000
0.843137 0.511833 0.000000
0.890623 0.524773 0.000000
0.930388 0.535363 0.000000
0.964508 0.544915 0.000000
0.993927 0.553918 0.000000
1.000000 0.560967 0.000000
1.000000 0.567498 0.000000
1.000000 0.573510 0.000000
1.000000 0.578851 0.000000
1.000000 0.583734 0.000000
1.000000 0.588159 0.000000
1.000000 0.592065 0.000000
1.000000 0.595605 0.000000
1.000000 0.595880 0.000000
1.000000 0.594018 0.000000
1.000000 0.592035 0.000000
1.000000 0.589258 0.000000
0.127993 0.190127 0.139559
0.128115 0.190707 0.139895
0.131075 0.192386 0.142245
0.136965 0.196078 0.147097
0.146944 0.201907 0.155062
0.161868 0.210697 0.167300
0.160555 0.217899 0.170016
0.158297 0.226841 0.173159
0.185367 0.232883 0.169131
0.231907 0.237583 0.164340
0.287633 0.243137 0.158267
0.387121 0.291264 0.139193
0.501457 0.350835 0.089418
0.620325 0.415045 0.000000
0.726925 0.481514 0.000000
0.812039 0.540703 0.000000
0.874022 0.582818 0.000000
0.916442 0.592279 0.000000
0.951934 0.596887 0.000000
0.982605 0.600977 0.000000
1.000000 0.604486 0.000000
1.000000 0.607111 0.000000
1.000000 0.609339 0.000000
1.000000 0.611994 0.000000
1.000000 0.614130 0.000000
1.000000 0.616480 0.000000
1.000000 0.618189 0.000000
1.000000 0.619959 0.000000
1.000000 0.621759 0.000000
1.000000 0.622950 0.000000
1.000000 0.619532 0.000000
1.000000 0.615778 0.000000
0.132479 0.213840 0.149966
0.133181 0.214145 0.150271
0.136110 0.216068 0.152712
0.142245 0.219669 0.157412
0.151705 0.225834 0.165011
0.166110 0.234745 0.176516
0.177066 0.245121 0.187167
0.173892 0.254398 0.189914
0.170962 0.265721 0.194278
0.212406 0.271672 0.187533
0.265049 0.277287 0.181613
0.324041 0.282567 0.174472
0.426764 0.332891 0.155795
0.545068 0.401648 0.105806
0.660304 0.470710 0.000000
0.758236 0.535698 0.000000
0.834623 0.585382 0.000000
0.894224 0.621424 0.000000
0.938567 0.645533 0.000000
0.970245 0.646174 0.000000
0.998047 0.646296 0.000000
1.000000 0.646052 0.000000
1.000000 0.645991 0.000000
1.000000 0.646052 0.000000
1.000000 0.646082 0.000000
1.000000 0.646021 0.000000
1.000000 0.646082 0.000000
1.000000 0.645991 0.000000
1.000000 0.646143 0.000000
1.000000 0.646052 0.000000
1.000000 0.645747 0.000000
1.000000 0.643000 0.000000
0.136507 0.240208 0.160922
0.137453 0.240787 0.161501
0.139712 0.242527 0.163668
0.146059 0.246311 0.168154
0.155520 0.252567 0.175570
0.169558 0.261540 0.186648
0.189212 0.274296 0.202487
0.191073 0.285161 0.208408
0.187015 0.297215 0.212284
0.188357 0.310002 0.212985
0.242374 0.316411 0.207370
0.301091 0.322911 0.200748
0.371557 0.336156 0.195041
0.474342 0.383795 0.177005
0.595392 0.461616 0.129702
0.705287 0.533684 0.000000
0.793973 0.590509 0.000000
0.861997 0.630274 0.000000
0.916106 0.659327 0.000000
0.959930 0.681147 0.000000
0.991943 0.691798 0.000000
1.000000 0.688930 0.000000
1.000000 0.686061 0.000000
1.000000 0.683436 0.000000
1.000000 0.681239 0.000000
1.000000 0.679011 0.000000
1.000000 0.677058 0.000000
1.000000 0.675166 0.000000
1.000000 0.673274 0.000000
1.000000 0.671290 0.000000
1.000000 0.669429 0.000000
1.000000 0.667475 0.000000
0.138827 0.270939 0.172915
0.139132 0.271366 0.173312
0.142245 0.273167 0.175540
0.148348 0.277073 0.179904
0.157992 0.283299 0.187381
0.172061 0.292363 0.198093
0.192142 0.305241 0.213382
0.209598 0.320043 0.228885
0.205753 0.332616 0.232792
0.201724 0.347753 0.238437
0.215854 0.361669 0.237522
0.277684 0.369360 0.231144
0.342809 0.376776 0.223667
0.410742 0.383612 0.214237
0.505730 0.420996 0.199741
0.628443 0.505547 0.158236
0.731746 0.574609 0.056275
0.812863 0.623621 0.000000
0.875547 0.657740 0.000000
0.926116 0.682979 0.000000
0.967712 0.701839 0.000000
1.000000 0.716213 0.000000
1.000000 0.719997 0.000000
1.000000 0.716030 0.000000
1.000000 0.712490 0.000000
1.000000 0.709133 0.000000
1.000000 0.705592 0.000000
1.000000 0.702480 0.000000
1.000000 0.699245 0.000000
1.000000 0.696315 0.000000
1.000000 0.693202 0.000000
1.000000 0.690120 0.000000
0.138003 0.301701 0.184329
0.138674 0.302068 0.184848
0.142184 0.303990 0.187076
0.148165 0.307958 0.191379
0.158389 0.314122 0.198459
0.172915 0.323247 0.208865
0.192447 0.335943 0.223636
0.217960 0.352270 0.243168
0.224277 0.367132 0.253300
0.219242 0.381933 0.258396
0.215854 0.399359 0.266148
0.245853 0.411994 0.262547
0.312902 0.419593 0.255192
0.381292 0.426734 0.246708
0.450629 0.433143 0.236362
0.536248 0.458167 0.224094
0.657099 0.544976 0.191531
0.753079 0.607721 0.148043
0.828275 0.650813 0.071168
0.886992 0.680995 0.000000
0.934661 0.703487 0.000000
0.974731 0.720760 0.000000
1.000000 0.734249 0.000000
1.000000 0.744717 0.000000
1.000000 0.744045 0.000000
1.000000 0.739376 0.000000
1.000000 0.734890 0.000000
1.000000 0.730587 0.000000
1.000000 0.726192 0.000000
1.000000 0.722225 0.000000
1.000000 0.717983 0.000000
1.000000 0.713863 0.000000
0.134859 0.334478 0.196201
0.135683 0.335058 0.196902
0.138857 0.336584 0.198703
0.146151 0.340459 0.203067
0.156802 0.346471 0.210086
0.172000 0.355230 0.220157
0.192111 0.367163 0.234195
0.217655 0.382879 0.253117
0.244358 0.401495 0.275090
0.239414 0.416083 0.280003
0.235233 0.432868 0.287266
0.231510 0.452216 0.296391
0.279118 0.462593 0.289128
0.350072 0.469703 0.281193
0.420142 0.475929 0.271885
0.489418 0.481453 0.260777
0.570245 0.502159 0.248600
0.682216 0.579248 0.226413
0.772335 0.635950 0.204379
0.841520 0.673854 0.180972
0.896941 0.701381 0.151186
0.942687 0.722316 0.097810
0.981079 0.738491 0.000000
1.000000 0.751217 0.000000
1.000000 0.761288 0.000000
1.000000 0.769162 0.000000
1.000000 0.764858 0.000000
1.000000 0.759518 0.000000
1.000000 0.754391 0.000000
1.000000 0.749233 0.000000
1.000000 0.744137 0.000000
1.000000 0.738979 0.000000
0.129915 0.367071 0.208042
0.130831 0.367559 0.208530
0.134401 0.369390 0.210575
0.141939 0.372961 0.214694
0.153201 0.378973 0.221622
0.169345 0.387549 0.231540
0.190219 0.399176 0.245365
0.216037 0.414313 0.263767
0.247440 0.433204 0.287755
0.261631 0.450904 0.303471
0.256535 0.467018 0.309758
0.253788 0.484962 0.318944
0.251926 0.504784 0.329808
0.316625 0.511376 0.317662
0.388434 0.516960 0.308904
0.458106 0.522087 0.298894
0.526238 0.526665 0.287266
0.601129 0.542596 0.275578
0.704311 0.608087 0.261997
0.787900 0.659083 0.253513
0.853117 0.693965 0.246006
0.906035 0.719905 0.234806
0.949950 0.739834 0.219120
0.986877 0.755367 0.193637
1.000000 0.767605 0.148409
1.000000 0.777340 0.000000
1.000000 0.785031 0.000000
1.000000 0.789456 0.000000
1.000000 0.783413 0.000000
1.000000 0.777371 0.000000
1.000000 0.771267 0.000000
1.000000 0.765194 0.000000
0.123568 0.399542 0.220127
0.124208 0.400092 0.220554
0.128603 0.401648 0.222568
0.136385 0.405127 0.226535
0.149111 0.410895 0.233402
0.165713 0.419287 0.243107
0.187747 0.430213 0.256504
0.214267 0.444465 0.274571
0.245518 0.461982 0.297307
0.282597 0.483070 0.325994
0.279789 0.498390 0.332769
0.276738 0.515282 0.340887
0.276463 0.533959 0.351843
0.279789 0.551354 0.355291
0.355993 0.556298 0.347265
0.427588 0.560693 0.338201
0.495705 0.564813 0.327672
0.561364 0.568444 0.316258
0.629816 0.579828 0.305211
0.723690 0.632898 0.298466
0.802365 0.679805 0.300206
0.864286 0.712551 0.301762
0.914702 0.737362 0.300572
0.956542 0.756405 0.294743
0.991791 0.771481 0.282567
1.000000 0.783536 0.261204
1.000000 0.793057 0.228031
1.000000 0.800412 0.170199
1.000000 0.805905 0.058900
1.000000 0.806424 0.000000
1.000000 0.799496 0.000000
1.000000 0.792508 0.000000
0.115389 0.432380 0.232883
0.115999 0.432532 0.233158
0.120027 0.439582 0.237522
0.130129 0.442847 0.241611
0.144930 0.448402 0.248264
0.163180 0.456214 0.258061
0.186648 0.466560 0.271458
0.214359 0.480110 0.289097
0.246860 0.496254 0.311406
0.284550 0.515984 0.339269
0.307439 0.534630 0.360571
0.306218 0.550378 0.369024
0.306096 0.567376 0.379004
0.309209 0.585107 0.391485
0.329778 0.598260 0.391363
0.403540 0.601465 0.382910
0.472175 0.604334 0.372961
0.537163 0.606867 0.362707
0.598138 0.609125 0.351141
0.659541 0.615930 0.340276
0.742153 0.655634 0.338445
0.817838 0.700435 0.347539
0.876127 0.731258 0.356115
0.923613 0.754788 0.361730
0.963073 0.773129 0.361883
0.996307 0.787808 0.355657
1.000000 0.799435 0.341802
1.000000 0.808591 0.319799
1.000000 0.815549 0.285924
1.000000 0.820462 0.232090
1.000000 0.823850 0.185153
1.000000 0.820584 0.071077
0.104982 0.465919 0.246677
0.107118 0.466926 0.247379
0.112276 0.468940 0.249485
0.124239 0.472572 0.253880
0.139651 0.478065 0.260655
0.159915 0.485481 0.270207
0.184451 0.495186 0.283238
0.212985 0.507439 0.300145
0.245762 0.522332 0.321355
0.283360 0.540124 0.347845
0.325353 0.560479 0.379553
0.331365 0.575799 0.391272
0.332036 0.591302 0.400763
0.336400 0.607385 0.412879
0.342809 0.623926 0.426673
0.377203 0.632959 0.422736
0.446418 0.635279 0.414374
0.510979 0.637232 0.404852
0.571862 0.639094 0.395178
0.628626 0.640803 0.384497
0.683742 0.644465 0.373907
0.756161 0.673457 0.374304
0.830228 0.717464 0.389380
0.885435 0.747036 0.403204
0.930510 0.769924 0.412726
0.967803 0.788144 0.416815
0.999512 0.802731 0.415564
1.000000 0.814298 0.407599
1.000000 0.823239 0.391547
1.000000 0.829892 0.366735
1.000000 0.834440 0.328374
1.000000 0.837034 0.271794
0.095338 0.497444 0.260105
0.096254 0.498177 0.260807
0.104616 0.500328 0.263218
0.116579 0.503777 0.267277
0.134676 0.508751 0.273960
0.157565 0.515770 0.283665
0.183108 0.524681 0.296056
0.212924 0.535882 0.312566
0.246586 0.549493 0.333257
0.284001 0.565301 0.358099
0.325872 0.583368 0.388403
0.358618 0.601068 0.415106
0.360937 0.615015 0.424689
0.364630 0.629633 0.435767
0.373297 0.644221 0.449500
0.383948 0.658778 0.464759
0.427497 0.663966 0.456489
0.490272 0.665431 0.448219
0.549523 0.666682 0.439490
0.605097 0.667842 0.430091
0.657435 0.668971 0.419959
0.706538 0.670039 0.409033
0.769589 0.690089 0.410010
0.841978 0.733425 0.429511
0.894133 0.762112 0.447486
0.936736 0.784695 0.460121
0.972076 0.802853 0.467536
1.000000 0.817411 0.469306
1.000000 0.828855 0.464942
1.000000 0.837613 0.453895
1.000000 0.843992 0.434272
1.000000 0.848142 0.404089
0.082185 0.529290 0.274693
0.088380 0.530053 0.275395
0.096559 0.531884 0.277653
0.110903 0.535088 0.281773
0.132631 0.539696 0.288304
0.156069 0.546075 0.297704
0.183841 0.554131 0.309972
0.214969 0.564355 0.325963
0.249119 0.576410 0.345739
0.287419 0.590692 0.370123
0.329198 0.606561 0.399054
0.374670 0.623804 0.432532
0.390784 0.637720 0.449500
0.396185 0.650477 0.460395
0.404639 0.663447 0.473426
0.416266 0.676295 0.488106
0.429114 0.689113 0.503960
0.477516 0.691249 0.491951
0.533288 0.692409 0.484596
0.586847 0.693446 0.476570
0.637720 0.694362 0.468177
0.685817 0.695277 0.458930
0.731106 0.696193 0.449195
0.786862 0.710689 0.449897
0.854459 0.750027 0.471534
0.903807 0.778286 0.492592
0.943816 0.800839 0.507683
0.977111 0.818967 0.517876
1.000000 0.833341 0.522301
1.000000 0.844602 0.520745
1.000000 0.853086 0.513359
1.000000 0.859037 0.498360
0.080446 0.564050 0.292027
0.085542 0.564599 0.292638
0.095399 0.565911 0.294621
0.112398 0.568322 0.298558
0.134524 0.572351 0.304875
0.160922 0.577783 0.313970
0.189578 0.584985 0.326146
0.221164 0.593896 0.341650
0.256443 0.604578 0.361120
0.295140 0.616968 0.384619
0.336614 0.630701 0.412451
0.382330 0.645502 0.444923
0.423499 0.659998 0.476661
0.430335 0.671107 0.487556
0.438392 0.682551 0.499428
0.449989 0.693843 0.513542
0.463203 0.705074 0.528801
0.474983 0.714992 0.535302
0.525536 0.715785 0.528618
0.574578 0.716426 0.521538
0.621973 0.717037 0.513939
0.667475 0.717464 0.505791
0.711086 0.717891 0.496773
0.752407 0.718379 0.487434
0.803128 0.730190 0.488136
0.865141 0.764767 0.508293
0.911772 0.792813 0.531029
0.949493 0.815335 0.548241
0.980896 0.833402 0.559930
1.000000 0.847715 0.566003
1.000000 0.858762 0.566674
1.000000 0.867094 0.562188
0.092592 0.595270 0.309087
0.095399 0.595636 0.309636
0.106111 0.596857 0.311833
0.123323 0.599145 0.315831
0.143771 0.602625 0.321965
0.170077 0.607355 0.330755
0.199435 0.613550 0.342596
0.232029 0.621424 0.358038
0.267338 0.630549 0.376867
0.305608 0.641138 0.399695
0.346807 0.652613 0.426429
0.391394 0.665126 0.457404
0.438544 0.678157 0.492103
0.462379 0.689357 0.513298
0.471412 0.699367 0.525109
0.481239 0.709560 0.537682
0.495003 0.719570 0.552575
0.509087 0.729549 0.567773
0.526574 0.736629 0.570367
0.569848 0.737209 0.564080
0.612818 0.737758 0.557519
0.654810 0.738216 0.550469
0.695766 0.738582 0.542626
0.735225 0.739010 0.534630
0.772213 0.738521 0.523919
0.818173 0.748409 0.524102
0.874052 0.778103 0.542473
0.919158 0.806973 0.566369
0.954925 0.829526 0.584558
0.984802 0.847471 0.596979
1.000000 0.861723 0.604700
1.000000 0.872129 0.605524
0.120180 0.626947 0.328985
0.123110 0.627497 0.329961
0.131014 0.628504 0.331731
0.145907 0.630304 0.335760
0.166079 0.633021 0.341680
0.189700 0.636988 0.350378
0.218021 0.642023 0.361913
0.248722 0.648127 0.376318
0.283360 0.655543 0.394598
0.320195 0.664118 0.416358
0.360479 0.673518 0.441779
0.403296 0.683864 0.471229
0.448005 0.694728 0.503807
0.492531 0.705959 0.538262
0.501732 0.714687 0.549432
0.511467 0.723568 0.561212
0.523186 0.732570 0.574426
0.537041 0.741604 0.588983
0.550866 0.750698 0.603632
0.571160 0.755642 0.602319
0.609003 0.756283 0.596643
0.646876 0.756832 0.590631
0.684291 0.757259 0.584070
0.720974 0.757595 0.576745
0.756802 0.757900 0.569116
0.791501 0.758206 0.560784
0.833036 0.766476 0.560327
0.882811 0.791562 0.576013
0.927001 0.821622 0.599939
0.960784 0.844022 0.618433
0.988678 0.861387 0.630549
1.000000 0.874449 0.636652
0.154604 0.654566 0.348974
0.155825 0.654994 0.349706
0.163088 0.655818 0.351629
0.175448 0.657435 0.355535
0.192905 0.659785 0.361578
0.214572 0.663081 0.370092
0.240818 0.667262 0.381353
0.271122 0.672633 0.396002
0.304051 0.678920 0.413764
0.339574 0.686061 0.434821
0.378271 0.694057 0.459541
0.419043 0.702663 0.487434
0.461494 0.711849 0.518364
0.505425 0.721462 0.551904
0.533471 0.730343 0.575463
0.543450 0.738277 0.586938
0.553613 0.746548 0.598688
0.565698 0.754910 0.611780
0.578302 0.763363 0.625422
0.591150 0.771939 0.639246
0.612909 0.774929 0.634333
0.646113 0.775601 0.629236
0.679652 0.776150 0.623835
0.713069 0.776669 0.617792
0.746151 0.777096 0.611475
0.778714 0.777584 0.604547
0.810636 0.778073 0.597375
0.848112 0.785183 0.596704
0.892576 0.806394 0.609491
0.935088 0.836973 0.632685
0.966186 0.858122 0.649226
0.991882 0.874540 0.660243
0.196994 0.681819 0.372564
0.198154 0.682033 0.373205
0.203128 0.682704 0.374975
0.213565 0.683894 0.378729
0.227726 0.685786 0.384527
0.247440 0.688411 0.392767
0.271122 0.691920 0.403876
0.298528 0.696162 0.417823
0.328954 0.701167 0.434791
0.362615 0.707057 0.455055
0.398840 0.713588 0.478584
0.437049 0.720760 0.504997
0.476967 0.728450 0.534112
0.518029 0.736477 0.565301
0.560204 0.745174 0.598413
0.572351 0.752651 0.611078
0.582055 0.760220 0.622187
0.591791 0.768063 0.633509
0.603632 0.775937 0.646326
0.615381 0.783993 0.659083
0.627008 0.792142 0.671839
0.649531 0.793606 0.664027
0.678920 0.794308 0.659327
0.708980 0.794919 0.654322
0.739101 0.795529 0.649042
0.769100 0.796139 0.643427
0.798978 0.796811 0.637385
0.828458 0.797543 0.631159
0.861967 0.803250 0.629328
0.900938 0.819821 0.637873
0.941650 0.850370 0.659113
0.970550 0.870939 0.675410
0.241978 0.706966 0.398199
0.243259 0.707179 0.398932
0.247776 0.707698 0.400671
0.255833 0.708675 0.404211
0.268742 0.710353 0.410193
0.285679 0.712581 0.418280
0.306889 0.715541 0.429175
0.332128 0.719234 0.443061
0.360571 0.723568 0.459754
0.391913 0.728573 0.479500
0.426093 0.734157 0.502312
0.461891 0.740322 0.527611
0.499306 0.746914 0.555108
0.537926 0.754025 0.584710
0.576287 0.761685 0.615045
0.604089 0.769406 0.638666
0.613001 0.776425 0.649042
0.622065 0.783719 0.659541
0.631861 0.791196 0.670710
0.642634 0.798795 0.682551
0.653101 0.806546 0.694362
0.661158 0.813657 0.700008
0.685908 0.814511 0.695735
0.712154 0.815366 0.691737
0.738857 0.816159 0.687404
0.766018 0.816922 0.682643
0.792844 0.817258 0.676905
0.819638 0.817533 0.670680
0.846220 0.817868 0.664302
0.875883 0.822141 0.661463
0.910399 0.835172 0.667781
0.948974 0.865476 0.687770
0.297490 0.733394 0.431434
0.298436 0.733455 0.431678
0.301762 0.733852 0.433387
0.308019 0.734615 0.436774
0.318578 0.735714 0.442145
0.332830 0.737331 0.449805
0.350652 0.739590 0.460060
0.372168 0.742245 0.472724
0.396979 0.745510 0.488106
0.424445 0.749416 0.506340
0.454627 0.753780 0.527001
0.486732 0.758755 0.550103
0.520989 0.764218 0.575494
0.555627 0.770199 0.602289
