20 Preset/Japan Style/【3】LUT video cho PR-AE-FCPX/LUT VIDEO/Japan Style LUT (20).cube
# Created by Adobe Lightroom plugin Export LUT (1.24.0)
# www.johnrellis.com/lightroom/exportlut.htm
# Preset: 20日系少女风（素材江湖）
# Color profile: C:\Program Files (x86)\Common Files\Adobe\Color\Profiles\Recommended\VideoHD.icc
LUT_3D_SIZE 8
DOMAIN_MIN 0.000000 0.000000 0.000000
DOMAIN_MAX 0.903226 0.903226 0.903226
0.096864 0.096864 0.096864
0.175051 0.098390 0.094179
0.369238 0.110323 0.057527
0.585931 0.144472 0.000000
0.803586 0.195987 0.000000
0.958282 0.240513 0.000000
1.000000 0.267247 0.000000
1.000000 0.279911 0.000000
0.000000 0.175875 0.091615
0.167391 0.175296 0.083955
0.371984 0.195987 0.000000
0.591882 0.225620 0.000000
0.807431 0.261418 0.000000
0.959136 0.283177 0.000000
1.000000 0.296208 0.000000
1.000000 0.306188 0.000000
0.000000 0.351080 0.016541
0.000000 0.349401 0.016815
0.325139 0.346563 0.000000
0.574762 0.374731 0.000000
0.805936 0.403235 0.000000
0.950805 0.398749 0.000000
1.000000 0.388861 0.000000
1.000000 0.381109 0.000000
0.000000 0.550347 0.000000
0.000000 0.549340 0.000000
0.129488 0.543999 0.000000
0.502312 0.536889 0.000000
0.739315 0.539452 0.000000
0.924590 0.542107 0.000000
1.000000 0.515892 0.000000
1.000000 0.489143 0.000000
0.000000 0.717800 0.000000
0.000000 0.716548 0.000000
0.000000 0.711299 0.000000
0.350256 0.701717 0.000000
0.644495 0.689113 0.000000
0.840574 0.656764 0.000000
0.989807 0.641779 0.000000
1.000000 0.610376 0.000000
0.000000 0.824338 0.000000
0.000000 0.823026 0.000000
0.000000 0.819181 0.000000
0.000000 0.811490 0.000000
0.490639 0.800534 0.000000
0.735958 0.785611 0.000000
0.907591 0.741848 0.000000
1.000000 0.718715 0.000000
0.000000 0.898894 0.000000
0.000000 0.898192 0.000000
0.000000 0.895476 0.000000
0.000000 0.890043 0.000000
0.279454 0.881773 0.000000
0.594781 0.870695 0.000000
0.804349 0.856657 0.000000
0.965911 0.822965 0.000000
0.000000 0.957336 0.178012
0.000000 0.956939 0.177798
0.000000 0.955230 0.175540
0.000000 0.951812 0.171878
0.000000 0.947295 0.172641
0.455543 0.940215 0.129335
0.682826 0.931243 0.000000
0.867582 0.921080 0.000000
0.103090 0.091585 0.197360
0.190890 0.075441 0.193668
0.380652 0.000000 0.175204
0.588952 0.035523 0.134401
0.805447 0.143343 0.000000
0.960082 0.201053 0.000000
1.000000 0.238499 0.000000
1.000000 0.264103 0.000000
0.000000 0.181918 0.196811
0.170474 0.175967 0.191745
0.371527 0.171817 0.168582
0.591089 0.187411 0.130068
0.806699 0.220645 0.000000
0.959075 0.250797 0.000000
1.000000 0.272557 0.000000
1.000000 0.288884 0.000000
0.000000 0.356085 0.198856
0.000000 0.356573 0.174502
0.329015 0.351049 0.162142
0.584680 0.371740 0.108705
0.805753 0.387732 0.000000
0.951598 0.383459 0.000000
1.000000 0.375982 0.000000
1.000000 0.369970 0.000000
0.000000 0.556695 0.138827
0.000000 0.555596 0.131014
0.108217 0.549096 0.127871
0.505547 0.541405 0.018372
0.749569 0.542321 0.000000
0.929808 0.539513 0.000000
1.000000 0.510582 0.000000
1.000000 0.483619 0.000000
0.000000 0.719631 0.000000
0.000000 0.718532 0.000000
0.000000 0.713252 0.000000
0.342290 0.703639 0.000000
0.645960 0.690913 0.000000
0.844511 0.658228 0.000000
0.991699 0.640742 0.000000
1.000000 0.608728 0.000000
0.000000 0.825071 0.020356
0.000000 0.824125 0.016968
0.000000 0.820157 0.005798
0.000000 0.812345 0.000000
0.489296 0.801175 0.000000
0.736294 0.786069 0.000000
0.908751 0.741817 0.000000
1.000000 0.718288 0.000000
0.000000 0.899016 0.147341
0.000000 0.898466 0.147219
0.000000 0.895750 0.143557
0.000000 0.890257 0.137575
0.283787 0.881895 0.126802
0.595361 0.870878 0.000000
0.805020 0.857053 0.000000
0.966583 0.822934 0.000000
0.000000 0.957183 0.227543
0.000000 0.956725 0.227115
0.000000 0.955047 0.225711
0.000000 0.951659 0.222538
0.000000 0.946746 0.219120
0.459022 0.939849 0.191775
0.684047 0.931151 0.046387
0.868101 0.921141 0.000000
0.129580 0.007050 0.418067
0.221408 0.000000 0.415381
0.393988 0.000000 0.403937
0.591394 0.000000 0.409735
0.802976 0.000000 0.350774
0.949493 0.000000 0.269047
1.000000 0.080507 0.227970
1.000000 0.184390 0.159335
0.000000 0.153628 0.416632
0.169894 0.145449 0.413977
0.384222 0.094209 0.403784
0.589441 0.000000 0.403571
0.801602 0.000000 0.333501
0.946319 0.000000 0.275822
1.000000 0.177707 0.228031
1.000000 0.225101 0.158755
0.000000 0.360937 0.404486
0.000000 0.357427 0.402228
0.321691 0.339971 0.390356
0.569909 0.317388 0.351110
0.784024 0.325139 0.319982
0.938567 0.329473 0.277409
1.000000 0.333593 0.227573
1.000000 0.334844 0.154208
0.000000 0.556481 0.393378
0.000000 0.555657 0.389502
0.128939 0.551537 0.368719
0.504234 0.541131 0.337591
0.758602 0.538323 0.315923
0.920592 0.521904 0.286595
1.000000 0.492927 0.231571
1.000000 0.467140 0.151369
0.000000 0.717372 0.374914
0.000000 0.716670 0.370001
0.000000 0.714656 0.324529
0.325628 0.703670 0.319280
0.644984 0.689967 0.286503
0.851194 0.659327 0.247288
0.990845 0.638483 0.226566
1.000000 0.603418 0.160830
0.000000 0.821714 0.361364
0.000000 0.821592 0.345922
0.000000 0.819120 0.318639
0.000000 0.811337 0.314275
0.487648 0.800168 0.298314
0.736446 0.785245 0.251804
0.910704 0.743435 0.204410
1.000000 0.717189 0.027100
0.000000 0.896635 0.329198
0.000000 0.896056 0.329015
0.000000 0.893462 0.327123
0.000000 0.888182 0.323186
0.326177 0.880125 0.316930
0.599023 0.869505 0.283299
0.805692 0.855985 0.223911
0.965789 0.820401 0.143618
0.000000 0.954833 0.356603
0.000000 0.954498 0.356481
0.000000 0.952880 0.355474
0.000000 0.949615 0.352544
0.180301 0.944945 0.350134
0.478431 0.938354 0.337072
0.690211 0.930297 0.292729
0.869932 0.920897 0.225864
0.173190 0.000000 0.651514
0.250370 0.000000 0.648859
0.422217 0.000000 0.640681
0.608270 0.000000 0.626062
0.796811 0.000000 0.616510
0.943999 0.000000 0.564538
1.000000 0.000000 0.469368
1.000000 0.000000 0.382361
0.000000 0.102724 0.646845
0.198276 0.084962 0.644984
0.401434 0.000000 0.637964
0.601465 0.000000 0.624201
0.793881 0.000000 0.612848
0.940948 0.000000 0.557488
1.000000 0.000000 0.464149
1.000000 0.021576 0.397955
0.000000 0.330205 0.637812
0.000000 0.319738 0.636683
0.304723 0.294865 0.630701
0.573754 0.243656 0.618524
0.778347 0.211063 0.597284
0.923919 0.200076 0.529015
1.000000 0.227390 0.447944
1.000000 0.339117 0.424811
0.000000 0.548058 0.615137
0.000000 0.546136 0.613672
0.000000 0.537804 0.607019
0.495155 0.520378 0.590661
0.728206 0.497688 0.553918
0.877256 0.502129 0.519799
0.993256 0.494850 0.484077
1.000000 0.477729 0.435309
0.000000 0.714382 0.571160
0.000000 0.713497 0.569879
0.000000 0.708827 0.564660
0.403265 0.697414 0.557244
0.644923 0.683742 0.534203
0.842863 0.669673 0.526909
0.967163 0.652552 0.509911
1.000000 0.615137 0.452888
0.000000 0.816129 0.538048
0.000000 0.814969 0.537407
0.000000 0.811154 0.538079
0.293400 0.804135 0.530999
0.518608 0.794095 0.516777
0.738247 0.781094 0.489479
0.907622 0.749325 0.457313
1.000000 0.727871 0.440192
0.000000 0.889189 0.523857
0.000000 0.888243 0.526116
0.000000 0.884398 0.537041
0.032258 0.881865 0.508019
0.423102 0.874510 0.501671
0.619318 0.865110 0.485481
0.808560 0.853391 0.451392
0.960693 0.817319 0.414008
0.000000 0.947112 0.535576
0.000000 0.947204 0.530968
0.000000 0.947417 0.510918
0.000000 0.944640 0.508965
0.356420 0.940459 0.506279
0.530724 0.934691 0.500664
0.708949 0.927977 0.474586
0.874662 0.920073 0.439063
0.209476 0.000000 0.810910
0.265507 0.000000 0.809445
0.412055 0.000000 0.804715
0.584863 0.000000 0.796078
0.760983 0.000000 0.782620
0.927733 0.000000 0.764065
1.000000 0.000000 0.711666
1.000000 0.000000 0.626520
0.149630 0.000000 0.807584
0.227756 0.000000 0.806210
0.393164 0.000000 0.802182
0.575006 0.000000 0.794278
0.756497 0.000000 0.780972
0.924834 0.000000 0.761654
1.000000 0.000000 0.709499
1.000000 0.000000 0.624079
0.000000 0.277867 0.799313
0.000000 0.274876 0.798428
0.312078 0.260502 0.794858
0.535149 0.224063 0.786862
0.737911 0.133608 0.774166
0.911101 0.000000 0.751980
1.000000 0.142092 0.696834
1.000000 0.229313 0.616510
0.000000 0.496010 0.781125
0.000000 0.494118 0.780179
0.143191 0.485603 0.776181
0.469886 0.470741 0.768124
0.696376 0.434699 0.756893
0.872465 0.434211 0.731075
0.976349 0.446540 0.673762
1.000000 0.461921 0.611566
0.000000 0.677333 0.753292
0.000000 0.676661 0.752438
0.000000 0.674037 0.748470
0.414160 0.670130 0.739925
0.641962 0.663325 0.725246
0.807340 0.647639 0.699947
0.917876 0.651148 0.668269
1.000000 0.642206 0.639002
0.000000 0.811673 0.703395
0.000000 0.810788 0.702571
0.000000 0.806821 0.698787
0.332586 0.797513 0.692439
0.590417 0.785672 0.692103
0.743526 0.773770 0.676967
0.892454 0.766567 0.669795
0.993530 0.757900 0.659174
0.000000 0.886809 0.647028
0.000000 0.886107 0.647181
0.000000 0.883146 0.648188
0.312078 0.875822 0.656336
0.538750 0.866178 0.664912
0.658778 0.858549 0.652888
0.815152 0.849546 0.631861
0.952789 0.827146 0.609003
0.000000 0.948882 0.613428
0.000000 0.948028 0.616907
0.000000 0.944305 0.632105
0.393347 0.937346 0.660609
0.488746 0.934905 0.647211
0.607691 0.930114 0.643153
0.738308 0.925048 0.631983
0.883177 0.919463 0.611933
0.235569 0.000000 0.903227
0.274144 0.000000 0.902434
0.389899 0.000000 0.899718
0.536522 0.000000 0.893919
0.693996 0.000000 0.885008
0.850187 0.000000 0.873014
1.000000 0.000000 0.863401
1.000000 0.000000 0.806088
0.206668 0.000000 0.901854
0.251774 0.000000 0.901274
0.377020 0.000000 0.898650
0.528710 0.000000 0.892851
0.689174 0.000000 0.884001
0.847654 0.000000 0.872038
1.000000 0.000000 0.862821
1.000000 0.000000 0.804807
0.000000 0.247959 0.893797
0.125002 0.245884 0.893187
0.323308 0.235782 0.890623
0.497566 0.213046 0.885649
0.668696 0.161410 0.877440
0.834836 0.000000 0.865995
0.995422 0.000000 0.855894
1.000000 0.122621 0.798978
0.000000 0.445258 0.879026
0.000000 0.445563 0.878386
0.263005 0.446326 0.875303
0.459419 0.436316 0.870390
0.636530 0.417670 0.862821
0.809751 0.387549 0.852445
0.967224 0.386084 0.839109
1.000000 0.413336 0.789395
0.000000 0.617487 0.858335
0.000000 0.618250 0.857603
0.223728 0.621881 0.854459
0.457252 0.627710 0.848142
0.620386 0.624140 0.840177
0.775814 0.599634 0.831296
0.922057 0.594903 0.814176
1.000000 0.598291 0.768093
0.000000 0.760372 0.832883
0.000000 0.760250 0.832151
0.000000 0.760189 0.829679
0.400702 0.760494 0.824460
0.592706 0.760769 0.816007
0.742031 0.757321 0.803250
0.868345 0.745449 0.782010
0.959503 0.749294 0.759426
0.000000 0.880064 0.792264
0.000000 0.879393 0.791531
0.000000 0.876799 0.788479
0.282322 0.871611 0.782895
0.529961 0.863371 0.776516
0.705135 0.851804 0.775906
0.821439 0.844327 0.766079
0.943114 0.843565 0.765133
0.000000 0.948089 0.729885
0.000000 0.947601 0.730343
0.000000 0.945403 0.732113
0.261845 0.940948 0.735927
0.524590 0.933349 0.748531
0.679469 0.925872 0.762692
0.772305 0.922179 0.760769
0.893950 0.919585 0.750851
0.256718 0.000000 0.966827
0.285130 0.000000 0.967193
0.374304 0.000000 0.964904
0.497566 0.000000 0.961151
0.633936 0.000000 0.955108
0.775814 0.000000 0.946502
0.913603 0.000000 0.935363
1.000000 0.000000 0.922087
0.238468 0.000000 0.961425
0.268925 0.000000 0.962066
0.363500 0.000000 0.960021
0.489052 0.000000 0.955962
0.626398 0.000000 0.949615
0.768368 0.000000 0.940429
0.906096 0.000000 0.928618
1.000000 0.000000 0.914885
0.171023 0.219516 0.957977
0.215091 0.217899 0.957519
0.330144 0.209903 0.954986
0.467689 0.193149 0.950866
0.610895 0.157382 0.944091
0.757015 0.010651 0.935760
0.900237 0.000000 0.926390
1.000000 0.000000 0.915343
0.132784 0.417700 0.947997
0.186160 0.416541 0.947356
0.309026 0.411505 0.944762
0.451545 0.405829 0.941405
0.595148 0.392828 0.935454
0.742245 0.374304 0.928435
0.887999 0.355657 0.919738
1.000000 0.354009 0.909545
0.140352 0.576959 0.928466
0.191989 0.576562 0.927184
0.327062 0.580316 0.924132
0.467781 0.586389 0.920378
0.588830 0.574975 0.915801
0.721889 0.558526 0.909209
0.863615 0.538231 0.901274
1.000000 0.544274 0.896239
0.000000 0.702052 0.907897
0.000000 0.703059 0.907561
0.276463 0.706538 0.905760
0.450355 0.713985 0.902129
0.598413 0.722774 0.896391
0.720821 0.722499 0.891203
0.843198 0.706600 0.885100
0.964477 0.703090 0.872862
0.000000 0.823423 0.889311
0.000000 0.824216 0.889372
0.162325 0.824979 0.887755
0.400458 0.826963 0.884855
0.562524 0.828702 0.879637
0.701411 0.830686 0.872679
0.821653 0.832212 0.864591
0.926024 0.829923 0.851072
0.000000 0.942351 0.865843
0.000000 0.942077 0.865537
0.000000 0.941222 0.865080
0.305730 0.938140 0.861784
0.515038 0.933257 0.856321
0.675074 0.927245 0.852201
0.817044 0.920378 0.859922
0.905211 0.920378 0.857847
0.267582 0.000000 1.000000
0.288518 0.000000 1.000000
0.358129 0.000000 1.000000
0.460853 0.000000 1.000000
0.578302 0.000000 0.996338
0.702876 0.000000 0.990570
0.832090 0.000000 0.983764
0.955871 0.000000 0.974975
0.255314 0.000000 1.000000
0.277165 0.000000 1.000000
0.349950 0.000000 1.000000
0.454932 0.000000 0.997955
0.573877 0.000000 0.994018
0.699214 0.000000 0.988312
0.828519 0.000000 0.981231
0.952697 0.000000 0.972168
0.208103 0.160800 0.997467
0.236393 0.159274 0.997253
0.321935 0.149569 0.995636
0.437507 0.137453 0.994293
0.561151 0.093294 0.990021
0.689143 0.000000 0.983978
0.820768 0.000000 0.977264
0.947478 0.000000 0.968658
0.136843 0.345861 0.989563
0.182528 0.346166 0.989471
0.289036 0.342962 0.988159
0.414984 0.338964 0.986145
0.544305 0.329656 0.982574
0.675502 0.312291 0.977386
0.809354 0.285771 0.971283
0.939422 0.260899 0.963561
0.246372 0.529168 0.975036
0.264378 0.528252 0.975219
0.312535 0.517327 0.974975
0.415473 0.509575 0.973541
0.536187 0.500938 0.970092
0.662501 0.488045 0.965423
0.794766 0.473274 0.960082
0.927184 0.465278 0.953948
0.156374 0.645838 0.961059
0.192691 0.645563 0.960510
0.298741 0.646998 0.958648
0.432319 0.654078 0.955779
0.564477 0.665248 0.952514
0.671473 0.658564 0.951019
0.792874 0.656245 0.948089
0.917205 0.654383 0.944701
0.000000 0.762264 0.948547
0.000000 0.762722 0.948180
0.256504 0.765042 0.946777
0.418799 0.771572 0.944549
0.563348 0.781765 0.941405
0.694820 0.795529 0.937957
0.802304 0.801541 0.936156
0.905638 0.793393 0.933379
0.000000 0.883757 0.938842
0.000000 0.883879 0.938537
0.211429 0.885130 0.937804
0.403357 0.888640 0.937011
0.554162 0.893370 0.935546
0.686915 0.899199 0.933562
0.807889 0.906462 0.931731
0.907530 0.914122 0.930297
