20 Preset/Japan Style/【3】LUT video cho PR-AE-FCPX/LUT VIDEO/Japan Style LUT (9).cube
# Created by Adobe Lightroom plugin Export LUT (1.24.0)
# www.johnrellis.com/lightroom/exportlut.htm
# Preset: 09日系胶片（素材江湖）
# Color profile: C:\Program Files (x86)\Common Files\Adobe\Color\Profiles\Recommended\VideoHD.icc
LUT_3D_SIZE 8
DOMAIN_MIN 0.000000 0.000000 0.000000
DOMAIN_MAX 0.903226 0.903226 0.903226
0.000000 0.011994 0.014374
0.087953 0.030854 0.033478
0.396521 0.000000 0.057099
0.701778 0.000000 0.045869
0.901396 0.000000 0.082063
1.000000 0.000000 0.142092
1.000000 0.154604 0.230625
1.000000 0.335241 0.325536
0.000000 0.118746 0.087709
0.044770 0.123995 0.052461
0.374029 0.095460 0.022644
0.676081 0.000000 0.000000
0.884215 0.000000 0.016632
1.000000 0.000000 0.124605
1.000000 0.196933 0.214389
1.000000 0.345342 0.313481
0.000000 0.356420 0.184329
0.000000 0.358709 0.153750
0.329229 0.371801 0.000000
0.640986 0.338842 0.000000
0.854185 0.304417 0.000000
0.993072 0.312444 0.000000
1.000000 0.370703 0.201205
1.000000 0.440925 0.315312
0.000000 0.593591 0.373144
0.000000 0.593957 0.372503
0.021485 0.588617 0.316869
0.602350 0.617670 0.232700
0.826444 0.575463 0.137301
0.959411 0.535393 0.000000
1.000000 0.532189 0.150576
1.000000 0.554772 0.300328
0.000000 0.738521 0.541802
0.000000 0.737758 0.543175
0.207492 0.737179 0.511498
0.482216 0.734249 0.487221
0.754543 0.743130 0.427222
0.909056 0.710750 0.357519
1.000000 0.678004 0.269932
1.000000 0.668849 0.278569
0.354955 0.821103 0.662806
0.394049 0.822751 0.667475
0.458228 0.822080 0.659876
0.536736 0.818692 0.636378
0.682216 0.818540 0.615686
0.862943 0.823880 0.576898
0.969543 0.806607 0.524651
1.000000 0.784421 0.444892
0.542321 0.881041 0.753048
0.556939 0.881010 0.754238
0.606653 0.879240 0.756283
0.625208 0.878996 0.732296
0.704463 0.873320 0.720302
0.816739 0.874266 0.704677
0.936614 0.876707 0.676814
1.000000 0.863005 0.634974
0.699489 0.925414 0.829770
0.707179 0.925078 0.830503
0.738369 0.923980 0.834165
0.756497 0.924529 0.826474
0.778714 0.920409 0.810178
0.833433 0.918730 0.802274
0.906401 0.921996 0.788083
0.983948 0.924285 0.757931
0.000000 0.053407 0.114870
0.040620 0.056977 0.103059
0.376928 0.000000 0.096254
0.662226 0.000000 0.027527
0.877256 0.000000 0.016052
1.000000 0.000000 0.120974
1.000000 0.169100 0.208499
1.000000 0.326421 0.306584
0.000000 0.123629 0.138064
0.029175 0.135409 0.139895
0.365087 0.128542 0.120211
0.654261 0.000000 0.040101
0.868559 0.000000 0.000000
0.997498 0.000000 0.104829
1.000000 0.216709 0.198276
1.000000 0.341283 0.298528
0.000000 0.355138 0.250187
0.000000 0.361578 0.248295
0.329992 0.373724 0.186557
0.627466 0.352056 0.115816
0.841032 0.326757 0.000000
0.978454 0.321752 0.000000
1.000000 0.363775 0.176577
1.000000 0.430121 0.296208
0.000000 0.583856 0.402167
0.000000 0.585077 0.401740
0.144533 0.584771 0.362310
0.582788 0.603998 0.296269
0.801938 0.564996 0.223880
0.937652 0.529503 0.146456
1.000000 0.518273 0.108766
1.000000 0.542565 0.279515
0.000000 0.734768 0.554040
0.000000 0.733577 0.554406
0.235691 0.732601 0.528038
0.478950 0.726802 0.503258
0.741482 0.734768 0.449317
0.895995 0.704524 0.388006
0.995483 0.674769 0.311376
1.000000 0.662593 0.263706
0.348363 0.816861 0.664637
0.380529 0.816556 0.666163
0.467475 0.815702 0.666072
0.534020 0.813748 0.640162
0.676844 0.814084 0.622004
0.857328 0.821195 0.589319
0.963958 0.804837 0.540856
1.000000 0.783230 0.464942
0.532769 0.878141 0.751705
0.544671 0.877348 0.751400
0.594659 0.875578 0.753109
0.618738 0.875700 0.731472
0.700740 0.870878 0.721431
0.812436 0.871855 0.706569
0.932250 0.873991 0.679072
1.000000 0.860441 0.638025
0.690303 0.923644 0.827604
0.699733 0.923613 0.829007
0.731167 0.922454 0.832395
0.755886 0.922667 0.827237
0.785061 0.921721 0.816342
0.835355 0.919066 0.806638
0.905943 0.921630 0.791226
0.983062 0.923949 0.761990
0.000000 0.103944 0.295720
0.000000 0.104829 0.290410
0.294011 0.106172 0.263493
0.649195 0.000000 0.280827
0.870603 0.113466 0.284550
0.993164 0.227268 0.258610
1.000000 0.277714 0.201266
1.000000 0.373663 0.308629
0.000000 0.165377 0.322118
0.000000 0.176242 0.326726
0.309331 0.193271 0.301762
0.645777 0.171023 0.309453
0.857237 0.227481 0.303136
0.983490 0.282719 0.274479
1.000000 0.306767 0.206180
1.000000 0.386023 0.301762
0.000000 0.353460 0.392432
0.000000 0.362890 0.395178
0.324743 0.395727 0.406958
0.621973 0.406683 0.386938
0.828153 0.414008 0.359411
0.963287 0.421546 0.324346
1.000000 0.426429 0.265232
1.000000 0.455634 0.295506
0.000000 0.593072 0.513237
0.000000 0.595514 0.514519
0.301579 0.602533 0.515099
0.582452 0.615534 0.479042
0.781704 0.589960 0.435554
0.922484 0.577691 0.407691
1.000000 0.571344 0.363928
1.000000 0.559197 0.283635
0.000000 0.734524 0.612055
0.118593 0.734066 0.612482
0.384802 0.732815 0.616907
0.521324 0.729427 0.593256
0.738460 0.740322 0.566278
0.880369 0.717952 0.521599
0.980224 0.697444 0.470283
1.000000 0.686702 0.412970
0.381750 0.815976 0.694575
0.408728 0.815946 0.695735
0.495674 0.814817 0.698482
0.564324 0.813962 0.679927
0.684993 0.812192 0.666896
0.850980 0.821225 0.648554
0.952453 0.809018 0.614771
1.000000 0.792355 0.557458
0.543450 0.878721 0.768917
0.554803 0.878080 0.768795
0.601892 0.876036 0.769497
0.651148 0.874907 0.760281
0.713222 0.871183 0.745541
0.815122 0.871946 0.734340
0.930388 0.875731 0.715023
1.000000 0.864042 0.681758
0.687343 0.924041 0.834318
0.694697 0.923552 0.834714
0.726558 0.922332 0.837675
0.777096 0.921508 0.843412
0.793210 0.921752 0.828489
0.840360 0.919280 0.820584
0.907164 0.922362 0.808255
0.980987 0.925078 0.783780
0.000000 0.160372 0.493080
0.000000 0.165560 0.494301
0.303075 0.180575 0.490089
0.536309 0.220859 0.472084
0.802182 0.300206 0.497322
0.963012 0.350774 0.493111
1.000000 0.446204 0.503258
1.000000 0.463478 0.449744
0.000000 0.217533 0.514366
0.000000 0.231876 0.515892
0.317327 0.247807 0.510735
0.542718 0.286229 0.493782
0.799191 0.349615 0.514153
0.956756 0.395453 0.511925
1.000000 0.468635 0.512322
1.000000 0.481361 0.458778
0.000000 0.366155 0.544884
0.000000 0.373663 0.546471
0.303532 0.409216 0.559899
0.546929 0.444739 0.549523
0.788113 0.486091 0.568750
0.929931 0.533318 0.578882
1.000000 0.555322 0.556146
1.000000 0.551324 0.497993
0.000000 0.570062 0.610895
0.000000 0.573663 0.611719
0.284367 0.590326 0.618036
0.568322 0.622431 0.634852
0.754238 0.629786 0.625879
0.888975 0.636072 0.612787
0.991333 0.640345 0.589288
1.000000 0.634119 0.540002
0.111025 0.738186 0.690944
0.231113 0.737850 0.691096
0.422339 0.736294 0.691463
0.590204 0.737667 0.694820
0.732509 0.746029 0.681209
0.856687 0.734432 0.654200
0.958709 0.731594 0.634272
1.000000 0.726650 0.599786
0.430304 0.819028 0.744472
0.455726 0.820401 0.746761
0.523766 0.819089 0.746487
0.624994 0.818418 0.746975
0.703853 0.814939 0.729763
0.847623 0.824704 0.721859
0.939788 0.815183 0.698054
1.000000 0.803738 0.660883
0.550103 0.879301 0.795865
0.563043 0.879149 0.796323
0.611139 0.877897 0.797635
0.689387 0.875761 0.800992
0.740200 0.874205 0.787564
0.821927 0.873136 0.778653
0.926726 0.878019 0.766964
0.993835 0.868101 0.739681
0.679622 0.926238 0.847868
0.688014 0.925841 0.848356
0.721340 0.924529 0.850706
0.776364 0.922728 0.856077
0.808988 0.922728 0.849851
0.849729 0.920592 0.842649
0.908843 0.923247 0.833951
0.977935 0.927153 0.817166
0.000000 0.245304 0.646571
0.000000 0.250706 0.647547
0.289311 0.268009 0.646174
0.543481 0.301305 0.643214
0.717220 0.365911 0.630457
0.876768 0.485939 0.646845
1.000000 0.522606 0.649714
1.000000 0.577966 0.656977
0.000000 0.296117 0.655970
0.000000 0.300481 0.656825
0.304234 0.314855 0.655268
0.546319 0.343633 0.650599
0.716518 0.403296 0.639002
0.873442 0.508904 0.655116
0.996460 0.541558 0.657679
1.000000 0.594568 0.665949
0.000000 0.400183 0.666133
0.000000 0.405768 0.668696
0.307652 0.438117 0.675410
0.546807 0.464515 0.673518
0.707179 0.513329 0.665034
0.858305 0.578668 0.680232
0.982300 0.599817 0.682063
1.000000 0.642298 0.688930
0.000000 0.552087 0.694545
0.000000 0.555138 0.694484
0.268772 0.569177 0.695766
0.541741 0.608698 0.706538
0.699977 0.644312 0.706874
0.852995 0.668025 0.720424
0.964538 0.688502 0.725856
1.000000 0.692103 0.701686
0.000000 0.699733 0.730953
0.193698 0.701411 0.731441
0.388861 0.707698 0.733303
0.566461 0.720272 0.739010
0.714778 0.740902 0.752499
0.841947 0.745602 0.747463
0.941924 0.749691 0.737179
1.000000 0.749142 0.715358
0.408972 0.809964 0.781521
0.432654 0.810269 0.782193
0.510155 0.810941 0.783902
0.612543 0.812131 0.785183
0.722988 0.813077 0.785306
0.835355 0.822202 0.781613
0.923827 0.815366 0.762814
0.998291 0.811551 0.743893
0.540154 0.878630 0.826841
0.549950 0.878080 0.826261
0.590906 0.876616 0.825071
0.670710 0.874937 0.826078
0.765774 0.872862 0.829770
0.822080 0.870390 0.817807
0.919829 0.877836 0.814084
0.983886 0.869139 0.791073
0.624537 0.926909 0.859403
0.635096 0.926452 0.859678
0.676814 0.924773 0.861143
0.747951 0.923186 0.866392
0.820584 0.921294 0.872892
0.856657 0.921141 0.865354
0.907805 0.922393 0.859068
0.973327 0.927367 0.848539
0.000000 0.350134 0.753353
0.055360 0.354192 0.753414
0.333165 0.366918 0.751095
0.534356 0.394598 0.749081
0.712917 0.439612 0.745357
0.823178 0.506096 0.731655
0.931762 0.613581 0.749264
1.000000 0.635859 0.753811
0.000000 0.378790 0.751949
0.115846 0.381659 0.751522
0.337530 0.392645 0.749783
0.531334 0.416602 0.747524
0.707057 0.458259 0.743557
0.817258 0.521416 0.732082
0.927794 0.620630 0.750210
1.000000 0.641199 0.754665
0.000000 0.454047 0.758602
0.081025 0.458869 0.759182
0.361334 0.487373 0.759518
0.536889 0.504051 0.755673
0.701595 0.538537 0.752560
0.808652 0.591608 0.746883
0.923430 0.658198 0.764584
1.000000 0.673365 0.767361
0.000000 0.564263 0.765438
0.000000 0.566033 0.764523
0.320470 0.578607 0.764736
0.548394 0.619776 0.772885
0.702266 0.644770 0.773434
0.808255 0.679103 0.774563
0.922057 0.716121 0.790097
1.000000 0.726223 0.790616
0.212467 0.683131 0.784085
0.259098 0.684413 0.783780
0.385657 0.690059 0.783108
0.529625 0.700404 0.783169
0.686885 0.723110 0.793179
0.807706 0.750149 0.799313
0.920287 0.769039 0.811887
1.000000 0.779995 0.813993
0.396918 0.786557 0.811276
0.419409 0.787900 0.812161
0.487190 0.789761 0.812741
0.584070 0.794064 0.814755
0.700282 0.802457 0.820096
0.826078 0.820951 0.835325
0.919341 0.825284 0.833860
0.990082 0.825010 0.823850
0.519738 0.875425 0.857939
0.533471 0.875700 0.858488
0.581842 0.875486 0.859190
0.664240 0.875517 0.861143
0.758938 0.875578 0.863462
0.843259 0.874632 0.863798
0.916716 0.880217 0.860472
0.976623 0.873411 0.843839
0.616052 0.928069 0.887785
0.622980 0.927672 0.887419
0.654688 0.926482 0.886839
0.712215 0.925017 0.886625
0.789181 0.922881 0.887816
0.869230 0.921782 0.893736
0.908232 0.921874 0.886625
0.969787 0.929107 0.882567
0.298741 0.463264 0.833890
0.331151 0.466468 0.834104
0.430030 0.474678 0.832212
0.567437 0.492042 0.829313
0.709438 0.518669 0.824430
0.831724 0.555779 0.821073
0.905913 0.608698 0.808377
0.979217 0.681300 0.814420
0.302464 0.478462 0.831388
0.333654 0.481544 0.831785
0.430060 0.488869 0.830106
0.563592 0.503593 0.826871
0.704128 0.528283 0.822110
0.825711 0.563195 0.818418
0.900389 0.613001 0.806210
0.975250 0.682460 0.812497
0.290959 0.526696 0.834470
0.337346 0.535698 0.834073
0.442847 0.549340 0.832120
0.568597 0.560967 0.829282
0.702327 0.580835 0.824857
0.820279 0.610712 0.821866
0.897063 0.652033 0.814969
0.971954 0.712764 0.823209
0.249088 0.599115 0.836240
0.287907 0.600824 0.835752
0.409400 0.611475 0.835538
0.571283 0.640223 0.835416
0.699489 0.653559 0.832822
0.816159 0.675196 0.831327
0.893919 0.708003 0.829557
0.966369 0.755917 0.838712
0.283665 0.689296 0.842771
0.307408 0.689052 0.841794
0.390509 0.690303 0.839322
0.503655 0.692927 0.836057
0.676234 0.717220 0.841672
0.803983 0.734035 0.842008
0.887480 0.764096 0.843839
0.966033 0.796719 0.856260
0.390570 0.781216 0.857359
0.406256 0.781491 0.857267
0.462501 0.782071 0.856626
0.547021 0.782589 0.855528
0.650568 0.783383 0.853941
0.793118 0.800076 0.860624
0.892821 0.824765 0.867674
0.971283 0.839384 0.877562
0.494087 0.855772 0.877958
0.505577 0.856046 0.878233
0.547662 0.856168 0.878294
0.621729 0.856779 0.878782
0.715511 0.858213 0.879850
0.814450 0.863066 0.883482
0.907774 0.877195 0.895201
0.973144 0.880522 0.893431
0.579339 0.925383 0.912871
0.589227 0.925231 0.912932
0.629664 0.924956 0.913481
0.695735 0.923919 0.913939
0.775845 0.923247 0.915038
0.853361 0.924224 0.916930
0.918608 0.925566 0.918700
0.967193 0.931945 0.916014
0.506126 0.592370 0.902525
0.520378 0.593866 0.902403
0.570001 0.596735 0.900572
0.654871 0.605127 0.898100
0.754910 0.617517 0.894163
0.851835 0.635218 0.888975
0.932372 0.654292 0.886992
0.976471 0.688685 0.871427
0.504570 0.599695 0.901061
0.518730 0.601221 0.901030
0.568688 0.604364 0.899504
0.652308 0.611566 0.897002
0.751858 0.623102 0.893217
0.848936 0.639765 0.888151
0.929442 0.657862 0.885954
0.974060 0.691157 0.870603
0.501671 0.630854 0.900542
0.520256 0.634791 0.900145
0.567834 0.636591 0.898711
0.651118 0.643519 0.897276
0.747585 0.651270 0.893553
0.843137 0.663508 0.888731
0.923949 0.680598 0.886595
0.969574 0.711818 0.873320
0.442969 0.660304 0.901427
0.461769 0.662379 0.901396
0.526909 0.668940 0.900511
0.637385 0.687648 0.898253
0.735897 0.692958 0.895567
0.834073 0.703059 0.891814
0.916136 0.720180 0.889494
0.963592 0.748135 0.879789
0.370764 0.715755 0.902403
0.385992 0.715969 0.902281
0.445441 0.715175 0.901122
0.565972 0.721035 0.900511
0.707942 0.739559 0.898711
0.816281 0.747585 0.895628
0.905119 0.764340 0.893004
0.957183 0.789609 0.888548
0.412299 0.790494 0.908629
0.422217 0.789822 0.908171
0.462654 0.787778 0.906828
0.532525 0.784421 0.904936
0.624414 0.779294 0.902190
0.791470 0.799008 0.903746
0.896574 0.814023 0.903716
0.955810 0.836637 0.903685
0.478767 0.857115 0.919799
0.487709 0.856901 0.919646
0.524651 0.856107 0.919097
0.591394 0.855131 0.918364
0.678401 0.853819 0.917235
0.771420 0.852445 0.915618
0.884703 0.861814 0.918029
0.956817 0.880827 0.921111
0.569635 0.909850 0.933715
0.577417 0.909728 0.933623
0.610346 0.909483 0.933654
0.670375 0.909453 0.934020
0.745754 0.909880 0.934508
0.823667 0.911711 0.935271
0.897612 0.916960 0.937346
0.962097 0.931151 0.945098
