20 Preset/Japan Style/【3】LUT video cho PR-AE-FCPX/LUT VIDEO/Japan Style LUT (13).cube
# Created by Adobe Lightroom plugin Export LUT (1.24.0)
# www.johnrellis.com/lightroom/exportlut.htm
# Preset: 13日系胶片（素材江湖）
# Color profile: C:\Program Files (x86)\Common Files\Adobe\Color\Profiles\Recommended\VideoHD.icc
LUT_3D_SIZE 32
DOMAIN_MIN 0.0 0.0 0.0
DOMAIN_MAX 1.0 1.0 1.0
0.000000 0.000000 0.000000
0.000000 0.000000 0.000000
0.000000 0.000000 0.000000
0.000000 0.000000 0.000000
0.000000 0.000000 0.000000
0.000000 0.003601 0.000000
0.000275 0.008942 0.000000
0.028931 0.016968 0.000000
0.090517 0.024628 0.000000
0.126467 0.030854 0.000000
0.170901 0.031861 0.002472
0.222965 0.019928 0.008484
0.278935 0.000000 0.014496
0.337072 0.000000 0.019196
0.395636 0.000000 0.023072
0.453101 0.000000 0.025238
0.508995 0.000000 0.027314
0.563012 0.000000 0.031403
0.614923 0.000000 0.043641
0.673610 0.015900 0.066499
0.726558 0.117678 0.091981
0.773983 0.165774 0.111116
0.814694 0.206546 0.130892
0.850248 0.244266 0.153658
0.881163 0.279942 0.179141
0.908202 0.313573 0.206027
0.932311 0.346777 0.235325
0.954162 0.379370 0.266026
0.973602 0.411994 0.299107
0.990570 0.444709 0.334142
1.000000 0.477485 0.371252
1.000000 0.510582 0.410468
0.000000 0.000000 0.000000
0.000000 0.000000 0.000000
0.000000 0.000000 0.000000
0.000000 0.000000 0.000000
0.000000 0.000000 0.000000
0.000000 0.003601 0.000000
0.000000 0.010163 0.000000
0.028229 0.018158 0.000000
0.089021 0.025086 0.000000
0.125307 0.030335 0.000000
0.168765 0.033417 0.001404
0.219883 0.022095 0.007630
0.275425 0.000000 0.013703
0.333257 0.000000 0.018799
0.391394 0.000000 0.021759
0.449073 0.000000 0.024475
0.505089 0.000000 0.025788
0.559197 0.000000 0.030396
0.611261 0.000000 0.040711
0.668513 0.006561 0.061982
0.720607 0.112093 0.089265
0.767391 0.159823 0.107332
0.807980 0.200107 0.126497
0.843778 0.237705 0.148501
0.875273 0.272892 0.173159
0.902831 0.306950 0.200168
0.927520 0.340002 0.228702
0.950042 0.373022 0.259617
0.970184 0.405921 0.292607
0.987823 0.439002 0.327886
1.000000 0.472145 0.364965
1.000000 0.505486 0.404395
0.000000 0.000000 0.000000
0.000000 0.000000 0.000000
0.000000 0.000000 0.000000
0.000000 0.000000 0.000000
0.000000 0.000000 0.000000
0.000000 0.006012 0.000000
0.000000 0.013550 0.000000
0.029358 0.022522 0.000000
0.090669 0.030213 0.000000
0.126101 0.034485 0.000000
0.169680 0.037324 0.000000
0.220706 0.025788 0.004730
0.275517 0.003998 0.010681
0.332952 0.000000 0.014496
0.390814 0.000000 0.018494
0.448066 0.000000 0.019959
0.503868 0.000000 0.021454
0.557916 0.000000 0.023987
0.610498 0.000000 0.033936
0.666773 0.017700 0.052918
0.718135 0.114076 0.083131
0.764675 0.160189 0.102937
0.805295 0.199954 0.122103
0.841093 0.236698 0.144625
0.872618 0.271550 0.168612
0.900450 0.304967 0.195651
0.925383 0.337896 0.224216
0.948119 0.370947 0.255314
0.968536 0.403754 0.288273
0.986511 0.436866 0.323796
1.000000 0.469947 0.361120
1.000000 0.503197 0.400183
0.000000 0.000000 0.000000
0.000000 0.000000 0.000000
0.000000 0.000000 0.000000
0.000000 0.000000 0.000000
0.000000 0.001190 0.000000
0.000000 0.012024 0.000000
0.000000 0.022492 0.000000
0.034882 0.032013 0.000000
0.094606 0.040223 0.000000
0.130617 0.045777 0.000000
0.174655 0.046113 0.000000
0.224643 0.036286 0.000305
0.279515 0.016327 0.004608
0.336126 0.000000 0.009094
0.392798 0.000000 0.012024
0.449439 0.000000 0.012085
0.504204 0.000000 0.012390
0.557275 0.000000 0.014069
0.610254 0.000000 0.020111
0.663844 0.041444 0.037507
0.713436 0.118013 0.064698
0.758968 0.160922 0.093355
0.799863 0.198825 0.113100
0.836454 0.234958 0.135866
0.869108 0.270237 0.161257
0.898131 0.304265 0.188663
0.923949 0.337926 0.218723
0.947356 0.371283 0.250919
0.968078 0.404456 0.285039
0.986297 0.437293 0.320623
1.000000 0.470100 0.358099
1.000000 0.502678 0.396796
0.000000 0.000000 0.000000
0.000000 0.000000 0.000000
0.000000 0.001190 0.000000
0.000000 0.002411 0.000000
0.000000 0.006012 0.000000
0.000000 0.020447 0.000000
0.000397 0.037018 0.000000
0.045350 0.048798 0.000000
0.099977 0.057557 0.000000
0.136751 0.063935 0.000000
0.181308 0.062501 0.000000
0.231083 0.055268 0.000000
0.284428 0.038453 0.000000
0.340551 0.014588 0.000000
0.396948 0.000000 0.000000
0.452735 0.000000 0.000000
0.507683 0.000000 0.000000
0.560632 0.000000 0.000000
0.614069 0.005371 0.002106
0.666255 0.089815 0.014160
0.714717 0.132357 0.037324
0.759243 0.170016 0.077546
0.799710 0.205753 0.102541
0.836362 0.240513 0.127138
0.869017 0.274907 0.153658
0.898161 0.308232 0.182284
0.923980 0.341253 0.213352
0.947326 0.373877 0.245853
0.967987 0.406439 0.280369
0.986114 0.438605 0.315984
1.000000 0.470924 0.353765
1.000000 0.502831 0.392584
0.000000 0.024048 0.002686
0.000000 0.024048 0.002686
0.000000 0.025269 0.000000
0.000000 0.025269 0.000000
0.000000 0.027680 0.000000
0.000000 0.033448 0.000000
0.000000 0.052216 0.000000
0.050294 0.071839 0.000000
0.109102 0.085023 0.000000
0.148806 0.089021 0.000000
0.193973 0.088411 0.000000
0.243748 0.087221 0.000000
0.296849 0.080171 0.000000
0.351720 0.062593 0.000000
0.407416 0.040162 0.000000
0.462623 0.023133 0.000000
0.516350 0.018830 0.000000
0.568902 0.037140 0.000000
0.623102 0.088014 0.000000
0.673610 0.120607 0.000000
0.720943 0.154147 0.004028
0.764950 0.187686 0.039368
0.840024 0.254826 0.112673
0.872343 0.287236 0.142153
0.900481 0.318181 0.172061
0.925139 0.348974 0.203799
0.947204 0.379065 0.236149
0.966949 0.408667 0.268925
0.984161 0.438422 0.303960
0.998840 0.468147 0.339971
1.000000 0.497658 0.376776
1.000000 0.527245 0.414984
0.000000 0.061311 0.010529
0.000000 0.061311 0.010529
0.000000 0.063722 0.009094
0.000000 0.064942 0.001007
0.000000 0.064942 0.000000
0.000000 0.070283 0.000000
0.000000 0.077760 0.000000
0.052277 0.091493 0.000000
0.114839 0.100618 0.000000
0.168856 0.109499 0.000000
0.220737 0.113161 0.000000
0.272831 0.114443 0.000000
0.325750 0.112703 0.000000
0.379919 0.108736 0.000000
0.433875 0.104555 0.000000
0.486732 0.101747 0.000000
0.538903 0.104463 0.000000
0.593317 0.116060 0.000000
0.647120 0.136782 0.000000
0.697810 0.162905 0.000000
0.746120 0.192844 0.000000
0.790768 0.224765 0.001282
0.830777 0.257603 0.073396
0.866239 0.290227 0.117556
0.896727 0.322148 0.153170
0.922698 0.352514 0.187381
0.945373 0.381659 0.222049
0.965179 0.410651 0.256809
0.982666 0.439429 0.292210
0.997559 0.468086 0.328466
1.000000 0.496986 0.366430
1.000000 0.525780 0.404944
0.000000 0.095064 0.032441
0.000000 0.095064 0.031312
0.000000 0.095888 0.029877
0.000000 0.096742 0.019379
0.000000 0.096651 0.013703
0.000000 0.097047 0.009949
0.000000 0.100282 0.002472
0.018433 0.103700 0.000000
0.104433 0.116121 0.000000
0.158999 0.127108 0.000000
0.221469 0.136782 0.000000
0.285130 0.142794 0.000000
0.339361 0.144320 0.000000
0.394141 0.144839 0.000000
0.447150 0.143740 0.000000
0.498604 0.143221 0.000000
0.551232 0.147158 0.000000
0.604730 0.156771 0.000000
0.655268 0.172000 0.000000
0.703517 0.192142 0.000000
0.749660 0.216770 0.000000
0.792874 0.244114 0.000000
0.831601 0.273289 0.000000
0.866270 0.302892 0.087251
0.896452 0.332372 0.131441
0.922271 0.360754 0.169955
0.944884 0.388495 0.206973
0.964782 0.416083 0.243626
0.982208 0.443732 0.280766
0.997131 0.471473 0.318242
1.000000 0.499214 0.356451
1.000000 0.527367 0.395911
0.000000 0.120180 0.051301
0.000000 0.120180 0.051301
0.000000 0.121035 0.048585
0.000000 0.122103 0.042298
0.000000 0.122377 0.028534
0.000000 0.122164 0.024903
0.000000 0.123873 0.019989
0.000000 0.128359 0.009613
0.071962 0.133700 0.000000
0.146944 0.148257 0.000000
0.210361 0.160281 0.000000
0.278202 0.170138 0.000000
0.348791 0.178531 0.000000
0.407202 0.181399 0.000000
0.460822 0.183383 0.000000
0.515282 0.186801 0.000000
0.569177 0.192264 0.000000
0.619165 0.199649 0.000000
0.667018 0.210727 0.000000
0.713130 0.226841 0.000000
0.757473 0.246921 0.000000
0.798550 0.269932 0.000000
0.835813 0.294804 0.000000
0.869169 0.321050 0.000000
0.898466 0.347539 0.100862
0.923766 0.373541 0.148836
0.946014 0.399329 0.190219
0.965728 0.425238 0.229557
0.982971 0.451423 0.268376
0.997742 0.477638 0.307256
1.000000 0.504356 0.346868
1.000000 0.531365 0.387457
0.000000 0.152377 0.070680
0.000000 0.152590 0.069368
0.000000 0.152956 0.067933
0.000000 0.154513 0.064424
0.000000 0.154971 0.044831
0.000000 0.154788 0.037812
0.000000 0.154665 0.033783
0.000000 0.158206 0.023255
0.000000 0.164279 0.008698
0.116945 0.170413 0.000000
0.194766 0.185092 0.000000
0.262852 0.197574 0.000000
0.333501 0.208347 0.000000
0.405280 0.218479 0.000000
0.475898 0.227695 0.000000
0.529931 0.231571 0.000000
0.582635 0.237186 0.000000
0.633570 0.244694 0.000000
0.681880 0.253971 0.000000
0.726223 0.266361 0.000000
0.768032 0.282048 0.000000
0.805997 0.299870 0.000000
0.840360 0.319982 0.000000
0.871580 0.341527 0.000000
0.899260 0.363928 0.000000
0.923766 0.386816 0.115175
0.945769 0.410285 0.165621
0.965576 0.434302 0.209354
0.982910 0.459052 0.251499
0.997803 0.484260 0.293156
1.000000 0.509972 0.334783
1.000000 0.536248 0.377234
0.000000 0.189029 0.087404
0.000000 0.188998 0.086671
0.000000 0.189700 0.085481
0.000000 0.191287 0.082979
0.000000 0.192172 0.067842
0.000000 0.192630 0.047913
0.000000 0.192752 0.043580
0.000000 0.192813 0.036744
0.000000 0.199374 0.020203
0.048310 0.206332 0.000000
0.163302 0.212833 0.000000
0.247562 0.228122 0.000000
0.320623 0.242344 0.000000
0.394385 0.255192 0.000000
0.467231 0.267185 0.000000
0.538323 0.278782 0.000000
0.595300 0.285374 0.000000
0.644373 0.291081 0.000000
0.691646 0.298894 0.000000
0.736690 0.308659 0.000000
0.777981 0.319921 0.000000
0.813779 0.333410 0.000000
0.846738 0.349462 0.000000
0.876524 0.367102 0.000000
0.903136 0.386114 0.000000
0.926879 0.406104 0.030426
0.948425 0.427161 0.136355
0.967712 0.448951 0.188663
0.984588 0.471656 0.235233
0.999176 0.495033 0.279728
1.000000 0.519127 0.323522
1.000000 0.543847 0.367315
0.000000 0.230900 0.100313
0.000000 0.231235 0.099825
0.000000 0.231754 0.099184
0.000000 0.233249 0.098054
0.000000 0.234958 0.093690
0.000000 0.235477 0.065278
0.000000 0.235904 0.055940
0.000000 0.235966 0.048920
0.000000 0.238437 0.034546
0.000000 0.246830 0.007843
0.122560 0.255528 0.000000
0.216526 0.263706 0.000000
0.329595 0.297795 0.000000
0.407996 0.313481 0.000000
0.483375 0.327611 0.000000
0.556451 0.340795 0.000000
0.625696 0.353491 0.000000
0.689082 0.365209 0.000000
0.733577 0.370642 0.000000
0.775051 0.377386 0.000000
0.812406 0.384894 0.000000
0.846036 0.392859 0.000000
0.875273 0.402869 0.000000
0.900542 0.415625 0.000000
0.923491 0.429786 0.000000
0.944244 0.445472 0.000000
0.962707 0.462013 0.120943
0.979126 0.479774 0.182284
0.993469 0.498634 0.232853
1.000000 0.518486 0.278874
1.000000 0.539361 0.323827
1.000000 0.561425 0.368597
0.000000 0.284428 0.120302
0.000000 0.284428 0.119997
0.000000 0.284977 0.119448
0.000000 0.286503 0.118410
0.000000 0.288243 0.117464
0.000000 0.289036 0.101717
0.000000 0.289952 0.086305
0.000000 0.290562 0.078798
0.000000 0.291539 0.066865
0.000000 0.297490 0.039551
0.000000 0.307774 0.000000
0.186435 0.318303 0.000000
0.283818 0.328557 0.000000
0.379034 0.343664 0.000000
0.457984 0.360693 0.000000
0.532006 0.375067 0.000000
0.602136 0.388373 0.000000
0.668299 0.401099 0.000000
0.730129 0.413611 0.000000
0.776181 0.420417 0.000000
0.811856 0.424567 0.000000
0.844450 0.429816 0.000000
0.874449 0.436164 0.000000
0.901976 0.443397 0.000000
0.924926 0.454078 0.000000
0.945434 0.466651 0.000000
0.963775 0.480812 0.000000
0.980163 0.496193 0.143801
0.994415 0.513085 0.206363
1.000000 0.531090 0.258305
1.000000 0.550317 0.307256
1.000000 0.570703 0.354528
0.000000 0.335607 0.143679
0.000000 0.335454 0.143740
0.000000 0.335668 0.143374
0.000000 0.336034 0.142245
0.000000 0.337102 0.141360
0.000000 0.337713 0.131350
0.000000 0.338109 0.107851
0.000000 0.337987 0.102785
0.000000 0.338231 0.097566
0.000000 0.339025 0.090578
0.000000 0.348058 0.052186
0.121492 0.358404 0.000000
0.240787 0.368780 0.000000
0.336248 0.378210 0.000000
0.429694 0.391272 0.000000
0.506584 0.407630 0.000000
0.577447 0.421149 0.000000
0.644099 0.434119 0.000000
0.707088 0.446693 0.000000
0.763973 0.458015 0.000000
0.812955 0.467048 0.000000
0.844846 0.469398 0.000000
0.874113 0.473335 0.000000
0.901152 0.478126 0.000000
0.926207 0.484108 0.000000
0.948119 0.492195 0.000000
0.966064 0.503410 0.000000
0.982055 0.516197 0.070161
0.996063 0.530510 0.173281
1.000000 0.546441 0.235569
1.000000 0.563592 0.289311
1.000000 0.582116 0.340063
0.000000 0.383703 0.170779
0.000000 0.383764 0.170779
0.000000 0.383612 0.170260
0.000000 0.383703 0.169589
0.000000 0.384009 0.168399
0.000000 0.384649 0.164279
0.000000 0.384497 0.142855
0.000000 0.384436 0.128817
0.000000 0.384497 0.123171
0.000000 0.384924 0.117433
0.000000 0.387640 0.108370
0.000000 0.397589 0.085817
0.190280 0.407782 0.014557
0.294682 0.417426 0.000000
0.386938 0.426001 0.000000
0.478096 0.436683 0.000000
0.552209 0.452430 0.000000
0.620203 0.465705 0.000000
0.684108 0.478340 0.000000
0.742916 0.489784 0.000000
0.794705 0.499367 0.000000
0.840482 0.507622 0.000000
0.874540 0.511894 0.000000
0.900969 0.514397 0.000000
0.925475 0.518029 0.000000
0.948028 0.522881 0.000000
0.968688 0.528466 0.000000
0.984466 0.538750 0.000000
0.998169 0.550866 0.127932
1.000000 0.564691 0.208804
1.000000 0.580194 0.271214
1.000000 0.597040 0.327276
0.000000 0.428260 0.199771
0.000000 0.428443 0.199832
0.000000 0.428595 0.199435
0.000000 0.428870 0.198947
0.000000 0.429664 0.198886
0.000000 0.430701 0.198093
0.000000 0.431495 0.181918
0.000000 0.432227 0.158907
0.000000 0.432532 0.154513
0.000000 0.432807 0.149477
0.000000 0.433173 0.143404
0.000000 0.437598 0.131441
0.120363 0.446235 0.110201
0.251164 0.454658 0.062715
0.345586 0.462379 0.000000
0.433234 0.469062 0.000000
0.521965 0.477943 0.000000
0.593744 0.493416 0.000000
0.659052 0.506523 0.000000
0.719905 0.518578 0.000000
0.774380 0.528985 0.000000
0.822446 0.537835 0.000000
0.864439 0.545312 0.000000
0.901457 0.552056 0.000000
0.925566 0.553826 0.000000
0.947784 0.556695 0.000000
0.968048 0.560510 0.000000
0.986511 0.564996 0.000000
1.000000 0.573541 0.000000
1.000000 0.584680 0.174594
1.000000 0.597467 0.248539
1.000000 0.611933 0.310216
0.000000 0.470619 0.230564
0.000000 0.470619 0.230442
0.000000 0.470802 0.230320
0.000000 0.471138 0.229984
0.000000 0.471809 0.229801
0.000000 0.472999 0.229709
0.000000 0.473945 0.221012
0.000000 0.474678 0.198154
0.000000 0.474952 0.186099
0.000000 0.475044 0.181491
0.000000 0.475166 0.176120
0.000000 0.475257 0.170108
0.000000 0.481697 0.156588
0.200656 0.489723 0.136538
0.305882 0.497383 0.107210
0.394812 0.504326 0.017945
0.479469 0.510307 0.000000
0.564904 0.518547 0.000000
0.634699 0.533623 0.000000
0.697292 0.546136 0.000000
0.754147 0.557244 0.000000
0.804410 0.566522 0.000000
0.848325 0.574273 0.000000
0.886900 0.581109 0.000000
0.920958 0.587335 0.000000
0.947265 0.590906 0.000000
0.967071 0.592889 0.000000
0.985046 0.595666 0.000000
1.000000 0.599237 0.000000
1.000000 0.606256 0.123964
1.000000 0.616602 0.221714
1.000000 0.628748 0.291966
0.000000 0.512871 0.264103
0.000000 0.513146 0.264225
0.000000 0.529747 0.278386
0.000000 0.530114 0.278355
0.000000 0.530541 0.278386
0.000000 0.531243 0.278202
0.000000 0.532158 0.276005
0.000000 0.532464 0.255314
0.000000 0.533165 0.234348
0.000000 0.532799 0.230228
0.000000 0.532433 0.225345
0.000000 0.531914 0.219669
0.000000 0.531731 0.212100
0.161013 0.538506 0.197665
0.281865 0.544884 0.179019
0.373266 0.550835 0.154055
0.456733 0.556023 0.117189
0.536980 0.560693 0.000000
0.617884 0.567803 0.000000
0.684657 0.580743 0.000000
0.741909 0.591089 0.000000
0.792691 0.599878 0.000000
0.837125 0.607019 0.000000
0.876127 0.613062 0.000000
0.910430 0.618280 0.000000
0.940337 0.622858 0.000000
0.966308 0.626734 0.000000
0.983642 0.627436 0.000000
0.999023 0.628748 0.053712
1.000000 0.631037 0.109957
1.000000 0.636591 0.186435
1.000000 0.646326 0.269566
0.000000 0.558068 0.302800
0.000000 0.559625 0.304173
0.000000 0.561303 0.305486
0.000000 0.563012 0.306859
0.000000 0.564416 0.307897
0.000000 0.565484 0.308324
0.000000 0.566552 0.308537
0.000000 0.566979 0.293584
0.000000 0.567529 0.271000
0.000000 0.567346 0.261723
0.000000 0.566979 0.257267
0.000000 0.566339 0.252140
0.000000 0.565270 0.245945
0.000000 0.567163 0.237003
0.237827 0.573510 0.223178
0.336004 0.579644 0.205936
0.420752 0.585504 0.183383
0.500359 0.590753 0.153750
0.578149 0.595819 0.107362
0.656489 0.603418 0.000000
0.719478 0.614374 0.000641
0.773007 0.624048 0.033570
0.819547 0.631678 0.077821
0.860197 0.637903 0.100465
0.895903 0.643336 0.110903
0.927123 0.647974 0.121523
0.954131 0.651850 0.126284
0.977386 0.655024 0.131319
0.995636 0.656641 0.141146
1.000000 0.657282 0.162600
1.000000 0.658778 0.182132
1.000000 0.663783 0.239322
0.000000 0.594232 0.334874
0.000000 0.595697 0.336278
0.000000 0.597528 0.337865
0.000000 0.599084 0.339239
0.000000 0.600641 0.340246
0.000000 0.601617 0.340887
0.000000 0.602564 0.341344
0.000000 0.603143 0.333684
0.000000 0.603632 0.313695
0.000000 0.603906 0.295445
0.000000 0.603357 0.291508
0.000000 0.602716 0.286809
0.000000 0.601740 0.281376
0.000000 0.600488 0.275120
0.194125 0.604456 0.265354
0.304356 0.610529 0.251987
0.391516 0.616266 0.235752
0.470893 0.621698 0.215549
0.546807 0.627070 0.190524
0.621302 0.632074 0.156283
0.695094 0.638361 0.122896
0.752865 0.646601 0.131380
0.801755 0.654902 0.148318
0.844236 0.661463 0.163607
0.881376 0.667109 0.175845
0.913878 0.671809 0.185702
0.941863 0.675746 0.194339
0.966033 0.678950 0.200839
0.986816 0.681483 0.205325
1.000000 0.683223 0.207980
1.000000 0.683650 0.222904
1.000000 0.684474 0.237858
0.000000 0.631037 0.368536
0.000000 0.632441 0.369909
0.000000 0.633906 0.371221
0.000000 0.635401 0.372625
0.000000 0.636652 0.373632
0.000000 0.637476 0.374151
0.000000 0.638361 0.374426
0.000000 0.639002 0.372900
0.000000 0.639521 0.355383
0.000000 0.640253 0.333898
0.000000 0.639826 0.326238
0.000000 0.639185 0.322148
0.000000 0.638331 0.317601
0.000000 0.637171 0.312016
0.144625 0.635950 0.305699
0.276158 0.641871 0.295659
0.367193 0.647883 0.283940
0.447791 0.653681 0.269657
0.523125 0.659449 0.253239
0.596490 0.664942 0.232944
0.667811 0.670100 0.207553
0.736812 0.675502 0.189670
0.788937 0.681270 0.200351
0.833341 0.688533 0.217777
0.872007 0.694667 0.233494
0.905333 0.699672 0.246342
0.933776 0.703700 0.258122
0.958068 0.706905 0.267582
0.978820 0.709316 0.275303
0.996704 0.711055 0.281987
1.000000 0.712123 0.286168
1.000000 0.712428 0.291417
0.000000 0.675746 0.411597
0.000000 0.676234 0.412268
0.000000 0.676753 0.412757
0.000000 0.677089 0.412940
0.000000 0.677455 0.413214
0.000000 0.677638 0.413367
0.000000 0.677882 0.413397
0.000000 0.678370 0.413519
0.000000 0.678767 0.401556
0.000000 0.679530 0.382544
0.000000 0.679835 0.367163
0.000000 0.679164 0.363470
0.000000 0.678309 0.359380
0.000000 0.677180 0.354650
0.121065 0.675776 0.348821
0.259312 0.676387 0.342168
0.352667 0.681361 0.332647
0.431708 0.686244 0.321630
0.504936 0.690944 0.309178
0.575250 0.695369 0.294408
0.643366 0.699397 0.276860
0.709255 0.703182 0.255741
0.771572 0.706355 0.241672
0.817411 0.709010 0.251133
0.857450 0.714992 0.267887
0.892180 0.720180 0.282933
0.921813 0.724483 0.296941
0.946960 0.727871 0.309026
0.968292 0.730434 0.319951
0.986542 0.732265 0.329076
1.000000 0.733516 0.336400
1.000000 0.734249 0.341863
0.000000 0.709346 0.446693
0.000000 0.709712 0.446998
0.000000 0.710079 0.447395
0.000000 0.710445 0.447852
0.000000 0.710689 0.448035
0.000000 0.710811 0.448219
0.000000 0.710964 0.448493
0.000000 0.711330 0.448737
0.000000 0.711727 0.443183
0.000000 0.712398 0.426581
0.000000 0.713283 0.406378
0.000000 0.712764 0.401709
0.000000 0.711971 0.397925
0.000000 0.711025 0.393957
0.109071 0.709895 0.389532
0.251255 0.708522 0.384283
0.340856 0.710780 0.377630
0.418708 0.715145 0.369390
0.490181 0.719326 0.360204
0.557794 0.723262 0.349065
0.623224 0.726925 0.336645
0.686336 0.730220 0.321752
0.747646 0.733059 0.304326
0.804288 0.735256 0.293675
0.842344 0.733394 0.295293
0.878080 0.738277 0.312200
0.909239 0.742763 0.328099
0.935363 0.746426 0.343175
0.957549 0.749142 0.356146
0.976349 0.751217 0.368597
0.992554 0.752773 0.379278
1.000000 0.753567 0.386938
0.000000 0.744167 0.486458
0.000000 0.744717 0.487404
0.000000 0.744991 0.487648
0.000000 0.744961 0.487739
0.000000 0.744625 0.487617
0.000000 0.744228 0.487251
0.000000 0.743709 0.486854
0.000000 0.743221 0.486763
0.000000 0.742885 0.485817
0.000000 0.742977 0.470924
0.000000 0.743160 0.452888
0.000000 0.742916 0.439979
0.000000 0.741787 0.436347
0.000000 0.740414 0.432105
0.120760 0.738888 0.427527
0.251987 0.737179 0.422248
0.331243 0.735439 0.416632
0.406043 0.738552 0.409918
0.474952 0.742123 0.402686
0.540337 0.745693 0.394568
0.603082 0.749050 0.385138
0.663813 0.752132 0.374548
0.722469 0.754726 0.361303
0.778744 0.756893 0.345617
0.830167 0.758175 0.335302
0.866697 0.757321 0.342199
0.897704 0.760800 0.358801
0.924681 0.764218 0.375250
0.947417 0.766903 0.390204
0.966613 0.768978 0.404730
0.982940 0.770260 0.416632
0.996979 0.770840 0.425757
0.000000 0.769741 0.518578
0.000000 0.770230 0.519341
0.000000 0.770535 0.519860
0.000000 0.770596 0.520226
0.000000 0.770535 0.520531
0.000000 0.770413 0.520775
0.000000 0.770260 0.521416
0.000000 0.770169 0.522179
0.000000 0.770108 0.523278
0.000000 0.770474 0.514488
0.000000 0.771084 0.499733
0.000000 0.771725 0.482399
0.000000 0.770840 0.479133
0.000000 0.769680 0.475593
0.185428 0.768307 0.471473
0.280125 0.766751 0.466896
0.349340 0.765133 0.461799
0.410773 0.764523 0.456733
0.474861 0.767453 0.450965
0.535729 0.770443 0.444892
0.594965 0.773342 0.437812
0.652216 0.776028 0.430030
0.707607 0.778408 0.420539
0.761257 0.780453 0.409094
0.812406 0.782162 0.395697
0.858610 0.782834 0.387762
0.890196 0.780789 0.394110
0.916320 0.783017 0.411292
0.939300 0.785611 0.429175
0.958251 0.787167 0.444404
0.974304 0.788022 0.457527
0.988190 0.788510 0.468635
0.000000 0.795865 0.555413
0.000000 0.796078 0.555718
0.000000 0.796170 0.556115
0.000000 0.796139 0.556390
0.000000 0.795956 0.556725
0.000000 0.795712 0.557183
0.000000 0.795468 0.557794
0.000000 0.795193 0.558770
0.000000 0.794949 0.560266
0.000000 0.794919 0.557122
0.000000 0.795438 0.544488
0.000000 0.796139 0.529992
0.000000 0.796048 0.520714
0.146548 0.795041 0.517571
0.249577 0.793851 0.514031
0.318486 0.792477 0.510155
0.376532 0.791012 0.505974
0.428687 0.789639 0.501549
0.482338 0.790311 0.497200
0.538293 0.792813 0.492409
0.592981 0.795254 0.487343
0.646082 0.797513 0.481422
0.697597 0.799466 0.474311
0.747768 0.801083 0.465919
0.795773 0.802396 0.456062
0.841703 0.803494 0.444038
0.882444 0.803525 0.437079
0.908965 0.800137 0.442237
0.930297 0.800656 0.457832
0.949493 0.801938 0.474434
0.965667 0.802792 0.489784
0.979553 0.803342 0.503166
0.000000 0.818479 0.590997
0.000000 0.818601 0.591272
0.000000 0.818692 0.591730
0.000000 0.818692 0.592218
0.000000 0.818692 0.593072
0.000000 0.818692 0.594293
0.000000 0.818845 0.596216
0.000000 0.819059 0.598810
0.078065 0.819333 0.602258
0.215091 0.819638 0.605859
0.221683 0.820951 0.597192
0.228794 0.822263 0.587060
0.239322 0.823484 0.575402
0.301152 0.823148 0.574212
0.352514 0.822538 0.572442
0.398352 0.821592 0.569696
0.441321 0.820493 0.566491
0.482612 0.819364 0.563195
0.522820 0.818296 0.559838
0.569116 0.819608 0.556756
0.616114 0.821347 0.553491
0.662440 0.822904 0.549554
0.707607 0.824155 0.544671
0.751705 0.825162 0.538994
0.793668 0.825650 0.530968
0.834073 0.825925 0.521263
0.872526 0.826017 0.510124
0.906188 0.824949 0.502861
0.927245 0.820279 0.505608
0.943725 0.819455 0.519951
0.959136 0.820005 0.536889
0.972290 0.820401 0.552026
0.000000 0.842863 0.638666
0.000000 0.842863 0.638727
0.000000 0.842771 0.638849
0.000000 0.842588 0.639216
0.090974 0.842344 0.639887
0.160037 0.842039 0.640772
0.213931 0.841672 0.642329
0.263005 0.841276 0.644221
0.309148 0.840818 0.646845
0.353582 0.840391 0.649989
0.367346 0.840726 0.645533
0.368475 0.841520 0.636469
0.369635 0.842374 0.625879
0.391821 0.842313 0.620417
