20 Preset/Japan Style/【3】LUT video cho PR-AE-FCPX/LUT VIDEO/Japan Style LUT (15).cube
# Created by Adobe Lightroom plugin Export LUT (1.24.0)
# www.johnrellis.com/lightroom/exportlut.htm
# Preset: 15日系清新（素材江湖）
# Color profile: C:\Program Files (x86)\Common Files\Adobe\Color\Profiles\Recommended\VideoHD.icc
LUT_3D_SIZE 8
DOMAIN_MIN 0.000000 0.000000 0.000000
DOMAIN_MAX 0.903226 0.903226 0.903226
0.174899 0.174899 0.174899
0.204990 0.174441 0.174289
0.378332 0.172427 0.169680
0.560388 0.167422 0.161074
0.717189 0.163638 0.150057
0.854246 0.160922 0.141360
0.964996 0.166323 0.140749
1.000000 0.182803 0.153262
0.174716 0.201846 0.180972
0.205020 0.212955 0.174655
0.410468 0.247257 0.158480
0.583612 0.240391 0.149264
0.735622 0.231785 0.140414
0.866728 0.225315 0.134249
0.972320 0.222812 0.138857
1.000000 0.230045 0.156161
0.094850 0.349279 0.199924
0.167422 0.350042 0.200290
0.355535 0.398199 0.148745
0.615045 0.433204 0.046387
0.794003 0.424689 0.096040
0.904845 0.393805 0.121828
0.994171 0.371252 0.149294
1.000000 0.360693 0.177462
0.131991 0.495979 0.285435
0.182345 0.496223 0.285954
0.297948 0.503502 0.281621
0.501244 0.564965 0.191714
0.771878 0.608026 0.000000
0.926604 0.596368 0.173831
1.000000 0.561028 0.226322
1.000000 0.526329 0.242496
0.206668 0.622553 0.370397
0.232975 0.622553 0.370550
0.315435 0.622736 0.371527
0.429053 0.649378 0.351507
0.629328 0.706416 0.274113
0.877134 0.740780 0.000000
1.000000 0.715389 0.238193
1.000000 0.695369 0.334203
0.285496 0.733364 0.451453
0.300328 0.733211 0.451514
0.354742 0.733303 0.452369
0.438972 0.733547 0.454200
0.552544 0.770871 0.424506
0.729030 0.812131 0.362310
0.949157 0.842893 0.223301
1.000000 0.811185 0.297581
0.413123 0.834897 0.552880
0.420722 0.834928 0.553216
0.451301 0.835142 0.554467
0.505394 0.835660 0.557031
0.575525 0.844999 0.553246
0.674983 0.873991 0.522210
0.817777 0.900603 0.466285
1.000000 0.925292 0.357214
0.591547 0.930236 0.689235
0.595209 0.930327 0.689631
0.610834 0.930785 0.691249
0.640284 0.931579 0.694392
0.684138 0.933288 0.700221
0.731228 0.946410 0.687282
0.801022 0.963073 0.655573
0.902007 0.976410 0.599725
0.181704 0.172763 0.210636
0.211673 0.176730 0.204898
0.360510 0.157198 0.222385
0.548577 0.099214 0.203220
0.704524 0.105806 0.196017
0.843900 0.119203 0.190433
0.957855 0.143587 0.190890
1.000000 0.173831 0.201205
0.168490 0.208286 0.211704
0.208560 0.215152 0.216617
0.393805 0.212070 0.212314
0.568750 0.205753 0.203555
0.721675 0.202976 0.195682
0.855467 0.202976 0.191653
0.964691 0.209964 0.194308
1.000000 0.225528 0.205783
0.163272 0.363561 0.263218
0.184329 0.365667 0.250492
0.355108 0.399786 0.216007
0.611963 0.427405 0.198428
0.778927 0.414710 0.213138
0.894163 0.388067 0.210636
0.987182 0.369451 0.217380
1.000000 0.360723 0.229007
0.168887 0.503624 0.318914
0.208103 0.503746 0.319249
0.314092 0.504173 0.320195
0.502403 0.565759 0.253391
0.771450 0.607141 0.156039
0.923919 0.598840 0.263371
1.000000 0.561425 0.282658
1.000000 0.527703 0.285740
0.222721 0.626673 0.389288
0.246708 0.626825 0.389593
0.324956 0.626978 0.390204
0.434424 0.649042 0.375982
0.630396 0.706783 0.309880
0.876249 0.740383 0.183474
0.998322 0.716732 0.294469
1.000000 0.699336 0.374945
0.296239 0.735561 0.464057
0.310521 0.735622 0.464424
0.362951 0.735653 0.465034
0.444892 0.735805 0.466651
0.555444 0.770565 0.441413
0.729824 0.812192 0.384863
0.949126 0.842710 0.267521
1.000000 0.812070 0.334905
0.420783 0.835813 0.561578
0.428412 0.835904 0.561913
0.458076 0.836149 0.563104
0.510979 0.836576 0.565576
0.580163 0.844388 0.563287
0.677546 0.873747 0.533928
0.818906 0.900694 0.481575
1.000000 0.925902 0.380316
0.594781 0.930602 0.693660
0.598444 0.930694 0.694026
0.613825 0.931151 0.695644
0.642939 0.931945 0.698665
0.685634 0.933288 0.703670
0.733089 0.945983 0.692378
0.802396 0.962860 0.662074
0.902800 0.976318 0.608148
0.235325 0.155673 0.384985
0.286412 0.151095 0.384039
0.409003 0.161196 0.376471
0.498299 0.204807 0.365759
0.657893 0.172519 0.362951
0.790890 0.096010 0.334600
0.913970 0.006775 0.314122
1.000000 0.128298 0.314488
0.138003 0.190127 0.400397
0.240269 0.189334 0.398657
0.411658 0.224460 0.387182
0.502617 0.260288 0.376837
0.664363 0.218784 0.362799
0.794430 0.158785 0.328344
0.922332 0.171298 0.321080
1.000000 0.199008 0.320134
0.000000 0.368811 0.385595
0.158511 0.374182 0.389136
0.362066 0.394079 0.400702
0.546807 0.388067 0.391363
0.705623 0.374456 0.375525
0.839994 0.361578 0.360510
0.950622 0.353674 0.349981
1.000000 0.351080 0.344305
0.280522 0.511620 0.427497
0.305913 0.515251 0.430274
0.361578 0.526146 0.421118
0.503746 0.561395 0.399023
0.758145 0.598230 0.390448
0.895903 0.592493 0.431037
0.984955 0.554253 0.410590
1.000000 0.526299 0.396124
0.332036 0.639002 0.478645
0.333715 0.639643 0.473274
0.359930 0.641627 0.458167
0.457404 0.643275 0.457710
0.631495 0.704402 0.418158
0.869352 0.736172 0.371527
0.987732 0.722621 0.446784
1.000000 0.706508 0.484871
0.350225 0.742367 0.517540
0.351507 0.742855 0.513573
0.394842 0.742977 0.513329
0.468910 0.743069 0.514549
0.567529 0.767178 0.502770
0.732631 0.811063 0.463935
0.947662 0.840909 0.392676
1.000000 0.815732 0.453468
0.448280 0.838163 0.593774
0.454932 0.838254 0.594018
0.481819 0.838560 0.595087
0.530541 0.839017 0.597101
0.596643 0.840513 0.599908
0.686549 0.871550 0.577783
0.822446 0.899901 0.537438
1.000000 0.926482 0.459663
0.605707 0.931273 0.709895
0.609247 0.931395 0.710262
0.623987 0.931853 0.711727
0.651911 0.932586 0.714321
0.693141 0.933959 0.718807
0.740871 0.944213 0.712795
0.807706 0.961822 0.686519
0.905760 0.975769 0.640345
0.297490 0.120790 0.543908
0.334722 0.113954 0.544884
0.455116 0.112001 0.548211
0.589624 0.227268 0.543175
0.638209 0.274510 0.504906
0.749569 0.293614 0.508263
0.876738 0.246098 0.487678
0.993530 0.177188 0.457893
0.250034 0.163485 0.549798
0.299565 0.161868 0.550652
0.441962 0.180697 0.552667
0.588006 0.277592 0.547051
0.639033 0.308843 0.509972
0.753506 0.313970 0.510185
0.878508 0.267704 0.486641
0.994537 0.202243 0.454170
0.000000 0.310796 0.542199
0.000000 0.305455 0.548211
0.355230 0.333715 0.561852
0.578607 0.406134 0.559014
0.639979 0.415839 0.529168
0.767910 0.385046 0.513298
0.884855 0.339117 0.478096
0.999695 0.282261 0.437812
0.000000 0.510338 0.532616
0.156161 0.513573 0.534813
0.326360 0.526940 0.544457
0.510735 0.552209 0.561212
0.678065 0.545220 0.549615
0.809293 0.529900 0.532769
0.923583 0.514000 0.515007
1.000000 0.500267 0.498848
0.364630 0.639002 0.564355
0.380468 0.641352 0.566155
0.440711 0.650629 0.573571
0.522881 0.665431 0.577111
0.635035 0.695979 0.562219
0.851164 0.728328 0.562646
0.959319 0.740566 0.628260
1.000000 0.703548 0.596002
0.457038 0.746731 0.614710
0.467231 0.747677 0.615747
0.506676 0.752346 0.620417
0.519768 0.755612 0.598444
0.598169 0.757107 0.598474
0.738643 0.807248 0.581109
0.939117 0.837400 0.555474
1.000000 0.827207 0.616114
0.534508 0.840360 0.667842
0.535271 0.840696 0.665858
0.538445 0.842161 0.657557
0.565393 0.843565 0.651392
0.624109 0.844358 0.653376
0.702663 0.866300 0.646418
0.829221 0.898192 0.623194
1.000000 0.923522 0.578241
0.631403 0.932006 0.742855
0.632197 0.932311 0.741817
0.640406 0.933135 0.740017
0.666865 0.933959 0.742275
0.705837 0.935302 0.745846
0.754299 0.940459 0.747585
0.816739 0.959747 0.727657
0.911162 0.974853 0.692836
0.357458 0.007691 0.682704
0.384131 0.000000 0.683650
0.479255 0.002350 0.687312
0.622034 0.191623 0.691554
0.744503 0.314366 0.687556
0.766598 0.338506 0.632532
0.842374 0.386725 0.629480
0.958801 0.367834 0.623865
0.327794 0.124392 0.683986
0.358923 0.123812 0.684871
0.465553 0.144564 0.688258
0.615717 0.238285 0.692378
0.742916 0.343359 0.689265
0.766598 0.361578 0.635218
0.841550 0.403693 0.631647
0.959869 0.378454 0.623560
0.018067 0.264958 0.685573
0.202335 0.272190 0.686549
0.395453 0.295964 0.689937
0.584924 0.351385 0.694850
0.735500 0.438239 0.695277
0.765530 0.443000 0.646174
0.841306 0.461799 0.639887
0.964782 0.418036 0.620691
0.000000 0.448615 0.667353
0.000000 0.448493 0.668147
0.000000 0.447456 0.671748
0.480140 0.483467 0.694575
0.710750 0.562860 0.701472
0.757748 0.564294 0.665187
0.856352 0.534447 0.644770
0.974304 0.478950 0.606378
0.132357 0.631220 0.657954
0.189212 0.633295 0.659419
0.321386 0.641840 0.665431
0.478401 0.659449 0.677363
0.644862 0.686488 0.695613
0.776364 0.680842 0.685237
0.889799 0.663630 0.666560
0.997864 0.646357 0.647395
0.467109 0.744991 0.684077
0.477211 0.746151 0.685145
0.517174 0.750912 0.689693
0.585199 0.760006 0.698268
0.666743 0.774136 0.708522
0.748287 0.799100 0.700465
0.924407 0.833219 0.709316
1.000000 0.847349 0.764431
0.563104 0.839780 0.727840
0.569207 0.840391 0.728481
0.593500 0.842832 0.730861
0.641993 0.847745 0.737606
0.662531 0.852323 0.722316
0.725643 0.855955 0.723110
0.838895 0.895567 0.716396
0.999542 0.919890 0.701167
0.683497 0.931640 0.798611
0.687861 0.931914 0.799466
0.695521 0.933165 0.797696
0.699763 0.935546 0.788571
0.722621 0.938018 0.783474
0.770047 0.939910 0.787259
0.828397 0.956481 0.779019
0.918944 0.973907 0.756374
0.409674 0.000000 0.794614
0.428565 0.000000 0.795041
0.502800 0.000000 0.796872
0.621912 0.168368 0.799405
0.756863 0.301732 0.801450
0.859464 0.404303 0.796414
0.875212 0.411536 0.744686
0.943877 0.465675 0.739864
0.390936 0.055726 0.794797
0.412085 0.069856 0.795285
0.491859 0.122225 0.797024
0.615778 0.213382 0.799588
0.753384 0.325475 0.801785
0.857969 0.423499 0.797269
0.873869 0.427832 0.745571
0.943053 0.477943 0.741299
0.296452 0.243381 0.792691
0.330785 0.248661 0.793179
0.439307 0.271397 0.795041
0.585229 0.320531 0.798306
0.736477 0.402197 0.801755
0.850401 0.493324 0.799435
0.870756 0.489662 0.751644
0.938384 0.524773 0.746609
0.000000 0.366918 0.778622
0.000000 0.365820 0.780911
0.222660 0.392554 0.788785
0.502434 0.441138 0.794430
0.696986 0.506157 0.799924
0.835172 0.600275 0.802853
0.862242 0.587640 0.762051
0.929290 0.598871 0.755795
0.000000 0.565942 0.770321
0.000000 0.566155 0.771115
0.000000 0.566949 0.772427
0.287449 0.567468 0.774960
0.600488 0.614435 0.794369
0.807950 0.698421 0.805142
0.850889 0.691524 0.775479
0.940520 0.658473 0.756130
0.243778 0.731075 0.760342
0.270237 0.732143 0.760983
0.356756 0.737118 0.763912
0.477943 0.747280 0.769955
0.614435 0.764340 0.780392
0.757076 0.790677 0.798154
0.867369 0.784207 0.787716
0.971374 0.768917 0.771084
0.567956 0.837522 0.787503
0.573663 0.838010 0.787930
0.597620 0.840513 0.789822
0.642115 0.845579 0.793942
0.704982 0.853910 0.800900
0.775723 0.865843 0.809079
0.849302 0.889708 0.807889
0.989624 0.917754 0.822416
0.678950 0.930480 0.837797
0.682307 0.930846 0.838041
0.696468 0.932189 0.839017
0.723720 0.934844 0.840848
0.768582 0.939178 0.846250
0.791440 0.944060 0.835966
0.844541 0.949859 0.837827
0.929137 0.972534 0.828367
0.461982 0.000000 0.895445
0.477302 0.000000 0.895872
0.535698 0.000000 0.895750
0.633845 0.185489 0.895445
0.751766 0.298039 0.894438
0.869322 0.420844 0.891905
0.949401 0.511284 0.884581
0.974792 0.511315 0.850706
0.449500 0.001038 0.893400
0.465492 0.038697 0.893889
0.526635 0.130861 0.893858
0.627008 0.217075 0.893523
0.746731 0.315160 0.892607
0.865293 0.431556 0.890105
0.945922 0.520470 0.882719
0.971069 0.518181 0.848539
0.395056 0.229984 0.892271
0.415015 0.235752 0.892332
0.488594 0.259770 0.892210
0.601587 0.307622 0.892180
0.730770 0.380987 0.891508
0.855528 0.482399 0.889830
0.940124 0.570031 0.884062
0.966094 0.563287 0.851225
0.189181 0.358129 0.888853
0.242130 0.361852 0.888884
0.378759 0.377966 0.889006
0.537255 0.413367 0.889830
0.695216 0.472572 0.890288
0.836728 0.562646 0.889982
0.929747 0.647608 0.886534
0.954925 0.632074 0.853544
0.000000 0.485115 0.866911
0.000000 0.483711 0.867613
0.000000 0.479347 0.871977
0.287297 0.487343 0.881163
0.610346 0.562890 0.884825
0.799649 0.642542 0.886931
0.915068 0.729580 0.888273
0.944091 0.711116 0.858579
0.000000 0.667323 0.864530
0.000000 0.667262 0.864866
0.000000 0.666438 0.866056
0.000000 0.664302 0.868223
0.406195 0.662501 0.868162
0.713130 0.721309 0.881773
0.896666 0.807645 0.892424
0.935668 0.795041 0.868498
0.327733 0.823178 0.854154
0.343236 0.823972 0.854551
0.399512 0.826444 0.855528
0.491005 0.831815 0.857847
0.603876 0.840848 0.861814
0.728237 0.855802 0.869718
0.856382 0.881254 0.886870
0.954528 0.874907 0.877470
0.678859 0.928161 0.887755
0.682734 0.928466 0.888029
0.697719 0.930205 0.889342
0.725246 0.933043 0.891112
0.765866 0.937407 0.893828
0.819150 0.943969 0.898161
0.876219 0.952789 0.901884
0.940978 0.970001 0.902983
0.518669 0.056977 0.984619
0.530785 0.097414 0.984558
0.577417 0.162478 0.983215
0.657984 0.242802 0.981262
0.758968 0.334661 0.977722
0.865141 0.439490 0.972168
0.959625 0.560052 0.964202
1.000000 0.628016 0.956115
0.510674 0.133669 0.983551
0.523064 0.147311 0.983490
0.571038 0.192203 0.982422
0.652979 0.260990 0.980407
0.755276 0.346685 0.976959
0.862608 0.448219 0.971466
0.957519 0.565850 0.963470
1.000000 0.632959 0.955291
0.474891 0.240635 0.982635
0.488960 0.247074 0.982452
0.542748 0.273106 0.981323
0.632715 0.323308 0.979919
0.741726 0.393988 0.976349
0.853910 0.485389 0.970703
0.951598 0.594842 0.962982
1.000000 0.659846 0.955077
0.371038 0.341222 0.981903
0.392401 0.345830 0.981811
0.468025 0.364813 0.980804
0.581933 0.403174 0.979095
0.710536 0.463111 0.975830
0.836454 0.546197 0.970397
0.941131 0.643732 0.963134
1.000000 0.706325 0.955779
0.000000 0.399878 0.980804
0.000000 0.405432 0.981018
0.000000 0.428229 0.981018
0.448035 0.479072 0.978851
0.639948 0.533440 0.975433
0.801205 0.610437 0.970062
0.923980 0.698512 0.963500
0.995300 0.762783 0.957092
0.000000 0.585565 0.969879
0.000000 0.584100 0.969696
0.000000 0.578088 0.969268
0.000000 0.567346 0.970916
0.373297 0.572534 0.975799
0.724239 0.676875 0.971283
0.897185 0.762081 0.966125
0.985504 0.832395 0.961334
0.000000 0.771084 0.964752
0.000000 0.770779 0.964813
0.000000 0.769558 0.965118
0.000000 0.767514 0.966125
0.291142 0.763851 0.967926
0.531884 0.763302 0.966979
0.826871 0.824826 0.968231
0.973480 0.901884 0.966461
0.474922 0.923461 0.951781
0.481910 0.923674 0.951720
0.510979 0.924804 0.951873
0.565576 0.927489 0.952483
0.641077 0.931640 0.953307
0.733242 0.937774 0.954681
0.840543 0.947234 0.957733
0.950561 0.964233 0.967285
