20 Preset/Japan Style/【3】LUT video cho PR-AE-FCPX/LUT VIDEO/Japan Style LUT (29).cube
# Created by Adobe Lightroom plugin Export LUT (1.24.0)
# www.johnrellis.com/lightroom/exportlut.htm
# Preset: 29日系提亮绿色（素材江湖）
# Color profile: C:\Program Files (x86)\Common Files\Adobe\Color\Profiles\Recommended\VideoHD.icc
LUT_3D_SIZE 8
DOMAIN_MIN 0.000000 0.000000 0.000000
DOMAIN_MAX 0.903226 0.903226 0.903226
0.105867 0.109255 0.095613
0.118593 0.107759 0.095552
0.262882 0.097627 0.089296
0.436042 0.080903 0.051514
0.577417 0.038697 0.019623
0.696681 0.050233 0.035859
0.820798 0.111543 0.113771
0.936309 0.161013 0.164126
0.095796 0.129885 0.091890
0.127657 0.137118 0.089357
0.272984 0.152987 0.066468
0.437476 0.155550 0.028992
0.575738 0.148440 0.006165
0.693904 0.149599 0.044770
0.812711 0.166995 0.116640
0.929137 0.197604 0.166537
0.000000 0.304997 0.014679
0.000000 0.307805 0.017609
0.296239 0.329503 0.000000
0.475074 0.319341 0.000000
0.595636 0.299199 0.041321
0.716426 0.295689 0.113069
0.835416 0.302098 0.159274
0.945647 0.315129 0.203922
0.000000 0.476570 0.130465
0.000000 0.477150 0.133486
0.205081 0.487739 0.117586
0.464820 0.510887 0.000000
0.648768 0.499306 0.000000
0.754421 0.467384 0.192508
0.856962 0.455634 0.231785
0.956878 0.452552 0.262150
0.000000 0.619776 0.253788
0.000000 0.620386 0.255253
0.173800 0.624750 0.263890
0.393652 0.643122 0.233219
0.606958 0.658381 0.181704
0.782101 0.648768 0.191165
0.880644 0.612482 0.265660
0.964874 0.592615 0.334081
0.000000 0.747646 0.349523
0.083040 0.751278 0.353613
0.227817 0.754055 0.358984
0.369757 0.761807 0.358221
0.544518 0.775875 0.326818
0.732143 0.785763 0.300725
0.900816 0.782498 0.311040
0.982818 0.740780 0.363226
0.256870 0.858610 0.451026
0.273136 0.859464 0.452888
0.325139 0.860349 0.457069
0.406043 0.862760 0.466835
0.526024 0.868956 0.452766
0.670283 0.877287 0.426978
0.827726 0.880003 0.416083
0.974914 0.875761 0.430610
0.449073 0.936309 0.575677
0.454963 0.936309 0.576654
0.479652 0.936675 0.581231
0.525139 0.937469 0.591302
0.577539 0.936248 0.586847
0.667781 0.940185 0.573816
0.774472 0.942962 0.554162
0.893462 0.939696 0.552575
0.101350 0.109560 0.111788
0.125856 0.106081 0.116365
0.258824 0.066468 0.129366
0.427832 0.000000 0.122072
0.567102 0.000000 0.126284
0.683955 0.066133 0.142000
0.800107 0.125338 0.167605
0.916930 0.168887 0.200046
0.093904 0.132418 0.117708
0.129152 0.133608 0.121218
0.272465 0.136080 0.123507
0.433814 0.135561 0.123842
0.569818 0.139742 0.129854
0.686244 0.153567 0.146670
0.798428 0.175051 0.170809
0.913542 0.203555 0.201755
0.000000 0.298405 0.136690
0.000000 0.301244 0.138735
0.291112 0.320134 0.109987
0.464118 0.309148 0.130282
0.584894 0.296849 0.154421
0.701198 0.294804 0.174166
0.813443 0.299962 0.199741
0.927123 0.313115 0.230472
0.000000 0.466560 0.183261
0.000000 0.467445 0.185977
0.211551 0.477089 0.184176
0.452827 0.495430 0.128450
0.625574 0.480446 0.150881
0.727352 0.454231 0.233188
0.833677 0.445899 0.253849
0.939330 0.445716 0.277623
0.000000 0.612634 0.278294
0.000000 0.612726 0.279423
0.200748 0.615991 0.286107
0.390967 0.631250 0.262455
0.595972 0.645167 0.220218
0.767910 0.636591 0.225956
0.868070 0.604517 0.288884
0.954955 0.587610 0.345708
0.033173 0.739986 0.360876
0.126345 0.740871 0.362310
0.239536 0.743984 0.367834
0.369848 0.752529 0.370184
0.540826 0.768032 0.342657
0.727810 0.780087 0.319768
0.895109 0.777127 0.327855
0.977508 0.736843 0.375769
0.261784 0.853025 0.455085
0.274327 0.852689 0.455146
0.325170 0.853574 0.458991
0.405615 0.856657 0.469184
0.524590 0.864286 0.459632
0.667811 0.873136 0.434943
0.824125 0.875639 0.422339
0.970825 0.871519 0.434485
0.447059 0.933745 0.576196
0.454597 0.934142 0.578180
0.478920 0.934447 0.582544
0.524681 0.935363 0.592798
0.586938 0.936980 0.600031
0.671931 0.940063 0.584131
0.775509 0.942321 0.562707
0.893553 0.939178 0.560082
0.072450 0.102449 0.242741
0.140352 0.094148 0.250980
0.284581 0.000000 0.273869
0.427436 0.000000 0.272801
0.560967 0.043214 0.271305
0.671351 0.140963 0.277134
0.786221 0.187961 0.291936
0.907164 0.219150 0.307988
0.000000 0.141146 0.252873
0.118166 0.133669 0.259251
0.289097 0.116945 0.278904
0.428901 0.140780 0.274022
0.558038 0.154788 0.272862
0.668788 0.191043 0.280491
0.784726 0.219608 0.293462
0.904936 0.244236 0.309117
0.000000 0.297490 0.275334
0.105745 0.297887 0.277592
0.285588 0.295293 0.283207
0.435492 0.300053 0.288212
0.565362 0.305608 0.294072
0.683131 0.313878 0.303136
0.798032 0.323156 0.313329
0.914488 0.335119 0.327031
0.116670 0.456611 0.305058
0.179660 0.457160 0.310460
0.272923 0.463783 0.313817
0.451362 0.482673 0.299290
0.605310 0.470222 0.321935
0.709499 0.460365 0.345190
0.821469 0.457374 0.351263
0.930510 0.458137 0.361242
0.172396 0.600488 0.357275
0.200168 0.601282 0.358495
0.281346 0.605768 0.364172
0.406470 0.619623 0.363226
0.595697 0.637415 0.338384
0.757259 0.626886 0.339666
0.854582 0.602930 0.384375
0.946380 0.592493 0.411414
0.218387 0.731380 0.415351
0.237461 0.732601 0.416785
0.302159 0.735683 0.421546
0.394202 0.742092 0.431067
0.545403 0.758297 0.412360
0.725368 0.772335 0.395148
0.887022 0.769619 0.401801
0.970642 0.735775 0.442084
0.323491 0.850156 0.497597
0.332738 0.849943 0.497688
0.372045 0.850431 0.500603
0.440131 0.853086 0.509239
0.539818 0.859922 0.508019
0.674983 0.870054 0.489357
0.827237 0.874754 0.480110
0.968444 0.870512 0.492683
0.478523 0.931792 0.604883
0.483070 0.931670 0.605219
0.505119 0.931975 0.609216
0.549187 0.933410 0.620233
0.605371 0.934600 0.632532
0.685206 0.938476 0.620203
0.783352 0.941314 0.602441
0.896330 0.938750 0.599512
0.000000 0.096742 0.378210
0.123476 0.088899 0.383886
0.273564 0.000000 0.402564
0.441382 0.000000 0.424628
0.559899 0.078401 0.406592
0.666377 0.182559 0.400946
0.771695 0.223148 0.403082
0.883238 0.247318 0.408972
0.000000 0.138369 0.387213
0.093111 0.135195 0.391424
0.270054 0.118074 0.407324
0.444251 0.054627 0.427863
0.559747 0.165988 0.408392
0.665431 0.223209 0.403723
0.770016 0.252232 0.405585
0.881987 0.269322 0.410346
0.000000 0.282689 0.386572
0.105776 0.283055 0.391730
0.258854 0.276310 0.409186
0.441932 0.276005 0.428962
0.553796 0.318242 0.416785
0.663447 0.331762 0.416693
0.773831 0.342657 0.420417
0.889921 0.347356 0.423224
0.021790 0.449744 0.420722
0.149935 0.449195 0.421271
0.292699 0.448035 0.424414
0.433417 0.443732 0.429053
0.553338 0.447883 0.433600
0.668116 0.451667 0.438025
0.787289 0.455726 0.442786
0.906432 0.459693 0.448310
0.263005 0.586145 0.443946
0.284398 0.585687 0.445777
0.357061 0.584955 0.455055
0.437415 0.593500 0.463691
0.586206 0.614496 0.455909
0.726864 0.605066 0.469520
0.824308 0.597284 0.491005
0.929717 0.593622 0.493538
0.349065 0.716762 0.503685
0.354131 0.720180 0.503716
0.377386 0.723842 0.499855
0.449317 0.731075 0.509056
0.557244 0.745296 0.510887
0.723323 0.761135 0.496742
0.873564 0.756069 0.502281
0.956390 0.733181 0.537896
0.396307 0.842008 0.560418
0.404974 0.842649 0.561730
0.437873 0.844572 0.566461
0.495216 0.848325 0.575708
0.570733 0.853849 0.587945
0.688685 0.865049 0.574365
0.830991 0.871366 0.565545
0.961669 0.865934 0.576226
0.529625 0.929351 0.654780
0.534051 0.929381 0.655451
0.552972 0.929686 0.659022
0.589258 0.930602 0.667018
0.638849 0.931762 0.678950
0.706203 0.935271 0.677333
0.795682 0.939055 0.664515
0.901061 0.937957 0.662287
0.000000 0.103578 0.484810
0.090517 0.099825 0.488563
0.247532 0.072236 0.500664
0.403265 0.000000 0.523857
0.563012 0.000000 0.543633
0.671687 0.158450 0.526146
0.769955 0.261051 0.519829
0.882780 0.280552 0.522148
0.000000 0.150637 0.489448
0.066987 0.149111 0.492897
0.245640 0.141207 0.503990
0.402625 0.113069 0.525231
0.564111 0.093050 0.545129
0.671015 0.207004 0.527123
0.769467 0.284154 0.521447
0.882261 0.299138 0.523278
0.000000 0.279179 0.492927
0.068788 0.271244 0.496071
0.245243 0.271916 0.505577
0.400671 0.271946 0.526207
0.562310 0.276677 0.545892
0.662806 0.323095 0.526909
0.765103 0.356390 0.524987
0.878080 0.359106 0.524773
0.158999 0.411810 0.493141
0.193393 0.412085 0.493629
0.288060 0.414527 0.498177
0.404059 0.419928 0.523857
0.559106 0.426795 0.547814
0.656123 0.451057 0.535332
0.764584 0.452399 0.533593
0.878782 0.445624 0.529625
0.218051 0.564477 0.533837
0.243503 0.564538 0.534508
0.324193 0.563958 0.536645
0.431678 0.562554 0.540398
0.547692 0.557671 0.543694
0.659113 0.560937 0.547601
0.778164 0.564355 0.551995
0.897063 0.567407 0.556359
0.334783 0.693874 0.553307
0.348211 0.693965 0.554772
0.396979 0.693050 0.559625
0.476478 0.693050 0.570642
0.558282 0.703029 0.582696
0.703212 0.728786 0.584985
0.839780 0.726284 0.602533
0.924956 0.719814 0.626947
0.443977 0.825589 0.624231
0.452125 0.825193 0.625025
0.486885 0.824918 0.630365
0.527855 0.830106 0.632959
0.599054 0.837827 0.648005
0.692714 0.849699 0.653956
0.828672 0.860472 0.647333
0.949096 0.852964 0.654292
0.566491 0.920745 0.702693
0.567895 0.920989 0.701930
0.580621 0.921813 0.702480
0.619043 0.924010 0.712825
0.667170 0.925963 0.724880
0.724971 0.928801 0.737667
0.805753 0.934234 0.729183
0.904265 0.934905 0.726101
0.000000 0.134218 0.583062
0.052552 0.133303 0.585657
0.230716 0.126955 0.594079
0.371557 0.106813 0.611902
0.528344 0.000000 0.641718
0.678584 0.042695 0.659449
0.784054 0.212833 0.644862
0.888426 0.298070 0.640101
0.000000 0.171725 0.581781
0.048829 0.170932 0.583734
0.229343 0.167056 0.592218
0.370062 0.157015 0.610071
0.525170 0.131411 0.638422
0.675319 0.147463 0.656489
0.780240 0.241154 0.642237
0.885008 0.314427 0.638392
0.000000 0.276616 0.586725
0.105898 0.276677 0.588647
0.238773 0.277989 0.597314
0.373754 0.277714 0.612787
0.525170 0.276585 0.639399
0.675319 0.286656 0.658564
0.779446 0.333013 0.644862
0.884092 0.379614 0.642115
0.189670 0.406928 0.582055
0.212497 0.407782 0.584344
0.287877 0.411475 0.596246
0.384863 0.408515 0.615961
0.526970 0.414588 0.643488
0.678920 0.421393 0.665797
0.781521 0.447913 0.652247
0.885954 0.472328 0.650690
0.231540 0.523461 0.594415
0.249882 0.523339 0.594659
0.311681 0.522637 0.595789
0.400153 0.521080 0.598230
0.513298 0.529473 0.632044
0.670314 0.540185 0.661952
0.772030 0.558984 0.651667
0.882353 0.556268 0.647822
0.266423 0.674037 0.643641
0.283818 0.675044 0.645045
0.342199 0.674739 0.646357
0.430335 0.673854 0.649073
0.537469 0.671778 0.652857
0.660212 0.669398 0.659510
0.778988 0.675929 0.667201
0.894865 0.680629 0.673274
0.421424 0.813474 0.676875
0.431586 0.814084 0.678676
0.468086 0.814389 0.683253
0.532250 0.815122 0.692836
0.617090 0.816281 0.708553
0.700160 0.825437 0.726223
0.822690 0.844022 0.731411
0.930480 0.837369 0.744442
0.568200 0.914244 0.746304
0.573266 0.914000 0.747036
0.597192 0.913909 0.752163
0.644099 0.914580 0.764523
0.693721 0.917052 0.775540
0.749355 0.921202 0.790677
0.817288 0.927611 0.799069
0.908263 0.931487 0.798001
0.000000 0.172610 0.689479
0.027314 0.172244 0.691768
0.221500 0.168673 0.698390
0.355657 0.160250 0.712428
0.495644 0.138491 0.733059
0.649104 0.079438 0.760708
0.788754 0.135409 0.772915
0.891691 0.238285 0.759121
0.000000 0.200443 0.687465
0.037995 0.200443 0.689876
0.221500 0.197848 0.696529
0.354345 0.191592 0.709743
0.493538 0.177615 0.730098
0.646052 0.147555 0.757259
0.785000 0.176761 0.769375
0.887175 0.256840 0.755154
0.000000 0.286595 0.689845
0.095216 0.286839 0.691310
0.228641 0.286351 0.697383
0.357000 0.285405 0.710201
0.493751 0.282261 0.729946
0.645075 0.274296 0.757443
0.786526 0.287205 0.772244
0.890288 0.333593 0.759579
0.149752 0.401678 0.688533
0.161868 0.397711 0.689784
0.237613 0.392309 0.696223
0.358740 0.394629 0.709651
0.491951 0.396612 0.730129
0.642481 0.397803 0.758999
0.788357 0.405554 0.776974
0.892210 0.433906 0.763363
0.197482 0.500999 0.669703
0.214664 0.501091 0.671229
0.273442 0.502281 0.679408
0.363806 0.503929 0.698116
0.474830 0.500084 0.722683
0.628138 0.508415 0.753689
0.785092 0.518669 0.777462
0.891203 0.543969 0.765438
0.214572 0.631250 0.706081
0.231357 0.630793 0.706203
0.287816 0.628565 0.706355
0.370855 0.623224 0.706386
0.469490 0.613062 0.705226
0.609705 0.626612 0.745693
0.783566 0.650111 0.782040
0.884855 0.670100 0.771237
0.277226 0.789822 0.762356
0.292149 0.790127 0.762966
0.346044 0.789670 0.763973
0.431464 0.789090 0.766293
0.535851 0.787625 0.769436
0.651789 0.785275 0.774136
0.774014 0.782223 0.780636
0.885924 0.788235 0.788235
0.531731 0.905913 0.788235
0.538262 0.906035 0.789242
0.566003 0.906615 0.794186
0.614313 0.907073 0.802853
0.679896 0.907683 0.816281
0.757656 0.909056 0.836057
0.827970 0.915465 0.857420
0.909941 0.925536 0.866148
0.000000 0.230655 0.820645
0.085939 0.230289 0.821897
0.227054 0.226566 0.825254
0.353918 0.219181 0.833585
0.483955 0.203952 0.846098
0.620905 0.175235 0.862455
0.767910 0.114290 0.883085
0.897551 0.169589 0.888762
0.000000 0.249821 0.818692
0.090669 0.249516 0.820096
0.227115 0.246433 0.823850
0.353216 0.239750 0.832029
0.482795 0.227054 0.844511
0.619562 0.203891 0.861021
0.766140 0.160281 0.881407
0.895781 0.196811 0.887114
0.000000 0.314458 0.817441
0.094301 0.314122 0.818448
0.226505 0.312200 0.822110
0.352392 0.309331 0.831418
0.481025 0.301610 0.843534
0.617121 0.288487 0.859739
0.763882 0.267918 0.880491
0.894957 0.283787 0.887236
0.000000 0.398260 0.814603
0.000000 0.398322 0.815793
0.207156 0.397528 0.819791
0.340368 0.396490 0.828611
0.472175 0.393713 0.841581
0.610681 0.388434 0.858885
0.759579 0.380255 0.880491
0.894743 0.388708 0.889220
0.021454 0.506950 0.804318
0.109255 0.506188 0.805905
0.206912 0.501396 0.810971
0.291814 0.482521 0.822110
0.442725 0.483406 0.836027
0.591638 0.484474 0.854826
0.748745 0.486549 0.878416
0.893492 0.497871 0.891020
0.000000 0.609552 0.797787
0.000000 0.607874 0.797116
0.168154 0.601404 0.795071
0.285008 0.595300 0.802121
0.410834 0.590051 0.821439
0.558587 0.587945 0.848051
0.734676 0.606744 0.876768
0.892302 0.628931 0.895171
0.102449 0.752407 0.837980
0.137789 0.751705 0.837766
0.223514 0.748775 0.837064
0.324498 0.743130 0.836271
0.431495 0.732998 0.834409
0.543847 0.715175 0.830259
0.713436 0.731228 0.865812
0.886351 0.765316 0.896513
0.361303 0.898405 0.880003
0.370794 0.898222 0.880034
0.409308 0.897612 0.880583
0.477150 0.896788 0.882078
0.564965 0.895140 0.884215
0.666499 0.892607 0.887205
0.775265 0.889677 0.891722
0.879881 0.887602 0.898375
