20 Preset/Japan Style/【3】LUT video cho PR-AE-FCPX/LUT VIDEO/Japan Style LUT (9).cube
# Created by Adobe Lightroom plugin Export LUT (1.24.0)
# www.johnrellis.com/lightroom/exportlut.htm
# Preset: 09日系胶片（素材江湖）
# Color profile: C:\Program Files (x86)\Common Files\Adobe\Color\Profiles\Recommended\VideoHD.icc
LUT_3D_SIZE 32
DOMAIN_MIN 0.0 0.0 0.0
DOMAIN_MAX 1.0 1.0 1.0
0.000000 0.011994 0.014374
0.000000 0.013184 0.015381
0.000000 0.017334 0.018158
0.010254 0.023804 0.023651
0.087953 0.030854 0.033478
0.148440 0.027466 0.045136
0.226749 0.000000 0.052338
0.311467 0.000000 0.055879
0.396521 0.000000 0.057099
0.478828 0.000000 0.055543
0.558251 0.000000 0.051789
0.632807 0.000000 0.048249
0.701778 0.000000 0.045869
0.764523 0.000000 0.046235
0.818845 0.000000 0.051331
0.863828 0.000000 0.063111
0.901396 0.000000 0.082063
0.934844 0.000000 0.095186
0.966094 0.000000 0.109255
0.994751 0.000000 0.125032
1.000000 0.000000 0.142092
1.000000 0.000000 0.163882
1.000000 0.000000 0.185702
1.000000 0.000000 0.208011
1.000000 0.154604 0.230625
1.000000 0.215122 0.253208
1.000000 0.260777 0.276616
1.000000 0.299626 0.300328
1.000000 0.335241 0.325536
1.000000 0.368078 0.350958
1.000000 0.399573 0.377661
1.000000 0.429419 0.404456
0.000000 0.019196 0.019165
0.000000 0.019196 0.016907
0.000000 0.024537 0.017243
0.008362 0.029603 0.024018
0.086152 0.035676 0.032868
0.147005 0.033936 0.044404
0.223880 0.000000 0.051698
0.307286 0.000000 0.055512
0.391882 0.000000 0.056733
0.473884 0.000000 0.054200
0.552575 0.000000 0.050690
0.627314 0.000000 0.047425
0.696498 0.000000 0.045167
0.759457 0.000000 0.045075
0.814237 0.000000 0.047761
0.860136 0.000000 0.060853
0.898283 0.000000 0.079103
0.931975 0.000000 0.093782
0.963317 0.000000 0.107790
0.992157 0.000000 0.122835
1.000000 0.000000 0.139712
1.000000 0.000000 0.161196
1.000000 0.000000 0.182284
1.000000 0.000000 0.203647
1.000000 0.144076 0.226108
1.000000 0.206394 0.248722
1.000000 0.253178 0.271916
1.000000 0.293309 0.295903
1.000000 0.329168 0.320989
1.000000 0.362646 0.346563
1.000000 0.394568 0.373236
1.000000 0.425086 0.400549
0.000000 0.045624 0.034028
0.000000 0.046815 0.031617
0.000000 0.048127 0.024445
0.000549 0.051759 0.022278
0.083070 0.058595 0.032105
0.145480 0.059510 0.042237
0.222049 0.028565 0.048096
0.304417 0.000000 0.051423
0.387671 0.000000 0.052216
0.469123 0.000000 0.049409
0.547723 0.000000 0.045716
0.622522 0.000000 0.040986
0.691676 0.000000 0.038239
0.754696 0.000000 0.036530
0.810117 0.000000 0.039002
0.856352 0.000000 0.050324
0.895018 0.000000 0.069398
0.928862 0.000000 0.089143
0.960540 0.000000 0.103517
0.989624 0.000000 0.119265
1.000000 0.000000 0.137545
1.000000 0.000000 0.158541
1.000000 0.000000 0.179599
1.000000 0.000000 0.200717
1.000000 0.150118 0.222782
1.000000 0.209018 0.245701
1.000000 0.254795 0.268956
1.000000 0.293858 0.292760
1.000000 0.329503 0.318181
1.000000 0.362799 0.344121
1.000000 0.394324 0.370733
1.000000 0.424567 0.398047
0.000000 0.085573 0.061189
0.000000 0.086824 0.062013
0.000000 0.087160 0.055024
0.000000 0.089082 0.041352
0.079744 0.093477 0.032227
0.144198 0.096223 0.038025
0.220249 0.089082 0.041444
0.300481 0.037842 0.042420
0.383459 0.000000 0.042267
0.464027 0.000000 0.038575
0.542565 0.000000 0.032837
0.616632 0.000000 0.028443
0.685908 0.000000 0.023468
0.748867 0.000000 0.019562
0.804501 0.000000 0.022492
0.850980 0.000000 0.030152
0.890074 0.000000 0.046937
0.923857 0.000000 0.076020
0.955627 0.000000 0.096529
0.984894 0.000000 0.113008
1.000000 0.000000 0.132082
1.000000 0.000000 0.152621
1.000000 0.000000 0.173678
1.000000 0.061494 0.195743
1.000000 0.166110 0.218509
1.000000 0.219883 0.241642
1.000000 0.263005 0.265568
1.000000 0.300847 0.290501
1.000000 0.335454 0.316228
1.000000 0.367620 0.342138
1.000000 0.398077 0.368963
1.000000 0.427253 0.396002
0.000000 0.118746 0.087709
0.000000 0.119509 0.087404
0.000000 0.120211 0.079225
0.000000 0.120302 0.072267
0.044770 0.123995 0.052461
0.142000 0.129824 0.036316
0.212650 0.129458 0.025971
0.292424 0.119753 0.025299
0.374029 0.095460 0.022644
0.454261 0.000000 0.017731
0.532433 0.000000 0.010925
0.606714 0.000000 0.004089
0.676081 0.000000 0.000000
0.739895 0.000000 0.000000
0.796323 0.000000 0.000000
0.843839 0.000000 0.000000
0.884215 0.000000 0.016632
0.918669 0.000000 0.042359
0.950835 0.000000 0.081514
0.980560 0.000000 0.103090
1.000000 0.000000 0.124605
1.000000 0.000000 0.146304
1.000000 0.000000 0.168124
1.000000 0.139498 0.190890
1.000000 0.196933 0.214389
1.000000 0.241093 0.238132
1.000000 0.278843 0.262425
1.000000 0.313451 0.288090
1.000000 0.345342 0.313481
1.000000 0.375860 0.340002
1.000000 0.404791 0.367010
1.000000 0.432837 0.394110
0.000000 0.165499 0.102266
0.000000 0.166018 0.102144
0.000000 0.167086 0.096498
0.000000 0.166842 0.089387
0.000000 0.169009 0.077943
0.120974 0.173800 0.045899
0.213626 0.178225 0.019135
0.288487 0.173373 0.000000
0.364599 0.163943 0.000000
0.445319 0.146304 0.000000
0.523430 0.116701 0.000000
0.597894 0.033539 0.000000
0.667567 0.000000 0.000000
0.731655 0.000000 0.000000
0.788907 0.000000 0.000000
0.837491 0.000000 0.000000
0.878325 0.000000 0.000000
0.913573 0.000000 0.000000
0.946288 0.000000 0.039918
0.976318 0.000000 0.088228
1.000000 0.000000 0.114107
1.000000 0.077211 0.138491
1.000000 0.199924 0.180636
1.000000 0.239414 0.206088
1.000000 0.273930 0.231724
1.000000 0.305272 0.256748
1.000000 0.334081 0.281376
1.000000 0.361608 0.306737
1.000000 0.387976 0.332433
1.000000 0.413489 0.358129
1.000000 0.438422 0.384375
1.000000 0.462440 0.410437
0.000000 0.230076 0.123842
0.000000 0.230716 0.123323
0.000000 0.232273 0.121614
0.000000 0.232456 0.104585
0.000000 0.231083 0.099001
0.000000 0.235447 0.078309
0.193637 0.241093 0.019623
0.299382 0.243168 0.000000
0.375433 0.234104 0.000000
0.447608 0.223972 0.000000
0.524743 0.211429 0.000000
0.600183 0.195651 0.000000
0.669856 0.176791 0.000000
0.733639 0.156313 0.000000
0.789944 0.134035 0.000000
0.837339 0.113741 0.000000
0.877653 0.099672 0.000000
0.912749 0.098329 0.000000
0.945495 0.112032 0.000000
0.978210 0.140352 0.050874
1.000000 0.175021 0.105043
1.000000 0.207889 0.136049
1.000000 0.240360 0.165011
1.000000 0.271519 0.193851
1.000000 0.300664 0.221408
1.000000 0.327764 0.247868
1.000000 0.353002 0.274266
1.000000 0.377203 0.300023
1.000000 0.401038 0.325994
1.000000 0.424353 0.352331
1.000000 0.447425 0.378637
1.000000 0.469825 0.404852
0.000000 0.292332 0.149508
0.000000 0.292760 0.149752
0.000000 0.294102 0.148318
0.000000 0.295140 0.132143
0.000000 0.293828 0.120668
0.000000 0.292699 0.111452
0.116762 0.299718 0.084321
0.261295 0.305730 0.000000
0.370550 0.307713 0.000000
0.445777 0.296178 0.000000
0.516045 0.285344 0.000000
0.583734 0.274907 0.000000
0.653468 0.265232 0.000000
0.717922 0.254093 0.000000
0.775784 0.242893 0.000000
0.824521 0.232639 0.000000
0.866087 0.224369 0.000000
0.902220 0.220127 0.000000
0.936797 0.222629 0.000000
0.970825 0.233738 0.000000
1.000000 0.249607 0.065064
1.000000 0.267979 0.117006
1.000000 0.289067 0.150698
1.000000 0.311162 0.181460
1.000000 0.333928 0.211398
1.000000 0.355779 0.239506
1.000000 0.377050 0.266850
1.000000 0.397833 0.293584
1.000000 0.418677 0.320043
1.000000 0.439948 0.347326
1.000000 0.460670 0.373907
1.000000 0.481605 0.400824
0.000000 0.356420 0.184329
0.000000 0.356695 0.184054
0.000000 0.357702 0.183261
0.000000 0.359350 0.175937
0.000000 0.358709 0.153750
0.000000 0.356573 0.146090
0.000000 0.357702 0.131258
0.196628 0.365362 0.100679
0.329229 0.371801 0.000000
0.440009 0.373663 0.000000
0.513359 0.361425 0.000000
0.579889 0.350072 0.000000
0.640986 0.338842 0.000000
0.703182 0.330175 0.000000
0.761135 0.321477 0.000000
0.811246 0.312413 0.000000
0.854185 0.304417 0.000000
0.892027 0.298924 0.000000
0.928893 0.299443 0.000000
0.962615 0.304234 0.000000
0.993072 0.312444 0.000000
1.000000 0.323857 0.088685
1.000000 0.337774 0.132631
1.000000 0.353582 0.168551
1.000000 0.370703 0.201205
1.000000 0.387915 0.231266
1.000000 0.405188 0.259770
1.000000 0.422858 0.287327
1.000000 0.440925 0.315312
1.000000 0.459205 0.342596
1.000000 0.478004 0.370031
1.000000 0.496803 0.397314
0.000000 0.419684 0.226383
0.000000 0.419745 0.225956
0.000000 0.420233 0.225437
0.000000 0.421698 0.224552
0.000000 0.421820 0.198703
0.000000 0.419928 0.187228
0.000000 0.417029 0.177920
0.096101 0.421515 0.158907
0.270481 0.428534 0.126802
0.396155 0.434852 0.039124
0.505150 0.437140 0.000000
0.573816 0.424231 0.000000
0.636011 0.412085 0.000000
0.692531 0.400641 0.000000
0.745144 0.390173 0.000000
0.796597 0.381231 0.000000
0.841947 0.373144 0.000000
0.882506 0.367834 0.000000
0.919677 0.365393 0.000000
0.953582 0.366400 0.000000
0.984100 0.370031 0.000000
1.000000 0.375769 0.000000
1.000000 0.384253 0.107210
1.000000 0.394629 0.150729
1.000000 0.406226 0.186160
1.000000 0.419226 0.218509
1.000000 0.433021 0.249180
1.000000 0.447730 0.278477
1.000000 0.463294 0.307500
1.000000 0.479652 0.336584
1.000000 0.496468 0.364843
1.000000 0.513756 0.393408
0.000000 0.477729 0.271031
0.000000 0.477821 0.270787
0.000000 0.478614 0.270878
0.000000 0.479622 0.270207
0.000000 0.480354 0.255741
0.000000 0.479896 0.233555
0.000000 0.477852 0.225589
0.000000 0.475074 0.215702
0.210025 0.482429 0.194095
0.343389 0.489570 0.162692
0.462715 0.495277 0.110994
0.566827 0.497810 0.000000
0.630457 0.484596 0.000000
0.687770 0.471839 0.000000
0.739712 0.460121 0.000000
0.785824 0.448951 0.000000
0.829953 0.439307 0.000000
0.870542 0.430640 0.000000
0.908080 0.424231 0.000000
0.942321 0.422248 0.000000
0.973358 0.422339 0.000000
1.000000 0.424811 0.000000
1.000000 0.429755 0.035065
1.000000 0.436378 0.128389
1.000000 0.444495 0.171389
1.000000 0.454200 0.207187
1.000000 0.465126 0.240513
1.000000 0.477058 0.271733
1.000000 0.489815 0.301823
1.000000 0.503685 0.331792
1.000000 0.518395 0.361212
1.000000 0.533715 0.390539
0.000000 0.534112 0.318395
0.000000 0.534264 0.318425
0.000000 0.534539 0.317998
0.000000 0.535515 0.318364
0.000000 0.536675 0.313573
0.000000 0.537011 0.284062
0.000000 0.535454 0.276036
0.000000 0.533043 0.267643
0.139590 0.533410 0.255528
0.296391 0.540276 0.234318
0.414374 0.546593 0.205173
0.526360 0.552361 0.163577
0.645258 0.571313 0.144228
0.704280 0.558862 0.113680
0.754726 0.544945 0.052522
0.798306 0.531060 0.000000
0.836454 0.517418 0.000000
0.872648 0.505882 0.000000
0.910582 0.498573 0.000000
0.945342 0.492042 0.000000
0.976165 0.488472 0.000000
1.000000 0.488289 0.000000
1.000000 0.489876 0.000000
1.000000 0.493294 0.126680
1.000000 0.498207 0.174594
1.000000 0.504021 0.212497
1.000000 0.510948 0.246403
1.000000 0.519036 0.277867
1.000000 0.528313 0.308446
1.000000 0.538689 0.338048
1.000000 0.550042 0.367132
1.000000 0.562371 0.395941
0.000000 0.593591 0.373144
0.000000 0.593561 0.373205
0.000000 0.593469 0.373053
0.000000 0.593652 0.372717
0.000000 0.593957 0.372503
0.000000 0.593683 0.351080
0.000000 0.592737 0.331853
0.000000 0.590295 0.324590
0.021485 0.588617 0.316869
0.265599 0.593225 0.304479
0.385870 0.601770 0.287053
0.495521 0.610285 0.263890
0.602350 0.617670 0.232700
0.694423 0.619348 0.210605
0.745357 0.605341 0.189303
0.788296 0.590143 0.165866
0.826444 0.575463 0.137301
0.861723 0.562036 0.097017
0.894438 0.550347 0.000000
0.927550 0.541924 0.000000
0.959411 0.535393 0.000000
0.988373 0.529595 0.000000
1.000000 0.528588 0.000000
1.000000 0.529564 0.076600
1.000000 0.532189 0.150576
1.000000 0.536095 0.195773
1.000000 0.541100 0.233646
1.000000 0.547387 0.268070
1.000000 0.554772 0.300328
1.000000 0.563531 0.331640
1.000000 0.573114 0.362219
1.000000 0.583734 0.392157
0.000000 0.640284 0.420294
0.000000 0.640223 0.420172
0.000000 0.640162 0.420325
0.000000 0.640192 0.420081
0.000000 0.640284 0.420081
0.000000 0.640497 0.409339
0.000000 0.640894 0.383093
0.000000 0.639216 0.377386
0.000000 0.637629 0.370794
0.239414 0.635981 0.362982
0.356207 0.642206 0.350500
0.458747 0.649042 0.335058
0.556970 0.655177 0.315099
0.652491 0.659968 0.288243
0.733700 0.658564 0.271000
0.777127 0.643488 0.251408
0.815427 0.628443 0.229465
0.850584 0.614740 0.205631
0.883482 0.602167 0.179080
0.913725 0.590875 0.149050
0.942046 0.580957 0.111238
0.971984 0.574945 0.051179
0.999298 0.569574 0.000000
1.000000 0.566339 0.000000
1.000000 0.567193 0.121675
1.000000 0.569329 0.178439
1.000000 0.572503 0.221286
1.000000 0.576959 0.258762
1.000000 0.582605 0.293309
1.000000 0.589593 0.326299
1.000000 0.597559 0.358099
1.000000 0.606592 0.389258
0.000000 0.681849 0.466835
0.000000 0.681788 0.466835
0.000000 0.681514 0.466651
0.000000 0.681086 0.466194
0.000000 0.680568 0.466011
0.000000 0.680140 0.462928
0.000000 0.680201 0.441444
0.000000 0.679286 0.426947
0.000000 0.677546 0.420783
0.236393 0.675837 0.414435
0.337865 0.675654 0.406897
0.432074 0.681178 0.395880
0.520653 0.686213 0.381659
0.607752 0.690333 0.363714
0.692714 0.693080 0.339818
0.765164 0.690425 0.324773
0.804868 0.676692 0.304753
0.839902 0.662989 0.284092
0.872587 0.650111 0.261875
0.902861 0.638361 0.238651
0.930846 0.627710 0.214725
0.957214 0.618341 0.186984
0.983642 0.611475 0.160342
1.000000 0.606348 0.128298
1.000000 0.601465 0.074159
1.000000 0.602075 0.159182
1.000000 0.603906 0.208713
1.000000 0.607019 0.249912
1.000000 0.611322 0.287144
1.000000 0.617060 0.322789
1.000000 0.623896 0.356359
1.000000 0.631556 0.388617
0.000000 0.713375 0.506523
0.000000 0.713405 0.506706
0.000000 0.713252 0.506737
0.000000 0.713008 0.506737
0.000000 0.712673 0.507256
0.000000 0.712276 0.508202
0.000000 0.712581 0.494057
0.000000 0.712978 0.474678
0.130678 0.711543 0.470039
0.258549 0.709926 0.464668
0.341833 0.708003 0.458442
0.418494 0.708919 0.450355
0.496498 0.712520 0.439429
0.573419 0.715419 0.425544
0.649165 0.717678 0.407935
0.724575 0.719173 0.385779
0.792630 0.717708 0.371191
0.828794 0.705562 0.351904
0.861234 0.693111 0.331609
0.891356 0.681453 0.311284
0.919646 0.670802 0.289799
0.946227 0.661372 0.267796
0.971038 0.652979 0.244572
0.994385 0.645350 0.217411
1.000000 0.640742 0.194400
1.000000 0.635950 0.161593
1.000000 0.635615 0.196902
1.000000 0.637476 0.243046
1.000000 0.640406 0.282963
1.000000 0.644526 0.319249
1.000000 0.649531 0.354009
1.000000 0.655634 0.387274
0.000000 0.738521 0.541802
0.000000 0.738491 0.541802
0.000000 0.738338 0.542016
0.000000 0.738094 0.542351
0.000000 0.737758 0.543175
0.000000 0.737362 0.544366
0.134493 0.737301 0.538323
0.130404 0.737850 0.520928
0.207492 0.737179 0.511498
0.288457 0.735683 0.506798
0.355627 0.734005 0.501518
0.416602 0.732021 0.495583
0.482216 0.734249 0.487221
0.549798 0.737179 0.477089
0.617853 0.739773 0.463905
0.686305 0.741726 0.447639
0.754543 0.743130 0.427222
0.817655 0.742824 0.414466
0.851530 0.732265 0.396216
0.881132 0.720974 0.376959
0.909056 0.710750 0.357519
0.935485 0.701259 0.337713
0.960235 0.692744 0.316930
0.983612 0.685054 0.294743
1.000000 0.678004 0.269932
1.000000 0.672602 0.245151
1.000000 0.668116 0.218021
1.000000 0.666926 0.235386
1.000000 0.668849 0.278569
1.000000 0.671717 0.316991
1.000000 0.675532 0.353216
1.000000 0.680232 0.387671
0.000000 0.761868 0.575799
0.000000 0.761929 0.576013
0.046845 0.770291 0.589136
0.138857 0.770077 0.589563
0.198825 0.769680 0.590478
0.254795 0.769162 0.591821
0.301244 0.768673 0.592004
0.297948 0.768978 0.577905
0.305303 0.769162 0.563714
0.354894 0.767758 0.559747
0.402655 0.766201 0.555261
0.449775 0.764309 0.549920
0.497078 0.762570 0.543481
0.553155 0.765133 0.534936
0.610712 0.767239 0.524743
0.669764 0.768917 0.512169
0.729854 0.770047 0.496315
0.790219 0.770748 0.477272
0.846220 0.770443 0.464729
0.877134 0.761135 0.446815
0.903502 0.750851 0.427863
0.928618 0.741512 0.408789
0.952544 0.732815 0.388861
0.975128 0.724758 0.368322
0.996429 0.717128 0.346044
1.000000 0.710018 0.321386
1.000000 0.703334 0.293462
1.000000 0.698482 0.266209
1.000000 0.696559 0.275517
1.000000 0.698177 0.315251
1.000000 0.700771 0.352667
1.000000 0.704097 0.387793
0.193576 0.785702 0.610742
0.201450 0.786404 0.611994
0.219547 0.787106 0.613458
0.246372 0.787533 0.615167
0.278660 0.787716 0.616815
0.315129 0.787472 0.618433
0.355352 0.786923 0.620325
0.361151 0.786984 0.611292
0.358709 0.787381 0.597162
0.386145 0.786557 0.590509
0.424994 0.785183 0.586572
0.464393 0.783566 0.582116
0.503807 0.781552 0.576410
0.547417 0.781216 0.569848
0.597772 0.783444 0.562036
0.650263 0.785306 0.552422
0.704280 0.786831 0.540703
0.759182 0.788022 0.526482
0.814450 0.788968 0.509911
0.865660 0.789151 0.498756
0.894652 0.781308 0.483223
0.919158 0.772671 0.465187
0.942443 0.764523 0.447211
0.964599 0.756741 0.428229
0.985626 0.749355 0.407782
1.000000 0.742428 0.386145
1.000000 0.735866 0.361822
1.000000 0.729671 0.334874
1.000000 0.724331 0.305455
1.000000 0.722621 0.312840
1.000000 0.724178 0.351385
1.000000 0.726558 0.387823
0.287694 0.803799 0.637537
0.293126 0.804501 0.638636
0.304143 0.805142 0.640070
0.320470 0.805631 0.641627
0.342748 0.805814 0.643091
0.369055 0.805631 0.644556
0.398230 0.805203 0.645960
0.414893 0.804959 0.642237
0.413184 0.805264 0.630640
0.419959 0.805234 0.619623
0.451728 0.803952 0.616297
0.485145 0.802487 0.612726
0.519158 0.800717 0.608118
0.554070 0.798734 0.602838
0.595666 0.799588 0.596826
0.641291 0.801511 0.589593
0.689265 0.803098 0.580591
0.738247 0.804410 0.569696
0.788327 0.805417 0.557000
0.838254 0.806302 0.541924
0.884428 0.806516 0.531792
0.911254 0.799893 0.517632
0.933715 0.792447 0.500725
0.955200 0.785214 0.483528
0.975708 0.778286 0.464881
0.995422 0.771603 0.445136
1.000000 0.765316 0.423499
1.000000 0.759304 0.399664
1.000000 0.753628 0.372930
1.000000 0.748104 0.340673
1.000000 0.746670 0.351141
1.000000 0.748074 0.388617
0.354955 0.821103 0.662806
0.358434 0.821683 0.663844
0.365698 0.822263 0.664973
0.377783 0.822629 0.666285
0.394049 0.822751 0.667475
0.413733 0.822568 0.668452
0.436866 0.822202 0.669490
0.459785 0.821775 0.669551
0.458228 0.822080 0.659876
0.456703 0.822446 0.647852
0.478614 0.821561 0.643214
0.507073 0.820218 0.640101
0.536736 0.818692 0.636378
0.567468 0.816922 0.632166
0.599329 0.815061 0.627375
0.639673 0.816861 0.622004
0.682216 0.818540 0.615686
0.726619 0.820066 0.608026
0.772000 0.821408 0.599298
0.817777 0.822690 0.589044
0.862943 0.823880 0.576898
0.904479 0.824430 0.568414
0.929168 0.818875 0.556054
0.949737 0.812619 0.540917
0.969543 0.806607 0.524651
0.988556 0.800717 0.507164
1.000000 0.795041 0.488441
1.000000 0.789609 0.468055
1.000000 0.784421 0.444892
1.000000 0.779294 0.418158
1.000000 0.773922 0.384924
1.000000 0.772519 0.400305
0.420996 0.840604 0.691920
0.422553 0.840848 0.692256
0.426734 0.840940 0.692714
0.434089 0.840848 0.693050
0.445380 0.840665 0.693477
0.459785 0.840269 0.693874
0.477607 0.839811 0.694453
0.498360 0.839322 0.695003
0.502708 0.839384 0.688685
0.501701 0.839780 0.678706
0.509422 0.839689 0.670405
0.534264 0.838499 0.667933
0.560296 0.837095 0.664912
0.587488 0.835508 0.661524
0.615534 0.833707 0.657527
0.646540 0.832883 0.653132
0.683955 0.834226 0.648157
0.722835 0.835386 0.642390
0.763088 0.836423 0.635645
0.803830 0.837339 0.627527
0.844633 0.838163 0.618067
0.884489 0.838956 0.606867
0.921202 0.839109 0.598322
0.943450 0.833829 0.586755
0.962097 0.828031 0.571832
0.980346 0.822629 0.556146
0.998199 0.817411 0.538994
1.000000 0.812406 0.520958
1.000000 0.807584 0.500664
1.000000 0.802853 0.477516
1.000000 0.797910 0.449378
1.000000 0.792416 0.413916
0.464179 0.855009 0.713161
0.465614 0.855161 0.713375
0.468910 0.855222 0.713710
0.474922 0.855192 0.714046
0.483619 0.855039 0.714321
0.495399 0.854734 0.714595
0.509911 0.854337 0.714839
0.527367 0.853880 0.715206
0.538354 0.853727 0.712398
0.537499 0.854063 0.703731
0.536614 0.854551 0.693477
0.556359 0.853605 0.690455
0.579675 0.852354 0.688014
0.604150 0.850980 0.685206
0.629725 0.849454 0.682124
0.655909 0.847745 0.678523
0.687129 0.847807 0.674769
0.722164 0.848844 0.670436
0.758206 0.849790 0.665278
0.795041 0.850645 0.659358
0.831937 0.851438 0.652369
0.868437 0.852171 0.644038
0.904326 0.852903 0.633967
0.937133 0.852934 0.626184
0.955901 0.846586 0.612146
0.972992 0.841306 0.598108
0.990051 0.836484 0.583398
1.000000 0.831907 0.567498
1.000000 0.827451 0.549432
1.000000 0.823087 0.529168
1.000000 0.818692 0.505303
1.000000 0.813779 0.475227
0.508415 0.869902 0.735622
0.510155 0.870115 0.736110
0.512657 0.870176 0.736324
0.517266 0.870024 0.736416
0.523980 0.869688 0.736355
0.533440 0.869169 0.736263
0.545190 0.868528 0.736172
0.559716 0.867826 0.736263
0.575494 0.867155 0.736019
0.573816 0.867277 0.728145
0.571954 0.867460 0.718624
0.579492 0.867094 0.711666
0.599420 0.865812 0.709224
0.620447 0.864408 0.706355
0.642695 0.862821 0.703182
0.665858 0.861112 0.699641
0.689967 0.859312 0.695827
0.720729 0.859922 0.692042
0.753414 0.860716 0.687953
0.787015 0.861540 0.683253
0.820890 0.862333 0.677974
0.854612 0.863066 0.671626
0.887724 0.863706 0.663935
0.920073 0.864195 0.654383
0.949645 0.863951 0.646265
0.968261 0.859068 0.636316
0.983703 0.854032 0.622950
0.999603 0.849577 0.608850
1.000000 0.845365 0.593317
1.000000 0.841306 0.575738
1.000000 0.837186 0.555047
1.000000 0.832761 0.529595
0.542321 0.881041 0.753048
0.543847 0.881224 0.753475
0.546380 0.881315 0.753841
0.550622 0.881224 0.754025
0.556939 0.881010 0.754238
0.565728 0.880644 0.754513
0.576898 0.880247 0.754940
0.590661 0.879759 0.755489
0.606653 0.879240 0.756283
0.610651 0.879301 0.751675
0.609369 0.879637 0.743832
0.608209 0.880034 0.734585
0.625208 0.878996 0.732296
0.643641 0.877806 0.729854
0.662959 0.876432 0.726986
0.683314 0.874907 0.723751
0.704463 0.873320 0.720302
0.727810 0.872190 0.716701
0.756527 0.872862 0.713130
0.786374 0.873564 0.709102
0.816739 0.874266 0.704677
0.847227 0.874968 0.699306
0.877470 0.875608 0.693111
0.907408 0.876188 0.685634
0.936614 0.876707 0.676814
0.963317 0.876402 0.669062
0.980438 0.871733 0.660182
0.994537 0.866972 0.648005
1.000000 0.863005 0.634974
1.000000 0.859251 0.620478
1.000000 0.855436 0.603357
1.000000 0.851377 0.582086
0.581384 0.892576 0.772519
0.582238 0.892699 0.772702
0.584222 0.892668 0.772915
0.587884 0.892546 0.773098
0.593347 0.892302 0.773342
0.601007 0.891966 0.773587
0.610834 0.891508 0.774075
0.622980 0.891020 0.774624
0.637171 0.890440 0.775509
0.646418 0.890196 0.773922
0.645289 0.890471 0.767178
0.644007 0.890898 0.759182
0.651270 0.890623 0.753902
0.666987 0.889586 0.751736
0.683803 0.888365 0.749203
0.701350 0.887083 0.746334
0.719905 0.885679 0.743221
0.739345 0.884276 0.739895
0.762203 0.883970 0.736690
0.788357 0.884611 0.733211
0.815274 0.885283 0.729397
0.842588 0.885924 0.724880
0.869871 0.886564 0.719509
0.897093 0.887114 0.713100
0.924010 0.887602 0.705470
0.950530 0.888090 0.696376
0.974853 0.887694 0.688228
0.990723 0.882963 0.679316
1.000000 0.878233 0.667536
1.000000 0.874601 0.655390
1.000000 0.871061 0.641169
1.000000 0.867308 0.623743
0.617304 0.902953 0.790372
0.618067 0.903014 0.790555
0.619959 0.903014 0.790799
0.623346 0.902922 0.791073
0.628595 0.902770 0.791470
0.636011 0.902556 0.792142
0.645838 0.902403 0.793149
0.657893 0.902190 0.794491
0.671962 0.902007 0.796201
0.687098 0.901823 0.797940
0.687556 0.902525 0.793149
0.687892 0.903227 0.787472
0.688808 0.903868 0.780850
0.702754 0.903288 0.779629
0.717250 0.902495 0.777951
0.732082 0.901549 0.775692
0.747616 0.900511 0.773220
0.763912 0.899382 0.770413
0.780941 0.898283 0.767544
0.802152 0.898650 0.764645
0.824796 0.899351 0.761410
0.847990 0.900023 0.757626
0.871458 0.900664 0.753079
0.895079 0.901244 0.747646
0.918700 0.901793 0.741085
0.942321 0.902312 0.733303
0.965850 0.902800 0.724239
0.987518 0.902312 0.715602
1.000000 0.897246 0.706416
1.000000 0.892271 0.694118
1.000000 0.888609 0.681514
1.000000 0.884886 0.666987
0.664454 0.915312 0.812833
0.664790 0.915312 0.812894
0.666102 0.915251 0.812955
0.668635 0.915099 0.813107
0.672908 0.914885 0.813413
0.678859 0.914580 0.813840
0.686641 0.914244 0.814542
0.696254 0.913878 0.815457
0.707576 0.913451 0.816648
0.720516 0.913024 0.818143
0.724300 0.913146 0.815518
0.723507 0.913634 0.810300
0.722744 0.914153 0.804166
0.729122 0.913970 0.800504
