20 Preset/Japan Style/【3】LUT video cho PR-AE-FCPX/LUT VIDEO/Japan Style LUT (27).cube
# Created by Adobe Lightroom plugin Export LUT (1.24.0)
# www.johnrellis.com/lightroom/exportlut.htm
# Preset: 27日系室内白色微蓝（素材江湖）
# Color profile: C:\Program Files (x86)\Common Files\Adobe\Color\Profiles\Recommended\VideoHD.icc
LUT_3D_SIZE 32
DOMAIN_MIN 0.0 0.0 0.0
DOMAIN_MAX 1.0 1.0 1.0
0.000000 0.000000 0.091554
0.000000 0.000122 0.091402
0.051209 0.000000 0.091035
0.114137 0.000000 0.090089
0.162600 0.000000 0.088411
0.218173 0.000000 0.084108
0.274723 0.000000 0.076020
0.330327 0.000000 0.062501
0.383734 0.000000 0.052461
0.434943 0.000000 0.047120
0.485145 0.000000 0.045380
0.534661 0.000000 0.042786
0.583764 0.000000 0.041321
0.632319 0.000000 0.040955
0.680293 0.000000 0.044648
0.727382 0.000000 0.053376
0.773373 0.000000 0.070100
0.816098 0.019928 0.090578
0.855650 0.056580 0.103243
0.892058 0.095369 0.118288
0.925475 0.114260 0.133730
0.957092 0.133455 0.150210
0.986328 0.151858 0.167330
1.000000 0.169100 0.183200
1.000000 0.185428 0.198917
1.000000 0.201297 0.214450
1.000000 0.216648 0.229557
1.000000 0.231144 0.244450
1.000000 0.244999 0.258610
1.000000 0.258732 0.272618
1.000000 0.271641 0.286107
1.000000 0.284276 0.299260
0.000000 0.014252 0.090822
0.000000 0.012696 0.090791
0.051911 0.013306 0.090303
0.115236 0.011322 0.089479
0.163485 0.011810 0.087526
0.218662 0.009644 0.082551
0.274876 0.005127 0.073884
0.329778 0.000366 0.061372
0.383215 0.000000 0.052338
0.434363 0.000000 0.048127
0.484291 0.000000 0.044862
0.533806 0.000000 0.042420
0.582818 0.000000 0.039551
0.631342 0.000000 0.042206
0.679164 0.000000 0.044556
0.726284 0.000000 0.053132
0.772335 0.015534 0.070832
0.815213 0.042420 0.090242
0.854734 0.079774 0.103975
0.891112 0.101472 0.118563
0.924529 0.120546 0.133547
0.956023 0.136965 0.150057
0.985077 0.155001 0.167056
1.000000 0.171695 0.182712
1.000000 0.187625 0.198367
1.000000 0.202518 0.213779
1.000000 0.217197 0.228641
1.000000 0.231876 0.243717
1.000000 0.245487 0.258030
1.000000 0.258793 0.271672
1.000000 0.271824 0.285374
1.000000 0.284184 0.298344
0.000000 0.072114 0.087739
0.000000 0.072724 0.087495
0.053407 0.070405 0.086946
0.115602 0.071809 0.085267
0.166018 0.076295 0.081788
0.220890 0.082368 0.074525
0.276921 0.083375 0.063447
0.331212 0.083253 0.054871
0.384100 0.082612 0.049775
0.434760 0.079652 0.045624
0.484627 0.078340 0.042176
0.534081 0.074250 0.038788
0.582879 0.071962 0.038361
0.631250 0.074067 0.040436
0.679103 0.078431 0.044190
0.726040 0.087037 0.054780
0.772000 0.094881 0.074922
0.814694 0.104189 0.091768
0.854215 0.115541 0.105196
0.890623 0.127749 0.119936
0.924071 0.140871 0.135164
0.955505 0.155367 0.151553
0.984405 0.169955 0.167941
1.000000 0.184024 0.183932
1.000000 0.198337 0.199527
1.000000 0.211582 0.214542
1.000000 0.225650 0.229892
1.000000 0.239017 0.244388
1.000000 0.251865 0.258488
1.000000 0.264714 0.272282
1.000000 0.276738 0.285740
1.000000 0.288548 0.298650
0.000000 0.118166 0.077089
0.000000 0.118379 0.076722
0.061372 0.118593 0.075410
0.118685 0.118837 0.073854
0.166903 0.123232 0.067842
0.224887 0.131167 0.058869
0.281163 0.134737 0.053376
0.334203 0.136233 0.049592
0.386603 0.136690 0.044007
0.436805 0.136660 0.041505
0.486488 0.136385 0.039063
0.535210 0.135622 0.036988
0.584039 0.135714 0.037232
0.632013 0.137118 0.041169
0.679500 0.138582 0.045960
0.726223 0.141543 0.061097
0.771878 0.145205 0.081147
0.814206 0.151186 0.095827
0.853544 0.157931 0.109071
0.889708 0.165652 0.123903
0.923003 0.174289 0.138735
0.954345 0.184573 0.155154
0.983062 0.195377 0.171481
1.000000 0.206607 0.186831
1.000000 0.217838 0.201846
1.000000 0.229801 0.217319
1.000000 0.241917 0.232731
1.000000 0.253391 0.246952
1.000000 0.264866 0.260929
1.000000 0.276249 0.274540
1.000000 0.287358 0.287907
1.000000 0.298222 0.300664
0.000000 0.165438 0.060731
0.003632 0.165530 0.060365
0.074098 0.165866 0.060975
0.124147 0.166018 0.059205
0.168521 0.166323 0.057832
0.218051 0.169986 0.054017
0.276890 0.179629 0.047425
0.338506 0.187076 0.040528
0.389807 0.187930 0.037934
0.439551 0.188205 0.033997
0.488441 0.187869 0.033021
0.537102 0.187747 0.033875
0.585229 0.188052 0.037598
0.633204 0.189181 0.042329
0.680385 0.190646 0.053498
0.726772 0.193454 0.072480
0.772335 0.196048 0.088167
0.814481 0.199863 0.101595
0.853544 0.204105 0.114992
0.889525 0.208560 0.129763
0.922850 0.214511 0.144961
0.953918 0.221347 0.160616
0.982361 0.228946 0.176822
1.000000 0.237003 0.191653
1.000000 0.245701 0.206851
1.000000 0.255222 0.222080
1.000000 0.264714 0.236790
1.000000 0.274388 0.250889
1.000000 0.283940 0.264683
1.000000 0.293645 0.277958
1.000000 0.303227 0.290959
1.000000 0.312840 0.303868
0.000000 0.213230 0.049470
0.000000 0.213413 0.048951
0.075380 0.213199 0.049958
0.126558 0.213321 0.049165
0.172213 0.213352 0.048859
0.216892 0.212985 0.048188
0.263493 0.214878 0.046571
0.324132 0.225620 0.037018
0.385779 0.235080 0.032074
0.443763 0.240330 0.028748
0.492042 0.239994 0.029084
0.540459 0.240269 0.030426
0.588159 0.240574 0.039643
0.635584 0.241672 0.052064
0.682490 0.243168 0.068299
0.728939 0.244938 0.086122
0.773861 0.247227 0.097566
0.815640 0.249302 0.110811
0.854368 0.251621 0.124086
0.889952 0.254490 0.138735
0.923308 0.258366 0.154116
0.954070 0.262730 0.169100
0.989380 0.271305 0.189090
1.000000 0.277409 0.204288
1.000000 0.283543 0.219333
1.000000 0.290715 0.234226
1.000000 0.298009 0.249058
1.000000 0.305425 0.262577
1.000000 0.313237 0.275975
1.000000 0.321080 0.288884
1.000000 0.328893 0.301732
1.000000 0.336706 0.313817
0.000000 0.260807 0.042206
0.000000 0.260899 0.041688
0.062745 0.260533 0.043000
0.126253 0.260624 0.041993
0.172824 0.260410 0.041962
0.218723 0.259617 0.043000
0.263249 0.259129 0.042542
0.307561 0.258732 0.039612
0.368017 0.271031 0.033631
0.429938 0.282109 0.028382
0.493629 0.291966 0.030060
0.547234 0.295476 0.042054
0.594720 0.295628 0.056733
0.641932 0.296361 0.073426
0.688502 0.297368 0.088594
0.734371 0.298558 0.098787
0.778500 0.299657 0.110384
0.819364 0.300725 0.123293
0.857237 0.301823 0.137026
0.892851 0.303166 0.151705
0.926635 0.305455 0.166690
0.957488 0.308080 0.182193
0.986175 0.311406 0.197910
1.000000 0.315343 0.212955
1.000000 0.319646 0.227604
1.000000 0.324895 0.242374
1.000000 0.329686 0.255924
1.000000 0.335180 0.269627
1.000000 0.341161 0.282658
1.000000 0.346990 0.295293
1.000000 0.353094 0.307530
1.000000 0.359380 0.319371
0.000000 0.304082 0.042054
0.000000 0.304021 0.044099
0.054353 0.303899 0.042878
0.123964 0.303655 0.042481
0.170779 0.303288 0.042908
0.216892 0.302831 0.042512
0.261173 0.302159 0.044984
0.304784 0.301427 0.048859
0.347723 0.300603 0.050568
0.405341 0.312078 0.049714
0.467903 0.325078 0.051637
0.531670 0.337377 0.060365
0.596246 0.349096 0.079927
0.644739 0.350378 0.092226
0.691096 0.350896 0.101839
0.736599 0.351354 0.112367
0.779782 0.351812 0.124086
0.820035 0.351507 0.136934
0.857633 0.351232 0.150607
0.893248 0.351537 0.165042
0.926085 0.352178 0.179294
0.956390 0.352819 0.193881
0.984710 0.354040 0.209140
1.000000 0.355932 0.223697
1.000000 0.358679 0.238132
1.000000 0.361456 0.252049
1.000000 0.364721 0.265629
1.000000 0.368231 0.278386
1.000000 0.372107 0.290715
1.000000 0.376471 0.303380
1.000000 0.380713 0.314946
1.000000 0.385443 0.326452
0.000000 0.345037 0.055055
0.000000 0.345190 0.054383
0.052186 0.344915 0.055879
0.121798 0.344823 0.055360
0.168368 0.344427 0.056153
0.214267 0.343877 0.057343
0.257877 0.343175 0.060487
0.301335 0.342626 0.062165
0.343938 0.342046 0.063935
0.385779 0.341009 0.068025
0.440803 0.351446 0.072480
0.503624 0.366796 0.081636
0.568109 0.381201 0.092927
0.632807 0.394690 0.105562
0.694667 0.405402 0.119142
0.739528 0.405188 0.129519
0.781857 0.404273 0.140688
0.821530 0.403143 0.153628
0.859007 0.401831 0.166506
0.893706 0.400580 0.180667
0.925780 0.399481 0.194369
0.955474 0.398718 0.208591
0.983368 0.398291 0.223239
1.000000 0.398444 0.237186
1.000000 0.399207 0.250706
1.000000 0.400244 0.263981
1.000000 0.401801 0.276982
1.000000 0.403754 0.289311
1.000000 0.406012 0.301518
1.000000 0.408484 0.313176
1.000000 0.411475 0.324651
1.000000 0.414466 0.335607
0.000000 0.384924 0.074189
0.000000 0.384924 0.073793
0.052766 0.384710 0.075319
0.121431 0.384466 0.076417
0.166598 0.384192 0.076081
0.211002 0.383642 0.077852
0.254704 0.383032 0.080049
0.297520 0.382544 0.080629
0.339513 0.381781 0.083894
0.381292 0.381140 0.085542
0.422583 0.380346 0.088075
0.473823 0.388861 0.091951
0.537438 0.406317 0.100557
0.601770 0.422889 0.111910
0.667201 0.438239 0.126467
0.731899 0.452033 0.143618
0.784390 0.457710 0.159976
0.823697 0.455451 0.172549
0.860197 0.452918 0.185397
0.894072 0.450172 0.198856
0.925444 0.447486 0.211734
0.954437 0.444892 0.225284
0.981750 0.442847 0.238834
1.000000 0.441382 0.251530
1.000000 0.440345 0.264317
1.000000 0.439887 0.276982
1.000000 0.439765 0.289464
1.000000 0.440101 0.301366
1.000000 0.440955 0.312963
1.000000 0.442054 0.324437
1.000000 0.443519 0.335424
1.000000 0.445228 0.346044
0.000000 0.423377 0.091554
0.000000 0.423407 0.091402
0.057252 0.423407 0.091310
0.120729 0.423194 0.091798
0.165408 0.422858 0.091798
0.208591 0.422553 0.092348
0.251957 0.422126 0.093141
0.293919 0.421607 0.093721
0.335607 0.421027 0.095155
0.377050 0.420447 0.096162
0.417975 0.419684 0.097383
0.458289 0.419196 0.097993
0.505486 0.425025 0.103578
0.569726 0.444526 0.114687
0.635004 0.463050 0.128634
0.700923 0.480293 0.145815
0.763272 0.494057 0.166232
0.820462 0.504265 0.189822
0.860899 0.503746 0.205417
0.893889 0.499580 0.217990
0.924590 0.495216 0.230442
0.953094 0.491218 0.243046
0.980163 0.487892 0.255802
1.000000 0.484810 0.268009
1.000000 0.482277 0.280156
1.000000 0.480537 0.292454
1.000000 0.479103 0.304204
1.000000 0.478096 0.315679
1.000000 0.477424 0.326696
1.000000 0.477211 0.337560
1.000000 0.477424 0.348150
1.000000 0.477699 0.358282
0.000000 0.461646 0.102296
0.000000 0.461646 0.102174
0.061433 0.461585 0.101106
0.120607 0.461402 0.102235
0.164034 0.461280 0.102113
0.206729 0.460883 0.103151
0.249027 0.460670 0.102663
0.290806 0.460151 0.103273
0.332036 0.459693 0.104585
0.372686 0.459236 0.105257
0.413275 0.458564 0.106416
0.453651 0.458228 0.107942
0.497597 0.461585 0.110536
0.541161 0.464546 0.115053
0.606928 0.486580 0.129763
0.673732 0.507164 0.147066
0.737850 0.524193 0.168399
0.797055 0.536980 0.191867
0.850889 0.546288 0.217685
0.899382 0.552941 0.243259
0.929320 0.547143 0.255894
0.957031 0.541497 0.267643
0.983337 0.536339 0.279179
1.000000 0.531945 0.291081
1.000000 0.528038 0.302617
1.000000 0.524620 0.313848
1.000000 0.521477 0.324651
1.000000 0.519005 0.335027
1.000000 0.517052 0.345800
1.000000 0.515251 0.355749
1.000000 0.513909 0.365484
1.000000 0.512749 0.374456
0.000000 0.501091 0.112856
0.000000 0.501030 0.112520
0.068849 0.500816 0.113649
0.121675 0.500725 0.113039
0.163546 0.500359 0.113527
0.205600 0.499886 0.113985
0.247257 0.499489 0.114107
0.288396 0.499245 0.115114
0.329198 0.499092 0.116030
0.369970 0.498878 0.116732
0.410681 0.498817 0.117556
0.451118 0.498878 0.118502
0.491341 0.498878 0.120027
0.531243 0.498726 0.121706
0.569909 0.497658 0.124605
0.636225 0.521386 0.141909
0.702083 0.542412 0.161624
0.763394 0.558587 0.185550
0.819516 0.570459 0.211429
0.870329 0.579034 0.238468
0.916106 0.585046 0.265049
0.954040 0.586755 0.287755
0.980133 0.580468 0.299016
1.000000 0.574792 0.309758
1.000000 0.569665 0.320775
1.000000 0.565118 0.331609
1.000000 0.561059 0.342138
1.000000 0.557366 0.352087
1.000000 0.554131 0.361944
1.000000 0.551354 0.371466
1.000000 0.548821 0.380560
1.000000 0.546715 0.389532
0.000000 0.538293 0.123690
0.005585 0.538231 0.123690
0.072389 0.538109 0.124056
0.121492 0.537865 0.123690
0.162600 0.537530 0.123903
0.203159 0.537163 0.124269
0.244480 0.536797 0.124727
0.284825 0.536400 0.124788
0.325475 0.536065 0.125643
0.365576 0.535851 0.125856
0.405585 0.535729 0.126772
0.445563 0.535637 0.128450
0.485451 0.535515 0.129793
0.524895 0.535363 0.131197
0.564019 0.534997 0.132753
0.601831 0.533410 0.135348
0.663691 0.554009 0.152712
0.727016 0.574334 0.176120
0.785702 0.589715 0.202487
0.839078 0.600855 0.230289
0.887480 0.608850 0.258000
0.931579 0.614771 0.285679
0.971466 0.619348 0.312749
1.000000 0.617548 0.330785
1.000000 0.611383 0.341070
1.000000 0.605798 0.351232
1.000000 0.600610 0.360937
1.000000 0.595911 0.370703
1.000000 0.591638 0.380011
1.000000 0.587793 0.388983
1.000000 0.584283 0.397864
1.000000 0.581109 0.406043
0.000000 0.574517 0.134646
0.009522 0.574487 0.134615
0.069001 0.574365 0.134463
0.119631 0.574060 0.134249
0.160800 0.573663 0.134310
0.201389 0.573175 0.134829
0.241215 0.572747 0.135195
0.281468 0.572320 0.135348
0.321202 0.571923 0.135561
0.361089 0.571649 0.136355
0.400641 0.571527 0.137301
0.440223 0.571344 0.138521
0.479469 0.571221 0.139895
0.518608 0.571038 0.141054
0.557458 0.570642 0.142214
0.595850 0.569940 0.143648
0.632990 0.568200 0.145937
0.688624 0.584009 0.163210
0.749752 0.603479 0.190005
0.805936 0.618097 0.218601
0.857145 0.628779 0.247745
0.904082 0.636805 0.276341
0.946715 0.642786 0.304845
0.985138 0.647272 0.332647
1.000000 0.650690 0.359503
1.000000 0.646052 0.372290
1.000000 0.639918 0.381659
1.000000 0.634394 0.390967
1.000000 0.629175 0.399817
1.000000 0.624414 0.408392
1.000000 0.620081 0.416846
1.000000 0.615961 0.424811
0.000000 0.609247 0.145418
0.012268 0.609308 0.145296
0.076387 0.609186 0.145205
0.118868 0.609003 0.145144
0.159548 0.608759 0.145327
0.198978 0.608392 0.145724
0.238376 0.608118 0.145937
0.278111 0.607843 0.146242
0.317723 0.607599 0.146792
0.356970 0.607263 0.147250
0.396124 0.606958 0.148348
0.435035 0.606592 0.149325
0.473884 0.606256 0.149844
0.512352 0.605768 0.151156
0.550561 0.605035 0.152041
0.588434 0.604273 0.153628
0.626215 0.603296 0.154513
0.662379 0.601160 0.157076
0.710964 0.611231 0.173434
0.770077 0.630030 0.203159
0.824491 0.644373 0.233433
0.874571 0.655207 0.263676
0.920195 0.663325 0.293797
0.961486 0.669276 0.322972
0.998535 0.673671 0.351629
1.000000 0.677058 0.379126
1.000000 0.679072 0.404669
1.000000 0.672541 0.413092
1.000000 0.666438 0.421363
1.000000 0.660822 0.429358
1.000000 0.655421 0.436957
1.000000 0.650385 0.444160
0.002289 0.642542 0.156008
0.020172 0.642512 0.156008
0.071382 0.642451 0.156069
0.118868 0.642237 0.155856
0.157900 0.641993 0.156252
0.196323 0.641810 0.156130
0.235630 0.641474 0.156466
0.274662 0.641108 0.157259
0.313390 0.640772 0.157748
0.351995 0.640406 0.158480
0.390784 0.640040 0.159030
0.429236 0.639582 0.160128
0.467323 0.639094 0.161074
0.505303 0.638453 0.162173
0.543084 0.637659 0.163210
0.580499 0.636744 0.164187
0.617609 0.635737 0.165286
0.654566 0.634607 0.167025
0.689845 0.632166 0.169863
0.732021 0.636774 0.184268
0.789700 0.655421 0.215732
0.843198 0.669764 0.247593
0.891905 0.680598 0.279179
0.936187 0.688624 0.310338
0.975952 0.694423 0.340490
1.000000 0.698665 0.369940
1.000000 0.701839 0.398077
1.000000 0.704219 0.424872
1.000000 0.703273 0.444556
1.000000 0.696742 0.451759
1.000000 0.690578 0.458747
1.000000 0.684627 0.465309
0.020691 0.673671 0.168978
0.033875 0.673671 0.168948
0.088716 0.677272 0.171511
0.122774 0.677150 0.171298
0.160128 0.676905 0.171328
0.197360 0.676600 0.171542
0.235080 0.676204 0.172244
0.273350 0.675776 0.172396
0.311345 0.675380 0.172763
0.349615 0.674952 0.173190
0.387518 0.674434 0.173953
0.425208 0.673823 0.175143
0.462867 0.673091 0.175784
0.500267 0.672206 0.176730
0.537285 0.671168 0.177737
0.574151 0.669978 0.179171
0.610712 0.668635 0.179965
0.646998 0.667231 0.181125
0.683040 0.665766 0.182498
0.717952 0.663325 0.184665
0.754482 0.663142 0.195224
0.811032 0.681514 0.229007
0.863005 0.695552 0.262425
0.910246 0.705989 0.295628
0.952789 0.713497 0.327764
0.990784 0.718837 0.358648
1.000000 0.722621 0.388098
1.000000 0.725338 0.416419
1.000000 0.727321 0.443305
1.000000 0.728878 0.468818
1.000000 0.725063 0.481941
1.000000 0.718349 0.487770
0.050721 0.703670 0.183780
0.064027 0.703975 0.183810
0.096468 0.704280 0.184329
0.128176 0.704402 0.184360
0.161410 0.704463 0.184787
0.197024 0.704280 0.185061
0.233646 0.703975 0.185245
0.270603 0.703548 0.185275
0.307408 0.703090 0.185916
0.344610 0.702663 0.186252
0.381476 0.702205 0.186801
0.418402 0.701625 0.187839
0.455329 0.700923 0.188540
0.492042 0.700130 0.189364
0.528557 0.699214 0.190585
0.564904 0.698177 0.191653
0.601038 0.697017 0.192538
0.636927 0.695796 0.193637
0.672694 0.694575 0.195163
0.708370 0.693263 0.196323
0.743191 0.691310 0.198367
0.774777 0.686946 0.203555
0.830350 0.705165 0.239475
0.881010 0.718898 0.274937
0.926818 0.728908 0.309117
0.967834 0.736080 0.342290
1.000000 0.741115 0.373907
1.000000 0.744625 0.404273
1.000000 0.747005 0.432776
1.000000 0.748592 0.459724
1.000000 0.749599 0.485206
1.000000 0.750149 0.508873
0.079988 0.730983 0.196933
0.087831 0.731258 0.197391
0.106477 0.731594 0.197238
0.132326 0.731777 0.197971
0.164096 0.731868 0.198062
0.198123 0.731685 0.198489
0.232792 0.731441 0.198367
0.268467 0.731075 0.198703
0.304448 0.730648 0.199283
0.340337 0.730190 0.199557
0.376562 0.729702 0.200046
0.412818 0.729152 0.200900
0.448829 0.728542 0.201450
0.484962 0.727810 0.202121
0.520867 0.726955 0.203342
0.556664 0.726040 0.204074
0.592370 0.725002 0.205203
0.627802 0.723903 0.205753
0.663203 0.722774 0.207248
0.698451 0.721614 0.208377
0.733639 0.720394 0.209934
0.768429 0.718898 0.211612
0.799191 0.714229 0.216068
0.849760 0.728298 0.249546
0.899046 0.741543 0.286564
0.943328 0.751095 0.322148
0.982788 0.757809 0.356085
1.000000 0.762448 0.388464
1.000000 0.765530 0.419379
1.000000 0.767453 0.448127
1.000000 0.768582 0.475196
1.000000 0.768917 0.500206
0.096590 0.757870 0.210147
0.100618 0.758145 0.210422
0.114931 0.758419 0.210483
0.139101 0.758541 0.210910
0.167636 0.758633 0.211276
0.199710 0.758480 0.211398
0.232883 0.758267 0.211307
0.267094 0.757931 0.211765
0.301701 0.757565 0.211948
0.337072 0.757137 0.212619
0.372412 0.756649 0.213138
0.407843 0.756130 0.213840
0.443122 0.755612 0.214115
0.478492 0.754940 0.215061
0.514031 0.754177 0.216068
0.549218 0.753384 0.216770
0.584436 0.752529 0.217899
0.619654 0.751675 0.218814
0.654719 0.750790 0.220157
0.689845 0.749905 0.221317
0.724849 0.749020 0.222873
0.759854 0.748074 0.224582
0.794705 0.747127 0.226169
0.825406 0.742550 0.230777
0.870848 0.752407 0.260288
0.918791 0.765072 0.299596
0.961456 0.774014 0.336706
0.999329 0.780209 0.371984
1.000000 0.784329 0.405402
1.000000 0.786862 0.436652
1.000000 0.788205 0.465644
1.000000 0.788602 0.492622
0.112001 0.786007 0.224826
0.114931 0.786099 0.225071
0.126528 0.786160 0.225162
0.146548 0.786130 0.225345
0.173129 0.786038 0.225223
0.202579 0.785794 0.225559
0.234257 0.785519 0.225772
0.267185 0.785183 0.225986
0.300786 0.784817 0.225986
0.334936 0.784451 0.226474
0.369299 0.784054 0.227085
0.403967 0.783566 0.227756
0.438697 0.783078 0.228183
0.473487 0.782437 0.228977
0.508415 0.781735 0.229496
0.543114 0.781003 0.230411
0.577813 0.780148 0.231235
0.612421 0.779294 0.232303
0.646937 0.778408 0.233402
0.681544 0.777462 0.234562
0.716213 0.776486 0.235752
0.750637 0.775509 0.237247
0.785092 0.774472 0.238590
0.819486 0.773373 0.240269
0.850126 0.769100 0.244114
0.890623 0.774777 0.268376
0.937102 0.786679 0.309667
0.978241 0.794949 0.348363
1.000000 0.800504 0.384558
1.000000 0.803983 0.418433
1.000000 0.805875 0.449866
1.000000 0.806455 0.479042
0.124086 0.811765 0.238254
0.126802 0.811887 0.238285
0.136965 0.811917 0.238499
0.154757 0.811917 0.238529
0.178744 0.811795 0.238560
0.206271 0.811612 0.238743
0.235996 0.811368 0.238834
0.267460 0.811063 0.238834
0.299992 0.810758 0.239139
0.333257 0.810422 0.239750
0.366766 0.810056 0.239994
0.400580 0.809628 0.240665
0.434485 0.809140 0.240970
0.468727 0.808621 0.241703
0.502831 0.808011 0.242618
0.537102 0.807340 0.243412
0.571313 0.806668 0.244358
0.605493 0.805905 0.245274
0.639704 0.805112 0.246189
0.673884 0.804288 0.247196
0.708125 0.803433 0.248631
0.742245 0.802548 0.249882
0.776425 0.801572 0.251377
0.810513 0.800595 0.252873
0.843656 0.798642 0.253239
0.874388 0.794736 0.256748
0.910582 0.796689 0.275242
0.955413 0.807706 0.318425
0.995148 0.815244 0.358465
1.000000 0.820066 0.395544
1.000000 0.822812 0.430091
1.000000 0.823850 0.461738
0.137942 0.838071 0.252354
0.140993 0.838193 0.252628
0.148806 0.838285 0.252506
0.164858 0.838193 0.252537
0.186130 0.837980 0.252415
0.211582 0.837705 0.252476
0.239292 0.837339 0.252476
0.269078 0.836912 0.252506
0.300298 0.836484 0.252506
0.332128 0.836057 0.252781
0.364599 0.835538 0.252842
0.397650 0.835050 0.253178
0.430823 0.834531 0.253574
0.464088 0.833921 0.254063
0.497658 0.833249 0.254459
0.531121 0.832517 0.255131
0.564813 0.831754 0.255741
0.598474 0.831022 0.256657
0.632136 0.830289 0.257511
0.665980 0.829557 0.258671
0.699733 0.828824 0.259831
0.733608 0.828031 0.261326
0.767391 0.827146 0.262608
0.801083 0.826139 0.263951
0.834714 0.825071 0.265263
0.868345 0.823880 0.266636
0.899077 0.820340 0.269688
0.931456 0.818875 0.281468
0.974731 0.828855 0.326421
1.000000 0.835416 0.367803
1.000000 0.839261 0.405768
1.000000 0.841032 0.440772
0.148684 0.862425 0.264530
0.151522 0.862516 0.264714
0.159060 0.862577 0.264958
0.172885 0.862547 0.265049
0.192172 0.862455 0.264988
0.215946 0.862272 0.265080
0.242435 0.862058 0.265293
0.271122 0.861814 0.265202
0.301122 0.861540 0.265293
0.332006 0.861234 0.265599
0.363653 0.860868 0.265995
0.395819 0.860472 0.266453
0.428199 0.860044 0.266911
0.461036 0.859495 0.267369
0.493782 0.858885 0.267674
0.526757 0.858213 0.268223
0.559899 0.857481 0.268864
0.593011 0.856779 0.269596
0.626276 0.856077 0.270420
0.659602 0.855406 0.271550
0.693050 0.854704 0.272679
0.726528 0.853971 0.273838
0.759976 0.853208 0.275242
0.793423 0.852323 0.276493
0.826810 0.851377 0.277928
0.860227 0.850370 0.279454
0.893706 0.849302 0.280766
0.924743 0.846250 0.283818
0.954192 0.842130 0.288243
0.995605 0.850889 0.335576
1.000000 0.856229 0.378424
1.000000 0.858701 0.416846
0.161593 0.887144 0.277592
0.163577 0.887205 0.277623
0.170016 0.887205 0.277562
0.182559 0.887144 0.277745
0.199924 0.887053 0.277775
0.221927 0.886870 0.277867
0.246799 0.886656 0.277806
0.273686 0.886412 0.277867
0.302434 0.886137 0.278080
0.332341 0.885863 0.278355
0.363256 0.885496 0.278569
0.394476 0.885161 0.278935
0.426215 0.884733 0.279210
0.458137 0.884276 0.279576
0.490486 0.883696 0.280308
0.522667 0.883116 0.280491
0.555291 0.882444 0.281163
0.588006 0.881773 0.281621
0.620813 0.881132 0.282628
0.653712 0.880522 0.283452
0.686702 0.879911 0.284703
0.719814 0.879240 0.285924
0.752865 0.878538 0.287114
0.786038 0.877745 0.288426
0.819150 0.876860 0.289860
0.852262 0.875944 0.291112
0.885496 0.874968 0.292546
0.918700 0.873930 0.294072
0.950134 0.871366 0.296635
0.979309 0.867155 0.300481
1.000000 0.872282 0.342473
1.000000 0.875944 0.385962
0.172580 0.911254 0.289830
0.174350 0.911284 0.289769
0.180148 0.911284 0.289891
0.191775 0.911284 0.290013
0.207736 0.911223 0.290288
0.228275 0.911162 0.290288
0.251743 0.911162 0.290532
0.277928 0.911131 0.291020
0.305760 0.911162 0.291691
0.334874 0.911131 0.292302
0.364965 0.911101 0.293126
0.395483 0.911040 0.293889
0.426673 0.910887 0.294621
0.457984 0.910643 0.295323
0.489723 0.910277 0.296147
0.521538 0.909819 0.296513
0.553613 0.909270 0.297215
0.585748 0.908721 0.297795
0.618189 0.908141 0.298772
0.650660 0.907591 0.299718
0.683284 0.907042 0.300877
0.716060 0.906432 0.302098
0.748775 0.905760 0.303319
0.781643 0.905058 0.304601
0.814450 0.904234 0.306065
0.847349 0.903380 0.307225
0.880308 0.902495 0.308659
0.913359 0.901488 0.310185
0.946349 0.900389 0.311589
0.977874 0.898039 0.313664
1.000000 0.893553 0.316991
1.000000 0.895171 0.352270
0.189334 0.936889 0.305028
0.190311 0.936919 0.304997
0.195621 0.936858 0.305058
0.204990 0.936828 0.304997
0.219364 0.936736 0.304967
0.237980 0.936584 0.305119
0.259678 0.936461 0.305180
0.283970 0.936309 0.305364
0.310124 0.936126 0.305730
0.337743 0.935973 0.305943
0.366644 0.935760 0.306401
0.396094 0.935546 0.306828
0.426337 0.935302 0.307347
0.456947 0.934966 0.307866
