20 Preset/Japan Style/【3】LUT video cho PR-AE-FCPX/LUT VIDEO/Japan Style LUT (15).cube
# Created by Adobe Lightroom plugin Export LUT (1.24.0)
# www.johnrellis.com/lightroom/exportlut.htm
# Preset: 15日系清新（素材江湖）
# Color profile: C:\Program Files (x86)\Common Files\Adobe\Color\Profiles\Recommended\VideoHD.icc
LUT_3D_SIZE 32
DOMAIN_MIN 0.0 0.0 0.0
DOMAIN_MAX 1.0 1.0 1.0
0.174899 0.174899 0.174899
0.174899 0.174899 0.174899
0.177432 0.174777 0.174868
0.187747 0.174563 0.174685
0.204990 0.174441 0.174289
0.233310 0.173922 0.173587
0.274235 0.173556 0.172641
0.324956 0.173129 0.171572
0.378332 0.172427 0.169680
0.427802 0.171206 0.168002
0.474342 0.169863 0.165988
0.518120 0.168704 0.163607
0.560388 0.167422 0.161074
0.601190 0.166690 0.158419
0.640864 0.164858 0.155764
0.679408 0.164431 0.152865
0.717189 0.163638 0.150057
0.753841 0.162539 0.147555
0.789487 0.161532 0.144930
0.823056 0.161746 0.142672
0.854246 0.160922 0.141360
0.883757 0.162142 0.139986
0.911620 0.162631 0.139712
0.938750 0.165164 0.139681
0.964996 0.166323 0.140749
0.990570 0.169833 0.142458
1.000000 0.173617 0.144808
1.000000 0.177859 0.148684
1.000000 0.182803 0.153262
1.000000 0.189425 0.159548
1.000000 0.196506 0.166812
1.000000 0.204837 0.175509
0.174899 0.174899 0.174899
0.174899 0.174899 0.174899
0.178164 0.175357 0.174777
0.187961 0.175509 0.174533
0.205509 0.175723 0.174105
0.234409 0.175418 0.173342
0.275364 0.175509 0.172488
0.326421 0.175113 0.171389
0.379919 0.175082 0.169375
0.429419 0.174319 0.167453
0.475532 0.173434 0.165560
0.519371 0.172213 0.163180
0.561700 0.171176 0.160555
0.602319 0.169650 0.158053
0.641901 0.168215 0.155306
0.680415 0.166690 0.152773
0.718074 0.165957 0.149966
0.754879 0.165377 0.147097
0.790311 0.164370 0.144717
0.823636 0.163699 0.142672
0.855009 0.164309 0.140841
0.884428 0.164126 0.139956
0.912352 0.165591 0.139498
0.939300 0.166995 0.139925
0.965667 0.169863 0.140414
0.991150 0.171878 0.142153
1.000000 0.175387 0.144808
1.000000 0.179599 0.148684
1.000000 0.184787 0.153597
1.000000 0.191196 0.159335
1.000000 0.198123 0.167178
1.000000 0.206516 0.175662
0.173983 0.177798 0.174502
0.174472 0.177920 0.174472
0.178408 0.179110 0.174228
0.189029 0.180484 0.173831
0.207797 0.181430 0.173251
0.237980 0.182803 0.172366
0.280797 0.184512 0.171481
0.332555 0.185855 0.170047
0.385412 0.186740 0.168185
0.434028 0.186069 0.166232
0.479835 0.185763 0.163851
0.523461 0.184360 0.161440
0.565270 0.183169 0.159030
0.605921 0.182315 0.156344
0.645350 0.181094 0.153536
0.683680 0.179660 0.150973
0.721126 0.178164 0.148440
0.757626 0.177249 0.145876
0.792844 0.175692 0.143343
0.826017 0.176089 0.141085
0.857084 0.175662 0.139712
0.886290 0.175967 0.138735
0.913878 0.176242 0.138766
0.940734 0.178195 0.139071
0.966796 0.179507 0.140108
0.992218 0.181094 0.142184
1.000000 0.184970 0.144961
1.000000 0.188846 0.148653
1.000000 0.193362 0.153872
1.000000 0.198764 0.160311
1.000000 0.205478 0.167361
1.000000 0.213199 0.176242
0.175082 0.186313 0.177279
0.175662 0.186252 0.177279
0.178103 0.187228 0.176944
0.186954 0.190097 0.174472
0.210147 0.194461 0.171695
0.244022 0.199588 0.170901
0.291569 0.205051 0.169436
0.343969 0.208499 0.167239
0.395666 0.210178 0.165072
0.443214 0.210117 0.162753
0.488380 0.209384 0.160342
0.531151 0.208530 0.157778
0.572625 0.206668 0.155428
0.612879 0.205417 0.152926
0.651881 0.204166 0.150027
0.689784 0.202213 0.147951
0.726864 0.200198 0.145510
0.763210 0.199680 0.142763
0.798001 0.198398 0.140627
0.830472 0.197116 0.138979
0.860960 0.196506 0.137484
0.889708 0.195865 0.137240
0.917052 0.196231 0.137270
0.943450 0.196567 0.138003
0.969116 0.197879 0.139345
0.994141 0.199130 0.141970
1.000000 0.201724 0.145266
1.000000 0.204379 0.149813
1.000000 0.208499 0.154604
1.000000 0.213382 0.161044
1.000000 0.218997 0.169070
1.000000 0.225711 0.177951
0.174716 0.201846 0.180972
0.175357 0.202060 0.181094
0.179110 0.202365 0.181277
0.185672 0.205570 0.179171
0.205020 0.212955 0.174655
0.247715 0.224308 0.167941
0.298924 0.235386 0.165042
0.359014 0.245212 0.161105
0.410468 0.247257 0.158480
0.456855 0.246647 0.155886
0.500786 0.245090 0.153719
0.542840 0.242924 0.151553
0.583612 0.240391 0.149264
0.623316 0.238437 0.146792
0.661707 0.235874 0.144778
0.699184 0.234470 0.142275
0.735622 0.231785 0.140414
0.771298 0.229953 0.138430
0.805295 0.228977 0.135988
0.836912 0.226627 0.135012
0.866728 0.225315 0.134249
0.894865 0.224094 0.134524
0.921416 0.223575 0.135225
0.947204 0.222538 0.137148
0.972320 0.222812 0.138857
0.996948 0.224155 0.141726
1.000000 0.225284 0.145846
1.000000 0.227329 0.150515
1.000000 0.230045 0.156161
1.000000 0.234012 0.163027
1.000000 0.238926 0.170809
1.000000 0.244419 0.180392
0.169955 0.226902 0.184421
0.170657 0.227085 0.184360
0.175204 0.227329 0.184390
0.183536 0.228153 0.184421
0.199496 0.237766 0.179355
0.236149 0.251835 0.171298
0.299229 0.271000 0.158389
0.359411 0.282994 0.152377
0.416724 0.290257 0.148440
0.473121 0.294804 0.144625
0.516197 0.291051 0.142824
0.557671 0.287510 0.140932
0.597711 0.283513 0.139528
0.636591 0.280278 0.137850
0.674372 0.277073 0.135988
0.711238 0.273869 0.134432
0.747311 0.271336 0.132235
0.781979 0.268223 0.131228
0.814664 0.265232 0.130404
0.845365 0.262882 0.129641
0.874266 0.260410 0.130007
0.901457 0.258366 0.131106
0.925475 0.256138 0.133120
0.950652 0.254612 0.135439
0.975280 0.254124 0.137972
0.999268 0.253727 0.141970
1.000000 0.253880 0.146853
1.000000 0.255222 0.151675
1.000000 0.256992 0.158083
1.000000 0.259617 0.165530
1.000000 0.263188 0.173220
1.000000 0.267704 0.182742
0.155520 0.262638 0.187259
0.157015 0.262730 0.187228
0.163272 0.262943 0.187228
0.175113 0.263737 0.187167
0.192050 0.268864 0.184604
0.223819 0.283543 0.175998
0.276280 0.301762 0.163485
0.348180 0.320897 0.145571
0.412299 0.332036 0.134646
0.467475 0.336828 0.130465
0.522606 0.340032 0.126894
0.573663 0.340612 0.124910
0.613123 0.334813 0.124788
0.651667 0.329870 0.124208
0.689143 0.324956 0.123415
0.725307 0.320317 0.123201
0.760830 0.316350 0.121920
0.794217 0.312169 0.121798
0.825559 0.308080 0.122713
0.854887 0.303807 0.124392
0.882689 0.300481 0.125612
0.908629 0.297124 0.128023
0.933227 0.293980 0.131655
0.957366 0.291478 0.134768
0.980926 0.289494 0.139376
1.000000 0.288457 0.143709
1.000000 0.287602 0.149203
1.000000 0.287572 0.155520
1.000000 0.288579 0.162173
1.000000 0.289891 0.170108
1.000000 0.292454 0.178103
1.000000 0.295628 0.188327
0.129427 0.306218 0.191165
0.131350 0.306462 0.191379
0.141421 0.306310 0.191287
0.158511 0.306920 0.191348
0.181491 0.307530 0.191257
0.210452 0.317937 0.184421
0.255558 0.333837 0.172030
0.317174 0.351629 0.154757
0.390295 0.368322 0.131655
0.461158 0.380713 0.110323
0.515862 0.383917 0.105226
0.569848 0.386511 0.103243
0.623316 0.389105 0.102937
0.670008 0.387488 0.103426
0.707271 0.380377 0.104799
0.742977 0.373907 0.106508
0.777127 0.367956 0.108827
0.809079 0.361852 0.111086
0.838895 0.355718 0.114321
0.867033 0.350317 0.117861
0.893462 0.345098 0.121492
0.918120 0.340093 0.126101
0.941558 0.335546 0.131319
0.964630 0.331792 0.136690
0.987366 0.328985 0.142092
1.000000 0.326543 0.147616
1.000000 0.324681 0.154391
1.000000 0.323613 0.160922
1.000000 0.323186 0.168460
1.000000 0.323644 0.176669
1.000000 0.324712 0.185031
1.000000 0.326848 0.194461
0.094850 0.349279 0.199924
0.100313 0.349279 0.200015
0.113558 0.349462 0.199985
0.137636 0.349767 0.200229
0.167422 0.350042 0.200290
0.199588 0.351873 0.199771
0.237095 0.365209 0.188022
0.290196 0.381048 0.171328
0.355535 0.398199 0.148745
0.431128 0.414862 0.115572
0.507469 0.428656 0.050416
0.561669 0.431159 0.036835
0.615045 0.433204 0.046387
0.667933 0.435492 0.058503
0.720638 0.438209 0.075563
0.761349 0.433295 0.088685
0.794003 0.424689 0.096040
0.824460 0.416297 0.102388
0.853025 0.408148 0.109316
0.879911 0.400763 0.114961
0.904845 0.393805 0.121828
0.928069 0.387060 0.128939
0.950378 0.380957 0.136324
0.972473 0.375708 0.142733
0.994171 0.371252 0.149294
1.000000 0.367559 0.156008
1.000000 0.364508 0.162722
1.000000 0.362249 0.170047
1.000000 0.360693 0.177462
1.000000 0.359716 0.185458
1.000000 0.359564 0.194095
1.000000 0.360418 0.203494
0.050538 0.389288 0.215335
0.065034 0.389319 0.215305
0.095003 0.389410 0.215549
0.124849 0.389441 0.215824
0.157137 0.389868 0.216098
0.192569 0.390143 0.216617
0.226932 0.395911 0.211704
0.270237 0.409949 0.196689
0.326024 0.425513 0.176669
0.393072 0.442329 0.148562
0.469917 0.459602 0.102937
0.550988 0.475410 0.000000
0.605493 0.477729 0.000000
0.658686 0.479744 0.000000
0.711208 0.481941 0.000000
0.761318 0.483558 0.034546
0.807950 0.484382 0.091707
0.839780 0.475013 0.105562
0.867002 0.464698 0.115236
0.892363 0.454780 0.124117
0.916014 0.445624 0.131319
0.938048 0.436896 0.139620
0.959411 0.429114 0.147402
0.980468 0.422461 0.154604
1.000000 0.416510 0.160861
1.000000 0.411322 0.167941
1.000000 0.406775 0.175051
1.000000 0.403143 0.182284
1.000000 0.400183 0.189639
1.000000 0.397864 0.197635
1.000000 0.396521 0.205722
1.000000 0.395819 0.214359
0.069215 0.427008 0.237461
0.077150 0.426947 0.237461
0.099275 0.427070 0.237552
0.128084 0.427039 0.237583
0.158968 0.427314 0.238071
0.192325 0.427436 0.238376
0.227878 0.427710 0.239139
0.261692 0.438056 0.229038
0.306645 0.452308 0.212131
0.363195 0.468116 0.189090
0.430182 0.484901 0.156222
0.506096 0.502586 0.101320
0.588006 0.519554 0.000000
0.647669 0.523339 0.000000
0.700496 0.525231 0.000000
0.750332 0.526299 0.000000
0.797208 0.526482 0.019562
0.840696 0.525994 0.102022
0.879973 0.524407 0.136019
0.904082 0.511955 0.144442
0.926543 0.500267 0.151369
0.947509 0.489418 0.159548
0.967956 0.479866 0.166537
0.988098 0.471199 0.172763
1.000000 0.463386 0.179232
1.000000 0.456794 0.185275
1.000000 0.450843 0.192142
1.000000 0.445655 0.198520
1.000000 0.441260 0.205020
1.000000 0.437598 0.211673
1.000000 0.434821 0.219364
1.000000 0.432837 0.227176
0.105806 0.462470 0.261570
0.109712 0.462440 0.261570
0.120912 0.462470 0.261570
0.143008 0.462593 0.262150
0.169436 0.462715 0.262242
0.199069 0.462867 0.262882
0.230991 0.463081 0.263218
0.263493 0.465431 0.261357
0.298131 0.478462 0.248508
0.343877 0.493111 0.230747
0.400275 0.508873 0.206241
0.466072 0.525780 0.171908
0.539727 0.542260 0.114900
0.622126 0.560876 0.000000
0.686366 0.566735 0.000000
0.737301 0.567407 0.000000
0.784207 0.566857 0.000000
0.827970 0.565881 0.026490
0.868132 0.564050 0.118502
0.904448 0.561608 0.154208
0.934752 0.556146 0.178866
0.955108 0.543206 0.184146
0.974884 0.531426 0.189944
0.994293 0.521111 0.195621
1.000000 0.511681 0.200748
1.000000 0.503227 0.206271
1.000000 0.495491 0.211368
1.000000 0.488991 0.216556
1.000000 0.483284 0.222354
1.000000 0.478218 0.228305
1.000000 0.473945 0.234470
1.000000 0.470649 0.241276
0.131991 0.495979 0.285435
0.134493 0.495979 0.285344
0.144137 0.495979 0.285618
0.160403 0.496101 0.285771
0.182345 0.496223 0.285954
0.209018 0.496254 0.286229
0.237491 0.496437 0.286717
0.268315 0.496529 0.287205
0.297948 0.503502 0.281621
0.334173 0.516960 0.267918
0.380591 0.531945 0.249699
0.436408 0.548028 0.225315
0.501244 0.564965 0.191714
0.573999 0.582544 0.137636
0.653254 0.599084 0.000000
0.723934 0.608911 0.000000
0.771878 0.608026 0.000000
0.816434 0.606073 0.000000
0.856687 0.603388 0.064118
0.893217 0.600183 0.136477
0.926604 0.596368 0.173831
0.957275 0.592645 0.202487
0.981781 0.584710 0.218723
1.000000 0.572381 0.222782
1.000000 0.561028 0.226322
1.000000 0.550927 0.230167
1.000000 0.541802 0.234348
1.000000 0.533623 0.238224
1.000000 0.526329 0.242496
1.000000 0.519890 0.247532
1.000000 0.514305 0.252293
1.000000 0.509514 0.258213
0.154330 0.528832 0.308263
0.155612 0.528832 0.308263
0.163943 0.528954 0.308385
0.176913 0.528923 0.308293
0.196139 0.529076 0.308446
0.218845 0.529168 0.308995
0.244968 0.529320 0.309453
0.272740 0.529381 0.309545
0.302373 0.529564 0.310185
0.331731 0.541253 0.299962
0.369451 0.555200 0.286351
0.416358 0.570428 0.268406
0.472267 0.586725 0.245060
0.536126 0.603937 0.212711
0.607538 0.621424 0.163424
0.682979 0.636286 0.016999
0.757992 0.648096 0.000000
0.802914 0.645777 0.000000
0.844694 0.642115 0.000000
0.881498 0.637903 0.098939
0.915312 0.633204 0.155642
0.946654 0.628687 0.191928
0.975830 0.624537 0.220493
1.000000 0.620600 0.245151
1.000000 0.610864 0.254490
1.000000 0.599207 0.256962
1.000000 0.588403 0.259373
1.000000 0.578759 0.262272
1.000000 0.569848 0.265476
1.000000 0.562036 0.268925
1.000000 0.555108 0.272709
1.000000 0.549157 0.277379
0.173648 0.560723 0.329778
0.175082 0.560723 0.329686
0.180789 0.560815 0.329717
0.192050 0.560937 0.329992
0.208652 0.560967 0.330022
0.228885 0.561028 0.330327
0.252415 0.561212 0.330694
0.278538 0.561303 0.331121
0.306096 0.561273 0.331304
0.333715 0.565209 0.328740
0.364538 0.578241 0.317845
0.403937 0.592584 0.303960
0.451331 0.608057 0.286229
0.506950 0.624445 0.263371
0.569574 0.640925 0.232486
0.638422 0.657221 0.189975
0.711330 0.671412 0.112886
0.785092 0.683558 0.000000
0.830594 0.680049 0.000000
0.869017 0.675013 0.000000
0.903746 0.669429 0.119753
0.935729 0.664210 0.171603
0.965576 0.659236 0.207584
0.993286 0.654597 0.237034
1.000000 0.650141 0.261479
1.000000 0.646143 0.283268
1.000000 0.635126 0.286961
1.000000 0.623987 0.288731
1.000000 0.613672 0.290166
1.000000 0.604486 0.292119
1.000000 0.596216 0.295415
1.000000 0.588891 0.298711
0.190738 0.591943 0.350469
0.192355 0.591913 0.350408
0.197055 0.591974 0.350561
0.206455 0.592004 0.350652
0.220981 0.592096 0.350744
0.239231 0.592096 0.350927
0.260563 0.592157 0.350958
0.284611 0.592248 0.351507
0.310338 0.592340 0.351904
0.337682 0.592340 0.352239
0.364538 0.600855 0.346075
0.397070 0.614405 0.334813
0.437507 0.628992 0.320989
0.485328 0.644190 0.303532
0.539818 0.659480 0.281590
0.600458 0.674983 0.253513
0.667231 0.690303 0.214481
0.736904 0.703639 0.155550
0.808621 0.715694 0.000000
0.854887 0.711482 0.000000
0.890990 0.705318 0.062013
0.924529 0.699214 0.136355
0.954925 0.693538 0.187625
0.983307 0.688136 0.223026
1.000000 0.682918 0.251987
1.000000 0.678157 0.276982
1.000000 0.673762 0.299321
1.000000 0.669001 0.317327
1.000000 0.657527 0.317845
1.000000 0.646998 0.318547
1.000000 0.637476 0.319707
1.000000 0.628840 0.321752
0.206668 0.622553 0.370397
0.208347 0.622553 0.370581
0.212222 0.622522 0.370550
0.220645 0.622553 0.370459
0.232975 0.622553 0.370550
0.249088 0.622644 0.370733
0.268742 0.622705 0.371069
0.291417 0.622705 0.371405
0.315435 0.622736 0.371527
0.341161 0.622797 0.371954
0.367803 0.623774 0.371618
0.395148 0.636133 0.362707
0.429053 0.649378 0.351507
0.469856 0.663203 0.337957
0.517327 0.677485 0.321019
0.570611 0.691981 0.300481
0.629328 0.706416 0.274113
0.692927 0.720516 0.239689
0.759579 0.732723 0.190555
0.829648 0.744961 0.099336
0.877134 0.740780 0.000000
0.911711 0.734157 0.113161
0.943938 0.727504 0.158511
0.973022 0.721309 0.203098
1.000000 0.715389 0.238193
1.000000 0.709834 0.267613
1.000000 0.704616 0.292424
1.000000 0.699763 0.313695
1.000000 0.695369 0.334203
1.000000 0.689204 0.346807
1.000000 0.678462 0.346807
1.000000 0.668666 0.347478
0.223575 0.651667 0.390051
0.224369 0.651637 0.390143
0.227481 0.650996 0.389532
0.234836 0.650996 0.389624
0.245914 0.651057 0.389776
0.260502 0.651026 0.389960
0.278477 0.651057 0.390112
0.298680 0.651057 0.390265
0.320989 0.651148 0.390723
0.345464 0.651087 0.390845
0.370825 0.651118 0.391455
0.396185 0.656275 0.388159
0.424872 0.668391 0.379034
0.459907 0.681086 0.368109
0.500633 0.694270 0.354955
0.547173 0.707851 0.338964
0.599237 0.721431 0.319158
0.655482 0.734737 0.294774
0.716030 0.747402 0.263706
0.779690 0.758877 0.222141
0.849332 0.772335 0.154299
0.898070 0.768185 0.081300
0.931182 0.761257 0.142214
0.961852 0.754238 0.182010
0.989960 0.747402 0.218723
1.000000 0.741085 0.253635
1.000000 0.735225 0.282200
1.000000 0.729671 0.306737
1.000000 0.724483 0.328862
1.000000 0.719814 0.349035
1.000000 0.715541 0.367407
1.000000 0.708186 0.375647
0.241855 0.679042 0.409674
0.242618 0.678950 0.409705
0.245762 0.678950 0.409674
0.251774 0.678889 0.409674
0.261692 0.678828 0.409613
0.274510 0.678828 0.409735
0.290562 0.678828 0.409979
0.309087 0.678828 0.410132
0.329656 0.678859 0.410498
0.352209 0.678920 0.410895
0.376074 0.678889 0.411139
0.401038 0.678981 0.411719
0.425940 0.688228 0.405341
0.455573 0.699886 0.396521
0.490822 0.712215 0.385718
0.531243 0.724727 0.373175
0.576989 0.737362 0.357794
0.626795 0.749783 0.339544
0.680964 0.761868 0.317082
0.738705 0.773342 0.288914
0.799496 0.783932 0.251774
0.863920 0.794583 0.199405
0.917357 0.794491 0.133059
0.949767 0.787106 0.169406
0.979065 0.779721 0.203433
1.000000 0.772335 0.233494
1.000000 0.765713 0.268009
1.000000 0.759457 0.296880
1.000000 0.753597 0.321935
1.000000 0.748104 0.343542
1.000000 0.743099 0.363470
1.000000 0.738430 0.382086
0.262577 0.706325 0.430030
0.263188 0.706233 0.429999
0.265965 0.706233 0.430030
0.271122 0.706172 0.429999
0.279637 0.706172 0.430182
0.291142 0.706142 0.430304
0.305272 0.706172 0.430488
0.321904 0.706203 0.430793
0.340795 0.706233 0.431006
0.361303 0.706264 0.431220
0.383642 0.706294 0.431769
0.407141 0.706355 0.432197
0.431098 0.708827 0.431037
0.456428 0.719570 0.423651
0.486763 0.730709 0.414923
0.521721 0.742275 0.404547
0.561517 0.753872 0.392187
0.605615 0.765408 0.377569
0.653681 0.776730 0.360174
0.705409 0.787655 0.339178
0.760433 0.798032 0.313329
0.818143 0.807706 0.280797
0.878599 0.816709 0.237217
0.933684 0.819364 0.183719
0.967468 0.811704 0.193240
0.995453 0.803952 0.225040
1.000000 0.796262 0.252354
1.000000 0.789120 0.282506
1.000000 0.782559 0.311711
1.000000 0.776394 0.336095
1.000000 0.770626 0.358282
1.000000 0.765255 0.378149
0.285496 0.733364 0.451453
0.286107 0.733303 0.451331
0.288273 0.733272 0.451362
0.293034 0.733211 0.451331
0.300328 0.733211 0.451514
0.310338 0.733211 0.451637
0.322850 0.733272 0.451728
0.337835 0.733242 0.452003
0.354742 0.733303 0.452369
0.373541 0.733394 0.452766
0.394171 0.733394 0.453162
0.415869 0.733455 0.453620
0.438972 0.733547 0.454200
0.461555 0.739712 0.450416
0.487678 0.749874 0.443183
0.517815 0.760281 0.434638
0.552544 0.770871 0.424506
0.591150 0.781491 0.412634
0.633631 0.792050 0.398596
0.679652 0.802304 0.382086
0.729030 0.812131 0.362310
0.781277 0.821469 0.338293
0.835996 0.830076 0.308690
0.894102 0.838651 0.269780
0.949157 0.842893 0.223301
0.984161 0.834836 0.215305
1.000000 0.826719 0.245121
1.000000 0.818814 0.270756
1.000000 0.811185 0.297581
1.000000 0.804318 0.325505
1.000000 0.797879 0.350347
1.000000 0.791806 0.372564
0.311406 0.759457 0.473732
0.311894 0.759426 0.473610
0.313756 0.759426 0.473640
0.317845 0.759396 0.473732
0.324132 0.759457 0.473945
0.332799 0.759457 0.474006
0.343908 0.759487 0.474220
0.356847 0.759548 0.474586
0.372137 0.759579 0.474800
0.389166 0.759640 0.475196
0.407813 0.759670 0.475776
0.427802 0.759762 0.476356
0.449042 0.759854 0.476844
0.471321 0.760159 0.477394
0.493385 0.769314 0.471077
0.519432 0.778775 0.463935
0.549279 0.788388 0.455573
0.582879 0.798154 0.445930
0.620142 0.807889 0.434455
0.660975 0.817472 0.421027
0.705074 0.826749 0.405127
0.751858 0.835599 0.386419
0.801419 0.843931 0.363958
0.853574 0.851652 0.336400
0.909056 0.859678 0.301549
0.964294 0.865599 0.258762
1.000000 0.857053 0.236545
1.000000 0.848722 0.264347
1.000000 0.840513 0.289860
1.000000 0.832547 0.312871
1.000000 0.825345 0.340246
1.000000 0.818631 0.365332
0.341283 0.785183 0.497963
0.341741 0.785153 0.497963
0.343420 0.785153 0.497932
0.346807 0.785183 0.497993
0.352178 0.785153 0.498054
0.359472 0.785183 0.498329
0.368933 0.785245 0.498604
0.380346 0.785306 0.498848
0.393866 0.785336 0.499123
0.409033 0.785397 0.499550
0.425727 0.785458 0.500114
0.443915 0.785550 0.500694
0.463142 0.785641 0.501305
0.483711 0.785733 0.502037
0.504265 0.789364 0.500237
0.526360 0.797848 0.493965
0.551995 0.806638 0.486946
0.580987 0.815488 0.478706
0.613336 0.824399 0.469154
0.649134 0.833219 0.457862
0.687953 0.841855 0.444739
0.729702 0.850156 0.429572
0.774166 0.858061 0.411536
0.821195 0.865446 0.390112
0.870665 0.872374 0.364569
0.923583 0.879820 0.332494
0.979187 0.887297 0.291691
1.000000 0.878416 0.256901
1.000000 0.869749 0.283848
1.000000 0.861265 0.308232
1.000000 0.853086 0.331273
1.000000 0.845457 0.356023
0.374701 0.810147 0.523980
0.375097 0.810086 0.523919
0.376440 0.810117 0.523980
0.379217 0.810147 0.524041
0.383825 0.810178 0.524193
0.390234 0.810239 0.524407
0.398383 0.810300 0.524743
0.408209 0.810391 0.525109
0.419989 0.810422 0.525444
0.433417 0.810575 0.526055
0.448188 0.810697 0.526574
0.464393 0.810788 0.527245
0.481849 0.810941 0.528008
0.500420 0.811063 0.528740
0.520134 0.811276 0.529717
0.539147 0.817685 0.525444
0.560723 0.825589 0.519280
0.585504 0.833646 0.512261
0.613275 0.841733 0.503990
0.644129 0.849790 0.494575
0.678035 0.857664 0.483314
0.714717 0.865385 0.470619
0.754147 0.872770 0.455634
0.796170 0.879789 0.438178
0.840574 0.886290 0.417731
0.887236 0.892271 0.393011
0.937560 0.899016 0.362982
0.993500 0.908202 0.323949
1.000000 0.898985 0.286168
1.000000 0.889830 0.303227
1.000000 0.881132 0.326909
1.000000 0.872618 0.349523
0.413123 0.834897 0.552880
0.413336 0.834867 0.552880
0.414618 0.834867 0.553002
0.416938 0.834867 0.553063
0.420722 0.834928 0.553216
0.426032 0.834928 0.553399
0.432807 0.835019 0.553704
0.441321 0.835080 0.554009
0.451301 0.835142 0.554467
0.462745 0.835233 0.554925
0.475746 0.835355 0.555535
0.489937 0.835447 0.556237
0.505394 0.835660 0.557031
0.522179 0.835813 0.558007
0.539788 0.836027 0.559075
0.557641 0.837949 0.558556
0.575525 0.844999 0.553246
0.596277 0.852201 0.547143
0.619776 0.859495 0.540063
0.645991 0.866758 0.531670
0.674983 0.873991 0.522210
0.706813 0.881041 0.511162
0.741299 0.887907 0.498390
0.778317 0.894438 0.483467
0.817777 0.900603 0.466285
0.859586 0.906310 0.446052
0.903502 0.911437 0.422126
0.951110 0.917449 0.393927
1.000000 0.925292 0.357214
1.000000 0.918975 0.319921
1.000000 0.908904 0.321508
1.000000 0.899718 0.345006
0.454108 0.859098 0.583856
0.454261 0.859068 0.583764
0.455238 0.859098 0.583764
0.457313 0.859098 0.583917
0.460334 0.859159 0.584070
0.464759 0.859220 0.584253
0.470558 0.859281 0.584680
0.477699 0.859373 0.584955
0.486275 0.859434 0.585382
0.496162 0.859556 0.586023
0.507317 0.859678 0.586664
0.519707 0.859861 0.587366
0.533288 0.860075 0.588220
0.547906 0.860258 0.589105
0.563714 0.860472 0.590265
0.580255 0.860777 0.591424
0.596124 0.865080 0.588800
0.613245 0.871519 0.583459
0.632776 0.878019 0.577356
0.654780 0.884550 0.570245
0.679286 0.891051 0.562097
0.706447 0.897490 0.552514
0.735958 0.903746 0.541680
0.767971 0.909789 0.528923
0.802487 0.915526 0.514275
0.839292 0.920867 0.496986
0.878477 0.925811 0.476936
0.919707 0.930175 0.453376
0.964630 0.935332 0.425452
1.000000 0.941619 0.390204
1.000000 0.937865 0.352361
1.000000 0.926726 0.339330
0.497261 0.883085 0.616632
0.497414 0.883116 0.616693
0.498207 0.883085 0.616693
0.499947 0.883116 0.616846
0.502586 0.883177 0.617029
0.506249 0.883207 0.617212
0.510979 0.883268 0.617426
0.516960 0.883330 0.617792
0.524224 0.883391 0.618250
0.532525 0.883482 0.618738
0.542107 0.883604 0.619348
0.552697 0.883726 0.619989
0.564538 0.883909 0.620844
0.577264 0.884123 0.621851
0.591180 0.884367 0.622980
0.605890 0.884703 0.624231
0.621118 0.885588 0.625025
0.635157 0.891203 0.620417
0.651148 0.896941 0.615137
0.669337 0.902800 0.608911
0.689754 0.908629 0.601892
0.712459 0.914397 0.593835
0.737514 0.920043 0.584405
0.764889 0.925536 0.573754
0.794553 0.930785 0.561151
0.826413 0.935698 0.546410
0.860441 0.940185 0.529198
0.896727 0.944213 0.508904
0.935210 0.947753 0.484962
0.977111 0.951843 0.456977
1.000000 0.957366 0.422766
1.000000 0.955444 0.383703
0.542657 0.906584 0.651423
0.542748 0.906615 0.651423
0.543511 0.906615 0.651514
0.544915 0.906645 0.651606
0.547143 0.906706 0.651850
0.550286 0.906767 0.652033
0.554437 0.906859 0.652522
0.559503 0.906981 0.652888
0.565637 0.907103 0.653376
0.572839 0.907256 0.654047
0.581079 0.907439 0.654810
0.590265 0.907622 0.655573
0.600549 0.907866 0.656580
0.611749 0.908141 0.657649
