20 Preset/Japan Style/【3】LUT video cho PR-AE-FCPX/LUT VIDEO/Japan Style LUT (27).cube
# Created by Adobe Lightroom plugin Export LUT (1.24.0)
# www.johnrellis.com/lightroom/exportlut.htm
# Preset: 27日系室内白色微蓝（素材江湖）
# Color profile: C:\Program Files (x86)\Common Files\Adobe\Color\Profiles\Recommended\VideoHD.icc
LUT_3D_SIZE 5
DOMAIN_MIN 0.000000 0.000000 0.000000
DOMAIN_MAX 0.903226 0.903226 0.903226
0.000000 0.000000 0.091554
0.330327 0.000000 0.062501
0.680293 0.000000 0.044648
0.957092 0.133455 0.150210
1.000000 0.244999 0.258610
0.000000 0.304082 0.042054
0.304784 0.301427 0.048859
0.691096 0.350896 0.101839
0.956390 0.352819 0.193881
1.000000 0.372107 0.290715
0.000000 0.574517 0.134646
0.281468 0.572320 0.135348
0.557458 0.570642 0.142214
0.904082 0.636805 0.276341
1.000000 0.629175 0.399817
0.112001 0.786007 0.224826
0.267185 0.785183 0.225986
0.508415 0.781735 0.229496
0.750637 0.775509 0.237247
1.000000 0.800504 0.384558
0.201785 0.960845 0.317754
0.289586 0.960449 0.318212
0.484779 0.957153 0.316960
0.705135 0.954284 0.323400
0.930632 0.948699 0.331487
0.000000 0.000000 0.321935
0.302129 0.000000 0.320958
0.615961 0.072450 0.332586
0.907713 0.234836 0.378698
1.000000 0.341314 0.429358
0.000000 0.298894 0.318395
0.297520 0.297490 0.317357
0.626490 0.332738 0.351507
0.911467 0.378912 0.395087
1.000000 0.428382 0.446021
0.086458 0.568902 0.318303
0.283818 0.567559 0.317876
0.549981 0.564446 0.317540
0.894682 0.647974 0.440589
1.000000 0.651698 0.520134
0.160464 0.783566 0.347082
0.283146 0.782986 0.347509
0.511315 0.779904 0.348638
0.748287 0.774014 0.351263
1.000000 0.808072 0.488472
0.234318 0.959686 0.397986
0.309606 0.959228 0.398291
0.495003 0.957794 0.400244
0.708553 0.954559 0.403265
0.930907 0.949248 0.408362
0.000000 0.000000 0.604578
0.272465 0.000000 0.602808
0.560571 0.072663 0.596857
0.802548 0.166232 0.577203
1.000000 0.367071 0.619928
0.000000 0.293858 0.598688
0.279759 0.294041 0.597314
0.554925 0.296757 0.592920
0.805173 0.327703 0.587671
1.000000 0.467750 0.643732
0.027863 0.562036 0.587793
0.277562 0.561395 0.586938
0.538262 0.559930 0.584649
0.814664 0.628962 0.658198
1.000000 0.686976 0.728817
0.244175 0.776699 0.581109
0.333745 0.775082 0.583673
0.524559 0.773190 0.585901
0.740383 0.770169 0.585504
0.990356 0.844175 0.762051
0.316838 0.954894 0.597925
0.368505 0.954711 0.598230
0.520958 0.953796 0.599054
0.715328 0.951171 0.599054
0.926299 0.946777 0.599756
0.000000 0.082918 0.852598
0.177615 0.101198 0.851682
0.493324 0.145785 0.847318
0.750423 0.196933 0.840482
0.969390 0.265721 0.812558
0.000000 0.293492 0.847929
0.212253 0.295567 0.846860
0.495399 0.305089 0.843076
0.745815 0.323308 0.836942
0.962371 0.357855 0.811551
0.104402 0.541863 0.836057
0.270207 0.544182 0.834134
0.504234 0.551415 0.831357
0.729610 0.553582 0.825925
0.941070 0.564172 0.815457
0.197604 0.767422 0.833188
0.300023 0.766903 0.832456
0.505913 0.766140 0.831540
0.718929 0.764889 0.830381
0.952911 0.842405 0.925750
0.305852 0.951446 0.828580
0.363043 0.951110 0.829801
0.523644 0.949859 0.834958
0.711666 0.947875 0.837980
0.912963 0.944488 0.837278
0.000000 0.141756 1.000000
0.000000 0.149935 1.000000
0.433570 0.181186 1.000000
0.681605 0.225406 1.000000
0.915953 0.272496 1.000000
0.000000 0.290929 1.000000
0.137331 0.293584 1.000000
0.440467 0.305486 1.000000
0.681453 0.326177 1.000000
0.912902 0.353033 1.000000
0.163546 0.531151 1.000000
0.263645 0.531060 1.000000
0.467750 0.533318 1.000000
0.684565 0.537407 1.000000
0.907195 0.546746 1.000000
0.229313 0.737911 1.000000
0.305333 0.738308 1.000000
0.491371 0.741970 0.999878
0.696529 0.747463 0.998413
0.907836 0.752193 0.997314
0.307927 0.940764 0.989166
0.361791 0.940520 0.988952
0.520836 0.940703 0.988434
0.712734 0.940002 0.987213
0.911681 0.938048 0.985199
