20 Preset/Japan Style/【3】LUT video cho PR-AE-FCPX/LUT VIDEO/Japan Style LUT (17).cube
# Created by Adobe Lightroom plugin Export LUT (1.24.0)
# www.johnrellis.com/lightroom/exportlut.htm
# Preset: 17日系清新（素材江湖）
# Color profile: C:\Program Files (x86)\Common Files\Adobe\Color\Profiles\Recommended\VideoHD.icc
LUT_3D_SIZE 32
DOMAIN_MIN 0.0 0.0 0.0
DOMAIN_MAX 1.0 1.0 1.0
0.059785 0.088075 0.068452
0.070985 0.088014 0.068238
0.093538 0.088502 0.069581
0.118288 0.091310 0.069215
0.159915 0.094087 0.067659
0.216983 0.093416 0.064149
0.280491 0.089662 0.057557
0.345892 0.070832 0.049897
0.412696 0.028656 0.036652
0.477485 0.000000 0.018708
0.539666 0.000000 0.000977
0.599176 0.000000 0.000000
0.655177 0.000000 0.000000
0.707057 0.000000 0.000000
0.754330 0.000000 0.000000
0.796628 0.000000 0.000000
0.833677 0.000000 0.000000
0.866484 0.076631 0.000000
0.896056 0.124453 0.000000
0.923003 0.158877 0.000000
0.948699 0.187747 0.000000
0.971191 0.211551 0.000000
0.991241 0.232883 0.000000
1.000000 0.251926 0.000000
1.000000 0.269871 0.000000
1.000000 0.286839 0.000000
1.000000 0.302525 0.000000
1.000000 0.317174 0.000000
1.000000 0.331151 0.000000
1.000000 0.345159 0.000000
1.000000 0.358587 0.000000
1.000000 0.371344 0.000000
0.059144 0.091402 0.070619
0.066682 0.091524 0.069306
0.092470 0.093660 0.068910
0.118502 0.095338 0.067689
0.160769 0.098512 0.066926
0.218082 0.099214 0.063905
0.281163 0.095430 0.056367
0.346380 0.084291 0.047425
0.413031 0.050263 0.033570
0.477699 0.001221 0.016907
0.539574 0.000000 0.000000
0.598962 0.000000 0.000000
0.654841 0.000000 0.000000
0.706416 0.000000 0.000000
0.753506 0.000000 0.000000
0.795834 0.000000 0.000000
0.833066 0.000000 0.000000
0.865873 0.093324 0.000000
0.895445 0.131502 0.000000
0.922210 0.161227 0.000000
0.947723 0.190463 0.000000
0.970001 0.213046 0.000000
0.989899 0.234348 0.000000
1.000000 0.253330 0.000000
1.000000 0.270817 0.000000
1.000000 0.286961 0.000000
1.000000 0.302495 0.000000
1.000000 0.317357 0.000000
1.000000 0.331182 0.000000
1.000000 0.345098 0.000000
1.000000 0.358343 0.000000
1.000000 0.371344 0.000000
0.060212 0.103822 0.078035
0.062470 0.104433 0.078584
0.086946 0.108186 0.069795
0.118379 0.113344 0.064271
0.164767 0.118898 0.061433
0.224430 0.122103 0.055177
0.288334 0.121157 0.048219
0.353735 0.115389 0.036896
0.419928 0.105806 0.023163
0.483650 0.089693 0.006165
0.545068 0.049256 0.000000
0.603876 0.007080 0.000000
0.658747 0.000000 0.000000
0.709590 0.000000 0.000000
0.756039 0.000000 0.000000
0.797787 0.039338 0.000000
0.834348 0.099031 0.000000
0.866728 0.128878 0.000000
0.896025 0.156222 0.000000
0.922759 0.181613 0.000000
0.947814 0.205447 0.000000
0.969787 0.226627 0.000000
0.989563 0.244877 0.000000
1.000000 0.262516 0.000000
1.000000 0.278691 0.000000
1.000000 0.293797 0.000000
1.000000 0.308629 0.000000
1.000000 0.323033 0.000000
1.000000 0.336400 0.000000
1.000000 0.349706 0.000000
1.000000 0.361975 0.000000
1.000000 0.374884 0.000000
0.050355 0.128817 0.088380
0.052918 0.129244 0.088258
0.073762 0.132021 0.086397
0.108309 0.142245 0.069490
0.166415 0.155367 0.045502
0.233097 0.164675 0.035462
0.302159 0.167147 0.022644
0.368139 0.163668 0.010956
0.434424 0.157961 0.000000
0.496986 0.150057 0.000000
0.557275 0.141909 0.000000
0.613977 0.132570 0.000000
0.667781 0.126833 0.000000
0.716915 0.127016 0.000000
0.761746 0.133028 0.000000
0.801877 0.145418 0.000000
0.837308 0.160983 0.000000
0.868894 0.179263 0.000000
0.897520 0.196902 0.000000
0.923827 0.215518 0.000000
0.947936 0.233280 0.000000
0.969360 0.249912 0.000000
0.988922 0.265385 0.000000
1.000000 0.280491 0.000000
1.000000 0.294469 0.000000
1.000000 0.308202 0.000000
1.000000 0.321324 0.000000
1.000000 0.334447 0.000000
1.000000 0.346563 0.000000
1.000000 0.359014 0.000000
1.000000 0.370672 0.000000
1.000000 0.382300 0.000000
0.007080 0.168032 0.095613
0.013611 0.168276 0.095521
0.041382 0.169192 0.095430
0.086824 0.178378 0.087831
0.142824 0.195651 0.048524
0.228580 0.214817 0.000000
0.303990 0.222965 0.000000
0.386481 0.229801 0.000000
0.453651 0.225040 0.000000
0.515221 0.219028 0.000000
0.573358 0.212131 0.000000
0.628534 0.206729 0.000000
0.679744 0.203647 0.000000
0.727077 0.203372 0.000000
0.770199 0.207584 0.000000
0.808255 0.214572 0.000000
0.842435 0.223667 0.000000
0.872923 0.234623 0.000000
0.900633 0.246342 0.000000
0.926268 0.258824 0.000000
0.949462 0.271733 0.000000
0.970336 0.284062 0.000000
0.989349 0.295720 0.000000
1.000000 0.307225 0.000000
1.000000 0.318517 0.000000
1.000000 0.329839 0.000000
1.000000 0.341070 0.000000
1.000000 0.351934 0.000000
1.000000 0.362951 0.000000
1.000000 0.373510 0.000000
1.000000 0.384070 0.000000
1.000000 0.394263 0.000000
0.000000 0.212985 0.101900
0.000000 0.213291 0.102113
0.000000 0.213748 0.102083
0.019989 0.216342 0.100679
0.104738 0.233524 0.076753
0.186221 0.255924 0.000916
0.293034 0.281193 0.000000
0.376379 0.288731 0.000000
0.459052 0.295293 0.000000
0.537896 0.299474 0.000000
0.594415 0.291630 0.000000
0.647517 0.285618 0.000000
0.696071 0.281315 0.000000
0.740902 0.280735 0.000000
0.781338 0.282139 0.000000
0.817258 0.284733 0.000000
0.849485 0.289281 0.000000
0.878691 0.295445 0.000000
0.905394 0.302098 0.000000
0.930053 0.310094 0.000000
0.952209 0.318029 0.000000
0.972320 0.325994 0.000000
0.998138 0.340154 0.000000
1.000000 0.348547 0.000000
1.000000 0.356207 0.000000
1.000000 0.364508 0.000000
1.000000 0.372503 0.000000
1.000000 0.380896 0.000000
1.000000 0.389593 0.000000
1.000000 0.397864 0.000000
1.000000 0.406073 0.000000
1.000000 0.414649 0.000000
0.000000 0.262913 0.109926
0.000000 0.262913 0.109865
0.000000 0.263218 0.109834
0.000000 0.264317 0.109865
0.009064 0.273472 0.100069
0.138399 0.294957 0.041077
0.237217 0.321233 0.000000
0.359136 0.351690 0.000000
0.448096 0.359808 0.000000
0.529107 0.365911 0.000000
0.607385 0.372869 0.000000
0.671809 0.374914 0.000000
0.717708 0.368383 0.000000
0.759548 0.364691 0.000000
0.796567 0.361913 0.000000
0.829557 0.360296 0.000000
0.859800 0.360754 0.000000
0.887083 0.361334 0.000000
0.913207 0.364630 0.000000
0.936675 0.368048 0.000000
0.958190 0.371771 0.000000
0.977996 0.375860 0.000000
0.996582 0.380438 0.000000
1.000000 0.385748 0.000000
1.000000 0.390906 0.000000
1.000000 0.396612 0.000000
1.000000 0.402075 0.000000
1.000000 0.408026 0.000000
1.000000 0.414252 0.000000
1.000000 0.420478 0.000000
1.000000 0.427008 0.000000
1.000000 0.433753 0.000000
0.000000 0.311131 0.120577
0.000000 0.311162 0.121065
0.000000 0.311406 0.120760
0.000000 0.312230 0.120455
0.000000 0.312932 0.120241
0.067903 0.330999 0.095979
0.182101 0.354894 0.000000
0.289586 0.382666 0.000000
0.414099 0.413764 0.000000
0.508141 0.424140 0.000000
0.586542 0.430610 0.000000
0.659022 0.439033 0.000000
0.724788 0.449378 0.000000
0.771481 0.448463 0.000000
0.806363 0.441260 0.000000
0.837675 0.435248 0.000000
0.866331 0.431220 0.000000
0.893156 0.428565 0.000000
0.917479 0.426581 0.000000
0.939605 0.425391 0.000000
0.960021 0.425147 0.000000
0.978943 0.425025 0.000000
0.996948 0.425757 0.000000
1.000000 0.427497 0.000000
1.000000 0.430030 0.000000
1.000000 0.432319 0.000000
1.000000 0.435462 0.000000
1.000000 0.438727 0.000000
1.000000 0.442664 0.000000
1.000000 0.447059 0.000000
1.000000 0.451362 0.000000
1.000000 0.456214 0.000000
0.000000 0.360266 0.135897
0.000000 0.360662 0.135897
0.000000 0.360662 0.135927
0.000000 0.361120 0.136019
0.000000 0.361639 0.135592
0.000000 0.368170 0.128786
0.129366 0.388952 0.094697
0.234012 0.413611 0.000000
0.342351 0.440650 0.000000
0.461097 0.466712 0.000000
0.564569 0.485481 0.000000
0.637873 0.492927 0.000000
0.703944 0.501579 0.000000
0.762020 0.509819 0.000000
0.812894 0.517327 0.000000
0.845396 0.510124 0.000000
0.873564 0.502525 0.000000
0.898680 0.495308 0.000000
0.921538 0.488960 0.000000
0.942596 0.483803 0.000000
0.962127 0.479408 0.000000
0.980377 0.476173 0.000000
0.997711 0.473274 0.000000
1.000000 0.471839 0.000000
1.000000 0.471168 0.000000
1.000000 0.470954 0.000000
1.000000 0.471290 0.000000
1.000000 0.472328 0.000000
1.000000 0.473915 0.000000
1.000000 0.475990 0.000000
1.000000 0.478553 0.000000
1.000000 0.481514 0.000000
0.000000 0.408759 0.154879
0.000000 0.408576 0.154726
0.000000 0.408576 0.154757
0.000000 0.408728 0.154940
0.000000 0.409064 0.155001
0.000000 0.409461 0.154971
0.034180 0.422889 0.137331
0.185733 0.444556 0.096742
0.288060 0.468727 0.000000
0.395789 0.494545 0.000000
0.511467 0.520317 0.000000
0.614771 0.541466 0.000000
0.682460 0.548974 0.000000
0.741299 0.555627 0.000000
0.793973 0.561883 0.000000
0.840452 0.567163 0.000000
0.879942 0.569665 0.000000
0.903807 0.559228 0.000000
0.925658 0.549462 0.000000
0.945769 0.541039 0.000000
0.964416 0.533196 0.000000
0.981811 0.526543 0.000000
0.998444 0.520745 0.000000
1.000000 0.516350 0.000000
1.000000 0.512718 0.000000
1.000000 0.510155 0.000000
1.000000 0.508049 0.000000
1.000000 0.506889 0.000000
1.000000 0.506432 0.000000
1.000000 0.506493 0.000000
1.000000 0.507134 0.000000
1.000000 0.508537 0.000000
0.000000 0.454017 0.176272
0.000000 0.453956 0.176272
0.000000 0.454017 0.176242
0.000000 0.454139 0.176211
0.000000 0.454322 0.176150
0.000000 0.454688 0.176242
0.000000 0.456825 0.173648
0.143709 0.475837 0.148196
0.244572 0.497475 0.102388
0.343786 0.520897 0.000000
0.450202 0.545190 0.000000
0.559686 0.569696 0.000000
0.661585 0.592920 0.000000
0.722713 0.598871 0.000000
0.775967 0.603388 0.000000
0.822934 0.607080 0.000000
0.864103 0.609125 0.000000
0.900450 0.609888 0.000000
0.929320 0.606348 0.000000
0.948516 0.595026 0.000000
0.966430 0.584741 0.000000
0.983246 0.575433 0.000000
0.999390 0.567437 0.000000
1.000000 0.560601 0.000000
1.000000 0.554742 0.000000
1.000000 0.549920 0.000000
1.000000 0.545861 0.000000
1.000000 0.542657 0.000000
1.000000 0.540246 0.000000
1.000000 0.538476 0.000000
1.000000 0.537560 0.000000
1.000000 0.537102 0.000000
0.000000 0.497536 0.199557
0.000000 0.497505 0.199527
0.000000 0.497536 0.199527
0.000000 0.497688 0.199649
0.000000 0.497780 0.199588
0.000000 0.497780 0.199802
0.000000 0.498024 0.199588
0.106752 0.507195 0.188418
0.211398 0.526329 0.160494
0.304601 0.547814 0.113069
0.402564 0.570245 0.000000
0.504173 0.592828 0.000000
0.614191 0.622248 0.000000
0.709255 0.644007 0.000000
0.765499 0.648066 0.000000
0.813443 0.650050 0.000000
0.854398 0.650385 0.000000
0.890898 0.649653 0.000000
0.923247 0.648005 0.000000
0.952117 0.645869 0.000000
0.973419 0.637995 0.000000
0.989227 0.626581 0.000000
1.000000 0.616236 0.000000
1.000000 0.607202 0.000000
1.000000 0.599268 0.000000
1.000000 0.592157 0.000000
1.000000 0.585931 0.000000
1.000000 0.580804 0.000000
1.000000 0.576440 0.000000
1.000000 0.572839 0.000000
1.000000 0.570001 0.000000
1.000000 0.567864 0.000000
0.000000 0.541619 0.227054
0.000000 0.541650 0.227146
0.000000 0.541497 0.227085
0.000000 0.541497 0.226871
0.000000 0.541588 0.227298
0.000000 0.541466 0.227176
0.000000 0.541466 0.227146
0.086580 0.541558 0.227359
0.193179 0.557641 0.208865
0.280278 0.576715 0.180514
0.370367 0.597223 0.133089
0.464607 0.618189 0.000000
0.559625 0.639033 0.000000
0.651484 0.658930 0.000000
0.739010 0.678828 0.000000
0.794003 0.682521 0.000000
0.836759 0.682399 0.000000
0.873991 0.680659 0.000000
0.907042 0.678218 0.000000
0.936675 0.675227 0.000000
0.963226 0.671839 0.000000
0.987366 0.668544 0.000000
1.000000 0.658930 0.000000
1.000000 0.648341 0.000000
1.000000 0.638758 0.000000
1.000000 0.630213 0.000000
1.000000 0.622614 0.000000
1.000000 0.615869 0.000000
1.000000 0.610071 0.000000
1.000000 0.605158 0.000000
1.000000 0.600885 0.000000
1.000000 0.597436 0.016724
0.000000 0.580682 0.255253
0.000000 0.580560 0.255192
0.000000 0.580438 0.255253
0.000000 0.580163 0.254978
0.000000 0.579858 0.254795
0.000000 0.579492 0.254612
0.000000 0.579156 0.254429
0.027863 0.578882 0.254490
0.185122 0.584070 0.248936
0.263462 0.600732 0.228092
0.343999 0.618708 0.199924
0.428992 0.637507 0.157687
0.516167 0.656092 0.047242
0.601556 0.674067 0.000000
0.684108 0.691310 0.000000
0.765316 0.709499 0.000000
0.818448 0.712093 0.000000
0.856962 0.710048 0.000000
0.891203 0.706966 0.000000
0.921477 0.703273 0.000000
0.948913 0.699245 0.000000
0.973907 0.695369 0.000000
0.996857 0.691646 0.000000
1.000000 0.688167 0.119142
1.000000 0.677363 0.116548
1.000000 0.667659 0.114595
1.000000 0.658747 0.111940
1.000000 0.650690 0.112306
1.000000 0.643488 0.113954
1.000000 0.637293 0.117128
1.000000 0.631769 0.123079
1.000000 0.627161 0.130220
0.000000 0.615412 0.282963
0.000000 0.615412 0.283024
0.000000 0.615229 0.282780
0.000000 0.614893 0.282750
0.000000 0.614405 0.282383
0.000000 0.613855 0.282231
0.000000 0.613336 0.281834
0.031708 0.612940 0.281682
0.186862 0.612573 0.281804
0.257359 0.623590 0.269902
0.328344 0.639460 0.249729
0.403937 0.655970 0.223239
0.482033 0.672450 0.185550
0.560723 0.688685 0.122011
0.637690 0.704433 0.000000
0.712673 0.719509 0.000000
0.788418 0.736080 0.000000
0.839811 0.737789 0.000000
0.875029 0.734340 0.000000
0.906828 0.730129 0.000000
0.934936 0.725612 0.000000
0.960723 0.721248 0.000000
0.984497 0.717006 0.000000
1.000000 0.713008 0.095033
1.000000 0.709102 0.160403
1.000000 0.703944 0.192111
1.000000 0.693965 0.187320
1.000000 0.684871 0.183932
1.000000 0.676692 0.181155
1.000000 0.669276 0.180758
1.000000 0.662806 0.181582
1.000000 0.657038 0.184878
0.000000 0.646571 0.310430
0.000000 0.646632 0.310460
0.000000 0.646479 0.310369
0.000000 0.646204 0.309941
0.000000 0.645899 0.309819
0.000000 0.645502 0.309789
0.000000 0.645136 0.309697
0.092073 0.644800 0.310033
0.196597 0.644404 0.309941
0.261234 0.646113 0.308354
0.322637 0.659754 0.293217
0.388312 0.673976 0.273533
0.457496 0.688411 0.248234
0.527825 0.702754 0.214817
0.598352 0.716854 0.164279
0.668177 0.730587 0.007843
0.736934 0.743648 0.000000
0.805081 0.756710 0.000000
0.858305 0.760189 0.000000
0.890990 0.755825 0.000000
0.920867 0.751064 0.000000
0.947814 0.746304 0.000000
0.972320 0.741726 0.000000
0.994965 0.737270 0.000000
1.000000 0.732906 0.143191
1.000000 0.728786 0.193332
1.000000 0.724849 0.229679
1.000000 0.718379 0.243992
1.000000 0.709133 0.238926
1.000000 0.700801 0.234714
1.000000 0.693172 0.232395
1.000000 0.686366 0.231815
0.000000 0.674250 0.337255
0.000000 0.674220 0.337255
0.000000 0.674098 0.337163
0.000000 0.673945 0.337102
0.000000 0.673610 0.337072
0.000000 0.673274 0.336828
0.000000 0.672755 0.336889
0.132937 0.672389 0.337194
0.211337 0.671901 0.337163
0.269810 0.671351 0.337469
0.322789 0.677974 0.330297
0.379278 0.690425 0.315709
0.439796 0.703212 0.297368
0.502403 0.716091 0.274083
0.566644 0.729030 0.243320
0.630854 0.741634 0.201358
0.694545 0.753628 0.132082
0.757595 0.765011 0.000000
0.819333 0.775082 0.000000
0.874723 0.780453 0.000000
0.906126 0.775906 0.000000
0.934539 0.770871 0.000000
0.960357 0.765774 0.000000
0.983703 0.760952 0.000000
1.000000 0.756191 0.109957
1.000000 0.751644 0.178470
1.000000 0.747280 0.220829
1.000000 0.743038 0.253819
1.000000 0.739162 0.282475
1.000000 0.731807 0.287053
1.000000 0.723232 0.281804
1.000000 0.715480 0.278965
0.000000 0.699397 0.364904
0.000000 0.699428 0.364874
0.000000 0.703304 0.369604
0.000000 0.703151 0.369543
0.000000 0.702815 0.369482
0.000000 0.702480 0.369421
0.102205 0.701961 0.369360
0.183413 0.701320 0.369268
0.240391 0.700801 0.369238
0.290257 0.700069 0.369329
0.335332 0.699397 0.369512
0.382696 0.710018 0.358434
0.434180 0.721187 0.344121
0.489204 0.732692 0.326024
0.545678 0.744045 0.304601
0.603296 0.755184 0.276951
0.661707 0.765927 0.241062
0.719875 0.776303 0.190066
0.777859 0.786130 0.093233
0.835843 0.795163 0.000000
0.889982 0.800656 0.000000
0.922179 0.796017 0.000000
0.948943 0.790646 0.000000
0.973632 0.785031 0.000000
0.995514 0.779721 0.004883
1.000000 0.774533 0.156710
1.000000 0.769650 0.209049
1.000000 0.764889 0.246769
1.000000 0.760403 0.277775
1.000000 0.756252 0.304265
1.000000 0.752346 0.328191
1.000000 0.744259 0.326055
0.000000 0.723201 0.393286
0.000000 0.723568 0.393744
0.000000 0.723903 0.394354
0.000000 0.723964 0.394659
0.000000 0.723964 0.395056
0.094179 0.723751 0.395270
0.164889 0.723293 0.395026
0.216556 0.722744 0.394842
0.262089 0.722103 0.394903
0.304295 0.721462 0.394934
0.344518 0.720760 0.394965
0.384283 0.724239 0.391608
0.428443 0.734340 0.379736
0.476081 0.744656 0.366278
0.526177 0.755032 0.349645
0.578515 0.765255 0.329229
0.631678 0.775296 0.304112
0.685512 0.785061 0.272221
0.739620 0.794553 0.230411
0.794186 0.803616 0.167056
0.849454 0.812039 0.000000
0.902556 0.818326 0.000000
0.935851 0.813718 0.000000
0.961303 0.808072 0.000000
0.984741 0.802304 0.000000
1.000000 0.796658 0.113313
1.000000 0.791287 0.186831
1.000000 0.786160 0.233188
1.000000 0.781277 0.268742
1.000000 0.776638 0.297673
1.000000 0.772305 0.324590
1.000000 0.768215 0.347601
0.000000 0.743984 0.419623
0.000000 0.744320 0.420203
0.000000 0.744594 0.420478
0.089113 0.744778 0.421027
0.134676 0.744808 0.421271
0.175204 0.744533 0.421393
0.212467 0.744198 0.421424
0.249607 0.743648 0.421271
0.286229 0.743069 0.421393
0.322148 0.742489 0.421241
0.357549 0.741817 0.421668
0.392279 0.741115 0.421637
0.429297 0.748348 0.414008
0.470344 0.757626 0.403052
0.514244 0.766964 0.389929
0.560479 0.776333 0.373938
0.608667 0.785580 0.354986
0.657771 0.794705 0.331365
0.707729 0.803647 0.303258
0.758419 0.812345 0.266453
0.809903 0.820584 0.216678
0.862455 0.828275 0.133425
0.915007 0.835264 0.000000
0.949004 0.830594 0.000000
0.973205 0.824704 0.000000
0.995514 0.818753 0.020905
1.000000 0.812802 0.152010
1.000000 0.807279 0.212375
1.000000 0.801968 0.255192
1.000000 0.796963 0.289433
1.000000 0.792172 0.318212
1.000000 0.787655 0.343297
0.160006 0.764004 0.446296
0.162997 0.764279 0.446693
0.171298 0.764523 0.447089
0.185916 0.764645 0.447639
0.205875 0.764645 0.447791
0.228977 0.764462 0.447974
0.254887 0.764126 0.447944
0.282933 0.763668 0.447883
0.312139 0.763149 0.448005
0.342412 0.762600 0.448188
0.373144 0.761990 0.448310
0.403937 0.761318 0.448463
0.435248 0.762722 0.446509
0.469917 0.770962 0.437629
0.508171 0.779416 0.427070
0.548821 0.788022 0.414435
0.591638 0.796658 0.399451
0.636286 0.805264 0.381811
0.682185 0.813809 0.360357
0.729000 0.822171 0.334691
0.776913 0.830228 0.302678
0.825864 0.837858 0.261601
0.875975 0.844907 0.202792
0.928313 0.852567 0.079713
0.962951 0.847745 0.000000
0.985931 0.841703 0.015106
1.000000 0.835508 0.144015
1.000000 0.829374 0.191989
1.000000 0.823697 0.243656
1.000000 0.818265 0.283024
1.000000 0.813046 0.316014
1.000000 0.808133 0.343877
0.236454 0.784756 0.476204
0.237552 0.784909 0.476448
0.241825 0.784970 0.476722
0.249851 0.784878 0.476692
0.262089 0.784726 0.476722
0.277653 0.784421 0.476753
0.296391 0.784115 0.476753
0.317784 0.783627 0.476478
0.341466 0.783169 0.476509
0.366644 0.782712 0.476722
0.392706 0.782193 0.476905
0.419745 0.781582 0.477211
0.447089 0.780941 0.477394
0.476173 0.785611 0.472389
0.508537 0.793240 0.463508
0.543694 0.800992 0.453254
0.581353 0.808865 0.441169
0.620844 0.816739 0.426978
0.662074 0.824613 0.410071
0.704860 0.832334 0.389990
0.748775 0.839872 0.365972
0.793912 0.847013 0.337041
0.840482 0.853727 0.299779
0.888182 0.859892 0.250858
0.939940 0.868132 0.176059
0.975128 0.863127 0.000000
0.997070 0.856840 0.133364
1.000000 0.850584 0.186618
1.000000 0.844327 0.225467
1.000000 0.838437 0.266575
1.000000 0.832853 0.304692
1.000000 0.827512 0.336461
0.288396 0.803006 0.503532
0.289555 0.803098 0.503716
0.292760 0.803128 0.503746
0.298558 0.803098 0.503868
0.307195 0.802914 0.503838
0.318791 0.802731 0.503990
0.333318 0.802396 0.503929
0.350378 0.802029 0.503838
0.369665 0.801663 0.503929
0.390784 0.801236 0.504143
0.413123 0.800748 0.504265
0.436622 0.800259 0.504570
0.460792 0.799710 0.504753
0.485603 0.799771 0.504601
0.512810 0.806668 0.497292
0.542901 0.813748 0.488960
0.575525 0.821042 0.478920
0.610468 0.828305 0.467536
0.647333 0.835691 0.453712
0.685817 0.842924 0.437812
0.725887 0.849943 0.419135
0.767330 0.856779 0.396887
0.810330 0.863188 0.369787
0.854673 0.869169 0.336706
0.899687 0.873960 0.290959
0.949371 0.881559 0.231266
0.984894 0.877653 0.149722
1.000000 0.871275 0.178012
1.000000 0.864866 0.219821
1.000000 0.858549 0.254765
1.000000 0.852415 0.288548
1.000000 0.846769 0.325628
0.337713 0.821622 0.532555
0.338781 0.821744 0.532799
0.341283 0.821744 0.532982
0.345159 0.821653 0.532891
0.351415 0.821439 0.532799
0.360052 0.821134 0.532494
0.371008 0.820737 0.532311
0.384283 0.820279 0.532067
0.399634 0.819791 0.531914
0.416724 0.819333 0.531792
0.435401 0.818784 0.531823
0.455482 0.818265 0.531792
0.476448 0.817716 0.532006
0.498207 0.817075 0.532158
0.520928 0.819944 0.528740
0.546014 0.826291 0.521416
0.573846 0.832853 0.512871
0.604120 0.839506 0.503319
0.636591 0.846281 0.492103
0.671015 0.853025 0.479133
0.707179 0.859709 0.463935
0.744930 0.866117 0.446357
0.784390 0.872190 0.425086
0.825254 0.877897 0.399634
0.867613 0.883116 0.367956
0.910918 0.887846 0.329381
0.957671 0.893889 0.277836
0.994446 0.891966 0.215457
1.000000 0.885222 0.212436
1.000000 0.878721 0.249332
1.000000 0.872251 0.281804
1.000000 0.865904 0.311406
0.378973 0.838315 0.559106
0.379919 0.838437 0.559411
0.381903 0.838468 0.559625
0.385168 0.838437 0.559655
0.390234 0.838315 0.559564
0.397223 0.838132 0.559503
0.406256 0.837919 0.559655
0.417151 0.837675 0.559655
0.429969 0.837339 0.559564
0.444526 0.837034 0.559838
0.460456 0.836637 0.559838
0.477699 0.836271 0.560174
0.496010 0.835843 0.560479
0.515068 0.835355 0.560723
0.534691 0.834836 0.560967
0.555474 0.840238 0.554925
0.578759 0.846159 0.547753
0.604456 0.852201 0.539574
0.632471 0.858396 0.530022
0.662593 0.864591 0.519310
0.694728 0.870756 0.506828
0.728634 0.876768 0.492622
0.764279 0.882506 0.475532
0.801602 0.887938 0.455787
0.840604 0.893004 0.431617
0.880949 0.897612 0.402594
0.922484 0.901793 0.367163
0.966308 0.906523 0.321904
1.000000 0.906371 0.267735
1.000000 0.899321 0.248722
1.000000 0.892607 0.282353
1.000000 0.885954 0.312688
0.420783 0.855497 0.587213
0.421363 0.855528 0.587335
0.422522 0.855558 0.587335
0.425330 0.855497 0.587457
0.429145 0.855406 0.587304
0.434852 0.855222 0.587396
0.441932 0.855009 0.587274
0.450721 0.854795 0.587213
0.461219 0.854520 0.587366
0.473213 0.854246 0.587457
0.486671 0.853941 0.587732
0.501396 0.853666 0.587976
0.517052 0.853330 0.588312
0.533623 0.852934 0.588617
0.551049 0.852476 0.588891
0.568719 0.854246 0.586938
0.588067 0.859586 0.580896
0.609613 0.865080 0.573907
0.633448 0.870726 0.566003
0.659358 0.876402 0.556939
0.687343 0.882078 0.546532
0.717372 0.887633 0.534600
0.749203 0.892973 0.520714
0.783017 0.898100 0.504387
0.818296 0.902892 0.485237
0.855253 0.907317 0.462379
0.893675 0.911376 0.435370
0.933288 0.914946 0.402045
0.975250 0.919066 0.360845
1.000000 0.919921 0.312444
1.000000 0.912413 0.278599
1.000000 0.905547 0.311345
0.459327 0.872129 0.614221
0.459693 0.872190 0.614221
0.460792 0.872190 0.614435
0.462928 0.872190 0.614435
0.466255 0.872160 0.614588
0.471168 0.872099 0.614679
0.477424 0.872129 0.615076
0.485267 0.872129 0.615503
0.494514 0.872160 0.616144
0.505028 0.872221 0.616724
0.516991 0.872251 0.617578
0.529839 0.872251 0.618341
0.543694 0.872221 0.619135
0.558190 0.872160 0.619928
0.573602 0.871977 0.620600
0.589502 0.871702 0.621118
0.605310 0.875639 0.617060
0.622980 0.880613 0.611231
0.642725 0.885649 0.604791
0.664607 0.890806 0.597375
0.688563 0.895933 0.588983
0.714504 0.900999 0.579431
0.742306 0.905882 0.568017
0.772030 0.910582 0.554833
0.803494 0.915007 0.539361
0.836606 0.919097 0.521141
0.871427 0.922850 0.499336
0.907561 0.926238 0.473915
0.945220 0.929229 0.443275
0.985077 0.932647 0.406317
1.000000 0.934356 0.362951
1.000000 0.926177 0.319799
0.502037 0.890318 0.644648
0.502251 0.890318 0.644709
0.503136 0.890288 0.644648
0.504692 0.890227 0.644709
0.507256 0.890166 0.644739
0.510796 0.890074 0.644709
0.515709 0.889982 0.644800
0.521721 0.889891 0.645014
0.529015 0.889799 0.645319
0.537407 0.889738 0.645594
0.547051 0.889647 0.646052
0.557641 0.889555 0.646540
0.569299 0.889464 0.647120
0.581689 0.889342 0.647700
