20 Preset/Japan Style/【3】LUT video cho PR-AE-FCPX/LUT VIDEO/Japan Style LUT (17).cube
# Created by Adobe Lightroom plugin Export LUT (1.24.0)
# www.johnrellis.com/lightroom/exportlut.htm
# Preset: 17日系清新（素材江湖）
# Color profile: C:\Program Files (x86)\Common Files\Adobe\Color\Profiles\Recommended\VideoHD.icc
LUT_3D_SIZE 8
DOMAIN_MIN 0.000000 0.000000 0.000000
DOMAIN_MAX 0.903226 0.903226 0.903226
0.059785 0.088075 0.068452
0.159915 0.094087 0.067659
0.412696 0.028656 0.036652
0.655177 0.000000 0.000000
0.833677 0.000000 0.000000
0.948699 0.187747 0.000000
1.000000 0.269871 0.000000
1.000000 0.331151 0.000000
0.007080 0.168032 0.095613
0.142824 0.195651 0.048524
0.453651 0.225040 0.000000
0.679744 0.203647 0.000000
0.842435 0.223667 0.000000
0.949462 0.271733 0.000000
1.000000 0.318517 0.000000
1.000000 0.362951 0.000000
0.000000 0.360266 0.135897
0.000000 0.361639 0.135592
0.342351 0.440650 0.000000
0.703944 0.501579 0.000000
0.873564 0.502525 0.000000
0.962127 0.479408 0.000000
1.000000 0.471168 0.000000
1.000000 0.473915 0.000000
0.000000 0.541619 0.227054
0.000000 0.541588 0.227298
0.193179 0.557641 0.208865
0.559625 0.639033 0.000000
0.836759 0.682399 0.000000
0.963226 0.671839 0.000000
1.000000 0.638758 0.000000
1.000000 0.610071 0.000000
0.000000 0.674250 0.337255
0.000000 0.673610 0.337072
0.211337 0.671901 0.337163
0.439796 0.703212 0.297368
0.694545 0.753628 0.132082
0.906126 0.775906 0.000000
1.000000 0.756191 0.109957
1.000000 0.739162 0.282475
0.160006 0.764004 0.446296
0.205875 0.764645 0.447791
0.312139 0.763149 0.448005
0.435248 0.762722 0.446509
0.591638 0.796658 0.399451
0.776913 0.830228 0.302678
0.962951 0.847745 0.000000
1.000000 0.823697 0.243656
0.378973 0.838315 0.559106
0.390234 0.838315 0.559564
0.429969 0.837339 0.559564
0.496010 0.835843 0.560479
0.578759 0.846159 0.547753
0.694728 0.870756 0.506828
0.840604 0.893004 0.431617
1.000000 0.906371 0.267735
0.540764 0.906828 0.672663
0.545068 0.906798 0.672816
0.563500 0.906645 0.673671
0.597772 0.906554 0.675868
0.641108 0.904448 0.674830
0.699672 0.920012 0.656245
0.786038 0.936156 0.622492
0.899046 0.948791 0.561334
0.061646 0.090150 0.162661
0.161685 0.097444 0.152834
0.363622 0.013550 0.161105
0.602930 0.000000 0.138125
0.800656 0.000000 0.110170
0.928588 0.123110 0.030488
1.000000 0.238987 0.000000
1.000000 0.312963 0.000000
0.000000 0.170626 0.162387
0.144808 0.187686 0.171511
0.397711 0.181949 0.158877
0.634272 0.156985 0.136049
0.815457 0.174228 0.098543
0.933227 0.237034 0.000000
1.000000 0.295842 0.000000
1.000000 0.347539 0.000000
0.000000 0.371893 0.221592
0.000000 0.374670 0.204715
0.341192 0.432929 0.131319
0.691066 0.485176 0.011048
0.852964 0.477699 0.000000
0.947662 0.461128 0.000000
1.000000 0.456764 0.000000
1.000000 0.463630 0.000000
0.000000 0.544366 0.270878
0.000000 0.544182 0.270542
0.212924 0.549981 0.264958
0.549828 0.629877 0.102937
0.826413 0.671504 0.000000
0.953063 0.665766 0.156619
1.000000 0.631037 0.165866
1.000000 0.604547 0.153811
0.000000 0.675074 0.362615
0.000000 0.674311 0.362127
0.222202 0.672023 0.361242
0.436530 0.698024 0.330236
0.688991 0.748989 0.209537
0.900877 0.771450 0.000000
1.000000 0.753872 0.223362
1.000000 0.738918 0.335668
0.169711 0.762966 0.459754
0.209598 0.762661 0.459846
0.313817 0.761288 0.459998
0.435218 0.759030 0.460609
0.588769 0.793637 0.418982
0.774258 0.828367 0.334478
0.960021 0.845914 0.136629
1.000000 0.822599 0.294224
0.379644 0.836759 0.564660
0.389593 0.836332 0.564324
0.428962 0.835355 0.564172
0.495186 0.834012 0.565240
0.578119 0.843687 0.555566
0.692988 0.868833 0.517144
0.838499 0.891295 0.446143
1.000000 0.904662 0.296971
0.539330 0.905608 0.674037
0.544335 0.905760 0.674678
0.562585 0.905608 0.675502
0.596918 0.905547 0.677546
0.644434 0.905364 0.680568
0.701259 0.919768 0.662318
0.786099 0.935668 0.628931
0.898772 0.948486 0.570275
0.000000 0.077913 0.389563
0.186893 0.033906 0.387976
0.396063 0.064332 0.376257
0.519127 0.156649 0.357275
0.728908 0.000000 0.336767
0.866484 0.000000 0.273106
0.979675 0.000000 0.255802
1.000000 0.231968 0.244511
0.000000 0.141085 0.401923
0.144564 0.146120 0.400610
0.398749 0.187472 0.388251
0.531121 0.216190 0.366613
0.732784 0.064973 0.329717
0.871458 0.000000 0.273655
0.981567 0.177188 0.260502
1.000000 0.283543 0.248051
0.000000 0.362249 0.378668
0.000000 0.371313 0.384955
0.324468 0.401404 0.403967
0.588037 0.387274 0.374578
0.777310 0.380163 0.344305
0.901976 0.388891 0.315312
0.990692 0.407752 0.291905
1.000000 0.430793 0.274357
0.000000 0.548882 0.428412
0.128450 0.554345 0.432288
0.278904 0.567895 0.414038
0.540581 0.619104 0.374182
0.807279 0.656672 0.387366
0.921416 0.646662 0.420935
0.996796 0.614038 0.379767
1.000000 0.593042 0.347448
0.188235 0.682002 0.488991
0.193210 0.682429 0.479744
0.275303 0.682643 0.457710
0.445502 0.689082 0.450629
0.682216 0.745144 0.391455
0.890745 0.765133 0.347204
0.986419 0.754757 0.450111
1.000000 0.736233 0.474189
0.255558 0.766140 0.525505
0.264561 0.766445 0.521416
0.346227 0.765042 0.520989
0.453681 0.762600 0.520195
0.587030 0.788174 0.499336
0.768551 0.825437 0.446052
0.951629 0.842527 0.369848
1.000000 0.823270 0.453529
0.405737 0.838193 0.600336
0.414221 0.837858 0.599969
0.449012 0.836728 0.599237
0.509178 0.835264 0.599268
0.585443 0.839078 0.596185
0.693507 0.866361 0.568017
0.836667 0.890684 0.516381
0.999145 0.903593 0.416419
0.549248 0.905852 0.690791
0.553063 0.905730 0.690639
0.570459 0.905547 0.691249
0.604273 0.905760 0.693568
0.650294 0.905608 0.695979
0.706233 0.917906 0.684565
0.788388 0.934813 0.656672
0.899016 0.948302 0.608301
0.000000 0.000000 0.602594
0.202396 0.000000 0.604395
0.448768 0.000000 0.606043
0.628626 0.093568 0.594415
0.685298 0.204105 0.536553
0.811398 0.215183 0.532067
0.927733 0.124300 0.488502
1.000000 0.000000 0.424659
0.000000 0.094575 0.606165
0.191958 0.089876 0.606867
0.435523 0.095705 0.608270
0.627131 0.202182 0.598108
0.684962 0.258976 0.541772
0.812955 0.250187 0.531487
0.927245 0.177493 0.483528
1.000000 0.000000 0.415473
0.000000 0.280552 0.596826
0.000000 0.274327 0.601038
0.323156 0.315740 0.608118
0.606165 0.394812 0.603388
0.677394 0.410132 0.560052
0.818784 0.359472 0.526116
0.928832 0.302617 0.462165
1.000000 0.304967 0.414191
0.000000 0.531701 0.564599
0.000000 0.535943 0.567498
0.172610 0.553857 0.579736
0.509483 0.583368 0.601007
0.704433 0.565118 0.568811
0.837278 0.555505 0.543297
0.940185 0.550072 0.516197
1.000000 0.548028 0.488899
0.238285 0.673945 0.593652
0.276524 0.675868 0.595392
0.390692 0.684474 0.603143
0.503349 0.697841 0.600793
0.666835 0.733181 0.583490
0.859648 0.755459 0.605097
0.952453 0.756954 0.643549
1.000000 0.724544 0.601099
0.412451 0.765621 0.638148
0.428626 0.767208 0.640131
0.478187 0.770382 0.642329
0.501640 0.771786 0.617365
0.598138 0.777676 0.612665
0.761074 0.820462 0.589441
0.934722 0.837339 0.571954
1.000000 0.829068 0.631769
0.498207 0.837858 0.676234
0.498939 0.838132 0.673823
0.502037 0.839139 0.663478
0.538720 0.839048 0.656550
0.605402 0.837522 0.656031
0.697475 0.861387 0.643061
0.834501 0.888823 0.614160
0.990753 0.900969 0.565148
0.576715 0.906676 0.725277
0.577295 0.906859 0.723842
0.587457 0.907042 0.721401
0.617945 0.906889 0.722377
0.661311 0.906706 0.723873
0.714992 0.913603 0.720668
0.792721 0.932708 0.701045
0.900328 0.947875 0.667536
0.230564 0.000000 0.745846
0.316686 0.000000 0.746792
0.497139 0.000000 0.747524
0.673915 0.000000 0.747127
0.787594 0.222873 0.734279
0.802976 0.284031 0.672297
0.867094 0.369085 0.664302
0.976196 0.332799 0.645808
0.265080 0.000000 0.745449
0.321935 0.000000 0.746120
0.482033 0.000000 0.746548
0.665644 0.086213 0.746120
0.783688 0.275700 0.734401
0.800809 0.319615 0.673793
0.864103 0.391394 0.665156
0.975830 0.347265 0.643793
0.000000 0.233768 0.738003
0.000000 0.236881 0.738460
0.390692 0.252934 0.739834
0.624872 0.315282 0.740810
0.764248 0.418952 0.733272
0.788052 0.431403 0.677455
0.864012 0.448463 0.664485
0.974090 0.397589 0.633692
0.000000 0.450660 0.712886
0.000000 0.449592 0.714199
0.000000 0.444862 0.720974
0.503563 0.498329 0.730404
0.726284 0.585626 0.731624
0.764279 0.577050 0.688472
0.866423 0.535302 0.659388
0.975616 0.472847 0.606500
0.000000 0.653346 0.685573
0.000000 0.655360 0.686976
0.111940 0.663081 0.692683
0.444404 0.678950 0.703456
0.643824 0.702541 0.719448
0.771817 0.684108 0.692531
0.883696 0.672084 0.672297
0.982544 0.660670 0.649470
0.396124 0.753384 0.697932
0.411902 0.754391 0.698970
0.468727 0.758175 0.702571
0.556268 0.766201 0.710018
0.641779 0.777981 0.713405
0.752438 0.807645 0.707179
0.910979 0.830777 0.725856
0.987762 0.838651 0.760678
0.513542 0.832181 0.728939
0.520775 0.832456 0.729152
0.550347 0.834226 0.730587
0.608698 0.838621 0.736721
0.632929 0.841398 0.719722
0.704036 0.848814 0.716762
0.832944 0.883818 0.705684
0.977447 0.896483 0.695430
0.623957 0.903136 0.775937
0.629145 0.903319 0.776669
0.640833 0.904112 0.775479
0.645777 0.906401 0.765316
0.672877 0.907561 0.758968
0.725002 0.907744 0.760586
0.796445 0.927794 0.750698
0.902159 0.945983 0.730770
0.373266 0.000000 0.837766
0.417670 0.000000 0.838071
0.550652 0.000000 0.838071
0.681086 0.000000 0.835752
0.805081 0.197513 0.832029
0.881407 0.351476 0.819150
0.886870 0.376410 0.764981
0.940826 0.458259 0.756008
0.406989 0.000000 0.836088
0.435737 0.000000 0.835843
0.536339 0.000000 0.834867
0.671717 0.000000 0.833249
0.798581 0.244297 0.829984
0.876524 0.377844 0.817563
0.883391 0.397314 0.764309
0.937804 0.470375 0.755337
0.290410 0.181064 0.829099
0.336706 0.182864 0.829068
0.473030 0.197177 0.828855
0.635126 0.254093 0.827817
0.774533 0.371283 0.825681
0.860533 0.473671 0.815549
0.873381 0.476997 0.765957
0.928771 0.522728 0.756619
0.000000 0.329717 0.816373
0.000000 0.332555 0.816892
0.222507 0.391516 0.817319
0.539696 0.436744 0.818692
0.725002 0.516930 0.818784
0.833585 0.600824 0.813535
0.855650 0.589471 0.770535
0.913848 0.601770 0.760555
0.000000 0.586481 0.788052
0.000000 0.586236 0.788540
0.000000 0.584863 0.790921
0.095155 0.580316 0.796201
0.626246 0.636378 0.804623
0.801205 0.709285 0.809659
0.833036 0.688746 0.774166
0.923827 0.648249 0.749111
0.000000 0.735500 0.766354
0.000000 0.736629 0.767239
0.221317 0.740108 0.769619
0.424689 0.747799 0.774441
0.589685 0.761929 0.782895
0.739803 0.785061 0.798245
0.844236 0.767636 0.774411
0.945892 0.757534 0.759182
0.499245 0.824308 0.779904
0.507530 0.824979 0.780484
0.538933 0.827146 0.782040
0.594934 0.831662 0.785458
0.668421 0.839414 0.791501
0.739162 0.849851 0.794430
0.833951 0.876555 0.793515
0.963561 0.895171 0.811551
0.603388 0.898680 0.809842
0.607446 0.898802 0.809842
0.625391 0.899901 0.810575
0.660731 0.902556 0.812711
0.716060 0.906645 0.818784
0.742977 0.910246 0.807523
0.804013 0.919097 0.807706
0.906645 0.943847 0.801785
0.452430 0.000000 0.910155
0.481025 0.000000 0.910369
0.574670 0.000000 0.909697
0.697108 0.000000 0.908354
0.798917 0.139010 0.903288
0.889189 0.362402 0.895872
0.947051 0.462074 0.882750
0.954925 0.466316 0.837827
0.484260 0.000000 0.908843
0.508690 0.000000 0.909178
0.591516 0.000000 0.908507
0.688869 0.000000 0.905669
0.792416 0.188510 0.900755
0.883818 0.379156 0.893431
0.942535 0.473487 0.880400
0.950408 0.474403 0.835172
0.447456 0.095155 0.905364
0.469306 0.100740 0.905058
0.547326 0.129946 0.903593
0.658412 0.203525 0.901030
0.770779 0.315679 0.896574
0.867796 0.452583 0.890318
0.931670 0.535180 0.879240
0.942168 0.528252 0.835355
0.212467 0.323522 0.896666
0.271122 0.326421 0.896300
0.420722 0.341131 0.895109
0.583642 0.380011 0.893431
0.724849 0.452369 0.890257
0.838987 0.554040 0.885893
0.913603 0.623041 0.877592
0.930205 0.608545 0.837705
0.000000 0.475471 0.877989
0.000000 0.472847 0.878111
0.000000 0.464240 0.879759
0.329015 0.498238 0.880949
0.632013 0.568292 0.879393
0.794461 0.643915 0.878050
0.891020 0.707332 0.874449
0.915862 0.690059 0.840146
0.000000 0.681056 0.854429
0.000000 0.680659 0.854643
0.000000 0.678523 0.855711
0.000000 0.673701 0.857969
0.355108 0.666041 0.861784
0.716457 0.726040 0.868986
0.871031 0.792874 0.875517
0.901061 0.770443 0.844785
0.000000 0.804105 0.836728
0.016632 0.804715 0.837095
0.258640 0.806394 0.837949
0.409430 0.810452 0.840085
0.553338 0.818265 0.843717
0.691585 0.832670 0.851041
0.823270 0.856321 0.866514
0.916136 0.841123 0.846189
0.565362 0.893400 0.853971
0.572473 0.893553 0.854276
0.602075 0.894316 0.855680
0.645533 0.896391 0.857664
0.698970 0.900877 0.860563
0.765743 0.907897 0.865873
0.828458 0.917327 0.868925
0.912413 0.940368 0.874571
0.495674 0.000000 0.971801
0.515282 0.000000 0.971679
0.584497 0.000000 0.970306
0.685389 0.000000 0.968078
0.790890 0.186679 0.964202
0.880064 0.338476 0.957244
0.952178 0.494423 0.947021
1.000000 0.558618 0.935943
0.510002 0.000000 0.971069
0.528374 0.000000 0.970947
0.593713 0.000000 0.969757
0.690608 0.000000 0.967529
0.793637 0.188479 0.963653
0.876341 0.353796 0.956085
0.949218 0.502861 0.945922
0.998260 0.565087 0.934813
0.546319 0.000000 0.970825
0.559655 0.000000 0.970520
0.609094 0.000000 0.968841
0.688350 0.170596 0.966278
0.777127 0.287694 0.961028
0.862394 0.413703 0.953368
0.939269 0.542382 0.943847
0.991089 0.598108 0.933379
0.435065 0.266117 0.965820
0.455634 0.270207 0.965576
0.527092 0.288548 0.964080
0.630091 0.331731 0.961334
0.737179 0.403937 0.956573
0.835508 0.499825 0.949615
0.922301 0.603418 0.941161
0.979431 0.652827 0.931853
0.000000 0.365820 0.960266
0.000000 0.374609 0.960021
0.201053 0.411200 0.958221
0.485664 0.452674 0.955352
0.657374 0.507012 0.950835
0.791073 0.583337 0.944640
0.898161 0.666987 0.937865
0.964996 0.715480 0.930236
0.000000 0.585199 0.942931
0.000000 0.582391 0.942992
0.000000 0.570184 0.943542
0.000000 0.552239 0.945220
0.400458 0.575463 0.944945
0.710658 0.663569 0.939483
0.865415 0.736538 0.935515
0.949889 0.788846 0.930968
0.000000 0.759182 0.923949
0.000000 0.758663 0.923980
0.000000 0.756435 0.924193
0.000000 0.752468 0.925048
0.131655 0.746761 0.926482
0.482338 0.740139 0.928893
0.801572 0.803983 0.930449
0.934630 0.865476 0.933532
0.252628 0.876829 0.909545
0.271336 0.876951 0.909545
0.337865 0.877958 0.909758
0.437507 0.880583 0.910521
0.549828 0.885161 0.911803
0.668605 0.892821 0.914092
0.793698 0.905882 0.919646
0.909911 0.928222 0.934020
