20 Preset/Japan Style/【3】LUT video cho PR-AE-FCPX/LUT VIDEO/Japan Style LUT (25).cube
# Created by Adobe Lightroom plugin Export LUT (1.24.0)
# www.johnrellis.com/lightroom/exportlut.htm
# Preset: 25日系绿色低饱和（素材江湖）
# Color profile: C:\Program Files (x86)\Common Files\Adobe\Color\Profiles\Recommended\VideoHD.icc
LUT_3D_SIZE 5
DOMAIN_MIN 0.000000 0.000000 0.000000
DOMAIN_MAX 0.903226 0.903226 0.903226
0.040009 0.078370 0.088746
0.146273 0.091585 0.099306
0.358556 0.040040 0.115908
0.684016 0.000000 0.131167
0.946960 0.000000 0.155612
0.023163 0.142031 0.139010
0.098390 0.160739 0.135470
0.368841 0.167575 0.154665
0.696162 0.131411 0.163180
0.951934 0.209720 0.189578
0.000000 0.297948 0.243839
0.100069 0.301976 0.253941
0.257633 0.388159 0.233585
0.734096 0.471107 0.333959
0.946075 0.499855 0.353887
0.000000 0.521904 0.388891
0.000000 0.522301 0.394568
0.316320 0.501610 0.398840
0.526757 0.661433 0.393866
0.907408 0.777218 0.660151
0.351720 0.781033 0.634699
0.395544 0.779049 0.637659
0.510735 0.763973 0.640833
0.529870 0.703029 0.574273
0.781552 0.877867 0.691218
0.043854 0.079438 0.144137
0.132967 0.092348 0.140627
0.344671 0.007263 0.148196
0.652705 0.000000 0.172244
0.928466 0.000000 0.191745
0.000000 0.155764 0.172885
0.126101 0.164279 0.182559
0.359106 0.163760 0.188144
0.670130 0.119417 0.198611
0.933745 0.179385 0.219211
0.000000 0.315251 0.264714
0.096254 0.320592 0.273747
0.285344 0.387304 0.270878
0.715541 0.454627 0.348241
0.939239 0.491676 0.371344
0.000000 0.538689 0.408728
0.000000 0.539666 0.414466
0.363409 0.533593 0.435126
0.544762 0.664057 0.426184
0.903655 0.778714 0.683314
0.351812 0.786587 0.644129
0.396216 0.784451 0.646754
0.522789 0.775662 0.657496
0.556146 0.719112 0.599359
0.788418 0.880278 0.706142
0.000000 0.087526 0.271489
0.165255 0.081636 0.274083
0.327642 0.057313 0.256748
0.621210 0.000000 0.267002
0.915892 0.000000 0.248051
0.000000 0.151766 0.311192
0.139620 0.157565 0.311315
0.350500 0.153384 0.287816
0.638483 0.000000 0.286168
0.919585 0.000000 0.277440
0.000000 0.366796 0.369512
0.000000 0.376532 0.377905
0.396063 0.408698 0.412879
0.689082 0.391089 0.391760
0.927489 0.429206 0.406195
0.000000 0.602289 0.489815
0.000000 0.601862 0.493507
0.413062 0.604883 0.516411
0.610529 0.678218 0.540826
0.898436 0.765988 0.699733
0.306828 0.806943 0.675959
0.367895 0.805753 0.679622
0.521569 0.799191 0.691890
0.634272 0.766659 0.679683
0.801114 0.879576 0.740322
0.000000 0.027985 0.482887
0.217624 0.000000 0.484291
0.488869 0.000000 0.485634
0.626581 0.000000 0.426246
0.884337 0.000000 0.437079
0.000000 0.143404 0.511864
0.180667 0.132601 0.511498
0.492103 0.000000 0.510124
0.640162 0.000000 0.446448
0.888365 0.000000 0.447791
0.000000 0.376501 0.572778
0.000000 0.373175 0.579309
0.424506 0.371160 0.589166
0.677760 0.360021 0.531426
0.908415 0.295933 0.499367
0.000000 0.644617 0.633051
0.000000 0.647425 0.636469
0.318914 0.662837 0.655573
0.694911 0.697566 0.699428
0.904875 0.671443 0.657496
0.125246 0.846250 0.753994
0.272526 0.846464 0.756313
0.499458 0.846769 0.765896
0.690089 0.834287 0.778164
0.833066 0.884764 0.806912
0.264775 0.000000 0.774441
0.372625 0.000000 0.773648
0.629450 0.000000 0.772000
0.862516 0.000000 0.761318
0.940398 0.000000 0.660761
0.167453 0.000000 0.782834
0.322423 0.000000 0.782223
0.611414 0.000000 0.779873
0.862242 0.000000 0.770138
0.940215 0.000000 0.668574
0.000000 0.291142 0.814511
0.000000 0.283360 0.814084
0.490211 0.301915 0.809598
0.835904 0.275822 0.801572
0.938781 0.276036 0.705806
0.000000 0.656367 0.836271
0.000000 0.652125 0.837003
0.000000 0.634363 0.842527
0.689937 0.637690 0.844358
0.913603 0.622339 0.786160
0.000000 0.872496 0.870146
0.000000 0.872282 0.870665
0.224277 0.873045 0.874327
0.633936 0.877134 0.882597
0.895506 0.900664 0.908965
