20 Preset/Japan Style/【3】LUT video cho PR-AE-FCPX/LUT VIDEO/Japan Style LUT (28).cube
# Created by Adobe Lightroom plugin Export LUT (1.24.0)
# www.johnrellis.com/lightroom/exportlut.htm
# Preset: 28日系室内柔和朦胧（素材江湖）
# Color profile: C:\Program Files (x86)\Common Files\Adobe\Color\Profiles\Recommended\VideoHD.icc
LUT_3D_SIZE 5
DOMAIN_MIN 0.000000 0.000000 0.000000
DOMAIN_MAX 0.903226 0.903226 0.903226
0.126406 0.126406 0.126406
0.344579 0.131594 0.129366
0.629877 0.154696 0.146212
0.903563 0.207370 0.193759
1.000000 0.278843 0.265049
0.127840 0.327916 0.127321
0.332799 0.332647 0.129732
0.639857 0.357519 0.191836
0.908202 0.368597 0.233829
1.000000 0.388281 0.296056
0.164218 0.570855 0.164492
0.308751 0.568963 0.164736
0.602899 0.602869 0.176486
0.898863 0.638056 0.311559
1.000000 0.634821 0.411688
0.203281 0.785611 0.203128
0.310399 0.784878 0.203861
0.543236 0.791196 0.216617
0.814603 0.814603 0.263706
1.000000 0.818051 0.418555
0.264225 0.964843 0.264317
0.335363 0.964355 0.264744
0.516381 0.960540 0.262425
0.743038 0.964721 0.311162
0.966583 0.966583 0.383368
0.125673 0.124880 0.325719
0.325811 0.129000 0.325811
0.590753 0.173556 0.321599
0.866636 0.229496 0.343877
1.000000 0.310033 0.378485
0.147311 0.323156 0.323095
0.320928 0.320928 0.320928
0.596338 0.342321 0.340429
0.874540 0.369635 0.364630
1.000000 0.405768 0.398627
0.166018 0.567102 0.308446
0.307897 0.565972 0.307927
0.590875 0.590967 0.321996
0.883482 0.641627 0.433967
1.000000 0.644831 0.493202
0.213413 0.784298 0.315435
0.315587 0.783780 0.315679
0.542504 0.787167 0.323217
0.812100 0.812039 0.366796
1.000000 0.823636 0.506981
0.281071 0.964050 0.346868
0.347051 0.963500 0.347021
0.524224 0.961761 0.348852
0.746578 0.964599 0.387213
0.966918 0.966918 0.455360
0.140017 0.139559 0.568170
0.303288 0.148318 0.568200
0.567102 0.164858 0.567071
0.810605 0.195071 0.552270
1.000000 0.298192 0.559472
0.168215 0.309941 0.568139
0.309545 0.309575 0.567498
0.565972 0.307836 0.566033
0.811124 0.323278 0.555779
1.000000 0.397559 0.571710
0.152224 0.562829 0.562829
0.298741 0.562097 0.562066
0.557488 0.557488 0.557488
0.814847 0.604211 0.603052
1.000000 0.647150 0.644770
0.257725 0.779690 0.543969
0.347356 0.777920 0.545525
0.546990 0.775814 0.546990
0.801511 0.801541 0.589563
1.000000 0.847074 0.714382
0.344030 0.959991 0.546319
0.394903 0.959747 0.546685
0.547539 0.958404 0.547478
0.752438 0.959014 0.566400
0.964385 0.964385 0.625818
0.168002 0.168032 0.784604
0.296269 0.173861 0.784512
0.533654 0.188937 0.783078
0.780484 0.202090 0.780484
0.998444 0.245121 0.759396
0.196048 0.306188 0.782986
0.306859 0.306828 0.782498
0.534295 0.308904 0.780911
0.778134 0.312627 0.778134
0.993256 0.338140 0.757412
0.224002 0.534539 0.775357
0.322698 0.534936 0.774105
0.538659 0.538628 0.772488
0.768582 0.539178 0.768582
0.976318 0.553002 0.756435
0.285679 0.770077 0.770077
0.361425 0.769406 0.769436
0.550988 0.768276 0.768276
0.764858 0.764858 0.764858
0.975433 0.820371 0.819577
0.377935 0.957000 0.748836
0.426276 0.956542 0.749660
0.574517 0.954742 0.753536
0.755856 0.951843 0.755856
0.961547 0.961578 0.802853
0.192264 0.192721 0.957885
0.290929 0.195773 0.957366
0.499550 0.207736 0.956695
0.725093 0.223575 0.954803
0.952422 0.242863 0.952453
0.213718 0.300603 0.955047
0.301488 0.301518 0.954772
0.501854 0.305669 0.954009
0.724147 0.312413 0.952117
0.950134 0.323888 0.950134
0.267857 0.513481 0.950317
0.334661 0.513024 0.949645
0.513634 0.513573 0.948425
0.724941 0.514977 0.946227
0.946014 0.522393 0.946044
0.309300 0.728664 0.945220
0.366949 0.728573 0.944518
0.534417 0.730983 0.943450
0.736355 0.736355 0.943114
0.944945 0.743404 0.944976
0.378241 0.942657 0.942687
0.423346 0.942412 0.942443
0.568963 0.942596 0.942626
0.754818 0.941955 0.941985
0.940002 0.940002 0.940002
