20 Preset/Japan Style/【3】LUT video cho PR-AE-FCPX/LUT VIDEO/Japan Style LUT (3).cube
# Created by Adobe Lightroom plugin Export LUT (1.24.0)
# www.johnrellis.com/lightroom/exportlut.htm
# Preset: 03日系基础色（素材江湖）
# Color profile: C:\Program Files (x86)\Common Files\Adobe\Color\Profiles\Recommended\VideoHD.icc
LUT_3D_SIZE 32
DOMAIN_MIN 0.0 0.0 0.0
DOMAIN_MAX 1.0 1.0 1.0
0.000000 0.000000 0.000000
0.016022 0.003784 0.000305
0.098909 0.017121 0.006531
0.158511 0.052186 0.019257
0.219821 0.096193 0.038849
0.284764 0.120363 0.068757
0.346014 0.145327 0.092195
0.400793 0.166537 0.105409
0.459541 0.186435 0.114412
0.520500 0.206363 0.123476
0.578973 0.224857 0.130465
0.635462 0.243168 0.136995
0.694240 0.261112 0.144717
0.755734 0.279606 0.150820
0.813443 0.297612 0.157900
0.864439 0.315190 0.168673
0.910002 0.332647 0.180941
0.948211 0.348974 0.194949
0.981598 0.363745 0.210147
1.000000 0.377752 0.224491
1.000000 0.390478 0.238407
1.000000 0.402319 0.252049
1.000000 0.413825 0.265904
1.000000 0.425330 0.280858
1.000000 0.437018 0.296849
1.000000 0.449378 0.314580
1.000000 0.462013 0.332647
1.000000 0.475196 0.352148
1.000000 0.488502 0.371221
1.000000 0.502190 0.390906
1.000000 0.515496 0.409888
1.000000 0.528710 0.428382
0.000000 0.023682 0.002472
0.019226 0.022431 0.000000
0.101137 0.042084 0.005280
0.160464 0.078614 0.017670
0.222049 0.105196 0.041444
0.287724 0.129488 0.067323
0.349157 0.151736 0.091768
0.404791 0.172183 0.105806
0.465034 0.192050 0.115450
0.526818 0.211490 0.122744
0.585107 0.230259 0.130190
0.642390 0.247868 0.138155
0.702113 0.266117 0.143954
0.763760 0.284306 0.150484
0.820432 0.301946 0.158999
0.870878 0.319249 0.169131
0.915404 0.336400 0.182406
0.952972 0.352239 0.197238
0.985901 0.366918 0.211978
1.000000 0.380682 0.226566
1.000000 0.393256 0.240879
1.000000 0.405035 0.254246
1.000000 0.416571 0.268193
1.000000 0.428016 0.282994
1.000000 0.439948 0.299962
1.000000 0.452186 0.317479
1.000000 0.464851 0.336095
1.000000 0.478035 0.355261
1.000000 0.491249 0.374395
1.000000 0.504784 0.393927
1.000000 0.518059 0.412696
1.000000 0.531243 0.431250
0.000000 0.103212 0.026795
0.008850 0.103670 0.029450
0.100618 0.108797 0.014649
0.161196 0.121920 0.010590
0.223880 0.137179 0.030457
0.289982 0.156741 0.059266
0.351202 0.174533 0.088289
0.407568 0.191257 0.101503
0.468452 0.209201 0.111666
0.530449 0.226719 0.119387
0.589197 0.243748 0.127535
0.647089 0.260044 0.136049
0.707362 0.277348 0.141695
0.769131 0.294987 0.149142
0.825467 0.311864 0.157504
0.875334 0.328466 0.168856
0.919219 0.344488 0.183017
0.956237 0.359442 0.197879
0.988708 0.373571 0.212375
1.000000 0.386511 0.226993
1.000000 0.398505 0.241306
1.000000 0.409857 0.254826
1.000000 0.420844 0.269230
1.000000 0.432044 0.284398
1.000000 0.443702 0.301091
1.000000 0.455665 0.318914
1.000000 0.468177 0.337438
1.000000 0.481239 0.356878
1.000000 0.494331 0.376257
1.000000 0.507591 0.395422
1.000000 0.520623 0.414405
1.000000 0.533532 0.432654
0.000000 0.162661 0.079103
0.000000 0.163516 0.077394
0.091035 0.166049 0.064759
0.159579 0.171786 0.036103
0.224216 0.183413 0.013458
0.291630 0.198215 0.031586
0.351476 0.210483 0.069368
0.408515 0.223117 0.092683
0.470893 0.237797 0.104524
0.533104 0.253056 0.113313
0.592340 0.267430 0.121736
0.650507 0.281987 0.129580
0.712245 0.297948 0.136751
0.774075 0.314397 0.143832
0.830167 0.329534 0.153719
0.880003 0.344732 0.166720
0.923491 0.359564 0.181064
0.960388 0.373327 0.197208
0.992767 0.386084 0.213382
1.000000 0.397894 0.227848
1.000000 0.408820 0.242557
1.000000 0.419348 0.256779
1.000000 0.429450 0.271031
1.000000 0.439796 0.286198
1.000000 0.450507 0.302586
1.000000 0.461769 0.320470
1.000000 0.473518 0.338689
1.000000 0.485756 0.357733
1.000000 0.498329 0.376989
1.000000 0.511131 0.396155
1.000000 0.524010 0.415167
1.000000 0.536828 0.433661
0.000000 0.219974 0.116243
0.000000 0.220066 0.115145
0.062654 0.221195 0.110872
0.150515 0.225834 0.100252
0.219883 0.234989 0.080201
0.291569 0.248020 0.024292
0.352392 0.256168 0.036164
0.413031 0.265782 0.069429
0.476753 0.277989 0.089265
0.539239 0.290501 0.099306
0.598291 0.301671 0.110201
0.657923 0.314336 0.119692
0.720027 0.327977 0.127474
0.781430 0.342138 0.136751
0.835904 0.355596 0.146883
0.884184 0.368811 0.160739
0.926390 0.380560 0.177676
0.962402 0.392096 0.193912
0.994202 0.402777 0.210697
1.000000 0.412970 0.226078
1.000000 0.422461 0.241245
1.000000 0.431464 0.255589
1.000000 0.440406 0.270542
1.000000 0.449561 0.286229
1.000000 0.459297 0.302617
1.000000 0.469825 0.320500
1.000000 0.480812 0.339178
1.000000 0.492348 0.358404
1.000000 0.504417 0.377844
1.000000 0.516686 0.397040
1.000000 0.529107 0.416022
1.000000 0.541650 0.434852
0.000000 0.271397 0.141665
0.000000 0.271611 0.141268
0.000000 0.272251 0.138888
0.134249 0.275731 0.131899
0.208042 0.282414 0.121096
0.279210 0.292851 0.104952
0.346685 0.301915 0.080690
0.411139 0.310735 0.021759
0.476844 0.321721 0.036164
0.539879 0.331762 0.062287
0.599145 0.340673 0.090700
0.659297 0.351354 0.101259
0.721950 0.363287 0.111849
0.782345 0.375463 0.121462
0.836179 0.386389 0.134920
0.884123 0.396582 0.152285
0.925139 0.405982 0.169986
0.960998 0.414893 0.187869
0.992645 0.423438 0.205722
1.000000 0.431434 0.222660
1.000000 0.439063 0.237766
1.000000 0.446479 0.253117
1.000000 0.443793 0.254429
1.000000 0.451850 0.269932
1.000000 0.460334 0.286717
1.000000 0.469703 0.305089
1.000000 0.479500 0.323888
1.000000 0.490364 0.343542
1.000000 0.501732 0.363653
1.000000 0.513634 0.383764
1.000000 0.525994 0.404059
1.000000 0.538689 0.424292
0.000000 0.307988 0.161318
0.000000 0.308263 0.160372
0.000000 0.308721 0.159457
0.109346 0.310002 0.155215
0.184756 0.314885 0.149538
0.252598 0.321355 0.140352
0.320073 0.331945 0.128939
0.390570 0.344884 0.110201
0.456123 0.354986 0.087922
0.520104 0.364935 0.022339
0.580499 0.373358 0.022278
0.638819 0.382055 0.051362
0.700710 0.392645 0.084169
0.762295 0.403906 0.097841
0.818173 0.413764 0.114351
0.867918 0.422339 0.133394
0.911162 0.430213 0.154299
0.948760 0.437049 0.175082
0.981323 0.443671 0.194369
1.000000 0.449470 0.211887
1.000000 0.454841 0.227787
1.000000 0.459815 0.242893
1.000000 0.464973 0.257359
1.000000 0.470588 0.272648
1.000000 0.477028 0.289006
1.000000 0.484749 0.306950
1.000000 0.493355 0.325994
1.000000 0.503014 0.346044
1.000000 0.513573 0.366461
1.000000 0.524743 0.386969
1.000000 0.536248 0.407294
1.000000 0.548119 0.427314
0.000000 0.349615 0.186130
0.000000 0.349706 0.186648
0.000000 0.350011 0.184360
0.084565 0.350958 0.181521
0.170565 0.353735 0.177859
0.239506 0.360296 0.172244
0.304692 0.368841 0.164553
0.376623 0.383398 0.154116
0.451881 0.399481 0.138247
0.516045 0.407660 0.123537
0.578088 0.415564 0.104341
0.641016 0.424994 0.065858
0.706691 0.436561 0.000000
0.767361 0.445838 0.022065
0.822416 0.453376 0.082795
0.870848 0.459297 0.114290
0.913298 0.464607 0.142245
0.950500 0.468971 0.165499
0.982910 0.472969 0.187350
1.000000 0.476631 0.206485
1.000000 0.479866 0.224002
1.000000 0.482856 0.239933
1.000000 0.486183 0.255833
1.000000 0.490150 0.271855
1.000000 0.495338 0.289464
1.000000 0.501427 0.307561
1.000000 0.508904 0.327245
1.000000 0.517388 0.347814
1.000000 0.526696 0.368261
1.000000 0.537011 0.389410
1.000000 0.547478 0.409644
1.000000 0.558526 0.429816
0.000000 0.391333 0.212985
0.000000 0.391577 0.212345
0.000000 0.391882 0.211368
0.029694 0.392889 0.209079
0.159304 0.394324 0.205783
0.230106 0.400702 0.201877
0.295567 0.409277 0.196719
0.362860 0.420081 0.188754
0.437781 0.437049 0.178408
0.510430 0.450507 0.167300
0.573327 0.457343 0.156100
0.637568 0.466133 0.140902
0.704280 0.476783 0.120912
0.767300 0.485939 0.091859
0.822568 0.492866 0.027558
0.870909 0.497200 0.079133
0.912871 0.500023 0.122072
0.949645 0.502251 0.153384
0.981964 0.503929 0.178164
1.000000 0.505272 0.199527
1.000000 0.506554 0.218357
1.000000 0.507713 0.235477
1.000000 0.509300 0.252689
1.000000 0.511742 0.270207
1.000000 0.515221 0.288548
1.000000 0.520012 0.307408
1.000000 0.526055 0.327794
1.000000 0.533288 0.348669
1.000000 0.541527 0.369909
1.000000 0.550439 0.390967
1.000000 0.559930 0.411383
1.000000 0.570001 0.431800
0.000000 0.436225 0.239658
0.000000 0.436316 0.239139
0.000000 0.436927 0.238437
0.000000 0.437903 0.236698
0.150118 0.439582 0.234165
0.222751 0.443488 0.230564
0.290135 0.452094 0.227298
0.356359 0.462440 0.222416
0.424903 0.473426 0.215579
0.498787 0.489235 0.208774
0.571130 0.502129 0.198734
0.637293 0.510735 0.188174
0.703731 0.520134 0.175448
0.764736 0.527123 0.161624
0.819883 0.531914 0.147158
0.869139 0.534966 0.130556
0.911101 0.536431 0.116243
0.947448 0.536461 0.134646
0.979339 0.535882 0.164462
1.000000 0.535271 0.189273
1.000000 0.534600 0.210666
1.000000 0.534112 0.229740
1.000000 0.534417 0.249149
1.000000 0.535576 0.268223
1.000000 0.537865 0.288304
1.000000 0.541344 0.308751
1.000000 0.545983 0.329564
1.000000 0.551781 0.350958
1.000000 0.558587 0.372381
1.000000 0.566094 0.393225
1.000000 0.574182 0.413703
1.000000 0.582940 0.433814
0.000000 0.484016 0.264530
0.000000 0.484169 0.264347
0.000000 0.484504 0.263951
0.000000 0.484932 0.262181
0.144076 0.485847 0.260136
0.218082 0.487037 0.256626
0.285039 0.493446 0.254246
0.350195 0.501854 0.251072
0.416175 0.511589 0.246464
0.483803 0.522667 0.239963
0.559197 0.538994 0.234195
0.633234 0.553399 0.223453
0.699245 0.561517 0.214115
0.759548 0.566918 0.204410
0.813962 0.570214 0.194644
0.862760 0.571923 0.185214
0.905791 0.571893 0.175875
0.943694 0.570855 0.167086
0.976623 0.569177 0.158663
1.000000 0.566796 0.177035
1.000000 0.564263 0.201480
1.000000 0.562127 0.223575
1.000000 0.560815 0.244541
1.000000 0.560388 0.265232
1.000000 0.561028 0.286351
1.000000 0.563134 0.308049
1.000000 0.566369 0.329808
1.000000 0.570703 0.351385
1.000000 0.576165 0.373388
1.000000 0.582452 0.394903
1.000000 0.589380 0.415412
1.000000 0.596979 0.435737
0.000000 0.525841 0.285313
0.000000 0.525902 0.285161
0.000000 0.526085 0.284428
0.000000 0.526360 0.283757
0.133150 0.526909 0.281559
0.212131 0.527581 0.278630
0.278080 0.530602 0.275303
0.342687 0.538384 0.272892
0.407599 0.547326 0.269718
0.473152 0.557519 0.265263
0.541588 0.569024 0.258396
0.619196 0.587579 0.252140
0.664424 0.580346 0.235630
0.726223 0.587213 0.227420
0.781979 0.591211 0.220554
0.832914 0.593530 0.213535
0.877928 0.594079 0.206394
0.918334 0.593317 0.199313
0.954192 0.591730 0.191745
0.985565 0.589441 0.184329
1.000000 0.586481 0.179324
1.000000 0.583520 0.204440
1.000000 0.581048 0.227176
1.000000 0.579675 0.250126
1.000000 0.579339 0.273442
1.000000 0.580133 0.296513
1.000000 0.582208 0.319646
1.000000 0.585657 0.343267
1.000000 0.590143 0.366369
1.000000 0.595544 0.389166
1.000000 0.601740 0.411017
1.000000 0.608545 0.432380
0.000000 0.555413 0.300206
0.000000 0.555657 0.300023
0.000000 0.556023 0.299748
0.000000 0.556939 0.298528
0.119753 0.557977 0.297551
0.202213 0.559258 0.294987
0.267277 0.560479 0.291997
0.331121 0.567010 0.289982
0.393774 0.575616 0.287755
0.457343 0.585077 0.284092
0.522667 0.595453 0.278202
0.589532 0.606500 0.271092
0.663966 0.623072 0.265232
0.727443 0.630671 0.257847
0.781643 0.632563 0.251469
0.830594 0.632654 0.247105
0.874968 0.631586 0.242069
0.914855 0.629328 0.237461
0.950530 0.626429 0.232670
0.982422 0.623041 0.227268
1.000000 0.618952 0.220951
1.000000 0.614649 0.215152
1.000000 0.610742 0.223117
1.000000 0.607843 0.248325
1.000000 0.605951 0.273167
1.000000 0.605432 0.297337
1.000000 0.606134 0.321477
1.000000 0.607965 0.345342
1.000000 0.610986 0.368750
1.000000 0.614954 0.391638
1.000000 0.619654 0.413397
1.000000 0.625299 0.435035
0.000000 0.596979 0.320348
0.000000 0.597284 0.320439
0.000000 0.598016 0.320134
0.000000 0.598871 0.319524
0.117250 0.600061 0.318181
0.200534 0.601434 0.316289
0.266575 0.602747 0.313176
0.327703 0.606043 0.309941
0.390936 0.614679 0.308019
0.454078 0.624109 0.305577
0.518578 0.634058 0.301671
0.583795 0.644129 0.296300
0.649958 0.654444 0.290105
0.719448 0.667445 0.288029
0.777005 0.671504 0.283177
0.826505 0.671199 0.279576
0.870146 0.668605 0.276555
0.909422 0.665309 0.274418
0.945006 0.661311 0.270542
0.976715 0.656703 0.266850
1.000000 0.651484 0.262455
1.000000 0.646174 0.256413
1.000000 0.640986 0.250248
1.000000 0.636011 0.245274
1.000000 0.632715 0.271580
1.000000 0.630762 0.296727
1.000000 0.630060 0.322210
1.000000 0.630610 0.346807
1.000000 0.632258 0.370611
1.000000 0.634913 0.393866
1.000000 0.638331 0.415930
1.000000 0.642725 0.437568
0.000000 0.638483 0.340581
0.000000 0.638636 0.340490
0.000000 0.639429 0.340398
0.000000 0.640223 0.339483
0.121920 0.641505 0.338384
0.203525 0.642908 0.336919
0.267582 0.644129 0.334142
0.327092 0.645106 0.330541
0.388373 0.651637 0.328557
0.450904 0.660151 0.326940
0.512566 0.668727 0.325017
0.575647 0.677455 0.321721
0.638514 0.686458 0.317296
0.702632 0.695796 0.312688
0.767514 0.706142 0.314244
0.819089 0.707210 0.312627
0.863859 0.704768 0.310613
0.902708 0.700618 0.309270
0.937926 0.695521 0.307195
0.969635 0.690028 0.304967
0.998108 0.683986 0.301305
1.000000 0.678035 0.297093
1.000000 0.672084 0.291447
1.000000 0.666194 0.284733
1.000000 0.660334 0.277317
1.000000 0.656611 0.296239
1.000000 0.654597 0.323003
1.000000 0.653773 0.348089
1.000000 0.653925 0.372168
1.000000 0.654994 0.394995
1.000000 0.657008 0.417121
1.000000 0.660090 0.439094
0.000000 0.678553 0.361975
0.000000 0.678553 0.361730
0.000000 0.678767 0.361425
0.000000 0.679194 0.360815
0.137850 0.679774 0.359655
0.210666 0.680262 0.357427
0.271824 0.680690 0.354772
0.328252 0.680903 0.351446
0.384436 0.682795 0.348241
0.444495 0.690059 0.347539
0.504326 0.697810 0.347143
0.564904 0.705989 0.345556
0.626093 0.714656 0.344060
0.688075 0.723690 0.341802
0.750027 0.732815 0.338689
0.809323 0.740627 0.344335
0.855863 0.739528 0.344305
0.896117 0.735500 0.343328
0.930877 0.729702 0.342229
0.962097 0.723201 0.340978
0.990478 0.716548 0.338537
1.000000 0.709834 0.335180
1.000000 0.703212 0.330755
1.000000 0.696559 0.324620
1.000000 0.689967 0.317876
1.000000 0.683314 0.308141
1.000000 0.679042 0.322576
1.000000 0.676875 0.348394
1.000000 0.675868 0.373205
1.000000 0.675837 0.396857
1.000000 0.676692 0.419409
1.000000 0.678706 0.441566
0.000000 0.714046 0.384009
0.000000 0.714015 0.383673
0.000000 0.714168 0.383642
0.094057 0.714351 0.382818
0.168490 0.714565 0.381567
0.226993 0.714870 0.379889
0.281285 0.714992 0.377569
0.334569 0.714870 0.374456
0.386114 0.714687 0.370397
0.441688 0.719600 0.369696
0.499458 0.726497 0.369726
0.557092 0.733822 0.369787
0.615412 0.741512 0.369299
0.673793 0.749294 0.368902
0.732631 0.757290 0.367834
0.791562 0.765316 0.366583
0.844907 0.770352 0.373724
0.886625 0.767361 0.374487
0.922789 0.762081 0.373999
0.953826 0.755032 0.373449
0.982238 0.747982 0.372045
1.000000 0.740749 0.369543
1.000000 0.733669 0.366094
1.000000 0.726619 0.361456
1.000000 0.719600 0.355383
1.000000 0.712551 0.348058
1.000000 0.705318 0.337682
1.000000 0.700526 0.349737
1.000000 0.698177 0.374334
1.000000 0.696925 0.398291
1.000000 0.696651 0.421302
1.000000 0.697658 0.444465
0.025513 0.744137 0.404334
0.042390 0.744015 0.403998
0.034363 0.733852 0.396246
0.126253 0.734005 0.395605
0.180911 0.734249 0.394476
0.232547 0.734493 0.393194
0.282109 0.734676 0.391485
0.331456 0.734768 0.388708
0.380102 0.734707 0.385443
0.430091 0.736080 0.382391
0.484749 0.742275 0.383185
0.539513 0.748959 0.383856
0.595087 0.756130 0.384527
0.651087 0.763607 0.385016
0.707240 0.771298 0.385534
0.763577 0.779110 0.385962
0.819883 0.786984 0.385992
0.869169 0.790768 0.394873
0.907591 0.787259 0.396765
0.941253 0.781765 0.396948
0.970520 0.774868 0.396643
0.997131 0.767880 0.395911
1.000000 0.760769 0.393774
1.000000 0.753811 0.391028
1.000000 0.746914 0.386938
1.000000 0.739986 0.381201
1.000000 0.732876 0.373144
1.000000 0.725429 0.363348
1.000000 0.720882 0.376928
1.000000 0.718410 0.400336
1.000000 0.717220 0.424231
1.000000 0.717189 0.447669
0.137148 0.768917 0.421607
0.138857 0.768032 0.420752
0.153475 0.767208 0.419806
0.181552 0.766445 0.418494
0.217319 0.765896 0.417273
0.257633 0.765713 0.415930
0.300694 0.765713 0.414191
0.345159 0.765774 0.411841
0.389868 0.765652 0.409033
0.435065 0.765377 0.405493
0.485054 0.769406 0.405585
0.537133 0.775235 0.406958
0.589837 0.781460 0.408209
0.642847 0.787991 0.409644
0.696071 0.794766 0.411383
0.749416 0.801633 0.412482
0.802701 0.808499 0.413519
0.855406 0.815183 0.414313
0.899107 0.816373 0.424231
0.933013 0.811124 0.425605
0.962951 0.804471 0.425788
0.989563 0.797024 0.425025
1.000000 0.789670 0.423804
1.000000 0.782406 0.421759
1.000000 0.775326 0.418585
1.000000 0.768185 0.413764
1.000000 0.760922 0.407721
1.000000 0.753353 0.399390
1.000000 0.745266 0.387915
1.000000 0.741115 0.405890
1.000000 0.738674 0.428687
1.000000 0.737758 0.453071
0.198581 0.796933 0.442908
0.199527 0.796078 0.442298
0.208255 0.795254 0.441016
0.225193 0.794461 0.440070
0.251926 0.793912 0.438575
0.284276 0.793637 0.437415
0.320439 0.793606 0.435828
0.360052 0.793545 0.433906
0.400763 0.793393 0.431525
0.442512 0.793210 0.428504
0.486427 0.794034 0.426246
0.535698 0.799191 0.428138
0.585565 0.804685 0.430121
0.635981 0.810452 0.432044
0.686366 0.816373 0.434607
0.736934 0.822477 0.436591
0.787381 0.828519 0.438758
0.837339 0.834501 0.440375
0.886534 0.840024 0.442176
0.924865 0.839048 0.452827
0.954955 0.832670 0.454658
0.981750 0.825162 0.454200
1.000000 0.817624 0.453346
1.000000 0.810147 0.451759
1.000000 0.802884 0.449317
1.000000 0.795621 0.445502
1.000000 0.788235 0.439918
1.000000 0.780514 0.432502
1.000000 0.772335 0.422614
1.000000 0.764034 0.413428
1.000000 0.760800 0.436652
1.000000 0.758724 0.459724
0.250095 0.822721 0.464973
0.250553 0.822049 0.464271
0.255772 0.821317 0.463142
0.268528 0.820676 0.462104
0.288243 0.820188 0.460945
0.314519 0.819944 0.459724
0.344884 0.819852 0.458259
0.379034 0.819730 0.456489
0.414954 0.819638 0.454261
0.453132 0.819394 0.451789
0.492409 0.819028 0.448493
0.536889 0.822171 0.449439
0.583948 0.826993 0.451728
0.631495 0.832029 0.454444
0.679408 0.837186 0.457527
0.726986 0.842466 0.460090
0.774319 0.847532 0.463081
0.821408 0.852445 0.465370
0.867430 0.857084 0.467414
0.912200 0.860929 0.469184
0.945617 0.857969 0.479530
0.972259 0.850492 0.480415
0.996216 0.842374 0.478859
1.000000 0.834501 0.476753
1.000000 0.826993 0.474281
1.000000 0.819638 0.471077
1.000000 0.812131 0.466102
1.000000 0.804410 0.459327
1.000000 0.796292 0.450599
1.000000 0.787564 0.438911
1.000000 0.780575 0.439979
1.000000 0.777707 0.463600
0.288640 0.842985 0.483375
0.289677 0.842710 0.482918
0.294255 0.842496 0.482460
0.304875 0.842344 0.482094
0.321477 0.842344 0.481147
0.342901 0.842344 0.480354
0.369085 0.842405 0.479500
0.398383 0.842405 0.477943
0.430426 0.842222 0.475837
0.464454 0.841978 0.473365
0.499672 0.841611 0.470314
0.537835 0.842069 0.468238
0.582452 0.846281 0.471260
0.627314 0.850706 0.474586
0.672511 0.855283 0.477882
0.717556 0.859922 0.481727
0.762600 0.864500 0.485206
0.806973 0.868925 0.488899
0.850767 0.873136 0.492073
0.893706 0.877104 0.495064
0.934966 0.880003 0.498421
0.964752 0.876219 0.509178
0.989044 0.868742 0.509941
1.000000 0.860655 0.508598
1.000000 0.853086 0.506310
1.000000 0.845731 0.503166
1.000000 0.838285 0.498726
1.000000 0.830625 0.492744
1.000000 0.822477 0.484474
1.000000 0.813901 0.474006
1.000000 0.804471 0.460151
1.000000 0.798642 0.472816
0.338415 0.866361 0.508598
0.338537 0.866178 0.508263
0.342565 0.865965 0.507866
0.350530 0.865843 0.507195
0.362890 0.865782 0.506523
0.380163 0.865751 0.505608
0.401526 0.865721 0.504540
0.426093 0.865690 0.503044
0.453468 0.865568 0.501152
0.483162 0.865324 0.498878
0.514580 0.864988 0.496010
0.547723 0.864591 0.492897
0.586877 0.866941 0.494270
0.628962 0.870634 0.497993
0.671168 0.874418 0.502159
0.713405 0.878264 0.506157
0.755550 0.882078 0.510460
0.797116 0.885801 0.514702
0.838102 0.889311 0.518425
0.878447 0.892668 0.521996
0.917998 0.895842 0.525048
0.955383 0.897734 0.528771
0.981903 0.893187 0.539269
1.000000 0.885649 0.539452
1.000000 0.878965 0.540856
1.000000 0.871550 0.537987
1.000000 0.864256 0.534112
1.000000 0.856809 0.528893
1.000000 0.848875 0.521599
1.000000 0.840452 0.512139
1.000000 0.830106 0.496559
1.000000 0.819577 0.483619
0.382086 0.886198 0.532372
0.382086 0.885832 0.531640
0.384680 0.885740 0.531273
0.391333 0.885740 0.530877
0.402228 0.885893 0.530694
0.416907 0.886137 0.530327
0.435035 0.886473 0.529961
0.456275 0.886748 0.529320
0.480446 0.886900 0.528069
0.506523 0.886992 0.526543
0.534600 0.887053 0.524437
0.564172 0.886961 0.521752
0.596735 0.887388 0.520165
0.635950 0.890654 0.524956
0.675563 0.894041 0.529931
0.715023 0.897429 0.535027
0.754421 0.900725 0.540124
0.793179 0.903929 0.545068
0.831327 0.906950 0.549432
0.868742 0.909728 0.553216
0.905486 0.912322 0.556481
0.941741 0.914824 0.559442
0.975555 0.915923 0.563226
0.999145 0.911009 0.572290
1.000000 0.903593 0.572503
1.000000 0.895598 0.570428
1.000000 0.888365 0.567498
1.000000 0.881407 0.563622
1.000000 0.874083 0.558404
1.000000 0.865293 0.548363
1.000000 0.855009 0.533196
1.000000 0.843107 0.512291
0.436347 0.907988 0.563348
0.436255 0.907683 0.562890
0.438025 0.907500 0.562249
0.442817 0.907469 0.561975
0.450935 0.907469 0.561486
0.462135 0.907469 0.560906
0.476020 0.907500 0.560113
0.493019 0.907469 0.558923
0.512352 0.907378 0.557610
0.534020 0.907225 0.555779
0.557855 0.907042 0.553582
0.583398 0.906859 0.551019
0.610803 0.906615 0.548272
0.644312 0.908354 0.550622
0.680751 0.911101 0.555627
0.717220 0.913970 0.560754
0.753719 0.916777 0.565789
0.789761 0.919554 0.570794
0.825284 0.922148 0.575311
0.860197 0.924590 0.579156
0.894652 0.926848 0.582788
0.928588 0.929015 0.585748
0.962066 0.931121 0.588342
0.992767 0.931518 0.592065
1.000000 0.926116 0.599847
1.000000 0.918669 0.599725
1.000000 0.910613 0.596857
1.000000 0.903349 0.594079
1.000000 0.895567 0.587457
1.000000 0.886992 0.578149
1.000000 0.877287 0.564813
1.000000 0.865934 0.545708
0.482521 0.926787 0.591485
0.482551 0.926665 0.591211
0.484413 0.926604 0.590906
0.488472 0.926574 0.590631
0.494911 0.926635 0.590387
0.504051 0.926665 0.589990
0.515648 0.926726 0.589319
0.529717 0.926726 0.588525
0.546014 0.926726 0.587335
0.564538 0.926635 0.585992
0.584985 0.926482 0.584039
0.607263 0.926299 0.582086
0.631098 0.926146 0.579706
0.657527 0.926390 0.578119
0.690761 0.928649 0.582971
0.723995 0.930999 0.587884
0.757473 0.933349 0.592981
0.790738 0.935698 0.597742
0.823606 0.937865 0.602197
0.855955 0.939940 0.606165
0.888029 0.941894 0.610010
0.919646 0.943786 0.613184
0.950805 0.945586 0.616266
0.981659 0.947356 0.618799
1.000000 0.947173 0.622736
1.000000 0.941375 0.629755
1.000000 0.933318 0.627893
1.000000 0.924590 0.622919
1.000000 0.916228 0.616785
1.000000 0.907958 0.608209
1.000000 0.898741 0.596399
1.000000 0.887938 0.578912
0.529351 0.945556 0.621576
0.529381 0.945464 0.621332
0.530694 0.945373 0.621118
0.533806 0.945342 0.620783
0.538750 0.945251 0.620264
0.545708 0.945129 0.619562
0.554284 0.944884 0.618311
0.564813 0.944518 0.616663
0.577234 0.944060 0.614740
0.591608 0.943511 0.612390
0.607965 0.942931 0.609766
0.626184 0.942382 0.606867
0.646448 0.941833 0.603876
0.668360 0.941405 0.600885
0.696010 0.942351 0.602441
0.726589 0.944244 0.606867
0.757534 0.946227 0.611475
0.788479 0.948180 0.616175
0.819242 0.950072 0.620478
0.849790 0.951873 0.624689
0.879911 0.953613 0.628412
0.909789 0.955291 0.632166
0.939239 0.956909 0.635523
0.967834 0.958007 0.637140
0.996033 0.958953 0.638270
1.000000 0.957671 0.640162
1.000000 0.950805 0.644434
1.000000 0.942565 0.641779
1.000000 0.933593 0.635828
1.000000 0.924804 0.628229
1.000000 0.916075 0.617548
1.000000 0.906035 0.602045
0.564385 0.960632 0.645167
0.564660 0.960632 0.645167
0.566064 0.960632 0.645045
0.568933 0.960693 0.645045
0.573571 0.960754 0.644892
0.579889 0.960784 0.644556
0.587945 0.960784 0.644129
0.597620 0.960784 0.643397
0.609094 0.960723 0.642390
0.622309 0.960632 0.641077
0.637263 0.960479 0.639643
0.653742 0.960357 0.637812
0.671992 0.960204 0.635981
0.691676 0.960113 0.633936
