20 Preset/Japan Style/【3】LUT video cho PR-AE-FCPX/LUT VIDEO/Japan Style LUT (6).cube
# Created by Adobe Lightroom plugin Export LUT (1.24.0)
# www.johnrellis.com/lightroom/exportlut.htm
# Preset: 06日系基础色（素材江湖）
# Color profile: C:\Program Files (x86)\Common Files\Adobe\Color\Profiles\Recommended\VideoHD.icc
LUT_3D_SIZE 5
DOMAIN_MIN 0.000000 0.000000 0.000000
DOMAIN_MAX 0.903226 0.903226 0.903226
0.000000 0.000000 0.000000
0.290166 0.109895 0.000000
0.537499 0.192996 0.000000
0.809628 0.264561 0.000000
1.000000 0.324315 0.000000
0.024231 0.274083 0.000000
0.263218 0.274632 0.000000
0.541375 0.313390 0.000000
0.810117 0.353796 0.000000
1.000000 0.387671 0.000000
0.000000 0.547295 0.241794
0.225162 0.547539 0.261692
0.496254 0.531823 0.217411
0.796719 0.569268 0.161624
1.000000 0.566827 0.155947
0.000000 0.804257 0.440864
0.254307 0.803525 0.453590
0.487404 0.796567 0.459785
0.722866 0.774563 0.393896
0.971069 0.783627 0.377417
0.548608 0.958129 0.692317
0.574182 0.957427 0.699092
0.664057 0.955474 0.727901
0.757900 0.951324 0.707485
0.902281 0.943938 0.664149
0.132204 0.084901 0.227634
0.271244 0.149081 0.194583
0.535546 0.153964 0.188235
0.796719 0.242557 0.175051
1.000000 0.307500 0.148714
0.150759 0.289494 0.235203
0.297795 0.292332 0.234195
0.535332 0.307256 0.219211
0.799863 0.339574 0.195621
1.000000 0.376104 0.171817
0.189395 0.547784 0.338598
0.273869 0.549615 0.336736
0.507530 0.536889 0.310979
0.799680 0.565667 0.278538
1.000000 0.563043 0.264469
0.217533 0.802243 0.487648
0.317967 0.801572 0.499306
0.515251 0.796567 0.517418
0.727901 0.774960 0.450843
0.969757 0.783505 0.433661
0.567742 0.957458 0.709865
0.592126 0.956847 0.716335
0.676387 0.954620 0.742245
0.767300 0.950744 0.728603
0.904387 0.943542 0.685634
0.166690 0.208682 0.569940
0.323430 0.242985 0.535119
0.501366 0.290135 0.469673
0.841733 0.162753 0.507805
1.000000 0.136812 0.403845
0.152010 0.338354 0.576349
0.324071 0.342626 0.548516
0.512078 0.358648 0.483742
0.824552 0.287358 0.491463
1.000000 0.278172 0.402533
0.000000 0.564141 0.551202
0.267521 0.561212 0.545983
0.552605 0.556695 0.534142
0.787900 0.542321 0.495430
0.996674 0.540642 0.465797
0.378149 0.791501 0.623529
0.457801 0.790860 0.634882
0.594263 0.793973 0.651728
0.746731 0.776516 0.611994
0.965393 0.783719 0.593225
0.640162 0.953918 0.776791
0.651545 0.954162 0.776791
0.711299 0.954070 0.788632
0.801266 0.950927 0.798795
0.913848 0.944244 0.756954
0.221042 0.320317 0.846464
0.351354 0.337346 0.834134
0.575982 0.403632 0.780087
0.748653 0.427222 0.731228
1.000000 0.353399 0.754360
0.263859 0.417578 0.844572
0.375372 0.428107 0.833371
0.585443 0.466743 0.783658
0.750546 0.477333 0.734585
1.000000 0.414649 0.753964
0.258854 0.615595 0.852354
0.379034 0.616724 0.842283
0.606928 0.626276 0.797482
0.748745 0.613123 0.738369
0.999237 0.573114 0.740078
0.285069 0.802884 0.802853
0.372839 0.801724 0.801022
0.575463 0.796017 0.792142
0.780331 0.786038 0.777768
0.960204 0.759548 0.736599
0.551049 0.956451 0.823850
0.589654 0.955596 0.828275
0.717250 0.952148 0.848020
0.841123 0.952544 0.875181
0.929656 0.946380 0.854063
0.393591 0.467628 0.981842
0.452522 0.480995 0.977722
0.618494 0.535332 0.961151
0.784512 0.615808 0.923552
0.919066 0.616785 0.904692
0.424598 0.521965 0.978088
0.476783 0.532616 0.974365
0.629511 0.575708 0.958099
0.785885 0.639277 0.921355
0.915587 0.637201 0.902068
0.494972 0.663691 0.975463
0.549523 0.677150 0.970825
0.664210 0.693019 0.956298
0.795132 0.715663 0.923125
0.912688 0.711330 0.902434
0.488777 0.801175 0.972015
0.527184 0.803159 0.970916
0.659815 0.815366 0.968353
0.817472 0.830594 0.944610
0.923369 0.830076 0.918517
0.524254 0.951354 0.954894
0.554894 0.951049 0.954314
0.668605 0.951507 0.953429
0.813870 0.950591 0.950469
0.944366 0.946471 0.944488
