20 Preset/Japan Style/【3】LUT video cho PR-AE-FCPX/LUT VIDEO/Japan Style LUT (19).cube
# Created by Adobe Lightroom plugin Export LUT (1.24.0)
# www.johnrellis.com/lightroom/exportlut.htm
# Preset: 19日系清新（素材江湖）
# Color profile: C:\Program Files (x86)\Common Files\Adobe\Color\Profiles\Recommended\VideoHD.icc
LUT_3D_SIZE 8
DOMAIN_MIN 0.000000 0.000000 0.000000
DOMAIN_MAX 0.903226 0.903226 0.903226
0.000000 0.000000 0.000000
0.263890 0.007996 0.003876
0.584680 0.000000 0.000000
0.826078 0.000000 0.000000
0.992828 0.067811 0.070588
1.000000 0.185611 0.185763
1.000000 0.268803 0.269017
1.000000 0.335119 0.335149
0.000000 0.260044 0.000000
0.264714 0.264805 0.000000
0.567132 0.272862 0.000000
0.803891 0.255680 0.000000
0.973632 0.248936 0.063874
1.000000 0.268681 0.183291
1.000000 0.306279 0.259525
1.000000 0.352941 0.325505
0.000000 0.535943 0.000000
0.241398 0.535943 0.000000
0.523827 0.523980 0.000000
0.785183 0.517662 0.000000
0.965942 0.488808 0.121035
1.000000 0.464088 0.219547
1.000000 0.458289 0.296910
1.000000 0.465797 0.358343
0.000000 0.742031 0.000000
0.231662 0.739956 0.000000
0.489845 0.738247 0.000000
0.735470 0.735439 0.000000
0.940154 0.706722 0.108492
1.000000 0.665309 0.277836
1.000000 0.623926 0.342168
1.000000 0.597711 0.390875
0.192081 0.875059 0.192233
0.276616 0.873930 0.198032
0.464820 0.872099 0.225284
0.658076 0.864988 0.215213
0.849607 0.849729 0.179232
1.000000 0.806577 0.221012
1.000000 0.762448 0.343908
1.000000 0.729091 0.427497
0.318059 0.951354 0.318273
0.360998 0.953735 0.329290
0.473854 0.951507 0.343236
0.618830 0.946624 0.354986
0.768582 0.937194 0.338750
0.925750 0.925780 0.318456
1.000000 0.890379 0.329473
1.000000 0.842863 0.426001
0.415839 1.000000 0.416114
0.436713 1.000000 0.420447
0.504051 1.000000 0.428168
0.610132 0.998383 0.446448
0.721523 0.992187 0.438727
0.845548 0.984955 0.427039
0.976165 0.976165 0.414008
1.000000 0.946105 0.401099
0.477150 1.000000 0.477302
0.488472 1.000000 0.478645
0.534417 1.000000 0.486458
0.612757 1.000000 0.503532
0.692500 1.000000 0.494392
0.791257 1.000000 0.492287
0.897215 1.000000 0.489052
1.000000 1.000000 0.476844
0.000000 0.013916 0.251926
0.259678 0.000000 0.259251
0.547692 0.000000 0.253239
0.777707 0.000000 0.255589
0.957977 0.149477 0.267735
1.000000 0.226871 0.294163
1.000000 0.290867 0.330480
1.000000 0.347631 0.372290
0.000000 0.254429 0.245579
0.246860 0.246860 0.246860
0.533745 0.250004 0.249790
0.773648 0.253727 0.253544
0.951720 0.267247 0.266972
1.000000 0.293919 0.293919
1.000000 0.326970 0.327092
1.000000 0.366400 0.366308
0.000000 0.516503 0.220066
0.225345 0.517357 0.226200
0.511040 0.510613 0.214450
0.768063 0.509422 0.245518
0.943023 0.484840 0.274174
1.000000 0.464851 0.306188
1.000000 0.458350 0.344335
1.000000 0.467201 0.387213
0.000000 0.723140 0.216220
0.220768 0.722377 0.221073
0.479805 0.722316 0.232364
0.709895 0.710018 0.204196
0.908324 0.682582 0.238621
1.000000 0.651606 0.332341
1.000000 0.614099 0.370428
1.000000 0.592523 0.408911
0.205051 0.867094 0.279637
0.281498 0.865293 0.281926
0.462715 0.862058 0.297307
0.649775 0.852659 0.287755
0.835080 0.835080 0.255619
0.985840 0.795285 0.280430
1.000000 0.757351 0.380224
1.000000 0.727321 0.449531
0.326726 0.944182 0.358648
0.361822 0.943877 0.362097
0.472908 0.942168 0.375006
0.617243 0.938598 0.389563
0.764462 0.930266 0.375463
0.920562 0.920592 0.359289
1.000000 0.886198 0.366064
1.000000 0.841367 0.450141
0.419928 0.999817 0.436286
0.435920 0.998810 0.435981
0.501976 0.996490 0.442542
0.608362 0.993164 0.460883
0.721187 0.988159 0.459297
0.843198 0.981140 0.447028
0.971801 0.971801 0.429450
1.000000 0.941833 0.412512
0.478859 1.000000 0.488869
0.492744 1.000000 0.492866
0.537255 1.000000 0.499611
0.614649 1.000000 0.515923
0.705196 1.000000 0.529595
0.796780 1.000000 0.520562
0.898405 1.000000 0.510857
1.000000 1.000000 0.497536
0.000000 0.000000 0.505180
0.000000 0.000000 0.510369
0.520287 0.000000 0.520226
0.766171 0.000000 0.505669
0.938354 0.181216 0.484962
1.000000 0.325780 0.496620
1.000000 0.414740 0.520653
1.000000 0.469154 0.541314
0.000000 0.270909 0.498360
0.000000 0.204746 0.504540
0.512108 0.207401 0.511894
0.751308 0.233585 0.496742
0.924620 0.287633 0.482887
1.000000 0.375372 0.498695
1.000000 0.430152 0.514092
1.000000 0.476387 0.534569
0.000000 0.501732 0.487495
0.000000 0.500145 0.488380
0.487648 0.487648 0.487648
0.729458 0.492470 0.492561
0.913695 0.500389 0.500359
1.000000 0.511192 0.511254
1.000000 0.525322 0.525353
1.000000 0.544121 0.544213
0.000000 0.712612 0.459693
0.183413 0.713436 0.463874
0.478889 0.716213 0.478950
0.707912 0.707881 0.466590
0.901183 0.694636 0.501549
1.000000 0.677729 0.536553
1.000000 0.656977 0.547478
1.000000 0.646509 0.562341
0.291539 0.857542 0.481544
0.344305 0.856962 0.483680
0.494179 0.855741 0.494362
0.667262 0.851774 0.501030
0.836576 0.836545 0.474769
0.978241 0.801724 0.485084
1.000000 0.779019 0.552483
1.000000 0.757107 0.584253
0.413886 0.937530 0.513542
0.438788 0.937591 0.516167
0.524132 0.935943 0.524285
0.649622 0.933135 0.540215
0.775326 0.925383 0.526421
0.916686 0.916686 0.511040
1.000000 0.887236 0.515465
1.000000 0.854368 0.577264
0.497169 0.996368 0.556085
0.508751 0.995544 0.555810
0.558251 0.993103 0.558282
0.645045 0.989654 0.568811
0.744594 0.984924 0.571221
0.853086 0.979065 0.560845
0.971832 0.971801 0.548791
1.000000 0.944732 0.538933
0.540673 1.000000 0.580133
0.548333 1.000000 0.579950
0.584710 1.000000 0.584833
0.653223 1.000000 0.600244
0.734615 1.000000 0.614954
0.815427 1.000000 0.608759
0.906615 1.000000 0.600214
1.000000 1.000000 0.587488
0.000000 0.000000 0.697505
0.000000 0.000000 0.702052
0.392828 0.000000 0.708186
0.715602 0.000000 0.715663
0.916960 0.000305 0.687678
1.000000 0.284428 0.650385
1.000000 0.422492 0.642329
1.000000 0.530419 0.664302
0.000000 0.238315 0.698817
0.000000 0.187808 0.702022
0.382330 0.174624 0.707424
0.715358 0.176913 0.715419
0.912902 0.239017 0.685786
1.000000 0.352209 0.652613
1.000000 0.460914 0.648157
1.000000 0.553948 0.670924
0.000000 0.497871 0.675654
0.000000 0.489143 0.678645
0.316686 0.426032 0.691310
0.699397 0.446723 0.699336
0.890166 0.483314 0.681453
1.000000 0.536248 0.672724
1.000000 0.597650 0.687343
1.000000 0.641993 0.704189
0.000000 0.697383 0.678157
0.000000 0.695888 0.678035
0.400214 0.691341 0.679652
0.682460 0.682460 0.682460
0.851682 0.689235 0.689174
0.969482 0.695125 0.695155
1.000000 0.701869 0.701869
1.000000 0.708980 0.708980
0.302617 0.845670 0.656001
0.360601 0.844053 0.657862
0.521080 0.840665 0.669978
0.691402 0.842191 0.691432
0.832609 0.832547 0.678462
0.957031 0.819272 0.698512
1.000000 0.814176 0.725978
1.000000 0.798428 0.726619
0.525139 0.930022 0.680659
0.548302 0.932006 0.686610
0.604761 0.930388 0.689998
0.700404 0.929076 0.700435
0.804410 0.924743 0.701564
0.915312 0.915282 0.682216
1.000000 0.893919 0.685481
1.000000 0.877989 0.728023
0.590539 0.989410 0.692256
0.600946 0.989288 0.693812
0.639399 0.988128 0.697993
0.706294 0.985901 0.706325
0.789517 0.982269 0.716121
0.872404 0.977173 0.703883
0.970733 0.970703 0.689326
1.000000 0.947814 0.683314
0.634363 1.000000 0.704128
0.640314 1.000000 0.704555
0.666072 1.000000 0.707393
0.714565 1.000000 0.714595
0.778653 1.000000 0.724453
0.845396 1.000000 0.723720
0.919829 1.000000 0.715969
1.000000 1.000000 0.706355
0.000000 0.000000 0.836057
0.000000 0.000000 0.838224
0.103212 0.000000 0.840330
0.584802 0.000000 0.845548
0.848783 0.000000 0.848783
1.000000 0.217868 0.821653
1.000000 0.386206 0.771572
1.000000 0.507256 0.754971
0.000000 0.204074 0.836118
0.000000 0.177340 0.838865
0.000000 0.166140 0.840848
0.582238 0.163302 0.843900
0.848020 0.204410 0.847929
1.000000 0.300298 0.819730
1.000000 0.429755 0.773251
1.000000 0.533074 0.758724
0.000000 0.476204 0.822538
0.000000 0.460487 0.824399
0.000000 0.393011 0.830228
0.571069 0.407782 0.834226
0.837400 0.439826 0.837461
0.986206 0.485664 0.807462
1.000000 0.552239 0.777279
1.000000 0.613123 0.769894
0.000000 0.659266 0.805112
0.000000 0.657984 0.804898
0.221012 0.654292 0.805844
0.569238 0.626795 0.817868
0.824033 0.655451 0.823972
0.948302 0.675776 0.804227
1.000000 0.701381 0.795407
1.000000 0.728878 0.798215
0.000000 0.821775 0.801907
0.130404 0.821317 0.802335
0.417670 0.818051 0.802823
0.633204 0.812497 0.804044
0.805234 0.805234 0.805234
0.915007 0.809720 0.809720
1.000000 0.813840 0.813840
1.000000 0.816953 0.816953
0.454322 0.911345 0.768124
0.480568 0.910826 0.769802
0.566217 0.907164 0.774441
0.686519 0.903319 0.786343
0.803647 0.905028 0.803677
0.902586 0.902586 0.798825
0.994842 0.898344 0.814511
1.000000 0.896788 0.836454
0.612604 0.980774 0.781094
0.623072 0.979889 0.782101
0.667536 0.977417 0.789090
0.736263 0.975738 0.801144
0.811063 0.974212 0.811093
0.884703 0.970825 0.810880
0.965209 0.965240 0.795590
1.000000 0.946990 0.792203
0.686610 1.000000 0.792874
0.691188 1.000000 0.793057
0.711757 1.000000 0.794644
0.757809 1.000000 0.804105
0.811856 1.000000 0.811887
0.872221 1.000000 0.819333
0.930816 1.000000 0.810971
1.000000 1.000000 0.800107
0.000000 0.018463 0.934844
0.000000 0.000000 0.935576
0.000000 0.000000 0.934905
0.422614 0.000000 0.935485
0.721157 0.068452 0.938201
0.937377 0.220798 0.937407
1.000000 0.342840 0.918120
1.000000 0.482124 0.866758
0.000000 0.171237 0.928954
0.000000 0.169345 0.928923
0.000000 0.163027 0.929015
0.419409 0.166873 0.929839
0.716884 0.206973 0.932311
0.931884 0.283360 0.931823
1.000000 0.381445 0.912779
1.000000 0.501152 0.864561
0.000000 0.433143 0.921965
0.000000 0.419745 0.922576
0.000000 0.373022 0.925902
0.425757 0.384039 0.925322
0.718288 0.416022 0.926482
0.925780 0.467323 0.925780
1.000000 0.523583 0.906615
1.000000 0.595575 0.868376
0.000000 0.641871 0.908843
0.000000 0.640711 0.908507
0.305364 0.641627 0.909270
0.484016 0.601526 0.917937
0.737453 0.630610 0.919829
0.919799 0.661433 0.919738
1.000000 0.688014 0.902342
1.000000 0.721492 0.879637
0.000000 0.779873 0.891661
0.000000 0.779812 0.891295
0.318578 0.780301 0.890379
0.546380 0.782284 0.889372
0.734981 0.769192 0.897307
0.901610 0.789761 0.901579
0.993988 0.799496 0.890501
1.000000 0.813565 0.883299
0.345983 0.903288 0.884367
0.386877 0.903929 0.885588
0.494423 0.901366 0.885374
0.631769 0.897215 0.885374
0.766812 0.891966 0.885679
0.890349 0.890349 0.890349
0.973663 0.897093 0.897063
1.000000 0.900542 0.900542
0.572992 0.976715 0.863584
0.588861 0.976715 0.865141
0.639582 0.974823 0.868132
0.721126 0.971588 0.874449
0.814878 0.967987 0.885344
0.898253 0.966705 0.898253
0.962615 0.962646 0.889769
1.000000 0.954986 0.897398
0.676081 1.000000 0.852354
0.682918 1.000000 0.853025
0.716182 1.000000 0.858732
0.777249 1.000000 0.872404
0.841672 1.000000 0.887205
0.894774 1.000000 0.894774
0.944518 1.000000 0.896025
0.998016 0.998016 0.886412
0.000000 0.000000 0.998871
0.000000 0.000000 0.999756
0.000000 0.000000 0.999451
0.160647 0.000000 0.999329
0.572168 0.000000 0.998291
0.813718 0.188022 0.996460
0.992493 0.305028 0.992432
1.000000 0.410437 0.982513
0.000000 0.143282 0.994171
0.000000 0.141878 0.995300
0.000000 0.134798 0.994995
0.157137 0.137362 0.994171
0.569512 0.170840 0.992981
0.809079 0.242191 0.990692
0.986358 0.330816 0.986267
1.000000 0.419196 0.975586
0.000000 0.382544 0.990478
0.000000 0.370794 0.990906
0.000000 0.335943 0.991241
0.198917 0.345800 0.990143
0.577996 0.368231 0.988098
0.811429 0.415167 0.985992
0.983368 0.479561 0.983337
1.000000 0.539574 0.972869
0.000000 0.612634 0.979156
0.000000 0.606409 0.978943
0.000000 0.582940 0.979706
0.328038 0.547997 0.982452
0.614893 0.570031 0.980468
0.823239 0.606500 0.979126
0.977600 0.645411 0.977569
1.000000 0.675959 0.964965
0.000000 0.750210 0.962615
0.000000 0.748775 0.961700
0.253666 0.747280 0.960815
0.520165 0.750362 0.961059
0.645045 0.721126 0.965362
0.825986 0.742977 0.965118
0.965301 0.766567 0.965270
1.000000 0.787991 0.955169
0.133761 0.862638 0.952605
0.215000 0.862913 0.952636
0.372381 0.863371 0.952239
0.534234 0.864256 0.951629
0.685939 0.865171 0.950378
0.833158 0.858244 0.956603
0.959869 0.876829 0.959869
1.000000 0.884520 0.950988
0.445869 0.968109 0.949096
0.467689 0.968170 0.949554
0.536034 0.966430 0.949401
0.640620 0.963500 0.949554
0.753872 0.958953 0.949218
0.861906 0.954253 0.949493
0.952087 0.952087 0.952087
1.000000 0.956023 0.955993
0.621241 1.000000 0.919280
0.632380 1.000000 0.919951
0.677455 1.000000 0.923461
0.744808 1.000000 0.928344
0.823545 1.000000 0.935668
0.901030 1.000000 0.946960
0.957824 0.997589 0.957824
0.995850 0.995819 0.953704
0.000000 0.000000 1.000000
0.000000 0.000000 1.000000
0.000000 0.000000 1.000000
0.000000 0.000000 1.000000
0.396796 0.000000 1.000000
0.668849 0.000000 1.000000
0.877623 0.204807 1.000000
1.000000 0.336126 1.000000
0.000000 0.000000 1.000000
0.000000 0.000000 1.000000
0.000000 0.000000 1.000000
0.000000 0.000000 1.000000
0.396521 0.000000 1.000000
0.668513 0.125185 1.000000
0.876036 0.249271 1.000000
1.000000 0.357488 1.000000
0.000000 0.304997 1.000000
0.000000 0.291844 1.000000
0.000000 0.263310 1.000000
0.000000 0.274174 1.000000
0.407568 0.292760 1.000000
0.673457 0.329564 1.000000
0.876555 0.395666 1.000000
1.000000 0.467567 1.000000
0.000000 0.527276 1.000000
0.000000 0.522454 1.000000
0.000000 0.499214 1.000000
0.000000 0.466194 1.000000
0.449897 0.486549 1.000000
0.693599 0.519158 1.000000
0.881407 0.565911 1.000000
1.000000 0.609125 1.000000
0.000000 0.699153 1.000000
0.000000 0.700374 1.000000
0.147463 0.702022 1.000000
0.370367 0.684565 1.000000
0.510521 0.651545 1.000000
0.716243 0.672175 1.000000
0.884550 0.703517 1.000000
1.000000 0.734920 1.000000
0.000000 0.815640 1.000000
0.000000 0.815244 1.000000
0.000000 0.815091 1.000000
0.387640 0.814603 1.000000
0.620569 0.818845 1.000000
0.745602 0.803555 1.000000
0.896025 0.830747 1.000000
1.000000 0.855131 1.000000
0.114534 0.918883 0.997559
0.189151 0.918791 0.997345
0.338231 0.918608 0.996643
0.498543 0.919554 0.995789
0.649866 0.921599 0.994690
0.787930 0.926207 0.993683
0.909514 0.926635 0.995972
0.995697 0.940856 0.995697
0.485939 1.000000 0.992065
0.499519 1.000000 0.991913
0.556268 1.000000 0.991730
0.649989 1.000000 0.991699
0.754879 1.000000 0.991485
0.854887 0.998291 0.991119
0.938231 0.993957 0.990997
0.991424 0.991424 0.991424
