20 Preset/Japan Style/【3】LUT video cho PR-AE-FCPX/LUT VIDEO/Japan Style LUT (23).cube
# Created by Adobe Lightroom plugin Export LUT (1.24.0)
# www.johnrellis.com/lightroom/exportlut.htm
# Preset: 23日系低饱和（素材江湖）
# Color profile: C:\Program Files (x86)\Common Files\Adobe\Color\Profiles\Recommended\VideoHD.icc
LUT_3D_SIZE 5
DOMAIN_MIN 0.000000 0.000000 0.000000
DOMAIN_MAX 0.903226 0.903226 0.903226
0.000000 0.000000 0.000000
0.347875 0.000000 0.000000
0.806058 0.000000 0.000000
0.982238 0.292638 0.000000
1.000000 0.471107 0.149569
0.000000 0.264530 0.158724
0.258366 0.324804 0.114443
0.790555 0.380255 0.000000
0.962737 0.441718 0.000000
1.000000 0.529320 0.253117
0.361517 0.621088 0.506157
0.449195 0.617670 0.540093
0.642176 0.656214 0.463630
0.902434 0.672541 0.457832
1.000000 0.667170 0.497749
0.626123 0.750546 0.688624
0.660182 0.749722 0.708248
0.715908 0.747799 0.724941
0.814023 0.777737 0.674525
0.964050 0.792996 0.687068
0.782162 0.859648 0.798764
0.798428 0.859129 0.809537
0.835843 0.857267 0.830228
0.869322 0.861845 0.837522
0.913725 0.876005 0.809903
0.000000 0.016938 0.178531
0.317235 0.000000 0.199435
0.775174 0.127565 0.198672
0.954345 0.379614 0.244785
1.000000 0.505058 0.336217
0.000000 0.298741 0.236606
0.303685 0.356512 0.289860
0.757992 0.416754 0.287602
0.938872 0.480629 0.309361
1.000000 0.550958 0.388220
0.379248 0.624140 0.536248
0.468788 0.622309 0.576135
0.642603 0.658076 0.519707
0.890837 0.675746 0.526879
1.000000 0.673823 0.553704
0.629694 0.751583 0.695003
0.665248 0.750973 0.715877
0.720150 0.749325 0.732570
0.814847 0.778592 0.687617
0.962036 0.793912 0.700923
0.778347 0.860410 0.797726
0.795041 0.859770 0.808560
0.837705 0.858762 0.833860
0.870542 0.862425 0.841520
0.913390 0.875975 0.814694
0.000000 0.101137 0.509056
0.401068 0.000000 0.547692
0.716915 0.296513 0.530144
0.914031 0.423651 0.523095
1.000000 0.555138 0.573816
0.000000 0.348058 0.535393
0.383154 0.377661 0.575677
0.692744 0.423468 0.559197
0.897490 0.513756 0.559228
1.000000 0.591211 0.596918
0.322362 0.644923 0.575128
0.479469 0.643488 0.633661
0.666072 0.671107 0.648585
0.868040 0.684627 0.658137
0.994141 0.686641 0.661677
0.625513 0.757290 0.707820
0.660761 0.756161 0.725734
0.732906 0.755367 0.756558
0.820951 0.783719 0.727993
0.958038 0.795865 0.741787
0.748531 0.864195 0.785214
0.769467 0.863340 0.797635
0.835142 0.861265 0.839963
0.872099 0.862181 0.853361
0.912657 0.876036 0.828367
0.246860 0.222934 0.710597
0.475807 0.238437 0.722347
0.733791 0.402716 0.702296
0.868315 0.535241 0.700832
0.998657 0.595514 0.712581
0.274876 0.400885 0.709316
0.464576 0.420539 0.719875
0.714473 0.515007 0.711696
0.853574 0.573053 0.709438
0.993256 0.620600 0.720058
0.285435 0.657343 0.717678
0.430488 0.655573 0.721828
0.689723 0.674220 0.745388
0.846433 0.669551 0.734432
0.980255 0.694484 0.747921
0.579706 0.771908 0.717342
0.622034 0.770474 0.733120
0.740475 0.768978 0.785092
0.836637 0.791592 0.784512
0.959014 0.791531 0.792050
0.689326 0.873716 0.770657
0.711727 0.872648 0.781186
0.788357 0.869200 0.820371
0.873411 0.866423 0.869322
0.911437 0.876127 0.854002
0.535760 0.400366 0.837522
0.621515 0.415412 0.840208
0.845151 0.493141 0.852140
0.919951 0.622248 0.814817
0.989899 0.685939 0.817746
0.515160 0.495705 0.832670
0.598474 0.507469 0.835599
0.821042 0.559716 0.849058
0.912688 0.647822 0.819059
0.985626 0.698421 0.822049
0.377600 0.641718 0.817990
0.480690 0.645533 0.822385
0.735592 0.670741 0.841642
0.891752 0.714870 0.835599
0.971618 0.739498 0.837888
0.382910 0.820706 0.846250
0.446509 0.815488 0.846128
0.622370 0.793759 0.846067
0.858885 0.793454 0.865415
0.951965 0.800076 0.860166
0.590021 0.888731 0.803769
0.619898 0.887602 0.808164
0.722499 0.883574 0.827970
0.855985 0.876738 0.876799
0.908049 0.876005 0.898009
