20 Preset/Japan Style/【3】LUT video cho PR-AE-FCPX/LUT VIDEO/Japan Style LUT (19).cube
# Created by Adobe Lightroom plugin Export LUT (1.24.0)
# www.johnrellis.com/lightroom/exportlut.htm
# Preset: 19日系清新（素材江湖）
# Color profile: C:\Program Files (x86)\Common Files\Adobe\Color\Profiles\Recommended\VideoHD.icc
LUT_3D_SIZE 32
DOMAIN_MIN 0.0 0.0 0.0
DOMAIN_MAX 1.0 1.0 1.0
0.000000 0.000000 0.000000
0.051057 0.000946 0.000000
0.119966 0.000000 0.003082
0.176791 0.006073 0.006348
0.263890 0.007996 0.003876
0.358709 0.000000 0.000000
0.441932 0.000000 0.000000
0.515984 0.000000 0.000000
0.584680 0.000000 0.000000
0.649958 0.000000 0.000000
0.713771 0.000000 0.000000
0.772641 0.000000 0.000000
0.826078 0.000000 0.000000
0.874540 0.000000 0.000000
0.918273 0.000000 0.000000
0.957488 0.000488 0.004395
0.992828 0.067811 0.070588
1.000000 0.109804 0.110018
1.000000 0.134218 0.134859
1.000000 0.158663 0.158236
1.000000 0.185611 0.185763
1.000000 0.210025 0.209995
1.000000 0.231479 0.231846
1.000000 0.251102 0.251255
1.000000 0.268803 0.269017
1.000000 0.285801 0.285740
1.000000 0.302281 0.302251
1.000000 0.318578 0.318578
1.000000 0.335119 0.335149
1.000000 0.352605 0.352605
1.000000 0.371099 0.371008
1.000000 0.391180 0.391150
0.000000 0.037232 0.000000
0.032563 0.034394 0.000000
0.116945 0.036072 0.001648
0.176547 0.036561 0.003357
0.262852 0.046357 0.001160
0.355901 0.049256 0.000000
0.437873 0.040589 0.000000
0.510948 0.028443 0.000000
0.579217 0.013397 0.000000
0.643915 0.000000 0.000000
0.707149 0.000000 0.000000
0.766171 0.000000 0.000000
0.819791 0.000000 0.000000
0.868528 0.000000 0.000000
0.912535 0.001617 0.000000
0.952361 0.042298 0.001434
0.988190 0.093538 0.066224
1.000000 0.117342 0.107485
1.000000 0.139742 0.132937
1.000000 0.161654 0.156649
1.000000 0.187076 0.182498
1.000000 0.208896 0.206088
1.000000 0.229618 0.227237
1.000000 0.248295 0.245945
1.000000 0.265415 0.263371
1.000000 0.281468 0.279881
1.000000 0.297246 0.295872
1.000000 0.313451 0.312291
1.000000 0.329747 0.328862
1.000000 0.346838 0.345983
1.000000 0.365270 0.364538
1.000000 0.384985 0.384344
0.000000 0.109773 0.000000
0.029633 0.109926 0.000000
0.111147 0.110414 0.000000
0.175875 0.116823 0.000000
0.264378 0.129061 0.000000
0.355108 0.137148 0.000000
0.435676 0.137636 0.000000
0.508019 0.134188 0.000000
0.575402 0.131075 0.000000
0.639673 0.125338 0.000000
0.702724 0.121004 0.000000
0.761868 0.116243 0.000000
0.815335 0.113313 0.000000
0.863981 0.113893 0.000000
0.908263 0.117189 0.000000
0.948089 0.125307 0.000000
0.984222 0.137209 0.062257
1.000000 0.151034 0.106874
1.000000 0.165591 0.132296
1.000000 0.182437 0.156039
1.000000 0.202609 0.181796
1.000000 0.221927 0.204837
1.000000 0.239445 0.225589
1.000000 0.255772 0.244114
1.000000 0.271275 0.261265
1.000000 0.285557 0.277348
1.000000 0.300877 0.293614
1.000000 0.315831 0.309545
1.000000 0.331334 0.325780
1.000000 0.347997 0.343084
1.000000 0.365393 0.361395
1.000000 0.384558 0.380957
0.000000 0.174319 0.000000
0.013519 0.175296 0.000000
0.114321 0.177554 0.000000
0.181765 0.180972 0.000000
0.264988 0.195377 0.000000
0.355352 0.207645 0.000000
0.435187 0.209567 0.000000
0.505974 0.207279 0.000000
0.573266 0.203372 0.000000
0.637018 0.199374 0.000000
0.699855 0.195529 0.000000
0.757870 0.191440 0.000000
0.811215 0.188144 0.000000
0.859434 0.186374 0.000000
0.903288 0.185428 0.000000
0.942931 0.187747 0.000000
0.978851 0.191348 0.062104
1.000000 0.198215 0.107027
1.000000 0.206424 0.132723
1.000000 0.217166 0.156832
1.000000 0.230014 0.180697
1.000000 0.243870 0.203006
1.000000 0.257420 0.223209
1.000000 0.270665 0.241642
1.000000 0.283757 0.258579
1.000000 0.297215 0.275639
1.000000 0.311131 0.292424
1.000000 0.325109 0.308812
1.000000 0.339544 0.325383
1.000000 0.355016 0.342657
1.000000 0.371344 0.360632
1.000000 0.388800 0.379400
0.000000 0.260044 0.000000
0.000000 0.260410 0.000000
0.115572 0.261387 0.000000
0.191043 0.262882 0.000000
0.264714 0.264805 0.000000
0.343847 0.269963 0.000000
0.424353 0.275792 0.000000
0.500725 0.277073 0.000000
0.567132 0.272862 0.000000
0.630732 0.268956 0.000000
0.692714 0.264591 0.000000
0.750851 0.260319 0.000000
0.803891 0.255680 0.000000
0.852537 0.252415 0.000000
0.896757 0.249607 0.000000
0.936797 0.249149 0.000000
0.973632 0.248936 0.063874
1.000000 0.251133 0.108888
1.000000 0.254704 0.134554
1.000000 0.260594 0.160098
1.000000 0.268681 0.183291
1.000000 0.277379 0.204501
1.000000 0.286564 0.224247
1.000000 0.296056 0.242130
1.000000 0.306279 0.259525
1.000000 0.317327 0.276555
1.000000 0.328588 0.292973
1.000000 0.340490 0.309148
1.000000 0.352941 0.325505
1.000000 0.366461 0.342351
1.000000 0.380926 0.359899
1.000000 0.396735 0.378332
0.000000 0.336675 0.000000
0.000000 0.337011 0.000000
0.093568 0.336980 0.000000
0.185153 0.337621 0.000000
0.263188 0.337530 0.000000
0.336950 0.336645 0.000000
0.409339 0.336004 0.000000
0.485847 0.338689 0.000000
0.559289 0.340063 0.000000
0.628901 0.338933 0.000000
0.690700 0.333959 0.000000
0.748165 0.328985 0.000000
0.800809 0.323461 0.000000
0.849119 0.318700 0.000000
0.893278 0.314366 0.000000
0.933715 0.310765 0.000000
0.970459 0.308354 0.077455
1.000000 0.306920 0.114931
1.000000 0.306828 0.140810
1.000000 0.309819 0.166781
1.000000 0.313725 0.189242
1.000000 0.318547 0.209842
1.000000 0.344915 0.256901
1.000000 0.352850 0.275792
1.000000 0.360693 0.293400
1.000000 0.369451 0.310369
1.000000 0.378546 0.326909
1.000000 0.388281 0.342565
1.000000 0.399084 0.358648
1.000000 0.410803 0.375158
1.000000 0.423713 0.392462
1.000000 0.437629 0.410101
0.000000 0.417945 0.000000
0.000000 0.418097 0.000000
0.000000 0.417975 0.000000
0.177279 0.418341 0.000000
0.261692 0.417121 0.000000
0.339178 0.414527 0.000000
0.411902 0.411688 0.000000
0.481270 0.407050 0.000000
0.556512 0.409369 0.000000
0.630579 0.411231 0.000000
0.702785 0.411688 0.000000
0.762692 0.406683 0.000000
0.813931 0.398901 0.000000
0.860746 0.391455 0.000000
0.903258 0.384375 0.000000
0.941680 0.377844 0.028840
0.977111 0.372290 0.099733
1.000000 0.367742 0.129946
1.000000 0.366949 0.158297
1.000000 0.367407 0.184085
1.000000 0.369116 0.207584
1.000000 0.372137 0.230106
1.000000 0.376684 0.252079
1.000000 0.382147 0.272313
1.000000 0.388190 0.291295
1.000000 0.394812 0.308995
1.000000 0.401099 0.324865
1.000000 0.408331 0.340642
1.000000 0.416541 0.356207
1.000000 0.425513 0.372015
1.000000 0.435889 0.388434
1.000000 0.447639 0.405615
0.000000 0.478187 0.000000
0.000000 0.478096 0.000000
0.000000 0.478035 0.000000
0.161318 0.478218 0.000000
0.250095 0.477546 0.000000
0.327459 0.475166 0.000000
0.399237 0.472145 0.000000
0.468849 0.468544 0.000000
0.534813 0.463691 0.000000
0.607172 0.465156 0.000000
0.679347 0.467445 0.000000
0.745663 0.466712 0.000000
0.805783 0.463935 0.000000
0.853025 0.455177 0.000000
0.895415 0.446082 0.000000
0.933898 0.437385 0.045289
0.969329 0.429847 0.107362
1.000000 0.424323 0.138552
1.000000 0.420508 0.165957
1.000000 0.417517 0.190280
1.000000 0.415839 0.212100
1.000000 0.415351 0.233463
1.000000 0.416297 0.254582
1.000000 0.418402 0.274235
1.000000 0.421576 0.292851
1.000000 0.424903 0.309758
1.000000 0.428870 0.325750
1.000000 0.433204 0.340581
1.000000 0.438819 0.355688
1.000000 0.445747 0.371405
1.000000 0.453590 0.387213
1.000000 0.463172 0.404028
0.000000 0.535943 0.000000
0.000000 0.536126 0.000000
0.000000 0.535943 0.000000
0.148623 0.536034 0.000000
0.241398 0.535943 0.000000
0.318608 0.533959 0.000000
0.388830 0.530907 0.000000
0.457618 0.527550 0.000000
0.523827 0.523980 0.000000
0.588220 0.519158 0.000000
0.656764 0.519310 0.000000
0.723964 0.519921 0.000000
0.785183 0.517662 0.000000
0.840574 0.513573 0.000000
0.889311 0.507469 0.000000
0.927703 0.496895 0.078492
0.965942 0.488808 0.121035
1.000000 0.481636 0.151553
1.000000 0.474647 0.175906
1.000000 0.468696 0.198550
1.000000 0.464088 0.219547
1.000000 0.460883 0.240055
1.000000 0.458900 0.260563
1.000000 0.458137 0.279301
1.000000 0.458289 0.296910
1.000000 0.458961 0.313390
1.000000 0.460334 0.328801
1.000000 0.462501 0.343450
1.000000 0.465797 0.358343
1.000000 0.470069 0.373205
1.000000 0.475929 0.388769
1.000000 0.483040 0.404944
0.000000 0.592493 0.000000
0.000000 0.592309 0.000000
0.000000 0.592004 0.000000
0.142031 0.591760 0.000000
0.233280 0.591485 0.000000
0.310460 0.590417 0.000000
0.380255 0.587152 0.000000
0.447028 0.583825 0.000000
0.512016 0.579828 0.000000
0.575616 0.575830 0.000000
0.637781 0.570764 0.000000
0.699031 0.566918 0.000000
0.761746 0.565850 0.000000
0.818509 0.562737 0.000000
0.871061 0.558312 0.000000
0.921172 0.554650 0.091829
0.962860 0.547814 0.137331
0.996918 0.538079 0.164920
1.000000 0.528862 0.188266
1.000000 0.520531 0.209934
1.000000 0.513176 0.229557
1.000000 0.506828 0.248600
1.000000 0.501762 0.266758
1.000000 0.497932 0.283513
1.000000 0.494820 0.299443
1.000000 0.492805 0.314672
1.000000 0.491737 0.329686
1.000000 0.491615 0.343969
1.000000 0.492836 0.358587
1.000000 0.495338 0.373663
1.000000 0.499245 0.389349
1.000000 0.504631 0.405707
0.000000 0.640864 0.000000
0.000000 0.640864 0.000000
0.000000 0.640864 0.000000
0.138918 0.640772 0.000000
0.227695 0.640772 0.000000
0.303441 0.640711 0.000000
0.372320 0.638849 0.000000
0.437263 0.635920 0.000000
0.500938 0.632563 0.000000
0.563409 0.628840 0.000000
0.624750 0.624445 0.000000
0.684443 0.619745 0.000000
0.740261 0.612909 0.000000
0.801572 0.612421 0.000000
0.856718 0.609491 0.000000
0.906462 0.604822 0.031586
0.950774 0.598688 0.131991
0.989746 0.591669 0.175051
1.000000 0.581506 0.200259
1.000000 0.570825 0.220523
1.000000 0.561059 0.239261
1.000000 0.552514 0.257084
1.000000 0.545403 0.274418
1.000000 0.539147 0.290501
1.000000 0.533989 0.305852
1.000000 0.529931 0.320745
1.000000 0.526787 0.334966
1.000000 0.524773 0.349004
1.000000 0.523888 0.363104
1.000000 0.524376 0.377783
1.000000 0.526390 0.393072
1.000000 0.529717 0.409003
0.000000 0.688014 0.000000
0.000000 0.688075 0.000000
0.000000 0.688075 0.000000
0.141268 0.688014 0.000000
0.225132 0.688136 0.000000
0.298039 0.688075 0.000000
0.366400 0.687831 0.000000
0.429450 0.685237 0.000000
0.491157 0.682338 0.000000
0.551934 0.678950 0.000000
0.613367 0.676478 0.000000
0.674403 0.674372 0.000000
0.760189 0.695155 0.000000
0.813077 0.685359 0.000000
0.869169 0.681025 0.000000
0.918639 0.674067 0.042878
0.961395 0.665431 0.149538
0.998901 0.655970 0.194919
1.000000 0.646387 0.231174
1.000000 0.637110 0.260563
1.000000 0.624659 0.278447
1.000000 0.613550 0.294469
1.000000 0.603479 0.309422
1.000000 0.594934 0.324254
1.000000 0.587366 0.338018
1.000000 0.580743 0.350835
1.000000 0.574945 0.362921
1.000000 0.570367 0.374884
1.000000 0.567163 0.387488
1.000000 0.565118 0.400244
1.000000 0.564630 0.413825
1.000000 0.565698 0.428199
0.000000 0.742031 0.000000
0.000000 0.741909 0.000000
0.013397 0.741329 0.000000
0.158175 0.740841 0.000000
0.231662 0.739956 0.000000
0.299382 0.739040 0.000000
0.366155 0.739528 0.000000
0.428840 0.739132 0.000000
0.489845 0.738247 0.000000
0.550988 0.737362 0.000000
0.612604 0.736812 0.000000
0.674220 0.736385 0.000000
0.735470 0.735439 0.000000
0.795712 0.733425 0.000000
0.844602 0.722072 0.000000
0.895689 0.715755 0.000000
0.940154 0.706722 0.108492
0.978546 0.696407 0.172763
1.000000 0.685786 0.214969
1.000000 0.675319 0.249149
1.000000 0.665309 0.277836
1.000000 0.655268 0.301122
1.000000 0.643610 0.315587
1.000000 0.633204 0.329015
1.000000 0.623926 0.342168
1.000000 0.615808 0.354772
1.000000 0.608637 0.367010
1.000000 0.602564 0.378759
1.000000 0.597711 0.390875
1.000000 0.594324 0.403632
1.000000 0.592187 0.416999
1.000000 0.591730 0.431495
0.000000 0.784360 0.000000
0.000000 0.784146 0.000000
0.106447 0.783658 0.000000
0.175296 0.783017 0.000000
0.239200 0.782284 0.000000
0.300999 0.781613 0.016846
0.363409 0.781247 0.063874
0.423957 0.780850 0.092714
0.481514 0.779110 0.077333
0.539147 0.777707 0.045960
0.597406 0.776638 0.013275
0.656123 0.775631 0.000000
0.714656 0.774350 0.000000
0.772122 0.772244 0.000000
0.828397 0.768826 0.000000
0.873564 0.756191 0.000000
0.917723 0.745907 0.041230
0.957763 0.735286 0.142153
0.992889 0.724086 0.194034
1.000000 0.712764 0.234257
1.000000 0.701839 0.266819
1.000000 0.691707 0.295048
1.000000 0.682490 0.319890
1.000000 0.672297 0.337469
1.000000 0.661646 0.349798
1.000000 0.652094 0.361791
1.000000 0.643458 0.373266
1.000000 0.635981 0.384924
1.000000 0.629694 0.396765
1.000000 0.624750 0.409125
1.000000 0.621241 0.422400
1.000000 0.619226 0.436622
0.101717 0.821408 0.104128
0.113161 0.821256 0.104280
0.146304 0.820645 0.105165
0.195346 0.819730 0.107179
0.249424 0.818479 0.112673
0.304784 0.817197 0.121248
0.361181 0.816251 0.130709
0.418799 0.815640 0.143709
0.473823 0.814328 0.144289
0.528496 0.812711 0.138277
0.583307 0.811429 0.131930
0.639033 0.810208 0.124727
0.694301 0.808713 0.115450
0.749294 0.806516 0.102724
0.803189 0.803220 0.073182
0.855528 0.798520 0.006958
0.898283 0.785763 0.000000
0.936919 0.772824 0.115969
0.973632 0.761288 0.171542
1.000000 0.749294 0.214603
1.000000 0.737728 0.252903
1.000000 0.726833 0.284092
1.000000 0.716579 0.311284
1.000000 0.707179 0.335424
1.000000 0.698451 0.356970
1.000000 0.688197 0.370001
1.000000 0.678431 0.381231
1.000000 0.669947 0.393011
1.000000 0.662593 0.404974
1.000000 0.656733 0.417823
1.000000 0.652430 0.431983
1.000000 0.649592 0.447028
0.153079 0.850584 0.154269
0.159762 0.850614 0.154452
0.182132 0.850370 0.155734
0.217411 0.849851 0.157504
0.262394 0.849149 0.161349
0.311528 0.848417 0.166873
0.363226 0.847959 0.174441
0.416693 0.847684 0.184390
0.470741 0.847471 0.194430
0.521477 0.845884 0.190494
0.572808 0.844083 0.186069
0.624445 0.842008 0.180484
0.676112 0.839506 0.173648
0.727474 0.836362 0.165042
0.777920 0.832456 0.153109
0.827726 0.827817 0.139101
0.876982 0.822507 0.118715
0.918090 0.810727 0.110597
0.952728 0.796048 0.149172
0.986877 0.784176 0.196384
1.000000 0.772274 0.233158
1.000000 0.760983 0.270024
1.000000 0.750240 0.300877
1.000000 0.740139 0.327367
1.000000 0.730709 0.351385
1.000000 0.722072 0.373083
1.000000 0.714168 0.392920
1.000000 0.704494 0.404028
1.000000 0.696010 0.415656
1.000000 0.688838 0.427893
1.000000 0.682887 0.440894
1.000000 0.678401 0.454932
0.192081 0.875059 0.192233
0.196872 0.874998 0.192508
0.211398 0.874784 0.193301
0.239567 0.874449 0.194766
0.276616 0.873930 0.198032
0.318975 0.873381 0.202029
0.365545 0.872892 0.208103
0.414771 0.872435 0.216220
0.464820 0.872099 0.225284
0.513329 0.871061 0.227939
0.561089 0.869322 0.224247
0.609461 0.867338 0.220218
0.658076 0.864988 0.215213
0.706538 0.862089 0.209049
0.754818 0.858579 0.200961
0.802548 0.854398 0.191257
0.849607 0.849729 0.179232
0.896452 0.844633 0.165652
0.936889 0.834348 0.158511
0.968200 0.818387 0.180575
1.000000 0.806577 0.221012
1.000000 0.794614 0.254246
1.000000 0.783322 0.287694
1.000000 0.772580 0.317723
1.000000 0.762448 0.343908
1.000000 0.753079 0.367864
1.000000 0.744442 0.389807
1.000000 0.736690 0.410346
1.000000 0.729091 0.427497
1.000000 0.720851 0.439368
1.000000 0.713893 0.452155
1.000000 0.708156 0.465919
0.229587 0.897948 0.229313
0.232303 0.898070 0.229831
0.268254 0.910643 0.256321
0.287419 0.910369 0.257420
0.315404 0.909850 0.259373
0.349676 0.909209 0.262730
0.388647 0.908415 0.267216
0.431434 0.907622 0.272648
0.476387 0.906950 0.279820
0.522850 0.906218 0.287846
0.566064 0.904417 0.285039
0.610285 0.902312 0.281865
0.654902 0.899626 0.277165
0.699977 0.896422 0.271397
0.744778 0.892638 0.264561
0.789425 0.888243 0.256504
0.833799 0.883268 0.246250
0.877897 0.877928 0.234958
0.921630 0.872282 0.222934
0.961089 0.862974 0.213718
0.989105 0.845365 0.223423
1.000000 0.832731 0.257206
1.000000 0.820157 0.286107
1.000000 0.808042 0.314855
1.000000 0.796506 0.342596
1.000000 0.785641 0.366705
1.000000 0.775570 0.388464
1.000000 0.766384 0.409125
1.000000 0.758267 0.429114
1.000000 0.751492 0.449042
1.000000 0.744320 0.464240
1.000000 0.737362 0.477180
0.269932 0.921355 0.270146
0.274327 0.922393 0.272557
0.285191 0.923400 0.275731
0.303807 0.924102 0.279057
0.328557 0.924437 0.282841
0.358556 0.924193 0.286015
0.393530 0.923522 0.290105
0.431495 0.922728 0.294316
0.472297 0.921904 0.300481
0.515099 0.921080 0.307774
0.556542 0.919829 0.310094
0.597253 0.917906 0.307469
0.638819 0.915557 0.303075
0.680903 0.912810 0.298497
0.723110 0.909636 0.292973
0.765621 0.905974 0.286259
0.808133 0.901946 0.278508
0.850492 0.897581 0.269932
0.892973 0.893004 0.260777
0.935332 0.888334 0.250980
0.975006 0.881193 0.242557
1.000000 0.863981 0.245182
1.000000 0.851438 0.277043
1.000000 0.838895 0.304692
1.000000 0.826505 0.329229
1.000000 0.814908 0.356115
1.000000 0.804013 0.379919
1.000000 0.793973 0.402167
1.000000 0.784878 0.423133
1.000000 0.776944 0.443824
1.000000 0.770230 0.464546
1.000000 0.764553 0.484962
0.294285 0.936614 0.294652
0.298405 0.937560 0.297154
0.307958 0.938567 0.299962
0.323156 0.939269 0.303410
0.344671 0.939605 0.306737
0.371130 0.939422 0.310277
0.401038 0.938872 0.313207
0.435401 0.938048 0.317540
0.472389 0.937194 0.322911
0.511192 0.936278 0.328862
0.551629 0.935363 0.336187
0.588983 0.933654 0.333532
0.627314 0.931640 0.329931
0.666621 0.929290 0.325872
0.706386 0.926543 0.321508
0.746365 0.923491 0.315709
0.786709 0.920043 0.309209
0.827085 0.916320 0.301640
0.867643 0.912413 0.294224
0.908385 0.908385 0.285985
0.949126 0.904204 0.277684
0.988800 0.899077 0.269718
1.000000 0.882506 0.271061
1.000000 0.869261 0.296544
1.000000 0.856565 0.322301
1.000000 0.844083 0.345068
1.000000 0.832334 0.369909
1.000000 0.821408 0.393591
1.000000 0.811460 0.416297
1.000000 0.802487 0.437995
1.000000 0.794614 0.459480
1.000000 0.787716 0.480232
0.318059 0.951354 0.318273
0.321538 0.952178 0.320531
0.329442 0.952941 0.323125
0.342748 0.953491 0.326268
0.360998 0.953735 0.329290
0.383764 0.953521 0.332097
0.410254 0.953033 0.334874
0.440681 0.952270 0.338720
0.473854 0.951507 0.343236
0.509606 0.950622 0.348882
0.547143 0.949645 0.355596
0.583551 0.948363 0.358404
0.618830 0.946624 0.354986
0.655177 0.944610 0.351507
0.692561 0.942321 0.347967
0.730220 0.939818 0.343236
0.768582 0.937194 0.338750
0.807462 0.934386 0.333593
0.846586 0.931579 0.328679
0.886107 0.928710 0.323400
0.925750 0.925780 0.318456
0.965545 0.922759 0.313481
1.000000 0.919524 0.307347
1.000000 0.904021 0.309422
1.000000 0.890379 0.329473
1.000000 0.877684 0.354650
1.000000 0.865232 0.377386
1.000000 0.853483 0.400977
1.000000 0.842863 0.426001
1.000000 0.833158 0.449653
1.000000 0.824369 0.472175
1.000000 0.816556 0.493904
0.354467 0.969940 0.354589
0.356603 0.970214 0.355596
0.361730 0.970367 0.356847
0.371160 0.970306 0.357977
0.385534 0.970031 0.359380
0.403906 0.969482 0.361151
0.426703 0.968841 0.363592
0.453132 0.968078 0.366583
0.482765 0.967254 0.370428
0.515038 0.966430 0.375677
0.549096 0.965515 0.381842
0.584588 0.964508 0.388739
0.616999 0.962982 0.386633
0.650416 0.961242 0.383734
0.684718 0.959258 0.379919
0.719844 0.957061 0.376043
0.755581 0.954650 0.371679
0.791836 0.952087 0.367163
0.828519 0.949432 0.362310
0.865690 0.946624 0.357092
0.903136 0.943725 0.351812
0.940673 0.940703 0.346563
0.978332 0.937560 0.340642
1.000000 0.934173 0.334173
1.000000 0.920012 0.333806
1.000000 0.905821 0.347570
1.000000 0.893004 0.371893
1.000000 0.880613 0.394690
1.000000 0.868803 0.417121
1.000000 0.858091 0.442176
1.000000 0.848234 0.465766
1.000000 0.839200 0.488258
0.375250 0.982177 0.375586
0.377081 0.982391 0.376471
0.381781 0.982513 0.377539
0.389929 0.982452 0.378729
0.402258 0.982208 0.380133
0.418341 0.981781 0.381750
0.438422 0.981170 0.383917
0.461952 0.980499 0.386603
0.488624 0.979767 0.390265
0.518090 0.978912 0.395178
0.549218 0.978058 0.400641
0.582116 0.977050 0.407141
0.614038 0.975860 0.409979
0.644862 0.974426 0.407477
0.676783 0.972778 0.404913
0.709468 0.970947 0.401831
0.743130 0.968994 0.398474
0.777279 0.966888 0.394751
0.812009 0.964660 0.390753
0.847196 0.962280 0.386786
0.882780 0.959838 0.382727
0.918578 0.957275 0.378393
0.954589 0.954559 0.373938
0.990661 0.951720 0.368963
1.000000 0.946319 0.354131
1.000000 0.933715 0.352422
1.000000 0.919310 0.361486
1.000000 0.906523 0.385504
1.000000 0.894041 0.408118
1.000000 0.882109 0.430121
1.000000 0.871244 0.454871
1.000000 0.861204 0.478737
0.403388 0.995697 0.403632
0.405859 0.996002 0.405249
0.409552 0.996063 0.406134
0.416022 0.995850 0.406592
0.425422 0.995392 0.406867
0.438422 0.994720 0.407324
0.454536 0.993835 0.407996
0.474250 0.992859 0.409247
0.497230 0.991821 0.411414
0.522698 0.990723 0.414374
0.550378 0.989532 0.418067
0.580041 0.988342 0.422736
0.610925 0.986999 0.428290
0.639124 0.985504 0.426093
0.668208 0.983764 0.422400
0.698238 0.981903 0.418616
0.729366 0.979950 0.414588
0.761379 0.977966 0.410864
0.794247 0.975982 0.407446
0.827756 0.973999 0.404395
0.861692 0.971954 0.401404
0.895964 0.969757 0.398138
0.930297 0.967346 0.394018
0.964660 0.964630 0.389136
0.998993 0.961669 0.383154
1.000000 0.958465 0.376623
1.000000 0.947204 0.373236
1.000000 0.932403 0.376928
1.000000 0.919249 0.399451
1.000000 0.906523 0.421576
1.000000 0.894347 0.443214
1.000000 0.882902 0.465888
0.415839 1.000000 0.416114
0.418036 1.000000 0.417548
0.421637 1.000000 0.418738
0.427649 1.000000 0.419562
0.436713 1.000000 0.420447
0.448768 1.000000 0.421637
0.464118 1.000000 0.423316
0.482734 1.000000 0.425360
0.504051 1.000000 0.428168
0.527947 1.000000 0.431861
0.553796 1.000000 0.436072
0.581415 0.999573 0.441047
0.610132 0.998383 0.446448
0.638361 0.997040 0.448981
0.664912 0.995575 0.445624
0.692714 0.993927 0.442329
0.721523 0.992187 0.438727
0.751247 0.990387 0.435218
0.782010 0.988586 0.432197
0.813443 0.986816 0.429511
0.845548 0.984955 0.427039
0.877928 0.983032 0.424445
0.910552 0.980926 0.421607
0.943297 0.978668 0.418067
0.976165 0.976165 0.414008
1.000000 0.973480 0.409247
1.000000 0.970642 0.403906
1.000000 0.960937 0.401038
1.000000 0.946105 0.401099
1.000000 0.932647 0.423682
1.000000 0.919524 0.444984
1.000000 0.906798 0.465003
0.433600 1.000000 0.433631
0.434791 1.000000 0.434363
0.437537 1.000000 0.434821
0.442786 1.000000 0.435584
0.450477 1.000000 0.436225
0.461067 1.000000 0.437232
0.474556 1.000000 0.438331
0.491005 1.000000 0.440070
0.510185 1.000000 0.442603
0.531884 1.000000 0.445838
0.555718 1.000000 0.449653
0.581140 1.000000 0.454078
0.607843 1.000000 0.458930
0.635462 1.000000 0.464057
0.660853 1.000000 0.462745
0.686397 1.000000 0.459388
0.713283 1.000000 0.456397
0.741176 1.000000 0.453071
0.770016 0.999145 0.450477
0.799649 0.997528 0.448096
0.829923 0.995850 0.446174
0.860655 0.994079 0.444099
0.891508 0.992157 0.441627
0.922698 0.990082 0.438636
0.953948 0.987793 0.435218
0.985351 0.985351 0.430915
1.000000 0.982788 0.426612
1.000000 0.980041 0.421851
1.000000 0.971740 0.418891
1.000000 0.956817 0.418158
1.000000 0.942748 0.436133
1.000000 0.929107 0.456367
0.444251 1.000000 0.444434
0.445350 1.000000 0.445045
0.448005 1.000000 0.445686
0.452949 1.000000 0.446632
0.460395 1.000000 0.447791
0.470924 1.000000 0.449561
0.484627 1.000000 0.452399
0.501335 1.000000 0.456367
0.520775 1.000000 0.461250
0.542351 1.000000 0.466743
0.565911 1.000000 0.473060
0.590600 1.000000 0.479652
0.616358 1.000000 0.486336
0.642634 1.000000 0.492897
0.668208 1.000000 0.497078
0.691707 1.000000 0.495216
0.716121 1.000000 0.493141
0.741512 1.000000 0.490791
0.767941 1.000000 0.489174
0.795132 1.000000 0.487556
0.822995 1.000000 0.486336
0.851316 1.000000 0.485023
0.879881 1.000000 0.483253
0.908721 1.000000 0.481178
0.937743 1.000000 0.478645
0.966979 0.998810 0.475532
0.996368 0.996399 0.471992
1.000000 0.993835 0.468177
1.000000 0.991180 0.464179
1.000000 0.983978 0.461250
1.000000 0.968780 0.460426
1.000000 0.954009 0.473396
0.471077 1.000000 0.471077
0.471504 1.000000 0.471107
0.473335 1.000000 0.471290
0.476967 1.000000 0.471534
0.482856 1.000000 0.472053
0.491249 1.000000 0.472938
0.502190 1.000000 0.474434
0.515709 1.000000 0.476448
0.531670 1.000000 0.479225
0.549859 1.000000 0.482521
0.570001 1.000000 0.486549
0.591669 1.000000 0.490974
0.614740 1.000000 0.495918
0.638758 1.000000 0.501061
