20 Preset/Japan Style/【3】LUT video cho PR-AE-FCPX/LUT VIDEO/Japan Style LUT (6).cube
# Created by Adobe Lightroom plugin Export LUT (1.24.0)
# www.johnrellis.com/lightroom/exportlut.htm
# Preset: 06日系基础色（素材江湖）
# Color profile: C:\Program Files (x86)\Common Files\Adobe\Color\Profiles\Recommended\VideoHD.icc
LUT_3D_SIZE 32
DOMAIN_MIN 0.0 0.0 0.0
DOMAIN_MAX 1.0 1.0 1.0
0.000000 0.000000 0.000000
0.008515 0.001282 0.000000
0.043977 0.004028 0.000000
0.097658 0.012238 0.000000
0.139895 0.028534 0.000000
0.199710 0.054841 0.000000
0.251133 0.092256 0.000000
0.290166 0.109895 0.000000
0.325536 0.124758 0.000000
0.360143 0.139101 0.000000
0.393133 0.150515 0.000000
0.424781 0.161410 0.000000
0.458869 0.171725 0.000000
0.496651 0.182376 0.000000
0.537499 0.192996 0.000000
0.578637 0.203128 0.000000
0.618402 0.213474 0.000000
0.657038 0.223453 0.000000
0.696132 0.233768 0.000000
0.735195 0.244388 0.000000
0.773312 0.254551 0.000000
0.809628 0.264561 0.000000
0.844511 0.273808 0.000000
0.878477 0.283085 0.000000
0.910460 0.291814 0.000000
0.941131 0.300420 0.000000
0.971008 0.308507 0.000000
1.000000 0.316503 0.000000
1.000000 0.324315 0.000000
1.000000 0.332006 0.000000
1.000000 0.339391 0.000000
1.000000 0.346746 0.000000
0.000977 0.007752 0.000000
0.006958 0.007080 0.000000
0.044251 0.013001 0.000000
0.097749 0.021210 0.000000
0.140352 0.037263 0.000000
0.200015 0.072511 0.000000
0.251591 0.097963 0.000000
0.290288 0.114229 0.000000
0.325994 0.128542 0.000000
0.360601 0.142092 0.000000
0.393408 0.153872 0.000000
0.425360 0.163973 0.000000
0.459602 0.174136 0.000000
0.497597 0.184298 0.000000
0.538293 0.195102 0.000000
0.579583 0.205234 0.000000
0.619226 0.215213 0.000000
0.657923 0.224887 0.000000
0.697017 0.235294 0.000000
0.736110 0.245670 0.000000
0.774258 0.256199 0.000000
0.810666 0.265660 0.000000
0.845609 0.275181 0.000000
0.879423 0.284428 0.000000
0.911406 0.293095 0.000000
0.941955 0.301335 0.000000
0.971801 0.309422 0.000000
1.000000 0.317479 0.000000
1.000000 0.324865 0.000000
1.000000 0.332738 0.000000
1.000000 0.340154 0.000000
1.000000 0.347478 0.000000
0.005921 0.039734 0.000000
0.012421 0.041230 0.000000
0.042664 0.043458 0.000000
0.097871 0.058198 0.000000
0.142428 0.080629 0.000000
0.201694 0.102022 0.000000
0.251438 0.118105 0.000000
0.290105 0.130617 0.000000
0.325628 0.142580 0.000000
0.360449 0.153414 0.000000
0.393408 0.163485 0.000000
0.425574 0.172366 0.000000
0.460060 0.181460 0.000000
0.498146 0.191470 0.000000
0.539147 0.201602 0.000000
0.580468 0.211398 0.000000
0.619928 0.220890 0.000000
0.658656 0.230655 0.000000
0.697749 0.240665 0.000000
0.736782 0.250858 0.000000
0.774807 0.260655 0.000000
0.811154 0.270268 0.000000
0.845975 0.279545 0.000000
0.879881 0.288518 0.000000
0.911711 0.296696 0.000000
0.942382 0.304906 0.000000
0.972137 0.312871 0.000000
1.000000 0.320745 0.000000
1.000000 0.328191 0.000000
1.000000 0.335607 0.000000
1.000000 0.342840 0.000000
1.000000 0.350042 0.000000
0.023529 0.095827 0.000000
0.028779 0.096010 0.000000
0.054719 0.096925 0.000000
0.098909 0.100679 0.000000
0.145022 0.116487 0.000000
0.203830 0.135042 0.000000
0.251041 0.147524 0.000000
0.288823 0.156435 0.000000
0.324895 0.164920 0.000000
0.359899 0.172976 0.000000
0.393072 0.180758 0.000000
0.425269 0.187778 0.000000
0.460426 0.195956 0.000000
0.498909 0.204807 0.000000
0.540063 0.213840 0.000000
0.581384 0.223331 0.000000
0.620905 0.232425 0.000000
0.659571 0.241855 0.000000
0.698848 0.251438 0.000000
0.738033 0.261112 0.000000
0.775967 0.270298 0.000000
0.812192 0.279423 0.000000
0.847013 0.287999 0.000000
0.880583 0.296147 0.000000
0.912291 0.304143 0.000000
0.942687 0.311833 0.000000
0.972259 0.319493 0.000000
1.000000 0.326757 0.000000
1.000000 0.333928 0.000000
1.000000 0.341070 0.000000
1.000000 0.348150 0.000000
1.000000 0.355138 0.000000
0.000641 0.146029 0.000000
0.009888 0.146059 0.000000
0.051575 0.145571 0.000000
0.105531 0.148898 0.000000
0.147921 0.154421 0.000000
0.203616 0.172580 0.000000
0.248753 0.181888 0.000000
0.287816 0.186465 0.000000
0.324285 0.192691 0.000000
0.359625 0.198642 0.000000
0.392615 0.203647 0.000000
0.425513 0.209171 0.000000
0.461128 0.215824 0.000000
0.500084 0.223789 0.000000
0.541466 0.232456 0.000000
0.582269 0.241184 0.000000
0.621607 0.249607 0.000000
0.660304 0.258427 0.000000
0.699458 0.267247 0.000000
0.738552 0.275792 0.000000
0.776394 0.284459 0.000000
0.812589 0.292638 0.000000
0.847318 0.300328 0.000000
0.880735 0.308019 0.000000
0.912291 0.315312 0.000000
0.942596 0.322515 0.000000
0.972198 0.329290 0.000000
1.000000 0.336004 0.000000
1.000000 0.342870 0.000000
1.000000 0.349737 0.000000
1.000000 0.356390 0.000000
1.000000 0.362951 0.000000
0.000000 0.201114 0.000000
0.000000 0.200931 0.000000
0.009644 0.200168 0.000000
0.098756 0.200229 0.000000
0.149935 0.202274 0.000000
0.195163 0.204196 0.000000
0.244388 0.215213 0.000000
0.282963 0.219547 0.000000
0.321386 0.223484 0.000000
0.358404 0.226902 0.000000
0.391577 0.230503 0.000000
0.424994 0.234745 0.000000
0.461219 0.240696 0.000000
0.500603 0.247929 0.000000
0.541924 0.256046 0.000000
0.582635 0.263920 0.000000
0.621698 0.271641 0.000000
0.660426 0.279393 0.000000
0.699733 0.287236 0.000000
0.738399 0.294957 0.000000
0.776181 0.302556 0.000000
0.812284 0.309819 0.000000
0.841733 0.315099 0.000000
0.875547 0.322301 0.000000
0.907439 0.328649 0.000000
0.938018 0.335027 0.000000
0.967926 0.341283 0.000000
0.997192 0.347601 0.000000
1.000000 0.353857 0.000000
1.000000 0.360388 0.000000
1.000000 0.366430 0.000000
1.000000 0.372625 0.000000
0.000000 0.239322 0.000000
0.000000 0.239261 0.000000
0.014496 0.238682 0.000000
0.102754 0.237736 0.000000
0.147280 0.238224 0.000000
0.189364 0.239017 0.000000
0.229801 0.239902 0.000000
0.276524 0.249912 0.000000
0.314214 0.254765 0.000000
0.351476 0.257969 0.000000
0.387274 0.259648 0.000000
0.421973 0.262943 0.000000
0.458808 0.268437 0.000000
0.498482 0.275303 0.000000
0.539971 0.282689 0.000000
0.580621 0.289891 0.000000
0.619959 0.296513 0.000000
0.658930 0.303258 0.000000
0.697871 0.310216 0.000000
0.736355 0.317052 0.000000
0.773709 0.323613 0.000000
0.809354 0.329595 0.000000
0.843717 0.335637 0.000000
0.876799 0.341344 0.000000
0.908202 0.347021 0.000000
0.938445 0.352636 0.000000
0.968200 0.358038 0.000000
0.997314 0.363561 0.000000
1.000000 0.369482 0.000000
1.000000 0.375097 0.000000
1.000000 0.380774 0.000000
1.000000 0.386389 0.000000
0.024231 0.274083 0.000000
0.040497 0.274022 0.000000
0.089174 0.273503 0.000000
0.122621 0.273014 0.000000
0.155581 0.272435 0.008545
0.191104 0.273136 0.000000
0.226658 0.273808 0.000000
0.263218 0.274632 0.000000
0.308598 0.285100 0.000000
0.344976 0.289250 0.000000
0.380438 0.291936 0.000000
0.417914 0.295262 0.000000
0.458778 0.300023 0.000000
0.499611 0.306493 0.000000
0.541375 0.313390 0.000000
0.581781 0.319524 0.000000
0.620935 0.325536 0.000000
0.660121 0.331365 0.000000
0.698909 0.337011 0.000000
0.737423 0.343145 0.000000
0.774624 0.348608 0.000000
0.810117 0.353796 0.000000
0.844450 0.358740 0.000000
0.877226 0.363622 0.000000
0.908385 0.368444 0.000000
0.938567 0.373022 0.000000
0.968109 0.377722 0.000000
0.997223 0.382605 0.000000
1.000000 0.387671 0.000000
1.000000 0.392767 0.000000
1.000000 0.397772 0.000000
1.000000 0.402808 0.000000
0.094301 0.309056 0.055116
0.099519 0.308934 0.057343
0.114168 0.308629 0.063783
0.137575 0.308293 0.078248
0.164614 0.307500 0.090181
0.195102 0.307652 0.088563
0.226505 0.308171 0.077516
0.260441 0.308263 0.056764
0.294469 0.308507 0.032044
0.337438 0.316625 0.000000
0.374090 0.321996 0.000000
0.411688 0.326787 0.000000
0.453132 0.332586 0.000000
0.497688 0.339147 0.000000
0.542748 0.345342 0.000000
0.582849 0.350866 0.000000
0.622095 0.356085 0.000000
0.660883 0.361242 0.000000
0.699825 0.366278 0.000000
0.738308 0.371221 0.000000
0.775357 0.376043 0.000000
0.810452 0.380377 0.000000
0.844724 0.384588 0.000000
0.877226 0.388312 0.000000
0.908141 0.392340 0.000000
0.938293 0.396002 0.000000
0.967773 0.400000 0.000000
0.996704 0.404150 0.000000
1.000000 0.408484 0.000000
1.000000 0.412757 0.000000
1.000000 0.417273 0.000000
1.000000 0.421485 0.000000
0.114900 0.342199 0.111269
0.118044 0.342229 0.111818
0.128878 0.342077 0.113588
0.148196 0.341741 0.117800
0.170962 0.341405 0.123568
0.197482 0.341039 0.128237
0.226993 0.341131 0.123507
0.258091 0.341283 0.117861
0.290501 0.341009 0.110323
0.324041 0.340642 0.101198
0.365759 0.347723 0.086580
0.406836 0.357061 0.063874
0.448432 0.364569 0.038544
0.492775 0.372351 0.012238
0.537987 0.379034 0.000000
0.581903 0.383734 0.000000
0.622889 0.388067 0.000000
0.661769 0.392401 0.000000
0.700649 0.396948 0.000000
0.738888 0.401343 0.000000
0.775784 0.405341 0.000000
0.810910 0.408789 0.000000
0.844999 0.412329 0.000000
0.877317 0.415564 0.000000
0.908232 0.418463 0.000000
0.938140 0.421515 0.000000
0.967468 0.424750 0.000000
0.996338 0.428046 0.000000
1.000000 0.431678 0.000000
1.000000 0.435187 0.000000
1.000000 0.438727 0.000000
1.000000 0.442329 0.000000
0.123873 0.377569 0.143801
0.125856 0.377630 0.143954
0.135561 0.377539 0.145602
0.153140 0.377417 0.148592
0.175601 0.377020 0.153445
0.200412 0.376776 0.159823
0.228275 0.376654 0.159060
0.257511 0.376715 0.154055
0.289220 0.376410 0.147799
0.322026 0.376165 0.140780
0.355749 0.375372 0.131441
0.397498 0.382177 0.119265
0.443885 0.395483 0.106447
0.487770 0.404395 0.095216
0.531914 0.411627 0.080476
0.575097 0.416968 0.056550
0.618158 0.421424 0.031739
0.661646 0.425452 0.010315
0.701930 0.429480 0.000000
0.739956 0.433295 0.000000
0.776394 0.436439 0.000000
0.811276 0.439246 0.000000
0.845090 0.442115 0.000000
0.876951 0.444190 0.000000
0.907683 0.446235 0.000000
0.937469 0.448737 0.000000
0.966705 0.451179 0.000000
0.995453 0.453773 0.000000
1.000000 0.456580 0.000000
1.000000 0.459480 0.000000
1.000000 0.462348 0.000000
1.000000 0.465003 0.000000
0.117983 0.418158 0.173220
0.120851 0.418158 0.173190
0.130831 0.418036 0.174319
0.149447 0.418006 0.177249
0.172549 0.417823 0.181033
0.199100 0.417639 0.186404
0.226596 0.417517 0.190829
0.257084 0.417365 0.186404
0.289067 0.416999 0.180758
0.322179 0.416480 0.174472
0.356085 0.415686 0.166293
0.390661 0.414466 0.157229
0.428779 0.416327 0.144015
0.479011 0.432197 0.130709
0.522301 0.440467 0.121706
0.564935 0.446784 0.113222
0.607507 0.451972 0.104555
0.651118 0.456764 0.095308
0.694484 0.461006 0.084718
0.736934 0.464179 0.064576
0.773404 0.466896 0.032776
0.808225 0.469245 0.005921
0.841855 0.471107 0.000000
0.873716 0.472877 0.000000
0.904417 0.474464 0.000000
0.934295 0.476143 0.000000
0.963684 0.477913 0.000000
0.992493 0.479988 0.000000
1.000000 0.482002 0.000000
1.000000 0.484199 0.000000
1.000000 0.486397 0.000000
1.000000 0.488380 0.000000
0.088533 0.460822 0.197726
0.090608 0.460945 0.197818
0.107576 0.460700 0.198917
0.130220 0.460914 0.200992
0.158114 0.460975 0.204471
0.187808 0.460945 0.208835
0.218570 0.461128 0.215183
0.251652 0.460548 0.214023
0.285557 0.459815 0.209262
0.320287 0.458747 0.203342
0.355291 0.457404 0.196323
0.390417 0.455604 0.188174
0.425544 0.453651 0.178653
0.465553 0.455695 0.167483
0.517205 0.471778 0.154360
0.559258 0.478767 0.147250
0.601678 0.484871 0.139315
0.644953 0.490272 0.131868
0.688228 0.494972 0.123812
0.730556 0.498634 0.116854
0.771206 0.500786 0.109834
0.809476 0.502342 0.104158
0.842435 0.503410 0.095491
0.873869 0.504234 0.088258
0.904295 0.504936 0.077729
0.933928 0.506004 0.069123
0.963104 0.506920 0.063203
0.991669 0.508202 0.061738
1.000000 0.509545 0.061494
1.000000 0.510918 0.071443
1.000000 0.512230 0.082704
1.000000 0.513573 0.094179
0.000000 0.505028 0.220340
0.000000 0.505119 0.220401
0.000000 0.505180 0.221500
0.082399 0.505272 0.223209
0.128603 0.505180 0.225925
0.166720 0.505303 0.229862
0.203647 0.505241 0.235050
0.239231 0.504906 0.239597
0.277256 0.503838 0.234897
0.314733 0.502403 0.229435
0.351873 0.500725 0.223362
0.388556 0.498512 0.216342
0.425177 0.495979 0.208377
0.461433 0.493263 0.199252
0.499947 0.492927 0.188724
0.554040 0.509789 0.175387
0.596002 0.516869 0.167849
0.638819 0.522911 0.160983
0.681819 0.528222 0.152956
0.723812 0.532036 0.146365
0.764218 0.534478 0.140627
0.803708 0.535943 0.136172
0.840696 0.536339 0.133822
0.873747 0.536095 0.130434
0.903899 0.536004 0.126925
0.933379 0.536248 0.123507
0.962249 0.536553 0.121645
0.990570 0.537194 0.120851
1.000000 0.537804 0.120760
1.000000 0.538537 0.123110
1.000000 0.539208 0.127474
1.000000 0.539788 0.133852
0.000000 0.547295 0.241794
0.000000 0.547326 0.241886
0.000000 0.547448 0.242618
0.000000 0.547509 0.244327
0.059052 0.547570 0.246952
0.137087 0.547723 0.250828
0.183871 0.547601 0.255619
0.225162 0.547539 0.261692
0.265873 0.546532 0.261082
0.306157 0.545006 0.255894
0.345190 0.543084 0.249821
0.383978 0.540581 0.242954
0.421820 0.538079 0.235203
0.459236 0.535058 0.226841
0.496254 0.531823 0.217411
0.533593 0.529290 0.207126
0.590692 0.547875 0.192691
0.632929 0.554864 0.185245
0.675380 0.560479 0.178042
0.717067 0.564752 0.171633
0.757382 0.567468 0.166079
0.796719 0.569268 0.161624
0.833616 0.569604 0.159274
0.868711 0.569085 0.158724
0.902556 0.567895 0.159121
0.932586 0.567254 0.157839
0.961212 0.567010 0.156252
0.989227 0.566979 0.155489
1.000000 0.566827 0.155947
1.000000 0.566857 0.157656
1.000000 0.566949 0.161685
1.000000 0.566888 0.167483
0.000000 0.590051 0.264317
0.000000 0.590021 0.264775
0.000000 0.590021 0.265537
0.000000 0.589960 0.267002
0.000000 0.590082 0.269841
0.093629 0.589899 0.273411
0.160678 0.589899 0.278050
0.209964 0.589746 0.283909
0.254124 0.589319 0.289677
0.296971 0.587640 0.284123
0.337987 0.585595 0.278019
0.377935 0.583185 0.271122
0.417487 0.580591 0.263462
0.456092 0.577630 0.255070
0.494057 0.574212 0.245640
0.531456 0.570672 0.235660
0.568383 0.566674 0.224826
0.626551 0.585168 0.210086
0.669398 0.592370 0.202060
0.710292 0.596765 0.196170
0.750484 0.600000 0.190768
0.789517 0.602075 0.186618
0.826261 0.602533 0.184573
0.861357 0.602014 0.184024
0.895293 0.600916 0.184573
0.928008 0.599695 0.186374
0.959716 0.598016 0.189517
0.987396 0.597345 0.188693
1.000000 0.596704 0.189639
1.000000 0.596124 0.191867
1.000000 0.595697 0.195987
1.000000 0.595239 0.201450
0.000000 0.632563 0.289860
0.000000 0.632502 0.290196
0.000000 0.632532 0.290867
0.000000 0.632410 0.292332
0.000000 0.632349 0.294957
0.000000 0.632471 0.298466
0.135958 0.632258 0.303105
0.196933 0.631952 0.308965
0.245396 0.631769 0.315953
0.289097 0.630671 0.315953
0.331609 0.628656 0.309728
0.372686 0.626215 0.302647
0.412696 0.623590 0.294957
0.452003 0.620447 0.286229
0.490791 0.617060 0.276951
0.529168 0.613397 0.266789
0.566735 0.609400 0.255863
0.603815 0.604883 0.244541
0.659998 0.620783 0.230228
0.703609 0.628168 0.222080
0.743404 0.632074 0.216983
0.782101 0.634241 0.213107
0.818662 0.634974 0.211032
0.853758 0.634668 0.210941
0.887633 0.633722 0.211765
0.920500 0.632502 0.213718
0.952361 0.630884 0.216648
0.983124 0.629145 0.220310
1.000000 0.627436 0.224949
1.000000 0.626337 0.226993
1.000000 0.625269 0.230564
1.000000 0.624384 0.236057
0.000000 0.672389 0.318151
0.000000 0.672328 0.318029
0.000000 0.670008 0.317082
0.000000 0.670100 0.318547
0.000000 0.670008 0.320897
0.000000 0.669978 0.324346
0.118288 0.669856 0.328801
0.187747 0.669551 0.334173
0.239658 0.669398 0.340826
0.285374 0.668879 0.347509
0.327123 0.666957 0.341741
0.367803 0.664637 0.334966
0.407568 0.662226 0.327337
0.446876 0.659358 0.319127
0.485786 0.656092 0.310002
0.524071 0.652613 0.300114
0.562097 0.648859 0.289464
0.599512 0.644739 0.277745
0.636378 0.640253 0.265965
0.690639 0.653742 0.252506
0.735622 0.662379 0.244694
0.773770 0.665003 0.241093
0.810117 0.666072 0.239750
0.845182 0.666133 0.239322
0.879179 0.665522 0.240024
0.912200 0.664576 0.242008
0.944305 0.663294 0.245243
0.975189 0.661707 0.249546
1.000000 0.659754 0.254948
1.000000 0.657435 0.261997
1.000000 0.655634 0.267521
1.000000 0.654292 0.273106
0.000000 0.708980 0.347051
0.000000 0.708766 0.347326
0.000000 0.708583 0.347692
0.000000 0.708339 0.348852
0.000000 0.708125 0.351049
0.000000 0.707942 0.354131
0.121859 0.707790 0.358160
0.188968 0.707668 0.363134
0.240970 0.707362 0.369268
0.286503 0.707118 0.376287
0.327703 0.705989 0.376806
0.367437 0.703914 0.370855
0.406439 0.701534 0.363867
0.444892 0.698848 0.355901
0.483162 0.695949 0.347326
0.521111 0.692714 0.338231
0.558831 0.689174 0.327794
0.596246 0.685298 0.316625
0.633448 0.680995 0.304479
0.669978 0.676326 0.291814
0.721645 0.687190 0.279149
0.766476 0.695705 0.271794
0.802365 0.697017 0.270390
0.837186 0.697383 0.270420
0.871092 0.697200 0.270756
0.904204 0.696498 0.272831
0.936339 0.695460 0.275975
0.967193 0.693996 0.280369
0.996612 0.692226 0.285679
1.000000 0.689937 0.292546
1.000000 0.687495 0.300908
1.000000 0.684901 0.310582
0.000000 0.743832 0.378607
0.000000 0.743618 0.378515
0.000000 0.743404 0.378820
0.000000 0.743191 0.379828
0.000000 0.742947 0.381811
0.000000 0.742763 0.384558
0.143191 0.742611 0.387945
0.201999 0.742397 0.392645
0.249638 0.742153 0.397986
0.292576 0.741909 0.404395
0.333043 0.741512 0.411627
0.370459 0.739681 0.405982
0.407691 0.737545 0.399908
0.445014 0.735103 0.392676
0.481910 0.732448 0.385046
0.518730 0.729519 0.376471
0.555566 0.726345 0.367132
0.592340 0.722713 0.356847
0.628931 0.718898 0.345708
0.665309 0.714626 0.333623
0.701411 0.710109 0.320714
0.749538 0.717952 0.309545
0.794797 0.726864 0.302495
0.829374 0.727687 0.302495
0.863157 0.727871 0.303227
0.895995 0.727626 0.304936
0.928038 0.726802 0.307744
0.958984 0.725612 0.312016
0.988342 0.723903 0.317540
1.000000 0.721736 0.324041
1.000000 0.719295 0.332097
1.000000 0.716823 0.341619
0.000000 0.775479 0.409857
0.000000 0.775265 0.410040
0.000000 0.775174 0.410193
0.000000 0.774929 0.411200
0.000000 0.774777 0.412879
0.124056 0.774594 0.415412
0.177371 0.774441 0.418402
0.224094 0.774197 0.422858
0.265751 0.773953 0.427710
0.305577 0.773648 0.433539
0.343816 0.773281 0.440406
0.379187 0.772213 0.441779
0.413214 0.770413 0.435889
0.447608 0.768276 0.429541
0.482765 0.765866 0.422339
0.517845 0.763241 0.414618
0.553033 0.760220 0.405921
0.588525 0.756893 0.396490
0.623896 0.753384 0.386419
0.659205 0.749477 0.375311
0.694545 0.745205 0.363775
0.729732 0.740688 0.350713
0.774868 0.746273 0.340215
0.821164 0.756100 0.333349
0.854520 0.756741 0.333776
0.887297 0.756863 0.335393
0.919127 0.756435 0.338079
0.949889 0.755459 0.341924
0.979187 0.753902 0.347021
1.000000 0.751919 0.353521
1.000000 0.749569 0.361151
1.000000 0.747127 0.370550
0.000000 0.804257 0.440864
0.008820 0.804227 0.441016
0.052003 0.804166 0.441291
0.107485 0.804044 0.442481
0.144991 0.803952 0.444099
0.181460 0.803861 0.446448
0.218112 0.803708 0.449561
0.254307 0.803525 0.453590
0.290257 0.803250 0.458167
0.325750 0.802914 0.463996
0.360418 0.802548 0.470405
0.394842 0.802152 0.477729
0.424872 0.800504 0.472877
0.455787 0.798642 0.466773
0.487404 0.796567 0.459785
0.519829 0.794278 0.452308
0.552819 0.791592 0.444251
0.586175 0.788785 0.435554
0.619959 0.785672 0.426032
0.654078 0.782284 0.416114
0.688502 0.778592 0.405280
0.722866 0.774563 0.393896
0.757351 0.770321 0.381567
0.800198 0.774258 0.371374
0.847257 0.785153 0.364843
0.879728 0.785733 0.366247
0.911437 0.785641 0.368719
0.941955 0.784939 0.372351
0.971069 0.783627 0.377417
0.998596 0.781796 0.383795
1.000000 0.779660 0.391852
1.000000 0.777462 0.401678
0.178012 0.832212 0.474891
0.179812 0.832181 0.474952
0.186099 0.832090 0.475502
0.198672 0.832029 0.476326
0.217411 0.831876 0.478004
0.239780 0.831754 0.480140
0.265873 0.831571 0.483284
0.293706 0.831357 0.486854
0.323339 0.831113 0.491402
0.354131 0.830747 0.496864
0.384833 0.830381 0.502861
0.416388 0.829923 0.510002
0.445136 0.829068 0.512261
0.471443 0.827481 0.506249
0.499001 0.825681 0.499886
0.527855 0.823667 0.492561
0.557610 0.821469 0.484840
0.588128 0.819028 0.476600
0.619623 0.816251 0.467292
0.651575 0.813260 0.457649
0.684169 0.810025 0.447120
0.717098 0.806577 0.436225
0.750607 0.802792 0.424811
0.784146 0.798795 0.412543
0.825101 0.801785 0.403143
0.872557 0.813260 0.397284
0.904204 0.813901 0.399420
0.934386 0.813565 0.403296
0.963195 0.812497 0.408728
0.990539 0.810910 0.415442
1.000000 0.808988 0.424140
1.000000 0.807187 0.434607
0.253544 0.858061 0.509880
0.255009 0.857939 0.509819
0.258701 0.857908 0.510216
0.267033 0.857847 0.511162
0.279576 0.857786 0.512871
0.295903 0.857694 0.515099
0.315343 0.857542 0.518059
0.337835 0.857389 0.521630
0.362585 0.857176 0.526085
0.388495 0.856901 0.531304
0.415625 0.856596 0.537194
0.443610 0.856168 0.543847
0.472023 0.855741 0.551354
0.494820 0.854582 0.547845
0.518090 0.853147 0.541711
0.542718 0.851560 0.535088
0.568811 0.849729 0.527794
0.596002 0.847684 0.519768
0.624170 0.845396 0.511101
0.653468 0.842863 0.502068
0.683467 0.840116 0.492103
0.714290 0.837156 0.481575
0.745907 0.833951 0.470497
0.778134 0.830564 0.459052
0.810758 0.827024 0.446723
0.849088 0.828458 0.436774
0.894682 0.838743 0.432166
0.927092 0.840940 0.435615
0.955566 0.840269 0.441352
0.982605 0.839017 0.448859
1.000000 0.837613 0.458442
1.000000 0.836301 0.470192
0.323308 0.882567 0.547417
0.323796 0.882506 0.547417
0.326513 0.882444 0.547875
0.332250 0.882383 0.548760
0.341131 0.882261 0.550164
0.353277 0.882109 0.552087
0.368261 0.881926 0.554833
0.385779 0.881712 0.558038
0.405615 0.881407 0.561944
0.427283 0.881071 0.566613
0.450355 0.880674 0.571984
0.474708 0.880186 0.578149
0.499611 0.879759 0.584985
0.522911 0.879057 0.588373
0.542229 0.877928 0.582940
0.563165 0.876585 0.577142
0.585290 0.875151 0.570459
0.608850 0.873503 0.563378
0.633539 0.871702 0.555535
0.659388 0.869657 0.547051
0.686549 0.867369 0.537804
0.714595 0.864958 0.528069
0.743648 0.862364 0.517693
0.773678 0.859556 0.506920
0.804501 0.856565 0.495399
0.836118 0.853422 0.483345
0.871946 0.853941 0.473640
0.915282 0.863157 0.470649
0.947967 0.866484 0.475319
0.974548 0.865782 0.483925
0.999634 0.864866 0.494331
1.000000 0.863432 0.504936
0.385534 0.904448 0.584710
0.385901 0.904417 0.584710
0.388006 0.904387 0.585107
0.392248 0.904326 0.585962
0.399176 0.904204 0.587335
0.408515 0.904082 0.589105
0.420325 0.903868 0.591485
0.434485 0.903685 0.594537
0.450813 0.903349 0.598230
0.468879 0.903014 0.602441
0.488594 0.902586 0.607324
0.509606 0.902159 0.613092
0.531487 0.901640 0.619348
0.554131 0.901122 0.626184
0.571466 0.900298 0.623896
0.588434 0.899290 0.618647
0.607050 0.898192 0.613031
0.626917 0.896941 0.606592
0.648127 0.895506 0.599756
0.670619 0.893919 0.592248
0.694423 0.892149 0.584314
0.719295 0.890288 0.575525
0.745357 0.888243 0.566461
0.772702 0.886046 0.556909
0.800992 0.883757 0.546899
0.830320 0.881315 0.536004
0.860533 0.878782 0.524956
0.894133 0.878660 0.515557
0.934691 0.886778 0.514366
0.967041 0.891234 0.520714
0.991089 0.890257 0.530297
1.000000 0.889342 0.541772
0.445411 0.924193 0.622553
0.445686 0.924163 0.622522
0.447272 0.924102 0.622889
0.450507 0.924041 0.623499
0.456153 0.923919 0.624811
0.463264 0.923735 0.626368
0.472450 0.923491 0.628260
0.483619 0.923217 0.630884
0.496559 0.922820 0.633875
0.511192 0.922393 0.637537
0.527367 0.921904 0.641596
0.544762 0.921416 0.646357
0.563256 0.920867 0.651575
0.582544 0.920317 0.657435
0.600916 0.919738 0.661280
0.615137 0.918975 0.656764
0.630854 0.918090 0.652247
0.647730 0.917113 0.646937
0.665858 0.916014 0.641260
0.685115 0.914855 0.634974
0.705623 0.913542 0.628199
0.727535 0.912169 0.620996
0.750515 0.910674 0.613031
0.774838 0.909117 0.605097
0.800229 0.907439 0.596429
0.826993 0.905699 0.587640
0.854826 0.903838 0.578180
0.883146 0.901610 0.567590
0.913909 0.900847 0.558312
0.950835 0.907439 0.557366
0.982757 0.913024 0.564477
1.000000 0.912688 0.576410
0.497749 0.941588 0.657374
0.497902 0.941588 0.657313
0.499336 0.941558 0.657679
0.502007 0.941497 0.658320
0.506310 0.941436 0.659449
0.512291 0.941283 0.660914
0.519768 0.941100 0.662745
0.528954 0.940887 0.665003
0.539727 0.940612 0.667750
0.552087 0.940276 0.671077
0.565850 0.939879 0.674800
0.580652 0.939483 0.679072
0.596704 0.939055 0.683864
0.613581 0.938567 0.689082
