20 Preset/Japan Style/【3】LUT video cho PR-AE-FCPX/LUT VIDEO/Japan Style LUT (20).cube
# Created by Adobe Lightroom plugin Export LUT (1.24.0)
# www.johnrellis.com/lightroom/exportlut.htm
# Preset: 20日系少女风（素材江湖）
# Color profile: C:\Program Files (x86)\Common Files\Adobe\Color\Profiles\Recommended\VideoHD.icc
LUT_3D_SIZE 32
DOMAIN_MIN 0.0 0.0 0.0
DOMAIN_MAX 1.0 1.0 1.0
0.096864 0.096864 0.096864
0.099977 0.096895 0.096803
0.113375 0.096712 0.096529
0.137362 0.097444 0.095735
0.175051 0.098390 0.094179
0.221317 0.099519 0.091341
0.269444 0.102449 0.086488
0.319005 0.105989 0.076417
0.369238 0.110323 0.057527
0.420508 0.116945 0.033326
0.473945 0.124483 0.003296
0.529046 0.134127 0.000000
0.585931 0.144472 0.000000
0.643763 0.156435 0.000000
0.700801 0.168948 0.000000
0.753994 0.182284 0.000000
0.803586 0.195987 0.000000
0.849088 0.209110 0.000000
0.889647 0.220401 0.000000
0.925872 0.231510 0.000000
0.958282 0.240513 0.000000
0.986816 0.248783 0.000000
1.000000 0.255833 0.000000
1.000000 0.261997 0.000000
1.000000 0.267247 0.000000
1.000000 0.271611 0.000000
1.000000 0.275517 0.000000
1.000000 0.278111 0.000000
1.000000 0.279911 0.000000
1.000000 0.281224 0.000000
1.000000 0.281468 0.000000
1.000000 0.281102 0.000000
0.095583 0.100038 0.096437
0.099001 0.099672 0.096437
0.113802 0.100069 0.096040
0.137819 0.100343 0.095338
0.175753 0.101839 0.093629
0.221683 0.103700 0.090669
0.270054 0.106355 0.085328
0.319310 0.110109 0.074403
0.369940 0.115175 0.054871
0.421546 0.121157 0.030640
0.474983 0.129549 0.000000
0.530327 0.138155 0.000000
0.587213 0.148653 0.000000
0.645136 0.160372 0.000000
0.701930 0.173220 0.000000
0.755184 0.186160 0.000000
0.804685 0.199496 0.000000
0.850095 0.212070 0.000000
0.890532 0.223178 0.000000
0.926665 0.233677 0.000000
0.958984 0.242863 0.000000
0.987549 0.250462 0.000000
1.000000 0.257694 0.000000
1.000000 0.263615 0.000000
1.000000 0.268772 0.000000
1.000000 0.273014 0.000000
1.000000 0.276371 0.000000
1.000000 0.279179 0.000000
1.000000 0.281132 0.000000
1.000000 0.282048 0.000000
1.000000 0.282567 0.000000
1.000000 0.282109 0.000000
0.091035 0.113191 0.096407
0.094331 0.113191 0.096742
0.110750 0.112520 0.095735
0.137453 0.113466 0.093233
0.176150 0.116091 0.091127
0.221958 0.119936 0.087465
0.270634 0.123384 0.079805
0.320104 0.127382 0.065064
0.370520 0.132815 0.044739
0.422095 0.138430 0.020050
0.475715 0.145937 0.000000
0.531304 0.154147 0.000000
0.588373 0.164096 0.000000
0.646265 0.175204 0.000000
0.703182 0.186954 0.000000
0.756100 0.199252 0.000000
0.805600 0.211276 0.000000
0.850706 0.222751 0.000000
0.891020 0.233249 0.000000
0.927062 0.242435 0.000000
0.959197 0.250889 0.000000
0.987610 0.258091 0.000000
1.000000 0.263371 0.000000
1.000000 0.268559 0.000000
1.000000 0.273350 0.000000
1.000000 0.277592 0.000000
1.000000 0.281529 0.000000
1.000000 0.283787 0.000000
1.000000 0.285435 0.000000
1.000000 0.286290 0.000000
1.000000 0.286076 0.000000
1.000000 0.285588 0.000000
0.069398 0.137728 0.095705
0.077913 0.138003 0.095583
0.100160 0.138003 0.095247
0.133883 0.138033 0.093141
0.174136 0.139803 0.087495
0.221439 0.145937 0.076905
0.270665 0.150973 0.062898
0.320012 0.155612 0.045991
0.371038 0.160708 0.024689
0.423011 0.166659 0.000000
0.476814 0.173739 0.000000
0.532341 0.181643 0.000000
0.589899 0.190829 0.000000
0.647730 0.201358 0.000000
0.704402 0.211856 0.000000
0.757290 0.222721 0.000000
0.806577 0.233188 0.000000
0.851438 0.243259 0.000000
0.891691 0.251804 0.000000
0.927489 0.259251 0.000000
0.959533 0.264866 0.000000
0.987915 0.269566 0.000000
1.000000 0.274235 0.000000
1.000000 0.278386 0.000000
1.000000 0.282414 0.000000
1.000000 0.286107 0.000000
1.000000 0.289433 0.000000
1.000000 0.292882 0.000000
1.000000 0.293553 0.000000
1.000000 0.294011 0.000000
1.000000 0.293584 0.000000
1.000000 0.292638 0.000000
0.000000 0.175875 0.091615
0.005798 0.175814 0.091951
0.066529 0.175479 0.091615
0.119234 0.175174 0.089967
0.167391 0.175296 0.083955
0.213474 0.173861 0.072816
0.266361 0.182712 0.042542
0.319768 0.189822 0.017731
0.371984 0.195987 0.000000
0.424384 0.202274 0.000000
0.478492 0.209018 0.000000
0.534691 0.216922 0.000000
0.591882 0.225620 0.000000
0.650080 0.235325 0.000000
0.706142 0.245090 0.000000
0.758389 0.253880 0.000000
0.807431 0.261418 0.000000
0.851865 0.268040 0.000000
0.891691 0.274052 0.000000
0.927489 0.278904 0.000000
0.959136 0.283177 0.000000
0.987396 0.287205 0.000000
1.000000 0.290043 0.000000
1.000000 0.293309 0.000000
1.000000 0.296208 0.000000
1.000000 0.298985 0.000000
1.000000 0.301701 0.000000
1.000000 0.304143 0.000000
1.000000 0.306188 0.000000
1.000000 0.305760 0.000000
1.000000 0.304875 0.000000
1.000000 0.303441 0.000000
0.000000 0.217533 0.082948
0.000000 0.217533 0.083558
0.000000 0.216892 0.083894
0.080446 0.216373 0.082063
0.148898 0.216007 0.076539
0.204685 0.215763 0.062654
0.251835 0.210483 0.052186
0.310948 0.221653 0.002075
0.366613 0.230320 0.000000
0.425422 0.239689 0.000000
0.480079 0.245945 0.000000
0.536309 0.253849 0.000000
0.593713 0.261570 0.000000
0.651606 0.270390 0.000000
0.707210 0.278264 0.000000
0.759152 0.285069 0.000000
0.807553 0.291112 0.000000
0.851713 0.296269 0.000000
0.891203 0.300511 0.000000
0.926452 0.303838 0.000000
0.957855 0.306584 0.000000
0.986053 0.309148 0.000000
1.000000 0.309758 0.000000
1.000000 0.311894 0.000000
1.000000 0.313695 0.000000
1.000000 0.315526 0.000000
1.000000 0.316808 0.000000
1.000000 0.318669 0.000000
1.000000 0.320104 0.000000
1.000000 0.321019 0.000000
1.000000 0.319249 0.000000
1.000000 0.317082 0.000000
0.000000 0.259403 0.065095
0.000000 0.259434 0.064698
0.000000 0.258885 0.065400
0.000000 0.258305 0.064729
0.107637 0.257389 0.063142
0.183139 0.256992 0.049348
0.242283 0.256504 0.032044
0.291020 0.250340 0.020966
0.350927 0.260472 0.000000
0.411200 0.271672 0.000000
0.472694 0.282109 0.000000
0.534661 0.292119 0.000000
0.592126 0.299504 0.000000
0.649805 0.307286 0.000000
0.705104 0.314153 0.000000
0.756741 0.319524 0.000000
0.805203 0.324773 0.000000
0.849180 0.328252 0.000000
0.888487 0.330846 0.000000
0.923156 0.332464 0.000000
0.954314 0.333806 0.000000
0.982330 0.334264 0.000000
1.000000 0.334722 0.000000
1.000000 0.335332 0.000000
1.000000 0.335729 0.000000
1.000000 0.336370 0.000000
1.000000 0.336675 0.000000
1.000000 0.337133 0.000000
1.000000 0.337682 0.000000
1.000000 0.338140 0.000000
1.000000 0.337774 0.000000
1.000000 0.334752 0.000000
0.000000 0.304540 0.041016
0.000000 0.304479 0.043061
0.000000 0.304082 0.042451
0.000000 0.303502 0.041901
0.000000 0.302434 0.040711
0.146487 0.301610 0.035401
0.221439 0.301152 0.019013
0.282963 0.300542 0.000000
0.332738 0.294041 0.000000
0.393591 0.301915 0.000000
0.459876 0.316106 0.000000
0.523796 0.327977 0.000000
0.589899 0.340154 0.000000
0.652247 0.349554 0.000000
0.706966 0.355016 0.000000
0.758022 0.359167 0.000000
0.805966 0.362554 0.000000
0.849241 0.364477 0.000000
0.887694 0.365240 0.000000
0.922057 0.365209 0.000000
0.952972 0.365026 0.000000
0.980804 0.364019 0.000000
1.000000 0.362768 0.000000
1.000000 0.361944 0.000000
1.000000 0.360876 0.000000
1.000000 0.360266 0.000000
1.000000 0.359503 0.000000
1.000000 0.358831 0.000000
1.000000 0.358129 0.000000
1.000000 0.357580 0.000000
1.000000 0.357031 0.000000
1.000000 0.355047 0.000000
0.000000 0.351080 0.016541
0.000000 0.351171 0.017151
0.000000 0.350744 0.016663
0.000000 0.350408 0.016785
0.000000 0.349401 0.016815
0.050874 0.348180 0.016510
0.186923 0.347417 0.004822
0.262394 0.347051 0.000000
0.325139 0.346563 0.000000
0.380835 0.343206 0.000000
0.437568 0.344366 0.000000
0.507836 0.361395 0.000000
0.574762 0.374731 0.000000
0.641535 0.387030 0.000000
0.705379 0.397040 0.000000
0.758602 0.401251 0.000000
0.805936 0.403235 0.000000
0.848081 0.403204 0.000000
0.885893 0.402319 0.000000
0.920073 0.400549 0.000000
0.950805 0.398749 0.000000
0.978485 0.396277 0.000000
1.000000 0.393500 0.000000
1.000000 0.391028 0.000000
1.000000 0.388861 0.000000
1.000000 0.386694 0.000000
1.000000 0.384649 0.000000
1.000000 0.383001 0.000000
1.000000 0.381109 0.000000
1.000000 0.379400 0.000000
1.000000 0.377844 0.000000
1.000000 0.376287 0.000000
0.000000 0.399695 0.000000
0.000000 0.399603 0.000000
0.000000 0.399451 0.000000
0.000000 0.398932 0.000000
0.000000 0.398322 0.000000
0.000000 0.397284 0.000000
0.119631 0.395850 0.000000
0.229587 0.395605 0.000000
0.304814 0.394934 0.000000
0.369421 0.394293 0.000000
0.428962 0.392645 0.000000
0.482612 0.388067 0.000000
0.555077 0.406714 0.000000
0.624903 0.421851 0.000000
0.689174 0.432349 0.000000
0.748989 0.439979 0.000000
0.803891 0.445014 0.000000
0.845884 0.443763 0.000000
0.883330 0.441016 0.000000
0.917174 0.437812 0.000000
0.947936 0.434180 0.000000
0.975616 0.430182 0.000000
1.000000 0.426215 0.000000
1.000000 0.422492 0.000000
1.000000 0.418799 0.000000
1.000000 0.415442 0.000000
1.000000 0.411933 0.000000
1.000000 0.409033 0.000000
1.000000 0.406043 0.000000
1.000000 0.403265 0.000000
1.000000 0.400671 0.000000
1.000000 0.398108 0.000000
0.000000 0.450355 0.000000
0.000000 0.450477 0.000000
0.000000 0.450202 0.000000
0.000000 0.449653 0.000000
0.000000 0.449012 0.000000
0.000000 0.448066 0.000000
0.000000 0.446723 0.000000
0.173922 0.445624 0.000000
0.273869 0.444923 0.000000
0.348852 0.444190 0.000000
0.415198 0.443030 0.000000
0.476326 0.442054 0.000000
0.527459 0.432258 0.000000
0.600488 0.451057 0.000000
0.670253 0.465827 0.000000
0.730190 0.473884 0.000000
0.786130 0.479438 0.000000
0.836576 0.481758 0.000000
0.880278 0.481392 0.000000
0.913878 0.476509 0.000000
0.944518 0.471351 0.000000
0.972107 0.465919 0.000000
0.997589 0.460456 0.000000
1.000000 0.455238 0.000000
1.000000 0.450233 0.000000
1.000000 0.445441 0.000000
1.000000 0.440955 0.000000
1.000000 0.436744 0.000000
1.000000 0.432685 0.000000
1.000000 0.428656 0.000000
1.000000 0.425086 0.000000
1.000000 0.421576 0.000000
0.000000 0.501518 0.000000
0.000000 0.501518 0.000000
0.000000 0.501366 0.000000
0.000000 0.500816 0.000000
0.000000 0.500298 0.000000
0.000000 0.499214 0.000000
0.000000 0.498024 0.000000
0.000000 0.496376 0.000000
0.224735 0.495399 0.000000
0.318608 0.494575 0.000000
0.393927 0.493355 0.000000
0.460365 0.491859 0.000000
0.518547 0.486732 0.000000
0.568414 0.475898 0.000000
0.637049 0.489021 0.000000
0.704219 0.502373 0.000000
0.762966 0.509728 0.000000
0.814755 0.513176 0.000000
0.861143 0.513664 0.000000
0.902556 0.512261 0.000000
0.937560 0.508080 0.000000
0.965515 0.501213 0.000000
0.991363 0.494697 0.000000
1.000000 0.488319 0.000000
1.000000 0.482124 0.000000
1.000000 0.476295 0.000000
1.000000 0.470588 0.000000
1.000000 0.465278 0.000000
1.000000 0.460243 0.000000
1.000000 0.455329 0.000000
1.000000 0.450568 0.000000
1.000000 0.446143 0.000000
0.000000 0.550347 0.000000
0.000000 0.550469 0.000000
0.000000 0.550072 0.000000
0.000000 0.549950 0.000000
0.000000 0.549340 0.000000
0.000000 0.548638 0.000000
0.000000 0.547539 0.000000
0.000000 0.545983 0.000000
0.129488 0.543999 0.000000
0.273075 0.542596 0.000000
0.362127 0.541009 0.000000
0.436072 0.539086 0.000000
0.502312 0.536889 0.000000
0.563867 0.534356 0.000000
0.612360 0.521782 0.000000
0.675502 0.527916 0.000000
0.739315 0.539452 0.000000
0.795895 0.545586 0.000000
0.843626 0.546532 0.000000
0.886290 0.545220 0.000000
0.924590 0.542107 0.000000
0.958862 0.537835 0.000000
0.987274 0.531151 0.000000
1.000000 0.523369 0.000000
1.000000 0.515892 0.000000
1.000000 0.508782 0.000000
1.000000 0.501854 0.000000
1.000000 0.495491 0.000000
1.000000 0.489143 0.000000
1.000000 0.483253 0.000000
1.000000 0.477485 0.000000
1.000000 0.472023 0.000000
0.000000 0.598535 0.000000
0.000000 0.598627 0.000000
0.000000 0.598505 0.000000
0.000000 0.598199 0.000000
0.000000 0.597559 0.000000
0.000000 0.596796 0.000000
0.000000 0.595514 0.000000
0.000000 0.593896 0.000000
0.000000 0.591852 0.000000
0.199680 0.589868 0.000000
0.318700 0.587945 0.000000
0.404089 0.585809 0.000000
0.477211 0.583368 0.000000
0.542962 0.580682 0.000000
0.604517 0.577813 0.000000
0.651728 0.564416 0.000000
0.709743 0.563867 0.000000
0.769863 0.573327 0.000000
0.823789 0.577722 0.000000
0.868193 0.576989 0.000000
0.907744 0.573938 0.000000
0.943511 0.569574 0.000000
0.975891 0.564446 0.000000
1.000000 0.558434 0.000000
1.000000 0.550408 0.000000
1.000000 0.542077 0.000000
1.000000 0.534081 0.000000
1.000000 0.526390 0.000000
1.000000 0.519097 0.000000
1.000000 0.511955 0.000000
1.000000 0.505211 0.000000
1.000000 0.498756 0.000000
0.000000 0.642084 0.000000
0.000000 0.642023 0.000000
0.000000 0.641993 0.000000
0.000000 0.641688 0.000000
0.000000 0.641138 0.000000
0.000000 0.640314 0.000000
0.000000 0.639155 0.000000
0.000000 0.637659 0.000000
0.000000 0.635676 0.000000
0.000000 0.633326 0.000000
0.256413 0.631128 0.000000
0.362249 0.628779 0.000000
0.443793 0.626337 0.000000
0.515190 0.623560 0.000000
0.580438 0.620539 0.000000
0.641169 0.617426 0.000000
0.687800 0.603540 0.000000
0.740566 0.596918 0.000000
0.796597 0.603784 0.000000
0.846891 0.606287 0.000000
0.889616 0.604608 0.000000
0.926787 0.600488 0.000000
0.960479 0.595331 0.000000
0.991211 0.589288 0.000000
1.000000 0.582696 0.000000
1.000000 0.575738 0.000000
1.000000 0.566674 0.000000
1.000000 0.557885 0.000000
1.000000 0.549432 0.000000
1.000000 0.541344 0.000000
1.000000 0.533654 0.000000
1.000000 0.526207 0.000000
0.000000 0.682094 0.000000
0.000000 0.682033 0.000000
0.000000 0.681849 0.000000
0.000000 0.681483 0.000000
0.000000 0.680934 0.000000
0.000000 0.679988 0.000000
0.000000 0.678859 0.000000
0.000000 0.677302 0.000000
0.000000 0.675410 0.000000
0.000000 0.673152 0.000000
0.147890 0.670497 0.000000
0.305913 0.668269 0.000000
0.402258 0.665888 0.000000
0.481086 0.663233 0.000000
0.550561 0.660182 0.000000
0.614343 0.657069 0.000000
0.674617 0.653559 0.000000
0.723690 0.642939 0.000000
0.768124 0.627497 0.000000
0.820005 0.631434 0.000000
0.866941 0.632349 0.000000
0.908751 0.630213 0.000000
0.943847 0.625269 0.000000
0.975860 0.619318 0.000000
1.000000 0.612604 0.000000
1.000000 0.605402 0.000000
1.000000 0.597864 0.000000
1.000000 0.589776 0.000000
1.000000 0.580285 0.000000
1.000000 0.571221 0.000000
1.000000 0.562554 0.000000
1.000000 0.554223 0.000000
0.000000 0.717800 0.000000
0.000000 0.717678 0.000000
0.000000 0.717617 0.000000
0.000000 0.717189 0.000000
0.000000 0.716548 0.000000
0.000000 0.715785 0.000000
0.000000 0.714595 0.000000
0.000000 0.713100 0.000000
0.000000 0.711299 0.000000
0.000000 0.709194 0.000000
0.000000 0.706722 0.000000
0.225162 0.704158 0.000000
0.350256 0.701717 0.000000
0.439521 0.698878 0.000000
0.514702 0.695918 0.000000
0.582208 0.692653 0.000000
0.644495 0.689113 0.000000
0.703273 0.685298 0.000000
0.755703 0.678431 0.000000
0.793545 0.658259 0.000000
0.840574 0.656764 0.000000
0.885100 0.656519 0.000000
0.925292 0.653742 0.000000
0.959411 0.648402 0.000000
0.989807 0.641779 0.000000
1.000000 0.634424 0.000000
1.000000 0.626734 0.000000
1.000000 0.618585 0.000000
1.000000 0.610376 0.000000
1.000000 0.601526 0.000000
1.000000 0.591913 0.000000
1.000000 0.582696 0.000000
0.000000 0.748898 0.000000
0.000000 0.748806 0.000000
0.000000 0.746914 0.000000
0.000000 0.746609 0.000000
0.000000 0.746029 0.000000
0.000000 0.745266 0.000000
0.000000 0.744259 0.000000
0.000000 0.742824 0.000000
0.000000 0.741207 0.000000
0.000000 0.739193 0.000000
0.000000 0.736965 0.000000
0.055146 0.734371 0.000000
0.282322 0.731868 0.000000
0.389319 0.729213 0.000000
0.472572 0.726284 0.000000
0.544060 0.723201 0.000000
0.609461 0.719753 0.000000
0.669917 0.716091 0.000000
0.726955 0.712154 0.000000
0.780758 0.707515 0.000000
0.815579 0.686000 0.000000
0.858885 0.679622 0.000000
0.901122 0.678645 0.000000
0.939452 0.675196 0.000000
0.973297 0.669703 0.000000
1.000000 0.662593 0.000000
1.000000 0.654871 0.000000
1.000000 0.646693 0.000000
1.000000 0.638239 0.000000
1.000000 0.629633 0.000000
1.000000 0.620844 0.000000
1.000000 0.611536 0.000000
0.000000 0.775906 0.000000
0.000000 0.775784 0.000000
0.000000 0.775448 0.000000
0.000000 0.774929 0.000000
0.000000 0.774319 0.000000
0.000000 0.773526 0.000000
0.000000 0.772519 0.000000
0.000000 0.771298 0.000000
0.000000 0.769741 0.000000
0.000000 0.767910 0.000000
0.000000 0.765866 0.000000
0.000000 0.763485 0.000000
0.183658 0.760800 0.000000
0.330846 0.758267 0.000000
0.425513 0.755520 0.000000
0.503807 0.752438 0.000000
0.572564 0.749142 0.000000
0.635340 0.745510 0.000000
0.694087 0.741665 0.000000
0.749599 0.737453 0.000000
0.802274 0.732937 0.000000
0.836606 0.712490 0.000000
0.876463 0.701656 0.000000
0.916625 0.699733 0.000000
0.953124 0.695705 0.000000
0.986328 0.689967 0.000000
1.000000 0.682521 0.000000
1.000000 0.674281 0.000000
1.000000 0.665766 0.000000
1.000000 0.656916 0.000000
1.000000 0.647974 0.000000
1.000000 0.638880 0.000000
0.000000 0.801297 0.000000
0.000000 0.801083 0.000000
0.000000 0.800839 0.000000
0.000000 0.800381 0.000000
0.000000 0.799832 0.000000
0.000000 0.799008 0.000000
0.000000 0.798093 0.000000
0.000000 0.796963 0.000000
0.000000 0.795529 0.000000
0.000000 0.793851 0.000000
0.000000 0.791928 0.000000
0.000000 0.789761 0.000000
0.000000 0.787289 0.000000
0.256504 0.784695 0.000000
0.373266 0.781979 0.000000
0.459541 0.779080 0.000000
0.533104 0.775906 0.000000
0.598779 0.772457 0.000000
0.659266 0.768765 0.000000
0.716030 0.764828 0.000000
0.769924 0.760555 0.000000
0.821347 0.756008 0.000000
0.855772 0.736934 0.000000
0.892699 0.722164 0.000000
0.930938 0.719600 0.000000
0.965850 0.715053 0.000000
0.997711 0.708858 0.000000
1.000000 0.701228 0.000000
1.000000 0.692744 0.000000
1.000000 0.683894 0.000000
1.000000 0.674830 0.000000
1.000000 0.665644 0.000000
0.000000 0.824338 0.000000
0.000000 0.824186 0.000000
0.000000 0.823941 0.000000
0.000000 0.823575 0.000000
0.000000 0.823026 0.000000
0.000000 0.822354 0.000000
0.000000 0.821500 0.000000
0.000000 0.820432 0.000000
0.000000 0.819181 0.000000
0.000000 0.817594 0.000000
0.000000 0.815763 0.000000
0.000000 0.813748 0.000000
0.000000 0.811490 0.000000
0.154116 0.808988 0.000000
0.311070 0.806363 0.000000
0.411139 0.803586 0.000000
0.490639 0.800534 0.000000
0.560021 0.797177 0.000000
0.622736 0.793606 0.000000
0.681086 0.789761 0.000000
0.735958 0.785611 0.000000
0.788205 0.781247 0.000000
0.838071 0.776669 0.000000
0.872892 0.759274 0.000000
0.907591 0.741848 0.000000
0.943908 0.737942 0.000000
0.977386 0.732876 0.000000
1.000000 0.726406 0.000000
1.000000 0.718715 0.000000
1.000000 0.710018 0.000000
1.000000 0.700954 0.000000
1.000000 0.691676 0.000000
0.000000 0.844877 0.000000
0.000000 0.844816 0.000000
0.000000 0.844633 0.000000
0.000000 0.844358 0.000000
0.000000 0.843931 0.000000
0.000000 0.843351 0.000000
0.000000 0.842588 0.000000
0.000000 0.841611 0.000000
0.000000 0.840391 0.000000
0.000000 0.838987 0.000000
0.000000 0.837308 0.000000
0.000000 0.835447 0.000000
0.000000 0.833341 0.000000
0.000000 0.831022 0.000000
0.230564 0.828428 0.000000
0.356329 0.825834 0.000000
0.445197 0.822934 0.000000
0.519127 0.819852 0.000000
0.584649 0.816526 0.000000
0.645014 0.812894 0.000000
0.701289 0.809079 0.000000
0.754391 0.804990 0.000000
0.805295 0.800687 0.000000
0.853910 0.796262 0.000000
0.889403 0.780789 0.000000
0.922820 0.763272 0.000000
0.956878 0.755795 0.000000
0.988952 0.750454 0.000000
1.000000 0.743679 0.000000
1.000000 0.735836 0.000000
1.000000 0.727077 0.000000
1.000000 0.717891 0.000000
0.000000 0.864347 0.000000
0.000000 0.864256 0.000000
0.000000 0.864134 0.000000
0.000000 0.863890 0.000000
0.000000 0.863462 0.000000
0.000000 0.862943 0.000000
0.000000 0.862242 0.000000
0.000000 0.861295 0.000000
0.000000 0.860197 0.000000
0.000000 0.858885 0.000000
0.000000 0.857359 0.000000
0.000000 0.855589 0.000000
0.000000 0.853666 0.000000
0.000000 0.851469 0.000000
0.131350 0.849088 0.000000
0.292454 0.846586 0.000000
0.396277 0.843900 0.000000
0.476661 0.840940 0.000000
0.545800 0.837827 0.000000
0.608240 0.834470 0.000000
0.666011 0.830869 0.000000
0.720089 0.827085 0.000000
0.771847 0.823026 0.000000
0.821134 0.818814 0.000000
0.868956 0.814664 0.000000
0.906584 0.802457 0.000000
0.937499 0.783719 0.000000
0.969482 0.773220 0.000000
1.000000 0.767544 0.000000
1.000000 0.760525 0.000000
1.000000 0.752651 0.000000
1.000000 0.743954 0.000000
0.000000 0.882017 0.000000
0.000000 0.881895 0.000000
0.000000 0.881804 0.000000
0.000000 0.881559 0.000000
0.000000 0.881254 0.000000
0.000000 0.880766 0.000000
0.000000 0.880156 0.000000
0.000000 0.879362 0.000000
0.000000 0.878416 0.000000
0.000000 0.877256 0.000000
0.000000 0.875883 0.000000
0.000000 0.874327 0.000000
0.000000 0.872587 0.000000
0.000000 0.870603 0.000000
0.000000 0.868437 0.000000
0.218357 0.866117 0.000000
0.342504 0.863615 0.000000
0.432166 0.860929 0.000000
0.506065 0.858000 0.000000
0.571160 0.854887 0.000000
0.630488 0.851530 0.000000
0.686061 0.847959 0.000000
0.738460 0.844236 0.000000
0.788540 0.840360 0.000000
0.836637 0.836301 0.000000
0.883055 0.832090 0.000000
0.923308 0.823514 0.000000
0.951690 0.803586 0.000000
0.982330 0.790219 0.000000
1.000000 0.784451 0.000000
1.000000 0.777432 0.000000
1.000000 0.769619 0.000000
0.000000 0.898894 0.000000
0.000000 0.898833 0.000000
0.000000 0.898711 0.000000
0.000000 0.898497 0.000000
0.000000 0.898192 0.000000
0.000000 0.897734 0.000000
0.000000 0.897124 0.000000
0.000000 0.896391 0.000000
0.000000 0.895476 0.000000
0.000000 0.894347 0.000000
0.000000 0.893095 0.000000
0.000000 0.891630 0.000000
0.000000 0.890043 0.000000
0.000000 0.888212 0.000000
0.000000 0.886259 0.000000
0.123415 0.884092 0.000000
0.279454 0.881773 0.000000
0.384436 0.879332 0.000000
0.464454 0.876677 0.000000
0.533074 0.873747 0.000000
0.594781 0.870695 0.000000
0.651575 0.867430 0.000000
0.704891 0.863981 0.000000
0.755734 0.860410 0.000000
0.804349 0.856657 0.000000
0.851286 0.852811 0.000000
0.896666 0.848844 0.000000
0.939483 0.843534 0.000000
0.965911 0.822965 0.000000
0.995361 0.807370 0.000000
1.000000 0.801602 0.000000
1.000000 0.794156 0.000000
0.000000 0.914488 0.020417
0.000000 0.914488 0.021485
0.000000 0.914397 0.016907
0.000000 0.914214 0.017762
0.000000 0.913909 0.020813
0.000000 0.913512 0.015442
0.000000 0.912993 0.009979
0.000000 0.912322 0.006409
0.000000 0.911467 0.005249
0.000000 0.910491 0.000000
0.000000 0.909331 0.000000
0.000000 0.907988 0.000000
0.000000 0.906523 0.000000
0.000000 0.904875 0.000000
0.000000 0.903075 0.000000
0.000000 0.901183 0.000000
0.217502 0.899046 0.000000
0.332738 0.896818 0.000000
0.421729 0.894377 0.000000
0.494789 0.891752 0.000000
0.558740 0.889006 0.000000
0.617395 0.886046 0.000000
0.671839 0.882933 0.000000
0.723568 0.879728 0.000000
0.772854 0.876371 0.000000
0.820157 0.872923 0.000000
0.866148 0.869352 0.000000
0.910704 0.865751 0.000000
0.955657 0.863401 0.000000
0.981079 0.842954 0.000000
1.000000 0.825589 0.000000
1.000000 0.818173 0.000000
0.000000 0.929473 0.108919
0.000000 0.929412 0.108034
0.000000 0.929320 0.108003
0.000000 0.929137 0.107607
0.000000 0.928893 0.107790
0.000000 0.928466 0.105684
0.000000 0.927977 0.104799
0.000000 0.927306 0.102815
0.000000 0.926482 0.100801
0.000000 0.925536 0.097810
0.000000 0.924437 0.094301
0.000000 0.923186 0.092103
0.000000 0.921813 0.086549
0.000000 0.920287 0.079438
0.000000 0.918639 0.069276
0.000000 0.916899 0.055543
0.133211 0.915007 0.043580
0.274907 0.912963 0.028870
0.376318 0.910796 0.000000
0.455116 0.908476 0.000000
0.522576 0.906004 0.000000
0.583032 0.903410 0.000000
0.638911 0.900694 0.000000
0.691493 0.897856 0.000000
0.741390 0.894926 0.000000
0.789364 0.891966 0.000000
0.835813 0.888914 0.000000
0.880858 0.885710 0.000000
0.924437 0.882200 0.000000
0.968261 0.879728 0.000000
0.994934 0.861418 0.000000
1.000000 0.844358 0.000000
0.000000 0.943359 0.142214
0.000000 0.943359 0.141970
0.000000 0.943267 0.142184
0.000000 0.943145 0.142061
0.000000 0.942901 0.141970
0.000000 0.942596 0.141573
0.000000 0.942138 0.140932
0.000000 0.941588 0.139773
0.000000 0.940917 0.139467
0.000000 0.940124 0.137453
0.000000 0.939178 0.136599
0.000000 0.938140 0.133913
0.000000 0.936950 0.132570
0.000000 0.935637 0.130098
