20 Preset/Japan Style/【3】LUT video cho PR-AE-FCPX/LUT VIDEO/Japan Style LUT (2).cube
# Created by Adobe Lightroom plugin Export LUT (1.24.0)
# www.johnrellis.com/lightroom/exportlut.htm
# Preset: 02日系基础色（素材江湖）
# Color profile: C:\Program Files (x86)\Common Files\Adobe\Color\Profiles\Recommended\VideoHD.icc
LUT_3D_SIZE 32
DOMAIN_MIN 0.0 0.0 0.0
DOMAIN_MAX 1.0 1.0 1.0
0.000000 0.000000 0.000000
0.021271 0.004303 0.000122
0.106752 0.019776 0.010193
0.170504 0.063996 0.019593
0.230808 0.102571 0.043214
0.295750 0.128420 0.074861
0.354986 0.154788 0.096651
0.408209 0.177676 0.112428
0.464576 0.198276 0.122225
0.521111 0.218753 0.128176
0.574456 0.237705 0.135531
0.624506 0.256229 0.142611
0.675074 0.273960 0.150759
0.727169 0.292638 0.157839
0.777554 0.311101 0.166354
0.822141 0.329046 0.177249
0.861692 0.346746 0.189853
0.895720 0.363012 0.204257
0.925811 0.377935 0.217960
0.952789 0.392065 0.231266
0.977478 0.404944 0.243778
1.000000 0.417121 0.256748
1.000000 0.428992 0.269047
1.000000 0.441047 0.282475
1.000000 0.453437 0.297612
1.000000 0.466011 0.313573
1.000000 0.478859 0.330236
1.000000 0.491737 0.347143
1.000000 0.504814 0.364965
1.000000 0.517662 0.381872
1.000000 0.530358 0.398901
1.000000 0.542504 0.415015
0.000000 0.029450 0.005127
0.021424 0.028748 0.004700
0.108919 0.051514 0.005737
0.171908 0.089021 0.020661
0.233005 0.112459 0.042756
0.298314 0.137789 0.073945
0.357885 0.161654 0.096773
0.411963 0.183566 0.111055
0.469520 0.204044 0.121431
0.526696 0.224125 0.128695
0.579980 0.243046 0.135744
0.630549 0.260807 0.143801
0.681544 0.278874 0.151064
0.734066 0.297124 0.157961
0.783627 0.315404 0.167147
0.827604 0.333013 0.178347
0.866453 0.350164 0.191897
0.900023 0.366369 0.205570
0.929747 0.380987 0.220188
0.956573 0.394751 0.233585
0.981231 0.407660 0.245884
1.000000 0.419745 0.258396
1.000000 0.431861 0.271427
1.000000 0.443824 0.284947
1.000000 0.456367 0.300420
1.000000 0.468849 0.316503
1.000000 0.481483 0.333074
1.000000 0.494575 0.350347
1.000000 0.507408 0.367651
1.000000 0.520165 0.384680
1.000000 0.532616 0.401160
1.000000 0.544762 0.417334
0.000000 0.114168 0.033112
0.000397 0.116030 0.036164
0.107546 0.121035 0.018189
0.171481 0.132509 0.009949
0.233768 0.147066 0.030884
0.299748 0.167025 0.064057
0.358984 0.185641 0.095003
0.414405 0.202884 0.107851
0.472480 0.221378 0.118349
0.529747 0.239628 0.125216
0.583032 0.256596 0.133089
0.634333 0.272923 0.141970
0.685725 0.289738 0.149477
0.738460 0.307469 0.156466
0.787808 0.324895 0.165927
0.831296 0.341588 0.178317
0.869749 0.358007 0.191653
0.902770 0.373083 0.206149
0.932189 0.387213 0.220188
0.958801 0.400397 0.233890
0.983215 0.412573 0.246677
1.000000 0.424506 0.259007
1.000000 0.436011 0.272129
1.000000 0.447730 0.286076
1.000000 0.459907 0.301183
1.000000 0.472175 0.317479
1.000000 0.484840 0.334295
1.000000 0.497505 0.351476
1.000000 0.510338 0.369238
1.000000 0.522911 0.386023
1.000000 0.534997 0.402441
1.000000 0.547173 0.418769
0.000000 0.178073 0.091371
0.000000 0.178408 0.088502
0.090883 0.181003 0.081880
0.165164 0.185916 0.048127
0.231937 0.195865 0.012848
0.299168 0.210605 0.040375
0.358618 0.223087 0.080507
0.414313 0.235966 0.099580
0.473701 0.250980 0.109804
0.531365 0.265751 0.118746
0.585107 0.280186 0.127230
0.636530 0.294163 0.136568
0.689052 0.309819 0.144533
0.742306 0.326116 0.152468
0.791501 0.341711 0.163180
0.834836 0.357305 0.175998
0.873259 0.372137 0.190951
0.906188 0.386114 0.205875
0.935760 0.399145 0.220768
0.962524 0.411139 0.233921
0.986938 0.422522 0.247196
1.000000 0.433539 0.260716
1.000000 0.444404 0.273655
1.000000 0.455299 0.287968
1.000000 0.466560 0.302708
1.000000 0.478218 0.318883
1.000000 0.490028 0.335332
1.000000 0.502098 0.352331
1.000000 0.514214 0.369635
1.000000 0.526482 0.386725
1.000000 0.538384 0.403174
1.000000 0.550378 0.419532
0.000000 0.236759 0.129213
0.000000 0.236820 0.127993
0.053040 0.238804 0.125063
0.152834 0.243259 0.115999
0.224002 0.250736 0.098299
0.296025 0.262638 0.061433
0.356542 0.270390 0.053529
0.416815 0.280125 0.079011
0.477668 0.291661 0.094942
0.535607 0.303441 0.106081
0.589288 0.314305 0.116793
0.641505 0.326146 0.126253
0.694759 0.339086 0.135409
0.747890 0.353155 0.145296
0.795804 0.366613 0.157473
0.837888 0.379797 0.172000
0.875364 0.392035 0.187289
0.907591 0.403693 0.203342
0.936736 0.414893 0.218235
0.963378 0.425208 0.232761
0.987762 0.435248 0.246250
1.000000 0.445014 0.259709
1.000000 0.454810 0.273442
1.000000 0.464759 0.287602
1.000000 0.475044 0.302861
1.000000 0.485908 0.318914
1.000000 0.496956 0.335546
1.000000 0.508446 0.352728
1.000000 0.520165 0.370153
1.000000 0.531823 0.387121
1.000000 0.543542 0.404242
1.000000 0.555077 0.420417
0.000000 0.292515 0.154025
0.000000 0.292882 0.153414
0.000000 0.293736 0.151125
0.129549 0.296330 0.145937
0.209079 0.301915 0.136782
0.279545 0.309026 0.121126
0.347509 0.317906 0.104982
0.411414 0.325841 0.075654
0.474525 0.336065 0.055451
0.534264 0.345464 0.079011
0.588037 0.353429 0.096498
0.641016 0.362646 0.109041
0.694820 0.373388 0.121126
0.747738 0.385199 0.132387
0.795041 0.396063 0.146578
0.837003 0.406165 0.163943
0.873472 0.415930 0.180850
0.905699 0.425238 0.197910
0.934966 0.433936 0.213840
0.961578 0.442512 0.229038
0.986084 0.450965 0.243351
1.000000 0.459144 0.256870
1.000000 0.456703 0.258610
1.000000 0.465766 0.272953
1.000000 0.475166 0.288365
1.000000 0.485176 0.304601
1.000000 0.495460 0.321660
1.000000 0.506401 0.339361
1.000000 0.517784 0.357458
1.000000 0.529320 0.375708
1.000000 0.540978 0.393439
1.000000 0.552697 0.410834
0.000000 0.329137 0.174228
0.000000 0.329351 0.173709
0.000000 0.329900 0.172457
0.091066 0.331670 0.168765
0.180636 0.334997 0.163516
0.251621 0.340795 0.155489
0.318578 0.348760 0.143771
0.388159 0.361059 0.129397
0.451606 0.369940 0.113344
0.511864 0.378424 0.095796
0.568048 0.385931 0.054627
0.621637 0.393500 0.077089
0.675074 0.402411 0.095796
0.728634 0.412757 0.111116
0.778195 0.422248 0.127779
0.821927 0.430732 0.146212
0.860227 0.438605 0.167178
0.893950 0.445899 0.185702
0.923949 0.452827 0.202914
0.950896 0.459297 0.219669
0.975097 0.465400 0.233890
0.996918 0.471290 0.247684
1.000000 0.477333 0.260807
1.000000 0.483955 0.274510
1.000000 0.491371 0.290105
1.000000 0.499794 0.305913
1.000000 0.508873 0.323491
1.000000 0.518914 0.341680
1.000000 0.529229 0.359533
1.000000 0.540063 0.377935
1.000000 0.551049 0.395941
1.000000 0.562036 0.413336
0.000000 0.373144 0.199771
0.000000 0.373297 0.200351
0.000000 0.373877 0.198734
0.000000 0.375341 0.196078
0.159579 0.377600 0.192538
0.235050 0.383368 0.187106
0.303075 0.391089 0.179934
0.370855 0.400519 0.168856
0.443610 0.415473 0.157137
0.504479 0.421820 0.148013
0.561761 0.427893 0.138064
0.617914 0.434821 0.125429
0.675105 0.444007 0.108858
0.731136 0.453590 0.085939
0.780270 0.460700 0.106386
0.823087 0.466407 0.130892
0.860960 0.471748 0.156130
0.894621 0.476509 0.177432
0.924651 0.480934 0.197421
0.951629 0.485237 0.214725
0.975860 0.489448 0.230045
0.997772 0.493507 0.244419
1.000000 0.497902 0.259464
1.000000 0.503014 0.274174
1.000000 0.509087 0.289555
1.000000 0.516075 0.306340
1.000000 0.524163 0.324437
1.000000 0.532891 0.342626
1.000000 0.542290 0.361425
1.000000 0.552178 0.379797
1.000000 0.562158 0.397803
1.000000 0.572442 0.415412
0.000000 0.418219 0.229679
0.000000 0.418524 0.229191
0.000000 0.419043 0.228794
0.000000 0.420569 0.226658
0.138582 0.422797 0.223606
0.220706 0.426490 0.219577
0.289372 0.433845 0.215305
0.357427 0.442695 0.208011
0.424567 0.452644 0.198062
0.494606 0.465492 0.190433
0.552972 0.470192 0.183139
0.610193 0.476295 0.175937
0.668727 0.484138 0.167178
0.725429 0.492195 0.156130
0.775998 0.498207 0.146242
0.820554 0.502739 0.136660
0.859190 0.505882 0.140597
0.892821 0.508354 0.166140
0.922942 0.510643 0.189059
0.950134 0.512932 0.207584
0.974640 0.515068 0.224796
0.996704 0.517449 0.240696
1.000000 0.520195 0.255619
1.000000 0.523888 0.272160
1.000000 0.528588 0.288609
1.000000 0.534264 0.306371
1.000000 0.540948 0.324590
1.000000 0.548486 0.343206
1.000000 0.556725 0.362036
1.000000 0.565423 0.380560
1.000000 0.574487 0.398749
1.000000 0.583886 0.416724
0.000000 0.464332 0.257176
0.000000 0.464668 0.256901
0.000000 0.465278 0.256535
0.000000 0.466682 0.255406
0.113283 0.468757 0.253086
0.206149 0.471412 0.250126
0.278202 0.476722 0.246891
0.345403 0.484504 0.242222
0.411139 0.492805 0.236851
0.476448 0.501946 0.229191
0.545617 0.514488 0.223819
0.604883 0.520165 0.217594
0.663996 0.526909 0.211002
0.719570 0.532830 0.203220
0.769619 0.536736 0.196506
0.814176 0.539330 0.190249
0.853605 0.540703 0.183963
0.888457 0.541222 0.178988
0.919554 0.541466 0.176699
0.946899 0.541741 0.198276
0.971893 0.542229 0.217441
0.994812 0.543114 0.234958
1.000000 0.544762 0.252354
1.000000 0.547326 0.269871
1.000000 0.550683 0.287877
1.000000 0.555169 0.306432
1.000000 0.560601 0.325841
1.000000 0.566674 0.344671
1.000000 0.573663 0.363989
1.000000 0.581079 0.382544
1.000000 0.588861 0.400671
1.000000 0.596948 0.418219
0.000000 0.510094 0.282353
0.000000 0.510277 0.282261
0.000000 0.510674 0.281895
0.000000 0.511559 0.280461
0.069581 0.512902 0.279057
0.191501 0.514641 0.276707
0.265843 0.516777 0.273350
0.332738 0.523033 0.270481
0.397375 0.530297 0.266667
0.461891 0.538720 0.261173
0.526543 0.547601 0.254124
0.596216 0.561517 0.248386
0.655940 0.567620 0.242649
0.711269 0.571923 0.237644
0.760922 0.574304 0.232883
0.805631 0.575402 0.228183
0.845304 0.575372 0.223575
0.881132 0.574640 0.219760
0.913817 0.573693 0.214359
0.942901 0.572381 0.210208
0.969268 0.571099 0.208713
0.992493 0.570397 0.228824
1.000000 0.570550 0.247257
1.000000 0.571588 0.266697
1.000000 0.573510 0.285771
1.000000 0.576654 0.305547
1.000000 0.580591 0.324743
1.000000 0.585534 0.344579
1.000000 0.591089 0.364141
1.000000 0.597284 0.383124
1.000000 0.603906 0.401312
1.000000 0.610986 0.419196
0.000000 0.550225 0.305150
0.000000 0.550286 0.305028
0.000000 0.550591 0.304723
0.000000 0.551232 0.303655
0.000000 0.552270 0.302312
0.176272 0.553582 0.300389
0.253727 0.555505 0.296910
0.320439 0.558984 0.293767
0.384131 0.565606 0.291051
0.447364 0.573175 0.286931
0.510613 0.581750 0.281498
0.574640 0.591272 0.274632
0.621485 0.586481 0.261997
0.678370 0.592309 0.256748
0.729580 0.595361 0.253147
0.776028 0.596918 0.250156
0.817746 0.597162 0.247654
0.855467 0.596551 0.244175
0.889586 0.595453 0.240696
0.920867 0.594018 0.236149
0.949615 0.592401 0.231724
0.975586 0.590753 0.227420
0.999878 0.589624 0.231937
1.000000 0.589899 0.252476
1.000000 0.591028 0.273442
1.000000 0.593072 0.294255
1.000000 0.596094 0.315526
1.000000 0.600275 0.336797
1.000000 0.605188 0.357549
1.000000 0.610559 0.377539
1.000000 0.616510 0.396979
1.000000 0.622889 0.415656
0.000000 0.578698 0.322271
0.000000 0.578882 0.322423
0.000000 0.579431 0.322179
0.000000 0.580713 0.321508
0.000000 0.582116 0.320684
0.161410 0.584009 0.319249
0.240482 0.586175 0.317082
0.305669 0.588403 0.314000
0.367773 0.593835 0.311528
0.428840 0.600549 0.308446
0.489540 0.607904 0.303716
0.550164 0.615503 0.297581
0.610864 0.623560 0.290410
0.674342 0.634241 0.287755
0.724910 0.635615 0.283970
0.770382 0.635309 0.281590
0.811673 0.634058 0.280369
0.849332 0.632258 0.278538
0.883787 0.630060 0.276524
0.915404 0.627771 0.273838
0.944579 0.625147 0.269993
0.971771 0.622675 0.265415
0.997589 0.620356 0.260136
1.000000 0.618097 0.254368
1.000000 0.617517 0.272038
1.000000 0.618250 0.294469
1.000000 0.619867 0.316014
1.000000 0.622461 0.337774
1.000000 0.625940 0.358953
1.000000 0.630060 0.379187
1.000000 0.634638 0.398474
1.000000 0.639918 0.417670
0.000000 0.618799 0.345922
0.000000 0.619135 0.345983
0.000000 0.619928 0.346136
0.000000 0.621118 0.345739
0.000000 0.622644 0.344823
0.158572 0.624659 0.343755
0.237308 0.626734 0.341772
0.301671 0.628809 0.339025
0.361761 0.631495 0.335515
0.421973 0.637873 0.333349
0.481117 0.644495 0.329870
0.539757 0.650813 0.325994
0.598474 0.657496 0.320623
0.656977 0.664485 0.314916
0.715419 0.672328 0.314336
0.762722 0.672541 0.313268
0.803891 0.670100 0.312779
0.841459 0.667445 0.311864
0.876188 0.664393 0.310887
0.908019 0.661250 0.309239
0.937560 0.657740 0.306401
0.965270 0.654475 0.302556
0.991547 0.651453 0.297856
1.000000 0.648432 0.292180
1.000000 0.645319 0.285222
1.000000 0.643641 0.293431
1.000000 0.643915 0.315923
1.000000 0.645197 0.338476
1.000000 0.647303 0.359716
1.000000 0.650111 0.380224
1.000000 0.653529 0.399817
1.000000 0.657649 0.419196
0.000000 0.657191 0.368902
0.000000 0.657374 0.368872
0.000000 0.658137 0.368902
0.000000 0.659236 0.368719
0.000000 0.660700 0.367987
0.165164 0.662409 0.367407
0.238804 0.664240 0.365789
0.301457 0.665858 0.363409
0.358862 0.667262 0.360266
0.415747 0.670863 0.357610
0.472633 0.676204 0.355718
0.528923 0.681666 0.352941
0.584680 0.687221 0.349737
0.640650 0.693233 0.345708
0.696681 0.699672 0.341161
0.751125 0.705684 0.342626
0.794858 0.704768 0.343511
0.832578 0.701381 0.343420
0.867369 0.697566 0.342870
0.899565 0.693751 0.342107
0.929412 0.689876 0.340032
0.957641 0.686152 0.337346
0.984344 0.682582 0.333654
1.000000 0.679042 0.329229
1.000000 0.675196 0.322301
1.000000 0.671382 0.314397
1.000000 0.668482 0.315740
1.000000 0.668452 0.338567
1.000000 0.669184 0.360327
1.000000 0.670497 0.380682
1.000000 0.672541 0.400336
1.000000 0.675410 0.419776
0.000000 0.691981 0.391913
0.000000 0.692012 0.391669
0.000000 0.692317 0.391485
0.000000 0.692897 0.391180
0.089937 0.693690 0.390661
0.181308 0.694636 0.389746
0.245731 0.695552 0.388067
0.303319 0.696468 0.386114
0.357275 0.697292 0.383429
0.409277 0.698116 0.379828
0.463478 0.702754 0.378820
0.517479 0.707820 0.377264
0.571405 0.713344 0.375860
0.625330 0.719142 0.373510
0.678950 0.725093 0.371069
0.732387 0.731319 0.368322
0.783322 0.735958 0.370947
0.824063 0.734493 0.372686
0.858885 0.730220 0.372473
0.891112 0.725582 0.371954
0.921141 0.721218 0.370825
0.949615 0.717006 0.368719
0.976440 0.712978 0.365942
1.000000 0.708858 0.361975
1.000000 0.704585 0.356573
1.000000 0.700282 0.349554
1.000000 0.695766 0.341070
1.000000 0.691798 0.338567
1.000000 0.691279 0.360113
1.000000 0.691615 0.381201
1.000000 0.692622 0.401343
1.000000 0.694514 0.421332
0.000000 0.722530 0.413428
0.000000 0.722560 0.413245
0.000000 0.722744 0.413184
0.013428 0.723110 0.412696
0.142489 0.723629 0.412146
0.204227 0.724239 0.411292
0.258854 0.724849 0.410071
0.310613 0.725490 0.408484
0.359960 0.726162 0.406317
0.408667 0.726772 0.403479
0.458106 0.728695 0.401068
0.509422 0.733120 0.400488
0.560479 0.737789 0.399634
0.611322 0.742702 0.398474
0.662318 0.747860 0.397375
0.713344 0.753323 0.395666
0.763912 0.758877 0.393530
0.811307 0.762570 0.396094
0.849729 0.760800 0.398810
0.882139 0.755886 0.398688
0.912657 0.751278 0.397498
0.941405 0.746700 0.396338
0.968475 0.742245 0.393988
0.993835 0.737789 0.390906
1.000000 0.733211 0.386450
1.000000 0.728573 0.381109
1.000000 0.723690 0.373754
1.000000 0.718441 0.363775
1.000000 0.714229 0.362341
1.000000 0.713130 0.381567
1.000000 0.713130 0.402441
1.000000 0.713985 0.422766
0.006195 0.748348 0.432868
0.016388 0.748257 0.432532
0.000000 0.739712 0.425391
0.104677 0.740017 0.424964
0.162356 0.740475 0.424445
0.212772 0.741054 0.423682
0.261265 0.741634 0.422889
0.308507 0.742245 0.421546
0.354864 0.742885 0.419715
0.400610 0.743465 0.417273
0.445869 0.744015 0.414588
0.493538 0.747250 0.413947
0.542229 0.751705 0.413916
0.591028 0.756497 0.413672
0.639765 0.761593 0.413733
0.688594 0.767025 0.413184
0.737575 0.772641 0.412573
0.786221 0.778347 0.411505
0.831357 0.782010 0.414740
0.868650 0.780911 0.418463
0.900145 0.776608 0.418708
0.929656 0.772366 0.417762
0.957427 0.768002 0.416419
0.983459 0.763729 0.414710
1.000000 0.759274 0.411505
1.000000 0.754788 0.407568
1.000000 0.750118 0.401404
1.000000 0.745083 0.393713
1.000000 0.739559 0.383368
1.000000 0.735561 0.385321
1.000000 0.734463 0.404913
1.000000 0.734249 0.424964
0.144198 0.769192 0.449744
0.145602 0.768490 0.449012
0.156130 0.767819 0.448188
0.179324 0.767330 0.447333
0.209689 0.767117 0.446479
0.245579 0.767239 0.445747
0.284855 0.767697 0.444892
0.325322 0.768276 0.443702
0.366278 0.768795 0.442084
0.407813 0.769284 0.440375
0.449714 0.769833 0.438117
0.491951 0.770901 0.436133
0.538109 0.774868 0.436530
0.584222 0.779110 0.436957
0.630304 0.783719 0.437476
0.676753 0.788540 0.437781
0.723110 0.793606 0.437781
0.769284 0.798611 0.437507
0.815122 0.803616 0.436805
0.857481 0.806455 0.439765
0.892515 0.804990 0.443641
0.922118 0.800473 0.443214
0.949920 0.795926 0.442115
0.976104 0.791257 0.440375
1.000000 0.786740 0.438025
1.000000 0.782071 0.434882
1.000000 0.777279 0.429908
1.000000 0.772091 0.423072
1.000000 0.766537 0.414069
1.000000 0.760372 0.402167
1.000000 0.756863 0.410376
1.000000 0.755764 0.430488
0.212467 0.793301 0.471107
0.212650 0.792599 0.470375
0.218387 0.791928 0.469551
0.231846 0.791348 0.468574
0.252689 0.791104 0.467628
0.279881 0.791226 0.466926
0.310826 0.791562 0.466133
0.345159 0.792020 0.465370
0.381048 0.792538 0.464057
0.418006 0.793088 0.462623
0.456214 0.793576 0.460700
0.494942 0.794125 0.458534
0.536339 0.796475 0.457984
0.579858 0.800351 0.458747
0.623590 0.804440 0.459815
0.667353 0.808804 0.460517
0.711238 0.813382 0.461341
0.755154 0.818051 0.461616
0.798764 0.822690 0.462043
0.842222 0.827176 0.461402
0.881956 0.829435 0.464302
0.914549 0.827543 0.468513
0.942321 0.822904 0.467933
0.968505 0.818112 0.466560
0.993317 0.813382 0.464515
1.000000 0.808652 0.461677
1.000000 0.803769 0.457374
1.000000 0.798581 0.451362
1.000000 0.792966 0.443549
1.000000 0.786709 0.432593
1.000000 0.779782 0.418738
1.000000 0.777798 0.437568
0.268742 0.816098 0.493263
0.268162 0.815518 0.492531
0.271580 0.814969 0.491585
0.280674 0.814511 0.490730
0.295903 0.814298 0.490028
0.316625 0.814359 0.489235
0.341283 0.814694 0.488563
0.369726 0.815122 0.487678
0.400397 0.815579 0.486641
0.433051 0.816068 0.485389
0.467536 0.816495 0.483864
0.502586 0.816983 0.481971
0.538476 0.817624 0.479683
0.578943 0.821042 0.480903
0.620203 0.824765 0.482368
0.661280 0.828672 0.483497
0.702480 0.832609 0.484535
0.743832 0.836576 0.485084
0.784634 0.840452 0.485389
0.825376 0.844175 0.484993
0.865690 0.847684 0.484077
0.902525 0.848997 0.486183
0.932311 0.846372 0.490333
0.958282 0.841367 0.489052
0.982940 0.836423 0.486946
1.000000 0.831540 0.483925
1.000000 0.826596 0.479957
1.000000 0.821469 0.474678
1.000000 0.815946 0.467414
1.000000 0.809964 0.457801
1.000000 0.803250 0.445075
1.000000 0.797330 0.440314
0.309453 0.834501 0.511650
0.309667 0.834287 0.511254
0.312993 0.834165 0.510918
0.320745 0.834165 0.510521
0.333349 0.834318 0.510277
0.350408 0.834592 0.510002
0.371038 0.835019 0.509667
0.394690 0.835477 0.508965
0.421149 0.835874 0.508019
0.449561 0.836301 0.506889
0.479652 0.836728 0.505364
0.511131 0.837217 0.503624
0.543938 0.837827 0.501579
0.579339 0.839414 0.500877
0.617853 0.842863 0.502586
0.656580 0.846464 0.504295
0.695583 0.850126 0.505882
0.734615 0.853849 0.507347
0.773434 0.857572 0.508293
0.812131 0.861173 0.508965
0.850706 0.864652 0.509239
0.888762 0.867979 0.508934
0.923522 0.869078 0.510918
0.951232 0.866300 0.516045
0.975799 0.861479 0.514458
0.999390 0.856687 0.512047
1.000000 0.851804 0.508507
1.000000 0.846799 0.503777
1.000000 0.841398 0.496956
1.000000 0.835630 0.488502
1.000000 0.829191 0.477058
1.000000 0.820493 0.459327
0.358709 0.856291 0.535668
0.358831 0.856138 0.535363
0.361608 0.855985 0.535088
0.367529 0.855985 0.534752
0.376989 0.856107 0.534417
0.390234 0.856352 0.534203
0.406806 0.856687 0.533898
0.426490 0.857115 0.533196
0.448676 0.857511 0.532433
0.473152 0.857877 0.531456
0.499184 0.858305 0.530053
0.527092 0.858701 0.528466
0.556268 0.859190 0.526604
0.586755 0.859739 0.524559
0.621515 0.862242 0.525658
0.657465 0.865354 0.527550
0.693782 0.868589 0.529320
0.730037 0.871855 0.530846
0.766506 0.875059 0.532128
0.802701 0.878233 0.533165
0.838865 0.881285 0.533623
0.874723 0.884184 0.533837
0.910430 0.887022 0.533349
0.942992 0.887755 0.534813
0.970153 0.886168 0.542779
0.993133 0.881376 0.541283
1.000000 0.876707 0.538109
1.000000 0.871916 0.534234
1.000000 0.866789 0.528618
1.000000 0.861295 0.521324
1.000000 0.854002 0.508904
1.000000 0.845182 0.491341
0.398444 0.875547 0.556817
0.398230 0.875212 0.556420
0.400244 0.875120 0.556146
0.405554 0.875242 0.555962
0.413886 0.875578 0.556115
0.425452 0.876097 0.556237
0.439918 0.876677 0.556390
0.456916 0.877348 0.556298
0.476631 0.878019 0.556085
0.498146 0.878691 0.555688
0.521569 0.879362 0.554986
0.546593 0.879973 0.553918
0.572992 0.880644 0.552789
0.600641 0.881376 0.551293
0.630426 0.882658 0.550591
0.663874 0.885588 0.552911
0.697627 0.888579 0.555169
0.731502 0.891508 0.556970
0.765286 0.894316 0.558465
0.798978 0.896941 0.559503
0.832517 0.899504 0.560174
0.866087 0.902007 0.560479
0.899718 0.904540 0.560601
0.933257 0.907073 0.560357
0.964080 0.907836 0.561791
0.987640 0.904295 0.566278
1.000000 0.899779 0.565087
1.000000 0.895476 0.562402
1.000000 0.890837 0.558251
1.000000 0.884764 0.550469
1.000000 0.877562 0.539025
1.000000 0.869169 0.523369
0.442786 0.897581 0.582116
0.442512 0.897307 0.581628
0.444099 0.897154 0.581445
0.448005 0.897185 0.581109
0.454475 0.897368 0.581079
0.463661 0.897581 0.580926
0.475196 0.897887 0.580774
0.489113 0.898192 0.580346
0.505150 0.898558 0.579644
0.523400 0.898894 0.579034
0.543603 0.899260 0.578180
0.565393 0.899718 0.577111
0.588922 0.900206 0.576074
0.613825 0.900786 0.574823
0.639979 0.901488 0.573510
0.669551 0.903410 0.574517
0.700893 0.906035 0.576654
0.732357 0.908629 0.578637
0.763882 0.911101 0.580255
0.795438 0.913481 0.581445
0.826932 0.915740 0.582391
0.858549 0.917967 0.582940
0.890074 0.920195 0.583246
0.921721 0.922423 0.583124
0.953307 0.924651 0.582788
0.982574 0.925261 0.583581
1.000000 0.921141 0.587304
1.000000 0.916594 0.586511
1.000000 0.911254 0.581292
1.000000 0.905272 0.573999
1.000000 0.898466 0.564019
1.000000 0.890410 0.549767
0.479744 0.917266 0.604456
0.479805 0.917113 0.604211
0.481270 0.917113 0.604089
0.484718 0.917174 0.604028
0.490150 0.917327 0.603937
0.497871 0.917571 0.603876
0.507805 0.917876 0.603723
0.519768 0.918212 0.603449
0.533806 0.918517 0.603082
0.549706 0.918853 0.602533
0.567620 0.919188 0.601831
0.586938 0.919585 0.601007
0.607782 0.920012 0.600031
0.630152 0.920531 0.598962
0.653895 0.921141 0.597894
0.678828 0.921965 0.596948
0.707729 0.924224 0.599207
0.736904 0.926482 0.601068
0.766262 0.928649 0.602869
0.795712 0.930724 0.604211
0.825193 0.932738 0.605280
0.854856 0.934752 0.606104
0.884489 0.936736 0.606683
0.914336 0.938811 0.607141
0.944213 0.940856 0.607416
0.973816 0.942687 0.606989
1.000000 0.942626 0.605982
1.000000 0.937224 0.607691
1.000000 0.931365 0.604730
1.000000 0.925505 0.598291
1.000000 0.918853 0.589197
1.000000 0.911101 0.576257
0.517266 0.937316 0.628290
0.517449 0.937224 0.628077
0.518578 0.937163 0.627863
0.521386 0.937163 0.627802
0.525780 0.937194 0.627527
0.531884 0.937194 0.627161
0.539452 0.937163 0.626459
0.548913 0.937011 0.625605
0.559991 0.936828 0.624506
0.572717 0.936614 0.623102
0.587243 0.936400 0.621637
0.603540 0.936278 0.620050
0.621576 0.936248 0.618555
0.641108 0.936370 0.616938
0.662287 0.936675 0.615534
0.684962 0.937194 0.614343
0.710170 0.938506 0.614710
0.737484 0.940490 0.616693
0.765042 0.942412 0.618494
0.792874 0.944335 0.619928
0.820829 0.946197 0.621149
0.848997 0.948089 0.622339
0.876829 0.949706 0.622736
0.904540 0.951049 0.622370
0.932189 0.952361 0.621698
0.959930 0.953552 0.620447
0.987579 0.954589 0.618616
1.000000 0.954406 0.616724
1.000000 0.948272 0.617182
1.000000 0.941833 0.613855
1.000000 0.935546 0.605951
1.000000 0.928252 0.594293
0.545068 0.953765 0.646509
0.545281 0.953765 0.646509
0.546715 0.953826 0.646571
0.549248 0.953948 0.646540
0.553429 0.954070 0.646540
0.559167 0.954223 0.646509
0.566522 0.954437 0.646418
0.575494 0.954620 0.646113
0.585962 0.954803 0.645747
0.598108 0.954986 0.645167
0.611841 0.955200 0.644526
0.626978 0.955413 0.643732
0.643702 0.955718 0.642908
0.661860 0.956085 0.642115
