20 Preset/Japan Style/【3】LUT video cho PR-AE-FCPX/LUT VIDEO/Japan Style LUT (5).cube
# Created by Adobe Lightroom plugin Export LUT (1.24.0)
# www.johnrellis.com/lightroom/exportlut.htm
# Preset: 05日系基础色（素材江湖）
# Color profile: C:\Program Files (x86)\Common Files\Adobe\Color\Profiles\Recommended\VideoHD.icc
LUT_3D_SIZE 8
DOMAIN_MIN 0.000000 0.000000 0.000000
DOMAIN_MAX 0.903226 0.903226 0.903226
0.000000 0.000000 0.000000
0.197269 0.052216 0.000000
0.429023 0.123629 0.000000
0.639368 0.182681 0.000000
0.835721 0.245090 0.000000
0.964111 0.305241 0.093538
1.000000 0.354437 0.181399
1.000000 0.404425 0.265171
0.000000 0.187320 0.034913
0.203403 0.197543 0.000000
0.411505 0.211917 0.000000
0.620447 0.245762 0.000000
0.817838 0.288731 0.000000
0.949157 0.332189 0.111452
1.000000 0.372564 0.188327
1.000000 0.417182 0.270207
0.000000 0.384039 0.180270
0.158755 0.382635 0.193271
0.403326 0.392035 0.120607
0.600336 0.391821 0.130678
0.792203 0.411505 0.144961
0.929686 0.432044 0.185519
1.000000 0.454627 0.249912
1.000000 0.482277 0.320165
0.000000 0.589746 0.329961
0.179904 0.588098 0.337835
0.370794 0.588220 0.336034
0.610742 0.587396 0.233646
0.785824 0.571221 0.237552
0.897032 0.558129 0.282597
0.990051 0.562249 0.329961
1.000000 0.572686 0.387884
0.229313 0.749081 0.472297
0.280461 0.748409 0.477699
0.416236 0.747524 0.503136
0.557580 0.745541 0.459937
0.752071 0.732052 0.356970
0.875059 0.694087 0.355322
0.954467 0.670253 0.405280
1.000000 0.670649 0.468116
0.462165 0.842771 0.625269
0.481971 0.843900 0.632136
0.537896 0.842832 0.648096
0.610010 0.841733 0.661158
0.688075 0.838437 0.599634
0.832670 0.828305 0.504265
0.933562 0.792172 0.503044
0.992218 0.774960 0.566461
0.621210 0.902647 0.754086
0.626154 0.902831 0.755398
0.649653 0.901976 0.762692
0.690700 0.900847 0.777127
0.726070 0.900298 0.768582
0.780972 0.899077 0.729305
0.885527 0.893492 0.665797
0.961547 0.865995 0.663691
0.741604 0.939208 0.846159
0.743160 0.939178 0.846311
0.752560 0.938842 0.848692
0.773983 0.937896 0.855924
0.797787 0.935485 0.862638
0.816831 0.936706 0.851408
0.854063 0.937194 0.831174
0.921355 0.935058 0.798734
0.026886 0.007996 0.105196
0.202640 0.000000 0.111727
0.417823 0.119417 0.109194
0.616388 0.205905 0.129519
0.813626 0.260197 0.138979
0.945983 0.313359 0.168368
1.000000 0.361883 0.220768
1.000000 0.409918 0.287358
0.000000 0.189517 0.126986
0.209445 0.193393 0.126436
0.400580 0.221256 0.137209
0.606928 0.258976 0.141939
0.804288 0.298955 0.150179
0.938293 0.340795 0.178012
1.000000 0.380774 0.228733
1.000000 0.423072 0.293034
0.133333 0.377234 0.221714
0.201816 0.377417 0.225437
0.404761 0.387396 0.174929
0.587701 0.387976 0.185000
0.778378 0.410346 0.194522
0.917967 0.433021 0.224063
1.000000 0.455207 0.272496
1.000000 0.483040 0.333104
0.137026 0.574182 0.342962
0.216403 0.573724 0.348669
0.376562 0.575738 0.351110
0.596826 0.572107 0.257847
0.767056 0.557885 0.259983
0.883574 0.550561 0.295689
0.979644 0.557183 0.337530
1.000000 0.569757 0.392432
0.253239 0.744198 0.480476
0.295567 0.743343 0.484565
0.422095 0.741787 0.508110
0.556207 0.738460 0.466804
0.745907 0.723873 0.366644
0.867948 0.688258 0.365606
0.948699 0.666743 0.412116
1.000000 0.668757 0.472206
0.465217 0.839170 0.626886
0.479469 0.839078 0.630152
0.536034 0.838254 0.646296
0.609613 0.837705 0.661799
0.686915 0.834897 0.602564
0.830564 0.825559 0.510521
0.930419 0.790249 0.509697
0.989654 0.773434 0.569574
0.620172 0.900450 0.753353
0.622766 0.900237 0.752926
0.646021 0.899443 0.759945
0.687953 0.898589 0.774960
0.725216 0.898589 0.768673
0.779599 0.897337 0.729549
0.883726 0.891264 0.665064
0.959747 0.863767 0.662287
0.739498 0.938354 0.845090
0.741756 0.938445 0.845670
0.750393 0.938170 0.847562
0.772183 0.937255 0.854978
0.800473 0.935943 0.865019
0.818265 0.936736 0.853513
0.854154 0.936980 0.832395
0.921141 0.934813 0.800015
0.061830 0.000000 0.260075
0.198184 0.000000 0.254612
0.402564 0.047822 0.265293
0.633539 0.129122 0.254917
0.819913 0.260166 0.275334
0.940703 0.343206 0.304692
1.000000 0.400885 0.339483
1.000000 0.447211 0.381353
0.136904 0.195132 0.267185
0.219791 0.195163 0.261784
0.407294 0.202457 0.268528
0.619532 0.247990 0.269230
0.806149 0.307927 0.283543
0.931731 0.369543 0.310613
1.000000 0.415717 0.341985
1.000000 0.457862 0.384192
0.142458 0.376349 0.299016
0.242802 0.377630 0.304570
0.412238 0.382605 0.291020
0.591180 0.397467 0.302190
0.781521 0.425635 0.315007
0.913817 0.453193 0.335821
0.999969 0.479561 0.367041
1.000000 0.508324 0.409644
0.287297 0.569085 0.420874
0.307408 0.571130 0.415839
0.413916 0.574456 0.425299
0.608637 0.574182 0.349310
0.761501 0.559838 0.355779
0.881804 0.562432 0.378393
0.975097 0.572992 0.411597
1.000000 0.588464 0.456641
0.356054 0.737514 0.532952
0.370123 0.738125 0.530602
0.461006 0.738613 0.546746
0.575860 0.737148 0.523674
0.750332 0.724453 0.431312
0.862242 0.689998 0.432105
0.941558 0.672969 0.468055
1.000000 0.680781 0.522148
0.509575 0.835172 0.657404
0.516899 0.835660 0.657862
0.559838 0.835508 0.668482
0.629847 0.835172 0.689845
0.695338 0.832334 0.636194
0.829343 0.823117 0.551232
0.923552 0.791440 0.553338
0.982940 0.778927 0.606134
0.638788 0.899504 0.768673
0.641291 0.899382 0.768399
0.657557 0.898955 0.771298
0.696986 0.898039 0.784756
0.734340 0.897856 0.783322
0.784237 0.896757 0.747280
0.883726 0.891356 0.689204
0.955901 0.866514 0.689754
0.746548 0.937896 0.851164
0.747768 0.937804 0.851072
0.754391 0.937713 0.851804
0.775601 0.937102 0.858793
0.803555 0.935851 0.868559
0.822507 0.936553 0.860441
0.856352 0.936919 0.840543
0.921050 0.934874 0.809537
0.090517 0.000000 0.433722
0.210880 0.000000 0.428717
0.389960 0.052003 0.406195
0.609796 0.094728 0.421881
0.823941 0.185458 0.416876
0.941100 0.338689 0.426551
1.000000 0.425666 0.450935
1.000000 0.486519 0.485786
0.142794 0.195224 0.436530
0.233097 0.195621 0.431586
0.398871 0.196139 0.412085
0.612879 0.205356 0.424140
0.820340 0.262242 0.420813
0.933501 0.377661 0.436622
1.000000 0.444099 0.456153
1.000000 0.498665 0.490517
0.173983 0.386664 0.451270
0.254765 0.387549 0.449622
0.416571 0.381018 0.433661
0.610895 0.393774 0.435431
0.795438 0.432715 0.446662
0.911467 0.473091 0.458839
0.990478 0.514427 0.484749
1.000000 0.548974 0.516197
0.203372 0.563378 0.478462
0.276890 0.563378 0.481147
0.453590 0.566552 0.501122
0.606653 0.564141 0.465705
0.752499 0.562280 0.469032
0.874632 0.578576 0.485939
0.963165 0.596063 0.512291
1.000000 0.617273 0.548150
0.404456 0.731502 0.593347
0.440131 0.730648 0.598840
0.507378 0.732876 0.601862
0.606348 0.734463 0.606836
0.754238 0.722560 0.525750
0.850675 0.693996 0.530480
0.931365 0.688563 0.556695
1.000000 0.701381 0.599115
0.569970 0.831083 0.706538
0.577661 0.832639 0.708248
0.597894 0.833890 0.707301
0.658473 0.834867 0.727352
0.712856 0.832303 0.694301
0.830777 0.823453 0.619043
0.912749 0.795438 0.623743
0.971496 0.788296 0.663661
0.664515 0.897307 0.792081
0.667689 0.897520 0.792386
0.679683 0.898131 0.793088
0.711971 0.898344 0.802213
0.752285 0.898222 0.810330
0.792599 0.896788 0.777951
0.883207 0.890990 0.725612
0.949401 0.869505 0.728756
0.759609 0.937591 0.863005
0.761044 0.937560 0.863035
0.767269 0.937499 0.863462
0.781247 0.937255 0.865934
0.808713 0.936034 0.874998
0.829587 0.936187 0.872404
0.859617 0.936706 0.853880
0.920775 0.935027 0.825559
0.103090 0.000000 0.608331
0.220859 0.000000 0.604028
0.405310 0.025696 0.582269
0.584802 0.089174 0.559411
0.800320 0.140230 0.572198
0.937224 0.283268 0.550561
1.000000 0.415290 0.549401
1.000000 0.553399 0.613367
0.143954 0.192599 0.609125
0.237186 0.192142 0.605493
0.411139 0.191653 0.585443
0.588739 0.197147 0.562493
0.798886 0.229801 0.573724
0.932311 0.328954 0.553704
1.000000 0.444221 0.557916
1.000000 0.563287 0.616693
0.210178 0.400092 0.620600
0.272923 0.396490 0.615259
0.428199 0.388586 0.597192
0.596551 0.381140 0.573571
0.788540 0.399908 0.577173
0.909392 0.457374 0.567620
0.972808 0.552728 0.603723
1.000000 0.597284 0.627131
0.232486 0.573297 0.624750
0.291112 0.572992 0.623285
0.445075 0.573022 0.618463
0.611658 0.564904 0.601343
0.765255 0.586816 0.606683
0.868345 0.606561 0.610468
0.947326 0.630121 0.625940
1.000000 0.654444 0.649195
0.303014 0.719844 0.636011
0.351720 0.719905 0.638483
0.493324 0.719692 0.650416
0.631769 0.724117 0.675471
0.741360 0.710048 0.628168
0.830076 0.695125 0.626886
0.918822 0.706203 0.648646
0.986725 0.720912 0.676967
0.538628 0.822995 0.721279
0.555901 0.822721 0.724758
0.614893 0.821103 0.737911
0.663844 0.823880 0.744869
0.721828 0.825071 0.743374
0.824186 0.815396 0.684443
0.898222 0.796445 0.692622
0.959655 0.794797 0.718563
0.659632 0.894560 0.805417
0.666987 0.894194 0.807187
0.696468 0.893217 0.815549
0.719234 0.895171 0.817441
0.763973 0.896422 0.831846
0.798367 0.894865 0.809506
0.882048 0.889220 0.761868
0.941527 0.869780 0.766476
0.745418 0.937377 0.865354
0.751064 0.937041 0.867063
0.773312 0.935760 0.874052
0.787350 0.936187 0.875639
0.809506 0.935882 0.880461
0.837095 0.935241 0.886595
0.861692 0.935851 0.868986
0.919707 0.934112 0.841611
0.113497 0.000000 0.765316
0.223301 0.000000 0.762631
0.409186 0.000000 0.748470
0.589166 0.006500 0.721523
0.773922 0.121248 0.708431
0.922118 0.251652 0.688319
1.000000 0.391272 0.658534
1.000000 0.524651 0.670649
0.140627 0.184604 0.761440
0.232517 0.185122 0.758389
0.410986 0.184817 0.745357
0.588403 0.186343 0.718776
0.769802 0.213779 0.704982
0.916411 0.297795 0.686580
0.997467 0.418219 0.660334
1.000000 0.540612 0.675227
0.229618 0.399725 0.764828
0.287114 0.398901 0.762020
0.434516 0.394659 0.750668
0.597314 0.382269 0.724239
0.768887 0.387091 0.710140
0.902037 0.436011 0.692103
0.976410 0.521782 0.679866
1.000000 0.610895 0.703609
0.331121 0.593774 0.775235
0.373175 0.595178 0.773831
0.491188 0.594324 0.762661
0.619013 0.577874 0.741360
0.762539 0.572686 0.725032
0.871580 0.606195 0.714229
0.940703 0.654414 0.722042
0.986755 0.707179 0.751522
0.364019 0.725490 0.760342
0.396643 0.725338 0.759518
0.500114 0.725032 0.756466
0.629419 0.724788 0.751553
0.739651 0.719509 0.740719
0.830991 0.729519 0.742641
0.906706 0.740810 0.750729
0.968505 0.756191 0.766079
0.460182 0.821378 0.753994
0.484474 0.821500 0.756405
0.559838 0.820096 0.763241
0.659785 0.819394 0.777798
0.741360 0.824033 0.797482
0.814176 0.810727 0.760433
0.884550 0.799405 0.762112
0.952148 0.808591 0.781949
0.619501 0.894713 0.815763
0.629297 0.894682 0.817746
0.664393 0.893767 0.824460
0.722194 0.892729 0.837766
0.771237 0.894652 0.848936
0.809628 0.895262 0.848905
0.879515 0.886992 0.806912
0.933623 0.872862 0.813077
0.711177 0.939452 0.866026
0.716091 0.939117 0.866972
0.737392 0.937957 0.871824
0.775418 0.936309 0.881621
0.813901 0.935149 0.891325
0.842618 0.934997 0.898253
0.865721 0.935241 0.889006
0.919066 0.933776 0.863249
0.109438 0.000000 0.871183
0.213077 0.000000 0.870603
0.391455 0.000000 0.863951
0.573663 0.000000 0.850309
0.744808 0.061830 0.828946
0.911345 0.199130 0.821683
1.000000 0.347814 0.772793
1.000000 0.486824 0.742824
0.123629 0.161837 0.866300
0.217319 0.163302 0.866087
0.391699 0.166384 0.859342
0.571038 0.174899 0.845060
0.739101 0.187106 0.822995
0.902708 0.248753 0.814786
0.992309 0.367041 0.767910
1.000000 0.493355 0.739406
0.233982 0.385199 0.866270
0.284184 0.385534 0.864836
0.420447 0.384527 0.857908
0.581445 0.381079 0.844572
0.735805 0.370520 0.821775
0.892058 0.399573 0.813748
0.976989 0.481239 0.776120
1.000000 0.578668 0.760342
0.385626 0.590021 0.868132
0.414008 0.591028 0.865904
0.501457 0.591547 0.858274
0.612024 0.581353 0.847227
0.733425 0.559136 0.826719
0.869200 0.575402 0.817258
0.946563 0.625513 0.794919
0.990234 0.681941 0.790707
0.448798 0.725917 0.861875
0.469825 0.726284 0.860624
0.549126 0.731502 0.858000
0.648096 0.737331 0.852598
0.728237 0.715969 0.832822
0.833494 0.709071 0.819608
0.910246 0.734066 0.811887
0.960449 0.768978 0.821958
0.472572 0.826902 0.851408
0.489662 0.826932 0.851316
0.549462 0.826505 0.850431
0.635401 0.825528 0.848905
0.727169 0.823239 0.846281
0.810971 0.815457 0.838071
0.882444 0.827237 0.842679
0.936461 0.836362 0.850492
0.536248 0.895842 0.841489
0.547662 0.895628 0.841978
0.587610 0.893645 0.842741
0.664332 0.891356 0.849821
0.749935 0.889525 0.861509
0.819821 0.891691 0.876280
0.870481 0.881773 0.853941
0.924559 0.874113 0.856413
0.659571 0.941283 0.872740
0.666743 0.941009 0.873869
0.695979 0.940063 0.878782
0.741970 0.937987 0.886564
0.796994 0.935454 0.897398
0.848753 0.934081 0.910307
0.873533 0.934905 0.912627
0.916991 0.932525 0.888884
0.000000 0.000000 0.940215
0.159091 0.000000 0.939788
0.350225 0.000000 0.935882
0.529900 0.000000 0.929808
0.702266 0.000000 0.919188
0.859495 0.114961 0.907652
1.000000 0.259556 0.895262
1.000000 0.426459 0.836393
0.000000 0.000000 0.937804
0.157321 0.000000 0.937438
0.348333 0.002258 0.934112
0.528527 0.061982 0.927764
0.700160 0.129793 0.917021
0.855985 0.196811 0.905241
1.000000 0.293431 0.892546
1.000000 0.442206 0.835477
0.133394 0.328740 0.934569
0.212436 0.330022 0.933928
0.369360 0.334234 0.930480
0.539147 0.344793 0.925292
0.698756 0.349310 0.914458
0.846342 0.360235 0.901946
0.986664 0.415351 0.889708
1.000000 0.523674 0.840513
0.346715 0.549310 0.928435
0.371740 0.549737 0.927977
0.453895 0.548913 0.925109
0.572961 0.548028 0.919921
0.700069 0.542046 0.910735
0.829129 0.533379 0.898344
0.958831 0.569604 0.888273
1.000000 0.640223 0.853483
0.418158 0.691768 0.927276
0.442359 0.694209 0.926696
0.516320 0.700038 0.923186
0.630243 0.719295 0.915312
0.709468 0.706569 0.907378
0.805417 0.682795 0.894713
0.922759 0.699001 0.888792
0.975036 0.744442 0.870603
0.459327 0.801572 0.918578
0.475776 0.802029 0.918090
0.537285 0.804929 0.916716
0.630091 0.812192 0.915190
0.727443 0.822599 0.913634
0.799405 0.811795 0.903319
0.891936 0.809506 0.898131
0.943999 0.827787 0.887724
0.514458 0.896696 0.916716
0.526299 0.896513 0.916564
0.571893 0.895872 0.915892
0.644739 0.895018 0.915129
0.727199 0.893858 0.914092
0.805203 0.892485 0.913146
0.864805 0.880613 0.904448
0.919463 0.888670 0.905089
0.574304 0.947173 0.901793
0.582177 0.946685 0.901915
0.615412 0.944884 0.902647
0.672023 0.941894 0.904509
0.737881 0.937835 0.906920
0.810727 0.933562 0.913603
0.875517 0.931579 0.924773
0.908537 0.928527 0.918151
