20 Preset/Japan Style/【3】LUT video cho PR-AE-FCPX/LUT VIDEO/Japan Style LUT (15).cube
# Created by Adobe Lightroom plugin Export LUT (1.24.0)
# www.johnrellis.com/lightroom/exportlut.htm
# Preset: 15日系清新（素材江湖）
# Color profile: C:\Program Files (x86)\Common Files\Adobe\Color\Profiles\Recommended\VideoHD.icc
LUT_3D_SIZE 5
DOMAIN_MIN 0.000000 0.000000 0.000000
DOMAIN_MAX 0.903226 0.903226 0.903226
0.174899 0.174899 0.174899
0.324956 0.173129 0.171572
0.640864 0.164858 0.155764
0.883757 0.162142 0.139986
1.000000 0.182803 0.153262
0.129427 0.306218 0.191165
0.317174 0.351629 0.154757
0.707271 0.380377 0.104799
0.918120 0.340093 0.126101
1.000000 0.323186 0.168460
0.173648 0.560723 0.329778
0.278538 0.561303 0.331121
0.569574 0.640925 0.232486
0.935729 0.664210 0.171603
1.000000 0.613672 0.290166
0.311406 0.759457 0.473732
0.356847 0.759548 0.474586
0.493385 0.769314 0.471077
0.751858 0.835599 0.386419
1.000000 0.840513 0.289860
0.591547 0.930236 0.689235
0.605615 0.930632 0.690730
0.661006 0.932555 0.697383
0.745968 0.950713 0.680842
0.902007 0.976410 0.599725
0.220005 0.161318 0.340917
0.356603 0.163973 0.329595
0.595148 0.152529 0.327306
0.836240 0.000000 0.285588
1.000000 0.149538 0.286107
0.000000 0.328771 0.343236
0.322576 0.350774 0.356664
0.635309 0.335943 0.336950
0.874510 0.317296 0.313695
1.000000 0.315984 0.306798
0.294865 0.576684 0.430365
0.320500 0.579400 0.411658
0.571160 0.639796 0.369146
0.925872 0.666957 0.383124
1.000000 0.616785 0.405463
0.346868 0.764889 0.514946
0.386511 0.764981 0.515679
0.512566 0.765316 0.518334
0.754604 0.834897 0.456641
1.000000 0.841825 0.405097
0.601648 0.930877 0.704219
0.615320 0.931304 0.705653
0.668055 0.932830 0.711055
0.752346 0.949218 0.700435
0.904601 0.975860 0.629633
0.328435 0.091707 0.616083
0.434333 0.058137 0.620356
0.671321 0.271672 0.619287
0.766781 0.343206 0.570581
0.978424 0.282017 0.545800
0.000000 0.240848 0.623804
0.355932 0.264439 0.627070
0.665675 0.387274 0.628595
0.767758 0.414282 0.581476
0.982269 0.331640 0.538140
0.051270 0.573754 0.598444
0.277775 0.583856 0.605768
0.580682 0.624079 0.633509
0.820676 0.605921 0.609369
1.000000 0.575647 0.575769
0.485786 0.770291 0.659632
0.519677 0.774014 0.663966
0.590478 0.784909 0.655451
0.766842 0.828977 0.647303
1.000000 0.854063 0.675746
0.660639 0.931884 0.771267
0.662898 0.932952 0.767147
0.693324 0.935821 0.761654
0.774777 0.943114 0.765438
0.914885 0.974487 0.723384
0.422736 0.000000 0.821134
0.488075 0.000000 0.822263
0.688777 0.233707 0.825101
0.884184 0.429450 0.820310
0.949371 0.474464 0.765164
0.354955 0.200687 0.819486
0.441749 0.223606 0.820737
0.669429 0.325963 0.824460
0.877836 0.490974 0.822110
0.945312 0.518090 0.769436
0.000000 0.449592 0.790463
0.000000 0.446845 0.797543
0.550591 0.514580 0.816922
0.850584 0.661433 0.825620
0.929808 0.646845 0.783902
0.265293 0.754330 0.784085
0.342748 0.758145 0.786160
0.541863 0.774685 0.795621
0.782956 0.814481 0.821469
0.966247 0.796994 0.799313
0.679286 0.930114 0.849729
0.692042 0.931304 0.850553
0.742672 0.936370 0.853941
0.810513 0.945922 0.850797
0.932036 0.972107 0.847044
0.518669 0.056977 0.984619
0.562310 0.144228 0.983612
0.706844 0.287388 0.979736
0.890654 0.468421 0.970459
1.000000 0.628016 0.956115
0.487953 0.214359 0.983062
0.536370 0.241459 0.982208
0.691646 0.339574 0.978454
0.883268 0.500786 0.969360
1.000000 0.652094 0.955505
0.227451 0.386542 0.981781
0.352667 0.401404 0.980743
0.607935 0.467262 0.976959
0.852079 0.599512 0.967834
1.000000 0.732753 0.956085
0.000000 0.631434 0.970581
0.000000 0.627619 0.970214
0.000000 0.610773 0.969909
0.748714 0.714199 0.970245
0.982849 0.850523 0.962554
0.474922 0.923461 0.951781
0.501183 0.924407 0.951843
0.601068 0.929381 0.952880
0.758785 0.939727 0.955200
0.950561 0.964233 0.967285
