20 Preset/Japan Style/【3】LUT video cho PR-AE-FCPX/LUT VIDEO/Japan Style LUT (11).cube
# Created by Adobe Lightroom plugin Export LUT (1.24.0)
# www.johnrellis.com/lightroom/exportlut.htm
# Preset: 11日系胶片（素材江湖）
# Color profile: C:\Program Files (x86)\Common Files\Adobe\Color\Profiles\Recommended\VideoHD.icc
LUT_3D_SIZE 32
DOMAIN_MIN 0.0 0.0 0.0
DOMAIN_MAX 1.0 1.0 1.0
0.000000 0.000000 0.000000
0.000000 0.000000 0.000000
0.000000 0.000000 0.000000
0.000000 0.000000 0.000000
0.000000 0.009186 0.000000
0.088350 0.021912 0.000000
0.163729 0.028046 0.000488
0.255589 0.000000 0.013001
0.350256 0.000000 0.021942
0.441657 0.000000 0.029328
0.529229 0.000000 0.036408
0.611658 0.000000 0.052247
0.688075 0.000000 0.084535
0.758419 0.101228 0.108888
0.819577 0.176669 0.136416
0.869383 0.235660 0.167056
0.909117 0.287968 0.201663
0.941283 0.334874 0.237491
0.967376 0.377295 0.273869
0.991394 0.423011 0.316838
1.000000 0.462104 0.356878
1.000000 0.495766 0.393652
1.000000 0.524834 0.427253
1.000000 0.551263 0.458778
1.000000 0.575769 0.489326
1.000000 0.598688 0.518334
1.000000 0.620539 0.546807
1.000000 0.641810 0.575006
1.000000 0.662470 0.602777
1.000000 0.682612 0.630213
1.000000 0.701595 0.656336
1.000000 0.719295 0.680751
0.000000 0.000000 0.000000
0.000000 0.000000 0.000000
0.000000 0.000000 0.000000
0.000000 0.000000 0.000000
0.000000 0.010163 0.000000
0.088289 0.025299 0.000000
0.162875 0.030884 0.000000
0.253208 0.001526 0.010559
0.347112 0.000000 0.019928
0.438117 0.000000 0.025452
0.525048 0.000000 0.030945
0.607050 0.000000 0.045930
0.683467 0.000000 0.079927
0.754086 0.097200 0.104280
0.815610 0.173648 0.131624
0.866209 0.233097 0.163119
0.906676 0.285405 0.197604
0.939208 0.332006 0.233280
0.965637 0.374853 0.270024
0.989532 0.419501 0.312322
1.000000 0.457862 0.351446
1.000000 0.491188 0.387671
1.000000 0.520043 0.420813
1.000000 0.546471 0.452491
1.000000 0.570947 0.482551
1.000000 0.594018 0.512139
1.000000 0.616083 0.540826
1.000000 0.637568 0.569085
1.000000 0.658747 0.597772
1.000000 0.679133 0.625544
1.000000 0.698512 0.652033
1.000000 0.716701 0.677150
0.000000 0.000000 0.000000
0.000000 0.000000 0.000000
0.000000 0.000000 0.000000
0.000000 0.003601 0.000000
0.000397 0.021302 0.000000
0.095979 0.039765 0.000000
0.171542 0.041810 0.000000
0.260502 0.013672 0.001648
0.352178 0.000000 0.008911
0.441291 0.000000 0.014069
0.527031 0.000000 0.017334
0.608087 0.000000 0.028565
0.683711 0.000000 0.057252
0.753475 0.107820 0.094789
0.814969 0.178073 0.122927
0.865263 0.235477 0.154879
0.905821 0.286625 0.190311
0.938476 0.332769 0.226993
0.965393 0.375463 0.264530
0.988983 0.418891 0.306493
1.000000 0.456886 0.345922
1.000000 0.489784 0.382330
1.000000 0.518517 0.415839
1.000000 0.544640 0.447456
1.000000 0.568933 0.477913
1.000000 0.591943 0.507622
1.000000 0.613947 0.536248
1.000000 0.635584 0.565270
1.000000 0.656794 0.594049
1.000000 0.677424 0.622278
1.000000 0.696895 0.649165
1.000000 0.715297 0.674739
0.000000 0.008423 0.001221
0.000000 0.009613 0.000000
0.000000 0.010834 0.000000
0.000000 0.016846 0.000000
0.007202 0.047486 0.000000
0.112215 0.076539 0.000000
0.191470 0.076722 0.000000
0.277745 0.053132 0.000000
0.366522 0.003906 0.000000
0.452430 0.000000 0.000000
0.535790 0.000000 0.000000
0.614191 0.000000 0.000000
0.688624 0.021180 0.010895
0.756985 0.131014 0.053346
0.816770 0.190738 0.103853
0.866056 0.243992 0.139498
0.905882 0.292119 0.176730
0.938170 0.336156 0.214389
0.965362 0.377874 0.253452
0.988006 0.418860 0.295323
1.000000 0.454810 0.334539
1.000000 0.486763 0.370825
1.000000 0.515282 0.405463
1.000000 0.541650 0.438331
1.000000 0.566430 0.470253
1.000000 0.589868 0.500969
1.000000 0.612543 0.531182
1.000000 0.634607 0.561334
1.000000 0.656092 0.590936
1.000000 0.676783 0.619623
1.000000 0.696284 0.646906
1.000000 0.714351 0.672175
0.000000 0.072114 0.012573
0.000000 0.073335 0.012421
0.000000 0.076967 0.000641
0.000000 0.080171 0.000000
0.000000 0.088838 0.000000
0.116243 0.105684 0.000000
0.213413 0.116365 0.000000
0.300359 0.111086 0.000000
0.384649 0.099275 0.000000
0.467323 0.074128 0.000000
0.546593 0.042695 0.000000
0.622950 0.066651 0.000000
0.695003 0.114717 0.000000
0.761837 0.163149 0.000000
0.820340 0.212039 0.036286
0.868559 0.259251 0.109957
0.907866 0.303502 0.155215
0.939879 0.344915 0.196628
0.967071 0.385748 0.240208
0.988983 0.423743 0.282567
1.000000 0.458167 0.322881
1.000000 0.488777 0.360479
1.000000 0.516442 0.396063
1.000000 0.542260 0.430152
1.000000 0.566735 0.463020
1.000000 0.590143 0.495033
1.000000 0.612543 0.526024
1.000000 0.634455 0.556756
1.000000 0.655482 0.586419
1.000000 0.676081 0.615778
1.000000 0.695460 0.643336
1.000000 0.713405 0.668971
0.000000 0.126375 0.048188
0.000000 0.127169 0.045441
0.000000 0.129061 0.031922
0.000000 0.129702 0.017609
0.000000 0.134035 0.005921
0.089815 0.142702 0.000000
0.204044 0.161379 0.000000
0.312444 0.166232 0.000000
0.411505 0.162722 0.000000
0.491035 0.154726 0.000000
0.566949 0.149294 0.000000
0.640131 0.155184 0.000000
0.709255 0.175418 0.000000
0.773495 0.207492 0.000000
0.829129 0.245396 0.000000
0.875578 0.284855 0.013428
0.913146 0.323644 0.120119
0.944060 0.361028 0.172396
0.971038 0.399481 0.222141
0.991791 0.434638 0.268223
1.000000 0.466560 0.310613
1.000000 0.495430 0.350011
1.000000 0.546838 0.419104
1.000000 0.570459 0.453681
1.000000 0.592523 0.486061
1.000000 0.613581 0.517205
1.000000 0.633906 0.547265
1.000000 0.653590 0.576562
1.000000 0.672786 0.605005
1.000000 0.691249 0.632288
1.000000 0.708431 0.657740
1.000000 0.724392 0.681239
0.000000 0.199466 0.077302
0.000000 0.200290 0.075257
0.000000 0.202640 0.066773
0.000000 0.204074 0.026520
0.000000 0.203983 0.016999
0.000000 0.212070 0.000000
0.173068 0.222263 0.000000
0.308202 0.236912 0.000000
0.418372 0.238804 0.000000
0.523125 0.236179 0.000000
0.604700 0.233982 0.000000
0.676570 0.237705 0.000000
0.742123 0.249668 0.000000
0.801053 0.270848 0.000000
0.850889 0.297581 0.000000
0.892027 0.327214 0.000000
0.925963 0.358495 0.022278
0.956268 0.392309 0.144564
0.981262 0.426520 0.205783
1.000000 0.458686 0.258579
1.000000 0.488838 0.307103
1.000000 0.516716 0.351537
1.000000 0.542718 0.393042
1.000000 0.567437 0.432502
1.000000 0.590509 0.469459
1.000000 0.611902 0.503197
1.000000 0.631952 0.534997
1.000000 0.651484 0.565667
1.000000 0.670375 0.594965
1.000000 0.688655 0.623316
1.000000 0.705928 0.649866
1.000000 0.721981 0.674189
0.000000 0.271031 0.102754
0.000000 0.271458 0.102144
0.000000 0.273777 0.099702
0.000000 0.276005 0.066011
0.000000 0.275792 0.031830
0.000000 0.276555 0.008392
0.011353 0.287541 0.000000
0.251682 0.297520 0.000000
0.389532 0.310491 0.000000
0.497536 0.312108 0.000000
0.599084 0.312474 0.000000
0.687495 0.313298 0.000000
0.753567 0.319646 0.000000
0.811917 0.329778 0.000000
0.859525 0.344823 0.000000
0.898253 0.365179 0.000000
0.931884 0.389746 0.000000
0.960998 0.417578 0.025452
0.984070 0.445106 0.161471
1.000000 0.472175 0.224674
1.000000 0.498390 0.278538
1.000000 0.523461 0.327459
1.000000 0.547204 0.371893
1.000000 0.570214 0.413733
1.000000 0.592065 0.452857
1.000000 0.612360 0.488502
1.000000 0.631891 0.522210
1.000000 0.650752 0.554101
1.000000 0.669154 0.584619
1.000000 0.687221 0.614130
1.000000 0.704524 0.641993
1.000000 0.720607 0.667567
0.000000 0.344213 0.138277
0.000000 0.344823 0.137942
0.000000 0.346380 0.137301
0.000000 0.348943 0.128511
0.000000 0.349248 0.095949
0.000000 0.348333 0.082704
0.000000 0.351873 0.028901
0.167971 0.362890 0.000000
0.329686 0.372808 0.000000
0.466377 0.384924 0.000000
0.571588 0.388495 0.000000
0.668299 0.391882 0.000000
0.756527 0.394995 0.000000
0.817441 0.398596 0.000000
0.864530 0.405097 0.000000
0.905516 0.414832 0.000000
0.939910 0.429572 0.000000
0.966430 0.448951 0.000000
0.987793 0.469764 0.059236
1.000000 0.491341 0.179629
1.000000 0.513115 0.244633
1.000000 0.534600 0.299474
1.000000 0.555505 0.347997
1.000000 0.576257 0.393439
1.000000 0.596185 0.434791
1.000000 0.615229 0.472969
1.000000 0.633600 0.508385
1.000000 0.651637 0.541772
1.000000 0.669459 0.573877
1.000000 0.687068 0.604822
1.000000 0.704005 0.633783
1.000000 0.720027 0.660639
0.000000 0.415534 0.185733
0.000000 0.415747 0.185611
0.000000 0.416632 0.185550
0.000000 0.418891 0.184878
0.000000 0.419715 0.151400
0.000000 0.418647 0.137972
0.000000 0.417060 0.126986
0.000000 0.423987 0.097383
0.258671 0.434119 0.000000
0.405219 0.443336 0.000000
0.537285 0.455818 0.000000
0.637049 0.461128 0.000000
0.727962 0.465949 0.000000
0.805661 0.468482 0.000000
0.868101 0.470283 0.000000
0.907561 0.474434 0.000000
0.941131 0.480842 0.000000
0.969451 0.488777 0.000000
0.991974 0.499428 0.000000
1.000000 0.515526 0.096864
1.000000 0.532158 0.199069
1.000000 0.549004 0.264195
1.000000 0.566155 0.318669
1.000000 0.583581 0.367285
1.000000 0.600824 0.411505
1.000000 0.617884 0.451850
1.000000 0.634943 0.489540
1.000000 0.652033 0.525505
1.000000 0.669154 0.559503
1.000000 0.686397 0.592370
1.000000 0.703304 0.623377
1.000000 0.719326 0.651972
0.000000 0.480415 0.237705
0.000000 0.480690 0.237919
0.000000 0.481666 0.237858
0.000000 0.483375 0.238102
0.000000 0.484840 0.221408
0.000000 0.485115 0.194278
0.000000 0.483833 0.186160
0.000000 0.482429 0.174777
0.181186 0.492287 0.146456
0.344884 0.502190 0.096925
0.480598 0.510704 0.000000
0.606775 0.524407 0.000000
0.701900 0.532189 0.000000
0.783230 0.535912 0.000000
0.849516 0.536278 0.000000
0.903563 0.534386 0.000000
0.940002 0.534142 0.000000
0.966827 0.536645 0.000000
0.989227 0.540703 0.000000
1.000000 0.545800 0.000000
1.000000 0.553582 0.118196
1.000000 0.566033 0.215732
1.000000 0.579828 0.282139
1.000000 0.594079 0.337407
1.000000 0.609033 0.386603
1.000000 0.624170 0.430793
1.000000 0.639612 0.471656
1.000000 0.655360 0.509697
1.000000 0.671443 0.545892
1.000000 0.687739 0.580438
1.000000 0.704067 0.613214
1.000000 0.719783 0.643488
0.000000 0.543633 0.293767
0.000000 0.543755 0.293767
0.000000 0.544366 0.293675
0.000000 0.545739 0.294591
0.000000 0.547601 0.289342
0.000000 0.548425 0.255192
0.000000 0.547753 0.246555
0.000000 0.546227 0.237919
0.000000 0.547936 0.224613
0.292699 0.558862 0.201663
0.431312 0.569024 0.167147
0.557519 0.578302 0.105409
0.701656 0.612696 0.095094
0.782284 0.615991 0.078798
0.846769 0.614710 0.057557
0.899626 0.611688 0.031708
0.942321 0.607416 0.000000
0.975555 0.602564 0.000000
0.994659 0.601190 0.113649
1.000000 0.601068 0.155367
1.000000 0.601801 0.188083
1.000000 0.603265 0.215122
1.000000 0.608911 0.264683
1.000000 0.619257 0.326848
1.000000 0.630549 0.379522
1.000000 0.642481 0.426001
1.000000 0.655055 0.468208
1.000000 0.668177 0.506706
1.000000 0.681880 0.543084
1.000000 0.696193 0.577783
1.000000 0.710811 0.610742
1.000000 0.725216 0.641321
0.000000 0.611902 0.358526
0.000000 0.611994 0.358282
0.000000 0.612116 0.358373
0.000000 0.613214 0.358801
0.000000 0.614618 0.359442
0.000000 0.615503 0.335637
0.000000 0.615930 0.314580
0.000000 0.614984 0.308446
0.000000 0.614282 0.301305
0.259525 0.620020 0.288792
0.402319 0.630732 0.269718
0.526146 0.641321 0.244816
0.643488 0.650599 0.210025
0.748104 0.658625 0.192752
0.817563 0.659693 0.195987
0.872923 0.657160 0.197971
0.917845 0.652949 0.196170
0.954192 0.647364 0.191714
0.983520 0.640894 0.185824
1.000000 0.636072 0.200198
1.000000 0.633631 0.225895
1.000000 0.632288 0.247288
1.000000 0.631983 0.266819
1.000000 0.632258 0.283574
1.000000 0.640101 0.340734
1.000000 0.649775 0.393774
1.000000 0.660548 0.440986
1.000000 0.672114 0.483406
1.000000 0.684596 0.523095
1.000000 0.697993 0.560815
1.000000 0.711788 0.596063
1.000000 0.725795 0.629206
0.000000 0.668452 0.415503
0.000000 0.668269 0.415229
0.000000 0.668147 0.415076
0.000000 0.668177 0.414954
0.000000 0.668269 0.414618
0.000000 0.668574 0.402136
0.000000 0.669093 0.371099
0.000000 0.667506 0.364843
0.000000 0.666011 0.358648
0.217990 0.664668 0.351629
0.364691 0.672450 0.339605
0.483345 0.680964 0.324193
0.593713 0.688685 0.304082
0.697719 0.694942 0.277287
0.787655 0.697932 0.266148
0.846311 0.696590 0.271489
0.893217 0.692561 0.273136
0.931151 0.687221 0.272984
0.962097 0.680964 0.271427
0.987091 0.673762 0.267704
1.000000 0.666133 0.264134
1.000000 0.662440 0.282750
1.000000 0.659998 0.299870
1.000000 0.658320 0.314305
1.000000 0.657343 0.327489
1.000000 0.659846 0.357244
1.000000 0.668513 0.411170
1.000000 0.678340 0.458686
1.000000 0.689143 0.501854
1.000000 0.701228 0.542535
1.000000 0.713985 0.580468
1.000000 0.727260 0.616022
0.000000 0.713344 0.465400
0.000000 0.713252 0.465370
0.000000 0.712947 0.465003
0.000000 0.712459 0.464546
0.000000 0.712032 0.464027
0.000000 0.711666 0.459907
0.000000 0.711788 0.434302
0.000000 0.710994 0.418402
0.000000 0.709316 0.412879
0.203769 0.707729 0.406806
0.339025 0.708064 0.400488
0.451606 0.714900 0.389746
0.553521 0.721065 0.377081
0.650294 0.726162 0.360174
0.741787 0.729885 0.337316
0.819303 0.729793 0.328466
0.869322 0.727108 0.333349
0.908873 0.722072 0.335943
0.941070 0.716091 0.336309
0.967315 0.709255 0.335698
0.988861 0.701778 0.333288
1.000000 0.693965 0.328130
1.000000 0.687953 0.332830
1.000000 0.684565 0.345769
1.000000 0.681819 0.356970
1.000000 0.679774 0.366674
1.000000 0.678248 0.376013
1.000000 0.686213 0.430396
1.000000 0.695552 0.478889
1.000000 0.706203 0.523400
1.000000 0.717952 0.564630
1.000000 0.730556 0.603571
0.000000 0.747860 0.508598
0.000000 0.747921 0.508629
0.000000 0.747799 0.508721
0.000000 0.747585 0.508812
0.000000 0.747311 0.509148
0.000000 0.747066 0.510033
0.000000 0.747585 0.493507
0.000000 0.748135 0.470649
0.000000 0.746792 0.466407
0.222904 0.745205 0.461769
0.339025 0.743282 0.456245
0.433906 0.744686 0.448920
0.525628 0.748867 0.439155
0.612787 0.752316 0.426520
0.696132 0.754910 0.410346
0.775967 0.756710 0.389990
0.843992 0.754971 0.381292
0.886503 0.751492 0.386816
0.920104 0.746090 0.389624
0.947570 0.739773 0.391180
0.970245 0.732998 0.390967
0.989471 0.725826 0.389105
1.000000 0.718441 0.385351
1.000000 0.710628 0.378729
1.000000 0.706630 0.388617
1.000000 0.703334 0.397559
1.000000 0.700649 0.405554
1.000000 0.698207 0.411231
1.000000 0.703334 0.452735
1.000000 0.712245 0.501549
1.000000 0.722408 0.546075
1.000000 0.733639 0.587457
0.000000 0.775326 0.547601
0.000000 0.775265 0.547631
0.000000 0.775174 0.547692
0.000000 0.774929 0.548119
0.000000 0.774594 0.548943
0.000000 0.774289 0.550134
0.000000 0.774380 0.542931
0.000000 0.775051 0.522667
0.078248 0.774441 0.512413
0.257176 0.772854 0.508171
0.351324 0.771145 0.503410
0.428382 0.769100 0.498482
0.507744 0.771420 0.491127
0.585748 0.774258 0.482155
0.661433 0.776547 0.470527
0.734798 0.778073 0.456123
0.804898 0.779019 0.438605
0.864134 0.776547 0.431189
0.900359 0.772427 0.436744
0.928801 0.766629 0.439765
0.952270 0.760525 0.441718
0.972198 0.753902 0.442267
0.989227 0.747127 0.440650
1.000000 0.740017 0.436683
1.000000 0.732540 0.430274
1.000000 0.726436 0.429511
1.000000 0.722744 0.436194
1.000000 0.719326 0.440772
1.000000 0.716243 0.444068
1.000000 0.719448 0.476448
1.000000 0.727993 0.525292
1.000000 0.737911 0.570214
0.000000 0.798856 0.585321
0.000000 0.798978 0.585657
0.000000 0.806912 0.600763
0.000000 0.806607 0.601465
0.000000 0.806149 0.602502
0.189181 0.805509 0.604303
0.266270 0.804837 0.604517
0.264683 0.805325 0.588922
0.278599 0.805631 0.572869
0.347265 0.804135 0.569116
0.409064 0.802365 0.565087
0.467140 0.800320 0.560296
0.523186 0.798398 0.554559
0.587610 0.800198 0.547387
0.651301 0.801450 0.538445
0.714199 0.802090 0.527184
0.775937 0.802182 0.513573
0.835172 0.801907 0.497261
0.884092 0.798459 0.489845
0.913664 0.793149 0.493782
0.936950 0.787045 0.496162
0.956603 0.780880 0.497780
0.973663 0.774380 0.496895
0.988495 0.767697 0.494331
1.000000 0.760586 0.489296
1.000000 0.753109 0.481666
1.000000 0.745144 0.470832
1.000000 0.740444 0.472816
1.000000 0.736507 0.475196
1.000000 0.732723 0.475502
1.000000 0.734463 0.501610
1.000000 0.742824 0.550439
0.000000 0.820066 0.624689
0.004303 0.820645 0.626154
0.121370 0.821164 0.627924
0.184176 0.821408 0.629847
0.239811 0.821347 0.632013
0.294621 0.820859 0.634272
0.348852 0.820005 0.636988
0.358007 0.820127 0.627283
0.356603 0.820645 0.611658
0.391363 0.819821 0.604639
0.438758 0.818296 0.601099
0.485481 0.816526 0.597436
0.531304 0.814389 0.592279
0.580743 0.813626 0.586664
0.635828 0.814755 0.580072
0.691341 0.815427 0.571771
0.746609 0.815671 0.561944
0.800595 0.815549 0.550072
0.852842 0.815213 0.536400
0.895445 0.811887 0.530327
0.920897 0.806455 0.534325
0.941131 0.800931 0.537591
0.958312 0.795254 0.539300
0.973388 0.789242 0.538598
0.986694 0.783017 0.535790
0.998901 0.776394 0.530480
1.000000 0.769375 0.522454
1.000000 0.761898 0.511864
1.000000 0.755245 0.504051
1.000000 0.750942 0.503838
1.000000 0.746639 0.501701
1.000000 0.747951 0.525872
0.266728 0.834043 0.654566
0.275029 0.834501 0.655879
0.291142 0.834928 0.657649
0.313634 0.835111 0.659632
0.342962 0.834989 0.661769
0.376715 0.834470 0.663966
0.413581 0.833646 0.666285
0.434485 0.833249 0.663111
0.432776 0.833738 0.650629
0.441657 0.833738 0.639399
0.477180 0.832364 0.636439
0.513848 0.830838 0.633143
0.551110 0.829038 0.629053
0.588952 0.826963 0.624506
0.633356 0.826963 0.619623
0.680629 0.827573 0.613733
0.728450 0.827817 0.606226
0.776028 0.827726 0.597559
0.822843 0.827390 0.587427
0.868040 0.826963 0.575433
0.904875 0.823667 0.570153
0.926635 0.818143 0.573816
0.944060 0.813107 0.577264
0.959197 0.807797 0.578759
0.972503 0.802304 0.577935
0.984588 0.796536 0.574792
0.995727 0.790433 0.569268
1.000000 0.783963 0.561212
1.000000 0.776913 0.550286
1.000000 0.769223 0.536065
1.000000 0.764096 0.531456
1.000000 0.759091 0.525750
0.370764 0.845823 0.682979
0.375921 0.846159 0.684047
0.385260 0.846403 0.685481
0.400214 0.846464 0.687160
0.419806 0.846250 0.688991
0.443549 0.845701 0.690883
0.470619 0.844907 0.693050
0.497566 0.844083 0.694423
0.496162 0.844480 0.684627
0.495186 0.844999 0.672755
0.517601 0.844083 0.668452
0.546136 0.842741 0.665797
0.576043 0.841245 0.662470
0.606958 0.839475 0.658930
0.638972 0.837613 0.654688
0.678828 0.838132 0.650538
0.719844 0.838437 0.645777
0.761257 0.838529 0.640101
0.802396 0.838437 0.633722
0.842771 0.838254 0.626154
0.881712 0.837980 0.617273
0.913329 0.835050 0.613947
0.931731 0.829770 0.617304
0.946654 0.825254 0.621180
0.959655 0.820584 0.622950
0.971313 0.815702 0.622400
0.981933 0.810636 0.619715
0.991943 0.805264 0.614740
1.000000 0.799557 0.607782
1.000000 0.793210 0.597131
1.000000 0.785855 0.582208
1.000000 0.778439 0.566339
0.465919 0.857298 0.715023
0.468025 0.857389 0.715450
0.472724 0.857359 0.716091
0.481025 0.857115 0.716854
0.493874 0.856657 0.717861
0.509819 0.856046 0.719112
0.529778 0.855222 0.720851
0.552880 0.854276 0.723018
0.557733 0.854276 0.717494
0.557183 0.854704 0.708522
0.564080 0.854673 0.701015
0.586053 0.853544 0.698878
0.609400 0.852262 0.696315
0.633936 0.850797 0.693477
0.659449 0.849180 0.690059
0.687770 0.848112 0.686549
0.721279 0.848234 0.682918
0.755612 0.848234 0.678706
0.790249 0.848051 0.673823
0.824887 0.847745 0.667903
0.859037 0.847349 0.661128
0.892210 0.846860 0.653285
0.919402 0.843961 0.649226
0.935149 0.838560 0.651087
0.948058 0.834257 0.653834
0.959564 0.829953 0.654932
0.969970 0.825528 0.654383
0.979583 0.821012 0.652186
0.988769 0.816190 0.647730
0.997650 0.811032 0.640986
1.000000 0.805142 0.630762
1.000000 0.798184 0.615534
0.526574 0.864652 0.737881
0.528130 0.864714 0.738247
0.531884 0.864652 0.738766
0.538476 0.864439 0.739498
0.547967 0.864042 0.740475
0.560510 0.863462 0.741604
0.576135 0.862760 0.743069
0.594659 0.861875 0.744991
0.605982 0.861479 0.743679
0.605371 0.861845 0.736538
0.604608 0.862303 0.727901
0.620172 0.861479 0.725490
0.638514 0.860441 0.723476
0.658320 0.859251 0.721279
0.679103 0.857939 0.718715
0.700679 0.856535 0.715908
0.726497 0.856046 0.713283
0.755093 0.856046 0.710231
0.784360 0.855924 0.706874
0.813687 0.855741 0.702724
0.843076 0.855436 0.698024
0.872129 0.855039 0.692470
0.900847 0.854520 0.685847
0.924407 0.851896 0.682124
0.937743 0.845884 0.679194
0.949065 0.841855 0.681392
0.959350 0.837919 0.682490
0.968719 0.834012 0.682124
0.977478 0.829923 0.680110
0.985870 0.825620 0.676234
0.994141 0.820951 0.670039
1.000000 0.815335 0.659327
0.586389 0.871397 0.761501
0.588190 0.871427 0.762020
0.590967 0.871366 0.762387
0.595514 0.871122 0.762875
0.602167 0.870695 0.763394
0.611322 0.870085 0.764187
0.622614 0.869352 0.765133
0.636561 0.868437 0.766537
0.651301 0.867521 0.767788
0.649836 0.867735 0.761837
0.648310 0.868009 0.754665
0.653223 0.867826 0.749325
0.667018 0.866911 0.747402
0.681910 0.865873 0.745144
0.697963 0.864714 0.742611
0.715053 0.863462 0.739956
0.733120 0.862119 0.736934
0.756405 0.862028 0.734493
0.780941 0.861936 0.731899
0.806119 0.861814 0.729030
0.831479 0.861662 0.725765
0.856931 0.861357 0.721736
0.882139 0.860990 0.716762
0.907164 0.860441 0.710689
0.928008 0.857939 0.706630
0.939971 0.852781 0.706416
0.949859 0.848997 0.707912
0.959014 0.845396 0.708614
0.967468 0.841825 0.708156
0.975433 0.838132 0.706477
0.983154 0.834104 0.702296
0.991058 0.829404 0.694667
0.628595 0.875914 0.778714
0.630091 0.875944 0.779202
0.632532 0.875914 0.779629
0.636591 0.875669 0.780209
0.642481 0.875334 0.780911
0.650355 0.874846 0.781888
0.660456 0.874235 0.783169
0.672786 0.873503 0.784878
0.686885 0.872648 0.787015
0.690425 0.872618 0.784329
0.689479 0.872923 0.778988
0.688685 0.873289 0.772793
0.699153 0.872618 0.771298
0.710689 0.871794 0.769589
0.722927 0.870909 0.767514
0.736202 0.869902 0.765286
0.750301 0.868864 0.762875
0.766201 0.867979 0.760525
0.785916 0.867979 0.758572
0.806394 0.867918 0.756405
0.827390 0.867826 0.754025
0.848722 0.867643 0.751125
0.870176 0.867369 0.747646
0.891691 0.867033 0.743252
0.913237 0.866545 0.738003
0.931395 0.864347 0.734371
0.941833 0.859525 0.733730
0.950408 0.856077 0.735012
0.958434 0.852934 0.736202
0.965911 0.849668 0.735439
0.973175 0.846098 0.732601
0.980377 0.842130 0.727443
0.672297 0.880095 0.796841
0.673091 0.880095 0.797055
0.674922 0.880003 0.797360
0.677974 0.879820 0.797787
0.682673 0.879484 0.798428
0.688991 0.879057 0.799283
0.697200 0.878508 0.800473
0.707088 0.877836 0.801968
0.718471 0.877104 0.803830
0.725887 0.876707 0.803769
0.725216 0.876951 0.799680
0.724422 0.877256 0.794888
0.728481 0.877134 0.791775
0.737240 0.876524 0.790463
0.746731 0.875822 0.788846
0.756832 0.875059 0.787076
0.767849 0.874235 0.785183
0.779782 0.873381 0.783261
0.794034 0.872984 0.781552
0.810483 0.872984 0.779965
0.827573 0.872984 0.778225
0.845121 0.872923 0.776181
0.862974 0.872770 0.773587
0.881132 0.872526 0.770443
0.899474 0.872190 0.766537
0.918090 0.871794 0.761807
0.934020 0.869841 0.758358
0.943175 0.865263 0.756985
0.950622 0.861936 0.757259
0.957794 0.858946 0.757473
0.964599 0.855863 0.756191
0.971252 0.852476 0.753048
0.709346 0.883452 0.812467
0.710048 0.883452 0.812650
0.711482 0.883391 0.812955
0.714199 0.883238 0.813413
0.718288 0.882994 0.814145
0.724056 0.882628 0.815152
0.731716 0.882231 0.816678
0.740810 0.881743 0.818540
0.751247 0.881193 0.820798
0.762203 0.880644 0.823178
0.762936 0.880980 0.820829
0.763577 0.881346 0.817990
0.764462 0.881682 0.814786
0.771481 0.881346 0.814298
0.778897 0.880888 0.813626
0.786496 0.880430 0.812558
0.794583 0.879881 0.811307
0.803311 0.879271 0.810025
0.812680 0.878691 0.808713
0.824582 0.878660 0.807645
0.837400 0.878752 0.806546
0.850736 0.878782 0.805203
0.864439 0.878721 0.803494
0.878538 0.878630 0.801419
0.892851 0.878386 0.798367
0.907622 0.878050 0.794644
0.922911 0.877623 0.790219
0.936248 0.875914 0.786435
0.944030 0.871611 0.784268
0.950317 0.868498 0.783719
0.956481 0.865812 0.783474
0.962432 0.862913 0.781613
0.752377 0.887022 0.830777
0.752621 0.886992 0.830838
0.753506 0.886931 0.830961
0.755306 0.886778 0.831266
0.758175 0.886564 0.831785
0.762295 0.886259 0.832517
0.767605 0.885893 0.833555
0.774075 0.885435 0.834836
0.781613 0.884916 0.836423
0.790097 0.884367 0.838315
0.792660 0.884337 0.837430
0.792599 0.884611 0.835050
0.792386 0.884886 0.832212
0.795407 0.884825 0.830716
