20 Preset/Japan Style/【3】LUT video cho PR-AE-FCPX/LUT VIDEO/Japan Style LUT (14).cube
# Created by Adobe Lightroom plugin Export LUT (1.24.0)
# www.johnrellis.com/lightroom/exportlut.htm
# Preset: 14日系胶片（素材江湖）
# Color profile: C:\Program Files (x86)\Common Files\Adobe\Color\Profiles\Recommended\VideoHD.icc
LUT_3D_SIZE 32
DOMAIN_MIN 0.0 0.0 0.0
DOMAIN_MAX 1.0 1.0 1.0
0.137331 0.162112 0.124025
0.137331 0.162112 0.124025
0.137758 0.162081 0.124025
0.137758 0.162081 0.124025
0.138857 0.162173 0.123964
0.141756 0.162264 0.124178
0.149020 0.162142 0.124025
0.163668 0.162051 0.123629
0.189395 0.161959 0.123110
0.223026 0.162081 0.121736
0.259251 0.162051 0.120150
0.297704 0.162539 0.117586
0.338476 0.162509 0.114931
0.381292 0.162905 0.110903
0.425544 0.163516 0.106325
0.470863 0.163607 0.100465
0.517296 0.163729 0.093965
0.564752 0.163424 0.084260
0.613214 0.162661 0.066285
0.661982 0.163149 0.042786
0.710384 0.162509 0.023102
0.764645 0.162753 0.008240
0.817502 0.164523 0.007355
0.863554 0.168521 0.016480
0.903624 0.173098 0.037568
0.937835 0.177981 0.069856
0.968444 0.184390 0.094850
0.996674 0.191409 0.113436
1.000000 0.200443 0.130587
1.000000 0.211032 0.149813
1.000000 0.223026 0.170535
1.000000 0.237613 0.192386
0.137331 0.162112 0.124025
0.137331 0.162112 0.124025
0.137758 0.162081 0.124025
0.137758 0.162081 0.124025
0.138857 0.162173 0.123964
0.141756 0.162264 0.124178
0.148531 0.162356 0.123964
0.162356 0.162203 0.123629
0.186984 0.162295 0.123110
0.219821 0.162631 0.121767
0.255100 0.162936 0.120180
0.293217 0.162966 0.117800
0.333379 0.163516 0.115145
0.375463 0.163912 0.111299
0.419379 0.164309 0.106966
0.464485 0.164920 0.101198
0.510918 0.164920 0.094545
0.558221 0.165133 0.086122
0.606470 0.164340 0.068818
0.654963 0.164279 0.046571
0.702907 0.164645 0.024842
0.756283 0.164248 0.009888
0.807492 0.166323 0.004608
0.852567 0.169162 0.014527
0.892607 0.173373 0.031220
0.927337 0.177981 0.057038
0.958709 0.183474 0.088228
0.987732 0.190372 0.106142
1.000000 0.198184 0.124056
1.000000 0.208011 0.142947
1.000000 0.219852 0.163485
1.000000 0.234073 0.185519
0.137209 0.162325 0.123995
0.137209 0.162325 0.123995
0.137606 0.162295 0.123995
0.137881 0.162448 0.123934
0.138979 0.162539 0.123903
0.141726 0.162844 0.124056
0.148501 0.162936 0.123873
0.162264 0.163333 0.123690
0.186587 0.163638 0.122866
0.218784 0.164279 0.121462
0.253361 0.165347 0.119783
0.290867 0.166110 0.117586
0.330175 0.167208 0.114595
0.372015 0.168032 0.110689
0.415290 0.169192 0.106264
0.460151 0.169772 0.100557
0.506432 0.169802 0.094392
0.553460 0.170504 0.085176
0.601709 0.170230 0.067292
0.650294 0.170504 0.045106
0.698482 0.170809 0.024720
0.752407 0.171542 0.007538
0.802457 0.173404 0.002838
0.846983 0.176364 0.010193
0.886687 0.179507 0.027466
0.921721 0.182956 0.051942
0.953277 0.188632 0.084962
0.982727 0.194797 0.102480
1.000000 0.202304 0.120485
1.000000 0.211490 0.139803
1.000000 0.222324 0.159670
1.000000 0.235721 0.181582
0.137240 0.162692 0.124178
0.137240 0.162692 0.124178
0.137240 0.162692 0.124178
0.137942 0.162814 0.124147
0.139284 0.163058 0.124056
0.142733 0.163485 0.123903
0.149599 0.164279 0.123842
0.163912 0.165164 0.123262
0.188083 0.166720 0.122164
0.219272 0.168521 0.120821
0.253330 0.170321 0.118685
0.289586 0.172213 0.116274
0.328679 0.173556 0.113527
0.369421 0.175418 0.109743
0.411902 0.177127 0.104891
0.456001 0.178347 0.099489
0.501152 0.179171 0.092805
0.547326 0.180575 0.083284
0.594537 0.180911 0.065034
0.642267 0.181704 0.044709
0.689876 0.182345 0.024079
0.743709 0.184237 0.006622
0.792447 0.185580 0.001160
0.836728 0.188571 0.008240
0.877897 0.191226 0.022431
0.914763 0.195377 0.045197
0.948180 0.200137 0.081056
0.979034 0.205875 0.101045
1.000000 0.212436 0.119142
1.000000 0.221073 0.138155
1.000000 0.230625 0.158663
1.000000 0.242985 0.179507
0.136416 0.164218 0.124178
0.136416 0.164218 0.124178
0.136843 0.164187 0.124178
0.137942 0.164279 0.124117
0.139559 0.164675 0.123995
0.144137 0.165530 0.123720
0.151308 0.166842 0.123262
0.165164 0.168612 0.122530
0.188998 0.171695 0.121370
0.219059 0.174777 0.119417
0.251713 0.177707 0.117372
0.287419 0.180331 0.114717
0.325322 0.183078 0.111635
0.365789 0.185672 0.107637
0.407996 0.188266 0.102785
0.451881 0.190555 0.097261
0.497292 0.192599 0.089937
0.543755 0.194522 0.078737
0.590967 0.196445 0.057527
0.638727 0.197787 0.036805
0.688045 0.199313 0.016175
0.741054 0.201541 0.001373
0.788327 0.203830 0.000000
0.832456 0.206577 0.005066
0.873655 0.209903 0.017273
0.911070 0.213199 0.043519
0.944793 0.217533 0.077333
0.975860 0.221866 0.100313
1.000000 0.227787 0.118349
1.000000 0.234928 0.137270
1.000000 0.243656 0.156832
1.000000 0.254185 0.178012
0.134554 0.168521 0.123598
0.134554 0.168521 0.123598
0.134981 0.168490 0.123598
0.136385 0.168734 0.123507
0.139773 0.169314 0.123323
0.145296 0.170413 0.122683
0.155764 0.172549 0.121950
0.171359 0.175662 0.121065
0.194369 0.179995 0.119509
0.222477 0.184115 0.117586
0.254490 0.188266 0.115084
0.289372 0.192233 0.111971
0.326909 0.196048 0.108400
0.366979 0.199832 0.104097
0.409094 0.203250 0.098939
0.452735 0.206943 0.092409
0.497902 0.210117 0.083070
0.544640 0.212436 0.066316
0.591913 0.215061 0.045747
0.639429 0.217563 0.025788
0.692073 0.220737 0.006561
0.743465 0.224247 0.000000
0.846494 0.238529 0.007691
0.889738 0.242161 0.034089
0.926513 0.245335 0.072786
0.958465 0.249241 0.098268
0.987091 0.253269 0.116335
1.000000 0.258091 0.134463
1.000000 0.264256 0.152773
1.000000 0.271366 0.171481
1.000000 0.279850 0.190982
1.000000 0.289891 0.211124
0.124971 0.182742 0.121157
0.125429 0.182712 0.121157
0.127138 0.182742 0.121126
0.129793 0.183047 0.121279
0.136507 0.184115 0.120851
0.147646 0.185916 0.119844
0.163546 0.188174 0.118807
0.187503 0.193210 0.116670
0.211917 0.198001 0.114565
0.239750 0.202335 0.112154
0.270817 0.207004 0.109346
0.305943 0.211917 0.105928
0.344305 0.216770 0.101778
0.384649 0.221469 0.096468
0.426551 0.225956 0.090028
0.469642 0.229770 0.080720
0.514366 0.233860 0.062043
0.560479 0.237400 0.042908
0.607538 0.241062 0.023713
0.659480 0.245243 0.004913
0.718685 0.251408 0.000000
0.773800 0.256352 0.000000
0.824674 0.261692 0.000000
0.872068 0.265812 0.023346
0.913024 0.269871 0.056916
0.947387 0.273136 0.093996
0.977356 0.276280 0.111879
1.000000 0.279789 0.130556
1.000000 0.284367 0.148959
1.000000 0.289952 0.166690
1.000000 0.296696 0.185885
1.000000 0.304814 0.205692
0.106325 0.205753 0.116732
0.106935 0.205722 0.116732
0.109926 0.205844 0.116945
0.115724 0.206119 0.116762
0.125765 0.206638 0.116396
0.143282 0.208225 0.115480
0.164096 0.210208 0.113954
0.188663 0.212589 0.111940
0.218845 0.216861 0.109102
0.246983 0.221378 0.106477
0.277012 0.225956 0.103639
0.310094 0.230808 0.100191
0.345220 0.235538 0.096193
0.384253 0.241062 0.090730
0.425177 0.246128 0.082033
0.467262 0.251072 0.066773
0.511345 0.255863 0.047608
0.556786 0.260349 0.029206
0.604913 0.265141 0.011566
0.660639 0.272129 0.000000
0.715663 0.278508 0.000000
0.767788 0.284031 0.000000
0.816922 0.288853 0.000000
0.863035 0.293187 0.018067
0.903929 0.296635 0.053712
0.938659 0.299565 0.090730
0.968994 0.302129 0.109529
0.996399 0.304814 0.127749
1.000000 0.307988 0.146487
1.000000 0.312352 0.164736
1.000000 0.317662 0.183383
1.000000 0.324376 0.203525
0.050996 0.233616 0.110475
0.055543 0.233799 0.110384
0.068421 0.233768 0.110658
0.089265 0.233890 0.110750
0.105379 0.233890 0.111147
0.130434 0.234836 0.110231
0.158145 0.236362 0.108186
0.187686 0.238285 0.105928
0.218082 0.240452 0.103151
0.253300 0.244724 0.098146
0.285588 0.249210 0.093996
0.317937 0.254185 0.090364
0.352697 0.259159 0.084962
0.388800 0.264164 0.077607
0.427222 0.269230 0.066438
0.468635 0.274754 0.049378
0.511925 0.280278 0.032837
0.558862 0.286503 0.014984
0.610773 0.293889 0.000000
0.663325 0.300816 0.000000
0.715206 0.307439 0.000000
0.764920 0.313176 0.000000
0.812284 0.317967 0.000000
0.857237 0.322454 0.016022
0.897490 0.325658 0.054841
0.932067 0.328069 0.090700
0.962585 0.329900 0.110750
0.990265 0.331914 0.128969
1.000000 0.334600 0.147097
1.000000 0.337560 0.165011
1.000000 0.342016 0.184207
1.000000 0.347234 0.204044
0.000000 0.264927 0.103670
0.000000 0.264866 0.103639
0.000000 0.264805 0.103944
0.000000 0.264622 0.104494
0.052277 0.264622 0.104829
0.105776 0.264683 0.104921
0.144869 0.265660 0.102724
0.180484 0.267033 0.099947
0.215457 0.268437 0.096193
0.250370 0.270542 0.091249
0.288334 0.274296 0.081636
0.324437 0.279240 0.068208
0.358648 0.284245 0.056977
0.394446 0.289494 0.047333
0.432227 0.294926 0.037751
0.471626 0.300450 0.029145
0.517845 0.308446 0.016846
0.567346 0.316808 0.003235
0.617273 0.324804 0.000000
0.667720 0.332067 0.000000
0.716487 0.338384 0.000000
0.762722 0.343267 0.000000
0.806607 0.347509 0.000000
0.848661 0.351171 0.013947
0.887053 0.353704 0.047547
0.921141 0.355505 0.087953
0.951873 0.356756 0.108400
0.980346 0.358221 0.126589
1.000000 0.360296 0.145144
1.000000 0.362890 0.164126
1.000000 0.366461 0.183597
1.000000 0.371160 0.203922
0.000000 0.297063 0.097383
0.000000 0.297032 0.097353
0.000000 0.297002 0.097993
0.000000 0.297124 0.098421
0.000000 0.297307 0.099397
0.036500 0.297490 0.100832
0.122316 0.298436 0.099214
0.169039 0.299535 0.095308
0.209934 0.301244 0.089876
0.248783 0.302953 0.080751
0.287480 0.304906 0.063661
0.325750 0.306798 0.043275
0.367407 0.313237 0.017243
0.403449 0.318700 0.008576
0.443946 0.326024 0.000000
0.486030 0.333562 0.000000
0.529351 0.340917 0.000000
0.573968 0.348089 0.000000
0.620905 0.355840 0.000000
0.668940 0.362799 0.000000
0.715450 0.368780 0.000000
0.759915 0.373571 0.000000
0.802670 0.377813 0.000000
0.843687 0.381201 0.018647
0.881559 0.383581 0.052918
0.915282 0.385321 0.090181
0.946075 0.386358 0.109926
0.974670 0.387396 0.129091
1.000000 0.388708 0.147921
1.000000 0.390936 0.166506
1.000000 0.393713 0.186282
1.000000 0.397345 0.207095
0.000000 0.334173 0.094362
0.000000 0.334203 0.094301
0.000000 0.334295 0.094453
0.000000 0.334508 0.095918
0.000000 0.334844 0.097047
0.000000 0.335149 0.099916
0.080690 0.336004 0.101167
0.152132 0.337194 0.096284
0.201297 0.338506 0.089570
0.245487 0.340124 0.077028
0.287480 0.341894 0.051820
0.330571 0.345678 0.024842
0.401404 0.371984 0.000000
0.453803 0.381018 0.000000
0.497078 0.388739 0.000000
0.541588 0.396216 0.000000
0.586267 0.403174 0.000000
0.631373 0.409888 0.000000
0.675898 0.415686 0.000000
0.718410 0.420356 0.000000
0.761410 0.424292 0.000000
0.801907 0.427375 0.015137
0.840574 0.429236 0.047639
0.876188 0.430640 0.085176
0.908476 0.430854 0.104677
0.937682 0.430365 0.123293
0.964446 0.429419 0.139803
0.989502 0.428809 0.156130
1.000000 0.428534 0.173037
1.000000 0.429023 0.190372
1.000000 0.430274 0.208743
1.000000 0.432776 0.227909
0.000000 0.386450 0.097414
0.000000 0.386389 0.097444
0.000000 0.385809 0.098543
0.000000 0.385443 0.099947
0.000000 0.384924 0.101991
0.000000 0.384497 0.104402
0.000000 0.384558 0.108705
0.126345 0.386877 0.106508
0.193240 0.390051 0.099245
0.247410 0.393957 0.089418
0.298161 0.398962 0.066377
0.348455 0.404639 0.028656
0.398901 0.410742 0.000000
0.449409 0.415930 0.000000
0.504875 0.424781 0.000000
0.548089 0.431739 0.000000
0.590906 0.437720 0.000000
0.633295 0.442908 0.000000
0.674800 0.447395 0.000000
0.714717 0.450813 0.000000
0.752895 0.453315 0.000000
0.790646 0.455665 0.020325
0.828611 0.457710 0.052033
0.864317 0.458869 0.085878
0.896880 0.459052 0.105440
0.926635 0.458625 0.123384
0.954192 0.457801 0.140871
0.980194 0.456916 0.157504
1.000000 0.456550 0.174868
1.000000 0.456764 0.192721
1.000000 0.457588 0.211490
1.000000 0.459449 0.230777
0.000000 0.435462 0.103182
0.000000 0.435279 0.103334
0.000000 0.434791 0.104677
0.000000 0.434211 0.105135
0.000000 0.433661 0.107393
0.000000 0.433356 0.110750
0.000000 0.433783 0.114931
0.024201 0.434913 0.117983
0.170474 0.436744 0.110384
0.235294 0.439673 0.101930
0.291478 0.443641 0.088869
0.344823 0.448676 0.054047
0.396643 0.453864 0.010101
0.448157 0.458381 0.000000
0.498329 0.461769 0.000000
0.552667 0.468452 0.000000
0.594781 0.472663 0.000000
0.635248 0.476875 0.000000
0.674983 0.480232 0.000000
0.712917 0.482551 0.000000
0.749752 0.484199 0.000000
0.785916 0.485817 0.000000
0.821286 0.487434 0.045472
0.855863 0.488533 0.092042
0.888426 0.488624 0.110231
0.918425 0.488197 0.128389
0.946319 0.487129 0.145296
0.972564 0.486152 0.162325
0.997559 0.485359 0.179446
1.000000 0.485237 0.197848
1.000000 0.485725 0.216342
1.000000 0.487129 0.236423
0.000000 0.486854 0.111299
0.000000 0.486610 0.111208
0.000000 0.485878 0.111757
0.000000 0.484779 0.113130
0.000000 0.483436 0.115297
0.000000 0.482277 0.118563
0.000000 0.482002 0.122042
0.000000 0.482368 0.127687
0.126711 0.483772 0.125093
0.214755 0.485969 0.116548
0.278965 0.489448 0.105074
0.336889 0.493782 0.089906
0.391119 0.498360 0.048829
0.444190 0.502281 0.000000
0.495094 0.504936 0.000000
0.543969 0.505791 0.000000
0.597284 0.510674 0.000000
0.638453 0.512322 0.000000
0.676234 0.514458 0.000000
0.712825 0.515740 0.000000
0.748379 0.516503 0.000000
0.783536 0.517632 0.000000
0.818082 0.518425 0.000000
0.850645 0.518822 0.079286
0.881193 0.518364 0.115145
0.910887 0.517754 0.134463
0.939147 0.516777 0.151461
0.965972 0.515831 0.168887
0.991730 0.515190 0.187350
1.000000 0.515221 0.206363
1.000000 0.515892 0.226413
1.000000 0.517327 0.248051
0.000000 0.534173 0.120211
0.000000 0.534325 0.121126
0.000000 0.533959 0.121584
0.000000 0.533501 0.122805
0.000000 0.533104 0.125338
0.000000 0.532738 0.128298
0.000000 0.533288 0.132845
0.000000 0.534569 0.138338
0.000000 0.536706 0.143893
0.183078 0.538384 0.135775
0.262058 0.540520 0.125612
0.325628 0.542748 0.112612
0.382910 0.544854 0.094270
0.436225 0.546258 0.048737
0.487282 0.546838 0.000000
0.536187 0.546502 0.000000
0.583948 0.545403 0.000000
0.635706 0.548669 0.000000
0.675563 0.547692 0.000000
0.711269 0.548425 0.000000
0.746761 0.549065 0.000000
0.781735 0.549828 0.000000
0.815885 0.550500 0.000000
0.848264 0.550347 0.030457
0.878508 0.549615 0.103700
0.906981 0.548638 0.135958
0.933989 0.547723 0.162264
0.961089 0.546746 0.179263
0.986877 0.545892 0.197574
1.000000 0.545434 0.216800
1.000000 0.545525 0.236057
1.000000 0.546166 0.256718
0.000000 0.579339 0.133333
0.000000 0.579278 0.133089
0.000000 0.579156 0.133303
0.000000 0.578882 0.134676
0.000000 0.578576 0.137514
0.000000 0.578698 0.140169
0.000000 0.579187 0.144137
0.000000 0.580133 0.150240
0.000000 0.581659 0.156893
0.123079 0.583215 0.155825
0.233036 0.584680 0.147066
0.305669 0.586175 0.135714
0.367468 0.587396 0.122225
0.423590 0.588190 0.103212
0.476295 0.588281 0.065064
0.526513 0.587243 0.000000
0.574548 0.585779 0.000000
0.621607 0.583886 0.000000
0.672602 0.586603 0.000000
0.711635 0.582940 0.000000
0.746426 0.583062 0.000000
0.780941 0.583215 0.000000
0.814389 0.583124 0.000000
0.846036 0.582361 0.000000
0.875975 0.581140 0.089143
0.904326 0.579675 0.128237
0.931243 0.578332 0.158938
0.957031 0.577142 0.186313
0.981933 0.576532 0.209598
1.000000 0.575891 0.228336
1.000000 0.575647 0.248722
1.000000 0.575952 0.269657
0.000000 0.624842 0.151675
0.000000 0.625147 0.152163
0.000000 0.653071 0.170321
0.000000 0.652827 0.171633
0.000000 0.652583 0.173617
0.000000 0.652308 0.176761
0.000000 0.652125 0.180484
0.000000 0.652399 0.185611
0.000000 0.653285 0.192111
0.000000 0.654597 0.198886
0.209445 0.654780 0.191775
0.296605 0.654810 0.182559
0.364294 0.654170 0.171115
0.424323 0.652857 0.156710
0.479194 0.650660 0.138338
0.530419 0.647700 0.114961
0.579248 0.643885 0.072938
0.626215 0.639765 0.000000
0.671656 0.635401 0.000000
0.722164 0.636286 0.000000
0.759426 0.628840 0.000000
0.791714 0.626703 0.000000
0.822660 0.624079 0.000000
0.851987 0.621149 0.000000
0.879667 0.617639 0.087068
0.905913 0.614343 0.128634
0.931212 0.611322 0.159030
0.955657 0.608667 0.187167
0.979309 0.606897 0.213413
1.000000 0.605982 0.239750
1.000000 0.605524 0.262119
1.000000 0.605341 0.282689
0.000000 0.674311 0.181491
0.000000 0.676753 0.183078
0.000000 0.679286 0.186007
0.000000 0.681453 0.189029
0.000000 0.682979 0.192508
0.000000 0.683528 0.195499
0.000000 0.683497 0.199222
0.000000 0.683528 0.203738
0.000000 0.683925 0.209537
0.000000 0.684779 0.216373
0.158236 0.685237 0.216556
0.263157 0.685023 0.209293
0.337652 0.684230 0.199100
0.400244 0.682856 0.186709
0.456519 0.681086 0.173404
0.509361 0.678584 0.154818
0.559228 0.675654 0.132906
0.607141 0.672328 0.103700
0.653956 0.669032 0.019471
0.699763 0.665614 0.000000
0.748501 0.665522 0.000000
0.788785 0.659358 0.000000
0.819272 0.656153 0.000000
0.848203 0.652491 0.000000
0.875578 0.648432 0.040772
0.901640 0.644465 0.117311
0.926726 0.640742 0.152285
0.951019 0.637446 0.182406
0.974640 0.635004 0.210666
0.997375 0.633478 0.237797
1.000000 0.632837 0.265202
1.000000 0.633021 0.293309
0.000000 0.707332 0.203891
0.000000 0.709682 0.206119
0.000000 0.712215 0.209293
0.000000 0.714351 0.212284
0.000000 0.715938 0.215885
0.000000 0.716518 0.218753
0.000000 0.716579 0.222385
0.000000 0.716426 0.226627
0.000000 0.716609 0.231876
0.000000 0.716976 0.238376
0.070497 0.717647 0.245548
0.231388 0.717159 0.238987
0.312718 0.716213 0.230259
0.378454 0.714992 0.220218
0.436408 0.713344 0.208652
0.489998 0.711147 0.193881
0.540764 0.708461 0.176883
0.589136 0.705440 0.156558
0.636255 0.702296 0.131380
0.682368 0.699153 0.096193
0.727474 0.695949 0.000000
0.773617 0.693965 0.000000
0.815030 0.689479 0.000000
0.844633 0.684077 0.000000
0.871672 0.679469 0.000000
0.897551 0.674891 0.105013
0.922484 0.670497 0.144778
0.946593 0.666560 0.178073
0.970123 0.663508 0.207858
0.992828 0.661250 0.235843
1.000000 0.659815 0.264683
1.000000 0.659266 0.293278
0.000000 0.739254 0.230686
0.000000 0.741207 0.233066
0.000000 0.743160 0.235904
0.000000 0.744808 0.239109
0.000000 0.746059 0.241886
0.000000 0.746517 0.245243
0.000000 0.746578 0.248356
0.000000 0.746456 0.252323
0.000000 0.746517 0.257145
0.000000 0.746670 0.263096
0.000000 0.747036 0.270359
0.202335 0.746944 0.271244
0.290440 0.746029 0.263615
0.357855 0.744839 0.255131
0.417365 0.743343 0.244846
0.471565 0.741634 0.233310
0.522698 0.739834 0.220462
0.572168 0.737972 0.205356
0.620142 0.736202 0.188907
0.667414 0.734432 0.168948
0.713680 0.732784 0.145754
0.759731 0.730861 0.115175
0.804623 0.728695 0.030732
0.847410 0.725612 0.000000
0.876585 0.718563 0.024781
0.902586 0.713527 0.123079
0.927459 0.708675 0.163180
0.951354 0.704219 0.196475
0.974365 0.700465 0.227420
0.996399 0.697505 0.256840
1.000000 0.695247 0.286168
1.000000 0.693782 0.315312
0.000000 0.779232 0.275853
0.000000 0.779934 0.277134
0.000000 0.780423 0.278264
0.000000 0.780667 0.279576
0.000000 0.780636 0.281193
0.000000 0.780331 0.283207
0.000000 0.779904 0.285710
0.000000 0.779599 0.289158
0.000000 0.779416 0.293309
0.000000 0.779538 0.299229
0.001190 0.779782 0.306340
0.198123 0.780148 0.313634
0.282933 0.779263 0.307469
0.349462 0.778042 0.299748
0.406867 0.776547 0.290929
0.459998 0.774838 0.280613
0.510216 0.772793 0.269230
0.558190 0.770687 0.256260
0.604944 0.768490 0.241764
0.650782 0.766171 0.226413
0.695918 0.763790 0.208469
0.740291 0.761257 0.188052
0.784176 0.758480 0.162844
0.827390 0.755337 0.128817
0.869261 0.752163 0.085695
0.897734 0.743374 0.111635
0.922698 0.738064 0.158755
0.946654 0.733242 0.194827
0.969726 0.728939 0.226993
0.991699 0.725277 0.257084
1.000000 0.722255 0.287602
1.000000 0.719966 0.317754
0.000000 0.804746 0.308354
0.000000 0.805234 0.309514
0.000000 0.805631 0.310735
0.000000 0.805875 0.312291
0.000000 0.805875 0.313512
0.000000 0.805661 0.315740
0.000000 0.805295 0.318029
0.000000 0.805051 0.321080
0.000000 0.804898 0.325078
0.000000 0.804929 0.330571
0.096468 0.805051 0.336889
0.209506 0.805264 0.344305
0.280552 0.805020 0.346410
0.343084 0.804074 0.339178
0.398260 0.802884 0.331304
0.449256 0.801511 0.322606
0.497536 0.800046 0.312749
0.544244 0.798367 0.302312
0.589776 0.796597 0.290257
0.634546 0.794675 0.276951
0.678553 0.792660 0.262913
0.722194 0.790494 0.247105
0.765377 0.788144 0.228763
0.808164 0.785489 0.207889
0.845792 0.777676 0.169863
0.887510 0.775326 0.138918
0.915984 0.765530 0.146181
0.940093 0.760281 0.187015
0.963317 0.755459 0.221317
0.985473 0.751308 0.253483
1.000000 0.747860 0.285405
1.000000 0.745052 0.316991
0.000000 0.833524 0.353002
0.000000 0.834257 0.354803
0.000000 0.834562 0.355871
0.000000 0.834409 0.356725
0.000000 0.833829 0.357153
0.000000 0.832975 0.357427
0.000000 0.831937 0.358251
0.000000 0.830900 0.359442
0.000000 0.829892 0.362066
0.000000 0.829160 0.365301
0.151614 0.828367 0.369543
0.230533 0.827878 0.375158
0.287999 0.827420 0.381720
0.341802 0.826047 0.375647
0.391730 0.824369 0.367193
0.438392 0.822599 0.357824
0.483864 0.820737 0.347356
0.528038 0.818997 0.337133
0.571923 0.817350 0.326513
0.615229 0.815946 0.315435
0.658106 0.814481 0.303746
0.700587 0.812772 0.290318
0.742580 0.810605 0.274510
0.783841 0.807919 0.256748
0.824674 0.804685 0.235996
0.864866 0.801053 0.211704
0.906554 0.799313 0.185000
0.934417 0.787961 0.181704
0.957336 0.782284 0.217105
0.979339 0.777340 0.250095
1.000000 0.773129 0.282383
1.000000 0.769650 0.315221
0.000000 0.852354 0.382635
0.000000 0.852964 0.384497
0.000000 0.853361 0.385962
0.000000 0.853422 0.386816
0.000000 0.853208 0.387884
0.000000 0.852934 0.389197
0.000000 0.852537 0.391394
0.000000 0.852232 0.393774
0.000000 0.851957 0.397314
0.137057 0.851713 0.401923
0.213077 0.851469 0.406897
0.269444 0.851194 0.413062
0.317082 0.850858 0.419776
0.360418 0.850095 0.421363
0.402350 0.848692 0.413214
0.443519 0.847105 0.404486
0.483894 0.845426 0.394903
0.524193 0.843809 0.385138
0.564721 0.842344 0.375158
0.605341 0.840970 0.364843
0.645930 0.839658 0.354253
0.686305 0.838224 0.342535
0.726558 0.836545 0.329656
0.766567 0.834440 0.315190
0.806394 0.831937 0.298619
0.845945 0.829068 0.279942
0.885466 0.825864 0.258640
0.927337 0.825345 0.236118
0.955138 0.813077 0.228061
0.976867 0.807401 0.261631
0.997406 0.802365 0.294469
1.000000 0.797726 0.326360
0.000000 0.873503 0.422553
0.000000 0.873808 0.423407
0.000000 0.873899 0.424170
0.000000 0.873869 0.425238
0.000000 0.873564 0.425910
0.000000 0.873259 0.426825
0.000000 0.872831 0.428656
0.048920 0.872404 0.430640
0.160983 0.872007 0.433722
0.218326 0.871672 0.437873
0.264866 0.871305 0.442451
0.307652 0.871000 0.448219
0.347051 0.870634 0.454536
0.383490 0.870146 0.461036
0.418738 0.869047 0.456031
0.453254 0.867735 0.447639
0.488533 0.866270 0.438911
0.524285 0.864927 0.429328
0.561059 0.863645 0.420417
0.598169 0.862547 0.410681
0.635859 0.861387 0.401404
0.673701 0.860166 0.390906
0.711482 0.858640 0.379126
0.749355 0.856840 0.365972
0.787259 0.854612 0.351507
0.825254 0.852079 0.334936
0.863493 0.849271 0.316320
0.901579 0.846250 0.296452
0.943664 0.846921 0.275334
0.970672 0.834958 0.268193
0.991760 0.828061 0.295354
1.000000 0.822629 0.328222
0.000000 0.891173 0.458656
0.000000 0.891417 0.459297
0.000000 0.891539 0.460395
0.020508 0.891569 0.461219
0.108186 0.891569 0.462989
0.150668 0.891661 0.465095
0.192050 0.891997 0.468910
0.231327 0.892454 0.473610
0.269169 0.893034 0.479500
0.306340 0.893675 0.486610
0.342321 0.894347 0.494575
0.376684 0.894957 0.502770
0.409583 0.895354 0.511131
0.440833 0.895537 0.519402
0.469886 0.895384 0.523339
0.496864 0.894652 0.517235
0.524346 0.893736 0.510033
0.553124 0.892729 0.502129
0.583490 0.891783 0.494667
0.614710 0.890898 0.486244
0.647089 0.889982 0.478035
0.680049 0.888975 0.468940
0.713436 0.887663 0.458839
0.747372 0.886137 0.447242
0.781643 0.884306 0.434302
0.816556 0.882200 0.419776
0.852079 0.879820 0.404120
0.887999 0.877226 0.387152
0.924468 0.874327 0.368322
0.964874 0.874998 0.349401
0.990448 0.863188 0.343359
1.000000 0.854795 0.363897
0.275059 0.913603 0.517632
0.275731 0.913634 0.517845
0.278202 0.913542 0.517937
0.282841 0.913390 0.518303
0.290196 0.913207 0.518761
0.301305 0.912932 0.519860
0.315404 0.912718 0.521691
0.332341 0.912535 0.524102
0.352392 0.912352 0.527428
0.374212 0.912200 0.531609
0.397711 0.912047 0.536553
0.421912 0.911925 0.541955
0.447089 0.911711 0.548028
0.472053 0.911406 0.554314
