20 Preset/Japan Style/【3】LUT video cho PR-AE-FCPX/LUT VIDEO/Japan Style LUT (28).cube
# Created by Adobe Lightroom plugin Export LUT (1.24.0)
# www.johnrellis.com/lightroom/exportlut.htm
# Preset: 28日系室内柔和朦胧（素材江湖）
# Color profile: C:\Program Files (x86)\Common Files\Adobe\Color\Profiles\Recommended\VideoHD.icc
LUT_3D_SIZE 8
DOMAIN_MIN 0.000000 0.000000 0.000000
DOMAIN_MAX 0.903226 0.903226 0.903226
0.126406 0.126406 0.126406
0.215366 0.128115 0.127230
0.385809 0.133333 0.130068
0.546441 0.146059 0.140017
0.714900 0.166049 0.155581
0.869810 0.197635 0.184451
0.992767 0.237766 0.223758
1.000000 0.278843 0.265049
0.123507 0.215915 0.123110
0.217441 0.217350 0.122805
0.382818 0.224033 0.141878
0.545586 0.225650 0.149142
0.714473 0.237247 0.166598
0.868009 0.256107 0.194705
0.988495 0.280827 0.231479
1.000000 0.310704 0.270970
0.133394 0.362066 0.133272
0.207370 0.361456 0.133791
0.368902 0.369024 0.135988
0.548547 0.386999 0.178927
0.729152 0.406683 0.216678
0.877531 0.408728 0.240391
0.994049 0.411719 0.272496
1.000000 0.419318 0.306676
0.156466 0.499977 0.156191
0.212558 0.499275 0.156466
0.349889 0.503807 0.158816
0.524224 0.524193 0.164797
0.721370 0.556451 0.213779
0.884550 0.581537 0.308904
0.994171 0.571832 0.343786
1.000000 0.560815 0.369512
0.170809 0.638636 0.170932
0.219150 0.638178 0.171054
0.341894 0.637232 0.171603
0.497475 0.651209 0.179110
0.670985 0.671138 0.193759
0.841306 0.686366 0.253605
0.973144 0.697719 0.366583
1.000000 0.709255 0.463478
0.195193 0.756313 0.195163
0.233127 0.757290 0.196048
0.339025 0.756374 0.196384
0.474128 0.759396 0.201724
0.626856 0.772488 0.220371
0.788327 0.788357 0.247745
0.938903 0.795712 0.309087
1.000000 0.796628 0.433600
0.225681 0.864530 0.226017
0.254459 0.864622 0.226261
0.342901 0.863676 0.226413
0.460914 0.862211 0.227512
0.597314 0.867918 0.245365
0.741054 0.876951 0.274998
0.886503 0.886473 0.313390
1.000000 0.885161 0.366491
0.264225 0.964843 0.264317
0.284977 0.964691 0.264286
0.357305 0.964233 0.264897
0.461463 0.963470 0.266972
0.579187 0.961181 0.271275
0.710140 0.964050 0.302220
0.840726 0.966217 0.340337
0.966583 0.966583 0.383368
0.126070 0.125490 0.215091
0.215732 0.122805 0.215274
0.374731 0.131044 0.211856
0.527428 0.159091 0.220371
0.695125 0.183963 0.233341
0.854093 0.213687 0.250858
0.978363 0.251164 0.274998
1.000000 0.289555 0.303532
0.120668 0.214817 0.214694
0.214115 0.214115 0.214115
0.370581 0.221317 0.220188
0.529320 0.231235 0.228458
0.698177 0.246250 0.240665
0.855436 0.265995 0.257939
0.977111 0.290745 0.280980
1.000000 0.319524 0.308568
0.146761 0.359960 0.212680
0.212863 0.359442 0.212955
0.365362 0.365179 0.216526
0.538537 0.387732 0.255344
0.714168 0.403967 0.274571
0.863767 0.408423 0.289342
0.980926 0.412879 0.310979
1.000000 0.422370 0.337346
0.162173 0.496834 0.215610
0.215640 0.496407 0.215549
0.348241 0.499214 0.217197
0.516930 0.516991 0.225315
0.709346 0.549096 0.267155
0.872221 0.578607 0.348211
0.982269 0.568231 0.369818
1.000000 0.560510 0.392309
0.172427 0.636683 0.219425
0.219303 0.636072 0.219364
0.340948 0.634607 0.219242
0.493812 0.646204 0.225834
0.665492 0.665492 0.239475
0.835294 0.682399 0.292546
0.967468 0.697261 0.396307
1.000000 0.709407 0.482307
0.195743 0.753811 0.232853
0.232883 0.753689 0.233097
0.338018 0.752926 0.233371
0.471901 0.755398 0.237430
0.624445 0.769162 0.254856
0.785946 0.785946 0.281132
0.936034 0.794278 0.338994
1.000000 0.797238 0.456886
0.227024 0.862150 0.254826
0.254612 0.861662 0.254582
0.342290 0.860716 0.254459
0.459907 0.859495 0.255314
0.596033 0.865507 0.271824
0.739620 0.874846 0.299687
0.884337 0.884306 0.335973
1.000000 0.883543 0.387579
0.265263 0.963195 0.285893
0.286381 0.963317 0.286534
0.357794 0.962799 0.287022
0.461494 0.962097 0.288853
0.581109 0.961822 0.296696
0.711147 0.964019 0.324773
0.840787 0.965789 0.360357
0.966278 0.966247 0.402136
0.125246 0.125856 0.361120
0.204623 0.125948 0.361273
0.360510 0.134615 0.360571
0.507225 0.157259 0.351690
0.667079 0.184543 0.359350
0.824582 0.212863 0.369207
0.956054 0.266697 0.386725
1.000000 0.317327 0.407233
0.140658 0.210269 0.360510
0.210788 0.210575 0.360235
0.359350 0.212863 0.359258
0.505333 0.222599 0.353368
0.665583 0.238254 0.361364
0.823636 0.259403 0.371954
0.955413 0.302312 0.390417
1.000000 0.343877 0.410834
0.155428 0.357183 0.357305
0.217838 0.356817 0.356939
0.354467 0.354467 0.354467
0.507866 0.367712 0.366949
0.678950 0.383124 0.380926
0.836179 0.399664 0.396124
0.960418 0.418341 0.413306
1.000000 0.439094 0.433021
0.163760 0.496986 0.346654
0.216007 0.496864 0.346441
0.345739 0.496193 0.345739
0.510307 0.510246 0.355474
0.700618 0.550317 0.405707
0.851347 0.573510 0.448798
0.964904 0.572442 0.463264
1.000000 0.574243 0.480659
0.166110 0.636225 0.339666
0.215640 0.635859 0.339544
0.339147 0.634913 0.339178
0.489113 0.640894 0.344030
0.661952 0.661921 0.361334
0.830167 0.683406 0.413458
0.957122 0.710262 0.508324
1.000000 0.719844 0.559289
0.204654 0.753079 0.341436
0.239445 0.753048 0.341466
0.341619 0.752255 0.341650
0.470253 0.750637 0.341680
0.622156 0.764706 0.358801
0.782803 0.782742 0.385718
0.930541 0.795132 0.443458
1.000000 0.807218 0.550011
0.243626 0.862211 0.351751
0.268711 0.861814 0.351507
0.351080 0.860624 0.350988
0.464759 0.859190 0.350958
0.596979 0.862882 0.361852
0.740444 0.873167 0.389105
0.884092 0.884062 0.425330
1.000000 0.885618 0.478920
0.284520 0.962646 0.369390
0.303075 0.962402 0.369146
0.369360 0.961883 0.369482
0.469429 0.961486 0.371435
0.584253 0.960266 0.373907
0.714321 0.963012 0.400702
0.842954 0.965179 0.434699
0.966064 0.966033 0.474800
0.133028 0.133303 0.498177
0.200778 0.135897 0.498695
0.343877 0.145449 0.498207
0.497383 0.157168 0.497383
0.644678 0.173190 0.491981
0.794247 0.196780 0.492958
0.927794 0.247013 0.496712
1.000000 0.312444 0.508202
0.151369 0.209628 0.499031
0.210544 0.210300 0.498939
0.345983 0.213199 0.498421
0.497505 0.216403 0.497597
0.644099 0.224125 0.491890
0.794553 0.241855 0.494118
0.926726 0.283696 0.498878
1.000000 0.341833 0.512261
0.166354 0.346990 0.496681
0.218357 0.346929 0.496590
0.345892 0.346136 0.496010
0.495003 0.344915 0.494972
0.640803 0.347997 0.490608
0.796475 0.366674 0.501091
0.926024 0.400031 0.513970
1.000000 0.444465 0.535363
0.161440 0.494606 0.494545
0.213321 0.494209 0.494179
0.341253 0.493050 0.493141
0.489967 0.489967 0.489967
0.653956 0.512169 0.511345
0.801938 0.535576 0.533867
0.927611 0.559960 0.557397
1.000000 0.582544 0.579309
0.156771 0.635950 0.483711
0.208408 0.635431 0.483192
0.334539 0.634211 0.481880
0.481331 0.632776 0.481331
0.650996 0.650935 0.500420
0.814359 0.689113 0.570428
0.934142 0.725673 0.634668
1.000000 0.727291 0.646509
0.233005 0.753201 0.478035
0.264347 0.753902 0.478950
0.355779 0.752834 0.478431
0.478218 0.751400 0.478187
0.620111 0.757839 0.488685
0.777951 0.777859 0.520226
0.920409 0.799771 0.584497
1.000000 0.826017 0.672847
0.281529 0.861112 0.479103
0.302434 0.861082 0.479194
0.374304 0.860563 0.479194
0.479255 0.859495 0.479316
0.600092 0.858518 0.480781
0.742916 0.870054 0.510643
0.882689 0.882689 0.547662
1.000000 0.889097 0.602258
0.327611 0.962188 0.488258
0.342657 0.962036 0.488228
0.399298 0.961517 0.488258
0.488838 0.960693 0.488777
0.595605 0.959197 0.489174
0.719966 0.960632 0.507683
0.846647 0.963653 0.540215
0.965637 0.965637 0.576898
0.146731 0.146487 0.637201
0.204318 0.148501 0.637568
0.337072 0.156191 0.637049
0.485054 0.165011 0.636500
0.635401 0.171450 0.635431
0.777493 0.183047 0.627649
0.895720 0.216556 0.610468
1.000000 0.280430 0.612726
0.160464 0.212131 0.637629
0.212894 0.212619 0.637964
0.339940 0.215061 0.637537
0.485451 0.217838 0.636378
0.635401 0.219486 0.635401
0.776669 0.227054 0.627070
0.895689 0.253574 0.611322
1.000000 0.310246 0.614435
0.171481 0.341527 0.636561
0.219150 0.341436 0.636500
0.340948 0.340978 0.635889
0.484260 0.340093 0.634882
0.633204 0.338354 0.633265
0.770504 0.342901 0.622980
0.894011 0.363653 0.614893
1.000000 0.407599 0.622217
0.167056 0.482765 0.633173
0.214359 0.482460 0.633021
0.336248 0.481636 0.632685
0.480415 0.480415 0.631647
0.630243 0.479194 0.630182
0.760830 0.484321 0.619867
0.890349 0.512718 0.630365
1.000000 0.547387 0.646876
0.162966 0.628199 0.628168
0.211521 0.628138 0.628138
0.334630 0.627466 0.627527
0.478981 0.625940 0.625971
0.622248 0.622248 0.622248
0.765072 0.650538 0.649958
0.893278 0.678614 0.677455
1.000000 0.702266 0.700496
0.236576 0.747799 0.609277
0.267491 0.747585 0.609461
0.362676 0.745907 0.609644
0.485542 0.743313 0.610803
0.611810 0.742275 0.611810
0.763882 0.763882 0.639948
0.906188 0.806668 0.713527
0.998840 0.843931 0.776364
0.313817 0.857877 0.605707
0.332189 0.857511 0.605676
0.398199 0.856504 0.606378
0.495796 0.855711 0.607599
0.607355 0.854551 0.607355
0.738491 0.860990 0.622431
0.877958 0.877958 0.659663
0.992279 0.892882 0.717128
0.362707 0.958740 0.606134
0.375372 0.958618 0.606012
0.424628 0.958099 0.605829
0.507591 0.957977 0.607263
0.607385 0.956725 0.607324
0.719844 0.955718 0.610956
0.847593 0.960235 0.642939
0.963836 0.963836 0.677729
0.163790 0.163851 0.758450
0.210727 0.165682 0.758541
0.330083 0.171939 0.757717
0.468421 0.180941 0.756863
0.611200 0.189487 0.756008
0.754299 0.196048 0.754360
0.891173 0.209293 0.747860
1.000000 0.248722 0.728206
0.176089 0.217899 0.756558
0.218387 0.218692 0.756405
0.332860 0.221408 0.755886
0.468544 0.225742 0.755154
0.609827 0.230076 0.754025
0.752560 0.233707 0.752590
0.888762 0.244511 0.746029
0.999207 0.276371 0.727138
0.196750 0.339208 0.756222
0.233921 0.339330 0.756100
0.339483 0.339513 0.755703
0.470558 0.339483 0.754116
0.609888 0.340490 0.752865
0.751431 0.341863 0.751492
0.885130 0.349676 0.744137
0.994781 0.369909 0.727199
0.211612 0.473274 0.753994
0.246036 0.473426 0.753689
0.348699 0.474922 0.753140
0.475990 0.475990 0.753262
0.612238 0.476905 0.752346
0.750668 0.478248 0.750668
0.877775 0.485451 0.742123
0.987488 0.501213 0.732204
0.226810 0.608240 0.747860
0.258701 0.608392 0.747707
0.356176 0.609247 0.747280
0.484199 0.611994 0.746456
0.614130 0.614099 0.745052
0.743709 0.613550 0.743679
0.862913 0.616449 0.736812
0.980529 0.641627 0.747372
0.260746 0.742092 0.742061
0.289006 0.742428 0.742397
0.375189 0.741970 0.742000
0.489723 0.741176 0.741176
0.612360 0.739651 0.739651
0.737606 0.737606 0.737606
0.872831 0.772580 0.772061
0.980194 0.799649 0.798672
0.320836 0.856687 0.729152
0.339635 0.856748 0.729458
0.404120 0.856077 0.729610
0.501823 0.854826 0.729976
0.614893 0.852995 0.730800
0.730922 0.851164 0.730922
0.871122 0.871122 0.763088
0.983673 0.904417 0.830625
0.376074 0.957336 0.720089
0.389014 0.957092 0.720058
0.440070 0.956420 0.721035
0.523827 0.955474 0.723598
0.622309 0.954009 0.725978
0.725704 0.952483 0.725734
0.846036 0.955291 0.742885
0.962097 0.962097 0.778531
0.181064 0.181125 0.864469
0.219669 0.182620 0.865019
0.324437 0.187533 0.864347
0.453071 0.196078 0.863798
0.587427 0.204929 0.862669
0.723293 0.214084 0.861051
0.859037 0.223575 0.859007
0.991943 0.237034 0.855344
0.189731 0.224338 0.860899
0.225559 0.225498 0.861662
0.326757 0.228305 0.861143
0.452491 0.232639 0.860227
0.585229 0.237827 0.858885
0.719783 0.243442 0.856748
0.854276 0.249454 0.854215
0.985809 0.258915 0.849912
0.214054 0.335851 0.861326
0.244022 0.336095 0.861234
0.336309 0.336370 0.860288
0.456855 0.337469 0.859281
0.586725 0.338964 0.857450
0.719997 0.341741 0.855833
0.855039 0.346929 0.855039
0.986175 0.356390 0.851499
0.248295 0.466987 0.860594
0.272801 0.466651 0.860136
0.353582 0.466285 0.859037
0.467201 0.467262 0.858457
0.592432 0.467994 0.856962
0.723079 0.470741 0.856077
0.855528 0.475593 0.855497
0.980529 0.483040 0.849760
0.267399 0.593072 0.854612
0.289952 0.592828 0.853819
0.369482 0.594110 0.852720
0.482612 0.598657 0.852049
0.599512 0.599512 0.851133
0.722438 0.599573 0.850034
0.849393 0.600855 0.849424
0.970581 0.607233 0.845121
0.295079 0.720241 0.849180
0.315801 0.720577 0.849210
0.386786 0.721309 0.849149
0.489296 0.722713 0.849027
0.605921 0.724483 0.848569
0.727260 0.727260 0.848844
0.848753 0.728145 0.848753
0.960174 0.730129 0.842710
0.325628 0.847227 0.847257
0.343725 0.847623 0.847623
0.405646 0.847440 0.847410
0.501152 0.847288 0.847288
0.611353 0.846494 0.846464
0.727565 0.845335 0.845335
0.843778 0.843778 0.843778
0.963989 0.880400 0.880003
0.378088 0.954620 0.834562
0.391760 0.954589 0.834684
0.445136 0.954742 0.835874
0.527092 0.953887 0.836606
0.626368 0.952148 0.837339
0.733852 0.950072 0.839048
0.840330 0.948089 0.840360
0.959106 0.959075 0.871611
0.192264 0.192721 0.957885
0.224796 0.193820 0.958099
0.317784 0.197208 0.957153
0.436591 0.203738 0.956909
0.563409 0.212009 0.956207
0.692531 0.220859 0.954986
0.822873 0.231662 0.954070
0.952422 0.242863 0.952453
0.198672 0.228641 0.955901
0.229496 0.229557 0.956146
0.320012 0.231693 0.955657
0.437079 0.235813 0.955230
0.563012 0.241520 0.954528
0.691615 0.248081 0.953368
0.821195 0.255802 0.952117
0.950225 0.264103 0.950225
0.218936 0.328191 0.954162
0.245670 0.328496 0.954162
0.328985 0.328862 0.953552
0.442542 0.331884 0.954192
0.565209 0.333928 0.953094
0.691768 0.336614 0.951476
0.820371 0.341314 0.950408
0.948760 0.346654 0.948760
0.247318 0.449409 0.951812
0.270207 0.449744 0.951934
0.344976 0.450019 0.951537
0.451331 0.451301 0.951476
0.570245 0.452888 0.950866
0.694301 0.454780 0.949798
0.820951 0.458412 0.948943
0.947662 0.462898 0.947692
0.278691 0.574334 0.948272
0.300267 0.575280 0.948425
0.370092 0.577081 0.947814
0.467750 0.578515 0.947509
0.578576 0.578607 0.946715
0.697230 0.578912 0.945769
0.820340 0.580804 0.945312
0.945190 0.584192 0.945159
0.296849 0.695918 0.944488
0.313603 0.695644 0.944121
0.375830 0.695460 0.943236
0.472694 0.696773 0.942626
0.586816 0.700557 0.942535
0.704707 0.704677 0.943542
0.824857 0.708858 0.944762
0.945525 0.712795 0.945464
0.329900 0.820432 0.943175
0.344945 0.820401 0.943053
0.401587 0.820432 0.942596
0.491920 0.821347 0.942412
0.599512 0.823087 0.942260
0.715145 0.826413 0.942473
0.831815 0.831815 0.943694
0.943297 0.832731 0.943297
0.378241 0.942657 0.942687
0.390387 0.942565 0.942565
0.438972 0.942412 0.942412
0.520623 0.942596 0.942565
0.620111 0.942504 0.942504
0.727382 0.942107 0.942107
0.836728 0.941466 0.941466
0.940002 0.940002 0.940002
