20 Preset/Japan Style/【3】LUT video cho PR-AE-FCPX/LUT VIDEO/Japan Style LUT (3).cube
# Created by Adobe Lightroom plugin Export LUT (1.24.0)
# www.johnrellis.com/lightroom/exportlut.htm
# Preset: 03日系基础色（素材江湖）
# Color profile: C:\Program Files (x86)\Common Files\Adobe\Color\Profiles\Recommended\VideoHD.icc
LUT_3D_SIZE 5
DOMAIN_MIN 0.000000 0.000000 0.000000
DOMAIN_MAX 0.903226 0.903226 0.903226
0.000000 0.000000 0.000000
0.400793 0.166537 0.105409
0.813443 0.297612 0.157900
1.000000 0.402319 0.252049
1.000000 0.488502 0.371221
0.000000 0.349615 0.186130
0.376623 0.383398 0.154116
0.822416 0.453376 0.082795
1.000000 0.482856 0.239933
1.000000 0.526696 0.368261
0.000000 0.638483 0.340581
0.327092 0.645106 0.330541
0.767514 0.706142 0.314244
1.000000 0.678035 0.297093
1.000000 0.653925 0.372168
0.288640 0.842985 0.483375
0.398383 0.842405 0.477943
0.672511 0.855283 0.477882
0.964752 0.876219 0.509178
1.000000 0.822477 0.484474
0.611109 0.978332 0.677852
0.638025 0.978363 0.675929
0.743771 0.980591 0.674556
0.906767 0.983124 0.688502
1.000000 0.971496 0.688838
0.000000 0.113069 0.391638
0.321965 0.128145 0.370245
0.793912 0.310704 0.363104
1.000000 0.444953 0.349035
1.000000 0.506065 0.379248
0.000000 0.353429 0.405402
0.313390 0.362280 0.394842
0.783352 0.451453 0.399329
1.000000 0.513725 0.376593
1.000000 0.541558 0.378210
0.000000 0.646021 0.464271
0.310887 0.651606 0.456428
0.756954 0.708309 0.463355
1.000000 0.697444 0.464363
1.000000 0.665553 0.417945
0.329747 0.842466 0.552544
0.420325 0.841764 0.546960
0.670588 0.850675 0.544457
0.954833 0.878294 0.591302
1.000000 0.837247 0.572992
0.625757 0.977447 0.707332
0.651514 0.977661 0.706081
0.743587 0.977203 0.697169
0.904509 0.981109 0.712673
1.000000 0.971832 0.719081
0.000000 0.188663 0.686275
0.000000 0.150210 0.678004
0.637232 0.225650 0.648493
0.980194 0.438056 0.618067
1.000000 0.652033 0.662898
0.000000 0.355169 0.683803
0.000000 0.351659 0.681483
0.639277 0.379187 0.656855
0.966644 0.538537 0.642298
1.000000 0.679438 0.672999
0.000000 0.628656 0.694392
0.000000 0.632898 0.691279
0.637995 0.649104 0.674067
0.934264 0.736263 0.709499
1.000000 0.763699 0.702663
0.255009 0.839200 0.702235
0.408759 0.840177 0.705074
0.667414 0.839322 0.708431
0.920531 0.877287 0.749477
1.000000 0.876432 0.754574
0.605951 0.979248 0.774655
0.653742 0.977874 0.782315
0.761563 0.976318 0.789395
0.900755 0.979553 0.794766
1.000000 0.976867 0.816312
0.000000 0.270939 0.880827
0.000000 0.260380 0.878050
0.450080 0.256870 0.868009
0.860655 0.348028 0.843778
1.000000 0.565057 0.779995
0.000000 0.342931 0.881315
0.000000 0.350134 0.879484
0.466468 0.386999 0.868589
0.859434 0.445075 0.846036
1.000000 0.622034 0.791165
0.000000 0.585443 0.873472
0.000000 0.593011 0.869047
0.537499 0.633875 0.857908
0.836728 0.653346 0.834653
1.000000 0.765591 0.827604
0.000000 0.802518 0.872190
0.282322 0.807797 0.871183
0.604395 0.823423 0.864836
0.846464 0.841550 0.852567
1.000000 0.903502 0.884977
0.333867 0.984131 0.879423
0.435615 0.983032 0.878538
0.663539 0.979004 0.876280
0.877592 0.974792 0.887358
1.000000 0.982238 0.915038
0.000000 0.379004 0.998718
0.000000 0.377691 0.997803
0.000000 0.351415 0.995148
0.651728 0.339117 0.985718
0.988098 0.455207 0.967163
0.000000 0.375647 0.996368
0.000000 0.374884 0.995819
0.000000 0.344915 0.992615
0.654200 0.410834 0.980133
0.982086 0.503380 0.962463
0.000000 0.478737 0.993866
0.000000 0.487434 0.991608
0.245731 0.556695 0.982574
0.671626 0.591272 0.969421
0.971496 0.653437 0.957031
0.000000 0.683986 0.989471
0.000000 0.688319 0.987121
0.173434 0.719936 0.980438
0.725338 0.790066 0.969421
0.974243 0.833371 0.967254
0.000000 0.896696 0.993072
0.000000 0.901823 0.992493
0.460395 0.919982 0.989288
0.783780 0.944976 0.983215
0.973999 0.967803 0.975647
