20 Preset/Japan Style/【3】LUT video cho PR-AE-FCPX/LUT VIDEO/Japan Style LUT (28).cube
# Created by Adobe Lightroom plugin Export LUT (1.24.0)
# www.johnrellis.com/lightroom/exportlut.htm
# Preset: 28日系室内柔和朦胧（素材江湖）
# Color profile: C:\Program Files (x86)\Common Files\Adobe\Color\Profiles\Recommended\VideoHD.icc
LUT_3D_SIZE 32
DOMAIN_MIN 0.0 0.0 0.0
DOMAIN_MAX 1.0 1.0 1.0
0.126406 0.126406 0.126406
0.131106 0.126406 0.126314
0.147097 0.126162 0.126772
0.176516 0.127016 0.126925
0.215366 0.128115 0.127230
0.258824 0.128389 0.127535
0.302281 0.129976 0.128176
0.344579 0.131594 0.129366
0.385809 0.133333 0.130068
0.425818 0.136263 0.131930
0.465705 0.139101 0.134707
0.505791 0.142428 0.137026
0.546441 0.146059 0.140017
0.587884 0.149996 0.142885
0.629877 0.154696 0.146212
0.672175 0.159915 0.150576
0.714900 0.166049 0.155581
0.757137 0.173404 0.161929
0.797208 0.180331 0.168490
0.834806 0.189120 0.176059
0.869810 0.197635 0.184451
0.903563 0.207370 0.193759
0.935180 0.217563 0.203922
0.964874 0.227695 0.213779
0.992767 0.237766 0.223758
1.000000 0.248142 0.234012
1.000000 0.258396 0.244297
1.000000 0.268650 0.254673
1.000000 0.278843 0.265049
1.000000 0.289311 0.275425
1.000000 0.299626 0.285863
1.000000 0.310124 0.296513
0.126070 0.131075 0.126284
0.130190 0.130617 0.126284
0.145785 0.131197 0.127169
0.176242 0.131655 0.127077
0.215152 0.132692 0.127382
0.258305 0.133791 0.127840
0.301518 0.134920 0.128573
0.343694 0.136355 0.129519
0.385046 0.137728 0.130495
0.425116 0.140352 0.132387
0.464668 0.143954 0.135317
0.504753 0.146792 0.137209
0.545434 0.150149 0.140230
0.586786 0.153658 0.143404
0.628626 0.158419 0.146487
0.671107 0.163607 0.150820
0.713802 0.169650 0.156008
0.756100 0.176150 0.162051
0.796170 0.183444 0.168734
0.833646 0.191470 0.176577
0.868681 0.200443 0.184543
0.902281 0.209140 0.193729
0.933654 0.219028 0.203799
0.963104 0.229191 0.213565
0.990997 0.239109 0.223484
1.000000 0.248905 0.233616
1.000000 0.258915 0.243626
1.000000 0.269108 0.254063
1.000000 0.279210 0.264439
1.000000 0.289342 0.274632
1.000000 0.299809 0.285161
1.000000 0.310094 0.295689
0.126558 0.147585 0.125856
0.130434 0.147860 0.126528
0.148074 0.147707 0.126131
0.176089 0.149386 0.127199
0.214054 0.151858 0.128878
0.257176 0.153628 0.129427
0.300755 0.154513 0.130129
0.342992 0.155306 0.131136
0.384375 0.156893 0.132540
0.424414 0.158145 0.134554
0.464302 0.160159 0.136629
0.504540 0.162387 0.138521
0.545098 0.165377 0.141512
0.586358 0.168734 0.144381
0.628412 0.172641 0.147890
0.670741 0.177188 0.152193
0.713436 0.182620 0.157534
0.755734 0.188540 0.163699
0.795743 0.195132 0.170138
0.833310 0.202487 0.177707
0.868315 0.210208 0.186038
0.901854 0.218906 0.195315
0.933013 0.227939 0.204990
0.962402 0.237003 0.214664
0.990112 0.246342 0.224552
1.000000 0.255314 0.234470
1.000000 0.265110 0.244724
1.000000 0.274723 0.254826
1.000000 0.284367 0.264927
1.000000 0.294255 0.275364
1.000000 0.303838 0.285771
1.000000 0.313970 0.296178
0.125368 0.177981 0.125032
0.129488 0.178195 0.124880
0.148287 0.178500 0.124941
0.179110 0.178988 0.124758
0.216495 0.180575 0.126772
0.256199 0.184268 0.132387
0.299718 0.185916 0.134096
0.342046 0.186557 0.135073
0.383795 0.187106 0.136538
0.424140 0.187411 0.137881
0.464363 0.188602 0.139712
0.504479 0.189822 0.141665
0.545464 0.191745 0.144411
0.586725 0.194583 0.147585
0.628626 0.197604 0.150851
0.670924 0.201663 0.155795
0.713497 0.205875 0.160861
0.755459 0.211246 0.167178
0.795377 0.216739 0.173678
0.832609 0.222995 0.181277
0.867491 0.229221 0.189059
0.900847 0.236576 0.198398
0.931762 0.244083 0.207889
0.960998 0.252110 0.217441
0.988891 0.260075 0.226902
1.000000 0.268467 0.237095
1.000000 0.277409 0.247227
1.000000 0.285985 0.257328
1.000000 0.294774 0.267277
1.000000 0.303868 0.277440
1.000000 0.312963 0.287785
1.000000 0.322301 0.298161
0.123507 0.215915 0.123110
0.128817 0.215885 0.123018
0.147768 0.215976 0.123384
0.178500 0.216373 0.122927
0.217441 0.217350 0.122805
0.259068 0.217868 0.125551
0.299290 0.220523 0.133761
0.340642 0.224125 0.141299
0.382818 0.224033 0.141878
0.423621 0.224094 0.142947
0.463966 0.223819 0.144533
0.504601 0.224491 0.146426
0.545586 0.225650 0.149142
0.587213 0.227634 0.152407
0.629236 0.230198 0.156680
0.671565 0.233890 0.161440
0.714473 0.237247 0.166598
0.756313 0.241703 0.172641
0.795956 0.246372 0.179019
0.833097 0.250858 0.186648
0.868009 0.256107 0.194705
0.901061 0.261875 0.203433
0.931609 0.267918 0.212772
0.960784 0.274144 0.221958
0.988495 0.280827 0.231479
1.000000 0.288182 0.241367
1.000000 0.295415 0.251225
1.000000 0.302953 0.261173
1.000000 0.310704 0.270970
1.000000 0.318639 0.281071
1.000000 0.326665 0.290990
1.000000 0.335180 0.301305
0.123476 0.254032 0.122408
0.127718 0.254154 0.122286
0.147036 0.253819 0.122805
0.176364 0.254063 0.122438
0.214115 0.255192 0.122530
0.256382 0.256138 0.122621
0.299748 0.256901 0.124636
0.340826 0.258305 0.134401
0.381872 0.261692 0.143954
0.423774 0.264530 0.150698
0.464790 0.263951 0.152010
0.505821 0.264256 0.153994
0.547112 0.265141 0.157076
0.588983 0.266667 0.160830
0.631189 0.268956 0.164889
0.673884 0.271641 0.169711
0.716732 0.274754 0.174716
0.758450 0.278172 0.180758
0.797818 0.281407 0.187076
0.834623 0.284825 0.194522
0.869596 0.288975 0.202487
0.902281 0.293309 0.211063
0.941497 0.301244 0.223301
0.970367 0.306462 0.232822
0.997620 0.311833 0.242283
1.000000 0.317510 0.252049
1.000000 0.323278 0.262089
1.000000 0.329534 0.271580
1.000000 0.335943 0.281285
1.000000 0.342626 0.291051
1.000000 0.349584 0.300969
1.000000 0.356725 0.310674
0.123903 0.292638 0.124025
0.128573 0.292729 0.123903
0.146365 0.292424 0.124453
0.175326 0.292332 0.124514
0.211215 0.293065 0.124239
0.252415 0.294194 0.124514
0.295995 0.295933 0.124697
0.341253 0.297154 0.124910
0.382544 0.298405 0.135805
0.424323 0.301579 0.147768
0.467872 0.306615 0.160006
0.510460 0.309239 0.166781
0.552392 0.309819 0.169833
0.594659 0.311101 0.173434
0.637354 0.312840 0.177157
0.679957 0.314794 0.181857
0.722896 0.317266 0.186526
0.763943 0.319493 0.192264
0.802579 0.321874 0.198611
0.839506 0.324315 0.205936
0.875090 0.327337 0.213931
0.907958 0.330541 0.222416
0.938750 0.333959 0.231632
0.968048 0.337804 0.240940
0.995727 0.341802 0.250278
1.000000 0.346319 0.259922
1.000000 0.350500 0.268925
1.000000 0.355261 0.278416
1.000000 0.360388 0.287877
1.000000 0.365698 0.297337
1.000000 0.371344 0.306798
1.000000 0.377295 0.316472
0.127840 0.327916 0.127321
0.132265 0.327916 0.128023
0.148013 0.327794 0.127718
0.174868 0.327581 0.127901
0.208530 0.327581 0.128054
0.247440 0.328985 0.127993
0.288884 0.330632 0.128786
0.332799 0.332647 0.129732
0.377905 0.334691 0.130465
0.420142 0.336370 0.141543
0.463264 0.340398 0.155062
0.507713 0.346471 0.169497
0.553857 0.354376 0.184085
0.596918 0.356115 0.188540
0.639857 0.357519 0.191836
0.682765 0.359075 0.195865
0.725460 0.361059 0.200107
0.766049 0.362371 0.205264
0.804471 0.363653 0.211429
0.841489 0.365393 0.218479
0.876005 0.367071 0.225864
0.908202 0.368597 0.233829
0.938384 0.370489 0.242557
0.967285 0.372717 0.251286
0.994629 0.375555 0.260319
1.000000 0.378332 0.269200
1.000000 0.381415 0.278294
1.000000 0.384588 0.287114
1.000000 0.388281 0.296056
1.000000 0.392401 0.305394
1.000000 0.396643 0.314397
1.000000 0.401526 0.323796
0.133394 0.362066 0.133272
0.137606 0.362127 0.133150
0.151644 0.361944 0.133455
0.176059 0.361822 0.133364
0.207370 0.361456 0.133791
0.244175 0.362371 0.134249
0.283268 0.364080 0.134768
0.325261 0.366308 0.135378
0.368902 0.369024 0.135988
0.414252 0.371679 0.137331
0.458350 0.374731 0.147372
0.502647 0.379950 0.162295
0.548547 0.386999 0.178927
0.595789 0.395636 0.195621
0.643641 0.404181 0.209842
0.686915 0.405585 0.213046
0.729152 0.406683 0.216678
0.769375 0.407446 0.221500
0.807858 0.408057 0.227085
0.843900 0.408515 0.233433
0.877531 0.408728 0.240391
0.908904 0.409125 0.247868
0.938537 0.409644 0.255985
0.967010 0.410468 0.264195
0.994049 0.411719 0.272496
1.000000 0.413123 0.280949
1.000000 0.414801 0.289464
1.000000 0.416907 0.298009
1.000000 0.419318 0.306676
1.000000 0.422034 0.315404
1.000000 0.425238 0.324346
1.000000 0.428626 0.333227
0.139559 0.395941 0.139254
0.142885 0.395941 0.139162
0.155764 0.395758 0.139254
0.178561 0.395514 0.139498
0.207401 0.395209 0.139467
0.241520 0.395239 0.140017
0.279301 0.396979 0.140719
0.319158 0.399329 0.141421
0.361212 0.402014 0.142519
0.405066 0.405280 0.143465
0.450935 0.408911 0.144808
0.496284 0.413062 0.154025
0.542260 0.419471 0.170199
0.589319 0.427588 0.188327
0.638148 0.437140 0.206271
0.687922 0.447822 0.224125
0.733852 0.454200 0.235935
0.773922 0.454353 0.240299
0.811460 0.453895 0.245243
0.846555 0.453162 0.251194
0.879271 0.452094 0.257176
0.909697 0.450874 0.263951
0.938567 0.449958 0.271244
0.966308 0.449500 0.278508
0.992706 0.449195 0.286107
1.000000 0.449409 0.293980
1.000000 0.449836 0.302129
1.000000 0.450568 0.310185
1.000000 0.451881 0.318425
1.000000 0.453498 0.326940
1.000000 0.455482 0.335515
1.000000 0.457923 0.344274
0.145357 0.429328 0.145113
0.147860 0.429297 0.145083
0.160067 0.429267 0.145510
0.181216 0.429145 0.145510
0.208682 0.428870 0.145724
0.240543 0.428595 0.145846
0.276585 0.429938 0.146487
0.315068 0.432227 0.147189
0.355627 0.435126 0.148257
0.398199 0.438575 0.149233
0.442603 0.442390 0.150546
0.488472 0.446876 0.151736
0.535119 0.452125 0.160250
0.582788 0.459785 0.177493
0.631800 0.469215 0.196384
0.681849 0.479805 0.216129
0.730312 0.489754 0.235935
0.776272 0.498970 0.256443
0.814603 0.500298 0.265354
0.848722 0.498299 0.270298
0.880583 0.495857 0.275731
0.910338 0.493477 0.281651
0.938811 0.491493 0.288273
0.966033 0.489662 0.294987
0.992035 0.488258 0.302068
1.000000 0.487343 0.309545
1.000000 0.486641 0.317174
1.000000 0.486336 0.324804
1.000000 0.486427 0.332647
1.000000 0.486915 0.340612
1.000000 0.487953 0.348882
1.000000 0.489174 0.357244
0.151034 0.463416 0.150973
0.154147 0.463386 0.150942
0.164096 0.463355 0.150546
0.183932 0.463233 0.151186
0.210117 0.463111 0.151125
0.240757 0.462806 0.151522
0.275029 0.463142 0.151339
0.312413 0.465583 0.152041
0.351659 0.468574 0.153140
0.392889 0.472084 0.154330
0.436133 0.476081 0.155795
0.481025 0.481025 0.157717
0.532982 0.491157 0.160250
0.582177 0.497993 0.166476
0.632471 0.507469 0.185763
0.683040 0.517540 0.206180
0.731106 0.526543 0.228946
0.776699 0.534844 0.251011
0.819242 0.542290 0.273411
0.858549 0.549126 0.295109
0.889281 0.545373 0.300572
0.917937 0.541527 0.305913
0.945312 0.537896 0.311559
0.971496 0.534874 0.317937
0.996429 0.532158 0.324407
1.000000 0.529686 0.331029
1.000000 0.527489 0.337804
1.000000 0.525933 0.344701
1.000000 0.524773 0.352087
1.000000 0.523888 0.359380
1.000000 0.523583 0.366857
1.000000 0.523552 0.374365
0.156466 0.499977 0.156191
0.158083 0.499977 0.156161
0.169070 0.499702 0.156527
0.187686 0.499611 0.156161
0.212558 0.499275 0.156466
0.242069 0.498909 0.156771
0.275059 0.498604 0.156832
0.311376 0.500420 0.157595
0.349889 0.503807 0.158816
0.390509 0.507713 0.160098
0.433204 0.512566 0.161074
0.477821 0.518059 0.162783
0.524224 0.524193 0.164797
0.572320 0.530755 0.167300
0.622675 0.538170 0.170809
0.673121 0.547936 0.191989
0.721370 0.556451 0.213779
0.766659 0.563836 0.238407
0.809110 0.570367 0.262242
0.848356 0.576226 0.285893
0.884550 0.581537 0.308904
0.916777 0.584283 0.327184
0.943694 0.579706 0.332433
0.969512 0.575616 0.337865
0.994171 0.571832 0.343786
1.000000 0.568536 0.349981
1.000000 0.565545 0.356451
1.000000 0.562921 0.362951
1.000000 0.560815 0.369512
1.000000 0.559167 0.376562
1.000000 0.557794 0.383551
1.000000 0.556970 0.390875
0.160494 0.535332 0.160708
0.162509 0.535302 0.160708
0.173037 0.535180 0.160769
0.190494 0.534936 0.160739
0.214725 0.534661 0.160861
0.243137 0.534325 0.161135
0.275395 0.534081 0.161044
0.309697 0.534295 0.161227
0.347417 0.537469 0.162203
0.386999 0.541405 0.163088
0.428504 0.546044 0.164584
0.471901 0.551446 0.166506
0.517235 0.557488 0.168490
0.563958 0.564019 0.170932
0.612360 0.570916 0.173281
0.662013 0.577874 0.177523
0.710079 0.585626 0.198672
0.755581 0.592493 0.222446
0.798306 0.598383 0.248142
0.837766 0.603388 0.273838
0.874357 0.607813 0.298680
0.908507 0.612299 0.322881
0.940276 0.617060 0.346746
0.967742 0.616815 0.360479
0.992035 0.612146 0.365728
1.000000 0.608026 0.371435
1.000000 0.604089 0.377111
1.000000 0.600641 0.383246
1.000000 0.597589 0.389471
1.000000 0.595026 0.395850
1.000000 0.592889 0.402594
1.000000 0.591150 0.409400
0.164218 0.570855 0.164492
0.166812 0.570794 0.164492
0.175357 0.570733 0.164370
0.192508 0.570428 0.164218
0.216342 0.570031 0.164248
0.244175 0.569574 0.164462
0.275242 0.569238 0.164492
0.308751 0.568963 0.164736
0.345098 0.570855 0.165072
0.384009 0.574701 0.166201
0.424475 0.579248 0.167727
0.467048 0.584527 0.169467
0.510765 0.590326 0.171420
0.556237 0.596521 0.174075
0.602899 0.602869 0.176486
0.650416 0.609125 0.180179
0.698207 0.614801 0.185763
0.743740 0.620600 0.206241
0.786831 0.625971 0.232181
0.826963 0.630365 0.258701
0.864042 0.634211 0.285679
0.898863 0.638056 0.311559
0.931304 0.641962 0.336980
0.961334 0.646082 0.361852
0.988952 0.650446 0.386175
1.000000 0.647395 0.395026
1.000000 0.642756 0.400214
1.000000 0.638605 0.405890
1.000000 0.634821 0.411688
1.000000 0.631525 0.417731
1.000000 0.628717 0.424140
1.000000 0.626215 0.430579
0.167422 0.605615 0.167514
0.169589 0.605676 0.167422
0.178775 0.605585 0.167483
0.194400 0.605463 0.167239
0.217746 0.605158 0.167422
0.244846 0.604883 0.167514
0.275425 0.604730 0.167453
0.308598 0.604517 0.167636
0.343450 0.604791 0.168215
0.381445 0.608362 0.169162
0.421057 0.612360 0.171054
0.462135 0.616907 0.173037
0.504509 0.621881 0.175265
0.548089 0.627161 0.177951
0.592584 0.632624 0.180819
0.638117 0.638239 0.184604
0.684932 0.644007 0.188540
0.730861 0.648707 0.195315
0.774014 0.652644 0.214725
0.814786 0.656764 0.242527
0.853056 0.660304 0.269291
0.888701 0.663661 0.297795
0.921965 0.667048 0.325109
0.952850 0.670436 0.351415
0.981231 0.673976 0.377386
1.000000 0.677913 0.402747
1.000000 0.681636 0.426337
1.000000 0.676661 0.431281
1.000000 0.672206 0.436408
1.000000 0.668147 0.441810
1.000000 0.664393 0.447425
1.000000 0.661036 0.453193
0.170809 0.638636 0.170932
0.173648 0.638575 0.170932
0.181613 0.638514 0.170993
0.197452 0.638361 0.170932
0.219150 0.638178 0.171054
0.245731 0.637934 0.170809
0.275395 0.637690 0.171206
0.307988 0.637476 0.171450
0.341894 0.637232 0.171603
0.377905 0.639063 0.172732
0.416602 0.642695 0.174563
0.456458 0.646784 0.176608
0.497475 0.651209 0.179110
0.539452 0.655879 0.182162
0.582452 0.660822 0.185641
0.626398 0.665888 0.189456
0.670985 0.671138 0.193759
0.716579 0.676478 0.198856
0.761196 0.680629 0.206638
0.802182 0.682826 0.224857
0.841306 0.686366 0.253605
0.878233 0.689296 0.281621
0.912383 0.692164 0.310643
0.943999 0.694911 0.339178
0.973144 0.697719 0.366583
0.999878 0.700801 0.393469
1.000000 0.704219 0.419745
1.000000 0.708095 0.445319
1.000000 0.709255 0.463478
1.000000 0.704494 0.468208
1.000000 0.700069 0.473182
1.000000 0.695979 0.478248
0.176852 0.669978 0.176089
0.177859 0.670008 0.176211
0.187686 0.674342 0.177493
0.202060 0.674250 0.177432
0.223331 0.674037 0.177432
0.248783 0.673762 0.177737
0.277745 0.673426 0.177890
0.309514 0.673030 0.177798
0.342504 0.672755 0.178042
0.377386 0.672572 0.178347
0.414923 0.675746 0.180545
0.453773 0.679255 0.183261
0.493446 0.683101 0.186038
0.534295 0.687068 0.189273
0.575769 0.691249 0.193118
0.617975 0.695583 0.197421
0.660975 0.699977 0.201877
0.704524 0.704524 0.206973
0.748592 0.709224 0.212863
0.792111 0.712978 0.220768
0.831357 0.713771 0.237247
0.868803 0.716548 0.267399
0.903868 0.718746 0.296269
0.936187 0.720668 0.325780
0.965789 0.722530 0.355230
0.992981 0.724544 0.383429
1.000000 0.726894 0.410620
1.000000 0.729641 0.437324
1.000000 0.732906 0.463325
1.000000 0.736751 0.488899
1.000000 0.735256 0.501061
1.000000 0.730465 0.505364
0.182650 0.700771 0.182986
0.184665 0.701167 0.182895
0.192111 0.701534 0.183200
0.206241 0.701778 0.183169
0.225956 0.701869 0.183566
0.250278 0.701747 0.183597
0.278508 0.701472 0.183749
0.308873 0.701137 0.183688
0.340856 0.700740 0.183902
0.374456 0.700343 0.184146
0.409796 0.701778 0.185306
0.447303 0.704921 0.188205
0.485878 0.708339 0.191226
0.525292 0.711971 0.194766
0.565393 0.715877 0.198734
0.606348 0.719875 0.203037
0.647913 0.724025 0.208011
0.689998 0.728328 0.213443
0.732753 0.732784 0.219486
0.775967 0.737331 0.225986
0.818753 0.741238 0.234470
0.856718 0.741329 0.248356
0.892668 0.743465 0.279911
0.926055 0.745022 0.310033
0.956817 0.746242 0.339239
0.984863 0.747585 0.369635
1.000000 0.749081 0.398718
1.000000 0.750912 0.426917
1.000000 0.753170 0.454108
1.000000 0.755886 0.480568
1.000000 0.759182 0.506401
1.000000 0.762783 0.531121
0.188785 0.728664 0.188998
0.190921 0.729061 0.189090
0.197910 0.729458 0.189181
0.210666 0.729702 0.189425
0.229313 0.729854 0.189609
0.252811 0.729732 0.189975
0.279362 0.729519 0.189639
0.308721 0.729183 0.190097
0.339940 0.728756 0.190219
0.372259 0.728389 0.190249
0.405707 0.727993 0.190616
0.442145 0.730861 0.193362
0.479591 0.733913 0.196506
0.517876 0.737301 0.199985
0.556847 0.740749 0.204440
0.596429 0.744472 0.208865
0.636805 0.748257 0.214115
0.677516 0.752193 0.219425
0.718776 0.756283 0.225620
0.760464 0.760525 0.232456
0.802640 0.764767 0.240146
0.844633 0.768795 0.248783
0.881102 0.768307 0.263218
0.915465 0.769284 0.293217
0.947173 0.770199 0.324193
0.976410 0.770871 0.353918
1.000000 0.771572 0.384497
1.000000 0.772549 0.414282
1.000000 0.773861 0.443214
1.000000 0.775570 0.470863
1.000000 0.777737 0.497841
1.000000 0.780240 0.523400
0.195193 0.756313 0.195163
0.197147 0.756619 0.195438
0.203281 0.756954 0.195438
0.215427 0.757168 0.195834
0.233127 0.757290 0.196048
0.255344 0.757198 0.195956
0.280766 0.757015 0.195956
0.308965 0.756680 0.196109
0.339025 0.756374 0.196384
0.370733 0.755978 0.196597
0.403357 0.755581 0.196872
0.437781 0.756588 0.198734
0.474128 0.759396 0.201724
0.511223 0.762356 0.205539
0.549310 0.765560 0.210178
0.587793 0.768917 0.214847
0.626856 0.772488 0.220371
0.666621 0.776211 0.226139
0.706752 0.780117 0.232700
0.747372 0.784207 0.239780
0.788327 0.788357 0.247745
0.829618 0.792508 0.256504
0.870909 0.796658 0.265599
0.906157 0.795743 0.281102
0.938903 0.795712 0.309087
0.969055 0.796048 0.341253
0.996582 0.796078 0.372015
1.000000 0.796201 0.402808
1.000000 0.796628 0.433600
1.000000 0.797360 0.463020
1.000000 0.798428 0.491249
1.000000 0.799893 0.518120
0.203281 0.785611 0.203128
0.204868 0.785733 0.203372
0.210666 0.785794 0.203494
0.221653 0.785794 0.203403
0.238315 0.785702 0.203372
0.258854 0.785458 0.203586
0.283421 0.785183 0.203677
0.310399 0.784878 0.203861
0.339696 0.784512 0.203647
0.370428 0.784207 0.203983
0.402136 0.783810 0.204440
0.434668 0.783444 0.204685
0.470039 0.785794 0.208042
0.506401 0.788357 0.212131
0.543236 0.791196 0.216617
0.580774 0.794186 0.221622
0.618769 0.797299 0.227176
0.657191 0.800534 0.233341
0.696071 0.803952 0.239994
0.735286 0.807431 0.247166
0.774899 0.811002 0.255070
0.814603 0.814603 0.263706
0.854459 0.818204 0.272801
0.894285 0.821744 0.282628
0.928435 0.820615 0.297826
0.959594 0.819486 0.323125
0.988128 0.819150 0.356176
1.000000 0.818601 0.387732
1.000000 0.818051 0.418555
1.000000 0.817838 0.449775
1.000000 0.817899 0.479561
1.000000 0.818265 0.508019
0.210483 0.812131 0.210422
0.211978 0.812222 0.210575
0.217411 0.812314 0.210788
0.227848 0.812314 0.210697
0.243137 0.812192 0.210697
0.262882 0.812039 0.210880
0.286076 0.811765 0.210849
0.312139 0.811490 0.210910
0.340185 0.811215 0.211063
0.370062 0.810910 0.211307
0.400824 0.810575 0.211490
0.432715 0.810208 0.211795
0.466011 0.810910 0.213535
0.501457 0.813260 0.217655
0.537377 0.815763 0.222629
0.573968 0.818418 0.227848
0.611048 0.821256 0.233646
0.648493 0.824155 0.240085
0.686244 0.827207 0.246769
0.724392 0.830289 0.254246
0.762753 0.833524 0.262486
0.801297 0.836728 0.271031
0.839994 0.839933 0.280400
0.878599 0.843137 0.290196
0.916075 0.845274 0.299260
0.949310 0.844114 0.314214
0.979065 0.841917 0.336797
1.000000 0.840940 0.370642
1.000000 0.839719 0.402899
1.000000 0.838499 0.433875
1.000000 0.837583 0.465461
1.000000 0.836942 0.495613
0.218662 0.839506 0.218784
0.220462 0.839689 0.219211
0.225193 0.839719 0.219181
0.235203 0.839628 0.219211
0.249241 0.839414 0.219059
0.268009 0.839109 0.218875
0.289860 0.838682 0.219028
0.314336 0.838285 0.218906
0.341527 0.837797 0.218753
0.370092 0.837369 0.218784
0.399908 0.836851 0.218814
0.430884 0.836362 0.218875
0.462440 0.835843 0.219150
0.496620 0.837491 0.223026
0.531701 0.839506 0.227665
0.567193 0.841672 0.232944
0.603174 0.843992 0.238773
0.639643 0.846494 0.245060
0.676356 0.849119 0.252049
0.713527 0.851865 0.259678
0.750759 0.854734 0.267918
0.788296 0.857572 0.276768
0.825711 0.860410 0.285954
0.863127 0.863127 0.295750
0.900328 0.865721 0.306004
0.937407 0.868254 0.316808
0.969635 0.866972 0.331304
0.997833 0.863645 0.350866
1.000000 0.861814 0.385107
1.000000 0.859831 0.418006
1.000000 0.857847 0.449561
1.000000 0.856138 0.480903
0.225681 0.864530 0.226017
0.227543 0.864652 0.226200
0.231998 0.864775 0.226383
0.241001 0.864714 0.226352
0.254459 0.864622 0.226261
0.271885 0.864439 0.226352
0.293004 0.864195 0.226474
0.316869 0.863951 0.226474
0.342901 0.863676 0.226413
0.370733 0.863401 0.226596
0.399817 0.863035 0.226780
0.429999 0.862669 0.227146
0.460914 0.862211 0.227512
0.493294 0.862516 0.229313
0.527489 0.864195 0.234043
0.562158 0.865995 0.239414
0.597314 0.867918 0.245365
0.632776 0.869993 0.251713
0.668605 0.872221 0.258854
0.704738 0.874540 0.266575
0.741054 0.876951 0.274998
0.777523 0.879423 0.283757
0.813901 0.881834 0.293156
0.850278 0.884184 0.303014
0.886503 0.886473 0.313390
0.922484 0.888640 0.324346
0.958190 0.890776 0.335576
0.989624 0.889494 0.350103
1.000000 0.885161 0.366491
1.000000 0.882475 0.401648
1.000000 0.879637 0.435309
1.000000 0.876616 0.466987
0.234348 0.890074 0.234257
0.235447 0.890135 0.234379
0.239902 0.890166 0.234409
0.248203 0.890105 0.234501
0.260563 0.889982 0.234440
0.277165 0.889799 0.234562
0.297154 0.889586 0.234348
0.319829 0.889342 0.234257
0.344854 0.889036 0.234379
0.371771 0.888731 0.234592
0.400122 0.888396 0.234775
0.429419 0.888029 0.234958
0.459571 0.887633 0.235203
0.490272 0.887144 0.235355
0.523552 0.888243 0.239780
0.557336 0.889738 0.245060
0.591699 0.891325 0.251225
0.626429 0.893034 0.257572
0.661311 0.894865 0.264927
0.696529 0.896788 0.272557
0.731930 0.898772 0.280980
0.767391 0.900786 0.289952
0.802762 0.902770 0.299260
0.838163 0.904692 0.309209
0.873350 0.906523 0.319646
0.908293 0.908293 0.330236
0.942992 0.909972 0.341558
0.977325 0.911559 0.353246
1.000000 0.910307 0.367590
1.000000 0.905272 0.383856
1.000000 0.901152 0.416236
1.000000 0.897093 0.449744
0.242222 0.914733 0.242344
0.243168 0.914824 0.242374
0.247257 0.914824 0.242374
0.255192 0.914824 0.242527
0.266972 0.914763 0.242649
0.282811 0.914733 0.242741
0.301915 0.914733 0.242893
0.324041 0.914763 0.243442
0.348394 0.914794 0.244053
0.374578 0.914824 0.244602
0.402228 0.914855 0.245335
0.431006 0.914794 0.246098
0.460700 0.914672 0.246738
0.490822 0.914458 0.247349
0.522271 0.914641 0.249546
0.555566 0.915892 0.255222
0.589136 0.917144 0.261418
0.623102 0.918486 0.268101
0.657221 0.919890 0.275486
0.691646 0.921416 0.283391
0.726101 0.922911 0.291905
0.760647 0.924468 0.300999
0.795041 0.925933 0.310399
0.829435 0.927367 0.320378
0.863554 0.928679 0.330694
0.897459 0.929961 0.341436
0.931090 0.931121 0.352605
0.964355 0.932189 0.364355
0.997101 0.933074 0.376257
1.000000 0.931518 0.389899
1.000000 0.925231 0.405463
1.000000 0.919585 0.434546
0.254459 0.941070 0.254337
0.255100 0.941070 0.254337
0.258854 0.941039 0.254307
0.265995 0.940948 0.254307
0.276799 0.940856 0.254276
0.291417 0.940703 0.254276
0.309178 0.940581 0.254337
0.329931 0.940398 0.254429
0.352697 0.940246 0.254704
0.377783 0.940063 0.254917
0.404181 0.939849 0.255375
0.431891 0.939605 0.255680
0.460487 0.939330 0.256168
0.489906 0.938994 0.256504
