20 Preset/Japan Style/【3】LUT video cho PR-AE-FCPX/LUT VIDEO/Japan Style LUT (22).cube
# Created by Adobe Lightroom plugin Export LUT (1.24.0)
# www.johnrellis.com/lightroom/exportlut.htm
# Preset: 22日系室外山涧（素材江湖）
# Color profile: C:\Program Files (x86)\Common Files\Adobe\Color\Profiles\Recommended\VideoHD.icc
LUT_3D_SIZE 5
DOMAIN_MIN 0.000000 0.000000 0.000000
DOMAIN_MAX 0.903226 0.903226 0.903226
0.091341 0.095827 0.110750
0.208835 0.078004 0.104585
0.699062 0.000000 0.089479
1.000000 0.000000 0.120821
1.000000 0.388861 0.270787
0.000000 0.276493 0.127230
0.264347 0.316594 0.091524
0.774929 0.359991 0.000000
1.000000 0.384924 0.077028
1.000000 0.491768 0.284459
0.000000 0.708186 0.361669
0.000000 0.701259 0.317998
0.731746 0.738277 0.360510
0.992676 0.735927 0.327062
1.000000 0.736019 0.368750
0.443580 0.869322 0.628016
0.475959 0.867430 0.619257
0.625147 0.856046 0.627588
0.874418 0.877256 0.669886
1.000000 0.889036 0.714412
0.770871 0.945190 0.843290
0.777310 0.945006 0.842802
0.798489 0.943359 0.839231
0.866178 0.943511 0.864652
0.951751 0.960906 0.892546
0.063081 0.096925 0.143709
0.164401 0.063630 0.156558
0.655177 0.000000 0.231876
0.984527 0.000000 0.250401
1.000000 0.365545 0.347387
0.000000 0.242344 0.231357
0.269230 0.273930 0.250797
0.748806 0.285710 0.231937
0.988647 0.341619 0.256382
1.000000 0.469825 0.359319
0.000000 0.701747 0.446571
0.194339 0.698634 0.434730
0.725399 0.723720 0.443061
0.979644 0.725154 0.407446
1.000000 0.724910 0.437964
0.501671 0.866758 0.666835
0.527886 0.865049 0.658167
0.643000 0.855375 0.652827
0.873991 0.874998 0.694942
1.000000 0.887785 0.732479
0.778103 0.944640 0.850950
0.784115 0.944427 0.850217
0.808438 0.944030 0.849607
0.869017 0.943511 0.870817
0.952941 0.961486 0.897917
0.000000 0.105684 0.414313
0.000000 0.062715 0.448524
0.668513 0.000000 0.501152
0.958343 0.000000 0.539574
1.000000 0.372442 0.593835
0.000000 0.120394 0.493629
0.000000 0.086336 0.529107
0.749020 0.000000 0.567529
0.939788 0.322454 0.571130
1.000000 0.406592 0.567407
0.000000 0.667231 0.627008
0.000000 0.683314 0.637385
0.746304 0.698695 0.683986
0.939635 0.688075 0.621637
1.000000 0.677424 0.616571
0.386969 0.866209 0.714504
0.514092 0.862516 0.726436
0.717494 0.855009 0.751797
0.875273 0.868284 0.774075
0.996643 0.880522 0.783047
0.748226 0.945830 0.856168
0.776211 0.944518 0.863767
0.827085 0.942840 0.873899
0.873350 0.942290 0.883238
0.954376 0.960418 0.909209
0.000000 0.122560 0.730831
0.000000 0.114321 0.736110
0.515373 0.000000 0.804776
0.984741 0.000000 0.793576
1.000000 0.311376 0.756497
0.000000 0.092470 0.759060
0.000000 0.000000 0.774228
0.575250 0.000000 0.823880
0.993500 0.000000 0.805936
1.000000 0.431952 0.765805
0.000000 0.421393 0.773831
0.000000 0.418036 0.777493
0.492287 0.432685 0.828183
0.940764 0.599756 0.824186
1.000000 0.665492 0.803738
0.000000 0.855161 0.827237
0.000000 0.854551 0.828641
0.613642 0.854246 0.839200
0.887999 0.859037 0.869963
0.980652 0.848173 0.839689
0.546044 0.955840 0.859678
0.603754 0.953613 0.864012
0.760464 0.947143 0.882902
0.889769 0.944640 0.911955
0.958556 0.959747 0.930632
0.000000 0.154086 0.930724
0.000000 0.154086 0.930724
0.000000 0.000000 0.940398
0.847837 0.000000 0.959503
1.000000 0.000000 0.935271
0.000000 0.154269 0.931609
0.000000 0.154482 0.931914
0.000000 0.000000 0.942077
0.860502 0.000000 0.959686
1.000000 0.000000 0.933806
0.000000 0.158267 0.945098
0.000000 0.127871 0.945159
0.000000 0.000000 0.950713
0.838499 0.000000 0.959930
1.000000 0.000000 0.930816
0.000000 0.648493 0.921324
0.000000 0.637079 0.920348
0.000000 0.592157 0.920134
0.694636 0.594446 0.936156
0.995270 0.782834 0.929503
0.000000 0.965881 0.930632
0.000000 0.963622 0.930602
0.000000 0.950744 0.930571
0.788571 0.938720 0.935637
0.962432 0.950866 0.958892
