20 Preset/Japan Style/【3】LUT video cho PR-AE-FCPX/LUT VIDEO/Japan Style LUT (4).cube
# Created by Adobe Lightroom plugin Export LUT (1.24.0)
# www.johnrellis.com/lightroom/exportlut.htm
# Preset: 04日系基础色（素材江湖）
# Color profile: C:\Program Files (x86)\Common Files\Adobe\Color\Profiles\Recommended\VideoHD.icc
LUT_3D_SIZE 8
DOMAIN_MIN 0.000000 0.000000 0.000000
DOMAIN_MAX 0.903226 0.903226 0.903226
0.000000 0.000000 0.000000
0.212894 0.074006 0.039033
0.414008 0.152834 0.117403
0.608789 0.211521 0.148226
0.797604 0.269535 0.179873
0.932677 0.326238 0.228702
1.000000 0.374762 0.279545
1.000000 0.428809 0.345464
0.013672 0.194766 0.116152
0.220798 0.203128 0.089326
0.429206 0.229923 0.105074
0.628779 0.267460 0.141268
0.816495 0.312474 0.178042
0.945830 0.356451 0.232029
1.000000 0.396185 0.284672
1.000000 0.444709 0.351415
0.092012 0.336156 0.212528
0.200961 0.338567 0.208011
0.407996 0.366644 0.192813
0.618982 0.391485 0.170138
0.811002 0.418402 0.145846
0.938201 0.432654 0.216495
1.000000 0.447761 0.273167
1.000000 0.479957 0.344182
0.150576 0.473121 0.298772
0.222629 0.475166 0.296941
0.391089 0.491005 0.292393
0.597223 0.517815 0.282261
0.787839 0.533318 0.268040
0.920775 0.532250 0.259861
1.000000 0.531456 0.261051
1.000000 0.546715 0.344488
0.239506 0.604334 0.377996
0.280919 0.604974 0.376196
0.405280 0.610193 0.370672
0.587579 0.637598 0.370428
0.776699 0.658686 0.374273
0.910399 0.651667 0.375036
1.000000 0.641260 0.365484
1.000000 0.630701 0.350988
0.334051 0.717830 0.446937
0.355779 0.715236 0.443610
0.441444 0.714961 0.438392
0.584009 0.730831 0.442420
0.753292 0.754330 0.451148
0.892851 0.755337 0.461982
0.998810 0.743130 0.459327
1.000000 0.729397 0.444312
0.447547 0.813382 0.519982
0.460578 0.812802 0.518303
0.515007 0.813107 0.514794
0.615198 0.819486 0.516625
0.752163 0.838254 0.533867
0.895689 0.856687 0.550500
0.993805 0.845090 0.558648
1.000000 0.828305 0.550408
0.579431 0.911986 0.608240
0.587793 0.912078 0.607752
0.621363 0.912139 0.604730
0.684413 0.912902 0.600397
0.794186 0.928313 0.622705
0.903349 0.937194 0.633509
1.000000 0.939910 0.642847
1.000000 0.914763 0.634760
0.000000 0.110628 0.247684
0.168612 0.127565 0.238560
0.409186 0.180301 0.220737
0.613214 0.253239 0.224125
0.809171 0.312230 0.204074
0.945586 0.358099 0.231662
1.000000 0.397223 0.286015
1.000000 0.445502 0.354345
0.000000 0.217533 0.262119
0.170382 0.221042 0.256535
0.400122 0.249943 0.251164
0.615045 0.293523 0.240055
0.812741 0.341985 0.221500
0.948516 0.379828 0.230350
1.000000 0.413764 0.287236
1.000000 0.458747 0.358007
0.011994 0.350011 0.298772
0.186160 0.352636 0.297246
0.391424 0.373877 0.290898
0.608057 0.401587 0.283268
0.809293 0.432074 0.271946
0.943206 0.449165 0.259068
1.000000 0.464271 0.279942
1.000000 0.493568 0.353643
0.113313 0.491432 0.350683
0.207004 0.492470 0.348425
0.386938 0.501335 0.342901
0.603357 0.532555 0.342290
0.798367 0.550317 0.337621
0.929320 0.550530 0.332830
1.000000 0.550011 0.321416
1.000000 0.558343 0.355108
0.237461 0.611414 0.410529
0.279759 0.612543 0.409674
0.402380 0.614679 0.402777
0.588312 0.645258 0.407263
0.779232 0.668116 0.415351
0.912383 0.662745 0.417578
1.000000 0.653773 0.409705
1.000000 0.643183 0.390082
0.335973 0.724269 0.470100
0.360540 0.724025 0.468788
0.445899 0.723476 0.463508
0.585229 0.735836 0.466041
0.753933 0.759152 0.476936
0.892149 0.760678 0.488502
0.997955 0.750362 0.487160
1.000000 0.738094 0.473152
0.459205 0.818479 0.540703
0.473884 0.819089 0.540764
0.526116 0.819577 0.537438
0.620508 0.823850 0.536614
0.754543 0.841733 0.553704
0.896513 0.860777 0.571191
0.994537 0.851194 0.580774
1.000000 0.835904 0.574090
0.587304 0.915923 0.622705
0.594354 0.915435 0.621363
0.627375 0.915618 0.618708
0.687373 0.915465 0.612543
0.789212 0.925780 0.627008
0.900786 0.936584 0.641016
1.000000 0.941100 0.652949
1.000000 0.916655 0.645655
0.000000 0.201694 0.429084
0.000000 0.205966 0.425513
0.308843 0.219303 0.412940
0.533135 0.259464 0.395209
0.752926 0.336736 0.405982
0.904753 0.407568 0.413245
1.000000 0.450843 0.407904
1.000000 0.473518 0.385901
0.000000 0.268894 0.431861
0.000000 0.266850 0.430518
0.312352 0.275242 0.420356
0.536156 0.299107 0.406867
0.756069 0.370855 0.420447
0.906157 0.430396 0.424720
1.000000 0.466651 0.416205
1.000000 0.486763 0.394568
0.000000 0.378973 0.443977
0.000000 0.379522 0.442451
0.314183 0.380377 0.435767
0.533898 0.405737 0.432563
0.749813 0.450965 0.441962
0.900542 0.486976 0.441199
1.000000 0.511925 0.433997
1.000000 0.525566 0.414405
0.000000 0.498177 0.462318
0.000000 0.499184 0.461707
0.335241 0.503685 0.457984
0.545708 0.526513 0.461707
0.749416 0.555505 0.467475
0.891142 0.573022 0.470222
1.000000 0.585046 0.465248
1.000000 0.590723 0.449409
0.181888 0.618982 0.496345
0.236606 0.619867 0.495796
0.373510 0.623255 0.491432
0.548363 0.636988 0.489021
0.745998 0.666743 0.504631
0.884215 0.674281 0.514733
0.994812 0.676905 0.513420
1.000000 0.673671 0.499184
0.317967 0.729244 0.536278
0.346105 0.729061 0.535821
0.437537 0.729244 0.534264
0.563165 0.731228 0.528344
0.733242 0.758206 0.549187
0.873777 0.769039 0.566827
0.980774 0.767330 0.569726
1.000000 0.760739 0.558404
0.470466 0.818997 0.593011
0.483314 0.819547 0.592950
0.532097 0.820584 0.590875
0.613275 0.821012 0.584466
0.742733 0.839231 0.601099
0.882719 0.861112 0.621210
0.981994 0.856962 0.631647
1.000000 0.846159 0.626520
0.588342 0.916930 0.656458
0.596765 0.917357 0.656367
0.628870 0.917693 0.654261
0.685634 0.916808 0.647578
0.781186 0.924712 0.655909
0.892393 0.936004 0.671382
0.999756 0.942870 0.685206
1.000000 0.921355 0.680079
0.000000 0.285893 0.583948
0.000000 0.292424 0.579309
0.000000 0.293431 0.574487
0.449226 0.308507 0.560143
0.663172 0.335546 0.537713
0.850706 0.423011 0.541833
0.971374 0.532952 0.569329
1.000000 0.576837 0.570916
0.000000 0.330541 0.578302
0.000000 0.328374 0.577081
0.000000 0.327031 0.573816
0.447883 0.336065 0.559747
0.659876 0.359899 0.539605
0.848875 0.442206 0.546715
0.969604 0.545434 0.574609
1.000000 0.586084 0.575433
0.000000 0.416693 0.585260
0.000000 0.417029 0.584680
0.156771 0.419135 0.581842
0.459174 0.427039 0.570947
0.657801 0.439643 0.551629
0.838499 0.506950 0.563714
0.957000 0.579889 0.585138
1.000000 0.610803 0.582818
0.000000 0.520226 0.593347
0.000000 0.521447 0.593133
0.223850 0.526146 0.590265
0.470192 0.530724 0.582544
0.665064 0.543267 0.573724
0.830411 0.610010 0.602350
0.955291 0.644251 0.610346
1.000000 0.662562 0.604273
0.000000 0.628992 0.604273
0.000000 0.630243 0.604456
0.295384 0.632959 0.603571
0.486488 0.635920 0.597253
0.678981 0.658839 0.606134
0.828733 0.689174 0.624537
0.951690 0.712551 0.633845
1.000000 0.724178 0.629511
0.233860 0.732021 0.625025
0.270268 0.730220 0.622766
0.390875 0.731411 0.622065
0.539025 0.731991 0.621668
0.684901 0.744594 0.627680
0.836454 0.773068 0.654017
0.951995 0.787137 0.664332
1.000000 0.791470 0.659968
0.426215 0.822568 0.652857
0.444190 0.822263 0.653223
0.510918 0.822110 0.655451
0.605676 0.822263 0.657893
0.709712 0.827756 0.655909
0.854154 0.857145 0.683558
0.962737 0.865324 0.700313
1.000000 0.862425 0.699275
0.561913 0.917601 0.699947
0.573449 0.917693 0.701015
0.617090 0.917906 0.704585
0.674983 0.918517 0.700496
0.756710 0.919982 0.694972
0.874784 0.934630 0.716640
0.985870 0.946044 0.735225
1.000000 0.929046 0.733242
0.000000 0.361273 0.713222
0.000000 0.366247 0.710414
0.000000 0.369238 0.707759
0.301701 0.379675 0.699519
0.578058 0.397864 0.686580
0.778042 0.420081 0.664546
0.914580 0.496559 0.644617
1.000000 0.622126 0.678187
0.000000 0.392584 0.709255
0.000000 0.391180 0.707057
0.000000 0.390875 0.704891
0.312505 0.402167 0.699092
0.579126 0.417182 0.687098
0.776425 0.435676 0.665339
0.912993 0.510735 0.647944
1.000000 0.631739 0.682277
0.000000 0.458381 0.708766
0.000000 0.457893 0.708217
0.000000 0.460945 0.707027
0.348669 0.473884 0.702449
0.585901 0.481971 0.692378
0.774960 0.495125 0.672572
0.908690 0.568200 0.663996
1.000000 0.669947 0.699763
0.000000 0.543694 0.713527
0.000000 0.545251 0.713130
0.000000 0.551934 0.710445
0.389532 0.561547 0.705470
0.594903 0.569207 0.696345
0.764096 0.580987 0.679072
0.902007 0.647395 0.688319
1.000000 0.723415 0.723018
0.000000 0.641718 0.717891
0.000000 0.642298 0.717220
0.164981 0.645380 0.715175
0.436255 0.652796 0.710628
0.618524 0.665766 0.703792
0.760433 0.673060 0.691981
0.910124 0.735225 0.723445
1.000000 0.767025 0.733730
0.000000 0.739132 0.728389
0.145724 0.739528 0.728023
0.334203 0.742367 0.727108
0.499825 0.745815 0.723018
0.646296 0.751064 0.717464
0.786526 0.769039 0.724208
0.921080 0.801968 0.744808
1.000000 0.820584 0.750301
0.308385 0.832334 0.737301
0.337469 0.832761 0.737209
0.428168 0.833433 0.735378
0.552514 0.832853 0.732296
0.680110 0.833829 0.731441
0.813260 0.850828 0.743099
0.941680 0.876524 0.773678
1.000000 0.883970 0.779355
0.454780 0.928283 0.753719
0.472786 0.928283 0.754482
0.538506 0.928252 0.757198
0.634028 0.926482 0.760128
0.738460 0.926757 0.764309
0.844236 0.932738 0.766842
0.965637 0.950256 0.795834
1.000000 0.941588 0.800870
0.000000 0.416052 0.802457
0.000000 0.419165 0.801083
0.000000 0.427253 0.800381
0.000000 0.450874 0.796109
0.458350 0.468452 0.789120
0.674220 0.485603 0.779202
0.858091 0.504509 0.766171
0.978424 0.574731 0.741085
0.000000 0.440192 0.807248
0.000000 0.442786 0.806851
0.000000 0.447364 0.805539
0.000000 0.471260 0.800992
0.467994 0.486305 0.793118
0.678370 0.501030 0.782406
0.859464 0.519615 0.769100
0.979492 0.586725 0.744869
0.000000 0.490364 0.803281
0.000000 0.491432 0.803281
0.000000 0.498085 0.801907
0.173281 0.519677 0.800046
0.487953 0.534356 0.793210
0.682582 0.546777 0.782986
0.854673 0.563561 0.770443
0.976562 0.621241 0.751705
0.000000 0.561730 0.803769
0.000000 0.564294 0.803769
0.000000 0.573327 0.801907
0.273228 0.584924 0.796689
0.520897 0.604822 0.789761
0.689570 0.615259 0.780972
0.846555 0.626825 0.770748
0.974609 0.676936 0.764004
0.000000 0.648615 0.810147
0.000000 0.650019 0.809873
0.000000 0.655329 0.808164
0.362951 0.667170 0.803861
0.568048 0.687251 0.797910
0.711849 0.695613 0.790158
0.853605 0.702144 0.780514
0.987304 0.753475 0.789548
0.000000 0.736446 0.816678
0.000000 0.736507 0.815457
0.234897 0.740902 0.814054
0.440467 0.749264 0.811063
0.597894 0.760006 0.806973
0.732845 0.767880 0.799191
0.863706 0.772183 0.786221
0.997223 0.840146 0.826749
0.125948 0.828244 0.829526
0.189731 0.828214 0.828611
0.328832 0.830533 0.827115
0.474830 0.834592 0.823850
0.614405 0.839750 0.817807
0.753872 0.845121 0.810483
0.900633 0.872984 0.831357
1.000000 0.899290 0.850156
0.232334 0.937530 0.850370
0.271305 0.937835 0.849973
0.380102 0.937896 0.846738
0.512078 0.937102 0.838956
0.659113 0.936309 0.831815
0.806516 0.935760 0.836179
0.931609 0.949340 0.852964
1.000000 0.954650 0.871458
0.000000 0.478920 0.907012
0.000000 0.481453 0.907164
0.000000 0.490486 0.905486
0.000000 0.521080 0.901366
0.373541 0.554833 0.895384
0.599420 0.572747 0.887602
0.776577 0.593835 0.877470
0.933257 0.614679 0.866300
0.000000 0.489601 0.904448
0.000000 0.491951 0.904784
0.000000 0.500816 0.903166
0.000000 0.529442 0.899077
0.380621 0.562127 0.892790
0.599878 0.578393 0.884611
0.774136 0.597528 0.874113
0.929564 0.616724 0.862943
0.000000 0.529961 0.905516
0.000000 0.531853 0.905119
0.000000 0.542229 0.902953
0.000000 0.566033 0.898894
0.423133 0.601678 0.891997
0.616541 0.615229 0.884489
0.780209 0.630945 0.875853
0.931884 0.647028 0.867247
0.000000 0.591485 0.906493
0.000000 0.593927 0.906218
0.000000 0.603021 0.903868
0.000000 0.621790 0.900359
0.473701 0.657465 0.893584
0.644190 0.671992 0.887022
0.790890 0.681575 0.879393
0.935851 0.691157 0.872343
0.000000 0.661891 0.906279
0.000000 0.662867 0.905394
0.000000 0.668421 0.903410
0.153780 0.681849 0.900420
0.496498 0.708522 0.894652
0.666468 0.727687 0.888060
0.800381 0.732479 0.880858
0.945403 0.740414 0.877684
0.000000 0.739132 0.908202
0.000000 0.740383 0.908019
0.000000 0.745541 0.906798
0.305669 0.756497 0.904326
0.521050 0.770748 0.900511
0.686213 0.787747 0.896147
0.819394 0.795529 0.889647
0.958221 0.803494 0.882597
0.000000 0.823178 0.915068
0.000000 0.824338 0.915099
0.199557 0.827878 0.914000
0.407996 0.834562 0.912108
0.565515 0.843259 0.908934
0.708797 0.854154 0.904936
0.845396 0.867674 0.900389
0.973938 0.880369 0.892302
0.000000 0.920775 0.940978
0.000000 0.921447 0.940856
0.246738 0.924346 0.940459
0.421393 0.928649 0.938018
0.574243 0.934508 0.933013
0.722560 0.941375 0.924163
0.873777 0.945708 0.913817
0.993500 0.965087 0.936736
0.000000 0.545129 0.993256
0.000000 0.546502 0.993286
0.000000 0.550896 0.992065
0.000000 0.576867 0.989380
0.328893 0.633326 0.983185
0.565698 0.662287 0.977356
0.723140 0.677943 0.971923
0.866575 0.693294 0.965454
0.000000 0.550439 0.992004
0.000000 0.551781 0.992065
0.000000 0.556146 0.991150
0.000000 0.582391 0.988251
0.333532 0.637263 0.982116
0.568627 0.666743 0.976257
0.723445 0.681117 0.970672
0.865965 0.695583 0.964202
0.000000 0.573480 0.991730
0.000000 0.574395 0.991608
0.000000 0.577966 0.990600
0.000000 0.606989 0.988190
0.360021 0.657679 0.981811
0.584833 0.688594 0.975555
0.730709 0.700313 0.970459
0.869261 0.712551 0.964599
0.000000 0.610040 0.992401
0.000000 0.610925 0.992401
0.000000 0.617517 0.991272
0.000000 0.643458 0.988281
0.385870 0.689235 0.982483
0.610163 0.725154 0.976379
0.743893 0.733516 0.972015
0.877073 0.743343 0.967163
0.000000 0.657984 0.993927
0.000000 0.658198 0.994018
0.000000 0.662409 0.992920
0.000000 0.682612 0.990143
0.376593 0.722560 0.984375
0.623957 0.762112 0.978119
0.757473 0.773129 0.974273
0.888762 0.783139 0.971130
0.000000 0.725978 0.995636
0.000000 0.726833 0.995209
0.000000 0.731075 0.993774
0.000000 0.742367 0.991608
0.325170 0.763149 0.988464
0.612390 0.798184 0.984314
0.780270 0.826383 0.980987
0.906523 0.834897 0.977142
0.000000 0.806058 0.999756
0.000000 0.807187 0.999481
0.000000 0.812253 0.998383
0.000000 0.822934 0.996643
0.415015 0.837766 0.994385
0.622095 0.855955 0.992187
0.797665 0.880583 0.987366
0.926207 0.891417 0.980926
0.000000 0.890929 1.000000
0.000000 0.891783 1.000000
0.000000 0.895415 1.000000
0.265049 0.902586 1.000000
0.493965 0.912596 0.999817
0.666712 0.925780 0.996704
0.824979 0.942870 0.992493
0.954620 0.961120 0.987091
