20 Preset/Japan Style/【3】LUT video cho PR-AE-FCPX/LUT VIDEO/Japan Style LUT (4).cube
# Created by Adobe Lightroom plugin Export LUT (1.24.0)
# www.johnrellis.com/lightroom/exportlut.htm
# Preset: 04日系基础色（素材江湖）
# Color profile: C:\Program Files (x86)\Common Files\Adobe\Color\Profiles\Recommended\VideoHD.icc
LUT_3D_SIZE 32
DOMAIN_MIN 0.0 0.0 0.0
DOMAIN_MAX 1.0 1.0 1.0
0.000000 0.000000 0.000000
0.014862 0.001587 0.002869
0.097658 0.008606 0.005493
0.156741 0.034424 0.016236
0.212894 0.074006 0.039033
0.266697 0.098848 0.069856
0.321233 0.118410 0.089570
0.368444 0.136965 0.103975
0.414008 0.152834 0.117403
0.462348 0.168307 0.126009
0.513024 0.183169 0.133761
0.562066 0.197391 0.141512
0.608789 0.211521 0.148226
0.655268 0.225193 0.156527
0.703304 0.239506 0.163729
0.752163 0.254215 0.171298
0.797604 0.269535 0.179873
0.837644 0.284703 0.191165
0.873320 0.299260 0.203128
0.904479 0.313237 0.216251
0.932677 0.326238 0.228702
0.958648 0.338933 0.241337
0.983185 0.350988 0.253819
1.000000 0.362768 0.266178
1.000000 0.374762 0.279545
1.000000 0.387366 0.294408
1.000000 0.400458 0.310094
1.000000 0.414374 0.327337
1.000000 0.428809 0.345464
1.000000 0.444007 0.364172
1.000000 0.459480 0.383215
1.000000 0.475013 0.402136
0.000000 0.016693 0.005646
0.020203 0.016632 0.002991
0.100374 0.029969 0.008087
0.159274 0.055116 0.016510
0.214664 0.088716 0.040284
0.269474 0.106477 0.067018
0.324407 0.124483 0.091310
0.371649 0.141939 0.105684
0.418341 0.157595 0.117433
0.467567 0.172671 0.126345
0.518761 0.187381 0.133852
0.568048 0.201175 0.141451
0.614679 0.214939 0.149386
0.661585 0.228977 0.156710
0.709834 0.242893 0.164523
0.758633 0.257816 0.172213
0.803250 0.272831 0.181430
0.842802 0.287449 0.192386
0.877897 0.302007 0.204807
0.908812 0.315862 0.217533
0.936858 0.329168 0.230930
0.962860 0.341405 0.243320
0.987396 0.353552 0.255528
1.000000 0.365606 0.268437
1.000000 0.377539 0.282078
1.000000 0.390143 0.296880
1.000000 0.403265 0.313024
1.000000 0.417243 0.330175
1.000000 0.431647 0.348211
1.000000 0.446754 0.366918
1.000000 0.462196 0.385840
1.000000 0.477729 0.404639
0.003693 0.091310 0.029999
0.023682 0.092561 0.030274
0.104097 0.096345 0.017517
0.163027 0.107332 0.012055
0.217594 0.117861 0.033845
0.272129 0.130892 0.060243
0.326970 0.144533 0.089693
0.374151 0.158541 0.104799
0.421424 0.172305 0.115572
0.471199 0.185183 0.124697
0.522728 0.198856 0.133425
0.572076 0.211398 0.140597
0.618830 0.224491 0.148867
0.665827 0.237888 0.155917
0.714778 0.251286 0.163790
0.763241 0.265873 0.172274
0.807462 0.280156 0.181064
0.846342 0.294255 0.192691
0.881102 0.308080 0.205447
0.911620 0.321386 0.218448
0.939361 0.334142 0.231174
0.965026 0.346075 0.243687
0.989441 0.357702 0.256138
1.000000 0.369268 0.269169
1.000000 0.381201 0.283238
1.000000 0.393500 0.298100
1.000000 0.406714 0.314305
1.000000 0.420264 0.331304
1.000000 0.434699 0.349706
1.000000 0.449653 0.368444
1.000000 0.464881 0.387274
1.000000 0.480385 0.406287
0.000000 0.146670 0.079042
0.024170 0.147463 0.072877
0.109285 0.148928 0.059083
0.165805 0.152071 0.040192
0.220523 0.158389 0.023713
0.275669 0.166873 0.046784
0.328771 0.176822 0.079713
0.375341 0.186465 0.101411
0.423560 0.196567 0.112551
0.474037 0.207614 0.121523
0.526146 0.219364 0.130129
0.575097 0.230503 0.138003
0.622583 0.241886 0.145968
0.670192 0.254154 0.153628
0.719661 0.266758 0.161593
0.768521 0.280430 0.169894
0.812467 0.293462 0.180819
0.851286 0.306767 0.192874
0.885893 0.319921 0.206241
0.916320 0.332250 0.219486
0.943999 0.343664 0.232761
0.969543 0.354986 0.245304
0.993530 0.365881 0.258152
1.000000 0.376715 0.271092
1.000000 0.387793 0.284520
1.000000 0.399420 0.299046
1.000000 0.411933 0.315221
1.000000 0.424994 0.332311
1.000000 0.438788 0.350530
1.000000 0.453223 0.368994
1.000000 0.468391 0.388342
1.000000 0.483742 0.407294
0.013672 0.194766 0.116152
0.044831 0.194766 0.114473
0.111879 0.195926 0.112245
0.163516 0.198154 0.103487
0.220798 0.203128 0.089326
0.280125 0.210422 0.056886
0.332738 0.216495 0.060487
0.379858 0.222324 0.091951
0.429206 0.229923 0.105074
0.480964 0.238895 0.116060
0.532677 0.248508 0.124392
0.581537 0.257816 0.132418
0.628779 0.267460 0.141268
0.676692 0.277836 0.150088
0.726040 0.289067 0.158022
0.773495 0.301366 0.167758
0.816495 0.312474 0.178042
0.854337 0.324010 0.191409
0.888121 0.335180 0.204623
0.918303 0.345861 0.218753
0.945830 0.356451 0.232029
0.971252 0.366308 0.245182
0.994995 0.376135 0.257816
1.000000 0.385779 0.270756
1.000000 0.396185 0.284672
1.000000 0.407111 0.299290
1.000000 0.418799 0.315984
1.000000 0.431342 0.332860
1.000000 0.444709 0.351415
1.000000 0.458808 0.370275
1.000000 0.473548 0.389349
1.000000 0.488655 0.408667
0.038605 0.233860 0.144350
0.061402 0.234073 0.142855
0.113649 0.234379 0.141878
0.160189 0.236973 0.136324
0.212833 0.240757 0.127962
0.273869 0.251102 0.118685
0.330297 0.256931 0.105165
0.380865 0.260624 0.092439
0.431189 0.266606 0.093507
0.483467 0.274205 0.104219
0.534569 0.281743 0.114900
0.583154 0.289189 0.124269
0.630457 0.297124 0.133730
0.678462 0.306004 0.142977
0.727687 0.315923 0.151827
0.774685 0.325780 0.161959
0.816648 0.335271 0.173251
0.854276 0.344701 0.186679
0.887694 0.353735 0.201877
0.917693 0.362646 0.216068
0.945190 0.371435 0.229648
0.970459 0.380041 0.242741
0.973114 0.378119 0.244877
0.997467 0.387121 0.258335
1.000000 0.396216 0.271916
1.000000 0.406134 0.286778
1.000000 0.416815 0.302708
1.000000 0.428412 0.320073
1.000000 0.440925 0.338354
1.000000 0.454505 0.357794
1.000000 0.468849 0.377447
1.000000 0.484169 0.398108
0.044770 0.264530 0.163943
0.068757 0.264591 0.163638
0.111452 0.264805 0.162173
0.154635 0.266728 0.158877
0.202152 0.270390 0.154971
0.254582 0.275364 0.147890
0.311467 0.284276 0.141787
0.366094 0.290806 0.132174
0.416938 0.296025 0.122744
0.469215 0.302434 0.112703
0.520226 0.309758 0.102663
0.567895 0.316350 0.108858
0.614710 0.322972 0.119783
0.662440 0.330602 0.130159
0.711940 0.339178 0.140780
0.760616 0.348272 0.150393
0.804349 0.356359 0.162905
0.843198 0.364202 0.177676
0.877379 0.371801 0.193362
0.907591 0.378851 0.208255
0.934569 0.385443 0.222293
0.958831 0.391699 0.234897
0.981567 0.398108 0.247196
1.000000 0.404730 0.259892
1.000000 0.411902 0.273350
1.000000 0.420478 0.288182
1.000000 0.430091 0.304753
1.000000 0.440772 0.322393
1.000000 0.452522 0.340734
1.000000 0.465553 0.360571
1.000000 0.479408 0.381079
1.000000 0.493904 0.401221
0.060914 0.302342 0.186740
0.080140 0.302495 0.186954
0.113863 0.302647 0.186069
0.156008 0.303075 0.183536
0.201053 0.305943 0.181247
0.249973 0.309941 0.176974
0.301488 0.315709 0.172793
0.357519 0.324498 0.168032
0.416083 0.333837 0.161105
0.469398 0.339788 0.153536
0.521691 0.345769 0.146120
0.570428 0.351263 0.138857
0.618647 0.357733 0.132143
0.667933 0.365423 0.123110
0.718166 0.373236 0.127993
0.765957 0.380560 0.141817
0.808835 0.387030 0.156497
0.847074 0.392767 0.171939
0.880766 0.398352 0.189425
0.910613 0.403479 0.204685
0.937285 0.408331 0.220066
0.961547 0.413031 0.233402
0.984314 0.417639 0.246433
1.000000 0.422919 0.259648
1.000000 0.429145 0.273747
1.000000 0.436408 0.288975
1.000000 0.445045 0.305638
1.000000 0.454749 0.323796
1.000000 0.465583 0.342931
1.000000 0.477760 0.363012
1.000000 0.490639 0.383276
1.000000 0.504417 0.403967
0.092012 0.336156 0.212528
0.099245 0.336339 0.212314
0.122469 0.336400 0.211612
0.159182 0.336828 0.210300
0.200961 0.338567 0.208011
0.246799 0.342412 0.206210
0.295232 0.347234 0.202487
0.349371 0.355749 0.199039
0.407996 0.366644 0.192813
0.468269 0.376898 0.187106
0.520134 0.381659 0.181308
0.569940 0.386481 0.175082
0.618982 0.391485 0.170138
0.669001 0.398108 0.164645
0.720119 0.405707 0.157778
0.768032 0.412634 0.151278
0.811002 0.418402 0.145846
0.848661 0.422553 0.165164
0.881895 0.426093 0.183810
0.911559 0.429358 0.200809
0.938201 0.432654 0.216495
0.962554 0.435615 0.230167
0.985412 0.438972 0.244602
1.000000 0.442908 0.258671
1.000000 0.447761 0.273167
1.000000 0.453895 0.288914
1.000000 0.461341 0.306218
1.000000 0.470039 0.324681
1.000000 0.479957 0.344182
1.000000 0.491127 0.364782
1.000000 0.503044 0.385168
1.000000 0.515740 0.405646
0.113344 0.370245 0.239445
0.118990 0.370550 0.239109
0.137270 0.370733 0.239139
0.168887 0.371221 0.237461
0.205142 0.372381 0.235447
0.247898 0.376562 0.234562
0.294957 0.381842 0.231785
0.344793 0.388617 0.228824
0.402716 0.400244 0.225956
0.462440 0.411231 0.220645
0.520500 0.419837 0.215579
0.570397 0.423926 0.211948
0.620935 0.428626 0.207126
0.672053 0.434546 0.202029
0.722499 0.440558 0.195987
0.768612 0.445533 0.191409
0.810178 0.449256 0.187686
0.847745 0.452369 0.183810
0.881285 0.454536 0.179355
0.910887 0.456306 0.194247
0.937926 0.457893 0.211398
0.962829 0.459693 0.227085
0.986664 0.461952 0.241581
1.000000 0.465064 0.257053
1.000000 0.469001 0.272892
1.000000 0.474098 0.289708
1.000000 0.480446 0.307744
1.000000 0.487953 0.326726
1.000000 0.496712 0.346838
1.000000 0.506462 0.367071
1.000000 0.517327 0.387884
1.000000 0.528893 0.408240
0.131472 0.408942 0.265293
0.136110 0.409003 0.264775
0.151644 0.409308 0.264652
0.179995 0.409583 0.263157
0.213565 0.410285 0.261479
0.253300 0.413031 0.260014
0.298283 0.418311 0.258366
0.346349 0.424750 0.256016
0.398108 0.432105 0.253117
0.456825 0.443977 0.250675
0.513207 0.452064 0.246067
0.568994 0.459907 0.242527
0.619654 0.464454 0.238987
0.671717 0.469795 0.234318
0.722683 0.474983 0.228763
0.767971 0.478553 0.224613
0.808774 0.480842 0.221805
0.845945 0.482460 0.218357
0.879362 0.483497 0.215274
0.909789 0.484291 0.212589
0.937865 0.484565 0.209049
0.963043 0.485054 0.222171
0.987091 0.486152 0.238193
1.000000 0.487831 0.254429
1.000000 0.490547 0.271305
1.000000 0.494636 0.288914
1.000000 0.499825 0.307988
1.000000 0.506065 0.327459
1.000000 0.513695 0.347997
1.000000 0.522454 0.368719
1.000000 0.532280 0.389685
1.000000 0.542596 0.410040
0.142336 0.446662 0.285466
0.147890 0.446601 0.285008
0.160800 0.446754 0.284611
0.186923 0.446937 0.283879
0.219669 0.447425 0.282414
0.257267 0.448127 0.280613
0.300816 0.453132 0.278965
0.347753 0.458839 0.277165
0.397406 0.465400 0.274998
0.449622 0.472663 0.272007
0.506340 0.482551 0.270726
0.560418 0.489509 0.267918
0.594079 0.481453 0.256199
0.645014 0.487098 0.252659
0.695674 0.492683 0.248417
0.743496 0.497047 0.244022
0.785977 0.499580 0.241398
0.824613 0.501427 0.237980
0.859220 0.502342 0.235966
0.890806 0.502708 0.232944
0.919890 0.502922 0.230747
0.947204 0.502953 0.227970
0.973663 0.503227 0.225956
0.998169 0.504479 0.243687
1.000000 0.506554 0.261418
1.000000 0.509697 0.280064
1.000000 0.513939 0.299718
1.000000 0.519463 0.320256
1.000000 0.526452 0.342046
1.000000 0.534508 0.363806
1.000000 0.543542 0.385473
1.000000 0.553338 0.406989
0.150576 0.473121 0.298772
0.153475 0.473243 0.298802
0.167147 0.473701 0.298802
0.191470 0.474372 0.298070
0.222629 0.475166 0.296941
0.258244 0.476204 0.295445
0.299413 0.479744 0.294621
0.344091 0.485145 0.293736
0.391089 0.491005 0.292393
0.440314 0.497017 0.290349
0.491920 0.504021 0.287236
0.545220 0.511894 0.286015
0.597223 0.517815 0.282261
0.650996 0.524834 0.277989
0.700343 0.529107 0.273960
0.745754 0.531640 0.271061
0.787839 0.533318 0.268040
0.826383 0.533989 0.265202
0.860472 0.533654 0.263737
0.891814 0.533074 0.261997
0.920775 0.532250 0.259861
0.948089 0.531579 0.258061
0.974670 0.531151 0.255131
1.000000 0.530816 0.250950
1.000000 0.531456 0.261051
1.000000 0.533501 0.280674
1.000000 0.536675 0.301122
1.000000 0.541039 0.322698
1.000000 0.546715 0.344488
1.000000 0.553460 0.366278
1.000000 0.561242 0.388098
1.000000 0.569879 0.409674
0.166567 0.508293 0.318090
0.169314 0.508507 0.318212
0.181735 0.509117 0.318120
0.203586 0.509697 0.317449
0.232731 0.510430 0.316838
0.266148 0.511315 0.315709
0.304631 0.512749 0.314153
0.347845 0.517662 0.313481
0.393317 0.523217 0.312840
0.440772 0.529107 0.311437
0.490242 0.535180 0.309422
0.542748 0.543084 0.307866
0.596521 0.551019 0.306004
0.649256 0.557702 0.302251
0.700832 0.563470 0.299077
0.746487 0.565820 0.297246
0.787381 0.566339 0.295476
0.825101 0.566217 0.293980
0.859800 0.565270 0.291844
0.890990 0.563806 0.290410
0.919829 0.562036 0.289250
0.947295 0.560540 0.287388
0.973999 0.559442 0.284611
0.999756 0.558343 0.281529
1.000000 0.557519 0.277287
1.000000 0.557427 0.280125
1.000000 0.559411 0.301518
1.000000 0.562768 0.323583
1.000000 0.567254 0.346227
1.000000 0.572992 0.368963
1.000000 0.579583 0.390906
1.000000 0.587030 0.412299
0.188510 0.540551 0.337652
0.191012 0.540703 0.337804
0.200778 0.541192 0.337835
0.219730 0.541833 0.337407
0.246159 0.542565 0.336431
0.277379 0.543420 0.335515
0.312261 0.544030 0.333623
0.352117 0.548028 0.333410
0.396124 0.553307 0.333074
0.441810 0.559136 0.332464
0.489509 0.565393 0.330846
0.539574 0.572198 0.328923
0.593896 0.582055 0.328588
0.647364 0.589807 0.326543
0.697292 0.594568 0.323827
0.743893 0.598077 0.323278
0.785855 0.598810 0.321874
0.822538 0.597986 0.321569
0.856687 0.596216 0.320317
0.888487 0.594324 0.319188
0.917876 0.592126 0.317510
0.945525 0.590082 0.316167
0.972381 0.588251 0.314061
0.998169 0.586755 0.311315
1.000000 0.585229 0.307347
1.000000 0.583825 0.303166
1.000000 0.582788 0.302525
1.000000 0.584863 0.325078
1.000000 0.588190 0.348180
1.000000 0.592462 0.370520
1.000000 0.597681 0.392157
1.000000 0.603723 0.413519
0.213962 0.572412 0.358038
0.216098 0.572473 0.357702
0.224094 0.572625 0.357702
0.239414 0.572869 0.356939
0.262608 0.573327 0.356207
0.290105 0.573724 0.354742
0.321477 0.573999 0.353155
0.357244 0.575677 0.351598
0.398566 0.580713 0.351415
0.442237 0.586572 0.351385
0.488716 0.593194 0.350958
0.537530 0.600549 0.349676
0.588647 0.608820 0.348302
0.645167 0.620539 0.350347
0.694148 0.625544 0.349523
0.739681 0.628504 0.349310
0.782528 0.630213 0.349401
0.820310 0.629694 0.349310
0.853666 0.627527 0.349065
0.884916 0.624903 0.348516
0.914611 0.622248 0.346746
0.943236 0.619776 0.344762
0.969909 0.617548 0.343145
0.995697 0.615229 0.340276
1.000000 0.613214 0.337011
1.000000 0.611017 0.332799
1.000000 0.608881 0.328252
1.000000 0.606958 0.325933
1.000000 0.609216 0.349432
1.000000 0.612543 0.372198
1.000000 0.616846 0.394537
1.000000 0.621912 0.416144
0.239506 0.604334 0.377996
0.241550 0.604364 0.377630
0.247776 0.604456 0.377539
0.261418 0.604700 0.376989
0.280919 0.604974 0.376196
0.305486 0.605219 0.374884
0.334508 0.605371 0.372992
0.366949 0.605463 0.370733
0.405280 0.610193 0.370672
0.447303 0.616114 0.370977
0.491890 0.622736 0.370916
0.538567 0.629969 0.370977
0.587579 0.637598 0.370428
0.638148 0.645594 0.370031
0.691310 0.655299 0.374212
0.735286 0.657588 0.374365
0.776699 0.658686 0.374273
0.815061 0.658625 0.375341
0.849760 0.657221 0.375891
0.880705 0.654383 0.375769
0.910399 0.651667 0.375036
0.939147 0.648920 0.373022
0.966735 0.646448 0.371038
0.992889 0.643824 0.368353
1.000000 0.641260 0.365484
1.000000 0.638697 0.361852
1.000000 0.635828 0.357153
1.000000 0.632807 0.351080
1.000000 0.630701 0.350988
1.000000 0.632929 0.373968
1.000000 0.636103 0.396582
1.000000 0.640284 0.418524
0.263005 0.634455 0.395941
0.264042 0.634302 0.395850
0.261784 0.624201 0.388952
0.272953 0.624323 0.388586
0.290471 0.624628 0.387610
0.313024 0.624933 0.386786
0.339300 0.625238 0.385138
0.369146 0.625483 0.382971
0.403510 0.628107 0.381903
0.443305 0.633692 0.382483
0.485237 0.639857 0.383093
0.529259 0.646571 0.383520
0.575494 0.653895 0.383917
0.623774 0.661585 0.384283
0.673365 0.669734 0.384710
0.722591 0.677699 0.390845
0.763699 0.679255 0.391974
0.802274 0.679744 0.392828
0.838346 0.679591 0.394781
0.871763 0.678492 0.395666
0.902190 0.676112 0.395941
0.931334 0.673854 0.395300
0.959350 0.671534 0.393896
0.986419 0.669184 0.391821
1.000000 0.666896 0.389288
1.000000 0.664302 0.386542
1.000000 0.661707 0.383062
1.000000 0.658686 0.377935
1.000000 0.655360 0.371618
1.000000 0.653742 0.376135
1.000000 0.656031 0.398962
1.000000 0.659174 0.421241
0.282963 0.660426 0.411200
0.283207 0.659602 0.410559
0.287419 0.658686 0.409735
0.297368 0.657893 0.408545
0.312108 0.657435 0.407691
0.331853 0.657343 0.406409
0.356420 0.657465 0.405066
0.384161 0.657679 0.403204
0.414740 0.658015 0.401068
0.452369 0.663111 0.402106
0.492073 0.668757 0.403174
0.533959 0.674769 0.404181
0.577966 0.681300 0.405097
0.623499 0.688228 0.405982
0.670344 0.695521 0.407385
0.718288 0.703029 0.409400
0.762509 0.708003 0.415290
0.799710 0.707759 0.416968
0.834989 0.707027 0.417823
0.868193 0.705745 0.419165
0.899443 0.704005 0.419745
0.928405 0.701534 0.419409
0.956268 0.699062 0.418708
0.983154 0.696559 0.417212
1.000000 0.694057 0.414984
1.000000 0.691371 0.412207
1.000000 0.688472 0.408881
1.000000 0.685237 0.404639
1.000000 0.681636 0.398657
1.000000 0.677455 0.390936
1.000000 0.676905 0.402777
1.000000 0.679225 0.425727
0.308202 0.690150 0.429419
0.308202 0.689326 0.428687
0.312261 0.688380 0.427771
0.319799 0.687617 0.426917
0.333165 0.687098 0.425757
0.351415 0.686885 0.424750
0.373327 0.686946 0.423529
0.399115 0.687037 0.421820
0.427466 0.687068 0.419959
0.461219 0.690120 0.419898
0.498909 0.695094 0.421149
0.538750 0.700649 0.422644
0.580194 0.706569 0.424018
0.623499 0.712856 0.425666
0.667933 0.719295 0.427375
0.713375 0.726070 0.428931
0.758816 0.732479 0.433204
0.798672 0.735164 0.438697
0.833005 0.734157 0.440253
0.865690 0.732662 0.441260
0.896605 0.730709 0.442329
0.925658 0.728389 0.442512
0.953307 0.725795 0.442267
0.979919 0.723201 0.441474
1.000000 0.720546 0.439704
1.000000 0.717739 0.437324
1.000000 0.714687 0.434028
1.000000 0.711238 0.429603
1.000000 0.707454 0.424231
1.000000 0.703120 0.417243
1.000000 0.698116 0.408118
1.000000 0.699489 0.430518
0.334051 0.717830 0.446937
0.333928 0.717128 0.446235
0.337102 0.716335 0.445472
0.344244 0.715724 0.444648
0.355779 0.715236 0.443610
0.372015 0.714992 0.442664
0.391882 0.714992 0.441321
0.415290 0.715023 0.440192
0.441444 0.714961 0.438392
0.471290 0.715938 0.437232
0.506950 0.720516 0.438819
0.544518 0.725460 0.440711
0.584009 0.730831 0.442420
0.624689 0.736355 0.444617
0.666987 0.742245 0.446754
0.709834 0.748318 0.448890
0.753292 0.754330 0.451148
0.795651 0.759365 0.456580
0.831449 0.760159 0.461128
0.862974 0.757961 0.461830
0.892851 0.755337 0.461982
0.920897 0.752407 0.462318
0.947509 0.749142 0.461799
0.973663 0.746120 0.460914
0.998810 0.743130 0.459327
1.000000 0.740169 0.457404
1.000000 0.736873 0.454078
1.000000 0.733333 0.449836
1.000000 0.729397 0.444312
1.000000 0.724819 0.436988
1.000000 0.719783 0.428412
1.000000 0.716670 0.430793
0.355413 0.739803 0.460945
0.355901 0.739528 0.460670
0.359106 0.739223 0.460456
0.365576 0.739162 0.459937
0.376410 0.739132 0.459388
0.391211 0.739223 0.458717
0.409491 0.739284 0.457832
0.430732 0.739376 0.456672
0.454688 0.739284 0.454994
0.481361 0.739132 0.453162
0.513817 0.742519 0.454322
0.549279 0.746944 0.456428
0.586511 0.751736 0.458747
0.625025 0.756863 0.461189
0.664973 0.762295 0.463813
0.705867 0.767971 0.466590
0.747463 0.773739 0.469184
0.789487 0.779629 0.471962
0.828946 0.783932 0.479286
0.862058 0.783749 0.483436
0.891783 0.781247 0.484230
0.919768 0.778378 0.484565
0.946136 0.775204 0.484932
0.970977 0.771725 0.484749
0.995727 0.768673 0.483742
1.000000 0.765652 0.482124
1.000000 0.762295 0.479316
1.000000 0.758724 0.475563
1.000000 0.754665 0.470008
1.000000 0.750057 0.463050
1.000000 0.744686 0.453864
1.000000 0.738735 0.443519
0.384527 0.765225 0.479805
0.385016 0.764950 0.479408
0.387671 0.764736 0.479225
0.393256 0.764675 0.478737
0.402502 0.764584 0.478126
0.415290 0.764584 0.477516
0.431525 0.764645 0.476570
0.450629 0.764645 0.475410
0.472572 0.764584 0.473976
0.496651 0.764401 0.472114
0.525139 0.765957 0.472084
0.558343 0.769955 0.474464
0.593378 0.774319 0.477058
0.629969 0.779019 0.479835
0.667445 0.783993 0.482918
0.706081 0.789151 0.486000
0.745541 0.794553 0.489204
0.785428 0.799985 0.492348
0.825803 0.805478 0.495399
0.862089 0.808621 0.504326
0.892149 0.807187 0.507378
0.919402 0.804166 0.507958
0.945220 0.800687 0.507836
0.969329 0.796872 0.507836
0.993866 0.794797 0.510216
1.000000 0.791501 0.508934
1.000000 0.788205 0.506523
1.000000 0.784665 0.503075
1.000000 0.780575 0.497932
1.000000 0.775906 0.491310
1.000000 0.770474 0.482612
1.000000 0.763394 0.470405
0.411719 0.787411 0.496773
0.411872 0.787015 0.496498
0.414008 0.786862 0.496254
0.419440 0.786893 0.495949
0.427832 0.787137 0.495644
0.439612 0.787472 0.495247
0.454261 0.787869 0.495064
0.471778 0.788296 0.494392
0.491951 0.788571 0.493324
0.514061 0.788815 0.491981
0.539025 0.789273 0.490639
0.570550 0.793271 0.493782
0.603754 0.797543 0.497078
0.638514 0.802182 0.500664
0.674495 0.807126 0.504692
0.711391 0.812253 0.508812
0.748989 0.817594 0.512779
0.786984 0.822904 0.516869
0.825101 0.828092 0.520623
0.863188 0.833005 0.524376
0.895903 0.834836 0.533959
0.922789 0.832181 0.535637
0.947692 0.828550 0.535760
0.971252 0.824643 0.535698
0.993530 0.820584 0.535363
1.000000 0.816312 0.534478
1.000000 0.812833 0.533013
1.000000 0.809537 0.530175
1.000000 0.805783 0.525994
1.000000 0.801419 0.520226
1.000000 0.795590 0.511376
1.000000 0.788174 0.499184
0.447547 0.813382 0.519982
0.447517 0.813016 0.519554
0.449287 0.812802 0.519158
0.453620 0.812741 0.518700
0.460578 0.812802 0.518303
0.470405 0.812894 0.517815
0.482673 0.812985 0.517082
0.497658 0.813077 0.516136
0.515007 0.813107 0.514794
0.534630 0.813046 0.513207
0.556420 0.812985 0.511192
0.584192 0.815549 0.513085
0.615198 0.819486 0.516625
0.647852 0.823789 0.520562
0.681727 0.828397 0.524743
0.716548 0.833249 0.529107
0.752163 0.838254 0.533867
0.788113 0.843229 0.538293
0.824216 0.848142 0.542290
0.860410 0.852811 0.545892
0.895689 0.856687 0.550500
0.925383 0.857420 0.559503
0.949432 0.853727 0.559869
0.972229 0.849485 0.559411
0.993805 0.845090 0.558648
1.000000 0.840543 0.557610
1.000000 0.835752 0.555993
1.000000 0.831815 0.553826
1.000000 0.828305 0.550408
1.000000 0.823789 0.544671
1.000000 0.817899 0.536339
1.000000 0.810636 0.524651
0.481636 0.837675 0.542046
0.481666 0.837491 0.541741
0.483406 0.837400 0.541527
0.487251 0.837430 0.541314
0.493202 0.837522 0.541009
0.501762 0.837675 0.540642
0.512657 0.837858 0.539879
0.525872 0.838041 0.539086
0.541375 0.838132 0.537987
0.558953 0.838193 0.536553
0.578668 0.838254 0.534783
0.602228 0.839536 0.534966
0.631189 0.843137 0.538476
0.661494 0.847074 0.542504
0.693385 0.851316 0.547051
0.725978 0.855741 0.551537
0.759365 0.860319 0.556115
0.793179 0.864866 0.560418
0.827146 0.869291 0.564630
0.861265 0.873503 0.568231
0.895384 0.877531 0.571618
0.927398 0.880095 0.576867
0.953826 0.879484 0.584375
0.975860 0.875120 0.583978
0.996765 0.870634 0.583337
1.000000 0.865843 0.582025
1.000000 0.860899 0.580621
1.000000 0.855711 0.578485
1.000000 0.850736 0.574945
1.000000 0.846036 0.569512
1.000000 0.840330 0.561944
1.000000 0.833249 0.551324
0.517754 0.863737 0.566247
0.517845 0.863584 0.566064
0.519219 0.863462 0.565637
0.522454 0.863432 0.565393
0.527459 0.863401 0.565026
0.534447 0.863279 0.564172
0.543175 0.863005 0.563012
0.554009 0.862608 0.561395
0.566705 0.862058 0.559594
0.581353 0.861448 0.557214
0.597955 0.860807 0.554650
0.616907 0.860319 0.552117
0.642939 0.862943 0.554925
0.670558 0.865965 0.557977
0.699672 0.869383 0.561547
0.730190 0.873198 0.565606
0.761501 0.877195 0.569757
0.793454 0.881224 0.573938
0.825559 0.885130 0.577935
0.858000 0.888945 0.581506
0.890440 0.892607 0.584985
0.923064 0.896208 0.587976
0.952300 0.897490 0.593683
0.976379 0.895811 0.599695
0.996887 0.891203 0.599207
1.000000 0.886259 0.597955
1.000000 0.880766 0.595575
1.000000 0.874968 0.592920
1.000000 0.868803 0.589410
1.000000 0.862943 0.584833
1.000000 0.857603 0.578149
1.000000 0.850950 0.568658
0.544244 0.885435 0.583764
0.544640 0.885405 0.583764
0.546136 0.885466 0.583703
0.549187 0.885588 0.583612
0.553979 0.885710 0.583337
0.560601 0.885801 0.582971
0.569177 0.885924 0.582452
0.579553 0.886015 0.581598
0.591760 0.886015 0.580499
0.605921 0.885954 0.579126
0.621820 0.885924 0.577478
0.639460 0.885832 0.575433
0.662715 0.887755 0.577264
0.688716 0.890623 0.580621
