20 Preset/Japan Style/【3】LUT video cho PR-AE-FCPX/LUT VIDEO/Japan Style LUT (11).cube
# Created by Adobe Lightroom plugin Export LUT (1.24.0)
# www.johnrellis.com/lightroom/exportlut.htm
# Preset: 11日系胶片（素材江湖）
# Color profile: C:\Program Files (x86)\Common Files\Adobe\Color\Profiles\Recommended\VideoHD.icc
LUT_3D_SIZE 5
DOMAIN_MIN 0.000000 0.000000 0.000000
DOMAIN_MAX 0.903226 0.903226 0.903226
0.000000 0.000000 0.000000
0.255589 0.000000 0.013001
0.819577 0.176669 0.136416
1.000000 0.495766 0.393652
1.000000 0.662470 0.602777
0.000000 0.271031 0.102754
0.251682 0.297520 0.000000
0.859525 0.344823 0.000000
1.000000 0.523461 0.327459
1.000000 0.669154 0.584619
0.000000 0.713344 0.465400
0.000000 0.710994 0.418402
0.741787 0.729885 0.337316
1.000000 0.693965 0.328130
1.000000 0.695552 0.478889
0.465919 0.857298 0.715023
0.552880 0.854276 0.723018
0.659449 0.849180 0.690059
0.892210 0.846860 0.653285
0.988769 0.816190 0.647730
0.782345 0.889769 0.844022
0.800259 0.888518 0.847837
0.814878 0.887114 0.840696
0.858610 0.885649 0.836240
0.928740 0.884764 0.820951
0.000000 0.000000 0.166751
0.151797 0.000000 0.143740
0.737392 0.290410 0.292058
1.000000 0.493233 0.374304
1.000000 0.647730 0.574090
0.000000 0.228061 0.267094
0.211734 0.279881 0.286778
0.767453 0.416114 0.332341
1.000000 0.544732 0.396185
1.000000 0.654719 0.555291
0.000000 0.694057 0.532189
0.000000 0.696712 0.532280
0.708125 0.711452 0.465736
0.978210 0.707332 0.491768
1.000000 0.709377 0.533471
0.463905 0.854978 0.731502
0.550317 0.852293 0.738064
0.674525 0.847044 0.719631
0.885313 0.845670 0.694514
0.977935 0.822324 0.697566
0.776822 0.889921 0.845335
0.795407 0.888579 0.848875
0.825345 0.887205 0.849363
0.862821 0.885618 0.844419
0.927733 0.885191 0.832395
0.000000 0.045960 0.514733
0.000000 0.011353 0.514763
0.607904 0.000000 0.501610
0.947570 0.495949 0.590387
0.975189 0.729366 0.727230
0.000000 0.218875 0.557671
0.000000 0.259251 0.572961
0.623926 0.337560 0.562341
0.916197 0.601404 0.649104
0.972442 0.742397 0.735195
0.000000 0.622492 0.669368
0.000000 0.636957 0.674250
0.652888 0.692409 0.704097
0.889586 0.753231 0.739651
0.965942 0.781308 0.755856
0.423133 0.849332 0.785977
0.511223 0.845975 0.786038
0.717861 0.839811 0.794919
0.867948 0.842496 0.785946
0.952270 0.837613 0.798062
0.732753 0.891936 0.848112
0.760403 0.890135 0.851621
0.832029 0.885466 0.863127
0.866880 0.883970 0.859983
0.923919 0.884642 0.853849
0.000000 0.148165 0.769100
0.000000 0.145266 0.768551
0.556909 0.160525 0.763668
0.885954 0.342382 0.738796
0.978729 0.676722 0.766873
0.000000 0.254032 0.776913
0.000000 0.287907 0.776974
0.561730 0.327672 0.771847
0.871763 0.459876 0.751247
0.965728 0.707607 0.779477
0.000000 0.538567 0.788418
0.000000 0.544579 0.784726
0.530175 0.607752 0.791287
0.828580 0.684657 0.787015
0.933043 0.789975 0.821469
0.000000 0.805753 0.832547
0.265293 0.806638 0.831968
0.612360 0.813199 0.833768
0.844480 0.833310 0.848631
0.924132 0.851286 0.861601
0.636927 0.896696 0.870970
0.675563 0.894591 0.871611
0.779385 0.888396 0.873838
0.875944 0.883330 0.882109
0.920348 0.884642 0.879698
0.000000 0.353124 0.897551
0.000000 0.351202 0.896147
0.529808 0.345006 0.891508
0.850278 0.395239 0.879850
0.986297 0.537591 0.843473
0.000000 0.368627 0.895506
0.000000 0.372747 0.894011
0.523400 0.392584 0.888243
0.836118 0.451331 0.876402
0.973846 0.578454 0.843839
0.000000 0.493050 0.891630
0.000000 0.502129 0.889677
0.470405 0.568841 0.882231
0.793668 0.608881 0.871366
0.938933 0.699672 0.852384
0.000000 0.720027 0.890623
0.000000 0.719631 0.888945
0.204532 0.723781 0.883757
0.745663 0.767269 0.876219
0.909575 0.820951 0.874418
0.203555 0.874479 0.896239
0.347997 0.873808 0.895750
0.613611 0.872313 0.894926
0.812894 0.872557 0.893950
0.912169 0.880583 0.898619
