20 Preset/Japan Style/【3】LUT video cho PR-AE-FCPX/LUT VIDEO/Japan Style LUT (24).cube
# Created by Adobe Lightroom plugin Export LUT (1.24.0)
# www.johnrellis.com/lightroom/exportlut.htm
# Preset: 24日系低饱和胶片（素材江湖）
# Color profile: C:\Program Files (x86)\Common Files\Adobe\Color\Profiles\Recommended\VideoHD.icc
LUT_3D_SIZE 5
DOMAIN_MIN 0.000000 0.000000 0.000000
DOMAIN_MAX 0.903226 0.903226 0.903226
0.088899 0.080842 0.086091
0.278660 0.013062 0.075227
0.830381 0.000000 0.000000
1.000000 0.303655 0.000000
1.000000 0.450721 0.000000
0.115084 0.150362 0.120333
0.176822 0.175082 0.134859
0.801480 0.417304 0.000000
1.000000 0.528771 0.000000
1.000000 0.565454 0.000000
0.134859 0.334478 0.196201
0.217655 0.382879 0.253117
0.420142 0.475929 0.271885
0.942687 0.722316 0.097810
1.000000 0.754391 0.000000
0.080446 0.564050 0.292027
0.221164 0.593896 0.341650
0.438392 0.682551 0.499428
0.667475 0.717464 0.505791
0.980896 0.833402 0.559930
0.349218 0.756863 0.465126
0.413489 0.764126 0.504082
0.603265 0.791440 0.644007
0.701015 0.839078 0.739986
0.830442 0.852384 0.726619
0.088838 0.078981 0.175875
0.242649 0.049073 0.171420
0.766567 0.000000 0.119356
1.000000 0.191592 0.000000
1.000000 0.456062 0.000000
0.073915 0.185855 0.186007
0.225986 0.188540 0.203769
0.756619 0.233463 0.143038
1.000000 0.445075 0.000000
1.000000 0.542199 0.000000
0.181857 0.326787 0.210330
0.249302 0.371252 0.262913
0.447944 0.478004 0.330938
0.941131 0.721645 0.308263
1.000000 0.742824 0.070130
0.158785 0.553826 0.298222
0.249912 0.583673 0.345525
0.483955 0.678431 0.524041
0.677516 0.717952 0.539574
0.980713 0.836484 0.601740
0.333379 0.751308 0.453132
0.399084 0.758724 0.492195
0.598322 0.788846 0.638544
0.710811 0.838163 0.746090
0.834073 0.853605 0.736812
0.000000 0.047578 0.451820
0.230961 0.000000 0.445289
0.649226 0.000000 0.428260
1.000000 0.000000 0.513878
1.000000 0.000000 0.280217
0.000000 0.181338 0.482063
0.225315 0.177249 0.474006
0.638697 0.106416 0.446845
1.000000 0.000000 0.474006
1.000000 0.262608 0.315587
0.000000 0.468421 0.430823
0.000000 0.473121 0.439918
0.549157 0.510369 0.512047
0.929290 0.642329 0.545006
1.000000 0.681056 0.509850
0.238895 0.503227 0.295964
0.293034 0.532097 0.335821
0.519158 0.645716 0.528649
0.712978 0.721157 0.638148
0.987884 0.850370 0.714504
0.196017 0.721401 0.379065
0.293278 0.731197 0.419776
0.538079 0.767025 0.583398
0.734279 0.828122 0.757443
0.842771 0.853544 0.764431
0.000000 0.000000 0.751125
0.279149 0.000000 0.747921
0.660182 0.000000 0.730678
0.931182 0.000000 0.691432
1.000000 0.000000 0.719966
0.000000 0.146822 0.756893
0.269505 0.126375 0.752621
0.650904 0.000000 0.734676
0.916350 0.161074 0.694331
1.000000 0.208774 0.722347
0.000000 0.494148 0.752255
0.000000 0.476997 0.754177
0.562554 0.481636 0.738247
0.844388 0.508812 0.696864
1.000000 0.450629 0.731777
0.000000 0.712917 0.662470
0.000000 0.711696 0.664668
0.397864 0.707790 0.678828
0.764157 0.728450 0.745937
1.000000 0.810239 0.795712
0.000000 0.711116 0.369543
0.000000 0.709316 0.368292
0.339147 0.700191 0.418250
0.703914 0.788479 0.714717
0.861845 0.856077 0.813809
0.311498 0.000000 0.910979
0.425635 0.000000 0.908232
0.689937 0.000000 0.900511
0.919493 0.000000 0.881987
1.000000 0.235447 0.832486
0.265385 0.000000 0.906798
0.395300 0.000000 0.904662
0.671015 0.000000 0.896361
0.903716 0.000000 0.877134
1.000000 0.318791 0.830014
0.000000 0.374975 0.905455
0.046601 0.373297 0.902007
0.577966 0.376898 0.891539
0.843565 0.413764 0.870329
1.000000 0.521752 0.833707
0.000000 0.724178 0.878691
0.000000 0.715755 0.878752
0.168490 0.682338 0.885740
0.736141 0.675227 0.879606
0.967681 0.704250 0.856870
0.000000 0.866361 0.821988
0.000000 0.863737 0.821256
0.000000 0.855100 0.822354
0.532616 0.834806 0.825864
0.888365 0.851255 0.879240
