20 Preset/Japan Style/【3】LUT video cho PR-AE-FCPX/LUT VIDEO/Japan Style LUT (18).cube
# Created by Adobe Lightroom plugin Export LUT (1.24.0)
# www.johnrellis.com/lightroom/exportlut.htm
# Preset: 18日系清新（素材江湖）
# Color profile: C:\Program Files (x86)\Common Files\Adobe\Color\Profiles\Recommended\VideoHD.icc
LUT_3D_SIZE 8
DOMAIN_MIN 0.000000 0.000000 0.000000
DOMAIN_MAX 0.903226 0.903226 0.903226
0.000000 0.000000 0.000000
0.138888 0.025086 0.011444
0.431983 0.130953 0.008942
0.780423 0.235050 0.026795
1.000000 0.334234 0.172732
1.000000 0.428992 0.310887
1.000000 0.509880 0.421363
1.000000 0.573419 0.503075
0.000000 0.126497 0.099245
0.117708 0.138094 0.087556
0.397772 0.209354 0.073487
0.728542 0.294102 0.106050
0.989349 0.376074 0.193668
1.000000 0.450477 0.314977
1.000000 0.517296 0.416938
1.000000 0.578332 0.501152
0.000000 0.309483 0.241978
0.000000 0.314733 0.241581
0.281254 0.331731 0.214481
0.663325 0.454170 0.223362
0.953796 0.532372 0.298222
1.000000 0.572503 0.406989
1.000000 0.619165 0.507561
1.000000 0.657313 0.575036
0.000000 0.498817 0.391333
0.000000 0.499550 0.388769
0.217685 0.511315 0.379278
0.471870 0.557702 0.359930
0.862028 0.672175 0.416236
1.000000 0.726375 0.533074
1.000000 0.734371 0.604791
1.000000 0.747524 0.654383
0.000000 0.681727 0.534966
0.000000 0.681514 0.532830
0.000000 0.684962 0.530510
0.347112 0.678584 0.488258
0.609735 0.709407 0.483864
0.896635 0.757015 0.531029
1.000000 0.805722 0.651087
1.000000 0.823911 0.715358
0.000000 0.791531 0.635492
0.000000 0.795560 0.640314
0.149233 0.793576 0.640772
0.471382 0.789975 0.650690
0.522545 0.771328 0.598810
0.714199 0.800015 0.611353
0.921508 0.826352 0.650599
1.000000 0.867613 0.753536
0.102724 0.862516 0.718441
0.208682 0.862516 0.720241
0.370703 0.859068 0.723201
0.532891 0.854093 0.732448
0.626734 0.846342 0.727687
0.663264 0.832609 0.700435
0.796109 0.861753 0.719631
0.940856 0.883421 0.750881
0.499947 0.916106 0.801175
0.514946 0.915618 0.802213
0.573022 0.914244 0.807706
0.661189 0.912993 0.819547
0.729641 0.905119 0.822965
0.763333 0.904967 0.817166
0.804196 0.904387 0.818845
0.889128 0.929259 0.842832
0.018616 0.000000 0.107362
0.149233 0.000000 0.115572
0.396979 0.088716 0.154208
0.708553 0.222080 0.214023
0.980865 0.339300 0.278782
1.000000 0.440009 0.368566
1.000000 0.517449 0.451728
1.000000 0.578790 0.520470
0.000000 0.127565 0.137942
0.137514 0.144656 0.145571
0.374914 0.200443 0.181979
0.690852 0.286809 0.227420
0.965545 0.382544 0.290745
1.000000 0.465644 0.377874
1.000000 0.530236 0.454810
1.000000 0.585748 0.521538
0.000000 0.308598 0.264775
0.054658 0.314061 0.265476
0.288640 0.330816 0.251408
0.645258 0.447364 0.280217
0.926055 0.521050 0.346349
1.000000 0.568505 0.434760
1.000000 0.611841 0.513787
1.000000 0.653071 0.578241
0.000000 0.484871 0.394568
0.000000 0.486976 0.393378
0.254490 0.502312 0.395666
0.450385 0.527703 0.363165
0.822324 0.639155 0.408850
1.000000 0.701411 0.516045
1.000000 0.715694 0.587915
1.000000 0.735775 0.644038
0.000000 0.673762 0.537987
0.000000 0.672328 0.534813
0.000000 0.673579 0.529992
0.357305 0.665370 0.492042
0.594385 0.690730 0.478553
0.883970 0.744961 0.527062
1.000000 0.798703 0.646784
1.000000 0.817685 0.710384
0.000000 0.783169 0.632746
0.000000 0.783139 0.632654
0.000000 0.782193 0.632990
0.450690 0.780728 0.642206
0.515923 0.764492 0.594965
0.709377 0.794308 0.610407
0.917479 0.822477 0.650141
1.000000 0.864225 0.750546
0.000000 0.856626 0.712978
0.080385 0.855070 0.712062
0.326146 0.851743 0.713954
0.509850 0.847440 0.723659
0.620905 0.841642 0.724208
0.656062 0.827604 0.694972
0.788266 0.855222 0.710780
0.936431 0.876188 0.739406
0.470558 0.912383 0.794614
0.491737 0.912535 0.797024
0.552331 0.910887 0.801846
0.645441 0.909483 0.813535
0.739223 0.908690 0.830014
0.769162 0.906462 0.821836
0.803098 0.903136 0.818357
0.887968 0.928130 0.841917
0.112367 0.000000 0.270451
0.190311 0.000000 0.275731
0.377844 0.000000 0.293492
0.700893 0.082338 0.361761
0.970794 0.374487 0.466590
1.000000 0.536614 0.557885
1.000000 0.623377 0.618830
1.000000 0.671870 0.656336
0.000000 0.152316 0.294957
0.170809 0.151156 0.298161
0.371374 0.148806 0.306645
0.678889 0.235294 0.372351
0.949798 0.413336 0.470985
1.000000 0.550439 0.558434
1.000000 0.625971 0.614343
1.000000 0.673854 0.653925
0.000000 0.319432 0.342382
0.126131 0.326543 0.345800
0.337346 0.355413 0.357641
0.639551 0.440467 0.423651
0.914580 0.546990 0.512352
1.000000 0.626947 0.589624
1.000000 0.679561 0.643824
1.000000 0.714260 0.680354
0.000000 0.509911 0.464027
0.000000 0.515282 0.466194
0.273350 0.530541 0.468513
0.488533 0.550988 0.454871
0.836362 0.671229 0.538689
0.983459 0.727657 0.630762
1.000000 0.754726 0.685206
1.000000 0.773922 0.719692
0.000000 0.683009 0.582422
0.000000 0.683436 0.581018
0.114382 0.686732 0.577966
0.459968 0.691035 0.575372
0.621515 0.703731 0.548058
0.884306 0.762966 0.611170
0.995361 0.817838 0.710170
1.000000 0.833097 0.756039
0.000000 0.785550 0.659724
0.000000 0.785916 0.659846
0.159609 0.784726 0.659052
0.463447 0.782437 0.664302
0.558618 0.770932 0.633661
0.719356 0.793606 0.644678
0.914153 0.828489 0.690333
0.996063 0.872953 0.780850
0.083406 0.859342 0.731044
0.181064 0.858030 0.730373
0.350988 0.854093 0.730800
0.518486 0.849271 0.737148
0.651484 0.844694 0.747402
0.676478 0.832395 0.715785
0.798184 0.858274 0.733577
0.938903 0.881254 0.765774
0.465461 0.913603 0.801663
0.480079 0.912779 0.801968
0.542718 0.911040 0.806180
0.642847 0.910430 0.818601
0.737911 0.909575 0.833951
0.783566 0.909209 0.834073
0.813382 0.906432 0.829465
0.893553 0.930602 0.852354
0.185794 0.000000 0.452186
0.246860 0.000000 0.459541
0.408637 0.000000 0.471199
0.628992 0.000000 0.490394
0.923430 0.000000 0.539239
1.000000 0.521019 0.640467
1.000000 0.699214 0.737942
1.000000 0.743282 0.760128
0.150881 0.151492 0.479164
0.229618 0.148379 0.481788
0.406775 0.129427 0.489509
0.631037 0.083558 0.502159
0.921263 0.230259 0.551385
1.000000 0.565698 0.660609
1.000000 0.707515 0.740841
1.000000 0.748928 0.762631
0.000000 0.358099 0.513298
0.101411 0.361517 0.516472
0.356359 0.355261 0.523552
0.604456 0.346868 0.525841
0.888853 0.485176 0.603388
0.994507 0.695674 0.730373
1.000000 0.755184 0.767849
1.000000 0.781674 0.783291
0.000000 0.522515 0.561975
0.000000 0.525689 0.562829
0.303166 0.543084 0.569848
0.553948 0.581720 0.585412
0.816648 0.680201 0.670069
0.949798 0.748013 0.733211
1.000000 0.788571 0.771969
1.000000 0.811673 0.794186
0.000000 0.706142 0.664332
0.000000 0.705959 0.663203
0.182681 0.708858 0.661646
0.507225 0.716365 0.661463
0.667536 0.720424 0.651118
0.884947 0.793576 0.722927
0.978943 0.837736 0.785000
1.000000 0.853483 0.813260
0.000000 0.798581 0.716182
0.000000 0.801541 0.719173
0.273442 0.799069 0.715938
0.506615 0.796780 0.717159
0.659052 0.793362 0.719661
0.745266 0.800565 0.706111
0.913634 0.843565 0.755154
0.989624 0.887663 0.825895
0.153872 0.862974 0.760525
0.228794 0.862669 0.761105
0.383154 0.860410 0.762600
0.539666 0.856840 0.767025
0.673823 0.853239 0.776364
0.715175 0.844633 0.755032
0.812619 0.862242 0.766720
0.941375 0.889433 0.802762
0.457465 0.918791 0.818906
0.475044 0.918273 0.819547
0.541344 0.916411 0.822934
0.639033 0.914366 0.831174
0.737057 0.913085 0.843931
0.806943 0.913970 0.854612
0.829679 0.912383 0.846983
0.903197 0.935027 0.869902
0.272465 0.000000 0.661433
0.320165 0.000000 0.666194
0.461738 0.000000 0.671229
0.653407 0.000000 0.677302
0.868284 0.000000 0.677241
1.000000 0.190951 0.657771
1.000000 0.592370 0.727474
1.000000 0.767788 0.814054
0.246464 0.135103 0.676722
0.302007 0.129763 0.680934
0.454658 0.095735 0.684169
0.650019 0.000000 0.685298
0.865293 0.000000 0.681849
1.000000 0.279728 0.664210
1.000000 0.619959 0.738552
1.000000 0.779263 0.820859
0.000000 0.359106 0.701015
0.180117 0.357671 0.701656
0.398322 0.350774 0.701411
0.619409 0.334417 0.703487
0.837400 0.332891 0.690578
0.989014 0.469734 0.687007
1.000000 0.701320 0.773068
1.000000 0.815488 0.842313
0.000000 0.548211 0.715419
0.000000 0.550744 0.716030
0.339605 0.565148 0.720180
0.565820 0.576715 0.724422
0.783291 0.571038 0.717617
0.927581 0.684443 0.751278
0.988922 0.805814 0.828916
1.000000 0.840726 0.851591
0.000000 0.678279 0.726253
0.000000 0.680751 0.727016
0.315160 0.689784 0.728298
0.535790 0.708492 0.731258
0.711543 0.733761 0.736660
0.869871 0.795346 0.790127
0.960021 0.839353 0.831205
1.000000 0.863676 0.853910
0.000000 0.788510 0.759548
0.000000 0.790005 0.760403
0.229374 0.793118 0.761166
0.477668 0.791806 0.757992
0.660853 0.793881 0.757321
0.763424 0.799435 0.755581
0.915496 0.858122 0.813230
0.984253 0.895842 0.861967
0.000000 0.864897 0.798520
0.106294 0.863798 0.797116
0.316716 0.860777 0.793545
0.504051 0.858000 0.793057
0.659419 0.855406 0.796933
0.759945 0.852903 0.799557
0.822019 0.861112 0.794766
0.942626 0.895995 0.835843
0.281376 0.919860 0.829099
0.319127 0.919158 0.829282
0.435065 0.916625 0.830961
0.585687 0.915435 0.839597
0.709804 0.913634 0.849973
0.809415 0.915129 0.866239
0.839628 0.915007 0.860380
0.905333 0.933379 0.878782
0.346288 0.000000 0.827390
0.381018 0.000000 0.828489
0.494728 0.000000 0.826932
0.657313 0.000000 0.826383
0.844846 0.000000 0.823606
1.000000 0.000000 0.789670
1.000000 0.307256 0.735134
1.000000 0.651057 0.789944
0.325109 0.125124 0.821988
0.361089 0.120150 0.821836
0.479133 0.091920 0.821347
0.644129 0.000000 0.821103
0.831235 0.000000 0.817136
0.993194 0.087984 0.785580
1.000000 0.343206 0.735317
1.000000 0.660945 0.792142
0.259709 0.356054 0.830472
0.306615 0.355016 0.830167
0.444007 0.352148 0.830564
0.615717 0.340276 0.826566
0.806577 0.331090 0.821836
0.969024 0.366583 0.792081
1.000000 0.493935 0.755886
1.000000 0.723171 0.816617
0.252293 0.566094 0.834440
0.300481 0.567132 0.833402
0.443122 0.576379 0.832120
0.600031 0.582177 0.833219
0.767086 0.577783 0.830869
0.920836 0.590448 0.809384
0.998810 0.676112 0.799832
1.000000 0.807340 0.855497
0.234012 0.680964 0.821744
0.282719 0.683192 0.821530
0.419440 0.693721 0.820920
0.583978 0.716793 0.820951
0.722408 0.732601 0.819669
0.852201 0.725582 0.812467
0.949737 0.791470 0.834440
0.995239 0.871000 0.887480
0.261418 0.766812 0.813474
0.307134 0.769558 0.814694
0.419409 0.774502 0.813993
0.558465 0.784360 0.813443
0.687617 0.797940 0.813809
0.803159 0.818326 0.820310
0.918212 0.868620 0.865263
0.979034 0.900389 0.895293
0.259495 0.855863 0.837858
0.299260 0.857206 0.838834
0.397498 0.859983 0.839963
0.521752 0.865293 0.842557
0.653712 0.866056 0.841428
0.776303 0.865995 0.840024
0.844572 0.869017 0.838132
0.952605 0.915404 0.886442
0.235142 0.925078 0.870603
0.265080 0.924315 0.869596
0.374548 0.922362 0.867399
0.515007 0.920287 0.865812
0.657801 0.917449 0.866300
0.789883 0.917784 0.877043
0.866300 0.922637 0.888701
0.914092 0.935698 0.897429
0.390814 0.000000 0.914275
0.416236 0.000000 0.915496
0.502922 0.000000 0.913970
0.635523 0.000000 0.911986
0.792142 0.000000 0.908049
0.956634 0.000000 0.896727
1.000000 0.188846 0.847318
1.000000 0.371893 0.783963
0.376165 0.123384 0.907378
0.402411 0.124361 0.909026
0.490852 0.108186 0.907530
0.623377 0.019471 0.904723
0.779995 0.000000 0.900542
0.943572 0.000000 0.888609
1.000000 0.210147 0.840543
1.000000 0.365515 0.777615
0.347539 0.340063 0.908598
0.374304 0.339635 0.908263
0.466072 0.335607 0.905882
0.601892 0.328985 0.902800
0.757748 0.315618 0.897490
0.921904 0.325628 0.887327
1.000000 0.391913 0.846891
1.000000 0.489570 0.794339
0.391455 0.554253 0.903624
0.408362 0.552148 0.902586
0.478401 0.548363 0.900114
0.594965 0.547265 0.897795
0.732357 0.541405 0.893217
0.883665 0.545129 0.886412
0.999634 0.579492 0.857145
1.000000 0.642298 0.823331
0.373480 0.675196 0.890166
0.393591 0.675990 0.888762
0.479194 0.685969 0.886290
0.602350 0.699977 0.883238
0.712673 0.702724 0.879576
0.831113 0.693935 0.875914
0.947356 0.700618 0.859159
1.000000 0.759670 0.852903
0.360388 0.755612 0.877745
0.384985 0.757565 0.877653
0.467720 0.764736 0.876860
0.582025 0.778164 0.875761
0.698756 0.796048 0.874754
0.804288 0.810483 0.875456
0.903105 0.808225 0.871702
0.973358 0.859861 0.890318
0.387579 0.827420 0.873381
0.410437 0.829038 0.873838
0.477241 0.832517 0.873289
0.577050 0.839719 0.873014
0.682368 0.849302 0.872587
0.782498 0.862394 0.874357
0.870787 0.880491 0.881773
0.957366 0.923857 0.921660
0.357733 0.904967 0.894591
0.379583 0.905760 0.895079
0.460792 0.909789 0.897765
0.561486 0.914977 0.900664
0.666651 0.921874 0.904723
0.772793 0.925902 0.907347
0.874784 0.931029 0.913695
0.928222 0.941436 0.922911
0.418616 0.000000 0.968200
0.436866 0.000000 0.968414
0.502617 0.000000 0.966155
0.610071 0.000000 0.964324
0.741756 0.000000 0.960784
0.886839 0.000000 0.954711
1.000000 0.000000 0.943420
1.000000 0.281285 0.885618
0.409064 0.105531 0.964446
0.427741 0.105409 0.964813
0.494850 0.088380 0.963256
0.602960 0.005158 0.961151
0.735164 0.000000 0.957702
0.880644 0.000000 0.951873
1.000000 0.090517 0.940093
1.000000 0.292790 0.883177
0.384314 0.301579 0.959991
0.403998 0.301427 0.959838
0.473304 0.297520 0.958099
0.586389 0.298711 0.957610
0.718288 0.288670 0.953460
0.862577 0.270237 0.947539
1.000000 0.311711 0.935973
1.000000 0.399390 0.884520
0.385077 0.487495 0.951415
0.403998 0.488380 0.951476
0.467903 0.486824 0.950134
0.572442 0.487343 0.948455
0.697200 0.485023 0.945159
0.833921 0.478492 0.940307
0.974487 0.496590 0.930632
1.000000 0.546532 0.889799
0.402228 0.636286 0.939788
0.424384 0.639307 0.939727
0.492103 0.645716 0.937713
0.588556 0.654658 0.934997
0.685481 0.649470 0.931975
0.800168 0.642115 0.927947
0.927825 0.644068 0.921782
1.000000 0.671077 0.895415
0.361822 0.726101 0.928710
0.378027 0.726650 0.928008
0.445869 0.731868 0.925933
0.555932 0.746120 0.923339
0.675685 0.762203 0.920745
0.782254 0.771542 0.919432
0.887816 0.773342 0.919799
0.981140 0.790249 0.909026
0.348821 0.801358 0.921263
0.367895 0.802243 0.920897
0.438025 0.806455 0.919585
0.545556 0.816464 0.918151
0.661463 0.831479 0.916899
0.772549 0.851804 0.917601
0.869688 0.871702 0.922667
0.949554 0.876127 0.923278
0.421973 0.877134 0.924376
0.435859 0.877653 0.924163
0.493507 0.880858 0.924071
0.587945 0.888304 0.924865
0.690791 0.898741 0.926390
0.788479 0.911833 0.929534
0.876127 0.928435 0.936370
0.943236 0.947295 0.947845
