20 Preset/Japan Style/【3】LUT video cho PR-AE-FCPX/LUT VIDEO/Japan Style LUT (5).cube
# Created by Adobe Lightroom plugin Export LUT (1.24.0)
# www.johnrellis.com/lightroom/exportlut.htm
# Preset: 05日系基础色（素材江湖）
# Color profile: C:\Program Files (x86)\Common Files\Adobe\Color\Profiles\Recommended\VideoHD.icc
LUT_3D_SIZE 5
DOMAIN_MIN 0.000000 0.000000 0.000000
DOMAIN_MAX 0.903226 0.903226 0.903226
0.000000 0.000000 0.000000
0.371832 0.111208 0.000000
0.740352 0.212711 0.000000
0.986419 0.318120 0.117525
1.000000 0.404425 0.265171
0.000000 0.333440 0.154940
0.353124 0.343633 0.098390
0.708339 0.366613 0.113344
0.963195 0.410651 0.181888
1.000000 0.464240 0.307866
0.104494 0.678187 0.400702
0.339971 0.674678 0.424384
0.693599 0.668391 0.295293
0.905577 0.618799 0.329931
1.000000 0.620783 0.425208
0.514061 0.861723 0.665278
0.555932 0.860929 0.677394
0.656703 0.859098 0.680995
0.847929 0.847227 0.545617
0.984771 0.799283 0.589960
0.741604 0.939208 0.846159
0.748623 0.939025 0.847440
0.782620 0.936156 0.857053
0.823911 0.936980 0.847227
0.921355 0.935058 0.798734
0.053651 0.000000 0.221683
0.350408 0.007904 0.225101
0.722499 0.222934 0.229435
0.962005 0.349828 0.277470
1.000000 0.434607 0.352544
0.141726 0.326818 0.255222
0.360815 0.334691 0.247990
0.694423 0.374975 0.265904
0.944549 0.428901 0.302892
1.000000 0.484108 0.377752
0.273625 0.661952 0.453162
0.380957 0.663020 0.462287
0.685359 0.653925 0.362463
0.890867 0.615717 0.387884
1.000000 0.631067 0.472480
0.543908 0.858152 0.687007
0.574517 0.858335 0.694087
0.669764 0.857053 0.703761
0.846525 0.845060 0.578302
0.978515 0.802304 0.619196
0.747341 0.938659 0.851164
0.753231 0.938506 0.851743
0.789456 0.936889 0.863249
0.828641 0.937194 0.855222
0.921538 0.935515 0.809445
0.099947 0.000000 0.520531
0.354223 0.008972 0.500053
0.711696 0.102266 0.499702
0.962402 0.331701 0.479683
1.000000 0.514794 0.546746
0.186770 0.346593 0.532280
0.375494 0.337469 0.513085
0.709010 0.349401 0.506432
0.935424 0.469062 0.519738
1.000000 0.556664 0.564233
0.232547 0.646967 0.560113
0.417517 0.648005 0.571130
0.686122 0.643183 0.548333
0.875578 0.642512 0.564080
1.000000 0.671504 0.615991
0.601617 0.847898 0.743771
0.628656 0.847410 0.747646
0.706722 0.851377 0.768948
0.844724 0.841672 0.675593
0.959808 0.810788 0.702602
0.761440 0.936461 0.867338
0.767666 0.936522 0.867796
0.793851 0.936309 0.872221
0.836881 0.935729 0.874540
0.920043 0.934264 0.831754
0.115480 0.000000 0.792966
0.358831 0.000000 0.783413
0.673335 0.017334 0.742672
0.942992 0.273838 0.710048
1.000000 0.513725 0.685908
0.199374 0.341619 0.791318
0.380285 0.340551 0.781857
0.673426 0.329839 0.741909
0.927611 0.407477 0.711940
1.000000 0.578912 0.706050
0.360845 0.658595 0.791135
0.473213 0.661677 0.787015
0.677119 0.643214 0.755795
0.867094 0.665766 0.738277
0.970611 0.739651 0.776608
0.487037 0.842954 0.779416
0.549371 0.841123 0.783902
0.708522 0.839750 0.807034
0.829343 0.830930 0.787289
0.944213 0.825650 0.801602
0.701778 0.940002 0.867430
0.722713 0.938933 0.871794
0.793210 0.935882 0.889036
0.852079 0.935149 0.903624
0.918944 0.933745 0.869322
0.000000 0.000000 0.940215
0.304173 0.000000 0.937072
0.617792 0.000000 0.925261
0.898558 0.159548 0.906310
1.000000 0.426459 0.836393
0.019471 0.268406 0.936156
0.314549 0.274357 0.933288
0.618921 0.294865 0.921233
0.887907 0.332311 0.902068
1.000000 0.502251 0.839780
0.372351 0.619501 0.928191
0.478981 0.635645 0.923491
0.649104 0.634119 0.912322
0.848417 0.611505 0.893095
0.991028 0.692714 0.860960
0.477913 0.828733 0.918334
0.532067 0.830472 0.917296
0.683925 0.839719 0.915190
0.819577 0.833982 0.904295
0.937072 0.844266 0.891478
0.574304 0.947173 0.901793
0.604547 0.945464 0.902373
0.704677 0.939971 0.905699
0.828641 0.932738 0.916045
0.908537 0.928527 0.918151
