20 Preset/Japan Style/【3】LUT video cho PR-AE-FCPX/LUT VIDEO/Japan Style LUT (3).cube
# Created by Adobe Lightroom plugin Export LUT (1.24.0)
# www.johnrellis.com/lightroom/exportlut.htm
# Preset: 03日系基础色（素材江湖）
# Color profile: C:\Program Files (x86)\Common Files\Adobe\Color\Profiles\Recommended\VideoHD.icc
LUT_3D_SIZE 8
DOMAIN_MIN 0.000000 0.000000 0.000000
DOMAIN_MAX 0.903226 0.903226 0.903226
0.000000 0.000000 0.000000
0.219821 0.096193 0.038849
0.459541 0.186435 0.114412
0.694240 0.261112 0.144717
0.910002 0.332647 0.180941
1.000000 0.390478 0.238407
1.000000 0.437018 0.296849
1.000000 0.488502 0.371221
0.000000 0.219974 0.116243
0.219883 0.234989 0.080201
0.476753 0.277989 0.089265
0.720027 0.327977 0.127474
0.926390 0.380560 0.177676
1.000000 0.422461 0.241245
1.000000 0.459297 0.302617
1.000000 0.504417 0.377844
0.000000 0.391333 0.212985
0.159304 0.394324 0.205783
0.437781 0.437049 0.178408
0.704280 0.476783 0.120912
0.912871 0.500023 0.122072
1.000000 0.506554 0.218357
1.000000 0.515221 0.288548
1.000000 0.541527 0.369909
0.000000 0.555413 0.300206
0.119753 0.557977 0.297551
0.393774 0.575616 0.287755
0.663966 0.623072 0.265232
0.874968 0.631586 0.242069
1.000000 0.618952 0.220951
1.000000 0.605951 0.273167
1.000000 0.610986 0.368750
0.000000 0.714046 0.384009
0.168490 0.714565 0.381567
0.386114 0.714687 0.370397
0.615412 0.741512 0.369299
0.844907 0.770352 0.373724
0.982238 0.747982 0.372045
1.000000 0.719600 0.355383
1.000000 0.698177 0.374334
0.250095 0.822721 0.464973
0.288243 0.820188 0.460945
0.414954 0.819638 0.454261
0.583948 0.826993 0.451728
0.774319 0.847532 0.463081
0.945617 0.857969 0.479530
1.000000 0.826993 0.474281
1.000000 0.796292 0.450599
0.436347 0.907988 0.563348
0.450935 0.907469 0.561486
0.512352 0.907378 0.557610
0.610803 0.906615 0.548272
0.753719 0.916777 0.565789
0.894652 0.926848 0.582788
1.000000 0.926116 0.599847
1.000000 0.895567 0.587457
0.611109 0.978332 0.677852
0.618402 0.978363 0.677394
0.647639 0.978332 0.675135
0.700618 0.977844 0.669612
0.788327 0.981415 0.678248
0.883085 0.982971 0.687129
0.977173 0.983185 0.690425
1.000000 0.971496 0.688838
0.000000 0.057221 0.243473
0.193668 0.044160 0.232334
0.462959 0.186984 0.213382
0.706996 0.292760 0.204868
0.923583 0.366918 0.179507
1.000000 0.414099 0.243259
1.000000 0.453956 0.305547
1.000000 0.500969 0.381598
0.000000 0.220981 0.260380
0.183322 0.229404 0.253147
0.451545 0.278050 0.245274
0.710079 0.343023 0.221134
0.926116 0.402838 0.179934
1.000000 0.438636 0.241062
1.000000 0.471778 0.307683
1.000000 0.514397 0.385626
0.000000 0.397620 0.301915
0.152865 0.401465 0.297185
0.428046 0.436225 0.286717
0.699916 0.478950 0.268711
0.915404 0.508629 0.245121
1.000000 0.517937 0.221897
1.000000 0.527276 0.298558
1.000000 0.551415 0.380529
0.000000 0.570428 0.354681
0.104982 0.571771 0.351720
0.394903 0.583307 0.341985
0.676448 0.636347 0.336278
0.887419 0.644923 0.326543
1.000000 0.632471 0.312535
1.000000 0.616144 0.289982
1.000000 0.619257 0.380835
0.000000 0.718196 0.417609
0.171542 0.719203 0.415869
0.389837 0.720485 0.406897
0.619257 0.746731 0.408362
0.850034 0.777401 0.419654
0.984314 0.755428 0.419684
1.000000 0.728481 0.405341
1.000000 0.702327 0.382208
0.268162 0.826932 0.490150
0.307622 0.826658 0.488624
0.426764 0.825864 0.481971
0.589349 0.830808 0.477638
0.777829 0.850919 0.491585
0.945312 0.860899 0.511192
1.000000 0.831876 0.506035
1.000000 0.802701 0.483131
0.457282 0.911070 0.584894
0.473518 0.911528 0.584741
0.530724 0.911559 0.581140
0.623163 0.910369 0.571923
0.759030 0.918853 0.585870
0.897063 0.929015 0.603876
1.000000 0.929290 0.623194
1.000000 0.900298 0.612085
0.623285 0.980133 0.691585
0.628931 0.979858 0.690272
0.657343 0.979858 0.688411
0.708400 0.979370 0.682887
0.785641 0.979675 0.681331
0.882628 0.982391 0.693751
0.976806 0.983368 0.700252
1.000000 0.972107 0.699580
0.000000 0.124178 0.432471
0.000000 0.109255 0.426978
0.363165 0.146853 0.410437
0.626490 0.242618 0.405035
0.879332 0.354894 0.407935
1.000000 0.440314 0.406439
1.000000 0.482795 0.389685
1.000000 0.504845 0.374823
0.000000 0.222385 0.437415
0.000000 0.221958 0.435248
0.364782 0.247257 0.419928
0.631403 0.304875 0.417762
0.880430 0.399176 0.424018
1.000000 0.467567 0.420142
1.000000 0.500847 0.399725
1.000000 0.516960 0.378058
0.000000 0.395758 0.451240
0.000000 0.397345 0.448951
0.359747 0.404608 0.439338
0.628107 0.454353 0.448249
0.866484 0.505150 0.447974
1.000000 0.538567 0.440009
1.000000 0.555383 0.422827
1.000000 0.556512 0.384771
0.000000 0.559808 0.473152
0.000000 0.560845 0.472114
0.357397 0.567620 0.466285
0.629145 0.611078 0.471046
0.851682 0.637232 0.476997
0.988617 0.643397 0.475349
1.000000 0.641535 0.462806
1.000000 0.631708 0.432136
0.000000 0.715175 0.510338
0.101076 0.716182 0.508690
0.368719 0.717739 0.501152
0.592645 0.731868 0.498390
0.824918 0.767178 0.522637
0.962646 0.759457 0.531579
1.000000 0.745296 0.525017
1.000000 0.724269 0.496437
0.308354 0.824857 0.564691
0.343084 0.824430 0.564416
0.444465 0.824125 0.558770
0.584375 0.823087 0.546899
0.771450 0.846738 0.571466
0.932677 0.861845 0.598718
1.000000 0.841917 0.596826
1.000000 0.819883 0.578088
0.483467 0.907866 0.633906
0.497597 0.908232 0.633967
0.549889 0.908751 0.631678
0.635218 0.908446 0.624781
0.759304 0.915282 0.633356
0.893156 0.927123 0.654810
1.000000 0.929961 0.676295
1.000000 0.906126 0.666499
0.636500 0.978759 0.721340
0.643763 0.978973 0.721431
0.670436 0.979126 0.719905
0.717037 0.978332 0.713893
0.787137 0.978027 0.708339
0.882322 0.981018 0.721706
0.973816 0.982635 0.730495
1.000000 0.973083 0.733730
0.000000 0.168368 0.605249
0.000000 0.162966 0.599756
0.267460 0.152956 0.589807
0.544610 0.209659 0.571191
0.790280 0.280735 0.556146
0.978424 0.446418 0.566308
1.000000 0.558648 0.584344
1.000000 0.594568 0.572229
0.000000 0.222690 0.600855
0.000000 0.222080 0.598657
0.271763 0.242130 0.590051
0.542382 0.266270 0.571893
0.787442 0.327184 0.559472
0.974334 0.476600 0.574670
1.000000 0.574395 0.590936
1.000000 0.605768 0.577935
0.000000 0.393805 0.608972
0.000000 0.393896 0.608087
0.274479 0.399145 0.603235
0.549248 0.414130 0.587060
0.788235 0.459754 0.578210
0.954040 0.573114 0.605737
1.000000 0.619013 0.604974
1.000000 0.637629 0.588678
0.000000 0.554406 0.617853
0.000000 0.556207 0.617304
0.273014 0.562005 0.612451
0.546899 0.568170 0.599908
0.785489 0.626764 0.620142
0.938079 0.672084 0.635401
1.000000 0.695888 0.635615
1.000000 0.699001 0.616175
0.000000 0.703426 0.626917
0.000000 0.704860 0.626703
0.309026 0.708339 0.623896
0.555108 0.710719 0.618738
0.776211 0.746883 0.641657
0.922515 0.767117 0.661616
1.000000 0.775082 0.665003
1.000000 0.770596 0.649805
0.244480 0.817105 0.647578
0.291600 0.815152 0.646082
0.437598 0.815518 0.649348
0.589349 0.815396 0.650843
0.747005 0.830076 0.658778
0.907622 0.857145 0.693874
1.000000 0.853971 0.700618
1.000000 0.844938 0.690883
0.466651 0.905394 0.690425
0.486915 0.904906 0.691737
0.560723 0.903807 0.698268
0.645441 0.903105 0.696742
0.747311 0.904753 0.691371
0.882383 0.921843 0.719966
0.990692 0.931090 0.747311
1.000000 0.915770 0.741634
0.635950 0.976013 0.759609
0.647852 0.975799 0.761990
0.680049 0.975708 0.764431
0.725612 0.975952 0.761105
0.788785 0.975616 0.754147
0.879149 0.978698 0.764218
0.968322 0.981659 0.777462
1.000000 0.974731 0.784878
0.000000 0.209171 0.753201
0.000000 0.208255 0.750210
0.000000 0.170413 0.744686
0.464515 0.213718 0.732418
0.716152 0.249180 0.715358
0.908354 0.346410 0.677729
1.000000 0.522362 0.674617
1.000000 0.684871 0.724483
0.000000 0.224491 0.750637
0.000000 0.227146 0.747311
0.000000 0.244205 0.742092
0.464668 0.267094 0.732753
0.715267 0.295262 0.715969
0.905089 0.376898 0.678614
1.000000 0.545617 0.680934
1.000000 0.697108 0.730739
0.000000 0.390051 0.749325
0.000000 0.388617 0.748592
0.000000 0.392706 0.746304
0.472328 0.408759 0.737758
0.715541 0.427832 0.721645
0.896452 0.478462 0.686427
1.000000 0.626947 0.707424
1.000000 0.732326 0.747524
0.000000 0.541314 0.752926
0.000000 0.543511 0.752193
0.142428 0.551598 0.748196
0.488075 0.563989 0.739986
0.709987 0.575738 0.725399
0.875975 0.623957 0.707454
0.993774 0.728359 0.747250
1.000000 0.767056 0.756008
0.000000 0.686519 0.753841
0.000000 0.687282 0.752956
0.227420 0.691646 0.749813
0.519860 0.702754 0.743069
0.709865 0.714626 0.733089
0.873411 0.764340 0.754696
0.986023 0.801389 0.772183
1.000000 0.814115 0.768338
0.000000 0.817990 0.761837
0.088838 0.817990 0.761166
0.375250 0.817838 0.758358
0.563531 0.816281 0.752041
0.724331 0.820584 0.750820
0.879088 0.850645 0.776028
0.979156 0.866911 0.791745
1.000000 0.869963 0.788479
0.371679 0.906279 0.762325
0.400671 0.906493 0.762844
0.493721 0.906310 0.764157
0.621729 0.904448 0.767269
0.745022 0.903380 0.771908
0.865965 0.916045 0.785519
0.976593 0.934173 0.819303
1.000000 0.928679 0.819455
0.543420 0.981750 0.788663
0.561364 0.981415 0.790707
0.626581 0.980072 0.799191
0.718959 0.976928 0.812772
0.794400 0.975647 0.816037
0.870420 0.976471 0.812558
0.961303 0.981689 0.831937
1.000000 0.978210 0.844541
0.000000 0.252567 0.850248
0.000000 0.251835 0.848966
0.000000 0.230625 0.847593
0.323735 0.230503 0.841764
0.605890 0.269139 0.832395
0.831449 0.323278 0.817014
0.993927 0.418738 0.776150
1.000000 0.592065 0.761563
0.000000 0.255985 0.856382
0.000000 0.252628 0.855985
0.000000 0.254826 0.853361
0.331579 0.279026 0.847105
0.610834 0.312749 0.836301
0.833860 0.359350 0.820127
0.993622 0.445075 0.779294
1.000000 0.610895 0.767391
0.000000 0.377813 0.851682
0.000000 0.378882 0.851652
0.000000 0.388220 0.849577
0.357427 0.408118 0.845548
0.616876 0.432013 0.834775
0.829404 0.458289 0.819944
0.981018 0.526513 0.782589
1.000000 0.665187 0.781643
0.000000 0.520562 0.849149
0.000000 0.524285 0.848936
0.000000 0.537896 0.846098
0.407630 0.553033 0.838834
0.626673 0.567315 0.828946
0.818479 0.589441 0.816007
0.958129 0.634455 0.787869
1.000000 0.740993 0.804471
0.000000 0.657465 0.850584
0.000000 0.659419 0.850156
0.128725 0.668055 0.847562
0.477424 0.688899 0.841428
0.666011 0.709468 0.833371
0.819272 0.718715 0.822629
0.946899 0.747829 0.808286
1.000000 0.830808 0.843809
0.000000 0.782773 0.851682
0.000000 0.783261 0.850401
0.325902 0.788724 0.848478
0.523857 0.797848 0.844663
0.686610 0.809567 0.839322
0.821256 0.817594 0.829740
0.948486 0.862882 0.852689
1.000000 0.886259 0.862699
0.127108 0.896941 0.858793
0.206455 0.896910 0.857939
0.369390 0.898497 0.856352
0.536797 0.900450 0.852384
0.694881 0.900206 0.844846
0.832059 0.902159 0.843412
0.956207 0.930510 0.875486
1.000000 0.937835 0.883452
0.394324 0.983764 0.856077
0.420142 0.983703 0.856413
0.505119 0.982788 0.856962
0.622522 0.980774 0.857694
0.752804 0.977691 0.863645
0.862486 0.975463 0.874022
0.949004 0.980072 0.882963
1.000000 0.981415 0.901244
0.000000 0.317174 0.942901
0.000000 0.318120 0.944030
0.000000 0.311284 0.942535
0.000000 0.280247 0.940124
0.490517 0.292210 0.933776
0.727535 0.351843 0.922484
0.928069 0.408881 0.908110
1.000000 0.511772 0.864530
0.000000 0.312261 0.937041
0.000000 0.313573 0.938659
0.000000 0.303929 0.937255
0.000000 0.281193 0.933959
0.487709 0.316777 0.925994
0.720119 0.366033 0.913481
0.917082 0.413001 0.897887
1.000000 0.504265 0.854551
0.000000 0.364477 0.941344
0.000000 0.368109 0.940948
0.000000 0.380957 0.937804
0.128115 0.399603 0.932372
0.505760 0.425360 0.923003
0.724269 0.456062 0.912078
0.916960 0.498299 0.900633
1.000000 0.582208 0.863706
0.000000 0.501244 0.941039
0.000000 0.505455 0.940154
0.000000 0.522301 0.935912
0.304753 0.548943 0.931060
0.547662 0.564660 0.923003
0.742397 0.591424 0.914031
0.915221 0.623865 0.903777
1.000000 0.673945 0.871611
0.000000 0.621637 0.932341
0.000000 0.622492 0.930480
0.000000 0.631098 0.926879
0.358770 0.656977 0.922362
0.596521 0.689723 0.914549
0.752102 0.701228 0.906035
0.902892 0.716884 0.896513
1.000000 0.756100 0.876860
0.000000 0.737423 0.926543
0.000000 0.739559 0.926329
0.000000 0.747982 0.924651
0.421515 0.764920 0.921538
0.624201 0.787045 0.916411
0.779232 0.809354 0.911925
0.906401 0.819730 0.904814
1.000000 0.845823 0.893156
0.000000 0.853300 0.929107
0.000000 0.855283 0.929564
0.304540 0.859464 0.928038
0.497963 0.867948 0.925658
0.656825 0.878080 0.921233
0.795041 0.890349 0.916289
0.909728 0.902556 0.912383
1.000000 0.941039 0.934691
0.000000 0.966949 0.945190
0.000000 0.967651 0.945312
0.322728 0.971252 0.946685
0.508965 0.975128 0.945708
0.666957 0.977142 0.940398
0.809628 0.974670 0.930724
0.925536 0.974365 0.930999
1.000000 0.983581 0.951019
0.000000 0.379004 0.998718
0.000000 0.379644 0.999176
0.000000 0.377234 0.997436
0.000000 0.364294 0.996246
0.302007 0.333715 0.993347
0.595117 0.320989 0.987701
0.805936 0.390845 0.979004
0.988098 0.455207 0.967163
0.000000 0.374670 0.995697
0.000000 0.375525 0.996277
0.000000 0.374151 0.995331
0.000000 0.359594 0.993652
0.306920 0.328679 0.990723
0.594537 0.341009 0.984283
0.802304 0.400977 0.974823
0.983246 0.458900 0.962402
0.000000 0.374701 0.995727
0.000000 0.374762 0.995758
0.000000 0.372229 0.994446
0.000000 0.358556 0.994751
0.336584 0.384009 0.988922
0.601587 0.421363 0.980377
0.802090 0.464088 0.971557
0.978851 0.515892 0.959686
0.000000 0.431128 0.994812
0.000000 0.433478 0.994995
0.000000 0.450904 0.992981
0.000000 0.489418 0.989563
0.385473 0.508324 0.984924
0.618860 0.533440 0.977844
0.808347 0.570092 0.969360
0.975036 0.610285 0.959045
0.000000 0.532219 0.991516
0.000000 0.532860 0.991943
0.000000 0.540520 0.989990
0.000000 0.577203 0.985931
0.446815 0.631067 0.978119
0.642206 0.647883 0.971160
0.812436 0.671412 0.964050
0.970092 0.702235 0.957488
0.000000 0.650263 0.987060
0.000000 0.650996 0.986023
0.000000 0.655756 0.983215
0.000000 0.669795 0.979919
0.399573 0.705837 0.975433
0.678614 0.760189 0.970245
0.831785 0.782528 0.967895
0.973785 0.809354 0.965637
0.000000 0.770687 0.986206
0.000000 0.771633 0.985687
0.000000 0.776577 0.983703
0.000000 0.791470 0.980835
0.455299 0.815396 0.976745
0.688655 0.845548 0.973205
0.856199 0.880034 0.972778
0.973388 0.894560 0.969574
0.000000 0.896696 0.993072
0.000000 0.897917 0.992798
0.000000 0.903624 0.992218
0.309300 0.913634 0.990478
0.571527 0.926696 0.987732
0.746670 0.941222 0.984131
0.880980 0.956054 0.980316
0.973999 0.967803 0.975647
