20 Preset/Japan Style/【3】LUT video cho PR-AE-FCPX/LUT VIDEO/Japan Style LUT (8).cube
# Created by Adobe Lightroom plugin Export LUT (1.24.0)
# www.johnrellis.com/lightroom/exportlut.htm
# Preset: 08日系基础色（素材江湖）
# Color profile: C:\Program Files (x86)\Common Files\Adobe\Color\Profiles\Recommended\VideoHD.icc
LUT_3D_SIZE 5
DOMAIN_MIN 0.000000 0.000000 0.000000
DOMAIN_MAX 0.903226 0.903226 0.903226
0.000000 0.000000 0.000000
0.265232 0.039124 0.023041
0.554376 0.034943 0.044709
0.868223 0.000000 0.117098
1.000000 0.171786 0.194400
0.000000 0.325811 0.116579
0.262181 0.293217 0.060731
0.555810 0.297185 0.120699
0.873991 0.304692 0.158968
1.000000 0.328130 0.227573
0.182284 0.765835 0.386725
0.375708 0.753902 0.399481
0.608667 0.648707 0.216342
0.861234 0.592676 0.237186
1.000000 0.596094 0.351202
0.673610 0.946410 0.741756
0.701228 0.944396 0.747890
0.762173 0.928740 0.718929
0.849271 0.856413 0.458259
1.000000 0.782559 0.359045
0.857939 1.000000 0.896178
0.864439 1.000000 0.897673
0.883207 1.000000 0.898375
0.898131 0.994171 0.859251
0.958709 0.974273 0.721340
0.000000 0.000000 0.245823
0.240299 0.000000 0.248264
0.506157 0.000000 0.251072
0.807736 0.000000 0.259037
1.000000 0.137209 0.289097
0.000000 0.272618 0.268986
0.233921 0.254582 0.250156
0.507683 0.264775 0.259312
0.819730 0.275181 0.278813
1.000000 0.305760 0.309270
0.170260 0.707576 0.446632
0.358190 0.701381 0.458625
0.560876 0.602319 0.327916
0.834684 0.579187 0.348943
1.000000 0.590570 0.417365
0.688930 0.937163 0.768887
0.714931 0.935760 0.774624
0.779171 0.924041 0.766873
0.842466 0.848905 0.527550
0.999023 0.783078 0.440467
0.867124 1.000000 0.906249
0.872862 1.000000 0.907347
0.896635 1.000000 0.913359
0.908385 0.994629 0.880430
0.960174 0.975616 0.755093
0.000000 0.000000 0.519921
0.186038 0.000000 0.519280
0.478340 0.000000 0.513970
0.774838 0.000000 0.517296
1.000000 0.000000 0.502861
0.000000 0.217594 0.518914
0.159640 0.217380 0.516411
0.475166 0.214603 0.511101
0.771695 0.201328 0.514488
1.000000 0.218723 0.505455
0.000000 0.605829 0.626825
0.106630 0.588159 0.606409
0.471687 0.508721 0.516472
0.768002 0.519707 0.530755
0.999847 0.549645 0.563134
0.682551 0.909178 0.820890
0.702571 0.900481 0.817014
0.777462 0.892271 0.821073
0.817227 0.821805 0.684230
0.976532 0.793393 0.662837
0.884764 1.000000 0.930297
0.890715 1.000000 0.931670
0.912078 0.998413 0.936370
0.930083 0.993591 0.925658
0.957610 0.971130 0.816312
0.000000 0.000000 0.791379
0.000000 0.000000 0.791073
0.419562 0.000000 0.785214
0.724056 0.000000 0.781125
0.987366 0.000000 0.765835
0.000000 0.140566 0.786374
0.000000 0.136995 0.784909
0.413123 0.119722 0.781796
0.718105 0.000000 0.774197
0.981537 0.000000 0.760800
0.000000 0.461311 0.776333
0.000000 0.460456 0.775479
0.401648 0.459663 0.772702
0.714717 0.457038 0.767819
0.969848 0.457343 0.757015
0.444099 0.842283 0.876005
0.487556 0.836362 0.870756
0.614069 0.813474 0.850095
0.721859 0.728511 0.766476
0.949401 0.746761 0.783230
0.876127 1.000000 0.955016
0.884764 1.000000 0.956085
0.916655 0.996948 0.960723
0.952789 0.993530 0.966033
0.957580 0.966247 0.892302
0.000000 0.000000 0.970703
0.000000 0.000000 0.970642
0.347906 0.000000 0.970214
0.663661 0.000000 0.967102
0.940490 0.000000 0.962554
0.000000 0.000000 0.971466
0.000000 0.000000 0.971130
0.327428 0.000000 0.969512
0.661067 0.000000 0.966064
0.940124 0.000000 0.961639
0.000000 0.361517 0.967224
0.000000 0.361242 0.966735
0.288090 0.359289 0.964965
0.657588 0.351781 0.961730
0.937469 0.347417 0.957763
0.000000 0.698116 0.964630
0.000000 0.693599 0.962371
0.321874 0.674800 0.954101
0.677790 0.678798 0.951629
0.927855 0.683558 0.948730
0.737301 0.976928 0.986267
0.752773 0.976715 0.985992
0.807919 0.975830 0.984771
0.882048 0.972137 0.981048
0.924254 0.923156 0.942596
