20 Preset/Japan Style/【3】LUT video cho PR-AE-FCPX/LUT VIDEO/Japan Style LUT (8).cube
# Created by Adobe Lightroom plugin Export LUT (1.24.0)
# www.johnrellis.com/lightroom/exportlut.htm
# Preset: 08日系基础色（素材江湖）
# Color profile: C:\Program Files (x86)\Common Files\Adobe\Color\Profiles\Recommended\VideoHD.icc
LUT_3D_SIZE 8
DOMAIN_MIN 0.000000 0.000000 0.000000
DOMAIN_MAX 0.903226 0.903226 0.903226
0.000000 0.000000 0.000000
0.139498 0.012543 0.008576
0.305852 0.045319 0.025208
0.468421 0.047761 0.036896
0.642451 0.016144 0.064210
0.818357 0.000000 0.105959
0.977630 0.089357 0.150820
1.000000 0.171786 0.194400
0.000519 0.153841 0.052857
0.140536 0.153994 0.030213
0.298039 0.164492 0.045197
0.457435 0.166476 0.054475
0.628870 0.166659 0.088014
0.807706 0.164462 0.115389
0.958190 0.177279 0.153017
1.000000 0.215915 0.194186
0.000000 0.381048 0.145113
0.121798 0.377752 0.156100
0.299504 0.336187 0.092042
0.458961 0.326543 0.107027
0.648157 0.344030 0.143557
0.833341 0.348791 0.164614
0.976715 0.352789 0.199649
1.000000 0.363348 0.237125
0.000000 0.647486 0.282567
0.116457 0.645197 0.288762
0.353063 0.627161 0.278264
0.505303 0.554620 0.172305
0.656062 0.511406 0.140169
0.857450 0.539696 0.242191
0.978180 0.530236 0.279179
1.000000 0.520745 0.306340
0.369177 0.837858 0.495399
0.399786 0.835813 0.498299
0.504967 0.830625 0.516320
0.595087 0.798550 0.433295
0.691188 0.718898 0.268193
0.777951 0.631861 0.161440
0.940551 0.652857 0.292943
1.000000 0.672236 0.411749
0.619471 0.927428 0.694728
0.637415 0.929351 0.703731
0.674952 0.926513 0.711757
0.722713 0.918120 0.704433
0.756466 0.888792 0.599542
0.824796 0.833341 0.415961
0.893980 0.747341 0.217288
1.000000 0.762448 0.377661
0.768307 0.980407 0.823484
0.773312 0.980407 0.825345
0.787869 0.978820 0.827939
0.815824 0.976196 0.834531
0.828000 0.966827 0.803403
0.850858 0.948394 0.727749
0.905577 0.914366 0.577173
0.979644 0.847684 0.303532
0.857939 1.000000 0.896178
0.859525 1.000000 0.896483
0.866972 1.000000 0.898375
0.881437 1.000000 0.902586
0.889677 0.999207 0.895964
0.895048 0.995514 0.868620
0.913603 0.988434 0.820310
0.958709 0.974273 0.721340
0.000000 0.000000 0.135256
0.134859 0.000000 0.136843
0.287114 0.000000 0.141909
0.436255 0.008545 0.146090
0.605707 0.027039 0.157870
0.784939 0.000000 0.172213
0.940002 0.066560 0.193210
1.000000 0.152621 0.219791
0.000000 0.145663 0.143130
0.132357 0.142061 0.139284
0.284123 0.149416 0.145083
0.436530 0.158602 0.153750
0.605585 0.163638 0.164187
0.784665 0.162448 0.177890
0.932219 0.170596 0.196262
1.000000 0.203403 0.220829
0.000000 0.348760 0.201724
0.148409 0.347051 0.208194
0.287053 0.319280 0.172610
0.444739 0.320470 0.182406
0.622583 0.332616 0.196353
0.800565 0.335546 0.207187
0.942016 0.336004 0.225620
1.000000 0.347570 0.252720
0.000000 0.609644 0.307164
0.132753 0.608026 0.312169
0.342718 0.597559 0.315190
0.471046 0.519402 0.217502
0.616358 0.483589 0.191012
0.818357 0.516564 0.266087
0.945861 0.507317 0.285252
1.000000 0.503136 0.309300
0.364385 0.824247 0.506004
0.392035 0.821469 0.507103
0.492409 0.814786 0.520195
0.579767 0.781369 0.446723
0.666987 0.697536 0.287755
0.757839 0.616846 0.199405
0.925933 0.642054 0.310796
1.000000 0.661616 0.413428
0.610559 0.919402 0.692805
0.621210 0.918883 0.695216
0.661067 0.916350 0.703914
0.716091 0.909758 0.705135
0.749203 0.880583 0.604242
0.816831 0.825711 0.428473
0.886107 0.740627 0.243229
1.000000 0.756954 0.389715
0.762020 0.976654 0.820279
0.764401 0.975891 0.819791
0.779202 0.974182 0.822202
0.809049 0.971923 0.829801
0.825528 0.963470 0.803983
0.847257 0.944335 0.728450
0.899657 0.907958 0.574945
0.970520 0.837827 0.302403
0.854765 1.000000 0.894591
0.857420 1.000000 0.895720
0.864744 1.000000 0.897459
0.879515 1.000000 0.901762
0.895750 0.999542 0.903075
0.898161 0.995575 0.874357
0.914061 0.988006 0.824491
0.958068 0.973480 0.726070
0.000000 0.000000 0.285130
0.121492 0.000000 0.286290
0.274479 0.000000 0.285191
0.426978 0.000000 0.286778
0.589288 0.000000 0.289677
0.765560 0.000000 0.292241
0.925658 0.000000 0.301396
1.000000 0.132113 0.319493
0.000000 0.125856 0.285100
0.110964 0.126711 0.284916
0.271458 0.130800 0.283909
0.421790 0.137270 0.284520
0.582422 0.130312 0.286503
0.758663 0.089418 0.287816
0.918853 0.126131 0.301915
1.000000 0.190860 0.319554
0.000000 0.315007 0.312261
0.098878 0.309972 0.306737
0.265904 0.289860 0.285466
0.421698 0.294896 0.289586
0.597711 0.304204 0.299840
0.779477 0.311223 0.311803
0.927611 0.320653 0.325078
1.000000 0.340856 0.342596
0.000000 0.571740 0.407752
0.170687 0.564202 0.405768
0.334905 0.554498 0.403204
0.453468 0.496437 0.335973
0.623041 0.488594 0.331548
0.805661 0.507927 0.367620
0.936858 0.503532 0.378210
1.000000 0.505211 0.394659
0.374029 0.794980 0.564202
0.402319 0.793545 0.566552
0.497719 0.789395 0.578912
0.598993 0.771633 0.562371
0.659541 0.687434 0.398566
0.762509 0.620325 0.329381
0.923583 0.650752 0.424384
1.000000 0.664515 0.486030
0.628290 0.907317 0.728298
0.638514 0.907164 0.730709
0.673976 0.904784 0.737087
0.732540 0.900908 0.749905
0.756435 0.873075 0.672297
0.808316 0.816281 0.507683
0.882811 0.739223 0.351171
1.000000 0.763058 0.482979
0.780056 0.974029 0.842618
0.782315 0.973388 0.842313
0.794461 0.971496 0.843290
0.820279 0.969085 0.848417
0.840787 0.962280 0.835813
0.854673 0.943267 0.770443
0.899168 0.907530 0.635554
0.970581 0.839048 0.385534
0.865599 1.000000 0.906249
0.866667 1.000000 0.906188
0.873320 1.000000 0.907622
0.888182 1.000000 0.912291
0.906432 0.998993 0.917021
0.907836 0.995392 0.892668
0.919585 0.988098 0.847135
0.958404 0.973602 0.756374
0.000000 0.000000 0.436408
0.000000 0.000000 0.439002
0.251987 0.000000 0.436469
0.407507 0.000000 0.433753
0.567407 0.000000 0.433997
0.745266 0.000000 0.440925
0.898711 0.000000 0.436133
1.000000 0.000000 0.430518
0.000000 0.097627 0.439643
0.000000 0.097353 0.439521
0.248631 0.097353 0.437415
0.408545 0.096407 0.435431
0.568841 0.080018 0.434913
0.745510 0.000000 0.440681
0.896300 0.000000 0.435004
1.000000 0.034882 0.430274
0.000000 0.271458 0.434760
0.000000 0.271000 0.434363
0.237003 0.270237 0.432776
0.402533 0.270359 0.430884
0.574670 0.272038 0.438544
0.751278 0.268467 0.443458
0.905028 0.274174 0.444465
1.000000 0.294011 0.444465
0.000000 0.510155 0.518273
0.000000 0.504265 0.511772
0.242039 0.482460 0.487343
0.402838 0.438758 0.439612
0.579095 0.442512 0.443854
0.750546 0.452033 0.456062
0.900450 0.464851 0.471382
1.000000 0.483162 0.489052
0.323491 0.776883 0.659907
0.356420 0.770657 0.655573
0.457923 0.747555 0.641688
0.574517 0.725887 0.633112
0.631250 0.657710 0.526024
0.765133 0.629633 0.502586
0.909819 0.660426 0.567559
1.000000 0.660639 0.578363
0.653101 0.889097 0.780179
0.667781 0.889647 0.784573
0.681605 0.887205 0.777859
0.737819 0.884489 0.787778
0.779141 0.869352 0.768582
0.798215 0.804685 0.619654
0.880186 0.743771 0.508690
0.991699 0.777859 0.623194
0.795285 0.968231 0.867857
0.799039 0.968170 0.868742
0.812528 0.967376 0.871275
0.837034 0.965911 0.876249
0.869017 0.963684 0.883024
0.869993 0.943999 0.830320
0.896727 0.904692 0.713924
0.967285 0.842466 0.522637
0.884123 1.000000 0.925628
0.885374 1.000000 0.925780
0.890959 1.000000 0.926787
0.902342 1.000000 0.929259
0.918120 0.998413 0.932769
0.923949 0.995361 0.920500
0.928679 0.988251 0.880491
0.959472 0.973785 0.800992
0.000000 0.000000 0.606104
0.000000 0.000000 0.607813
0.201602 0.000000 0.604730
0.385138 0.000000 0.601465
0.550408 0.000000 0.596094
0.720668 0.000000 0.596338
0.879698 0.000000 0.590509
1.000000 0.000000 0.578759
0.000000 0.000000 0.607202
0.000000 0.000000 0.608881
0.192050 0.000000 0.606378
0.383398 0.000000 0.600977
0.550072 0.000000 0.595636
0.721645 0.000000 0.596857
0.879026 0.000000 0.590051
1.000000 0.000000 0.578363
0.000000 0.245121 0.602838
0.000000 0.245274 0.602655
0.166537 0.244572 0.599969
0.376135 0.242649 0.595605
0.549737 0.239750 0.595514
0.714290 0.232090 0.589776
0.871000 0.226261 0.584375
1.000000 0.234287 0.573999
0.000000 0.432319 0.622004
0.000000 0.428382 0.616602
0.117128 0.416236 0.600214
0.368597 0.415229 0.599481
0.549340 0.413977 0.596979
0.715541 0.412482 0.591821
0.866789 0.412329 0.586542
0.992706 0.418555 0.580865
0.000000 0.688624 0.720821
0.000000 0.685725 0.717647
0.245365 0.671015 0.701350
0.430121 0.638605 0.664729
0.544701 0.576928 0.594293
0.709133 0.577386 0.596094
0.861143 0.590967 0.612390
0.982025 0.607782 0.629786
0.560754 0.875578 0.811185
0.572290 0.873320 0.810147
0.610010 0.861967 0.803006
0.669001 0.841276 0.790188
0.733700 0.820706 0.778225
0.760708 0.767544 0.691218
0.867308 0.746853 0.665278
0.974762 0.786374 0.737758
0.786404 0.960784 0.887785
0.788968 0.959655 0.887236
0.802274 0.955932 0.886778
0.826261 0.951995 0.887297
0.860349 0.951476 0.892912
0.880613 0.940368 0.877531
0.886503 0.892393 0.772946
0.955383 0.839689 0.654597
0.892760 0.999329 0.940124
0.893095 0.999268 0.939788
0.895048 0.999084 0.938567
0.908721 0.998505 0.942229
0.924620 0.997192 0.945617
0.942229 0.995453 0.948821
0.937926 0.987732 0.913390
0.957916 0.970397 0.838865
0.000000 0.000000 0.766415
0.000000 0.000000 0.767086
0.000000 0.000000 0.763241
0.341466 0.000000 0.759121
0.521233 0.000000 0.754177
0.696925 0.000000 0.754482
0.861814 0.000000 0.749691
0.998444 0.000000 0.735378
0.000000 0.000000 0.758389
0.000000 0.000000 0.757717
0.000000 0.000000 0.755337
0.334630 0.000000 0.751919
0.517571 0.000000 0.749752
0.690822 0.000000 0.747982
0.855039 0.000000 0.743526
0.993103 0.000000 0.730587
0.000000 0.209812 0.757229
0.000000 0.209689 0.756497
0.000000 0.208164 0.754574
0.327489 0.205020 0.751888
0.517418 0.199252 0.750240
0.691066 0.186526 0.747127
0.855253 0.170230 0.743160
0.990478 0.173831 0.729702
0.000000 0.393652 0.758999
0.000000 0.392767 0.757961
0.000000 0.391943 0.756893
0.325536 0.394965 0.758755
0.523583 0.395270 0.756985
0.698299 0.392493 0.752682
0.858640 0.390509 0.747433
0.987243 0.395544 0.733883
0.000000 0.594415 0.787411
0.000000 0.591913 0.784451
0.000000 0.581079 0.771847
0.316045 0.555749 0.743893
0.516136 0.555901 0.741665
0.686183 0.552819 0.738552
0.841062 0.549706 0.734035
0.969116 0.551049 0.726131
0.362951 0.812863 0.848905
0.388251 0.812741 0.848875
0.452583 0.805722 0.842405
0.539513 0.790707 0.828305
0.622736 0.761013 0.799405
0.689143 0.700740 0.736385
0.837064 0.707607 0.743832
0.957702 0.725643 0.761105
0.750729 0.961944 0.918273
0.756649 0.961608 0.918639
0.773587 0.958373 0.917388
0.802457 0.951568 0.914397
0.837034 0.939422 0.907836
0.874296 0.926482 0.901457
0.874723 0.876921 0.829801
0.951110 0.854124 0.798337
0.880949 1.000000 0.951354
0.882444 1.000000 0.951354
0.890898 0.999145 0.952392
0.908202 0.997467 0.955444
0.928679 0.995087 0.958801
0.946563 0.994079 0.961486
0.953613 0.989136 0.950469
0.957671 0.967254 0.881651
0.000000 0.000000 0.877440
0.000000 0.000000 0.877440
0.000000 0.000000 0.876921
0.284337 0.000000 0.874968
0.479591 0.000000 0.873167
0.653254 0.000000 0.869810
0.818082 0.000000 0.865690
0.970001 0.000000 0.862730
0.000000 0.000000 0.876921
0.000000 0.000000 0.876799
0.000000 0.000000 0.875700
0.275761 0.000000 0.873838
0.477180 0.000000 0.872160
0.652277 0.000000 0.868711
0.817197 0.000000 0.864591
0.969116 0.000000 0.861784
0.000000 0.136202 0.874815
0.000000 0.135592 0.874693
0.000000 0.131411 0.874113
0.258457 0.120394 0.872801
0.473365 0.096681 0.870329
0.651698 0.000000 0.867033
0.817380 0.000000 0.863523
0.970123 0.000000 0.862211
0.000000 0.342962 0.872129
0.000000 0.342504 0.871458
0.000000 0.342443 0.870603
0.242588 0.342199 0.869139
0.470039 0.340368 0.866911
0.651453 0.336767 0.864225
0.817075 0.332647 0.861295
0.966522 0.330022 0.859403
0.000000 0.517906 0.864714
0.000000 0.517784 0.864469
0.000000 0.517235 0.863890
0.235142 0.517235 0.862974
0.471290 0.516960 0.861265
0.652613 0.515618 0.859098
0.814786 0.514824 0.856687
0.957794 0.515404 0.854154
0.000000 0.733394 0.898100
0.090120 0.732296 0.897063
0.260868 0.726680 0.892302
0.390570 0.712581 0.881315
0.496712 0.679896 0.858030
0.664454 0.677150 0.854032
0.814298 0.676722 0.852445
0.945006 0.676844 0.849424
0.597925 0.911254 0.935393
0.605371 0.910857 0.935058
0.633631 0.908751 0.933288
0.680568 0.904021 0.929290
0.735378 0.894499 0.921111
0.785946 0.873625 0.903258
0.815702 0.812772 0.849760
0.935332 0.821439 0.855772
0.856840 1.000000 0.970153
0.859464 1.000000 0.970245
0.870329 1.000000 0.970672
0.889372 0.999390 0.971313
0.913848 0.996490 0.972015
0.939391 0.992462 0.972290
0.962493 0.988495 0.972778
0.956725 0.962188 0.923522
0.000000 0.000000 0.970703
0.000000 0.000000 0.970733
0.000000 0.000000 0.970611
0.197665 0.000000 0.970397
0.448219 0.000000 0.969543
0.621515 0.000000 0.967620
0.787320 0.000000 0.965270
0.940490 0.000000 0.962554
0.000000 0.000000 0.970855
0.000000 0.000000 0.970886
0.000000 0.000000 0.970794
0.223819 0.000000 0.970550
0.443214 0.000000 0.969238
0.619928 0.000000 0.967254
0.786801 0.000000 0.964843
0.940063 0.000000 0.962066
0.000000 0.000000 0.971252
0.000000 0.000000 0.971160
0.000000 0.000000 0.970672
0.162722 0.000000 0.969940
0.430274 0.000000 0.968383
0.616754 0.000000 0.966247
0.786404 0.000000 0.963836
0.939879 0.000000 0.961151
0.000000 0.261814 0.969085
0.000000 0.261418 0.968994
0.000000 0.260380 0.968475
0.024170 0.257389 0.967590
0.419562 0.251530 0.966125
0.614221 0.240665 0.964172
0.786130 0.226658 0.961913
0.938842 0.218814 0.959350
0.000000 0.458656 0.964263
0.000000 0.458259 0.964263
0.000000 0.456062 0.964080
0.000000 0.454139 0.963409
0.409979 0.453010 0.962066
0.612604 0.450874 0.960235
0.785550 0.450141 0.958068
0.935363 0.454932 0.955627
0.000000 0.642542 0.960784
0.000000 0.640925 0.960113
0.000000 0.633692 0.957214
0.000000 0.632685 0.956176
0.434821 0.635004 0.955230
0.628901 0.636439 0.953857
0.791135 0.638087 0.952178
0.929564 0.642573 0.950256
0.404974 0.844419 0.974090
0.416846 0.844053 0.973754
0.461555 0.842222 0.972198
0.530999 0.837583 0.968933
0.606531 0.826413 0.962585
0.669825 0.797299 0.949554
0.800870 0.793149 0.945922
0.924071 0.795804 0.944915
0.737301 0.976928 0.986267
0.741421 0.976867 0.986175
0.758297 0.976654 0.985870
0.788815 0.976196 0.985260
0.828580 0.975280 0.984131
0.871550 0.973175 0.981964
0.910094 0.966003 0.975982
0.924254 0.923156 0.942596
