20 Preset/Japan Style/【3】LUT video cho PR-AE-FCPX/LUT VIDEO/Japan Style LUT (30).cube
# Created by Adobe Lightroom plugin Export LUT (1.24.0)
# www.johnrellis.com/lightroom/exportlut.htm
# Preset: 30日系岩井俊二风（素材江湖）
# Color profile: C:\Program Files (x86)\Common Files\Adobe\Color\Profiles\Recommended\VideoHD.icc
LUT_3D_SIZE 8
DOMAIN_MIN 0.000000 0.000000 0.000000
DOMAIN_MAX 0.903226 0.903226 0.903226
0.000000 0.000000 0.000000
0.167849 0.051728 0.043030
0.378790 0.135622 0.099397
0.562493 0.200412 0.116091
0.734676 0.270024 0.145296
0.878508 0.335424 0.192813
0.976043 0.387243 0.249699
1.000000 0.436652 0.312688
0.086946 0.133181 0.104616
0.188754 0.148226 0.103761
0.381170 0.188632 0.101808
0.558831 0.236881 0.110842
0.728542 0.294957 0.141939
0.869505 0.349706 0.191989
0.969390 0.396521 0.245579
1.000000 0.442725 0.309972
0.162539 0.277928 0.199100
0.229709 0.282048 0.198611
0.397070 0.306737 0.199252
0.569451 0.335241 0.210147
0.734585 0.372686 0.228153
0.869657 0.409369 0.255802
0.970397 0.444892 0.292912
1.000000 0.480781 0.329259
0.249760 0.427741 0.306493
0.292424 0.429084 0.305821
0.419532 0.439368 0.304082
0.587610 0.465949 0.311131
0.746700 0.489296 0.322332
0.870024 0.503471 0.333959
0.964935 0.520348 0.353674
1.000000 0.542748 0.376501
0.340398 0.568933 0.386511
0.367987 0.569726 0.385840
0.463294 0.574762 0.383520
0.601221 0.585870 0.380438
0.745144 0.598016 0.387366
0.860594 0.602350 0.399634
0.954162 0.607630 0.412116
1.000000 0.620233 0.428595
0.434943 0.695033 0.448341
0.455268 0.697200 0.448890
0.523949 0.699489 0.447395
0.633265 0.704005 0.444495
0.757168 0.705531 0.443549
0.861540 0.701289 0.456611
0.948669 0.701137 0.472663
1.000000 0.706844 0.487160
0.547539 0.803006 0.513878
0.559625 0.803433 0.514275
0.604181 0.803891 0.513115
0.682124 0.805203 0.511742
0.782528 0.806821 0.509239
0.876707 0.798428 0.514122
0.951965 0.789364 0.529870
1.000000 0.787808 0.546593
0.671778 0.891752 0.596094
0.678340 0.891783 0.596033
0.706050 0.892241 0.596002
0.757504 0.893309 0.596429
0.824949 0.891844 0.591669
0.911620 0.893614 0.592065
0.977661 0.880461 0.600031
1.000000 0.868345 0.611292
0.000000 0.070436 0.204623
0.125551 0.090150 0.206210
0.358892 0.116335 0.208927
0.541985 0.195193 0.231144
0.716030 0.269963 0.245731
0.859953 0.335943 0.267643
0.962249 0.390387 0.296300
1.000000 0.440070 0.328801
0.000000 0.152651 0.225040
0.144564 0.155764 0.229068
0.358801 0.181338 0.237034
0.543145 0.230625 0.244511
0.715175 0.292180 0.257359
0.857359 0.350622 0.276738
0.959075 0.400336 0.302495
1.000000 0.447272 0.332708
0.116335 0.285405 0.288426
0.200504 0.290257 0.288212
0.376440 0.308110 0.290501
0.553124 0.334813 0.293553
0.718563 0.370947 0.299229
0.856077 0.409430 0.311894
0.957671 0.445930 0.332586
1.000000 0.483833 0.357794
0.223789 0.429450 0.351659
0.272892 0.430976 0.351171
0.406683 0.439857 0.348425
0.569787 0.460700 0.353094
0.727687 0.482765 0.357733
0.854490 0.499855 0.364050
0.952697 0.519310 0.377386
1.000000 0.544244 0.395483
0.327001 0.569604 0.411688
0.355901 0.570123 0.411017
0.453651 0.574121 0.408362
0.591791 0.583368 0.403967
0.734432 0.594781 0.409552
0.851255 0.601007 0.419196
0.946715 0.608392 0.429145
1.000000 0.622370 0.442878
0.426886 0.693416 0.463752
0.445960 0.693996 0.463569
0.515648 0.696407 0.462257
0.625757 0.701472 0.459510
0.750790 0.704005 0.458289
0.856138 0.701564 0.471015
0.943572 0.702693 0.485664
1.000000 0.708980 0.498054
0.542962 0.800870 0.523857
0.553796 0.800595 0.523278
0.598535 0.800961 0.522148
0.676478 0.802701 0.521080
0.777554 0.805264 0.519280
0.872221 0.797726 0.523430
0.947326 0.789059 0.538018
1.000000 0.787961 0.553368
0.668269 0.890105 0.601465
0.675502 0.890471 0.602075
0.702876 0.890837 0.601892
0.754269 0.892027 0.602350
0.825162 0.893309 0.602136
0.910002 0.894316 0.600977
0.975708 0.881193 0.607050
1.000000 0.869444 0.617762
0.000000 0.160555 0.407568
0.000000 0.160525 0.409125
0.271733 0.158541 0.412604
0.501030 0.212955 0.407568
0.692073 0.283604 0.413306
0.841093 0.360296 0.421546
0.946593 0.425147 0.428626
1.000000 0.479042 0.437049
0.000000 0.213504 0.414557
0.000000 0.205173 0.417151
0.280858 0.208774 0.418921
0.499977 0.250523 0.415076
0.688289 0.308812 0.419654
0.837095 0.375830 0.425910
0.943847 0.433570 0.429908
1.000000 0.485084 0.438300
0.000000 0.313787 0.436652
0.000000 0.314366 0.437537
0.311284 0.321050 0.438361
0.512474 0.350439 0.437690
0.693385 0.389197 0.439094
0.837430 0.432563 0.439277
0.941985 0.475837 0.442908
1.000000 0.517784 0.450599
0.095460 0.442542 0.462837
0.192233 0.445258 0.464118
0.361669 0.454170 0.463966
0.539788 0.473426 0.463172
0.705898 0.496468 0.462806
0.837278 0.519799 0.462928
0.938415 0.546105 0.466621
1.000000 0.574823 0.473518
0.281621 0.577630 0.494057
0.314977 0.579004 0.493416
0.423560 0.584894 0.491341
0.572747 0.594293 0.487251
0.716396 0.606744 0.491737
0.835355 0.616266 0.493599
0.932403 0.629023 0.497871
1.000000 0.646906 0.505241
0.407355 0.698878 0.525414
0.427832 0.699855 0.525566
0.500175 0.702052 0.524620
0.610925 0.706477 0.521660
0.737240 0.710048 0.518608
0.841123 0.711421 0.529870
0.929534 0.717617 0.540459
1.000000 0.727718 0.549004
0.543999 0.803861 0.572869
0.554101 0.803708 0.572442
0.596277 0.803891 0.570977
0.670405 0.805356 0.569329
0.767208 0.808011 0.567010
0.862760 0.803799 0.568750
0.937957 0.799008 0.582055
1.000000 0.801175 0.594812
0.668177 0.890867 0.634607
0.674342 0.890806 0.634241
0.700557 0.891203 0.634150
0.750729 0.892882 0.635065
0.819028 0.894377 0.634394
0.901701 0.896117 0.633417
0.969451 0.885893 0.637354
1.000000 0.875822 0.646509
0.000000 0.239384 0.548821
0.000000 0.251896 0.548669
0.000000 0.226658 0.553979
0.423468 0.256779 0.552758
0.643397 0.303716 0.545403
0.807767 0.380468 0.536309
0.918273 0.467201 0.535393
1.000000 0.545525 0.546349
0.000000 0.284947 0.551873
0.000000 0.278752 0.553338
0.000000 0.262730 0.557488
0.429175 0.286442 0.555840
0.645624 0.327398 0.548455
0.806821 0.397925 0.539086
0.916258 0.479744 0.538964
0.999756 0.553033 0.548760
0.000000 0.356634 0.561761
0.000000 0.356023 0.562493
0.132052 0.355261 0.564721
0.446448 0.370367 0.563348
0.651789 0.403510 0.557305
0.805417 0.462348 0.551629
0.912566 0.533959 0.556451
0.998535 0.585565 0.560113
0.000000 0.468086 0.578058
0.000000 0.468544 0.578210
0.249821 0.472908 0.578851
0.480293 0.485115 0.577844
0.664179 0.510094 0.572107
0.801114 0.551141 0.568902
0.905425 0.596887 0.572229
0.994232 0.630518 0.572869
0.131594 0.589624 0.594568
0.205631 0.590539 0.594659
0.359869 0.595911 0.595605
0.527001 0.607233 0.595605
0.682582 0.626734 0.592096
0.804044 0.647639 0.592493
0.904509 0.669490 0.593133
0.990997 0.691432 0.594690
0.354009 0.708186 0.616876
0.380102 0.710109 0.617670
0.464179 0.712428 0.616297
0.586816 0.717525 0.615137
0.712886 0.724117 0.611902
0.814572 0.732082 0.617487
0.906523 0.743771 0.620508
0.989899 0.758145 0.624384
0.513939 0.808011 0.638239
0.528130 0.808347 0.638819
0.581537 0.809262 0.641260
0.661189 0.811307 0.644190
0.750668 0.814572 0.641718
0.845762 0.814847 0.639796
0.920439 0.814939 0.649683
0.991363 0.821042 0.657252
0.664546 0.893553 0.687861
0.670375 0.893645 0.687709
0.695216 0.894102 0.687312
0.741878 0.895323 0.687068
0.806699 0.897002 0.685817
0.886046 0.899168 0.683955
0.957885 0.893248 0.684993
1.000000 0.886229 0.692866
0.000000 0.315648 0.669276
0.000000 0.323766 0.669184
0.000000 0.315953 0.671626
0.259495 0.324437 0.673243
0.552941 0.358648 0.670680
0.758663 0.398871 0.662013
0.888121 0.485603 0.637964
0.974762 0.583062 0.636072
0.000000 0.351293 0.669947
0.000000 0.348669 0.671138
0.000000 0.338476 0.673793
0.274723 0.346166 0.674769
0.555871 0.376654 0.671717
0.758938 0.414374 0.663050
0.886900 0.497719 0.639704
0.973419 0.591394 0.638300
0.000000 0.407507 0.675929
0.000000 0.406622 0.676509
0.000000 0.405341 0.678035
0.318517 0.413672 0.678065
0.565393 0.437415 0.673945
0.757900 0.468330 0.665553
0.881346 0.542016 0.645686
0.967987 0.621729 0.646052
0.000000 0.490974 0.683497
0.000000 0.491890 0.683650
0.000000 0.497108 0.684291
0.383337 0.511498 0.684352
0.587915 0.530724 0.680781
0.762814 0.556023 0.674586
0.875914 0.614862 0.658808
0.962951 0.674220 0.661433
0.000000 0.594232 0.692988
0.000000 0.595544 0.693019
0.239994 0.601282 0.692866
0.453254 0.614801 0.691859
0.621698 0.633539 0.688655
0.769497 0.652338 0.682795
0.873503 0.692561 0.674128
0.960082 0.732631 0.680232
0.253788 0.697505 0.701839
0.287907 0.698573 0.701808
0.391272 0.702754 0.701015
0.525444 0.712215 0.699367
0.662715 0.727504 0.697566
0.781796 0.744869 0.695125
0.878172 0.767727 0.697993
0.965972 0.786099 0.699031
0.421820 0.809293 0.720821
0.437812 0.809628 0.720119
0.497810 0.811734 0.717678
0.603204 0.814542 0.714809
0.716854 0.818479 0.714504
0.817075 0.823423 0.712581
0.896483 0.829221 0.717739
0.973327 0.838468 0.719387
0.576318 0.895689 0.728237
0.588067 0.895628 0.728817
0.633143 0.895598 0.731594
0.707179 0.897063 0.739132
0.782925 0.898955 0.743740
0.860746 0.901854 0.741756
0.939269 0.900786 0.740291
0.996979 0.897032 0.746487
0.000000 0.373724 0.769345
0.000000 0.378668 0.769162
0.000000 0.385168 0.769497
0.000000 0.396185 0.771145
0.421607 0.426917 0.768276
0.645594 0.466377 0.763699
0.827420 0.514214 0.758511
0.948089 0.601526 0.737881
0.000000 0.394842 0.767666
0.000000 0.398627 0.767269
0.000000 0.398230 0.768063
0.000000 0.409308 0.768978
0.426856 0.438239 0.766476
0.646235 0.475990 0.762448
0.826078 0.522454 0.757565
0.946288 0.607294 0.737636
0.000000 0.446204 0.770932
0.000000 0.446326 0.770993
0.000000 0.448890 0.771420
0.000000 0.462440 0.770382
0.454200 0.489204 0.767758
0.655451 0.521813 0.763760
0.826902 0.563073 0.759609
0.943236 0.637751 0.741482
0.000000 0.515496 0.774838
0.000000 0.516808 0.774624
0.000000 0.524437 0.774472
0.255406 0.542931 0.774655
0.504265 0.571435 0.772244
0.676204 0.597436 0.768002
0.831846 0.629908 0.764981
0.940642 0.688838 0.749386
0.000000 0.598810 0.777554
0.000000 0.600519 0.777340
0.000000 0.608331 0.776944
0.365728 0.626246 0.775998
0.559594 0.656672 0.773220
0.700404 0.674250 0.769650
0.840940 0.696773 0.767666
0.940978 0.740993 0.753658
0.000000 0.691798 0.782650
0.146487 0.693782 0.782895
0.309148 0.700252 0.782284
0.464088 0.713985 0.780880
0.608331 0.734279 0.778622
0.735073 0.754086 0.776761
0.857542 0.771054 0.772549
0.947417 0.802823 0.767056
0.352972 0.791806 0.798611
0.373053 0.793149 0.798703
0.441657 0.797604 0.797757
0.545251 0.806149 0.795895
0.660975 0.818051 0.792569
0.776608 0.831144 0.789517
0.872770 0.843320 0.787655
0.954864 0.859861 0.790127
0.460792 0.896178 0.819486
0.473182 0.896605 0.818784
0.523064 0.898711 0.816678
0.606928 0.901946 0.811185
0.716762 0.902708 0.803372
0.826688 0.905516 0.807462
0.912963 0.909422 0.806302
0.977203 0.910704 0.810849
0.000000 0.419348 0.853208
0.000000 0.422705 0.853605
0.000000 0.434668 0.852628
0.000000 0.454536 0.852720
0.290929 0.500572 0.850462
0.546044 0.537438 0.846616
0.724514 0.581323 0.841703
0.874601 0.628992 0.837186
0.000000 0.430732 0.850401
0.000000 0.433906 0.851011
0.000000 0.443336 0.850401
0.000000 0.462409 0.850004
0.299901 0.506798 0.847532
0.546532 0.541100 0.843290
0.722469 0.582300 0.838071
0.871794 0.628199 0.833524
0.000000 0.473060 0.852354
0.000000 0.474861 0.852232
0.000000 0.480720 0.851743
0.000000 0.501335 0.850767
0.352758 0.546654 0.847440
0.565972 0.577142 0.843687
0.732265 0.616083 0.840024
0.876585 0.658320 0.837797
0.000000 0.531121 0.855924
0.000000 0.532525 0.855497
0.000000 0.540398 0.854490
0.000000 0.562799 0.853361
0.419440 0.607050 0.849821
0.602838 0.638972 0.846555
0.749905 0.669093 0.843626
0.884092 0.702266 0.842496
0.000000 0.601068 0.856474
0.000000 0.602289 0.855772
0.000000 0.609644 0.854643
0.089418 0.627558 0.853544
0.466163 0.665400 0.850370
0.637995 0.699977 0.846769
0.768154 0.722194 0.844297
0.897215 0.750027 0.847501
0.000000 0.683711 0.859129
0.000000 0.685542 0.859129
0.000000 0.692897 0.858701
0.324773 0.709041 0.857725
0.521416 0.734798 0.855711
0.683040 0.769802 0.853941
0.797726 0.785977 0.852628
0.918456 0.804440 0.854887
0.176822 0.773312 0.866453
0.221500 0.775174 0.866636
0.334142 0.781308 0.866087
0.467597 0.793606 0.865232
0.601038 0.811185 0.863706
0.724208 0.831968 0.862669
0.831388 0.849363 0.862119
0.936736 0.864103 0.856535
0.368139 0.867063 0.888609
0.385504 0.868162 0.888548
0.451118 0.873014 0.888731
0.545220 0.880827 0.887694
0.651637 0.891203 0.885222
0.761593 0.903471 0.880858
0.872557 0.915312 0.877317
0.953674 0.925261 0.878355
0.000000 0.464485 0.931151
0.000000 0.466590 0.931334
0.000000 0.473701 0.930266
0.000000 0.495705 0.929473
0.000000 0.558984 0.926207
0.493996 0.619501 0.921721
0.663355 0.658961 0.918791
0.803830 0.700160 0.916197
0.000000 0.470466 0.929656
0.000000 0.472450 0.929870
0.000000 0.479438 0.929198
0.000000 0.501640 0.928222
0.002502 0.563348 0.924987
0.497688 0.623865 0.920531
0.664149 0.661463 0.917418
0.803799 0.701900 0.915038
0.000000 0.495247 0.929534
0.000000 0.496773 0.929473
0.000000 0.502647 0.928710
0.000000 0.528405 0.928557
0.182559 0.586969 0.924773
0.520317 0.647913 0.919707
0.675319 0.681544 0.917174
0.810056 0.718837 0.915648
0.000000 0.533318 0.930480
0.000000 0.534691 0.930571
0.000000 0.540459 0.929992
0.000000 0.568566 0.928893
0.260227 0.623957 0.925444
0.557977 0.689448 0.920470
0.696803 0.717769 0.918761
0.822995 0.749355 0.918608
0.000000 0.582330 0.932280
0.000000 0.582849 0.932494
0.000000 0.586908 0.931884
0.000000 0.610834 0.930602
0.280766 0.661555 0.926940
0.585657 0.729885 0.921813
0.720058 0.758755 0.921172
0.839139 0.784634 0.921813
0.000000 0.653498 0.934997
0.000000 0.654627 0.934600
0.000000 0.660487 0.933532
0.000000 0.675410 0.932280
0.264652 0.705348 0.930632
0.592187 0.766751 0.928099
0.753353 0.810666 0.928862
0.861448 0.827665 0.927153
0.000000 0.740658 0.941039
0.000000 0.742214 0.940887
0.000000 0.749325 0.940154
0.000000 0.765560 0.939208
0.435584 0.791867 0.938018
0.626978 0.823514 0.936339
0.781247 0.858671 0.934203
0.888151 0.874479 0.932891
0.000000 0.833982 0.948058
0.000000 0.835325 0.947814
0.179751 0.841337 0.947204
0.396551 0.853574 0.946441
0.556023 0.870665 0.945312
0.694209 0.890867 0.944213
0.821286 0.913817 0.943725
0.923644 0.932891 0.943633
