20 Preset/Ins style/【2】XMP cho Photoshop - Lightroom CC/Tone 11.xmp
<x:xmpmeta xmlns:x="adobe:ns:meta/" x:xmptk="Adobe XMP Core 5.6-c140 79.160451, 2017/05/06-01:08:21        ">
 <rdf:RDF xmlns:rdf="http://www.w3.org/1999/02/22-rdf-syntax-ns#">
  <rdf:Description rdf:about=""
    xmlns:crs="http://ns.adobe.com/camera-raw-settings/1.0/"
   crs:PresetType="Normal"
   crs:Cluster=""
   crs:UUID="05DDDFC897551448BB82976F861AE2CE"
   crs:SupportsAmount="False"
   crs:SupportsColor="True"
   crs:SupportsMonochrome="True"
   crs:SupportsHighDynamicRange="True"
   crs:SupportsNormalDynamicRange="True"
   crs:SupportsSceneReferred="True"
   crs:SupportsOutputReferred="True"
   crs:CameraModelRestriction=""
   crs:Copyright=""
   crs:ContactInfo=""
   crs:Version="12.0"
   crs:ProcessVersion="6.7"
   crs:WhiteBalance="Custom"
   crs:Temperature="4123"
   crs:Tint="+4"
   crs:Saturation="-12"
   crs:Sharpness="34"
   crs:LuminanceSmoothing="6"
   crs:ColorNoiseReduction="25"
   crs:VignetteAmount="0"
   crs:ShadowTint="0"
   crs:RedHue="+15"
   crs:RedSaturation="+15"
   crs:GreenHue="+30"
   crs:GreenSaturation="-30"
   crs:BlueHue="-10"
   crs:BlueSaturation="-10"
   crs:Vibrance="+6"
   crs:HueAdjustmentRed="+12"
   crs:HueAdjustmentOrange="-4"
   crs:HueAdjustmentYellow="-12"
   crs:HueAdjustmentGreen="-18"
   crs:HueAdjustmentAqua="0"
   crs:HueAdjustmentBlue="-1"
   crs:HueAdjustmentPurple="0"
   crs:HueAdjustmentMagenta="+3"
   crs:SaturationAdjustmentRed="-15"
   crs:SaturationAdjustmentOrange="+1"
   crs:SaturationAdjustmentYellow="-20"
   crs:SaturationAdjustmentGreen="-25"
   crs:SaturationAdjustmentAqua="0"
   crs:SaturationAdjustmentBlue="-16"
   crs:SaturationAdjustmentPurple="0"
   crs:SaturationAdjustmentMagenta="0"
   crs:LuminanceAdjustmentRed="-24"
   crs:LuminanceAdjustmentOrange="-3"
   crs:LuminanceAdjustmentYellow="+35"
   crs:LuminanceAdjustmentGreen="+70"
   crs:LuminanceAdjustmentAqua="0"
   crs:LuminanceAdjustmentBlue="-9"
   crs:LuminanceAdjustmentPurple="-13"
   crs:LuminanceAdjustmentMagenta="-18"
   crs:SplitToningShadowHue="2"
   crs:SplitToningShadowSaturation="0"
   crs:SplitToningHighlightHue="1"
   crs:SplitToningHighlightSaturation="0"
   crs:SplitToningBalance="-1"
   crs:ParametricShadows="+18"
   crs:ParametricDarks="+12"
   crs:ParametricLights="+24"
   crs:ParametricHighlights="-25"
   crs:ParametricShadowSplit="14"
   crs:ParametricMidtoneSplit="60"
   crs:ParametricHighlightSplit="75"
   crs:SharpenRadius="+1.2"
   crs:SharpenDetail="27"
   crs:SharpenEdgeMasking="0"
   crs:PostCropVignetteAmount="0"
   crs:GrainAmount="34"
   crs:GrainSize="25"
   crs:GrainFrequency="50"
   crs:LuminanceNoiseReductionDetail="50"
   crs:ColorNoiseReductionDetail="50"
   crs:LuminanceNoiseReductionContrast="0"
   crs:ColorNoiseReductionSmoothness="50"
   crs:LensManualDistortionAmount="0"
   crs:AutoLateralCA="0"
   crs:Exposure2012="+0.05"
   crs:Contrast2012="-17"
   crs:Highlights2012="-68"
   crs:Shadows2012="+46"
   crs:Whites2012="-51"
   crs:Blacks2012="+25"
   crs:Clarity2012="+23"
   crs:DefringePurpleAmount="0"
   crs:DefringePurpleHueLo="30"
   crs:DefringePurpleHueHi="70"
   crs:DefringeGreenAmount="0"
   crs:DefringeGreenHueLo="40"
   crs:DefringeGreenHueHi="60"
   crs:Dehaze="0"
   crs:ConvertToGrayscale="False"
   crs:OverrideLookVignette="False"
   crs:ToneCurveName2012="Custom"
   crs:CameraProfile="Adobe Standard"
   crs:HasSettings="True"
   crs:CropConstrainToWarp="0">
   <crs:Name>
    <rdf:Alt>
     <rdf:li xml:lang="x-default">Tone 11</rdf:li>
    </rdf:Alt>
   </crs:Name>
   <crs:ShortName>
    <rdf:Alt>
     <rdf:li xml:lang="x-default"/>
    </rdf:Alt>
   </crs:ShortName>
   <crs:SortName>
    <rdf:Alt>
     <rdf:li xml:lang="x-default"/>
    </rdf:Alt>
   </crs:SortName>
   <crs:Group>
    <rdf:Alt>
     <rdf:li xml:lang="x-default">INS Style</rdf:li>
    </rdf:Alt>
   </crs:Group>
   <crs:Description>
    <rdf:Alt>
     <rdf:li xml:lang="x-default"/>
    </rdf:Alt>
   </crs:Description>
   <crs:ToneCurvePV2012>
    <rdf:Seq>
     <rdf:li>0, 28</rdf:li>
     <rdf:li>29, 40</rdf:li>
     <rdf:li>78, 84</rdf:li>
     <rdf:li>146, 148</rdf:li>
     <rdf:li>207, 202</rdf:li>
     <rdf:li>255, 247</rdf:li>
    </rdf:Seq>
   </crs:ToneCurvePV2012>
   <crs:ToneCurvePV2012Red>
    <rdf:Seq>
     <rdf:li>0, 0</rdf:li>
     <rdf:li>43, 20</rdf:li>
     <rdf:li>113, 123</rdf:li>
     <rdf:li>178, 203</rdf:li>
     <rdf:li>255, 255</rdf:li>
    </rdf:Seq>
   </crs:ToneCurvePV2012Red>
   <crs:ToneCurvePV2012Green>
    <rdf:Seq>
     <rdf:li>0, 8</rdf:li>
     <rdf:li>40, 21</rdf:li>
     <rdf:li>113, 123</rdf:li>
     <rdf:li>178, 203</rdf:li>
     <rdf:li>255, 255</rdf:li>
    </rdf:Seq>
   </crs:ToneCurvePV2012Green>
   <crs:ToneCurvePV2012Blue>
    <rdf:Seq>
     <rdf:li>0, 0</rdf:li>
     <rdf:li>42, 23</rdf:li>
     <rdf:li>116, 122</rdf:li>
     <rdf:li>178, 203</rdf:li>
     <rdf:li>255, 255</rdf:li>
    </rdf:Seq>
   </crs:ToneCurvePV2012Blue>
   <crs:Look
    crs:Name=""/>
  </rdf:Description>
 </rdf:RDF>
</x:xmpmeta>
