20 Preset/Natural Girl/【1】LRtemplate Lightroom bản cũ/2/Tone  (3).lrtemplate
s = {
	id = "04856A21-5E20-4885-99EC-02D647983C9F",
	internalName = "自然胶片-素材江湖（原版）09",
	title = "自然胶片-素材江湖（原版）09",
	type = "Develop",
	value = {
		settings = {
			AutoLateralCA = 0,
			Blacks2012 = 39,
			BlueHue = 0,
			BlueSaturation = 0,
			CameraProfile = "Embedded",
			ChromaticAberrationB = 0,
			ChromaticAberrationR = 0,
			Clarity2012 = -5,
			ColorNoiseReduction = 11,
			ColorNoiseReductionDetail = 26,
			ColorNoiseReductionSmoothness = 26,
			Contrast2012 = -100,
			ConvertToGrayscale = false,
			CropConstrainToWarp = 0,
			Defringe = 0,
			DefringeGreenAmount = 0,
			DefringeGreenHueHi = 60,
			DefringeGreenHueLo = 40,
			DefringePurpleAmount = 0,
			DefringePurpleHueHi = 70,
			DefringePurpleHueLo = 30,
			Dehaze = 0,
			EnableCalibration = true,
			EnableColorAdjustments = true,
			EnableDetail = true,
			EnableEffects = true,
			EnableLensCorrections = true,
			EnableSplitToning = true,
			Exposure2012 = 0,
			GrainAmount = 13,
			GrainFrequency = 50,
			GrainSize = 25,
			GreenHue = 0,
			GreenSaturation = 0,
			Highlights2012 = -73,
			HueAdjustmentAqua = 0,
			HueAdjustmentBlue = 3,
			HueAdjustmentGreen = 7,
			HueAdjustmentMagenta = 15,
			HueAdjustmentOrange = 0,
			HueAdjustmentPurple = 30,
			HueAdjustmentRed = 35,
			HueAdjustmentYellow = 0,
			IncrementalTemperature = 5,
			IncrementalTint = -36,
			LensManualDistortionAmount = 0,
			LuminanceAdjustmentAqua = 0,
			LuminanceAdjustmentBlue = 11,
			LuminanceAdjustmentGreen = -15,
			LuminanceAdjustmentMagenta = -25,
			LuminanceAdjustmentOrange = 0,
			LuminanceAdjustmentPurple = -10,
			LuminanceAdjustmentRed = -20,
			LuminanceAdjustmentYellow = 0,
			LuminanceNoiseReductionContrast = 0,
			LuminanceNoiseReductionDetail = 50,
			LuminanceSmoothing = 0,
			ParametricDarks = 0,
			ParametricHighlightSplit = 75,
			ParametricHighlights = 0,
			ParametricLights = 0,
			ParametricMidtoneSplit = 60,
			ParametricShadowSplit = 14,
			ParametricShadows = 10,
			PostCropVignetteAmount = 0,
			PostCropVignetteFeather = 50,
			PostCropVignetteHighlightContrast = 0,
			PostCropVignetteMidpoint = 50,
			PostCropVignetteRoundness = 0,
			PostCropVignetteStyle = 1,
			ProcessVersion = "10.0",
			RedHue = 0,
			RedSaturation = 0,
			Saturation = -38,
			SaturationAdjustmentAqua = -15,
			SaturationAdjustmentBlue = -36,
			SaturationAdjustmentGreen = -36,
			SaturationAdjustmentMagenta = -20,
			SaturationAdjustmentOrange = -5,
			SaturationAdjustmentPurple = -10,
			SaturationAdjustmentRed = -10,
			SaturationAdjustmentYellow = -1,
			ShadowTint = 0,
			Shadows2012 = 53,
			SharpenDetail = 25,
			SharpenEdgeMasking = 82,
			SharpenRadius = 1.2,
			Sharpness = 47,
			SplitToningBalance = 0,
			SplitToningHighlightHue = 56,
			SplitToningHighlightSaturation = 6,
			SplitToningShadowHue = 64,
			SplitToningShadowSaturation = 1,
			ToneCurveName2012 = "Custom",
			ToneCurvePV2012 = {
				0,
				2,
				56,
				49,
				189,
				189,
				255,
				241,
			},
			ToneCurvePV2012Blue = {
				0,
				0,
				40,
				26,
				119,
				124,
				181,
				200,
				255,
				255,
			},
			ToneCurvePV2012Green = {
				0,
				0,
				40,
				25,
				119,
				125,
				184,
				197,
				255,
				255,
			},
			ToneCurvePV2012Red = {
				0,
				0,
				40,
				26,
				119,
				123,
				185,
				195,
				255,
				255,
			},
			Vibrance = 0,
			VignetteAmount = 0,
			VignetteMidpoint = 50,
			WhiteBalance = "Custom",
			Whites2012 = -85,
		},
		uuid = "1A7412D0-A5F1-4B12-B423-C1B8E30C6EAE",
	},
	version = 0,
}
