20 Preset/Natural Girl/【1】LRtemplate Lightroom bản cũ/2/Tone  (9).lrtemplate
s = {
	id = "08EB7ABE-5BF6-4CB1-86AD-A7C0DFD2E2C2",
	internalName = "自然胶片-素材江湖（原版）15",
	title = "自然胶片-素材江湖（原版）15",
	type = "Develop",
	value = {
		settings = {
			AutoLateralCA = 0,
			Blacks2012 = 26,
			BlueHue = -15,
			BlueSaturation = 25,
			CameraProfile = "Embedded",
			ChromaticAberrationB = 0,
			ChromaticAberrationR = 0,
			Clarity2012 = -8,
			ColorNoiseReduction = 25,
			ColorNoiseReductionDetail = 50,
			ColorNoiseReductionSmoothness = 50,
			Contrast2012 = -73,
			ConvertToGrayscale = false,
			CropConstrainToWarp = 0,
			Defringe = 0,
			DefringeGreenAmount = 0,
			DefringeGreenHueHi = 60,
			DefringeGreenHueLo = 40,
			DefringePurpleAmount = 0,
			DefringePurpleHueHi = 70,
			DefringePurpleHueLo = 30,
			Dehaze = 0,
			EnableCalibration = true,
			EnableColorAdjustments = true,
			EnableDetail = true,
			EnableEffects = true,
			EnableLensCorrections = true,
			EnableSplitToning = true,
			Exposure2012 = 0,
			GrainAmount = 18,
			GrainFrequency = 25,
			GrainSize = 80,
			GreenHue = 11,
			GreenSaturation = -37,
			Highlights2012 = -100,
			HueAdjustmentAqua = 0,
			HueAdjustmentBlue = 3,
			HueAdjustmentGreen = -5,
			HueAdjustmentMagenta = 15,
			HueAdjustmentOrange = 33,
			HueAdjustmentPurple = 30,
			HueAdjustmentRed = 19,
			HueAdjustmentYellow = 0,
			LensManualDistortionAmount = 0,
			LuminanceAdjustmentAqua = 0,
			LuminanceAdjustmentBlue = 56,
			LuminanceAdjustmentGreen = -15,
			LuminanceAdjustmentMagenta = -25,
			LuminanceAdjustmentOrange = 10,
			LuminanceAdjustmentPurple = -10,
			LuminanceAdjustmentRed = 4,
			LuminanceAdjustmentYellow = -2,
			LuminanceNoiseReductionContrast = 0,
			LuminanceNoiseReductionDetail = 50,
			LuminanceSmoothing = 0,
			ParametricDarks = 4,
			ParametricHighlightSplit = 75,
			ParametricHighlights = -12,
			ParametricLights = 24,
			ParametricMidtoneSplit = 60,
			ParametricShadowSplit = 14,
			ParametricShadows = 13,
			PostCropVignetteAmount = 0,
			PostCropVignetteFeather = 50,
			PostCropVignetteHighlightContrast = 0,
			PostCropVignetteMidpoint = 50,
			PostCropVignetteRoundness = 0,
			PostCropVignetteStyle = 1,
			ProcessVersion = "10.0",
			RedHue = 10,
			RedSaturation = 0,
			Saturation = -8,
			SaturationAdjustmentAqua = -49,
			SaturationAdjustmentBlue = -39,
			SaturationAdjustmentGreen = -59,
			SaturationAdjustmentMagenta = -20,
			SaturationAdjustmentOrange = 1,
			SaturationAdjustmentPurple = -10,
			SaturationAdjustmentRed = -34,
			SaturationAdjustmentYellow = -9,
			ShadowTint = 0,
			Shadows2012 = -10,
			SharpenDetail = 25,
			SharpenEdgeMasking = 97,
			SharpenRadius = 1.2,
			Sharpness = 0,
			SplitToningBalance = 0,
			SplitToningHighlightHue = 64,
			SplitToningHighlightSaturation = 0,
			SplitToningShadowHue = 41,
			SplitToningShadowSaturation = 0,
			ToneCurveName2012 = "Custom",
			ToneCurvePV2012 = {
				0,
				14,
				55,
				51,
				128,
				128,
				255,
				219,
			},
			ToneCurvePV2012Blue = {
				0,
				0,
				40,
				32,
				119,
				124,
				180,
				198,
				255,
				255,
			},
			ToneCurvePV2012Green = {
				0,
				0,
				37,
				33,
				119,
				125,
				184,
				197,
				255,
				255,
			},
			ToneCurvePV2012Red = {
				0,
				0,
				54,
				46,
				119,
				123,
				185,
				195,
				255,
				255,
			},
			Vibrance = -9,
			VignetteAmount = 0,
			VignetteMidpoint = 50,
			WhiteBalance = "As Shot",
			Whites2012 = -84,
		},
		uuid = "F44FAA82-1784-44C6-BE43-FB2E0605472C",
	},
	version = 0,
}
