20 Preset/Ociden Style/【1】LRtemplate Lightroom bản cũ/Ocident style 2/Spectrum 17.lrtemplate
s = {
	id = "F823BFE1-0B40-4B55-ADA8-88A9125F4DDE",
	internalName = "Spectrum 17",
	title = "Spectrum 17",
	type = "Develop",
	value = {
		settings = {
			AutoLateralCA = 0,
			Blacks2012 = 0,
			BlueHue = 0,
			BlueSaturation = 0,
			CameraProfile = "Adobe Standard",
			ChromaticAberrationB = 0,
			ChromaticAberrationR = 0,
			Clarity2012 = 0,
			ColorNoiseReduction = 25,
			ColorNoiseReductionDetail = 50,
			ColorNoiseReductionSmoothness = 50,
			Contrast2012 = 22,
			ConvertToGrayscale = false,
			CropConstrainToWarp = 0,
			Defringe = 0,
			DefringeGreenAmount = 0,
			DefringeGreenHueHi = 60,
			DefringeGreenHueLo = 40,
			DefringePurpleAmount = 0,
			DefringePurpleHueHi = 70,
			DefringePurpleHueLo = 30,
			Dehaze = 6,
			EnableCalibration = true,
			EnableCircularGradientBasedCorrections = true,
			EnableColorAdjustments = true,
			EnableDetail = true,
			EnableEffects = true,
			EnableGradientBasedCorrections = true,
			EnableLensCorrections = true,
			EnableSplitToning = true,
			EnableTransform = true,
			Exposure2012 = 0.2,
			GradientBasedCorrections = {
				{
					CorrectionActive = true,
					CorrectionAmount = 1,
					CorrectionID = "30AFE219-361B-43D3-936C-8B0AE6E16ABC",
					CorrectionMasks = {
						{
							FullX = -0.11343,
							FullY = 0.493048,
							MaskID = "2F7E1D6E-C0AB-49BA-9511-D39EC6FC8205",
							MaskValue = 1,
							What = "Mask/Gradient",
							ZeroX = 0.701175,
							ZeroY = 0.501996,
						},
					},
					CorrectionReferenceX = 0.293872,
					CorrectionReferenceY = 0.497522,
					LocalBlacks2012 = 0,
					LocalBrightness = 0,
					LocalClarity = 0,
					LocalClarity2012 = 0,
					LocalContrast = 0,
					LocalContrast2012 = 0.083746,
					LocalDefringe = 0,
					LocalDehaze = 0,
					LocalExposure = 0,
					LocalExposure2012 = -0.03992,
					LocalHighlights2012 = 0,
					LocalLuminanceNoise = 0,
					LocalMoire = 0,
					LocalSaturation = 0,
					LocalShadows2012 = 0,
					LocalSharpness = 0,
					LocalTemperature = 0,
					LocalTint = 0,
					LocalToningHue = 0,
					LocalToningSaturation = 0,
					LocalWhites2012 = 0,
					What = "Correction",
				},
			},
			GrainAmount = 96,
			GrainFrequency = 42,
			GrainSize = 5,
			GreenHue = 91,
			GreenSaturation = 0,
			Highlights2012 = -20,
			HueAdjustmentAqua = -13,
			HueAdjustmentBlue = 16,
			HueAdjustmentGreen = 66,
			HueAdjustmentMagenta = 0,
			HueAdjustmentOrange = -12,
			HueAdjustmentPurple = 0,
			HueAdjustmentRed = -21,
			HueAdjustmentYellow = -11,
			LensManualDistortionAmount = 0,
			LensProfileEnable = 0,
			LensProfileSetup = "LensDefaults",
			LuminanceAdjustmentAqua = 0,
			LuminanceAdjustmentBlue = 0,
			LuminanceAdjustmentGreen = -11,
			LuminanceAdjustmentMagenta = 0,
			LuminanceAdjustmentOrange = 17,
			LuminanceAdjustmentPurple = 0,
			LuminanceAdjustmentRed = 20,
			LuminanceAdjustmentYellow = 6,
			LuminanceNoiseReductionContrast = 0,
			LuminanceNoiseReductionDetail = 50,
			LuminanceSmoothing = 0,
			ParametricDarks = 0,
			ParametricHighlightSplit = 75,
			ParametricHighlights = 0,
			ParametricLights = 0,
			ParametricMidtoneSplit = 50,
			ParametricShadowSplit = 25,
			ParametricShadows = 0,
			PerspectiveAspect = 0,
			PerspectiveHorizontal = 0,
			PerspectiveRotate = 0,
			PerspectiveScale = 100,
			PerspectiveUpright = 0,
			PerspectiveVertical = 0,
			PerspectiveX = 0,
			PerspectiveY = 0,
			PostCropVignetteAmount = 0,
			PostCropVignetteFeather = 50,
			PostCropVignetteHighlightContrast = 0,
			PostCropVignetteMidpoint = 50,
			PostCropVignetteRoundness = 0,
			PostCropVignetteStyle = 1,
			ProcessVersion = "6.7",
			RedHue = 35,
			RedSaturation = -41,
			Saturation = 0,
			SaturationAdjustmentAqua = -26,
			SaturationAdjustmentBlue = -40,
			SaturationAdjustmentGreen = 9,
			SaturationAdjustmentMagenta = 0,
			SaturationAdjustmentOrange = 9,
			SaturationAdjustmentPurple = 0,
			SaturationAdjustmentRed = 0,
			SaturationAdjustmentYellow = -27,
			ShadowTint = -14,
			Shadows2012 = -24,
			SharpenDetail = 25,
			SharpenEdgeMasking = 0,
			SharpenRadius = 1,
			Sharpness = 0,
			SplitToningBalance = 0,
			SplitToningHighlightHue = 131,
			SplitToningHighlightSaturation = 5,
			SplitToningShadowHue = 48,
			SplitToningShadowSaturation = 6,
			ToneCurveName2012 = "Custom",
			ToneCurvePV2012 = {
				0,
				15,
				63,
				63,
				255,
				255,
			},
			ToneCurvePV2012Blue = {
				0,
				0,
				255,
				255,
			},
			ToneCurvePV2012Green = {
				0,
				0,
				52,
				49,
				77,
				79,
				117,
				117,
				172,
				172,
				255,
				255,
			},
			ToneCurvePV2012Red = {
				0,
				0,
				29,
				24,
				81,
				84,
				131,
				131,
				255,
				255,
			},
			UprightCenterMode = 0,
			UprightCenterNormX = 0.5,
			UprightCenterNormY = 0.5,
			UprightFocalLength35mm = 35,
			UprightFocalMode = 0,
			UprightFourSegmentsCount = 0,
			UprightPreview = false,
			UprightTransformCount = 6,
			UprightVersion = 151388160,
			Vibrance = 0,
			VignetteAmount = -34,
			VignetteMidpoint = 50,
			WhiteBalance = "As Shot",
			Whites2012 = 27,
			orientation = "DA",
		},
		uuid = "B708D6AE-8B0B-4EBE-878D-B949010A9FA8",
	},
	version = 0,
}
