20 Preset/Ociden Style/【2】XMP cho Photoshop - Lightroom CC/Ocident style 5/Cvatik_Artemis_3.xmp
<x:xmpmeta xmlns:x="adobe:ns:meta/" x:xmptk="Adobe XMP Core 5.6-c140 79.160451, 2017/05/06-01:08:21        ">
 <rdf:RDF xmlns:rdf="http://www.w3.org/1999/02/22-rdf-syntax-ns#">
  <rdf:Description rdf:about=""
    xmlns:crs="http://ns.adobe.com/camera-raw-settings/1.0/"
   crs:PresetType="Normal"
   crs:Cluster=""
   crs:UUID="FCA2A5AD608924AD8660E15228D85340"
   crs:SupportsAmount="False"
   crs:SupportsColor="True"
   crs:SupportsMonochrome="True"
   crs:SupportsHighDynamicRange="True"
   crs:SupportsNormalDynamicRange="True"
   crs:SupportsSceneReferred="True"
   crs:SupportsOutputReferred="True"
   crs:CameraModelRestriction=""
   crs:Copyright=""
   crs:ContactInfo=""
   crs:Version="12.0"
   crs:ProcessVersion="6.7"
   crs:WhiteBalance="Custom"
   crs:Temperature="4806"
   crs:Tint="+6"
   crs:Saturation="-10"
   crs:Sharpness="25"
   crs:LuminanceSmoothing="0"
   crs:ColorNoiseReduction="25"
   crs:VignetteAmount="0"
   crs:ShadowTint="-21"
   crs:RedHue="+44"
   crs:RedSaturation="-17"
   crs:GreenHue="+78"
   crs:GreenSaturation="0"
   crs:BlueHue="-24"
   crs:BlueSaturation="0"
   crs:Vibrance="0"
   crs:HueAdjustmentRed="+6"
   crs:HueAdjustmentOrange="-19"
   crs:HueAdjustmentYellow="0"
   crs:HueAdjustmentGreen="0"
   crs:HueAdjustmentAqua="0"
   crs:HueAdjustmentBlue="0"
   crs:HueAdjustmentPurple="0"
   crs:HueAdjustmentMagenta="0"
   crs:SaturationAdjustmentRed="0"
   crs:SaturationAdjustmentOrange="0"
   crs:SaturationAdjustmentYellow="-21"
   crs:SaturationAdjustmentGreen="-23"
   crs:SaturationAdjustmentAqua="-8"
   crs:SaturationAdjustmentBlue="0"
   crs:SaturationAdjustmentPurple="0"
   crs:SaturationAdjustmentMagenta="0"
   crs:LuminanceAdjustmentRed="0"
   crs:LuminanceAdjustmentOrange="0"
   crs:LuminanceAdjustmentYellow="0"
   crs:LuminanceAdjustmentGreen="0"
   crs:LuminanceAdjustmentAqua="0"
   crs:LuminanceAdjustmentBlue="0"
   crs:LuminanceAdjustmentPurple="0"
   crs:LuminanceAdjustmentMagenta="0"
   crs:SplitToningShadowHue="54"
   crs:SplitToningShadowSaturation="9"
   crs:SplitToningHighlightHue="189"
   crs:SplitToningHighlightSaturation="12"
   crs:SplitToningBalance="0"
   crs:ParametricShadows="0"
   crs:ParametricDarks="0"
   crs:ParametricLights="0"
   crs:ParametricHighlights="0"
   crs:ParametricShadowSplit="25"
   crs:ParametricMidtoneSplit="50"
   crs:ParametricHighlightSplit="75"
   crs:SharpenRadius="+1.0"
   crs:SharpenDetail="25"
   crs:SharpenEdgeMasking="0"
   crs:PostCropVignetteAmount="0"
   crs:GrainAmount="31"
   crs:GrainSize="42"
   crs:GrainFrequency="69"
   crs:ColorNoiseReductionDetail="50"
   crs:ColorNoiseReductionSmoothness="50"
   crs:AutoLateralCA="0"
   crs:Exposure2012="+0.40"
   crs:Contrast2012="-10"
   crs:Highlights2012="-48"
   crs:Shadows2012="+27"
   crs:Whites2012="0"
   crs:Blacks2012="-16"
   crs:Clarity2012="0"
   crs:DefringePurpleAmount="0"
   crs:DefringePurpleHueLo="30"
   crs:DefringePurpleHueHi="70"
   crs:DefringeGreenAmount="0"
   crs:DefringeGreenHueLo="40"
   crs:DefringeGreenHueHi="60"
   crs:ConvertToGrayscale="False"
   crs:OverrideLookVignette="False"
   crs:ToneCurveName2012="Custom"
   crs:CameraProfile="Adobe Standard"
   crs:HasSettings="True">
   <crs:Name>
    <rdf:Alt>
     <rdf:li xml:lang="x-default">Cvatik_Artemis_3</rdf:li>
    </rdf:Alt>
   </crs:Name>
   <crs:ShortName>
    <rdf:Alt>
     <rdf:li xml:lang="x-default"/>
    </rdf:Alt>
   </crs:ShortName>
   <crs:SortName>
    <rdf:Alt>
     <rdf:li xml:lang="x-default"/>
    </rdf:Alt>
   </crs:SortName>
   <crs:Group>
    <rdf:Alt>
     <rdf:li xml:lang="x-default">Ocident style 5</rdf:li>
    </rdf:Alt>
   </crs:Group>
   <crs:Description>
    <rdf:Alt>
     <rdf:li xml:lang="x-default"/>
    </rdf:Alt>
   </crs:Description>
   <crs:ToneCurvePV2012>
    <rdf:Seq>
     <rdf:li>0, 15</rdf:li>
     <rdf:li>40, 31</rdf:li>
     <rdf:li>88, 71</rdf:li>
     <rdf:li>170, 153</rdf:li>
     <rdf:li>255, 232</rdf:li>
    </rdf:Seq>
   </crs:ToneCurvePV2012>
   <crs:ToneCurvePV2012Red>
    <rdf:Seq>
     <rdf:li>0, 0</rdf:li>
     <rdf:li>255, 255</rdf:li>
    </rdf:Seq>
   </crs:ToneCurvePV2012Red>
   <crs:ToneCurvePV2012Green>
    <rdf:Seq>
     <rdf:li>0, 0</rdf:li>
     <rdf:li>27, 22</rdf:li>
     <rdf:li>71, 71</rdf:li>
     <rdf:li>191, 191</rdf:li>
     <rdf:li>255, 255</rdf:li>
    </rdf:Seq>
   </crs:ToneCurvePV2012Green>
   <crs:ToneCurvePV2012Blue>
    <rdf:Seq>
     <rdf:li>0, 0</rdf:li>
     <rdf:li>255, 255</rdf:li>
    </rdf:Seq>
   </crs:ToneCurvePV2012Blue>
   <crs:GradientBasedCorrections>
    <rdf:Seq>
     <rdf:li>
      <rdf:Description
       crs:What="Correction"
       crs:CorrectionAmount="1.000000"
       crs:CorrectionActive="true"
       crs:LocalExposure="0.000000"
       crs:LocalSaturation="0.084621"
       crs:LocalContrast="0.000000"
       crs:LocalClarity="0.000000"
       crs:LocalSharpness="0.000000"
       crs:LocalBrightness="0.000000"
       crs:LocalToningHue="0.000000"
       crs:LocalToningSaturation="0.000000"
       crs:LocalExposure2012="0.115081"
       crs:LocalContrast2012="0.000000"
       crs:LocalHighlights2012="0.000000"
       crs:LocalShadows2012="0.000000"
       crs:LocalClarity2012="0.000000"
       crs:LocalLuminanceNoise="0.000000"
       crs:LocalMoire="0.000000"
       crs:LocalDefringe="0.000000"
       crs:LocalTemperature="0.240081"
       crs:LocalTint="0.149228">
      <crs:CorrectionMasks>
       <rdf:Seq>
        <rdf:li
         crs:What="Mask/Gradient"
         crs:MaskValue="1.000000"
         crs:ZeroX="0.539156"
         crs:ZeroY="0.613682"
         crs:FullX="1.096380"
         crs:FullY="0.275654"/>
       </rdf:Seq>
      </crs:CorrectionMasks>
      <crs:CorrectionRangeMask
       crs:Version="+2"
       crs:Type="0"
       crs:ColorAmount="0.500000"
       crs:LumMin="0.000000"
       crs:LumMax="1.000000"
       crs:LumFeather="0.500000"
       crs:DepthMin="0.000000"
       crs:DepthMax="1.000000"
       crs:DepthFeather="0.500000"/>
      </rdf:Description>
     </rdf:li>
    </rdf:Seq>
   </crs:GradientBasedCorrections>
   <crs:Look
    crs:Name=""/>
  </rdf:Description>
 </rdf:RDF>
</x:xmpmeta>
