20 Preset/Russian Style/【3】LUT video cho PR-AE-FCPX/Lut Tone (23).cube
# Created by Adobe Lightroom plugin Export LUT (1.24.0)
# www.johnrellis.com/lightroom/exportlut.htm
# Preset: 俄罗斯情绪-素材江湖12
# Color profile: C:\Program Files (x86)\Common Files\Adobe\Color\Profiles\Recommended\VideoHD.icc
LUT_3D_SIZE 8
DOMAIN_MIN 0.000000 0.000000 0.000000
DOMAIN_MAX 0.903226 0.903226 0.903226
0.000000 0.000000 0.000000
0.038880 0.000122 0.000000
0.145327 0.007477 0.000000
0.277317 0.045350 0.000000
0.444251 0.114351 0.000000
0.606592 0.163272 0.000000
0.747311 0.201450 0.000000
0.901213 0.242130 0.000000
0.000000 0.038392 0.011841
0.031983 0.039734 0.008637
0.146548 0.058106 0.000000
0.279942 0.101534 0.000000
0.446754 0.142641 0.000000
0.607813 0.182406 0.000000
0.748318 0.216709 0.000000
0.902129 0.254917 0.000000
0.000000 0.153597 0.069123
0.000000 0.155367 0.042023
0.141390 0.156649 0.034852
0.284184 0.184451 0.000000
0.456703 0.218448 0.000000
0.611627 0.247410 0.000000
0.752438 0.272770 0.000000
0.905913 0.303899 0.000000
0.000000 0.301305 0.138460
0.000000 0.302464 0.127657
0.000000 0.305272 0.098268
0.273838 0.305272 0.089998
0.442542 0.333043 0.000000
0.611475 0.349554 0.000000
0.759121 0.364630 0.000000
0.912413 0.387213 0.000000
0.000000 0.462257 0.219394
0.000000 0.462715 0.213352
0.000000 0.464820 0.178897
0.215915 0.464881 0.168643
0.415351 0.461311 0.164126
0.572930 0.473365 0.144747
0.745510 0.490303 0.056428
0.917449 0.502586 0.000000
0.000000 0.598230 0.309880
0.000000 0.598413 0.307927
0.000000 0.599115 0.300908
0.000000 0.600580 0.280247
0.372107 0.600977 0.272099
0.543969 0.598688 0.271244
0.705287 0.619165 0.265660
0.887144 0.644251 0.243656
0.000000 0.750546 0.418616
0.000000 0.750637 0.418372
0.000000 0.750973 0.417334
0.000000 0.752987 0.400214
0.325017 0.754116 0.394659
0.530236 0.754757 0.389807
0.690211 0.753811 0.390143
0.848997 0.775662 0.393194
0.000000 0.903075 0.537041
0.000000 0.903044 0.537469
0.000000 0.902770 0.540215
0.000000 0.902068 0.548882
0.326177 0.903807 0.534478
0.529381 0.904723 0.530999
0.695064 0.904295 0.531273
0.840085 0.902983 0.535515
0.009064 0.013397 0.038636
0.057282 0.012390 0.040070
0.161318 0.005402 0.025299
0.292302 0.048615 0.004822
0.455756 0.110231 0.000000
0.613397 0.154360 0.000000
0.752224 0.193637 0.000000
0.904875 0.234470 0.000000
0.000000 0.060945 0.060609
0.058747 0.061982 0.057008
0.161654 0.076051 0.046113
0.294865 0.102052 0.011719
0.457954 0.137881 0.000000
0.614252 0.175723 0.000000
0.753170 0.210208 0.000000
0.905791 0.248234 0.000000
0.000000 0.165408 0.109895
0.000000 0.167147 0.103395
0.154391 0.168490 0.093477
0.298985 0.191165 0.051698
0.466316 0.219913 0.000000
0.617212 0.245457 0.000000
0.756924 0.269718 0.000000
0.909270 0.299748 0.000000
0.000000 0.308995 0.167208
0.000000 0.310094 0.160403
0.000000 0.313054 0.135195
0.282322 0.312963 0.128786
0.451362 0.338567 0.094087
0.617090 0.351446 0.000000
0.762448 0.365698 0.000000
0.915038 0.386755 0.000000
0.000000 0.466407 0.241611
0.000000 0.466926 0.237003
0.000000 0.468940 0.207950
0.224857 0.468879 0.197269
0.420539 0.465217 0.193210
0.577234 0.476783 0.178653
0.749081 0.492866 0.135714
0.918944 0.504570 0.000000
0.000000 0.600610 0.325963
0.000000 0.600855 0.324376
0.000000 0.601495 0.318791
0.000000 0.602899 0.300023
0.378790 0.603449 0.292180
0.547784 0.601251 0.291234
0.708217 0.621698 0.286381
0.888914 0.646296 0.267918
0.000000 0.751949 0.429786
0.000000 0.752010 0.429541
0.000000 0.752407 0.428473
0.000000 0.754360 0.411963
0.332677 0.755489 0.406561
0.533837 0.756161 0.401648
0.692531 0.755215 0.401892
0.850462 0.776944 0.404761
0.000000 0.903716 0.543725
0.000000 0.903655 0.544244
0.000000 0.903410 0.546929
0.000000 0.902647 0.555505
0.335271 0.904265 0.542687
0.533623 0.905180 0.539300
0.697353 0.904784 0.539391
0.841367 0.903441 0.543359
0.004669 0.062196 0.151186
0.081147 0.063630 0.150027
0.190066 0.051453 0.158206
0.333654 0.000000 0.153048
0.491371 0.000000 0.122683
0.634363 0.106416 0.095705
0.768978 0.161746 0.000000
0.918090 0.203159 0.000000
0.035157 0.113527 0.163333
0.084932 0.106020 0.162997
0.194705 0.105623 0.166293
0.336553 0.065248 0.154665
0.492012 0.096254 0.133333
0.634333 0.148104 0.107088
0.769589 0.186191 0.000000
0.918700 0.221958 0.000000
0.000000 0.199039 0.196292
0.012757 0.199283 0.195529
0.194217 0.200961 0.191684
0.337346 0.209567 0.183658
0.494331 0.225193 0.165713
0.634516 0.243046 0.137423
0.771389 0.263828 0.067750
0.920897 0.287816 0.000000
0.000000 0.334112 0.251347
0.000000 0.335027 0.249546
0.125093 0.337713 0.239170
0.313237 0.338109 0.229068
0.481575 0.356451 0.217655
0.631800 0.361883 0.198489
0.773526 0.373449 0.161929
0.923674 0.389105 0.046326
0.000000 0.481483 0.315190
0.000000 0.481697 0.312932
0.000000 0.482612 0.303685
0.262577 0.483253 0.287327
0.440925 0.479805 0.283604
0.593530 0.490333 0.276463
0.762356 0.504265 0.258732
0.924041 0.513939 0.223545
0.000000 0.610101 0.384009
0.000000 0.610254 0.383185
0.000000 0.610681 0.380835
0.182498 0.612055 0.369146
0.406165 0.613123 0.362158
0.563195 0.611200 0.361059
0.719600 0.631952 0.357671
0.896147 0.654414 0.346715
0.000000 0.757717 0.471901
0.000000 0.757809 0.471687
0.000000 0.758145 0.470283
0.000000 0.759091 0.466590
0.359136 0.761227 0.450629
0.547326 0.762051 0.445533
0.701961 0.760922 0.445380
0.857755 0.782223 0.448157
0.000000 0.906371 0.570397
0.000000 0.906340 0.570855
0.000000 0.905974 0.573541
0.000000 0.905119 0.581537
0.370306 0.906096 0.575280
0.550591 0.906950 0.571954
0.706813 0.906767 0.571283
0.846738 0.905303 0.574609
0.000000 0.124880 0.292515
0.079988 0.127108 0.292210
0.208896 0.138827 0.290410
0.368048 0.126894 0.305150
0.527214 0.080323 0.300175
0.661616 0.000000 0.263981
0.791897 0.126528 0.243442
0.935393 0.182650 0.219120
0.000000 0.164340 0.302281
0.093568 0.160922 0.301976
0.215488 0.169589 0.299504
0.370123 0.161227 0.310521
0.527398 0.135256 0.302861
0.661189 0.109529 0.267185
0.791226 0.172824 0.251713
0.935210 0.211887 0.226841
0.021424 0.257725 0.325994
0.123384 0.257633 0.325841
0.226963 0.251499 0.326757
0.374243 0.253483 0.329290
0.527337 0.245762 0.315190
0.655543 0.258488 0.296605
0.788968 0.281773 0.283757
0.934905 0.296635 0.253941
0.000000 0.374304 0.369055
0.000000 0.374365 0.368597
0.203983 0.375280 0.366949
0.366735 0.377813 0.362432
0.516472 0.385321 0.357641
0.646021 0.391913 0.347662
0.786526 0.400549 0.330907
0.933989 0.407813 0.301030
0.000000 0.504662 0.416724
0.000000 0.504814 0.416052
0.116487 0.504936 0.413947
0.341772 0.504479 0.411719
0.477485 0.503105 0.405341
0.620752 0.515709 0.403052
0.782864 0.527550 0.396002
0.930510 0.534844 0.372595
0.000000 0.626917 0.471595
0.000000 0.626978 0.471290
0.000000 0.627314 0.469947
0.296941 0.628138 0.467048
0.448737 0.630121 0.456245
0.590082 0.629114 0.453742
0.742061 0.649531 0.451514
0.911284 0.666773 0.445991
0.000000 0.768582 0.538750
0.000000 0.768673 0.538384
0.000000 0.769100 0.536584
0.166995 0.769741 0.533898
0.403357 0.771511 0.523369
0.571618 0.772732 0.517754
0.719417 0.771298 0.517327
0.871763 0.791684 0.520378
0.000000 0.911772 0.616114
0.000000 0.911650 0.616541
0.000000 0.911192 0.618860
0.037690 0.910094 0.625757
0.434760 0.909026 0.635004
0.579126 0.910369 0.627070
0.723384 0.910399 0.625086
0.856596 0.908873 0.627466
0.000000 0.207065 0.449378
0.109743 0.209689 0.449226
0.244938 0.220645 0.448280
0.375311 0.236698 0.446418
0.547509 0.224949 0.458686
0.677363 0.230320 0.440955
0.807980 0.234165 0.423804
0.947814 0.250401 0.406348
0.017487 0.235355 0.454871
0.129549 0.237125 0.454566
0.251408 0.245274 0.453346
0.377111 0.259770 0.450782
0.547143 0.248783 0.461463
0.675959 0.254002 0.443854
0.807095 0.258427 0.427649
0.947204 0.273411 0.411231
0.193332 0.333593 0.468360
0.211490 0.330785 0.468574
0.266545 0.317113 0.469093
0.386145 0.330632 0.466285
0.543633 0.327214 0.472084
0.669886 0.332128 0.457038
0.804135 0.334813 0.442573
0.945251 0.346990 0.429419
0.153902 0.422370 0.490517
0.192874 0.422675 0.490272
0.296574 0.424811 0.489326
0.406989 0.427008 0.490089
0.534569 0.432349 0.491188
0.662440 0.432380 0.480598
0.801114 0.436591 0.469795
0.944030 0.442664 0.456001
0.066712 0.531395 0.525261
0.149203 0.531487 0.525017
0.275944 0.531792 0.524163
0.402808 0.532860 0.522728
0.523613 0.535119 0.519280
0.658015 0.543786 0.517998
0.799832 0.549615 0.508782
0.942779 0.552392 0.491920
0.000000 0.649897 0.569451
0.000000 0.650263 0.569482
0.204471 0.651423 0.568750
0.355932 0.652186 0.564904
0.497444 0.653559 0.560082
0.625788 0.653559 0.553704
0.776059 0.671229 0.554681
0.935027 0.680354 0.552850
0.000000 0.785092 0.623255
0.000000 0.785122 0.622522
0.000000 0.785245 0.619501
0.237034 0.785397 0.615900
0.459632 0.785306 0.616083
0.606043 0.786740 0.608179
0.744411 0.785611 0.606226
0.892210 0.804135 0.609979
0.000000 0.920592 0.675563
0.000000 0.920439 0.675837
0.000000 0.919768 0.677455
0.000000 0.918273 0.682429
0.454505 0.915923 0.693751
0.614343 0.915587 0.696254
0.745144 0.915892 0.692775
0.870787 0.914061 0.694301
0.177615 0.306798 0.581903
0.208194 0.309117 0.581781
0.297124 0.318639 0.581018
0.406836 0.336797 0.579522
0.533349 0.351171 0.577905
0.693141 0.348028 0.591394
0.820829 0.360266 0.580163
0.953338 0.371710 0.575525
0.198398 0.327337 0.584741
0.224765 0.329198 0.584588
0.306188 0.337224 0.583764
0.411658 0.353277 0.582208
0.534508 0.366979 0.580438
0.692500 0.363073 0.593408
0.820035 0.373480 0.582422
0.953063 0.383368 0.577630
0.277287 0.403052 0.593439
0.286625 0.400580 0.593622
0.331792 0.395911 0.593744
0.427314 0.407782 0.592309
0.538384 0.420935 0.590570
0.690303 0.415381 0.601404
0.817990 0.420233 0.591272
0.952087 0.427802 0.586267
0.312779 0.485756 0.607507
0.329351 0.486915 0.607782
0.388678 0.491951 0.608881
0.444526 0.481849 0.610773
0.544854 0.495155 0.609613
0.688106 0.490578 0.616358
0.816098 0.493538 0.607904
0.951110 0.499428 0.601923
0.288975 0.574578 0.635676
0.305608 0.574762 0.635523
0.364630 0.575189 0.634943
0.455390 0.575982 0.633845
0.557549 0.576898 0.635645
0.684138 0.581140 0.637995
0.816251 0.582147 0.630701
0.951873 0.586236 0.622339
0.227481 0.679683 0.673213
0.249851 0.679774 0.673091
0.323003 0.680262 0.672724
0.425605 0.681331 0.672114
0.544610 0.683284 0.671412
0.673426 0.685786 0.668757
0.814389 0.695033 0.669581
0.948516 0.696651 0.659602
0.000000 0.803403 0.722042
0.000000 0.803616 0.721950
0.199069 0.804654 0.721462
0.355932 0.806638 0.720485
0.503441 0.806455 0.715999
0.654627 0.805631 0.714168
0.778714 0.805509 0.709163
0.918853 0.820706 0.714626
0.000000 0.931243 0.770626
0.000000 0.931151 0.770169
0.000000 0.930724 0.768185
0.183658 0.929686 0.764126
0.446540 0.927306 0.762387
0.653010 0.923461 0.775570
0.776730 0.923217 0.774441
0.890196 0.921569 0.774411
0.319036 0.430091 0.729824
0.334600 0.431922 0.729976
0.389868 0.438209 0.729397
0.475013 0.449958 0.728542
0.574395 0.466407 0.727291
0.702663 0.468910 0.726436
0.855436 0.463447 0.736965
0.958099 0.480995 0.714015
0.327306 0.441871 0.730343
0.341833 0.443549 0.730556
0.394598 0.448951 0.730007
0.477119 0.459144 0.729000
0.575067 0.474281 0.727596
0.701228 0.476967 0.726467
0.852964 0.471077 0.736477
0.955810 0.487556 0.714015
0.363104 0.490700 0.737179
0.369329 0.488655 0.737331
0.408392 0.487892 0.737026
0.486458 0.495766 0.736019
0.581872 0.508904 0.734524
0.701991 0.513848 0.733394
0.851347 0.508721 0.742489
0.955047 0.524041 0.722927
0.425086 0.572747 0.747372
0.432898 0.572107 0.747433
0.453223 0.564630 0.747890
0.499275 0.555230 0.748928
0.592889 0.566827 0.747768
0.703426 0.576776 0.746975
0.847898 0.571893 0.753841
0.952941 0.583917 0.738369
0.400671 0.638361 0.762203
0.411292 0.638117 0.761746
0.453315 0.637873 0.760586
0.530053 0.642542 0.761654
0.600000 0.635615 0.764096
0.702296 0.651148 0.763668
0.840787 0.646418 0.767910
0.951568 0.656184 0.758846
0.375494 0.727810 0.789151
0.387152 0.727871 0.789059
0.431891 0.727779 0.788540
0.506889 0.727413 0.787411
0.603754 0.726925 0.785458
0.710750 0.729061 0.787503
0.834379 0.735592 0.790311
0.950042 0.741085 0.785153
0.335088 0.827634 0.822538
0.348913 0.827817 0.822599
0.399725 0.828061 0.822385
0.483223 0.828672 0.822080
0.586694 0.829587 0.821500
0.702968 0.831266 0.821195
0.823667 0.833524 0.820005
0.944549 0.840818 0.821866
0.285161 0.938293 0.865446
0.302007 0.938354 0.865385
0.364202 0.938628 0.865293
0.456794 0.938781 0.864561
0.566125 0.938750 0.863279
0.685237 0.936950 0.860197
0.820401 0.933135 0.863890
0.915129 0.932372 0.861814
0.471534 0.569055 0.876738
0.480415 0.570275 0.876738
0.514916 0.574487 0.875944
0.575952 0.583490 0.875029
0.655573 0.597467 0.873533
0.745205 0.616999 0.871550
0.867338 0.615351 0.871336
0.992920 0.617578 0.873899
0.475563 0.576349 0.876829
0.484291 0.577539 0.876860
0.518151 0.581628 0.876249
0.578088 0.590112 0.875242
0.656825 0.603571 0.873777
0.745785 0.622492 0.871855
0.866300 0.620935 0.871489
0.991516 0.622675 0.873991
0.494179 0.607416 0.879637
0.499092 0.606470 0.879698
0.530632 0.609857 0.879057
0.588251 0.617914 0.878538
0.663661 0.629603 0.876982
0.749813 0.646387 0.874968
0.864591 0.646387 0.874540
0.988006 0.646845 0.876921
0.544121 0.670893 0.883757
0.547845 0.669825 0.883940
0.562799 0.665003 0.884245
0.601587 0.662440 0.884520
0.673518 0.672541 0.883268
0.756619 0.687160 0.881682
0.861906 0.690455 0.881102
0.982300 0.689265 0.883207
0.558770 0.730892 0.891478
0.565942 0.731411 0.891508
0.593957 0.732937 0.891173
0.637324 0.732753 0.891447
0.679988 0.723781 0.892363
0.761868 0.736141 0.891020
0.857237 0.744991 0.890410
0.974884 0.743282 0.892485
0.545403 0.794949 0.906065
0.551446 0.794736 0.905852
0.576745 0.794125 0.904936
0.624598 0.793271 0.903441
0.697230 0.796170 0.902586
0.766201 0.794308 0.904509
0.854398 0.811368 0.904417
0.965148 0.808957 0.905486
0.544030 0.871855 0.925841
0.550164 0.871824 0.925719
0.575647 0.871641 0.925231
0.623346 0.871458 0.924346
0.690364 0.871122 0.922881
0.772000 0.870787 0.920531
0.859373 0.872801 0.920348
0.952972 0.879484 0.921080
0.548180 0.946563 0.944182
0.554253 0.946563 0.944121
0.579583 0.946624 0.943999
0.627283 0.946868 0.943816
0.693782 0.947173 0.943481
0.774014 0.947448 0.942992
0.862852 0.947784 0.942565
0.944335 0.948547 0.942687
