20 Preset/Russian Style/【3】LUT video cho PR-AE-FCPX/Lut Tone (8).cube
# Created by Adobe Lightroom plugin Export LUT (1.24.0)
# www.johnrellis.com/lightroom/exportlut.htm
# Preset: 俄罗斯情绪-素材江湖04
# Color profile: C:\Program Files (x86)\Common Files\Adobe\Color\Profiles\Recommended\VideoHD.icc
LUT_3D_SIZE 5
DOMAIN_MIN 0.000000 0.000000 0.000000
DOMAIN_MAX 0.903226 0.903226 0.903226
0.000000 0.000000 0.000000
0.223972 0.032136 0.000000
0.500237 0.141482 0.000000
0.868437 0.266361 0.000000
1.000000 0.351934 0.000000
0.000000 0.196384 0.132265
0.168704 0.207401 0.111238
0.478584 0.248753 0.000000
0.854704 0.338567 0.000000
1.000000 0.410285 0.000000
0.000000 0.457679 0.293980
0.000000 0.467292 0.278965
0.382513 0.490700 0.222385
0.797787 0.541863 0.000000
1.000000 0.577905 0.000000
0.000000 0.804440 0.502983
0.000000 0.809812 0.491676
0.000000 0.828183 0.438758
0.662013 0.839628 0.383490
1.000000 0.836301 0.319127
0.000000 1.000000 0.673213
0.000000 1.000000 0.674342
0.000000 1.000000 0.703853
0.716884 1.000000 0.800107
0.910185 1.000000 0.785092
0.089326 0.092897 0.177981
0.226932 0.095125 0.180148
0.508049 0.129030 0.147036
0.870756 0.244083 0.000000
1.000000 0.337041 0.000000
0.000000 0.219211 0.218418
0.182406 0.227115 0.217502
0.485634 0.255253 0.187716
0.859617 0.325780 0.000000
1.000000 0.392828 0.000000
0.000000 0.469886 0.348852
0.000000 0.478706 0.341955
0.385626 0.503471 0.300969
0.805722 0.547295 0.214969
1.000000 0.574853 0.000000
0.000000 0.810483 0.541680
0.000000 0.815549 0.533104
0.000000 0.832486 0.495033
0.666346 0.844144 0.448219
1.000000 0.838926 0.394965
0.000000 1.000000 0.692988
0.000000 1.000000 0.694240
0.000000 1.000000 0.722438
0.738216 1.000000 0.821195
0.916136 1.000000 0.807187
0.146334 0.168887 0.407874
0.269810 0.175387 0.407935
0.532403 0.176638 0.416114
0.916289 0.000000 0.381628
1.000000 0.235569 0.303838
0.000000 0.292912 0.437263
0.218112 0.287358 0.438514
0.515770 0.286076 0.435004
0.902739 0.241794 0.391089
1.000000 0.338842 0.328191
0.000000 0.520958 0.519371
0.000000 0.524315 0.518395
0.412696 0.542473 0.515282
0.833768 0.567498 0.479377
1.000000 0.570855 0.412848
0.000000 0.830869 0.670893
0.000000 0.834592 0.668116
0.000000 0.847349 0.656489
0.694514 0.858610 0.640925
1.000000 0.848539 0.601678
0.000000 1.000000 0.761563
0.000000 1.000000 0.761868
0.000000 1.000000 0.781643
0.767971 1.000000 0.866484
0.935760 1.000000 0.872648
0.228641 0.282109 0.734768
0.349798 0.283299 0.733791
0.612665 0.282139 0.728725
0.935515 0.269688 0.724239
1.000000 0.377935 0.667689
0.000000 0.376562 0.753597
0.283726 0.376196 0.752102
0.591882 0.374304 0.745998
0.923430 0.373114 0.736141
1.000000 0.458747 0.683925
0.000000 0.613794 0.796109
0.000000 0.612909 0.794156
0.486275 0.617365 0.791379
0.857511 0.619226 0.776242
1.000000 0.676173 0.752163
0.000000 0.862364 0.863005
0.000000 0.864073 0.862394
0.000000 0.870695 0.859648
0.766995 0.879057 0.853880
1.000000 0.872862 0.831113
0.000000 1.000000 0.895262
0.000000 1.000000 0.892912
0.000000 1.000000 0.887205
0.762753 1.000000 0.919249
0.963806 0.999634 0.947845
0.461799 0.492470 0.996796
0.520104 0.495491 0.995789
0.704097 0.510430 0.992676
0.947814 0.535668 0.985779
1.000000 0.615717 0.930358
0.460609 0.555108 0.995422
0.516808 0.557488 0.994598
0.695216 0.568750 0.991363
0.933349 0.589288 0.984588
1.000000 0.658167 0.935210
0.406806 0.698665 0.996277
0.487648 0.708003 0.994598
0.694484 0.742275 0.989136
0.892729 0.753079 0.983337
1.000000 0.791897 0.954986
0.000000 0.853513 1.000000
0.296727 0.855955 1.000000
0.607599 0.871305 0.996216
0.878477 0.913237 0.988281
1.000000 0.929931 0.980865
0.000000 0.995331 1.000000
0.000000 0.995789 1.000000
0.525017 0.997681 1.000000
0.841245 0.999420 0.998260
0.987671 0.998718 0.996185
