20 Preset/Russian Style/【3】LUT video cho PR-AE-FCPX/Lut Tone (22).cube
# Created by Adobe Lightroom plugin Export LUT (1.24.0)
# www.johnrellis.com/lightroom/exportlut.htm
# Preset: 俄罗斯情绪-素材江湖11
# Color profile: C:\Program Files (x86)\Common Files\Adobe\Color\Profiles\Recommended\VideoHD.icc
LUT_3D_SIZE 32
DOMAIN_MIN 0.0 0.0 0.0
DOMAIN_MAX 1.0 1.0 1.0
0.017975 0.027741 0.047791
0.017975 0.027741 0.047791
0.021942 0.027283 0.047761
0.043091 0.026032 0.047517
0.087922 0.024811 0.047822
0.120668 0.026276 0.046693
0.161166 0.028382 0.043610
0.210361 0.023957 0.038361
0.265141 0.007660 0.031861
0.322515 0.000000 0.023743
0.380468 0.000000 0.014466
0.435309 0.000000 0.000946
0.485756 0.000000 0.000000
0.531029 0.000000 0.000000
0.572107 0.000000 0.000000
0.609033 0.000000 0.000000
0.640925 0.000000 0.000000
0.668330 0.000000 0.000000
0.692226 0.033112 0.000000
0.714900 0.084504 0.000000
0.737789 0.108980 0.005310
0.760006 0.129152 0.034455
0.780819 0.146670 0.071382
0.800900 0.163119 0.095003
0.820310 0.178775 0.110170
0.839139 0.193973 0.124178
0.857450 0.208621 0.137667
0.875334 0.222690 0.151003
0.892912 0.236423 0.163729
0.910246 0.250095 0.176150
0.927428 0.263432 0.188632
0.944427 0.276829 0.201328
0.017975 0.027741 0.047791
0.017975 0.027741 0.047791
0.023926 0.027070 0.047761
0.044373 0.027008 0.047364
0.088655 0.027985 0.047364
0.120760 0.031861 0.045930
0.160800 0.035370 0.042725
0.209964 0.029969 0.037629
0.264683 0.016083 0.031952
0.322026 0.000000 0.023835
0.379553 0.000000 0.012848
0.434333 0.000000 0.000000
0.484779 0.000000 0.000000
0.530175 0.000000 0.000000
0.571130 0.000000 0.000000
0.608179 0.000000 0.000000
0.640253 0.000000 0.000000
0.667750 0.001434 0.000000
0.691585 0.047578 0.000000
0.714229 0.091524 0.000000
0.736965 0.112520 0.005554
0.759060 0.130892 0.035492
0.779721 0.148592 0.071168
0.799741 0.164675 0.094972
0.819181 0.180179 0.109194
0.838010 0.194522 0.123812
0.856352 0.208865 0.137423
0.874296 0.223026 0.150332
0.891936 0.236606 0.163363
0.909331 0.250156 0.175662
0.926543 0.263523 0.188144
0.943664 0.276616 0.200229
0.015106 0.034730 0.049134
0.016388 0.035706 0.048981
0.022339 0.035035 0.048951
0.039918 0.039796 0.047974
0.089479 0.045655 0.046052
0.120760 0.056519 0.043702
0.162051 0.062531 0.041138
0.211002 0.060304 0.036713
0.265507 0.054139 0.031098
0.322606 0.037995 0.022370
0.379583 0.021729 0.010529
0.434180 0.002045 0.000000
0.484413 0.000000 0.000000
0.529503 0.000000 0.000000
0.570397 0.000000 0.000000
0.607355 0.000305 0.000000
0.639338 0.028748 0.000000
0.666865 0.062745 0.000000
0.690791 0.092317 0.000000
0.713466 0.109499 0.000000
0.736233 0.126864 0.010986
0.758175 0.143038 0.040986
0.778836 0.157992 0.077424
0.798825 0.172610 0.097230
0.818204 0.187106 0.111421
0.837125 0.200320 0.125277
0.855406 0.214450 0.138857
0.873411 0.227878 0.151858
0.891081 0.240879 0.164584
0.908537 0.254063 0.176761
0.925780 0.266911 0.189364
0.942870 0.279789 0.201358
0.014527 0.060365 0.053559
0.016541 0.060151 0.053559
0.024018 0.062623 0.054200
0.039307 0.063020 0.058381
0.080079 0.078309 0.058839
0.120577 0.091615 0.047486
0.164553 0.097902 0.040772
0.213230 0.101778 0.035462
0.267979 0.103395 0.026978
0.324163 0.103090 0.016327
0.380957 0.100313 0.004517
0.434577 0.096651 0.000000
0.484291 0.093904 0.000000
0.528954 0.094636 0.000000
0.569512 0.096010 0.000000
0.606256 0.101991 0.000000
0.638056 0.108583 0.000000
0.665339 0.118318 0.000000
0.689296 0.127932 0.000000
0.711879 0.138766 0.000000
0.734646 0.150393 0.020783
0.756435 0.162753 0.053834
0.777035 0.175235 0.086732
0.797055 0.187778 0.101320
0.816617 0.200137 0.115877
0.835599 0.212741 0.129458
0.854215 0.225132 0.143069
0.872343 0.237522 0.155612
0.890105 0.249790 0.167758
0.907622 0.262272 0.179995
0.924865 0.274510 0.192172
0.941924 0.286625 0.204288
0.003235 0.103487 0.065766
0.005768 0.104128 0.065431
0.017823 0.105379 0.065766
0.043458 0.106172 0.067140
0.079530 0.105837 0.076753
0.105653 0.110842 0.081392
0.155032 0.126558 0.058320
0.214664 0.137514 0.031891
0.269963 0.142428 0.019501
0.326116 0.145388 0.007630
0.381750 0.145785 0.000000
0.434913 0.145754 0.000000
0.483711 0.145815 0.000000
0.528069 0.146242 0.000000
0.568322 0.148165 0.000000
0.604639 0.151461 0.000000
0.636469 0.154818 0.000000
0.663600 0.160189 0.000000
0.687495 0.165682 0.000000
0.710414 0.172519 0.012299
0.733028 0.180636 0.040894
0.754665 0.189792 0.074769
0.775265 0.199496 0.095186
0.795407 0.209140 0.109590
0.815000 0.219638 0.122896
0.834073 0.230655 0.136049
0.852659 0.241520 0.148501
0.870848 0.252415 0.161135
0.888670 0.263523 0.172793
0.906218 0.274693 0.184817
0.923461 0.286046 0.196933
0.940520 0.297459 0.208804
0.000000 0.146517 0.083223
0.000000 0.147127 0.082216
0.000000 0.148348 0.081514
0.000000 0.151492 0.078981
0.061585 0.150729 0.087129
0.105867 0.149264 0.094759
0.132448 0.149630 0.104097
0.194095 0.169711 0.084077
0.260868 0.182956 0.041321
0.328313 0.190249 0.000000
0.383368 0.191897 0.000000
0.435706 0.193088 0.000000
0.483833 0.193484 0.000000
0.527367 0.194553 0.000000
0.567254 0.195773 0.000000
0.603296 0.197360 0.000000
0.634424 0.199405 0.000000
0.661555 0.201785 0.000000
0.685389 0.204410 0.011719
0.708583 0.208896 0.040925
0.731167 0.214633 0.071443
0.752773 0.221256 0.093538
0.778561 0.231846 0.112032
0.798642 0.239994 0.125093
0.818143 0.248203 0.137270
0.837003 0.257206 0.150301
0.855436 0.266270 0.162295
0.873259 0.275883 0.173953
0.890837 0.285527 0.185092
0.908110 0.295415 0.197024
0.925139 0.305516 0.208103
0.941924 0.315770 0.219364
0.000000 0.199985 0.096864
0.000000 0.200198 0.096345
0.000000 0.201328 0.095796
0.000000 0.204166 0.094026
0.000000 0.205570 0.095247
0.101045 0.203616 0.103304
0.142733 0.201877 0.112551
0.174685 0.199374 0.124544
0.239567 0.217166 0.109804
0.310826 0.230716 0.085389
0.379461 0.238132 0.024628
0.439246 0.241459 0.000000
0.486030 0.242100 0.000000
0.528649 0.242557 0.000000
0.567773 0.242832 0.000000
0.602777 0.243229 0.000000
0.633356 0.243534 0.000366
0.659998 0.243900 0.022217
0.684047 0.245396 0.052399
0.707668 0.248081 0.083009
0.730617 0.251835 0.098878
0.752682 0.256535 0.112001
0.773800 0.262181 0.125338
0.794461 0.268315 0.137087
0.814359 0.275151 0.149233
0.833494 0.282750 0.161166
0.852079 0.289921 0.172183
0.870085 0.298009 0.183597
0.887724 0.306310 0.194491
0.905028 0.314946 0.205509
0.922118 0.323857 0.216342
0.939025 0.333043 0.227207
0.000000 0.252506 0.113222
0.000000 0.252842 0.113344
0.000000 0.253483 0.112306
0.000000 0.255283 0.111208
0.000000 0.258000 0.108797
0.088685 0.257145 0.115084
0.148470 0.255131 0.124483
0.192416 0.252750 0.135805
0.226413 0.249088 0.148409
0.286076 0.262638 0.143526
0.357366 0.276127 0.121584
0.421973 0.283818 0.096437
0.478859 0.287602 0.043854
0.526116 0.288243 0.004425
0.564721 0.287907 0.009644
0.599084 0.287053 0.024292
0.629236 0.286198 0.044831
0.656031 0.285496 0.070771
0.680232 0.285191 0.092561
0.703700 0.286168 0.105959
0.726589 0.288182 0.117861
0.748562 0.291112 0.129427
0.769680 0.294865 0.140963
0.790402 0.299413 0.151766
0.810391 0.304845 0.163149
0.829679 0.310521 0.174075
0.848356 0.316655 0.184878
0.866514 0.323003 0.195041
0.884276 0.330022 0.205783
0.901671 0.337560 0.216068
0.918944 0.345098 0.226200
0.935912 0.353368 0.236820
0.000000 0.303441 0.136263
0.000000 0.303777 0.135866
0.000000 0.304295 0.135744
0.000000 0.305547 0.134401
0.000000 0.307561 0.132967
0.070314 0.308873 0.133730
0.154574 0.306859 0.142123
0.206119 0.304570 0.152560
0.248417 0.302068 0.164248
0.282963 0.298131 0.177096
0.332952 0.306645 0.181582
0.399390 0.320226 0.161990
0.458808 0.327733 0.141268
0.511009 0.331243 0.119936
0.557824 0.332006 0.094026
0.594812 0.330449 0.083528
0.624933 0.328710 0.095888
0.651331 0.326543 0.106600
0.675532 0.324895 0.117647
0.699123 0.324620 0.128176
0.722042 0.325170 0.138552
0.743954 0.326757 0.148806
0.765194 0.329076 0.159579
0.785885 0.332219 0.169406
0.806027 0.336065 0.179873
0.825437 0.340520 0.189517
0.844236 0.345251 0.199649
0.862516 0.350530 0.209354
0.880430 0.356359 0.218997
0.897948 0.362463 0.228977
0.915251 0.369146 0.238743
0.932403 0.376074 0.248569
0.000000 0.351873 0.163760
0.000000 0.351934 0.163699
0.000000 0.352239 0.163241
0.000000 0.353155 0.162234
0.000000 0.354559 0.160800
0.086671 0.356359 0.159335
0.164553 0.355566 0.164431
0.218906 0.353399 0.173709
0.264286 0.350683 0.184421
0.303685 0.348089 0.196353
0.337743 0.344854 0.209445
0.375555 0.348028 0.221592
0.435981 0.361517 0.204166
0.489876 0.368963 0.186831
0.538781 0.372778 0.168978
0.581537 0.372961 0.151308
0.617823 0.370367 0.132662
0.645624 0.366888 0.134279
0.670100 0.364233 0.143374
0.693782 0.362921 0.152651
0.716701 0.362493 0.161166
0.738613 0.362646 0.170443
0.759792 0.363684 0.179385
0.780484 0.365606 0.188418
0.800626 0.368017 0.197299
0.820157 0.371160 0.205936
0.839048 0.374853 0.215305
0.857542 0.378973 0.224613
0.875639 0.383734 0.233616
0.893431 0.388830 0.243076
0.910979 0.394476 0.251987
0.928252 0.400610 0.261753
0.000000 0.395972 0.193973
0.000000 0.396063 0.193759
0.000000 0.396338 0.193698
0.000000 0.397009 0.192752
0.000000 0.398047 0.192111
0.119234 0.399420 0.190402
0.180667 0.400549 0.190158
0.233280 0.398474 0.198398
0.278202 0.396033 0.207614
0.318608 0.393622 0.218418
0.354437 0.390784 0.230289
0.386236 0.388647 0.243381
0.414069 0.387579 0.261967
0.468238 0.400671 0.246921
0.517784 0.408392 0.231418
0.561669 0.411475 0.216403
0.599481 0.410681 0.201633
0.632410 0.407172 0.186954
0.663020 0.402838 0.171847
0.687373 0.400488 0.177310
0.710414 0.398993 0.184756
0.732387 0.398230 0.192721
0.753780 0.398566 0.200381
0.774655 0.399207 0.208164
0.795041 0.400702 0.216526
0.814664 0.402930 0.224796
0.833768 0.405615 0.233219
0.852415 0.408789 0.241581
0.870634 0.412573 0.250004
0.888640 0.416785 0.258488
0.906279 0.421607 0.267491
0.923766 0.426764 0.276341
0.000000 0.436255 0.225559
0.000000 0.436378 0.225620
0.000000 0.436530 0.225101
0.000000 0.437049 0.225101
0.107881 0.437781 0.224033
0.157992 0.438758 0.223209
0.203189 0.440223 0.221317
0.248997 0.439704 0.225132
0.291783 0.437751 0.233310
0.330846 0.435676 0.243137
0.366522 0.433387 0.253635
0.398749 0.431159 0.265415
0.432166 0.433021 0.281712
0.456977 0.431189 0.298711
0.500572 0.441199 0.292332
0.544579 0.448005 0.278691
0.582849 0.449805 0.265202
0.616480 0.448280 0.252537
0.648127 0.445411 0.239384
0.678492 0.442145 0.225223
0.707057 0.438453 0.213046
0.729061 0.436957 0.219333
0.750515 0.436042 0.225956
0.771328 0.436072 0.233433
0.791562 0.436652 0.240543
0.811185 0.437781 0.247593
0.830228 0.439246 0.254948
0.848783 0.441474 0.262394
0.866941 0.444221 0.270115
0.884855 0.447395 0.278111
0.902434 0.451209 0.286168
0.919951 0.455451 0.293950
0.104250 0.475532 0.259953
0.107179 0.475624 0.259922
0.119966 0.475624 0.259648
0.141146 0.476020 0.259251
0.168704 0.476478 0.258457
0.199741 0.477119 0.257877
0.233158 0.478218 0.256321
0.268254 0.479469 0.254948
0.306828 0.477729 0.262547
0.343297 0.475776 0.270603
0.377722 0.473854 0.280034
0.409888 0.472053 0.290593
0.439368 0.470192 0.301976
0.466011 0.468360 0.314153
0.488594 0.466194 0.329046
0.522515 0.472755 0.330755
0.561181 0.478492 0.318242
0.595270 0.479805 0.306371
0.627527 0.479133 0.294224
0.658503 0.477638 0.282292
0.688167 0.475135 0.269352
0.716701 0.472053 0.255955
0.742550 0.469306 0.248051
0.763607 0.468605 0.254398
0.784115 0.468513 0.260807
0.803952 0.469062 0.267277
0.823239 0.470100 0.274266
0.842100 0.471504 0.280980
0.860563 0.473579 0.287877
0.878752 0.476143 0.295140
0.896574 0.479255 0.302770
0.914275 0.482887 0.310643
0.176883 0.508721 0.292027
0.177981 0.508751 0.291752
0.185000 0.508812 0.291661
0.196292 0.508904 0.291020
0.213321 0.509087 0.290593
0.234348 0.509514 0.289586
0.259892 0.510155 0.288670
0.287541 0.510887 0.287114
0.319188 0.510735 0.289342
0.352544 0.509026 0.296422
0.384619 0.507317 0.304692
0.415137 0.505455 0.313848
0.443977 0.503624 0.323949
0.470405 0.501793 0.334783
0.494392 0.499977 0.345800
0.514702 0.497261 0.358495
0.540185 0.500298 0.366613
0.574029 0.505394 0.355444
0.606409 0.507683 0.344396
0.637659 0.508476 0.333288
0.667903 0.507774 0.321599
0.697139 0.506371 0.309667
0.725521 0.504356 0.297551
0.752956 0.501762 0.285039
0.776455 0.500206 0.281590
0.796536 0.500206 0.287663
0.816098 0.500633 0.293736
0.835203 0.501549 0.300053
0.853819 0.503136 0.306523
0.872251 0.505089 0.313268
0.890318 0.507652 0.320287
0.908232 0.510796 0.327794
0.226780 0.536706 0.322911
0.227756 0.536706 0.322820
0.231449 0.536797 0.322606
0.239261 0.536797 0.322148
0.251041 0.536889 0.321538
0.266667 0.537072 0.320623
0.285863 0.537407 0.319921
0.307866 0.537987 0.318791
0.332494 0.538689 0.317540
0.361730 0.537469 0.322728
0.390906 0.535882 0.329656
0.419532 0.534142 0.337713
0.446571 0.532464 0.346532
0.472175 0.530724 0.355932
0.495796 0.528832 0.365728
0.517388 0.526940 0.375860
0.535821 0.524132 0.386267
0.554589 0.524590 0.399664
0.586175 0.530266 0.389441
0.617365 0.533806 0.378851
0.647639 0.535698 0.368139
0.677241 0.536431 0.357580
0.706050 0.536217 0.346746
0.734005 0.535302 0.335790
0.761166 0.533593 0.324376
0.787320 0.531395 0.312505
0.808560 0.530816 0.313603
0.827909 0.531456 0.319646
0.846891 0.532555 0.325597
0.865537 0.534112 0.331884
0.883909 0.536431 0.338781
0.902068 0.539178 0.345953
0.267033 0.560418 0.352209
0.267735 0.560479 0.352178
0.270390 0.560479 0.351812
0.276066 0.560540 0.351476
0.284825 0.560662 0.351141
0.296635 0.560845 0.350530
0.311528 0.561242 0.349981
0.329015 0.561761 0.349218
0.349187 0.562371 0.348425
0.372107 0.562554 0.349187
0.398230 0.561059 0.355291
0.424048 0.559380 0.361944
0.449195 0.557641 0.369390
0.473152 0.555901 0.377386
0.495766 0.553979 0.385657
0.516808 0.552117 0.394476
0.536248 0.550317 0.403601
0.553185 0.547692 0.412482
0.567926 0.546990 0.429145
0.597803 0.553643 0.419989
0.627863 0.558404 0.410132
0.657527 0.561700 0.400427
0.686610 0.563775 0.390814
0.715023 0.564813 0.380987
0.742519 0.564904 0.371191
0.769345 0.564172 0.360967
0.795163 0.562860 0.350622
0.820462 0.560967 0.339544
0.839719 0.561669 0.344915
0.858488 0.563012 0.350958
0.877043 0.564813 0.357366
0.895384 0.567071 0.363928
0.300542 0.582483 0.379278
0.301335 0.582422 0.379400
0.303227 0.582483 0.379248
0.307561 0.582605 0.379034
0.314305 0.582727 0.378637
0.323430 0.583001 0.378241
0.334997 0.583429 0.377630
0.349340 0.583856 0.377081
0.365728 0.584497 0.376287
0.384131 0.585290 0.375372
0.406256 0.584680 0.378576
0.429725 0.583215 0.384436
0.452857 0.581689 0.390723
0.475257 0.580041 0.397711
0.496803 0.578332 0.405097
0.517235 0.576532 0.412848
0.536400 0.574762 0.420935
0.554162 0.573022 0.429389
0.569787 0.570764 0.437781
0.583673 0.570001 0.452277
0.609430 0.576318 0.448554
0.638758 0.582422 0.439429
0.667750 0.586999 0.430610
0.696254 0.590173 0.421729
0.723995 0.592218 0.412848
0.751064 0.593286 0.403937
0.777401 0.593469 0.394903
0.803037 0.593042 0.385595
0.828061 0.592096 0.376074
0.851286 0.591394 0.369940
0.870085 0.592920 0.375860
0.888640 0.594934 0.382177
0.329351 0.604456 0.404761
0.329717 0.604486 0.404700
0.334722 0.606989 0.407568
0.337926 0.607111 0.407385
0.343084 0.607263 0.406897
0.350408 0.607477 0.406622
0.359838 0.607813 0.406195
0.371221 0.608240 0.405371
0.384741 0.608850 0.404730
0.400183 0.609552 0.403906
0.417487 0.610193 0.403479
0.438605 0.608850 0.408484
0.459724 0.607324 0.413825
0.480537 0.605646 0.419806
0.500633 0.603906 0.426154
0.520165 0.602075 0.432837
0.538689 0.600183 0.439918
0.556054 0.598383 0.447242
0.572229 0.596643 0.455024
0.586969 0.594659 0.462867
0.600397 0.594079 0.475257
0.622309 0.599756 0.476478
0.650660 0.606958 0.468055
0.678828 0.612482 0.459968
0.706447 0.616510 0.451728
0.733516 0.619196 0.443397
0.759884 0.620966 0.435187
0.785763 0.621973 0.426947
0.811032 0.622339 0.418647
0.835782 0.622309 0.410315
0.860197 0.621820 0.401740
0.881529 0.622431 0.400519
0.354803 0.626520 0.428962
0.355352 0.626764 0.429328
0.357153 0.627039 0.429572
0.360113 0.627344 0.429511
0.364569 0.627680 0.429419
0.370489 0.627985 0.429114
0.378546 0.628321 0.428717
0.387976 0.628717 0.428138
0.399451 0.629236 0.427436
0.412665 0.629908 0.426825
0.427344 0.630762 0.425971
0.444923 0.630640 0.427710
0.464240 0.629297 0.432502
0.483772 0.627771 0.437690
0.502800 0.626307 0.443427
0.521630 0.624659 0.449592
0.539666 0.623011 0.455940
0.556847 0.621393 0.462684
0.573144 0.619837 0.469642
0.588464 0.618372 0.476844
0.602625 0.616907 0.484108
0.615961 0.616693 0.494759
0.634699 0.621485 0.499855
0.662165 0.629603 0.492561
0.689448 0.635889 0.485237
0.716213 0.640803 0.478096
0.742550 0.644434 0.470924
0.768399 0.647120 0.463813
0.793759 0.649073 0.456733
0.818814 0.650446 0.449500
0.843412 0.651392 0.442542
0.867796 0.651820 0.435126
0.376043 0.647395 0.450874
0.376593 0.647608 0.450965
0.378027 0.647913 0.451270
0.380438 0.648249 0.451484
0.384314 0.648585 0.451331
0.389654 0.648890 0.451179
0.396063 0.649226 0.450752
0.404364 0.649622 0.450233
0.414191 0.650141 0.449683
0.425360 0.650782 0.448981
0.438331 0.651514 0.448219
0.452522 0.652399 0.447364
0.470100 0.651453 0.451209
0.488197 0.650202 0.455848
0.506371 0.648829 0.460945
0.524102 0.647425 0.466316
0.541527 0.645960 0.471809
0.558373 0.644434 0.477699
0.574487 0.643061 0.483803
0.590051 0.641688 0.490150
0.604608 0.640436 0.496681
0.618341 0.639368 0.503410
0.631647 0.639368 0.512566
0.647547 0.642969 0.520989
0.674128 0.651728 0.514366
0.700496 0.658747 0.507988
0.726497 0.664302 0.501701
0.752163 0.668788 0.495613
0.777493 0.672389 0.489570
0.802579 0.675319 0.483619
0.827298 0.677729 0.477913
0.851682 0.679591 0.472053
0.394842 0.668513 0.471443
0.395270 0.668757 0.471656
0.396399 0.669001 0.471748
0.398596 0.669306 0.471901
0.401831 0.669612 0.471870
0.406378 0.669917 0.471687
0.412024 0.670283 0.471260
0.419104 0.670680 0.470924
0.427649 0.671199 0.470375
0.437690 0.671778 0.469856
0.449042 0.672511 0.469276
0.461585 0.673335 0.468513
0.476173 0.673671 0.469001
0.492958 0.672572 0.473091
0.510033 0.671382 0.477485
0.527001 0.670161 0.482155
0.543786 0.668940 0.487098
0.560357 0.667689 0.492287
0.576349 0.666560 0.497810
0.591913 0.665522 0.503532
0.606897 0.664485 0.509453
0.621118 0.663600 0.515648
0.634668 0.662806 0.521782
0.648066 0.663233 0.529808
0.661524 0.665614 0.541009
0.687343 0.674861 0.535180
0.712917 0.682490 0.529595
0.738369 0.688777 0.524254
0.763516 0.694087 0.519188
0.788540 0.698543 0.514214
0.813230 0.702388 0.509483
0.837644 0.705592 0.504814
0.411810 0.691127 0.491554
0.412055 0.691249 0.491646
0.412940 0.691341 0.491615
0.414649 0.691493 0.491554
0.417517 0.691676 0.491371
0.421241 0.691859 0.491218
0.426337 0.692134 0.490913
0.432654 0.692500 0.490547
0.440253 0.692988 0.490028
0.449134 0.693568 0.489570
0.459266 0.694270 0.489174
0.470588 0.695064 0.488502
0.483162 0.695979 0.487831
0.498085 0.695583 0.489967
0.514183 0.694514 0.493721
0.530327 0.693446 0.497810
0.546532 0.692287 0.502129
0.562463 0.691188 0.506645
0.578241 0.690089 0.511437
0.593622 0.689052 0.516350
0.608606 0.688014 0.521538
0.622980 0.687098 0.526940
0.636866 0.686244 0.532372
0.650111 0.685481 0.538140
0.663508 0.686030 0.545464
0.676692 0.688441 0.556939
0.699611 0.696742 0.554620
0.724636 0.704891 0.549584
0.749569 0.711879 0.544762
0.774472 0.717891 0.540246
0.799130 0.723049 0.536004
0.823484 0.727626 0.532067
0.424842 0.712459 0.508782
0.425147 0.712551 0.508812
0.425971 0.712642 0.508782
0.427497 0.712825 0.508751
0.430030 0.712947 0.508659
0.433509 0.713161 0.508446
0.438025 0.713405 0.508232
0.443763 0.713771 0.507897
0.450721 0.714229 0.507561
0.458778 0.714809 0.507195
0.467872 0.715480 0.506676
0.478279 0.716243 0.506218
0.489784 0.717067 0.505577
0.502403 0.717861 0.505303
0.517632 0.716976 0.508598
0.533013 0.716030 0.512200
0.548699 0.715084 0.515953
0.564294 0.714137 0.520043
0.579706 0.713191 0.524224
0.594995 0.712245 0.528649
0.609949 0.711391 0.533410
0.624567 0.710597 0.538415
0.638727 0.709804 0.543725
0.652338 0.709102 0.549279
0.664851 0.707759 0.554437
0.678218 0.708644 0.561578
0.691188 0.711208 0.573419
0.711360 0.718685 0.574884
0.735988 0.727474 0.570306
0.760586 0.735164 0.566155
0.785153 0.741939 0.562341
0.809537 0.747860 0.558892
0.436286 0.734646 0.525322
0.436622 0.734768 0.525475
0.437263 0.734859 0.525505
0.438727 0.734920 0.525414
0.441016 0.734981 0.525139
0.444160 0.735103 0.524895
0.448188 0.735225 0.524651
0.453407 0.735470 0.524254
0.459724 0.735744 0.523827
0.467018 0.736202 0.523430
0.475380 0.736721 0.522881
0.484962 0.737331 0.522423
0.495521 0.738094 0.521813
0.506981 0.738888 0.521294
0.520409 0.738918 0.522240
0.535088 0.738033 0.525292
0.550195 0.737087 0.528618
0.565362 0.736202 0.532311
0.580529 0.735378 0.536278
0.595666 0.734585 0.540642
0.610590 0.733852 0.545251
0.625299 0.733150 0.550134
0.639582 0.732448 0.555261
0.653376 0.731807 0.560662
0.666682 0.731136 0.566186
0.679377 0.730587 0.571984
0.692653 0.731746 0.579095
0.705470 0.734554 0.591150
0.723262 0.741238 0.596124
0.747433 0.750698 0.592340
0.771603 0.759060 0.588830
0.795499 0.766415 0.585840
0.446143 0.755612 0.540795
0.446479 0.755703 0.540764
0.447059 0.755856 0.540887
0.448432 0.755947 0.540856
0.450507 0.756069 0.540764
0.453437 0.756252 0.540551
0.457313 0.756497 0.540368
0.462165 0.756802 0.540063
0.467964 0.757198 0.539818
0.474830 0.757717 0.539513
0.482704 0.758267 0.539147
0.491585 0.758938 0.538781
0.501396 0.759701 0.538323
0.512200 0.760494 0.537743
0.523827 0.761379 0.537133
0.537804 0.760800 0.539635
0.552483 0.759976 0.542809
0.567285 0.759182 0.546349
0.582177 0.758419 0.550225
0.597070 0.757748 0.554345
0.611963 0.757076 0.558862
0.626551 0.756497 0.563622
0.640894 0.755978 0.568627
0.654810 0.755428 0.573938
0.668299 0.754971 0.579431
0.681361 0.754574 0.585168
0.693874 0.754238 0.591119
0.707057 0.755825 0.598566
0.720027 0.759182 0.610773
0.735409 0.765164 0.619501
0.758907 0.775143 0.616358
0.782284 0.784115 0.613855
0.456733 0.777340 0.557641
0.456977 0.777401 0.557702
0.457527 0.777493 0.557702
0.458778 0.777584 0.557671
0.460700 0.777676 0.557519
0.463447 0.777829 0.557427
0.466957 0.778042 0.557183
0.471382 0.778317 0.557000
0.476722 0.778714 0.556725
0.483040 0.779202 0.556359
0.490394 0.779721 0.556115
0.498604 0.780392 0.555718
0.507774 0.781125 0.555352
0.517784 0.781949 0.554894
0.528740 0.782773 0.554314
0.540887 0.783322 0.554650
0.555077 0.782620 0.557824
0.569451 0.781918 0.561181
0.584009 0.781308 0.564965
0.598627 0.780728 0.568963
0.613245 0.780209 0.573358
0.627741 0.779751 0.578027
0.642023 0.779294 0.582940
0.656031 0.778866 0.588067
0.669642 0.778531 0.593469
0.682826 0.778225 0.599054
0.695644 0.778042 0.604944
0.707942 0.777859 0.611017
0.720790 0.779599 0.618555
0.733730 0.783444 0.630823
0.746883 0.788754 0.643153
0.769589 0.799466 0.641138
0.467628 0.798978 0.575341
0.467811 0.799039 0.575402
0.468299 0.799100 0.575341
0.469459 0.799222 0.575372
0.471229 0.799374 0.575311
0.473793 0.799619 0.575311
0.477089 0.800015 0.575280
0.481422 0.800473 0.575311
0.486427 0.801053 0.575280
0.492531 0.801724 0.575280
0.499458 0.802518 0.575250
0.507225 0.803372 0.575189
0.515831 0.804318 0.575067
0.525292 0.805264 0.574945
0.535546 0.806271 0.574670
0.546563 0.807309 0.574212
0.559442 0.807401 0.576074
0.573449 0.806821 0.579431
0.587640 0.806332 0.583124
0.601923 0.805905 0.587121
0.616236 0.805539 0.591394
0.630549 0.805203 0.595972
0.644678 0.804898 0.600763
0.658564 0.804593 0.605737
0.672145 0.804257 0.610895
0.685420 0.803983 0.616358
0.698360 0.803738 0.622034
0.710842 0.803647 0.628016
0.722805 0.803677 0.634119
0.735348 0.805509 0.641718
0.748226 0.810086 0.654108
0.760159 0.815427 0.668482
0.480323 0.822507 0.596033
0.480385 0.822507 0.596002
0.480903 0.822507 0.596033
0.481819 0.822599 0.595972
0.483497 0.822721 0.595911
0.485756 0.822873 0.595789
0.488808 0.823148 0.595758
0.492592 0.823453 0.595605
0.497139 0.823911 0.595483
0.502617 0.824430 0.595392
0.508812 0.825040 0.595239
0.515953 0.825742 0.595148
0.523857 0.826566 0.594995
0.532586 0.827451 0.594751
