20 Preset/Russian Style/【3】LUT video cho PR-AE-FCPX/Lut Tone (23).cube
# Created by Adobe Lightroom plugin Export LUT (1.24.0)
# www.johnrellis.com/lightroom/exportlut.htm
# Preset: 俄罗斯情绪-素材江湖12
# Color profile: C:\Program Files (x86)\Common Files\Adobe\Color\Profiles\Recommended\VideoHD.icc
LUT_3D_SIZE 32
DOMAIN_MIN 0.0 0.0 0.0
DOMAIN_MAX 1.0 1.0 1.0
0.000000 0.000000 0.000000
0.001984 0.000000 0.000000
0.007233 0.000305 0.000000
0.018433 0.000183 0.000000
0.038880 0.000122 0.000000
0.074769 0.001648 0.000000
0.100832 0.002167 0.000000
0.121462 0.004059 0.000000
0.145327 0.007477 0.000000
0.173037 0.011658 0.000000
0.204929 0.019654 0.000000
0.239750 0.030182 0.000000
0.277317 0.045350 0.000000
0.316960 0.065736 0.000000
0.358373 0.087526 0.000000
0.400946 0.100679 0.000000
0.444251 0.114351 0.000000
0.487984 0.128481 0.000000
0.530236 0.141634 0.000000
0.569848 0.153140 0.000000
0.606592 0.163272 0.000000
0.641047 0.172702 0.000000
0.675349 0.181918 0.000000
0.710658 0.191623 0.000000
0.747311 0.201450 0.000000
0.784970 0.211490 0.000000
0.823545 0.221866 0.000000
0.862425 0.232059 0.000000
0.901213 0.242130 0.000000
0.939910 0.249699 0.000000
0.978332 0.255741 0.000000
1.000000 0.260746 0.000000
0.000977 0.000977 0.000977
0.000977 0.000977 0.000977
0.006226 0.001495 0.000793
0.019715 0.001160 0.000000
0.037171 0.002533 0.000061
0.074067 0.002869 0.000000
0.100374 0.004578 0.000000
0.121096 0.006470 0.000000
0.145418 0.009674 0.000000
0.173129 0.013855 0.000000
0.204929 0.023041 0.000000
0.239719 0.033570 0.000000
0.277287 0.048707 0.000000
0.317052 0.070100 0.000000
0.358404 0.089815 0.000000
0.401068 0.102388 0.000000
0.444312 0.116091 0.000000
0.488167 0.130129 0.000000
0.530327 0.143130 0.000000
0.569940 0.153902 0.000000
0.606622 0.164187 0.000000
0.641077 0.173373 0.000000
0.675319 0.182742 0.000000
0.710658 0.192355 0.000000
0.747341 0.202121 0.000000
0.785000 0.211978 0.000000
0.823545 0.222202 0.000000
0.862425 0.232517 0.000000
0.901274 0.242496 0.000000
0.939940 0.250309 0.000000
0.978332 0.256443 0.000000
1.000000 0.261387 0.000000
0.000000 0.006775 0.002502
0.000793 0.006531 0.002472
0.006043 0.007080 0.002319
0.017548 0.006928 0.000977
0.037995 0.006897 0.000580
0.074464 0.008423 0.000000
0.100282 0.011353 0.000000
0.121370 0.014221 0.000000
0.145632 0.017426 0.000000
0.173220 0.024964 0.000000
0.205020 0.034180 0.000000
0.240055 0.046662 0.000000
0.277714 0.064973 0.000000
0.317266 0.084840 0.000000
0.358740 0.097200 0.000000
0.401343 0.109621 0.000000
0.444770 0.122683 0.000000
0.488380 0.135409 0.000000
0.530632 0.146639 0.000000
0.570062 0.157351 0.000000
0.606867 0.167086 0.000000
0.641199 0.176303 0.000000
0.675410 0.185489 0.000000
0.710842 0.194858 0.000000
0.747463 0.204623 0.000000
0.785183 0.214267 0.000000
0.823728 0.224460 0.000000
0.862608 0.234623 0.000000
0.901396 0.244724 0.000000
0.940002 0.253574 0.000000
0.978393 0.259312 0.000000
1.000000 0.264317 0.000000
0.000000 0.016693 0.005646
0.000000 0.017884 0.005493
0.004425 0.017212 0.005463
0.015625 0.017090 0.005280
0.034638 0.019440 0.004578
0.072389 0.021942 0.002380
0.100587 0.023438 0.000000
0.121401 0.027527 0.000000
0.145693 0.034119 0.000000
0.174105 0.042206 0.000000
0.205997 0.054597 0.000000
0.240726 0.071656 0.000000
0.278508 0.088136 0.000000
0.318151 0.098177 0.000000
0.359442 0.109102 0.000000
0.402106 0.120272 0.000000
0.445472 0.131380 0.000000
0.489082 0.142794 0.000000
0.531243 0.153689 0.000000
0.570581 0.163821 0.000000
0.607202 0.173129 0.000000
0.641505 0.181918 0.000000
0.675776 0.190707 0.000000
0.711177 0.199893 0.000000
0.747768 0.209293 0.000000
0.785458 0.218936 0.000000
0.824094 0.228763 0.000000
0.862882 0.238804 0.000000
0.901671 0.248600 0.000000
0.940246 0.258427 0.000000
0.978485 0.265446 0.000000
1.000000 0.270268 0.000000
0.000000 0.038392 0.011841
0.000000 0.039612 0.011688
0.000000 0.040131 0.010376
0.011536 0.039765 0.009033
0.031983 0.039734 0.008637
0.066743 0.043671 0.007416
0.098268 0.047578 0.004700
0.121370 0.049775 0.001678
0.146548 0.058106 0.000000
0.175051 0.069337 0.000000
0.207095 0.083040 0.000000
0.242130 0.092897 0.000000
0.279942 0.101534 0.000000
0.319677 0.111086 0.000000
0.361089 0.121370 0.000000
0.403449 0.131960 0.000000
0.446754 0.142641 0.000000
0.490272 0.153475 0.000000
0.532067 0.163912 0.000000
0.571283 0.173587 0.000000
0.607813 0.182406 0.000000
0.641962 0.190677 0.000000
0.676234 0.198886 0.000000
0.711666 0.207675 0.000000
0.748318 0.216709 0.000000
0.786038 0.226078 0.000000
0.824521 0.235691 0.000000
0.863371 0.245396 0.000000
0.902129 0.254917 0.000000
0.940673 0.264439 0.000000
0.978759 0.273777 0.000000
1.000000 0.279271 0.000000
0.000000 0.075532 0.019471
0.000000 0.076509 0.018189
0.000000 0.077028 0.016876
0.000000 0.077882 0.014252
0.025269 0.078279 0.012543
0.061311 0.076509 0.013214
0.095033 0.079866 0.010498
0.118441 0.083528 0.007050
0.146029 0.088960 0.001068
0.176638 0.094240 0.000000
0.208927 0.101137 0.000000
0.244388 0.109010 0.000000
0.282078 0.117708 0.000000
0.321782 0.127047 0.000000
0.363104 0.137026 0.000000
0.405554 0.146975 0.000000
0.448463 0.157321 0.000000
0.491859 0.167727 0.000000
0.533410 0.177371 0.000000
0.572290 0.186221 0.000000
0.608545 0.194522 0.000000
0.642603 0.202274 0.000000
0.676875 0.210086 0.000000
0.712337 0.218326 0.000000
0.748989 0.226993 0.000000
0.786679 0.236027 0.000000
0.825315 0.244968 0.000000
0.864042 0.254307 0.000000
0.902831 0.263645 0.000000
0.941283 0.272801 0.000000
0.979339 0.281712 0.000000
1.000000 0.290623 0.000000
0.000000 0.100801 0.029389
0.000000 0.100740 0.029389
0.000000 0.100923 0.026947
0.000000 0.101625 0.020752
0.007843 0.101656 0.020172
0.050721 0.101534 0.019379
0.092134 0.101381 0.018402
0.114656 0.103456 0.016114
0.142763 0.108492 0.009216
0.174655 0.114595 0.000366
0.210208 0.120668 0.000000
0.247013 0.128298 0.000000
0.284886 0.136782 0.000000
0.324559 0.146090 0.000000
0.365728 0.155489 0.000000
0.407874 0.165225 0.000000
0.450904 0.175082 0.000000
0.494057 0.184726 0.000000
0.535058 0.193820 0.000000
0.573602 0.202182 0.000000
0.609430 0.209751 0.000000
0.643336 0.216678 0.000000
0.677668 0.224002 0.000000
0.713252 0.231693 0.000000
0.749996 0.239719 0.000000
0.787686 0.248386 0.000000
0.826200 0.257053 0.000000
0.864958 0.265812 0.000000
0.903593 0.274723 0.000000
0.942077 0.283421 0.000000
0.980102 0.292058 0.000000
1.000000 0.300603 0.000000
0.000000 0.124544 0.045441
0.000000 0.124788 0.045258
0.000000 0.124910 0.041688
0.000000 0.125368 0.036622
0.000000 0.125978 0.030091
0.028199 0.126497 0.027680
0.089021 0.126528 0.027466
0.114900 0.126467 0.027008
0.139101 0.128756 0.024811
0.171084 0.136141 0.014466
0.207279 0.143740 0.000763
0.246128 0.151339 0.000000
0.287449 0.159060 0.000000
0.327764 0.167666 0.000000
0.368902 0.176699 0.000000
0.410803 0.185916 0.000000
0.453559 0.195499 0.000000
0.496315 0.204685 0.000000
0.536950 0.213169 0.000000
0.575158 0.220584 0.000000
0.610498 0.227512 0.000000
0.644282 0.233738 0.000000
0.678737 0.240269 0.000000
0.714290 0.247440 0.000000
0.751064 0.255131 0.000000
0.788846 0.263188 0.000000
0.827359 0.271366 0.000000
0.866026 0.279759 0.000000
0.904662 0.288151 0.000000
0.943053 0.296544 0.000000
0.981018 0.304601 0.000000
1.000000 0.312596 0.000000
0.000000 0.153597 0.069123
0.000000 0.153750 0.067842
0.000000 0.154025 0.064088
0.000000 0.154574 0.056641
0.000000 0.155367 0.042023
0.000000 0.155886 0.040375
0.063813 0.156435 0.037201
0.112459 0.156527 0.036225
0.141390 0.156649 0.034852
0.166629 0.156985 0.032959
0.203342 0.167330 0.018189
0.242527 0.175998 0.000000
0.284184 0.184451 0.000000
0.327581 0.192813 0.000000
0.372290 0.200656 0.000000
0.414160 0.209476 0.000000
0.456703 0.218448 0.000000
0.498970 0.227237 0.000000
0.539086 0.234836 0.000000
0.576684 0.241611 0.000000
0.611627 0.247410 0.000000
0.645350 0.253056 0.000000
0.679835 0.259068 0.000000
0.715572 0.265721 0.000000
0.752438 0.272770 0.000000
0.790280 0.280278 0.000000
0.828733 0.288090 0.000000
0.867399 0.295964 0.000000
0.905913 0.303899 0.000000
0.944213 0.311650 0.000000
0.982086 0.319432 0.000000
1.000000 0.326848 0.000000
0.000000 0.186801 0.090547
0.000000 0.186770 0.090120
0.000000 0.187137 0.088655
0.000000 0.187686 0.082124
0.000000 0.188540 0.066102
0.000000 0.189181 0.051850
0.000000 0.189761 0.048157
0.098207 0.190555 0.044892
0.139254 0.190372 0.043061
0.171237 0.190341 0.041810
0.198978 0.190188 0.039185
0.238010 0.201266 0.020447
0.279820 0.210697 0.000000
0.323369 0.219669 0.000000
0.368597 0.228153 0.000000
0.414710 0.236118 0.000000
0.459968 0.243839 0.000000
0.501732 0.251743 0.000000
0.541100 0.258701 0.000000
0.578241 0.264561 0.000000
0.612787 0.269627 0.000000
0.646571 0.274510 0.000000
0.681239 0.279942 0.000000
0.717037 0.286107 0.000000
0.753964 0.292607 0.000000
0.791775 0.299626 0.000000
0.830289 0.306859 0.000000
0.868894 0.314183 0.000000
0.907378 0.321660 0.000000
0.945586 0.328954 0.000000
0.983337 0.336095 0.000000
1.000000 0.343084 0.000000
0.000000 0.223026 0.105013
0.000000 0.223117 0.104616
0.000000 0.223392 0.102663
0.000000 0.223880 0.098695
0.000000 0.224613 0.091371
0.000000 0.225681 0.069947
0.000000 0.226078 0.065827
0.035157 0.226749 0.060853
0.126650 0.227329 0.056397
0.169436 0.227115 0.054505
0.203891 0.226963 0.052033
0.234226 0.227207 0.048554
0.273930 0.237583 0.028016
0.318029 0.247288 0.000000
0.363195 0.256382 0.000000
0.409613 0.264897 0.000000
0.456550 0.272740 0.000000
0.502464 0.279118 0.000000
0.543145 0.284703 0.000000
0.579675 0.289647 0.000000
0.613886 0.293767 0.000000
0.647791 0.297978 0.000000
0.682643 0.302953 0.000000
0.718593 0.308354 0.000000
0.755673 0.314427 0.000000
0.793606 0.320897 0.000000
0.832029 0.327764 0.000000
0.870573 0.334569 0.000000
0.908965 0.341436 0.000000
0.947143 0.348211 0.000000
0.984771 0.354894 0.000000
1.000000 0.361395 0.000000
0.000000 0.261418 0.120943
0.000000 0.261479 0.120333
0.000000 0.261570 0.118502
0.000000 0.262150 0.115175
0.000000 0.262852 0.108675
0.000000 0.263767 0.096437
0.000000 0.264500 0.088197
0.000000 0.264927 0.084199
0.096162 0.265690 0.079988
0.157473 0.266026 0.075380
0.201633 0.265568 0.072389
0.238193 0.265507 0.069337
0.270695 0.265599 0.065400
0.310887 0.275273 0.043061
0.356542 0.285222 0.005219
0.403204 0.294377 0.000000
0.450233 0.302739 0.000000
0.496162 0.309514 0.000000
0.539605 0.314214 0.000000
0.580072 0.317082 0.000000
0.614832 0.320134 0.000000
0.648981 0.323644 0.000000
0.684047 0.327886 0.000000
0.720211 0.332952 0.000000
0.757382 0.338476 0.000000
0.795468 0.344427 0.000000
0.833890 0.350622 0.000000
0.872374 0.357031 0.000000
0.910704 0.363317 0.000000
0.948760 0.369451 0.000000
0.986267 0.375555 0.000000
1.000000 0.381384 0.000000
0.000000 0.301305 0.138460
0.000000 0.301305 0.138216
0.000000 0.301518 0.136416
0.000000 0.301915 0.133211
0.000000 0.302464 0.127657
0.000000 0.303258 0.119509
0.000000 0.304326 0.103212
0.000000 0.304723 0.100954
0.000000 0.305272 0.098268
0.132204 0.305821 0.094728
0.190890 0.305821 0.092683
0.235782 0.305516 0.091279
0.273838 0.305272 0.089998
0.308049 0.305180 0.088350
0.348791 0.314092 0.070619
0.395148 0.323980 0.025544
0.442542 0.333043 0.000000
0.488716 0.340063 0.000000
0.532250 0.345006 0.000000
0.572992 0.348028 0.000000
0.611475 0.349554 0.000000
0.649866 0.351415 0.000000
0.685267 0.355200 0.000000
0.721736 0.359594 0.000000
0.759121 0.364630 0.000000
0.797238 0.370092 0.000000
0.835752 0.375769 0.000000
0.874144 0.381506 0.000000
0.912413 0.387213 0.000000
0.950347 0.392889 0.000000
0.987762 0.398291 0.000000
1.000000 0.403510 0.000000
0.000000 0.342077 0.157351
0.000000 0.342046 0.157168
0.000000 0.342351 0.155612
0.000000 0.342596 0.152743
0.000000 0.343053 0.147768
0.000000 0.343816 0.140902
0.000000 0.344945 0.124575
0.000000 0.345434 0.118257
0.000000 0.345800 0.115663
0.061158 0.346258 0.112398
0.168154 0.346868 0.108583
0.225376 0.346471 0.107271
0.270817 0.346105 0.105989
0.310216 0.345708 0.104799
0.345892 0.345525 0.102846
0.387732 0.353918 0.094026
0.433417 0.363256 0.062531
0.479530 0.370794 0.009949
0.523400 0.376013 0.000000
0.564446 0.379156 0.000000
0.603540 0.380835 0.000000
0.643091 0.382757 0.000000
0.683528 0.385168 0.000000
0.723110 0.388342 0.000000
0.760708 0.392798 0.000000
0.799008 0.397803 0.000000
0.837430 0.402991 0.000000
0.875853 0.408118 0.000000
0.914031 0.413275 0.000000
0.951873 0.418311 0.000000
0.989197 0.423102 0.000000
1.000000 0.427741 0.000000
0.000000 0.383185 0.177523
0.000000 0.383215 0.177157
0.000000 0.383429 0.176028
0.000000 0.383734 0.173251
0.000000 0.384131 0.169070
0.000000 0.384771 0.163058
0.000000 0.385473 0.154330
0.000000 0.386542 0.137148
0.000000 0.386725 0.134798
0.000000 0.387121 0.132021
0.128359 0.387640 0.128603
0.205417 0.387945 0.125399
0.260777 0.387427 0.124208
0.306615 0.386938 0.122774
0.346990 0.386450 0.121401
0.383795 0.386084 0.119936
0.424170 0.391699 0.113466
0.469215 0.400977 0.099306
0.513237 0.406561 0.073243
0.554803 0.409979 0.024842
0.594507 0.412085 0.000000
0.634882 0.414557 0.000000
0.676051 0.417365 0.000000
0.717922 0.420386 0.000000
0.760403 0.423377 0.000000
0.800473 0.427436 0.000000
0.838956 0.431983 0.000000
0.877317 0.436683 0.000000
0.915496 0.441260 0.000000
0.953246 0.445716 0.000000
0.990417 0.449989 0.000000
1.000000 0.453956 0.000000
0.000000 0.423987 0.198123
0.000000 0.424079 0.197940
0.000000 0.424231 0.196811
0.000000 0.424445 0.194614
0.000000 0.424750 0.190921
0.000000 0.425208 0.185733
0.000000 0.425879 0.178653
0.000000 0.426978 0.160708
0.000000 0.427192 0.155856
0.000000 0.427344 0.153414
0.000000 0.427527 0.150454
0.173739 0.427802 0.147158
0.242374 0.427649 0.144594
0.296269 0.426886 0.143648
0.341650 0.426032 0.142367
0.382391 0.425360 0.141421
0.419776 0.424720 0.140047
0.457710 0.427314 0.136263
0.501701 0.436439 0.126192
0.543633 0.440253 0.113436
0.584222 0.443030 0.098329
0.625513 0.446174 0.068879
0.667536 0.449683 0.010437
0.710231 0.453254 0.000000
0.753475 0.456764 0.000000
0.796780 0.460151 0.000000
0.839750 0.463081 0.000000
0.878538 0.466987 0.000000
0.916655 0.471077 0.000000
0.954284 0.475044 0.000000
0.991424 0.478676 0.000000
1.000000 0.482094 0.000000
0.000000 0.462257 0.219394
0.000000 0.462226 0.219150
0.000000 0.462348 0.218296
0.000000 0.462501 0.216281
0.000000 0.462715 0.213352
0.000000 0.463081 0.209079
0.000000 0.463478 0.203311
0.000000 0.463996 0.195956
0.000000 0.464820 0.178897
0.000000 0.464790 0.176913
0.000000 0.464759 0.174533
0.122011 0.464820 0.171725
0.215915 0.464881 0.168643
0.278660 0.464302 0.166690
0.330419 0.463233 0.165835
0.375097 0.462257 0.164981
0.415351 0.461311 0.164126
0.452613 0.460395 0.163302
0.488106 0.460334 0.161379
0.531487 0.469642 0.154208
0.572930 0.473365 0.144747
0.615167 0.477333 0.133120
0.658045 0.481636 0.118837
0.701534 0.486000 0.100221
0.745510 0.490303 0.056428
0.789487 0.494240 0.000000
0.833066 0.497566 0.000000
0.876036 0.500267 0.000000
0.917449 0.502586 0.000000
0.955016 0.506035 0.000000
0.992004 0.509209 0.000000
1.000000 0.512047 0.000000
0.000000 0.497261 0.240909
0.000000 0.497261 0.240787
0.000000 0.497353 0.240055
0.000000 0.497475 0.238499
0.000000 0.497597 0.236088
0.000000 0.497841 0.232731
0.000000 0.498085 0.228519
0.000000 0.498390 0.222751
0.000000 0.499336 0.204959
0.000000 0.499184 0.202182
0.000000 0.499031 0.200259
0.000000 0.498848 0.198032
0.181674 0.498726 0.195285
0.255924 0.498543 0.192203
0.313787 0.497597 0.191196
0.362890 0.496437 0.190829
0.406378 0.495277 0.190066
0.446052 0.494179 0.189273
0.482673 0.493233 0.188785
0.516564 0.491798 0.188022
0.560845 0.502678 0.182803
0.603845 0.507836 0.174746
0.647608 0.513085 0.165072
0.691981 0.518364 0.154177
0.736660 0.523491 0.140627
0.781247 0.528099 0.123781
0.825437 0.532128 0.101472
0.869017 0.535424 0.046815
0.911650 0.537896 0.000000
0.953307 0.539574 0.000000
0.992096 0.541344 0.000000
1.000000 0.543694 0.000000
0.000000 0.529686 0.262821
0.000000 0.529717 0.262730
0.000000 0.529778 0.262181
0.000000 0.529808 0.261021
0.000000 0.529931 0.259251
0.000000 0.530114 0.256718
0.000000 0.530266 0.253452
0.000000 0.530510 0.249393
0.000000 0.530785 0.242649
0.000000 0.531487 0.229007
0.000000 0.531365 0.227298
0.000000 0.531273 0.225406
0.136385 0.531151 0.222995
0.231022 0.531060 0.220432
0.294285 0.531029 0.217716
0.348547 0.530022 0.217380
0.395636 0.529015 0.216892
0.437873 0.528099 0.216403
0.476997 0.527245 0.216007
0.513420 0.526452 0.215488
0.547723 0.525566 0.214939
0.592676 0.537377 0.210788
0.636469 0.543694 0.204288
0.681483 0.550103 0.196353
0.726864 0.556176 0.187259
0.772152 0.561700 0.177096
0.816953 0.566522 0.165072
0.861112 0.570428 0.151247
0.904265 0.573632 0.133791
0.946441 0.575830 0.111116
0.987243 0.577111 0.067048
1.000000 0.577264 0.000000
0.000000 0.563104 0.285740
0.000000 0.563104 0.285649
0.000000 0.563165 0.285161
0.000000 0.563226 0.284367
0.000000 0.563317 0.283085
0.000000 0.563470 0.281254
0.000000 0.563622 0.278813
0.000000 0.563806 0.276066
0.000000 0.564050 0.272984
0.000000 0.565087 0.256565
0.000000 0.565026 0.255070
0.000000 0.565087 0.253330
0.008759 0.565026 0.251255
0.202701 0.565118 0.248966
0.275578 0.565179 0.246555
0.333074 0.565118 0.244450
0.384253 0.564263 0.244175
0.429450 0.563470 0.243687
0.470985 0.562737 0.243442
0.509575 0.562097 0.243015
0.545983 0.561517 0.242741
0.580499 0.561059 0.242466
0.627161 0.573968 0.238407
0.670436 0.580987 0.234501
0.716426 0.588220 0.228092
0.762264 0.594781 0.220859
0.807645 0.600427 0.212955
0.852293 0.605280 0.204135
0.896086 0.609155 0.194430
0.938750 0.612055 0.183139
0.980041 0.613947 0.170230
1.000000 0.614649 0.154147
0.000000 0.598230 0.309880
0.000000 0.598230 0.309850
0.000000 0.598260 0.309422
0.000000 0.598322 0.308934
0.000000 0.598413 0.307927
0.000000 0.598566 0.306615
0.000000 0.598718 0.304906
0.000000 0.598901 0.303014
0.000000 0.599115 0.300908
0.000000 0.599603 0.294713
0.000000 0.600305 0.283665
0.000000 0.600427 0.282109
0.000000 0.600580 0.280247
0.168582 0.600671 0.278202
0.255589 0.600916 0.276066
0.318090 0.601190 0.273564
0.372107 0.600977 0.272099
0.420813 0.600275 0.271885
0.464820 0.599695 0.271702
0.505638 0.599145 0.271397
0.543969 0.598688 0.271244
0.580316 0.598352 0.271092
0.615015 0.598108 0.270787
0.661463 0.610529 0.267948
0.705287 0.619165 0.265660
0.751705 0.626886 0.260777
0.797665 0.633661 0.255436
0.842893 0.639460 0.249699
0.887144 0.644251 0.243656
0.930358 0.647974 0.236973
0.972076 0.650507 0.229496
1.000000 0.651881 0.221164
0.000000 0.634974 0.335271
0.000000 0.634974 0.335210
0.000000 0.635004 0.334997
0.000000 0.635065 0.334569
0.000000 0.635157 0.333867
0.000000 0.635248 0.332952
0.000000 0.635431 0.331945
0.000000 0.635615 0.330724
0.000000 0.635737 0.329503
0.000000 0.635981 0.328557
0.000000 0.637140 0.313390
0.000000 0.637324 0.312016
0.000000 0.637507 0.310430
0.122927 0.637751 0.308598
0.234348 0.637995 0.306554
0.303777 0.638361 0.304356
0.360204 0.638727 0.301976
0.411566 0.638422 0.301122
0.458381 0.637934 0.301061
0.501427 0.637446 0.300908
0.541711 0.636988 0.300877
0.579706 0.636683 0.300725
0.615869 0.636469 0.300725
0.650690 0.636347 0.300633
0.695644 0.647120 0.299229
0.740627 0.657893 0.298253
0.787137 0.665949 0.294835
0.832853 0.672877 0.291447
0.877714 0.678645 0.287724
0.921294 0.683284 0.283909
0.963378 0.686702 0.279911
1.000000 0.688777 0.275731
0.000000 0.673030 0.361944
0.000000 0.673030 0.361883
0.000000 0.673030 0.361791
0.000000 0.673121 0.361486
0.000000 0.673152 0.361059
0.000000 0.673243 0.360540
0.000000 0.673335 0.359930
0.000000 0.673487 0.359258
0.000000 0.673640 0.358709
0.000000 0.673793 0.358312
0.000000 0.674495 0.351568
0.000000 0.675288 0.342351
0.000000 0.675502 0.340887
0.000000 0.675746 0.339269
0.211093 0.676051 0.337652
0.289036 0.676356 0.335729
0.349706 0.676814 0.333623
0.402075 0.677241 0.331243
0.451514 0.676814 0.331060
0.496712 0.676356 0.330999
0.538872 0.675990 0.330999
0.578485 0.675654 0.331029
0.616236 0.675380 0.331029
0.652338 0.675227 0.330999
0.687037 0.675227 0.331060
0.730282 0.684321 0.330602
0.776364 0.696986 0.330602
0.822599 0.705165 0.328801
0.867979 0.712001 0.326940
0.911955 0.717586 0.325200
0.954437 0.721859 0.323613
0.994842 0.724666 0.322087
0.000000 0.711666 0.389776
0.000000 0.711635 0.389837
0.000000 0.711666 0.389746
0.000000 0.711696 0.389593
0.000000 0.711757 0.389410
0.000000 0.711849 0.389197
0.000000 0.711910 0.388861
0.000000 0.712032 0.388525
0.000000 0.712123 0.388128
0.000000 0.712337 0.387671
0.000000 0.712520 0.387182
0.000000 0.713893 0.371984
0.000000 0.714076 0.370855
0.000000 0.714321 0.369512
0.181552 0.714626 0.367926
0.272313 0.714931 0.366247
0.338048 0.715328 0.364355
0.393378 0.715785 0.362432
0.443397 0.716121 0.360571
0.491066 0.715663 0.360632
0.535027 0.715297 0.360571
0.576440 0.714961 0.360693
0.615686 0.714687 0.360693
0.653162 0.714534 0.360754
0.689143 0.714412 0.360815
0.723934 0.714443 0.360967
0.765255 0.721828 0.361212
0.812375 0.736263 0.362310
0.858152 0.744289 0.361913
0.902647 0.750851 0.361791
0.945342 0.756008 0.361975
0.985809 0.759731 0.362860
0.000000 0.750546 0.418616
0.000000 0.750546 0.418616
0.000000 0.750576 0.418616
0.000000 0.750607 0.418494
0.000000 0.750637 0.418372
0.000000 0.750698 0.418219
0.000000 0.750790 0.418036
0.000000 0.750881 0.417700
0.000000 0.750973 0.417334
0.000000 0.751156 0.416846
0.000000 0.751339 0.416266
0.000000 0.752163 0.408240
0.000000 0.752987 0.400214
0.000000 0.753231 0.399054
0.139956 0.753475 0.397620
0.252750 0.753750 0.396216
0.325017 0.754116 0.394659
0.383825 0.754513 0.392889
0.435737 0.754971 0.390997
0.484047 0.755123 0.389715
0.530236 0.754757 0.389807
0.573388 0.754421 0.389868
0.614130 0.754147 0.389960
0.652949 0.753933 0.390021
0.690211 0.753811 0.390143
0.726131 0.753780 0.390295
0.760861 0.753841 0.390387
0.800412 0.759396 0.391363
0.848997 0.775662 0.393194
0.893248 0.783200 0.394812
0.936156 0.789242 0.396612
0.976684 0.793851 0.399329
0.000000 0.789487 0.447578
0.000000 0.789487 0.447578
0.000000 0.789517 0.447517
0.000000 0.789517 0.447486
0.000000 0.789548 0.447395
0.000000 0.789609 0.447303
0.000000 0.789700 0.447089
0.000000 0.789792 0.446815
0.000000 0.789883 0.446479
0.000000 0.790036 0.446052
0.000000 0.790219 0.445350
0.000000 0.790433 0.444465
0.000000 0.791897 0.429053
0.000000 0.792111 0.427985
0.027466 0.792325 0.426917
0.229129 0.792599 0.425635
0.310033 0.792905 0.424323
0.373083 0.793301 0.422797
0.427649 0.793698 0.421118
0.476967 0.794156 0.419287
0.524254 0.794125 0.418708
0.569238 0.793759 0.418830
0.611444 0.793484 0.418952
0.651728 0.793240 0.419165
0.690242 0.793057 0.419409
0.727169 0.792996 0.419623
0.763149 0.792966 0.419837
0.797787 0.793057 0.420142
0.835386 0.796902 0.421759
0.885924 0.814908 0.424811
0.926970 0.821592 0.429877
0.967407 0.827115 0.434913
0.000000 0.828244 0.476692
0.000000 0.828244 0.476692
0.000000 0.828244 0.476631
0.000000 0.828275 0.476692
0.000000 0.828305 0.476570
0.000000 0.828367 0.476478
0.000000 0.828428 0.476265
0.000000 0.828519 0.476051
0.000000 0.828580 0.475746
0.000000 0.828702 0.475410
0.000000 0.828824 0.475227
0.000000 0.828946 0.475349
0.000000 0.829831 0.466773
0.000000 0.830533 0.459693
0.000000 0.830747 0.458747
0.212100 0.830991 0.457618
0.299779 0.831266 0.456489
0.365820 0.831571 0.455146
0.422095 0.831937 0.453773
0.472724 0.832334 0.452247
0.519524 0.832761 0.450568
0.565515 0.832547 0.450599
0.609003 0.832212 0.450904
0.650324 0.831937 0.451331
0.689723 0.831724 0.451759
0.727749 0.831571 0.452155
0.764523 0.831449 0.452613
0.800015 0.831449 0.453223
0.834379 0.831540 0.453803
0.870207 0.834348 0.456214
0.921080 0.853208 0.461555
0.958129 0.859129 0.470924
0.000000 0.866392 0.505943
0.000000 0.866392 0.505913
0.000000 0.866392 0.505943
0.000000 0.866392 0.505913
0.000000 0.866423 0.505913
0.000000 0.866423 0.505943
0.000000 0.866484 0.506065
0.000000 0.866484 0.506188
0.000000 0.866484 0.506554
0.000000 0.866514 0.507012
0.000000 0.866484 0.507805
0.000000 0.866453 0.508965
0.000000 0.866514 0.509636
0.000000 0.867887 0.495583
