20 Preset/Russian Style/【3】LUT video cho PR-AE-FCPX/Lut Tone (22).cube
# Created by Adobe Lightroom plugin Export LUT (1.24.0)
# www.johnrellis.com/lightroom/exportlut.htm
# Preset: 俄罗斯情绪-素材江湖11
# Color profile: C:\Program Files (x86)\Common Files\Adobe\Color\Profiles\Recommended\VideoHD.icc
LUT_3D_SIZE 5
DOMAIN_MIN 0.000000 0.000000 0.000000
DOMAIN_MAX 0.903226 0.903226 0.903226
0.017975 0.027741 0.047791
0.210361 0.023957 0.038361
0.572107 0.000000 0.000000
0.760006 0.129152 0.034455
0.892912 0.236423 0.163729
0.000000 0.252506 0.113222
0.192416 0.252750 0.135805
0.564721 0.287907 0.009644
0.748562 0.291112 0.129427
0.884276 0.330022 0.205783
0.226780 0.536706 0.322911
0.307866 0.537987 0.318791
0.495796 0.528832 0.365728
0.677241 0.536431 0.357580
0.846891 0.532555 0.325597
0.411810 0.691127 0.491554
0.432654 0.692500 0.490547
0.514183 0.694514 0.493721
0.622980 0.687098 0.526940
0.749569 0.711879 0.544762
0.492622 0.844999 0.616846
0.503960 0.846036 0.616541
0.548333 0.849027 0.613672
0.634119 0.851255 0.630365
0.727108 0.851072 0.667292
0.000000 0.067720 0.238102
0.223026 0.016236 0.257328
0.578454 0.027863 0.257420
0.745663 0.236484 0.286900
0.877317 0.308202 0.315435
0.000000 0.275547 0.275486
0.244114 0.298680 0.291936
0.562951 0.318303 0.288853
0.734066 0.339330 0.307073
0.868772 0.376287 0.334691
0.301762 0.539025 0.405798
0.352361 0.541070 0.402930
0.501610 0.535088 0.427192
0.674006 0.547143 0.416815
0.836820 0.549523 0.403693
0.431006 0.692866 0.522850
0.449287 0.694362 0.521996
0.521599 0.698024 0.521721
0.625299 0.691157 0.549065
0.750790 0.716701 0.563714
0.501244 0.845884 0.634577
0.511833 0.846921 0.634241
0.555108 0.851652 0.633509
0.637079 0.854276 0.646906
0.728359 0.854307 0.681910
0.023377 0.203403 0.519249
0.278233 0.214023 0.524193
0.561486 0.235782 0.535882
0.728054 0.327520 0.509056
0.847105 0.424811 0.526726
0.259495 0.372900 0.523705
0.339452 0.374365 0.527916
0.552850 0.374365 0.537255
0.711055 0.418799 0.523278
0.838712 0.471107 0.537224
0.408087 0.544701 0.540154
0.442420 0.549340 0.545830
0.526818 0.564599 0.557336
0.677272 0.577752 0.551385
0.817777 0.585351 0.554986
0.478096 0.700252 0.608209
0.491981 0.702022 0.608789
0.542870 0.708400 0.606073
0.633997 0.706935 0.621912
0.759091 0.732601 0.625147
0.526635 0.849088 0.693111
0.535363 0.850340 0.693019
0.571405 0.855406 0.692409
0.642603 0.861753 0.696986
0.730495 0.861936 0.726101
0.348882 0.377874 0.679316
0.395605 0.383398 0.680873
0.531212 0.396857 0.686641
0.699458 0.421881 0.692348
0.831907 0.470741 0.682124
0.404791 0.463081 0.678157
0.434607 0.463935 0.679500
0.538872 0.466621 0.685389
0.691615 0.476051 0.692012
0.824796 0.506706 0.684596
0.459022 0.589746 0.677974
0.479896 0.592462 0.679469
0.550744 0.600061 0.687984
0.672633 0.598535 0.694209
0.802914 0.616419 0.698695
0.522271 0.707424 0.697414
0.535790 0.709133 0.699580
0.579950 0.719356 0.709957
0.648646 0.734524 0.721401
0.781033 0.745541 0.717617
0.560204 0.853819 0.771572
0.567895 0.855680 0.773251
0.598627 0.863828 0.779843
0.650446 0.875181 0.779232
0.735775 0.878660 0.797574
0.485634 0.525139 0.829709
0.503960 0.525963 0.830350
0.572992 0.529381 0.833921
0.684291 0.532616 0.840879
0.818265 0.548058 0.847044
0.497078 0.558953 0.828489
0.513329 0.559289 0.829252
0.576257 0.560693 0.832822
0.681849 0.561791 0.839872
0.813230 0.573999 0.846769
0.523857 0.653101 0.828672
0.539483 0.656336 0.829648
0.586542 0.656062 0.833219
0.673854 0.653407 0.840665
0.798337 0.657893 0.850858
0.543420 0.761074 0.835294
0.553124 0.761593 0.836057
0.592462 0.764736 0.840635
0.664118 0.772000 0.852659
0.775448 0.774563 0.863676
0.588678 0.870787 0.857603
0.596094 0.871733 0.858824
0.626703 0.877073 0.865171
0.680629 0.888029 0.878477
0.744656 0.908812 0.898802
