20 Preset/Russian Style/【3】LUT video cho PR-AE-FCPX/Lut Tone (27).cube
# Created by Adobe Lightroom plugin Export LUT (1.24.0)
# www.johnrellis.com/lightroom/exportlut.htm
# Preset: 俄罗斯情绪-素材江湖14
# Color profile: C:\Program Files (x86)\Common Files\Adobe\Color\Profiles\Recommended\VideoHD.icc
LUT_3D_SIZE 5
DOMAIN_MIN 0.000000 0.000000 0.000000
DOMAIN_MAX 0.903226 0.903226 0.903226
0.013947 0.008362 0.004242
0.226658 0.000000 0.011902
0.698634 0.000000 0.000000
1.000000 0.179263 0.000000
1.000000 0.352819 0.000000
0.027375 0.162661 0.113252
0.204776 0.201205 0.115175
0.691341 0.274815 0.000000
1.000000 0.355962 0.000000
1.000000 0.433021 0.052735
0.000000 0.461006 0.217716
0.000000 0.493019 0.218753
0.619532 0.611536 0.217960
0.994720 0.637232 0.124758
1.000000 0.638331 0.284550
0.000000 0.744167 0.374395
0.214206 0.754910 0.385931
0.584253 0.792569 0.434333
0.905394 0.854002 0.525292
1.000000 0.848661 0.588525
0.661280 0.935454 0.694179
0.693080 0.937560 0.703944
0.785550 0.944366 0.732265
0.900389 0.954589 0.779477
0.994324 0.966186 0.835813
0.081514 0.081361 0.123781
0.196536 0.083742 0.170687
0.721126 0.000000 0.188693
1.000000 0.214328 0.174533
1.000000 0.388861 0.227329
0.101991 0.182498 0.188602
0.234531 0.248447 0.227817
0.711116 0.293614 0.205173
1.000000 0.371832 0.185031
1.000000 0.462287 0.255344
0.000000 0.476783 0.277317
0.117739 0.530632 0.292271
0.642908 0.634333 0.322271
0.994537 0.647150 0.277317
1.000000 0.658412 0.386877
0.000000 0.745937 0.417792
0.299535 0.763058 0.439643
0.606561 0.799496 0.486580
0.906493 0.858762 0.573663
1.000000 0.855161 0.627924
0.658625 0.934813 0.700862
0.703700 0.937469 0.718654
0.792172 0.944427 0.745693
0.902678 0.954742 0.790707
0.993500 0.966674 0.844144
0.118441 0.148623 0.245853
0.181888 0.165255 0.275090
0.589624 0.179721 0.418952
1.000000 0.294835 0.478340
1.000000 0.539513 0.533593
0.172244 0.238285 0.289586
0.249821 0.287114 0.342168
0.650446 0.348577 0.468360
1.000000 0.463844 0.511894
1.000000 0.592065 0.553979
0.000000 0.484138 0.400946
0.274357 0.542382 0.446448
0.713344 0.708248 0.596216
0.979492 0.707179 0.581476
1.000000 0.728420 0.619257
0.252750 0.739071 0.520317
0.392065 0.760311 0.547997
0.683070 0.823728 0.639826
0.911345 0.876371 0.709407
1.000000 0.875273 0.732784
0.616449 0.931304 0.716213
0.667659 0.934051 0.731563
0.809140 0.944457 0.787594
0.908965 0.955322 0.826139
0.991272 0.968536 0.870878
0.166659 0.237552 0.391821
0.222751 0.249149 0.414008
0.466194 0.292638 0.510094
0.914427 0.436896 0.676051
1.000000 0.651972 0.732967
0.202304 0.307805 0.425849
0.262486 0.330144 0.458869
0.505089 0.388251 0.549157
0.918364 0.531365 0.696193
1.000000 0.699336 0.749996
0.242802 0.486000 0.499550
0.339666 0.519341 0.527092
0.658289 0.675166 0.670192
0.922545 0.748959 0.763424
1.000000 0.824186 0.809689
0.371496 0.731533 0.633845
0.456947 0.748684 0.653834
0.703273 0.814786 0.734310
0.927245 0.907774 0.846433
1.000000 0.905913 0.848234
0.578271 0.924315 0.767086
0.618860 0.926848 0.774044
0.754879 0.937407 0.805692
0.918853 0.957244 0.875669
0.989319 0.972564 0.907378
0.345495 0.452705 0.675074
0.393347 0.458778 0.683192
0.566339 0.491127 0.721798
0.827878 0.560235 0.790433
1.000000 0.722744 0.856535
0.366217 0.493507 0.678431
0.410956 0.500145 0.687251
0.573785 0.530877 0.724819
0.825742 0.595819 0.792264
1.000000 0.746578 0.859800
0.386755 0.581018 0.674861
0.437293 0.594720 0.687251
0.627070 0.663111 0.750332
0.833555 0.717830 0.813169
1.000000 0.832059 0.880705
0.452796 0.746944 0.755428
0.491585 0.749874 0.758480
0.645747 0.774777 0.782040
0.884550 0.873289 0.866728
0.992401 0.924254 0.914549
0.617304 0.921416 0.853391
0.646082 0.922606 0.855924
0.758083 0.931029 0.871397
0.902983 0.949126 0.903624
0.989105 0.979400 0.946715
