20 Preset/Russian Style/【3】LUT video cho PR-AE-FCPX/Lut Tone (2).cube
# Created by Adobe Lightroom plugin Export LUT (1.24.0)
# www.johnrellis.com/lightroom/exportlut.htm
# Preset: 俄罗斯情绪-素材江湖01
# Color profile: C:\Program Files (x86)\Common Files\Adobe\Color\Profiles\Recommended\VideoHD.icc
LUT_3D_SIZE 32
DOMAIN_MIN 0.0 0.0 0.0
DOMAIN_MAX 1.0 1.0 1.0
0.012085 0.012696 0.014954
0.012085 0.012696 0.014954
0.012085 0.012696 0.014954
0.061769 0.007111 0.014771
0.110353 0.001495 0.013581
0.143191 0.009339 0.009766
0.187961 0.019623 0.002960
0.241306 0.017762 0.000000
0.297581 0.005280 0.000000
0.354376 0.000000 0.000000
0.412024 0.000000 0.000000
0.469581 0.000000 0.000000
0.526574 0.000000 0.000000
0.582238 0.008118 0.000000
0.635737 0.072633 0.000000
0.686183 0.116640 0.000000
0.733883 0.151797 0.000000
0.779141 0.186069 0.000000
0.820676 0.217411 0.000000
0.861051 0.249180 0.000000
0.896941 0.277806 0.000000
0.929351 0.304326 0.000000
0.958648 0.328435 0.000000
0.986084 0.350713 0.000000
1.000000 0.371191 0.000000
1.000000 0.390021 0.000000
1.000000 0.407019 0.000000
1.000000 0.422492 0.000000
1.000000 0.436408 0.000000
1.000000 0.449012 0.000000
1.000000 0.460273 0.000000
1.000000 0.470344 0.000000
0.012085 0.012696 0.014954
0.012085 0.012696 0.014954
0.012085 0.012696 0.014954
0.065736 0.006653 0.014740
0.110903 0.004669 0.013123
0.143282 0.014893 0.009003
0.187839 0.024231 0.002350
0.240543 0.022034 0.000000
0.296818 0.010986 0.000000
0.353552 0.000000 0.000000
0.410712 0.000000 0.000000
0.468147 0.000000 0.000000
0.524987 0.000000 0.000000
0.580560 0.018219 0.000000
0.633936 0.082643 0.000000
0.684657 0.119539 0.000000
0.732357 0.153780 0.000000
0.777768 0.187198 0.000000
0.819364 0.218235 0.000000
0.859342 0.249454 0.000000
0.894957 0.277623 0.000000
0.927245 0.303532 0.000000
0.956420 0.327672 0.000000
0.983795 0.349920 0.000000
1.000000 0.370397 0.000000
1.000000 0.389014 0.000000
1.000000 0.405951 0.000000
1.000000 0.421637 0.000000
1.000000 0.435615 0.000000
1.000000 0.448371 0.000000
1.000000 0.459754 0.000000
1.000000 0.469856 0.000000
0.012085 0.012696 0.014954
0.012085 0.012696 0.014954
0.021332 0.012787 0.014771
0.077211 0.015473 0.013306
0.111818 0.021149 0.010803
0.144808 0.033112 0.006378
0.189578 0.042969 0.000000
0.242283 0.041321 0.000000
0.297978 0.033875 0.000000
0.354131 0.022614 0.000000
0.411017 0.013550 0.000000
0.468208 0.010956 0.000000
0.524773 0.026307 0.000000
0.580102 0.065003 0.000000
0.633417 0.102358 0.000000
0.683833 0.132723 0.000000
0.731533 0.163760 0.000000
0.776852 0.195041 0.000000
0.818479 0.224765 0.000000
0.858366 0.254795 0.000000
0.893828 0.282109 0.000000
0.925933 0.307530 0.000000
0.955138 0.330785 0.000000
0.982605 0.352422 0.000000
1.000000 0.372595 0.000000
1.000000 0.390814 0.000000
1.000000 0.407813 0.000000
1.000000 0.423163 0.000000
1.000000 0.437049 0.000000
1.000000 0.449683 0.000000
1.000000 0.460792 0.000000
1.000000 0.470863 0.000000
0.004578 0.038758 0.030762
0.009522 0.039277 0.031708
0.028687 0.045014 0.029419
0.082277 0.050141 0.022004
0.113527 0.058442 0.011261
0.149020 0.071046 0.000793
0.194736 0.079377 0.000000
0.246372 0.081575 0.000000
0.301396 0.081483 0.000000
0.356756 0.079408 0.000000
0.413245 0.079194 0.000000
0.469520 0.084352 0.000000
0.525872 0.094820 0.000000
0.580713 0.110628 0.000000
0.633417 0.130526 0.000000
0.683467 0.155917 0.000000
0.730861 0.182559 0.000000
0.775814 0.210819 0.000000
0.817472 0.238468 0.000000
0.856535 0.265812 0.000000
0.891478 0.290959 0.000000
0.923400 0.314977 0.000000
0.952697 0.337224 0.000000
0.980346 0.357977 0.000000
1.000000 0.377508 0.000000
1.000000 0.395575 0.000000
1.000000 0.412268 0.000000
1.000000 0.427283 0.000000
1.000000 0.440742 0.000000
1.000000 0.453010 0.000000
1.000000 0.463966 0.000000
1.000000 0.473671 0.000000
0.023896 0.082856 0.070283
0.028840 0.083192 0.071229
0.047822 0.086061 0.072511
0.084138 0.088624 0.064302
0.113008 0.092805 0.051026
0.153170 0.098268 0.031769
0.200809 0.103700 0.007355
0.251987 0.108156 0.000000
0.305882 0.112245 0.000000
0.360479 0.115267 0.000000
0.415656 0.118837 0.000000
0.471626 0.124422 0.000000
0.527031 0.134066 0.000000
0.581567 0.147127 0.000000
0.633906 0.164401 0.000000
0.683467 0.185611 0.000000
0.730861 0.208560 0.000000
0.775570 0.233433 0.000000
0.817288 0.258488 0.000000
0.855863 0.283055 0.000000
0.890532 0.306157 0.000000
0.922240 0.328069 0.000000
0.951446 0.348730 0.000000
0.979217 0.368261 0.000000
1.000000 0.386725 0.000000
1.000000 0.403998 0.000000
1.000000 0.419623 0.000000
1.000000 0.433906 0.000000
1.000000 0.446815 0.000000
1.000000 0.458473 0.000000
1.000000 0.468879 0.000000
1.000000 0.478157 0.000000
0.042725 0.103365 0.094881
0.045258 0.104005 0.094789
0.062165 0.105806 0.094392
0.088472 0.108431 0.092500
0.113863 0.111727 0.087922
0.154238 0.119112 0.077180
0.206241 0.126802 0.052308
0.259464 0.132998 0.021302
0.312505 0.138399 0.000000
0.366522 0.144686 0.000000
0.421027 0.152224 0.000000
0.476112 0.162417 0.000000
0.530816 0.173770 0.000000
0.584497 0.186618 0.000000
0.636194 0.201938 0.000000
0.685359 0.220157 0.000000
0.732082 0.240391 0.000000
0.776608 0.262028 0.000000
0.818326 0.284367 0.000000
0.856291 0.306004 0.000000
0.890593 0.326696 0.000000
0.922118 0.346471 0.000000
0.962768 0.374304 0.000000
0.989868 0.391943 0.000000
1.000000 0.408148 0.000000
1.000000 0.423255 0.000000
1.000000 0.436988 0.000000
1.000000 0.449470 0.000000
1.000000 0.460883 0.000000
1.000000 0.471107 0.000000
1.000000 0.480232 0.000000
1.000000 0.488258 0.000000
0.045319 0.129397 0.112795
0.049866 0.129793 0.112703
0.066285 0.131899 0.112551
0.093080 0.135561 0.110719
0.119905 0.138918 0.106630
0.156039 0.143252 0.099367
0.208896 0.153964 0.089601
0.267979 0.163272 0.061830
0.323003 0.169680 0.023377
0.378241 0.176547 0.000000
0.432502 0.184176 0.000000
0.486824 0.194186 0.000000
0.540826 0.206088 0.000000
0.593469 0.220493 0.000000
0.644007 0.237095 0.000000
0.691890 0.255772 0.000000
0.737911 0.276310 0.000000
0.781582 0.296880 0.000000
0.823392 0.317174 0.000000
0.861143 0.336400 0.000000
0.895720 0.355016 0.000000
0.927703 0.372992 0.000000
0.957580 0.390326 0.000000
0.985779 0.406928 0.000000
1.000000 0.422248 0.000000
1.000000 0.436347 0.000000
1.000000 0.448798 0.000000
1.000000 0.460365 0.000000
1.000000 0.470832 0.000000
1.000000 0.480171 0.000000
1.000000 0.488563 0.000000
1.000000 0.495949 0.000000
0.048432 0.161257 0.134218
0.053651 0.161715 0.134615
0.074525 0.163729 0.133913
0.098695 0.168093 0.132906
0.126284 0.171481 0.129274
0.162478 0.176211 0.122591
0.205997 0.181949 0.113191
0.264500 0.193668 0.100832
0.325963 0.204044 0.080476
0.381872 0.210147 0.030396
0.438972 0.218265 0.000000
0.493019 0.226627 0.000000
0.545953 0.237217 0.000000
0.597528 0.249790 0.000000
0.647028 0.264683 0.000000
0.694026 0.281498 0.000000
0.739376 0.300298 0.000000
0.783383 0.320989 0.000000
0.823789 0.341283 0.000000
0.860441 0.360784 0.000000
0.894133 0.379583 0.000000
0.925689 0.396338 0.000000
0.955383 0.411444 0.000000
0.983520 0.425940 0.000000
1.000000 0.439673 0.000000
1.000000 0.452064 0.000000
1.000000 0.463447 0.000000
1.000000 0.473671 0.000000
1.000000 0.483040 0.000000
1.000000 0.491554 0.000000
1.000000 0.498970 0.000000
1.000000 0.505608 0.000000
0.064424 0.199649 0.161196
0.070497 0.200259 0.161257
0.089052 0.202121 0.161044
0.109163 0.205875 0.160494
0.135988 0.210147 0.157565
0.171145 0.214481 0.152346
0.211582 0.219486 0.143679
0.260533 0.226078 0.131868
0.320439 0.237949 0.118318
0.383215 0.248844 0.098848
0.440223 0.256016 0.051179
0.497169 0.264317 0.000000
0.551904 0.273960 0.000000
0.602564 0.284276 0.000000
0.651270 0.296788 0.000000
0.697566 0.311009 0.000000
0.743252 0.328008 0.000000
0.786160 0.345953 0.000000
0.825376 0.363684 0.000000
0.861143 0.380987 0.000000
0.894285 0.398016 0.000000
0.925170 0.414710 0.000000
0.954406 0.430732 0.000000
0.982116 0.446296 0.000000
1.000000 0.459663 0.000000
1.000000 0.470497 0.000000
1.000000 0.480476 0.000000
1.000000 0.489418 0.000000
1.000000 0.497688 0.000000
1.000000 0.504906 0.000000
1.000000 0.511559 0.000000
1.000000 0.517266 0.000000
0.091585 0.242191 0.192386
0.094759 0.242496 0.192447
0.105043 0.243961 0.192264
0.124849 0.247349 0.192020
0.150057 0.251865 0.190219
0.181979 0.255528 0.185885
0.219821 0.260319 0.178714
0.264164 0.265690 0.168185
0.315068 0.272526 0.155184
0.375921 0.284794 0.141329
0.439185 0.296605 0.121920
0.495979 0.304326 0.093629
0.551873 0.313268 0.009522
0.606134 0.323796 0.000000
0.654719 0.333989 0.000000
0.701534 0.346380 0.000000
0.746822 0.360632 0.000000
0.788815 0.375402 0.000000
0.827298 0.390173 0.000000
0.862425 0.404608 0.000000
0.894987 0.418982 0.000000
0.925292 0.433143 0.000000
0.953887 0.447150 0.000000
0.981018 0.461250 0.000000
1.000000 0.474617 0.000000
1.000000 0.487251 0.000000
1.000000 0.498543 0.000000
1.000000 0.506249 0.000000
1.000000 0.513390 0.000000
1.000000 0.519738 0.000000
1.000000 0.525353 0.000000
1.000000 0.530236 0.000000
0.113741 0.285649 0.225589
0.115908 0.285985 0.225620
0.125093 0.287602 0.225589
0.143130 0.290471 0.225467
0.167269 0.294987 0.224765
0.196201 0.298741 0.221286
0.231815 0.303014 0.216007
0.271458 0.308141 0.206882
0.317601 0.313390 0.195132
0.370459 0.321080 0.181765
0.431434 0.333501 0.167453
0.493874 0.346014 0.149081
0.549523 0.354498 0.124361
0.603632 0.363897 0.084138
0.656214 0.375036 0.000000
0.705043 0.386542 0.000000
0.749386 0.397711 0.000000
0.790463 0.409247 0.000000
0.828122 0.420752 0.000000
0.862699 0.431952 0.000000
0.894926 0.443427 0.000000
0.925017 0.454841 0.000000
0.953582 0.466712 0.000000
0.980652 0.478492 0.000000
1.000000 0.490120 0.000000
1.000000 0.501488 0.000000
1.000000 0.512322 0.000000
1.000000 0.522423 0.000000
1.000000 0.530999 0.000000
1.000000 0.536248 0.000000
1.000000 0.540856 0.000000
1.000000 0.544732 0.000000
0.137606 0.330846 0.260533
0.139803 0.331243 0.260563
0.148226 0.332341 0.260472
0.163790 0.334966 0.260594
0.185855 0.338994 0.260136
0.212833 0.343175 0.257969
0.245151 0.347234 0.253300
0.282353 0.351781 0.246403
0.324529 0.356725 0.236057
0.371893 0.362097 0.223606
0.425727 0.370214 0.209964
0.485634 0.382940 0.196506
0.553735 0.402380 0.183322
0.609583 0.412970 0.161349
0.662470 0.423499 0.132021
0.713497 0.434699 0.081575
0.760830 0.445777 0.000000
0.800961 0.454170 0.000000
0.837522 0.462440 0.000000
0.871397 0.470558 0.000000
0.902983 0.478920 0.000000
0.932494 0.487343 0.000000
0.960388 0.496101 0.000000
0.986786 0.504997 0.000000
1.000000 0.513939 0.000000
1.000000 0.522545 0.000000
1.000000 0.530877 0.000000
1.000000 0.539117 0.000000
1.000000 0.547082 0.000000
1.000000 0.554406 0.000000
1.000000 0.559228 0.000000
1.000000 0.561730 0.000000
0.164492 0.379400 0.298589
0.165896 0.379583 0.298619
0.173861 0.380529 0.298619
0.187533 0.382696 0.298375
0.207675 0.385901 0.298100
0.232914 0.390295 0.296849
0.262333 0.393713 0.292607
0.297429 0.397681 0.287541
0.335760 0.402197 0.278813
0.379431 0.406897 0.267613
0.427985 0.412665 0.254673
0.483436 0.423102 0.242496
0.543389 0.437079 0.230777
0.602686 0.450874 0.215915
0.656245 0.461463 0.196658
0.706966 0.471504 0.171847
0.754025 0.480812 0.139101
0.797238 0.489296 0.087037
0.834928 0.496040 0.000000
0.868345 0.501915 0.000000
0.899626 0.507927 0.000000
0.929137 0.514305 0.000000
0.957153 0.521080 0.000000
0.983734 0.528038 0.000000
1.000000 0.534966 0.000000
1.000000 0.541772 0.000000
1.000000 0.548302 0.000000
1.000000 0.554620 0.000000
1.000000 0.560845 0.000000
1.000000 0.567010 0.000000
1.000000 0.573022 0.000000
1.000000 0.578180 0.000000
0.190829 0.423407 0.333959
0.192172 0.423590 0.333898
0.198947 0.424506 0.334020
0.211276 0.426123 0.333776
0.229313 0.428962 0.333440
0.252293 0.432990 0.332860
0.279484 0.436561 0.329839
0.311437 0.440436 0.325414
0.348028 0.444953 0.319341
0.388159 0.449714 0.309972
0.432868 0.454902 0.298802
0.480903 0.460426 0.285679
0.535393 0.470771 0.274083
0.592401 0.483925 0.263249
0.648402 0.496559 0.249699
0.700008 0.506615 0.232059
0.746639 0.514519 0.210971
0.789425 0.521599 0.186069
0.828885 0.528008 0.154177
0.865202 0.534020 0.108736
0.896269 0.538293 0.000000
0.925841 0.543053 0.000000
0.953979 0.548272 0.000000
0.980621 0.553704 0.000000
1.000000 0.559014 0.000000
1.000000 0.564263 0.000000
1.000000 0.569085 0.000000
1.000000 0.573724 0.000000
1.000000 0.578027 0.000000
1.000000 0.582300 0.000000
1.000000 0.586358 0.000000
1.000000 0.590631 0.000000
0.219394 0.467567 0.370489
0.220768 0.467842 0.370367
0.226108 0.468544 0.370459
0.237125 0.470039 0.370306
0.253971 0.472419 0.370092
0.275212 0.475959 0.369818
0.300114 0.479805 0.367987
0.329290 0.483009 0.364080
0.362829 0.486824 0.359258
0.399725 0.490944 0.351659
0.440070 0.495338 0.341741
0.484504 0.499947 0.330053
0.530907 0.504936 0.316716
0.583551 0.515007 0.306188
0.638025 0.527001 0.295781
0.691188 0.538384 0.283513
0.739101 0.546715 0.268040
0.781552 0.552850 0.250340
0.820798 0.558160 0.229679
0.857481 0.563317 0.205417
0.891691 0.568322 0.175570
0.922423 0.572564 0.136751
0.950530 0.576471 0.053956
0.977050 0.580529 0.000000
1.000000 0.584466 0.000000
1.000000 0.588403 0.000000
1.000000 0.592035 0.000000
1.000000 0.595392 0.000000
1.000000 0.598383 0.000000
1.000000 0.601038 0.000000
1.000000 0.603418 0.000000
1.000000 0.605554 0.000000
0.250065 0.509636 0.406256
0.251499 0.509819 0.406348
0.256413 0.510521 0.406378
0.265751 0.511772 0.406317
0.280735 0.513909 0.406317
0.300206 0.516899 0.406195
0.323827 0.521050 0.405737
0.349828 0.523919 0.402441
0.380377 0.527367 0.398444
0.414771 0.531090 0.393286
0.451057 0.534508 0.384283
0.490913 0.538079 0.373724
0.533471 0.541650 0.361425
0.577844 0.545464 0.347692
0.628412 0.555077 0.337835
0.679927 0.565789 0.328344
0.728908 0.575158 0.317144
0.772854 0.581994 0.303899
0.811887 0.586816 0.288548
0.848722 0.591272 0.271031
0.883421 0.595819 0.251316
0.916228 0.600519 0.228367
0.946777 0.604974 0.201144
0.973266 0.607996 0.167269
0.998108 0.610956 0.119203
1.000000 0.613825 0.000000
1.000000 0.616480 0.000000
1.000000 0.618769 0.000000
1.000000 0.620722 0.000000
1.000000 0.622278 0.000000
1.000000 0.623255 0.000000
1.000000 0.623743 0.000000
0.282597 0.548333 0.440650
0.283604 0.548486 0.440681
0.287724 0.548943 0.440772
0.296208 0.550103 0.440742
0.309117 0.551904 0.440772
0.326543 0.554467 0.440833
0.348028 0.557855 0.440528
0.372107 0.560998 0.438514
0.399145 0.563745 0.434913
0.430152 0.566979 0.430762
0.463508 0.570245 0.424048
0.499275 0.573205 0.414740
0.537987 0.576196 0.403876
0.578698 0.579126 0.391333
0.621149 0.582452 0.377447
0.670253 0.591852 0.369177
0.717769 0.600763 0.360754
0.762661 0.608362 0.351232
0.803433 0.614252 0.339910
0.840146 0.618433 0.326513
0.875090 0.622705 0.311803
0.908263 0.626947 0.295201
0.939361 0.631189 0.276616
0.968322 0.635126 0.254978
0.993744 0.637659 0.229953
1.000000 0.639673 0.199771
1.000000 0.641535 0.159731
1.000000 0.643000 0.090700
1.000000 0.644160 0.000000
1.000000 0.644923 0.000000
1.000000 0.645075 0.000000
1.000000 0.644556 0.000000
0.316655 0.584863 0.474372
0.317418 0.584955 0.474403
0.327062 0.591180 0.479835
0.334051 0.592126 0.479927
0.345495 0.593561 0.479957
0.360815 0.595727 0.479957
0.379675 0.598596 0.479835
0.401831 0.601862 0.478798
0.425574 0.604303 0.475685
0.453223 0.607080 0.471901
0.484199 0.610163 0.467475
0.516197 0.612604 0.459358
0.550958 0.614832 0.449439
0.588281 0.616938 0.437995
0.626947 0.618891 0.425116
0.666377 0.620722 0.411414
0.712215 0.628962 0.404669
0.755398 0.635859 0.397253
0.796292 0.641993 0.388861
0.834562 0.647150 0.378882
0.869230 0.650965 0.367315
0.902159 0.654841 0.354742
0.933074 0.658442 0.340612
0.961791 0.661769 0.325170
0.988373 0.664515 0.307164
1.000000 0.666499 0.286381
1.000000 0.667323 0.262272
1.000000 0.667903 0.233402
1.000000 0.668299 0.196628
1.000000 0.668360 0.143954
1.000000 0.667872 0.000000
1.000000 0.666712 0.000000
0.351720 0.621088 0.508354
0.352880 0.621759 0.508812
0.356664 0.622675 0.509453
0.363592 0.623987 0.509972
0.373999 0.625605 0.510430
0.387396 0.627588 0.510643
0.404608 0.630060 0.510582
0.424720 0.633051 0.510155
0.446265 0.635248 0.507744
0.470771 0.637568 0.504417
0.498329 0.640162 0.500572
0.528252 0.642634 0.495247
0.559197 0.644434 0.486397
0.592920 0.646143 0.476417
0.628534 0.647852 0.465217
0.665492 0.649317 0.452552
0.703029 0.651179 0.440375
0.745449 0.658198 0.435004
0.786007 0.664515 0.428901
0.824521 0.670253 0.421759
0.860533 0.675196 0.413581
0.893645 0.679103 0.404059
0.924559 0.682704 0.393500
0.953277 0.685786 0.381781
0.979858 0.688380 0.368444
1.000000 0.690455 0.353338
1.000000 0.692012 0.335973
1.000000 0.692317 0.315892
1.000000 0.692164 0.292668
1.000000 0.691737 0.264775
1.000000 0.690883 0.229496
1.000000 0.689357 0.179751
0.384344 0.652827 0.538964
0.385748 0.653346 0.539513
0.389166 0.654261 0.540063
0.395239 0.655421 0.540703
0.404486 0.656886 0.541192
0.416785 0.658564 0.541497
0.431861 0.660578 0.541527
0.450202 0.663081 0.541497
0.470283 0.665492 0.540246
0.491676 0.667353 0.537285
0.516075 0.669490 0.533898
0.543389 0.671839 0.530144
0.571374 0.673548 0.523156
0.601526 0.675013 0.514336
0.633692 0.676356 0.504448
0.667567 0.677638 0.493233
0.702693 0.678737 0.480781
0.738155 0.680476 0.470283
0.778012 0.686976 0.465980
0.816007 0.692775 0.460792
0.851835 0.697932 0.454902
0.885222 0.702296 0.448066
0.916106 0.705928 0.440284
0.944762 0.709071 0.431708
0.971252 0.711635 0.421912
0.995727 0.713649 0.410834
1.000000 0.715084 0.397955
1.000000 0.715999 0.383368
1.000000 0.716121 0.366430
1.000000 0.715328 0.346899
1.000000 0.714199 0.324071
1.000000 0.712459 0.295781
0.419165 0.683009 0.569512
0.420264 0.683528 0.570001
0.423255 0.684260 0.570550
0.428717 0.685237 0.571160
0.436988 0.686427 0.571618
0.447944 0.687831 0.571954
0.461738 0.689509 0.572290
0.478462 0.691585 0.572686
0.497749 0.694057 0.572992
0.516289 0.695644 0.570397
0.537469 0.697475 0.567407
0.561273 0.699458 0.564050
0.586999 0.701472 0.559594
0.613092 0.702693 0.551690
0.641932 0.703883 0.542779
0.672572 0.705043 0.532891
0.704829 0.706203 0.522026
0.738125 0.707210 0.510094
0.772671 0.709712 0.501762
0.810269 0.716030 0.498573
0.845792 0.721523 0.494789
0.878904 0.726192 0.490364
0.909331 0.729885 0.484962
0.937896 0.733272 0.479194
0.964202 0.736049 0.472633
0.988464 0.738186 0.464942
1.000000 0.739681 0.456001
1.000000 0.740658 0.445808
1.000000 0.741085 0.434119
1.000000 0.740902 0.420264
1.000000 0.739528 0.404028
1.000000 0.737636 0.385077
0.460212 0.714199 0.602960
0.461067 0.714412 0.603235
0.463264 0.714809 0.603479
0.467811 0.715328 0.603693
0.474769 0.716091 0.604028
0.484291 0.717067 0.604364
0.496468 0.718410 0.604791
0.511162 0.720119 0.605249
0.528191 0.722194 0.605707
0.545312 0.724086 0.604639
0.563317 0.725765 0.602167
0.583856 0.727626 0.599298
0.606683 0.729580 0.595941
0.630335 0.731075 0.590326
0.655238 0.732143 0.582452
0.682399 0.733211 0.573571
0.711421 0.734188 0.563684
0.741909 0.735195 0.552850
0.773037 0.735866 0.541192
0.805936 0.738613 0.534142
0.840604 0.744045 0.531548
0.872801 0.748531 0.528405
0.902495 0.752071 0.524498
0.929656 0.754635 0.519799
0.955566 0.757382 0.515160
0.979553 0.759701 0.509911
1.000000 0.761410 0.503807
1.000000 0.762570 0.496864
1.000000 0.763210 0.488746
1.000000 0.763210 0.479286
1.000000 0.762570 0.468055
1.000000 0.760983 0.454505
0.497414 0.741604 0.632990
0.498116 0.741817 0.633112
0.500175 0.742123 0.633387
0.504204 0.742641 0.633661
0.510185 0.743282 0.633967
0.518486 0.744167 0.634333
0.529107 0.745327 0.634760
0.541924 0.746822 0.635279
0.556909 0.748714 0.635859
0.573449 0.750820 0.636042
0.588861 0.752346 0.633936
0.606714 0.753994 0.631495
0.626642 0.755795 0.628656
0.648615 0.757717 0.625422
0.670344 0.758816 0.618891
0.694240 0.759792 0.611261
0.720211 0.760830 0.602808
0.747738 0.761776 0.593347
0.776699 0.762783 0.582971
0.805661 0.763119 0.572076
0.836728 0.766171 0.566979
0.868162 0.770809 0.565301
0.897185 0.774472 0.562951
0.923735 0.777127 0.559899
0.947051 0.777737 0.554070
0.970397 0.779934 0.550469
0.992340 0.781918 0.546746
1.000000 0.783383 0.542351
1.000000 0.784298 0.537102
1.000000 0.784634 0.530907
1.000000 0.784390 0.523705
1.000000 0.783474 0.514977
0.535637 0.769986 0.663691
0.536461 0.770260 0.663966
0.538201 0.770504 0.664149
0.541558 0.770809 0.664271
0.546532 0.771237 0.664363
0.553399 0.771878 0.664515
0.562219 0.772641 0.664698
0.573205 0.773709 0.664942
0.586053 0.775143 0.665187
0.600671 0.776913 0.665492
0.614679 0.778317 0.664027
0.630030 0.779629 0.661769
0.647395 0.781125 0.659236
0.666529 0.782650 0.656306
0.686732 0.783993 0.652064
0.707332 0.784695 0.645289
0.730007 0.785458 0.637720
0.754513 0.786221 0.629572
0.780575 0.787137 0.620569
0.807980 0.788083 0.610803
0.834684 0.788083 0.600916
0.863706 0.791165 0.597711
0.891966 0.794949 0.596582
0.917754 0.797696 0.594812
0.941283 0.799435 0.592096
0.962646 0.800290 0.588617
0.983459 0.801785 0.585901
1.000000 0.803433 0.583490
1.000000 0.804623 0.580621
1.000000 0.805325 0.577295
1.000000 0.805600 0.573297
1.000000 0.805356 0.568933
0.568933 0.795163 0.690486
0.569635 0.795438 0.690700
0.571252 0.795682 0.690913
0.574151 0.796048 0.691127
0.578637 0.796506 0.691341
0.584802 0.797147 0.691585
0.592828 0.798001 0.691920
0.602777 0.799130 0.692378
0.614527 0.800504 0.692897
0.627955 0.802182 0.693507
0.641932 0.803861 0.693477
0.655421 0.805142 0.691615
0.670527 0.806516 0.689540
0.687373 0.807919 0.687098
0.705715 0.809384 0.684260
0.724086 0.810269 0.679133
0.743801 0.810849 0.672541
0.765286 0.811551 0.665400
0.788449 0.812314 0.657679
0.813016 0.813138 0.649348
0.838712 0.814054 0.640253
0.862852 0.813413 0.631373
0.889281 0.816373 0.629847
0.914305 0.819272 0.629358
0.937011 0.821195 0.628168
0.957733 0.822202 0.626246
0.976593 0.822446 0.623468
0.994995 0.823423 0.621820
1.000000 0.824979 0.621118
1.000000 0.826078 0.620264
1.000000 0.826841 0.619226
1.000000 0.827085 0.617762
0.603632 0.820554 0.717494
0.604059 0.820706 0.717586
0.605432 0.820890 0.717708
0.608087 0.821134 0.717891
0.611994 0.821500 0.718105
0.617548 0.822019 0.718349
0.624720 0.822721 0.718715
0.633600 0.823606 0.719173
0.644129 0.824765 0.719783
0.656245 0.826169 0.720516
0.669856 0.827787 0.721248
0.681819 0.829038 0.720058
0.694728 0.830289 0.718257
0.709163 0.831540 0.716213
0.725216 0.832853 0.713832
0.742275 0.834134 0.710933
0.759030 0.834714 0.705257
0.777554 0.835325 0.699001
0.797757 0.836057 0.692287
0.819516 0.836820 0.685054
0.842466 0.837675 0.677211
0.866392 0.838560 0.668696
0.887846 0.837186 0.660761
0.911620 0.839872 0.660700
0.933501 0.841855 0.660639
0.953399 0.842954 0.659815
0.971557 0.843259 0.658350
0.988159 0.842863 0.656123
1.000000 0.843229 0.655146
1.000000 0.844816 0.656245
1.000000 0.845975 0.657252
1.000000 0.846616 0.657923
0.638209 0.844205 0.742947
0.638666 0.844327 0.743069
0.639826 0.844480 0.743191
0.642237 0.844755 0.743435
0.645930 0.845121 0.743740
0.651118 0.845701 0.744198
0.657984 0.846525 0.744869
0.666499 0.847593 0.745754
0.676509 0.848875 0.746883
0.687922 0.850431 0.748135
0.700771 0.852171 0.749508
0.713161 0.853849 0.750088
0.724422 0.855253 0.748989
0.736843 0.856626 0.747616
0.750515 0.858030 0.745968
0.765286 0.859373 0.743923
0.780179 0.860410 0.740475
0.795560 0.861021 0.735225
0.812589 0.861753 0.729641
0.831113 0.862516 0.723568
0.850950 0.863310 0.716945
0.871885 0.864195 0.709804
0.893370 0.864775 0.702083
0.912352 0.863127 0.695430
0.932952 0.865141 0.696376
0.951751 0.866178 0.696651
0.968872 0.866484 0.696284
0.984375 0.866087 0.695308
0.998535 0.865080 0.693660
1.000000 0.864714 0.693080
1.000000 0.865995 0.695399
1.000000 0.867063 0.697993
0.678187 0.869108 0.770230
0.678431 0.869108 0.770260
0.679377 0.869169 0.770321
0.681300 0.869322 0.770443
0.684413 0.869596 0.770687
0.688777 0.869932 0.771023
0.694575 0.870481 0.771542
0.701717 0.871153 0.772183
0.710170 0.872038 0.773007
0.719936 0.873075 0.774014
0.730831 0.874327 0.775143
0.742733 0.875731 0.776425
0.752102 0.876860 0.775570
0.762173 0.877989 0.774319
