20 Preset/Russian Style/【3】LUT video cho PR-AE-FCPX/Lut Tone (32).cube
# Created by Adobe Lightroom plugin Export LUT (1.24.0)
# www.johnrellis.com/lightroom/exportlut.htm
# Preset: 俄罗斯情绪-素材江湖16
# Color profile: C:\Program Files (x86)\Common Files\Adobe\Color\Profiles\Recommended\VideoHD.icc
LUT_3D_SIZE 5
DOMAIN_MIN 0.000000 0.000000 0.000000
DOMAIN_MAX 0.903226 0.903226 0.903226
0.000000 0.000000 0.000000
0.193820 0.008911 0.006958
0.521294 0.086793 0.000000
0.771908 0.157107 0.000000
1.000000 0.225345 0.000000
0.000000 0.139834 0.104280
0.150484 0.159091 0.098268
0.499062 0.236393 0.000000
0.757961 0.265599 0.000000
0.998901 0.306920 0.002594
0.000000 0.362402 0.268925
0.144076 0.375555 0.276127
0.370642 0.397101 0.259068
0.703639 0.489052 0.282017
0.970764 0.515068 0.305547
0.163485 0.554833 0.456916
0.236210 0.559716 0.464271
0.382818 0.573968 0.476295
0.556970 0.597711 0.465644
0.904173 0.725154 0.519890
0.274632 0.802548 0.678126
0.318883 0.807279 0.682460
0.456397 0.827146 0.700069
0.622919 0.848692 0.705257
0.841154 0.890532 0.707698
0.065187 0.066621 0.101747
0.173556 0.072633 0.129488
0.514885 0.000000 0.129305
0.760403 0.169894 0.145724
1.000000 0.239933 0.158846
0.088624 0.160220 0.152895
0.178958 0.183505 0.169436
0.492317 0.235508 0.176272
0.748226 0.275273 0.187594
0.994476 0.318730 0.205325
0.086397 0.370855 0.303868
0.189639 0.382818 0.312474
0.381384 0.406378 0.303868
0.698665 0.491981 0.337957
0.968109 0.521202 0.359838
0.209171 0.557519 0.475410
0.264836 0.562371 0.482460
0.396490 0.578210 0.496651
0.561608 0.601678 0.487312
0.908782 0.729641 0.542077
0.279301 0.803830 0.685634
0.323125 0.808560 0.689937
0.459358 0.828428 0.707668
0.626398 0.851377 0.714839
0.844205 0.892729 0.717220
0.165652 0.171756 0.269169
0.229404 0.176455 0.280064
0.458320 0.208957 0.350134
0.749874 0.145357 0.347143
0.997711 0.247166 0.370733
0.206912 0.255161 0.305119
0.252354 0.260319 0.319280
0.462898 0.273442 0.369238
0.739010 0.265568 0.367285
0.990295 0.332830 0.397925
0.211398 0.392309 0.391302
0.268132 0.402747 0.403632
0.414557 0.435431 0.426093
0.686793 0.497292 0.468574
0.968872 0.526940 0.487098
0.294102 0.566674 0.531426
0.328710 0.571557 0.537560
0.431464 0.592615 0.557092
0.578759 0.616480 0.552605
0.934081 0.746242 0.617700
0.265568 0.807309 0.710872
0.313359 0.812100 0.715328
0.457252 0.832303 0.733791
0.636072 0.861967 0.750637
0.856199 0.901366 0.752193
0.296056 0.316075 0.477394
0.333471 0.318364 0.482521
0.460975 0.322332 0.500908
0.672389 0.386084 0.564599
0.968933 0.363287 0.593896
0.320745 0.370092 0.497505
0.350439 0.370764 0.501457
0.463569 0.371893 0.517388
0.671015 0.419135 0.575433
0.971252 0.395392 0.599908
0.346838 0.467048 0.534386
0.378729 0.473640 0.540703
0.470527 0.493233 0.564172
0.677455 0.507286 0.606195
0.985534 0.500938 0.621363
0.367315 0.587060 0.607782
0.390021 0.591302 0.612818
0.470314 0.609583 0.632959
0.610712 0.643641 0.652552
0.976287 0.731258 0.710079
0.308263 0.818753 0.767880
0.337835 0.822721 0.770748
0.442634 0.839597 0.782376
0.645686 0.879515 0.813169
0.881315 0.918517 0.818021
0.479194 0.511589 0.715877
0.499947 0.511925 0.718685
0.583154 0.511620 0.729732
0.735805 0.510338 0.751736
0.973999 0.570581 0.813230
0.487221 0.538262 0.726467
0.506432 0.538384 0.729030
0.586419 0.537774 0.739956
0.737148 0.534691 0.760769
0.977935 0.590906 0.821103
0.494087 0.608423 0.743771
0.515831 0.613428 0.750698
0.589288 0.619501 0.770504
0.737179 0.619654 0.793332
0.988495 0.658778 0.846220
0.462928 0.710262 0.792538
0.483925 0.712703 0.795621
0.565362 0.720638 0.806699
0.715938 0.742061 0.836423
1.000000 0.771878 0.884947
0.432349 0.881437 0.878508
0.457923 0.884703 0.881498
0.552270 0.895232 0.891569
0.722835 0.920775 0.916442
0.945647 0.960266 0.949828
