20 Preset/Russian Style/【3】LUT video cho PR-AE-FCPX/Lut Tone (25).cube
# Created by Adobe Lightroom plugin Export LUT (1.24.0)
# www.johnrellis.com/lightroom/exportlut.htm
# Preset: 俄罗斯情绪-素材江湖13
# Color profile: C:\Program Files (x86)\Common Files\Adobe\Color\Profiles\Recommended\VideoHD.icc
LUT_3D_SIZE 5
DOMAIN_MIN 0.000000 0.000000 0.000000
DOMAIN_MAX 0.903226 0.903226 0.903226
0.000000 0.002167 0.004242
0.095033 0.000000 0.008515
0.380438 0.000000 0.000000
0.726802 0.000000 0.000000
0.981231 0.000000 0.000000
0.000000 0.211185 0.128908
0.200931 0.205692 0.095277
0.502861 0.116457 0.000000
0.777218 0.000000 0.000000
1.000000 0.000000 0.000000
0.343481 0.618463 0.444282
0.407843 0.611719 0.422644
0.655848 0.611231 0.326177
0.863127 0.507164 0.000000
1.000000 0.420569 0.000000
0.622004 0.850767 0.740719
0.639063 0.848844 0.735866
0.712856 0.844480 0.715084
0.871031 0.849210 0.670893
1.000000 0.814542 0.536706
0.872770 0.967315 0.895781
0.876036 0.967102 0.894835
0.889403 0.965789 0.889952
0.924895 0.966217 0.883085
0.980468 0.968139 0.870024
0.013855 0.089998 0.151888
0.150576 0.095644 0.139559
0.489265 0.000000 0.091524
0.781186 0.000000 0.000000
1.000000 0.000000 0.000000
0.150210 0.280644 0.249241
0.293492 0.277470 0.227176
0.567620 0.213779 0.140169
0.811429 0.000000 0.000000
1.000000 0.000000 0.000000
0.420722 0.637171 0.536584
0.463539 0.632166 0.517510
0.669062 0.630945 0.447791
0.864439 0.540734 0.244358
1.000000 0.454749 0.000000
0.647578 0.856168 0.763180
0.662409 0.854490 0.758999
0.726864 0.849729 0.740902
0.873320 0.854856 0.704585
1.000000 0.822812 0.596277
0.878172 0.967895 0.900603
0.881224 0.967651 0.899657
0.894530 0.966735 0.895689
0.927123 0.966949 0.888945
0.980316 0.968902 0.877012
0.326146 0.323522 0.500908
0.421790 0.336950 0.500206
0.593378 0.385565 0.472389
0.833371 0.217441 0.332128
1.000000 0.000000 0.148867
0.401953 0.454597 0.570550
0.475563 0.463203 0.570031
0.629786 0.471778 0.542596
0.841489 0.366705 0.402777
1.000000 0.252934 0.207767
0.551934 0.694514 0.716396
0.586145 0.693782 0.713588
0.700496 0.688167 0.688685
0.855619 0.642817 0.605158
1.000000 0.572076 0.428565
0.722560 0.875029 0.825376
0.735317 0.873625 0.823880
0.773617 0.868498 0.811490
0.883177 0.873869 0.792355
0.993256 0.843565 0.721950
0.893706 0.970245 0.916655
0.897917 0.970031 0.916716
0.907866 0.969451 0.913085
0.932525 0.968963 0.906706
0.979858 0.971069 0.897398
0.603449 0.601373 0.787839
0.638178 0.608209 0.788266
0.746944 0.631983 0.788724
0.832609 0.662959 0.768124
0.999268 0.565850 0.696742
0.633173 0.655787 0.801053
0.661311 0.659327 0.801114
0.756954 0.675807 0.801663
0.838499 0.700801 0.785855
0.996765 0.598688 0.712367
0.689082 0.770871 0.835019
0.705806 0.771054 0.833738
0.781888 0.782956 0.835264
0.862730 0.770840 0.817960
0.989990 0.712245 0.763272
0.805112 0.904112 0.885771
0.813443 0.904021 0.885435
0.843290 0.902464 0.883146
0.900755 0.899565 0.872892
0.983215 0.865904 0.830106
0.918120 0.975616 0.941283
0.920043 0.975555 0.941100
0.928099 0.975128 0.939910
0.943175 0.973846 0.934722
0.979980 0.975158 0.927977
0.838712 0.834531 0.918700
0.849882 0.836545 0.918639
0.891203 0.845945 0.918761
0.941192 0.856016 0.916686
0.969299 0.871214 0.902831
0.845029 0.851133 0.920104
0.855192 0.852811 0.920104
0.893065 0.860472 0.920317
0.940337 0.869596 0.918761
0.967712 0.882353 0.906493
0.854124 0.890593 0.926177
0.863188 0.892180 0.926482
0.898405 0.900237 0.927153
0.940764 0.909056 0.927825
0.965789 0.916075 0.920012
0.901030 0.947845 0.944610
0.903258 0.947326 0.944182
0.912902 0.944915 0.942443
0.942779 0.946532 0.942473
0.971252 0.944793 0.936400
0.947936 0.982910 0.968688
0.949157 0.982910 0.968658
0.954589 0.982940 0.968780
0.965240 0.983062 0.969055
0.982391 0.982483 0.966644
