20 Preset/Russian Style/【3】LUT video cho PR-AE-FCPX/Lut Tone (13).cube
# Created by Adobe Lightroom plugin Export LUT (1.24.0)
# www.johnrellis.com/lightroom/exportlut.htm
# Preset: 俄罗斯情绪-素材江湖07
# Color profile: C:\Program Files (x86)\Common Files\Adobe\Color\Profiles\Recommended\VideoHD.icc
LUT_3D_SIZE 32
DOMAIN_MIN 0.0 0.0 0.0
DOMAIN_MAX 1.0 1.0 1.0
0.000000 0.000000 0.000000
0.005646 0.000000 0.001099
0.028046 0.001221 0.002686
0.055360 0.012604 0.005097
0.094301 0.034150 0.010132
0.129946 0.047456 0.017090
0.171542 0.049775 0.021393
0.217105 0.036622 0.026459
0.265721 0.005768 0.030854
0.317021 0.000000 0.034363
0.372961 0.000000 0.037781
0.432410 0.000000 0.038361
0.489967 0.000000 0.039918
0.543511 0.000000 0.041657
0.593561 0.000000 0.045777
0.641535 0.000000 0.051575
0.688136 0.000000 0.060304
0.733272 0.000000 0.072969
0.777279 0.000000 0.082918
0.819028 0.000000 0.091768
0.858244 0.000000 0.098909
0.894865 0.000000 0.106905
0.929137 0.000000 0.115633
0.962310 0.000000 0.124331
0.994385 0.000000 0.133486
1.000000 0.000000 0.143069
1.000000 0.000000 0.153414
1.000000 0.000000 0.164065
1.000000 0.000000 0.175448
1.000000 0.000000 0.187289
1.000000 0.000000 0.199893
1.000000 0.000000 0.213321
0.000000 0.009400 0.001068
0.000092 0.007752 0.002319
0.020600 0.015442 0.004273
0.049348 0.024414 0.007019
0.092470 0.044770 0.011048
0.128817 0.058045 0.018006
0.171084 0.056764 0.022766
0.216434 0.042847 0.027985
0.265263 0.014191 0.030945
0.316686 0.000000 0.035706
0.372381 0.000000 0.037873
0.432013 0.000000 0.038483
0.489540 0.000000 0.039887
0.543175 0.000000 0.042756
0.593103 0.000000 0.045594
0.641291 0.000000 0.052491
0.687861 0.000000 0.060914
0.733120 0.000000 0.072633
0.777066 0.000000 0.083314
0.818845 0.000000 0.092134
0.858000 0.000000 0.099489
0.894682 0.000000 0.107179
0.928923 0.000000 0.115846
0.962097 0.000000 0.124483
0.994232 0.000000 0.133852
1.000000 0.000000 0.143435
1.000000 0.000000 0.153597
1.000000 0.000000 0.164370
1.000000 0.000000 0.175692
1.000000 0.000000 0.187564
1.000000 0.000000 0.200107
1.000000 0.000000 0.213535
0.000000 0.054505 0.004242
0.000000 0.055024 0.005188
0.002716 0.054200 0.008362
0.029847 0.064393 0.014374
0.084749 0.080018 0.017700
0.124819 0.087037 0.022736
0.168399 0.084871 0.026642
0.214389 0.073884 0.030884
0.263157 0.047120 0.034852
0.314763 0.004211 0.038361
0.370520 0.000000 0.039277
0.430335 0.000000 0.039429
0.487984 0.000000 0.041688
0.541650 0.000000 0.044099
0.591882 0.000000 0.046632
0.639979 0.000000 0.054414
0.686702 0.000000 0.063966
0.731991 0.000000 0.075349
0.776089 0.000000 0.085054
0.817899 0.000000 0.093019
0.857176 0.000000 0.100343
0.893767 0.000000 0.108217
0.928069 0.000000 0.116762
0.961364 0.000000 0.125643
0.993500 0.000000 0.134859
1.000000 0.000000 0.144411
1.000000 0.000000 0.154757
1.000000 0.000000 0.165438
1.000000 0.000000 0.176547
1.000000 0.000000 0.188571
1.000000 0.000000 0.201083
1.000000 0.000000 0.214511
0.000000 0.099733 0.012818
0.000000 0.099977 0.013794
0.000000 0.100496 0.015534
0.012390 0.100038 0.021912
0.064759 0.104494 0.028016
0.118166 0.108614 0.030457
0.162936 0.108492 0.032990
0.209476 0.105043 0.036957
0.259098 0.096895 0.039643
0.310979 0.079255 0.040467
0.367193 0.023133 0.042084
0.426703 0.000000 0.042695
0.485054 0.000000 0.044190
0.538781 0.000000 0.046876
0.589075 0.000000 0.051392
0.637446 0.000000 0.058564
0.684413 0.000000 0.067964
0.729763 0.000000 0.080171
0.773983 0.000000 0.088746
0.815885 0.000000 0.095399
0.855283 0.000000 0.102968
0.891997 0.000000 0.110811
0.926574 0.000000 0.119142
0.959869 0.000000 0.128054
0.992157 0.000000 0.136843
1.000000 0.000000 0.146731
1.000000 0.000000 0.157076
1.000000 0.000000 0.167575
1.000000 0.000000 0.178653
1.000000 0.000000 0.190616
1.000000 0.000000 0.203159
1.000000 0.000000 0.216678
0.000000 0.138064 0.015076
0.000000 0.138186 0.014893
0.000000 0.138216 0.016785
0.000000 0.138033 0.019562
0.031739 0.136385 0.028351
0.104524 0.136995 0.038209
0.152560 0.138369 0.040009
0.201419 0.135409 0.043336
0.251896 0.131258 0.044373
0.304570 0.124208 0.045472
0.361089 0.111482 0.046387
0.421424 0.089937 0.046937
0.479805 0.017243 0.048585
0.534264 0.000000 0.051637
0.584863 0.000000 0.057710
0.633234 0.000000 0.066468
0.680720 0.000000 0.075837
0.726223 0.000000 0.085695
0.770626 0.000000 0.092317
0.812833 0.000000 0.099489
0.852384 0.000000 0.106477
0.889311 0.000000 0.114412
0.923919 0.000000 0.122683
0.957580 0.000000 0.131319
0.990021 0.000000 0.140261
1.000000 0.000000 0.150027
1.000000 0.000000 0.160281
1.000000 0.000000 0.170840
1.000000 0.000000 0.181918
1.000000 0.000000 0.193881
1.000000 0.000000 0.206394
1.000000 0.000000 0.219944
0.000000 0.179477 0.009003
0.000000 0.179599 0.008820
0.000000 0.179263 0.011017
0.000000 0.179263 0.012512
0.000000 0.177890 0.017823
0.079713 0.174594 0.029511
0.136385 0.172000 0.043977
0.188510 0.172366 0.046509
0.240879 0.169741 0.049866
0.295048 0.165225 0.053315
0.352392 0.159548 0.053803
0.413458 0.150607 0.052613
0.472633 0.136812 0.055207
0.527581 0.118257 0.059693
0.578637 0.092164 0.067323
0.627832 0.012329 0.076326
0.675196 0.000000 0.084779
0.721401 0.000000 0.091402
0.766110 0.000000 0.097658
0.808530 0.000000 0.104341
0.848264 0.000000 0.111574
0.885374 0.000000 0.119356
0.920378 0.000000 0.127779
0.954223 0.000000 0.136172
0.986938 0.000000 0.145174
1.000000 0.000000 0.154726
1.000000 0.000000 0.165103
1.000000 0.000000 0.175601
1.000000 0.000000 0.186679
1.000000 0.000000 0.198489
1.000000 0.000000 0.211337
1.000000 0.000000 0.224704
0.000000 0.222110 0.000000
0.000000 0.222171 0.000000
0.000000 0.221927 0.000000
0.000000 0.221714 0.000000
0.000000 0.221225 0.001434
0.000000 0.218326 0.013336
0.115541 0.214206 0.029786
0.168460 0.206394 0.051850
0.226047 0.210422 0.057435
0.282536 0.209201 0.059937
0.341466 0.205753 0.062470
0.403326 0.201236 0.065736
0.463355 0.194614 0.067567
0.518914 0.185367 0.072206
0.570794 0.173312 0.079133
0.620356 0.158938 0.086946
0.668605 0.141085 0.092012
0.715206 0.119142 0.097902
0.760189 0.089174 0.104372
0.802853 0.002502 0.111086
0.842893 0.000000 0.118227
0.880278 0.000000 0.125887
0.915709 0.000000 0.134035
0.949950 0.000000 0.142641
0.982971 0.000000 0.151522
1.000000 0.000000 0.161257
1.000000 0.000000 0.170993
1.000000 0.000000 0.181735
1.000000 0.000000 0.192874
1.000000 0.000000 0.204837
1.000000 0.000000 0.217472
1.000000 0.101472 0.231052
0.000000 0.266972 0.000000
0.000000 0.266911 0.000000
0.000000 0.266697 0.000000
0.000000 0.266484 0.000000
0.000000 0.265812 0.000000
0.000000 0.264652 0.000000
0.030732 0.260838 0.009277
0.156191 0.256016 0.031678
0.209934 0.248539 0.060334
0.267338 0.251774 0.075532
0.328252 0.252720 0.074281
0.391333 0.251347 0.075227
0.452125 0.246281 0.080293
0.508476 0.239902 0.084810
0.561151 0.232212 0.089631
0.611444 0.222995 0.094667
0.660121 0.212894 0.099977
0.707454 0.201053 0.105715
0.752926 0.188357 0.111940
0.795926 0.174502 0.118868
0.836210 0.159640 0.126101
0.874022 0.143709 0.133577
0.909911 0.127840 0.141695
0.944610 0.112062 0.150210
0.977996 0.099275 0.159243
1.000000 0.090761 0.168795
1.000000 0.090394 0.178866
1.000000 0.098848 0.189303
1.000000 0.115602 0.200412
1.000000 0.138460 0.212589
1.000000 0.163180 0.225193
1.000000 0.191012 0.238956
0.000000 0.315221 0.000000
0.000000 0.315251 0.000000
0.000000 0.315068 0.000000
0.000000 0.314733 0.000000
0.000000 0.314275 0.000000
0.000000 0.313390 0.000000
0.000000 0.311070 0.000000
0.120912 0.306737 0.003876
0.200473 0.301518 0.031952
0.256046 0.293950 0.068666
0.313268 0.296452 0.088228
0.377539 0.299443 0.085267
0.439338 0.297734 0.087770
0.496590 0.292393 0.092805
0.550042 0.284703 0.099397
0.601068 0.277867 0.104250
0.650538 0.270542 0.109285
0.698360 0.262486 0.115267
0.744289 0.253605 0.121370
0.787655 0.244358 0.128023
0.828397 0.234806 0.135256
0.866545 0.225559 0.142885
0.902922 0.216709 0.151339
0.938140 0.209110 0.159762
0.971954 0.203555 0.168551
1.000000 0.200137 0.178103
1.000000 0.199893 0.188235
1.000000 0.203281 0.198795
1.000000 0.210269 0.210086
1.000000 0.221012 0.222110
1.000000 0.235874 0.235019
1.000000 0.253117 0.248386
0.000000 0.367681 0.000000
0.000000 0.367620 0.000000
0.000000 0.367437 0.000000
0.000000 0.367163 0.000000
0.000000 0.366705 0.000000
0.000000 0.365911 0.000000
0.000000 0.364721 0.000000
0.000000 0.361700 0.000000
0.174502 0.356786 0.000000
0.248844 0.351141 0.025544
0.306676 0.343999 0.069856
0.364050 0.344823 0.093324
0.424872 0.346014 0.096284
0.482948 0.343359 0.099733
0.537438 0.337713 0.106233
0.589349 0.330571 0.113497
0.639338 0.322667 0.121096
0.687800 0.316655 0.126589
0.734188 0.309880 0.132784
0.777981 0.302708 0.139590
0.819181 0.295232 0.146700
0.857877 0.287938 0.154360
0.894865 0.281254 0.162478
0.930510 0.275731 0.170779
0.964904 0.271397 0.179721
0.997711 0.269108 0.189120
1.000000 0.268833 0.199466
1.000000 0.270878 0.210056
1.000000 0.275761 0.221347
1.000000 0.283726 0.233524
1.000000 0.294072 0.246159
1.000000 0.306767 0.259159
0.000000 0.418097 0.000000
0.000000 0.418036 0.000000
0.000000 0.417945 0.000000
0.000000 0.417609 0.000000
0.000000 0.417151 0.000000
0.000000 0.416510 0.000000
0.000000 0.415381 0.000000
0.000000 0.414038 0.000000
0.117494 0.409949 0.000000
0.225467 0.405005 0.000000
0.296788 0.399023 0.024842
0.354925 0.392615 0.076875
0.409094 0.388952 0.101656
0.467994 0.390784 0.110445
0.523033 0.387213 0.115541
0.576013 0.382116 0.122774
0.626947 0.375769 0.130190
0.676143 0.368505 0.138521
0.722866 0.361486 0.146426
0.767056 0.355596 0.152956
0.808713 0.349187 0.160098
0.847959 0.343053 0.167483
0.885588 0.337652 0.175631
0.921904 0.332860 0.183902
0.956786 0.329290 0.192813
0.990051 0.327398 0.202487
1.000000 0.327184 0.212589
1.000000 0.328985 0.223331
1.000000 0.332616 0.234653
1.000000 0.338537 0.246464
1.000000 0.346502 0.258579
1.000000 0.356176 0.271000
0.000000 0.464546 0.000000
0.000000 0.464546 0.000000
0.000000 0.464393 0.000000
0.000000 0.464118 0.000000
0.000000 0.463752 0.000000
0.000000 0.462989 0.000000
0.000000 0.462196 0.000000
0.000000 0.460853 0.000000
0.000000 0.458686 0.000000
0.184726 0.454414 0.000000
0.273777 0.449165 0.000000
0.341283 0.443458 0.043458
0.398962 0.436927 0.093263
0.448035 0.428779 0.116335
0.507713 0.433417 0.129488
0.561547 0.430274 0.135286
0.613245 0.425574 0.142428
0.663111 0.419959 0.150301
0.710384 0.413336 0.158907
0.754971 0.405890 0.167727
0.797116 0.399420 0.175784
0.836942 0.394141 0.183047
0.875303 0.389258 0.190768
0.912139 0.385412 0.199252
0.947570 0.382544 0.208316
0.981384 0.380865 0.217716
1.000000 0.380346 0.227787
1.000000 0.381750 0.238224
1.000000 0.384710 0.249546
1.000000 0.388983 0.260655
1.000000 0.395087 0.272160
1.000000 0.402686 0.283787
0.000000 0.508507 0.000000
0.000000 0.508537 0.000000
0.000000 0.508263 0.000000
0.000000 0.508110 0.000000
0.000000 0.507652 0.000000
0.000000 0.507012 0.000000
0.000000 0.506218 0.000000
0.000000 0.504997 0.000000
0.000000 0.503624 0.000000
0.113161 0.500511 0.000000
0.241245 0.496071 0.000000
0.320134 0.490913 0.018219
0.384436 0.485084 0.083711
0.440620 0.478676 0.111849
0.487587 0.469245 0.134554
0.546227 0.474983 0.152071
0.598596 0.472297 0.158053
0.649042 0.468116 0.165194
0.696773 0.462654 0.173312
0.741878 0.456397 0.182162
0.784421 0.449500 0.191165
0.824918 0.442725 0.200748
0.863920 0.438117 0.209079
0.901457 0.434791 0.217014
0.937438 0.432319 0.225925
0.971710 0.430945 0.235264
1.000000 0.430518 0.244938
1.000000 0.431159 0.254765
1.000000 0.433112 0.264958
1.000000 0.436469 0.275547
1.000000 0.441199 0.286320
1.000000 0.447547 0.297704
0.000000 0.551110 0.000000
0.000000 0.551080 0.000000
0.000000 0.551019 0.000000
0.000000 0.550713 0.000000
0.000000 0.550317 0.000000
0.000000 0.549767 0.000000
0.000000 0.549004 0.000000
0.000000 0.547936 0.000000
0.000000 0.546593 0.000000
0.000000 0.545068 0.000000
0.196963 0.541253 0.000000
0.293004 0.536584 0.002930
0.365454 0.531304 0.077394
0.426856 0.525597 0.110292
0.481514 0.519310 0.134066
0.528222 0.510613 0.156008
0.584253 0.515526 0.176699
0.633997 0.512993 0.184512
0.682185 0.508934 0.191684
0.727657 0.503716 0.199954
0.770779 0.497841 0.208591
0.812039 0.491981 0.217777
0.851743 0.486519 0.227390
0.889891 0.481483 0.237156
0.926482 0.479255 0.245335
0.961395 0.477882 0.253819
0.994690 0.477241 0.262455
1.000000 0.477638 0.271733
1.000000 0.479042 0.281315
1.000000 0.481636 0.291173
1.000000 0.485573 0.301610
1.000000 0.490822 0.312444
0.000000 0.592462 0.000000
0.000000 0.592432 0.000000
0.000000 0.592370 0.000000
0.000000 0.592157 0.000000
0.000000 0.591760 0.000000
0.000000 0.591241 0.000000
0.000000 0.590509 0.000000
0.000000 0.589593 0.000000
0.000000 0.588373 0.000000
0.000000 0.586938 0.000000
0.129213 0.584802 0.000000
0.261173 0.580591 0.003845
0.342962 0.575830 0.080476
0.410224 0.570550 0.113252
0.468971 0.564813 0.137514
0.521691 0.558618 0.160189
0.567620 0.550378 0.181064
0.621729 0.554192 0.200595
0.667170 0.551476 0.213687
0.713069 0.547601 0.220829
0.756649 0.542962 0.228519
0.798611 0.538109 0.236667
0.839017 0.533379 0.245579
0.877806 0.528954 0.254490
0.915038 0.524865 0.263767
0.950591 0.521965 0.272740
0.984344 0.521386 0.280766
1.000000 0.521660 0.289433
1.000000 0.522698 0.298192
1.000000 0.524865 0.307561
1.000000 0.528191 0.317510
1.000000 0.532708 0.327886
0.000000 0.632044 0.000000
0.000000 0.632044 0.000000
0.000000 0.631922 0.000000
0.000000 0.631708 0.000000
0.000000 0.631373 0.000000
0.000000 0.630762 0.000000
0.000000 0.630152 0.000000
0.000000 0.629236 0.000000
0.000000 0.628107 0.000000
0.000000 0.626703 0.000000
0.000000 0.624964 0.000000
0.222995 0.622004 0.028595
0.318242 0.617639 0.094881
0.391363 0.612787 0.123018
0.453620 0.607416 0.146395
0.509545 0.601678 0.168765
0.560327 0.595483 0.189456
0.604639 0.587793 0.209323
0.652338 0.587243 0.227909
0.698360 0.587854 0.243046
0.742428 0.584619 0.249454
0.785031 0.580865 0.256443
0.826047 0.577142 0.264042
0.865507 0.573388 0.272099
0.903227 0.569879 0.280705
0.939330 0.566827 0.289555
0.973602 0.564385 0.298894
1.000000 0.563500 0.307561
1.000000 0.564508 0.315770
1.000000 0.566430 0.324590
1.000000 0.569329 0.333928
1.000000 0.573327 0.343969
0.000000 0.669032 0.000000
0.000000 0.668940 0.000000
0.000000 0.668879 0.000000
0.000000 0.668666 0.000000
0.000000 0.668269 0.000000
0.000000 0.667842 0.000000
0.000000 0.667140 0.000000
0.000000 0.666224 0.000000
0.000000 0.665156 0.000000
0.000000 0.663844 0.024353
0.000000 0.662257 0.057862
0.182345 0.660487 0.088777
0.291966 0.656825 0.114809
0.371344 0.652247 0.139101
0.437446 0.647333 0.160708
0.495949 0.641932 0.180972
0.548516 0.636255 0.200259
0.596735 0.630243 0.219089
0.639612 0.623072 0.236973
0.681575 0.618708 0.254032
0.728664 0.623011 0.270878
0.771695 0.620600 0.276646
0.813138 0.617975 0.283268
0.853056 0.615167 0.290562
0.891264 0.612390 0.298131
0.927825 0.609857 0.306462
0.962554 0.607721 0.315099
0.995422 0.606043 0.324041
1.000000 0.605127 0.333654
1.000000 0.606500 0.342260
1.000000 0.609247 0.351263
1.000000 0.613031 0.361089
0.000000 0.703426 0.025971
0.000000 0.703395 0.026093
0.000000 0.703304 0.029114
0.000000 0.703090 0.032959
0.000000 0.702724 0.042329
0.000000 0.702235 0.055604
0.000000 0.701625 0.072694
0.000000 0.700771 0.087587
0.000000 0.699763 0.097627
0.000000 0.698482 0.107210
0.000000 0.697017 0.117311
0.156252 0.695277 0.128237
0.266178 0.693172 0.139742
0.352178 0.688991 0.159457
0.421210 0.684474 0.178164
0.481453 0.679561 0.196170
0.535760 0.674281 0.213260
0.585473 0.668788 0.230076
0.631281 0.663050 0.246860
0.672877 0.656672 0.262974
0.710506 0.649897 0.278935
0.758846 0.657527 0.297581
0.800504 0.656123 0.303136
0.840726 0.654414 0.309483
0.879332 0.652461 0.316442
0.916197 0.650629 0.323919
0.951263 0.649042 0.331823
0.984466 0.647791 0.340490
1.000000 0.647120 0.349676
1.000000 0.647181 0.359503
1.000000 0.648127 0.369879
1.000000 0.651881 0.379553
0.000000 0.735836 0.118624
0.000000 0.735805 0.118929
0.000000 0.735744 0.119661
0.000000 0.735500 0.121004
0.000000 0.735225 0.123232
0.000000 0.734768 0.126436
0.000000 0.734157 0.130648
0.000000 0.733425 0.135073
0.000000 0.732479 0.140810
0.000000 0.731350 0.147158
0.000000 0.730068 0.153780
0.135439 0.728603 0.161593
0.252628 0.726833 0.169375
0.333715 0.724147 0.180606
0.405493 0.720180 0.196658
0.467445 0.715724 0.212253
0.523156 0.711025 0.227726
0.574243 0.706020 0.243015
0.621576 0.700740 0.258335
0.665309 0.695369 0.273411
0.705653 0.689693 0.288518
0.742336 0.683650 0.303319
0.790799 0.692348 0.319707
0.828824 0.691218 0.328923
0.867521 0.690333 0.335119
0.904631 0.689418 0.342107
0.939940 0.688502 0.349676
0.973205 0.687861 0.358160
1.000000 0.687617 0.366949
1.000000 0.687984 0.376593
1.000000 0.689021 0.387030
1.000000 0.690822 0.398169
0.000000 0.767788 0.159731
0.000000 0.767727 0.159731
0.000000 0.767697 0.160220
0.000000 0.767483 0.161288
0.000000 0.767239 0.162783
0.000000 0.766812 0.165133
0.000000 0.766293 0.167697
0.000000 0.765621 0.171359
0.000000 0.764797 0.175479
0.000000 0.763821 0.179873
0.000000 0.762661 0.185061
0.122316 0.761349 0.191165
0.244511 0.759823 0.197177
0.320989 0.758145 0.203891
0.391547 0.754971 0.215915
0.454749 0.751064 0.229526
0.511620 0.746792 0.243351
0.563592 0.742275 0.256931
0.611963 0.737545 0.271061
0.656916 0.732631 0.284916
0.698817 0.727596 0.299046
0.737636 0.722499 0.313146
0.773770 0.717678 0.327306
0.820005 0.725643 0.342626
0.856199 0.726192 0.355230
0.893278 0.726192 0.361669
0.928588 0.726070 0.368811
0.961975 0.726101 0.376806
0.993347 0.726375 0.385595
1.000000 0.727047 0.395026
1.000000 0.728298 0.405371
1.000000 0.730190 0.416449
0.000000 0.799252 0.193637
0.000000 0.799222 0.193759
0.000000 0.799161 0.194003
0.000000 0.798978 0.194797
0.000000 0.798764 0.195926
0.000000 0.798428 0.197574
0.000000 0.797971 0.199557
0.000000 0.797360 0.202426
0.000000 0.796658 0.205692
0.000000 0.795773 0.209445
0.000000 0.794705 0.213809
0.119722 0.793545 0.218692
0.241001 0.792233 0.223667
0.316533 0.790707 0.229343
0.379339 0.788998 0.235843
0.443671 0.785519 0.247684
0.501274 0.781674 0.260044
0.554162 0.777554 0.272526
0.603143 0.773312 0.285191
0.648859 0.768856 0.298009
0.691707 0.764218 0.311131
0.731624 0.759579 0.324529
0.768734 0.754910 0.338018
0.804227 0.751247 0.352117
0.846250 0.756924 0.367407
0.882567 0.760708 0.382605
0.917723 0.761471 0.389380
0.951080 0.762203 0.397040
0.982361 0.762997 0.405615
1.000000 0.764126 0.414984
1.000000 0.765591 0.425147
1.000000 0.767575 0.436316
0.000000 0.829984 0.224308
0.000000 0.829984 0.224399
0.000000 0.829923 0.224735
0.000000 0.829770 0.225254
0.000000 0.829587 0.226169
0.000000 0.829221 0.227543
0.000000 0.828824 0.229496
0.000000 0.828305 0.231724
0.000000 0.827634 0.234226
0.000000 0.826902 0.237552
0.000000 0.825956 0.241093
0.130404 0.824918 0.245212
0.243595 0.823758 0.249638
0.317082 0.822354 0.254643
0.377691 0.820890 0.259739
0.435035 0.818784 0.267094
0.493080 0.815335 0.278050
0.546197 0.811643 0.289464
0.595605 0.807797 0.301183
0.641871 0.803738 0.313085
0.685237 0.799527 0.325536
0.725826 0.795285 0.338170
0.763821 0.791012 0.351049
0.799161 0.786770 0.364233
0.833585 0.784115 0.378302
0.871580 0.787869 0.393530
0.907652 0.794491 0.411383
0.940734 0.795926 0.418799
0.971862 0.797330 0.427161
1.000000 0.798856 0.436347
1.000000 0.800626 0.446662
1.000000 0.802731 0.457923
0.000000 0.859709 0.253880
0.000000 0.859678 0.253880
0.000000 0.859617 0.254154
0.000000 0.859525 0.254643
0.000000 0.859312 0.255467
0.000000 0.859037 0.256596
0.000000 0.858640 0.258061
0.000000 0.858152 0.259861
0.000000 0.857572 0.262119
0.000000 0.856870 0.264988
0.000000 0.856077 0.268009
0.155673 0.855100 0.271580
0.253361 0.854063 0.275334
0.322393 0.852842 0.279667
0.381048 0.851499 0.284672
0.433631 0.850034 0.289738
0.488014 0.847501 0.298070
0.541039 0.844205 0.308476
0.590478 0.840696 0.319249
0.636713 0.837003 0.330510
0.680232 0.833249 0.342199
0.721096 0.829374 0.354162
0.759457 0.825437 0.366491
0.795377 0.821530 0.379004
0.828794 0.817746 0.391974
0.861753 0.815946 0.406043
0.896086 0.818143 0.421363
0.932006 0.827298 0.440833
0.962158 0.829099 0.450263
0.990723 0.831052 0.459480
1.000000 0.833127 0.469825
1.000000 0.835355 0.481147
0.000000 0.888060 0.283055
0.000000 0.888029 0.283207
0.000000 0.887968 0.283360
0.000000 0.887846 0.283726
0.000000 0.887663 0.284489
0.000000 0.887419 0.285527
0.000000 0.887053 0.286870
0.000000 0.886656 0.288487
0.000000 0.886076 0.290623
0.000000 0.885466 0.293095
0.000000 0.884733 0.295872
0.192111 0.883848 0.298985
0.272953 0.882872 0.302586
0.335454 0.881773 0.306462
0.390417 0.880552 0.310857
0.440528 0.879210 0.315557
0.487770 0.877745 0.320562
0.539544 0.874876 0.329992
0.588342 0.871702 0.340063
0.634180 0.868376 0.350591
0.677302 0.864958 0.361456
0.718074 0.861448 0.372808
0.756435 0.857877 0.384436
0.792447 0.854337 0.396460
0.826108 0.850858 0.408820
0.857450 0.847471 0.421546
0.888579 0.846311 0.435615
0.919493 0.847471 0.451301
0.955718 0.858762 0.470558
0.981659 0.860533 0.484291
1.000000 0.862882 0.494667
1.000000 0.865415 0.506401
0.000000 0.914641 0.313756
0.000000 0.914641 0.313756
0.000000 0.914580 0.314031
0.000000 0.914488 0.314336
0.000000 0.914305 0.315068
0.000000 0.914061 0.315984
0.000000 0.913725 0.317296
0.000000 0.913329 0.318700
0.000000 0.912810 0.320500
0.000000 0.912261 0.322698
0.144045 0.911528 0.325292
0.236790 0.910735 0.328283
0.301579 0.909850 0.331640
0.357031 0.908843 0.335241
0.406806 0.907713 0.339208
0.453742 0.906462 0.343572
0.498268 0.905089 0.348302
0.542626 0.903380 0.354314
0.590173 0.900511 0.363653
0.634974 0.897520 0.373449
0.677516 0.894347 0.383734
0.717556 0.891203 0.394354
0.755428 0.887968 0.405402
0.791104 0.884764 0.416846
0.824552 0.881590 0.428687
0.855863 0.878508 0.440925
0.884916 0.875578 0.453376
0.913939 0.874846 0.467720
0.942596 0.876402 0.484077
0.976074 0.887236 0.503929
0.998627 0.889891 0.521630
1.000000 0.892515 0.533532
0.000000 0.939117 0.346197
0.000000 0.939117 0.346166
0.000000 0.939055 0.346288
0.000000 0.938964 0.346807
0.000000 0.938781 0.347326
0.000000 0.938567 0.348241
0.000000 0.938262 0.349279
0.000000 0.937896 0.350622
0.000000 0.937407 0.352361
0.144839 0.936858 0.354467
0.227024 0.936156 0.356847
0.286992 0.935393 0.359533
0.338598 0.934569 0.362646
0.385931 0.933623 0.365881
0.430854 0.932555 0.369757
0.473304 0.931426 0.373816
0.514549 0.930144 0.378393
0.554528 0.928832 0.383154
0.596796 0.926757 0.390234
0.640009 0.924010 0.399329
0.681086 0.921202 0.409064
0.720180 0.918303 0.419135
0.757015 0.915373 0.429633
0.791989 0.912474 0.440558
0.824857 0.909575 0.451942
0.855680 0.906798 0.463539
0.884459 0.904082 0.475715
0.911131 0.901518 0.488167
0.937560 0.901061 0.502708
0.964019 0.903380 0.520256
0.992645 0.912047 0.541070
1.000000 0.916350 0.562463
0.000000 0.961089 0.380865
0.000000 0.961089 0.380865
0.000000 0.961028 0.380957
0.000000 0.960937 0.381445
0.000000 0.960784 0.381994
0.000000 0.960571 0.382757
0.000000 0.960296 0.383734
0.127932 0.959930 0.385107
0.197421 0.959472 0.386694
0.250492 0.958892 0.388586
0.297398 0.958282 0.390814
0.340948 0.957580 0.393408
0.382483 0.956756 0.396307
0.422400 0.955810 0.399481
0.461463 0.954833 0.403052
0.499580 0.953735 0.406836
0.537011 0.952544 0.411170
0.573785 0.951263 0.415747
0.609796 0.949920 0.420722
0.649897 0.947601 0.428840
0.689021 0.945037 0.437964
0.726436 0.942382 0.447517
0.761898 0.939727 0.457465
0.795682 0.937041 0.467964
0.827543 0.934417 0.478798
0.857633 0.931823 0.490059
0.885710 0.929351 0.501793
0.911803 0.927001 0.513939
0.935760 0.924804 0.526299
0.959045 0.924346 0.540856
0.982666 0.927092 0.559564
1.000000 0.933928 0.581537
0.136477 0.980194 0.418158
0.138552 0.980163 0.418158
0.147768 0.980102 0.418372
0.162692 0.980011 0.418677
0.184482 0.979858 0.419257
0.210422 0.979644 0.419989
0.238590 0.979370 0.421118
0.268620 0.979004 0.422309
0.300053 0.978546 0.423865
0.332219 0.978027 0.425666
0.365148 0.977417 0.427832
0.398138 0.976715 0.430182
0.431617 0.975921 0.432898
0.465187 0.975036 0.436011
