20 Preset/Russian Style/【3】LUT video cho PR-AE-FCPX/Lut Tone (25).cube
# Created by Adobe Lightroom plugin Export LUT (1.24.0)
# www.johnrellis.com/lightroom/exportlut.htm
# Preset: 俄罗斯情绪-素材江湖13
# Color profile: C:\Program Files (x86)\Common Files\Adobe\Color\Profiles\Recommended\VideoHD.icc
LUT_3D_SIZE 8
DOMAIN_MIN 0.000000 0.000000 0.000000
DOMAIN_MAX 0.903226 0.903226 0.903226
0.000000 0.002167 0.004242
0.011963 0.001801 0.006287
0.118502 0.000000 0.009979
0.275242 0.000000 0.005951
0.489021 0.000000 0.000000
0.683772 0.000000 0.000000
0.842710 0.000000 0.000000
0.981231 0.000000 0.000000
0.000000 0.068940 0.072389
0.019501 0.067659 0.052491
0.155184 0.053956 0.000000
0.316808 0.000000 0.000000
0.518029 0.000000 0.000000
0.699794 0.000000 0.000000
0.850919 0.000000 0.000000
0.986114 0.000000 0.000000
0.000000 0.272129 0.152102
0.000702 0.268742 0.144991
0.274174 0.265660 0.103304
0.453346 0.217105 0.000000
0.612634 0.155550 0.000000
0.758846 0.035309 0.000000
0.884581 0.000000 0.000000
1.000000 0.000000 0.000000
0.237766 0.517357 0.325414
0.267948 0.514916 0.318242
0.371923 0.509453 0.288334
0.553582 0.510216 0.217838
0.705409 0.458442 0.000000
0.821347 0.384863 0.000000
0.927367 0.330114 0.000000
1.000000 0.307164 0.000000
0.436988 0.696620 0.554253
0.447791 0.695369 0.550072
0.492164 0.690639 0.532982
0.586236 0.689601 0.499794
0.728847 0.689631 0.439460
0.844816 0.647181 0.318273
0.949310 0.592401 0.084901
1.000000 0.544427 0.000000
0.586114 0.822812 0.710872
0.592035 0.822690 0.709865
0.614221 0.820127 0.703151
0.657923 0.815549 0.689418
0.739071 0.818479 0.668879
0.845792 0.821256 0.633783
0.937591 0.800626 0.559747
1.000000 0.771633 0.433906
0.734768 0.916258 0.817166
0.737240 0.916106 0.816587
0.747189 0.914977 0.813474
0.767483 0.912810 0.807218
0.804257 0.911742 0.797726
0.862791 0.913817 0.785306
0.932097 0.915892 0.765835
0.986816 0.906126 0.730831
0.872770 0.967315 0.895781
0.873564 0.967254 0.895537
0.877348 0.967010 0.894499
0.885008 0.966522 0.892363
0.896178 0.965362 0.887938
0.918120 0.965942 0.884184
0.947326 0.967041 0.878813
0.980468 0.968139 0.870024
0.000000 0.022126 0.081910
0.007172 0.023774 0.069978
0.148165 0.010040 0.036255
0.331548 0.000000 0.001984
0.531121 0.000000 0.000000
0.706996 0.000000 0.000000
0.853727 0.000000 0.000000
0.986297 0.000000 0.000000
0.000000 0.095674 0.112734
0.050599 0.095644 0.107485
0.195377 0.082612 0.088289
0.365728 0.000000 0.023102
0.554406 0.000000 0.000000
0.721279 0.000000 0.000000
0.861326 0.000000 0.000000
0.990814 0.000000 0.000000
0.065064 0.293309 0.194003
0.138155 0.290715 0.185824
0.304692 0.288365 0.150698
0.474708 0.242374 0.074586
0.628779 0.181338 0.000000
0.769497 0.091341 0.000000
0.889921 0.000000 0.000000
1.000000 0.000000 0.000000
0.277043 0.524620 0.360449
0.301457 0.522545 0.353887
0.391669 0.517052 0.326513
0.561547 0.518181 0.263767
0.707088 0.467964 0.141421
0.821653 0.397559 0.000000
0.927184 0.340978 0.000000
1.000000 0.307683 0.000000
0.453346 0.699458 0.573022
0.463203 0.698238 0.569177
0.504082 0.693416 0.552850
0.591943 0.691798 0.521050
0.729335 0.691829 0.465156
0.843015 0.651148 0.353094
0.947570 0.598444 0.170077
1.000000 0.551019 0.000000
0.592920 0.823850 0.717678
0.598169 0.823301 0.716243
0.619715 0.820829 0.709834
0.661707 0.816251 0.696651
0.741115 0.819394 0.677668
0.845853 0.822538 0.645411
0.935882 0.802396 0.576074
1.000000 0.773922 0.456123
0.737942 0.916320 0.819852
0.740108 0.915984 0.819028
0.749752 0.914885 0.816037
0.769741 0.912779 0.809995
0.805814 0.911833 0.801022
0.863340 0.913939 0.788968
0.931640 0.915984 0.770047
0.985840 0.906279 0.735805
0.873472 0.967254 0.896635
0.874418 0.967224 0.896483
0.878080 0.966949 0.895415
0.885710 0.966491 0.893309
0.897673 0.965698 0.889708
0.918791 0.966125 0.885740
0.947478 0.967163 0.880278
0.980346 0.968231 0.871641
0.050935 0.109560 0.184482
0.117006 0.109285 0.180819
0.213687 0.123079 0.169406
0.416083 0.000000 0.141482
0.597986 0.000000 0.097322
0.757839 0.000000 0.000000
0.885893 0.000000 0.000000
1.000000 0.000000 0.000000
0.113283 0.171542 0.216892
0.162295 0.174411 0.214603
0.265354 0.178134 0.202335
0.446723 0.100099 0.162051
0.616175 0.000000 0.112032
0.767727 0.000000 0.000000
0.890837 0.000000 0.000000
1.000000 0.000000 0.000000
0.219364 0.351537 0.316411
0.257481 0.351385 0.313054
0.374578 0.346929 0.287175
0.525536 0.314977 0.233158
0.669093 0.271794 0.166934
0.798795 0.210819 0.015442
0.910948 0.102296 0.000000
1.000000 0.000000 0.000000
0.368353 0.557214 0.477516
0.389990 0.556329 0.475288
0.449073 0.549767 0.451362
0.591394 0.552422 0.408362
0.721645 0.508293 0.316320
0.830838 0.451911 0.205875
0.935790 0.399359 0.000000
1.000000 0.343145 0.000000
0.512779 0.713405 0.640650
0.516075 0.712734 0.635279
0.547601 0.708675 0.623407
0.617212 0.706447 0.600397
0.737850 0.708827 0.561059
0.842069 0.672969 0.472572
0.944884 0.627283 0.342596
1.000000 0.583703 0.123171
0.623316 0.831601 0.746090
0.627741 0.831144 0.744900
0.646143 0.828855 0.739498
0.682246 0.824216 0.728145
0.752682 0.826719 0.712642
0.849882 0.830808 0.688197
0.931914 0.811826 0.635096
1.000000 0.786282 0.539971
0.756100 0.919219 0.833371
0.758022 0.918914 0.832700
0.766415 0.917815 0.829953
0.783993 0.915801 0.824491
0.815396 0.914366 0.816342
0.868498 0.916625 0.806302
0.932311 0.918914 0.790433
0.983459 0.909972 0.760250
0.879515 0.967956 0.901976
0.880217 0.967895 0.901701
0.883543 0.967620 0.900694
0.890715 0.967254 0.898802
0.901823 0.966491 0.895415
0.921263 0.966796 0.891630
0.948577 0.967864 0.886687
0.980133 0.968963 0.878843
0.235752 0.239384 0.378485
0.272709 0.243046 0.378027
0.384527 0.256443 0.373266
0.486030 0.290471 0.353124
0.661402 0.176974 0.290013
0.794491 0.000000 0.218326
0.910491 0.000000 0.135653
1.000000 0.000000 0.000000
0.282353 0.301579 0.413153
0.312963 0.303227 0.411688
0.409461 0.311101 0.405035
0.504906 0.332097 0.384100
0.671687 0.225101 0.308629
0.800656 0.150790 0.236576
0.913970 0.000000 0.153017
1.000000 0.000000 0.000000
0.351629 0.431952 0.493721
0.374273 0.433570 0.492683
0.458289 0.441352 0.490608
0.563409 0.426184 0.461921
0.700740 0.382208 0.391516
0.817899 0.348608 0.317052
0.926268 0.305394 0.228244
1.000000 0.199924 0.000000
0.449928 0.605219 0.618250
0.466102 0.605035 0.616907
0.522576 0.601740 0.608881
0.621088 0.597894 0.581750
0.729885 0.565545 0.520439
0.830259 0.533715 0.454078
0.935332 0.493355 0.357671
1.000000 0.433143 0.188235
0.570672 0.738735 0.715297
0.578607 0.737972 0.714260
0.607080 0.735470 0.708583
0.654902 0.730922 0.693996
0.751827 0.734981 0.674159
0.839811 0.706691 0.617762
0.936278 0.669978 0.529961
1.000000 0.634180 0.411902
0.674464 0.845335 0.790036
0.679347 0.845304 0.789822
0.690578 0.843900 0.784390
0.718807 0.839872 0.775814
0.773800 0.840482 0.764279
0.857542 0.844450 0.747799
0.928771 0.826566 0.708278
1.000000 0.803861 0.642847
0.787015 0.923980 0.855711
0.789517 0.923796 0.855558
0.793576 0.923430 0.852201
0.807980 0.921721 0.847898
0.831907 0.919280 0.840696
0.877531 0.921599 0.833158
0.934203 0.924224 0.821286
0.980072 0.915770 0.796262
0.891081 0.969268 0.912261
0.892180 0.969207 0.912261
0.893431 0.969238 0.910491
0.899382 0.968811 0.908629
0.908965 0.968109 0.905486
0.925200 0.967987 0.901671
0.950317 0.969146 0.897459
0.979980 0.970336 0.890806
0.410742 0.408301 0.611475
0.432319 0.411688 0.611841
0.508141 0.423896 0.611719
0.599542 0.435920 0.602197
0.679774 0.475013 0.582788
0.810758 0.396948 0.514763
0.916320 0.313085 0.421759
1.000000 0.241459 0.320439
0.437324 0.448341 0.628748
0.455879 0.450477 0.628809
0.522881 0.458442 0.627802
0.607263 0.465980 0.617487
0.683833 0.500145 0.599969
0.811826 0.418372 0.527733
0.917205 0.345586 0.438209
1.000000 0.281102 0.335943
0.480903 0.538109 0.669001
0.495796 0.539910 0.669947
0.555657 0.549248 0.669612
0.628382 0.555230 0.662928
0.702693 0.561212 0.644923
0.815152 0.488472 0.571008
0.919310 0.449531 0.499397
1.000000 0.395819 0.395666
0.549554 0.650172 0.722225
0.559014 0.650507 0.721614
0.595697 0.652308 0.719448
0.658808 0.659297 0.718135
0.732021 0.635828 0.691463
0.822782 0.613947 0.651179
0.920989 0.585870 0.594079
1.000000 0.534417 0.488808
0.631189 0.769436 0.782773
0.637659 0.769558 0.782498
0.662654 0.768887 0.780392
0.702205 0.764462 0.772610
0.771206 0.762997 0.758816
0.843381 0.738582 0.723903
0.924590 0.714412 0.681575
1.000000 0.679622 0.604395
0.720180 0.862333 0.830838
0.723842 0.861997 0.830503
0.738308 0.860441 0.828794
0.760769 0.857664 0.823453
0.797360 0.855406 0.814542
0.867308 0.860136 0.805203
0.927398 0.841703 0.773709
0.997009 0.817044 0.722438
0.814115 0.931182 0.878111
0.815640 0.930999 0.877836
0.822354 0.930266 0.876799
0.834470 0.929198 0.873808
0.852445 0.926787 0.867918
0.887419 0.927520 0.861631
0.936431 0.930053 0.853452
0.977356 0.921630 0.831846
0.896910 0.971618 0.922087
0.897978 0.971557 0.922057
0.902373 0.971252 0.922026
0.911009 0.970886 0.922148
0.917388 0.970428 0.918425
0.929534 0.969635 0.914336
0.952209 0.970855 0.910826
0.979797 0.972076 0.905241
0.567742 0.566217 0.761440
0.579065 0.568566 0.761685
0.621363 0.576532 0.761593
0.689937 0.591394 0.761654
0.732967 0.597162 0.742031
0.802548 0.630945 0.739986
0.905150 0.576318 0.702693
1.000000 0.503502 0.635554
0.580133 0.586694 0.765621
0.590051 0.588281 0.765591
0.628901 0.594568 0.765499
0.693324 0.606928 0.765408
0.734554 0.611597 0.746792
0.803983 0.642817 0.745846
0.904997 0.586236 0.707576
1.000000 0.515007 0.641566
0.612177 0.646326 0.782376
0.620356 0.647272 0.782376
0.652705 0.651270 0.782376
0.708248 0.659419 0.782254
0.746059 0.662593 0.767147
0.814694 0.681025 0.766384
0.907256 0.623468 0.726375
1.000000 0.565301 0.669917
0.641444 0.714382 0.804074
0.647181 0.714717 0.803708
0.674983 0.718502 0.804532
0.729549 0.729335 0.806943
0.768673 0.734585 0.798428
0.834379 0.727749 0.790585
0.913085 0.677058 0.750881
0.997742 0.648646 0.712184
0.700862 0.801907 0.836942
0.705257 0.801968 0.836698
0.723110 0.802182 0.835721
0.755306 0.802365 0.833707
0.798764 0.806271 0.831632
0.853086 0.783597 0.812558
0.918975 0.764553 0.789181
0.995819 0.735775 0.750576
0.773678 0.882811 0.869566
0.776852 0.882963 0.869566
0.788663 0.883024 0.869169
0.808621 0.881804 0.867460
0.833371 0.878141 0.862516
0.880095 0.878019 0.855039
0.929076 0.857237 0.830533
0.988708 0.835203 0.798703
0.849668 0.940368 0.902953
0.851041 0.940307 0.902892
0.856413 0.939910 0.902373
0.866758 0.939025 0.901183
0.881804 0.937438 0.898619
0.900633 0.935729 0.891722
0.941222 0.938262 0.886748
0.976257 0.928527 0.867308
0.913359 0.974762 0.937285
0.913878 0.974701 0.937163
0.916075 0.974578 0.936797
0.920623 0.974304 0.936065
0.928740 0.973754 0.934905
0.937743 0.972992 0.931029
0.955077 0.973327 0.927367
0.979858 0.974426 0.923064
0.708431 0.703120 0.857481
0.715084 0.704616 0.857725
0.739925 0.709133 0.857847
0.784329 0.718379 0.858213
0.840848 0.732540 0.858671
0.856474 0.731685 0.838499
0.910124 0.758785 0.838346
0.976654 0.717647 0.814939
0.712551 0.712459 0.858244
0.718868 0.713924 0.858549
0.742763 0.717891 0.858640
0.785336 0.726009 0.858854
0.840421 0.739132 0.859251
0.856229 0.737881 0.839689
0.908782 0.763516 0.839414
0.975219 0.720485 0.815335
0.729854 0.748836 0.864714
0.734981 0.749630 0.864744
0.755917 0.752468 0.864714
0.794491 0.759030 0.864988
0.844785 0.770230 0.865415
0.862303 0.769558 0.849577
0.910674 0.791989 0.850126
0.974975 0.745235 0.825406
0.745663 0.794003 0.873289
0.750301 0.794644 0.873442
0.772396 0.800381 0.874052
0.807645 0.806943 0.874662
0.852079 0.816251 0.875608
0.872984 0.817868 0.865537
0.916381 0.825986 0.863798
0.974121 0.782101 0.839567
0.781338 0.851469 0.886503
0.783536 0.851133 0.886137
0.793515 0.850431 0.885130
0.813931 0.850034 0.883909
0.857176 0.859434 0.886198
0.883940 0.863737 0.881804
0.922698 0.855467 0.875212
0.974640 0.819730 0.852811
0.830930 0.908049 0.905089
0.832578 0.907988 0.905028
0.839445 0.907622 0.904570
0.852354 0.906676 0.903624
0.871550 0.904845 0.901793
0.899504 0.906462 0.900450
0.931701 0.890684 0.888151
0.974121 0.877317 0.873960
0.882200 0.949828 0.926238
0.883360 0.949859 0.926238
0.887785 0.949828 0.926177
0.896452 0.949859 0.926085
0.908873 0.949645 0.925566
0.922911 0.947601 0.922881
0.947051 0.947143 0.917937
0.975952 0.934691 0.900511
0.931487 0.978302 0.952941
0.931945 0.978302 0.952941
0.934081 0.978363 0.953033
0.937774 0.978302 0.952911
0.943297 0.978119 0.952392
0.950652 0.977661 0.951171
0.959655 0.976776 0.946593
0.980713 0.977813 0.943694
0.838712 0.834531 0.918700
0.841917 0.835233 0.918761
0.853941 0.837339 0.918608
0.876707 0.842344 0.918700
0.906981 0.850187 0.918883
0.936126 0.856962 0.917906
0.945098 0.857237 0.905547
0.969299 0.871214 0.902831
0.840085 0.838773 0.918822
0.843198 0.839506 0.918883
0.855070 0.841611 0.918822
0.877165 0.846189 0.918883
0.906889 0.853666 0.919097
0.935760 0.860319 0.918242
0.944640 0.860166 0.906065
0.968597 0.873503 0.903410
0.846769 0.856321 0.920623
0.849516 0.856779 0.920653
0.860197 0.858366 0.920592
0.880919 0.862760 0.920958
0.908171 0.868864 0.921172
0.935637 0.875212 0.920745
0.944457 0.874388 0.909758
0.967193 0.885832 0.907622
0.851987 0.878599 0.924254
0.855741 0.880095 0.924285
0.867430 0.883177 0.924285
0.885557 0.886320 0.924620
0.910185 0.891356 0.925139
0.936706 0.898436 0.925841
0.945251 0.896849 0.916716
0.966003 0.905638 0.915373
0.860838 0.905821 0.928954
0.862058 0.905669 0.928832
0.868833 0.905547 0.928893
0.886137 0.908324 0.929900
0.911345 0.914214 0.930602
0.936522 0.920043 0.931884
0.947295 0.920073 0.925689
0.966918 0.924590 0.924498
0.893156 0.940581 0.941192
0.893736 0.940368 0.941070
0.896483 0.939605 0.940520
0.902098 0.938079 0.939483
0.911101 0.935393 0.937652
0.936828 0.940612 0.939879
0.952270 0.943175 0.937652
0.970367 0.941100 0.934142
0.922484 0.965789 0.954711
0.922942 0.965728 0.954650
0.924773 0.965454 0.954406
0.928710 0.964935 0.953918
0.934874 0.963989 0.953063
0.943633 0.962402 0.951537
0.959686 0.963043 0.951507
0.974731 0.956085 0.943481
0.947936 0.982910 0.968688
0.948241 0.982910 0.968658
0.949645 0.982879 0.968658
0.952544 0.982940 0.968750
0.957061 0.982940 0.968811
0.963348 0.983032 0.968963
0.971008 0.982696 0.968627
0.982391 0.982483 0.966644
