20 Preset/Russian Style/【3】LUT video cho PR-AE-FCPX/Lut Tone (9).cube
# Created by Adobe Lightroom plugin Export LUT (1.24.0)
# www.johnrellis.com/lightroom/exportlut.htm
# Preset: 俄罗斯情绪-素材江湖05
# Color profile: C:\Program Files (x86)\Common Files\Adobe\Color\Profiles\Recommended\VideoHD.icc
LUT_3D_SIZE 8
DOMAIN_MIN 0.000000 0.000000 0.000000
DOMAIN_MAX 0.903226 0.903226 0.903226
0.000000 0.000000 0.000000
0.046967 0.000000 0.000000
0.208194 0.000000 0.000000
0.408637 0.000000 0.000000
0.625025 0.000000 0.000000
0.826261 0.000000 0.000000
0.995575 0.000000 0.000000
1.000000 0.000000 0.000000
0.000000 0.082795 0.019623
0.034058 0.084749 0.010986
0.213138 0.065553 0.000000
0.411048 0.000000 0.000000
0.624323 0.000000 0.000000
0.822934 0.000000 0.000000
0.989654 0.000000 0.000000
1.000000 0.000000 0.000000
0.000000 0.255436 0.033295
0.000000 0.256413 0.025452
0.208255 0.256199 0.000000
0.426184 0.244907 0.000000
0.635004 0.238773 0.000000
0.827359 0.242222 0.000000
0.992523 0.260929 0.000000
1.000000 0.294743 0.000000
0.000000 0.466163 0.007446
0.000000 0.466133 0.000000
0.120790 0.466255 0.000000
0.427649 0.466529 0.000000
0.642451 0.469764 0.000000
0.826322 0.471138 0.000000
0.985840 0.476356 0.000000
1.000000 0.485939 0.000000
0.000000 0.675929 0.000000
0.000000 0.675380 0.000000
0.000000 0.674098 0.000000
0.402960 0.672236 0.000000
0.624567 0.668208 0.000000
0.806363 0.663264 0.000000
0.966491 0.662898 0.000000
1.000000 0.662562 0.000000
0.000000 0.843473 0.162875
0.000000 0.844358 0.161746
0.000000 0.842710 0.147921
0.372625 0.839597 0.114473
0.604456 0.834928 0.000000
0.790402 0.830045 0.000000
0.948913 0.824949 0.000000
1.000000 0.816403 0.000000
0.000000 0.963622 0.327703
0.000000 0.963348 0.326879
0.000000 0.961334 0.320897
0.409491 0.957671 0.309636
0.610224 0.951995 0.289647
0.782132 0.945251 0.260197
0.931334 0.938323 0.213901
1.000000 0.930419 0.133394
0.317235 1.000000 0.526726
0.340368 1.000000 0.525994
0.421515 1.000000 0.523461
0.538109 1.000000 0.518914
0.662593 1.000000 0.503777
0.792172 1.000000 0.489448
0.913237 1.000000 0.467201
1.000000 0.993866 0.431495
0.000000 0.009674 0.112306
0.054566 0.005341 0.111086
0.225406 0.000000 0.095918
0.420417 0.000000 0.089754
0.631373 0.000000 0.009155
0.827665 0.000000 0.000000
0.991363 0.000000 0.000000
1.000000 0.000000 0.000000
0.000000 0.100252 0.122805
0.036225 0.101350 0.119020
0.230533 0.095094 0.110323
0.424964 0.000000 0.092592
0.633570 0.000000 0.001770
0.827268 0.000000 0.000000
0.988830 0.000000 0.000000
1.000000 0.000000 0.000000
0.000000 0.267796 0.136843
0.000000 0.268498 0.135073
0.225742 0.268132 0.123323
0.435554 0.259556 0.095552
0.640467 0.253971 0.000000
0.827359 0.253483 0.000000
0.987945 0.265385 0.000000
1.000000 0.292119 0.000000
0.000000 0.470375 0.142824
0.000000 0.470253 0.139712
0.159365 0.470253 0.125521
0.431800 0.468330 0.085847
0.639857 0.470069 0.000000
0.820951 0.471077 0.000000
0.979736 0.475624 0.000000
1.000000 0.484657 0.000000
0.000000 0.677821 0.146700
0.000000 0.677058 0.143160
0.000000 0.675227 0.126955
0.408179 0.672206 0.079744
0.624720 0.667262 0.000000
0.804715 0.662531 0.000000
0.964263 0.662409 0.000000
1.000000 0.662013 0.000000
0.000000 0.842802 0.215640
0.000000 0.842527 0.213809
0.000000 0.841032 0.204746
0.377691 0.838346 0.185214
0.605615 0.834165 0.147127
0.790463 0.829953 0.000000
0.948028 0.824857 0.000000
1.000000 0.816037 0.000000
0.000000 0.962371 0.354223
0.000000 0.961730 0.352361
0.000000 0.959747 0.346746
0.412970 0.956298 0.336797
0.611505 0.951141 0.320043
0.781704 0.944518 0.294072
0.929778 0.937438 0.254398
1.000000 0.929534 0.195377
0.325505 1.000000 0.539818
0.349096 1.000000 0.539818
0.426917 1.000000 0.537255
0.541344 1.000000 0.533043
0.667781 1.000000 0.524071
0.794064 1.000000 0.508721
0.913207 1.000000 0.486091
1.000000 0.993774 0.451881
0.000000 0.079072 0.264591
0.008423 0.072328 0.263127
0.269474 0.015320 0.258030
0.467567 0.000000 0.239536
0.667689 0.000000 0.218601
0.850431 0.000000 0.198795
1.000000 0.000000 0.153964
1.000000 0.000000 0.000000
0.000000 0.147189 0.269383
0.060975 0.147738 0.267796
0.275700 0.142275 0.262181
0.468330 0.100649 0.243961
0.666865 0.000000 0.225376
0.847715 0.000000 0.202670
1.000000 0.000000 0.152682
1.000000 0.097200 0.000000
0.000000 0.304692 0.283055
0.000000 0.305058 0.280797
0.273838 0.304173 0.273106
0.470130 0.302373 0.260075
0.668788 0.300298 0.238102
0.845792 0.299809 0.205386
0.999115 0.306340 0.151522
1.000000 0.319188 0.000000
0.000000 0.497810 0.293126
0.000000 0.498177 0.291020
0.234623 0.497566 0.285161
0.465675 0.495857 0.271580
0.663569 0.496742 0.247257
0.836332 0.496040 0.212650
0.989410 0.498146 0.154818
1.000000 0.501671 0.000000
0.000000 0.692988 0.309880
0.000000 0.692531 0.308385
0.054047 0.691035 0.302159
0.437781 0.688624 0.289708
0.643549 0.684260 0.268315
0.816739 0.678096 0.236545
0.970336 0.675227 0.184268
1.000000 0.671778 0.000000
0.000000 0.849424 0.357855
0.000000 0.849241 0.356847
0.000000 0.847684 0.351965
0.410407 0.844663 0.341711
0.619898 0.840391 0.324651
0.797696 0.836240 0.299992
0.950805 0.830808 0.264378
1.000000 0.821134 0.207095
0.000000 0.963714 0.459113
0.000000 0.963134 0.457801
0.222660 0.961059 0.453193
0.447517 0.957549 0.445350
0.626825 0.952453 0.432990
0.788540 0.946227 0.415381
0.931548 0.939727 0.390661
1.000000 0.932006 0.358740
0.385718 1.000000 0.602411
0.402380 1.000000 0.601556
0.466041 1.000000 0.599542
0.567132 1.000000 0.596796
0.682185 1.000000 0.588739
0.800900 1.000000 0.576410
0.913970 1.000000 0.557702
1.000000 0.993927 0.529717
0.000000 0.149996 0.444282
0.124849 0.151278 0.443946
0.322362 0.151125 0.439155
0.514611 0.131624 0.434974
0.712093 0.000000 0.423865
0.877958 0.000000 0.391852
1.000000 0.000000 0.361669
1.000000 0.135378 0.334722
0.024414 0.215061 0.448463
0.163943 0.215335 0.447395
0.332433 0.213962 0.442817
0.518059 0.200565 0.438178
0.712490 0.156130 0.424689
0.877012 0.106172 0.392309
1.000000 0.155917 0.365789
1.000000 0.211795 0.337621
0.003937 0.358129 0.457649
0.166812 0.358709 0.456519
0.336278 0.357305 0.451911
0.520378 0.351202 0.444617
0.709285 0.338994 0.425422
0.870573 0.344427 0.404456
1.000000 0.361395 0.384466
1.000000 0.368292 0.349035
0.000000 0.540002 0.478157
0.000000 0.539605 0.476143
0.300481 0.538872 0.468544
0.509483 0.536492 0.457710
0.691768 0.534661 0.443519
0.852018 0.533837 0.425360
0.996674 0.533013 0.400427
1.000000 0.529320 0.361883
0.000000 0.718929 0.493294
0.000000 0.718349 0.491859
0.255314 0.716701 0.488258
0.485359 0.714473 0.482582
0.670130 0.710903 0.470222
0.831968 0.704524 0.452949
0.976287 0.698634 0.428534
1.000000 0.690150 0.391821
0.000000 0.861875 0.532860
0.000000 0.862364 0.533440
0.264714 0.860563 0.529778
0.472206 0.857725 0.523400
0.649073 0.853605 0.513024
0.810697 0.848844 0.497902
0.953399 0.842618 0.478340
1.000000 0.831296 0.449439
0.170962 0.965454 0.596674
0.224643 0.965118 0.596246
0.355505 0.963561 0.593805
0.505425 0.960418 0.588830
0.656275 0.955627 0.580407
0.801419 0.949554 0.568261
0.933043 0.943359 0.551781
1.000000 0.935515 0.532494
0.478065 1.000000 0.695521
0.489631 1.000000 0.695094
0.535851 1.000000 0.693538
0.613184 1.000000 0.689906
0.709773 1.000000 0.683619
0.813870 1.000000 0.674159
0.915679 1.000000 0.660395
1.000000 0.994171 0.640223
0.211612 0.248631 0.645411
0.264195 0.250034 0.645106
0.403845 0.253269 0.641688
0.570123 0.253483 0.635523
0.742184 0.245792 0.628443
0.900633 0.235294 0.610254
1.000000 0.256016 0.582452
1.000000 0.312016 0.565240
0.234257 0.300145 0.647364
0.280278 0.300511 0.647303
0.410346 0.300511 0.644160
0.571618 0.297429 0.637140
0.741878 0.289464 0.629480
0.898436 0.282597 0.610529
1.000000 0.300969 0.584375
1.000000 0.347906 0.568536
0.245670 0.429328 0.651972
0.285740 0.427985 0.651423
0.410986 0.425605 0.648005
0.569787 0.422278 0.640955
0.735470 0.418494 0.631464
0.885710 0.417914 0.612024
1.000000 0.431495 0.592828
1.000000 0.454963 0.579339
0.201663 0.585687 0.658350
0.256596 0.585718 0.657465
0.398535 0.586664 0.654292
0.559472 0.587030 0.648280
0.719661 0.584802 0.639216
0.865080 0.584588 0.624292
0.996124 0.586572 0.610773
1.000000 0.582269 0.590112
0.139406 0.747127 0.669459
0.216281 0.746914 0.668849
0.375067 0.745480 0.665949
0.540795 0.742947 0.660456
0.697292 0.739406 0.652308
0.842008 0.734157 0.641291
0.975036 0.726162 0.625818
1.000000 0.714199 0.601923
0.226688 0.873289 0.682948
0.270542 0.872892 0.682795
0.391028 0.870451 0.681178
0.532891 0.866270 0.677668
0.678462 0.864591 0.672694
0.823636 0.861540 0.665187
0.953368 0.855009 0.653681
1.000000 0.842649 0.635187
0.362310 0.967773 0.720363
0.382696 0.967224 0.720089
0.455634 0.965240 0.719722
0.566003 0.962219 0.718471
0.690059 0.958038 0.713344
0.816434 0.952544 0.705501
0.934081 0.946990 0.694942
1.000000 0.938598 0.682826
0.522667 1.000000 0.770840
0.539330 1.000000 0.772702
0.602075 1.000000 0.781033
0.667353 1.000000 0.781155
0.745144 1.000000 0.776944
0.832059 1.000000 0.770504
0.919097 0.999329 0.760983
0.998596 0.994018 0.746975
0.381598 0.367437 0.807767
0.408789 0.368963 0.807614
0.500816 0.372107 0.804898
0.632868 0.377386 0.800687
0.777127 0.382879 0.793881
0.916930 0.393805 0.783383
1.000000 0.419257 0.764828
1.000000 0.465858 0.750271
0.388098 0.401984 0.804990
0.413001 0.402472 0.804410
0.501671 0.403937 0.802182
0.630549 0.406683 0.798154
0.773739 0.411261 0.792020
0.913024 0.420630 0.781949
1.000000 0.443519 0.764218
1.000000 0.485512 0.750729
0.406043 0.512444 0.805936
0.428565 0.512383 0.805386
0.509880 0.512139 0.803342
0.630549 0.511376 0.798520
0.768429 0.513024 0.792508
0.903288 0.518395 0.782528
1.000000 0.533532 0.767056
1.000000 0.563439 0.757351
0.409949 0.648737 0.806271
0.432136 0.648981 0.805600
0.512413 0.650690 0.803555
0.627863 0.651362 0.800992
0.758968 0.650965 0.795956
0.886625 0.652003 0.786282
0.995697 0.659541 0.775906
1.000000 0.675624 0.771786
0.400885 0.781643 0.806943
0.422797 0.781582 0.806546
0.500938 0.781216 0.804959
0.615625 0.780453 0.802121
0.740932 0.777859 0.797635
0.862852 0.775082 0.790951
0.971923 0.773831 0.786282
1.000000 0.771084 0.780240
0.435523 0.892790 0.809751
0.454719 0.892699 0.809873
0.520073 0.890990 0.808988
0.619440 0.887877 0.807675
0.733089 0.883665 0.806424
0.848692 0.880186 0.802182
0.956817 0.872251 0.795773
1.000000 0.860441 0.785122
0.524468 0.971283 0.827451
0.537011 0.970977 0.827756
0.582879 0.969360 0.828244
0.660273 0.966278 0.829496
0.754574 0.961822 0.831510
0.845548 0.957763 0.824765
0.940856 0.953460 0.819150
1.000000 0.944396 0.811917
0.629389 1.000000 0.853422
0.636530 1.000000 0.853544
0.667231 1.000000 0.854734
0.722652 1.000000 0.857755
0.797879 1.000000 0.864164
0.861906 1.000000 0.860288
0.928801 0.998505 0.854673
0.994324 0.994232 0.846220
0.549401 0.512383 0.918608
0.566430 0.515618 0.919402
0.621912 0.518853 0.917815
0.714839 0.526329 0.915801
0.826413 0.534295 0.912016
0.942535 0.543786 0.906493
1.000000 0.560693 0.891997
1.000000 0.591302 0.868376
0.545006 0.528252 0.912749
0.561975 0.531762 0.913939
0.616632 0.534020 0.912596
0.706722 0.537713 0.909941
0.816892 0.542443 0.905791
0.931884 0.547753 0.899260
1.000000 0.559838 0.884276
1.000000 0.585565 0.861143
0.563409 0.615076 0.913573
0.576104 0.615198 0.913298
0.624109 0.614008 0.911284
0.707851 0.614099 0.908476
0.811521 0.613703 0.903593
0.923888 0.616571 0.898192
1.000000 0.629999 0.886442
1.000000 0.655756 0.868528
0.580529 0.725948 0.913298
0.591638 0.725582 0.912535
0.635706 0.724636 0.910094
0.712001 0.724361 0.908202
0.807706 0.721981 0.904234
0.913848 0.723293 0.900542
1.000000 0.731106 0.890318
1.000000 0.744961 0.876432
0.571801 0.821195 0.908049
0.580346 0.819486 0.906767
0.622583 0.817411 0.904723
0.698299 0.816556 0.903136
0.791958 0.815610 0.900084
0.890898 0.812497 0.896422
0.977325 0.814145 0.888457
1.000000 0.827604 0.885252
0.583825 0.911315 0.907591
0.594446 0.911223 0.907652
0.634485 0.910063 0.907317
0.702724 0.907805 0.906737
0.788418 0.903929 0.905455
0.882231 0.901732 0.904662
0.960388 0.901610 0.901640
1.000000 0.904112 0.902708
0.652552 0.975921 0.911681
0.661830 0.975830 0.912139
0.692226 0.974304 0.912108
0.746944 0.971588 0.912505
0.815640 0.967559 0.913054
0.888029 0.963561 0.915160
0.950805 0.960540 0.913054
1.000000 0.952178 0.908415
0.740871 1.000000 0.922057
0.746548 1.000000 0.922454
0.771633 1.000000 0.924681
0.809079 1.000000 0.927031
0.855558 1.000000 0.930205
0.905455 1.000000 0.935332
0.945769 0.997833 0.931914
0.993194 0.994812 0.927428
0.697597 0.671077 0.984680
0.706447 0.672877 0.984802
0.735836 0.672419 0.983429
0.793088 0.677699 0.982330
0.867826 0.683925 0.980377
0.950256 0.691310 0.977600
1.000000 0.704738 0.974975
1.000000 0.724697 0.960052
0.694697 0.678676 0.982116
0.703670 0.680568 0.982330
0.733852 0.681361 0.981415
0.789944 0.684840 0.980224
0.864317 0.690150 0.978332
0.946807 0.696773 0.975708
1.000000 0.707729 0.972869
1.000000 0.726375 0.958160
0.702052 0.726680 0.978912
0.709438 0.727138 0.978882
0.736751 0.726375 0.977905
0.792538 0.732418 0.977935
0.861540 0.733547 0.975891
0.939727 0.735653 0.973144
1.000000 0.744350 0.970916
1.000000 0.760311 0.957397
0.715267 0.796811 0.975219
0.722316 0.797513 0.975341
0.746883 0.796963 0.974731
0.794705 0.798337 0.974273
0.858488 0.799344 0.973144
0.930907 0.800839 0.971466
1.000000 0.806577 0.970153
1.000000 0.818723 0.958679
0.714687 0.860594 0.973754
0.722072 0.861265 0.973877
0.745602 0.860319 0.973144
0.798093 0.865232 0.971954
0.854582 0.864805 0.971038
0.919921 0.865019 0.970184
0.985840 0.869474 0.970123
1.000000 0.876493 0.960723
0.740017 0.928283 0.975525
0.744045 0.927733 0.975250
0.763149 0.926268 0.974578
0.802029 0.924804 0.974029
0.856138 0.923980 0.973754
0.919097 0.928496 0.974090
0.972412 0.928313 0.973236
1.000000 0.928679 0.965393
0.777462 0.979431 0.978943
0.781125 0.979126 0.978820
0.796841 0.977935 0.978393
0.827604 0.976013 0.977905
0.869047 0.973297 0.977203
0.915526 0.970336 0.976379
0.962097 0.968444 0.975189
1.000000 0.967590 0.971740
0.819821 1.000000 0.974365
0.822385 1.000000 0.974273
0.835264 1.000000 0.974365
0.860746 1.000000 0.975036
0.893645 1.000000 0.975952
0.929747 0.999939 0.977417
0.965728 0.997131 0.980652
0.993591 0.995392 0.982086
