20 Preset/Russian Style/【3】LUT video cho PR-AE-FCPX/Lut Tone (9).cube
# Created by Adobe Lightroom plugin Export LUT (1.24.0)
# www.johnrellis.com/lightroom/exportlut.htm
# Preset: 俄罗斯情绪-素材江湖05
# Color profile: C:\Program Files (x86)\Common Files\Adobe\Color\Profiles\Recommended\VideoHD.icc
LUT_3D_SIZE 32
DOMAIN_MIN 0.0 0.0 0.0
DOMAIN_MAX 1.0 1.0 1.0
0.000000 0.000000 0.000000
0.000000 0.000000 0.000000
0.001984 0.000000 0.000000
0.015900 0.000000 0.000000
0.046967 0.000000 0.000000
0.095125 0.000000 0.000000
0.126680 0.000000 0.000000
0.164797 0.000000 0.000000
0.208194 0.000000 0.000000
0.254582 0.000000 0.000000
0.304143 0.000000 0.000000
0.355596 0.000000 0.000000
0.408637 0.000000 0.000000
0.462287 0.000000 0.000000
0.516167 0.000000 0.000000
0.570397 0.000000 0.000000
0.625025 0.000000 0.000000
0.678950 0.000000 0.000000
0.730648 0.000000 0.000000
0.779690 0.000000 0.000000
0.826261 0.000000 0.000000
0.870878 0.000000 0.000000
0.914244 0.000000 0.000000
0.955749 0.000000 0.000000
0.995575 0.000000 0.000000
1.000000 0.000000 0.000000
1.000000 0.000000 0.000000
1.000000 0.000000 0.000000
1.000000 0.000000 0.000000
1.000000 0.000000 0.000000
1.000000 0.000000 0.000000
1.000000 0.000000 0.000000
0.000000 0.000000 0.000000
0.000000 0.000000 0.000000
0.003967 0.000000 0.000000
0.017884 0.000000 0.000000
0.048249 0.000000 0.000000
0.095308 0.000000 0.000000
0.126802 0.000000 0.000000
0.164431 0.000000 0.000000
0.207950 0.000000 0.000000
0.254154 0.000000 0.000000
0.303532 0.000000 0.000000
0.354894 0.000000 0.000000
0.407691 0.000000 0.000000
0.461311 0.000000 0.000000
0.515068 0.000000 0.000000
0.569329 0.000000 0.000000
0.623926 0.000000 0.000000
0.677852 0.000000 0.000000
0.729580 0.000000 0.000000
0.778592 0.000000 0.000000
0.825040 0.000000 0.000000
0.869657 0.000000 0.000000
0.912596 0.000000 0.000000
0.953857 0.000000 0.000000
0.993561 0.000000 0.000000
1.000000 0.000000 0.000000
1.000000 0.000000 0.000000
1.000000 0.000000 0.000000
1.000000 0.000000 0.000000
1.000000 0.000000 0.000000
1.000000 0.000000 0.000000
1.000000 0.000000 0.000000
0.000000 0.006012 0.000000
0.000000 0.005798 0.000000
0.004395 0.005127 0.000000
0.016876 0.005951 0.000000
0.049226 0.004578 0.000000
0.096101 0.001556 0.000000
0.127291 0.000000 0.000000
0.165194 0.000000 0.000000
0.208713 0.000000 0.000000
0.254734 0.000000 0.000000
0.303990 0.000000 0.000000
0.355383 0.000000 0.000000
0.407965 0.000000 0.000000
0.461311 0.000000 0.000000
0.514977 0.000000 0.000000
0.569055 0.000000 0.000000
0.623651 0.000000 0.000000
0.677363 0.000000 0.000000
0.729000 0.000000 0.000000
0.777981 0.000000 0.000000
0.824460 0.000000 0.000000
0.868956 0.000000 0.000000
0.911742 0.000000 0.000000
0.952880 0.000000 0.000000
0.992370 0.000000 0.000000
1.000000 0.000000 0.000000
1.000000 0.000000 0.000000
1.000000 0.000000 0.000000
1.000000 0.000000 0.000000
1.000000 0.000000 0.000000
1.000000 0.000000 0.000000
1.000000 0.000000 0.000000
0.000000 0.025788 0.004639
0.000000 0.026764 0.004456
0.000000 0.027283 0.003143
0.012116 0.027680 0.000519
0.047211 0.029450 0.000000
0.096315 0.031800 0.000000
0.128359 0.031189 0.000000
0.166873 0.022889 0.000000
0.210666 0.004150 0.000000
0.256931 0.000000 0.000000
0.306096 0.000000 0.000000
0.356817 0.000000 0.000000
0.409522 0.000000 0.000000
0.462379 0.000000 0.000000
0.515587 0.000000 0.000000
0.569421 0.000000 0.000000
0.623651 0.000000 0.000000
0.676936 0.000000 0.000000
0.728267 0.000000 0.000000
0.776913 0.000000 0.000000
0.823148 0.000000 0.000000
0.867643 0.000000 0.000000
0.910002 0.000000 0.000000
0.950988 0.000000 0.000000
0.990600 0.000000 0.000000
1.000000 0.000000 0.000000
1.000000 0.000000 0.000000
1.000000 0.000000 0.000000
1.000000 0.000000 0.000000
1.000000 0.000000 0.000000
1.000000 0.000000 0.000000
1.000000 0.000000 0.000000
0.000000 0.082795 0.019623
0.000000 0.082521 0.019623
0.000000 0.083314 0.018128
0.000000 0.084047 0.015320
0.034058 0.084749 0.010986
0.092836 0.086091 0.003632
0.128298 0.086519 0.000000
0.168795 0.081209 0.000000
0.213138 0.065553 0.000000
0.259586 0.037049 0.000000
0.308202 0.000000 0.000000
0.359075 0.000000 0.000000
0.411048 0.000000 0.000000
0.463844 0.000000 0.000000
0.516808 0.000000 0.000000
0.570153 0.000000 0.000000
0.624323 0.000000 0.000000
0.677333 0.000000 0.000000
0.728359 0.000000 0.000000
0.776852 0.000000 0.000000
0.822934 0.000000 0.000000
0.867247 0.000000 0.000000
0.909209 0.000000 0.000000
0.950103 0.000000 0.000000
0.989654 0.000000 0.000000
1.000000 0.000000 0.000000
1.000000 0.000000 0.000000
1.000000 0.000000 0.000000
1.000000 0.000000 0.000000
1.000000 0.000000 0.000000
1.000000 0.000000 0.000000
1.000000 0.000000 0.000000
0.000000 0.118868 0.034089
0.000000 0.119112 0.032807
0.000000 0.119326 0.032441
0.000000 0.119692 0.029450
0.003754 0.120363 0.025940
0.081849 0.120699 0.019684
0.125795 0.120516 0.012573
0.169802 0.119020 0.003204
0.215366 0.115236 0.000000
0.262852 0.108278 0.000000
0.311833 0.096651 0.000000
0.362554 0.072419 0.000000
0.414282 0.018585 0.000000
0.466743 0.000000 0.000000
0.519432 0.000000 0.000000
0.572717 0.000000 0.000000
0.626246 0.000000 0.000000
0.679042 0.000000 0.000000
0.729641 0.000000 0.000000
0.777707 0.000000 0.000000
0.823758 0.000000 0.000000
0.867674 0.000000 0.000000
0.918975 0.000000 0.000000
0.959899 0.000000 0.000000
0.999176 0.000000 0.000000
1.000000 0.000000 0.000000
1.000000 0.000000 0.000000
1.000000 0.033143 0.000000
1.000000 0.100374 0.000000
1.000000 0.125399 0.000000
1.000000 0.145418 0.000000
1.000000 0.161654 0.000000
0.000000 0.162112 0.039734
0.000000 0.162234 0.039582
0.000000 0.162295 0.039216
0.000000 0.163058 0.036896
0.000000 0.163516 0.032013
0.022980 0.163699 0.027649
0.117769 0.163790 0.020966
0.169741 0.162234 0.011444
0.218601 0.159243 0.001953
0.267765 0.154910 0.000000
0.318151 0.148684 0.000000
0.369512 0.141329 0.000000
0.421210 0.131960 0.000000
0.473304 0.120882 0.000000
0.525719 0.107576 0.000000
0.578393 0.091524 0.000000
0.631739 0.060243 0.000000
0.683742 0.023713 0.000000
0.733547 0.000000 0.000000
0.781308 0.000000 0.000000
0.828122 0.000000 0.000000
0.872526 0.000000 0.000000
0.915221 0.028962 0.000000
0.956603 0.078859 0.000000
0.996399 0.105043 0.000000
1.000000 0.127565 0.000000
1.000000 0.147250 0.000000
1.000000 0.166506 0.000000
1.000000 0.186069 0.000000
1.000000 0.201541 0.000000
1.000000 0.212222 0.000000
1.000000 0.221653 0.000000
0.000000 0.207492 0.038575
0.000000 0.207584 0.038392
0.000000 0.207767 0.036744
0.000000 0.208225 0.034394
0.000000 0.208682 0.030335
0.000000 0.209110 0.026398
0.090822 0.209232 0.019165
0.160281 0.208804 0.011688
0.216373 0.206851 0.002411
0.268467 0.202945 0.000000
0.320317 0.198947 0.000000
0.372045 0.194675 0.000000
0.424018 0.189944 0.000000
0.475776 0.185061 0.000000
0.528038 0.180148 0.000000
0.580285 0.175540 0.000000
0.633082 0.172396 0.000000
0.684627 0.169406 0.000000
0.734066 0.167636 0.000000
0.781918 0.167849 0.000000
0.827634 0.170047 0.000000
0.871427 0.173648 0.000000
0.913664 0.179263 0.000000
0.954742 0.186801 0.000000
0.994324 0.196597 0.000000
1.000000 0.207095 0.000000
1.000000 0.218143 0.000000
1.000000 0.230411 0.000000
1.000000 0.243137 0.000000
1.000000 0.256107 0.000000
1.000000 0.267887 0.000000
1.000000 0.274571 0.000000
0.000000 0.255436 0.033295
0.000000 0.255589 0.032959
0.000000 0.255680 0.032410
0.000000 0.256138 0.029725
0.000000 0.256413 0.025452
0.000000 0.256718 0.019989
0.000000 0.256901 0.013336
0.140993 0.256779 0.002716
0.208255 0.256199 0.000000
0.266392 0.253971 0.000000
0.320775 0.250736 0.000000
0.373724 0.247807 0.000000
0.426184 0.244907 0.000000
0.478187 0.242435 0.000000
0.530358 0.240513 0.000000
0.582574 0.239139 0.000000
0.635004 0.238773 0.000000
0.685969 0.238743 0.000000
0.735256 0.239170 0.000000
0.782254 0.240391 0.000000
0.827359 0.242222 0.000000
0.870512 0.245182 0.000000
0.912352 0.249119 0.000000
0.953185 0.254398 0.000000
0.992523 0.260929 0.000000
1.000000 0.268193 0.000000
1.000000 0.276219 0.000000
1.000000 0.285039 0.000000
1.000000 0.294743 0.000000
1.000000 0.304509 0.000000
1.000000 0.314794 0.000000
1.000000 0.324102 0.000000
0.000000 0.305638 0.028840
0.000000 0.305638 0.028656
0.000000 0.305760 0.027924
0.000000 0.305852 0.025483
0.000000 0.306188 0.019532
0.000000 0.306401 0.013703
0.000000 0.306432 0.005463
0.105837 0.306584 0.000000
0.194400 0.306096 0.000000
0.259617 0.305364 0.000000
0.318395 0.303319 0.000000
0.372992 0.301061 0.000000
0.426398 0.299351 0.000000
0.478920 0.298161 0.000000
0.531518 0.297490 0.000000
0.584161 0.297734 0.000000
0.636561 0.298802 0.000000
0.687373 0.299809 0.000000
0.735958 0.300755 0.000000
0.782345 0.301946 0.000000
0.826780 0.303593 0.000000
0.869291 0.305699 0.000000
0.910491 0.308690 0.000000
0.950744 0.312749 0.000000
0.989624 0.317357 0.000000
1.000000 0.322728 0.000000
1.000000 0.328771 0.000000
1.000000 0.335302 0.000000
1.000000 0.342565 0.000000
1.000000 0.350439 0.000000
1.000000 0.358648 0.000000
1.000000 0.366796 0.000000
0.000000 0.356878 0.024414
0.000000 0.356970 0.024109
0.000000 0.357061 0.022065
0.000000 0.357183 0.019257
0.000000 0.357427 0.014038
0.000000 0.357641 0.006500
0.000000 0.357794 0.000000
0.000000 0.357824 0.000000
0.175845 0.357641 0.000000
0.250767 0.357122 0.000000
0.314000 0.356085 0.000000
0.371313 0.355077 0.000000
0.425330 0.353429 0.000000
0.479133 0.352850 0.000000
0.532219 0.353307 0.000000
0.585565 0.354528 0.000000
0.637446 0.355749 0.000000
0.687556 0.356786 0.000000
0.735409 0.357916 0.000000
0.781216 0.358923 0.000000
0.825223 0.359960 0.000000
0.867308 0.361669 0.000000
0.908415 0.364111 0.000000
0.948486 0.367010 0.000000
0.987213 0.370581 0.000000
1.000000 0.374975 0.000000
1.000000 0.379583 0.000000
1.000000 0.384680 0.000000
1.000000 0.390204 0.000000
1.000000 0.396063 0.000000
1.000000 0.402441 0.000000
1.000000 0.408698 0.000000
0.000000 0.409705 0.017609
0.000000 0.409766 0.017243
0.000000 0.409766 0.015351
0.000000 0.409888 0.013306
0.000000 0.410101 0.005432
0.000000 0.410224 0.000000
0.000000 0.410468 0.000000
0.000000 0.410407 0.000000
0.152071 0.410376 0.000000
0.240330 0.410040 0.000000
0.308598 0.409491 0.000000
0.368719 0.408972 0.000000
0.430488 0.413123 0.000000
0.484993 0.412726 0.000000
0.539635 0.413916 0.000000
0.593408 0.415503 0.000000
0.645106 0.416693 0.000000
0.694759 0.417762 0.000000
0.742123 0.418402 0.000000
0.787350 0.419165 0.000000
0.830930 0.419867 0.000000
0.872557 0.420874 0.000000
0.913085 0.422370 0.000000
0.952514 0.424537 0.000000
0.990509 0.427192 0.000000
1.000000 0.430091 0.000000
1.000000 0.432929 0.000000
1.000000 0.436408 0.000000
1.000000 0.440223 0.000000
1.000000 0.444099 0.000000
1.000000 0.448219 0.000000
1.000000 0.452338 0.000000
0.000000 0.466163 0.007446
0.000000 0.466163 0.006134
0.000000 0.466072 0.005463
0.000000 0.466102 0.000000
0.000000 0.466133 0.000000
0.000000 0.466102 0.000000
0.000000 0.466194 0.000000
0.000000 0.466194 0.000000
0.120790 0.466255 0.000000
0.230289 0.466255 0.000000
0.304601 0.466377 0.000000
0.368872 0.466529 0.000000
0.427649 0.466529 0.000000
0.483101 0.466285 0.000000
0.537255 0.466865 0.000000
0.591028 0.468574 0.000000
0.642451 0.469764 0.000000
0.691676 0.470253 0.000000
0.738460 0.470558 0.000000
0.783413 0.470924 0.000000
0.826322 0.471138 0.000000
0.867918 0.471809 0.000000
0.908446 0.472908 0.000000
0.947875 0.474464 0.000000
0.985840 0.476356 0.000000
1.000000 0.478553 0.000000
1.000000 0.480873 0.000000
1.000000 0.483345 0.000000
1.000000 0.485939 0.000000
1.000000 0.488808 0.000000
1.000000 0.491524 0.000000
1.000000 0.494057 0.000000
0.000000 0.522087 0.000000
0.000000 0.522057 0.000000
0.000000 0.522026 0.000000
0.000000 0.521752 0.000000
0.000000 0.521477 0.000000
0.000000 0.521294 0.000000
0.000000 0.521141 0.000000
0.000000 0.520836 0.000000
0.004822 0.520745 0.000000
0.213138 0.520714 0.000000
0.295811 0.520867 0.000000
0.363714 0.520989 0.000000
0.424933 0.521050 0.000000
0.481758 0.520989 0.000000
0.535668 0.520531 0.000000
0.587640 0.520378 0.000000
0.638941 0.521141 0.000000
0.687465 0.521477 0.000000
0.734218 0.521508 0.000000
0.778897 0.521386 0.000000
0.821653 0.521141 0.000000
0.863340 0.521416 0.000000
0.903960 0.522301 0.000000
0.943420 0.523430 0.000000
0.981292 0.524743 0.000000
1.000000 0.526421 0.000000
1.000000 0.527947 0.000000
1.000000 0.529625 0.000000
1.000000 0.531304 0.000000
1.000000 0.533043 0.000000
1.000000 0.534661 0.000000
1.000000 0.535973 0.000000
0.000000 0.576562 0.000000
0.000000 0.576501 0.000000
0.000000 0.576410 0.000000
0.000000 0.576013 0.000000
0.000000 0.575616 0.000000
0.000000 0.575158 0.000000
0.000000 0.574823 0.000000
0.000000 0.574487 0.000000
0.000000 0.574121 0.000000
0.189731 0.574060 0.000000
0.283604 0.574029 0.000000
0.356390 0.573999 0.000000
0.419715 0.573999 0.000000
0.478340 0.573785 0.000000
0.533074 0.573297 0.000000
0.585016 0.572473 0.000000
0.634668 0.571374 0.000000
0.683162 0.571374 0.000000
0.729610 0.570916 0.000000
0.774166 0.570428 0.000000
0.816922 0.569970 0.000000
0.858610 0.570001 0.000000
0.899229 0.570459 0.000000
0.938598 0.571191 0.000000
0.976410 0.572015 0.000000
1.000000 0.573022 0.000000
1.000000 0.573968 0.000000
1.000000 0.575097 0.000000
1.000000 0.576074 0.000000
1.000000 0.577050 0.000000
1.000000 0.577844 0.000000
1.000000 0.578119 0.000000
0.000000 0.627771 0.000000
0.000000 0.627802 0.000000
0.000000 0.627680 0.000000
0.000000 0.627497 0.000000
0.000000 0.627222 0.000000
0.000000 0.626886 0.000000
0.000000 0.626673 0.000000
0.000000 0.626459 0.000000
0.000000 0.626215 0.000000
0.156985 0.625879 0.000000
0.268711 0.625605 0.000000
0.346532 0.625116 0.000000
0.412543 0.624628 0.000000
0.472328 0.623987 0.000000
0.527672 0.623041 0.000000
0.580163 0.622095 0.000000
0.630335 0.620905 0.000000
0.677729 0.619257 0.000000
0.724086 0.618708 0.000000
0.768612 0.617792 0.000000
0.811582 0.617212 0.000000
0.853605 0.617060 0.000000
0.894347 0.617334 0.000000
0.933806 0.617700 0.000000
0.971588 0.618189 0.000000
1.000000 0.618708 0.000000
1.000000 0.619287 0.000000
1.000000 0.619623 0.000000
1.000000 0.619959 0.000000
1.000000 0.620172 0.000000
1.000000 0.619989 0.000000
1.000000 0.619257 0.000000
0.000000 0.675929 0.000000
0.000000 0.675868 0.000000
0.000000 0.675807 0.000000
0.000000 0.675593 0.000000
0.000000 0.675380 0.000000
0.000000 0.675105 0.000000
0.000000 0.674800 0.000000
0.000000 0.674434 0.000000
0.000000 0.674098 0.000000
0.105043 0.673732 0.000000
0.249729 0.673304 0.000000
0.333898 0.672847 0.000000
0.402960 0.672236 0.000000
0.464332 0.671443 0.000000
0.521019 0.670497 0.000000
0.574273 0.669368 0.000000
0.624567 0.668208 0.000000
0.672999 0.666926 0.000000
0.718685 0.665095 0.000000
0.763149 0.663935 0.000000
0.806363 0.663264 0.000000
0.848539 0.662806 0.000000
0.889403 0.662745 0.000000
0.928771 0.662837 0.000000
0.966491 0.662898 0.000000
1.000000 0.663020 0.000000
1.000000 0.662959 0.000000
1.000000 0.662837 0.000000
1.000000 0.662562 0.000000
1.000000 0.662104 0.000000
1.000000 0.661250 0.000000
1.000000 0.659663 0.000000
0.000000 0.721828 0.024628
0.000000 0.721798 0.023255
0.000000 0.726802 0.030762
0.000000 0.726680 0.024079
0.000000 0.726406 0.014405
0.000000 0.726009 0.003235
0.000000 0.725612 0.000000
0.000000 0.725063 0.000000
0.000000 0.724636 0.000000
0.000000 0.724056 0.000000
0.234531 0.723415 0.000000
0.325139 0.722713 0.000000
0.396796 0.721828 0.000000
0.459998 0.720668 0.000000
0.517296 0.719356 0.000000
0.570886 0.717922 0.000000
0.621668 0.716274 0.000000
0.669978 0.714656 0.000000
0.716274 0.713069 0.000000
0.760525 0.711116 0.000000
0.803677 0.709834 0.000000
0.845640 0.709010 0.000000
0.886259 0.708370 0.000000
0.925292 0.707790 0.000000
0.962524 0.707057 0.000000
0.997803 0.706355 0.000000
1.000000 0.705562 0.000000
1.000000 0.704677 0.000000
1.000000 0.703700 0.000000
1.000000 0.702632 0.000000
1.000000 0.701045 0.000000
1.000000 0.698787 0.000000
0.000000 0.766049 0.093477
0.000000 0.766506 0.093050
0.000000 0.766934 0.093019
0.000000 0.767147 0.091279
0.000000 0.767208 0.089357
0.000000 0.767025 0.082460
0.000000 0.766598 0.068666
0.000000 0.766079 0.047242
0.000000 0.765499 0.022400
0.000000 0.764889 0.000000
0.212680 0.764309 0.000000
0.311009 0.763638 0.000000
0.385992 0.762631 0.000000
0.450385 0.761593 0.000000
0.508721 0.760433 0.000000
0.563165 0.759091 0.000000
0.614405 0.757717 0.000000
0.663172 0.756252 0.000000
0.710170 0.754788 0.000000
0.755184 0.753475 0.000000
0.798459 0.751980 0.000000
0.840543 0.750942 0.000000
0.881102 0.749996 0.000000
0.919951 0.748959 0.000000
0.957000 0.747890 0.000000
0.992065 0.746731 0.000000
1.000000 0.745480 0.000000
1.000000 0.744137 0.000000
1.000000 0.742641 0.000000
1.000000 0.740963 0.000000
1.000000 0.738888 0.000000
1.000000 0.735958 0.000000
0.000000 0.805783 0.127718
0.000000 0.806180 0.128267
0.000000 0.806607 0.127687
0.000000 0.806851 0.127321
0.000000 0.806943 0.125460
0.000000 0.806760 0.122744
0.000000 0.806363 0.118379
0.000000 0.805875 0.113008
0.000000 0.805264 0.105989
0.000000 0.804623 0.095949
0.195193 0.803922 0.080629
0.300633 0.803220 0.042481
0.377661 0.802243 0.000000
0.443275 0.801266 0.000000
0.502403 0.800076 0.000000
0.557000 0.798886 0.000000
0.608789 0.797482 0.000000
0.657740 0.796017 0.000000
0.704768 0.794644 0.000000
0.750027 0.793271 0.000000
0.793698 0.791958 0.000000
0.835782 0.790738 0.000000
0.876310 0.789548 0.000000
0.915007 0.788205 0.000000
0.951751 0.786770 0.000000
0.986450 0.785183 0.000000
1.000000 0.783474 0.000000
1.000000 0.781674 0.000000
1.000000 0.779721 0.000000
1.000000 0.777523 0.000000
1.000000 0.774899 0.000000
1.000000 0.771481 0.000000
0.000000 0.843473 0.162875
0.000000 0.843809 0.163302
0.000000 0.844114 0.162997
0.000000 0.844327 0.162753
0.000000 0.844358 0.161746
0.000000 0.844144 0.159518
0.000000 0.843778 0.156527
0.000000 0.843290 0.152773
0.000000 0.842710 0.147921
0.000000 0.842069 0.142184
0.185977 0.841276 0.134981
0.294957 0.840482 0.126650
0.372625 0.839597 0.114473
0.438544 0.838529 0.099763
0.498024 0.837400 0.072236
0.552758 0.836179 0.009369
0.604456 0.834928 0.000000
0.653834 0.833616 0.000000
0.700984 0.832395 0.000000
0.746456 0.831205 0.000000
0.790402 0.830045 0.000000
0.832792 0.828946 0.000000
0.873503 0.827939 0.000000
0.912444 0.826688 0.000000
0.948913 0.824949 0.000000
0.983124 0.823117 0.000000
1.000000 0.821042 0.000000
1.000000 0.818784 0.000000
1.000000 0.816403 0.000000
1.000000 0.813718 0.000000
1.000000 0.810452 0.000000
1.000000 0.806455 0.000000
0.000000 0.880400 0.202945
0.000000 0.880491 0.203067
0.000000 0.880552 0.202853
0.000000 0.880461 0.202304
0.000000 0.880247 0.201083
0.000000 0.879881 0.199374
0.000000 0.879454 0.197421
0.000000 0.878904 0.194400
0.000000 0.878264 0.190768
0.000000 0.877623 0.186740
0.191165 0.876829 0.182010
0.297368 0.876005 0.175937
0.373724 0.875059 0.168917
0.438788 0.873930 0.160494
0.497414 0.872740 0.149996
0.551751 0.871458 0.137179
0.602991 0.870085 0.121523
0.651728 0.868650 0.100923
0.698512 0.867216 0.049042
0.743557 0.865751 0.000000
0.787106 0.864317 0.000000
0.828946 0.862913 0.000000
0.869322 0.861540 0.000000
0.908019 0.860258 0.000000
0.944671 0.858732 0.000000
0.978241 0.856535 0.000000
1.000000 0.854154 0.000000
1.000000 0.851621 0.000000
1.000000 0.848844 0.000000
1.000000 0.845792 0.000000
1.000000 0.842161 0.000000
1.000000 0.837766 0.000000
0.000000 0.911620 0.242039
0.000000 0.911681 0.242130
0.000000 0.911681 0.242100
0.000000 0.911650 0.241550
0.000000 0.911406 0.240726
0.000000 0.911101 0.239384
0.000000 0.910613 0.237644
0.000000 0.910063 0.235111
0.000000 0.909483 0.232364
0.000000 0.908782 0.229404
0.210025 0.908019 0.225498
0.306340 0.907134 0.221042
0.379004 0.906157 0.215763
0.442115 0.905058 0.209567
0.499336 0.903838 0.202792
0.552453 0.902556 0.194553
0.602991 0.901183 0.185214
0.651026 0.899718 0.174258
0.697200 0.898253 0.160891
0.741665 0.896666 0.145083
0.784695 0.895171 0.124636
0.826078 0.893645 0.096223
0.866026 0.892119 0.012665
0.904265 0.890684 0.000000
0.939635 0.888457 0.000000
0.973724 0.886900 0.000000
1.000000 0.884245 0.000000
1.000000 0.881529 0.000000
1.000000 0.878508 0.000000
1.000000 0.875120 0.000000
1.000000 0.871244 0.000000
1.000000 0.866606 0.000000
0.000000 0.940246 0.285313
0.000000 0.940368 0.285618
0.000000 0.940368 0.285496
0.000000 0.940185 0.284825
0.000000 0.939879 0.283909
0.000000 0.939422 0.282536
0.000000 0.938842 0.280735
0.000000 0.938170 0.278538
0.000000 0.937377 0.276036
0.089998 0.936553 0.273075
0.240055 0.935637 0.269749
0.323125 0.934630 0.265812
0.390356 0.933471 0.261418
0.449592 0.932250 0.256535
0.504234 0.930877 0.250614
0.555322 0.929412 0.244297
0.604211 0.927886 0.236912
0.651026 0.926329 0.228733
0.696132 0.924743 0.219760
0.739834 0.923156 0.209842
0.782010 0.921569 0.198123
0.822812 0.919921 0.184726
0.861967 0.918273 0.168368
0.899474 0.916594 0.147982
0.935149 0.914977 0.120729
0.968841 0.913451 0.069062
1.000000 0.911833 0.000000
1.000000 0.908782 0.000000
1.000000 0.905516 0.000000
1.000000 0.901915 0.000000
1.000000 0.897856 0.000000
1.000000 0.893217 0.000000
0.000000 0.963622 0.327703
0.000000 0.963714 0.327886
0.000000 0.963684 0.327947
0.000000 0.963592 0.327642
0.000000 0.963348 0.326879
0.000000 0.962982 0.325902
0.000000 0.962554 0.324651
0.000000 0.962005 0.322820
0.000000 0.961334 0.320897
0.189487 0.960601 0.318700
0.280430 0.959747 0.316014
0.349767 0.958770 0.313085
0.409491 0.957671 0.309636
0.464088 0.956420 0.305577
0.515099 0.955077 0.300725
0.563592 0.953582 0.295415
0.610224 0.951995 0.289647
0.655207 0.950378 0.283177
0.698787 0.948699 0.276249
0.741054 0.946990 0.268559
0.782132 0.945251 0.260197
0.821775 0.943542 0.250767
0.859922 0.941772 0.240330
0.896513 0.940032 0.228031
0.931334 0.938323 0.213901
0.964233 0.936706 0.197360
0.994873 0.935271 0.177554
1.000000 0.933867 0.155764
1.000000 0.930419 0.133394
1.000000 0.926665 0.101900
1.000000 0.922515 0.009400
1.000000 0.917449 0.000000
0.000000 0.983886 0.374487
0.000000 0.983948 0.374609
0.000000 0.983886 0.374517
0.000000 0.983764 0.374273
0.000000 0.983520 0.373541
0.000000 0.983154 0.372778
0.000000 0.982727 0.371466
0.000000 0.982147 0.369909
0.178622 0.981506 0.368200
0.261570 0.980743 0.366369
0.326207 0.979858 0.363989
0.382452 0.978882 0.361456
0.434302 0.977813 0.358465
0.483162 0.976562 0.354864
0.530175 0.975189 0.350958
0.575097 0.973724 0.346410
0.618982 0.972137 0.341558
0.661707 0.970489 0.336034
0.703151 0.968811 0.330327
0.743648 0.967041 0.324041
0.783017 0.965270 0.317449
0.821256 0.963470 0.309972
0.858000 0.961639 0.301793
0.893400 0.959838 0.292638
0.927062 0.958038 0.282383
0.958831 0.956359 0.270756
0.988586 0.954803 0.257694
1.000000 0.953491 0.242863
1.000000 0.952239 0.228244
1.000000 0.948425 0.217288
1.000000 0.943816 0.200870
1.000000 0.938628 0.179751
0.000000 1.000000 0.421912
0.000000 1.000000 0.422034
0.000000 1.000000 0.421881
0.000000 1.000000 0.421790
0.000000 1.000000 0.421393
0.000000 0.999908 0.420722
0.147982 0.999573 0.420172
0.219944 0.999145 0.419562
0.277592 0.998657 0.418769
0.329229 0.998047 0.417762
0.377722 0.997345 0.416571
0.423804 0.996521 0.415137
0.468330 0.995544 0.413275
0.511315 0.994446 0.410834
0.553429 0.993194 0.408026
0.594476 0.991791 0.404334
0.634730 0.990265 0.400458
0.674189 0.988617 0.395972
0.712947 0.986938 0.391547
0.751003 0.985199 0.386481
0.788083 0.983429 0.381109
0.824216 0.981598 0.375311
0.859068 0.979767 0.368627
0.892638 0.977905 0.361578
0.924620 0.976135 0.353521
0.954986 0.974395 0.344701
0.983429 0.972808 0.334783
1.000000 0.971313 0.323430
1.000000 0.969909 0.310155
1.000000 0.968475 0.296727
1.000000 0.963592 0.286687
1.000000 0.958251 0.274632
0.181399 1.000000 0.475441
0.183078 1.000000 0.475410
0.191745 1.000000 0.475288
0.207065 1.000000 0.474952
0.229282 1.000000 0.474525
0.256291 1.000000 0.473854
0.286778 1.000000 0.473182
0.319890 1.000000 0.472206
0.354589 1.000000 0.471199
0.390478 1.000000 0.469886
0.427161 1.000000 0.468544
0.463996 1.000000 0.466773
0.501274 1.000000 0.464881
0.538445 1.000000 0.462715
