20 Preset/Russian Style/【3】LUT video cho PR-AE-FCPX/Lut Tone (29).cube
# Created by Adobe Lightroom plugin Export LUT (1.24.0)
# www.johnrellis.com/lightroom/exportlut.htm
# Preset: 俄罗斯情绪-素材江湖15
# Color profile: C:\Program Files (x86)\Common Files\Adobe\Color\Profiles\Recommended\VideoHD.icc
LUT_3D_SIZE 8
DOMAIN_MIN 0.000000 0.000000 0.000000
DOMAIN_MAX 0.903226 0.903226 0.903226
0.000000 0.000000 0.000000
0.094484 0.000000 0.000000
0.212863 0.000000 0.000000
0.427985 0.000000 0.000000
0.664576 0.000000 0.000000
0.907103 0.000000 0.000000
1.000000 0.000000 0.000000
1.000000 0.000000 0.000000
0.027008 0.076936 0.051087
0.066712 0.072206 0.023865
0.221927 0.008484 0.000000
0.438483 0.000000 0.000000
0.673732 0.000000 0.000000
0.913634 0.000000 0.000000
1.000000 0.000000 0.000000
1.000000 0.000000 0.000000
0.000000 0.204715 0.144045
0.008301 0.195377 0.134798
0.178225 0.192203 0.069459
0.458564 0.235904 0.000000
0.681941 0.199588 0.000000
0.919646 0.000000 0.000000
1.000000 0.000000 0.000000
1.000000 0.000000 0.000000
0.000000 0.417792 0.300023
0.000000 0.412146 0.292973
0.154696 0.387976 0.268406
0.362890 0.396429 0.139956
0.686702 0.434607 0.000000
0.930571 0.400488 0.000000
1.000000 0.318425 0.000000
1.000000 0.000000 0.000000
0.215122 0.627131 0.472602
0.227787 0.623224 0.468147
0.271641 0.606561 0.450752
0.309514 0.592706 0.395026
0.553033 0.598322 0.265934
0.896605 0.639490 0.000000
1.000000 0.567864 0.000000
1.000000 0.470466 0.000000
0.380926 0.829191 0.645655
0.386145 0.827024 0.642725
0.406714 0.817838 0.630762
0.443732 0.798306 0.609247
0.490120 0.800259 0.527337
0.749264 0.802518 0.391882
1.000000 0.807034 0.010376
1.000000 0.674800 0.000000
0.676112 0.955383 0.822782
0.677241 0.954772 0.821653
0.681697 0.952148 0.816770
0.691035 0.946563 0.807584
0.700313 0.937987 0.790372
0.720363 0.946899 0.706416
0.899168 0.943359 0.569909
1.000000 0.898528 0.381964
0.898039 0.992584 0.943664
0.898283 0.992493 0.943450
0.899413 0.992004 0.942473
0.901610 0.990997 0.940673
0.905241 0.989227 0.938109
0.899260 0.990112 0.923674
0.905150 0.993530 0.885618
0.972320 0.992157 0.791165
0.016907 0.060639 0.092775
0.096834 0.035920 0.091615
0.232303 0.000000 0.084230
0.448524 0.000000 0.016602
0.676661 0.000000 0.000000
0.918029 0.000000 0.000000
1.000000 0.000000 0.000000
1.000000 0.000000 0.000000
0.020020 0.108705 0.100343
0.098207 0.105898 0.102266
0.241367 0.076539 0.076204
0.454536 0.000000 0.000580
0.680171 0.000000 0.000000
0.918883 0.000000 0.000000
1.000000 0.000000 0.000000
1.000000 0.000000 0.000000
0.000000 0.244388 0.187472
0.108461 0.240360 0.187350
0.196963 0.229068 0.136812
0.474372 0.246708 0.000000
0.695064 0.198398 0.000000
0.924559 0.000000 0.000000
1.000000 0.000000 0.000000
1.000000 0.000000 0.000000
0.143069 0.442969 0.338872
0.161135 0.437751 0.332280
0.213993 0.415106 0.309026
0.373754 0.418433 0.205173
0.696284 0.444404 0.000000
0.938231 0.400916 0.000000
1.000000 0.320165 0.000000
1.000000 0.000000 0.000000
0.256992 0.644068 0.496986
0.267399 0.640345 0.492531
0.304295 0.624140 0.475105
0.336431 0.606409 0.425544
0.560510 0.612604 0.310094
0.900664 0.647730 0.000000
1.000000 0.568719 0.000000
1.000000 0.467231 0.000000
0.415015 0.837797 0.663355
0.419257 0.835874 0.660609
0.437842 0.826993 0.648951
0.470832 0.808164 0.627893
0.507958 0.807980 0.552392
0.752804 0.810452 0.423163
1.000000 0.811612 0.190707
1.000000 0.675593 0.000000
0.693935 0.956786 0.832212
0.694911 0.956237 0.831052
0.699153 0.953735 0.826444
0.707759 0.948363 0.817624
0.720912 0.938933 0.804837
0.731868 0.948180 0.723476
0.899718 0.945129 0.593561
1.000000 0.900908 0.415015
0.902007 0.992676 0.945983
0.902281 0.992554 0.945769
0.903319 0.992096 0.944823
0.905486 0.991119 0.943084
0.908904 0.989410 0.940551
0.903593 0.990021 0.927398
0.908965 0.993347 0.891722
0.972534 0.992126 0.803037
0.000000 0.176242 0.265721
0.000000 0.157778 0.267063
0.278599 0.085145 0.259220
0.497627 0.000000 0.254887
0.717983 0.000000 0.227939
0.949706 0.000000 0.158480
1.000000 0.000000 0.000000
1.000000 0.000000 0.000000
0.000000 0.222690 0.271916
0.000000 0.215549 0.271916
0.280156 0.167788 0.268742
0.504265 0.000000 0.249119
0.724941 0.000000 0.207218
0.953735 0.000000 0.118990
1.000000 0.000000 0.000000
1.000000 0.000000 0.000000
0.000000 0.343877 0.304692
0.000000 0.342535 0.303960
0.292149 0.333471 0.314488
0.507561 0.303777 0.258244
0.733669 0.209171 0.203861
0.958190 0.000000 0.107729
1.000000 0.000000 0.000000
1.000000 0.000000 0.000000
0.166354 0.508904 0.418158
0.226871 0.507713 0.421820
0.354070 0.499550 0.431952
0.415686 0.486061 0.375311
0.724697 0.489357 0.252659
0.959808 0.419013 0.131289
1.000000 0.300664 0.000000
1.000000 0.000000 0.000000
0.307744 0.697932 0.564416
0.339513 0.696742 0.566796
0.414710 0.687831 0.566461
0.454200 0.658595 0.538964
0.589166 0.665064 0.443397
0.912413 0.682094 0.295964
1.000000 0.584863 0.000000
1.000000 0.459327 0.000000
0.503960 0.867430 0.720699
0.522271 0.866484 0.723384
0.544579 0.859922 0.716732
0.567498 0.844266 0.697810
0.581781 0.835630 0.644892
0.767666 0.839597 0.537682
1.000000 0.829801 0.384314
1.000000 0.685725 0.000000
0.756863 0.961913 0.866239
0.757717 0.961425 0.865354
0.760708 0.959411 0.861448
0.767025 0.955047 0.854154
0.777279 0.947234 0.843748
0.777249 0.952636 0.785824
0.903197 0.951476 0.680079
1.000000 0.911162 0.531090
0.916564 0.993011 0.954559
0.916777 0.992920 0.954345
0.917662 0.992523 0.953552
0.919463 0.991669 0.951934
0.922301 0.990173 0.949645
0.919493 0.989807 0.940795
0.922576 0.992889 0.912810
0.973449 0.992187 0.844968
0.000000 0.338445 0.503166
0.000000 0.332158 0.503349
0.263005 0.298405 0.505303
0.528344 0.216983 0.494636
0.762936 0.000000 0.474372
0.981292 0.000000 0.440284
1.000000 0.000000 0.384497
1.000000 0.000000 0.296513
0.000000 0.380377 0.505669
0.000000 0.375616 0.505699
0.272496 0.351232 0.507683
0.526726 0.278386 0.498848
0.763455 0.033845 0.475807
0.982574 0.000000 0.438361
1.000000 0.000000 0.379980
1.000000 0.000000 0.285740
0.000000 0.478859 0.516686
0.000000 0.477852 0.516594
0.301793 0.470436 0.516197
0.517449 0.431983 0.514000
0.763394 0.351843 0.484199
0.983093 0.187137 0.439155
1.000000 0.000000 0.376989
1.000000 0.000000 0.273045
0.000000 0.615564 0.555688
0.162539 0.614588 0.555413
0.349340 0.610773 0.554894
0.539544 0.599176 0.571466
0.753323 0.578058 0.508507
0.971618 0.509575 0.466682
1.000000 0.398047 0.408392
1.000000 0.108583 0.304204
0.311986 0.775509 0.658320
0.348455 0.774563 0.660304
0.464942 0.770535 0.669764
0.606378 0.760220 0.686244
0.650446 0.745296 0.633173
0.923766 0.744320 0.536309
1.000000 0.644190 0.452338
1.000000 0.515496 0.360082
0.558160 0.905272 0.782742
0.573938 0.904387 0.784756
0.632502 0.900969 0.793423
0.706081 0.893126 0.802121
0.725277 0.875242 0.782681
0.799954 0.880949 0.705318
1.000000 0.864042 0.598840
1.000000 0.726619 0.440528
0.788663 0.971069 0.892912
0.795377 0.970489 0.894499
0.821286 0.968383 0.900938
0.843107 0.964935 0.903075
0.849577 0.959442 0.895323
0.847807 0.958862 0.868559
0.914824 0.960327 0.801266
1.000000 0.930236 0.693538
0.927306 0.994415 0.962676
0.929320 0.994232 0.963287
0.937346 0.993469 0.965820
0.939635 0.992737 0.964904
0.941650 0.991608 0.962951
0.944610 0.989715 0.960571
0.942199 0.992493 0.941009
0.976043 0.992462 0.898497
0.000000 0.523888 0.741848
0.000000 0.520928 0.741970
0.241428 0.504601 0.743008
0.521263 0.457038 0.743587
0.777890 0.371954 0.730922
0.998291 0.220371 0.695888
1.000000 0.000000 0.634913
1.000000 0.000000 0.557794
0.000000 0.553552 0.743191
0.000000 0.550225 0.743282
0.263859 0.534997 0.743679
0.520897 0.489662 0.745174
0.776791 0.407599 0.733639
0.996429 0.281865 0.696834
1.000000 0.000000 0.636530
1.000000 0.000000 0.560266
0.000000 0.634546 0.749325
0.000000 0.632441 0.749264
0.304662 0.622827 0.749325
0.527916 0.598047 0.750576
0.769802 0.529412 0.743343
0.986908 0.445106 0.702693
1.000000 0.335943 0.645655
1.000000 0.000000 0.573419
0.000000 0.741512 0.761929
0.139071 0.740780 0.761715
0.362097 0.737850 0.761166
0.557122 0.730251 0.760006
0.752255 0.701839 0.758968
0.960418 0.648524 0.724575
1.000000 0.583368 0.682795
1.000000 0.473121 0.617029
0.351293 0.861357 0.789609
0.383551 0.860563 0.789731
0.490608 0.856992 0.790280
0.635645 0.849668 0.794614
0.783261 0.838041 0.812284
0.922271 0.824155 0.762448
1.000000 0.753750 0.719814
1.000000 0.651942 0.650629
0.622339 0.941314 0.850980
0.635218 0.940551 0.852415
0.685145 0.937407 0.858396
0.764340 0.931579 0.869902
0.846342 0.923674 0.884794
0.860624 0.917296 0.857053
1.000000 0.906096 0.793851
1.000000 0.808988 0.706172
0.818967 0.981445 0.921294
0.823545 0.981018 0.922118
0.841459 0.979309 0.925383
0.875486 0.976104 0.932677
0.909209 0.972168 0.939696
0.914733 0.966400 0.933043
0.935973 0.969299 0.899596
1.000000 0.952728 0.840848
0.928038 0.997040 0.967742
0.930053 0.996857 0.968261
0.938048 0.996063 0.970489
0.951415 0.994751 0.974365
0.960876 0.993500 0.976318
0.962768 0.992157 0.974334
0.961730 0.992676 0.965850
0.980407 0.993164 0.942962
0.000000 0.684443 0.918883
0.149477 0.683803 0.918761
0.374945 0.681117 0.918242
0.570214 0.673182 0.918639
0.747799 0.623774 0.918914
0.965118 0.547326 0.912596
1.000000 0.476204 0.851743
1.000000 0.395575 0.776883
0.134310 0.703456 0.918456
0.221134 0.702785 0.918334
0.396674 0.699763 0.917876
0.579675 0.692226 0.918029
0.749722 0.646998 0.918517
0.961913 0.573663 0.912718
1.000000 0.506828 0.853117
1.000000 0.430854 0.780331
0.301396 0.761563 0.917876
0.338628 0.761074 0.917754
0.455634 0.758663 0.917266
0.611627 0.754696 0.916289
0.760647 0.728206 0.916991
0.948791 0.666712 0.913054
1.000000 0.613062 0.860044
1.000000 0.549645 0.796597
0.420966 0.839567 0.918395
0.446113 0.839597 0.918242
0.534752 0.839292 0.917571
0.657099 0.836942 0.916594
0.791287 0.833310 0.915404
0.927489 0.793973 0.913848
1.000000 0.756313 0.877012
1.000000 0.704952 0.831144
0.541741 0.918853 0.921019
0.558556 0.918425 0.920928
0.620417 0.916777 0.920500
0.716121 0.913451 0.919738
0.819852 0.908629 0.918822
0.912444 0.898283 0.918334
1.000000 0.874998 0.902983
1.000000 0.838499 0.876860
0.716182 0.968475 0.923980
0.724941 0.967864 0.924285
0.757992 0.965576 0.925414
0.810941 0.961608 0.927703
0.871916 0.956573 0.932311
0.930480 0.950958 0.941192
0.986236 0.942596 0.920012
1.000000 0.906859 0.896544
0.859678 0.990112 0.951019
0.862821 0.989837 0.951476
0.875669 0.988678 0.953368
0.898375 0.986511 0.956939
0.926940 0.983612 0.961822
0.955688 0.980377 0.967681
0.960296 0.978607 0.958007
1.000000 0.971588 0.933837
0.941741 0.998901 0.978027
0.942779 0.998810 0.978241
0.947143 0.998322 0.979095
0.955047 0.997436 0.980621
0.966979 0.996063 0.983337
0.978546 0.994751 0.986206
0.979675 0.993530 0.984222
0.986114 0.994385 0.973785
0.607324 0.827939 0.988922
0.622004 0.829557 0.988617
0.676905 0.836118 0.987366
0.761929 0.848386 0.985168
0.836210 0.849729 0.984131
0.905089 0.813901 0.986328
1.000000 0.767391 0.986084
1.000000 0.726223 0.941161
0.622858 0.837583 0.988128
0.636500 0.838987 0.987823
0.687800 0.844846 0.986633
0.768917 0.856138 0.984527
0.842741 0.859464 0.983307
0.907042 0.825772 0.985412
1.000000 0.781125 0.985260
1.000000 0.741604 0.942290
0.667567 0.868162 0.985687
0.678553 0.869200 0.985473
0.721614 0.873472 0.984466
0.791745 0.882048 0.982574
0.865385 0.891539 0.980743
0.914824 0.865934 0.982391
1.000000 0.829526 0.982361
1.000000 0.796841 0.947173
0.724453 0.909331 0.982818
0.733089 0.909941 0.982666
0.766751 0.912383 0.981933
0.821256 0.916899 0.980591
0.881834 0.922454 0.979034
0.927306 0.915038 0.979187
0.993744 0.890288 0.979156
1.000000 0.868284 0.955505
0.783261 0.949889 0.980713
0.789151 0.949981 0.980621
0.811978 0.950256 0.980255
0.849393 0.950469 0.979675
0.896605 0.951568 0.978759
0.940673 0.952331 0.978027
0.982727 0.938598 0.977935
1.000000 0.925139 0.964660
0.839872 0.982147 0.980163
0.843503 0.981933 0.980133
0.857847 0.981079 0.980072
0.882536 0.979522 0.979889
0.914061 0.977325 0.979644
0.947784 0.975128 0.979339
0.977722 0.971618 0.979156
1.000000 0.964141 0.974060
0.903166 0.995972 0.979095
0.905089 0.995789 0.979187
0.912810 0.995087 0.979522
0.926879 0.993774 0.980255
0.945251 0.992065 0.981323
0.965026 0.990143 0.982910
0.982971 0.988342 0.985748
1.000000 0.984344 0.979004
0.958129 0.999878 0.987518
0.958862 0.999817 0.987640
0.961852 0.999512 0.988128
0.967376 0.998962 0.989044
0.974762 0.998169 0.990295
0.982879 0.997284 0.991760
0.990692 0.996368 0.993408
0.992096 0.996063 0.990723
0.885191 0.944762 1.000000
0.888548 0.945525 1.000000
0.901610 0.948669 1.000000
0.922789 0.953918 0.999268
0.946105 0.959716 0.998230
0.958221 0.954559 0.998657
0.977111 0.940887 0.999939
1.000000 0.923522 1.000000
0.888182 0.947021 1.000000
0.891417 0.947753 1.000000
0.903838 0.950622 1.000000
0.924407 0.955596 0.999084
0.947021 0.960998 0.998108
0.959472 0.956725 0.998413
0.977508 0.943664 0.999664
1.000000 0.926940 1.000000
0.897551 0.954620 0.999908
0.900328 0.955138 0.999786
0.911223 0.957366 0.999329
0.929534 0.961303 0.998535
0.950317 0.965820 0.997681
0.964019 0.964416 0.997650
0.978943 0.953643 0.998657
1.000000 0.939239 0.999329
0.909331 0.965209 0.998901
0.911650 0.965576 0.998810
0.920867 0.967071 0.998474
0.936522 0.969726 0.997864
0.955016 0.973053 0.997131
0.970764 0.974975 0.996704
0.981353 0.967407 0.997406
1.000000 0.956420 0.997894
0.922301 0.976989 0.997925
0.923796 0.977050 0.997894
0.929656 0.977295 0.997742
0.942443 0.978576 0.997375
0.958862 0.980591 0.996826
0.974365 0.982574 0.996338
0.984253 0.980011 0.996490
1.000000 0.972595 0.996765
0.939849 0.988861 0.997040
0.940887 0.988830 0.997009
0.944945 0.988739 0.996948
0.952514 0.988617 0.996857
0.962737 0.988373 0.996704
0.976440 0.989014 0.996368
0.987793 0.989624 0.996155
0.997833 0.985534 0.996246
0.956542 0.997498 0.996674
0.957244 0.997436 0.996643
0.960021 0.997192 0.996643
0.965209 0.996765 0.996612
0.972381 0.996185 0.996582
0.980560 0.995514 0.996521
0.989166 0.994934 0.996460
0.996368 0.994018 0.996399
0.975250 1.000000 0.995972
0.975616 1.000000 0.995972
0.977142 1.000000 0.996063
0.979950 0.999817 0.996216
0.983917 0.999420 0.996429
0.988525 0.998932 0.996704
0.993133 0.998505 0.997040
0.997192 0.998077 0.997650
