20 Preset/Russian Style/【3】LUT video cho PR-AE-FCPX/Lut Tone (6).cube
# Created by Adobe Lightroom plugin Export LUT (1.24.0)
# www.johnrellis.com/lightroom/exportlut.htm
# Preset: 俄罗斯情绪-素材江湖03
# Color profile: C:\Program Files (x86)\Common Files\Adobe\Color\Profiles\Recommended\VideoHD.icc
LUT_3D_SIZE 32
DOMAIN_MIN 0.0 0.0 0.0
DOMAIN_MAX 1.0 1.0 1.0
0.000000 0.000000 0.000000
0.000000 0.000000 0.000000
0.001984 0.000000 0.000000
0.010193 0.001068 0.000793
0.037873 0.001312 0.000214
0.089021 0.002594 0.000000
0.119173 0.006165 0.000000
0.155184 0.010407 0.000000
0.199252 0.015839 0.000000
0.248264 0.028840 0.000000
0.299992 0.052277 0.000000
0.354009 0.083070 0.000000
0.409247 0.102358 0.000000
0.462776 0.120119 0.000000
0.514031 0.138155 0.000000
0.566094 0.157626 0.000000
0.619348 0.178042 0.000000
0.672877 0.199405 0.000000
0.725490 0.219425 0.000000
0.775998 0.239597 0.000000
0.823636 0.258000 0.000000
0.867094 0.274937 0.000000
0.906676 0.289220 0.000000
0.943175 0.301884 0.000000
0.977264 0.313603 0.000000
1.000000 0.324559 0.000000
1.000000 0.334142 0.000000
1.000000 0.341222 0.000000
1.000000 0.346990 0.000000
1.000000 0.351354 0.000000
1.000000 0.354284 0.000000
1.000000 0.356054 0.000000
0.000000 0.001190 0.000000
0.000000 0.001190 0.000000
0.003265 0.000763 0.000000
0.010193 0.001068 0.000793
0.037171 0.002533 0.000061
0.088869 0.005982 0.000000
0.119142 0.009552 0.000000
0.155642 0.012360 0.000000
0.199649 0.019989 0.000000
0.248600 0.035157 0.000000
0.300053 0.060029 0.000000
0.354101 0.088808 0.000000
0.409369 0.105745 0.000000
0.462837 0.123110 0.000000
0.514000 0.140932 0.000000
0.566155 0.160281 0.000000
0.619409 0.180606 0.000000
0.672908 0.201297 0.000000
0.725490 0.221500 0.000000
0.775998 0.241215 0.000000
0.823545 0.259617 0.000000
0.867033 0.276005 0.000000
0.906584 0.289860 0.000000
0.943053 0.302556 0.000000
0.977173 0.314305 0.000000
1.000000 0.325017 0.000000
1.000000 0.334874 0.000000
1.000000 0.342077 0.000000
1.000000 0.347814 0.000000
1.000000 0.351934 0.000000
1.000000 0.355077 0.000000
1.000000 0.356634 0.000000
0.000000 0.003388 0.000671
0.001556 0.003174 0.000671
0.003540 0.002930 0.000671
0.011322 0.005432 0.000183
0.038849 0.009064 0.000000
0.089967 0.013489 0.000000
0.120058 0.019257 0.000000
0.156313 0.027649 0.000000
0.200778 0.039185 0.000000
0.249271 0.060151 0.000000
0.300603 0.086000 0.000000
0.354772 0.101320 0.000000
0.409705 0.118074 0.000000
0.462989 0.134615 0.000000
0.514183 0.151583 0.000000
0.566308 0.170016 0.000000
0.619532 0.189364 0.000000
0.672938 0.209476 0.000000
0.725368 0.228977 0.000000
0.775814 0.247837 0.000000
0.823239 0.264561 0.000000
0.866514 0.279545 0.000000
0.906157 0.292973 0.000000
0.942596 0.305425 0.000000
0.976684 0.316930 0.000000
1.000000 0.327459 0.000000
1.000000 0.337316 0.000000
1.000000 0.345830 0.000000
1.000000 0.351141 0.000000
1.000000 0.355352 0.000000
1.000000 0.358007 0.000000
1.000000 0.359564 0.000000
0.000000 0.014740 0.002564
0.000000 0.014496 0.002564
0.002747 0.015259 0.002380
0.015259 0.016114 0.002014
0.042054 0.020966 0.000855
0.090944 0.029969 0.000000
0.121828 0.040833 0.000000
0.158297 0.054353 0.000000
0.202701 0.077790 0.000000
0.251011 0.094697 0.000000
0.302281 0.108919 0.000000
0.355840 0.123445 0.000000
0.410803 0.138888 0.000000
0.463600 0.155032 0.000000
0.514580 0.170413 0.000000
0.566522 0.188083 0.000000
0.619593 0.204837 0.000000
0.672572 0.222171 0.000000
0.724849 0.239292 0.000000
0.775082 0.255863 0.000000
0.822477 0.271611 0.000000
0.865751 0.285954 0.000000
0.905394 0.299077 0.000000
0.941650 0.311009 0.000000
0.975799 0.322210 0.000000
1.000000 0.332464 0.000000
1.000000 0.342046 0.000000
1.000000 0.350744 0.000000
1.000000 0.358068 0.000000
1.000000 0.361700 0.000000
1.000000 0.364111 0.000000
1.000000 0.365301 0.000000
0.000000 0.045380 0.009796
0.000000 0.046601 0.008515
0.000000 0.047883 0.008179
0.015778 0.048280 0.007813
0.046296 0.050507 0.005768
0.090578 0.058991 0.003571
0.121035 0.073457 0.000000
0.160555 0.089418 0.000000
0.204837 0.101350 0.000000
0.252934 0.114229 0.000000
0.303532 0.127749 0.000000
0.357061 0.142794 0.000000
0.411200 0.157900 0.000000
0.463813 0.172885 0.000000
0.514488 0.187320 0.000000
0.565942 0.202853 0.000000
0.618891 0.218753 0.000000
0.671839 0.235203 0.000000
0.723842 0.251682 0.000000
0.774075 0.267521 0.000000
0.821378 0.282536 0.000000
0.864561 0.296147 0.000000
0.903838 0.308507 0.000000
0.940337 0.319768 0.000000
0.974426 0.330419 0.000000
1.000000 0.340276 0.000000
1.000000 0.349279 0.000000
1.000000 0.357549 0.000000
1.000000 0.364965 0.000000
1.000000 0.371588 0.000000
1.000000 0.373358 0.000000
1.000000 0.374243 0.000000
0.000000 0.090852 0.020508
0.000000 0.090791 0.019379
0.000000 0.091707 0.017731
0.009522 0.092042 0.017182
0.044739 0.092256 0.015290
0.090639 0.094484 0.012238
0.118349 0.098360 0.007843
0.157321 0.109255 0.000000
0.203738 0.123049 0.000000
0.255467 0.138277 0.000000
0.305364 0.151217 0.000000
0.358495 0.165621 0.000000
0.412024 0.180056 0.000000
0.463844 0.194003 0.000000
0.514061 0.207706 0.000000
0.565637 0.222080 0.000000
0.618036 0.237156 0.000000
0.670924 0.252659 0.000000
0.722805 0.268132 0.000000
0.772793 0.283024 0.000000
0.819883 0.297124 0.000000
0.862852 0.309941 0.000000
0.901884 0.321233 0.000000
0.938293 0.331975 0.000000
0.972564 0.341741 0.000000
1.000000 0.350927 0.000000
1.000000 0.359289 0.000000
1.000000 0.366949 0.000000
1.000000 0.373877 0.000000
1.000000 0.380041 0.000000
1.000000 0.385443 0.000000
1.000000 0.386206 0.000000
0.000000 0.118593 0.036896
0.000000 0.118776 0.036713
0.000000 0.119722 0.034943
0.000000 0.120516 0.031830
0.031495 0.120668 0.029725
0.089784 0.121645 0.025666
0.120912 0.125399 0.020417
0.153048 0.131014 0.013001
0.198825 0.145510 0.000000
0.249912 0.160922 0.000000
0.304509 0.176822 0.000000
0.360754 0.192996 0.000000
0.413245 0.206516 0.000000
0.464240 0.219394 0.000000
0.514092 0.231968 0.000000
0.565118 0.245335 0.000000
0.617487 0.259464 0.000000
0.670069 0.273930 0.000000
0.721523 0.288426 0.000000
0.771328 0.302281 0.000000
0.818082 0.315343 0.000000
0.860594 0.326940 0.000000
0.899351 0.337285 0.000000
0.935882 0.347112 0.000000
0.970245 0.356115 0.000000
1.000000 0.364599 0.000000
1.000000 0.372198 0.000000
1.000000 0.379095 0.000000
1.000000 0.385473 0.000000
1.000000 0.390967 0.000000
1.000000 0.395727 0.000000
1.000000 0.399878 0.000000
0.000000 0.153170 0.063172
0.000000 0.153506 0.061707
0.000000 0.154360 0.058656
0.000000 0.155978 0.050233
0.000000 0.155947 0.046815
0.081941 0.156008 0.042786
0.122286 0.158297 0.037476
0.157656 0.163333 0.030030
0.193301 0.168917 0.018372
0.243534 0.185092 0.000000
0.297063 0.201419 0.000000
0.354345 0.218723 0.000000
0.412207 0.235111 0.000000
0.464820 0.248264 0.000000
0.514214 0.259709 0.000000
0.565026 0.272038 0.000000
0.616938 0.285374 0.000000
0.669184 0.298833 0.000000
0.720394 0.312139 0.000000
0.769833 0.324956 0.000000
0.815946 0.337072 0.000000
0.857694 0.347356 0.000000
0.896422 0.356603 0.000000
0.933013 0.365332 0.000000
0.967346 0.373571 0.000000
0.999542 0.381079 0.000000
1.000000 0.387945 0.000000
1.000000 0.393988 0.000000
1.000000 0.399512 0.000000
1.000000 0.404395 0.000000
1.000000 0.408453 0.000000
1.000000 0.411994 0.000000
0.000000 0.192844 0.089235
0.000000 0.193088 0.088685
0.000000 0.193668 0.085786
0.000000 0.195377 0.077821
0.000000 0.195987 0.070161
0.035584 0.195956 0.064607
0.116518 0.195682 0.059754
0.158572 0.199496 0.050599
0.198001 0.205234 0.037781
0.236545 0.210636 0.023590
0.288609 0.226841 0.000000
0.345068 0.244419 0.000000
0.402319 0.260929 0.000000
0.457984 0.275792 0.000000
0.513451 0.290288 0.000000
0.565087 0.302464 0.000000
0.616663 0.314641 0.000000
0.668391 0.327184 0.000000
0.719112 0.339422 0.000000
0.768063 0.351202 0.000000
0.813046 0.361608 0.000000
0.854368 0.370764 0.000000
0.893034 0.379004 0.000000
0.929625 0.386694 0.000000
0.964050 0.393866 0.000000
0.996277 0.400427 0.000000
1.000000 0.406287 0.000000
1.000000 0.411627 0.000000
1.000000 0.416266 0.000000
1.000000 0.420203 0.000000
1.000000 0.423590 0.000000
1.000000 0.426215 0.000000
0.000000 0.234409 0.106905
0.000000 0.234562 0.106142
0.000000 0.235080 0.104829
0.000000 0.236393 0.100465
0.000000 0.237919 0.094759
0.000000 0.237522 0.092775
0.101961 0.237217 0.089967
0.153384 0.236851 0.086000
0.197360 0.242191 0.077302
0.239689 0.248386 0.061830
0.281865 0.254917 0.041230
0.334874 0.270695 0.010742
0.391272 0.287572 0.000000
0.446632 0.302617 0.000000
0.501640 0.316991 0.000000
0.558556 0.332006 0.000000
0.616236 0.347387 0.000000
0.667536 0.358801 0.000000
0.717586 0.369879 0.000000
0.765255 0.380133 0.000000
0.809659 0.389105 0.000000
0.850706 0.397040 0.000000
0.889311 0.404089 0.000000
0.925780 0.410895 0.000000
0.960204 0.416968 0.000000
0.992462 0.422431 0.000000
1.000000 0.427344 0.000000
1.000000 0.431617 0.000000
1.000000 0.435401 0.000000
1.000000 0.438483 0.000000
1.000000 0.440925 0.000000
1.000000 0.442817 0.000000
0.000000 0.276738 0.127382
0.000000 0.276890 0.127047
0.000000 0.277440 0.125673
0.000000 0.278508 0.122286
0.000000 0.280217 0.116884
0.000000 0.280552 0.113558
0.052583 0.280034 0.111086
0.144442 0.279667 0.107546
0.193362 0.280522 0.103548
0.239017 0.286717 0.098085
0.283482 0.293309 0.090547
0.327733 0.300694 0.074983
0.379034 0.314000 0.047364
0.433997 0.329473 0.011292
0.488441 0.343877 0.000000
0.545159 0.359197 0.000000
0.603143 0.374731 0.000000
0.660975 0.389868 0.000000
0.715114 0.402838 0.000000
0.762051 0.411719 0.000000
0.805966 0.419287 0.000000
0.846616 0.425910 0.000000
0.885130 0.432013 0.000000
0.921569 0.437507 0.000000
0.955962 0.442390 0.000000
0.988190 0.446906 0.000000
1.000000 0.450752 0.000000
1.000000 0.454108 0.000000
1.000000 0.456886 0.000000
1.000000 0.459052 0.000000
1.000000 0.460670 0.000000
1.000000 0.461646 0.000000
0.000000 0.320195 0.149538
0.000000 0.320317 0.149050
0.000000 0.320653 0.147982
0.000000 0.321569 0.145510
0.000000 0.322942 0.141238
0.000000 0.324071 0.136477
0.000000 0.323644 0.133761
0.126986 0.322881 0.130861
0.186496 0.322240 0.127352
0.234348 0.324407 0.123201
0.280705 0.330419 0.118135
0.325841 0.337194 0.111849
0.370947 0.344305 0.103456
0.420111 0.355566 0.094545
0.474311 0.370428 0.076936
0.530266 0.385779 0.029847
0.587518 0.401312 0.000000
0.645228 0.416602 0.000000
0.701717 0.430915 0.000000
0.755398 0.443458 0.000000
0.801877 0.451789 0.000000
0.842191 0.457130 0.000000
0.880583 0.461891 0.000000
0.916899 0.466316 0.000000
0.951202 0.470253 0.000000
0.983459 0.473579 0.000000
1.000000 0.476295 0.000000
1.000000 0.478706 0.000000
1.000000 0.480476 0.000000
1.000000 0.481697 0.000000
1.000000 0.482399 0.000000
1.000000 0.482521 0.000000
0.000000 0.361883 0.172793
0.000000 0.361975 0.172580
0.000000 0.362249 0.171542
0.000000 0.363043 0.169314
0.000000 0.364080 0.166110
0.000000 0.365515 0.161379
0.000000 0.365240 0.158389
0.097871 0.364538 0.155886
0.175113 0.363775 0.152743
0.227665 0.362799 0.148775
0.274968 0.366247 0.144930
0.320897 0.372290 0.140627
0.365911 0.378546 0.134981
0.410315 0.385077 0.128084
0.458167 0.394965 0.120974
0.513878 0.411017 0.110567
0.570825 0.427131 0.093690
0.628473 0.442847 0.046113
0.685206 0.457404 0.000000
0.739101 0.470161 0.000000
0.789334 0.480659 0.000000
0.836240 0.489357 0.000000
0.875669 0.493843 0.000000
0.911894 0.497047 0.000000
0.946136 0.499794 0.000000
0.978271 0.502098 0.000000
1.000000 0.503868 0.000000
1.000000 0.505150 0.000000
1.000000 0.506004 0.000000
1.000000 0.506310 0.000000
1.000000 0.506096 0.000000
1.000000 0.505303 0.000000
0.000000 0.401312 0.196384
0.000000 0.401373 0.196201
0.000000 0.401709 0.195407
0.000000 0.402197 0.193637
0.000000 0.403021 0.190982
0.000000 0.404303 0.187259
0.000000 0.404852 0.183474
0.001434 0.404028 0.181003
0.158633 0.403052 0.178073
0.218570 0.401892 0.174289
0.266514 0.400671 0.170016
0.313329 0.405371 0.166964
0.359014 0.411322 0.162966
0.403937 0.417975 0.157931
0.448890 0.425116 0.151583
0.496651 0.434760 0.144625
0.553460 0.451820 0.136110
0.610651 0.468269 0.123018
0.667475 0.483436 0.105287
0.721401 0.496376 0.078553
0.772244 0.507012 0.012970
0.820035 0.515984 0.000000
0.864866 0.523583 0.000000
0.906432 0.529412 0.000000
0.940551 0.530999 0.000000
0.972656 0.532311 0.000000
1.000000 0.533074 0.000000
1.000000 0.533349 0.000000
1.000000 0.533104 0.000000
1.000000 0.532555 0.000000
1.000000 0.531456 0.000000
1.000000 0.529870 0.000000
0.000000 0.439368 0.219242
0.000000 0.439490 0.219089
0.000000 0.439704 0.218570
0.000000 0.440131 0.217166
0.000000 0.440864 0.215152
0.000000 0.441871 0.212284
0.000000 0.443183 0.208560
0.000000 0.442451 0.206241
0.137423 0.441352 0.203311
0.207492 0.440253 0.199893
0.259556 0.439063 0.196139
0.305425 0.438514 0.191775
0.351476 0.444526 0.188846
0.397223 0.451118 0.185122
0.442573 0.458198 0.180117
0.488045 0.465797 0.174228
0.535058 0.474708 0.167422
0.592370 0.492470 0.161044
0.648768 0.508171 0.150851
0.702937 0.521721 0.139223
0.754177 0.532921 0.125795
0.802701 0.542443 0.109865
0.848600 0.550256 0.090517
0.891356 0.556573 0.042725
0.931121 0.561425 0.000000
0.966491 0.563989 0.000000
0.996582 0.563714 0.000000
1.000000 0.563165 0.000000
1.000000 0.562005 0.000000
1.000000 0.560540 0.000000
1.000000 0.558587 0.000000
1.000000 0.556115 0.000000
0.000000 0.477729 0.242313
0.000000 0.477821 0.242039
0.000000 0.478004 0.241581
0.000000 0.478431 0.240574
0.000000 0.479072 0.238926
0.000000 0.479957 0.236790
0.000000 0.481147 0.233707
0.000000 0.481361 0.230838
0.105409 0.480446 0.228305
0.193027 0.479377 0.225315
0.250858 0.478157 0.221683
0.299168 0.476814 0.217502
0.343999 0.477943 0.213596
0.390234 0.484443 0.210697
0.435615 0.491341 0.207004
0.481178 0.498848 0.202518
0.527245 0.506706 0.196719
0.572961 0.514427 0.190127
0.629267 0.531579 0.185458
0.683406 0.545739 0.177920
0.735195 0.557763 0.169589
0.784604 0.567956 0.160464
0.831357 0.576440 0.150973
0.875059 0.583124 0.140475
0.915831 0.588190 0.129397
0.953552 0.591943 0.116365
0.988251 0.594385 0.101991
1.000000 0.593988 0.065003
1.000000 0.592035 0.000000
1.000000 0.589776 0.000000
1.000000 0.587030 0.000000
1.000000 0.583886 0.000000
0.000000 0.516625 0.265293
0.000000 0.516594 0.264988
0.000000 0.516777 0.264714
0.000000 0.517144 0.263706
0.000000 0.517723 0.262272
0.000000 0.518547 0.260166
0.000000 0.519615 0.257389
0.000000 0.520714 0.253880
0.000000 0.519829 0.251499
0.170901 0.518700 0.248783
0.237980 0.517540 0.245548
0.290990 0.516228 0.241917
0.337072 0.514763 0.237613
0.381811 0.517510 0.234348
0.427924 0.524132 0.231327
0.473457 0.531182 0.227817
0.518883 0.538598 0.223423
0.564752 0.546288 0.218296
0.609400 0.553002 0.211856
0.663416 0.568353 0.208988
0.715755 0.581476 0.203311
0.765957 0.592554 0.197391
0.813474 0.601740 0.191196
0.858152 0.609003 0.184909
0.899779 0.614557 0.178317
0.938445 0.618555 0.171878
0.974182 0.621149 0.164797
1.000000 0.622431 0.156802
1.000000 0.622675 0.148409
1.000000 0.619867 0.132296
1.000000 0.616419 0.111818
1.000000 0.612634 0.078157
0.000000 0.554437 0.287358
0.000000 0.554437 0.287266
0.000000 0.554589 0.286900
0.000000 0.554894 0.286015
0.000000 0.555444 0.284642
0.000000 0.556146 0.282719
0.000000 0.557061 0.280064
0.000000 0.558221 0.276402
0.000000 0.558038 0.273533
0.137240 0.556878 0.270970
0.220401 0.555627 0.268132
0.279149 0.554253 0.264897
0.328801 0.552697 0.261082
0.373388 0.551049 0.256809
0.418524 0.555413 0.254093
0.464027 0.562036 0.251347
0.509270 0.568933 0.248020
0.554467 0.576104 0.243900
0.599725 0.583459 0.239322
0.644404 0.590448 0.233555
0.696040 0.603784 0.231754
0.746761 0.616052 0.227909
0.795132 0.626001 0.223667
0.840635 0.634028 0.219883
0.883238 0.640162 0.215885
0.922789 0.644587 0.211734
0.959442 0.647517 0.207523
0.993164 0.649104 0.203433
1.000000 0.649348 0.198489
1.000000 0.648646 0.193332
1.000000 0.646540 0.186252
1.000000 0.642145 0.173770
0.000000 0.590600 0.308843
0.000000 0.590661 0.308751
0.000000 0.590814 0.308354
0.000000 0.591058 0.307469
0.000000 0.591485 0.306340
0.000000 0.592126 0.304448
0.000000 0.592920 0.301915
0.000000 0.593957 0.298405
0.000000 0.594690 0.294743
0.060273 0.593622 0.292454
0.196872 0.592401 0.289921
0.263951 0.591028 0.287022
0.317967 0.589532 0.283543
0.365179 0.587915 0.279820
0.408331 0.586236 0.275792
0.454078 0.592309 0.273594
0.499306 0.598779 0.271031
0.544091 0.605463 0.268040
0.588830 0.612421 0.264591
0.633509 0.619501 0.260197
0.678065 0.626429 0.255314
0.727413 0.638056 0.253758
0.776486 0.649226 0.251804
0.822782 0.658106 0.249332
0.866209 0.664942 0.247074
0.906737 0.669947 0.244877
0.944244 0.673335 0.242802
0.978790 0.675227 0.240726
1.000000 0.675807 0.238224
1.000000 0.675257 0.235599
1.000000 0.673762 0.232395
1.000000 0.671260 0.228458
0.000000 0.626184 0.329961
0.000000 0.626215 0.329900
0.000000 0.626337 0.329473
0.000000 0.626581 0.328801
0.000000 0.626947 0.327550
0.000000 0.627497 0.325902
0.000000 0.628229 0.323491
0.000000 0.629114 0.320409
0.000000 0.630152 0.316533
0.000000 0.629664 0.313939
0.166812 0.628473 0.311498
0.245945 0.627222 0.308904
0.304967 0.625757 0.305760
0.355505 0.624170 0.302373
0.400916 0.622522 0.298680
0.443915 0.622400 0.295109
0.489204 0.628412 0.293187
0.533715 0.634607 0.290776
0.578058 0.641108 0.288212
0.622187 0.647639 0.285069
0.666224 0.654383 0.281376
0.710140 0.661067 0.277104
0.757351 0.671168 0.276066
0.804715 0.681270 0.276463
0.848905 0.688991 0.275944
0.890227 0.694728 0.275425
0.928557 0.698665 0.275029
0.963989 0.701076 0.274662
0.996551 0.702083 0.274418
1.000000 0.701930 0.273747
1.000000 0.700740 0.272923
1.000000 0.698512 0.271427
0.000000 0.660883 0.351080
0.000000 0.660945 0.350896
0.000000 0.661067 0.350530
0.000000 0.661280 0.349920
0.000000 0.661616 0.348852
0.000000 0.662043 0.347295
0.000000 0.662684 0.345281
0.000000 0.663386 0.342840
0.000000 0.664271 0.339940
0.000000 0.664668 0.337194
0.135073 0.663539 0.334874
0.229465 0.662287 0.332464
0.292943 0.660975 0.329564
0.345892 0.659480 0.326299
0.393439 0.657923 0.322911
0.436652 0.656306 0.319005
0.479377 0.657710 0.316136
0.523888 0.663508 0.314458
0.567742 0.669429 0.312657
0.611261 0.675502 0.310430
0.654566 0.681727 0.307866
0.697688 0.687984 0.304784
0.740627 0.694240 0.301244
0.786099 0.703120 0.300908
0.831418 0.712154 0.303471
0.873472 0.718746 0.304814
0.912657 0.723476 0.306126
0.948882 0.726558 0.307530
0.982269 0.728206 0.308995
1.000000 0.728573 0.310399
1.000000 0.727779 0.311528
1.000000 0.725978 0.312535
0.000000 0.694606 0.372564
0.000000 0.694636 0.372534
0.000000 0.694697 0.372320
0.000000 0.694850 0.371771
0.000000 0.695155 0.370947
0.000000 0.695460 0.369787
0.000000 0.695979 0.368444
0.000000 0.696590 0.366735
0.000000 0.697230 0.364630
0.000000 0.698024 0.362493
0.114260 0.697292 0.360540
0.219150 0.696162 0.358190
0.285313 0.694972 0.355505
0.339635 0.693568 0.352605
0.387610 0.692164 0.349248
0.431556 0.690639 0.345739
0.472877 0.688991 0.341741
0.515190 0.691920 0.339757
0.558465 0.697383 0.338659
0.601312 0.702998 0.337194
0.643824 0.708675 0.335454
0.685969 0.714412 0.333532
0.727932 0.720241 0.331121
0.769711 0.726040 0.328313
0.813535 0.734005 0.328496
0.856748 0.742092 0.333318
0.896727 0.747768 0.336400
0.933715 0.751614 0.339666
0.967895 0.753933 0.342931
0.999237 0.754910 0.346349
1.000000 0.754788 0.349706
1.000000 0.753628 0.353124
0.000000 0.726986 0.395483
0.000000 0.727016 0.395483
0.000000 0.727077 0.395300
0.000000 0.727230 0.394965
0.000000 0.727382 0.394476
0.000000 0.727718 0.393774
0.000000 0.728054 0.392889
0.000000 0.728481 0.391791
0.000000 0.729000 0.390784
0.000000 0.729641 0.389776
0.127016 0.729671 0.388617
0.222354 0.728664 0.386389
0.286076 0.727565 0.383886
0.339178 0.726345 0.381140
0.386267 0.725093 0.378180
0.429694 0.723690 0.374884
0.470741 0.722255 0.371252
0.509697 0.720729 0.367285
0.551385 0.724880 0.366247
0.593133 0.730007 0.365606
0.634607 0.735256 0.364813
0.675685 0.740597 0.363684
0.716609 0.745968 0.362341
0.757229 0.751369 0.360723
0.797696 0.756802 0.358709
0.839963 0.764096 0.359411
0.881010 0.771267 0.366644
0.918669 0.776120 0.371832
0.953582 0.779263 0.377020
0.985595 0.781094 0.382483
1.000000 0.781674 0.388128
1.000000 0.781308 0.394049
0.000000 0.758145 0.419928
0.000000 0.758145 0.419928
0.000000 0.758206 0.419837
0.000000 0.758297 0.419623
0.000000 0.758419 0.419409
0.000000 0.758663 0.419135
0.000000 0.758907 0.418860
0.000000 0.759182 0.418647
0.000000 0.759548 0.418402
0.000000 0.759976 0.418555
0.167208 0.760464 0.418891
0.242496 0.759640 0.417243
0.298741 0.758694 0.415045
0.347387 0.757656 0.412543
0.391852 0.756558 0.409674
0.433204 0.755337 0.406683
0.472786 0.754086 0.403388
0.510613 0.752804 0.399817
0.547478 0.751980 0.396307
0.587976 0.756680 0.396368
0.627985 0.761532 0.396216
0.667781 0.766506 0.395972
0.707332 0.771511 0.395483
0.746670 0.776547 0.394934
0.785794 0.781582 0.394110
0.824735 0.786648 0.393164
0.865446 0.793606 0.394232
0.904234 0.799954 0.403967
0.939757 0.804166 0.411322
0.972351 0.806851 0.419074
1.000000 0.808377 0.427192
1.000000 0.809049 0.436103
0.000000 0.787900 0.446204
0.000000 0.787930 0.446174
0.000000 0.787961 0.446174
0.000000 0.788022 0.446174
0.000000 0.788144 0.446296
0.000000 0.788235 0.446479
0.000000 0.788418 0.446754
0.000000 0.788663 0.447089
0.000000 0.788876 0.447608
0.114199 0.789212 0.448524
0.213596 0.789517 0.449744
0.275242 0.789334 0.449958
0.321782 0.788602 0.448066
0.364691 0.787747 0.445869
0.404852 0.786831 0.443366
0.443244 0.785824 0.440711
0.480323 0.784817 0.437781
0.516136 0.783719 0.434699
0.551019 0.782620 0.431312
0.586694 0.783169 0.429023
0.625116 0.787655 0.429603
0.663264 0.792233 0.430152
0.701228 0.796902 0.430671
0.738949 0.801602 0.431037
0.776547 0.806332 0.431312
0.813931 0.811124 0.431556
0.851133 0.815854 0.431525
0.890379 0.822690 0.433570
0.926757 0.828367 0.445624
0.959747 0.832242 0.456306
0.989685 0.834806 0.467231
1.000000 0.836606 0.479225
0.000000 0.816526 0.474525
0.000000 0.816556 0.474556
0.000000 0.816587 0.474647
0.000000 0.816617 0.474891
0.000000 0.816678 0.475196
0.000000 0.816800 0.475654
0.000000 0.816892 0.476356
0.000000 0.817044 0.477180
0.103914 0.817258 0.478431
0.200595 0.817441 0.479957
0.264195 0.817655 0.481941
0.316991 0.817929 0.484382
0.355077 0.817350 0.482918
0.391028 0.816678 0.481086
0.426368 0.815946 0.479042
0.460426 0.815213 0.476722
0.494331 0.814420 0.474342
0.527520 0.813626 0.471717
0.560082 0.812802 0.468879
0.592309 0.811948 0.465827
0.626612 0.813718 0.465003
0.662959 0.817990 0.466346
0.698939 0.822324 0.467597
0.734981 0.826749 0.469001
0.770779 0.831205 0.470375
0.806363 0.835691 0.471626
0.841978 0.840208 0.472938
0.877287 0.844694 0.474281
0.914519 0.851286 0.478065
0.948547 0.856809 0.492439
0.978668 0.860594 0.507256
1.000000 0.863584 0.522789
0.000000 0.844266 0.505150
0.000000 0.844297 0.505150
0.000000 0.844297 0.505333
0.000000 0.844327 0.505669
0.000000 0.844388 0.506188
0.000000 0.844419 0.506889
0.000000 0.844541 0.507927
0.156283 0.844633 0.509300
0.218967 0.844755 0.511070
0.270603 0.844877 0.513207
0.317418 0.845060 0.515862
0.361120 0.845243 0.519127
0.397131 0.845121 0.520348
0.426734 0.844663 0.518883
0.456367 0.844205 0.517235
0.486213 0.843656 0.515404
0.516014 0.843137 0.513512
0.545892 0.842588 0.511345
0.575616 0.842069 0.509178
0.605371 0.841581 0.506828
0.634974 0.841062 0.504356
0.667903 0.843839 0.505272
0.701839 0.847898 0.507378
0.735714 0.852049 0.509697
0.769497 0.856229 0.512108
0.803342 0.860502 0.514549
0.837034 0.864744 0.517144
0.870451 0.869078 0.519890
0.903593 0.873381 0.522789
0.938079 0.879606 0.528801
0.969543 0.885435 0.546746
0.995941 0.889433 0.566766
0.036164 0.871183 0.538384
0.044800 0.871183 0.538445
0.089723 0.871183 0.538628
0.120790 0.871214 0.539086
0.155489 0.871244 0.539849
0.191806 0.871275 0.540917
0.228275 0.871336 0.542351
0.264836 0.871397 0.544091
0.301579 0.871489 0.546380
0.338323 0.871611 0.549157
0.374884 0.871733 0.552453
0.411292 0.871855 0.556390
0.447211 0.872068 0.560876
0.471199 0.871794 0.559838
