20 Preset/Russian Style/【3】LUT video cho PR-AE-FCPX/Lut Tone (34).cube
# Created by Adobe Lightroom plugin Export LUT (1.24.0)
# www.johnrellis.com/lightroom/exportlut.htm
# Preset: 俄罗斯情绪-素材江湖17
# Color profile: C:\Program Files (x86)\Common Files\Adobe\Color\Profiles\Recommended\VideoHD.icc
LUT_3D_SIZE 32
DOMAIN_MIN 0.0 0.0 0.0
DOMAIN_MAX 1.0 1.0 1.0
0.000000 0.000000 0.000000
0.000000 0.000000 0.000000
0.000977 0.000977 0.000977
0.001953 0.001953 0.001953
0.003906 0.003906 0.003906
0.005859 0.005859 0.005859
0.008789 0.008789 0.008789
0.011719 0.011719 0.011719
0.015625 0.015625 0.015625
0.019532 0.019532 0.019532
0.025391 0.025391 0.025391
0.033204 0.033204 0.033204
0.041993 0.041993 0.041993
0.053712 0.053712 0.053712
0.067384 0.067384 0.067384
0.082460 0.082460 0.082460
0.092378 0.092378 0.092378
0.101076 0.101076 0.101076
0.110811 0.110811 0.110811
0.121218 0.121218 0.121218
0.132448 0.132448 0.132448
0.144381 0.144381 0.144381
0.156985 0.156985 0.156985
0.170565 0.170565 0.170565
0.185397 0.185397 0.185397
0.201389 0.201389 0.201389
0.218875 0.218875 0.218875
0.237888 0.237888 0.237888
0.258610 0.258610 0.258610
0.281071 0.281071 0.281071
0.305547 0.305547 0.305547
0.332433 0.332433 0.332433
0.000977 0.000977 0.000977
0.000977 0.000977 0.000977
0.000977 0.000977 0.000977
0.001953 0.001953 0.001953
0.003906 0.003906 0.003906
0.005859 0.005859 0.005859
0.008789 0.008789 0.008789
0.011719 0.011719 0.011719
0.015625 0.015625 0.015625
0.019532 0.019532 0.019532
0.025391 0.025391 0.025391
0.033204 0.033204 0.033204
0.041993 0.041993 0.041993
0.053712 0.053712 0.053712
0.068360 0.068360 0.068360
0.082460 0.082460 0.082460
0.092378 0.092378 0.092378
0.101411 0.101411 0.101411
0.111086 0.111086 0.111086
0.121462 0.121462 0.121462
0.132631 0.132631 0.132631
0.144564 0.144564 0.144564
0.157137 0.157137 0.157137
0.170718 0.170718 0.170718
0.185550 0.185550 0.185550
0.201633 0.201633 0.201633
0.218997 0.218997 0.218997
0.238071 0.238071 0.238071
0.258793 0.258793 0.258793
0.281285 0.281285 0.281285
0.305760 0.305760 0.305760
0.332555 0.332555 0.332555
0.003906 0.003906 0.003906
0.003906 0.003906 0.003906
0.003906 0.003906 0.003906
0.002930 0.002930 0.002930
0.004883 0.004883 0.004883
0.006836 0.006836 0.006836
0.009766 0.009766 0.009766
0.012696 0.012696 0.012696
0.016602 0.016602 0.016602
0.021485 0.021485 0.021485
0.027344 0.027344 0.027344
0.034180 0.034180 0.034180
0.043946 0.043946 0.043946
0.055665 0.055665 0.055665
0.070314 0.070314 0.070314
0.083680 0.083680 0.083680
0.093477 0.093477 0.093477
0.102327 0.102327 0.102327
0.111910 0.111910 0.111910
0.122164 0.122164 0.122164
0.133486 0.133486 0.133486
0.145327 0.145327 0.145327
0.157992 0.157992 0.157992
0.171633 0.171633 0.171633
0.186343 0.186343 0.186343
0.202335 0.202335 0.202335
0.219852 0.219852 0.219852
0.238834 0.238834 0.238834
0.259464 0.259464 0.259464
0.281956 0.281956 0.281956
0.306432 0.306432 0.306432
0.333318 0.333318 0.333318
0.010742 0.010742 0.010742
0.010742 0.010742 0.010742
0.010742 0.010742 0.010742
0.009766 0.009766 0.009766
0.008789 0.008789 0.008789
0.008789 0.008789 0.008789
0.011719 0.011719 0.011719
0.014649 0.014649 0.014649
0.018555 0.018555 0.018555
0.023438 0.023438 0.023438
0.029297 0.029297 0.029297
0.037110 0.037110 0.037110
0.046876 0.046876 0.046876
0.059571 0.059571 0.059571
0.074220 0.074220 0.074220
0.086763 0.086763 0.086763
0.095186 0.095186 0.095186
0.103883 0.103883 0.103883
0.113558 0.113558 0.113558
0.124086 0.124086 0.124086
0.135195 0.135195 0.135195
0.147219 0.147219 0.147219
0.159670 0.159670 0.159670
0.173281 0.173281 0.173281
0.187930 0.187930 0.187930
0.203983 0.203983 0.203983
0.221439 0.221439 0.221439
0.240421 0.240421 0.240421
0.260960 0.260960 0.260960
0.283452 0.283452 0.283452
0.307958 0.307958 0.307958
0.334752 0.334752 0.334752
0.025391 0.025391 0.025391
0.025391 0.025391 0.025391
0.025391 0.025391 0.025391
0.024414 0.024414 0.024414
0.022461 0.022461 0.022461
0.020508 0.020508 0.020508
0.018555 0.018555 0.018555
0.017578 0.017578 0.017578
0.021485 0.021485 0.021485
0.027344 0.027344 0.027344
0.033204 0.033204 0.033204
0.041993 0.041993 0.041993
0.052735 0.052735 0.052735
0.065431 0.065431 0.065431
0.079988 0.079988 0.079988
0.090211 0.090211 0.090211
0.097871 0.097871 0.097871
0.106844 0.106844 0.106844
0.116426 0.116426 0.116426
0.126864 0.126864 0.126864
0.138064 0.138064 0.138064
0.149783 0.149783 0.149783
0.162295 0.162295 0.162295
0.175753 0.175753 0.175753
0.190402 0.190402 0.190402
0.206455 0.206455 0.206455
0.223819 0.223819 0.223819
0.242741 0.242741 0.242741
0.263462 0.263462 0.263462
0.285801 0.285801 0.285801
0.310246 0.310246 0.310246
0.337072 0.337072 0.337072
0.054688 0.054688 0.054688
0.054688 0.054688 0.054688
0.053712 0.053712 0.053712
0.052735 0.052735 0.052735
0.049805 0.049805 0.049805
0.047852 0.047852 0.047852
0.043946 0.043946 0.043946
0.040040 0.040040 0.040040
0.037110 0.037110 0.037110
0.036133 0.036133 0.036133
0.040040 0.040040 0.040040
0.048829 0.048829 0.048829
0.060548 0.060548 0.060548
0.074220 0.074220 0.074220
0.086152 0.086152 0.086152
0.093843 0.093843 0.093843
0.102022 0.102022 0.102022
0.110811 0.110811 0.110811
0.120455 0.120455 0.120455
0.130678 0.130678 0.130678
0.141878 0.141878 0.141878
0.153536 0.153536 0.153536
0.165957 0.165957 0.165957
0.179355 0.179355 0.179355
0.194003 0.194003 0.194003
0.209995 0.209995 0.209995
0.227390 0.227390 0.227390
0.246220 0.246220 0.246220
0.266819 0.266819 0.266819
0.289158 0.289158 0.289158
0.313634 0.313634 0.313634
0.340429 0.340429 0.340429
0.092378 0.092378 0.092378
0.092378 0.092378 0.092378
0.092378 0.092378 0.092378
0.091646 0.091646 0.091646
0.090913 0.090913 0.090913
0.089845 0.089845 0.089845
0.088746 0.088746 0.088746
0.085542 0.085542 0.085542
0.081819 0.081819 0.081819
0.079988 0.079988 0.079988
0.079347 0.079347 0.079347
0.079988 0.079988 0.079988
0.081209 0.081209 0.081209
0.083680 0.083680 0.083680
0.091646 0.091646 0.091646
0.099214 0.099214 0.099214
0.107118 0.107118 0.107118
0.115908 0.115908 0.115908
0.125490 0.125490 0.125490
0.135836 0.135836 0.135836
0.146822 0.146822 0.146822
0.158328 0.158328 0.158328
0.170718 0.170718 0.170718
0.184176 0.184176 0.184176
0.198611 0.198611 0.198611
0.214664 0.214664 0.214664
0.231785 0.231785 0.231785
0.250675 0.250675 0.250675
0.271275 0.271275 0.271275
0.293584 0.293584 0.293584
0.317967 0.317967 0.317967
0.344762 0.344762 0.344762
0.121462 0.121462 0.121462
0.122164 0.122164 0.122164
0.121462 0.121462 0.121462
0.120974 0.120974 0.120943
0.120211 0.120211 0.120211
0.119478 0.119478 0.119478
0.118471 0.118471 0.118471
0.117464 0.117464 0.117464
0.116152 0.116152 0.116152
0.114076 0.114076 0.114076
0.112734 0.112734 0.112734
0.111910 0.111910 0.111910
0.111635 0.111635 0.111635
0.111635 0.111635 0.111635
0.112184 0.112184 0.112184
0.113008 0.113008 0.113008
0.114076 0.114076 0.114076
0.122164 0.122164 0.122164
0.131777 0.131777 0.131777
0.142061 0.142061 0.142061
0.152804 0.152804 0.152804
0.164218 0.164218 0.164218
0.176486 0.176486 0.176486
0.189914 0.189914 0.189914
0.204349 0.204349 0.204349
0.220157 0.220157 0.220157
0.237491 0.237491 0.237491
0.256260 0.256260 0.256260
0.276738 0.276738 0.276738
0.299107 0.299107 0.299107
0.323339 0.323339 0.323339
0.350195 0.350195 0.350195
0.159152 0.159152 0.159152
0.158999 0.158999 0.158999
0.158999 0.158999 0.158999
0.158663 0.158663 0.158663
0.157992 0.157992 0.157992
0.157473 0.157473 0.157473
0.156649 0.156649 0.156649
0.155612 0.155612 0.155612
0.154238 0.154238 0.154238
0.152651 0.152651 0.152651
0.150515 0.150515 0.150515
0.148684 0.148684 0.148684
0.147585 0.147585 0.147585
0.147005 0.147005 0.147005
0.146456 0.146456 0.146456
0.146273 0.146273 0.146273
0.146273 0.146273 0.146273
0.146639 0.146639 0.146639
0.146639 0.146639 0.146639
0.149233 0.149233 0.149233
0.160006 0.160006 0.160006
0.171328 0.171328 0.171328
0.183505 0.183505 0.183505
0.196750 0.196750 0.196750
0.211246 0.211246 0.211246
0.226993 0.226993 0.226993
0.244297 0.244297 0.244297
0.263035 0.263035 0.263035
0.283391 0.283391 0.283391
0.305638 0.305638 0.305638
0.330053 0.330053 0.330053
0.356725 0.356725 0.356725
0.201968 0.201968 0.201968
0.201877 0.201877 0.201877
0.201877 0.201877 0.201877
0.201633 0.201633 0.201633
0.200900 0.200900 0.200900
0.200412 0.200412 0.200412
0.199680 0.199680 0.199680
0.198611 0.198611 0.198611
0.197726 0.197726 0.197726
0.196139 0.196139 0.196139
0.194247 0.194247 0.194247
0.191592 0.191592 0.191592
0.189761 0.189761 0.189761
0.187930 0.187930 0.187930
0.186343 0.186343 0.186343
0.185275 0.185275 0.185275
0.184176 0.184176 0.184176
0.183505 0.183505 0.183505
0.182681 0.182681 0.182681
0.182406 0.182406 0.182406
0.181857 0.181857 0.181857
0.181582 0.181582 0.181582
0.191592 0.191592 0.191592
0.204807 0.204807 0.204807
0.219211 0.219211 0.219211
0.234897 0.234897 0.234897
0.252171 0.252171 0.252171
0.270878 0.270878 0.270878
0.291173 0.291173 0.291173
0.313390 0.313390 0.313390
0.337713 0.337713 0.337713
0.364477 0.364477 0.364477
0.248569 0.248569 0.248569
0.248386 0.248386 0.248386
0.248478 0.248478 0.248478
0.248020 0.248020 0.248020
0.247471 0.247471 0.247471
0.246952 0.246952 0.246952
0.246128 0.246128 0.246128
0.245121 0.245121 0.245121
0.243931 0.243931 0.243931
0.242466 0.242466 0.242466
0.240513 0.240513 0.240513
0.238346 0.238346 0.238346
0.235782 0.235782 0.235782
0.233158 0.233158 0.233158
0.230503 0.230503 0.230503
0.228611 0.228611 0.228611
0.226596 0.226596 0.226596
0.225071 0.225071 0.225071
0.223514 0.223514 0.223514
0.222049 0.222049 0.222049
0.220584 0.220584 0.220584
0.219211 0.219211 0.219211
0.218143 0.218143 0.218143
0.216190 0.216190 0.216190
0.228214 0.228214 0.228214
0.243931 0.243931 0.243931
0.261143 0.261143 0.261143
0.279789 0.279789 0.279789
0.300084 0.300084 0.300084
0.322240 0.322240 0.322240
0.346563 0.346563 0.346563
0.373266 0.373266 0.373266
0.297520 0.297520 0.297520
0.297368 0.297368 0.297368
0.296971 0.296971 0.296971
0.297093 0.297093 0.297093
0.296483 0.296483 0.296483
0.295933 0.295933 0.295933
0.294591 0.294591 0.294591
0.293523 0.293523 0.293523
0.292393 0.292393 0.292393
0.290959 0.290959 0.290959
0.289036 0.289036 0.289036
0.287205 0.287205 0.287205
0.284855 0.284855 0.284855
0.281651 0.281651 0.281651
0.278721 0.278721 0.278721
0.275731 0.275731 0.275731
0.273259 0.273259 0.273259
0.270329 0.270329 0.270329
0.268162 0.268162 0.268162
0.265415 0.265415 0.265415
0.263554 0.263554 0.263554
0.261387 0.261387 0.261387
0.258885 0.258885 0.258885
0.256748 0.256748 0.256748
0.253910 0.253910 0.253910
0.254276 0.254276 0.254276
0.271214 0.271214 0.271214
0.289830 0.289830 0.289830
0.310185 0.310185 0.310185
0.332311 0.332311 0.332311
0.356512 0.356512 0.356512
0.383246 0.383246 0.383246
0.348577 0.348577 0.348577
0.348516 0.348516 0.348516
0.348577 0.348577 0.348577
0.348028 0.348028 0.348028
0.347692 0.347692 0.347692
0.347082 0.347082 0.347082
0.346136 0.346136 0.346136
0.345220 0.345220 0.345220
0.344030 0.344030 0.344030
0.342321 0.342321 0.342321
0.340154 0.340154 0.340154
0.338079 0.338079 0.338079
0.335729 0.335729 0.335729
0.333196 0.333196 0.333196
0.329503 0.329503 0.329503
0.326116 0.326116 0.326116
0.322545 0.322545 0.322545
0.319097 0.319097 0.319097
0.315892 0.315892 0.315892
0.313176 0.313176 0.313176
0.310063 0.310063 0.310063
0.307286 0.307286 0.307286
0.304540 0.304540 0.304540
0.301030 0.301030 0.301030
0.297368 0.297368 0.297368
0.293248 0.293248 0.293248
0.288151 0.288151 0.288151
0.301091 0.301091 0.301091
0.321233 0.321233 0.321233
0.343420 0.343420 0.343420
0.367651 0.367651 0.367651
0.394476 0.394476 0.394476
0.401617 0.401617 0.401617
0.401526 0.401526 0.401526
0.401740 0.401740 0.401740
0.401160 0.401160 0.401160
0.400641 0.400641 0.400641
0.400092 0.400092 0.400092
0.399268 0.399268 0.399268
0.397803 0.397803 0.397803
0.396490 0.396490 0.396490
0.394781 0.394781 0.394781
0.392889 0.392889 0.392889
0.390997 0.390997 0.390997
0.388678 0.388678 0.388678
0.386145 0.386145 0.386145
0.383185 0.383185 0.383185
0.379370 0.379370 0.379370
0.375372 0.375372 0.375372
0.371527 0.371527 0.371527
0.367529 0.367529 0.367529
0.364019 0.364019 0.364019
0.360357 0.360357 0.360357
0.356786 0.356786 0.356786
0.353307 0.353307 0.353307
0.349371 0.349371 0.349371
0.344884 0.344884 0.344884
0.339971 0.339971 0.339971
0.333928 0.333928 0.333928
0.327031 0.327031 0.327031
0.333562 0.333562 0.333562
0.355718 0.355718 0.355718
0.380102 0.380102 0.380102
0.406622 0.406622 0.406622
0.454292 0.454292 0.454292
0.454261 0.454261 0.454261
0.454170 0.454170 0.454170
0.453681 0.453681 0.453681
0.453254 0.453254 0.453254
0.452827 0.452827 0.452827
0.451911 0.451911 0.451911
0.450904 0.450904 0.450904
0.449348 0.449348 0.449348
0.447852 0.447852 0.447852
0.446235 0.446235 0.446235
0.444221 0.444221 0.444221
0.441993 0.441993 0.441993
0.439612 0.439612 0.439612
0.436530 0.436530 0.436530
0.433692 0.433692 0.433692
0.429664 0.429664 0.429664
0.425635 0.425635 0.425635
0.421363 0.421363 0.421363
0.417243 0.417243 0.417243
0.413123 0.413123 0.413123
0.409033 0.409033 0.409033
0.405127 0.405127 0.405127
0.400824 0.400824 0.400824
0.395666 0.395666 0.395666
0.389960 0.389960 0.389960
0.383429 0.383429 0.383429
0.376074 0.376074 0.376074
0.366827 0.366827 0.366827
0.369146 0.369146 0.369146
0.393591 0.393591 0.393591
0.419593 0.419593 0.419593
0.505272 0.505272 0.505272
0.505211 0.505211 0.505211
0.505119 0.505119 0.505119
0.504753 0.504753 0.504753
0.504326 0.504326 0.504326
0.503716 0.503716 0.503716
0.503014 0.503014 0.503014
0.502190 0.502190 0.502190
0.501061 0.501061 0.501061
0.499580 0.499580 0.499580
0.497902 0.497902 0.497902
0.495949 0.495949 0.495949
0.493843 0.493843 0.493843
0.491646 0.491646 0.491646
0.488685 0.488685 0.488685
0.486091 0.486091 0.486091
0.482765 0.482765 0.482765
0.478889 0.478889 0.478889
0.474586 0.474586 0.474586
0.470314 0.470314 0.470314
0.465980 0.465980 0.465980
0.461707 0.461707 0.461707
0.457649 0.457649 0.457649
0.452827 0.452827 0.452827
0.447852 0.447852 0.447852
0.442054 0.442054 0.442054
0.435706 0.435706 0.435706
0.427771 0.427771 0.427771
0.418433 0.418433 0.418433
0.407385 0.407385 0.407385
0.407904 0.407904 0.407904
0.433295 0.433295 0.433295
0.554528 0.554528 0.554528
0.554406 0.554406 0.554406
0.554345 0.554345 0.554345
0.553979 0.553979 0.553979
0.553704 0.553704 0.553704
0.553033 0.553033 0.553033
0.552361 0.552361 0.552361
0.551598 0.551598 0.551598
0.550500 0.550500 0.550500
0.549218 0.549218 0.549218
0.547631 0.547631 0.547631
0.545983 0.545983 0.545983
0.543938 0.543938 0.543938
0.541833 0.541833 0.541833
0.539300 0.539300 0.539300
0.536522 0.536522 0.536522
0.533471 0.533471 0.533471
0.530419 0.530419 0.530419
0.526635 0.526635 0.526635
0.522393 0.522393 0.522393
0.517998 0.517998 0.517998
0.513603 0.513603 0.513603
0.509209 0.509209 0.509209
0.504509 0.504509 0.504509
0.499367 0.499367 0.499367
0.493812 0.493812 0.493812
0.487251 0.487251 0.487251
0.479438 0.479438 0.479438
0.470680 0.470680 0.470680
0.459602 0.459602 0.459602
0.446082 0.446082 0.446082
0.447761 0.447761 0.447761
0.602045 0.602045 0.602045
0.601984 0.601984 0.601984
0.601923 0.601923 0.601923
0.601587 0.601587 0.601587
0.601190 0.601190 0.601190
0.600793 0.600793 0.600793
0.600244 0.600244 0.600244
0.599237 0.599237 0.599237
0.598199 0.598199 0.598199
0.596948 0.596948 0.596948
0.595544 0.595544 0.595544
0.594079 0.594079 0.594079
0.592248 0.592248 0.592248
0.590112 0.590112 0.590112
0.587884 0.587884 0.587884
0.585565 0.585565 0.585565
0.582666 0.582666 0.582666
0.579706 0.579706 0.579706
0.576593 0.576593 0.576593
0.572747 0.572747 0.572747
0.568719 0.568719 0.568719
0.564416 0.564416 0.564416
0.559777 0.559777 0.559777
0.555291 0.555291 0.555291
0.550317 0.550317 0.550317
0.544610 0.544610 0.544610
0.538048 0.538048 0.538048
0.530694 0.530694 0.530694
0.521996 0.521996 0.521996
0.511467 0.511467 0.511467
0.498207 0.498207 0.498207
0.481666 0.481666 0.481666
0.647700 0.647700 0.647700
0.647669 0.647669 0.647669
0.647669 0.647669 0.647669
0.647364 0.647364 0.647364
0.647150 0.647150 0.647150
0.646662 0.646662 0.646662
0.646143 0.646143 0.646143
0.645167 0.645167 0.645167
0.644282 0.644282 0.644282
0.643214 0.643214 0.643214
0.641932 0.641932 0.641932
0.640742 0.640742 0.640742
0.638880 0.638880 0.638880
0.637110 0.637110 0.637110
0.635279 0.635279 0.635279
0.633051 0.633051 0.633051
0.630518 0.630518 0.630518
0.627741 0.627741 0.627741
0.624781 0.624781 0.624781
0.621363 0.621363 0.621363
0.617670 0.617670 0.617670
0.613367 0.613367 0.613367
0.608972 0.608972 0.608972
0.604456 0.604456 0.604456
0.599390 0.599390 0.599390
0.594049 0.594049 0.594049
0.587884 0.587884 0.587884
0.580987 0.580987 0.580987
0.572351 0.572351 0.572351
0.561761 0.561761 0.561761
0.548943 0.548943 0.548943
0.532921 0.532921 0.532921
0.692622 0.692622 0.692622
0.692500 0.692500 0.692500
0.692317 0.692317 0.692317
0.692287 0.692287 0.692287
0.691951 0.691951 0.691951
0.691646 0.691646 0.691646
0.690974 0.690974 0.690974
0.690394 0.690394 0.690394
0.689662 0.689662 0.689662
0.688563 0.688563 0.688563
0.687434 0.687434 0.687434
0.686275 0.686275 0.686275
0.684688 0.684688 0.684688
0.683040 0.683040 0.683040
0.681331 0.681331 0.681331
0.679225 0.679225 0.679225
0.676875 0.676875 0.676875
0.674006 0.674006 0.674006
0.671260 0.671260 0.671260
0.667933 0.667933 0.667933
0.664485 0.664485 0.664485
0.660670 0.660670 0.660670
0.656428 0.656428 0.656428
0.652094 0.652094 0.652094
0.647395 0.647395 0.647395
0.642145 0.642145 0.642145
0.636194 0.636194 0.636194
0.629206 0.629206 0.629206
0.620905 0.620905 0.620905
0.610498 0.610498 0.610498
0.597986 0.597986 0.597986
0.582269 0.582269 0.582269
0.734707 0.734707 0.734707
0.734707 0.734707 0.734707
0.734524 0.734524 0.734524
0.734493 0.734493 0.734493
0.734188 0.734188 0.734188
0.733822 0.733822 0.733822
0.733242 0.733242 0.733242
0.732753 0.732753 0.732753
0.732052 0.732052 0.732052
0.731258 0.731258 0.731258
0.730251 0.730251 0.730251
0.729213 0.729213 0.729213
0.727687 0.727687 0.727687
0.726131 0.726131 0.726131
0.724575 0.724575 0.724575
0.722499 0.722499 0.722499
0.720363 0.720363 0.720363
0.717769 0.717769 0.717769
0.715114 0.715114 0.715114
0.711971 0.711971 0.711971
0.708675 0.708675 0.708675
0.705043 0.705043 0.705043
0.701015 0.701015 0.701015
0.696925 0.696925 0.696925
0.692622 0.692622 0.692622
0.687709 0.687709 0.687709
0.681819 0.681819 0.681819
0.674830 0.674830 0.674830
0.666682 0.666682 0.666682
0.656641 0.656641 0.656641
0.644282 0.644282 0.644282
0.629297 0.629297 0.629297
0.774136 0.774136 0.774136
0.774136 0.774136 0.774136
0.774105 0.774105 0.774105
0.773953 0.773953 0.773953
0.773770 0.773770 0.773770
0.773465 0.773465 0.773465
0.773159 0.773159 0.773159
0.772641 0.772641 0.772641
0.771847 0.771847 0.771847
0.771145 0.771145 0.771145
0.770260 0.770260 0.770260
0.769192 0.769192 0.769192
0.767880 0.767880 0.767880
0.766476 0.766476 0.766476
0.764736 0.764736 0.764736
0.762997 0.762997 0.762997
0.760922 0.760922 0.760922
0.758694 0.758694 0.758694
0.756161 0.756161 0.756161
0.753292 0.753292 0.753292
0.750149 0.750149 0.750149
0.746761 0.746761 0.746761
0.742947 0.742947 0.742947
0.738857 0.738857 0.738857
0.734707 0.734707 0.734707
0.729976 0.729976 0.729976
0.724361 0.724361 0.724361
0.717739 0.717739 0.717739
0.709682 0.709682 0.709682
0.700069 0.700069 0.700069
0.688380 0.688380 0.688380
0.674037 0.674037 0.674037
0.810483 0.810483 0.810483
0.810422 0.810422 0.810422
0.810422 0.810422 0.810422
0.810330 0.810330 0.810330
0.810178 0.810178 0.810178
0.809964 0.809964 0.809964
0.809537 0.809537 0.809537
0.808988 0.808988 0.808988
0.808377 0.808377 0.808377
0.807706 0.807706 0.807706
0.806851 0.806851 0.806851
0.805875 0.805875 0.805875
0.804654 0.804654 0.804654
0.803250 0.803250 0.803250
0.801907 0.801907 0.801907
0.800198 0.800198 0.800198
0.798398 0.798398 0.798398
0.796292 0.796292 0.796292
0.793881 0.793881 0.793881
0.791287 0.791287 0.791287
0.788479 0.788479 0.788479
0.785245 0.785245 0.785245
0.781735 0.781735 0.781735
0.777676 0.777676 0.777676
0.773159 0.773159 0.773159
0.768521 0.768521 0.768521
0.763180 0.763180 0.763180
0.757107 0.757107 0.757107
0.749538 0.749538 0.749538
0.740414 0.740414 0.740414
0.729580 0.729580 0.729580
0.715999 0.715999 0.715999
0.843046 0.843046 0.843046
0.843107 0.843107 0.843107
0.843015 0.843015 0.843015
0.842924 0.842924 0.842924
0.842802 0.842802 0.842802
0.842588 0.842588 0.842588
0.842313 0.842313 0.842313
0.841855 0.841855 0.841855
0.841306 0.841306 0.841306
0.840665 0.840665 0.840665
0.839872 0.839872 0.839872
0.838956 0.838956 0.838956
0.837949 0.837949 0.837949
0.836728 0.836728 0.836728
0.835325 0.835325 0.835325
0.833799 0.833799 0.833799
0.832090 0.832090 0.832090
0.830198 0.830198 0.830198
0.828061 0.828061 0.828061
0.825711 0.825711 0.825711
0.823026 0.823026 0.823026
0.819974 0.819974 0.819974
0.816464 0.816464 0.816464
0.812558 0.812558 0.812558
0.808103 0.808103 0.808103
0.803220 0.803220 0.803220
0.798032 0.798032 0.798032
0.792355 0.792355 0.792355
0.785367 0.785367 0.785367
0.777066 0.777066 0.777066
0.766873 0.766873 0.766873
0.754543 0.754543 0.754543
0.872038 0.872038 0.872038
0.872007 0.872007 0.872007
0.872007 0.872007 0.872007
0.871916 0.871916 0.871916
0.871855 0.871855 0.871855
0.871702 0.871702 0.871702
0.871397 0.871397 0.871397
0.870970 0.870970 0.870970
0.870420 0.870420 0.870420
0.869841 0.869841 0.869841
0.869169 0.869169 0.869169
0.868376 0.868376 0.868376
0.867491 0.867491 0.867491
0.866423 0.866423 0.866423
0.865141 0.865141 0.865141
0.863828 0.863828 0.863828
0.862272 0.862272 0.862272
0.860502 0.860502 0.860502
0.858488 0.858488 0.858488
0.856138 0.856138 0.856138
0.853513 0.853513 0.853513
0.850523 0.850523 0.850523
0.847196 0.847196 0.847196
0.843381 0.843381 0.843381
0.839170 0.839170 0.839170
0.834440 0.834440 0.834440
0.829099 0.829099 0.829099
0.823636 0.823636 0.823636
0.817350 0.817350 0.817350
0.809812 0.809812 0.809812
0.800656 0.800656 0.800656
0.789273 0.789273 0.789273
0.897185 0.897185 0.897185
0.897185 0.897185 0.897185
0.897154 0.897154 0.897154
0.897154 0.897154 0.897154
0.897093 0.897093 0.897093
0.896971 0.896971 0.896971
0.896635 0.896635 0.896635
0.896269 0.896269 0.896269
0.895872 0.895872 0.895872
0.895354 0.895354 0.895354
0.894743 0.894743 0.894743
0.894011 0.894011 0.894011
0.893187 0.893187 0.893187
0.892180 0.892180 0.892180
0.891081 0.891081 0.891081
0.889738 0.889738 0.889738
0.888304 0.888304 0.888304
0.886534 0.886534 0.886534
0.884611 0.884611 0.884611
0.882322 0.882322 0.882322
0.879881 0.879881 0.879881
0.877043 0.877043 0.877043
0.873869 0.873869 0.873869
0.870268 0.870268 0.870268
0.866331 0.866331 0.866331
0.861784 0.861784 0.861784
0.856840 0.856840 0.856840
0.851255 0.851255 0.851255
0.845274 0.845274 0.845274
0.838560 0.838560 0.838560
0.830289 0.830289 0.830289
0.820035 0.820035 0.820035
0.918700 0.918700 0.918700
0.918700 0.918700 0.918700
0.918639 0.918639 0.918639
0.918669 0.918669 0.918669
0.918639 0.918639 0.918639
0.918425 0.918425 0.918425
0.918181 0.918181 0.918181
0.917845 0.917845 0.917845
0.917479 0.917479 0.917479
0.916991 0.916960 0.916960
0.916411 0.916411 0.916411
0.915709 0.915709 0.915709
0.914916 0.914916 0.914916
0.913939 0.913939 0.913939
0.912871 0.912871 0.912871
0.911620 0.911620 0.911620
0.910216 0.910216 0.910216
0.908598 0.908598 0.908598
0.906798 0.906798 0.906798
0.904723 0.904723 0.904723
0.902342 0.902342 0.902342
0.899779 0.899779 0.899779
0.896757 0.896757 0.896757
0.893462 0.893462 0.893462
0.889738 0.889738 0.889738
0.885527 0.885527 0.885527
0.880827 0.880827 0.880827
0.875669 0.875669 0.875669
0.869810 0.869810 0.869810
0.863462 0.863462 0.863462
0.856107 0.856107 0.856107
0.846921 0.846921 0.846921
0.936339 0.936339 0.936339
0.936309 0.936309 0.936309
0.936309 0.936309 0.936309
0.936309 0.936309 0.936309
0.936248 0.936248 0.936248
0.936065 0.936065 0.936065
0.935851 0.935851 0.935851
0.935546 0.935546 0.935546
0.935180 0.935180 0.935180
0.934722 0.934722 0.934722
0.934173 0.934173 0.934173
0.933501 0.933501 0.933501
0.932738 0.932738 0.932738
0.931884 0.931884 0.931884
