20 Preset/Russian Style/【3】LUT video cho PR-AE-FCPX/Lut Tone (2).cube
# Created by Adobe Lightroom plugin Export LUT (1.24.0)
# www.johnrellis.com/lightroom/exportlut.htm
# Preset: 俄罗斯情绪-素材江湖01
# Color profile: C:\Program Files (x86)\Common Files\Adobe\Color\Profiles\Recommended\VideoHD.icc
LUT_3D_SIZE 8
DOMAIN_MIN 0.000000 0.000000 0.000000
DOMAIN_MAX 0.903226 0.903226 0.903226
0.012085 0.012696 0.014954
0.110353 0.001495 0.013581
0.297581 0.005280 0.000000
0.526574 0.000000 0.000000
0.733883 0.151797 0.000000
0.896941 0.277806 0.000000
1.000000 0.371191 0.000000
1.000000 0.436408 0.000000
0.023896 0.082856 0.070283
0.113008 0.092805 0.051026
0.305882 0.112245 0.000000
0.527031 0.134066 0.000000
0.730861 0.208560 0.000000
0.890532 0.306157 0.000000
1.000000 0.386725 0.000000
1.000000 0.446815 0.000000
0.064424 0.199649 0.161196
0.135988 0.210147 0.157565
0.320439 0.237949 0.118318
0.551904 0.273960 0.000000
0.743252 0.328008 0.000000
0.894285 0.398016 0.000000
1.000000 0.459663 0.000000
1.000000 0.497688 0.000000
0.164492 0.379400 0.298589
0.207675 0.385901 0.298100
0.335760 0.402197 0.278813
0.543389 0.437079 0.230777
0.754025 0.480812 0.139101
0.899626 0.507927 0.000000
1.000000 0.534966 0.000000
1.000000 0.560845 0.000000
0.282597 0.548333 0.440650
0.309117 0.551904 0.440772
0.399145 0.563745 0.434913
0.537987 0.576196 0.403876
0.717769 0.600763 0.360754
0.875090 0.622705 0.311803
0.993744 0.637659 0.229953
1.000000 0.644160 0.000000
0.419165 0.683009 0.569512
0.436988 0.686427 0.571618
0.497749 0.694057 0.572992
0.586999 0.701472 0.559594
0.704829 0.706203 0.522026
0.845792 0.721523 0.494789
0.964202 0.736049 0.472633
1.000000 0.741085 0.434119
0.568933 0.795163 0.690486
0.578637 0.796506 0.691341
0.614527 0.800504 0.692897
0.670527 0.806516 0.689540
0.743801 0.810849 0.672541
0.838712 0.814054 0.640253
0.937011 0.821195 0.628168
1.000000 0.824979 0.621118
0.714260 0.890440 0.793515
0.719814 0.890898 0.794064
0.742733 0.893065 0.796567
0.780819 0.897459 0.800473
0.815732 0.899596 0.792844
0.866361 0.903624 0.779416
0.932952 0.906096 0.758114
0.989471 0.903471 0.756283
0.025788 0.057557 0.090761
0.101228 0.071107 0.093935
0.300481 0.081697 0.039551
0.520745 0.135195 0.000000
0.726131 0.223972 0.000000
0.885863 0.318700 0.000000
1.000000 0.392187 0.000000
1.000000 0.447852 0.000000
0.049958 0.102846 0.113405
0.117220 0.112367 0.117250
0.309209 0.130068 0.092226
0.526329 0.168551 0.000000
0.727871 0.247105 0.000000
0.884428 0.340215 0.000000
0.998383 0.407355 0.000000
1.000000 0.457984 0.000000
0.114382 0.221775 0.200443
0.161410 0.232670 0.202182
0.325109 0.257389 0.173770
0.548089 0.289036 0.105135
0.738460 0.336461 0.000000
0.887877 0.398566 0.000000
1.000000 0.458259 0.000000
1.000000 0.503929 0.000000
0.188602 0.388495 0.321691
0.225193 0.394903 0.322240
0.342687 0.412909 0.308659
0.537713 0.441962 0.265110
0.741756 0.481209 0.197299
0.887388 0.507591 0.000000
0.998871 0.534417 0.000000
1.000000 0.559686 0.000000
0.295598 0.552880 0.454780
0.320043 0.555993 0.454810
0.405035 0.567803 0.450507
0.536736 0.578698 0.420630
0.711666 0.600977 0.379309
0.868315 0.623102 0.336370
0.987884 0.638788 0.266819
1.000000 0.645869 0.110994
0.424109 0.683284 0.575921
0.439521 0.685237 0.576532
0.498848 0.692927 0.578271
0.586999 0.701320 0.567529
0.702419 0.706630 0.531853
0.842588 0.722377 0.506432
0.960906 0.737179 0.485847
1.000000 0.742489 0.449165
0.568627 0.793912 0.692317
0.577203 0.794491 0.692409
0.612543 0.798459 0.693904
0.669154 0.805051 0.691737
0.742458 0.810391 0.676417
0.836179 0.813596 0.644892
0.934234 0.820462 0.632136
1.000000 0.824552 0.625025
0.711604 0.889220 0.793454
0.717830 0.889982 0.794369
0.740658 0.892088 0.796750
0.779965 0.896666 0.801266
0.818112 0.901274 0.796841
0.866819 0.904601 0.782986
0.932128 0.906554 0.761074
0.988617 0.903960 0.759030
0.055543 0.141817 0.197848
0.124178 0.151308 0.204807
0.288396 0.168917 0.221927
0.539635 0.176577 0.181979
0.735714 0.258061 0.114107
0.889403 0.353063 0.000000
1.000000 0.425788 0.000000
1.000000 0.482185 0.000000
0.113008 0.181155 0.227665
0.158724 0.190097 0.232212
0.304601 0.208194 0.245640
0.538170 0.224796 0.207340
0.733669 0.290227 0.147768
0.886137 0.371313 0.000000
1.000000 0.435096 0.000000
1.000000 0.487526 0.000000
0.164858 0.282933 0.298528
0.206638 0.290471 0.302007
0.332250 0.318883 0.307378
0.545281 0.346654 0.280491
0.737057 0.389410 0.231357
0.885435 0.437842 0.136690
0.998993 0.482033 0.000000
1.000000 0.517754 0.000000
0.239658 0.428748 0.397803
0.272526 0.435859 0.401648
0.371588 0.459693 0.406928
0.542229 0.483009 0.376501
0.740017 0.517906 0.343145
0.880613 0.539818 0.289097
0.993133 0.562921 0.199252
1.000000 0.580560 0.000000
0.342687 0.576532 0.508751
0.362799 0.579614 0.509697
0.436072 0.592798 0.512169
0.550256 0.606500 0.494026
0.712123 0.624140 0.461433
0.862821 0.644526 0.434455
0.978943 0.658534 0.390234
1.000000 0.664302 0.314885
0.456855 0.695583 0.610803
0.470619 0.697383 0.611780
0.522881 0.704189 0.614405
0.601770 0.713954 0.609522
0.704952 0.719478 0.580804
0.837797 0.733913 0.558618
0.953460 0.749538 0.545068
1.000000 0.755825 0.517052
0.584771 0.800687 0.712184
0.592767 0.801328 0.712398
0.625391 0.804776 0.713771
0.680995 0.811887 0.714656
0.747768 0.817472 0.702358
0.835172 0.820615 0.674006
0.930571 0.828000 0.662989
1.000000 0.833524 0.659052
0.715023 0.891417 0.801419
0.720302 0.891722 0.801755
0.742611 0.893767 0.803952
0.782437 0.898650 0.808896
0.821225 0.903655 0.806851
0.867582 0.907622 0.795499
0.930175 0.910033 0.775113
0.985565 0.907836 0.772885
0.131991 0.261570 0.353094
0.182681 0.271824 0.358221
0.293309 0.304051 0.378454
0.496895 0.330816 0.394629
0.732815 0.345708 0.358221
0.880888 0.410559 0.309636
0.992554 0.470771 0.249271
1.000000 0.513939 0.099062
0.183902 0.300053 0.376684
0.220432 0.307469 0.380011
0.317998 0.335607 0.396368
0.504662 0.355749 0.408881
0.732052 0.372747 0.372717
0.878599 0.429786 0.326055
0.990356 0.484230 0.269261
1.000000 0.523308 0.142061
0.243656 0.380957 0.426947
0.274327 0.387366 0.429847
0.368658 0.410651 0.439948
0.526482 0.428626 0.449866
0.727047 0.456580 0.421118
0.872129 0.498238 0.387121
0.986206 0.538079 0.343175
1.000000 0.561303 0.242618
0.302617 0.493172 0.499641
0.327153 0.496712 0.501061
0.411231 0.512474 0.508324
0.541650 0.541009 0.511803
0.722988 0.565515 0.495094
0.860746 0.586755 0.468818
0.974731 0.607141 0.428260
1.000000 0.619165 0.353552
0.393591 0.611749 0.580652
0.411505 0.614710 0.582330
0.478004 0.627741 0.589929
0.575891 0.647822 0.594446
0.710018 0.660487 0.570581
0.852934 0.680446 0.558160
0.962951 0.691707 0.530144
1.000000 0.695521 0.481605
0.508843 0.717830 0.664698
0.521386 0.720394 0.666682
0.562646 0.725948 0.669368
0.632105 0.737942 0.673243
0.715175 0.745174 0.656031
0.832609 0.756191 0.636591
0.942565 0.772274 0.630030
1.000000 0.778531 0.610376
0.606531 0.811368 0.742672
0.614374 0.812314 0.743313
0.645045 0.816129 0.745449
0.698482 0.823575 0.749111
0.760006 0.831388 0.744930
0.834562 0.834104 0.721370
0.924071 0.840696 0.710079
0.996857 0.847837 0.708827
0.719142 0.896178 0.815579
0.724514 0.896605 0.815976
0.746487 0.898466 0.817838
0.784695 0.902586 0.821622
0.827359 0.908385 0.823972
0.868986 0.912932 0.815885
0.926238 0.915770 0.797696
0.980529 0.914641 0.795132
0.241642 0.406226 0.508568
0.273289 0.413184 0.511589
0.368994 0.441505 0.524010
0.472450 0.469673 0.542229
0.670405 0.493568 0.553826
0.856870 0.501061 0.523583
0.970092 0.544884 0.491585
1.000000 0.581659 0.453895
0.276066 0.431922 0.522210
0.302312 0.437842 0.524804
0.387823 0.461036 0.534508
0.483680 0.486732 0.550896
0.673304 0.506676 0.560906
0.854856 0.515129 0.531243
0.968109 0.555810 0.500542
1.000000 0.589746 0.463081
0.339147 0.495125 0.557122
0.358312 0.498848 0.558618
0.427863 0.513512 0.563958
0.517815 0.538476 0.578180
0.681788 0.550591 0.584649
0.845670 0.562768 0.558068
0.959838 0.594995 0.532891
1.000000 0.619104 0.495216
0.391882 0.569970 0.602228
0.408850 0.572869 0.603479
0.471992 0.585290 0.609247
0.567224 0.607874 0.619654
0.700008 0.619318 0.624201
0.837491 0.638331 0.608148
0.949828 0.658228 0.587457
1.000000 0.667933 0.546319
0.462013 0.656275 0.657801
0.475380 0.658198 0.658808
0.526146 0.665827 0.662501
0.605432 0.680476 0.670039
0.703792 0.698909 0.670222
0.834257 0.715419 0.662837
0.941192 0.725765 0.644282
1.000000 0.728908 0.610101
0.543603 0.735958 0.711513
0.553338 0.737453 0.712490
0.589654 0.742916 0.715663
0.649836 0.754177 0.721920
0.723537 0.769406 0.724483
0.824338 0.779629 0.709194
0.930907 0.797116 0.707820
1.000000 0.801022 0.690455
0.626490 0.822904 0.775937
0.632288 0.823392 0.776028
0.656611 0.826169 0.777035
0.705135 0.833036 0.780453
0.769680 0.843809 0.785153
0.831846 0.848936 0.771145
0.915038 0.855039 0.758907
0.986725 0.863828 0.758724
0.706050 0.899168 0.829587
0.711879 0.899535 0.829862
0.735500 0.901305 0.831327
0.777829 0.905882 0.835172
0.827237 0.912322 0.839902
0.870207 0.919005 0.838651
0.919310 0.921569 0.823239
0.973816 0.921965 0.818692
0.371283 0.546593 0.645167
0.390417 0.550866 0.646845
0.456825 0.565087 0.650935
0.546502 0.595361 0.666621
0.635401 0.611780 0.676448
0.795163 0.630488 0.681117
0.936522 0.636164 0.664149
1.000000 0.671992 0.653101
0.388098 0.557305 0.648585
0.404425 0.560296 0.649500
0.465248 0.573144 0.653437
0.554070 0.603021 0.667842
0.637018 0.618006 0.678126
0.794339 0.635431 0.683009
0.934051 0.641657 0.666529
1.000000 0.676204 0.655787
0.439246 0.599725 0.670924
0.452186 0.601923 0.671504
0.502525 0.611627 0.674403
0.581781 0.633387 0.682338
0.655329 0.650172 0.693721
0.798825 0.662104 0.697841
0.929656 0.670161 0.682918
1.000000 0.698726 0.672602
0.494545 0.653040 0.699611
0.505882 0.654871 0.700099
0.550439 0.663508 0.703059
0.619989 0.679377 0.709224
0.690211 0.699367 0.721309
0.810239 0.706111 0.723934
0.924956 0.717617 0.712245
1.000000 0.736507 0.700984
0.549035 0.710414 0.732113
0.558068 0.711727 0.732601
0.592767 0.717464 0.734890
0.650629 0.728542 0.739773
0.721645 0.744686 0.746914
0.820188 0.752499 0.748928
0.920165 0.766964 0.741756
1.000000 0.775570 0.726497
0.607782 0.771878 0.769253
0.615106 0.773251 0.770077
0.640711 0.776913 0.771633
0.685847 0.784268 0.774960
0.745388 0.796109 0.780575
0.821592 0.811429 0.781186
0.919341 0.825132 0.778531
0.993591 0.827329 0.763455
0.666896 0.840360 0.812985
0.671962 0.841215 0.813413
0.690883 0.843748 0.814359
0.728939 0.849363 0.816770
0.781582 0.858762 0.820890
0.838773 0.870146 0.822385
0.908019 0.875700 0.810636
0.977203 0.886320 0.811368
0.727810 0.907836 0.853239
0.731197 0.908019 0.853178
0.746456 0.909209 0.853361
0.775753 0.912200 0.854124
0.819699 0.917388 0.856168
0.872435 0.925780 0.860655
0.913970 0.930510 0.852415
0.966461 0.932372 0.846036
0.517266 0.667750 0.754330
0.529412 0.670893 0.755581
0.570306 0.679469 0.757229
0.635431 0.699062 0.764096
0.697169 0.716335 0.774014
0.778073 0.728023 0.780087
0.890196 0.743984 0.780941
0.979583 0.750301 0.770840
0.522576 0.670954 0.753872
0.534325 0.674067 0.755306
0.573327 0.682155 0.756985
0.635584 0.699611 0.762539
0.696407 0.716732 0.772366
0.774655 0.727413 0.777829
0.886503 0.741787 0.778164
0.977142 0.747311 0.767544
0.556512 0.697169 0.766598
0.564874 0.698756 0.766903
0.597436 0.704555 0.767666
0.653681 0.717159 0.770443
0.712551 0.735225 0.780117
0.781827 0.745815 0.785916
0.889097 0.759243 0.787533
0.976532 0.766506 0.779232
0.596399 0.733669 0.784756
0.602716 0.734340 0.784634
0.629480 0.738338 0.784939
0.679530 0.748592 0.787411
0.741817 0.767544 0.794186
0.796597 0.778683 0.801755
0.893523 0.787808 0.802823
0.973571 0.795132 0.795346
0.630152 0.770962 0.802243
0.634730 0.770993 0.801755
0.656641 0.773587 0.801846
0.697719 0.780362 0.803464
0.755550 0.792721 0.806638
0.810391 0.809384 0.814969
0.895293 0.815335 0.816007
0.970794 0.827512 0.812619
0.671962 0.814847 0.823453
0.676631 0.815579 0.823697
0.695186 0.818173 0.824399
0.729061 0.823423 0.825925
0.775967 0.831662 0.828305
0.833158 0.845945 0.833341
0.903807 0.854612 0.835904
0.969390 0.866209 0.833036
0.721462 0.862974 0.847135
0.725582 0.863798 0.847501
0.740047 0.865721 0.848020
0.767636 0.869993 0.849363
0.805570 0.876463 0.851316
0.850950 0.886473 0.854917
0.903166 0.898802 0.855711
0.966949 0.906859 0.853208
0.771389 0.917540 0.875425
0.774166 0.917967 0.875547
0.786191 0.920043 0.876341
0.806516 0.923033 0.877104
0.835447 0.927428 0.877989
0.873899 0.933776 0.879698
0.915312 0.942260 0.881254
0.959197 0.945281 0.874235
0.668940 0.777890 0.839872
0.675380 0.779568 0.840238
0.697292 0.783871 0.840085
0.738399 0.794766 0.841428
0.788815 0.814603 0.846738
0.825834 0.823301 0.850950
0.885649 0.831907 0.854093
0.949981 0.847471 0.853391
0.669642 0.778836 0.839414
0.676051 0.780545 0.839841
0.698268 0.785245 0.840055
0.738430 0.795254 0.841001
0.788327 0.814755 0.846281
0.825711 0.823941 0.850645
0.884520 0.832181 0.853666
0.949218 0.847532 0.853117
0.681636 0.789822 0.842924
0.687037 0.790982 0.843107
0.707362 0.794949 0.843107
0.747097 0.805478 0.844846
0.793881 0.821897 0.848508
0.831144 0.832212 0.852903
0.885588 0.840665 0.856229
0.949126 0.854795 0.856107
0.697139 0.807706 0.849424
0.702388 0.808896 0.849668
0.721584 0.812528 0.849790
0.757229 0.820859 0.850767
0.802548 0.834104 0.852781
0.842252 0.848386 0.858274
0.889006 0.857359 0.862058
0.949920 0.869261 0.862486
0.713924 0.830961 0.858152
0.717922 0.831724 0.858335
0.731350 0.833097 0.858061
0.763516 0.839322 0.858579
0.807828 0.849943 0.859678
0.855070 0.867674 0.864134
0.892576 0.877531 0.869291
0.950347 0.885557 0.869322
0.744503 0.862882 0.869841
0.746700 0.862913 0.869657
0.757229 0.863676 0.869291
0.779416 0.866514 0.869261
0.812650 0.872038 0.869841
0.861448 0.886076 0.872770
0.901549 0.902281 0.878782
0.951873 0.907012 0.878569
0.784787 0.900328 0.884031
0.786984 0.900603 0.884031
0.796231 0.901762 0.884062
0.813809 0.904112 0.884123
0.839445 0.907897 0.884337
0.871641 0.913542 0.884855
0.909606 0.922972 0.886381
0.953307 0.929931 0.887938
0.817777 0.931975 0.895048
0.819364 0.932128 0.895018
0.826841 0.933165 0.895140
0.841947 0.935637 0.895598
0.863554 0.939269 0.896239
0.890379 0.944244 0.897185
0.921172 0.951049 0.898863
0.952422 0.958953 0.899962
