20 Preset/Russian Style/【3】LUT video cho PR-AE-FCPX/Lut Tone (13).cube
# Created by Adobe Lightroom plugin Export LUT (1.24.0)
# www.johnrellis.com/lightroom/exportlut.htm
# Preset: 俄罗斯情绪-素材江湖07
# Color profile: C:\Program Files (x86)\Common Files\Adobe\Color\Profiles\Recommended\VideoHD.icc
LUT_3D_SIZE 5
DOMAIN_MIN 0.000000 0.000000 0.000000
DOMAIN_MAX 0.903226 0.903226 0.903226
0.000000 0.000000 0.000000
0.217105 0.036622 0.026459
0.593561 0.000000 0.045777
0.894865 0.000000 0.106905
1.000000 0.000000 0.175448
0.000000 0.266972 0.000000
0.156191 0.256016 0.031678
0.561151 0.232212 0.089631
0.874022 0.143709 0.133577
1.000000 0.115602 0.200412
0.000000 0.592462 0.000000
0.000000 0.589593 0.000000
0.468971 0.564813 0.137514
0.798611 0.538109 0.236667
1.000000 0.522698 0.298192
0.000000 0.829984 0.224308
0.000000 0.828305 0.231724
0.377691 0.820890 0.259739
0.725826 0.795285 0.338170
0.971862 0.797330 0.427161
0.298039 0.995880 0.458717
0.363439 0.994720 0.462470
0.541222 0.989868 0.478950
0.751400 0.979828 0.515312
0.940948 0.964080 0.588434
0.000000 0.090700 0.231632
0.235264 0.084230 0.224125
0.605676 0.000000 0.221988
0.893523 0.000000 0.250767
1.000000 0.000000 0.295109
0.000000 0.282628 0.221897
0.229740 0.282658 0.229953
0.584344 0.278080 0.242588
0.874937 0.257237 0.268620
1.000000 0.274022 0.312108
0.000000 0.596429 0.241611
0.000000 0.593408 0.249210
0.508354 0.572412 0.288151
0.806394 0.555688 0.336217
1.000000 0.548730 0.374609
0.000000 0.830228 0.331273
0.000000 0.828611 0.335576
0.440406 0.821653 0.352911
0.742824 0.798703 0.408331
0.974304 0.803586 0.481025
0.377966 0.994537 0.510369
0.426947 0.993408 0.513756
0.576898 0.988739 0.527947
0.766873 0.979461 0.558953
0.944732 0.964660 0.625391
0.000000 0.163912 0.548730
0.141878 0.170352 0.542901
0.607843 0.136812 0.525841
0.890959 0.216037 0.495460
1.000000 0.315251 0.510857
0.000000 0.356970 0.539818
0.234287 0.327825 0.538750
0.609186 0.325658 0.525536
0.881041 0.352605 0.508721
1.000000 0.408270 0.528161
0.000000 0.609644 0.513420
0.268681 0.608667 0.516777
0.596124 0.600031 0.533806
0.838895 0.601495 0.548486
1.000000 0.611109 0.568383
0.229374 0.835416 0.530785
0.354681 0.833371 0.541894
0.582818 0.826383 0.569665
0.792142 0.811856 0.595636
0.983001 0.823392 0.638575
0.509087 0.992340 0.649683
0.558373 0.990387 0.661494
0.663874 0.986114 0.671534
0.809262 0.978882 0.691920
0.954589 0.966857 0.741146
0.000000 0.277775 0.808865
0.000000 0.286046 0.805661
0.554589 0.304936 0.794339
0.879515 0.318608 0.778927
1.000000 0.417914 0.751766
0.000000 0.399023 0.802396
0.257359 0.401587 0.800107
0.579339 0.406836 0.791501
0.876890 0.414343 0.778653
1.000000 0.488136 0.759487
0.336492 0.656428 0.790799
0.426825 0.657588 0.789517
0.619806 0.630915 0.788571
0.862669 0.631769 0.781186
1.000000 0.661494 0.785916
0.393591 0.847715 0.772549
0.458625 0.846586 0.774472
0.637903 0.842557 0.782589
0.844266 0.836027 0.802945
0.999298 0.844388 0.821256
0.531395 0.995880 0.798978
0.570459 0.994385 0.803494
0.698909 0.988434 0.822202
0.860563 0.978729 0.861479
0.964874 0.971344 0.886748
0.280552 0.450263 1.000000
0.374792 0.454047 1.000000
0.609644 0.467018 0.996307
0.870298 0.488045 0.989899
1.000000 0.533776 0.983093
0.370397 0.519646 0.997436
0.437964 0.521874 0.996643
0.636988 0.530419 0.993378
0.874815 0.545892 0.987823
1.000000 0.581720 0.981994
0.582483 0.730770 0.985016
0.598413 0.720394 0.985626
0.691249 0.696925 0.986328
0.878813 0.701930 0.982940
1.000000 0.719936 0.979522
0.594781 0.894743 0.978973
0.626398 0.893645 0.978882
0.736141 0.889433 0.978637
0.871489 0.868620 0.980255
0.998718 0.878233 0.978851
0.681422 0.996338 0.971221
0.704555 0.995087 0.971679
0.787198 0.990295 0.973693
0.897856 0.983398 0.977752
0.979522 0.979980 0.984894
