20 Preset/Russian Style/【3】LUT video cho PR-AE-FCPX/Lut Tone (29).cube
# Created by Adobe Lightroom plugin Export LUT (1.24.0)
# www.johnrellis.com/lightroom/exportlut.htm
# Preset: 俄罗斯情绪-素材江湖15
# Color profile: C:\Program Files (x86)\Common Files\Adobe\Color\Profiles\Recommended\VideoHD.icc
LUT_3D_SIZE 5
DOMAIN_MIN 0.000000 0.000000 0.000000
DOMAIN_MAX 0.903226 0.903226 0.903226
0.000000 0.000000 0.000000
0.173312 0.000000 0.000000
0.548150 0.000000 0.000000
0.964385 0.000000 0.000000
1.000000 0.000000 0.000000
0.000092 0.161044 0.117067
0.142428 0.151186 0.059205
0.564996 0.159060 0.000000
0.974548 0.000000 0.000000
1.000000 0.000000 0.000000
0.144472 0.520562 0.387091
0.203220 0.503441 0.368170
0.456580 0.496162 0.201785
0.987945 0.504875 0.000000
1.000000 0.309697 0.000000
0.446418 0.872190 0.691554
0.460151 0.865751 0.682338
0.507958 0.836790 0.645197
0.795193 0.848356 0.428595
1.000000 0.736019 0.000000
0.898039 0.992584 0.943664
0.898985 0.992187 0.942779
0.903258 0.990234 0.939452
0.898283 0.991089 0.916716
0.972320 0.992157 0.791165
0.000000 0.142458 0.210208
0.219669 0.066773 0.204471
0.595209 0.000000 0.189303
0.992676 0.000000 0.000000
1.000000 0.000000 0.000000
0.000000 0.275151 0.243442
0.231662 0.267002 0.250858
0.609339 0.168185 0.160250
0.997772 0.000000 0.000000
1.000000 0.000000 0.000000
0.247898 0.582696 0.469459
0.340215 0.574182 0.470954
0.488258 0.554101 0.365881
1.000000 0.520714 0.000000
1.000000 0.322332 0.000000
0.550011 0.894133 0.747372
0.559167 0.888914 0.739254
0.595575 0.864073 0.709041
0.804990 0.869810 0.534386
1.000000 0.747280 0.083009
0.912078 0.992889 0.951873
0.912902 0.992523 0.951110
0.916472 0.990784 0.948089
0.913481 0.990753 0.931090
0.973083 0.992157 0.832334
0.000000 0.430915 0.623804
0.152255 0.414130 0.624903
0.653346 0.297551 0.613001
1.000000 0.000000 0.556481
1.000000 0.000000 0.433539
0.000000 0.533135 0.632013
0.231632 0.522606 0.631983
0.648951 0.437598 0.626276
1.000000 0.212009 0.560906
1.000000 0.000000 0.437293
0.146639 0.751339 0.681086
0.348516 0.748196 0.680903
0.667781 0.730617 0.701289
1.000000 0.662776 0.609583
1.000000 0.457099 0.486152
0.647120 0.941558 0.840574
0.690425 0.938720 0.847257
0.808347 0.928038 0.868009
0.855192 0.920867 0.804257
1.000000 0.808743 0.609369
0.927977 0.995666 0.965148
0.935363 0.994934 0.967315
0.950561 0.993042 0.970733
0.954314 0.990448 0.966796
0.977996 0.992767 0.922179
0.264897 0.720943 0.945129
0.409003 0.721523 0.944457
0.680964 0.710597 0.943755
0.990906 0.601892 0.940185
1.000000 0.495979 0.825467
0.380896 0.773617 0.943297
0.475502 0.773404 0.942718
0.713588 0.773281 0.941100
0.978058 0.682338 0.938964
1.000000 0.591638 0.838071
0.554559 0.893400 0.941619
0.611749 0.893309 0.941100
0.775509 0.892821 0.939117
0.943145 0.869505 0.937255
1.000000 0.815061 0.889128
0.781003 0.979400 0.943633
0.802243 0.977783 0.944427
0.869749 0.972351 0.947662
0.949706 0.964843 0.957580
1.000000 0.937865 0.928588
0.945983 0.999207 0.980682
0.949645 0.998840 0.981323
0.962829 0.997345 0.983825
0.982116 0.995117 0.988312
0.987610 0.994781 0.979217
0.885191 0.944762 1.000000
0.897368 0.947631 1.000000
0.934417 0.956786 0.998749
0.961639 0.951873 0.998901
1.000000 0.923522 1.000000
0.894804 0.952300 1.000000
0.905364 0.954528 0.999695
0.938689 0.961944 0.998230
0.965454 0.959808 0.998077
1.000000 0.935454 0.999664
0.914641 0.970703 0.998444
0.922545 0.971771 0.998199
0.948394 0.975494 0.997284
0.975738 0.978912 0.996429
1.000000 0.964782 0.997284
0.944182 0.991363 0.996887
0.947570 0.991241 0.996826
0.960174 0.990814 0.996674
0.980102 0.990753 0.996338
0.997284 0.988098 0.996216
0.975250 1.000000 0.995972
0.976654 1.000000 0.996033
0.981811 0.999634 0.996307
0.989685 0.998810 0.996796
0.997192 0.998077 0.997650
