20 Preset/Russian Style/【3】LUT video cho PR-AE-FCPX/Lut Tone (25).cube
# Created by Adobe Lightroom plugin Export LUT (1.24.0)
# www.johnrellis.com/lightroom/exportlut.htm
# Preset: 俄罗斯情绪-素材江湖13
# Color profile: C:\Program Files (x86)\Common Files\Adobe\Color\Profiles\Recommended\VideoHD.icc
LUT_3D_SIZE 32
DOMAIN_MIN 0.0 0.0 0.0
DOMAIN_MAX 1.0 1.0 1.0
0.000000 0.002167 0.004242
0.000000 0.002167 0.004242
0.001068 0.001953 0.005371
0.005035 0.001495 0.005341
0.011963 0.001801 0.006287
0.028840 0.001007 0.007202
0.059327 0.000000 0.009186
0.095033 0.000000 0.008515
0.118502 0.000000 0.009979
0.146914 0.000000 0.009796
0.184176 0.000000 0.010040
0.227298 0.000000 0.008576
0.275242 0.000000 0.005951
0.326848 0.000000 0.003449
0.380438 0.000000 0.000000
0.434913 0.000000 0.000000
0.489021 0.000000 0.000000
0.541558 0.000000 0.000000
0.591272 0.000000 0.000000
0.638911 0.000000 0.000000
0.683772 0.000000 0.000000
0.726802 0.000000 0.000000
0.767330 0.000000 0.000000
0.805936 0.000000 0.000000
0.842710 0.000000 0.000000
0.877989 0.000000 0.000000
0.912078 0.000000 0.000000
0.946319 0.000000 0.000000
0.981231 0.000000 0.000000
1.000000 0.000000 0.000000
1.000000 0.000000 0.000000
1.000000 0.000000 0.000000
0.000000 0.003357 0.006348
0.000000 0.002167 0.006500
0.000336 0.003143 0.005219
0.004303 0.002686 0.005188
0.013245 0.002777 0.006134
0.030121 0.001984 0.007050
0.062165 0.000580 0.007752
0.095216 0.000000 0.008209
0.119142 0.000000 0.009674
0.148165 0.000000 0.009491
0.185397 0.000000 0.008576
0.228367 0.000000 0.008240
0.276371 0.000000 0.005585
0.327825 0.000000 0.002899
0.381231 0.000000 0.000000
0.435828 0.000000 0.000000
0.489784 0.000000 0.000000
0.541955 0.000000 0.000000
0.591760 0.000000 0.000000
0.639094 0.000000 0.000000
0.683864 0.000000 0.000000
0.726741 0.000000 0.000000
0.767239 0.000000 0.000000
0.805783 0.000000 0.000000
0.842649 0.000000 0.000000
0.877745 0.000000 0.000000
0.911803 0.000000 0.000000
0.946044 0.000000 0.000000
0.980896 0.000000 0.000000
1.000000 0.000000 0.000000
1.000000 0.000000 0.000000
1.000000 0.000000 0.000000
0.000000 0.008911 0.016938
0.000000 0.010101 0.016785
0.000000 0.009888 0.013367
0.002838 0.009461 0.008820
0.017212 0.009094 0.004059
0.037354 0.009064 0.004822
0.072663 0.008423 0.005341
0.100679 0.005310 0.006897
0.124361 0.001251 0.006928
0.154086 0.000000 0.006531
0.191684 0.000000 0.005707
0.234623 0.000000 0.005158
0.282567 0.000000 0.002441
0.333654 0.000000 0.000000
0.386847 0.000000 0.000000
0.440894 0.000000 0.000000
0.494240 0.000000 0.000000
0.545892 0.000000 0.000000
0.595056 0.000000 0.000000
0.641962 0.000000 0.000000
0.686305 0.000000 0.000000
0.728969 0.000000 0.000000
0.769039 0.000000 0.000000
0.807309 0.000000 0.000000
0.843870 0.000000 0.000000
0.878752 0.000000 0.000000
0.912718 0.000000 0.000000
0.946868 0.000000 0.000000
0.981567 0.000000 0.000000
1.000000 0.000000 0.000000
1.000000 0.000000 0.000000
1.000000 0.000000 0.000000
0.000000 0.026001 0.038483
0.000000 0.026001 0.037354
0.000000 0.025788 0.035065
0.000092 0.025879 0.029206
0.016907 0.028687 0.021729
0.048005 0.027771 0.011078
0.088411 0.028443 0.000000
0.110201 0.025452 0.001312
0.135531 0.019379 0.001251
0.167391 0.006470 0.000732
0.205600 0.000000 0.000610
0.248386 0.000000 0.000000
0.295933 0.000000 0.000000
0.346715 0.000000 0.000000
0.398535 0.000000 0.000000
0.451606 0.000000 0.000000
0.503471 0.000000 0.000000
0.553948 0.000000 0.000000
0.602106 0.000000 0.000000
0.647852 0.000000 0.000000
0.691310 0.000000 0.000000
0.733211 0.000000 0.000000
0.772702 0.000000 0.000000
0.810391 0.000000 0.000000
0.846433 0.000000 0.000000
0.881071 0.000000 0.000000
0.914855 0.000000 0.000000
0.948791 0.000000 0.000000
0.983337 0.000000 0.000000
1.000000 0.000000 0.000000
1.000000 0.000000 0.000000
1.000000 0.000000 0.000000
0.000000 0.068940 0.072389
0.000000 0.068696 0.072389
0.000000 0.068269 0.070100
0.000000 0.066926 0.063264
0.019501 0.067659 0.052491
0.065949 0.067384 0.038087
0.101137 0.063874 0.023743
0.126040 0.059632 0.010132
0.155184 0.053956 0.000000
0.189212 0.039063 0.000000
0.227329 0.011383 0.000000
0.270420 0.000000 0.000000
0.316808 0.000000 0.000000
0.366155 0.000000 0.000000
0.416999 0.000000 0.000000
0.468208 0.000000 0.000000
0.518029 0.000000 0.000000
0.566552 0.000000 0.000000
0.613092 0.000000 0.000000
0.657374 0.000000 0.000000
0.699794 0.000000 0.000000
0.740536 0.000000 0.000000
0.778897 0.000000 0.000000
0.815671 0.000000 0.000000
0.850919 0.000000 0.000000
0.884947 0.000000 0.000000
0.918181 0.000000 0.000000
0.951965 0.000000 0.000000
0.986114 0.000000 0.000000
1.000000 0.000000 0.000000
1.000000 0.000000 0.000000
1.000000 0.000000 0.000000
0.000000 0.109041 0.094972
0.000000 0.108980 0.094606
0.000000 0.108370 0.093843
0.000000 0.107454 0.091768
0.023529 0.107271 0.086824
0.083833 0.106966 0.077241
0.118868 0.105592 0.057740
0.149844 0.100008 0.039307
0.183261 0.094484 0.020508
0.218997 0.087160 0.005005
0.257725 0.068055 0.000000
0.300420 0.034668 0.000000
0.345861 0.000000 0.000000
0.393378 0.000000 0.000000
0.441718 0.000000 0.000000
0.490211 0.000000 0.000000
0.537652 0.000000 0.000000
0.583795 0.000000 0.000000
0.628107 0.000000 0.000000
0.670466 0.000000 0.000000
0.711482 0.000000 0.000000
0.750668 0.000000 0.000000
0.790402 0.000000 0.000000
0.825742 0.000000 0.000000
0.859800 0.000000 0.000000
0.892576 0.000000 0.000000
0.925353 0.000000 0.000000
0.959045 0.000000 0.000000
0.993072 0.000000 0.000000
1.000000 0.000000 0.000000
1.000000 0.000000 0.000000
1.000000 0.000000 0.000000
0.000000 0.155520 0.110750
0.000000 0.155673 0.110384
0.000000 0.155001 0.109163
0.000000 0.154116 0.107210
0.000000 0.152956 0.103426
0.088045 0.152773 0.096956
0.135378 0.151888 0.088655
0.181033 0.148348 0.070314
0.217258 0.138735 0.048707
0.255161 0.128939 0.026978
0.295476 0.117556 0.005341
0.337316 0.105928 0.000000
0.381262 0.089509 0.000000
0.426764 0.043732 0.000000
0.472694 0.000000 0.000000
0.517998 0.000000 0.000000
0.562432 0.000000 0.000000
0.605615 0.000000 0.000000
0.647395 0.000000 0.000000
0.687617 0.000000 0.000000
0.727016 0.000000 0.000000
0.764248 0.000000 0.000000
0.799527 0.000000 0.000000
0.833738 0.000000 0.000000
0.866728 0.000000 0.000000
0.898772 0.000000 0.000000
0.931243 0.000000 0.000000
0.964385 0.000000 0.000000
0.997559 0.000000 0.000000
1.000000 0.000000 0.000000
1.000000 0.000000 0.000000
1.000000 0.000000 0.000000
0.000000 0.211185 0.128908
0.000000 0.211246 0.128847
0.000000 0.210483 0.127657
0.000000 0.209415 0.125368
0.000000 0.207431 0.121706
0.092927 0.207126 0.115328
0.147311 0.206882 0.106874
0.200931 0.205692 0.095277
0.253056 0.201694 0.076631
0.292515 0.188693 0.046967
0.333379 0.175845 0.020233
0.375097 0.162570 0.000000
0.417700 0.148684 0.000000
0.460121 0.133822 0.000000
0.502861 0.116457 0.000000
0.545068 0.094301 0.000000
0.586908 0.037995 0.000000
0.627741 0.000000 0.000000
0.666896 0.000000 0.000000
0.705287 0.000000 0.000000
0.742306 0.000000 0.000000
0.777218 0.000000 0.000000
0.810758 0.000000 0.000000
0.843290 0.000000 0.000000
0.874998 0.000000 0.000000
0.906493 0.000000 0.000000
0.938445 0.000000 0.000000
0.970581 0.000000 0.000000
1.000000 0.000000 0.000000
1.000000 0.000000 0.000000
1.000000 0.000000 0.000000
1.000000 0.000000 0.000000
0.000000 0.272129 0.152102
0.000000 0.272068 0.151888
0.000000 0.271458 0.150942
0.000000 0.270542 0.148470
0.000702 0.268742 0.144991
0.111757 0.266819 0.139559
0.165103 0.267094 0.130617
0.218448 0.266789 0.118837
0.274174 0.265660 0.103304
0.329564 0.261082 0.080751
0.370703 0.246677 0.038239
0.411933 0.232181 0.000000
0.453346 0.217105 0.000000
0.494331 0.201694 0.000000
0.534539 0.186862 0.000000
0.573754 0.171878 0.000000
0.612634 0.155550 0.000000
0.650538 0.137789 0.000000
0.687617 0.118013 0.000000
0.724117 0.095125 0.000000
0.758846 0.035309 0.000000
0.791562 0.000000 0.000000
0.823056 0.000000 0.000000
0.853971 0.000000 0.000000
0.884581 0.000000 0.000000
0.915312 0.000000 0.000000
0.946349 0.000000 0.000000
0.977630 0.000000 0.000000
1.000000 0.000000 0.000000
1.000000 0.000000 0.000000
1.000000 0.000000 0.000000
1.000000 0.000000 0.000000
0.000000 0.335607 0.182101
0.000000 0.335393 0.181827
0.000000 0.334813 0.180789
0.000000 0.333837 0.178439
0.096590 0.332372 0.174899
0.145296 0.329870 0.169833
0.191409 0.329229 0.161654
0.240787 0.329656 0.150484
0.293095 0.329198 0.135988
0.349523 0.327977 0.116854
0.405554 0.323888 0.091768
0.446143 0.308537 0.036133
0.486213 0.292821 0.000000
0.525536 0.276890 0.000000
0.564141 0.260533 0.000000
0.601862 0.243595 0.000000
0.638087 0.228946 0.000000
0.673915 0.214481 0.000000
0.709163 0.199741 0.000000
0.743130 0.185306 0.000000
0.775326 0.170565 0.000000
0.805997 0.155703 0.000000
0.835935 0.141756 0.000000
0.865354 0.108461 0.000000
0.894560 0.000000 0.000000
0.924224 0.000000 0.000000
0.954314 0.000000 0.000000
0.984680 0.000000 0.000000
1.000000 0.000000 0.000000
1.000000 0.000000 0.000000
1.000000 0.000000 0.000000
1.000000 0.000000 0.000000
0.067262 0.398138 0.220371
0.078981 0.398077 0.220249
0.099733 0.397772 0.219120
0.126162 0.396674 0.216800
0.155764 0.395453 0.213077
0.189761 0.393469 0.208133
0.225986 0.391211 0.200992
0.268925 0.391669 0.190890
0.316167 0.391791 0.177462
0.367559 0.391485 0.160952
0.422705 0.390265 0.139040
0.477119 0.386786 0.111269
0.515770 0.371160 0.065370
0.553796 0.354650 0.000000
0.590723 0.337835 0.000000
0.626825 0.320836 0.000000
0.662135 0.303471 0.000000
0.696712 0.287144 0.000000
0.729946 0.272770 0.000000
0.761532 0.258610 0.000000
0.791714 0.244236 0.000000
0.820584 0.230625 0.000000
0.848905 0.218235 0.000000
0.876707 0.206821 0.000000
0.904967 0.198032 0.000000
0.933715 0.180362 0.000000
0.962890 0.145663 0.000000
0.992401 0.090150 0.000000
1.000000 0.000000 0.000000
1.000000 0.000000 0.000000
1.000000 0.000000 0.000000
1.000000 0.000000 0.000000
0.169589 0.458625 0.267674
0.171420 0.458534 0.267338
0.178225 0.458106 0.266270
0.192721 0.457343 0.264134
0.212680 0.456214 0.260655
0.237766 0.454444 0.255619
0.266575 0.452277 0.248936
0.301183 0.451331 0.239750
0.342229 0.451881 0.227848
0.387610 0.452216 0.213413
0.437201 0.451911 0.194888
0.490333 0.451179 0.172396
0.545129 0.449866 0.146914
0.582177 0.434302 0.111025
0.618036 0.417578 0.029084
0.653193 0.400702 0.000000
0.687373 0.383307 0.000000
0.720150 0.365576 0.000000
0.751492 0.347570 0.000000
0.781155 0.331365 0.000000
0.809415 0.316289 0.000000
0.836545 0.301793 0.000000
0.863340 0.287877 0.000000
0.890501 0.275792 0.000000
0.917998 0.265690 0.000000
0.945800 0.257877 0.000000
0.973785 0.253178 0.000000
1.000000 0.239078 0.000000
1.000000 0.215793 0.000000
1.000000 0.186831 0.000000
1.000000 0.149477 0.000000
1.000000 0.088136 0.000000
0.237766 0.517357 0.325414
0.238773 0.517327 0.325261
0.243717 0.516838 0.323980
0.253544 0.516136 0.321752
0.267948 0.514916 0.318242
0.287022 0.513298 0.313481
0.310430 0.511315 0.306859
0.337133 0.508659 0.298985
0.371923 0.509453 0.288334
0.411139 0.509880 0.275303
0.454932 0.510338 0.259495
0.502556 0.510491 0.240665
0.553582 0.510216 0.217838
0.603418 0.506950 0.192050
0.639338 0.492317 0.156619
0.672969 0.475746 0.113191
0.705409 0.458442 0.000000
0.736385 0.440406 0.000000
0.766049 0.422034 0.000000
0.794369 0.403601 0.000000
0.821347 0.384863 0.000000
0.847318 0.369635 0.000000
0.873594 0.355291 0.000000
0.900298 0.341985 0.000000
0.927367 0.330114 0.000000
0.954620 0.320378 0.000000
0.982116 0.312871 0.000000
1.000000 0.308293 0.000000
1.000000 0.307164 0.000000
1.000000 0.291234 0.000000
1.000000 0.272099 0.000000
1.000000 0.251194 0.000000
0.293462 0.570428 0.384955
0.293980 0.570428 0.384741
0.297917 0.570062 0.383856
0.305058 0.569299 0.381567
0.316258 0.568170 0.378271
0.331304 0.566796 0.373968
0.350500 0.564965 0.367956
0.372808 0.562615 0.360449
0.400153 0.561425 0.351293
0.434028 0.562219 0.340154
0.472175 0.562982 0.326970
0.514244 0.563500 0.311101
0.560021 0.563775 0.292119
0.608606 0.563622 0.269810
0.655329 0.560357 0.245029
0.688563 0.545739 0.210422
0.719326 0.528771 0.170932
0.748745 0.511406 0.123079
0.777157 0.493355 0.000000
0.804227 0.474830 0.000000
0.830228 0.456153 0.000000
0.856260 0.438087 0.000000
0.882506 0.421759 0.000000
0.908904 0.408270 0.000000
0.935576 0.395636 0.000000
0.962524 0.384558 0.000000
0.989471 0.374823 0.000000
1.000000 0.366949 0.000000
1.000000 0.361639 0.000000
1.000000 0.359930 0.000000
1.000000 0.355505 0.000000
1.000000 0.340764 0.000000
0.343481 0.618463 0.444282
0.344213 0.618372 0.444068
0.347112 0.618097 0.443305
0.352514 0.617426 0.441352
0.361456 0.616510 0.438331
0.373724 0.615198 0.434394
0.389075 0.613581 0.429206
0.407843 0.611719 0.422644
0.429389 0.609308 0.414527
0.457923 0.609552 0.405402
0.490578 0.610315 0.394507
0.527337 0.610925 0.381415
0.567132 0.611414 0.366064
0.610224 0.611597 0.347936
0.655848 0.611231 0.326177
0.698817 0.607568 0.303807
0.729458 0.593194 0.269474
0.757687 0.576806 0.231998
0.784848 0.559411 0.189670
0.811215 0.541863 0.139162
0.837125 0.524315 0.018738
0.863127 0.507164 0.000000
0.889403 0.490486 0.000000
0.915831 0.474372 0.000000
0.942290 0.460822 0.000000
0.968841 0.449287 0.000000
0.995270 0.438453 0.000000
1.000000 0.428840 0.000000
1.000000 0.420569 0.000000
1.000000 0.414649 0.000000
1.000000 0.411994 0.000000
1.000000 0.413489 0.000000
0.390723 0.660273 0.500725
0.391333 0.660212 0.500572
0.393683 0.659968 0.499886
0.397772 0.659541 0.498390
0.404913 0.658778 0.495979
0.414710 0.657740 0.492561
0.427283 0.656550 0.488289
0.442786 0.654994 0.482948
0.460914 0.653101 0.476265
0.482521 0.651667 0.468299
0.510338 0.652247 0.459297
0.541405 0.652735 0.448493
0.575921 0.653193 0.435950
0.613153 0.653376 0.421271
0.652949 0.653223 0.403784
0.695125 0.652766 0.383795
0.734798 0.649012 0.363348
0.763302 0.635584 0.330602
0.789883 0.620172 0.294011
0.815946 0.604120 0.254215
0.841886 0.588098 0.209995
0.867948 0.572381 0.156771
0.894224 0.557092 0.050172
0.920623 0.541985 0.000000
0.947051 0.527245 0.000000
0.973541 0.513024 0.000000
0.999268 0.502251 0.000000
1.000000 0.491951 0.000000
1.000000 0.482399 0.000000
1.000000 0.474037 0.000000
1.000000 0.467323 0.000000
1.000000 0.463416 0.000000
0.436988 0.696620 0.554253
0.437354 0.696529 0.553918
0.439033 0.696376 0.553429
0.442481 0.695979 0.552056
0.447791 0.695369 0.550072
0.455268 0.694636 0.547204
0.465309 0.693538 0.543450
0.477638 0.692226 0.538750
0.492164 0.690639 0.532982
0.508965 0.688777 0.526116
0.530938 0.688502 0.518578
0.557092 0.689113 0.509911
0.586236 0.689601 0.499794
0.618250 0.689876 0.487922
0.652857 0.690028 0.474098
0.689845 0.689967 0.458015
0.728847 0.689631 0.439460
0.766537 0.687190 0.421393
0.793729 0.675196 0.390326
0.819150 0.661128 0.355474
0.844816 0.647181 0.318273
0.870756 0.633082 0.277470
0.896880 0.619409 0.231785
0.923156 0.605890 0.176181
0.949310 0.592401 0.084901
0.975311 0.579095 0.000000
1.000000 0.565789 0.000000
1.000000 0.553887 0.000000
1.000000 0.544427 0.000000
1.000000 0.535241 0.000000
1.000000 0.526879 0.000000
1.000000 0.519585 0.000000
0.479957 0.730159 0.602472
0.480171 0.730159 0.602319
0.483864 0.731868 0.604425
0.486580 0.731563 0.603418
0.490822 0.731075 0.601801
0.496864 0.730312 0.599573
0.504631 0.729397 0.596521
0.514366 0.728237 0.592584
0.526238 0.726833 0.587854
0.539971 0.725216 0.582177
0.555962 0.723445 0.575525
0.577508 0.724117 0.568627
0.601892 0.724697 0.560357
0.629053 0.725124 0.550652
0.658595 0.725460 0.539300
0.690639 0.725643 0.526268
0.724849 0.725582 0.511223
0.760922 0.725429 0.494087
0.796567 0.724056 0.478004
0.822538 0.713710 0.449256
0.847318 0.701534 0.417090
0.872496 0.689540 0.382605
0.898100 0.677485 0.344945
0.923766 0.665522 0.303777
0.949310 0.653407 0.256199
0.974701 0.641291 0.197879
0.999878 0.629206 0.106081
1.000000 0.617121 0.000000
1.000000 0.605035 0.000000
1.000000 0.595605 0.000000
1.000000 0.587060 0.000000
1.000000 0.578851 0.000000
0.518364 0.762631 0.644526
0.518791 0.762783 0.644648
0.520195 0.762814 0.644526
0.522637 0.762661 0.643824
0.526299 0.762356 0.642725
0.531304 0.761807 0.640955
0.537957 0.761013 0.638636
0.546105 0.759945 0.635462
0.555993 0.758755 0.631769
0.567651 0.757321 0.627283
0.580804 0.755734 0.622034
0.597559 0.755154 0.616388
0.618219 0.755856 0.609949
0.641413 0.756466 0.602564
0.666957 0.757076 0.594141
0.694759 0.757534 0.584253
0.724636 0.757961 0.572778
0.756466 0.758206 0.559503
0.790066 0.758419 0.544396
0.823453 0.757870 0.530022
0.848600 0.749233 0.503929
0.872770 0.739101 0.474525
0.897154 0.728908 0.443214
0.921691 0.718502 0.409155
0.946349 0.708095 0.371679
0.970977 0.697658 0.329656
0.995483 0.687098 0.280735
1.000000 0.676509 0.219944
1.000000 0.665888 0.126284
1.000000 0.655268 0.000000
1.000000 0.645075 0.000000
1.000000 0.637263 0.000000
0.552972 0.793332 0.679866
0.553399 0.793454 0.679927
0.554559 0.793515 0.679805
0.556634 0.793454 0.679408
0.559747 0.793210 0.678584
0.564233 0.792752 0.677211
0.569787 0.792050 0.675380
0.576928 0.791196 0.673030
0.585443 0.790127 0.670130
0.595361 0.788937 0.666621
0.606897 0.787503 0.662562
0.619806 0.785946 0.657801
0.637263 0.786343 0.652918
0.657374 0.787076 0.647425
0.679561 0.787778 0.641016
0.703731 0.788479 0.633722
0.729885 0.789090 0.625116
0.757778 0.789548 0.615198
0.787411 0.790066 0.604059
0.818418 0.790524 0.591058
0.849241 0.790372 0.578943
0.872709 0.783108 0.556634
0.895506 0.774563 0.530449
0.918700 0.765713 0.501976
0.942016 0.756893 0.471351
0.965393 0.748043 0.437842
0.988769 0.739162 0.400488
1.000000 0.730220 0.357885
1.000000 0.721309 0.307744
1.000000 0.712337 0.244083
1.000000 0.703334 0.146670
1.000000 0.693996 0.000000
0.586114 0.822812 0.710872
0.586511 0.822934 0.710964
0.587396 0.822965 0.710872
0.589258 0.822904 0.710567
0.592035 0.822690 0.709865
0.595850 0.822263 0.708797
0.600702 0.821714 0.707301
0.606806 0.820981 0.705440
0.614221 0.820127 0.703151
0.623011 0.819089 0.700435
0.633051 0.817838 0.697169
0.644495 0.816464 0.693477
0.657923 0.815549 0.689418
0.675410 0.816251 0.685267
0.694942 0.817014 0.680537
0.716121 0.817746 0.675105
0.739071 0.818479 0.668879
0.763699 0.819181 0.661707
0.789822 0.819883 0.653651
0.817227 0.820584 0.644343
0.845792 0.821256 0.633783
0.873686 0.821225 0.623835
0.895018 0.815000 0.605463
0.916106 0.807858 0.583673
0.937591 0.800626 0.559747
0.959350 0.793393 0.533257
0.981292 0.786069 0.503502
1.000000 0.778744 0.470497
1.000000 0.771633 0.433906
1.000000 0.764523 0.391089
1.000000 0.757351 0.339269
1.000000 0.749966 0.272465
0.622004 0.850767 0.740719
0.622339 0.850797 0.740749
0.623041 0.850736 0.740597
0.624414 0.850614 0.740200
0.626642 0.850370 0.739559
0.629725 0.849973 0.738613
0.633875 0.849485 0.737423
0.639063 0.848844 0.735866
0.645167 0.848112 0.733852
0.652644 0.847288 0.731655
0.661250 0.846281 0.729000
0.670985 0.845151 0.725948
0.681849 0.843870 0.722408
0.695949 0.843778 0.718837
0.712856 0.844480 0.715084
0.731411 0.845182 0.710842
0.751431 0.845884 0.706020
0.772946 0.846555 0.700587
0.795895 0.847257 0.694453
0.820035 0.847898 0.687495
0.845182 0.848569 0.679713
0.871031 0.849210 0.670893
0.895811 0.848966 0.662654
0.914977 0.843442 0.647608
0.933867 0.837400 0.629847
0.953338 0.831632 0.610437
0.973144 0.825864 0.588617
0.993103 0.820157 0.564385
1.000000 0.814542 0.536706
1.000000 0.808988 0.504997
1.000000 0.803525 0.468208
1.000000 0.798062 0.424933
0.658503 0.875273 0.767849
0.658747 0.875273 0.767849
0.659358 0.875242 0.767697
0.660548 0.875151 0.767422
0.662318 0.874937 0.766873
0.664881 0.874632 0.766110
0.668238 0.874235 0.765103
0.672541 0.873716 0.763790
0.677760 0.873136 0.762234
0.683986 0.872435 0.760342
0.691127 0.871672 0.758236
0.699306 0.870726 0.755673
0.708461 0.869657 0.752773
0.718654 0.868528 0.749447
0.733150 0.869200 0.746487
0.749081 0.869810 0.743130
0.766415 0.870512 0.739376
0.785061 0.871183 0.735073
0.804959 0.871824 0.730251
0.826017 0.872465 0.724819
0.848020 0.873167 0.718776
0.870817 0.873777 0.712001
0.894163 0.874449 0.704250
0.915953 0.874052 0.697230
0.932647 0.868894 0.684169
0.949401 0.863828 0.669764
0.966766 0.859281 0.654383
0.984375 0.854978 0.637537
1.000000 0.850767 0.618372
1.000000 0.846769 0.596735
1.000000 0.842924 0.571832
1.000000 0.839170 0.542443
0.696925 0.897459 0.793698
0.697169 0.897490 0.793729
0.697658 0.897459 0.793668
0.698543 0.897337 0.793362
0.699916 0.897154 0.792874
0.701930 0.896849 0.792172
0.704524 0.896483 0.791287
0.707942 0.896025 0.790158
0.712062 0.895506 0.788785
0.717037 0.894896 0.787259
0.722774 0.894224 0.785397
0.729427 0.893462 0.783261
0.736934 0.892576 0.780850
0.745327 0.891600 0.778073
0.755673 0.891112 0.775204
0.769070 0.891630 0.772488
0.783688 0.892210 0.769467
0.799588 0.892790 0.766079
0.816556 0.893400 0.762264
0.834623 0.894011 0.758083
0.853574 0.894621 0.753384
0.873320 0.895232 0.748135
0.893645 0.895842 0.742153
0.914244 0.896422 0.735409
0.933165 0.895872 0.729213
0.948058 0.891783 0.718441
0.962676 0.887449 0.705837
0.977996 0.884001 0.693355
0.993439 0.880858 0.679927
1.000000 0.878019 0.665583
1.000000 0.875486 0.649714
1.000000 0.873320 0.631952
0.734768 0.916258 0.817166
0.734920 0.916289 0.817197
0.735378 0.916289 0.817136
0.736080 0.916228 0.816922
0.737240 0.916106 0.816587
0.738888 0.915892 0.816037
0.741085 0.915648 0.815396
0.743832 0.915343 0.814542
0.747189 0.914977 0.813474
0.751186 0.914549 0.812253
0.755917 0.914031 0.810788
0.761349 0.913481 0.809110
0.767483 0.912810 0.807218
0.774350 0.912078 0.804990
0.781857 0.911223 0.802426
0.792142 0.911284 0.800137
0.804257 0.911742 0.797726
0.817411 0.912261 0.795132
0.831601 0.912779 0.792172
0.846769 0.913268 0.788937
0.862791 0.913817 0.785306
0.879484 0.914336 0.781247
0.896727 0.914855 0.776730
0.914336 0.915373 0.771603
0.932097 0.915892 0.765835
0.948089 0.915373 0.760525
0.960906 0.912016 0.751431
0.973419 0.908476 0.740719
0.986816 0.906126 0.730831
1.000000 0.904082 0.720546
1.000000 0.902434 0.709834
1.000000 0.901244 0.698756
0.772274 0.932616 0.839078
0.772366 0.932616 0.839078
0.772732 0.932586 0.839017
0.773342 0.932555 0.838834
0.774228 0.932433 0.838560
0.775509 0.932280 0.838163
0.777218 0.932097 0.837613
0.779355 0.931884 0.836912
0.782071 0.931579 0.836088
0.785275 0.931243 0.835111
0.788998 0.930846 0.833951
0.793362 0.930419 0.832639
0.798306 0.929931 0.831113
0.803738 0.929381 0.829374
0.809873 0.928740 0.827390
0.816617 0.928099 0.825193
0.826566 0.928466 0.823423
0.837400 0.928862 0.821439
0.849027 0.929320 0.819272
0.861418 0.929717 0.816800
0.874601 0.930144 0.814115
0.888426 0.930602 0.811093
0.902678 0.931029 0.807675
0.917327 0.931456 0.803830
0.932189 0.931884 0.799557
0.947143 0.932341 0.794614
0.960479 0.931823 0.790066
0.971344 0.929168 0.782559
0.981933 0.926268 0.773495
0.993530 0.924956 0.766384
1.000000 0.923980 0.759365
1.000000 0.923400 0.752499
0.808011 0.946197 0.859129
0.808103 0.946197 0.859098
0.808286 0.946197 0.859068
0.808835 0.946136 0.858946
0.809598 0.946075 0.858732
0.810666 0.945983 0.858457
0.812131 0.945892 0.858091
0.813993 0.945800 0.857664
0.816281 0.945647 0.857115
0.818967 0.945464 0.856443
0.822141 0.945251 0.855680
0.825711 0.945006 0.854765
0.829740 0.944701 0.853666
0.834165 0.944335 0.852415
0.839078 0.943938 0.850950
0.844388 0.943450 0.849241
0.851041 0.943236 0.847593
0.859678 0.943542 0.846189
0.868986 0.943908 0.844602
0.878965 0.944244 0.842863
0.889464 0.944610 0.840909
0.900542 0.944976 0.838743
0.911925 0.945342 0.836271
0.923735 0.945708 0.833555
0.935729 0.946075 0.830442
0.947997 0.946471 0.826932
0.960357 0.946838 0.822965
0.971313 0.946349 0.819272
0.980346 0.944274 0.813321
0.989044 0.941924 0.805905
0.998779 0.941405 0.801541
1.000000 0.941344 0.797848
0.842618 0.957885 0.878386
0.842649 0.957885 0.878355
0.842802 0.957885 0.878325
0.843107 0.957855 0.878202
0.843656 0.957794 0.878019
0.844480 0.957702 0.877775
0.845518 0.957610 0.877470
0.846891 0.957519 0.877073
0.848569 0.957397 0.876616
0.850584 0.957244 0.876066
0.852934 0.957061 0.875395
0.855589 0.956847 0.874632
0.858671 0.956634 0.873777
0.862089 0.956359 0.872770
