20 Preset/Russian Style/【3】LUT video cho PR-AE-FCPX/Lut Tone (15).cube
# Created by Adobe Lightroom plugin Export LUT (1.24.0)
# www.johnrellis.com/lightroom/exportlut.htm
# Preset: 俄罗斯情绪-素材江湖08
# Color profile: C:\Program Files (x86)\Common Files\Adobe\Color\Profiles\Recommended\VideoHD.icc
LUT_3D_SIZE 8
DOMAIN_MIN 0.000000 0.000000 0.000000
DOMAIN_MAX 0.903226 0.903226 0.903226
0.010651 0.009766 0.006348
0.137819 0.013672 0.001801
0.299077 0.005005 0.000000
0.451575 0.000000 0.000000
0.596979 0.000000 0.000000
0.733822 0.000000 0.000000
0.861601 0.000000 0.000000
0.984344 0.000000 0.000000
0.017487 0.132815 0.037659
0.140230 0.136690 0.029969
0.302953 0.132662 0.000000
0.452979 0.117525 0.000000
0.597284 0.089296 0.000000
0.733211 0.000000 0.000000
0.860655 0.000000 0.000000
0.983429 0.000000 0.000000
0.032959 0.266575 0.115908
0.142763 0.266819 0.118593
0.300755 0.277531 0.096681
0.457191 0.256748 0.038361
0.597101 0.244388 0.002960
0.729976 0.231205 0.000000
0.856809 0.220676 0.000000
0.979553 0.217594 0.000000
0.073121 0.408362 0.203250
0.150118 0.408789 0.205997
0.285466 0.409827 0.199527
0.445411 0.419684 0.171817
0.591547 0.393866 0.133333
0.721645 0.372168 0.103182
0.848417 0.363714 0.036286
0.971771 0.360693 0.000000
0.043336 0.546746 0.270787
0.143069 0.547295 0.272526
0.274754 0.548119 0.272648
0.417456 0.546258 0.257298
0.573724 0.553674 0.224247
0.709743 0.526146 0.182559
0.835599 0.496315 0.136263
0.960082 0.493111 0.084535
0.031281 0.676570 0.324590
0.139681 0.677089 0.325933
0.268894 0.679286 0.331273
0.407599 0.676814 0.319432
0.547601 0.672480 0.300267
0.697444 0.676600 0.263371
0.822416 0.649348 0.219944
0.946777 0.622827 0.160159
0.170169 0.797452 0.378576
0.205539 0.797726 0.379797
0.303258 0.798825 0.384619
0.423926 0.797726 0.381323
0.553185 0.793210 0.365240
0.685084 0.786831 0.341863
0.823270 0.785794 0.303044
0.936950 0.761685 0.258824
0.332708 0.900237 0.448157
0.348363 0.900267 0.449256
0.406744 0.900481 0.454139
0.496101 0.900328 0.460060
0.600183 0.897002 0.446509
0.715694 0.892424 0.426886
0.836210 0.886412 0.399725
0.959960 0.883665 0.364324
0.000000 0.062715 0.126955
0.132815 0.063752 0.127657
0.302251 0.018463 0.122683
0.454780 0.006256 0.121950
0.599786 0.000000 0.110567
0.735561 0.000000 0.094392
0.862425 0.000000 0.042725
0.984527 0.000000 0.000000
0.000000 0.149630 0.139345
0.142947 0.150973 0.141909
0.304906 0.145418 0.136507
0.455787 0.131838 0.128298
0.599847 0.105653 0.117220
0.734920 0.029053 0.101289
0.861509 0.000000 0.059297
0.983642 0.000000 0.000000
0.090272 0.278202 0.184726
0.157168 0.278233 0.188144
0.303838 0.285405 0.177127
0.458320 0.264927 0.156130
0.598810 0.251255 0.143008
0.731319 0.236728 0.126009
0.857511 0.224582 0.101381
0.979767 0.218845 0.004669
0.106722 0.414710 0.241947
0.163973 0.415106 0.244205
0.289982 0.416236 0.241428
0.446906 0.424445 0.218021
0.592554 0.396704 0.185183
0.722683 0.376318 0.162722
0.848936 0.366613 0.138582
0.971923 0.362127 0.096986
0.091188 0.550500 0.294133
0.154269 0.551019 0.295720
0.279149 0.552300 0.298070
0.419745 0.550408 0.283482
0.574762 0.556603 0.253422
0.710262 0.527886 0.215610
0.835996 0.498695 0.177523
0.960143 0.494484 0.143221
0.082582 0.678737 0.340612
0.151217 0.679255 0.341924
0.274235 0.681453 0.347112
0.409857 0.679469 0.337377
0.549035 0.675074 0.318883
0.698054 0.678279 0.283970
0.822568 0.650233 0.242771
0.946838 0.622889 0.188876
0.177340 0.798276 0.389746
0.211215 0.798520 0.390845
0.307164 0.799588 0.395575
0.426093 0.798886 0.394079
0.554192 0.794400 0.378241
0.685542 0.787930 0.355322
0.823270 0.786435 0.317632
0.936889 0.762020 0.274418
0.333623 0.900420 0.455329
0.349462 0.900450 0.456519
0.407660 0.900633 0.461372
0.497322 0.900755 0.468849
0.600580 0.897459 0.455238
0.715633 0.892851 0.435737
0.835935 0.886809 0.408850
0.959655 0.883879 0.373632
0.000000 0.121340 0.274205
0.000000 0.112612 0.278386
0.267918 0.114473 0.286046
0.446906 0.101625 0.286503
0.602869 0.027436 0.274723
0.742184 0.000000 0.262760
0.865721 0.000000 0.247471
0.985779 0.000000 0.224369
0.000000 0.174624 0.284459
0.000000 0.171298 0.289311
0.278325 0.174990 0.296300
0.450690 0.166537 0.292760
0.605676 0.144564 0.279789
0.740597 0.123995 0.267857
0.864775 0.068788 0.249241
0.984802 0.000000 0.225986
0.000000 0.298161 0.311498
0.111421 0.300755 0.314244
0.304112 0.308934 0.323247
0.460121 0.295628 0.309789
0.603998 0.278233 0.293095
0.736385 0.259983 0.275364
0.860288 0.242985 0.256199
0.980774 0.229007 0.232151
0.126070 0.431159 0.338048
0.187198 0.433783 0.342351
0.302586 0.438392 0.348028
0.451057 0.441505 0.331395
0.596826 0.410193 0.304784
0.726741 0.393805 0.287541
0.851286 0.379797 0.267552
0.972625 0.369818 0.242985
0.137331 0.564508 0.367346
0.184329 0.564996 0.368688
0.296025 0.567193 0.374060
0.427405 0.566552 0.366522
0.578912 0.568444 0.341711
0.712825 0.535058 0.309026
0.837736 0.509117 0.281437
0.960662 0.500694 0.256138
0.142580 0.687129 0.396429
0.185550 0.687587 0.397498
0.293523 0.689693 0.402167
0.419623 0.690059 0.400702
0.554620 0.685328 0.383917
0.700191 0.685115 0.353399
0.823270 0.653925 0.316014
0.947173 0.622919 0.270756
0.201724 0.801450 0.431250
0.230838 0.801724 0.432349
0.320348 0.802762 0.436805
0.435035 0.803891 0.442145
0.558190 0.799313 0.427070
0.687526 0.792569 0.405371
0.823270 0.789242 0.370214
0.936828 0.763455 0.328893
0.335912 0.901152 0.483375
0.351843 0.901244 0.484504
0.410285 0.901427 0.489204
0.501061 0.901854 0.498726
0.602625 0.899260 0.489998
0.715480 0.894591 0.470680
0.834928 0.888457 0.444251
0.958373 0.884794 0.409644
0.000000 0.158145 0.388983
0.000000 0.151583 0.394049
0.191928 0.155337 0.400702
0.397131 0.164614 0.413458
0.579675 0.155917 0.420325
0.728389 0.123751 0.406195
0.864805 0.055146 0.389319
0.989380 0.000000 0.369055
0.000000 0.197940 0.396521
0.000000 0.195163 0.400824
0.205814 0.196139 0.408301
0.404334 0.204379 0.419196
0.583001 0.197665 0.423407
0.730312 0.174472 0.408423
0.865690 0.147524 0.391211
0.988067 0.115450 0.370459
0.000000 0.295964 0.414343
0.000000 0.297246 0.416968
0.236973 0.305028 0.430549
0.427649 0.316503 0.438788
0.593744 0.310948 0.433661
0.737392 0.296574 0.417334
0.866667 0.281346 0.398291
0.983215 0.258183 0.373724
0.000000 0.441077 0.441413
0.000000 0.443732 0.443488
0.265232 0.455238 0.452796
0.456947 0.473487 0.466407
0.603571 0.452949 0.447150
0.734249 0.431067 0.425849
0.855985 0.409033 0.402289
0.974792 0.387884 0.375402
0.083986 0.573907 0.453925
0.164828 0.576196 0.456336
0.310216 0.585779 0.467506
0.445228 0.595697 0.478676
0.586877 0.590692 0.456703
0.718807 0.551324 0.426032
0.841581 0.531182 0.403296
0.962463 0.514061 0.376623
0.211429 0.698238 0.481971
0.245487 0.699886 0.484077
0.317052 0.704158 0.482399
0.439063 0.707881 0.490639
0.565057 0.704280 0.479164
0.704555 0.698116 0.451545
0.825406 0.661036 0.414099
0.948577 0.632349 0.376898
0.222416 0.807156 0.495857
0.249760 0.807370 0.496803
0.335790 0.808408 0.500908
0.449317 0.810361 0.509270
0.566735 0.808560 0.504875
0.690883 0.801511 0.483986
0.823362 0.794827 0.450324
0.937407 0.766049 0.407843
0.328710 0.902678 0.529778
0.345647 0.902739 0.530816
0.407568 0.902922 0.535393
0.501854 0.903380 0.544549
0.606806 0.902861 0.549981
0.714656 0.898161 0.530602
0.832517 0.891814 0.504143
0.955871 0.886717 0.469093
0.000000 0.192264 0.477150
0.000000 0.188663 0.480934
0.000000 0.188388 0.488563
0.322576 0.195010 0.496315
0.512016 0.206241 0.513085
0.693080 0.203189 0.525414
0.840909 0.184176 0.516167
0.972229 0.159548 0.500999
0.000000 0.219944 0.481971
0.000000 0.217868 0.485389
0.000000 0.216403 0.494057
0.329473 0.222049 0.500847
0.516991 0.233585 0.516747
0.695949 0.233005 0.527550
0.841917 0.217227 0.517266
0.972564 0.196933 0.501610
0.000000 0.297063 0.493050
0.000000 0.297642 0.496162
0.113130 0.301396 0.509209
0.351293 0.308873 0.516930
0.535576 0.325078 0.530999
0.706630 0.328496 0.536065
0.845823 0.315465 0.521843
0.974090 0.298619 0.504021
0.000000 0.415198 0.514366
0.000000 0.416815 0.516289
0.163882 0.423865 0.524559
0.382483 0.444434 0.544091
0.566064 0.464973 0.555871
0.720577 0.461067 0.548974
0.851987 0.444648 0.530205
0.977020 0.423865 0.507530
0.000000 0.569726 0.542321
0.000000 0.572107 0.543999
0.205875 0.582300 0.551568
0.411383 0.603601 0.567315
0.599603 0.627558 0.584405
0.728206 0.600183 0.560266
0.848600 0.568231 0.531121
0.967437 0.535515 0.498421
0.000000 0.698665 0.550805
0.107149 0.700282 0.552422
0.281682 0.707057 0.559472
0.444709 0.720058 0.575036
0.584100 0.731197 0.589410
0.711025 0.718410 0.561913
0.830777 0.672633 0.520684
0.952544 0.648341 0.489021
0.170352 0.806912 0.566400
0.212741 0.807706 0.567773
0.326757 0.811215 0.574182
0.453376 0.817899 0.582879
0.580652 0.820951 0.595392
0.695857 0.815030 0.579583
0.823636 0.804044 0.544915
0.939666 0.769162 0.496742
0.306249 0.903227 0.592554
0.333959 0.903441 0.595178
0.378576 0.905180 0.591913
0.483711 0.905882 0.598993
0.603265 0.906767 0.612543
0.713100 0.904051 0.607080
0.828183 0.897276 0.581659
0.951965 0.890105 0.545830
0.000000 0.221500 0.551324
0.000000 0.219120 0.553979
0.000000 0.214450 0.562036
0.235843 0.218784 0.567864
0.432837 0.223972 0.576349
0.616327 0.238193 0.597498
0.798367 0.245304 0.617029
0.947143 0.239841 0.615045
0.000000 0.240726 0.554162
0.000000 0.238743 0.556695
0.000000 0.234134 0.565728
0.242039 0.237919 0.571160
0.437079 0.243534 0.579400
0.620050 0.259007 0.600153
0.800259 0.267674 0.618433
0.947601 0.262425 0.615534
0.000000 0.301274 0.561547
0.000000 0.301061 0.563897
0.000000 0.300877 0.574273
0.261082 0.304723 0.583551
0.452552 0.313237 0.591089
0.634485 0.333684 0.610803
0.807645 0.345190 0.624109
0.949554 0.338018 0.617365
0.000000 0.396429 0.575372
0.000000 0.396979 0.576776
0.000000 0.399847 0.583581
0.283757 0.414435 0.604761
0.477302 0.426673 0.612573
0.659602 0.452125 0.630335
0.819821 0.460914 0.634302
0.953124 0.445594 0.620417
0.000000 0.528191 0.599359
0.000000 0.529503 0.600763
0.000000 0.535149 0.606622
0.295903 0.546349 0.618891
0.505180 0.573602 0.642267
0.690852 0.600702 0.657008
0.831815 0.593256 0.646235
0.958648 0.567590 0.623865
0.000000 0.682643 0.628443
0.000000 0.684230 0.629755
0.000000 0.691218 0.635126
0.332769 0.705440 0.646418
0.539361 0.729366 0.666011
0.723476 0.754238 0.687190
0.837919 0.721340 0.656397
0.956268 0.681605 0.618738
0.000000 0.803037 0.633722
0.000000 0.803922 0.634485
0.147311 0.807401 0.638758
0.381353 0.814328 0.648981
0.565881 0.825681 0.669368
0.710842 0.835599 0.688899
0.825772 0.819699 0.655634
0.942473 0.774533 0.602197
0.000000 0.901701 0.645686
0.000000 0.901946 0.646509
0.220584 0.903105 0.650324
0.410681 0.905455 0.659327
0.585962 0.909697 0.679683
0.713191 0.912047 0.693355
0.824277 0.906126 0.675654
0.946593 0.895933 0.639612
0.000000 0.251560 0.636469
0.000000 0.248997 0.638514
0.000000 0.237949 0.645777
0.000000 0.238712 0.649622
0.365759 0.238651 0.655207
0.545739 0.239353 0.662837
0.727962 0.255711 0.685420
0.900237 0.279667 0.704067
0.000000 0.264408 0.635950
0.000000 0.262425 0.638087
0.000000 0.252811 0.645289
0.000000 0.251560 0.649866
0.366369 0.252079 0.655207
0.545892 0.253422 0.662531
0.727169 0.270878 0.684596
0.898039 0.293797 0.702419
0.000000 0.311589 0.640375
0.000000 0.310369 0.641932
0.000000 0.305150 0.648707
0.000000 0.301762 0.657465
0.372930 0.304448 0.662379
0.554162 0.309545 0.669612
0.736660 0.332372 0.691768
0.905028 0.356847 0.707607
0.000000 0.386206 0.645350
0.000000 0.385931 0.646845
0.000000 0.385290 0.653407
0.000000 0.386908 0.668360
0.379614 0.392737 0.676570
0.568292 0.402533 0.683864
0.752895 0.431556 0.704707
0.914458 0.453254 0.714992
0.000000 0.496376 0.661006
0.000000 0.495705 0.661311
0.000000 0.493202 0.663752
0.000000 0.487861 0.669825
0.369299 0.507317 0.694209
0.578698 0.520317 0.701015
0.769589 0.554162 0.719966
0.924987 0.569726 0.723964
0.000000 0.632563 0.681727
0.000000 0.632929 0.682429
0.000000 0.633967 0.685298
0.000000 0.636255 0.691402
0.340978 0.641627 0.702571
0.597406 0.675319 0.728084
0.795956 0.709926 0.747066
0.935088 0.701900 0.736995
0.000000 0.780087 0.708278
0.000000 0.781033 0.709224
0.000000 0.784329 0.712245
0.000000 0.791470 0.719265
0.414313 0.803983 0.732082
0.646662 0.825589 0.756161
0.838499 0.850919 0.787198
0.944396 0.815671 0.747738
0.000000 0.897215 0.721035
0.000000 0.897642 0.721431
0.000000 0.899535 0.723598
0.159213 0.902495 0.727687
0.462318 0.906126 0.738277
0.670497 0.912688 0.760708
0.831022 0.921050 0.791135
0.940246 0.906737 0.754147
0.000000 0.292638 0.753841
0.000000 0.289250 0.754726
0.000000 0.274052 0.756954
0.000000 0.262882 0.759457
0.280308 0.256504 0.760861
0.500053 0.246769 0.762966
0.675013 0.236149 0.766751
0.852476 0.254185 0.785641
0.000000 0.301854 0.752346
0.000000 0.298772 0.753292
0.000000 0.284520 0.755917
0.000000 0.271885 0.758846
0.277317 0.265934 0.760250
0.498970 0.257115 0.762478
0.673976 0.247776 0.766110
0.851591 0.266606 0.784848
0.000000 0.338598 0.751705
0.000000 0.336004 0.752407
0.000000 0.324804 0.755032
0.000000 0.307805 0.761166
0.264439 0.303655 0.762417
0.496223 0.298070 0.764401
0.674952 0.293339 0.768338
0.854612 0.316045 0.787259
0.000000 0.399329 0.751003
0.000000 0.397650 0.751827
0.000000 0.389899 0.754604
0.000000 0.375708 0.761624
0.218906 0.367590 0.767208
0.487343 0.366186 0.769924
0.676478 0.367193 0.774289
0.861295 0.395819 0.793301
0.000000 0.487129 0.755001
0.000000 0.484779 0.755154
0.000000 0.473487 0.754849
0.000000 0.460212 0.759335
0.000000 0.451270 0.771542
0.458350 0.453101 0.777218
0.672694 0.459785 0.782315
0.869749 0.497444 0.801999
0.000000 0.609735 0.767666
0.000000 0.608026 0.767422
0.000000 0.600824 0.767086
0.000000 0.586084 0.767514
0.000000 0.559777 0.769253
0.388769 0.568353 0.789334
0.665461 0.586114 0.796902
0.881468 0.635981 0.817472
0.000000 0.750515 0.786862
0.000000 0.749966 0.786893
0.000000 0.747402 0.787198
0.000000 0.742672 0.788418
0.000000 0.735012 0.791135
0.298955 0.725856 0.796902
0.665675 0.752346 0.818967
0.898283 0.791989 0.842191
0.000000 0.887053 0.813626
0.000000 0.887022 0.813748
0.000000 0.887358 0.814664
0.000000 0.888457 0.817227
0.000000 0.890349 0.821988
0.457435 0.894804 0.831907
0.743557 0.907897 0.856016
0.940429 0.935088 0.899779
