20 Preset/Russian Style/【3】LUT video cho PR-AE-FCPX/Lut Tone (4).cube
# Created by Adobe Lightroom plugin Export LUT (1.24.0)
# www.johnrellis.com/lightroom/exportlut.htm
# Preset: 俄罗斯情绪-素材江湖02
# Color profile: C:\Program Files (x86)\Common Files\Adobe\Color\Profiles\Recommended\VideoHD.icc
LUT_3D_SIZE 8
DOMAIN_MIN 0.000000 0.000000 0.000000
DOMAIN_MAX 0.903226 0.903226 0.903226
0.000000 0.000000 0.000000
0.075746 0.002625 0.000427
0.181796 0.015839 0.000000
0.365179 0.080293 0.000000
0.583520 0.145022 0.000000
0.782681 0.207736 0.000000
0.947356 0.249699 0.000000
1.000000 0.271794 0.000000
0.008881 0.058625 0.023438
0.055299 0.065827 0.019318
0.180453 0.095094 0.000366
0.366613 0.138674 0.000000
0.585138 0.192691 0.000000
0.782284 0.238285 0.000000
0.945525 0.272343 0.000000
1.000000 0.296330 0.000000
0.000000 0.167361 0.094697
0.006714 0.173465 0.091493
0.172305 0.189578 0.057130
0.368750 0.245731 0.000000
0.585931 0.296361 0.000000
0.779080 0.330419 0.000000
0.946197 0.354498 0.000000
1.000000 0.368505 0.000000
0.000000 0.345129 0.191928
0.000000 0.349096 0.189761
0.165866 0.357824 0.182040
0.345068 0.384985 0.143130
0.567712 0.438148 0.000000
0.778897 0.472908 0.000000
0.944549 0.483833 0.000000
1.000000 0.484871 0.000000
0.000000 0.530419 0.338720
0.000000 0.531701 0.338293
0.136568 0.539849 0.337652
0.336645 0.550561 0.331029
0.514397 0.577996 0.290166
0.720577 0.609613 0.251011
0.911620 0.629206 0.251347
1.000000 0.626368 0.270390
0.000000 0.681666 0.495674
0.000000 0.683711 0.498024
0.210666 0.692348 0.508202
0.353948 0.699397 0.505791
0.494942 0.710567 0.497078
0.656855 0.733303 0.462379
0.846372 0.756619 0.441993
0.999634 0.761807 0.476936
0.238712 0.820127 0.658961
0.267796 0.822690 0.663416
0.348669 0.827176 0.673060
0.440253 0.831632 0.678614
0.535760 0.835569 0.674739
0.646235 0.843565 0.663630
0.780087 0.855985 0.635859
0.932616 0.865080 0.624842
0.506310 0.924437 0.811307
0.517601 0.924956 0.813748
0.555718 0.925719 0.820890
0.618647 0.927276 0.833951
0.663813 0.929168 0.833097
0.725521 0.932311 0.833677
0.796353 0.937804 0.827543
0.885313 0.944060 0.814420
0.036591 0.036622 0.054108
0.089998 0.035035 0.058747
0.206180 0.024353 0.046906
0.387579 0.096315 0.011444
0.596704 0.150851 0.000000
0.785214 0.202060 0.000000
0.945373 0.242985 0.000000
1.000000 0.273045 0.000000
0.038331 0.084627 0.071870
0.088808 0.092256 0.079164
0.205753 0.108492 0.066468
0.389166 0.142580 0.008606
0.597284 0.189700 0.000000
0.785397 0.232883 0.000000
0.945037 0.268070 0.000000
1.000000 0.293462 0.000000
0.000000 0.188510 0.128420
0.069947 0.196323 0.128817
0.192996 0.210605 0.113985
0.386877 0.257664 0.050355
0.595300 0.299718 0.000000
0.781643 0.330755 0.000000
0.942840 0.353216 0.000000
1.000000 0.367712 0.000000
0.000000 0.356542 0.222934
0.000000 0.361242 0.223087
0.188571 0.372137 0.218448
0.354986 0.395300 0.186435
0.570733 0.442115 0.136080
0.774899 0.472999 0.078706
0.937774 0.483680 0.000000
1.000000 0.486122 0.000000
0.000000 0.532555 0.358190
0.000000 0.535790 0.359777
0.172824 0.546136 0.362737
0.345953 0.554376 0.354437
0.515373 0.578515 0.316197
0.717556 0.609064 0.283604
0.906615 0.628748 0.286870
1.000000 0.627161 0.304234
0.000000 0.682521 0.508415
0.000000 0.684596 0.510979
0.231388 0.692775 0.520592
0.363439 0.699763 0.519158
0.498543 0.710201 0.511040
0.656580 0.732753 0.478492
0.843748 0.756008 0.460151
0.995972 0.761624 0.492744
0.259922 0.821714 0.668055
0.284428 0.823636 0.671656
0.359869 0.828061 0.681117
0.450294 0.832944 0.688197
0.542535 0.836881 0.684535
0.650294 0.844846 0.674372
0.782223 0.857694 0.648951
0.932982 0.867094 0.640101
0.507256 0.923674 0.812772
0.518975 0.924315 0.815457
0.557946 0.925414 0.823056
0.621820 0.927337 0.836728
0.668544 0.929595 0.837308
0.728603 0.932555 0.837583
0.798154 0.937896 0.831540
0.886015 0.944152 0.818784
0.115572 0.109560 0.169009
0.141329 0.108370 0.170840
0.252537 0.103090 0.192996
0.448371 0.000000 0.197330
0.640650 0.081453 0.175937
0.809934 0.193637 0.174380
0.958007 0.250950 0.163180
1.000000 0.286717 0.142458
0.124758 0.150637 0.187015
0.150179 0.151125 0.189242
0.258854 0.150668 0.204471
0.451301 0.124208 0.196933
0.637781 0.175845 0.189517
0.807858 0.237736 0.187137
0.956481 0.279301 0.172824
1.000000 0.309239 0.156680
0.122896 0.241489 0.224216
0.157351 0.247990 0.229801
0.251743 0.270481 0.240604
0.437934 0.294469 0.236271
0.626978 0.321263 0.229618
0.798550 0.347997 0.221775
0.950286 0.372015 0.214969
1.000000 0.388983 0.209567
0.103395 0.395270 0.319219
0.150271 0.400092 0.322698
0.257053 0.418616 0.333074
0.394720 0.437140 0.315221
0.600336 0.474159 0.303685
0.785336 0.495003 0.302251
0.939757 0.505486 0.302220
1.000000 0.510124 0.307408
0.073365 0.556023 0.438880
0.143709 0.558984 0.441505
0.264469 0.570947 0.451148
0.388159 0.581323 0.449042
0.537438 0.601892 0.423224
0.729152 0.629145 0.408881
0.907561 0.646937 0.420417
1.000000 0.645411 0.434180
0.184970 0.695644 0.566125
0.215305 0.697963 0.568933
0.305486 0.705409 0.577935
0.410407 0.714687 0.583459
0.524895 0.723262 0.578210
0.668605 0.744625 0.552880
0.846372 0.766751 0.544335
0.991058 0.773434 0.575128
0.325872 0.827726 0.702602
0.343786 0.829435 0.705684
0.403784 0.833280 0.713832
0.490272 0.839231 0.725978
0.569329 0.843046 0.722866
0.666712 0.850248 0.715450
0.789212 0.862791 0.694392
0.932280 0.872374 0.690486
0.529015 0.925292 0.827420
0.539452 0.925811 0.829648
0.575586 0.926848 0.836423
0.636133 0.928923 0.848966
0.688014 0.931518 0.853971
0.743130 0.934508 0.854276
0.807767 0.939513 0.849516
0.890013 0.945617 0.838163
0.216464 0.212680 0.361212
0.241032 0.214420 0.363104
0.325505 0.219242 0.370733
0.484474 0.226749 0.405676
0.675471 0.227085 0.417212
0.836912 0.236637 0.392432
0.969207 0.309453 0.398047
1.000000 0.370275 0.415473
0.230655 0.258274 0.378698
0.252354 0.258671 0.380041
0.331182 0.259739 0.385565
0.484474 0.263859 0.414282
0.673121 0.263676 0.421302
0.834043 0.274540 0.398627
0.965454 0.339208 0.408209
1.000000 0.389837 0.423499
0.243015 0.353063 0.413184
0.265995 0.357366 0.416907
0.338781 0.365728 0.427527
0.480323 0.367437 0.442634
0.662989 0.367712 0.435157
0.816220 0.398596 0.437171
0.953155 0.435187 0.449531
1.000000 0.460487 0.457893
0.234287 0.459266 0.461158
0.258640 0.461860 0.463691
0.341558 0.476051 0.478309
0.452247 0.501671 0.493111
0.635737 0.527062 0.500023
0.794614 0.543236 0.506462
0.937133 0.557214 0.513603
1.000000 0.566094 0.519707
0.270268 0.595178 0.555230
0.290684 0.597620 0.557824
0.361028 0.608545 0.570031
0.457923 0.626490 0.585412
0.575006 0.642542 0.572961
0.749416 0.667475 0.574456
0.908507 0.682826 0.590265
1.000000 0.682399 0.598779
0.327276 0.719356 0.653773
0.342657 0.721279 0.656153
0.395758 0.727779 0.663813
0.481209 0.740444 0.677913
0.570855 0.749172 0.676967
0.692317 0.767178 0.661982
0.852659 0.787076 0.663630
0.983795 0.795102 0.690211
0.404456 0.836606 0.753933
0.418585 0.838346 0.756802
0.464820 0.841917 0.763638
0.539788 0.847623 0.775631
0.614099 0.852995 0.780575
0.694514 0.858488 0.776028
0.800565 0.870329 0.760220
0.931090 0.880430 0.761898
0.554620 0.927062 0.848386
0.564874 0.927764 0.850553
0.597650 0.928740 0.856168
0.652613 0.930388 0.866056
0.714839 0.933379 0.877104
0.762661 0.936339 0.877134
0.820737 0.940826 0.874052
0.895933 0.947265 0.865507
0.340764 0.363745 0.584710
0.357366 0.365270 0.585870
0.419562 0.369879 0.589502
0.524407 0.373632 0.598383
0.679255 0.389990 0.624598
0.834226 0.410742 0.630335
0.958831 0.437537 0.620447
1.000000 0.490517 0.631647
0.351202 0.395300 0.593530
0.366705 0.396307 0.594842
0.423957 0.397681 0.597345
0.523919 0.397803 0.604028
0.675776 0.410895 0.627985
0.830106 0.429023 0.632959
0.955200 0.454017 0.624445
1.000000 0.503349 0.636103
0.374884 0.478401 0.620844
0.388067 0.479805 0.622553
0.433875 0.478279 0.622858
0.520470 0.474342 0.624903
0.664851 0.483192 0.644404
0.816617 0.494453 0.646265
0.944335 0.516228 0.643854
1.000000 0.556115 0.659541
0.375921 0.558862 0.645014
0.389471 0.560235 0.645624
0.442084 0.568933 0.652247
0.522301 0.581079 0.664332
0.652003 0.585443 0.676509
0.801297 0.592065 0.674159
0.926787 0.615686 0.685481
1.000000 0.634577 0.695857
0.381842 0.646235 0.680110
0.395483 0.648157 0.681941
0.447364 0.654810 0.688869
0.528771 0.668574 0.703639
0.619593 0.688350 0.713252
0.772915 0.709682 0.723507
0.902678 0.717281 0.730404
1.000000 0.721675 0.736080
0.436194 0.750240 0.746548
0.446571 0.751888 0.748531
0.485359 0.757687 0.754910
0.549950 0.768368 0.766140
0.629450 0.782132 0.777340
0.724941 0.795468 0.770932
0.865415 0.814206 0.780362
0.978363 0.823941 0.800870
0.495003 0.851469 0.816342
0.504173 0.852842 0.818143
0.533715 0.855344 0.821439
0.591211 0.859709 0.828855
0.669520 0.867369 0.842069
0.733700 0.872251 0.841215
0.820676 0.883116 0.832120
0.934936 0.893614 0.837919
0.579980 0.931456 0.874876
0.588922 0.931945 0.876402
0.620722 0.932982 0.881102
0.670527 0.933867 0.887999
0.738003 0.937255 0.900267
0.791104 0.940856 0.905943
0.840665 0.944305 0.904356
0.906188 0.950835 0.898283
0.473396 0.520104 0.768948
0.483436 0.521233 0.769650
0.523308 0.523857 0.771145
0.594507 0.526940 0.774105
0.697810 0.527794 0.780972
0.829648 0.548852 0.794644
0.939574 0.579309 0.794797
1.000000 0.620600 0.799130
0.479530 0.537682 0.771115
0.489448 0.539055 0.772335
0.526787 0.540337 0.773556
0.594018 0.540612 0.775113
0.694636 0.539910 0.781247
0.825498 0.559167 0.794888
0.935943 0.588190 0.795773
1.000000 0.627863 0.800778
0.502403 0.597314 0.786770
0.509667 0.597131 0.786770
0.539849 0.595819 0.786496
0.595514 0.590784 0.783993
0.687831 0.588434 0.788632
0.814694 0.603662 0.801816
0.925933 0.628199 0.805081
1.000000 0.663050 0.812741
0.516899 0.660731 0.798398
0.523888 0.661036 0.798001
0.556390 0.666712 0.801816
0.607355 0.669337 0.805814
0.684901 0.666987 0.809110
0.802731 0.677394 0.820157
0.911742 0.692988 0.823514
0.999664 0.718929 0.832822
0.520500 0.724147 0.814298
0.528710 0.725246 0.815030
0.559991 0.729580 0.817685
0.614649 0.737972 0.823209
0.682155 0.746365 0.830259
0.785641 0.749294 0.836545
0.895750 0.757198 0.839231
0.986328 0.773739 0.848966
0.532219 0.789822 0.834073
0.541100 0.791348 0.835447
0.571405 0.794400 0.838376
0.623224 0.800107 0.843778
0.689723 0.809262 0.852750
0.762753 0.824125 0.859556
0.882017 0.840452 0.870085
0.971557 0.843503 0.874601
0.598077 0.866667 0.874937
0.605127 0.868040 0.876432
0.626154 0.870237 0.878782
0.662409 0.873472 0.882292
0.713100 0.879026 0.887785
0.775723 0.887327 0.894865
0.843961 0.896147 0.891295
0.942473 0.907774 0.899413
0.663783 0.937194 0.914458
0.667964 0.937560 0.914946
0.682094 0.938140 0.915892
0.708339 0.939239 0.917449
0.754482 0.941527 0.922087
0.821317 0.946044 0.932921
0.865324 0.949432 0.934112
0.919677 0.955627 0.930663
0.629297 0.678401 0.901518
0.634882 0.678950 0.901701
0.657221 0.680049 0.902068
0.699519 0.681147 0.902464
0.762081 0.680873 0.903044
0.850675 0.680903 0.906981
0.935149 0.706630 0.906218
0.995514 0.737087 0.902922
0.632593 0.687312 0.901396
0.638636 0.688411 0.901976
0.659693 0.688808 0.902220
0.700069 0.688838 0.902434
0.761166 0.688075 0.902983
0.848356 0.687861 0.906889
0.932799 0.712581 0.906615
0.993622 0.741482 0.903563
0.651118 0.724697 0.906188
0.655421 0.724727 0.906249
0.672114 0.723445 0.905760
0.706538 0.721553 0.905394
0.760555 0.718349 0.905028
0.841947 0.717830 0.908812
0.925658 0.739406 0.910369
0.987701 0.764309 0.908995
0.672175 0.771542 0.910613
0.675837 0.771542 0.910369
0.690608 0.771786 0.910552
0.719448 0.771176 0.911162
0.765255 0.769497 0.911894
0.834745 0.767453 0.914549
0.915160 0.781399 0.917113
0.978912 0.799496 0.917479
0.680171 0.812039 0.914977
0.684230 0.812558 0.915038
0.701228 0.814786 0.915648
0.732021 0.819089 0.917479
0.770413 0.820279 0.919005
0.824613 0.816648 0.920104
0.902556 0.824247 0.923674
0.969512 0.835019 0.924865
0.686152 0.853574 0.920928
0.690639 0.854307 0.921355
0.705898 0.855772 0.922026
0.733883 0.858427 0.923308
0.773770 0.862638 0.925566
0.821561 0.867094 0.928740
0.892546 0.869810 0.932189
0.962554 0.876890 0.934722
0.694209 0.895476 0.928435
0.699001 0.896361 0.929107
0.712947 0.897185 0.929747
0.739528 0.898375 0.930755
0.777798 0.900755 0.932769
0.824857 0.905211 0.936522
0.875944 0.914397 0.940215
0.954620 0.924346 0.946502
0.752041 0.945525 0.948363
0.755367 0.945861 0.948730
0.765347 0.946014 0.949157
0.784665 0.946532 0.950103
0.812619 0.948516 0.952117
0.848112 0.951568 0.954955
0.893431 0.956451 0.959747
0.935882 0.961791 0.958831
0.796811 0.830869 0.969177
0.799222 0.831144 0.969238
0.808194 0.831022 0.969177
0.826413 0.830808 0.969146
0.854704 0.829709 0.968994
0.895323 0.828031 0.969146
0.951965 0.827481 0.970520
0.991302 0.845457 0.965911
0.797391 0.833646 0.968750
0.800046 0.834104 0.968872
0.808743 0.833860 0.968811
0.826505 0.833524 0.968780
0.854276 0.832364 0.968688
0.894682 0.831022 0.969055
0.950805 0.830625 0.970489
0.990326 0.847898 0.966064
0.806851 0.850156 0.969360
0.808408 0.849851 0.969299
0.815457 0.848875 0.969085
0.830686 0.847593 0.968872
0.855589 0.845518 0.968688
0.893278 0.843992 0.969055
0.946990 0.843748 0.970733
0.987060 0.859403 0.967376
0.816953 0.871672 0.969574
0.817746 0.871000 0.969390
0.824247 0.870603 0.969390
0.838346 0.870390 0.969665
0.860472 0.869200 0.969848
0.892424 0.866453 0.969848
0.940826 0.865385 0.971435
0.981506 0.876799 0.969177
0.823850 0.893339 0.970459
0.825589 0.893523 0.970520
0.832425 0.894011 0.970642
0.847562 0.896025 0.971069
0.864836 0.894408 0.971130
0.890990 0.891386 0.971069
0.932525 0.888884 0.972076
0.974792 0.896757 0.971191
0.827939 0.915465 0.971984
0.830045 0.915862 0.972107
0.836820 0.916381 0.972198
0.849760 0.917296 0.972381
0.868925 0.918669 0.972808
0.892882 0.919005 0.973419
0.925566 0.916472 0.973877
0.968383 0.921355 0.974426
0.833005 0.939086 0.974182
0.835142 0.939483 0.974334
0.841245 0.939757 0.974426
0.852354 0.939971 0.974395
0.869596 0.940520 0.974517
0.893126 0.941802 0.975006
0.920897 0.942962 0.975830
0.961334 0.944671 0.977142
0.837156 0.962066 0.976287
0.839048 0.962280 0.976410
0.844999 0.962463 0.976562
0.856107 0.962737 0.976745
0.872953 0.963195 0.977111
0.896513 0.964050 0.977813
0.925139 0.966003 0.979339
0.955627 0.970855 0.981353
