20 Preset/Russian Style/【3】LUT video cho PR-AE-FCPX/Lut Tone (27).cube
# Created by Adobe Lightroom plugin Export LUT (1.24.0)
# www.johnrellis.com/lightroom/exportlut.htm
# Preset: 俄罗斯情绪-素材江湖14
# Color profile: C:\Program Files (x86)\Common Files\Adobe\Color\Profiles\Recommended\VideoHD.icc
LUT_3D_SIZE 8
DOMAIN_MIN 0.000000 0.000000 0.000000
DOMAIN_MAX 0.903226 0.903226 0.903226
0.013947 0.008362 0.004242
0.112703 0.011963 0.006348
0.275303 0.000000 0.012024
0.540246 0.000000 0.000000
0.833158 0.000000 0.000000
1.000000 0.133730 0.000000
1.000000 0.268498 0.000000
1.000000 0.352819 0.000000
0.049928 0.086519 0.041901
0.110079 0.096407 0.045289
0.277836 0.096223 0.032074
0.541039 0.000000 0.000000
0.830350 0.092134 0.000000
1.000000 0.220310 0.000000
1.000000 0.306737 0.000000
1.000000 0.376379 0.000000
0.000000 0.195315 0.131411
0.089631 0.204685 0.133181
0.246281 0.249149 0.132692
0.537865 0.307134 0.015137
0.815122 0.352422 0.000000
1.000000 0.388495 0.000000
1.000000 0.421057 0.000000
1.000000 0.458106 0.102205
0.000000 0.363287 0.194156
0.000000 0.372503 0.194400
0.198489 0.411231 0.194827
0.488441 0.499001 0.178592
0.784787 0.551659 0.037476
0.978454 0.558160 0.000000
1.000000 0.562371 0.084108
1.000000 0.574914 0.218082
0.000000 0.555810 0.244511
0.000000 0.562371 0.245640
0.096407 0.588342 0.250767
0.446052 0.636042 0.263005
0.728450 0.699916 0.288884
0.934112 0.717128 0.275364
1.000000 0.703792 0.270085
1.000000 0.701625 0.359106
0.000000 0.710018 0.339117
0.000000 0.713436 0.342016
0.217716 0.727260 0.354528
0.465400 0.751797 0.380285
0.682063 0.788418 0.421057
0.879606 0.828641 0.476600
1.000000 0.832853 0.505180
1.000000 0.821530 0.538689
0.342321 0.837797 0.498512
0.366796 0.839445 0.501244
0.451637 0.845975 0.512871
0.576684 0.857786 0.536034
0.715175 0.873564 0.571221
0.848814 0.895537 0.618097
0.960296 0.916136 0.672114
1.000000 0.914153 0.716274
0.661280 0.935454 0.694179
0.672694 0.936126 0.698512
0.702968 0.938262 0.706691
0.754604 0.942046 0.722103
0.818448 0.946929 0.744076
0.884398 0.952819 0.771817
0.945220 0.959686 0.803525
0.994324 0.966186 0.835813
0.052735 0.037018 0.054871
0.106874 0.038392 0.085664
0.283024 0.000000 0.096559
0.543542 0.000000 0.104677
0.833188 0.000000 0.034272
1.000000 0.159335 0.000000
1.000000 0.280919 0.000000
1.000000 0.363836 0.104341
0.066224 0.091432 0.095216
0.116793 0.108461 0.112612
0.281804 0.113802 0.116396
0.545098 0.089265 0.110780
0.830472 0.127199 0.032410
1.000000 0.233097 0.000000
1.000000 0.316777 0.000000
1.000000 0.386450 0.117525
0.049866 0.206210 0.161929
0.108217 0.222263 0.167971
0.257542 0.264714 0.170443
0.545769 0.316899 0.124544
0.817533 0.358160 0.021698
1.000000 0.393256 0.000000
1.000000 0.427008 0.000000
1.000000 0.465583 0.167025
0.000000 0.372168 0.214359
0.000000 0.387274 0.216251
0.211765 0.425544 0.218112
0.498878 0.509606 0.210178
0.788540 0.555749 0.140871
0.978820 0.561089 0.089113
1.000000 0.566369 0.160342
1.000000 0.580774 0.254917
0.000000 0.561120 0.262669
0.000000 0.570489 0.264622
0.133791 0.595666 0.271122
0.454597 0.641535 0.286442
0.732601 0.704097 0.316716
0.934142 0.719814 0.305577
1.000000 0.706569 0.300298
1.000000 0.705959 0.383917
0.000000 0.712062 0.354437
0.000000 0.716548 0.358770
0.243900 0.730190 0.371435
0.474769 0.754360 0.397162
0.686183 0.790372 0.437751
0.880308 0.830289 0.492592
1.000000 0.834470 0.519738
1.000000 0.823636 0.551812
0.350927 0.837766 0.506188
0.379522 0.840238 0.511223
0.460975 0.846738 0.522728
0.582696 0.858518 0.545678
0.718624 0.874296 0.580468
0.850034 0.896147 0.626581
0.959991 0.916655 0.679622
1.000000 0.914946 0.722316
0.660792 0.935302 0.696071
0.673182 0.935973 0.700893
0.705837 0.938231 0.710719
0.756802 0.942016 0.725948
0.819883 0.946960 0.747585
0.885222 0.952850 0.774960
0.945434 0.959777 0.806271
0.994110 0.966339 0.838071
0.087404 0.091066 0.141573
0.106508 0.093507 0.151766
0.235843 0.097658 0.201022
0.553368 0.000000 0.232181
0.854429 0.000000 0.219211
1.000000 0.168582 0.215915
1.000000 0.311467 0.226932
1.000000 0.401831 0.267796
0.109499 0.125582 0.164675
0.131197 0.137758 0.182376
0.259922 0.149264 0.222446
0.580072 0.000000 0.235477
0.849424 0.065309 0.225223
1.000000 0.248325 0.220981
1.000000 0.344060 0.231266
1.000000 0.422492 0.274510
0.107607 0.219394 0.217807
0.142397 0.238834 0.230961
0.290990 0.312963 0.267735
0.579095 0.340551 0.252171
0.833249 0.369085 0.238132
1.000000 0.406226 0.233341
1.000000 0.448432 0.253056
1.000000 0.496529 0.304967
0.000000 0.383490 0.269108
0.000000 0.405035 0.278050
0.254063 0.473243 0.300206
0.535027 0.545800 0.312902
0.803891 0.570581 0.277684
0.980133 0.573938 0.273777
1.000000 0.584527 0.307622
1.000000 0.606653 0.371405
0.000000 0.568078 0.321141
0.000000 0.581537 0.327550
0.231144 0.621668 0.349340
0.488899 0.661463 0.373785
0.747524 0.720241 0.413519
0.934081 0.730983 0.404852
1.000000 0.719051 0.402136
1.000000 0.723201 0.469306
0.000000 0.713436 0.402808
0.000000 0.720241 0.410254
0.324956 0.741390 0.434455
0.510735 0.764462 0.459754
0.702052 0.798154 0.499153
0.883024 0.836942 0.551202
0.998688 0.841001 0.573663
1.000000 0.831968 0.600153
0.373053 0.836454 0.532097
0.402655 0.839506 0.538628
0.496986 0.849790 0.560998
0.606317 0.861479 0.583001
0.731868 0.877104 0.615808
0.854826 0.898405 0.658961
0.959014 0.918853 0.708034
1.000000 0.918090 0.745205
0.657038 0.934539 0.703059
0.669520 0.935241 0.707637
0.716670 0.938201 0.726497
0.765011 0.942016 0.740780
0.825498 0.947143 0.761440
0.888243 0.952972 0.787381
0.946319 0.960113 0.817075
0.993256 0.966857 0.847013
0.105989 0.127199 0.211582
0.122591 0.131960 0.219944
0.205417 0.148806 0.255711
0.455787 0.149905 0.337133
0.815000 0.000000 0.391974
1.000000 0.168429 0.388434
1.000000 0.368688 0.401862
1.000000 0.484199 0.443488
0.130495 0.162905 0.233402
0.148165 0.170901 0.245090
0.228885 0.188327 0.278050
0.481666 0.198856 0.354284
0.825925 0.146334 0.397559
1.000000 0.263005 0.396185
1.000000 0.403632 0.409766
1.000000 0.502831 0.450721
0.156344 0.243717 0.273350
0.183566 0.260685 0.286290
0.303655 0.338903 0.349828
0.565423 0.372717 0.414374
0.858946 0.400153 0.427344
1.000000 0.449622 0.423072
1.000000 0.509880 0.440711
1.000000 0.565789 0.476936
0.062440 0.391394 0.334813
0.136263 0.409766 0.346746
0.308110 0.491615 0.402930
0.590051 0.604059 0.484565
0.822538 0.607599 0.464607
0.975158 0.614374 0.466957
1.000000 0.630152 0.484962
1.000000 0.655421 0.521630
0.000000 0.565606 0.392096
0.000000 0.579431 0.402014
0.323552 0.633356 0.448615
0.556664 0.696956 0.509056
0.772000 0.748348 0.549401
0.933593 0.751858 0.538170
1.000000 0.745296 0.544396
1.000000 0.753445 0.586938
0.165469 0.712276 0.469795
0.232242 0.718898 0.477485
0.396551 0.745998 0.510948
0.572351 0.782132 0.557366
0.730312 0.812039 0.593408
0.888090 0.849149 0.641016
0.991852 0.852873 0.654688
1.000000 0.845884 0.671229
0.388739 0.832273 0.569940
0.416388 0.835264 0.575921
0.515923 0.847807 0.602136
0.644404 0.866392 0.642267
0.753902 0.882109 0.671504
0.863035 0.902525 0.709499
0.957733 0.922942 0.752590
1.000000 0.923491 0.780941
0.639063 0.932799 0.712551
0.652125 0.933532 0.716762
0.702846 0.936553 0.734676
0.777066 0.941924 0.765164
0.833799 0.947356 0.784237
0.892821 0.953307 0.807919
0.947662 0.960754 0.835111
0.991943 0.967864 0.861967
0.131533 0.170901 0.280949
0.147127 0.174929 0.287755
0.213931 0.191714 0.317815
0.378332 0.217716 0.384466
0.706538 0.231815 0.498543
0.967010 0.308446 0.546960
1.000000 0.458839 0.568688
1.000000 0.603235 0.621668
0.152255 0.202152 0.301122
0.166537 0.206027 0.307622
0.232547 0.222416 0.336492
0.398077 0.250797 0.401831
0.718288 0.279271 0.509422
0.967956 0.356909 0.553887
1.000000 0.489204 0.577020
1.000000 0.616449 0.626886
0.190616 0.276677 0.329595
0.209262 0.288823 0.341131
0.294926 0.341741 0.400061
0.465034 0.384588 0.466499
0.753384 0.442206 0.552453
0.969421 0.503655 0.585443
1.000000 0.591180 0.612543
1.000000 0.659754 0.643488
0.184909 0.397162 0.390692
0.215000 0.412543 0.402777
0.345800 0.481086 0.458137
0.591455 0.614496 0.577417
0.809049 0.649622 0.635035
0.966278 0.676387 0.646906
1.000000 0.695399 0.650538
1.000000 0.721553 0.668574
0.127169 0.568261 0.470008
0.196445 0.579492 0.479927
0.372442 0.624933 0.522850
0.604089 0.710872 0.613428
0.804623 0.786679 0.689479
0.933013 0.782559 0.675868
1.000000 0.782315 0.682429
1.000000 0.791348 0.701503
0.239109 0.701198 0.529900
0.284794 0.707912 0.537621
0.423133 0.735378 0.570428
0.609735 0.785183 0.635340
0.769802 0.831907 0.696468
0.896300 0.866331 0.734768
0.986053 0.867674 0.736446
1.000000 0.864042 0.748501
0.384222 0.823209 0.611688
0.408057 0.826078 0.616144
0.494697 0.837797 0.635279
0.641230 0.861601 0.680293
0.778500 0.888457 0.733333
0.872740 0.908019 0.765591
0.957214 0.928740 0.802579
1.000000 0.930022 0.820554
0.579614 0.929229 0.719417
0.595483 0.929992 0.723171
0.655848 0.933043 0.739162
0.750484 0.939086 0.771359
0.841642 0.947448 0.811704
0.897642 0.954040 0.833219
0.949035 0.961700 0.857298
0.990539 0.969421 0.880613
0.158755 0.221530 0.363928
0.173495 0.224887 0.370001
0.234653 0.238437 0.395697
0.366125 0.262577 0.450263
0.603296 0.304936 0.545647
0.880583 0.391913 0.642329
1.000000 0.513512 0.679683
1.000000 0.642206 0.712734
0.173007 0.245457 0.379065
0.186923 0.248753 0.384771
0.247959 0.262394 0.410101
0.379553 0.288090 0.463752
0.613947 0.336217 0.556512
0.883146 0.424231 0.648768
1.000000 0.536217 0.684718
1.000000 0.657069 0.718349
0.206119 0.314214 0.405554
0.222782 0.323430 0.417273
0.294530 0.356420 0.460853
0.428168 0.391730 0.512352
0.650080 0.456764 0.596399
0.891569 0.533837 0.674830
1.000000 0.617212 0.706325
1.000000 0.710872 0.740841
0.228824 0.417487 0.451453
0.252750 0.428199 0.460426
0.354864 0.476722 0.499580
0.537469 0.575647 0.592645
0.710994 0.629419 0.665003
0.903563 0.681117 0.723354
1.000000 0.731685 0.748989
1.000000 0.787625 0.779660
0.254734 0.560357 0.525902
0.288884 0.569512 0.534173
0.409430 0.608118 0.569574
0.596643 0.683772 0.643244
0.804440 0.793393 0.755520
0.922789 0.817777 0.790066
0.998932 0.832609 0.799893
1.000000 0.843107 0.806729
0.334997 0.701961 0.601740
0.364050 0.707607 0.608026
0.465888 0.730770 0.634363
0.619135 0.774014 0.685542
0.793973 0.839017 0.765316
0.910307 0.889372 0.821653
0.981811 0.885649 0.815030
1.000000 0.887114 0.824033
0.405188 0.812650 0.662013
0.426062 0.815488 0.665949
0.504906 0.827359 0.682856
0.632654 0.850492 0.717891
0.779782 0.884672 0.773770
0.887816 0.916503 0.825193
0.958343 0.937041 0.855100
1.000000 0.937835 0.861570
0.573663 0.925322 0.755795
0.584771 0.926024 0.757687
0.629786 0.928801 0.765988
0.707240 0.934356 0.783536
0.811704 0.943542 0.818112
0.904540 0.954955 0.862943
0.951232 0.963104 0.883085
0.989471 0.971771 0.901854
0.203250 0.303227 0.500999
0.221408 0.307408 0.507622
0.287053 0.317784 0.526268
0.407965 0.340246 0.564904
0.580987 0.377508 0.621820
0.809995 0.459144 0.707424
0.990936 0.568200 0.766110
1.000000 0.674891 0.784146
0.208377 0.315831 0.501061
0.225956 0.320256 0.508049
0.290166 0.330968 0.526604
0.407233 0.352605 0.563256
0.576989 0.389685 0.618677
0.802579 0.467659 0.702327
0.984039 0.568750 0.760189
1.000000 0.670130 0.778622
0.240818 0.382238 0.525628
0.259007 0.388617 0.533715
0.325597 0.406806 0.557031
0.439551 0.432868 0.591272
0.601770 0.474372 0.642878
0.814603 0.548577 0.721889
0.981842 0.638178 0.776608
1.000000 0.725063 0.797848
0.283940 0.468299 0.543969
0.302892 0.474067 0.548608
0.379889 0.506462 0.579706
0.521660 0.571283 0.642420
0.659052 0.610803 0.691615
0.839506 0.673182 0.761196
0.976532 0.737545 0.805722
1.000000 0.794705 0.824796
0.310399 0.571771 0.591302
0.329351 0.575006 0.593835
0.409430 0.596002 0.611383
0.548577 0.645777 0.653986
0.732876 0.738186 0.742458
0.857847 0.781857 0.797940
0.967529 0.821714 0.834379
1.000000 0.860624 0.855589
0.366064 0.691127 0.653223
0.387152 0.695308 0.657496
0.464790 0.711971 0.674769
0.592737 0.746273 0.710689
0.753475 0.802823 0.769253
0.902159 0.886687 0.855039
0.969207 0.907317 0.881285
1.000000 0.921172 0.892882
0.457649 0.813748 0.725521
0.475959 0.816831 0.729305
0.538781 0.826047 0.741238
0.646509 0.845182 0.766445
0.774594 0.874479 0.805997
0.894835 0.916503 0.862943
0.962341 0.947692 0.902770
0.999054 0.946502 0.901152
0.584192 0.918730 0.797971
0.594507 0.919493 0.799496
0.641138 0.923766 0.808286
0.713954 0.929961 0.822599
0.802945 0.938933 0.844999
0.892607 0.951354 0.877745
0.955047 0.965515 0.910033
0.989105 0.975189 0.923888
0.345495 0.452705 0.675074
0.360479 0.456062 0.678645
0.410101 0.461128 0.686244
0.505425 0.478767 0.707393
0.633875 0.505272 0.738003
0.785336 0.543450 0.776944
0.949981 0.623682 0.833463
1.000000 0.722744 0.856535
0.344854 0.458869 0.671260
0.360021 0.462440 0.675044
0.410590 0.469245 0.684291
0.503655 0.485634 0.704738
0.631037 0.511955 0.735531
0.782223 0.549920 0.774929
0.946380 0.627253 0.831113
1.000000 0.723873 0.855009
0.368719 0.503258 0.677119
0.384527 0.508110 0.681727
0.431403 0.515312 0.691035
0.523888 0.536370 0.715023
0.642725 0.560113 0.743648
0.785702 0.594598 0.781064
0.942901 0.666682 0.835904
1.000000 0.753201 0.860380
0.384741 0.555200 0.676081
0.400580 0.560479 0.681025
0.459480 0.579217 0.698360
0.560510 0.613184 0.730251
0.668208 0.638025 0.760098
0.798825 0.672236 0.797726
0.939696 0.734768 0.848692
1.000000 0.805020 0.873198
0.389593 0.618921 0.690639
0.404181 0.621973 0.693172
0.452430 0.628992 0.698451
0.560113 0.662074 0.725063
0.703151 0.721218 0.778714
0.813352 0.753262 0.815946
0.934539 0.805295 0.863706
1.000000 0.861723 0.890410
0.425360 0.714748 0.735958
0.434852 0.714778 0.736049
0.478462 0.718288 0.739437
0.565545 0.731930 0.752102
0.690089 0.763272 0.778775
0.851347 0.842710 0.846921
0.939269 0.884276 0.890257
0.994659 0.913725 0.909972
0.520012 0.828916 0.801328
0.529961 0.829740 0.802304
0.571496 0.833677 0.807034
0.650843 0.844327 0.819181
0.752041 0.861601 0.837766
0.860685 0.891661 0.867582
0.952209 0.940124 0.913878
0.990326 0.953124 0.930419
0.617304 0.921416 0.853391
0.624445 0.921569 0.853819
0.657160 0.923247 0.857176
0.719478 0.927794 0.865476
0.799069 0.934966 0.878508
0.883085 0.945678 0.897642
0.951690 0.961791 0.923888
0.989105 0.979400 0.946715
