20 Preset/Russian Style/【3】LUT video cho PR-AE-FCPX/Lut Tone (4).cube
# Created by Adobe Lightroom plugin Export LUT (1.24.0)
# www.johnrellis.com/lightroom/exportlut.htm
# Preset: 俄罗斯情绪-素材江湖02
# Color profile: C:\Program Files (x86)\Common Files\Adobe\Color\Profiles\Recommended\VideoHD.icc
LUT_3D_SIZE 32
DOMAIN_MIN 0.0 0.0 0.0
DOMAIN_MAX 1.0 1.0 1.0
0.000000 0.000000 0.000000
0.003967 0.000000 0.000000
0.012177 0.000824 0.000763
0.035889 0.001556 0.000214
0.075746 0.002625 0.000427
0.100496 0.005554 0.001251
0.121859 0.008179 0.001678
0.148653 0.011994 0.000977
0.181796 0.015839 0.000000
0.220676 0.025055 0.000000
0.265141 0.035950 0.000000
0.313542 0.055329 0.000000
0.365179 0.080293 0.000000
0.419043 0.097078 0.000000
0.473915 0.112032 0.000000
0.528923 0.128176 0.000000
0.583520 0.145022 0.000000
0.636408 0.163119 0.000000
0.687495 0.178592 0.000000
0.736294 0.194034 0.000000
0.782681 0.207736 0.000000
0.826261 0.220340 0.000000
0.867552 0.231022 0.000000
0.907927 0.240391 0.000000
0.947356 0.249699 0.000000
0.984771 0.257633 0.000000
1.000000 0.264652 0.000000
1.000000 0.269139 0.000000
1.000000 0.271794 0.000000
1.000000 0.274113 0.000000
1.000000 0.274388 0.000000
1.000000 0.274357 0.000000
0.000275 0.002167 0.000824
0.002258 0.001953 0.000824
0.012757 0.003021 0.000458
0.036164 0.003723 0.001038
0.076295 0.004822 0.000122
0.100069 0.007965 0.000946
0.121523 0.010590 0.001373
0.148379 0.014405 0.000671
0.181765 0.019226 0.000000
0.220554 0.029633 0.000000
0.264927 0.042939 0.000000
0.313573 0.060914 0.000000
0.365179 0.085969 0.000000
0.418952 0.100160 0.000000
0.473823 0.114870 0.000000
0.529137 0.131044 0.000000
0.583551 0.148470 0.000000
0.636530 0.164858 0.000000
0.687678 0.180575 0.000000
0.736202 0.195987 0.000000
0.782315 0.209445 0.000000
0.826047 0.221592 0.000000
0.867247 0.231937 0.000000
0.907408 0.241520 0.000000
0.946960 0.250187 0.000000
0.984283 0.258579 0.000000
1.000000 0.265080 0.000000
1.000000 0.270176 0.000000
1.000000 0.272892 0.000000
1.000000 0.274540 0.000000
1.000000 0.275090 0.000000
1.000000 0.274846 0.000000
0.001617 0.010895 0.002991
0.003601 0.010681 0.002991
0.010437 0.012177 0.001526
0.032715 0.015290 0.000671
0.072572 0.016388 0.000885
0.099184 0.018341 0.000702
0.120821 0.020966 0.001129
0.148043 0.026978 0.000000
0.181369 0.036378 0.000000
0.220615 0.047547 0.000000
0.264714 0.065675 0.000000
0.313542 0.084993 0.000000
0.365362 0.098421 0.000000
0.419165 0.111818 0.000000
0.474006 0.126040 0.000000
0.529198 0.142153 0.000000
0.583795 0.158175 0.000000
0.636683 0.173892 0.000000
0.687648 0.189120 0.000000
0.736172 0.202853 0.000000
0.782223 0.215396 0.000000
0.825589 0.226169 0.000000
0.866667 0.235904 0.000000
0.906920 0.245243 0.000000
0.946288 0.254276 0.000000
0.983764 0.261997 0.000000
1.000000 0.269108 0.000000
1.000000 0.274449 0.000000
1.000000 0.277287 0.000000
1.000000 0.279240 0.000000
1.000000 0.279057 0.000000
1.000000 0.278874 0.000000
0.003723 0.030518 0.011566
0.005707 0.030304 0.011566
0.012238 0.031800 0.011231
0.029847 0.034394 0.008270
0.065644 0.037140 0.006073
0.096651 0.040284 0.004639
0.119417 0.043885 0.002655
0.147036 0.053285 0.000000
0.180850 0.067048 0.000000
0.220310 0.083101 0.000000
0.264866 0.094942 0.000000
0.313390 0.105959 0.000000
0.365667 0.118227 0.000000
0.419501 0.131930 0.000000
0.474250 0.145724 0.000000
0.529534 0.160830 0.000000
0.584100 0.175204 0.000000
0.636988 0.188968 0.000000
0.688045 0.201785 0.000000
0.736385 0.213596 0.000000
0.782406 0.224613 0.000000
0.825589 0.235019 0.000000
0.866819 0.244419 0.000000
0.907073 0.252811 0.000000
0.946380 0.261326 0.000000
0.983795 0.268986 0.000000
1.000000 0.275975 0.000000
1.000000 0.281559 0.000000
1.000000 0.286229 0.000000
1.000000 0.287572 0.000000
1.000000 0.287663 0.000000
1.000000 0.286687 0.000000
0.008881 0.058625 0.023438
0.011841 0.059388 0.024414
0.018067 0.060883 0.025208
0.030854 0.061738 0.023743
0.055299 0.065827 0.019318
0.092103 0.071595 0.014191
0.115846 0.079194 0.011566
0.145815 0.087465 0.006043
0.180453 0.095094 0.000366
0.220523 0.104128 0.000000
0.265415 0.114290 0.000000
0.314519 0.126223 0.000000
0.366613 0.138674 0.000000
0.420539 0.152010 0.000000
0.475593 0.165499 0.000000
0.530541 0.179110 0.000000
0.585138 0.192691 0.000000
0.637873 0.204929 0.000000
0.688228 0.217166 0.000000
0.736416 0.228092 0.000000
0.782284 0.238285 0.000000
0.825254 0.247837 0.000000
0.866148 0.256382 0.000000
0.906371 0.264591 0.000000
0.945525 0.272343 0.000000
0.983032 0.279759 0.000000
1.000000 0.286076 0.000000
1.000000 0.291386 0.000000
1.000000 0.296330 0.000000
1.000000 0.299992 0.000000
1.000000 0.299596 0.000000
1.000000 0.298558 0.000000
0.013092 0.088716 0.038636
0.014374 0.089082 0.038483
0.021881 0.090028 0.039124
0.031952 0.090852 0.037507
0.053254 0.091676 0.035676
0.086305 0.094270 0.029450
0.111238 0.098421 0.022980
0.142428 0.105806 0.016114
0.179599 0.115328 0.006104
0.221317 0.125307 0.000000
0.266575 0.136294 0.000000
0.315862 0.148714 0.000000
0.368444 0.161563 0.000000
0.422400 0.174807 0.000000
0.477211 0.187900 0.000000
0.532433 0.200717 0.000000
0.586328 0.213809 0.000000
0.638880 0.225437 0.000000
0.689204 0.236637 0.000000
0.737148 0.246799 0.000000
0.783047 0.256504 0.000000
0.826627 0.265263 0.000000
0.871000 0.274266 0.000000
0.911803 0.282017 0.000000
0.951202 0.289220 0.000000
0.988006 0.295384 0.000000
1.000000 0.300847 0.000000
1.000000 0.305974 0.000000
1.000000 0.310582 0.000000
1.000000 0.314244 0.000000
1.000000 0.316564 0.000000
1.000000 0.315129 0.000000
0.010285 0.107759 0.054658
0.011566 0.108034 0.054505
0.015656 0.109529 0.054871
0.029999 0.110658 0.054047
0.052552 0.111543 0.052064
0.086305 0.113802 0.047944
0.109102 0.118135 0.038788
0.137423 0.124453 0.028595
0.175418 0.135714 0.016449
0.219242 0.148135 0.001251
0.268467 0.161532 0.000000
0.318334 0.174166 0.000000
0.370153 0.187198 0.000000
0.423438 0.200351 0.000000
0.476875 0.212924 0.000000
0.531243 0.225223 0.000000
0.584588 0.237308 0.000000
0.635798 0.248295 0.000000
0.684962 0.258701 0.000000
0.733608 0.268284 0.000000
0.779934 0.277165 0.000000
0.823697 0.285588 0.000000
0.865812 0.292821 0.000000
0.907317 0.300328 0.000000
0.947539 0.307012 0.000000
0.985168 0.313207 0.000000
1.000000 0.318059 0.000000
1.000000 0.322576 0.000000
1.000000 0.326665 0.000000
1.000000 0.329900 0.000000
1.000000 0.332158 0.000000
1.000000 0.334051 0.000000
0.000000 0.133944 0.078126
0.000000 0.134432 0.077821
0.000000 0.135744 0.076875
0.007965 0.137819 0.074159
0.038361 0.138979 0.071687
0.084199 0.140597 0.068513
0.109651 0.144381 0.061128
0.137484 0.149905 0.048219
0.171023 0.157992 0.031617
0.215183 0.172183 0.013092
0.264775 0.186801 0.000000
0.317906 0.201907 0.000000
0.372686 0.216373 0.000000
0.425299 0.229526 0.000000
0.478828 0.241855 0.000000
0.532341 0.253941 0.000000
0.585138 0.265324 0.000000
0.636378 0.275639 0.000000
0.685237 0.284947 0.000000
0.733639 0.294102 0.000000
0.779599 0.302403 0.000000
0.823239 0.309728 0.000000
0.865263 0.316686 0.000000
0.906828 0.323064 0.000000
0.946990 0.329290 0.000000
0.984527 0.334600 0.000000
1.000000 0.338964 0.000000
1.000000 0.342718 0.000000
1.000000 0.345922 0.000000
1.000000 0.348669 0.000000
1.000000 0.350561 0.000000
1.000000 0.351934 0.000000
0.000000 0.167361 0.094697
0.000000 0.167880 0.094911
0.000000 0.169009 0.094148
0.000000 0.171725 0.092744
0.006714 0.173465 0.091493
0.069154 0.175113 0.090059
0.108644 0.177340 0.087678
0.138796 0.182773 0.077729
0.172305 0.189578 0.057130
0.210117 0.197696 0.032898
0.260014 0.214054 0.003235
0.313085 0.230014 0.000000
0.368750 0.245731 0.000000
0.425483 0.260746 0.000000
0.480201 0.273655 0.000000
0.533471 0.285527 0.000000
0.585931 0.296361 0.000000
0.636591 0.306096 0.000000
0.685145 0.314641 0.000000
0.733333 0.323064 0.000000
0.779080 0.330419 0.000000
0.822538 0.336980 0.000000
0.864622 0.342962 0.000000
0.906065 0.348882 0.000000
0.946197 0.354498 0.000000
0.983673 0.358862 0.000000
1.000000 0.362921 0.000000
1.000000 0.366125 0.000000
1.000000 0.368505 0.000000
1.000000 0.370367 0.000000
1.000000 0.371679 0.000000
1.000000 0.372412 0.000000
0.000000 0.206760 0.112673
0.000000 0.206973 0.112581
0.000000 0.208316 0.112093
0.000000 0.210971 0.111116
0.000000 0.213352 0.109438
0.026368 0.215061 0.108095
0.102327 0.217472 0.105898
0.139132 0.220706 0.102724
0.174350 0.227359 0.093629
0.212741 0.234836 0.077211
0.253819 0.242710 0.040101
0.307622 0.260380 0.000000
0.363348 0.276951 0.000000
0.420172 0.292485 0.000000
0.477760 0.307042 0.000000
0.535729 0.320928 0.000000
0.587945 0.331212 0.000000
0.638300 0.340215 0.000000
0.686793 0.347906 0.000000
0.734524 0.355840 0.000000
0.780179 0.362432 0.000000
0.823545 0.368231 0.000000
0.865721 0.373266 0.000000
0.907195 0.378759 0.000000
0.946960 0.383276 0.000000
0.984497 0.387060 0.000000
1.000000 0.390295 0.000000
1.000000 0.392584 0.000000
1.000000 0.394171 0.000000
1.000000 0.395392 0.000000
1.000000 0.395941 0.000000
1.000000 0.395972 0.000000
0.000000 0.250767 0.135317
0.000000 0.251041 0.135195
0.000000 0.252354 0.134981
0.000000 0.254673 0.134096
0.000000 0.258274 0.132692
0.000000 0.259892 0.130953
0.087922 0.261906 0.129427
0.135439 0.264561 0.126345
0.175143 0.268742 0.121157
0.214359 0.275975 0.110597
0.256229 0.283452 0.095766
0.300053 0.291966 0.061433
0.354711 0.308354 0.006867
0.412116 0.324498 0.000000
0.469398 0.339483 0.000000
0.527489 0.353674 0.000000
0.583795 0.366003 0.000000
0.637598 0.376196 0.000000
0.685695 0.383276 0.000000
0.733333 0.390295 0.000000
0.778927 0.395789 0.000000
0.822171 0.401007 0.000000
0.864561 0.405829 0.000000
0.905974 0.410254 0.000000
0.945953 0.414008 0.000000
0.983215 0.417182 0.000000
1.000000 0.419623 0.000000
1.000000 0.421057 0.000000
1.000000 0.422034 0.000000
1.000000 0.422461 0.000000
1.000000 0.422461 0.000000
1.000000 0.421912 0.000000
0.000000 0.297978 0.161898
0.000000 0.298253 0.161990
0.000000 0.299016 0.161501
0.000000 0.301518 0.161349
0.000000 0.304814 0.160250
0.000000 0.307286 0.158907
0.024933 0.308934 0.156863
0.126497 0.311162 0.154391
0.173251 0.313970 0.151644
0.214511 0.319280 0.144533
0.256840 0.326665 0.132265
0.301213 0.334997 0.116701
0.350011 0.345556 0.095644
0.405859 0.361120 0.045136
0.464942 0.377569 0.000000
0.523522 0.392065 0.000000
0.580529 0.404578 0.000000
0.636316 0.415564 0.000000
0.689998 0.424781 0.000000
0.738247 0.431159 0.000000
0.782864 0.435279 0.000000
0.825528 0.439155 0.000000
0.867277 0.442603 0.000000
0.908385 0.446052 0.000000
0.947478 0.448890 0.000000
0.983520 0.450721 0.000000
1.000000 0.451911 0.000000
1.000000 0.452583 0.000000
1.000000 0.452827 0.000000
1.000000 0.452216 0.000000
1.000000 0.451545 0.000000
1.000000 0.450263 0.000000
0.000000 0.345129 0.191928
0.000000 0.344823 0.191562
0.000000 0.345159 0.191257
0.000000 0.346807 0.190646
0.000000 0.349096 0.189761
0.000000 0.352178 0.188785
0.000000 0.353582 0.186954
0.109346 0.355596 0.184634
0.165866 0.357824 0.182040
0.212161 0.360967 0.179141
0.254124 0.368048 0.170474
0.298436 0.376318 0.158541
0.345068 0.384985 0.143130
0.393957 0.394293 0.122255
0.450416 0.408942 0.097597
0.509606 0.424750 0.054810
0.567712 0.438148 0.000000
0.623835 0.449439 0.000000
0.677729 0.458930 0.000000
0.729488 0.466590 0.000000
0.778897 0.472908 0.000000
0.822019 0.476112 0.000000
0.864408 0.479103 0.000000
0.905669 0.481727 0.000000
0.944549 0.483833 0.000000
0.980529 0.484962 0.000000
1.000000 0.485573 0.000000
1.000000 0.485328 0.000000
1.000000 0.484871 0.000000
1.000000 0.483833 0.000000
1.000000 0.482399 0.000000
1.000000 0.480720 0.000000
0.000000 0.393103 0.225406
0.000000 0.392767 0.225284
0.000000 0.393042 0.224643
0.000000 0.394141 0.224338
0.000000 0.396033 0.223636
0.000000 0.399481 0.223636
0.000000 0.401099 0.221958
0.083253 0.402502 0.219821
0.156832 0.404395 0.217227
0.208225 0.407538 0.214786
0.253208 0.411231 0.211643
0.296208 0.418952 0.201877
0.341619 0.427222 0.189303
0.389654 0.435859 0.174411
0.439521 0.445014 0.155306
0.495308 0.457832 0.134585
0.553368 0.471962 0.119295
0.609613 0.483589 0.102266
0.663844 0.493294 0.076814
0.715969 0.501061 0.027008
0.766018 0.507439 0.000000
0.814572 0.512840 0.000000
0.860319 0.517021 0.000000
0.901701 0.519036 0.000000
0.940459 0.520287 0.000000
0.976379 0.520684 0.000000
1.000000 0.520317 0.000000
1.000000 0.519677 0.000000
1.000000 0.518547 0.000000
1.000000 0.517052 0.000000
1.000000 0.515099 0.000000
1.000000 0.512871 0.000000
0.000000 0.440284 0.261601
0.000000 0.439918 0.261204
0.000000 0.440070 0.260441
0.000000 0.440833 0.260136
0.000000 0.442329 0.259831
0.000000 0.445319 0.260136
0.000000 0.447669 0.259342
0.019684 0.448798 0.257603
0.146822 0.450385 0.254948
0.203403 0.453346 0.253086
0.250950 0.456458 0.250706
0.294621 0.460975 0.246128
0.338018 0.468452 0.236088
0.384283 0.476631 0.223880
0.432349 0.485023 0.209262
0.482887 0.493446 0.192111
0.537041 0.504479 0.173800
0.593713 0.516930 0.163516
0.648554 0.527031 0.154482
0.701320 0.535210 0.146212
0.752010 0.541985 0.138033
0.801236 0.547631 0.130159
0.849119 0.552636 0.123598
0.895109 0.556756 0.118532
0.935363 0.557946 0.117037
0.971252 0.557580 0.118502
1.000000 0.556695 0.122194
1.000000 0.555474 0.128389
1.000000 0.553826 0.136172
1.000000 0.551720 0.144900
1.000000 0.549523 0.154055
1.000000 0.546899 0.163638
0.000000 0.487190 0.300145
0.000000 0.486824 0.299535
0.000000 0.486763 0.299413
0.000000 0.487373 0.299077
0.000000 0.488838 0.299199
0.000000 0.491402 0.299657
0.000000 0.494759 0.300298
0.000000 0.495857 0.298619
0.139345 0.497414 0.296788
0.200290 0.500008 0.295354
0.249882 0.502708 0.293278
0.294804 0.505821 0.290898
0.337285 0.511009 0.285130
0.380957 0.518425 0.275273
0.427008 0.525933 0.263188
0.475105 0.533898 0.249821
0.525750 0.541894 0.233127
0.578698 0.550713 0.216922
0.633570 0.561456 0.209812
0.686397 0.569970 0.204379
0.737789 0.576867 0.199741
0.787442 0.582910 0.196170
0.835966 0.588067 0.194064
0.882414 0.592065 0.192813
0.925658 0.594568 0.193271
0.965362 0.595514 0.195163
0.998962 0.594171 0.199649
1.000000 0.592248 0.204349
1.000000 0.589807 0.210208
1.000000 0.587335 0.217227
1.000000 0.584436 0.224887
1.000000 0.581323 0.232364
0.000000 0.530419 0.338720
0.000000 0.530083 0.338140
0.000000 0.529992 0.337926
0.000000 0.530510 0.337804
0.000000 0.531701 0.338293
0.000000 0.533898 0.338964
0.000000 0.536614 0.340154
0.000000 0.538628 0.339544
0.136568 0.539849 0.337652
0.198367 0.542138 0.336614
0.248020 0.544793 0.334997
0.293339 0.547631 0.333165
0.336645 0.550561 0.331029
0.378149 0.556298 0.324071
0.420966 0.563409 0.314488
0.466590 0.570703 0.303380
0.514397 0.577996 0.290166
0.563928 0.585107 0.274388
0.615167 0.592615 0.259129
0.668696 0.601831 0.253239
0.720577 0.609613 0.251011
0.771237 0.616144 0.249149
0.820432 0.621912 0.248569
0.867643 0.626368 0.249210
0.911620 0.629206 0.251347
0.952300 0.630488 0.255070
0.989685 0.630732 0.259892
1.000000 0.629175 0.264866
1.000000 0.626368 0.270390
1.000000 0.623102 0.277348
1.000000 0.619898 0.284062
1.000000 0.616266 0.291264
0.000000 0.572290 0.378882
0.000000 0.572351 0.379034
0.000000 0.569970 0.376410
0.000000 0.570916 0.377050
0.000000 0.572381 0.377844
0.000000 0.574548 0.379339
0.000000 0.577356 0.380987
0.000000 0.580560 0.382940
0.144594 0.582330 0.382025
0.203098 0.584314 0.380926
0.251286 0.586419 0.379614
0.295842 0.588769 0.378119
0.337438 0.591272 0.375921
0.378698 0.593988 0.373724
0.418280 0.600275 0.365576
0.460273 0.606287 0.355901
0.504784 0.612543 0.344182
0.551110 0.619013 0.331518
0.599481 0.625513 0.317082
0.649622 0.631769 0.301518
0.702266 0.640375 0.297185
0.753323 0.647822 0.296880
0.803372 0.654170 0.297368
0.851011 0.658991 0.298955
0.895506 0.662013 0.301762
0.936645 0.663478 0.305760
0.974731 0.663752 0.310796
1.000000 0.663142 0.316777
1.000000 0.661341 0.323369
1.000000 0.658076 0.330083
1.000000 0.654322 0.336553
1.000000 0.650477 0.344213
0.000000 0.605768 0.412940
0.000000 0.605921 0.413092
0.000000 0.606439 0.413703
0.000000 0.607416 0.414527
0.000000 0.609125 0.415900
0.000000 0.611200 0.417578
0.000000 0.613794 0.420050
0.073823 0.617273 0.423041
0.160525 0.619379 0.423316
0.212528 0.621271 0.422736
0.257572 0.623377 0.421515
0.299229 0.625635 0.420539
0.339330 0.628016 0.418891
0.378943 0.630549 0.417151
0.417578 0.633875 0.414435
0.456092 0.639673 0.406012
0.497475 0.645624 0.396551
0.540703 0.651728 0.386023
0.586481 0.657893 0.373907
0.633875 0.663844 0.360143
0.683162 0.669825 0.345251
0.735378 0.678340 0.342412
0.786069 0.685603 0.344030
0.834379 0.691218 0.346410
0.879606 0.694759 0.350347
0.921477 0.696681 0.355596
0.960052 0.697383 0.361669
0.995392 0.696925 0.368597
1.000000 0.695460 0.375830
1.000000 0.693263 0.383978
1.000000 0.690547 0.392737
1.000000 0.686366 0.400061
0.000000 0.644343 0.454231
0.000000 0.644312 0.454231
0.000000 0.644709 0.454505
0.000000 0.645502 0.455299
0.000000 0.646784 0.456825
0.000000 0.648585 0.458595
0.000000 0.650752 0.460700
0.121431 0.653712 0.463813
0.184115 0.656428 0.465949
0.228122 0.658045 0.465339
0.268193 0.659876 0.464607
0.307012 0.661860 0.463600
0.344915 0.663966 0.462379
0.382116 0.666377 0.460822
0.419440 0.668757 0.459205
0.455909 0.672328 0.454994
0.494026 0.678096 0.447242
0.534203 0.683864 0.438392
0.576745 0.689876 0.428443
0.621424 0.695674 0.417060
0.667964 0.701350 0.404547
0.716213 0.706844 0.390295
0.767269 0.714839 0.387640
0.816495 0.721340 0.391119
0.862242 0.725673 0.395758
0.904845 0.728145 0.401556
0.944091 0.729213 0.408331
0.980163 0.729091 0.415991
1.000000 0.728115 0.424842
1.000000 0.726253 0.433845
1.000000 0.723812 0.443305
1.000000 0.720790 0.452491
0.000000 0.681666 0.495674
0.000000 0.681666 0.495674
0.000000 0.681910 0.495857
0.000000 0.682612 0.496803
0.000000 0.683711 0.498024
0.000000 0.685145 0.499702
0.083925 0.687068 0.501854
0.159091 0.689479 0.504875
0.210666 0.692348 0.508202
0.248112 0.693965 0.508232
0.283848 0.695552 0.507469
0.319158 0.697353 0.506737
0.353948 0.699397 0.505791
0.388769 0.701534 0.504570
0.424414 0.703792 0.503319
0.459785 0.706172 0.501946
0.494942 0.710567 0.497078
0.532067 0.716030 0.489693
0.571344 0.721798 0.481636
0.613031 0.727535 0.472480
0.656855 0.733303 0.462379
0.702663 0.738949 0.450965
0.750362 0.744381 0.438361
0.799893 0.751369 0.436591
0.846372 0.756619 0.441993
0.889891 0.760037 0.449378
0.929961 0.761959 0.457740
0.966522 0.762448 0.466926
0.999634 0.761807 0.476936
1.000000 0.760342 0.487312
1.000000 0.758175 0.497902
1.000000 0.755550 0.508568
0.000000 0.721096 0.540795
0.000000 0.721279 0.541009
0.000000 0.721798 0.541527
0.000000 0.722347 0.542321
0.000000 0.723323 0.543664
0.107454 0.724575 0.545342
0.160616 0.726223 0.547692
0.203128 0.728176 0.550317
0.243412 0.730465 0.553491
0.277897 0.732479 0.555108
0.308049 0.733639 0.554376
0.338872 0.734951 0.553460
0.369726 0.736538 0.552422
0.401831 0.738155 0.551202
0.434211 0.739925 0.549615
0.467292 0.741787 0.548058
0.500877 0.743709 0.546319
0.534356 0.748135 0.540429
0.569909 0.753201 0.533227
0.608026 0.758450 0.525261
0.648432 0.763577 0.516442
0.690822 0.768490 0.506859
0.735042 0.773281 0.496010
0.780880 0.778012 0.484352
0.828092 0.783627 0.483284
0.871977 0.787716 0.489876
0.912596 0.790097 0.498604
0.949584 0.791012 0.508293
0.983307 0.790677 0.518395
1.000000 0.789517 0.529381
1.000000 0.787564 0.540490
1.000000 0.785458 0.552819
0.038697 0.756497 0.581842
0.050141 0.756680 0.582147
0.086152 0.757015 0.582666
0.115511 0.757534 0.583398
0.143008 0.758358 0.584588
0.175540 0.759426 0.586358
0.208408 0.760769 0.588434
0.240757 0.762325 0.590845
0.274083 0.764309 0.593896
0.307195 0.766690 0.597620
0.332952 0.767636 0.596765
0.359869 0.768765 0.595941
0.387549 0.770016 0.594842
0.416358 0.771359 0.593561
0.446021 0.772915 0.592523
0.476509 0.774411 0.590875
0.507897 0.776181 0.589471
0.539879 0.778073 0.587335
0.571862 0.782528 0.581201
0.606470 0.787289 0.574823
0.643397 0.791989 0.567681
0.682216 0.796506 0.559808
0.722957 0.800809 0.550896
0.765164 0.804837 0.540917
0.805966 0.805753 0.524987
0.850767 0.810300 0.523583
0.892241 0.813382 0.531060
0.930144 0.815122 0.541100
0.964782 0.815457 0.551812
0.996155 0.815305 0.564660
1.000000 0.814328 0.578058
1.000000 0.812711 0.591516
0.167636 0.788876 0.619928
0.170657 0.789334 0.620600
0.177798 0.789883 0.621454
0.190219 0.790707 0.622644
0.208621 0.791714 0.624292
0.229374 0.792630 0.625849
0.253483 0.793759 0.627955
0.280003 0.795224 0.630640
0.308446 0.796902 0.633875
0.337072 0.798642 0.637110
0.362707 0.799954 0.638514
0.385779 0.800839 0.637598
0.410132 0.801724 0.636591
0.435615 0.802762 0.635492
0.462318 0.803983 0.634302
0.490150 0.805234 0.633112
0.518730 0.806638 0.631800
0.548394 0.808042 0.630426
0.578302 0.810208 0.627741
0.608972 0.814115 0.621942
0.641596 0.817960 0.615442
0.676448 0.821744 0.608545
0.713039 0.825315 0.600732
0.751339 0.828641 0.591791
0.791226 0.831754 0.582055
0.832639 0.834684 0.571496
0.874937 0.838193 0.569696
0.913603 0.840269 0.578088
0.948638 0.841184 0.589349
0.980346 0.841306 0.602655
1.000000 0.840574 0.616114
1.000000 0.839139 0.630030
0.238712 0.820127 0.658961
0.241184 0.820645 0.659632
0.246159 0.821134 0.660487
0.254704 0.821805 0.661769
0.267796 0.822690 0.663416
0.283299 0.823545 0.665003
0.302647 0.824460 0.667262
0.324437 0.825711 0.669917
0.348669 0.827176 0.673060
0.373968 0.828519 0.676387
0.399847 0.830106 0.679988
0.419165 0.830808 0.679286
0.440253 0.831632 0.678614
0.462287 0.832547 0.677821
0.485725 0.833463 0.676783
0.510246 0.834501 0.675898
0.535760 0.835569 0.674739
0.562371 0.836698 0.673579
0.589899 0.837919 0.672267
0.617517 0.840238 0.669001
0.646235 0.843565 0.663630
0.676844 0.846830 0.657557
0.709529 0.849973 0.650843
0.743923 0.853086 0.643763
0.780087 0.855985 0.635859
0.818051 0.858793 0.627436
0.857145 0.861265 0.617914
0.897093 0.863981 0.615869
0.932616 0.865080 0.624842
0.964599 0.865599 0.638148
0.992920 0.865110 0.652155
1.000000 0.864195 0.667201
0.305119 0.849607 0.697963
0.306737 0.849943 0.698573
0.310735 0.850401 0.699397
0.317601 0.850980 0.700557
0.327489 0.851652 0.702113
0.339239 0.852232 0.703609
0.354559 0.852903 0.705623
0.372839 0.853819 0.708095
0.393133 0.854856 0.711147
0.414862 0.855833 0.714260
0.438392 0.856992 0.717952
0.458076 0.857816 0.719326
0.475013 0.858427 0.718532
0.493690 0.859068 0.717769
0.513603 0.859831 0.716915
0.534630 0.860655 0.716060
0.557061 0.861509 0.715145
0.580560 0.862455 0.714168
0.604913 0.863462 0.713161
0.630365 0.864591 0.712245
0.655848 0.867094 0.708919
0.682643 0.870115 0.704036
0.711269 0.872984 0.698817
0.741634 0.875731 0.692866
0.773617 0.878233 0.686244
0.807218 0.880674 0.679011
0.842374 0.882811 0.671015
0.878965 0.884642 0.662135
0.916350 0.886748 0.659480
0.949187 0.887755 0.670863
0.977996 0.887846 0.685939
1.000000 0.887205 0.701442
0.368048 0.876188 0.735286
0.369543 0.876524 0.735897
0.372686 0.876921 0.736721
0.378698 0.877409 0.737942
0.386694 0.877989 0.739437
0.397406 0.878569 0.741207
0.410712 0.879332 0.743496
0.426490 0.880186 0.746273
0.444343 0.881193 0.749599
0.464118 0.882231 0.753292
0.485939 0.883391 0.757656
0.508110 0.884672 0.762081
0.522911 0.885557 0.762295
0.538598 0.886381 0.762173
0.555627 0.887266 0.762142
0.573693 0.888212 0.761929
0.592981 0.889220 0.761837
0.613184 0.890196 0.761563
0.634241 0.891173 0.761196
0.656184 0.892180 0.760769
0.678950 0.893156 0.760220
0.701442 0.895720 0.756832
0.725368 0.898222 0.752651
0.751064 0.900603 0.748104
0.778195 0.902739 0.742733
0.807065 0.904936 0.737301
0.837888 0.907042 0.731716
0.869902 0.908904 0.725490
0.903349 0.910430 0.718349
0.937835 0.912474 0.716732
0.966278 0.912444 0.728847
0.990570 0.911986 0.744656
0.443488 0.903685 0.777523
0.444190 0.903746 0.777737
0.446448 0.903868 0.778164
0.450294 0.904082 0.778927
0.456611 0.904356 0.780117
0.464424 0.904509 0.781308
0.474708 0.904814 0.783078
0.487343 0.905150 0.785275
0.502037 0.905638 0.788022
0.518364 0.906126 0.791073
0.536553 0.906706 0.794766
0.556054 0.907378 0.798825
0.571069 0.907958 0.800504
0.583398 0.908476 0.800198
