20 Preset/Russian Style/【3】LUT video cho PR-AE-FCPX/Lut Tone (6).cube
# Created by Adobe Lightroom plugin Export LUT (1.24.0)
# www.johnrellis.com/lightroom/exportlut.htm
# Preset: 俄罗斯情绪-素材江湖03
# Color profile: C:\Program Files (x86)\Common Files\Adobe\Color\Profiles\Recommended\VideoHD.icc
LUT_3D_SIZE 8
DOMAIN_MIN 0.000000 0.000000 0.000000
DOMAIN_MAX 0.903226 0.903226 0.903226
0.000000 0.000000 0.000000
0.037873 0.001312 0.000214
0.199252 0.015839 0.000000
0.409247 0.102358 0.000000
0.619348 0.178042 0.000000
0.823636 0.258000 0.000000
0.977264 0.313603 0.000000
1.000000 0.346990 0.000000
0.000000 0.045380 0.009796
0.046296 0.050507 0.005768
0.204837 0.101350 0.000000
0.411200 0.157900 0.000000
0.618891 0.218753 0.000000
0.821378 0.282536 0.000000
0.974426 0.330419 0.000000
1.000000 0.364965 0.000000
0.000000 0.192844 0.089235
0.000000 0.195987 0.070161
0.198001 0.205234 0.037781
0.402319 0.260929 0.000000
0.616663 0.314641 0.000000
0.813046 0.361608 0.000000
0.964050 0.393866 0.000000
1.000000 0.416266 0.000000
0.000000 0.361883 0.172793
0.000000 0.364080 0.166110
0.175113 0.363775 0.152743
0.365911 0.378546 0.134981
0.570825 0.427131 0.093690
0.789334 0.480659 0.000000
0.946136 0.499794 0.000000
1.000000 0.506004 0.000000
0.000000 0.516625 0.265293
0.000000 0.517723 0.262272
0.000000 0.519829 0.251499
0.337072 0.514763 0.237613
0.518883 0.538598 0.223423
0.715755 0.581476 0.203311
0.899779 0.614557 0.178317
1.000000 0.622675 0.148409
0.000000 0.660883 0.351080
0.000000 0.661616 0.348852
0.000000 0.664271 0.339940
0.292943 0.660975 0.329564
0.479377 0.657710 0.316136
0.654566 0.681727 0.307866
0.831418 0.712154 0.303471
0.982269 0.728206 0.308995
0.000000 0.787900 0.446204
0.000000 0.788144 0.446296
0.000000 0.788876 0.447608
0.321782 0.788602 0.448066
0.480323 0.784817 0.437781
0.625116 0.787655 0.429603
0.776547 0.806332 0.431312
0.926757 0.828367 0.445624
0.262638 0.897276 0.575402
0.290288 0.897276 0.577234
0.379950 0.897490 0.585321
0.500008 0.898039 0.602686
0.587274 0.898070 0.603357
0.679652 0.898650 0.600977
0.788205 0.907286 0.610376
0.901549 0.921141 0.629816
0.019745 0.014221 0.045075
0.084169 0.014343 0.045991
0.226108 0.006897 0.031128
0.421881 0.111849 0.000000
0.623987 0.181460 0.000000
0.824674 0.252171 0.000000
0.976104 0.306859 0.000000
1.000000 0.346227 0.000000
0.007813 0.083223 0.073884
0.088411 0.089021 0.076448
0.228580 0.112062 0.064118
0.422919 0.157015 0.000000
0.623438 0.214115 0.000000
0.822690 0.276616 0.000000
0.973602 0.325017 0.000000
1.000000 0.360266 0.000000
0.000000 0.210819 0.131380
0.000000 0.214786 0.126101
0.216983 0.222721 0.115023
0.416327 0.271611 0.091615
0.621729 0.317937 0.000000
0.814298 0.361486 0.000000
0.963622 0.392828 0.000000
1.000000 0.414466 0.000000
0.000000 0.370092 0.204227
0.000000 0.372076 0.200107
0.194308 0.373358 0.187716
0.374365 0.386053 0.175265
0.578088 0.434150 0.155978
0.793057 0.484962 0.102296
0.945861 0.501457 0.000000
1.000000 0.506889 0.000000
0.000000 0.520867 0.285679
0.000000 0.522057 0.283360
0.095430 0.525322 0.273106
0.346197 0.520195 0.260197
0.524102 0.543023 0.248478
0.719570 0.585473 0.234531
0.901305 0.617273 0.217533
1.000000 0.624689 0.195773
0.000000 0.663020 0.364752
0.000000 0.663630 0.362982
0.000000 0.666255 0.355413
0.304021 0.663813 0.344945
0.484138 0.659937 0.331670
0.657465 0.683986 0.325261
0.833127 0.714382 0.323400
0.982513 0.730190 0.330449
0.000000 0.788663 0.456123
0.000000 0.788876 0.456306
0.000000 0.789670 0.457862
0.336767 0.789700 0.459480
0.487678 0.786069 0.449531
0.628840 0.788632 0.441444
0.778500 0.807523 0.444160
0.927398 0.829801 0.459663
0.275792 0.897673 0.581292
0.301701 0.897704 0.583093
0.387640 0.897887 0.591058
0.504967 0.898497 0.608148
0.593347 0.898680 0.610559
0.683986 0.899321 0.608362
0.790768 0.907897 0.617823
0.902770 0.921752 0.637293
0.120699 0.096529 0.193942
0.157137 0.094942 0.191043
0.269718 0.094453 0.197147
0.456062 0.013550 0.194369
0.642176 0.139254 0.175601
0.829099 0.233616 0.158846
0.973358 0.295689 0.109651
1.000000 0.335912 0.000000
0.120546 0.147311 0.207462
0.161044 0.146731 0.205447
0.272435 0.149874 0.206180
0.453346 0.138155 0.196597
0.639368 0.200626 0.189792
0.825803 0.268132 0.172030
0.971099 0.317510 0.122316
1.000000 0.352544 0.000000
0.094118 0.253849 0.233555
0.148440 0.255436 0.233219
0.267216 0.264958 0.233341
0.445686 0.297002 0.239689
0.633783 0.329931 0.231418
0.817044 0.365942 0.207797
0.961334 0.394965 0.170169
1.000000 0.414618 0.091676
0.000000 0.394507 0.289403
0.104128 0.396033 0.289220
0.256565 0.401404 0.286076
0.403967 0.409949 0.278813
0.603723 0.458625 0.282200
0.801083 0.497902 0.272801
0.943755 0.509270 0.244541
1.000000 0.513634 0.204471
0.000000 0.536706 0.352453
0.000000 0.537682 0.351049
0.204623 0.541985 0.344335
0.376684 0.540795 0.332006
0.543328 0.559289 0.325536
0.733577 0.599908 0.325322
0.906523 0.628138 0.323461
1.000000 0.631556 0.309056
0.000000 0.671046 0.415412
0.000000 0.671626 0.414343
0.115602 0.673854 0.410407
0.348974 0.674556 0.403418
0.504723 0.668879 0.390021
0.669093 0.692561 0.389227
0.839322 0.723201 0.395666
0.982849 0.739071 0.407050
0.000000 0.791897 0.494026
0.000000 0.792081 0.494423
0.204929 0.792813 0.496345
0.388922 0.794217 0.502342
0.516258 0.791287 0.494057
0.643854 0.792630 0.486152
0.786465 0.812222 0.492317
0.929961 0.835569 0.512016
0.318791 0.899474 0.604364
0.340368 0.899535 0.606043
0.415229 0.899809 0.613519
0.523522 0.900511 0.629511
0.617334 0.901305 0.639033
0.700893 0.902312 0.637507
0.801022 0.910491 0.646754
0.907530 0.924315 0.666590
0.234409 0.186740 0.358526
0.261601 0.188144 0.356512
0.344518 0.194247 0.348516
0.477668 0.208988 0.355840
0.662104 0.209903 0.363287
0.834531 0.189975 0.327001
0.970062 0.286717 0.317815
1.000000 0.345312 0.302007
0.241367 0.232120 0.364538
0.267155 0.232181 0.362646
0.347082 0.233585 0.355138
0.475807 0.244114 0.359808
0.658320 0.243351 0.364508
0.830655 0.240635 0.333684
0.966583 0.315618 0.325109
1.000000 0.364508 0.308446
0.240787 0.327886 0.378210
0.267124 0.329137 0.377905
0.348486 0.331579 0.375036
0.467781 0.335851 0.373785
0.647150 0.334203 0.367712
0.817014 0.367285 0.360601
0.953796 0.406867 0.352819
1.000000 0.430335 0.331395
0.213993 0.432502 0.398444
0.242039 0.433021 0.397955
0.328679 0.436500 0.397040
0.448219 0.445136 0.395331
0.635889 0.485847 0.410132
0.798337 0.508171 0.407050
0.936095 0.523369 0.395575
1.000000 0.529107 0.372930
0.155856 0.562158 0.442573
0.194888 0.563165 0.442359
0.301091 0.567071 0.441260
0.431220 0.573297 0.437934
0.574304 0.583612 0.433326
0.752621 0.623529 0.448798
0.911345 0.651148 0.460090
1.000000 0.648005 0.442512
0.130739 0.684871 0.493568
0.177829 0.685298 0.493294
0.290959 0.687098 0.492470
0.423346 0.690272 0.492226
0.548058 0.687922 0.483925
0.689693 0.706386 0.486091
0.848386 0.738888 0.502739
0.981872 0.757137 0.519402
0.182620 0.798337 0.554742
0.218875 0.798520 0.555169
0.321050 0.799283 0.557244
0.447089 0.800809 0.562676
0.563989 0.801083 0.564630
0.669703 0.799802 0.555657
0.800748 0.820768 0.566796
0.934874 0.846036 0.592126
0.368627 0.903410 0.643244
0.386297 0.903502 0.644800
0.451362 0.903807 0.651453
0.549767 0.904692 0.665705
0.656641 0.906493 0.687129
0.729732 0.908202 0.686763
0.817929 0.914855 0.693935
0.915984 0.929046 0.715114
0.360174 0.300145 0.516472
0.377722 0.301244 0.514611
0.439063 0.304814 0.506859
0.529900 0.308812 0.495399
0.671015 0.319371 0.506432
0.830137 0.329137 0.507347
0.955108 0.343542 0.481483
1.000000 0.392676 0.466712
0.364324 0.330144 0.518669
0.381048 0.330144 0.516869
0.440040 0.330480 0.509728
0.529259 0.330632 0.498054
0.669001 0.339269 0.508171
0.826383 0.348913 0.508019
0.951507 0.363470 0.483589
1.000000 0.410895 0.471534
0.359991 0.404852 0.527459
0.375616 0.404181 0.526940
0.435126 0.402319 0.520806
0.525170 0.399023 0.508782
0.660182 0.407782 0.515038
0.811124 0.418280 0.511955
0.936889 0.433692 0.493355
1.000000 0.474800 0.490242
0.337499 0.497261 0.535943
0.354803 0.497536 0.535546
0.418860 0.499275 0.533806
0.517327 0.502098 0.529320
0.640772 0.508934 0.528313
0.784726 0.517632 0.522484
0.916686 0.546410 0.525597
1.000000 0.564874 0.520134
0.310094 0.597436 0.550713
0.328618 0.597772 0.550469
0.396216 0.599176 0.549218
0.498085 0.603571 0.548241
0.611872 0.610285 0.546807
0.768643 0.650050 0.571008
0.899138 0.664973 0.573053
1.000000 0.669764 0.564660
0.322759 0.703639 0.583398
0.339910 0.703975 0.583459
0.401251 0.704860 0.583185
0.492073 0.705806 0.581811
0.602899 0.712856 0.586206
0.715846 0.723598 0.586297
0.861479 0.759487 0.611536
0.982177 0.781521 0.632685
0.342016 0.809140 0.630701
0.355840 0.809293 0.630671
0.406897 0.809995 0.630518
0.498634 0.811521 0.633051
0.611566 0.814420 0.641596
0.705989 0.814511 0.638727
0.819944 0.832822 0.650111
0.942870 0.860594 0.681331
0.397345 0.910185 0.692592
0.413855 0.910277 0.693874
0.475654 0.910674 0.699672
0.571038 0.911650 0.712001
0.678981 0.913848 0.732815
0.766567 0.917205 0.748928
0.839048 0.921111 0.751553
0.927153 0.935882 0.774533
0.470008 0.403937 0.655573
0.481758 0.404517 0.654200
0.527153 0.406226 0.648707
0.600702 0.408545 0.638392
0.696742 0.412757 0.629664
0.820157 0.435309 0.633204
0.932891 0.471809 0.628870
1.000000 0.509392 0.620386
0.472358 0.423835 0.655726
0.483619 0.424048 0.654475
0.527550 0.424598 0.649287
0.600061 0.425299 0.639490
0.694972 0.428473 0.630671
0.817319 0.450233 0.634180
0.929656 0.484688 0.630335
1.000000 0.520470 0.622797
0.475593 0.485115 0.658106
0.486275 0.485023 0.657038
0.527520 0.484413 0.652613
0.597162 0.483680 0.644007
0.687892 0.484810 0.634760
0.806088 0.503868 0.638483
0.917693 0.531762 0.636652
1.000000 0.561639 0.632410
0.473884 0.564599 0.661280
0.485115 0.565484 0.660853
0.528649 0.568872 0.659113
0.594537 0.569207 0.653437
0.676173 0.567163 0.642908
0.787716 0.582452 0.647669
0.899382 0.601923 0.648890
0.998566 0.624384 0.648920
0.464851 0.647059 0.668086
0.475502 0.647578 0.667842
0.516777 0.649500 0.666835
0.585412 0.653010 0.664912
0.668574 0.657008 0.661616
0.767636 0.664912 0.662531
0.882689 0.676661 0.664790
0.987366 0.699947 0.674250
0.460792 0.731411 0.682521
0.470619 0.731655 0.682460
0.508293 0.732753 0.682155
0.571588 0.734829 0.681636
0.654139 0.738918 0.681971
0.747158 0.745571 0.683375
0.877653 0.782071 0.712886
0.976867 0.794400 0.720089
0.483284 0.826169 0.720394
0.491585 0.826352 0.720485
0.524315 0.827298 0.721035
0.582696 0.829252 0.722225
0.659998 0.832273 0.724422
0.753201 0.837430 0.731930
0.844999 0.850278 0.739925
0.953429 0.881285 0.776669
0.544274 0.922148 0.779294
0.550683 0.922271 0.779477
0.577081 0.922667 0.780362
0.625055 0.923461 0.782071
0.702205 0.925170 0.790036
0.802426 0.928710 0.813138
0.869047 0.932341 0.821653
0.941192 0.945464 0.841947
0.586297 0.529442 0.771450
0.595850 0.532494 0.772488
0.624414 0.533745 0.768704
0.677089 0.537835 0.763088
0.746090 0.541527 0.753964
0.832975 0.549371 0.749386
0.924529 0.576562 0.745449
0.995850 0.613855 0.736782
0.579522 0.532036 0.763149
0.589471 0.535515 0.764767
0.617792 0.536431 0.761379
0.668299 0.537713 0.754849
0.735866 0.538933 0.744869
0.820798 0.543023 0.738247
0.912840 0.566003 0.733547
0.987335 0.599481 0.724361
0.594293 0.583734 0.768765
0.600549 0.583764 0.768063
0.624292 0.581842 0.763790
0.670436 0.580682 0.757382
0.732692 0.577844 0.746670
0.814694 0.581170 0.741146
0.908873 0.607538 0.742702
0.985168 0.643610 0.740688
0.610620 0.652186 0.776333
0.616205 0.652125 0.775357
0.636194 0.649439 0.771115
0.678035 0.649012 0.766751
0.734890 0.645991 0.758358
0.811063 0.649195 0.754299
0.901976 0.671748 0.758968
0.977386 0.698238 0.759060
0.596246 0.704250 0.774411
0.599420 0.702419 0.772274
0.621607 0.701717 0.769436
0.666896 0.705104 0.768399
0.724666 0.706416 0.763973
0.792142 0.704524 0.756680
0.882444 0.721706 0.763668
0.967651 0.752102 0.776547
0.588617 0.768460 0.781857
0.594873 0.769162 0.782162
0.618555 0.770718 0.782498
0.662043 0.773953 0.783413
0.721553 0.778164 0.784115
0.796048 0.787442 0.787747
0.878386 0.800870 0.795132
0.961639 0.818601 0.805844
0.608850 0.848722 0.810605
0.616205 0.850034 0.811948
0.636896 0.851041 0.812375
0.677150 0.853880 0.814206
0.731167 0.856962 0.815579
0.798734 0.862150 0.818936
0.873747 0.872557 0.828092
0.962066 0.901762 0.859739
0.680751 0.935363 0.864744
0.685847 0.935729 0.865354
0.710048 0.938170 0.869474
0.743862 0.939788 0.872374
0.787747 0.941161 0.875242
0.841001 0.943481 0.880186
0.905791 0.948150 0.894163
0.956115 0.956939 0.906615
0.692256 0.650446 0.854063
0.697627 0.652155 0.854490
0.712245 0.650477 0.851377
0.745724 0.654322 0.849363
0.792599 0.658381 0.845609
0.850889 0.663142 0.840879
0.925780 0.678035 0.844358
0.989105 0.709316 0.840116
0.687709 0.650324 0.849851
0.693141 0.652247 0.850431
0.709163 0.652247 0.848417
0.741634 0.654658 0.845914
0.788449 0.658167 0.842161
0.846738 0.662470 0.837400
0.921141 0.675196 0.839963
0.985718 0.705226 0.835843
0.692073 0.675319 0.849516
0.696162 0.675807 0.849424
0.710445 0.674678 0.847166
0.745083 0.681239 0.847837
0.787991 0.681666 0.843381
0.842679 0.682399 0.837461
0.915862 0.694850 0.841032
0.981231 0.724025 0.839475
0.700526 0.717250 0.852567
0.704860 0.718227 0.852903
0.718410 0.717800 0.851499
0.747677 0.720333 0.850706
0.789181 0.722499 0.848508
0.842100 0.725032 0.845335
0.911284 0.736751 0.849638
0.976257 0.764675 0.852323
0.701411 0.761624 0.858671
0.706416 0.762997 0.859312
0.719722 0.762997 0.858213
0.750942 0.768124 0.858244
0.788571 0.769192 0.856443
0.838895 0.772152 0.855039
0.904570 0.784085 0.860410
0.971069 0.814908 0.870939
0.712886 0.819394 0.873594
0.714595 0.818631 0.872801
0.725246 0.817624 0.871336
0.751369 0.819425 0.871397
0.793271 0.825284 0.873838
0.850889 0.839933 0.880949
0.909728 0.853910 0.888609
0.966217 0.870390 0.895018
0.753353 0.890013 0.903197
0.755520 0.889982 0.903044
0.765560 0.890105 0.902647
0.787655 0.891844 0.903258
0.820401 0.894743 0.904387
0.862852 0.899565 0.906798
0.911559 0.907134 0.910552
0.960906 0.918181 0.917418
0.789609 0.945098 0.928069
0.791135 0.945037 0.927886
0.801236 0.945769 0.928557
0.824247 0.948363 0.931273
0.855070 0.951598 0.934600
0.891325 0.955383 0.938537
0.931151 0.960021 0.943755
0.966400 0.965606 0.950988
