20 Preset/Russian Style/【3】LUT video cho PR-AE-FCPX/Lut Tone (22).cube
# Created by Adobe Lightroom plugin Export LUT (1.24.0)
# www.johnrellis.com/lightroom/exportlut.htm
# Preset: 俄罗斯情绪-素材江湖11
# Color profile: C:\Program Files (x86)\Common Files\Adobe\Color\Profiles\Recommended\VideoHD.icc
LUT_3D_SIZE 8
DOMAIN_MIN 0.000000 0.000000 0.000000
DOMAIN_MAX 0.903226 0.903226 0.903226
0.017975 0.027741 0.047791
0.087922 0.024811 0.047822
0.265141 0.007660 0.031861
0.485756 0.000000 0.000000
0.640925 0.000000 0.000000
0.737789 0.108980 0.005310
0.820310 0.178775 0.110170
0.892912 0.236423 0.163729
0.003235 0.103487 0.065766
0.079530 0.105837 0.076753
0.269963 0.142428 0.019501
0.483711 0.145815 0.000000
0.636469 0.154818 0.000000
0.733028 0.180636 0.040894
0.815000 0.219638 0.122896
0.888670 0.263523 0.172793
0.000000 0.303441 0.136263
0.000000 0.307561 0.132967
0.248417 0.302068 0.164248
0.458808 0.327733 0.141268
0.624933 0.328710 0.095888
0.722042 0.325170 0.138552
0.806027 0.336065 0.179873
0.880430 0.356359 0.218997
0.104250 0.475532 0.259953
0.168704 0.476478 0.258457
0.306828 0.477729 0.262547
0.439368 0.470192 0.301976
0.561181 0.478492 0.318242
0.688167 0.475135 0.269352
0.784115 0.468513 0.260807
0.860563 0.473579 0.287877
0.300542 0.582483 0.379278
0.314305 0.582727 0.378637
0.365728 0.584497 0.376287
0.452857 0.581689 0.390723
0.536400 0.574762 0.420935
0.609430 0.576318 0.448554
0.723995 0.592218 0.412848
0.828061 0.592096 0.376074
0.394842 0.668513 0.471443
0.401831 0.669612 0.471870
0.427649 0.671199 0.470375
0.476173 0.673671 0.469001
0.543786 0.668940 0.487098
0.606897 0.664485 0.509453
0.661524 0.665614 0.541009
0.763516 0.694087 0.519188
0.446143 0.755612 0.540795
0.450507 0.756069 0.540764
0.467964 0.757198 0.539818
0.501396 0.759701 0.538323
0.552483 0.759976 0.542809
0.611963 0.757076 0.558862
0.668299 0.754971 0.579431
0.720027 0.759182 0.610773
0.492622 0.844999 0.616846
0.495613 0.845243 0.616754
0.508202 0.846494 0.616541
0.532891 0.849119 0.616297
0.568231 0.851255 0.613428
0.620386 0.851377 0.626062
0.675349 0.850950 0.644953
0.727108 0.851072 0.667292
0.009094 0.035889 0.113649
0.091066 0.030213 0.120180
0.279576 0.000000 0.124422
0.488746 0.000000 0.131655
0.638178 0.076173 0.137789
0.732418 0.152590 0.158083
0.812894 0.208042 0.185855
0.886137 0.257359 0.217777
0.000000 0.112764 0.129427
0.081880 0.126497 0.139376
0.282414 0.149050 0.137697
0.487709 0.159579 0.137911
0.634821 0.177676 0.145846
0.728847 0.206790 0.167178
0.809171 0.242679 0.193820
0.882689 0.281834 0.224796
0.000000 0.312779 0.203433
0.000000 0.316686 0.201297
0.263676 0.314275 0.219486
0.464698 0.337865 0.203464
0.621424 0.336889 0.184573
0.716274 0.335821 0.205875
0.798703 0.346838 0.230777
0.873960 0.366430 0.258824
0.161257 0.475746 0.296239
0.202213 0.476783 0.295079
0.316960 0.479408 0.295415
0.440375 0.471077 0.327733
0.558373 0.479652 0.339147
0.683284 0.476387 0.296086
0.777279 0.471412 0.291752
0.854795 0.477485 0.314122
0.316136 0.582177 0.398108
0.327947 0.582391 0.397406
0.374517 0.583948 0.394659
0.455695 0.581384 0.405676
0.536095 0.574304 0.432776
0.608270 0.576989 0.457710
0.721920 0.592950 0.424109
0.825589 0.593103 0.389441
0.401221 0.667659 0.481056
0.407263 0.668086 0.480781
0.432013 0.669764 0.479438
0.478279 0.672908 0.477485
0.544610 0.668544 0.494514
0.606836 0.664698 0.515862
0.661555 0.666346 0.545342
0.762905 0.694209 0.523949
0.448554 0.754604 0.545800
0.452552 0.754665 0.545373
0.469612 0.755764 0.544427
0.502495 0.758389 0.543084
0.552972 0.759487 0.547387
0.611933 0.756649 0.562982
0.667750 0.754299 0.582910
0.719020 0.758480 0.613733
0.493965 0.844083 0.620233
0.497078 0.844541 0.620417
0.509453 0.845762 0.620081
0.533837 0.848417 0.619928
0.570153 0.852384 0.619257
0.621271 0.852171 0.630518
0.675685 0.851286 0.648615
0.727199 0.851377 0.670558
0.000000 0.085695 0.284031
0.020600 0.078798 0.289464
0.284215 0.020172 0.305303
0.503655 0.000000 0.308476
0.638697 0.152102 0.304051
0.723201 0.245243 0.322087
0.800717 0.294072 0.337530
0.873960 0.329778 0.351354
0.000000 0.173037 0.295659
0.045228 0.174044 0.300755
0.297765 0.172000 0.313939
0.500969 0.178775 0.310918
0.632227 0.227634 0.313207
0.718135 0.281651 0.328954
0.797177 0.315465 0.340734
0.870909 0.346502 0.354528
0.117494 0.326360 0.323125
0.178470 0.333135 0.329259
0.307408 0.349340 0.340734
0.487312 0.361883 0.334356
0.614832 0.368200 0.339879
0.705684 0.377752 0.348730
0.786679 0.392523 0.359472
0.861814 0.410620 0.372442
0.265904 0.485725 0.395544
0.287358 0.487343 0.396429
0.355566 0.492042 0.393774
0.457557 0.487953 0.409766
0.565240 0.497475 0.412390
0.683101 0.494728 0.384100
0.767361 0.496803 0.393500
0.844724 0.503990 0.405066
0.368048 0.585260 0.461769
0.376257 0.585657 0.461311
0.409216 0.587823 0.459327
0.472602 0.588769 0.462684
0.543175 0.583062 0.483040
0.612696 0.589197 0.497322
0.721584 0.604303 0.471504
0.820981 0.605188 0.447974
0.425818 0.670192 0.518395
0.430793 0.670680 0.518242
0.451667 0.672358 0.517052
0.491493 0.675624 0.514855
0.551019 0.673152 0.525048
0.610010 0.669764 0.541955
0.665156 0.673915 0.566003
0.764706 0.700008 0.546868
0.462135 0.756893 0.571283
0.465675 0.757046 0.571038
0.481086 0.757992 0.569940
0.511284 0.760494 0.568414
0.557824 0.762722 0.569940
0.615259 0.760250 0.584619
0.669825 0.758541 0.603510
0.719966 0.763790 0.633387
0.503441 0.845365 0.639704
0.506096 0.845548 0.639551
0.517632 0.846738 0.639246
0.540795 0.849668 0.639368
0.575311 0.853635 0.638758
0.624231 0.854673 0.647730
0.677668 0.854063 0.664851
0.728115 0.854307 0.685634
0.000000 0.152468 0.451728
0.083894 0.155795 0.454444
0.302495 0.161685 0.462806
0.493294 0.169528 0.472053
0.632074 0.215122 0.459358
0.714290 0.290959 0.450019
0.785031 0.357305 0.461952
0.854002 0.402075 0.476661
0.009552 0.237461 0.457069
0.152987 0.238224 0.458961
0.316442 0.238926 0.466194
0.494301 0.239902 0.474464
0.626856 0.270237 0.462013
0.709102 0.326177 0.455879
0.780545 0.381048 0.468421
0.851560 0.415900 0.479622
0.216800 0.375769 0.462318
0.254429 0.379400 0.464363
0.352117 0.387213 0.472724
0.491615 0.384863 0.480415
0.605982 0.400671 0.474525
0.691005 0.426093 0.478370
0.769375 0.448707 0.485512
0.844114 0.465858 0.491615
0.337316 0.490120 0.483558
0.355016 0.491646 0.485725
0.407752 0.501518 0.495064
0.479683 0.510979 0.502739
0.578729 0.518578 0.497230
0.669001 0.523064 0.498573
0.751949 0.529442 0.502037
0.830045 0.536828 0.506310
0.418738 0.589960 0.531640
0.426276 0.591058 0.532830
0.453010 0.595575 0.535943
0.495216 0.600732 0.534203
0.554559 0.597864 0.544488
0.624140 0.608179 0.548119
0.726375 0.618830 0.531060
0.812192 0.621607 0.527489
0.456611 0.676936 0.571221
0.460914 0.677913 0.571435
0.476967 0.679438 0.570245
0.509606 0.682856 0.568444
0.561242 0.683864 0.571710
0.616480 0.680446 0.585504
0.673030 0.688167 0.601831
0.769345 0.709651 0.585321
0.484749 0.760739 0.614435
0.487953 0.761135 0.614374
0.501122 0.762539 0.613855
0.527184 0.765377 0.612634
0.566888 0.769558 0.610712
0.621393 0.767605 0.622492
0.673304 0.765988 0.638941
0.721370 0.772457 0.666773
0.519677 0.848539 0.674372
0.521996 0.848814 0.674311
0.532219 0.850004 0.673976
0.552697 0.852598 0.673579
0.583948 0.856596 0.672847
0.628504 0.859464 0.677211
0.680720 0.859068 0.692714
0.729976 0.859678 0.711727
0.186526 0.255802 0.571801
0.227726 0.258885 0.572717
0.339635 0.268620 0.575433
0.472663 0.278477 0.580682
0.606867 0.299046 0.583886
0.703609 0.337499 0.569543
0.776242 0.388647 0.563012
0.843198 0.436744 0.570245
0.241245 0.312200 0.572259
0.269139 0.313329 0.573175
0.356695 0.316991 0.575799
0.475837 0.320745 0.580743
0.604059 0.333837 0.583917
0.699580 0.364477 0.571038
0.772366 0.409003 0.566125
0.840635 0.450202 0.572900
0.331579 0.425696 0.572107
0.347570 0.427497 0.573083
0.399054 0.428565 0.575616
0.483986 0.427497 0.580316
0.591302 0.431647 0.583062
0.682856 0.447456 0.576715
0.759274 0.471534 0.575830
0.831724 0.494362 0.580652
0.387793 0.516625 0.572564
0.399634 0.518273 0.573266
0.441505 0.524956 0.576532
0.498665 0.533379 0.583337
0.579736 0.532433 0.587884
0.665980 0.538415 0.585687
0.744808 0.548394 0.587518
0.820615 0.557336 0.590539
0.453315 0.592126 0.587121
0.459510 0.593072 0.588220
0.481514 0.598047 0.592767
0.517510 0.608789 0.600580
0.566644 0.615412 0.604456
0.642634 0.624781 0.601099
0.728573 0.627375 0.598352
0.806851 0.630426 0.600214
0.481300 0.677760 0.621576
0.485542 0.678614 0.622400
0.502312 0.681910 0.625208
0.531243 0.687953 0.628626
0.569970 0.693904 0.626307
0.623468 0.692744 0.637537
0.684474 0.704707 0.645014
0.778988 0.717678 0.630732
0.511437 0.764065 0.665522
0.514366 0.764492 0.665858
0.526024 0.766629 0.667109
0.545037 0.769619 0.665126
0.578424 0.774350 0.663691
0.627039 0.776333 0.667994
0.677211 0.774868 0.682002
0.727565 0.784787 0.701503
0.535119 0.850767 0.714992
0.537133 0.851041 0.714900
0.545830 0.852262 0.714504
0.564080 0.855467 0.714748
0.592187 0.859709 0.714229
0.631067 0.865568 0.713405
0.683162 0.865263 0.726802
0.731746 0.865812 0.743862
0.324132 0.355810 0.658686
0.340246 0.357855 0.659297
0.396490 0.364324 0.660945
0.481392 0.373327 0.664393
0.580804 0.380804 0.669429
0.682124 0.400916 0.671168
0.764065 0.430976 0.663661
0.834897 0.464637 0.660487
0.347692 0.388495 0.657404
0.360418 0.389441 0.657832
0.408392 0.392859 0.659327
0.485145 0.397772 0.662806
0.579950 0.402472 0.668116
0.678798 0.419471 0.670222
0.760708 0.445136 0.663630
0.832486 0.474708 0.660975
0.404852 0.473793 0.657801
0.412665 0.473884 0.658167
0.444312 0.474311 0.659785
0.500999 0.474434 0.662593
0.580011 0.474464 0.668025
0.670649 0.481239 0.670863
0.752590 0.494270 0.666560
0.825284 0.514763 0.665431
0.442145 0.550652 0.657801
0.448920 0.551659 0.658289
0.474617 0.555322 0.661158
0.516960 0.557366 0.666377
0.579919 0.555749 0.672053
0.662806 0.556909 0.675013
0.740902 0.565270 0.672755
0.812863 0.580194 0.675715
0.465034 0.618280 0.660700
0.470436 0.619104 0.661250
0.492103 0.622614 0.663630
0.530388 0.629145 0.668482
0.579492 0.636500 0.675868
0.650446 0.636133 0.679377
0.724758 0.642054 0.681117
0.798245 0.650385 0.686732
0.509178 0.684077 0.674708
0.513634 0.684962 0.675685
0.530419 0.687434 0.678706
0.556115 0.693721 0.684840
0.589746 0.704005 0.693141
0.633661 0.710933 0.697932
0.705257 0.720607 0.695705
0.786465 0.722988 0.694545
0.535424 0.766537 0.714046
0.538231 0.767269 0.714809
0.548974 0.769833 0.717189
0.569329 0.775051 0.721645
0.598383 0.783108 0.727016
0.633570 0.789517 0.723751
0.683650 0.789090 0.734463
0.741390 0.803006 0.743008
0.554437 0.853147 0.759884
0.556390 0.853513 0.760128
0.565118 0.855436 0.761746
0.582208 0.859709 0.765103
0.603906 0.864866 0.765103
0.637842 0.871061 0.764523
0.686183 0.875029 0.770321
0.734798 0.875578 0.785611
0.416663 0.444892 0.744503
0.425360 0.446326 0.745174
0.457404 0.449683 0.746181
0.512749 0.455238 0.748562
0.584161 0.460426 0.752255
0.666560 0.466407 0.756497
0.752377 0.478462 0.758541
0.820676 0.497627 0.747341
0.426551 0.462837 0.742397
0.434424 0.464088 0.743160
0.463661 0.466133 0.744259
0.514977 0.469368 0.746487
0.583520 0.472541 0.750088
0.664149 0.476234 0.754086
0.748989 0.485939 0.755947
0.817227 0.503258 0.744961
0.455085 0.519310 0.743221
0.460609 0.519432 0.743465
0.483223 0.519402 0.744320
0.525750 0.519493 0.746578
0.586023 0.518944 0.750027
0.661585 0.518456 0.754788
0.744961 0.524926 0.757900
0.812589 0.540856 0.749233
0.478981 0.584741 0.744961
0.483986 0.585199 0.745205
0.503532 0.586572 0.746395
0.537835 0.586389 0.748928
0.589014 0.585321 0.752560
0.657588 0.584009 0.758145
0.736019 0.588556 0.761135
0.803159 0.599176 0.755612
0.494881 0.647761 0.744320
0.498970 0.647974 0.744320
0.516655 0.650080 0.745510
0.548425 0.654017 0.749111
0.591363 0.657099 0.754421
0.648463 0.654719 0.760037
0.721920 0.656001 0.763119
0.791989 0.664698 0.763943
0.515312 0.712612 0.748653
0.518914 0.713130 0.749111
0.533288 0.715084 0.750851
0.559411 0.718776 0.754238
0.596155 0.723964 0.759548
0.642878 0.731258 0.768307
0.709407 0.732357 0.773037
0.778988 0.739498 0.777584
0.553491 0.775051 0.763577
0.556390 0.775692 0.764309
0.567651 0.777371 0.766354
0.589014 0.780972 0.770687
0.617670 0.787381 0.777737
0.650141 0.798672 0.787594
0.691341 0.807218 0.793851
0.763973 0.816220 0.791226
0.578576 0.855467 0.805844
0.580438 0.856016 0.806424
0.588617 0.858732 0.809140
0.603601 0.863188 0.813443
0.625879 0.869932 0.819516
0.655299 0.879606 0.827024
0.689662 0.888060 0.825315
0.739254 0.889738 0.837339
0.485634 0.525139 0.829709
0.490761 0.525566 0.830106
0.510613 0.526329 0.830594
0.548211 0.528283 0.832517
0.601099 0.530358 0.835508
0.666224 0.532158 0.839567
0.740658 0.537285 0.843931
0.818265 0.548058 0.847044
0.488594 0.534173 0.828550
0.493446 0.534691 0.829007
0.512749 0.535271 0.829709
0.549218 0.536614 0.831571
0.601007 0.538201 0.834531
0.665370 0.539605 0.838682
0.739040 0.543755 0.842893
0.816342 0.553674 0.845853
0.500481 0.569879 0.828122
0.504784 0.570001 0.828397
0.521843 0.570001 0.829068
0.555505 0.571466 0.831662
0.603235 0.571801 0.834348
0.663874 0.571740 0.838285
0.735317 0.574395 0.842985
0.811307 0.582330 0.846372
0.518822 0.625879 0.828428
0.522423 0.626032 0.828824
0.536706 0.625940 0.829648
0.564813 0.626307 0.831815
0.606653 0.626215 0.835019
0.661646 0.625452 0.839445
0.729091 0.625727 0.844968
0.803342 0.630701 0.849149
0.527550 0.681056 0.828519
0.531029 0.681544 0.829038
0.544060 0.682094 0.830259
0.573693 0.687831 0.833433
0.608301 0.687037 0.836698
0.656519 0.685481 0.841459
0.719753 0.684138 0.848356
0.792905 0.688563 0.853758
0.538964 0.743526 0.832303
0.541588 0.743496 0.832334
0.552667 0.743923 0.833097
0.574670 0.745388 0.835477
0.607050 0.747616 0.840146
0.652308 0.753384 0.848203
0.709468 0.754604 0.857145
0.779507 0.757351 0.861875
0.556878 0.811093 0.843778
0.559136 0.811276 0.844022
0.568902 0.812161 0.845060
0.587762 0.814267 0.847471
0.615808 0.817594 0.851469
0.652216 0.822110 0.857389
0.698238 0.828244 0.866453
0.762905 0.830198 0.872190
0.588678 0.870787 0.857603
0.590570 0.870970 0.857877
0.598932 0.872160 0.859342
0.615381 0.875029 0.862760
0.639826 0.879484 0.868070
0.671565 0.885954 0.875914
0.705898 0.897398 0.887877
0.744656 0.908812 0.898802
