20 Preset/Russian Style/【3】LUT video cho PR-AE-FCPX/Lut Tone (17).cube
# Created by Adobe Lightroom plugin Export LUT (1.24.0)
# www.johnrellis.com/lightroom/exportlut.htm
# Preset: 俄罗斯情绪-素材江湖09
# Color profile: C:\Program Files (x86)\Common Files\Adobe\Color\Profiles\Recommended\VideoHD.icc
LUT_3D_SIZE 32
DOMAIN_MIN 0.0 0.0 0.0
DOMAIN_MAX 1.0 1.0 1.0
0.091859 0.083619 0.089967
0.091859 0.083619 0.089967
0.091859 0.083619 0.089967
0.094240 0.084596 0.089845
0.103639 0.086122 0.089509
0.121889 0.088319 0.089265
0.145388 0.090486 0.088197
0.174899 0.094789 0.085847
0.212589 0.100069 0.080934
0.258000 0.108339 0.072206
0.312596 0.118593 0.054108
0.373602 0.132204 0.029297
0.440742 0.148653 0.000000
0.512657 0.168032 0.000000
0.588220 0.189792 0.000000
0.665156 0.213321 0.000000
0.740139 0.237522 0.000000
0.810117 0.260990 0.000000
0.872465 0.282200 0.000000
0.925689 0.301061 0.000000
0.971771 0.317449 0.000000
1.000000 0.332128 0.000000
1.000000 0.345220 0.000000
1.000000 0.357305 0.000000
1.000000 0.368383 0.000000
1.000000 0.378607 0.000000
1.000000 0.387793 0.000000
1.000000 0.395911 0.000000
1.000000 0.402930 0.000000
1.000000 0.409094 0.000000
1.000000 0.414191 0.000000
1.000000 0.418494 0.000000
0.091859 0.083619 0.089967
0.091859 0.083619 0.089967
0.091585 0.084382 0.089906
0.094240 0.084596 0.089845
0.104036 0.086763 0.089448
0.122530 0.089021 0.089143
0.146487 0.091493 0.088014
0.176516 0.095918 0.085451
0.215000 0.101442 0.081025
0.261723 0.109834 0.070649
0.316747 0.120760 0.052857
0.378882 0.134585 0.025818
0.446662 0.151614 0.000000
0.519219 0.171206 0.000000
0.594873 0.193393 0.000000
0.671839 0.216922 0.000000
0.746456 0.241062 0.000000
0.816007 0.264134 0.000000
0.877714 0.285313 0.000000
0.930480 0.303777 0.000000
0.976165 0.320256 0.000000
1.000000 0.334508 0.000000
1.000000 0.347570 0.000000
1.000000 0.359564 0.000000
1.000000 0.370642 0.000000
1.000000 0.380529 0.000000
1.000000 0.389471 0.000000
1.000000 0.397406 0.000000
1.000000 0.404303 0.000000
1.000000 0.410285 0.000000
1.000000 0.415320 0.000000
1.000000 0.419532 0.000000
0.091829 0.085023 0.090700
0.091585 0.085786 0.090639
0.091676 0.085786 0.090211
0.094087 0.086732 0.090089
0.103761 0.089784 0.089967
0.122499 0.092378 0.089113
0.146914 0.095430 0.088289
0.177920 0.099733 0.085786
0.216617 0.106142 0.080964
0.263615 0.115328 0.070893
0.319493 0.126680 0.052094
0.382147 0.141207 0.024720
0.450355 0.158694 0.000000
0.523186 0.178683 0.000000
0.599542 0.200961 0.000000
0.676478 0.224460 0.000000
0.750942 0.248386 0.000000
0.819852 0.271122 0.000000
0.881041 0.291752 0.000000
0.933135 0.309667 0.000000
0.978393 0.325597 0.000000
1.000000 0.339666 0.000000
1.000000 0.352270 0.000000
1.000000 0.363897 0.000000
1.000000 0.374670 0.000000
1.000000 0.384192 0.000000
1.000000 0.393103 0.000000
1.000000 0.400885 0.000000
1.000000 0.407477 0.000000
1.000000 0.413306 0.000000
1.000000 0.418006 0.000000
1.000000 0.422095 0.000000
0.090547 0.089662 0.092775
0.091005 0.090028 0.092744
0.091859 0.090761 0.093050
0.093874 0.092226 0.092378
0.102815 0.093996 0.091951
0.121157 0.098787 0.091188
0.146761 0.103182 0.089631
0.177951 0.108339 0.087678
0.217288 0.115755 0.082246
0.265049 0.125551 0.071839
0.321508 0.138216 0.053407
0.384192 0.153506 0.025299
0.453468 0.171420 0.000000
0.526848 0.192020 0.000000
0.603693 0.214298 0.000000
0.681086 0.238193 0.000000
0.755947 0.261631 0.000000
0.824765 0.284123 0.000000
0.885679 0.304143 0.000000
0.937407 0.321416 0.000000
0.982361 0.336431 0.000000
1.000000 0.349676 0.000000
1.000000 0.361608 0.000000
1.000000 0.372412 0.000000
1.000000 0.382330 0.000000
1.000000 0.391394 0.000000
1.000000 0.399603 0.000000
1.000000 0.406806 0.000000
1.000000 0.413062 0.000000
1.000000 0.418494 0.000000
1.000000 0.423102 0.000000
1.000000 0.427039 0.000000
0.087129 0.099672 0.099702
0.088716 0.099886 0.099672
0.091005 0.101076 0.100557
0.096590 0.103365 0.100862
0.102358 0.105196 0.099763
0.116823 0.108248 0.098238
0.142580 0.114443 0.096040
0.175784 0.121889 0.092927
0.218967 0.131044 0.088472
0.267887 0.142397 0.079927
0.325078 0.156130 0.058686
0.388891 0.172580 0.026917
0.458228 0.191226 0.000000
0.532189 0.212131 0.000000
0.608667 0.234592 0.000000
0.685084 0.258091 0.000000
0.759182 0.280827 0.000000
0.826963 0.302159 0.000000
0.886473 0.321050 0.000000
0.937957 0.337072 0.000000
0.982666 0.351202 0.000000
1.000000 0.363500 0.000000
1.000000 0.374456 0.000000
1.000000 0.384375 0.000000
1.000000 0.393469 0.000000
1.000000 0.401953 0.000000
1.000000 0.409400 0.000000
1.000000 0.416083 0.000000
1.000000 0.421912 0.000000
1.000000 0.426917 0.000000
1.000000 0.431098 0.000000
1.000000 0.434699 0.000000
0.084810 0.111635 0.109499
0.086397 0.112184 0.109438
0.089845 0.113497 0.110170
0.095857 0.116243 0.111269
0.102602 0.120302 0.110567
0.114107 0.123384 0.109529
0.134890 0.127779 0.107301
0.168002 0.136721 0.103548
0.210300 0.148440 0.098634
0.263188 0.162448 0.091066
0.324376 0.178653 0.072389
0.388373 0.195987 0.038056
0.457832 0.215427 0.000000
0.531456 0.236667 0.000000
0.607599 0.259342 0.000000
0.684108 0.282231 0.000000
0.757229 0.304356 0.000000
0.824704 0.324712 0.000000
0.883543 0.342077 0.000000
0.934874 0.357031 0.000000
0.979644 0.370001 0.000000
1.000000 0.381323 0.000000
1.000000 0.382544 0.000000
1.000000 0.392554 0.000000
1.000000 0.401556 0.000000
1.000000 0.409918 0.000000
1.000000 0.417334 0.000000
1.000000 0.424048 0.000000
1.000000 0.429847 0.000000
1.000000 0.434852 0.000000
1.000000 0.439033 0.000000
1.000000 0.442451 0.000000
0.081086 0.124025 0.119112
0.081697 0.124239 0.119356
0.085969 0.125673 0.119966
0.092226 0.128634 0.121462
0.102052 0.134096 0.123293
0.108217 0.139162 0.119844
0.127443 0.143771 0.120119
0.153841 0.151034 0.117586
0.192630 0.161532 0.113466
0.241825 0.177554 0.106630
0.300999 0.195438 0.096742
0.367498 0.215335 0.077028
0.439521 0.236606 0.024720
0.512139 0.258091 0.000000
0.588220 0.280980 0.000000
0.665156 0.304234 0.000000
0.739864 0.326665 0.000000
0.808286 0.346624 0.000000
0.868162 0.363500 0.000000
0.920287 0.377539 0.000000
0.965179 0.389136 0.000000
1.000000 0.398779 0.000000
1.000000 0.407141 0.000000
1.000000 0.414954 0.000000
1.000000 0.422156 0.000000
1.000000 0.429175 0.000000
1.000000 0.435462 0.000000
1.000000 0.441169 0.000000
1.000000 0.446235 0.000000
1.000000 0.450446 0.000000
1.000000 0.453956 0.000000
1.000000 0.456916 0.000000
0.066133 0.141238 0.133211
0.068391 0.141634 0.133364
0.074128 0.143038 0.134127
0.083406 0.146639 0.135744
0.094942 0.152285 0.138064
0.111269 0.161318 0.141268
0.116732 0.167697 0.133944
0.146059 0.174655 0.135958
0.181521 0.185794 0.133486
0.223667 0.194949 0.128634
0.288029 0.220462 0.119661
0.355169 0.243229 0.106477
0.429358 0.267430 0.084138
0.508690 0.292638 0.011200
0.589532 0.317784 0.000000
0.666590 0.340978 0.000000
0.740383 0.362585 0.000000
0.808042 0.381292 0.000000
0.867613 0.396674 0.000000
0.919341 0.409125 0.000000
0.963867 0.419257 0.000000
1.000000 0.427222 0.000000
1.000000 0.434058 0.000000
1.000000 0.440314 0.000000
1.000000 0.446387 0.000000
1.000000 0.452094 0.000000
1.000000 0.457374 0.000000
1.000000 0.462043 0.000000
1.000000 0.466133 0.000000
1.000000 0.469642 0.000000
1.000000 0.472328 0.000000
1.000000 0.474708 0.000000
0.036805 0.162173 0.150118
0.037659 0.162875 0.150210
0.043366 0.164401 0.151217
0.054231 0.168093 0.152865
0.078340 0.174319 0.155612
0.098726 0.183841 0.159609
0.118624 0.195438 0.161379
0.130983 0.203799 0.153353
0.169223 0.213687 0.156191
0.214511 0.228916 0.153811
0.264866 0.241306 0.148379
0.337743 0.270878 0.139345
0.412207 0.298192 0.124147
0.491920 0.325658 0.101198
0.575677 0.353582 0.030640
0.659174 0.379736 0.000000
0.736446 0.402228 0.000000
0.803677 0.419745 0.000000
0.863005 0.433753 0.000000
0.914733 0.444648 0.000000
0.959442 0.452979 0.000000
0.998230 0.459541 0.000000
1.000000 0.464820 0.000000
1.000000 0.469673 0.000000
1.000000 0.474434 0.000000
1.000000 0.478859 0.000000
1.000000 0.482948 0.000000
1.000000 0.486671 0.000000
1.000000 0.489845 0.000000
1.000000 0.492378 0.000000
1.000000 0.494453 0.000000
1.000000 0.496040 0.000000
0.000000 0.187381 0.170077
0.000000 0.187961 0.170535
0.000000 0.189700 0.171450
0.001343 0.193729 0.173373
0.020325 0.200290 0.176638
0.061097 0.210056 0.180972
0.105013 0.223972 0.186709
0.126802 0.237797 0.185183
0.149844 0.248356 0.178225
0.198672 0.261357 0.182223
0.253147 0.281132 0.180697
0.311955 0.297215 0.175540
0.393347 0.330297 0.168154
0.472633 0.360998 0.152377
0.555993 0.390448 0.130373
0.639857 0.417884 0.097688
0.720058 0.441871 0.000000
0.793423 0.461067 0.000000
0.854887 0.474342 0.000000
0.906676 0.483650 0.000000
0.952056 0.490578 0.000000
0.991882 0.495674 0.000000
1.000000 0.499886 0.000000
1.000000 0.503838 0.000000
1.000000 0.507195 0.000000
1.000000 0.510460 0.000000
1.000000 0.513298 0.000000
1.000000 0.515801 0.000000
1.000000 0.517754 0.000000
1.000000 0.519249 0.000000
1.000000 0.520378 0.000000
1.000000 0.521233 0.000000
0.000000 0.217716 0.194369
0.000000 0.218204 0.194583
0.000000 0.220188 0.195560
0.000000 0.224216 0.197604
0.000000 0.230838 0.200992
0.000000 0.240543 0.205570
0.045563 0.254276 0.211582
0.118685 0.272404 0.219211
0.138277 0.286137 0.212314
0.176181 0.298375 0.208164
0.232731 0.314183 0.213077
0.293889 0.337560 0.212497
0.359319 0.357092 0.208164
0.441566 0.387884 0.201419
0.530175 0.425422 0.188327
0.614740 0.455818 0.169741
0.696468 0.481514 0.146792
0.771298 0.501396 0.120058
0.837613 0.516289 0.084291
0.895781 0.526513 0.000000
0.943267 0.532250 0.000000
0.983581 0.535821 0.000000
1.000000 0.538750 0.000000
1.000000 0.540917 0.000000
1.000000 0.542931 0.000000
1.000000 0.544945 0.000000
1.000000 0.546624 0.000000
1.000000 0.547967 0.000000
1.000000 0.548882 0.055268
1.000000 0.549432 0.101869
1.000000 0.549859 0.127413
1.000000 0.550042 0.149569
0.000000 0.250523 0.220218
0.000000 0.251102 0.220615
0.000000 0.252842 0.221408
0.000000 0.256840 0.223514
0.000000 0.263279 0.226780
0.000000 0.272648 0.231357
0.000000 0.285863 0.237430
0.055085 0.302831 0.245212
0.140719 0.323949 0.253483
0.153628 0.337530 0.240909
0.206729 0.351110 0.240726
0.268711 0.369451 0.246708
0.321386 0.378058 0.237095
0.389258 0.400031 0.234043
0.463447 0.423255 0.229404
0.562829 0.470405 0.220096
0.645686 0.500542 0.205112
0.723598 0.524468 0.188724
0.793851 0.542229 0.172519
0.856016 0.554711 0.156191
0.910674 0.563012 0.140902
0.958556 0.568414 0.126619
0.998474 0.571221 0.120790
1.000000 0.573358 0.121370
1.000000 0.575158 0.125917
1.000000 0.576654 0.133700
1.000000 0.577844 0.144350
1.000000 0.578912 0.157626
1.000000 0.579583 0.172763
1.000000 0.579828 0.187839
1.000000 0.579858 0.203738
1.000000 0.579736 0.219638
0.000000 0.279210 0.242893
0.000000 0.279637 0.243137
0.000000 0.281651 0.244175
0.000000 0.285771 0.246403
0.000000 0.292149 0.249760
0.000000 0.301396 0.254490
0.000000 0.314061 0.260777
0.000000 0.330266 0.268559
0.095796 0.350561 0.278111
0.155093 0.370855 0.281285
0.169802 0.385412 0.266911
0.236118 0.398993 0.271031
0.300328 0.418097 0.276616
0.368322 0.444251 0.277134
0.440711 0.468208 0.274846
0.518608 0.492897 0.271214
0.619715 0.538994 0.266789
0.698512 0.565637 0.255467
0.770382 0.585016 0.244785
0.834348 0.598444 0.235355
0.890593 0.606989 0.227054
0.940459 0.612421 0.220401
0.985077 0.615778 0.216129
1.000000 0.617670 0.213565
1.000000 0.618006 0.217166
1.000000 0.618250 0.223178
1.000000 0.618280 0.231266
1.000000 0.618036 0.240635
1.000000 0.617578 0.251560
1.000000 0.616999 0.263676
1.000000 0.616327 0.276646
1.000000 0.615778 0.290929
0.000000 0.317327 0.272740
0.000000 0.317815 0.273014
0.000000 0.320073 0.274357
0.000000 0.324010 0.276524
0.000000 0.330480 0.279881
0.000000 0.339452 0.284672
0.000000 0.351629 0.290837
0.000000 0.366918 0.298344
0.000000 0.386175 0.307652
0.129763 0.409674 0.318761
0.172824 0.428504 0.315496
0.190829 0.444434 0.299687
0.273655 0.458778 0.309636
0.341680 0.480262 0.316258
0.413184 0.508232 0.318334
0.489326 0.534234 0.318273
0.568811 0.559228 0.316777
0.667597 0.601495 0.315557
0.742123 0.624811 0.310460
0.807858 0.639979 0.303624
0.866117 0.649653 0.297887
0.918120 0.655665 0.293736
0.964538 0.659419 0.291600
1.000000 0.661219 0.290837
1.000000 0.661830 0.291936
1.000000 0.661677 0.295201
1.000000 0.660548 0.302342
1.000000 0.659358 0.311101
1.000000 0.658045 0.321080
1.000000 0.656794 0.332250
1.000000 0.655604 0.344671
1.000000 0.654719 0.358221
0.000000 0.357244 0.303960
0.000000 0.357794 0.304356
0.000000 0.359777 0.305486
0.000000 0.363714 0.307652
0.000000 0.370031 0.311009
0.000000 0.378729 0.315618
0.000000 0.390051 0.321477
0.000000 0.404486 0.328801
0.000000 0.422217 0.337469
0.000000 0.444007 0.348119
0.173922 0.469795 0.360998
0.197391 0.485908 0.350134
0.229648 0.502434 0.338231
0.314275 0.517784 0.350469
0.384375 0.540642 0.358007
0.457527 0.568811 0.362188
0.534081 0.594903 0.364538
0.611963 0.618769 0.365545
0.699245 0.649622 0.366796
0.778073 0.677577 0.367559
0.838315 0.689540 0.363531
0.892424 0.697230 0.361028
0.940887 0.701930 0.360266
0.984039 0.704402 0.360967
1.000000 0.705257 0.362982
1.000000 0.705104 0.366552
1.000000 0.704005 0.371405
1.000000 0.702266 0.378332
1.000000 0.700099 0.387671
1.000000 0.698054 0.398047
1.000000 0.696315 0.409796
1.000000 0.694942 0.422644
0.000000 0.398962 0.336614
0.000000 0.399390 0.336828
0.000000 0.401068 0.337743
0.000000 0.404425 0.339544
0.000000 0.410010 0.342504
0.000000 0.417731 0.346532
0.000000 0.427893 0.351751
0.000000 0.440833 0.358282
0.000000 0.457008 0.366369
0.000000 0.476661 0.376318
0.110109 0.500298 0.388525
0.207645 0.524773 0.397162
0.229923 0.541497 0.385534
0.276982 0.558770 0.379950
0.359442 0.574792 0.394049
0.429328 0.598474 0.403296
0.502037 0.625696 0.409583
0.576257 0.650355 0.414252
0.650416 0.672084 0.417304
0.725734 0.692866 0.420050
0.808743 0.725399 0.426886
0.864530 0.735561 0.425483
0.914672 0.741970 0.425818
0.959411 0.745480 0.427283
0.999207 0.747036 0.430030
1.000000 0.747280 0.434089
1.000000 0.746517 0.439582
1.000000 0.744869 0.445991
1.000000 0.742672 0.453742
1.000000 0.740352 0.463539
1.000000 0.738430 0.475502
1.000000 0.737148 0.488899
0.000000 0.441627 0.370001
0.000000 0.442084 0.370275
0.000000 0.443488 0.371038
0.000000 0.446662 0.372686
0.000000 0.451667 0.375280
0.000000 0.458747 0.378973
0.000000 0.468025 0.383795
0.000000 0.479957 0.389899
0.000000 0.494697 0.397467
0.000000 0.512505 0.406744
0.000000 0.533837 0.418250
0.187320 0.558648 0.432654
0.249241 0.579644 0.435218
0.273320 0.596307 0.424262
0.330266 0.612665 0.424750
0.408728 0.628199 0.440406
0.475685 0.650935 0.450385
0.544732 0.675837 0.458320
0.614740 0.698512 0.464881
0.684138 0.718135 0.469642
0.754696 0.737575 0.475044
0.835691 0.768673 0.486610
0.887236 0.777859 0.488197
0.933318 0.783322 0.490578
0.974395 0.786221 0.494057
1.000000 0.787411 0.498787
1.000000 0.787228 0.504570
1.000000 0.786069 0.511376
1.000000 0.784298 0.519615
1.000000 0.782162 0.528923
1.000000 0.780056 0.539757
1.000000 0.778653 0.553002
0.000000 0.483497 0.402869
0.000000 0.483589 0.402899
0.000000 0.475166 0.395911
0.000000 0.477943 0.397314
0.000000 0.482460 0.399725
0.000000 0.489021 0.403174
0.000000 0.497536 0.407630
0.000000 0.508385 0.413336
0.000000 0.521721 0.420325
0.000000 0.537774 0.428870
0.000000 0.556481 0.439307
0.124788 0.578454 0.452399
0.253391 0.603723 0.469001
0.289220 0.621180 0.465309
0.315038 0.637934 0.456184
0.378698 0.653651 0.463142
0.451911 0.668910 0.480110
0.515282 0.691127 0.491127
0.580224 0.714473 0.500725
0.646296 0.736141 0.509545
0.711849 0.755337 0.517052
0.778103 0.774075 0.525139
0.853330 0.801999 0.537133
0.904906 0.813718 0.545708
0.947723 0.819211 0.550713
0.985565 0.822446 0.556786
1.000000 0.823941 0.564019
1.000000 0.824033 0.572290
1.000000 0.823087 0.581415
1.000000 0.821653 0.591699
1.000000 0.820157 0.603204
1.000000 0.819028 0.616449
0.000000 0.522789 0.433845
0.000000 0.522240 0.433265
0.000000 0.522484 0.433143
0.000000 0.524163 0.433814
0.000000 0.527611 0.435492
0.000000 0.533165 0.438361
0.000000 0.540917 0.442481
0.000000 0.550774 0.447822
0.000000 0.562737 0.454383
0.000000 0.577111 0.462409
0.000000 0.593866 0.472236
0.000000 0.613123 0.484443
0.233127 0.635218 0.499977
0.325170 0.658076 0.515679
0.350164 0.673091 0.509697
0.376318 0.688991 0.502647
0.441901 0.702998 0.514916
0.507652 0.716701 0.531975
0.565362 0.736995 0.542901
0.624201 0.757473 0.552819
0.684382 0.776852 0.562585
0.744381 0.794583 0.571710
0.805081 0.811917 0.581659
0.870115 0.833433 0.594324
0.923857 0.849821 0.607752
0.962371 0.855070 0.614557
0.996094 0.858000 0.622431
1.000000 0.859159 0.631250
1.000000 0.859098 0.640894
1.000000 0.858274 0.651484
1.000000 0.857267 0.663386
1.000000 0.856504 0.676722
0.000000 0.569085 0.470619
0.000000 0.568353 0.469978
0.000000 0.568505 0.469703
0.000000 0.569757 0.470161
0.000000 0.572839 0.471656
0.000000 0.577752 0.474281
0.000000 0.584558 0.478004
0.000000 0.593408 0.482948
0.000000 0.604059 0.489082
0.000000 0.616693 0.496559
0.000000 0.631403 0.505821
0.000000 0.648310 0.517327
0.222141 0.667384 0.531884
0.329473 0.688563 0.550042
0.389624 0.706874 0.559472
0.414099 0.720912 0.554986
0.439948 0.735531 0.550347
0.504417 0.747677 0.566400
0.562951 0.760067 0.583185
0.614527 0.778470 0.593744
0.667536 0.796536 0.604028
0.721492 0.813657 0.614191
0.776059 0.830045 0.624720
0.831083 0.846098 0.636286
0.886748 0.862669 0.649378
0.941161 0.882292 0.666682
0.975097 0.887053 0.674922
1.000000 0.889525 0.684047
1.000000 0.890349 0.694118
1.000000 0.890196 0.705013
1.000000 0.889647 0.717220
1.000000 0.889311 0.730831
0.000000 0.615778 0.508232
0.000000 0.615137 0.507652
0.000000 0.615198 0.507408
0.000000 0.616388 0.507866
0.000000 0.619013 0.509209
0.000000 0.623346 0.511589
0.000000 0.629358 0.515038
0.000000 0.637018 0.519585
0.000000 0.646296 0.525231
0.000000 0.657343 0.532341
0.000000 0.670069 0.541039
0.000000 0.684535 0.551843
0.224735 0.700862 0.565301
0.331212 0.718715 0.581537
0.418921 0.738216 0.601312
0.454566 0.752346 0.603876
0.477729 0.764889 0.600641
0.508080 0.777310 0.600763
0.563531 0.787747 0.615839
0.614557 0.798276 0.631067
0.659754 0.814328 0.640467
0.706600 0.829740 0.649928
0.754238 0.844388 0.659510
0.803525 0.859342 0.670558
0.853178 0.874052 0.682826
0.902434 0.888396 0.696284
0.954284 0.907958 0.714443
0.984009 0.912139 0.724758
1.000000 0.914092 0.734798
1.000000 0.914702 0.745876
1.000000 0.914672 0.758236
1.000000 0.914672 0.772213
0.000000 0.656886 0.542046
0.000000 0.656764 0.541894
0.000000 0.657282 0.542107
0.000000 0.658839 0.542992
0.000000 0.661707 0.544640
0.000000 0.665766 0.547143
0.000000 0.671138 0.550561
0.000000 0.677913 0.554864
0.000000 0.685939 0.560113
0.000000 0.695399 0.566766
0.000000 0.706172 0.574884
0.000000 0.718502 0.584894
0.236576 0.732326 0.597101
0.339147 0.747463 0.611810
0.422980 0.763973 0.629297
0.494148 0.781033 0.647669
0.515557 0.792233 0.645869
0.537469 0.803708 0.644129
0.570764 0.814542 0.648585
0.619409 0.824002 0.663172
0.664454 0.833951 0.677577
0.705074 0.848295 0.687221
0.746944 0.862028 0.696956
0.789395 0.875120 0.706905
0.833738 0.888914 0.719020
0.878111 0.902464 0.732326
0.921447 0.915251 0.746609
0.966583 0.931792 0.763943
0.992706 0.936278 0.777707
1.000000 0.937682 0.789120
1.000000 0.938140 0.801846
1.000000 0.938445 0.816068
0.000000 0.703426 0.581628
0.000000 0.703334 0.581506
0.000000 0.703822 0.581750
0.000000 0.705165 0.582574
0.000000 0.707485 0.584039
0.000000 0.710933 0.586358
0.000000 0.715450 0.589502
0.000000 0.721187 0.593530
0.000000 0.728054 0.598627
0.000000 0.735958 0.604883
0.000000 0.744991 0.612421
0.123323 0.755184 0.621546
0.269596 0.766629 0.632532
0.361700 0.779202 0.645716
0.439704 0.792874 0.661250
0.510399 0.807553 0.679194
0.557977 0.820706 0.690639
0.577752 0.830655 0.689723
0.597894 0.840787 0.689052
0.631952 0.849821 0.696468
0.674006 0.858061 0.710109
0.713008 0.867094 0.723049
0.748898 0.879515 0.732296
0.785611 0.891386 0.741665
0.824979 0.904265 0.754147
0.863951 0.916381 0.766629
0.902647 0.928191 0.780606
0.939544 0.939086 0.795621
0.975769 0.951202 0.812802
0.998871 0.956664 0.829160
1.000000 0.957458 0.841886
1.000000 0.957061 0.853269
0.000000 0.745876 0.619165
0.000000 0.745571 0.618860
0.000000 0.745937 0.619074
0.000000 0.747311 0.620020
0.000000 0.749660 0.621790
0.000000 0.752987 0.624445
0.000000 0.757229 0.627832
0.000000 0.762417 0.632136
0.000000 0.768521 0.637324
0.000000 0.775509 0.643580
0.000000 0.783383 0.650996
0.215183 0.792142 0.659785
0.317540 0.801846 0.670161
0.397406 0.812497 0.682338
0.468666 0.824125 0.696620
0.534020 0.836484 0.712856
0.595453 0.849638 0.731167
0.624170 0.859617 0.736263
0.642298 0.868315 0.736355
0.660517 0.877043 0.736599
0.693690 0.884398 0.746120
0.729671 0.891386 0.758572
0.763058 0.899565 0.770230
0.794491 0.910216 0.779355
0.826444 0.920317 0.788785
0.858457 0.929686 0.798520
0.891997 0.939788 0.811215
0.925139 0.949798 0.826230
0.955688 0.958709 0.842222
0.983154 0.967132 0.859342
1.000000 0.971740 0.875303
1.000000 0.971496 0.886198
0.000000 0.791958 0.662409
0.000000 0.791684 0.662104
0.000000 0.791897 0.662257
0.000000 0.792844 0.663020
0.000000 0.794553 0.664515
0.000000 0.796994 0.666682
0.000000 0.800137 0.669520
0.000000 0.804044 0.673182
0.000000 0.808652 0.677607
0.000000 0.814054 0.683070
0.187442 0.820218 0.689631
0.291997 0.827207 0.697505
0.370031 0.835050 0.706844
0.438697 0.843778 0.717830
0.501732 0.853269 0.730526
0.561181 0.863523 0.744991
0.617395 0.874388 0.761166
0.667781 0.885435 0.777493
0.684077 0.892973 0.778195
0.700465 0.900511 0.779019
0.716915 0.908049 0.780087
0.748959 0.914031 0.791165
0.779873 0.919982 0.802701
0.808438 0.927062 0.813199
0.835538 0.935668 0.821927
0.862699 0.943633 0.830930
0.889372 0.950805 0.840116
0.917235 0.958679 0.852598
0.944244 0.966247 0.867338
0.967529 0.972320 0.881621
0.987091 0.977386 0.896269
1.000000 0.981415 0.911772
0.000000 0.833494 0.703853
0.000000 0.833341 0.703731
0.000000 0.833707 0.704005
0.000000 0.834531 0.704860
0.000000 0.835935 0.706294
0.000000 0.837919 0.708400
0.000000 0.840543 0.711147
0.000000 0.843748 0.714626
0.039002 0.847501 0.718868
0.221256 0.851835 0.723995
0.304021 0.856901 0.730159
0.371710 0.862516 0.737392
0.433082 0.868803 0.745846
0.490639 0.875792 0.755703
0.545892 0.883482 0.767147
0.598413 0.891783 0.779965
0.648798 0.900633 0.794217
0.696712 0.909850 0.809689
0.729519 0.917967 0.819699
0.744198 0.924193 0.820920
0.759030 0.930419 0.822507
0.776547 0.936309 0.826108
0.804074 0.941070 0.836576
0.830320 0.945800 0.847318
0.854398 0.951537 0.856992
0.877043 0.958007 0.865507
0.898405 0.963378 0.873228
0.918822 0.968048 0.880949
0.939696 0.972930 0.891051
0.959960 0.977905 0.904173
0.976837 0.981903 0.917266
0.990204 0.985138 0.930144
0.000000 0.874052 0.747372
0.000000 0.873991 0.747250
0.000000 0.874174 0.747494
0.000000 0.874784 0.748226
0.000000 0.875731 0.749416
0.000000 0.877073 0.751064
0.153750 0.878630 0.753079
0.226993 0.880613 0.755673
0.286076 0.882933 0.758846
0.339757 0.885740 0.762753
0.391272 0.889036 0.767514
0.440925 0.892912 0.773342
0.489754 0.897459 0.780362
0.537682 0.902647 0.788663
0.585107 0.908568 0.798398
0.631830 0.915190 0.809689
0.677211 0.922240 0.822202
0.720699 0.929625 0.835813
0.762081 0.937011 0.850309
0.781918 0.942687 0.855161
0.795529 0.947723 0.857084
0.809415 0.952697 0.859586
0.826566 0.956725 0.864469
0.849027 0.959991 0.873472
0.870237 0.963165 0.882475
0.889189 0.967193 0.890257
0.906828 0.971435 0.897093
0.923705 0.975097 0.903929
0.939483 0.978180 0.910613
0.955230 0.981262 0.919188
0.970703 0.984710 0.931151
0.983032 0.987518 0.942718
0.231662 0.907561 0.785794
0.233249 0.907591 0.785855
0.241215 0.907866 0.786282
0.256046 0.908476 0.787106
0.277775 0.909392 0.788479
0.305028 0.910613 0.790280
0.336217 0.912169 0.792691
0.370520 0.914061 0.795621
0.406775 0.916320 0.799222
0.444892 0.918914 0.803525
0.484169 0.921904 0.808591
0.524071 0.925261 0.814481
0.564721 0.929046 0.821347
0.605585 0.933257 0.829252
