20 Preset/Russian Style/【3】LUT video cho PR-AE-FCPX/Lut Tone (17).cube
# Created by Adobe Lightroom plugin Export LUT (1.24.0)
# www.johnrellis.com/lightroom/exportlut.htm
# Preset: 俄罗斯情绪-素材江湖09
# Color profile: C:\Program Files (x86)\Common Files\Adobe\Color\Profiles\Recommended\VideoHD.icc
LUT_3D_SIZE 5
DOMAIN_MIN 0.000000 0.000000 0.000000
DOMAIN_MAX 0.903226 0.903226 0.903226
0.091859 0.083619 0.089967
0.174899 0.094789 0.085847
0.588220 0.189792 0.000000
1.000000 0.332128 0.000000
1.000000 0.402930 0.000000
0.066133 0.141238 0.133211
0.146059 0.174655 0.135958
0.589532 0.317784 0.000000
1.000000 0.427222 0.000000
1.000000 0.466133 0.000000
0.000000 0.357244 0.303960
0.000000 0.404486 0.328801
0.384375 0.540642 0.358007
0.892424 0.697230 0.361028
1.000000 0.700099 0.387671
0.000000 0.656886 0.542046
0.000000 0.677913 0.554864
0.422980 0.763973 0.629297
0.705074 0.848295 0.687221
0.992706 0.936278 0.777707
0.412879 0.941955 0.829496
0.492531 0.946044 0.837705
0.718959 0.964141 0.879332
0.897246 0.980774 0.931456
0.963165 0.989288 0.958740
0.094118 0.085664 0.117189
0.172213 0.079042 0.142092
0.623407 0.000000 0.140017
1.000000 0.297826 0.008240
1.000000 0.395880 0.000000
0.096162 0.140261 0.155642
0.171664 0.189578 0.198856
0.605768 0.307622 0.209537
1.000000 0.418494 0.172091
1.000000 0.472114 0.175540
0.000000 0.360540 0.329595
0.000000 0.403723 0.356207
0.420447 0.562158 0.427649
0.901122 0.713313 0.460517
1.000000 0.716518 0.482704
0.000000 0.654963 0.556512
0.000000 0.675471 0.569390
0.427008 0.761196 0.642084
0.721614 0.851713 0.713405
0.992615 0.938842 0.801541
0.402533 0.941741 0.834501
0.485573 0.946014 0.842588
0.704036 0.961181 0.877134
0.900114 0.980102 0.934356
0.963958 0.989075 0.960174
0.110719 0.090578 0.196475
0.155795 0.090028 0.226444
0.533959 0.000000 0.407782
1.000000 0.000000 0.451026
1.000000 0.417090 0.473762
0.090181 0.133608 0.220798
0.148745 0.154421 0.271580
0.544884 0.214450 0.450660
1.000000 0.340063 0.498939
1.000000 0.519432 0.525414
0.000000 0.303319 0.342138
0.000000 0.341192 0.376074
0.475654 0.561578 0.561639
0.901854 0.730129 0.664454
1.000000 0.760189 0.685451
0.000000 0.635096 0.596094
0.000000 0.658991 0.613245
0.414527 0.745480 0.680262
0.770230 0.862608 0.785611
0.995056 0.945464 0.866392
0.283574 0.940551 0.852842
0.404669 0.944518 0.858824
0.671565 0.960235 0.887602
0.909606 0.980652 0.946471
0.972686 0.990051 0.971283
0.149844 0.076722 0.367468
0.195285 0.055787 0.388037
0.390234 0.000000 0.492439
0.931273 0.000000 0.712154
1.000000 0.490608 0.722713
0.088380 0.130434 0.383978
0.160494 0.131441 0.406531
0.384985 0.136995 0.514427
0.922332 0.273411 0.731930
1.000000 0.591638 0.755245
0.000000 0.266117 0.415106
0.000000 0.276921 0.429267
0.335149 0.381506 0.549157
0.847807 0.651545 0.785092
1.000000 0.797330 0.842222
0.000000 0.553613 0.609003
0.000000 0.573877 0.625025
0.387030 0.666346 0.695369
0.803799 0.861906 0.854795
1.000000 0.947997 0.929625
0.000000 0.929290 0.893584
0.000000 0.935882 0.898955
0.528069 0.952575 0.911467
0.871672 0.977966 0.949462
0.982483 0.991424 0.983215
0.256565 0.000000 0.701534
0.304082 0.000000 0.707393
0.465095 0.000000 0.743832
0.756191 0.000000 0.825681
1.000000 0.363317 0.889036
0.188876 0.094453 0.687556
0.253056 0.074556 0.695613
0.436072 0.000000 0.735286
0.734035 0.000000 0.821469
1.000000 0.459449 0.893950
0.000000 0.249790 0.659327
0.000000 0.256138 0.671931
0.328344 0.304906 0.725277
0.680537 0.410437 0.821500
1.000000 0.695125 0.920714
0.000000 0.511711 0.740536
0.000000 0.510246 0.739223
0.000000 0.519158 0.748592
0.648859 0.684413 0.845457
1.000000 0.920226 0.968994
0.000000 0.845548 0.912902
0.000000 0.851194 0.915038
0.479896 0.882231 0.929656
0.795132 0.940459 0.957855
0.987030 0.991302 0.990723
