20 Preset/Russian Style/【3】LUT video cho PR-AE-FCPX/Lut Tone (6).cube
# Created by Adobe Lightroom plugin Export LUT (1.24.0)
# www.johnrellis.com/lightroom/exportlut.htm
# Preset: 俄罗斯情绪-素材江湖03
# Color profile: C:\Program Files (x86)\Common Files\Adobe\Color\Profiles\Recommended\VideoHD.icc
LUT_3D_SIZE 5
DOMAIN_MIN 0.000000 0.000000 0.000000
DOMAIN_MAX 0.903226 0.903226 0.903226
0.000000 0.000000 0.000000
0.155184 0.010407 0.000000
0.514031 0.138155 0.000000
0.867094 0.274937 0.000000
1.000000 0.346990 0.000000
0.000000 0.153170 0.063172
0.157656 0.163333 0.030030
0.514214 0.259709 0.000000
0.857694 0.347356 0.000000
1.000000 0.399512 0.000000
0.000000 0.439368 0.219242
0.000000 0.442451 0.206241
0.442573 0.458198 0.180117
0.802701 0.542443 0.109865
1.000000 0.562005 0.000000
0.000000 0.694606 0.372564
0.000000 0.696590 0.366735
0.387610 0.692164 0.349248
0.685969 0.714412 0.333532
0.967895 0.753933 0.342931
0.262638 0.897276 0.575402
0.353246 0.897398 0.582544
0.544823 0.898070 0.604608
0.704097 0.898924 0.600458
0.901549 0.921141 0.629816
0.099184 0.078859 0.155001
0.216617 0.064607 0.158907
0.538811 0.103243 0.139284
0.868040 0.255619 0.038880
1.000000 0.337255 0.000000
0.047028 0.207889 0.191409
0.219303 0.217807 0.191684
0.533471 0.272892 0.187716
0.859129 0.344671 0.123903
1.000000 0.394324 0.000000
0.000000 0.458076 0.298375
0.173373 0.462715 0.293278
0.466133 0.478340 0.277073
0.813199 0.556146 0.265629
1.000000 0.568627 0.215763
0.000000 0.700587 0.417975
0.000000 0.702327 0.414801
0.418311 0.700649 0.402319
0.695644 0.721218 0.391669
0.968688 0.761318 0.410529
0.305943 0.898894 0.596857
0.383154 0.899077 0.603662
0.571099 0.900267 0.630884
0.718349 0.901762 0.627832
0.905943 0.923461 0.657221
0.296941 0.242832 0.436255
0.369024 0.248936 0.429389
0.575128 0.268742 0.432166
0.867796 0.263310 0.416571
1.000000 0.358343 0.385077
0.308354 0.345586 0.449897
0.372992 0.343999 0.444282
0.568658 0.347753 0.441627
0.854032 0.348577 0.420478
1.000000 0.424659 0.404608
0.253941 0.518578 0.477424
0.330327 0.520409 0.476020
0.534081 0.532372 0.473426
0.817777 0.587366 0.494728
1.000000 0.599939 0.474159
0.247745 0.721523 0.549523
0.327123 0.722774 0.549859
0.520653 0.727596 0.552758
0.729183 0.743038 0.551568
0.969848 0.790341 0.590417
0.385565 0.906371 0.666529
0.445380 0.906706 0.672053
0.614893 0.908568 0.697383
0.765713 0.912993 0.716701
0.921202 0.932158 0.743496
0.498024 0.432868 0.687007
0.536706 0.434668 0.682551
0.659998 0.439307 0.665339
0.850095 0.470253 0.662623
1.000000 0.538109 0.653254
0.504662 0.491768 0.687678
0.539910 0.491646 0.683864
0.656855 0.491737 0.668879
0.840208 0.516625 0.666346
1.000000 0.571557 0.659724
0.498421 0.617395 0.688808
0.530388 0.616815 0.685023
0.641199 0.621210 0.677943
0.798337 0.626429 0.669337
0.984375 0.669459 0.683467
0.498146 0.762722 0.715328
0.527916 0.763699 0.715297
0.629541 0.767697 0.715267
0.779873 0.778347 0.718868
0.971160 0.823636 0.757107
0.584802 0.926116 0.803159
0.606348 0.926574 0.804105
0.685298 0.928191 0.807797
0.830777 0.933196 0.833921
0.945068 0.948363 0.859190
0.692256 0.650446 0.854063
0.706905 0.650446 0.852110
0.767880 0.656672 0.847898
0.868742 0.666499 0.841550
0.989105 0.709316 0.840116
0.692256 0.669032 0.850462
0.706569 0.669459 0.849119
0.764187 0.673060 0.844968
0.861967 0.679896 0.838621
0.983642 0.721889 0.840604
0.703944 0.740688 0.855894
0.715846 0.740291 0.854002
0.763912 0.740230 0.850278
0.850980 0.742550 0.844785
0.972961 0.786191 0.859190
0.728206 0.841398 0.883726
0.737758 0.841032 0.882841
0.784329 0.845274 0.883818
0.870787 0.861967 0.891569
0.964111 0.881224 0.899199
0.789609 0.945098 0.928069
0.797635 0.945434 0.928191
0.839078 0.950011 0.932982
0.901244 0.956512 0.939757
0.966400 0.965606 0.950988
