20 Preset/Russian Style/【3】LUT video cho PR-AE-FCPX/Lut Tone (2).cube
# Created by Adobe Lightroom plugin Export LUT (1.24.0)
# www.johnrellis.com/lightroom/exportlut.htm
# Preset: 俄罗斯情绪-素材江湖01
# Color profile: C:\Program Files (x86)\Common Files\Adobe\Color\Profiles\Recommended\VideoHD.icc
LUT_3D_SIZE 5
DOMAIN_MIN 0.000000 0.000000 0.000000
DOMAIN_MAX 0.903226 0.903226 0.903226
0.012085 0.012696 0.014954
0.241306 0.017762 0.000000
0.635737 0.072633 0.000000
0.929351 0.304326 0.000000
1.000000 0.436408 0.000000
0.048432 0.161257 0.134218
0.264500 0.193668 0.100832
0.647028 0.264683 0.000000
0.925689 0.396338 0.000000
1.000000 0.483040 0.000000
0.219394 0.467567 0.370489
0.329290 0.483009 0.364080
0.638025 0.527001 0.295781
0.922423 0.572564 0.136751
1.000000 0.598383 0.000000
0.460212 0.714199 0.602960
0.511162 0.720119 0.605249
0.655238 0.732143 0.582452
0.872801 0.748531 0.528405
1.000000 0.763210 0.488746
0.714260 0.890440 0.793515
0.735256 0.892302 0.795682
0.793973 0.897093 0.795285
0.881773 0.904631 0.774807
0.989471 0.903471 0.756283
0.054932 0.119997 0.163272
0.234318 0.136049 0.181796
0.637110 0.196078 0.092775
0.918212 0.361151 0.000000
1.000000 0.478737 0.000000
0.132753 0.230930 0.247654
0.277409 0.261509 0.255589
0.642725 0.316564 0.188174
0.917388 0.416205 0.000000
1.000000 0.503838 0.000000
0.274205 0.496162 0.434668
0.362890 0.512413 0.437415
0.631067 0.547539 0.387610
0.907622 0.589624 0.309331
1.000000 0.615106 0.000000
0.486702 0.722866 0.631281
0.532036 0.728634 0.634058
0.663996 0.742580 0.620386
0.867735 0.757504 0.572656
1.000000 0.773556 0.542290
0.716915 0.892058 0.800443
0.737423 0.893828 0.802396
0.801633 0.901213 0.806912
0.882475 0.908263 0.788174
0.986847 0.907713 0.770504
0.184024 0.333745 0.433509
0.303502 0.366003 0.448707
0.589715 0.415564 0.478676
0.900969 0.466255 0.413214
1.000000 0.543877 0.318517
0.277958 0.419196 0.482551
0.360143 0.436988 0.489509
0.603449 0.474098 0.510491
0.892454 0.519768 0.454780
1.000000 0.576684 0.368261
0.381201 0.581353 0.584283
0.444038 0.591302 0.589166
0.630488 0.628565 0.597894
0.874998 0.658869 0.572198
1.000000 0.675349 0.501213
0.551690 0.751003 0.707729
0.584649 0.755306 0.710079
0.692744 0.774655 0.717220
0.854856 0.788724 0.688167
1.000000 0.807187 0.673945
0.713039 0.896941 0.821592
0.734401 0.898802 0.823301
0.804776 0.906554 0.829953
0.880003 0.915984 0.822751
0.977142 0.917479 0.805600
0.401801 0.574517 0.671473
0.460212 0.587121 0.675593
0.600763 0.628168 0.695521
0.820737 0.658778 0.707210
1.000000 0.691035 0.686915
0.451026 0.611048 0.688533
0.496925 0.619715 0.690883
0.624018 0.654963 0.707179
0.822477 0.678553 0.717342
1.000000 0.708339 0.698177
0.538293 0.694057 0.731502
0.570642 0.698848 0.732509
0.676204 0.720821 0.740566
0.830961 0.738979 0.749477
0.994568 0.766873 0.737270
0.639551 0.797971 0.793027
0.659236 0.800351 0.793790
0.731777 0.812284 0.798856
0.845274 0.835477 0.803250
0.985473 0.848753 0.790768
0.736629 0.910582 0.859342
0.750179 0.911772 0.859617
0.801175 0.917388 0.861143
0.884184 0.930144 0.866361
0.964630 0.935393 0.853086
0.668940 0.777890 0.839872
0.689906 0.782254 0.840024
0.762600 0.804013 0.843870
0.837278 0.826444 0.852171
0.949981 0.847471 0.853391
0.678828 0.786862 0.842130
0.698543 0.790951 0.842405
0.767269 0.809628 0.845029
0.840452 0.832761 0.853513
0.949462 0.853147 0.855589
0.703548 0.818082 0.853513
0.719905 0.820676 0.853361
0.781369 0.833982 0.854368
0.855070 0.858305 0.861357
0.950072 0.876829 0.865660
0.756069 0.873167 0.873960
0.765255 0.873960 0.873716
0.804166 0.879332 0.873899
0.875364 0.896513 0.876799
0.952026 0.912200 0.880674
0.817777 0.931975 0.895048
0.824277 0.932769 0.895079
0.852079 0.937316 0.895933
0.897826 0.945769 0.897520
0.952422 0.958953 0.899962
