20 Preset/Russian Style/【3】LUT video cho PR-AE-FCPX/Lut Tone (11).cube
# Created by Adobe Lightroom plugin Export LUT (1.24.0)
# www.johnrellis.com/lightroom/exportlut.htm
# Preset: 俄罗斯情绪-素材江湖06
# Color profile: C:\Program Files (x86)\Common Files\Adobe\Color\Profiles\Recommended\VideoHD.icc
LUT_3D_SIZE 32
DOMAIN_MIN 0.0 0.0 0.0
DOMAIN_MAX 1.0 1.0 1.0
0.000000 0.000000 0.045380
0.000000 0.000000 0.045380
0.000000 0.000183 0.046326
0.010407 0.001801 0.046937
0.048646 0.010864 0.048341
0.106508 0.025330 0.048951
0.161471 0.046052 0.044587
0.231876 0.063050 0.034791
0.306310 0.080354 0.019013
0.382818 0.093660 0.000000
0.463172 0.105928 0.000000
0.543511 0.121920 0.000000
0.620172 0.139895 0.000000
0.692409 0.160189 0.000000
0.760220 0.181735 0.000000
0.823270 0.204776 0.000000
0.882017 0.226230 0.000000
0.935973 0.245792 0.000000
0.991821 0.266484 0.000000
1.000000 0.285801 0.000000
1.000000 0.301610 0.000000
1.000000 0.315251 0.000000
1.000000 0.326421 0.000000
1.000000 0.336217 0.000000
1.000000 0.344610 0.000000
1.000000 0.351934 0.000000
1.000000 0.358251 0.000000
1.000000 0.363684 0.000000
1.000000 0.368231 0.000000
1.000000 0.372168 0.000000
1.000000 0.375372 0.000000
1.000000 0.378058 0.000000
0.000000 0.001099 0.046357
0.000000 0.001099 0.046357
0.000000 0.001160 0.047303
0.007965 0.005402 0.047639
0.044526 0.014679 0.047913
0.104463 0.030579 0.048371
0.157931 0.052888 0.044038
0.227176 0.071595 0.034546
0.301122 0.087129 0.019013
0.377050 0.097719 0.000000
0.456214 0.110536 0.000000
0.536736 0.125490 0.000000
0.613336 0.143008 0.000000
0.685786 0.162692 0.000000
0.753628 0.183993 0.000000
0.817319 0.206332 0.000000
0.876738 0.226444 0.000000
0.931243 0.245792 0.000000
0.986725 0.266270 0.000000
1.000000 0.284825 0.000000
1.000000 0.300908 0.000000
1.000000 0.313970 0.000000
1.000000 0.325444 0.000000
1.000000 0.335180 0.000000
1.000000 0.343755 0.000000
1.000000 0.351019 0.000000
1.000000 0.357427 0.000000
1.000000 0.363043 0.000000
1.000000 0.367803 0.000000
1.000000 0.371801 0.000000
1.000000 0.375128 0.000000
1.000000 0.377874 0.000000
0.000000 0.007843 0.051118
0.000000 0.010010 0.051942
0.000000 0.014160 0.054719
0.000000 0.019593 0.053773
0.036469 0.031067 0.053742
0.099733 0.050019 0.051667
0.152529 0.077516 0.045808
0.220523 0.091981 0.034699
0.293034 0.102907 0.017487
0.368475 0.113863 0.000000
0.447333 0.126589 0.000000
0.528161 0.141024 0.000000
0.605035 0.157351 0.000000
0.677852 0.174990 0.000000
0.746517 0.193423 0.000000
0.810666 0.212528 0.000000
0.870665 0.231815 0.000000
0.925750 0.250431 0.000000
0.981781 0.270420 0.000000
1.000000 0.288548 0.000000
1.000000 0.304173 0.000000
1.000000 0.317205 0.000000
1.000000 0.328222 0.000000
1.000000 0.337774 0.000000
1.000000 0.346136 0.000000
1.000000 0.353185 0.000000
1.000000 0.359594 0.000000
1.000000 0.365087 0.000000
1.000000 0.369848 0.000000
1.000000 0.373724 0.000000
1.000000 0.376898 0.000000
1.000000 0.379522 0.000000
0.000000 0.027893 0.064271
0.000000 0.029084 0.065248
0.000000 0.036591 0.069825
0.000000 0.043915 0.067597
0.019348 0.062837 0.064424
0.091218 0.084535 0.060487
0.144808 0.098238 0.054078
0.211551 0.109041 0.041535
0.284031 0.120150 0.023896
0.358679 0.131228 0.000000
0.437293 0.143984 0.000000
0.517449 0.158145 0.000000
0.594934 0.173770 0.000000
0.667781 0.190158 0.000000
0.736446 0.207126 0.000000
0.800931 0.224918 0.000000
0.861204 0.242771 0.000000
0.916564 0.260349 0.000000
0.972808 0.279301 0.000000
1.000000 0.296117 0.000000
1.000000 0.310552 0.000000
1.000000 0.322911 0.000000
1.000000 0.333623 0.000000
1.000000 0.343023 0.000000
1.000000 0.351263 0.000000
1.000000 0.358343 0.000000
1.000000 0.364660 0.000000
1.000000 0.369970 0.000000
1.000000 0.374365 0.000000
1.000000 0.378180 0.000000
1.000000 0.381079 0.000000
1.000000 0.383368 0.000000
0.000000 0.067689 0.085359
0.000000 0.071077 0.085786
0.000000 0.080537 0.089082
0.000000 0.089662 0.090761
0.000000 0.095460 0.088136
0.060426 0.105806 0.081086
0.129580 0.118715 0.071901
0.197177 0.129732 0.057649
0.268864 0.141054 0.037629
0.342840 0.152712 0.010437
0.420447 0.165316 0.000000
0.500877 0.179629 0.000000
0.578668 0.194491 0.000000
0.652735 0.210056 0.000000
0.722499 0.226078 0.000000
0.787686 0.242924 0.000000
0.849699 0.259586 0.000000
0.908293 0.276677 0.000000
0.964050 0.294285 0.000000
1.000000 0.309514 0.000000
1.000000 0.323064 0.000000
1.000000 0.334417 0.000000
1.000000 0.344274 0.000000
1.000000 0.352941 0.000000
1.000000 0.360510 0.000000
1.000000 0.367346 0.000000
1.000000 0.373022 0.000000
1.000000 0.377844 0.000000
1.000000 0.381842 0.000000
1.000000 0.385046 0.000000
1.000000 0.387671 0.000000
1.000000 0.389654 0.000000
0.000000 0.100008 0.099825
0.000000 0.101106 0.100404
0.000000 0.105196 0.102693
0.000000 0.113741 0.106996
0.000000 0.119722 0.106966
0.012787 0.128725 0.101686
0.107973 0.140169 0.094575
0.179812 0.153140 0.085328
0.252598 0.165072 0.064942
0.327428 0.177371 0.035370
0.404486 0.190768 0.000000
0.484932 0.205539 0.000000
0.563439 0.220462 0.000000
0.638025 0.235569 0.000000
0.708675 0.251011 0.000000
0.775479 0.266545 0.000000
0.838132 0.282078 0.000000
0.900206 0.299046 0.000000
0.956298 0.314916 0.000000
1.000000 0.328985 0.000000
1.000000 0.341039 0.000000
1.000000 0.351446 0.000000
1.000000 0.371557 0.000000
1.000000 0.378119 0.000000
1.000000 0.383520 0.000000
1.000000 0.388098 0.000000
1.000000 0.391760 0.000000
1.000000 0.394873 0.000000
1.000000 0.397406 0.000000
1.000000 0.399298 0.000000
1.000000 0.400641 0.000000
1.000000 0.401495 0.000000
0.000000 0.128023 0.119600
0.000000 0.129030 0.120302
0.000000 0.133242 0.122499
0.000000 0.141756 0.127108
0.000000 0.152895 0.131197
0.000000 0.158297 0.129519
0.091981 0.169558 0.121920
0.164340 0.180941 0.111299
0.241398 0.195865 0.100282
0.318517 0.209781 0.084840
0.399084 0.224002 0.041444
0.480964 0.239841 0.000000
0.560113 0.255161 0.000000
0.635035 0.270115 0.000000
0.705806 0.284611 0.000000
0.772183 0.298802 0.000000
0.838804 0.314763 0.000000
0.902708 0.331090 0.000000
0.959258 0.345708 0.000000
1.000000 0.358404 0.000000
1.000000 0.369329 0.000000
1.000000 0.378729 0.000000
1.000000 0.386633 0.000000
1.000000 0.393317 0.000000
1.000000 0.398718 0.000000
1.000000 0.403021 0.000000
1.000000 0.406043 0.000000
1.000000 0.408423 0.000000
1.000000 0.410285 0.000000
1.000000 0.411475 0.000000
1.000000 0.412177 0.000000
1.000000 0.412573 0.000000
0.000000 0.155673 0.139406
0.000000 0.156649 0.140169
0.000000 0.160220 0.142123
0.000000 0.168093 0.146548
0.000000 0.180514 0.152987
0.000000 0.188907 0.153964
0.074769 0.195651 0.151675
0.147372 0.208255 0.143160
0.213169 0.219150 0.131167
0.293767 0.237125 0.119417
0.373907 0.253178 0.103334
0.456306 0.269505 0.072389
0.537072 0.285161 0.001007
0.612543 0.300053 0.000000
0.683986 0.314244 0.000000
0.753689 0.328771 0.000000
0.822263 0.344549 0.000000
0.884977 0.358801 0.000000
0.941711 0.371740 0.000000
0.991913 0.383124 0.000000
1.000000 0.392798 0.000000
1.000000 0.400977 0.000000
1.000000 0.407843 0.000000
1.000000 0.413458 0.000000
1.000000 0.418036 0.000000
1.000000 0.421332 0.000000
1.000000 0.423651 0.000000
1.000000 0.425147 0.000000
1.000000 0.426154 0.000000
1.000000 0.426734 0.000000
1.000000 0.426642 0.000000
1.000000 0.426459 0.000000
0.000000 0.185489 0.161379
0.000000 0.186374 0.161990
0.000000 0.189425 0.163882
0.000000 0.196414 0.167941
0.000000 0.207431 0.174136
0.000000 0.221378 0.180362
0.085756 0.227237 0.179141
0.141665 0.235843 0.175845
0.201328 0.249729 0.166567
0.268681 0.263737 0.153567
0.348486 0.282261 0.141054
0.430671 0.300664 0.123720
0.512352 0.317662 0.100374
0.589654 0.332525 0.044007
0.665797 0.347784 0.000000
0.737484 0.362829 0.000000
0.804654 0.376806 0.000000
0.867063 0.389685 0.000000
0.924224 0.401251 0.000000
0.975372 0.411383 0.000000
1.000000 0.419837 0.000000
1.000000 0.426886 0.000000
1.000000 0.432593 0.000000
1.000000 0.437110 0.000000
1.000000 0.440650 0.000000
1.000000 0.442908 0.000000
1.000000 0.444343 0.000000
1.000000 0.445106 0.000000
1.000000 0.445228 0.000000
1.000000 0.444831 0.000000
1.000000 0.444129 0.000000
1.000000 0.442969 0.000000
0.000000 0.216434 0.184817
0.000000 0.217136 0.185153
0.000000 0.219913 0.186831
0.000000 0.226078 0.190555
0.000000 0.235721 0.196078
0.005035 0.250187 0.203769
0.103517 0.260685 0.206516
0.149294 0.267613 0.205264
0.196414 0.277989 0.201022
0.254643 0.293400 0.191379
0.323064 0.309667 0.177737
0.402350 0.329320 0.163912
0.485481 0.349493 0.146700
0.566491 0.367773 0.126162
0.643671 0.383551 0.098299
0.716304 0.397467 0.022278
0.784421 0.410376 0.000000
0.847990 0.422644 0.000000
0.906401 0.433661 0.000000
0.958556 0.442725 0.000000
1.000000 0.449836 0.000000
1.000000 0.455268 0.000000
1.000000 0.459510 0.000000
1.000000 0.462776 0.000000
1.000000 0.464912 0.000000
1.000000 0.466224 0.000000
1.000000 0.466743 0.000000
1.000000 0.466651 0.000000
1.000000 0.466072 0.000000
1.000000 0.465003 0.000000
1.000000 0.463569 0.000000
1.000000 0.461799 0.000000
0.000000 0.247227 0.207889
0.000000 0.247807 0.208194
0.000000 0.250553 0.210025
0.000000 0.256260 0.213382
0.000000 0.265141 0.218570
0.046845 0.278416 0.225986
0.124025 0.295933 0.234714
0.161654 0.302861 0.233890
0.203250 0.310979 0.232944
0.250126 0.324041 0.227543
0.310430 0.341894 0.217319
0.381994 0.362158 0.204196
0.461830 0.383337 0.190524
0.542473 0.402899 0.173678
0.619043 0.419196 0.154482
0.691981 0.433356 0.132143
0.761074 0.445777 0.102693
0.826139 0.456733 0.027863
0.885618 0.466682 0.000000
0.938659 0.474830 0.000000
0.985565 0.480903 0.000000
1.000000 0.485328 0.000000
1.000000 0.488808 0.000000
1.000000 0.491005 0.000000
1.000000 0.492134 0.000000
1.000000 0.492592 0.000000
1.000000 0.492256 0.000000
1.000000 0.491341 0.000000
1.000000 0.489845 0.000000
1.000000 0.488014 0.000000
1.000000 0.485786 0.000000
1.000000 0.483284 0.000000
0.000000 0.280308 0.232456
0.000000 0.281041 0.232761
0.000000 0.283360 0.234257
0.000000 0.288579 0.237461
0.000275 0.296971 0.242557
0.093080 0.309300 0.249546
0.138552 0.326452 0.258549
0.178164 0.341131 0.263828
0.215824 0.350378 0.263981
0.258762 0.360937 0.263828
0.308446 0.377752 0.257450
0.370031 0.397375 0.247044
0.465064 0.439155 0.244388
0.542718 0.458625 0.230167
0.622370 0.477729 0.214664
0.696407 0.492256 0.197116
0.766079 0.504112 0.178134
0.831266 0.513970 0.156710
0.890227 0.521111 0.134279
0.942626 0.525811 0.108064
0.988220 0.529046 0.077119
1.000000 0.530907 0.013397
1.000000 0.531426 0.000000
1.000000 0.531304 0.000000
1.000000 0.530236 0.000000
1.000000 0.528466 0.000000
1.000000 0.525902 0.000000
1.000000 0.523095 0.000000
1.000000 0.519951 0.000000
1.000000 0.516533 0.000000
1.000000 0.512902 0.000000
1.000000 0.509178 0.000000
0.000000 0.322911 0.263615
0.000000 0.323308 0.263737
0.000000 0.325658 0.265171
0.015290 0.330663 0.268284
0.084199 0.338750 0.273014
0.122621 0.350500 0.279728
0.160525 0.367102 0.288701
0.202548 0.388891 0.299901
0.237064 0.399023 0.301091
0.276524 0.409430 0.301549
0.321630 0.421698 0.302159
0.374182 0.441596 0.295506
0.437873 0.463081 0.285863
0.509667 0.484718 0.272801
0.582788 0.502525 0.258824
0.661738 0.522789 0.245640
0.732204 0.536095 0.229618
0.798398 0.546349 0.212772
0.858732 0.553796 0.195773
0.912718 0.558404 0.179355
0.960723 0.560693 0.163485
1.000000 0.561456 0.148775
1.000000 0.561761 0.137087
1.000000 0.561089 0.125826
1.000000 0.559503 0.116823
1.000000 0.557244 0.109468
1.000000 0.554314 0.104067
1.000000 0.550896 0.099672
1.000000 0.547204 0.096864
1.000000 0.543236 0.097292
1.000000 0.538933 0.097932
1.000000 0.534691 0.099855
0.020233 0.361517 0.291386
0.024994 0.361852 0.291569
0.046662 0.363928 0.292699
0.086671 0.368109 0.295201
0.112917 0.375189 0.299321
0.142000 0.385504 0.305150
0.175509 0.400061 0.313359
0.213779 0.418738 0.323613
0.252720 0.436378 0.331914
0.287205 0.445899 0.332647
0.327337 0.457008 0.333684
0.372015 0.469947 0.334478
0.424231 0.490242 0.327123
0.485542 0.510857 0.317479
0.553765 0.531151 0.304448
0.620935 0.545586 0.289128
0.698054 0.566064 0.278019
0.764706 0.577783 0.263035
0.826535 0.586084 0.248417
0.882200 0.591180 0.234501
0.932311 0.593713 0.221530
0.977356 0.594568 0.210117
1.000000 0.594049 0.200015
1.000000 0.592493 0.191684
1.000000 0.590600 0.185489
1.000000 0.587915 0.180911
1.000000 0.584436 0.177218
1.000000 0.580499 0.174746
1.000000 0.576165 0.173465
1.000000 0.571649 0.173312
1.000000 0.566949 0.174166
1.000000 0.562097 0.175601
0.092653 0.399481 0.318395
0.094972 0.399847 0.318761
0.102510 0.401495 0.319585
0.116701 0.405127 0.321721
0.137423 0.411170 0.325322
0.162539 0.420020 0.330632
0.192630 0.432380 0.337987
0.227939 0.448707 0.347875
0.269474 0.469215 0.360418
0.303105 0.481331 0.364538
0.337896 0.491463 0.365881
0.377508 0.503075 0.367498
0.420813 0.517021 0.367315
0.471290 0.536614 0.359838
0.529747 0.556023 0.349706
0.594263 0.574640 0.336797
0.658137 0.588128 0.320287
0.731319 0.607355 0.311742
0.794034 0.617090 0.297948
0.851377 0.623194 0.285008
0.903258 0.626459 0.273259
0.950347 0.627802 0.262791
0.992615 0.627466 0.253880
1.000000 0.625696 0.246250
1.000000 0.622705 0.239506
1.000000 0.619318 0.235019
1.000000 0.615595 0.231937
1.000000 0.611414 0.230320
1.000000 0.606806 0.229770
1.000000 0.602014 0.230228
1.000000 0.597070 0.232059
1.000000 0.591974 0.234501
0.126833 0.434943 0.344488
0.129000 0.435462 0.344823
0.134737 0.437201 0.345922
0.146517 0.440528 0.347997
0.163851 0.446265 0.351598
0.186160 0.454566 0.356878
0.213809 0.465919 0.364233
0.247288 0.480690 0.374029
0.285283 0.499245 0.386419
0.324163 0.518547 0.398016
0.353735 0.527550 0.399237
0.387518 0.537438 0.400336
0.425208 0.548058 0.401343
0.466041 0.561608 0.398932
0.513542 0.579126 0.390417
0.568627 0.596490 0.379980
0.629786 0.613703 0.366949
0.693416 0.628992 0.350927
0.759884 0.644221 0.344213
0.818570 0.652369 0.331945
0.872526 0.657404 0.321080
0.921904 0.659907 0.311620
0.966491 0.660426 0.303502
1.000000 0.659174 0.296635
1.000000 0.656519 0.290898
1.000000 0.652766 0.286381
1.000000 0.648127 0.282994
1.000000 0.643580 0.281315
1.000000 0.638697 0.280766
1.000000 0.633539 0.281285
1.000000 0.628046 0.282750
1.000000 0.622583 0.284794
0.159304 0.468971 0.370275
0.160678 0.469398 0.370520
0.165621 0.470741 0.371435
0.175448 0.474006 0.373602
0.190311 0.479133 0.377050
0.210513 0.486488 0.382055
0.235538 0.496620 0.389044
0.265446 0.509636 0.398169
0.299168 0.525811 0.409125
0.336797 0.545464 0.422339
0.368322 0.559106 0.428626
0.397772 0.568200 0.429938
0.430671 0.577874 0.431037
0.466896 0.587884 0.431830
0.506218 0.601648 0.428016
0.552056 0.618158 0.419562
0.604578 0.634516 0.409277
0.662776 0.650660 0.397192
0.723629 0.665400 0.382513
0.785336 0.678218 0.375952
0.841794 0.686336 0.366461
0.892973 0.690333 0.357305
0.939330 0.691981 0.349584
0.981262 0.691524 0.343145
1.000000 0.689448 0.337957
1.000000 0.686061 0.333898
1.000000 0.681636 0.330846
1.000000 0.676387 0.328710
1.000000 0.670771 0.327916
1.000000 0.665492 0.328740
1.000000 0.659907 0.330541
1.000000 0.654231 0.333074
0.194430 0.503136 0.397314
0.195377 0.503563 0.397589
0.214755 0.518517 0.409705
0.222599 0.521294 0.411658
0.234928 0.525902 0.414923
0.251987 0.532341 0.419593
0.273045 0.541070 0.425788
0.298619 0.552453 0.433875
0.328130 0.566705 0.443915
0.361822 0.584100 0.456153
0.398749 0.603937 0.469581
0.423682 0.611933 0.470741
0.451850 0.620233 0.471473
0.483314 0.628840 0.471870
0.517540 0.637507 0.471809
0.554467 0.650507 0.466255
0.597711 0.665003 0.457099
0.646937 0.679255 0.446540
0.701015 0.693202 0.434516
0.758206 0.706325 0.420630
0.814786 0.716182 0.413428
0.868864 0.723781 0.406836
0.915984 0.726009 0.398840
0.958648 0.725856 0.392279
0.996918 0.723690 0.386542
1.000000 0.720058 0.381842
1.000000 0.715358 0.378088
1.000000 0.709926 0.375555
1.000000 0.703975 0.374243
1.000000 0.697810 0.374334
1.000000 0.691768 0.375921
1.000000 0.686061 0.378973
0.231846 0.539513 0.426886
0.233799 0.541009 0.428138
0.238499 0.543572 0.430152
0.246769 0.547234 0.432959
0.258244 0.552148 0.436622
0.273228 0.558282 0.441077
0.292210 0.566186 0.446845
0.314336 0.576196 0.454078
0.340703 0.588617 0.463142
0.370886 0.603815 0.474006
0.404730 0.621729 0.486824
0.434638 0.636072 0.495033
0.459174 0.643610 0.495857
0.486854 0.651545 0.496529
0.517144 0.659724 0.496864
0.550286 0.667964 0.496864
0.585962 0.681361 0.490547
0.627832 0.695277 0.482246
0.675166 0.709041 0.472908
0.726772 0.722499 0.462318
0.781491 0.735256 0.450355
0.834592 0.744137 0.443244
0.887205 0.752285 0.439948
0.931426 0.753628 0.433448
0.971221 0.752712 0.427863
1.000000 0.749996 0.423346
1.000000 0.745907 0.419837
1.000000 0.740963 0.417639
1.000000 0.735439 0.416663
1.000000 0.729519 0.417060
1.000000 0.723476 0.418891
1.000000 0.717189 0.421881
0.259068 0.568292 0.450568
0.261112 0.569787 0.451759
0.265507 0.572290 0.453742
0.272679 0.575616 0.456397
0.283055 0.580194 0.459846
0.296239 0.585870 0.464149
0.312535 0.592798 0.469337
0.332799 0.601709 0.475898
0.356390 0.612757 0.484077
0.383368 0.626062 0.493996
0.414069 0.641871 0.505608
0.448035 0.660243 0.519158
0.471382 0.668818 0.521721
0.495583 0.676173 0.522606
0.522576 0.683650 0.523308
0.551965 0.691402 0.523674
0.583642 0.699367 0.523552
0.618067 0.712551 0.516777
0.658259 0.725643 0.509239
0.703182 0.738552 0.500694
0.752071 0.751034 0.491310
0.803861 0.762997 0.480934
0.853483 0.770809 0.473732
0.904265 0.779019 0.473457
0.945403 0.779690 0.468208
0.982605 0.778164 0.463844
1.000000 0.775021 0.460578
1.000000 0.770809 0.458595
1.000000 0.765866 0.458106
1.000000 0.760464 0.459052
1.000000 0.754849 0.461585
1.000000 0.749111 0.465492
0.286229 0.597589 0.474830
0.287968 0.598932 0.475959
0.291814 0.601068 0.477668
0.298100 0.604120 0.480110
0.307225 0.608179 0.483284
0.319066 0.613184 0.487190
0.333654 0.619532 0.491981
0.351781 0.627436 0.497993
0.372930 0.637293 0.505516
0.397742 0.649165 0.514611
0.425757 0.663233 0.525383
0.457099 0.679347 0.537865
0.486763 0.694057 0.548119
0.507927 0.700649 0.549096
0.531762 0.707668 0.550072
0.557977 0.714931 0.550866
0.586633 0.722469 0.551720
0.617426 0.731228 0.551324
0.651240 0.744289 0.545953
0.690211 0.757168 0.539940
0.733364 0.769772 0.533349
0.779904 0.781918 0.525994
0.828824 0.793332 0.517601
0.875608 0.800595 0.511101
0.923827 0.808865 0.514672
0.961913 0.808957 0.511406
0.996155 0.807065 0.509270
1.000000 0.803799 0.508293
1.000000 0.799710 0.508965
1.000000 0.795041 0.511223
1.000000 0.790036 0.515038
1.000000 0.785000 0.520684
0.320134 0.633814 0.505394
0.321050 0.634516 0.506004
0.323735 0.635676 0.506950
0.328588 0.637720 0.508568
0.336187 0.640742 0.510979
0.346075 0.644800 0.514153
0.359197 0.650233 0.518395
0.375494 0.657160 0.523919
0.394934 0.665888 0.530816
0.417609 0.676478 0.539300
0.443397 0.688899 0.549371
0.472541 0.703182 0.561120
0.504631 0.719142 0.574640
0.528069 0.728603 0.579828
0.548760 0.734829 0.580835
0.571710 0.741329 0.581842
0.596735 0.747982 0.582757
0.623865 0.754879 0.583612
0.652552 0.763546 0.582574
0.684596 0.775174 0.577447
0.720974 0.786618 0.571771
0.760891 0.797665 0.565545
0.803738 0.808164 0.558587
0.848783 0.818021 0.550774
0.893217 0.825223 0.544152
0.937438 0.832151 0.549645
0.973053 0.832212 0.548608
1.000000 0.830381 0.548455
1.000000 0.827420 0.549950
1.000000 0.823728 0.553063
1.000000 0.819638 0.558129
1.000000 0.815274 0.564599
0.346197 0.662684 0.530053
0.347234 0.663233 0.530541
0.349615 0.664393 0.531518
0.353918 0.666255 0.533074
0.360784 0.668940 0.535241
0.370062 0.672633 0.538231
0.382055 0.677455 0.542199
0.396979 0.683711 0.547356
0.414801 0.691524 0.553857
0.435981 0.700923 0.561761
0.459968 0.711849 0.571191
0.487251 0.724392 0.582208
0.517296 0.738430 0.594995
0.548577 0.753048 0.608209
0.566735 0.758755 0.609552
0.586816 0.764736 0.610864
0.609064 0.770962 0.612238
0.633173 0.777310 0.613550
0.658930 0.783871 0.614954
0.686091 0.792691 0.613581
0.716365 0.803555 0.609430
0.750332 0.814023 0.604730
0.787594 0.824094 0.599542
0.827237 0.833677 0.593866
0.866331 0.839841 0.582940
0.910094 0.848692 0.577386
0.948852 0.852964 0.583703
0.982513 0.853910 0.586358
1.000000 0.852384 0.588708
1.000000 0.849973 0.593133
1.000000 0.847013 0.599390
1.000000 0.843503 0.606836
0.377447 0.695399 0.558831
0.378607 0.696254 0.559625
0.380682 0.697200 0.560449
0.384527 0.698573 0.561608
0.390234 0.700526 0.563287
0.398291 0.703334 0.565606
0.408637 0.706996 0.568780
0.421698 0.711910 0.573022
0.437781 0.718166 0.578546
0.456733 0.725826 0.585382
0.478523 0.734859 0.593652
0.503685 0.745449 0.603601
0.531395 0.757443 0.615290
0.561944 0.770535 0.628687
0.585779 0.780087 0.636439
0.602655 0.785031 0.637385
0.621637 0.790311 0.638361
0.642512 0.795956 0.639704
0.665278 0.801938 0.641260
0.689937 0.808225 0.643183
0.715602 0.817258 0.641932
0.744259 0.827329 0.638636
0.775845 0.836912 0.634760
0.809995 0.845914 0.630213
0.846281 0.854246 0.624994
0.884337 0.861997 0.619165
0.925444 0.870817 0.615076
0.960296 0.874083 0.621881
0.991638 0.875608 0.628138
1.000000 0.874357 0.632990
1.000000 0.872251 0.639460
1.000000 0.869871 0.648341
0.402319 0.721370 0.582116
0.403479 0.722164 0.582879
0.405646 0.723140 0.583734
0.409308 0.724514 0.585046
0.414923 0.726558 0.586877
0.422736 0.729305 0.589380
0.432898 0.733028 0.592889
0.445991 0.737850 0.597406
0.461585 0.743832 0.603052
0.479988 0.750942 0.610010
0.501183 0.759182 0.618280
0.525139 0.768673 0.628077
0.551568 0.779171 0.639368
0.580194 0.790677 0.652094
0.610407 0.803037 0.666072
0.626703 0.808469 0.668605
0.642847 0.813169 0.669734
0.660883 0.818204 0.671168
0.680629 0.823575 0.672969
0.702113 0.829343 0.675074
0.725154 0.835233 0.677485
0.748959 0.844083 0.676234
0.775357 0.853208 0.673915
0.804379 0.861936 0.671168
0.835630 0.870146 0.668055
0.868803 0.877897 0.664576
0.903471 0.885100 0.660792
0.941009 0.893553 0.659571
0.972717 0.897002 0.667750
1.000000 0.898894 0.677668
1.000000 0.898039 0.685481
1.000000 0.896788 0.695705
0.433082 0.750454 0.609461
0.433875 0.750881 0.609857
0.435554 0.751583 0.610559
0.439155 0.752712 0.611688
0.444160 0.754421 0.613336
0.451514 0.756771 0.615717
0.461006 0.760006 0.618952
0.473213 0.764126 0.623194
0.487831 0.769223 0.628504
0.505303 0.775387 0.635096
0.525414 0.782620 0.643061
0.548089 0.790860 0.652399
0.572808 0.800015 0.663050
0.599237 0.810025 0.674891
0.627314 0.820798 0.688014
0.651759 0.830167 0.698482
0.665705 0.834440 0.699855
0.681300 0.839017 0.701472
0.698604 0.843931 0.703487
0.717342 0.849180 0.705928
0.737606 0.854673 0.708705
0.758999 0.860288 0.711696
0.780758 0.868803 0.710536
0.805051 0.877104 0.709133
0.831418 0.884977 0.707515
0.859739 0.892393 0.705684
0.889525 0.899229 0.703273
0.920592 0.905577 0.700557
0.954131 0.913085 0.700923
0.982727 0.916960 0.710811
1.000000 0.919432 0.725246
1.000000 0.919402 0.736965
0.464332 0.777707 0.636225
0.465156 0.778073 0.636622
0.466865 0.778744 0.637324
0.470375 0.779843 0.638575
0.475624 0.781521 0.640436
0.483253 0.784054 0.643214
0.493446 0.787594 0.647211
0.506432 0.792020 0.652338
0.522026 0.797482 0.658747
0.540337 0.803861 0.666407
0.560937 0.811185 0.675410
0.583581 0.819181 0.685481
0.607874 0.827909 0.696651
0.633326 0.837095 0.708766
0.660029 0.846799 0.721828
0.687282 0.856901 0.735683
0.704585 0.863035 0.741756
0.717891 0.867247 0.743862
0.732692 0.871824 0.746426
0.748836 0.876677 0.749386
0.766262 0.881682 0.752743
0.784634 0.886870 0.756374
0.803342 0.892241 0.759335
0.822446 0.899657 0.759152
0.843412 0.906645 0.758724
0.866178 0.913329 0.758206
0.890562 0.919585 0.757595
0.916136 0.925505 0.757137
0.942687 0.930999 0.756832
0.970733 0.937438 0.759945
0.994293 0.941497 0.773068
1.000000 0.943969 0.791836
0.512718 0.812589 0.673884
0.512993 0.812680 0.673976
0.514488 0.813077 0.674495
0.517357 0.813840 0.675410
0.522026 0.815091 0.677089
0.528740 0.816922 0.679438
0.537652 0.819486 0.682704
0.548913 0.822782 0.687007
0.562341 0.826871 0.692378
0.578271 0.831724 0.698909
0.596307 0.837369 0.706508
0.616175 0.843809 0.715328
0.637903 0.850889 0.725307
0.661067 0.858549 0.736294
