20 Preset/Russian Style/【3】LUT video cho PR-AE-FCPX/Lut Tone (32).cube
# Created by Adobe Lightroom plugin Export LUT (1.24.0)
# www.johnrellis.com/lightroom/exportlut.htm
# Preset: 俄罗斯情绪-素材江湖16
# Color profile: C:\Program Files (x86)\Common Files\Adobe\Color\Profiles\Recommended\VideoHD.icc
LUT_3D_SIZE 8
DOMAIN_MIN 0.000000 0.000000 0.000000
DOMAIN_MAX 0.903226 0.903226 0.903226
0.000000 0.000000 0.000000
0.092348 0.000000 0.003845
0.238682 0.012665 0.004181
0.427771 0.050477 0.000000
0.605371 0.108248 0.000000
0.739956 0.147280 0.000000
0.868376 0.185824 0.000000
1.000000 0.225345 0.000000
0.014130 0.063020 0.041932
0.070954 0.077821 0.043336
0.231052 0.107820 0.021637
0.421302 0.132784 0.000000
0.600214 0.160067 0.000000
0.736049 0.185916 0.000000
0.865568 0.215671 0.000000
1.000000 0.249882 0.000000
0.000000 0.169619 0.122591
0.027893 0.178042 0.124269
0.180758 0.191775 0.114900
0.394659 0.256260 0.084230
0.579095 0.279545 0.026032
0.719722 0.291356 0.022766
0.854063 0.307988 0.048676
0.996338 0.331914 0.096529
0.000000 0.298650 0.216495
0.000000 0.303136 0.218631
0.177310 0.316075 0.220401
0.308904 0.330022 0.206363
0.523583 0.399908 0.203159
0.687892 0.420966 0.211368
0.831815 0.431189 0.220096
0.981201 0.449409 0.237766
0.000000 0.423346 0.322271
0.000000 0.426062 0.324132
0.183047 0.437110 0.331273
0.302647 0.444038 0.326452
0.427741 0.459113 0.313970
0.610193 0.513024 0.327916
0.799496 0.564843 0.358984
0.958465 0.583154 0.375586
0.118105 0.529808 0.428748
0.150546 0.531151 0.430640
0.235752 0.536736 0.438575
0.331182 0.545617 0.448646
0.421302 0.549523 0.441199
0.528679 0.567346 0.434546
0.710414 0.632746 0.455909
0.921721 0.705745 0.499306
0.240238 0.642695 0.545739
0.253117 0.643977 0.547112
0.298253 0.649500 0.552636
0.366796 0.660853 0.561212
0.445899 0.670161 0.561975
0.540581 0.679713 0.557427
0.655665 0.703822 0.554711
0.848722 0.776730 0.576654
0.274632 0.802548 0.678126
0.286931 0.803769 0.679255
0.333989 0.809049 0.684108
0.410376 0.819638 0.693599
0.505272 0.835782 0.706844
0.596643 0.845762 0.705623
0.708156 0.862760 0.705348
0.841154 0.890532 0.707698
0.024567 0.024903 0.043519
0.084443 0.027436 0.055482
0.243778 0.000000 0.056672
0.421027 0.036439 0.039826
0.598596 0.108919 0.000000
0.734951 0.153017 0.000000
0.864836 0.192599 0.000000
1.000000 0.230991 0.000000
0.030549 0.076967 0.072450
0.088533 0.089631 0.086915
0.232425 0.106050 0.084840
0.415808 0.130770 0.056977
0.594263 0.161379 0.002319
0.731380 0.190646 0.000000
0.862303 0.221561 0.000000
1.000000 0.254948 0.000000
0.015503 0.177584 0.140841
0.087617 0.184848 0.144533
0.189456 0.199313 0.139132
0.392859 0.257115 0.128817
0.575555 0.281193 0.119356
0.716243 0.294469 0.121950
0.851377 0.312108 0.130922
0.994842 0.335607 0.146517
0.000000 0.302403 0.229465
0.040711 0.306645 0.231815
0.189120 0.320287 0.235721
0.313115 0.333745 0.222904
0.524163 0.402045 0.224796
0.685786 0.422400 0.234745
0.829923 0.433570 0.243198
0.980163 0.451820 0.259129
0.000000 0.425208 0.330877
0.027710 0.427893 0.332799
0.194461 0.438727 0.340337
0.307744 0.446265 0.336584
0.429938 0.460945 0.324834
0.610590 0.514641 0.340581
0.798459 0.565850 0.372107
0.957885 0.584558 0.388128
0.139559 0.530632 0.434546
0.166934 0.531945 0.436378
0.244480 0.537530 0.444312
0.336828 0.546746 0.455146
0.424292 0.550744 0.447913
0.530022 0.568536 0.441627
0.711360 0.634119 0.463264
0.922789 0.706996 0.506035
0.245884 0.643305 0.549096
0.258152 0.644587 0.550530
0.302159 0.650111 0.555962
0.369299 0.661402 0.564446
0.448127 0.671168 0.565759
0.541985 0.680568 0.561151
0.656733 0.704707 0.558648
0.850004 0.777890 0.581231
0.276066 0.802884 0.680140
0.288304 0.804135 0.681300
0.335058 0.809415 0.686091
0.411353 0.820005 0.695613
0.506859 0.836484 0.709438
0.597681 0.846494 0.708125
0.709010 0.863340 0.707912
0.841978 0.891081 0.710231
0.081239 0.083955 0.118288
0.104860 0.082948 0.122042
0.212497 0.090547 0.156222
0.424781 0.000000 0.164126
0.597589 0.000000 0.158175
0.727199 0.152041 0.173678
0.857176 0.206180 0.185580
0.999725 0.243412 0.193698
0.100160 0.118746 0.137758
0.119081 0.120577 0.144594
0.222995 0.125368 0.169131
0.423316 0.042969 0.164096
0.590875 0.137453 0.171969
0.722621 0.196353 0.186374
0.854795 0.234226 0.195529
0.998077 0.266789 0.204562
0.103609 0.192569 0.183963
0.132479 0.199191 0.190677
0.213077 0.219272 0.202976
0.395117 0.255833 0.210941
0.570489 0.280400 0.217166
0.708492 0.300359 0.226749
0.844602 0.322118 0.236728
0.991119 0.345617 0.247929
0.109377 0.312566 0.268162
0.140444 0.316777 0.272038
0.221347 0.333043 0.283330
0.327703 0.346166 0.275090
0.529198 0.409888 0.290654
0.679622 0.425879 0.302953
0.824521 0.440436 0.312963
0.977142 0.459297 0.326177
0.122499 0.431861 0.361486
0.150393 0.434333 0.363592
0.229465 0.444373 0.371832
0.326116 0.454810 0.373693
0.438331 0.467964 0.364141
0.612909 0.521202 0.386267
0.795132 0.569238 0.417884
0.956481 0.588861 0.431678
0.196750 0.533776 0.456214
0.214481 0.535027 0.458076
0.274754 0.540490 0.466041
0.357855 0.551446 0.479896
0.435309 0.555779 0.473243
0.535485 0.573022 0.468177
0.715785 0.639734 0.491218
0.927825 0.712001 0.532189
0.265629 0.645777 0.562402
0.276341 0.647028 0.563714
0.315679 0.652552 0.568811
0.378851 0.663813 0.577295
0.456123 0.675288 0.581048
0.547631 0.684047 0.576440
0.660975 0.708339 0.574578
0.855863 0.782803 0.599542
0.280461 0.804257 0.688228
0.292699 0.805478 0.689387
0.338720 0.810758 0.694209
0.414405 0.821347 0.703761
0.509728 0.837980 0.717861
0.601709 0.849424 0.718685
0.712520 0.865751 0.718166
0.845335 0.893523 0.720638
0.132204 0.135317 0.212589
0.152712 0.136904 0.216190
0.225467 0.140475 0.229587
0.378882 0.164004 0.282750
0.583856 0.090791 0.297856
0.727901 0.012696 0.277043
0.855009 0.192264 0.295598
0.997589 0.249424 0.314275
0.151614 0.172457 0.232029
0.168765 0.172976 0.234714
0.234226 0.173648 0.245060
0.381811 0.189731 0.290196
0.582391 0.140200 0.298619
0.722774 0.154665 0.288090
0.851316 0.229526 0.305394
0.995453 0.275151 0.323033
0.170962 0.238315 0.263554
0.190066 0.242893 0.268437
0.250248 0.256535 0.286259
0.391485 0.259678 0.310918
0.572595 0.260319 0.311467
0.702541 0.298070 0.326146
0.837400 0.331792 0.343145
0.987884 0.356146 0.355627
0.172152 0.326970 0.320958
0.192264 0.330541 0.325017
0.258183 0.345464 0.341436
0.350439 0.366125 0.351141
0.531731 0.413672 0.374731
0.670710 0.430457 0.389197
0.817472 0.449104 0.402197
0.975036 0.466987 0.413245
0.194919 0.441108 0.406195
0.212772 0.443580 0.408850
0.273686 0.453254 0.419287
0.358038 0.468757 0.432868
0.452308 0.479774 0.425788
0.619257 0.533806 0.456306
0.792294 0.572229 0.480629
0.957702 0.591394 0.491249
0.259037 0.539147 0.491341
0.271061 0.540398 0.493141
0.315038 0.545678 0.500359
0.382391 0.556725 0.513329
0.453132 0.565118 0.513756
0.545373 0.581384 0.510002
0.727108 0.650355 0.535332
0.940246 0.720943 0.577111
0.289708 0.649928 0.584771
0.298680 0.651209 0.585992
0.333074 0.656733 0.590845
0.392493 0.667872 0.599786
0.469856 0.683009 0.608759
0.557244 0.690547 0.603845
0.669093 0.715145 0.602991
0.868742 0.792447 0.632654
0.277745 0.806332 0.702358
0.290196 0.807584 0.703517
0.337469 0.812863 0.708431
0.414496 0.823545 0.718135
0.511070 0.840269 0.732570
0.607874 0.855100 0.738277
0.718349 0.870268 0.737057
0.851774 0.898192 0.739742
0.201358 0.211124 0.327337
0.217258 0.212314 0.329656
0.274632 0.215824 0.339239
0.367132 0.218662 0.355505
0.530205 0.256199 0.415656
0.694575 0.238285 0.426276
0.844388 0.215824 0.415381
0.997253 0.248112 0.428534
0.215793 0.238590 0.339879
0.229191 0.238956 0.341741
0.281163 0.240208 0.349615
0.369604 0.240360 0.363653
0.530358 0.272740 0.420142
0.692744 0.257176 0.428748
0.843137 0.237980 0.418128
0.995178 0.275090 0.435035
0.244297 0.302220 0.364111
0.256413 0.304875 0.367956
0.296880 0.308476 0.380682
0.375647 0.307591 0.392523
0.530114 0.327245 0.435889
0.685939 0.319036 0.437781
0.834562 0.326482 0.440558
0.987762 0.358434 0.459785
0.243748 0.365118 0.399451
0.257328 0.367742 0.402380
0.307042 0.378332 0.414282
0.381445 0.396307 0.436072
0.529595 0.401251 0.452491
0.665339 0.426398 0.469551
0.814328 0.449104 0.486885
0.978363 0.463813 0.498390
0.255009 0.453803 0.459022
0.268376 0.455848 0.461524
0.318059 0.463874 0.471809
0.390753 0.479591 0.490181
0.470222 0.494881 0.495918
0.633204 0.547234 0.529137
0.796139 0.566583 0.540764
0.968261 0.580957 0.548669
0.307897 0.545983 0.531609
0.317327 0.547234 0.533288
0.352483 0.552941 0.540520
0.407874 0.564385 0.553155
0.472602 0.578912 0.561730
0.559167 0.593317 0.558373
0.750301 0.665919 0.591943
0.952575 0.716213 0.623651
0.312474 0.655787 0.614862
0.319219 0.656947 0.615808
0.346288 0.661921 0.619623
0.400916 0.672663 0.628473
0.480720 0.690303 0.642329
0.568017 0.702083 0.642420
0.680903 0.725002 0.641718
0.892271 0.807126 0.678553
0.241703 0.808103 0.720363
0.256931 0.809384 0.721553
0.313176 0.814817 0.726711
0.399603 0.825742 0.736843
0.503807 0.842924 0.752193
0.614405 0.863798 0.766690
0.725490 0.876829 0.764157
0.861662 0.905211 0.767147
0.275639 0.293431 0.445808
0.286839 0.294163 0.447364
0.330144 0.296727 0.453834
0.405402 0.299046 0.465675
0.512474 0.313695 0.491402
0.642054 0.359747 0.533410
0.806546 0.350622 0.553613
0.976501 0.334569 0.561181
0.285008 0.312566 0.453529
0.295048 0.313054 0.454841
0.335424 0.314275 0.460670
0.407691 0.315343 0.471626
0.512108 0.328313 0.495735
0.641413 0.370642 0.536797
0.805692 0.361639 0.556023
0.976715 0.345220 0.562982
0.312871 0.369329 0.474006
0.322148 0.370977 0.477028
0.349950 0.368688 0.482155
0.413062 0.369207 0.491768
0.509148 0.378515 0.511559
0.639124 0.409339 0.549310
0.803769 0.400610 0.564752
0.978729 0.383062 0.568841
0.322637 0.422705 0.495247
0.332311 0.424903 0.497292
0.370123 0.433783 0.505272
0.422858 0.443366 0.520958
0.501244 0.448035 0.536187
0.638270 0.463416 0.567376
0.805661 0.455360 0.574914
0.983856 0.448829 0.581445
0.326421 0.483650 0.527825
0.335851 0.485054 0.529381
0.371283 0.490669 0.535882
0.427710 0.500969 0.547875
0.493202 0.515557 0.565545
0.638209 0.528985 0.583185
0.802701 0.549035 0.603326
0.981537 0.562249 0.619257
0.353582 0.558618 0.577630
0.360998 0.559777 0.579126
0.389227 0.564691 0.585321
0.435248 0.574701 0.596918
0.495552 0.591852 0.613397
0.578302 0.609796 0.618494
0.787686 0.681910 0.663966
0.974823 0.697932 0.675410
0.352117 0.665461 0.655238
0.358068 0.666590 0.656275
0.381994 0.671534 0.660792
0.427527 0.681605 0.669703
0.494301 0.697688 0.682856
0.584558 0.718898 0.695521
0.698573 0.739284 0.694148
0.929931 0.827390 0.741604
0.289097 0.815946 0.756893
0.297459 0.817014 0.757595
0.331609 0.821408 0.760616
0.391485 0.830320 0.766537
0.484352 0.845914 0.777951
0.613794 0.870878 0.799100
0.734890 0.889128 0.803647
0.876555 0.915404 0.806088
0.365576 0.391608 0.568719
0.372717 0.391669 0.569116
0.403235 0.393408 0.572747
0.458900 0.395789 0.579706
0.535302 0.398260 0.589624
0.643000 0.425757 0.620264
0.781491 0.457130 0.662348
0.947631 0.440467 0.679927
0.373938 0.406439 0.574090
0.380377 0.406256 0.574334
0.408972 0.407538 0.577783
0.462409 0.409461 0.584802
0.537407 0.411444 0.594965
0.645289 0.436988 0.625940
0.785885 0.465858 0.667842
0.952972 0.450111 0.685267
0.392340 0.446143 0.584924
0.397925 0.446357 0.585657
0.421668 0.447364 0.589288
0.468055 0.448554 0.596307
0.538109 0.449897 0.607111
0.643275 0.468391 0.636378
0.785977 0.489204 0.674983
0.952819 0.474403 0.689998
0.408118 0.491585 0.594202
0.414557 0.493233 0.595880
0.439338 0.499702 0.604791
0.475685 0.501671 0.615381
0.538293 0.502556 0.626947
0.638331 0.513970 0.652277
0.787259 0.529168 0.687953
0.959503 0.518151 0.701656
0.406928 0.540124 0.620356
0.413153 0.541619 0.621973
0.436591 0.546227 0.627222
0.478553 0.553826 0.636255
0.537743 0.564691 0.654780
0.631128 0.572351 0.676326
0.796170 0.584558 0.709041
0.978088 0.576867 0.718349
0.395087 0.601862 0.655085
0.400519 0.602594 0.656031
0.423194 0.605890 0.660060
0.465553 0.612146 0.667994
0.528283 0.622492 0.681086
0.611414 0.638697 0.701076
0.798367 0.657191 0.725765
0.990600 0.681514 0.751949
0.386908 0.688075 0.708492
0.392554 0.688685 0.709194
0.417182 0.692897 0.713710
0.463600 0.701167 0.722713
0.531945 0.715328 0.737850
0.617914 0.737789 0.758663
0.728939 0.763027 0.768032
0.978698 0.843656 0.822080
0.369482 0.831876 0.805600
0.376471 0.832609 0.806271
0.402686 0.835019 0.808286
0.452857 0.843565 0.815091
0.526513 0.858671 0.826780
0.622065 0.880156 0.842130
0.756222 0.909178 0.861357
0.900694 0.931273 0.862547
0.479194 0.511589 0.715877
0.484413 0.511406 0.716243
0.507652 0.512139 0.719783
0.552087 0.511955 0.725490
0.620783 0.511131 0.735195
0.708614 0.509575 0.746944
0.837491 0.539300 0.782315
0.973999 0.570581 0.813230
0.482582 0.520073 0.719997
0.487678 0.519860 0.720302
0.510124 0.520104 0.723384
0.554162 0.519951 0.729274
0.622400 0.519036 0.738888
0.710353 0.517388 0.750668
0.839506 0.546838 0.785977
0.976898 0.577630 0.816861
0.489509 0.547143 0.730007
0.494453 0.547112 0.730587
0.515770 0.547417 0.733730
0.556878 0.546380 0.738491
0.623499 0.545892 0.748440
0.711910 0.544610 0.760891
0.840146 0.571405 0.794400
0.980072 0.598718 0.824460
0.499855 0.590539 0.741207
0.505425 0.591485 0.742702
0.525444 0.593347 0.749355
0.560357 0.591150 0.755062
0.622858 0.590936 0.764492
0.710811 0.589899 0.777188
0.838376 0.612207 0.807980
0.984161 0.634730 0.836973
0.487251 0.632105 0.755276
0.492287 0.632410 0.755734
0.513909 0.635004 0.759091
0.559930 0.643763 0.769528
0.619440 0.648981 0.786099
0.706874 0.649897 0.800534
0.835050 0.666712 0.827939
0.992248 0.685695 0.855955
0.470497 0.693996 0.785458
0.476234 0.694820 0.786496
0.499214 0.697505 0.790066
0.542229 0.701625 0.795895
0.605432 0.707424 0.804379
0.693629 0.720668 0.824949
0.818631 0.730098 0.847959
0.997955 0.750729 0.877623
0.439765 0.772885 0.823270
0.445808 0.773617 0.824033
0.471138 0.776394 0.827268
0.518364 0.780972 0.832944
0.588037 0.788418 0.842100
0.679072 0.798978 0.855253
0.796872 0.818845 0.877409
1.000000 0.842649 0.906004
0.432349 0.881437 0.878508
0.439307 0.882475 0.879423
0.466957 0.885710 0.882444
0.517845 0.891081 0.887633
0.593011 0.900877 0.896880
0.693263 0.916167 0.911772
0.820462 0.937438 0.933074
0.945647 0.960266 0.949828
