20 Preset/Russian Style/【3】LUT video cho PR-AE-FCPX/Lut Tone (32).cube
# Created by Adobe Lightroom plugin Export LUT (1.24.0)
# www.johnrellis.com/lightroom/exportlut.htm
# Preset: 俄罗斯情绪-素材江湖16
# Color profile: C:\Program Files (x86)\Common Files\Adobe\Color\Profiles\Recommended\VideoHD.icc
LUT_3D_SIZE 32
DOMAIN_MIN 0.0 0.0 0.0
DOMAIN_MAX 1.0 1.0 1.0
0.000000 0.000000 0.000000
0.000000 0.000000 0.000000
0.013916 0.000000 0.000000
0.053620 0.000000 0.001740
0.092348 0.000000 0.003845
0.119448 0.001312 0.005035
0.152987 0.004730 0.006012
0.193820 0.008911 0.006958
0.238682 0.012665 0.004181
0.284672 0.017914 0.000000
0.332158 0.025147 0.000000
0.379889 0.035584 0.000000
0.427771 0.050477 0.000000
0.474983 0.069001 0.000000
0.521294 0.086793 0.000000
0.565332 0.098054 0.000000
0.605371 0.108248 0.000000
0.641474 0.118776 0.000000
0.674769 0.128054 0.000000
0.707515 0.138216 0.000000
0.739956 0.147280 0.000000
0.771908 0.157107 0.000000
0.803403 0.166384 0.000000
0.835538 0.176059 0.000000
0.868376 0.185824 0.000000
0.901793 0.195651 0.000000
0.935790 0.205661 0.000000
0.970459 0.215488 0.000000
1.000000 0.225345 0.000000
1.000000 0.235477 0.000000
1.000000 0.245426 0.000000
1.000000 0.255558 0.000000
0.000977 0.000977 0.000977
0.000977 0.000977 0.000977
0.012299 0.000000 0.003204
0.053864 0.000000 0.002564
0.092164 0.001465 0.004517
0.119265 0.004700 0.006867
0.152712 0.009308 0.007660
0.193515 0.012512 0.007630
0.238376 0.017487 0.004730
0.284581 0.022492 0.000000
0.331792 0.031403 0.000000
0.379644 0.042786 0.000000
0.427497 0.057923 0.000000
0.474800 0.076204 0.000000
0.520928 0.090700 0.000000
0.565179 0.100832 0.000000
0.605158 0.111086 0.000000
0.641382 0.120607 0.000000
0.674647 0.129976 0.000000
0.707393 0.139498 0.000000
0.739742 0.149386 0.000000
0.771786 0.158389 0.000000
0.803250 0.167971 0.000000
0.835416 0.177340 0.000000
0.868284 0.187137 0.000000
0.901671 0.196750 0.000000
0.935729 0.206516 0.000000
0.970367 0.216434 0.000000
1.000000 0.226200 0.000000
1.000000 0.236240 0.000000
1.000000 0.246220 0.000000
1.000000 0.256260 0.000000
0.000153 0.008698 0.006714
0.001129 0.009674 0.007691
0.011322 0.012940 0.010437
0.046479 0.015656 0.010498
0.089418 0.018799 0.012482
0.117189 0.023255 0.014649
0.151431 0.026673 0.014466
0.192477 0.032288 0.011872
0.237003 0.039124 0.007721
0.283238 0.046784 0.000671
0.330694 0.056855 0.000000
0.378668 0.070680 0.000000
0.426551 0.083864 0.000000
0.473671 0.093996 0.000000
0.520195 0.102358 0.000000
0.564233 0.111635 0.000000
0.604364 0.120912 0.000000
0.640620 0.129458 0.000000
0.674006 0.137972 0.000000
0.706783 0.146761 0.000000
0.739254 0.155581 0.000000
0.771176 0.164614 0.000000
0.802701 0.173678 0.000000
0.834958 0.182895 0.000000
0.867796 0.192050 0.000000
0.901335 0.201236 0.000000
0.935332 0.211002 0.000000
0.970062 0.220615 0.000000
1.000000 0.230350 0.000000
1.000000 0.240024 0.000000
1.000000 0.249760 0.000000
1.000000 0.259709 0.000000
0.005280 0.032227 0.022583
0.008240 0.032959 0.023560
0.018402 0.036225 0.026307
0.037415 0.038575 0.025635
0.083406 0.048707 0.025544
0.113924 0.053376 0.024323
0.148836 0.060395 0.022583
0.189731 0.071290 0.019379
0.234989 0.080262 0.012512
0.281132 0.088716 0.004730
0.328801 0.094240 0.000000
0.376440 0.100191 0.000000
0.424598 0.107118 0.000000
0.471839 0.114626 0.000000
0.518181 0.122286 0.000000
0.562463 0.130190 0.000000
0.602747 0.137514 0.000000
0.639124 0.145235 0.000000
0.672633 0.152712 0.000000
0.705409 0.160494 0.000000
0.737972 0.168093 0.000000
0.770016 0.176211 0.000000
0.801724 0.184421 0.000000
0.833951 0.192844 0.000000
0.866972 0.201572 0.000000
0.900511 0.210452 0.000000
0.934600 0.219730 0.000000
0.969421 0.228855 0.000000
1.000000 0.238010 0.000000
1.000000 0.247410 0.000000
1.000000 0.256962 0.000000
1.000000 0.266667 0.000000
0.014130 0.063020 0.041932
0.017395 0.063783 0.041779
0.025574 0.067231 0.044526
0.041840 0.073182 0.045655
0.070954 0.077821 0.043336
0.107607 0.088289 0.039490
0.144503 0.095796 0.034760
0.185916 0.101900 0.028412
0.231052 0.107820 0.021637
0.277592 0.113924 0.011841
0.325109 0.120027 0.000000
0.373327 0.126284 0.000000
0.421302 0.132784 0.000000
0.468879 0.139651 0.000000
0.515282 0.146609 0.000000
0.559533 0.153689 0.000000
0.600214 0.160067 0.000000
0.636744 0.166567 0.000000
0.670283 0.172854 0.000000
0.703426 0.178988 0.000000
0.736049 0.185916 0.000000
0.768246 0.192813 0.000000
0.799954 0.200290 0.000000
0.832517 0.207767 0.000000
0.865568 0.215671 0.000000
0.899260 0.224094 0.000000
0.933501 0.232456 0.000000
0.968414 0.241123 0.000000
1.000000 0.249882 0.000000
1.000000 0.258732 0.000000
1.000000 0.267948 0.000000
1.000000 0.277317 0.000000
0.017639 0.092805 0.065278
0.018921 0.093172 0.065126
0.026703 0.094820 0.066590
0.042939 0.097627 0.069673
0.072297 0.099916 0.068177
0.098177 0.102449 0.063874
0.134066 0.113497 0.056123
0.179812 0.126192 0.044190
0.225254 0.134188 0.034363
0.272282 0.141329 0.021942
0.320226 0.147829 0.008850
0.368536 0.154849 0.000000
0.416815 0.161135 0.000000
0.464485 0.167788 0.000000
0.511009 0.174472 0.000000
0.555749 0.180667 0.000000
0.596399 0.186618 0.000000
0.633478 0.191745 0.000000
0.667262 0.196841 0.000000
0.700435 0.202060 0.000000
0.733303 0.208042 0.000000
0.765621 0.214115 0.000000
0.797635 0.220340 0.000000
0.830289 0.227176 0.000000
0.863584 0.234318 0.000000
0.897459 0.241764 0.000000
0.931945 0.249393 0.000000
0.967010 0.257328 0.000000
1.000000 0.265660 0.000000
1.000000 0.273960 0.000000
1.000000 0.282597 0.000000
1.000000 0.291539 0.000000
0.012207 0.113680 0.088777
0.012482 0.114260 0.089082
0.019532 0.115816 0.089570
0.035950 0.118837 0.090150
0.063966 0.123079 0.090333
0.098390 0.124514 0.088350
0.122591 0.128634 0.083894
0.164248 0.142733 0.074159
0.214267 0.157778 0.058045
0.265415 0.169833 0.039918
0.313848 0.177157 0.025055
0.362402 0.184360 0.009033
0.410925 0.191348 0.000000
0.458808 0.197971 0.000000
0.505699 0.204532 0.000000
0.550561 0.210391 0.000000
0.591821 0.215702 0.000000
0.629175 0.220035 0.000000
0.663172 0.224308 0.000000
0.696590 0.228672 0.000000
0.729641 0.233524 0.000000
0.762173 0.238499 0.000000
0.794522 0.243900 0.000000
0.827512 0.249851 0.000000
0.861112 0.256107 0.000000
0.895171 0.262974 0.000000
0.929900 0.269780 0.000000
0.965118 0.277134 0.000000
1.000000 0.284855 0.000000
1.000000 0.292546 0.000000
1.000000 0.300755 0.000000
1.000000 0.309178 0.000000
0.000000 0.139834 0.104280
0.000000 0.140230 0.104158
0.000153 0.141665 0.104860
0.015381 0.144839 0.105470
0.046113 0.149508 0.105653
0.094179 0.152102 0.104372
0.121401 0.154696 0.102083
0.150484 0.159091 0.098268
0.195163 0.174258 0.092134
0.248264 0.191043 0.082185
0.304204 0.207095 0.061097
0.354559 0.215854 0.042695
0.403632 0.223239 0.024720
0.451789 0.229984 0.007477
0.499062 0.236393 0.000000
0.544427 0.242039 0.000000
0.585992 0.246799 0.000000
0.623713 0.250675 0.000000
0.658137 0.253819 0.000000
0.691859 0.257389 0.000000
0.725093 0.261479 0.000000
0.757961 0.265599 0.000000
0.790677 0.270207 0.000000
0.824002 0.275303 0.000000
0.857908 0.280888 0.000000
0.892332 0.286900 0.000000
0.927276 0.293309 0.000000
0.962768 0.299992 0.000000
0.998901 0.306920 0.002594
1.000000 0.314336 0.024842
1.000000 0.321904 0.052461
1.000000 0.330022 0.083742
0.000000 0.169619 0.122591
0.000000 0.170108 0.122744
0.000000 0.171298 0.122988
0.000000 0.173831 0.123445
0.027893 0.178042 0.124269
0.086854 0.182467 0.124025
0.119173 0.184024 0.122072
0.149111 0.187167 0.119203
0.180758 0.191775 0.114900
0.226963 0.207095 0.108461
0.282261 0.225650 0.101900
0.339330 0.242802 0.094118
0.394659 0.256260 0.084230
0.443458 0.263157 0.069917
0.491310 0.269749 0.052491
0.537072 0.275303 0.036378
0.579095 0.279545 0.026032
0.617151 0.282811 0.020752
0.652003 0.285222 0.020447
0.686091 0.288121 0.021057
0.719722 0.291356 0.022766
0.752804 0.294682 0.025971
0.785977 0.298589 0.031525
0.819760 0.303014 0.038758
0.854063 0.307988 0.048676
0.888853 0.313420 0.060121
0.924132 0.319158 0.075502
0.959960 0.325383 0.088136
0.996338 0.331914 0.096529
1.000000 0.338689 0.105409
1.000000 0.345922 0.115206
1.000000 0.353491 0.126009
0.000000 0.201083 0.143374
0.000000 0.201328 0.143526
0.000000 0.202396 0.143709
0.000000 0.204623 0.144686
0.008240 0.208164 0.145724
0.077302 0.212924 0.146548
0.115663 0.215549 0.145327
0.148440 0.217350 0.143008
0.179355 0.220920 0.139528
0.212375 0.225864 0.135012
0.259220 0.240909 0.128664
0.315679 0.260716 0.123995
0.373724 0.278965 0.119112
0.432013 0.295842 0.113161
0.482216 0.304143 0.107851
0.528496 0.309514 0.103365
0.570855 0.313359 0.100404
0.609461 0.316045 0.099550
0.644678 0.317845 0.100374
0.679164 0.320104 0.101503
0.713252 0.322515 0.102998
0.746822 0.325322 0.104768
0.780484 0.328618 0.107820
0.814786 0.332525 0.110780
0.849516 0.336919 0.114137
0.884703 0.341833 0.118807
0.920348 0.347112 0.124178
0.956542 0.352758 0.129732
0.993317 0.358862 0.136110
1.000000 0.365301 0.143343
1.000000 0.372045 0.151461
1.000000 0.379187 0.160555
0.000000 0.233341 0.166629
0.000000 0.233494 0.166751
0.000000 0.234470 0.167056
0.000000 0.236454 0.167758
0.000000 0.239414 0.168948
0.062898 0.243717 0.170047
0.112856 0.247990 0.170321
0.146517 0.249454 0.168307
0.179690 0.251102 0.165835
0.210544 0.255528 0.162112
0.244755 0.260594 0.157168
0.290013 0.273869 0.151369
0.348394 0.295903 0.148501
0.406897 0.314733 0.145480
0.465003 0.331914 0.142428
0.518395 0.344366 0.139559
0.561364 0.347906 0.137819
0.600458 0.349981 0.137667
0.636225 0.351324 0.138827
0.671260 0.353002 0.140169
0.705837 0.354742 0.141543
0.739864 0.357061 0.142947
0.774166 0.359991 0.145541
0.809018 0.363287 0.148013
0.844358 0.367224 0.151400
0.879973 0.371771 0.155489
0.916045 0.376684 0.160037
0.952697 0.381933 0.165316
0.989746 0.387640 0.170993
1.000000 0.393713 0.177523
1.000000 0.400183 0.185000
1.000000 0.407080 0.193271
0.000000 0.265904 0.191012
0.000000 0.266148 0.191104
0.000000 0.266850 0.191379
0.000000 0.268589 0.192111
0.000000 0.271183 0.193179
0.047669 0.274876 0.194522
0.109926 0.279637 0.195926
0.144808 0.282139 0.194827
0.178195 0.283543 0.192538
0.211124 0.285405 0.189822
0.242405 0.290257 0.185824
0.276860 0.295506 0.181308
0.320409 0.306615 0.175784
0.380224 0.330571 0.173587
0.438605 0.349920 0.173098
0.496071 0.367041 0.172427
0.548821 0.380621 0.173129
0.590234 0.384314 0.173495
0.626673 0.385168 0.174502
0.662257 0.386328 0.175601
0.697383 0.387762 0.176822
0.732113 0.389563 0.178439
0.767117 0.392004 0.180209
0.802518 0.395239 0.183017
0.838346 0.398901 0.186252
0.874571 0.403021 0.189853
0.911223 0.407446 0.194003
0.948241 0.412512 0.198764
0.985748 0.417975 0.204532
1.000000 0.423713 0.210697
1.000000 0.429908 0.217746
1.000000 0.436408 0.225711
0.000000 0.298650 0.216495
0.000000 0.298772 0.216587
0.000000 0.299413 0.216892
0.000000 0.300938 0.217624
0.000000 0.303136 0.218631
0.034913 0.306340 0.220005
0.107790 0.310521 0.221653
0.144778 0.314611 0.222477
0.177310 0.316075 0.220401
0.210025 0.317327 0.217868
0.242313 0.319829 0.214847
0.274052 0.324804 0.210910
0.308904 0.330022 0.206363
0.350134 0.338994 0.201266
0.411048 0.364355 0.199985
0.469001 0.384039 0.201175
0.523583 0.399908 0.203159
0.573236 0.411994 0.206271
0.615961 0.418982 0.209415
0.652247 0.419837 0.210330
0.687892 0.420966 0.211368
0.723384 0.422675 0.212711
0.759213 0.424872 0.214817
0.795315 0.427771 0.217105
0.831815 0.431189 0.220096
0.868528 0.435096 0.223575
0.905730 0.439490 0.227787
0.943267 0.444221 0.232425
0.981201 0.449409 0.237766
1.000000 0.454994 0.243778
1.000000 0.460914 0.250553
1.000000 0.467353 0.258549
0.000000 0.330785 0.242466
0.000000 0.330907 0.242557
0.000000 0.331579 0.243137
0.000000 0.332830 0.243656
0.000000 0.334752 0.244724
0.026184 0.337591 0.246159
0.106172 0.341222 0.247776
0.144167 0.345678 0.249546
0.177157 0.348089 0.248661
0.209293 0.349340 0.246403
0.241611 0.350652 0.243870
0.273075 0.353643 0.240574
0.305211 0.358740 0.236790
0.340124 0.363989 0.232517
0.379126 0.370916 0.227573
0.440681 0.397436 0.226902
0.496742 0.416205 0.230137
0.547875 0.430488 0.234440
0.594385 0.441382 0.239567
0.639368 0.451453 0.244541
0.677455 0.454231 0.246036
0.713863 0.455787 0.247318
0.750484 0.458106 0.248997
0.787411 0.460914 0.251408
0.824613 0.464179 0.254154
0.861997 0.468025 0.257572
0.899748 0.472236 0.261509
0.937774 0.476814 0.266178
0.976196 0.481849 0.271397
1.000000 0.487282 0.277379
1.000000 0.493141 0.284123
1.000000 0.499367 0.291966
0.000000 0.362402 0.268925
0.000000 0.362493 0.268986
0.000000 0.363104 0.269383
0.000000 0.364172 0.270024
0.000000 0.365942 0.271031
0.022889 0.368322 0.272496
0.105501 0.371557 0.274174
0.144076 0.375555 0.276127
0.178561 0.379461 0.277379
0.209720 0.380682 0.275242
0.240879 0.381903 0.272892
0.272862 0.383124 0.270146
0.303471 0.386816 0.266972
0.335882 0.391852 0.263279
0.370642 0.397101 0.259068
0.407843 0.402441 0.254337
0.468666 0.428901 0.254337
0.521355 0.445991 0.259678
0.569421 0.458778 0.265751
0.614984 0.469795 0.272038
0.660456 0.480751 0.277775
0.703639 0.489052 0.282017
0.741146 0.491402 0.283696
0.778805 0.494331 0.285924
0.816678 0.497597 0.288609
0.854826 0.501396 0.291875
0.893156 0.505547 0.295720
0.931731 0.510124 0.300420
0.970764 0.515068 0.305547
1.000000 0.520439 0.311406
1.000000 0.526268 0.318181
1.000000 0.532341 0.326085
0.000000 0.393256 0.295598
0.000000 0.393408 0.295659
0.000000 0.393866 0.296025
0.000000 0.394781 0.296513
0.000000 0.396368 0.297612
0.024933 0.398444 0.298894
0.106935 0.401312 0.300694
0.145907 0.404761 0.302678
0.180514 0.408911 0.304814
0.211398 0.411292 0.304295
0.241306 0.412360 0.302129
0.272221 0.413489 0.299504
0.303624 0.414649 0.296757
0.333532 0.419135 0.293675
0.365606 0.424109 0.290074
0.400153 0.429206 0.286290
0.436957 0.434333 0.281834
0.493782 0.457862 0.282231
0.543297 0.473396 0.289342
0.589471 0.485756 0.296818
0.635676 0.498116 0.303929
0.682551 0.510460 0.310857
0.729580 0.522942 0.317906
0.769680 0.527733 0.320928
0.808347 0.531151 0.323583
0.847135 0.535088 0.326787
0.886076 0.539330 0.330724
0.925292 0.543908 0.335088
0.964813 0.548852 0.340246
1.000000 0.554223 0.346136
1.000000 0.560082 0.352880
1.000000 0.566125 0.360845
0.000000 0.423346 0.322271
0.000000 0.423468 0.322301
0.000000 0.423865 0.322545
0.000000 0.424720 0.323186
0.000000 0.426062 0.324132
0.037049 0.427924 0.325414
0.110994 0.430365 0.327092
0.149081 0.433478 0.329137
0.183047 0.437110 0.331273
0.214786 0.441047 0.333349
0.243565 0.441932 0.331334
0.272618 0.443000 0.329046
0.302647 0.444038 0.326452
0.333074 0.445350 0.323613
0.362524 0.449836 0.320775
0.394110 0.454444 0.317540
0.427741 0.459113 0.313970
0.463325 0.463752 0.310094
0.516320 0.484596 0.310643
0.563378 0.499092 0.319310
0.610193 0.513024 0.327916
0.657984 0.527062 0.336278
0.706020 0.541009 0.344579
0.754269 0.554711 0.352728
0.799496 0.564843 0.358984
0.838956 0.568963 0.362249
0.878599 0.573358 0.366125
0.918456 0.578027 0.370428
0.958465 0.583154 0.375586
0.998810 0.588617 0.381384
1.000000 0.594446 0.388190
1.000000 0.600427 0.396033
0.000000 0.452247 0.348730
0.000000 0.452277 0.348760
0.000000 0.452613 0.349065
0.000000 0.453407 0.349645
0.000000 0.454475 0.350500
0.069856 0.456062 0.351812
0.120760 0.458167 0.353399
0.156313 0.460670 0.355352
0.188754 0.463752 0.357763
0.220218 0.467292 0.360235
0.248600 0.469459 0.360449
0.275731 0.470253 0.358404
0.303655 0.471107 0.356085
0.332647 0.471962 0.353552
0.361425 0.473793 0.350866
0.390021 0.477943 0.348272
0.420661 0.482246 0.345464
0.453132 0.486549 0.342290
0.487312 0.490822 0.338903
0.536950 0.509575 0.339452
0.584283 0.525383 0.349645
0.632532 0.541222 0.359503
0.681575 0.556939 0.369055
0.730953 0.572351 0.378698
0.780362 0.587213 0.388067
0.829343 0.601526 0.397314
0.870817 0.607446 0.401831
0.911315 0.612421 0.406195
0.951995 0.617609 0.410956
0.992859 0.623133 0.416663
1.000000 0.628962 0.422980
1.000000 0.634730 0.430365
0.000000 0.479103 0.374914
0.000000 0.479194 0.374945
0.000000 0.479469 0.375219
0.000000 0.480049 0.375769
0.042603 0.480995 0.376684
0.104250 0.482307 0.377935
0.138674 0.484047 0.379583
0.169497 0.486244 0.381598
0.199649 0.488777 0.384009
0.229129 0.491768 0.386816
0.258701 0.495094 0.389868
0.282841 0.495888 0.388159
0.308141 0.496620 0.386084
0.334600 0.497414 0.383825
0.361975 0.498268 0.381506
0.389258 0.500542 0.379095
0.416938 0.504601 0.376959
0.446387 0.508629 0.374548
0.477577 0.512749 0.371984
0.510338 0.516869 0.369085
0.557214 0.533989 0.369299
0.606928 0.552789 0.380529
0.656550 0.570520 0.391730
0.706905 0.587823 0.402533
0.757473 0.604547 0.413153
0.808011 0.620539 0.423407
0.858030 0.635706 0.433143
0.904204 0.646448 0.440467
0.945495 0.651789 0.444892
0.987030 0.657435 0.450080
1.000000 0.663203 0.456031
1.000000 0.668727 0.462959
0.016388 0.504936 0.401526
0.022309 0.504967 0.401617
0.043610 0.505241 0.401923
0.083894 0.505699 0.402472
0.110201 0.506523 0.403357
0.135866 0.507652 0.404608
0.161929 0.509056 0.406317
0.188327 0.510887 0.408392
0.215579 0.513054 0.411017
0.242710 0.515557 0.413977
0.270512 0.518425 0.417487
0.295354 0.520439 0.418830
0.317479 0.521202 0.417060
0.341070 0.521965 0.415137
0.365850 0.522728 0.413092
0.391699 0.523583 0.410864
0.417090 0.526482 0.408881
0.443641 0.530449 0.407050
0.472084 0.534691 0.405066
0.502251 0.539117 0.402838
0.534356 0.543664 0.400366
0.579644 0.560082 0.400763
0.631159 0.581415 0.412116
0.682368 0.600977 0.424292
0.734157 0.619776 0.435767
0.786069 0.637659 0.446754
0.837675 0.654536 0.457160
0.888762 0.670375 0.467079
0.939086 0.685206 0.476692
0.981476 0.691371 0.481727
1.000000 0.697139 0.487251
1.000000 0.702388 0.493782
0.118105 0.529808 0.428748
0.119539 0.529870 0.428870
0.125521 0.530053 0.429114
0.135653 0.530480 0.429725
0.150546 0.531151 0.430640
0.168795 0.532128 0.431952
0.189517 0.533349 0.433692
0.212161 0.534813 0.435859
0.235752 0.536736 0.438575
0.260472 0.538964 0.441840
0.285954 0.541558 0.445533
0.311650 0.544549 0.449653
0.331182 0.545617 0.448646
0.351629 0.546502 0.446998
0.373571 0.547448 0.445228
0.396796 0.548516 0.443275
0.421302 0.549523 0.441199
0.445380 0.553399 0.439643
0.471107 0.557885 0.438117
0.498970 0.562524 0.436408
0.528679 0.567346 0.434546
0.560235 0.572351 0.432502
0.604028 0.587884 0.432776
0.657557 0.611536 0.443427
0.710414 0.632746 0.455909
0.763699 0.652796 0.467659
0.816861 0.671687 0.478676
0.869688 0.689326 0.489204
0.921721 0.705745 0.499306
0.972839 0.721004 0.509056
1.000000 0.730861 0.516869
1.000000 0.735836 0.523522
0.163485 0.554833 0.456916
0.164858 0.554864 0.456947
0.168276 0.555047 0.457282
0.175174 0.555444 0.457862
0.186587 0.556085 0.458778
0.200626 0.557000 0.460151
0.217197 0.558221 0.461952
0.236210 0.559716 0.464271
0.256718 0.561517 0.466926
0.278325 0.563775 0.470008
0.300664 0.566308 0.473426
0.323613 0.569329 0.477211
0.344671 0.571862 0.479286
0.362951 0.572839 0.477852
0.382818 0.573968 0.476295
0.404181 0.575158 0.474708
0.426734 0.576379 0.472938
0.450538 0.577813 0.471077
0.474067 0.582513 0.469947
0.499672 0.587335 0.468635
0.527337 0.592493 0.467231
0.556970 0.597711 0.465644
0.588434 0.603143 0.463935
0.631037 0.617792 0.464027
0.686366 0.643214 0.473640
0.740932 0.665858 0.486152
0.795712 0.687098 0.497993
0.850248 0.706813 0.509087
0.904173 0.725154 0.519890
0.957000 0.742214 0.530938
1.000000 0.757534 0.542504
1.000000 0.769619 0.554620
0.197971 0.581720 0.486122
0.198611 0.581781 0.486183
0.201541 0.581964 0.486458
0.207156 0.582391 0.487098
0.215671 0.582971 0.487984
0.227085 0.583917 0.489235
0.240848 0.585077 0.490883
0.256870 0.586572 0.492958
0.274479 0.588464 0.495399
0.293736 0.590631 0.498177
0.313481 0.593225 0.501213
0.334173 0.596216 0.504448
0.355230 0.599664 0.507744
0.373510 0.601282 0.507530
0.392004 0.602533 0.506279
0.411933 0.603815 0.504906
0.433356 0.605219 0.503441
0.456123 0.606653 0.501823
0.479591 0.609033 0.500267
0.503471 0.614038 0.499367
0.529442 0.619287 0.498329
0.557336 0.624781 0.497169
0.587335 0.630396 0.495857
0.619135 0.636225 0.494392
0.660883 0.649958 0.494240
0.717830 0.676753 0.502647
0.774197 0.700679 0.515190
0.830381 0.722896 0.527306
0.886168 0.743618 0.539635
0.940734 0.762661 0.552239
0.992981 0.779812 0.565301
1.000000 0.793912 0.579278
0.222873 0.610895 0.515740
0.223667 0.610925 0.515862
0.225925 0.611139 0.516045
0.230564 0.611536 0.516594
0.237552 0.612177 0.517388
0.247135 0.613092 0.518547
0.259220 0.614252 0.519982
0.272831 0.615808 0.521782
0.288548 0.617609 0.523919
0.305577 0.619867 0.526268
0.323430 0.622492 0.528893
0.342504 0.625483 0.531609
0.362097 0.628931 0.534325
0.381384 0.632227 0.536095
0.399390 0.633539 0.535027
0.418830 0.634913 0.533898
0.439673 0.636408 0.532647
0.461891 0.637964 0.531304
0.485359 0.639643 0.529870
0.509300 0.642908 0.528679
0.533928 0.648280 0.527886
0.560662 0.653895 0.527062
0.589410 0.659724 0.526085
0.620111 0.665705 0.524956
0.652674 0.671870 0.523796
0.693812 0.684565 0.523461
0.752163 0.712367 0.530785
0.810178 0.737545 0.544610
0.867643 0.760800 0.558587
0.924102 0.782254 0.572808
0.978241 0.801572 0.587488
1.000000 0.817441 0.603265
0.240238 0.642695 0.545739
0.240726 0.642756 0.545800
0.242771 0.642939 0.545983
0.246738 0.643336 0.546441
0.253117 0.643977 0.547112
0.261234 0.644892 0.548089
0.271977 0.646082 0.549340
0.284398 0.647608 0.550896
0.298253 0.649500 0.552636
0.313848 0.651728 0.554589
0.330419 0.654383 0.556664
0.348089 0.657374 0.558862
0.366796 0.660853 0.561212
0.386847 0.664668 0.563684
0.406012 0.667079 0.564080
0.425269 0.668574 0.563073
0.445899 0.670161 0.561975
0.468025 0.671870 0.560845
0.491371 0.673671 0.559594
0.515831 0.675563 0.558282
0.540581 0.679713 0.557427
0.566461 0.685420 0.556847
0.594232 0.691371 0.556237
0.624048 0.697505 0.555505
0.655665 0.703822 0.554711
0.689143 0.710323 0.553826
0.729702 0.721889 0.553552
0.789303 0.750423 0.560906
0.848722 0.776730 0.576654
0.907073 0.800931 0.592676
0.963195 0.822721 0.609186
1.000000 0.840604 0.626795
0.250217 0.677394 0.575982
0.250584 0.677455 0.576043
0.252354 0.677668 0.576257
0.256016 0.678065 0.576623
0.261570 0.678737 0.577203
0.269322 0.679622 0.577966
0.278721 0.680873 0.579004
0.290349 0.682429 0.580194
0.303746 0.684291 0.581720
0.318700 0.686549 0.583429
0.335302 0.689143 0.585443
0.353491 0.692103 0.587701
0.372778 0.695491 0.590173
0.393256 0.699245 0.592767
0.415076 0.703304 0.595483
0.434119 0.704921 0.594629
0.454627 0.706630 0.593774
0.476539 0.708461 0.592828
0.499641 0.710414 0.591791
0.524102 0.712428 0.590661
0.549737 0.714626 0.589502
0.575280 0.719722 0.589105
0.602258 0.725734 0.588800
0.631189 0.731960 0.588434
0.661921 0.738338 0.587945
0.694392 0.744930 0.587396
0.728847 0.751675 0.586816
0.769039 0.762264 0.586725
0.829648 0.791287 0.593896
0.890074 0.818540 0.611841
0.948302 0.843168 0.630213
1.000000 0.863249 0.649775
0.254124 0.715480 0.607202
0.254612 0.715541 0.607263
0.256229 0.715724 0.607416
0.259922 0.716152 0.607813
0.265660 0.716793 0.608301
0.273472 0.717708 0.609064
0.283482 0.718929 0.610101
0.295445 0.720455 0.611383
0.309453 0.722286 0.612940
0.325200 0.724453 0.614710
0.342565 0.727016 0.616785
0.361212 0.729946 0.619165
0.381323 0.733242 0.621759
0.402441 0.736934 0.624506
0.424750 0.741024 0.627497
0.446387 0.744289 0.629084
0.466590 0.746151 0.628412
0.488289 0.748104 0.627649
0.511254 0.750210 0.626795
0.535485 0.752407 0.625971
0.560876 0.754726 0.625025
0.587671 0.757137 0.624018
0.613855 0.763119 0.623987
0.641932 0.769436 0.623957
0.671809 0.775937 0.623865
0.703700 0.782650 0.623774
0.737423 0.789517 0.623560
0.772885 0.796506 0.623285
0.812924 0.806455 0.623468
0.873838 0.835355 0.630335
0.934020 0.862852 0.650568
0.987854 0.885283 0.672145
0.261234 0.757107 0.641169
0.261509 0.757137 0.641169
0.263523 0.757321 0.641352
0.267155 0.757748 0.641718
0.273198 0.758389 0.642298
0.281468 0.759243 0.643061
0.291905 0.760433 0.644160
0.304417 0.761959 0.645411
0.318944 0.763760 0.646998
0.335210 0.765957 0.648859
0.353246 0.768429 0.651026
0.372564 0.771298 0.653468
0.393286 0.774533 0.656184
0.415167 0.778134 0.659113
