20 Preset/Russian Style/【3】LUT video cho PR-AE-FCPX/Lut Tone (15).cube
# Created by Adobe Lightroom plugin Export LUT (1.24.0)
# www.johnrellis.com/lightroom/exportlut.htm
# Preset: 俄罗斯情绪-素材江湖08
# Color profile: C:\Program Files (x86)\Common Files\Adobe\Color\Profiles\Recommended\VideoHD.icc
LUT_3D_SIZE 5
DOMAIN_MIN 0.000000 0.000000 0.000000
DOMAIN_MAX 0.903226 0.903226 0.903226
0.010651 0.009766 0.006348
0.259434 0.010895 0.000000
0.525231 0.000000 0.000000
0.766384 0.000000 0.000000
0.984344 0.000000 0.000000
0.021637 0.232090 0.095369
0.261784 0.242374 0.070375
0.527428 0.215824 0.000000
0.763210 0.190188 0.000000
0.980865 0.177188 0.000000
0.062470 0.478737 0.239658
0.245243 0.480110 0.241550
0.511376 0.488533 0.200381
0.747616 0.437018 0.130343
0.966339 0.427985 0.000000
0.064332 0.708644 0.337377
0.239750 0.710384 0.342168
0.477485 0.706905 0.325963
0.728481 0.705470 0.272770
0.943694 0.660517 0.185763
0.332708 0.900237 0.448157
0.388373 0.900389 0.452522
0.546197 0.898833 0.453986
0.745510 0.891051 0.420813
0.959960 0.883665 0.364324
0.000000 0.110964 0.240421
0.234104 0.102266 0.248966
0.530205 0.032166 0.240269
0.771633 0.000000 0.221347
0.985382 0.000000 0.184176
0.000000 0.261845 0.273014
0.264836 0.269169 0.282322
0.532769 0.245396 0.259525
0.767758 0.212558 0.230533
0.981750 0.185519 0.191867
0.130282 0.495521 0.329107
0.263706 0.497444 0.334936
0.515373 0.501884 0.307897
0.750637 0.450294 0.258915
0.966766 0.433875 0.217594
0.135897 0.714961 0.388159
0.260136 0.716670 0.392309
0.483619 0.715084 0.384039
0.730007 0.710536 0.337072
0.943786 0.661067 0.262272
0.335424 0.900938 0.474372
0.391516 0.901091 0.478676
0.549371 0.900450 0.486213
0.745052 0.892607 0.453407
0.958831 0.884489 0.398077
0.000000 0.175845 0.435859
0.000000 0.171450 0.445930
0.456733 0.186679 0.466224
0.750454 0.162112 0.466712
0.982574 0.099519 0.437690
0.000000 0.270939 0.451575
0.095338 0.273075 0.464790
0.476997 0.289860 0.482094
0.756619 0.278141 0.473213
0.983764 0.247562 0.440650
0.000000 0.507652 0.494728
0.180056 0.517815 0.502251
0.529686 0.553307 0.527886
0.762234 0.510216 0.488685
0.971099 0.463142 0.439094
0.179141 0.727657 0.520287
0.301396 0.733150 0.527764
0.511406 0.744289 0.542138
0.735744 0.731014 0.502831
0.946777 0.666987 0.430976
0.310491 0.903746 0.556634
0.375982 0.903929 0.560601
0.551629 0.904845 0.577173
0.742092 0.899260 0.561120
0.954162 0.888182 0.504906
0.000000 0.228672 0.570703
0.000000 0.219852 0.579980
0.322454 0.225803 0.590143
0.643732 0.243961 0.619104
0.939239 0.255680 0.640955
0.000000 0.285557 0.577630
0.000000 0.282750 0.586175
0.336736 0.286870 0.600488
0.656031 0.312322 0.628046
0.941558 0.325994 0.642939
0.000000 0.451514 0.601068
0.000000 0.453223 0.605432
0.367315 0.476753 0.636072
0.693660 0.513909 0.657862
0.948119 0.507774 0.647883
0.000000 0.708278 0.648646
0.000000 0.713558 0.652888
0.409583 0.737087 0.672389
0.753017 0.781003 0.712093
0.952911 0.717128 0.649897
0.000000 0.901122 0.662837
0.000000 0.902159 0.665766
0.468208 0.906615 0.681453
0.742123 0.913848 0.716030
0.945068 0.898009 0.665949
0.000000 0.292638 0.753841
0.000000 0.278996 0.756100
0.000000 0.260136 0.760159
0.545892 0.243931 0.763790
0.852476 0.254185 0.785641
0.000000 0.327031 0.752193
0.000000 0.316442 0.754696
0.000000 0.294224 0.760861
0.544030 0.283482 0.764767
0.854307 0.300969 0.787045
0.000000 0.436072 0.750454
0.000000 0.430152 0.752590
0.000000 0.409857 0.765316
0.529046 0.407294 0.773098
0.864958 0.442817 0.796872
0.000000 0.644770 0.772885
0.000000 0.639490 0.772641
0.000000 0.616022 0.773770
0.455421 0.608698 0.795254
0.884154 0.674189 0.821958
0.000000 0.887053 0.813626
0.000000 0.887205 0.814328
0.000000 0.889250 0.819242
0.536736 0.896818 0.836027
0.940429 0.935088 0.899779
