20 Preset/Russian Style/【3】LUT video cho PR-AE-FCPX/Lut Tone (8).cube
# Created by Adobe Lightroom plugin Export LUT (1.24.0)
# www.johnrellis.com/lightroom/exportlut.htm
# Preset: 俄罗斯情绪-素材江湖04
# Color profile: C:\Program Files (x86)\Common Files\Adobe\Color\Profiles\Recommended\VideoHD.icc
LUT_3D_SIZE 32
DOMAIN_MIN 0.0 0.0 0.0
DOMAIN_MAX 1.0 1.0 1.0
0.000000 0.000000 0.000000
0.009216 0.000092 0.000000
0.044129 0.000641 0.000000
0.096284 0.003754 0.000000
0.127199 0.008148 0.000000
0.158999 0.012543 0.000000
0.190921 0.021057 0.000000
0.223972 0.032136 0.000000
0.258000 0.047028 0.000000
0.293278 0.067628 0.000000
0.330632 0.087617 0.000000
0.369696 0.099733 0.000000
0.410742 0.112703 0.000000
0.454108 0.126619 0.000000
0.500237 0.141482 0.000000
0.548730 0.157931 0.000000
0.599969 0.175296 0.000000
0.653010 0.193973 0.000000
0.707332 0.212009 0.000000
0.761776 0.230808 0.000000
0.815579 0.248661 0.000000
0.868437 0.266361 0.000000
0.920043 0.283177 0.000000
0.970031 0.298863 0.000000
1.000000 0.313146 0.000000
1.000000 0.325872 0.000000
1.000000 0.336492 0.000000
1.000000 0.345251 0.000000
1.000000 0.351934 0.000000
1.000000 0.356878 0.000000
1.000000 0.359991 0.000000
1.000000 0.361364 0.000000
0.000000 0.006989 0.002502
0.004059 0.007294 0.002319
0.040528 0.008850 0.000275
0.095491 0.010742 0.000000
0.127291 0.013733 0.000000
0.158267 0.019745 0.000000
0.190616 0.028046 0.000000
0.223392 0.038361 0.000000
0.257694 0.053040 0.000000
0.292973 0.074830 0.000000
0.330144 0.091463 0.000000
0.369177 0.102937 0.000000
0.410376 0.115358 0.000000
0.453864 0.129152 0.000000
0.499886 0.143740 0.000000
0.548516 0.160006 0.000000
0.599756 0.177432 0.000000
0.652979 0.195438 0.000000
0.707271 0.213687 0.000000
0.761532 0.232090 0.000000
0.815335 0.250126 0.000000
0.868315 0.267277 0.000000
0.919829 0.284245 0.000000
0.969909 0.299901 0.000000
1.000000 0.314275 0.000000
1.000000 0.326696 0.000000
1.000000 0.337285 0.000000
1.000000 0.346166 0.000000
1.000000 0.352758 0.000000
1.000000 0.357458 0.000000
1.000000 0.360571 0.000000
1.000000 0.361883 0.000000
0.000000 0.034699 0.013611
0.000000 0.035981 0.014405
0.024842 0.038209 0.011261
0.089998 0.042267 0.006989
0.123690 0.044312 0.000000
0.155825 0.050355 0.000000
0.188510 0.057893 0.000000
0.221714 0.068208 0.000000
0.255863 0.082948 0.000000
0.291417 0.093141 0.000000
0.328740 0.102693 0.000000
0.368109 0.113222 0.000000
0.409308 0.124880 0.000000
0.452705 0.137942 0.000000
0.498878 0.152010 0.000000
0.547570 0.167575 0.000000
0.598871 0.184512 0.000000
0.652003 0.202182 0.000000
0.706447 0.219913 0.000000
0.760769 0.237888 0.000000
0.814725 0.255406 0.000000
0.867552 0.272557 0.000000
0.919127 0.288853 0.000000
0.969299 0.304540 0.000000
1.000000 0.318700 0.000000
1.000000 0.330694 0.000000
1.000000 0.341436 0.000000
1.000000 0.349828 0.000000
1.000000 0.356237 0.000000
1.000000 0.360906 0.000000
1.000000 0.363592 0.000000
1.000000 0.364813 0.000000
0.000000 0.088380 0.036378
0.000000 0.088472 0.036194
0.003052 0.089601 0.036255
0.070039 0.091005 0.032197
0.114626 0.092439 0.023926
0.149172 0.093538 0.013733
0.183291 0.096223 0.000641
0.217075 0.099947 0.000000
0.252323 0.105776 0.000000
0.288243 0.112551 0.000000
0.326055 0.121248 0.000000
0.365332 0.130739 0.000000
0.407019 0.141787 0.000000
0.450660 0.153964 0.000000
0.496712 0.167330 0.000000
0.545617 0.181918 0.000000
0.597070 0.197391 0.000000
0.650233 0.213687 0.000000
0.704860 0.230198 0.000000
0.759243 0.246983 0.000000
0.813321 0.263218 0.000000
0.866270 0.279454 0.000000
0.918151 0.295109 0.000000
0.968475 0.310155 0.000000
1.000000 0.324254 0.000000
1.000000 0.337194 0.000000
1.000000 0.348791 0.000000
1.000000 0.357092 0.000000
1.000000 0.363012 0.000000
1.000000 0.367285 0.000000
1.000000 0.369787 0.000000
1.000000 0.370611 0.000000
0.000000 0.114778 0.069703
0.000000 0.114809 0.069520
0.000000 0.115908 0.071717
0.036774 0.117037 0.071046
0.101015 0.118685 0.063844
0.137575 0.119539 0.051575
0.173800 0.122255 0.034791
0.209995 0.125185 0.017639
0.246281 0.129122 0.000000
0.283146 0.134829 0.000000
0.321569 0.141787 0.000000
0.361639 0.150118 0.000000
0.403388 0.159579 0.000000
0.447578 0.170718 0.000000
0.493935 0.182925 0.000000
0.542718 0.196597 0.000000
0.594598 0.210941 0.000000
0.647944 0.226444 0.000000
0.702602 0.242313 0.000000
0.757168 0.258152 0.000000
0.811368 0.273838 0.000000
0.864561 0.289464 0.000000
0.916564 0.304601 0.000000
0.967132 0.319097 0.000000
1.000000 0.332708 0.000000
1.000000 0.345281 0.000000
1.000000 0.356359 0.000000
1.000000 0.365881 0.000000
1.000000 0.373632 0.000000
1.000000 0.377234 0.000000
1.000000 0.379126 0.000000
1.000000 0.379644 0.000000
0.000000 0.140627 0.095827
0.000000 0.140688 0.095766
0.000000 0.141390 0.095796
0.000000 0.142977 0.094301
0.067659 0.144839 0.090700
0.123232 0.146548 0.086488
0.160342 0.146914 0.077302
0.198795 0.150210 0.058442
0.237003 0.154177 0.038544
0.275914 0.159396 0.016785
0.315312 0.165377 0.000000
0.356054 0.172641 0.000000
0.398474 0.181338 0.000000
0.442969 0.191226 0.000000
0.489662 0.202518 0.000000
0.539086 0.215000 0.000000
0.590875 0.228702 0.000000
0.644709 0.243137 0.000000
0.699489 0.258000 0.000000
0.754238 0.272862 0.000000
0.808591 0.288090 0.000000
0.861906 0.302953 0.000000
0.914336 0.317357 0.000000
0.965026 0.331609 0.000000
1.000000 0.344549 0.000000
1.000000 0.356420 0.000000
1.000000 0.366796 0.000000
1.000000 0.375891 0.000000
1.000000 0.383429 0.000000
1.000000 0.389563 0.000000
1.000000 0.392004 0.000000
1.000000 0.391730 0.000000
0.000000 0.167453 0.113802
0.000000 0.167727 0.113710
0.000000 0.168399 0.113130
0.000000 0.169986 0.111238
0.000000 0.172427 0.106935
0.095399 0.174014 0.102541
0.145296 0.175906 0.098543
0.185458 0.176333 0.091951
0.224674 0.179538 0.080903
0.265354 0.184543 0.057923
0.307073 0.190280 0.031189
0.349187 0.196994 0.004120
0.392401 0.204898 0.000000
0.437446 0.214023 0.000000
0.484688 0.224430 0.000000
0.534386 0.235996 0.000000
0.586694 0.248875 0.000000
0.640864 0.262547 0.000000
0.695399 0.276707 0.000000
0.750454 0.290867 0.000000
0.805081 0.305211 0.000000
0.858671 0.319219 0.000000
0.911345 0.333288 0.000000
0.962646 0.346777 0.000000
1.000000 0.359136 0.000000
1.000000 0.370581 0.000000
1.000000 0.380346 0.000000
1.000000 0.388617 0.000000
1.000000 0.395636 0.000000
1.000000 0.401038 0.000000
1.000000 0.405219 0.000000
1.000000 0.407172 0.000000
0.000000 0.196384 0.132265
0.000000 0.196750 0.132143
0.000000 0.197208 0.131197
0.000000 0.198672 0.129427
0.000000 0.200870 0.125673
0.000000 0.203677 0.119356
0.116304 0.205173 0.115816
0.168704 0.207401 0.111238
0.211704 0.208591 0.105379
0.251896 0.210849 0.096895
0.295232 0.216709 0.083833
0.339269 0.223209 0.053346
0.384497 0.230716 0.017060
0.430579 0.239078 0.000000
0.478584 0.248753 0.000000
0.528740 0.259617 0.000000
0.581384 0.271916 0.000000
0.635737 0.284672 0.000000
0.690700 0.298070 0.000000
0.746029 0.311589 0.000000
0.800778 0.325170 0.000000
0.854704 0.338567 0.000000
0.907927 0.351812 0.000000
0.959564 0.364569 0.000000
1.000000 0.376440 0.000000
1.000000 0.387060 0.000000
1.000000 0.396246 0.000000
1.000000 0.403937 0.000000
1.000000 0.410285 0.000000
1.000000 0.415198 0.000000
1.000000 0.418647 0.000000
1.000000 0.420844 0.000000
0.000000 0.227390 0.151980
0.000000 0.227695 0.151888
0.000000 0.228092 0.151125
0.000000 0.229526 0.149386
0.000000 0.231357 0.146334
0.000000 0.234104 0.141207
0.009125 0.236759 0.134340
0.139376 0.238499 0.130892
0.193790 0.240879 0.126009
0.239689 0.242802 0.119753
0.280919 0.244419 0.111177
0.326787 0.251011 0.099123
0.373480 0.258030 0.079896
0.421241 0.266178 0.034668
0.470954 0.275547 0.000000
0.521935 0.286015 0.000000
0.575128 0.297398 0.000000
0.629633 0.309483 0.000000
0.685054 0.322148 0.000000
0.740688 0.335119 0.000000
0.795834 0.347936 0.000000
0.850034 0.360662 0.000000
0.903777 0.373175 0.000000
0.955962 0.385351 0.000000
1.000000 0.396490 0.000000
1.000000 0.406378 0.000000
1.000000 0.414771 0.000000
1.000000 0.421729 0.000000
1.000000 0.427314 0.000000
1.000000 0.431189 0.000000
1.000000 0.434241 0.000000
1.000000 0.435828 0.000000
0.000000 0.260594 0.172976
0.000000 0.260746 0.172763
0.000000 0.261265 0.172061
0.000000 0.262333 0.170657
0.000000 0.264195 0.167880
0.000000 0.266575 0.163668
0.000000 0.269627 0.157198
0.063142 0.272251 0.150912
0.164004 0.274113 0.146883
0.220615 0.276707 0.141726
0.269535 0.279332 0.134646
0.311620 0.279973 0.126284
0.360082 0.287205 0.113588
0.409247 0.295109 0.097047
0.460212 0.304143 0.058259
0.512810 0.314122 0.000000
0.567163 0.325170 0.000000
0.622309 0.336889 0.000000
0.678187 0.348852 0.000000
0.734279 0.361151 0.000000
0.789822 0.373388 0.000000
0.844541 0.385321 0.000000
0.898833 0.397314 0.000000
0.951659 0.408942 0.000000
1.000000 0.419257 0.000000
1.000000 0.428473 0.000000
1.000000 0.435950 0.000000
1.000000 0.441932 0.000000
1.000000 0.446601 0.000000
1.000000 0.449775 0.000000
1.000000 0.451728 0.000000
1.000000 0.452522 0.000000
0.000000 0.295933 0.195041
0.000000 0.295995 0.194858
0.000000 0.296666 0.194217
0.000000 0.297642 0.192844
0.000000 0.299168 0.190372
0.000000 0.301427 0.186954
0.000000 0.304265 0.181399
0.000000 0.307683 0.173159
0.105531 0.310002 0.167910
0.190646 0.312078 0.163607
0.249729 0.314672 0.157473
0.300969 0.317967 0.150179
0.344213 0.317693 0.141848
0.394842 0.325383 0.128756
0.446906 0.334112 0.110780
0.500572 0.343999 0.083162
0.556146 0.354803 0.001312
0.612940 0.366247 0.000000
0.670253 0.378058 0.000000
0.726772 0.389654 0.000000
0.782864 0.401190 0.000000
0.838132 0.412512 0.000000
0.893187 0.424079 0.000000
0.946685 0.434882 0.000000
0.996918 0.444587 0.000000
1.000000 0.452918 0.000000
1.000000 0.459724 0.000000
1.000000 0.464729 0.000000
1.000000 0.468360 0.000000
1.000000 0.470558 0.000000
1.000000 0.471687 0.000000
1.000000 0.471443 0.000000
0.000000 0.333074 0.218143
0.000000 0.333257 0.217960
0.000000 0.333684 0.217197
0.000000 0.334600 0.216007
0.000000 0.336156 0.213840
0.000000 0.338140 0.210636
0.000000 0.340978 0.205722
0.000000 0.344152 0.198825
0.000000 0.347875 0.189242
0.135561 0.349889 0.185183
0.218967 0.352148 0.180301
0.280064 0.355047 0.173861
0.333745 0.358251 0.166018
0.379980 0.358556 0.156741
0.431342 0.365362 0.143465
0.486610 0.375280 0.124758
0.543236 0.385962 0.097658
0.600977 0.397253 0.016541
0.659327 0.408759 0.000000
0.717403 0.420233 0.000000
0.774807 0.431342 0.000000
0.830716 0.442176 0.000000
0.886717 0.453010 0.000000
0.940917 0.463386 0.000000
0.991730 0.472389 0.000000
1.000000 0.479957 0.000000
1.000000 0.485756 0.000000
1.000000 0.489876 0.000000
1.000000 0.492531 0.000000
1.000000 0.493721 0.000000
1.000000 0.493660 0.000000
1.000000 0.492470 0.000000
0.000000 0.372442 0.242100
0.000000 0.372625 0.242039
0.000000 0.372961 0.241489
0.000000 0.373907 0.240208
0.000000 0.375250 0.238224
0.000000 0.377234 0.235325
0.000000 0.379828 0.231083
0.000000 0.382910 0.225010
0.000000 0.386664 0.216648
0.000000 0.389929 0.207462
0.165896 0.392035 0.202792
0.248905 0.394476 0.197299
0.312139 0.397589 0.190280
0.368566 0.400977 0.181735
0.417853 0.401862 0.171756
0.469886 0.407599 0.158389
0.528008 0.418585 0.138033
0.587213 0.429786 0.110018
0.646509 0.441077 0.038788
0.705531 0.452247 0.000000
0.763973 0.462989 0.000000
0.821958 0.473823 0.000000
0.879332 0.484382 0.000000
0.934325 0.494179 0.000000
0.985870 0.502464 0.000000
1.000000 0.509148 0.000000
1.000000 0.514122 0.000000
1.000000 0.517266 0.000000
1.000000 0.518883 0.000000
1.000000 0.519036 0.000000
1.000000 0.517937 0.000000
1.000000 0.515618 0.000000
0.000000 0.414038 0.267582
0.000000 0.414099 0.267460
0.000000 0.414679 0.266911
0.000000 0.415442 0.265721
0.000000 0.416724 0.263767
0.000000 0.418585 0.261112
0.000000 0.421027 0.257084
0.000000 0.423835 0.251469
0.000000 0.427405 0.243809
0.000000 0.431403 0.233585
0.000000 0.434455 0.225345
0.196048 0.436774 0.220218
0.280308 0.439429 0.214267
0.346288 0.442847 0.206546
0.405463 0.446632 0.197269
0.458076 0.448066 0.186465
0.510674 0.452338 0.172946
0.570703 0.463630 0.152285
0.631495 0.474891 0.123964
0.691676 0.485908 0.072023
0.751156 0.496345 0.000000
0.810605 0.506889 0.000000
0.869718 0.517510 0.000000
0.926696 0.527031 0.000000
0.979095 0.534630 0.000000
1.000000 0.540673 0.000000
1.000000 0.544762 0.000000
1.000000 0.546899 0.000000
1.000000 0.547356 0.000000
1.000000 0.546502 0.000000
1.000000 0.544305 0.000000
1.000000 0.540917 0.000000
0.000000 0.457679 0.293980
0.000000 0.457740 0.293797
0.000000 0.458198 0.293309
0.000000 0.459022 0.292149
0.000000 0.460365 0.290379
0.000000 0.462043 0.287785
0.000000 0.464424 0.284062
0.000000 0.467292 0.278965
0.000000 0.470649 0.271855
0.000000 0.474647 0.262547
0.000000 0.479133 0.249699
0.000000 0.481758 0.243107
0.227024 0.484230 0.237491
0.313390 0.487037 0.230991
0.382513 0.490700 0.222385
0.444465 0.494514 0.212558
0.500114 0.496345 0.201205
0.552575 0.498695 0.187747
0.614343 0.509850 0.166506
0.676051 0.520806 0.138430
0.736965 0.531243 0.097536
0.797787 0.541863 0.000000
0.858396 0.552331 0.000000
0.916442 0.561517 0.000000
0.970611 0.568811 0.000000
1.000000 0.574151 0.000000
1.000000 0.577295 0.000000
1.000000 0.578454 0.000000
1.000000 0.577905 0.000000
1.000000 0.575921 0.000000
1.000000 0.572656 0.000000
1.000000 0.568109 0.000000
0.000000 0.503655 0.321630
0.000000 0.503807 0.321508
0.000000 0.504204 0.321019
0.000000 0.504936 0.319890
0.000000 0.506157 0.318181
0.000000 0.507836 0.315618
0.000000 0.510155 0.311986
0.000000 0.512871 0.307256
0.000000 0.516197 0.300816
0.000000 0.519921 0.292180
0.000000 0.524254 0.280674
0.000000 0.528557 0.266453
0.101381 0.530999 0.261112
0.259983 0.533562 0.254978
0.347967 0.536339 0.247593
0.419776 0.540002 0.238651
0.484565 0.543908 0.228092
0.542870 0.546044 0.216159
0.595544 0.546532 0.202701
0.657832 0.556786 0.181827
0.720607 0.567651 0.154299
0.783291 0.578302 0.115541
0.845426 0.588800 0.000000
0.904906 0.597803 0.000000
0.960266 0.604639 0.000000
1.000000 0.609339 0.000000
1.000000 0.611780 0.000000
1.000000 0.611933 0.000000
1.000000 0.610285 0.000000
1.000000 0.607233 0.000000
1.000000 0.602808 0.000000
1.000000 0.597223 0.000000
0.000000 0.551446 0.350286
0.000000 0.551415 0.350103
0.000000 0.551812 0.349645
0.000000 0.552514 0.348638
0.000000 0.553643 0.346929
0.000000 0.555322 0.344457
0.000000 0.557336 0.340978
0.000000 0.559991 0.336400
0.000000 0.563012 0.330297
0.000000 0.566552 0.322271
0.000000 0.570703 0.311833
0.000000 0.575280 0.297826
0.000000 0.579065 0.285466
0.151705 0.581323 0.279667
0.294133 0.583917 0.272831
0.383825 0.586694 0.265141
0.458015 0.590173 0.255497
0.524895 0.593866 0.244541
0.585626 0.596155 0.231998
0.640497 0.596612 0.218021
0.702235 0.605280 0.198459
0.767086 0.616236 0.171359
0.830961 0.626856 0.135683
0.891844 0.635767 0.073335
0.948486 0.642206 0.000000
1.000000 0.646357 0.000000
1.000000 0.647883 0.000000
1.000000 0.647181 0.000000
1.000000 0.644526 0.000000
1.000000 0.640345 0.000000
1.000000 0.634852 0.000000
1.000000 0.628077 0.000000
0.000000 0.599908 0.379492
0.000000 0.599878 0.379370
0.000000 0.600244 0.378851
0.000000 0.600946 0.377874
0.000000 0.602014 0.376226
0.000000 0.603510 0.373846
0.000000 0.605402 0.370520
0.000000 0.607813 0.366094
0.000000 0.610681 0.360204
0.000000 0.614008 0.352728
0.000000 0.617823 0.343145
0.000000 0.622034 0.331029
0.000000 0.626642 0.315099
0.000000 0.629511 0.305303
0.198398 0.631769 0.299077
0.330510 0.634119 0.292180
0.420935 0.636896 0.283879
0.496712 0.640223 0.273747
0.565118 0.643793 0.262425
0.628260 0.646754 0.249485
0.686397 0.648341 0.235080
0.748592 0.655665 0.216556
0.814359 0.666407 0.190890
0.877043 0.675166 0.160525
0.935088 0.681239 0.122530
0.987945 0.684749 0.035584
1.000000 0.685603 0.000000
1.000000 0.684047 0.000000
1.000000 0.680415 0.000000
1.000000 0.675196 0.000000
1.000000 0.668452 0.000000
1.000000 0.660609 0.000000
0.000000 0.648859 0.409033
0.000000 0.648920 0.408911
0.000000 0.649287 0.408545
0.000000 0.649866 0.407477
0.000000 0.650874 0.405890
0.000000 0.652216 0.403601
0.000000 0.654017 0.400397
0.000000 0.656275 0.396124
0.000000 0.658961 0.390753
0.000000 0.662165 0.383703
0.000000 0.665736 0.375128
0.000000 0.669734 0.364294
0.000000 0.674067 0.350469
0.000000 0.678645 0.333410
0.000000 0.680873 0.327214
0.244297 0.683101 0.320684
0.369268 0.685481 0.313451
0.459754 0.688319 0.304906
0.537011 0.691585 0.294530
0.606989 0.695064 0.282841
0.672175 0.698360 0.269780
0.733303 0.701228 0.254917
0.795987 0.707424 0.237308
0.860166 0.715908 0.215549
0.919829 0.721767 0.191501
0.974182 0.724727 0.165743
1.000000 0.724819 0.137453
1.000000 0.722255 0.103883
1.000000 0.717769 0.020630
1.000000 0.711513 0.000000
1.000000 0.703761 0.000000
1.000000 0.694789 0.000000
0.000000 0.699733 0.439765
0.000000 0.699794 0.439643
0.000000 0.700130 0.439124
0.000000 0.700679 0.438239
0.000000 0.701625 0.436652
0.000000 0.702907 0.434394
0.000000 0.704616 0.431373
0.000000 0.706691 0.427344
0.000000 0.709224 0.422248
0.000000 0.712154 0.415839
0.000000 0.715419 0.407874
0.000000 0.719142 0.398230
0.000000 0.723171 0.386328
0.000000 0.727535 0.371893
0.000000 0.731258 0.358160
0.000000 0.733364 0.352056
0.293309 0.735592 0.345373
0.411292 0.737911 0.337682
0.501091 0.740658 0.328954
0.578912 0.743709 0.318547
0.649836 0.746792 0.306920
0.716030 0.749905 0.293980
0.779232 0.753384 0.279301
0.841733 0.758145 0.263310
0.902678 0.763455 0.246738
0.958526 0.765896 0.229038
1.000000 0.765164 0.212284
1.000000 0.761807 0.196719
1.000000 0.756374 0.181918
1.000000 0.749203 0.167605
1.000000 0.740566 0.153811
1.000000 0.730617 0.139376
0.000000 0.752071 0.471290
0.000000 0.752224 0.471168
0.000000 0.752438 0.470680
0.000000 0.752956 0.469764
0.000000 0.753780 0.468330
0.000000 0.754971 0.466194
0.000000 0.756588 0.463233
0.000000 0.758480 0.459480
0.000000 0.760800 0.454627
0.000000 0.763455 0.448737
0.000000 0.766476 0.441505
0.000000 0.769802 0.432929
0.000000 0.773434 0.422583
0.000000 0.777218 0.410529
0.000000 0.781094 0.397009
0.000000 0.783841 0.387274
0.149325 0.785580 0.381201
0.345861 0.787350 0.374243
0.456092 0.789181 0.366918
0.543969 0.791318 0.358038
0.620935 0.793668 0.347875
0.691371 0.796048 0.336645
0.757198 0.798367 0.324132
0.821408 0.802060 0.310796
0.883970 0.806363 0.296239
0.940887 0.807919 0.284977
0.991852 0.806546 0.273411
1.000000 0.802365 0.263188
1.000000 0.796017 0.254887
1.000000 0.787930 0.247776
1.000000 0.778317 0.241581
1.000000 0.767666 0.236454
0.000000 0.804440 0.502983
0.000000 0.804501 0.502892
0.000000 0.804746 0.502495
0.000000 0.805112 0.501579
0.000000 0.805875 0.500114
0.000000 0.806821 0.498116
0.000000 0.808194 0.495308
0.000000 0.809812 0.491676
0.000000 0.811704 0.487160
0.000000 0.813993 0.481758
0.000000 0.816434 0.475319
0.000000 0.819120 0.467689
0.000000 0.822141 0.458869
0.000000 0.825101 0.449226
0.000000 0.828183 0.438758
0.000000 0.831296 0.427741
0.000000 0.832731 0.421454
0.255161 0.833982 0.415442
0.401495 0.835294 0.408881
0.503227 0.836515 0.401740
0.587335 0.837980 0.393317
0.662013 0.839628 0.383490
0.730831 0.841154 0.372869
0.795346 0.842649 0.361303
0.858854 0.846067 0.349645
0.920928 0.850217 0.337346
0.973663 0.848386 0.330571
1.000000 0.843442 0.324163
1.000000 0.836301 0.319127
1.000000 0.827420 0.315709
1.000000 0.817044 0.313573
1.000000 0.805661 0.312505
0.000000 0.853788 0.533501
0.000000 0.853819 0.533379
0.000000 0.854002 0.532921
0.000000 0.854368 0.532128
0.000000 0.854948 0.530724
0.000000 0.855741 0.528771
0.000000 0.856748 0.526177
0.000000 0.858061 0.522820
0.000000 0.859586 0.518700
0.000000 0.861295 0.513848
0.000000 0.863279 0.508263
0.000000 0.865324 0.501793
0.000000 0.867521 0.494728
0.000000 0.869780 0.487190
0.000000 0.872007 0.479744
0.000000 0.874174 0.472480
0.000000 0.876036 0.466346
0.093141 0.876768 0.461128
0.342931 0.877409 0.455360
0.460609 0.878080 0.449165
0.552300 0.878721 0.442603
0.630823 0.879515 0.434607
0.701808 0.880339 0.425513
0.767514 0.881071 0.415839
0.829465 0.881651 0.405341
0.890837 0.884367 0.395758
0.951202 0.887999 0.386145
1.000000 0.884550 0.382574
1.000000 0.876585 0.380865
1.000000 0.866972 0.380102
1.000000 0.855955 0.381048
1.000000 0.843992 0.383154
0.000000 0.898955 0.561975
0.000000 0.898985 0.561883
0.000000 0.899107 0.561517
0.000000 0.899351 0.560723
0.000000 0.899779 0.559503
0.000000 0.900389 0.557671
0.000000 0.901183 0.555322
0.000000 0.902098 0.552392
0.000000 0.903258 0.548852
0.000000 0.904479 0.544762
0.000000 0.905821 0.540002
0.000000 0.907286 0.534905
0.000000 0.908782 0.529625
0.000000 0.910185 0.524315
0.000000 0.911559 0.519524
0.000000 0.912779 0.515679
0.000000 0.913787 0.513481
0.000000 0.914366 0.511162
0.292851 0.914549 0.506371
0.425269 0.914702 0.501122
0.521477 0.914763 0.495460
0.602350 0.914794 0.489540
0.674006 0.914977 0.482094
0.739681 0.915099 0.473915
0.801236 0.915068 0.465064
0.859586 0.914977 0.455756
0.917632 0.916869 0.448157
0.975311 0.919951 0.441901
1.000000 0.916167 0.440742
1.000000 0.905821 0.443549
1.000000 0.894285 0.447150
1.000000 0.882048 0.452522
0.000000 0.938842 0.588251
0.000000 0.938872 0.588128
0.000000 0.938964 0.587823
0.000000 0.939147 0.587121
0.000000 0.939452 0.586053
0.000000 0.939818 0.584466
0.000000 0.940368 0.582483
0.000000 0.940948 0.579980
0.000000 0.941619 0.577050
0.000000 0.942412 0.573754
0.000000 0.943236 0.570184
0.000000 0.943999 0.566613
0.000000 0.944793 0.563195
0.000000 0.945464 0.560143
0.000000 0.945983 0.558038
0.000000 0.946288 0.557549
0.000000 0.946410 0.559045
0.000000 0.946227 0.563378
0.281193 0.946044 0.561669
0.411139 0.945830 0.557214
0.505272 0.945495 0.552575
0.583825 0.945159 0.547509
0.653468 0.944762 0.542138
0.716884 0.944457 0.535302
0.776181 0.944060 0.528038
0.832486 0.943511 0.520287
0.886168 0.942840 0.512016
0.939910 0.943938 0.506615
0.993683 0.946502 0.503990
1.000000 0.943267 0.505760
1.000000 0.931212 0.513481
1.000000 0.918303 0.519951
0.000000 0.973114 0.612085
0.000000 0.973114 0.611994
0.000000 0.973205 0.611658
0.000000 0.973297 0.611170
0.000000 0.973480 0.610315
0.000000 0.973693 0.609094
0.000000 0.973938 0.607538
0.000000 0.974273 0.605554
0.000000 0.974609 0.603479
0.000000 0.974945 0.601190
0.000000 0.975189 0.598932
0.000000 0.975463 0.596857
0.000000 0.975586 0.595300
0.000000 0.975555 0.594629
0.000000 0.975280 0.595300
0.000000 0.974823 0.597772
0.000000 0.974060 0.602777
0.000000 0.972992 0.610681
0.330053 0.971710 0.620661
0.432197 0.971283 0.617060
0.513420 0.970794 0.613275
0.583551 0.970214 0.609247
0.646662 0.969574 0.604852
0.705287 0.968841 0.600214
0.759823 0.968200 0.594263
0.811734 0.967437 0.588037
0.861662 0.966522 0.581384
0.909728 0.965454 0.574395
0.958038 0.965728 0.570855
1.000000 0.967651 0.572778
1.000000 0.965209 0.576593
1.000000 0.951995 0.586908
0.000000 1.000000 0.633967
0.000000 1.000000 0.633906
0.000000 1.000000 0.633692
0.000000 1.000000 0.633265
0.000000 1.000000 0.632685
0.000000 1.000000 0.631769
0.000000 1.000000 0.630762
0.000000 1.000000 0.629541
0.000000 1.000000 0.628321
0.000000 1.000000 0.627253
0.000000 1.000000 0.626429
0.000000 1.000000 0.626093
0.000000 1.000000 0.626581
0.000000 1.000000 0.628260
0.000000 0.999603 0.631617
0.000000 0.998352 0.637110
0.000000 0.996765 0.645228
0.134310 0.994812 0.656428
0.384436 0.992523 0.671229
0.490913 0.990875 0.680171
0.552178 0.990265 0.677180
0.608484 0.989593 0.674189
0.660853 0.988830 0.670863
0.710567 0.988006 0.667506
0.757839 0.987091 0.663722
0.802976 0.986236 0.658869
0.846799 0.985199 0.653834
0.889311 0.984100 0.648554
0.930602 0.982727 0.642542
0.972045 0.982147 0.639643
1.000000 0.983062 0.644221
1.000000 0.981872 0.651118
0.000000 1.000000 0.654108
0.000000 1.000000 0.654047
0.000000 1.000000 0.653956
0.000000 1.000000 0.653742
0.000000 1.000000 0.653468
0.000000 1.000000 0.653071
0.000000 1.000000 0.652674
0.000000 1.000000 0.652338
0.000000 1.000000 0.652155
0.000000 1.000000 0.652277
0.000000 1.000000 0.653040
0.000000 1.000000 0.654505
0.000000 1.000000 0.657221
0.000000 1.000000 0.661433
