20 Preset/Russian Style/【3】LUT video cho PR-AE-FCPX/Lut Tone (29).cube
# Created by Adobe Lightroom plugin Export LUT (1.24.0)
# www.johnrellis.com/lightroom/exportlut.htm
# Preset: 俄罗斯情绪-素材江湖15
# Color profile: C:\Program Files (x86)\Common Files\Adobe\Color\Profiles\Recommended\VideoHD.icc
LUT_3D_SIZE 32
DOMAIN_MIN 0.0 0.0 0.0
DOMAIN_MAX 1.0 1.0 1.0
0.000000 0.000000 0.000000
0.003967 0.000000 0.000000
0.021851 0.000000 0.000000
0.055634 0.000000 0.000000
0.094484 0.000000 0.000000
0.116732 0.000000 0.000000
0.141299 0.000000 0.000000
0.173312 0.000000 0.000000
0.212863 0.000000 0.000000
0.259281 0.000000 0.000000
0.311864 0.000000 0.000000
0.368505 0.000000 0.000000
0.427985 0.000000 0.000000
0.488380 0.000000 0.000000
0.548150 0.000000 0.000000
0.606775 0.000000 0.000000
0.664576 0.000000 0.000000
0.724575 0.000000 0.000000
0.785916 0.000000 0.000000
0.847288 0.000000 0.000000
0.907103 0.000000 0.000000
0.964385 0.000000 0.000000
1.000000 0.000000 0.000000
1.000000 0.000000 0.000000
1.000000 0.000000 0.000000
1.000000 0.000000 0.000000
1.000000 0.000000 0.000000
1.000000 0.000000 0.000000
1.000000 0.000000 0.000000
1.000000 0.000000 0.000000
1.000000 0.000000 0.000000
1.000000 0.000000 0.000000
0.001251 0.003143 0.001801
0.001556 0.003174 0.000671
0.021698 0.000916 0.000000
0.059602 0.000000 0.000000
0.095186 0.000000 0.000000
0.117281 0.000000 0.000000
0.142092 0.000000 0.000000
0.173617 0.000000 0.000000
0.213535 0.000000 0.000000
0.259953 0.000000 0.000000
0.312261 0.000000 0.000000
0.368902 0.000000 0.000000
0.428412 0.000000 0.000000
0.488716 0.000000 0.000000
0.548486 0.000000 0.000000
0.607080 0.000000 0.000000
0.664881 0.000000 0.000000
0.724880 0.000000 0.000000
0.786221 0.000000 0.000000
0.847410 0.000000 0.000000
0.907225 0.000000 0.000000
0.964477 0.000000 0.000000
1.000000 0.000000 0.000000
1.000000 0.000000 0.000000
1.000000 0.000000 0.000000
1.000000 0.000000 0.000000
1.000000 0.000000 0.000000
1.000000 0.000000 0.000000
1.000000 0.000000 0.000000
1.000000 0.000000 0.000000
1.000000 0.000000 0.000000
1.000000 0.000000 0.000000
0.003937 0.015991 0.010163
0.006226 0.015778 0.009003
0.013367 0.015106 0.004456
0.058869 0.010224 0.000000
0.095888 0.000000 0.000000
0.118227 0.000000 0.000000
0.144442 0.000000 0.000000
0.176272 0.000000 0.000000
0.215976 0.000000 0.000000
0.262333 0.000000 0.000000
0.314519 0.000000 0.000000
0.371099 0.000000 0.000000
0.430426 0.000000 0.000000
0.490486 0.000000 0.000000
0.550225 0.000000 0.000000
0.608484 0.000000 0.000000
0.666316 0.000000 0.000000
0.726253 0.000000 0.000000
0.787381 0.000000 0.000000
0.848478 0.000000 0.000000
0.908354 0.000000 0.000000
0.965423 0.000000 0.000000
1.000000 0.000000 0.000000
1.000000 0.000000 0.000000
1.000000 0.000000 0.000000
1.000000 0.000000 0.000000
1.000000 0.000000 0.000000
1.000000 0.000000 0.000000
1.000000 0.000000 0.000000
1.000000 0.000000 0.000000
1.000000 0.000000 0.000000
1.000000 0.000000 0.000000
0.013275 0.041230 0.026856
0.014282 0.040040 0.025879
0.016297 0.037629 0.023896
0.037018 0.039033 0.012024
0.093324 0.034852 0.000000
0.118044 0.017975 0.000000
0.145174 0.000000 0.000000
0.178439 0.000000 0.000000
0.219364 0.000000 0.000000
0.266667 0.000000 0.000000
0.319280 0.000000 0.000000
0.375311 0.000000 0.000000
0.434546 0.000000 0.000000
0.494240 0.000000 0.000000
0.553552 0.000000 0.000000
0.611536 0.000000 0.000000
0.669215 0.000000 0.000000
0.728817 0.000000 0.000000
0.790005 0.000000 0.000000
0.850797 0.000000 0.000000
0.910216 0.000000 0.000000
0.967254 0.000000 0.000000
1.000000 0.000000 0.000000
1.000000 0.000000 0.000000
1.000000 0.000000 0.000000
1.000000 0.000000 0.000000
1.000000 0.000000 0.000000
1.000000 0.000000 0.000000
1.000000 0.000000 0.000000
1.000000 0.000000 0.000000
1.000000 0.000000 0.000000
1.000000 0.000000 0.000000
0.027008 0.076936 0.051087
0.027314 0.076936 0.049928
0.030030 0.073335 0.048127
0.031861 0.071168 0.039338
0.066712 0.072206 0.023865
0.111910 0.073884 0.003632
0.146120 0.057588 0.000000
0.180209 0.039918 0.000000
0.221927 0.008484 0.000000
0.269474 0.000000 0.000000
0.322210 0.000000 0.000000
0.379187 0.000000 0.000000
0.438483 0.000000 0.000000
0.498695 0.000000 0.000000
0.558129 0.000000 0.000000
0.616022 0.000000 0.000000
0.673732 0.000000 0.000000
0.733028 0.000000 0.000000
0.793759 0.000000 0.000000
0.854490 0.000000 0.000000
0.913634 0.000000 0.000000
0.970092 0.000000 0.000000
1.000000 0.000000 0.000000
1.000000 0.000000 0.000000
1.000000 0.000000 0.000000
1.000000 0.000000 0.000000
1.000000 0.000000 0.000000
1.000000 0.000000 0.000000
1.000000 0.000000 0.000000
1.000000 0.000000 0.000000
1.000000 0.000000 0.000000
1.000000 0.000000 0.000000
0.035279 0.100404 0.078584
0.036286 0.100038 0.077852
0.040009 0.098451 0.075044
0.043793 0.096040 0.070283
0.052949 0.096254 0.055360
0.093141 0.096254 0.037385
0.135286 0.104341 0.011810
0.182834 0.103548 0.000000
0.225467 0.100954 0.000000
0.273289 0.091798 0.000000
0.325963 0.051087 0.000000
0.382574 0.000000 0.000000
0.441352 0.000000 0.000000
0.500786 0.000000 0.000000
0.559747 0.000000 0.000000
0.617365 0.000000 0.000000
0.675227 0.000000 0.000000
0.735348 0.000000 0.000000
0.796689 0.000000 0.000000
0.857511 0.000000 0.000000
0.916991 0.000000 0.000000
0.973785 0.000000 0.000000
1.000000 0.000000 0.000000
1.000000 0.000000 0.000000
1.000000 0.000000 0.000000
1.000000 0.000000 0.000000
1.000000 0.000000 0.000000
1.000000 0.000000 0.000000
1.000000 0.000000 0.000000
1.000000 0.000000 0.000000
1.000000 0.000000 0.000000
1.000000 0.000000 0.000000
0.027375 0.126101 0.096864
0.028382 0.125826 0.096529
0.033112 0.124361 0.095216
0.042329 0.121462 0.092927
0.051606 0.117281 0.089082
0.079591 0.118654 0.072755
0.114290 0.119234 0.049134
0.167575 0.135012 0.014496
0.223423 0.141299 0.000000
0.279026 0.142123 0.000000
0.331456 0.140230 0.000000
0.387121 0.134066 0.000000
0.445289 0.114229 0.000000
0.503899 0.048524 0.000000
0.562097 0.000000 0.000000
0.618860 0.000000 0.000000
0.676905 0.000000 0.000000
0.736995 0.000000 0.000000
0.797910 0.000000 0.000000
0.858610 0.000000 0.000000
0.917723 0.000000 0.000000
0.974060 0.000000 0.000000
1.000000 0.000000 0.000000
1.000000 0.000000 0.000000
1.000000 0.000000 0.000000
1.000000 0.000000 0.000000
1.000000 0.000000 0.000000
1.000000 0.000000 0.000000
1.000000 0.000000 0.000000
1.000000 0.000000 0.000000
1.000000 0.000000 0.000000
1.000000 0.000000 0.000000
0.000092 0.161044 0.117067
0.003082 0.160800 0.116793
0.008576 0.159213 0.115297
0.021576 0.155947 0.112245
0.041382 0.151186 0.108675
0.049683 0.148531 0.098695
0.099947 0.150393 0.087190
0.142428 0.151186 0.059205
0.208103 0.173098 0.010101
0.270787 0.183627 0.000000
0.339055 0.187930 0.000000
0.394507 0.187564 0.000000
0.451240 0.184237 0.000000
0.508141 0.176455 0.000000
0.564996 0.159060 0.000000
0.621088 0.121462 0.000000
0.679072 0.000000 0.000000
0.739101 0.000000 0.000000
0.799863 0.000000 0.000000
0.860075 0.000000 0.000000
0.918486 0.000000 0.000000
0.974548 0.000000 0.000000
1.000000 0.000000 0.000000
1.000000 0.000000 0.000000
1.000000 0.000000 0.000000
1.000000 0.000000 0.000000
1.000000 0.000000 0.000000
1.000000 0.000000 0.000000
1.000000 0.000000 0.000000
1.000000 0.000000 0.000000
1.000000 0.000000 0.000000
1.000000 0.000000 0.000000
0.000000 0.204715 0.144045
0.000000 0.204440 0.143679
0.000000 0.202976 0.142184
0.000000 0.200076 0.139101
0.008301 0.195377 0.134798
0.044251 0.188785 0.129427
0.066255 0.189181 0.114076
0.125765 0.191104 0.097963
0.178225 0.192203 0.069459
0.254734 0.217319 0.000000
0.323705 0.230533 0.000000
0.395087 0.236576 0.000000
0.458564 0.235904 0.000000
0.514549 0.232029 0.000000
0.570214 0.225132 0.000000
0.625055 0.214298 0.000000
0.681941 0.199588 0.000000
0.741787 0.164889 0.000000
0.801999 0.093782 0.000000
0.861723 0.000000 0.000000
0.919646 0.000000 0.000000
0.975006 0.000000 0.000000
1.000000 0.000000 0.000000
1.000000 0.000000 0.000000
1.000000 0.000000 0.000000
1.000000 0.000000 0.000000
1.000000 0.000000 0.000000
1.000000 0.000000 0.000000
1.000000 0.000000 0.000000
1.000000 0.000000 0.000000
1.000000 0.000000 0.000000
1.000000 0.000000 0.000000
0.000000 0.254887 0.177218
0.000000 0.254459 0.176822
0.000000 0.253208 0.175418
0.000000 0.250401 0.172396
0.000000 0.246372 0.168154
0.009339 0.240299 0.162478
0.059632 0.232975 0.155367
0.098238 0.236637 0.133181
0.158389 0.238712 0.112398
0.220340 0.239628 0.083192
0.306706 0.267338 0.000000
0.379126 0.280674 0.000000
0.451667 0.286290 0.000000
0.521416 0.284520 0.000000
0.576074 0.279606 0.000000
0.630976 0.272587 0.000000
0.687800 0.263859 0.000000
0.746242 0.252079 0.000000
0.804746 0.236637 0.000000
0.863645 0.203098 0.000000
0.920867 0.140810 0.000000
0.975647 0.000000 0.000000
1.000000 0.000000 0.000000
1.000000 0.000000 0.000000
1.000000 0.000000 0.000000
1.000000 0.000000 0.000000
1.000000 0.000000 0.000000
1.000000 0.000000 0.000000
1.000000 0.000000 0.000000
1.000000 0.000000 0.000000
1.000000 0.000000 0.000000
1.000000 0.000000 0.000000
0.000000 0.308751 0.215396
0.000000 0.308598 0.215061
0.000000 0.307530 0.213748
0.000000 0.304997 0.210910
0.000000 0.301274 0.206943
0.000000 0.295872 0.201266
0.051911 0.288731 0.195102
0.051820 0.285283 0.176608
0.131472 0.288304 0.156924
0.198306 0.290440 0.131350
0.267033 0.290898 0.096834
0.360388 0.319554 0.000000
0.433936 0.332067 0.000000
0.506493 0.336248 0.000000
0.576501 0.333196 0.000000
0.636988 0.327703 0.000000
0.694026 0.321508 0.000000
0.752224 0.313573 0.000000
0.810300 0.303105 0.000000
0.867460 0.289250 0.000000
0.922576 0.270878 0.000000
0.976318 0.234195 0.000000
1.000000 0.172061 0.000000
1.000000 0.000000 0.000000
1.000000 0.000000 0.000000
1.000000 0.000000 0.000000
1.000000 0.000000 0.000000
1.000000 0.000000 0.000000
1.000000 0.000000 0.000000
1.000000 0.000000 0.000000
1.000000 0.000000 0.000000
1.000000 0.000000 0.000000
0.000000 0.363684 0.256809
0.000000 0.363500 0.256443
0.000000 0.362341 0.255100
0.000000 0.360540 0.252750
0.000000 0.357336 0.248997
0.000000 0.352636 0.243992
0.066194 0.346136 0.237583
0.110384 0.338231 0.230564
0.109865 0.339025 0.205875
0.173098 0.341802 0.183505
0.242222 0.343420 0.154177
0.314641 0.343908 0.115602
0.413519 0.372137 0.000000
0.487678 0.383246 0.000000
0.559075 0.385687 0.000000
0.630854 0.383154 0.000000
0.700435 0.377264 0.000000
0.758450 0.371191 0.000000
0.816007 0.363195 0.000000
0.872313 0.352728 0.000000
0.926726 0.338994 0.000000
0.978759 0.321935 0.000000
1.000000 0.301152 0.000000
1.000000 0.256687 0.000000
1.000000 0.186954 0.000000
1.000000 0.000000 0.000000
1.000000 0.000000 0.000000
1.000000 0.000000 0.000000
1.000000 0.000000 0.000000
1.000000 0.000000 0.000000
1.000000 0.000000 0.000000
1.000000 0.000000 0.000000
0.000000 0.417792 0.300023
0.000000 0.417792 0.299870
0.000000 0.416907 0.298772
0.000000 0.414893 0.296452
0.000000 0.412146 0.292973
0.060792 0.408087 0.288548
0.106264 0.402625 0.282780
0.132815 0.395911 0.276249
0.154696 0.387976 0.268406
0.159121 0.392248 0.238621
0.219059 0.394629 0.213321
0.288548 0.396216 0.181827
0.362890 0.396429 0.139956
0.464179 0.423194 0.003296
0.539055 0.433387 0.000000
0.612177 0.436072 0.000000
0.686702 0.434607 0.000000
0.760952 0.428504 0.000000
0.821500 0.421027 0.000000
0.877104 0.412024 0.000000
0.930571 0.400488 0.000000
0.982086 0.386633 0.000000
1.000000 0.369848 0.000000
1.000000 0.349920 0.000000
1.000000 0.318425 0.000000
1.000000 0.264958 0.000000
1.000000 0.183108 0.000000
1.000000 0.000000 0.000000
1.000000 0.000000 0.000000
1.000000 0.000000 0.000000
1.000000 0.000000 0.000000
1.000000 0.000000 0.000000
0.057313 0.469856 0.343877
0.061250 0.469734 0.343481
0.079530 0.469032 0.342626
0.093141 0.467414 0.340551
0.109438 0.464912 0.337560
0.127779 0.461555 0.333776
0.145754 0.457099 0.328649
0.165225 0.451026 0.322271
0.185031 0.443641 0.315618
0.179568 0.440558 0.296483
0.208988 0.443854 0.271794
0.266209 0.446235 0.245548
0.335271 0.447425 0.212406
0.410193 0.447272 0.169558
0.511009 0.470863 0.094331
0.590692 0.484565 0.000000
0.666804 0.488411 0.000000
0.742519 0.487098 0.000000
0.816159 0.480446 0.000000
0.881407 0.469917 0.000000
0.934234 0.459144 0.000000
0.985229 0.446601 0.000000
1.000000 0.431800 0.000000
1.000000 0.414588 0.000000
1.000000 0.393591 0.000000
1.000000 0.368688 0.000000
1.000000 0.320806 0.000000
1.000000 0.257939 0.000000
1.000000 0.155581 0.000000
1.000000 0.000000 0.000000
1.000000 0.000000 0.000000
1.000000 0.000000 0.000000
0.144472 0.520562 0.387091
0.145785 0.520287 0.386816
0.148409 0.519768 0.386084
0.155001 0.518181 0.384283
0.164584 0.515923 0.381720
0.175418 0.512902 0.378302
0.188693 0.508690 0.373602
0.203220 0.503441 0.368170
0.218967 0.496834 0.361822
0.234806 0.489235 0.355169
0.222324 0.490517 0.328618
0.259770 0.493324 0.306188
0.314733 0.495491 0.278660
0.381689 0.496651 0.244968
0.456580 0.496162 0.201785
0.559014 0.519585 0.137392
0.644343 0.537285 0.000000
0.721401 0.541344 0.000000
0.796750 0.539025 0.000000
0.868772 0.530846 0.000000
0.936248 0.517296 0.000000
0.987945 0.504875 0.000000
1.000000 0.490822 0.000000
1.000000 0.474281 0.000000
1.000000 0.454871 0.000000
1.000000 0.432563 0.000000
1.000000 0.407446 0.000000
1.000000 0.365637 0.000000
1.000000 0.309697 0.000000
1.000000 0.234653 0.000000
1.000000 0.067567 0.000000
1.000000 0.000000 0.000000
0.186374 0.573144 0.430304
0.186221 0.573022 0.429999
0.189548 0.572381 0.429297
0.194156 0.570947 0.427771
0.200931 0.568902 0.425391
0.210300 0.565972 0.422095
0.221378 0.562097 0.417853
0.235019 0.557031 0.412757
0.248569 0.551049 0.406958
0.263432 0.543786 0.400671
0.277226 0.535729 0.392828
0.268315 0.540520 0.362768
0.307073 0.543542 0.339513
0.362158 0.545892 0.311437
0.428931 0.546899 0.277134
0.504112 0.546715 0.234623
0.608209 0.569818 0.174868
0.697505 0.590356 0.000000
0.773953 0.593652 0.000000
0.847959 0.589807 0.000000
0.917754 0.580102 0.000000
0.983337 0.565057 0.000000
1.000000 0.548333 0.000000
1.000000 0.531640 0.000000
1.000000 0.512169 0.000000
1.000000 0.490669 0.000000
1.000000 0.466896 0.000000
1.000000 0.440772 0.000000
1.000000 0.401801 0.000000
1.000000 0.350256 0.000000
1.000000 0.285313 0.000000
1.000000 0.190738 0.000000
0.215122 0.627131 0.472602
0.215335 0.626917 0.472328
0.217166 0.626398 0.471809
0.220951 0.625208 0.470344
0.227787 0.623224 0.468147
0.235691 0.620417 0.464881
0.245518 0.616876 0.461006
0.258213 0.612146 0.456306
0.271641 0.606561 0.450752
0.285893 0.599817 0.444587
0.300481 0.592004 0.438087
0.296361 0.588891 0.419928
0.309514 0.592706 0.395026
0.352453 0.595605 0.371283
0.409369 0.597589 0.343053
0.477455 0.598627 0.308568
0.553033 0.598322 0.265934
0.657130 0.620813 0.209781
0.749294 0.642725 0.087221
0.824552 0.644526 0.000000
0.896605 0.639490 0.000000
0.964599 0.627832 0.000000
1.000000 0.610590 0.000000
1.000000 0.587793 0.000000
1.000000 0.567864 0.000000
1.000000 0.545830 0.000000
1.000000 0.522148 0.000000
1.000000 0.496956 0.000000
1.000000 0.470466 0.000000
1.000000 0.432105 0.000000
1.000000 0.382696 0.000000
1.000000 0.323308 0.000000
0.240116 0.680415 0.513939
0.239628 0.680415 0.513817
0.241642 0.679866 0.513176
0.245518 0.678737 0.511925
0.250889 0.677028 0.509850
0.258610 0.674525 0.506859
0.267277 0.671351 0.503258
0.277958 0.667109 0.498634
0.291051 0.661982 0.493416
0.304692 0.655818 0.487343
0.318853 0.648615 0.480903
0.334051 0.640375 0.474250
0.317144 0.642054 0.445838
0.349432 0.645106 0.425422
0.396490 0.647639 0.401617
0.456306 0.649592 0.373388
0.525353 0.650263 0.339361
0.601984 0.649866 0.297154
0.705287 0.670924 0.244450
0.799191 0.693599 0.149203
0.873136 0.694331 0.000000
0.943114 0.687434 0.000000
1.000000 0.673426 0.000000
1.000000 0.652064 0.000000
1.000000 0.624567 0.000000
1.000000 0.599359 0.000000
1.000000 0.575189 0.000000
1.000000 0.549737 0.000000
1.000000 0.523552 0.000000
1.000000 0.496376 0.000000
1.000000 0.457527 0.000000
1.000000 0.409430 0.000000
0.275395 0.731991 0.556176
0.275303 0.731899 0.556054
0.277134 0.731472 0.555566
0.280247 0.730373 0.554253
0.284092 0.729030 0.552422
0.290532 0.726741 0.549767
0.298680 0.723842 0.546349
0.307378 0.720241 0.542107
0.318029 0.715846 0.537194
0.330449 0.710414 0.531548
0.343267 0.704189 0.525414
0.357458 0.696956 0.518883
0.368322 0.689418 0.509911
0.355200 0.694514 0.478035
0.390784 0.697658 0.456336
0.441291 0.700038 0.431678
0.503593 0.701656 0.403235
0.573968 0.702358 0.369543
0.651545 0.701717 0.328649
0.753902 0.721126 0.278691
0.848203 0.743343 0.198001
0.919402 0.742275 0.000000
0.985473 0.732692 0.000000
1.000000 0.714290 0.000000
1.000000 0.688746 0.000000
1.000000 0.657771 0.000000
1.000000 0.626703 0.000000
1.000000 0.600549 0.000000
1.000000 0.573999 0.000000
1.000000 0.546929 0.000000
1.000000 0.519127 0.000000
1.000000 0.478492 0.000000
0.322881 0.782010 0.600275
0.323430 0.781827 0.600061
0.324041 0.781491 0.599512
0.326390 0.780667 0.598505
0.330053 0.779416 0.596857
0.334752 0.777584 0.594537
0.340581 0.775143 0.591424
0.348150 0.772091 0.587701
0.357000 0.768215 0.583215
0.366857 0.763699 0.578088
0.378393 0.758145 0.572351
0.390448 0.751949 0.566155
0.402899 0.744717 0.559503
0.395575 0.742580 0.539849
0.401404 0.746731 0.513146
0.438056 0.749752 0.490181
0.489174 0.752041 0.463874
0.551446 0.753414 0.433967
0.622858 0.753872 0.399969
0.701076 0.753079 0.359503
0.801968 0.770474 0.312596
0.894652 0.790982 0.242344
0.961486 0.786831 0.140475
1.000000 0.772732 0.000000
1.000000 0.750149 0.000000
1.000000 0.720943 0.000000
1.000000 0.687282 0.000000
1.000000 0.650752 0.000000
1.000000 0.622705 0.000000
1.000000 0.595026 0.000000
1.000000 0.567346 0.000000
1.000000 0.538262 0.000000
0.380926 0.829191 0.645655
0.381140 0.829099 0.645563
0.381567 0.828794 0.645075
0.383398 0.828122 0.644099
0.386145 0.827024 0.642725
0.389441 0.825559 0.640620
0.393744 0.823545 0.637842
0.399878 0.820951 0.634668
0.406714 0.817838 0.630762
0.414496 0.814054 0.626062
0.423468 0.809415 0.620905
0.433417 0.804257 0.615351
0.443732 0.798306 0.609247
0.454994 0.791318 0.602930
0.432105 0.794247 0.572381
0.453895 0.797452 0.551293
0.490120 0.800259 0.527337
0.540032 0.802274 0.499763
0.601282 0.803494 0.468696
0.671717 0.803586 0.432990
0.749264 0.802518 0.391882
0.847807 0.817502 0.347387
0.936919 0.834714 0.285954
0.996551 0.825620 0.211307
1.000000 0.807034 0.010376
1.000000 0.781064 0.000000
1.000000 0.749203 0.000000
1.000000 0.713161 0.000000
1.000000 0.674800 0.000000
1.000000 0.641749 0.000000
1.000000 0.613245 0.000000
1.000000 0.585046 0.000000
0.446418 0.872190 0.691554
0.446662 0.872068 0.691493
0.447120 0.871885 0.691127
0.448402 0.871305 0.690394
0.449897 0.870512 0.689113
0.452705 0.869261 0.687312
0.456001 0.867796 0.685176
0.460151 0.865751 0.682338
0.465064 0.863188 0.678767
0.471168 0.860166 0.674952
0.478035 0.856504 0.670436
0.485756 0.852262 0.665461
0.493904 0.847440 0.660151
0.502983 0.841733 0.654353
0.507958 0.836790 0.645197
0.490303 0.841947 0.613886
0.511467 0.844846 0.592340
0.545922 0.847349 0.567864
0.593042 0.849210 0.539818
0.651392 0.850034 0.507683
0.719631 0.849851 0.470741
0.795193 0.848356 0.428595
0.889525 0.860197 0.384894
0.972198 0.872190 0.330663
1.000000 0.858061 0.271427
1.000000 0.836179 0.187350
1.000000 0.807675 0.000000
1.000000 0.773892 0.000000
1.000000 0.736019 0.000000
1.000000 0.695796 0.000000
1.000000 0.658015 0.000000
1.000000 0.628992 0.000000
0.520409 0.907805 0.737026
0.520439 0.907805 0.736965
0.520897 0.907561 0.736599
0.521569 0.907256 0.736049
0.522667 0.906615 0.734920
0.524376 0.905760 0.733608
0.526726 0.904601 0.731716
0.529534 0.903044 0.729305
0.533013 0.901274 0.726558
0.536889 0.899077 0.723293
0.541741 0.896422 0.719600
0.546929 0.893370 0.715480
0.552972 0.889708 0.710842
0.559747 0.885435 0.705867
0.567102 0.880705 0.700832
0.557183 0.880461 0.682673
0.553735 0.884306 0.657649
0.572992 0.886900 0.636042
0.603998 0.888884 0.611383
0.646784 0.890135 0.583154
0.700557 0.890501 0.550866
0.764004 0.889769 0.513664
0.835904 0.887633 0.470802
0.923919 0.895628 0.429053
0.999817 0.902831 0.379370
1.000000 0.884977 0.326543
1.000000 0.860624 0.261509
1.000000 0.830594 0.154879
1.000000 0.795377 0.000000
1.000000 0.756039 0.000000
1.000000 0.714137 0.000000
1.000000 0.672908 0.000000
0.598474 0.935149 0.780911
0.598779 0.935088 0.780880
0.598810 0.934997 0.780575
0.599298 0.934722 0.780087
0.600122 0.934264 0.779294
0.601251 0.933654 0.778225
0.602869 0.932860 0.776883
0.604761 0.931823 0.775082
0.606867 0.930541 0.772793
0.609705 0.928985 0.770291
0.612818 0.927153 0.767422
0.616449 0.924987 0.764096
0.620539 0.922454 0.760433
0.625025 0.919554 0.756527
0.630121 0.916106 0.752285
0.635584 0.912291 0.747890
0.614221 0.915679 0.721614
0.621180 0.918181 0.703212
0.636835 0.920317 0.682063
0.662776 0.921874 0.657893
0.699458 0.922667 0.630152
0.746700 0.922606 0.598199
0.804105 0.921386 0.561242
0.870298 0.918944 0.518364
0.951049 0.923919 0.478737
1.000000 0.927642 0.432380
1.000000 0.907164 0.382147
1.000000 0.881193 0.323125
1.000000 0.850004 0.243107
1.000000 0.813962 0.000000
1.000000 0.773495 0.000000
1.000000 0.730190 0.000000
0.676112 0.955383 0.822782
0.676173 0.955322 0.822751
0.676417 0.955230 0.822599
0.676753 0.955047 0.822202
0.677241 0.954772 0.821653
0.677943 0.954345 0.820859
0.679011 0.953796 0.819821
0.680232 0.953063 0.818448
0.681697 0.952148 0.816770
0.683406 0.951080 0.814847
0.685725 0.949798 0.812711
0.688167 0.948272 0.810239
0.691035 0.946563 0.807584
0.694240 0.944549 0.804685
0.697505 0.942229 0.801419
0.701381 0.939574 0.798093
0.700313 0.937987 0.790372
0.684627 0.941680 0.767208
0.688899 0.943847 0.749752
0.700374 0.945617 0.729641
0.720363 0.946899 0.706416
0.749996 0.947509 0.679469
0.789792 0.947265 0.648402
0.839719 0.945922 0.612207
0.899168 0.943359 0.569909
0.971923 0.946105 0.532494
1.000000 0.947356 0.488472
1.000000 0.925444 0.439796
1.000000 0.898528 0.381964
1.000000 0.866789 0.309148
1.000000 0.830259 0.191043
1.000000 0.788846 0.000000
0.748501 0.969818 0.861479
0.748531 0.969818 0.861448
0.748623 0.969757 0.861295
0.748806 0.969635 0.861051
0.749203 0.969451 0.860716
0.749783 0.969146 0.860105
0.750362 0.968780 0.859312
0.751186 0.968292 0.858427
0.752193 0.967681 0.857267
0.753536 0.966949 0.855955
0.755032 0.966033 0.854368
0.756710 0.964996 0.852659
0.758511 0.963867 0.850736
0.760708 0.962463 0.848631
0.763210 0.960876 0.846372
0.765835 0.959106 0.843992
0.768734 0.957092 0.841489
0.759487 0.958160 0.828763
0.751675 0.960784 0.811826
0.753414 0.962676 0.795743
0.760739 0.964263 0.777096
0.775021 0.965393 0.755367
0.797513 0.965942 0.729915
0.829404 0.965698 0.700130
0.871214 0.964446 0.665248
0.923186 0.961975 0.624109
0.987640 0.963134 0.588739
1.000000 0.962676 0.546868
1.000000 0.940337 0.498329
1.000000 0.913329 0.441138
1.000000 0.881285 0.368536
1.000000 0.844388 0.265263
0.809689 0.980224 0.894713
0.809689 0.980224 0.894682
0.809659 0.980163 0.894560
0.809873 0.980102 0.894408
0.810117 0.979980 0.894163
0.810513 0.979736 0.893767
0.810941 0.979492 0.893248
0.811551 0.979187 0.892607
0.812253 0.978790 0.891844
0.813077 0.978302 0.890929
0.814176 0.977691 0.889891
0.815396 0.977020 0.888731
0.816678 0.976226 0.887449
0.818173 0.975311 0.885985
0.819821 0.974304 0.884459
0.821714 0.973114 0.882811
0.823819 0.971740 0.881071
0.825956 0.970245 0.879271
0.812650 0.972869 0.864012
0.810758 0.974578 0.852689
0.811490 0.976135 0.839200
0.815976 0.977508 0.823026
0.825284 0.978576 0.803433
0.841337 0.979126 0.780056
0.865537 0.979004 0.752346
0.899168 0.977966 0.719295
0.943084 0.975769 0.679774
0.998810 0.975891 0.646723
1.000000 0.974273 0.606561
1.000000 0.952453 0.558129
1.000000 0.926055 0.501030
1.000000 0.894102 0.426490
0.858762 0.987579 0.921813
0.858762 0.987579 0.921813
0.858854 0.987549 0.921752
0.858976 0.987488 0.921660
0.859129 0.987427 0.921477
0.859434 0.987274 0.921233
0.859739 0.987121 0.920897
0.860166 0.986908 0.920470
0.860685 0.986664 0.920012
0.861326 0.986328 0.919402
0.862058 0.985962 0.918730
0.862882 0.985504 0.917937
0.863828 0.985016 0.917082
0.864897 0.984405 0.916167
