20 Preset/Russian Style/【3】LUT video cho PR-AE-FCPX/Lut Tone (11).cube
# Created by Adobe Lightroom plugin Export LUT (1.24.0)
# www.johnrellis.com/lightroom/exportlut.htm
# Preset: 俄罗斯情绪-素材江湖06
# Color profile: C:\Program Files (x86)\Common Files\Adobe\Color\Profiles\Recommended\VideoHD.icc
LUT_3D_SIZE 8
DOMAIN_MIN 0.000000 0.000000 0.000000
DOMAIN_MAX 0.903226 0.903226 0.903226
0.000000 0.000000 0.045380
0.048646 0.010864 0.048341
0.306310 0.080354 0.019013
0.620172 0.139895 0.000000
0.882017 0.226230 0.000000
1.000000 0.301610 0.000000
1.000000 0.344610 0.000000
1.000000 0.368231 0.000000
0.000000 0.067689 0.085359
0.000000 0.095460 0.088136
0.268864 0.141054 0.037629
0.578668 0.194491 0.000000
0.849699 0.259586 0.000000
1.000000 0.323064 0.000000
1.000000 0.360510 0.000000
1.000000 0.381842 0.000000
0.000000 0.185489 0.161379
0.000000 0.207431 0.174136
0.201328 0.249729 0.166567
0.512352 0.317662 0.100374
0.804654 0.376806 0.000000
1.000000 0.419837 0.000000
1.000000 0.440650 0.000000
1.000000 0.445228 0.000000
0.000000 0.322911 0.263615
0.084199 0.338750 0.273014
0.237064 0.399023 0.301091
0.437873 0.463081 0.285863
0.732204 0.536095 0.229618
0.960723 0.560693 0.163485
1.000000 0.559503 0.116823
1.000000 0.547204 0.096864
0.159304 0.468971 0.370275
0.190311 0.479133 0.377050
0.299168 0.525811 0.409125
0.430671 0.577874 0.431037
0.604578 0.634516 0.409277
0.841794 0.686336 0.366461
1.000000 0.689448 0.337957
1.000000 0.670771 0.327916
0.286229 0.597589 0.474830
0.307225 0.608179 0.483284
0.372930 0.637293 0.505516
0.486763 0.694057 0.548119
0.586633 0.722469 0.551720
0.733364 0.769772 0.533349
0.923827 0.808865 0.514672
1.000000 0.799710 0.508965
0.402319 0.721370 0.582116
0.414923 0.726558 0.586877
0.461585 0.743832 0.603052
0.551568 0.779171 0.639368
0.642847 0.813169 0.669734
0.725154 0.835233 0.677485
0.835630 0.870146 0.668055
0.972717 0.897002 0.667750
0.555993 0.841337 0.706966
0.565118 0.843717 0.710323
0.603449 0.854276 0.725643
0.673671 0.875181 0.757229
0.751125 0.897337 0.792996
0.808072 0.916686 0.813535
0.868254 0.935485 0.830411
0.936339 0.956176 0.838437
0.000000 0.022370 0.083345
0.031983 0.025208 0.094789
0.304601 0.005005 0.086183
0.586419 0.120882 0.000000
0.852079 0.205692 0.000000
1.000000 0.284154 0.000000
1.000000 0.333410 0.000000
1.000000 0.361975 0.000000
0.000000 0.084230 0.100008
0.000000 0.109834 0.120272
0.274754 0.138949 0.112337
0.566369 0.183505 0.038209
0.834775 0.247593 0.000000
1.000000 0.311803 0.000000
1.000000 0.352239 0.000000
1.000000 0.376532 0.000000
0.000000 0.192538 0.178866
0.000000 0.211978 0.192569
0.214755 0.258457 0.197665
0.510185 0.317418 0.155673
0.787015 0.366888 0.035462
1.000000 0.408545 0.000000
1.000000 0.430579 0.000000
1.000000 0.439612 0.000000
0.052583 0.318425 0.269200
0.119570 0.333257 0.278721
0.248417 0.396307 0.312505
0.425635 0.449653 0.296788
0.704341 0.514275 0.247135
0.934600 0.542443 0.191348
1.000000 0.547448 0.149905
1.000000 0.540764 0.130465
0.177310 0.464668 0.373663
0.203433 0.473976 0.379919
0.303258 0.518242 0.410773
0.429419 0.570459 0.434119
0.595209 0.623316 0.412787
0.830442 0.676295 0.373449
1.000000 0.682612 0.346105
1.000000 0.666590 0.334844
0.288640 0.590051 0.472999
0.305241 0.596979 0.478370
0.369574 0.626368 0.500816
0.484810 0.686702 0.546868
0.583612 0.716701 0.551965
0.730312 0.765927 0.536950
0.920104 0.805447 0.518853
1.000000 0.796689 0.511192
0.397253 0.713161 0.577356
0.407355 0.716396 0.580133
0.452918 0.733761 0.595941
0.542809 0.770535 0.632563
0.639246 0.808560 0.667414
0.721370 0.831022 0.675196
0.830900 0.865293 0.664179
0.969177 0.892241 0.661769
0.545617 0.834928 0.700465
0.556634 0.838346 0.705104
0.594446 0.848844 0.719966
0.665370 0.870237 0.751583
0.757259 0.900114 0.798856
0.811460 0.917906 0.817472
0.868254 0.935027 0.831327
0.936095 0.955718 0.838987
0.000000 0.089876 0.144778
0.013611 0.091707 0.151339
0.251041 0.083375 0.210208
0.639490 0.000000 0.204288
0.877317 0.000000 0.169924
1.000000 0.241886 0.137392
1.000000 0.317052 0.090059
1.000000 0.354162 0.000000
0.000000 0.136110 0.174960
0.033845 0.142458 0.185672
0.267613 0.147951 0.229526
0.613916 0.000000 0.213687
0.855589 0.185702 0.187900
1.000000 0.283604 0.155703
1.000000 0.339452 0.107454
1.000000 0.370489 0.000000
0.031861 0.207797 0.216861
0.121675 0.224949 0.233280
0.270542 0.295293 0.291661
0.549462 0.330938 0.273442
0.810544 0.367529 0.248051
1.000000 0.404211 0.214755
1.000000 0.428382 0.185306
1.000000 0.439368 0.157748
0.165591 0.328588 0.303777
0.195315 0.344915 0.316808
0.303777 0.412696 0.366857
0.463020 0.480201 0.380285
0.728389 0.535454 0.349920
0.944305 0.553765 0.317388
1.000000 0.557000 0.295171
1.000000 0.549248 0.278172
0.238743 0.467445 0.399664
0.259678 0.477272 0.407172
0.342016 0.520745 0.440375
0.468635 0.590692 0.484565
0.617670 0.642756 0.473610
0.840452 0.689693 0.444160
1.000000 0.691035 0.420600
1.000000 0.675227 0.408240
0.323339 0.589044 0.489998
0.337865 0.596033 0.495613
0.394995 0.624445 0.518120
0.501610 0.683528 0.564935
0.601526 0.723140 0.582055
0.738003 0.770626 0.573144
0.920928 0.809689 0.561242
1.000000 0.802274 0.555291
0.415900 0.712245 0.589075
0.425574 0.715572 0.592065
0.467994 0.732204 0.607263
0.552850 0.768002 0.642878
0.655360 0.811856 0.686519
0.733120 0.835264 0.696101
0.838590 0.870268 0.691432
0.971862 0.898253 0.695460
0.547204 0.831968 0.704219
0.555291 0.834012 0.706996
0.592645 0.844633 0.721523
0.665309 0.867643 0.754452
0.756924 0.898100 0.801266
0.819791 0.920195 0.828275
0.875242 0.937438 0.843656
0.939910 0.957885 0.852354
0.018341 0.131289 0.222690
0.090455 0.134432 0.229740
0.207187 0.142123 0.259739
0.509117 0.105684 0.362860
0.869749 0.000000 0.385931
1.000000 0.000000 0.326909
1.000000 0.261845 0.309880
1.000000 0.341711 0.296330
0.101228 0.173800 0.253849
0.129946 0.176211 0.259464
0.230747 0.182498 0.283665
0.521904 0.173617 0.376867
0.873259 0.000000 0.388159
1.000000 0.156558 0.339147
1.000000 0.304509 0.321752
1.000000 0.365362 0.306950
0.161837 0.250217 0.291295
0.192538 0.262699 0.304295
0.306065 0.313451 0.362707
0.552392 0.333349 0.423926
0.850065 0.338872 0.409766
1.000000 0.392218 0.390661
1.000000 0.437354 0.379309
1.000000 0.452796 0.356085
0.211490 0.341772 0.346441
0.238224 0.354192 0.358007
0.347417 0.410712 0.410681
0.516655 0.519402 0.497017
0.753262 0.553552 0.477974
0.945892 0.565606 0.458228
1.000000 0.569787 0.439765
1.000000 0.563836 0.418738
0.300481 0.466896 0.433051
0.318212 0.476509 0.441444
0.390784 0.520226 0.478889
0.522515 0.610651 0.552209
0.652857 0.671656 0.566064
0.855680 0.710445 0.548058
1.000000 0.705959 0.527611
1.000000 0.690211 0.511040
0.375555 0.590967 0.520562
0.390448 0.600366 0.528649
0.438422 0.626886 0.550774
0.533959 0.684474 0.599298
0.645075 0.744686 0.643946
0.758938 0.785672 0.641077
0.925536 0.820462 0.634424
1.000000 0.812528 0.626703
0.437781 0.705226 0.603998
0.448035 0.709895 0.608270
0.489906 0.728573 0.625818
0.571221 0.765713 0.662806
0.685206 0.819608 0.720974
0.756374 0.845212 0.734676
0.850675 0.877745 0.734188
0.975219 0.905730 0.743771
0.548882 0.827970 0.712398
0.557671 0.830442 0.715602
0.594842 0.841398 0.730037
0.664118 0.863401 0.760250
0.755795 0.894896 0.806271
0.833341 0.923705 0.846281
0.886046 0.941039 0.863066
0.946502 0.961669 0.874876
0.156527 0.180240 0.315282
0.176944 0.182284 0.320623
0.249912 0.188113 0.339940
0.417334 0.192569 0.402594
0.737972 0.181613 0.515618
1.000000 0.129183 0.536126
1.000000 0.247135 0.493507
1.000000 0.373663 0.477119
0.183230 0.212070 0.337194
0.201236 0.213809 0.342229
0.269657 0.218509 0.360235
0.430915 0.225895 0.418372
0.740841 0.233585 0.523125
1.000000 0.213260 0.539727
1.000000 0.296696 0.499916
1.000000 0.397467 0.484016
0.244999 0.299046 0.384924
0.266056 0.308110 0.397681
0.329168 0.322423 0.422950
0.462043 0.338781 0.465522
0.744259 0.373022 0.550408
0.998871 0.376287 0.551446
1.000000 0.431006 0.525078
1.000000 0.472969 0.506340
0.275303 0.375616 0.416083
0.295201 0.384924 0.424842
0.379126 0.427802 0.464973
0.535729 0.524163 0.556481
0.761563 0.556756 0.610834
0.956725 0.571099 0.593194
1.000000 0.584009 0.574365
1.000000 0.582879 0.550011
0.326482 0.470008 0.467750
0.344701 0.478614 0.475746
0.415930 0.514885 0.509361
0.542931 0.589380 0.578790
0.688075 0.695094 0.662074
0.864347 0.720058 0.647852
1.000000 0.713344 0.628779
1.000000 0.698634 0.607050
0.403571 0.567346 0.531853
0.414343 0.573907 0.537682
0.457191 0.599939 0.560693
0.540856 0.655207 0.609247
0.672084 0.745266 0.689479
0.776791 0.795560 0.708553
0.930297 0.827115 0.706142
1.000000 0.817777 0.695277
0.451942 0.685084 0.613153
0.458808 0.688319 0.615900
0.490059 0.704128 0.629694
0.564111 0.742672 0.666072
0.677852 0.801999 0.726741
0.775814 0.850767 0.772000
0.860899 0.882536 0.777005
0.977203 0.908080 0.785367
0.508110 0.803128 0.700893
0.517449 0.805875 0.704036
0.556847 0.817929 0.718471
0.635798 0.845304 0.752590
0.735683 0.881468 0.800931
0.842710 0.923888 0.862272
0.893553 0.942779 0.880186
0.950469 0.962982 0.893065
0.258091 0.239292 0.430457
0.271550 0.240330 0.433753
0.324102 0.243168 0.446113
0.423957 0.245914 0.472053
0.632837 0.255894 0.555901
0.908110 0.306950 0.647120
1.000000 0.362066 0.654688
1.000000 0.462898 0.641382
0.267765 0.259922 0.438392
0.279850 0.260502 0.440864
0.329381 0.262547 0.451911
0.425269 0.265110 0.475837
0.629603 0.280674 0.557244
0.901488 0.332006 0.646509
1.000000 0.382544 0.654780
1.000000 0.476234 0.643091
0.318547 0.342962 0.482673
0.328435 0.343725 0.484932
0.371710 0.347601 0.495644
0.457465 0.353399 0.516228
0.642878 0.382849 0.587304
0.896605 0.436713 0.665156
1.000000 0.479103 0.671351
1.000000 0.552392 0.666804
0.354253 0.420417 0.498817
0.367681 0.426276 0.504143
0.427863 0.457435 0.534417
0.527306 0.506828 0.591424
0.665339 0.538781 0.644953
0.893278 0.588922 0.709163
1.000000 0.621881 0.711635
1.000000 0.654658 0.705043
0.381598 0.497200 0.529625
0.394049 0.503044 0.534997
0.446082 0.529625 0.559106
0.547845 0.589258 0.613336
0.700038 0.692988 0.708736
0.877775 0.730861 0.755734
1.000000 0.735927 0.744015
1.000000 0.732326 0.727565
0.419806 0.577508 0.569635
0.432441 0.584222 0.575952
0.477943 0.606867 0.596979
0.562982 0.653590 0.640894
0.684962 0.726741 0.711727
0.810330 0.818173 0.790311
0.944244 0.836698 0.784878
1.000000 0.826535 0.772427
0.480171 0.675257 0.634730
0.489387 0.679438 0.638941
0.522484 0.693935 0.653101
0.585077 0.726436 0.684474
0.677821 0.782284 0.738277
0.802579 0.858457 0.815824
0.881804 0.896178 0.835904
0.984283 0.917510 0.843900
0.528344 0.788144 0.715846
0.533410 0.789853 0.717464
0.558648 0.799802 0.727260
0.611872 0.822080 0.750057
0.700832 0.858640 0.791196
0.824186 0.910643 0.858396
0.907469 0.947539 0.905486
0.958434 0.967193 0.920592
0.364538 0.313481 0.555047
0.375128 0.314702 0.557977
0.410681 0.313848 0.562249
0.481025 0.313329 0.574487
0.599634 0.316075 0.606287
0.816892 0.344030 0.693416
1.000000 0.428443 0.746181
1.000000 0.503868 0.742153
0.362982 0.323766 0.551293
0.373724 0.325536 0.554833
0.408515 0.324956 0.559686
0.476173 0.323735 0.570855
0.591241 0.326238 0.600946
0.805386 0.353796 0.686488
1.000000 0.430701 0.739406
1.000000 0.498695 0.735805
0.391577 0.387701 0.574762
0.399115 0.387854 0.575982
0.429419 0.387274 0.580224
0.492256 0.388342 0.592096
0.594873 0.390967 0.614954
0.804135 0.429175 0.701015
0.997833 0.506462 0.753658
1.000000 0.571801 0.755581
0.430091 0.472480 0.597162
0.439246 0.476143 0.601404
0.477974 0.491859 0.619837
0.530816 0.498634 0.634760
0.620478 0.508049 0.658686
0.804471 0.553307 0.734279
0.981811 0.621607 0.781552
1.000000 0.666957 0.784482
0.433356 0.525780 0.597650
0.440131 0.527642 0.599145
0.474678 0.541711 0.611841
0.547265 0.577691 0.644923
0.657313 0.640131 0.710750
0.784634 0.673671 0.761379
0.957946 0.724361 0.809476
1.000000 0.761532 0.819181
0.449378 0.594568 0.622431
0.457527 0.598199 0.625727
0.491005 0.613245 0.639521
0.556634 0.646052 0.669734
0.660945 0.705013 0.723964
0.808530 0.805142 0.817197
0.944915 0.842588 0.860746
1.000000 0.853056 0.860655
0.479713 0.673701 0.662623
0.488136 0.677760 0.666468
0.518791 0.691035 0.679011
0.582025 0.720607 0.707179
0.678767 0.768765 0.754391
0.800046 0.836851 0.823911
0.905180 0.910796 0.893797
0.991272 0.922789 0.895750
0.545586 0.782956 0.739895
0.552697 0.785489 0.742550
0.584710 0.797726 0.755428
0.639277 0.817288 0.776547
0.717342 0.846586 0.809445
0.811124 0.893980 0.860899
0.921233 0.950896 0.929473
0.969268 0.973785 0.951720
0.485389 0.414862 0.690852
0.492195 0.415045 0.692042
0.514153 0.410040 0.690517
0.562921 0.405097 0.694148
0.637873 0.397009 0.701198
0.768826 0.402564 0.739712
0.958129 0.450874 0.806882
1.000000 0.554894 0.825589
0.481209 0.419959 0.685817
0.488014 0.420356 0.687251
0.511040 0.416785 0.687465
0.558740 0.411505 0.690791
0.633326 0.404059 0.698512
0.763241 0.410010 0.736690
0.952239 0.456458 0.803861
1.000000 0.557061 0.823667
0.485115 0.456916 0.688350
0.490730 0.456641 0.688960
0.512016 0.453285 0.689387
0.561181 0.453223 0.697414
0.632593 0.447120 0.705287
0.754574 0.453681 0.738735
0.942229 0.503136 0.807523
1.000000 0.597620 0.829892
0.500008 0.521477 0.698390
0.505394 0.522057 0.699641
0.524804 0.520836 0.701808
0.567163 0.521508 0.709224
0.635401 0.522271 0.721370
0.744076 0.530571 0.748653
0.927672 0.585412 0.820096
1.000000 0.670924 0.846098
0.487098 0.560754 0.679561
0.494148 0.564019 0.683223
0.519219 0.573144 0.694728
0.583368 0.603998 0.726192
0.643793 0.613214 0.743709
0.734249 0.622461 0.766720
0.904570 0.677363 0.836332
1.000000 0.757076 0.870695
0.487343 0.621485 0.693202
0.491615 0.621851 0.693568
0.512200 0.626398 0.697963
0.558251 0.641321 0.712184
0.636378 0.674311 0.742702
0.758999 0.745266 0.811490
0.885435 0.793332 0.867338
1.000000 0.848631 0.904753
0.515312 0.705959 0.732937
0.520592 0.707576 0.734401
0.544060 0.715053 0.741299
0.591943 0.732235 0.757137
0.665034 0.761532 0.783993
0.767880 0.812039 0.830381
0.898802 0.897124 0.908904
0.985321 0.930022 0.942779
0.554864 0.792050 0.780240
0.559838 0.793240 0.781430
0.583795 0.800748 0.788724
0.634668 0.818570 0.806485
0.710506 0.847196 0.835264
0.809873 0.888670 0.878233
0.916899 0.940703 0.934386
0.979004 0.980163 0.976440
