20 Preset/Russian Style/【3】LUT video cho PR-AE-FCPX/Lut Tone (17).cube
# Created by Adobe Lightroom plugin Export LUT (1.24.0)
# www.johnrellis.com/lightroom/exportlut.htm
# Preset: 俄罗斯情绪-素材江湖09
# Color profile: C:\Program Files (x86)\Common Files\Adobe\Color\Profiles\Recommended\VideoHD.icc
LUT_3D_SIZE 8
DOMAIN_MIN 0.000000 0.000000 0.000000
DOMAIN_MAX 0.903226 0.903226 0.903226
0.091859 0.083619 0.089967
0.103639 0.086122 0.089509
0.212589 0.100069 0.080934
0.440742 0.148653 0.000000
0.740139 0.237522 0.000000
0.971771 0.317449 0.000000
1.000000 0.368383 0.000000
1.000000 0.402930 0.000000
0.087129 0.099672 0.099702
0.102358 0.105196 0.099763
0.218967 0.131044 0.088472
0.458228 0.191226 0.000000
0.759182 0.280827 0.000000
0.982666 0.351202 0.000000
1.000000 0.393469 0.000000
1.000000 0.421912 0.000000
0.036805 0.162173 0.150118
0.078340 0.174319 0.155612
0.169223 0.213687 0.156191
0.412207 0.298192 0.124147
0.736446 0.402228 0.000000
0.959442 0.452979 0.000000
1.000000 0.474434 0.000000
1.000000 0.489845 0.000000
0.000000 0.279210 0.242893
0.000000 0.292149 0.249760
0.095796 0.350561 0.278111
0.300328 0.418097 0.276616
0.619715 0.538994 0.266789
0.890593 0.606989 0.227054
1.000000 0.618006 0.217166
1.000000 0.617578 0.251560
0.000000 0.441627 0.370001
0.000000 0.451667 0.375280
0.000000 0.494697 0.397467
0.249241 0.579644 0.435218
0.475685 0.650935 0.450385
0.754696 0.737575 0.475044
0.974395 0.786221 0.494057
1.000000 0.784298 0.519615
0.000000 0.615778 0.508232
0.000000 0.619013 0.509209
0.000000 0.646296 0.525231
0.224735 0.700862 0.565301
0.477729 0.764889 0.600641
0.659754 0.814328 0.640467
0.853178 0.874052 0.682826
1.000000 0.914092 0.734798
0.000000 0.791958 0.662409
0.000000 0.794553 0.664515
0.000000 0.808652 0.677607
0.370031 0.835050 0.706844
0.617395 0.874388 0.761166
0.716915 0.908049 0.780087
0.835538 0.935668 0.821927
0.944244 0.966247 0.867338
0.412879 0.941955 0.829496
0.435889 0.943114 0.831662
0.517693 0.947478 0.840757
0.638758 0.955474 0.859312
0.783474 0.969451 0.895628
0.889128 0.979065 0.930022
0.925200 0.984924 0.940398
0.963165 0.989288 0.958740
0.091981 0.084718 0.095613
0.108675 0.082246 0.099336
0.231144 0.085695 0.098787
0.464668 0.140017 0.071901
0.764706 0.231022 0.000000
0.990143 0.313664 0.000000
1.000000 0.367102 0.000000
1.000000 0.402899 0.000000
0.090455 0.098390 0.106172
0.109865 0.108888 0.114839
0.225010 0.132021 0.114900
0.465949 0.186343 0.089326
0.767453 0.273625 0.000000
0.989776 0.345983 0.000000
1.000000 0.391882 0.000000
1.000000 0.422644 0.000000
0.050843 0.168215 0.163180
0.088808 0.179538 0.170077
0.181003 0.224125 0.181247
0.425940 0.309941 0.166354
0.750698 0.408667 0.081605
0.970062 0.457191 0.000000
1.000000 0.480659 0.000000
1.000000 0.495308 0.000000
0.000000 0.289006 0.257877
0.000000 0.301396 0.265019
0.107790 0.358740 0.295201
0.318303 0.437385 0.307012
0.644251 0.563653 0.309239
0.907591 0.623285 0.284428
1.000000 0.630549 0.282292
1.000000 0.628321 0.308751
0.000000 0.444526 0.378241
0.000000 0.454994 0.384161
0.000000 0.499123 0.408087
0.282689 0.590082 0.458381
0.492164 0.662470 0.474983
0.764920 0.748226 0.503716
0.978058 0.794430 0.524498
1.000000 0.792599 0.549798
0.000000 0.620722 0.517144
0.000000 0.626886 0.520592
0.000000 0.653681 0.536767
0.243595 0.706691 0.576410
0.498939 0.770993 0.617151
0.669276 0.818601 0.653651
0.858122 0.878080 0.696742
1.000000 0.917357 0.748592
0.000000 0.797055 0.670863
0.000000 0.801053 0.674495
0.000000 0.815000 0.687678
0.386542 0.840208 0.715908
0.624567 0.877592 0.767727
0.728115 0.911376 0.789548
0.843015 0.938872 0.830961
0.947936 0.968444 0.876341
0.426459 0.944793 0.834989
0.446143 0.945403 0.836454
0.526665 0.949737 0.845518
0.645624 0.957397 0.863645
0.777646 0.968139 0.893645
0.889921 0.978882 0.930816
0.926940 0.985138 0.941985
0.964141 0.989441 0.960021
0.095644 0.086152 0.124788
0.106844 0.086030 0.129885
0.204135 0.074495 0.165042
0.474403 0.000000 0.188663
0.769894 0.000000 0.165042
0.987152 0.248661 0.150576
1.000000 0.339147 0.137697
1.000000 0.392004 0.130373
0.097719 0.103609 0.136477
0.112276 0.109194 0.147524
0.212161 0.117617 0.183383
0.480751 0.000000 0.194095
0.771878 0.184482 0.188998
0.985992 0.301152 0.178958
1.000000 0.371099 0.167239
1.000000 0.416114 0.166842
0.092561 0.158267 0.176761
0.110018 0.169162 0.186679
0.202426 0.230228 0.240146
0.446754 0.312078 0.265537
0.744411 0.383764 0.261570
0.963378 0.439979 0.253574
1.000000 0.476081 0.253819
1.000000 0.500603 0.263706
0.000000 0.281254 0.276188
0.000000 0.292668 0.284520
0.121584 0.345434 0.320348
0.342412 0.448066 0.366552
0.650111 0.568048 0.393347
0.905425 0.623377 0.392004
1.000000 0.635492 0.398871
1.000000 0.640894 0.417487
0.000000 0.437934 0.395300
0.000000 0.447333 0.401160
0.000000 0.488930 0.426581
0.297581 0.579614 0.485176
0.515892 0.663630 0.523583
0.770382 0.752651 0.562402
0.974029 0.800595 0.588525
1.000000 0.803159 0.612177
0.000000 0.615961 0.531792
0.000000 0.621759 0.535241
0.000000 0.648707 0.552453
0.255955 0.702358 0.592706
0.546929 0.774990 0.655787
0.688777 0.822202 0.685451
0.865690 0.882261 0.729122
1.000000 0.920134 0.776211
0.000000 0.792386 0.679469
0.000000 0.796262 0.682856
0.000000 0.810941 0.696193
0.384253 0.837308 0.724117
0.622156 0.875456 0.773922
0.747036 0.912200 0.806729
0.850095 0.939055 0.842527
0.950652 0.968688 0.885985
0.409979 0.943847 0.839414
0.434882 0.945190 0.841764
0.518425 0.949645 0.850523
0.638483 0.956847 0.866941
0.773587 0.967834 0.895872
0.892699 0.978668 0.934203
0.930053 0.985168 0.945220
0.965972 0.989441 0.962585
0.104524 0.089357 0.167575
0.115389 0.089754 0.174075
0.174105 0.089601 0.209873
0.406928 0.000000 0.313420
0.777127 0.000000 0.379828
1.000000 0.000000 0.343877
1.000000 0.278874 0.356298
1.000000 0.397742 0.374273
0.103792 0.105989 0.183688
0.115938 0.107057 0.191012
0.179232 0.112001 0.227176
0.410407 0.069917 0.325109
0.772305 0.000000 0.383795
1.000000 0.000000 0.361273
1.000000 0.332219 0.375280
1.000000 0.428077 0.392157
0.087984 0.151888 0.209934
0.101442 0.158389 0.219181
0.172946 0.189883 0.262669
0.420294 0.272068 0.383642
0.757656 0.304997 0.418555
0.962585 0.399847 0.425849
1.000000 0.475471 0.438361
1.000000 0.523217 0.449439
0.000000 0.247745 0.280034
0.000000 0.258122 0.289647
0.163088 0.308782 0.335088
0.370184 0.442176 0.447547
0.674434 0.580774 0.521172
0.901183 0.628595 0.539361
1.000000 0.654505 0.551415
1.000000 0.670344 0.561822
0.000000 0.414374 0.409949
0.000000 0.425086 0.418799
0.000000 0.466224 0.450355
0.287877 0.554467 0.514153
0.556695 0.676081 0.594690
0.785611 0.763638 0.648798
0.970245 0.809049 0.675898
1.000000 0.817929 0.696651
0.000000 0.598199 0.549401
0.000000 0.602075 0.551415
0.000000 0.630030 0.570581
0.245884 0.684321 0.610559
0.560845 0.764767 0.683680
0.715846 0.825254 0.728847
0.878080 0.887846 0.775570
1.000000 0.923735 0.816739
0.000000 0.783474 0.695094
0.000000 0.786465 0.697322
0.000000 0.800198 0.708492
0.355077 0.826902 0.733547
0.605158 0.867002 0.779751
0.775051 0.912108 0.833097
0.863798 0.940307 0.863249
0.957397 0.970336 0.904875
0.339178 0.939605 0.844327
0.369604 0.940826 0.846220
0.471290 0.945647 0.854215
0.610925 0.954345 0.870695
0.757870 0.966217 0.898009
0.885985 0.977905 0.934874
0.936584 0.985321 0.951690
0.969207 0.989502 0.967041
0.118166 0.091035 0.232181
0.129030 0.090455 0.238560
0.180087 0.085878 0.271794
0.313268 0.011841 0.348577
0.665187 0.000000 0.506157
0.981781 0.000000 0.551598
1.000000 0.248325 0.540429
1.000000 0.460792 0.573968
0.112032 0.104250 0.243778
0.124605 0.104311 0.249912
0.178531 0.104280 0.282597
0.313603 0.091402 0.360296
0.666865 0.000000 0.514549
0.976410 0.000000 0.558129
1.000000 0.316106 0.553796
1.000000 0.490089 0.586206
0.053590 0.143862 0.255283
0.076905 0.147280 0.266789
0.160983 0.170321 0.319493
0.319036 0.205325 0.402014
0.669398 0.272862 0.553460
0.953063 0.376532 0.595789
1.000000 0.498299 0.612634
1.000000 0.590265 0.634455
0.000000 0.227054 0.311101
0.000000 0.232731 0.318273
0.116274 0.261601 0.351568
0.298528 0.342779 0.435279
0.631312 0.526177 0.615839
0.892363 0.615320 0.666835
1.000000 0.674586 0.687221
1.000000 0.710536 0.698878
0.000000 0.364813 0.408972
0.000000 0.372686 0.415900
0.000000 0.410956 0.449165
0.312566 0.506859 0.529839
0.579950 0.664485 0.660639
0.815640 0.784909 0.744472
0.974914 0.818936 0.766354
1.000000 0.831937 0.779171
0.000000 0.573022 0.566979
0.000000 0.580194 0.572778
0.000000 0.611994 0.598535
0.217380 0.667170 0.642298
0.544152 0.752468 0.711482
0.758236 0.840116 0.785794
0.902159 0.899931 0.832334
1.000000 0.928771 0.863645
0.000000 0.771359 0.719844
0.000000 0.775265 0.722591
0.000000 0.789731 0.732570
0.279118 0.816587 0.753262
0.574884 0.858488 0.793759
0.789578 0.911650 0.857328
0.886595 0.945464 0.893065
0.968963 0.974456 0.931365
0.000000 0.938384 0.859495
0.175326 0.939727 0.861112
0.371801 0.944854 0.867887
0.552392 0.952697 0.880095
0.727687 0.965087 0.903807
0.874662 0.977539 0.937621
0.949737 0.985992 0.963287
0.975189 0.990295 0.974456
0.139651 0.084932 0.326604
0.150790 0.082643 0.331792
0.199741 0.063142 0.359106
0.302678 0.000000 0.417700
0.515007 0.000000 0.525933
0.881193 0.000000 0.672236
1.000000 0.249180 0.684230
1.000000 0.482246 0.693751
0.130068 0.099428 0.338293
0.143343 0.098573 0.344335
0.196475 0.092927 0.371099
0.304723 0.048096 0.430304
0.519158 0.000000 0.537896
0.883452 0.000000 0.680598
1.000000 0.320073 0.693935
1.000000 0.518273 0.706447
0.007263 0.145846 0.354192
0.067842 0.147005 0.360723
0.162081 0.152712 0.388403
0.290959 0.167575 0.451789
0.508110 0.204288 0.562005
0.870542 0.310491 0.701778
1.000000 0.488899 0.724910
1.000000 0.618677 0.744167
0.000000 0.209995 0.355261
0.000000 0.212802 0.360296
0.031983 0.226047 0.382422
0.256443 0.291905 0.479164
0.497230 0.393194 0.598840
0.831113 0.549035 0.738888
1.000000 0.664240 0.774563
1.000000 0.739742 0.798581
0.000000 0.340124 0.448585
0.000000 0.345068 0.453651
0.000000 0.368078 0.476600
0.238804 0.425849 0.530480
0.488228 0.547814 0.631373
0.789029 0.741176 0.789303
0.970275 0.809903 0.835447
1.000000 0.845853 0.853574
0.000000 0.514061 0.567224
0.000000 0.518730 0.570794
0.000000 0.544427 0.591455
0.268223 0.600580 0.635645
0.523247 0.699794 0.713558
0.761532 0.826596 0.819455
0.931151 0.911437 0.885618
1.000000 0.929046 0.904601
0.000000 0.730892 0.725002
0.000000 0.734218 0.727413
0.000000 0.751888 0.740932
0.191409 0.787137 0.768643
0.502556 0.836851 0.809659
0.754879 0.897063 0.864042
0.908354 0.951171 0.921202
0.979767 0.977539 0.954162
0.000000 0.934234 0.889830
0.000000 0.935576 0.891081
0.202945 0.940398 0.894133
0.442115 0.948608 0.899474
0.651728 0.961395 0.913024
0.845762 0.975952 0.941131
0.957855 0.986267 0.972290
0.981018 0.991150 0.981506
0.187167 0.014893 0.500084
0.201785 0.004578 0.506950
0.254307 0.000000 0.524529
0.350469 0.000000 0.563714
0.500450 0.000000 0.630549
0.760128 0.000000 0.730465
1.000000 0.145693 0.806973
1.000000 0.486763 0.794491
0.168978 0.067445 0.489906
0.184604 0.058503 0.497566
0.240055 0.023316 0.515557
0.337224 0.000000 0.553887
0.487282 0.000000 0.620386
0.743252 0.000000 0.719753
1.000000 0.188357 0.799435
1.000000 0.484779 0.789181
0.042908 0.141726 0.500816
0.104494 0.141360 0.505119
0.193271 0.140444 0.522271
0.311192 0.139712 0.562524
0.473884 0.147280 0.629999
0.730465 0.199435 0.731441
1.000000 0.400549 0.817502
1.000000 0.604822 0.819974
0.000000 0.215366 0.492836
0.000000 0.216922 0.499397
0.000000 0.229526 0.528832
0.263401 0.269352 0.583398
0.458412 0.320897 0.656275
0.708400 0.427558 0.757839
0.986023 0.606409 0.848966
1.000000 0.736446 0.860685
0.000000 0.327489 0.525475
0.000000 0.327184 0.525017
0.000000 0.332677 0.532799
0.114748 0.352636 0.558892
0.413001 0.457069 0.663142
0.681880 0.599207 0.772488
0.942473 0.750912 0.873869
1.000000 0.842893 0.900298
0.000000 0.486732 0.621912
0.000000 0.489845 0.624689
0.000000 0.502190 0.635279
0.000000 0.531640 0.659388
0.391302 0.593378 0.704860
0.669734 0.722377 0.791897
0.917510 0.883574 0.914427
1.000000 0.931579 0.943267
0.000000 0.679713 0.742000
0.000000 0.684352 0.745541
0.000000 0.697536 0.754055
0.233890 0.727718 0.773983
0.498634 0.779141 0.808194
0.728695 0.859007 0.866667
0.914611 0.946777 0.942229
0.988373 0.979522 0.972717
0.000000 0.894560 0.893034
0.000000 0.896941 0.894743
0.256016 0.908141 0.903258
0.444343 0.925048 0.915404
0.616907 0.947753 0.932586
0.787900 0.971191 0.953552
0.943481 0.984558 0.973816
0.986053 0.992218 0.987488
0.256565 0.000000 0.701534
0.270512 0.000000 0.704921
0.319982 0.000000 0.709682
0.408087 0.000000 0.729213
0.530541 0.000000 0.761501
0.695430 0.000000 0.809812
0.952758 0.000000 0.877653
1.000000 0.363317 0.889036
0.238163 0.000000 0.691279
0.252964 0.000000 0.695064
0.306218 0.000000 0.702510
0.396429 0.000000 0.721828
0.520958 0.000000 0.755306
0.685817 0.000000 0.804898
0.943389 0.000000 0.872709
1.000000 0.376440 0.887022
0.155489 0.122652 0.683223
0.179751 0.120485 0.685847
0.253361 0.111452 0.693721
0.363439 0.094301 0.720333
0.498878 0.036805 0.754055
0.669642 0.079622 0.804074
0.926146 0.224033 0.873503
1.000000 0.483345 0.894591
0.000000 0.221286 0.673426
0.000000 0.222416 0.677180
0.047272 0.225162 0.687953
0.289616 0.235142 0.714199
0.458473 0.258824 0.754574
0.648859 0.314397 0.810117
0.897581 0.436835 0.880186
1.000000 0.630488 0.911955
0.000000 0.303166 0.638941
0.000000 0.304173 0.643854
0.000000 0.303868 0.657527
0.000000 0.323583 0.697444
0.392493 0.392126 0.750515
0.613489 0.468208 0.810819
0.852476 0.597681 0.884092
1.000000 0.763058 0.932647
0.000000 0.460426 0.709255
0.000000 0.458686 0.707607
0.000000 0.454994 0.705257
0.000000 0.454475 0.708675
0.175387 0.465064 0.724056
0.599268 0.628931 0.824399
0.837491 0.763882 0.906432
1.000000 0.895018 0.962768
0.000000 0.653132 0.813107
0.000000 0.653986 0.813382
0.000000 0.658473 0.815335
0.000000 0.673335 0.823484
0.319615 0.704463 0.839750
0.593408 0.766567 0.871336
0.842618 0.875425 0.927337
0.985260 0.967895 0.980621
0.000000 0.845548 0.912902
0.000000 0.846708 0.913207
0.117128 0.853758 0.916228
0.383215 0.870420 0.924132
0.571283 0.895995 0.936004
0.750607 0.930541 0.952697
0.915709 0.969451 0.974090
0.987030 0.991302 0.990723
