20 Preset/Russian Style/【3】LUT video cho PR-AE-FCPX/Lut Tone (34).cube
# Created by Adobe Lightroom plugin Export LUT (1.24.0)
# www.johnrellis.com/lightroom/exportlut.htm
# Preset: 俄罗斯情绪-素材江湖17
# Color profile: C:\Program Files (x86)\Common Files\Adobe\Color\Profiles\Recommended\VideoHD.icc
LUT_3D_SIZE 8
DOMAIN_MIN 0.000000 0.000000 0.000000
DOMAIN_MAX 0.903226 0.903226 0.903226
0.000000 0.000000 0.000000
0.003906 0.003906 0.003906
0.015625 0.015625 0.015625
0.041993 0.041993 0.041993
0.092378 0.092378 0.092378
0.132448 0.132448 0.132448
0.185397 0.185397 0.185397
0.258610 0.258610 0.258610
0.025391 0.025391 0.025391
0.022461 0.022461 0.022461
0.021485 0.021485 0.021485
0.052735 0.052735 0.052735
0.097871 0.097871 0.097871
0.138064 0.138064 0.138064
0.190402 0.190402 0.190402
0.263462 0.263462 0.263462
0.159152 0.159152 0.159152
0.157992 0.157992 0.157992
0.154238 0.154238 0.154238
0.147585 0.147585 0.147585
0.146273 0.146273 0.146273
0.160006 0.160006 0.160006
0.211246 0.211246 0.211246
0.283391 0.283391 0.283391
0.348577 0.348577 0.348577
0.347692 0.347692 0.347692
0.344030 0.344030 0.344030
0.335729 0.335729 0.335729
0.322545 0.322545 0.322545
0.310063 0.310063 0.310063
0.297368 0.297368 0.297368
0.321233 0.321233 0.321233
0.554528 0.554528 0.554528
0.553704 0.553704 0.553704
0.550500 0.550500 0.550500
0.543938 0.543938 0.543938
0.533471 0.533471 0.533471
0.517998 0.517998 0.517998
0.499367 0.499367 0.499367
0.470680 0.470680 0.470680
0.734707 0.734707 0.734707
0.734188 0.734188 0.734188
0.732052 0.732052 0.732052
0.727687 0.727687 0.727687
0.720363 0.720363 0.720363
0.708675 0.708675 0.708675
0.692622 0.692622 0.692622
0.666682 0.666682 0.666682
0.872038 0.872038 0.872038
0.871855 0.871855 0.871855
0.870420 0.870420 0.870420
0.867491 0.867491 0.867491
0.862272 0.862272 0.862272
0.853513 0.853513 0.853513
0.839170 0.839170 0.839170
0.817350 0.817350 0.817350
0.950866 0.950866 0.950866
0.950713 0.950713 0.950713
0.949676 0.949676 0.949676
0.947448 0.947448 0.947448
0.943542 0.943542 0.943542
0.937011 0.937011 0.937011
0.926329 0.926329 0.926329
0.909545 0.909545 0.909545
0.129580 0.129580 0.129580
0.127779 0.127779 0.127779
0.115114 0.115114 0.115114
0.134127 0.134127 0.134127
0.135836 0.135836 0.135836
0.154238 0.154238 0.154238
0.204929 0.204929 0.204929
0.275731 0.275731 0.275731
0.161959 0.161959 0.161959
0.160006 0.160006 0.160006
0.159670 0.159670 0.159670
0.157656 0.157656 0.157656
0.156802 0.156802 0.156802
0.158999 0.158999 0.158999
0.209415 0.209415 0.209415
0.280156 0.280156 0.280156
0.264439 0.264439 0.264439
0.264683 0.264683 0.264683
0.262058 0.262058 0.262058
0.252018 0.252018 0.252018
0.243748 0.243748 0.243748
0.236942 0.236942 0.236942
0.229404 0.229404 0.229404
0.298619 0.298619 0.298619
0.427710 0.427710 0.427710
0.426764 0.426764 0.426764
0.422370 0.422370 0.422370
0.413519 0.413519 0.413519
0.398749 0.398749 0.398749
0.383764 0.383764 0.383764
0.367285 0.367285 0.367285
0.338537 0.338537 0.338537
0.602838 0.602838 0.602838
0.602136 0.602136 0.602136
0.598901 0.598901 0.598901
0.592523 0.592523 0.592523
0.582330 0.582330 0.582330
0.567437 0.567437 0.567437
0.548669 0.548669 0.548669
0.519646 0.519646 0.519646
0.762600 0.762600 0.762600
0.762295 0.762295 0.762295
0.760372 0.760372 0.760372
0.756008 0.756008 0.756008
0.748928 0.748928 0.748928
0.737758 0.737758 0.737758
0.722194 0.722194 0.722194
0.696254 0.696254 0.696254
0.883970 0.883970 0.883970
0.883818 0.883818 0.883818
0.882750 0.882750 0.882750
0.879942 0.879942 0.879942
0.874998 0.874998 0.874998
0.866545 0.866545 0.866545
0.852903 0.852903 0.852903
0.831968 0.831968 0.831968
0.954162 0.954162 0.954162
0.954162 0.954162 0.954162
0.953338 0.953338 0.953338
0.951232 0.951232 0.951232
0.947448 0.947448 0.947448
0.941222 0.941222 0.941222
0.931151 0.931151 0.931151
0.915129 0.915129 0.915129
0.421424 0.421424 0.421424
0.421302 0.421302 0.421302
0.422827 0.422827 0.422827
0.406348 0.406348 0.406348
0.418524 0.418524 0.418524
0.435767 0.435767 0.435767
0.429969 0.429969 0.429969
0.397803 0.397803 0.397803
0.445289 0.445289 0.445289
0.445228 0.445228 0.445228
0.445838 0.445838 0.445838
0.435645 0.435645 0.435645
0.445777 0.445777 0.445777
0.457221 0.457221 0.457221
0.443122 0.443122 0.443122
0.411017 0.411017 0.411017
0.514488 0.514488 0.514488
0.514244 0.514244 0.514244
0.514061 0.514061 0.514061
0.515648 0.515648 0.515648
0.519768 0.519768 0.519768
0.512261 0.512261 0.512261
0.496345 0.496345 0.496345
0.464179 0.464179 0.464179
0.614008 0.614008 0.614008
0.615808 0.615808 0.615808
0.617609 0.617609 0.617609
0.619715 0.619715 0.619715
0.620203 0.620203 0.620203
0.607263 0.607263 0.607263
0.589624 0.589624 0.589624
0.558679 0.558679 0.558679
0.736110 0.736110 0.736110
0.736477 0.736477 0.736477
0.737881 0.737881 0.737881
0.740993 0.740993 0.740993
0.735378 0.735378 0.735378
0.722713 0.722713 0.722713
0.705959 0.705959 0.705959
0.677394 0.677394 0.677394
0.845029 0.845029 0.845029
0.845365 0.845365 0.845365
0.846464 0.846464 0.846464
0.843534 0.843534 0.843534
0.837919 0.837919 0.837919
0.829191 0.829191 0.829191
0.816129 0.816129 0.816129
0.792508 0.792508 0.792508
0.920928 0.920928 0.920928
0.920897 0.920897 0.920897
0.920470 0.920470 0.920470
0.918791 0.918791 0.918791
0.914733 0.914733 0.914733
0.907866 0.907866 0.907866
0.896880 0.896880 0.896880
0.879637 0.879637 0.879637
0.965179 0.965179 0.965179
0.965179 0.965179 0.965179
0.965209 0.965209 0.965209
0.963836 0.963836 0.963836
0.960693 0.960693 0.960693
0.955566 0.955566 0.955566
0.947265 0.947265 0.947265
0.934173 0.934173 0.934173
0.700526 0.700526 0.700526
0.701869 0.701869 0.701869
0.706447 0.706447 0.706447
0.712886 0.712886 0.712886
0.708156 0.708156 0.708156
0.706600 0.706600 0.706600
0.719783 0.719783 0.719783
0.716121 0.716121 0.716121
0.714534 0.714534 0.714534
0.715267 0.715267 0.715267
0.718471 0.718471 0.718471
0.722988 0.722988 0.722988
0.718776 0.718776 0.718776
0.718135 0.718135 0.718135
0.730800 0.730800 0.730800
0.724788 0.724788 0.724788
0.751431 0.751431 0.751431
0.752193 0.752193 0.752193
0.754391 0.754391 0.754391
0.757229 0.757229 0.757229
0.756161 0.756161 0.756161
0.759487 0.759487 0.759487
0.770230 0.770230 0.770230
0.753323 0.753323 0.753323
0.805936 0.805936 0.805936
0.806149 0.806149 0.806149
0.807187 0.807187 0.807187
0.809049 0.809049 0.809049
0.811917 0.811917 0.811917
0.815274 0.815274 0.815274
0.819394 0.819394 0.819394
0.794888 0.794888 0.794888
0.860349 0.860349 0.860349
0.860807 0.860807 0.860807
0.862882 0.862882 0.862882
0.865507 0.865507 0.865507
0.867948 0.867948 0.867948
0.869718 0.869718 0.869718
0.867155 0.867155 0.867155
0.845579 0.845579 0.845579
0.913146 0.913146 0.913146
0.913329 0.913329 0.913329
0.914122 0.914122 0.914122
0.915892 0.915892 0.915892
0.917876 0.917876 0.917876
0.918700 0.918700 0.918700
0.910399 0.910399 0.910399
0.893950 0.893950 0.893950
0.952636 0.952636 0.952636
0.952819 0.952819 0.952819
0.953552 0.953552 0.953552
0.955108 0.955108 0.955108
0.954894 0.954894 0.954864
0.950378 0.950378 0.950378
0.943328 0.943328 0.943328
0.931884 0.931884 0.931884
0.978180 0.978180 0.978180
0.978180 0.978180 0.978180
0.978271 0.978271 0.978271
0.978424 0.978424 0.978424
0.976898 0.976898 0.976898
0.973175 0.973175 0.973175
0.967224 0.967224 0.967224
0.957763 0.957763 0.957763
0.880064 0.880064 0.880064
0.880797 0.880797 0.880797
0.883696 0.883696 0.883696
0.888212 0.888212 0.888212
0.893004 0.893004 0.893004
0.891814 0.891814 0.891814
0.890562 0.890562 0.890562
0.894102 0.894102 0.894102
0.885252 0.885252 0.885252
0.885801 0.885801 0.885801
0.888121 0.888121 0.888121
0.891814 0.891814 0.891814
0.896056 0.896056 0.896056
0.894835 0.894835 0.894835
0.893950 0.893950 0.893950
0.896880 0.896880 0.896880
0.899840 0.899840 0.899840
0.900175 0.900175 0.900175
0.901671 0.901671 0.901671
0.904173 0.904173 0.904173
0.907103 0.907103 0.907103
0.906218 0.906218 0.906218
0.906188 0.906188 0.906188
0.906950 0.906950 0.906950
0.919432 0.919432 0.919432
0.919707 0.919707 0.919707
0.920867 0.920867 0.920867
0.922515 0.922515 0.922515
0.924071 0.924071 0.924071
0.923857 0.923857 0.923857
0.923796 0.923796 0.923796
0.920287 0.920287 0.920287
0.941100 0.941100 0.941100
0.941192 0.941192 0.941192
0.941619 0.941619 0.941619
0.942016 0.942016 0.942016
0.942199 0.942199 0.942199
0.942473 0.942473 0.942473
0.940429 0.940429 0.940429
0.935821 0.935821 0.935821
0.958953 0.958953 0.958953
0.959014 0.959014 0.959014
0.958801 0.958801 0.958801
0.958007 0.958007 0.958007
0.959258 0.959258 0.959258
0.959594 0.959594 0.959594
0.957855 0.957855 0.957855
0.952880 0.952880 0.952880
0.975189 0.975189 0.975189
0.975097 0.975097 0.975097
0.974701 0.974701 0.974701
0.974548 0.974548 0.974548
0.975280 0.975280 0.975280
0.975433 0.975433 0.975433
0.973632 0.973632 0.973632
0.966522 0.966522 0.966522
0.987304 0.987304 0.987304
0.987366 0.987366 0.987366
0.987610 0.987610 0.987610
0.988128 0.988128 0.988128
0.988891 0.988891 0.988891
0.987488 0.987488 0.987488
0.983612 0.983612 0.983612
0.977325 0.977325 0.977325
0.962554 0.962554 0.962554
0.962768 0.962768 0.962768
0.963653 0.963653 0.963653
0.965057 0.965057 0.965057
0.966705 0.966705 0.966705
0.968139 0.968139 0.968139
0.968627 0.968627 0.968627
0.970977 0.970977 0.970977
0.963867 0.963867 0.963867
0.964050 0.964050 0.964050
0.964752 0.964752 0.964752
0.966033 0.966033 0.966033
0.967529 0.967529 0.967529
0.968841 0.968841 0.968841
0.969329 0.969329 0.969329
0.971649 0.971649 0.971649
0.967895 0.967895 0.967895
0.968017 0.968017 0.968017
0.968536 0.968536 0.968536
0.969451 0.969451 0.969451
0.970550 0.970550 0.970550
0.971496 0.971496 0.971496
0.972015 0.972015 0.972015
0.974060 0.974060 0.974060
0.973693 0.973693 0.973693
0.973816 0.973816 0.973816
0.974212 0.974212 0.974212
0.974792 0.974792 0.974792
0.975463 0.975463 0.975463
0.975921 0.975921 0.975921
0.976471 0.976471 0.976471
0.977356 0.977356 0.977356
0.980438 0.980438 0.980438
0.980468 0.980468 0.980468
0.980682 0.980682 0.980682
0.980987 0.980987 0.980987
0.981262 0.981262 0.981262
0.981292 0.981292 0.981292
0.981384 0.981384 0.981384
0.979767 0.979767 0.979767
0.987091 0.987091 0.987091
0.987121 0.987121 0.987121
0.987182 0.987182 0.987182
0.987274 0.987274 0.987274
0.987152 0.987152 0.987152
0.986755 0.986755 0.986755
0.985809 0.985809 0.985809
0.981781 0.981781 0.981781
0.993713 0.993713 0.993713
0.993713 0.993713 0.993713
0.993591 0.993591 0.993591
0.993317 0.993317 0.993317
0.992615 0.992615 0.992615
0.991882 0.991882 0.991882
0.990936 0.990936 0.990936
0.987060 0.987060 0.987060
0.998291 0.998291 0.998291
0.998230 0.998230 0.998230
0.997955 0.997955 0.997955
0.997314 0.997314 0.997314
0.996429 0.996429 0.996429
0.996216 0.996216 0.996216
0.994995 0.994995 0.994995
0.991455 0.991455 0.991455
0.994629 0.994629 0.994629
0.994903 0.994903 0.994903
0.995026 0.995026 0.995026
0.995392 0.995392 0.995392
0.995789 0.995789 0.995789
0.996094 0.996094 0.996094
0.996246 0.996246 0.996246
0.996185 0.996185 0.996185
0.993927 0.993927 0.993927
0.994263 0.994263 0.994263
0.994385 0.994385 0.994385
0.994629 0.994629 0.994629
0.994934 0.994934 0.994934
0.995026 0.995026 0.995026
0.994965 0.994965 0.994965
0.994720 0.994720 0.994720
0.995422 0.995422 0.995422
0.995422 0.995422 0.995422
0.995392 0.995392 0.995392
0.995483 0.995483 0.995483
0.995544 0.995544 0.995544
0.995727 0.995727 0.995727
0.996094 0.996094 0.996094
0.996429 0.996429 0.996429
0.997070 0.997070 0.997070
0.997040 0.997040 0.997040
0.996918 0.996918 0.996918
0.997070 0.997070 0.997070
0.997131 0.997131 0.997131
0.997345 0.997345 0.997345
0.997650 0.997650 0.997650
0.997803 0.997803 0.997803
0.998047 0.998047 0.998047
0.997925 0.997925 0.997925
0.997864 0.997864 0.997864
0.997925 0.997925 0.997925
0.997986 0.997986 0.997986
0.998047 0.998047 0.998047
0.998108 0.998108 0.998108
0.998718 0.998718 0.998718
0.999420 0.999420 0.999420
0.999451 0.999451 0.999451
0.999451 0.999451 0.999451
0.999542 0.999542 0.999542
0.999573 0.999573 0.999573
0.999695 0.999695 0.999695
0.999725 0.999725 0.999725
0.999695 0.999695 0.999695
1.000000 1.000000 1.000000
1.000000 1.000000 1.000000
1.000000 1.000000 1.000000
1.000000 1.000000 1.000000
1.000000 1.000000 1.000000
1.000000 1.000000 1.000000
1.000000 1.000000 1.000000
1.000000 1.000000 1.000000
1.000000 1.000000 1.000000
1.000000 1.000000 1.000000
1.000000 1.000000 1.000000
1.000000 1.000000 1.000000
1.000000 1.000000 1.000000
1.000000 1.000000 1.000000
1.000000 1.000000 1.000000
1.000000 1.000000 1.000000
1.000000 1.000000 1.000000
1.000000 1.000000 1.000000
1.000000 1.000000 1.000000
1.000000 1.000000 1.000000
1.000000 1.000000 1.000000
1.000000 1.000000 1.000000
1.000000 1.000000 1.000000
1.000000 1.000000 1.000000
1.000000 1.000000 1.000000
1.000000 1.000000 1.000000
1.000000 1.000000 1.000000
1.000000 1.000000 1.000000
1.000000 1.000000 1.000000
1.000000 1.000000 1.000000
1.000000 1.000000 1.000000
1.000000 1.000000 1.000000
1.000000 1.000000 1.000000
1.000000 1.000000 1.000000
1.000000 1.000000 1.000000
1.000000 1.000000 1.000000
1.000000 1.000000 1.000000
1.000000 1.000000 1.000000
1.000000 1.000000 1.000000
1.000000 1.000000 1.000000
1.000000 1.000000 1.000000
1.000000 1.000000 1.000000
1.000000 1.000000 1.000000
1.000000 1.000000 1.000000
1.000000 1.000000 1.000000
1.000000 1.000000 1.000000
1.000000 1.000000 1.000000
1.000000 1.000000 1.000000
1.000000 1.000000 1.000000
1.000000 1.000000 1.000000
1.000000 1.000000 1.000000
1.000000 1.000000 1.000000
1.000000 1.000000 1.000000
1.000000 1.000000 1.000000
1.000000 1.000000 1.000000
1.000000 1.000000 1.000000
1.000000 1.000000 1.000000
1.000000 1.000000 1.000000
1.000000 1.000000 1.000000
1.000000 1.000000 1.000000
1.000000 1.000000 1.000000
1.000000 1.000000 1.000000
1.000000 1.000000 1.000000
1.000000 1.000000 1.000000
1.000000 1.000000 1.000000
1.000000 1.000000 1.000000
1.000000 1.000000 1.000000
1.000000 1.000000 1.000000
1.000000 1.000000 1.000000
1.000000 1.000000 1.000000
1.000000 1.000000 1.000000
1.000000 1.000000 1.000000
1.000000 1.000000 1.000000
1.000000 1.000000 1.000000
1.000000 1.000000 1.000000
1.000000 1.000000 1.000000
1.000000 1.000000 1.000000
1.000000 1.000000 1.000000
1.000000 1.000000 1.000000
1.000000 1.000000 1.000000
