20 Preset/Russian Style/【3】LUT video cho PR-AE-FCPX/Lut Tone (9).cube
# Created by Adobe Lightroom plugin Export LUT (1.24.0)
# www.johnrellis.com/lightroom/exportlut.htm
# Preset: 俄罗斯情绪-素材江湖05
# Color profile: C:\Program Files (x86)\Common Files\Adobe\Color\Profiles\Recommended\VideoHD.icc
LUT_3D_SIZE 5
DOMAIN_MIN 0.000000 0.000000 0.000000
DOMAIN_MAX 0.903226 0.903226 0.903226
0.000000 0.000000 0.000000
0.164797 0.000000 0.000000
0.516167 0.000000 0.000000
0.870878 0.000000 0.000000
1.000000 0.000000 0.000000
0.000000 0.207492 0.038575
0.160281 0.208804 0.011688
0.528038 0.180148 0.000000
0.871427 0.173648 0.000000
1.000000 0.243137 0.000000
0.000000 0.576562 0.000000
0.000000 0.574487 0.000000
0.533074 0.573297 0.000000
0.858610 0.570001 0.000000
1.000000 0.576074 0.000000
0.000000 0.880400 0.202945
0.000000 0.878904 0.194400
0.497414 0.872740 0.149996
0.828946 0.862913 0.000000
1.000000 0.848844 0.000000
0.317235 1.000000 0.526726
0.396704 1.000000 0.524254
0.597009 1.000000 0.509087
0.823606 1.000000 0.484901
1.000000 0.993866 0.431495
0.000000 0.052064 0.223606
0.210330 0.010620 0.218845
0.553124 0.000000 0.185580
0.883757 0.000000 0.136507
1.000000 0.000000 0.000000
0.000000 0.249943 0.240879
0.213962 0.250217 0.232883
0.558556 0.239994 0.205478
0.881041 0.231693 0.133974
1.000000 0.259800 0.000000
0.000000 0.592187 0.257206
0.000000 0.590814 0.250278
0.550164 0.586450 0.219516
0.863035 0.581964 0.138186
1.000000 0.585779 0.000000
0.000000 0.884215 0.343542
0.000000 0.882933 0.339147
0.517021 0.876921 0.318425
0.833951 0.867033 0.271427
1.000000 0.852079 0.174197
0.373083 1.000000 0.585809
0.436927 1.000000 0.583673
0.618708 1.000000 0.575219
0.829038 1.000000 0.553185
1.000000 0.994171 0.509239
0.107881 0.196750 0.546532
0.318700 0.200412 0.543389
0.636042 0.183810 0.534936
0.924804 0.125673 0.495094
1.000000 0.218326 0.449592
0.173770 0.356237 0.555444
0.333715 0.352422 0.551781
0.636835 0.340826 0.539849
0.917266 0.329900 0.499001
1.000000 0.364538 0.460731
0.000000 0.650477 0.578271
0.271031 0.649348 0.573938
0.609827 0.645045 0.559777
0.882780 0.639979 0.535515
1.000000 0.627100 0.489021
0.079866 0.897154 0.622675
0.306310 0.894926 0.621576
0.584955 0.890043 0.613092
0.848692 0.881956 0.594354
1.000000 0.864744 0.560235
0.518364 1.000000 0.739651
0.555383 1.000000 0.738521
0.679286 1.000000 0.732845
0.845518 1.000000 0.719295
1.000000 0.993957 0.692683
0.420539 0.397772 0.837552
0.501305 0.402045 0.836301
0.717525 0.413001 0.829557
0.952361 0.433509 0.813779
1.000000 0.497841 0.784390
0.440284 0.504417 0.835874
0.511437 0.504906 0.834318
0.714015 0.507744 0.828000
0.941680 0.518486 0.812497
1.000000 0.563256 0.787076
0.439124 0.723293 0.831327
0.503960 0.721462 0.828122
0.691829 0.721462 0.822293
0.899016 0.714839 0.806271
1.000000 0.737575 0.804257
0.495552 0.920348 0.839445
0.545098 0.918578 0.838651
0.697902 0.912932 0.837461
0.880827 0.905699 0.833402
1.000000 0.888701 0.820798
0.661494 1.000000 0.872984
0.687251 1.000000 0.874113
0.777707 1.000000 0.879576
0.886900 1.000000 0.880278
0.993744 0.994354 0.868559
0.697597 0.671077 0.984680
0.725704 0.672053 0.983764
0.829007 0.680995 0.981537
0.970947 0.694270 0.976959
1.000000 0.724697 0.960052
0.701198 0.713375 0.980255
0.727810 0.714015 0.979675
0.825101 0.718441 0.977661
0.962585 0.726436 0.973602
1.000000 0.752590 0.958312
0.715053 0.828397 0.974487
0.741176 0.830381 0.973205
0.822110 0.830014 0.971435
0.941100 0.829923 0.968902
1.000000 0.848417 0.959655
0.758236 0.945006 0.977966
0.774807 0.943999 0.977508
0.839414 0.941192 0.976501
0.931060 0.939849 0.974273
1.000000 0.938903 0.966339
0.819821 1.000000 0.974365
0.830808 1.000000 0.974304
0.876646 1.000000 0.975494
0.939055 0.999207 0.978119
0.993591 0.995392 0.982086
