20 Preset/Russian Style/【3】LUT video cho PR-AE-FCPX/Lut Tone (34).cube
# Created by Adobe Lightroom plugin Export LUT (1.24.0)
# www.johnrellis.com/lightroom/exportlut.htm
# Preset: 俄罗斯情绪-素材江湖17
# Color profile: C:\Program Files (x86)\Common Files\Adobe\Color\Profiles\Recommended\VideoHD.icc
LUT_3D_SIZE 5
DOMAIN_MIN 0.000000 0.000000 0.000000
DOMAIN_MAX 0.903226 0.903226 0.903226
0.000000 0.000000 0.000000
0.011719 0.011719 0.011719
0.067384 0.067384 0.067384
0.144381 0.144381 0.144381
0.258610 0.258610 0.258610
0.121462 0.121462 0.121462
0.117464 0.117464 0.117464
0.112184 0.112184 0.112184
0.164218 0.164218 0.164218
0.276738 0.276738 0.276738
0.454292 0.454292 0.454292
0.450904 0.450904 0.450904
0.436530 0.436530 0.436530
0.409033 0.409033 0.409033
0.366827 0.366827 0.366827
0.774136 0.774136 0.774136
0.772641 0.772641 0.772641
0.764736 0.764736 0.764736
0.746761 0.746761 0.746761
0.709682 0.709682 0.709682
0.950866 0.950866 0.950866
0.950011 0.950011 0.950011
0.945769 0.945769 0.945769
0.934783 0.934783 0.934783
0.909545 0.909545 0.909545
0.342321 0.342321 0.342321
0.341772 0.341772 0.341772
0.333928 0.333928 0.333928
0.351843 0.351843 0.351843
0.314794 0.314794 0.314794
0.424781 0.424781 0.424781
0.423651 0.423651 0.423651
0.426551 0.426551 0.426551
0.410132 0.410132 0.410132
0.366552 0.366552 0.366552
0.632136 0.632136 0.632136
0.633234 0.633234 0.633234
0.630579 0.630579 0.630579
0.606104 0.606104 0.606104
0.561669 0.561669 0.561669
0.848814 0.848814 0.848814
0.847898 0.847898 0.847898
0.841917 0.841917 0.841917
0.827390 0.827390 0.827390
0.793820 0.793820 0.793820
0.961944 0.961944 0.961944
0.961944 0.961944 0.961944
0.958648 0.958648 0.958648
0.949493 0.949493 0.949493
0.928496 0.928496 0.928496
0.804868 0.804868 0.804868
0.809018 0.809018 0.809018
0.819181 0.819181 0.819181
0.813291 0.813291 0.813291
0.827237 0.827237 0.827237
0.831418 0.831418 0.831418
0.833310 0.833310 0.833310
0.839200 0.839200 0.839200
0.836576 0.836576 0.836576
0.845396 0.845396 0.845396
0.891356 0.891356 0.891356
0.892241 0.892241 0.892241
0.894133 0.894133 0.894133
0.896147 0.896147 0.896147
0.887541 0.887541 0.887541
0.945098 0.945098 0.945098
0.945495 0.945495 0.945495
0.947265 0.947265 0.947265
0.947845 0.947845 0.947845
0.934966 0.934966 0.934966
0.983673 0.983673 0.983673
0.983734 0.983734 0.983734
0.984070 0.984070 0.984070
0.979828 0.979828 0.979828
0.968139 0.968139 0.968139
0.974090 0.974090 0.974090
0.974670 0.974670 0.974670
0.976471 0.976471 0.976471
0.978393 0.978393 0.978393
0.980560 0.980560 0.980560
0.976959 0.976959 0.976959
0.977325 0.977325 0.977325
0.978637 0.978637 0.978637
0.980102 0.980102 0.980102
0.981781 0.981781 0.981781
0.983185 0.983185 0.983185
0.982727 0.982727 0.982727
0.983215 0.983215 0.983215
0.982330 0.982330 0.982330
0.985351 0.985351 0.985351
0.992767 0.992767 0.992767
0.992828 0.992828 0.992828
0.992920 0.992920 0.992920
0.992401 0.992401 0.992401
0.988922 0.988922 0.988922
0.999908 0.999908 0.999908
0.999756 0.999756 0.999756
0.999054 0.999054 0.999054
0.997955 0.997955 0.997955
0.994049 0.994049 0.994049
1.000000 1.000000 1.000000
1.000000 1.000000 1.000000
1.000000 1.000000 1.000000
1.000000 1.000000 1.000000
1.000000 1.000000 1.000000
1.000000 1.000000 1.000000
1.000000 1.000000 1.000000
1.000000 1.000000 1.000000
1.000000 1.000000 1.000000
1.000000 1.000000 1.000000
1.000000 1.000000 1.000000
1.000000 1.000000 1.000000
1.000000 1.000000 1.000000
1.000000 1.000000 1.000000
1.000000 1.000000 1.000000
1.000000 1.000000 1.000000
1.000000 1.000000 1.000000
1.000000 1.000000 1.000000
1.000000 1.000000 1.000000
1.000000 1.000000 1.000000
1.000000 1.000000 1.000000
1.000000 1.000000 1.000000
1.000000 1.000000 1.000000
1.000000 1.000000 1.000000
1.000000 1.000000 1.000000
