20 Preset/Russian Style/【3】LUT video cho PR-AE-FCPX/Lut Tone (11).cube
# Created by Adobe Lightroom plugin Export LUT (1.24.0)
# www.johnrellis.com/lightroom/exportlut.htm
# Preset: 俄罗斯情绪-素材江湖06
# Color profile: C:\Program Files (x86)\Common Files\Adobe\Color\Profiles\Recommended\VideoHD.icc
LUT_3D_SIZE 5
DOMAIN_MIN 0.000000 0.000000 0.000000
DOMAIN_MAX 0.903226 0.903226 0.903226
0.000000 0.000000 0.045380
0.231876 0.063050 0.034791
0.760220 0.181735 0.000000
1.000000 0.315251 0.000000
1.000000 0.368231 0.000000
0.000000 0.155673 0.139406
0.147372 0.208255 0.143160
0.683986 0.314244 0.000000
1.000000 0.400977 0.000000
1.000000 0.426154 0.000000
0.092653 0.399481 0.318395
0.227939 0.448707 0.347875
0.529747 0.556023 0.349706
0.950347 0.627802 0.262791
1.000000 0.606806 0.229770
0.320134 0.633814 0.505394
0.375494 0.657160 0.523919
0.548760 0.734829 0.580835
0.760891 0.797665 0.565545
1.000000 0.827420 0.549950
0.555993 0.841337 0.706966
0.590600 0.850675 0.720394
0.702358 0.881102 0.766995
0.822507 0.921233 0.817929
0.936339 0.956176 0.838437
0.000000 0.073548 0.126497
0.188754 0.072389 0.176120
0.744900 0.000000 0.142885
1.000000 0.276402 0.000000
1.000000 0.354925 0.000000
0.000000 0.176089 0.185916
0.206058 0.244572 0.244724
0.689204 0.304753 0.207004
1.000000 0.380987 0.122011
1.000000 0.417914 0.000000
0.179812 0.396155 0.341863
0.271122 0.443671 0.375555
0.532525 0.554192 0.401892
0.937163 0.622004 0.342535
1.000000 0.611200 0.319371
0.346502 0.630060 0.517723
0.396887 0.653681 0.536919
0.569757 0.739254 0.605280
0.766232 0.800259 0.595178
1.000000 0.830137 0.583001
0.555779 0.837736 0.709102
0.589532 0.846921 0.721981
0.714137 0.885191 0.778866
0.834104 0.925780 0.832395
0.941802 0.959686 0.855222
0.106203 0.155184 0.267491
0.194919 0.162905 0.288670
0.631373 0.132998 0.441749
1.000000 0.000000 0.418341
1.000000 0.348028 0.387060
0.197086 0.257969 0.330663
0.268833 0.275944 0.361578
0.649470 0.307439 0.476905
1.000000 0.334142 0.449561
1.000000 0.433570 0.420233
0.267002 0.406806 0.407965
0.350530 0.446906 0.445380
0.608698 0.613001 0.583398
0.943938 0.646113 0.553155
1.000000 0.632929 0.518730
0.407111 0.612879 0.550317
0.444556 0.632898 0.567529
0.606928 0.730770 0.654566
0.790707 0.814694 0.693263
1.000000 0.839322 0.682765
0.528130 0.815000 0.705074
0.564477 0.826261 0.718990
0.695094 0.869749 0.776638
0.847562 0.927092 0.855772
0.946715 0.961028 0.880003
0.279881 0.253269 0.456397
0.324498 0.255528 0.466163
0.504021 0.260563 0.516197
0.936278 0.332799 0.670985
1.000000 0.468025 0.667140
0.316014 0.323919 0.488045
0.353704 0.326024 0.496162
0.514946 0.336065 0.537072
0.925719 0.420600 0.681086
1.000000 0.528771 0.681178
0.372595 0.457465 0.522057
0.416632 0.477302 0.540154
0.594842 0.578332 0.641077
0.897154 0.644434 0.733181
1.000000 0.697353 0.737942
0.440009 0.604547 0.595575
0.475746 0.621118 0.610986
0.620203 0.699428 0.685176
0.835172 0.842679 0.817105
1.000000 0.851438 0.804135
0.538506 0.784970 0.721218
0.561639 0.794583 0.730800
0.658412 0.836820 0.774350
0.851255 0.921599 0.877745
0.960906 0.968597 0.928283
0.485389 0.414862 0.690852
0.506432 0.411261 0.690547
0.597070 0.401709 0.697292
0.813291 0.407935 0.755856
1.000000 0.554894 0.825589
0.484810 0.446204 0.688533
0.505364 0.443793 0.689601
0.592706 0.436439 0.698085
0.802182 0.447578 0.755337
1.000000 0.588281 0.829343
0.497322 0.545556 0.693904
0.524895 0.556054 0.704799
0.599878 0.561608 0.721401
0.772274 0.578332 0.766567
1.000000 0.710384 0.856046
0.495766 0.644282 0.704311
0.514427 0.648676 0.708431
0.601770 0.679438 0.736904
0.795651 0.785855 0.835752
0.997650 0.868833 0.912963
0.554864 0.792050 0.780240
0.575433 0.798032 0.786069
0.669703 0.831601 0.819486
0.837491 0.901213 0.891508
0.979004 0.980163 0.976440
