20 Preset/Russian Style/【3】LUT video cho PR-AE-FCPX/Lut Tone (13).cube
# Created by Adobe Lightroom plugin Export LUT (1.24.0)
# www.johnrellis.com/lightroom/exportlut.htm
# Preset: 俄罗斯情绪-素材江湖07
# Color profile: C:\Program Files (x86)\Common Files\Adobe\Color\Profiles\Recommended\VideoHD.icc
LUT_3D_SIZE 8
DOMAIN_MIN 0.000000 0.000000 0.000000
DOMAIN_MAX 0.903226 0.903226 0.903226
0.000000 0.000000 0.000000
0.094301 0.034150 0.010132
0.265721 0.005768 0.030854
0.489967 0.000000 0.039918
0.688136 0.000000 0.060304
0.858244 0.000000 0.098909
0.994385 0.000000 0.133486
1.000000 0.000000 0.175448
0.000000 0.138064 0.015076
0.031739 0.136385 0.028351
0.251896 0.131258 0.044373
0.479805 0.017243 0.048585
0.680720 0.000000 0.075837
0.852384 0.000000 0.106477
0.990021 0.000000 0.140261
1.000000 0.000000 0.181918
0.000000 0.315221 0.000000
0.000000 0.314275 0.000000
0.200473 0.301518 0.031952
0.439338 0.297734 0.087770
0.650538 0.270542 0.109285
0.828397 0.234806 0.135256
0.971954 0.203555 0.168551
1.000000 0.210269 0.210086
0.000000 0.508507 0.000000
0.000000 0.507652 0.000000
0.000000 0.503624 0.000000
0.384436 0.485084 0.083711
0.598596 0.472297 0.158053
0.784421 0.449500 0.191165
0.937438 0.432319 0.225925
1.000000 0.433112 0.264958
0.000000 0.669032 0.000000
0.000000 0.668269 0.000000
0.000000 0.665156 0.000000
0.291966 0.656825 0.114809
0.548516 0.636255 0.200259
0.728664 0.623011 0.270878
0.891264 0.612390 0.298131
1.000000 0.605127 0.333654
0.000000 0.799252 0.193637
0.000000 0.798764 0.195926
0.000000 0.796658 0.205692
0.241001 0.792233 0.223667
0.501274 0.781674 0.260044
0.691707 0.764218 0.311131
0.846250 0.756924 0.367407
0.982361 0.762997 0.405615
0.000000 0.914641 0.313756
0.000000 0.914305 0.315068
0.000000 0.912810 0.320500
0.301579 0.909850 0.331640
0.498268 0.905089 0.348302
0.677516 0.894347 0.383734
0.824552 0.881590 0.428687
0.942596 0.876402 0.484077
0.298039 0.995880 0.458717
0.316838 0.995605 0.459693
0.384253 0.994293 0.463935
0.484840 0.991699 0.472755
0.599695 0.987701 0.486580
0.718685 0.982086 0.506798
0.842374 0.972717 0.543938
0.940948 0.964080 0.588434
0.000000 0.041688 0.117189
0.103334 0.051331 0.115450
0.279973 0.027985 0.114870
0.495979 0.000000 0.127016
0.688045 0.000000 0.137819
0.856748 0.000000 0.154757
0.992218 0.000000 0.179660
1.000000 0.000000 0.214145
0.000000 0.147219 0.115663
0.082551 0.149203 0.119844
0.268956 0.153292 0.126253
0.487190 0.120119 0.131991
0.681605 0.000000 0.142580
0.851377 0.000000 0.160311
0.988128 0.000000 0.185428
1.000000 0.000000 0.220005
0.000000 0.320867 0.112490
0.000000 0.319982 0.115999
0.226932 0.309789 0.133700
0.450904 0.309026 0.149660
0.654444 0.287846 0.163058
0.828977 0.259861 0.182254
0.970794 0.238895 0.209232
1.000000 0.248814 0.245243
0.000000 0.510491 0.080385
0.000000 0.509575 0.088136
0.000000 0.505608 0.106142
0.398627 0.488319 0.156741
0.604456 0.477638 0.203922
0.786069 0.458259 0.231022
0.937011 0.444617 0.259373
1.000000 0.445594 0.292241
0.000000 0.669520 0.132967
0.000000 0.668818 0.136843
0.000000 0.665675 0.151705
0.319066 0.657801 0.181552
0.557916 0.637720 0.240116
0.732296 0.625544 0.297856
0.892546 0.616297 0.321782
1.000000 0.609949 0.353613
0.000000 0.799313 0.234806
0.000000 0.798825 0.236790
0.000000 0.796750 0.244327
0.276493 0.792386 0.258518
0.512535 0.782345 0.288029
0.696986 0.765286 0.333562
0.848936 0.759091 0.385840
0.982879 0.765164 0.421607
0.000000 0.914488 0.336797
0.000000 0.914153 0.338048
0.000000 0.912718 0.343023
0.327276 0.909728 0.353185
0.510735 0.905058 0.368688
0.683589 0.894652 0.401343
0.827634 0.882139 0.444160
0.943664 0.877317 0.497597
0.322850 0.995514 0.473243
0.339971 0.995209 0.474189
0.401862 0.993927 0.478279
0.497108 0.991363 0.486671
0.607904 0.987427 0.499825
0.723690 0.981964 0.519158
0.845121 0.972717 0.555291
0.942016 0.964233 0.598566
0.000000 0.098787 0.276524
0.000000 0.099947 0.274205
0.288609 0.090272 0.265782
0.510277 0.000000 0.261479
0.699031 0.000000 0.260960
0.861509 0.000000 0.280156
0.988678 0.062623 0.302495
1.000000 0.152834 0.326574
0.000000 0.185000 0.275242
0.000000 0.170901 0.274571
0.293706 0.169375 0.267765
0.509514 0.151858 0.265812
0.696651 0.129763 0.268040
0.855161 0.150332 0.287633
0.984863 0.168582 0.306676
1.000000 0.206149 0.330541
0.000000 0.334112 0.263523
0.000000 0.335241 0.265019
0.286320 0.333501 0.273075
0.489326 0.333928 0.281743
0.671687 0.329595 0.291814
0.833890 0.323613 0.306004
0.968688 0.322911 0.323949
1.000000 0.335027 0.346777
0.000000 0.517601 0.257572
0.000000 0.516594 0.265080
0.232029 0.512230 0.283391
0.445960 0.499001 0.301457
0.625513 0.495338 0.325200
0.794186 0.485542 0.339727
0.938445 0.479530 0.355688
1.000000 0.482399 0.376989
0.000000 0.671809 0.299931
0.000000 0.670985 0.302739
0.148165 0.667933 0.307927
0.395514 0.661799 0.318090
0.588891 0.644099 0.347356
0.746426 0.635370 0.382147
0.898222 0.630243 0.399512
1.000000 0.629084 0.423194
0.000000 0.799985 0.346166
0.000000 0.799557 0.347112
0.113497 0.797574 0.351659
0.370550 0.793484 0.360235
0.551263 0.785245 0.377539
0.717128 0.769467 0.410834
0.859220 0.767910 0.453010
0.985046 0.773495 0.481239
0.000000 0.913970 0.416968
0.000000 0.913634 0.417884
0.249668 0.912200 0.421698
0.408148 0.909392 0.429480
0.555535 0.905028 0.441688
0.706813 0.896025 0.466651
0.839536 0.884428 0.502586
0.948363 0.881804 0.549706
0.400305 0.994110 0.527459
0.412848 0.993805 0.528252
0.461006 0.992554 0.531884
0.540734 0.990082 0.539117
0.638697 0.986328 0.550561
0.742550 0.981415 0.566613
0.855344 0.972778 0.598657
0.945983 0.964843 0.638087
0.000000 0.138003 0.464515
0.000000 0.140719 0.462654
0.264317 0.140352 0.455360
0.511833 0.103120 0.445014
0.704067 0.105989 0.424720
0.860075 0.154482 0.419135
0.987793 0.220615 0.429114
1.000000 0.289189 0.451911
0.000000 0.200748 0.461646
0.000000 0.201968 0.460121
0.279088 0.201633 0.454597
0.514183 0.184329 0.445319
0.700435 0.197574 0.427985
0.856901 0.221988 0.424872
0.984955 0.265110 0.434668
1.000000 0.320684 0.457465
0.000000 0.374395 0.455146
0.000000 0.375128 0.454444
0.301457 0.355688 0.453162
0.514275 0.352819 0.445808
0.690669 0.359594 0.441108
0.845853 0.366369 0.442420
0.973999 0.386206 0.454475
1.000000 0.409400 0.470954
0.000000 0.525841 0.432746
0.000000 0.525444 0.433997
0.301488 0.523949 0.438972
0.502586 0.517845 0.450629
0.663935 0.518578 0.459266
0.813382 0.518578 0.466743
0.945495 0.520134 0.477455
1.000000 0.527977 0.492317
0.000000 0.678889 0.428199
0.000000 0.678126 0.431495
0.298741 0.674830 0.445228
0.482338 0.668574 0.463447
0.632807 0.656062 0.477729
0.770596 0.652522 0.497993
0.908934 0.651911 0.511192
1.000000 0.658350 0.527123
0.101137 0.803098 0.464179
0.188144 0.802548 0.467659
0.344701 0.800168 0.482124
0.477546 0.796201 0.491585
0.608637 0.790799 0.500389
0.748745 0.777554 0.523369
0.871305 0.778836 0.555596
0.988983 0.787320 0.574701
0.308873 0.914122 0.525322
0.343999 0.913329 0.531212
0.407660 0.912078 0.533898
0.505425 0.909483 0.539452
0.618860 0.905638 0.548272
0.741390 0.898924 0.564569
0.857786 0.888853 0.592584
0.957031 0.891051 0.632441
0.489906 0.992157 0.611719
0.498970 0.991913 0.612390
0.535668 0.990723 0.615259
0.599756 0.988403 0.621210
0.682216 0.984863 0.630610
0.772641 0.980407 0.643946
0.870573 0.973114 0.669368
0.951690 0.966033 0.703334
0.000000 0.192508 0.629358
0.000000 0.195041 0.627985
0.204105 0.200626 0.622583
0.478828 0.196475 0.613886
0.696132 0.187228 0.603113
0.860258 0.231571 0.581262
0.980926 0.288212 0.568078
1.000000 0.343511 0.575372
0.000000 0.243778 0.626520
0.000000 0.244907 0.625391
0.237980 0.248447 0.621027
0.487221 0.247501 0.612970
0.696559 0.244907 0.602777
0.856962 0.276921 0.582574
0.978515 0.320317 0.571374
1.000000 0.368841 0.579400
0.160952 0.416266 0.618006
0.192996 0.407935 0.617914
0.307103 0.384680 0.616815
0.507774 0.384497 0.610559
0.695399 0.381903 0.602319
0.844846 0.398901 0.587762
0.969024 0.421546 0.584344
1.000000 0.454597 0.595361
0.075074 0.555627 0.612757
0.187655 0.555474 0.612360
0.357977 0.554528 0.610895
0.523766 0.540246 0.609430
0.690120 0.532769 0.604089
0.828336 0.541863 0.600885
0.953643 0.552270 0.606928
1.000000 0.570001 0.620172
0.120424 0.684596 0.588922
0.200320 0.684291 0.589654
0.358282 0.682765 0.592767
0.523919 0.679713 0.599145
0.679469 0.672908 0.612329
0.802579 0.673579 0.621881
0.926238 0.677302 0.629755
1.000000 0.684565 0.640955
0.249332 0.809934 0.584863
0.287449 0.809354 0.587030
0.399908 0.807034 0.595666
0.538415 0.802823 0.611688
0.669123 0.797665 0.629175
0.782681 0.789181 0.642298
0.890898 0.793301 0.662928
0.996063 0.800961 0.678126
0.349767 0.918364 0.616938
0.371160 0.917967 0.618891
0.445869 0.916289 0.626825
0.565789 0.912535 0.647181
0.674586 0.908263 0.661982
0.774228 0.904082 0.671748
0.877379 0.895262 0.694270
0.964691 0.901274 0.729213
0.478645 0.994751 0.670893
0.496559 0.994110 0.675044
0.563470 0.991455 0.692287
0.653773 0.987182 0.717220
0.724636 0.983856 0.724819
0.803433 0.979767 0.735714
0.886351 0.974060 0.754147
0.957519 0.967834 0.781888
0.000000 0.258183 0.773739
0.000000 0.260563 0.772763
0.162783 0.268498 0.768887
0.447974 0.279271 0.762020
0.665156 0.285863 0.752987
0.845396 0.293889 0.743557
0.979400 0.337316 0.723903
1.000000 0.406012 0.714931
0.000000 0.300542 0.771267
0.000000 0.302312 0.770443
0.223636 0.308782 0.766964
0.462531 0.316564 0.760769
0.669093 0.320562 0.752377
0.845029 0.325963 0.743435
0.976837 0.364813 0.724849
1.000000 0.426337 0.717525
0.129702 0.429938 0.764523
0.166293 0.423987 0.764370
0.319341 0.421332 0.762173
0.496590 0.423316 0.757443
0.679072 0.424109 0.750668
0.842374 0.427771 0.743191
0.966827 0.456123 0.729152
1.000000 0.498939 0.728115
0.306004 0.586236 0.756863
0.337865 0.586175 0.756527
0.441840 0.585687 0.754879
0.529808 0.558068 0.754757
0.688746 0.558282 0.749874
0.835386 0.560449 0.744472
0.950378 0.578485 0.738949
1.000000 0.600977 0.745571
0.299565 0.709560 0.755154
0.331151 0.709346 0.755001
0.431769 0.708248 0.754360
0.564660 0.705409 0.753414
0.701076 0.695216 0.753017
0.826230 0.687098 0.750576
0.936614 0.695949 0.754788
1.000000 0.707546 0.764706
0.357671 0.816648 0.735256
0.380377 0.816281 0.735805
0.458076 0.815000 0.738247
0.569055 0.812711 0.742947
0.691432 0.809934 0.750362
0.815122 0.805081 0.764675
0.915373 0.807919 0.775692
1.000000 0.814847 0.785672
0.414435 0.923644 0.739254
0.431006 0.923278 0.740414
0.492042 0.921782 0.745266
0.588586 0.918883 0.755001
0.701778 0.914702 0.770535
0.810758 0.909911 0.789853
0.897337 0.904326 0.803861
0.972381 0.910369 0.826200
0.514549 0.995880 0.770321
0.525719 0.995514 0.771633
0.569970 0.993805 0.777310
0.644648 0.990539 0.788602
0.747372 0.984924 0.813077
0.835813 0.979583 0.835142
0.903044 0.975677 0.846189
0.963348 0.970520 0.866453
0.000000 0.346197 0.906706
0.000000 0.348211 0.906218
0.241764 0.354864 0.903899
0.458808 0.364416 0.899687
0.650294 0.372442 0.893919
0.828305 0.380743 0.887114
0.971862 0.399939 0.880461
1.000000 0.452644 0.861326
0.000000 0.376867 0.904540
0.000000 0.378271 0.904204
0.279606 0.382940 0.902068
0.471595 0.389532 0.898192
0.655177 0.395544 0.892699
0.829221 0.402808 0.886076
0.970123 0.420539 0.879576
1.000000 0.469551 0.861173
0.199832 0.468177 0.900359
0.241337 0.468788 0.899992
0.359991 0.470802 0.898222
0.510338 0.474006 0.895079
0.673365 0.477790 0.890440
0.834379 0.483284 0.884855
0.965515 0.497505 0.879606
1.000000 0.535485 0.864775
0.438422 0.627680 0.891966
0.445716 0.623926 0.892027
0.475166 0.607843 0.892363
0.557855 0.592676 0.891691
0.696193 0.594110 0.888396
0.837858 0.596857 0.884459
0.956573 0.604883 0.880797
1.000000 0.630915 0.871366
0.441779 0.741634 0.889158
0.458625 0.741665 0.888884
0.521630 0.741268 0.888212
0.622797 0.735927 0.887663
0.706661 0.710231 0.888762
0.833463 0.710231 0.886168
0.943603 0.714229 0.883757
1.000000 0.733516 0.881132
0.442329 0.848203 0.890379
0.458015 0.847837 0.890379
0.516228 0.846036 0.890440
0.608118 0.842344 0.890593
0.717800 0.836606 0.890929
0.830686 0.826230 0.892119
0.929351 0.823117 0.891691
1.000000 0.835477 0.896544
0.495674 0.930083 0.876707
0.507713 0.929808 0.877134
0.554376 0.928527 0.878599
0.632563 0.926146 0.881651
0.728328 0.922850 0.886595
0.827787 0.919646 0.893950
0.918364 0.916808 0.906340
0.981750 0.920348 0.915526
0.584009 0.995697 0.880858
0.592950 0.995361 0.881590
0.629175 0.993866 0.884886
0.691432 0.990936 0.891142
0.770291 0.986694 0.900786
0.852964 0.981750 0.914244
0.925109 0.977264 0.930846
0.970001 0.974395 0.940826
0.280552 0.450263 1.000000
0.309178 0.451301 1.000000
0.403204 0.455543 0.999725
0.536004 0.462654 0.997681
0.685298 0.471901 0.994690
0.834714 0.484047 0.990906
0.964691 0.503746 0.986877
1.000000 0.533776 0.983093
0.310826 0.470619 0.999908
0.335729 0.471626 0.999695
0.420722 0.474952 0.998657
0.546441 0.481025 0.996735
0.690791 0.489265 0.993835
0.836667 0.500664 0.990204
0.964263 0.518608 0.986297
1.000000 0.546715 0.982635
0.392706 0.541314 0.996277
0.410468 0.541863 0.996063
0.476295 0.543938 0.995178
0.583093 0.548363 0.993622
0.710964 0.553948 0.991150
0.843778 0.561883 0.988006
0.963104 0.575250 0.984680
1.000000 0.597406 0.981567
0.513237 0.658717 0.989624
0.518547 0.655787 0.989807
0.540612 0.643336 0.990387
0.626429 0.645197 0.989227
0.734676 0.647974 0.987396
0.850919 0.652430 0.985077
0.959136 0.660853 0.982513
1.000000 0.676539 0.980194
0.595880 0.783627 0.982330
0.605982 0.783383 0.982300
0.644648 0.781827 0.982025
0.686854 0.766629 0.983032
0.748531 0.747463 0.984009
0.851316 0.749294 0.982361
0.950042 0.754238 0.980560
1.000000 0.765499 0.979004
0.591669 0.873899 0.979309
0.600336 0.873594 0.979248
0.635248 0.872465 0.979095
0.696895 0.870481 0.978882
0.779629 0.864134 0.978912
0.848875 0.845365 0.980682
0.937621 0.849027 0.979644
1.000000 0.857206 0.978790
0.611505 0.952331 0.978454
0.619348 0.951965 0.978454
0.651637 0.950439 0.978485
0.708614 0.947478 0.978607
0.782315 0.943359 0.978820
0.860960 0.938598 0.979126
0.931823 0.931456 0.980041
0.985626 0.933471 0.979980
0.681422 0.996338 0.971221
0.687587 0.996002 0.971344
0.712825 0.994629 0.971862
0.758541 0.992035 0.972930
0.818265 0.988373 0.974609
0.882292 0.984344 0.977020
0.940215 0.981048 0.980285
0.979522 0.979980 0.984894
