20 Preset/Russian Style/【3】LUT video cho PR-AE-FCPX/Lut Tone (27).cube
# Created by Adobe Lightroom plugin Export LUT (1.24.0)
# www.johnrellis.com/lightroom/exportlut.htm
# Preset: 俄罗斯情绪-素材江湖14
# Color profile: C:\Program Files (x86)\Common Files\Adobe\Color\Profiles\Recommended\VideoHD.icc
LUT_3D_SIZE 32
DOMAIN_MIN 0.0 0.0 0.0
DOMAIN_MAX 1.0 1.0 1.0
0.013947 0.008362 0.004242
0.013947 0.008362 0.004242
0.040772 0.006439 0.005097
0.086610 0.007385 0.006226
0.112703 0.011963 0.006348
0.144930 0.016175 0.008667
0.183444 0.013031 0.010132
0.226658 0.000000 0.011902
0.275303 0.000000 0.012024
0.329931 0.000000 0.011231
0.392370 0.000000 0.007935
0.462531 0.000000 0.000000
0.540246 0.000000 0.000000
0.621393 0.000000 0.000000
0.698634 0.000000 0.000000
0.769284 0.000000 0.000000
0.833158 0.000000 0.000000
0.890715 0.000000 0.000000
0.941741 0.000000 0.000000
0.986725 0.021942 0.000000
1.000000 0.133730 0.000000
1.000000 0.179263 0.000000
1.000000 0.213413 0.000000
1.000000 0.242863 0.000000
1.000000 0.268498 0.000000
1.000000 0.291844 0.000000
1.000000 0.313481 0.000000
1.000000 0.333623 0.000000
1.000000 0.352819 0.000000
1.000000 0.371740 0.000000
1.000000 0.390631 0.109743
1.000000 0.410224 0.155856
0.014923 0.009339 0.005219
0.014923 0.009339 0.005219
0.042298 0.009583 0.005768
0.086061 0.011963 0.005646
0.112856 0.016327 0.007996
0.144961 0.021759 0.009033
0.183383 0.016419 0.010834
0.226596 0.001373 0.012604
0.275486 0.000000 0.013672
0.330175 0.000000 0.011566
0.392432 0.000000 0.009277
0.462562 0.000000 0.001190
0.540215 0.000000 0.000000
0.621485 0.000000 0.000000
0.698421 0.000000 0.000000
0.769284 0.000000 0.000000
0.833097 0.000000 0.000000
0.890715 0.000000 0.000000
0.941650 0.000000 0.000000
0.986603 0.039765 0.000000
1.000000 0.138857 0.000000
1.000000 0.181796 0.000000
1.000000 0.215854 0.000000
1.000000 0.244572 0.000000
1.000000 0.270237 0.000000
1.000000 0.293156 0.000000
1.000000 0.314336 0.000000
1.000000 0.334630 0.000000
1.000000 0.353674 0.000000
1.000000 0.372503 0.000000
1.000000 0.391333 0.110201
1.000000 0.410834 0.156161
0.018402 0.023407 0.007752
0.022644 0.025116 0.008545
0.043336 0.027253 0.009003
0.085481 0.029847 0.008850
0.112947 0.035218 0.011078
0.145693 0.037995 0.012390
0.184451 0.032227 0.014160
0.227390 0.017182 0.015930
0.275975 0.000000 0.016724
0.330541 0.000000 0.015290
0.392676 0.000000 0.011261
0.462989 0.000000 0.002228
0.540459 0.000000 0.000000
0.621210 0.000000 0.000000
0.698360 0.000000 0.000000
0.768917 0.000000 0.000000
0.832700 0.000000 0.000000
0.890074 0.000000 0.000000
0.941009 0.000000 0.000000
0.985992 0.101534 0.000000
1.000000 0.155489 0.000000
1.000000 0.194095 0.000000
1.000000 0.225193 0.000000
1.000000 0.252110 0.000000
1.000000 0.276463 0.000000
1.000000 0.298436 0.000000
1.000000 0.319310 0.000000
1.000000 0.338811 0.000000
1.000000 0.357580 0.000000
1.000000 0.375982 0.008453
1.000000 0.394324 0.112795
1.000000 0.413672 0.158328
0.035462 0.050172 0.019562
0.038453 0.050904 0.020539
0.055177 0.053498 0.020996
0.084962 0.058625 0.020752
0.113222 0.068360 0.020081
0.147433 0.070253 0.020264
0.186191 0.065248 0.020722
0.228489 0.053803 0.022034
0.276951 0.035126 0.021881
0.331273 0.005676 0.019562
0.393622 0.000000 0.015259
0.463172 0.000000 0.005737
0.540917 0.000000 0.000000
0.621271 0.000000 0.000000
0.697871 0.000000 0.000000
0.768215 0.000000 0.000000
0.831876 0.000000 0.000000
0.888823 0.000000 0.000000
0.939818 0.095460 0.000000
0.984710 0.146944 0.000000
1.000000 0.184085 0.000000
1.000000 0.215396 0.000000
1.000000 0.242344 0.000000
1.000000 0.266484 0.000000
1.000000 0.288579 0.000000
1.000000 0.309300 0.000000
1.000000 0.328771 0.000000
1.000000 0.347204 0.000000
1.000000 0.364935 0.000000
1.000000 0.382574 0.023865
1.000000 0.400458 0.118135
1.000000 0.419287 0.162356
0.049928 0.086519 0.041901
0.052186 0.087770 0.042695
0.065919 0.089357 0.044160
0.089113 0.091798 0.044923
0.110079 0.096407 0.045289
0.146151 0.101411 0.040223
0.186954 0.101930 0.033906
0.229679 0.100221 0.033143
0.277836 0.096223 0.032074
0.332433 0.089693 0.029175
0.394202 0.070680 0.021790
0.464118 0.034638 0.009308
0.541039 0.000000 0.000000
0.621271 0.000000 0.000000
0.697200 0.000000 0.000000
0.766751 0.019562 0.000000
0.830350 0.092134 0.000000
0.886931 0.129854 0.000000
0.937743 0.162966 0.000000
0.982757 0.193118 0.000000
1.000000 0.220310 0.000000
1.000000 0.244724 0.000000
1.000000 0.267002 0.000000
1.000000 0.287449 0.000000
1.000000 0.306737 0.000000
1.000000 0.325292 0.000000
1.000000 0.342840 0.000000
1.000000 0.359869 0.000000
1.000000 0.376379 0.000000
1.000000 0.393042 0.049195
1.000000 0.409979 0.126009
1.000000 0.428077 0.168856
0.054261 0.108736 0.075929
0.056794 0.109316 0.075624
0.068818 0.111116 0.077882
0.088808 0.113680 0.079011
0.107546 0.118807 0.079500
0.138277 0.125551 0.078462
0.180758 0.132723 0.070649
0.227634 0.134463 0.056306
0.277928 0.134340 0.047669
0.332769 0.134218 0.042298
0.394720 0.132967 0.031830
0.464607 0.131411 0.014252
0.541283 0.131624 0.000000
0.620569 0.135805 0.000000
0.695827 0.145357 0.000000
0.765225 0.159579 0.000000
0.827665 0.177523 0.000000
0.884245 0.197726 0.000000
0.935058 0.218784 0.000000
0.980041 0.239780 0.000000
1.000000 0.260105 0.000000
1.000000 0.279179 0.000000
1.000000 0.296757 0.000000
1.000000 0.313787 0.000000
1.000000 0.330053 0.000000
1.000000 0.346166 0.000000
1.000000 0.361547 0.000000
1.000000 0.376654 0.000000
1.000000 0.391821 0.000000
1.000000 0.407080 0.084077
1.000000 0.422950 0.136812
1.000000 0.440040 0.177981
0.045441 0.133761 0.096345
0.048981 0.134401 0.096559
0.058839 0.136538 0.097200
0.083772 0.139376 0.097536
0.104524 0.143496 0.098543
0.131838 0.150851 0.097963
0.169162 0.160403 0.097566
0.219516 0.171054 0.092103
0.272587 0.175448 0.080385
0.331609 0.178592 0.057740
0.394873 0.181918 0.042908
0.464698 0.187045 0.022766
0.541161 0.193820 0.000000
0.619623 0.203281 0.000000
0.693996 0.214328 0.000000
0.762509 0.226932 0.000000
0.824369 0.240757 0.000000
0.880797 0.255711 0.000000
0.931426 0.271550 0.000000
0.976471 0.286961 0.000000
1.000000 0.302251 0.000000
1.000000 0.316564 0.000000
1.000000 0.330449 0.000000
1.000000 0.344182 0.000000
1.000000 0.357641 0.000000
1.000000 0.371130 0.000000
1.000000 0.384253 0.000000
1.000000 0.397436 0.000000
1.000000 0.410956 0.000000
1.000000 0.424689 0.104982
1.000000 0.439307 0.150240
1.000000 0.455329 0.189670
0.027375 0.162661 0.113252
0.029877 0.163333 0.113680
0.044038 0.164920 0.113863
0.071046 0.167819 0.114290
0.099245 0.172091 0.115114
0.125948 0.178775 0.115999
0.160159 0.188846 0.115785
0.204776 0.201205 0.115175
0.262577 0.216495 0.109285
0.323125 0.224582 0.097475
0.390753 0.232242 0.077974
0.463905 0.240452 0.036652
0.540520 0.250828 0.000000
0.617762 0.262852 0.000000
0.691341 0.274815 0.000000
0.758480 0.286320 0.000000
0.820005 0.298131 0.000000
0.876402 0.309972 0.000000
0.927153 0.322057 0.000000
0.972198 0.333745 0.000000
1.000000 0.345159 0.000000
1.000000 0.355962 0.000000
1.000000 0.366583 0.000000
1.000000 0.377264 0.000000
1.000000 0.388190 0.000000
1.000000 0.399237 0.000000
1.000000 0.410224 0.000000
1.000000 0.421393 0.000000
1.000000 0.433021 0.052735
1.000000 0.445441 0.125032
1.000000 0.458595 0.165957
1.000000 0.473487 0.203922
0.000000 0.195315 0.131411
0.000824 0.196109 0.131960
0.014252 0.197482 0.132082
0.044099 0.200259 0.132540
0.089631 0.204685 0.133181
0.118959 0.211154 0.134340
0.152407 0.220645 0.134615
0.194583 0.233494 0.134157
0.246281 0.249149 0.132692
0.312932 0.269322 0.125429
0.381933 0.281804 0.109590
0.457221 0.294133 0.087312
0.537865 0.307134 0.015137
0.615351 0.319951 0.000000
0.687404 0.331792 0.000000
0.753933 0.342412 0.000000
0.815122 0.352422 0.000000
0.871397 0.361975 0.000000
0.922087 0.371130 0.000000
0.967102 0.380102 0.000000
1.000000 0.388495 0.000000
1.000000 0.396521 0.000000
1.000000 0.404303 0.000000
1.000000 0.412512 0.000000
1.000000 0.421057 0.000000
1.000000 0.429725 0.000000
1.000000 0.438666 0.000000
1.000000 0.448188 0.000000
1.000000 0.458106 0.102205
1.000000 0.468788 0.146426
1.000000 0.480720 0.184176
1.000000 0.494301 0.220829
0.000000 0.232059 0.149477
0.000000 0.232609 0.149538
0.000000 0.233860 0.149783
0.000000 0.236820 0.150179
0.048707 0.241245 0.150698
0.105531 0.247654 0.151553
0.143709 0.256168 0.152316
0.185122 0.269535 0.152041
0.235172 0.285527 0.150973
0.295293 0.304723 0.148348
0.371740 0.330114 0.138552
0.448371 0.346593 0.117494
0.529534 0.362463 0.084627
0.608515 0.375982 0.000000
0.682490 0.386786 0.000000
0.748684 0.396155 0.000000
0.809537 0.404395 0.000000
0.865599 0.412024 0.000000
0.916320 0.419165 0.000000
0.961181 0.425818 0.000000
1.000000 0.431830 0.000000
1.000000 0.437293 0.000000
1.000000 0.443000 0.000000
1.000000 0.449073 0.000000
1.000000 0.455360 0.000000
1.000000 0.462135 0.000000
1.000000 0.469184 0.000000
1.000000 0.476844 0.081849
1.000000 0.485145 0.131258
1.000000 0.494423 0.169192
1.000000 0.504967 0.204807
1.000000 0.517479 0.240604
0.000000 0.272618 0.166018
0.000000 0.272862 0.166140
0.000000 0.274418 0.166201
0.000000 0.277256 0.166384
0.000000 0.281865 0.166903
0.065736 0.288396 0.167422
0.127810 0.297124 0.168063
0.174411 0.308782 0.168307
0.225101 0.325200 0.167147
0.284001 0.344732 0.164858
0.353033 0.367010 0.160372
0.437934 0.396612 0.147677
0.519432 0.415229 0.120455
0.598810 0.429725 0.079194
0.673152 0.440406 0.000000
0.741726 0.448219 0.000000
0.803494 0.454597 0.000000
0.859403 0.460517 0.000000
0.909972 0.465980 0.000000
0.954650 0.470710 0.000000
0.993500 0.474525 0.000000
1.000000 0.478096 0.000000
1.000000 0.482094 0.000000
1.000000 0.486152 0.000000
1.000000 0.490578 0.000000
1.000000 0.495644 0.000000
1.000000 0.501061 0.059602
1.000000 0.507134 0.121981
1.000000 0.513939 0.159335
1.000000 0.521813 0.193729
1.000000 0.531304 0.227909
1.000000 0.542687 0.263066
0.000000 0.316442 0.180911
0.000000 0.316838 0.180941
0.000000 0.318090 0.181003
0.000000 0.321111 0.181247
0.000000 0.325750 0.181582
0.000000 0.332280 0.181949
0.095979 0.341192 0.182162
0.158145 0.352209 0.182345
0.213169 0.367407 0.181613
0.273167 0.386603 0.179141
0.341192 0.408576 0.175296
0.417853 0.433265 0.169223
0.508690 0.464057 0.154788
0.588647 0.480262 0.125551
0.663081 0.491249 0.087007
0.731930 0.498756 0.000000
0.794919 0.503868 0.000000
0.852659 0.507652 0.000000
0.903075 0.511528 0.000000
0.947509 0.514488 0.000000
0.986328 0.516777 0.000000
1.000000 0.518730 0.000000
1.000000 0.520897 0.000000
1.000000 0.523583 0.000000
1.000000 0.526513 0.000000
1.000000 0.529870 0.060639
1.000000 0.533715 0.119173
1.000000 0.538415 0.154849
1.000000 0.543999 0.188174
1.000000 0.550683 0.220584
1.000000 0.559014 0.253696
1.000000 0.569482 0.288212
0.000000 0.363287 0.194156
0.000000 0.363653 0.194034
0.000000 0.364996 0.194278
0.000000 0.367956 0.194339
0.000000 0.372503 0.194400
0.000000 0.378851 0.194675
0.000000 0.387457 0.194827
0.130526 0.398230 0.195010
0.198489 0.411231 0.194827
0.261967 0.429725 0.192691
0.331121 0.450965 0.189395
0.406928 0.474434 0.184695
0.488441 0.499001 0.178592
0.577539 0.526360 0.167727
0.652979 0.539025 0.140505
0.721584 0.546563 0.109010
0.784787 0.551659 0.037476
0.842741 0.554711 0.000000
0.894835 0.556329 0.000000
0.939879 0.557366 0.000000
0.978454 0.558160 0.000000
1.000000 0.558770 0.000000
1.000000 0.559655 0.000000
1.000000 0.560876 0.000000
1.000000 0.562371 0.084108
1.000000 0.564508 0.124605
1.000000 0.567102 0.157259
1.000000 0.570550 0.187716
1.000000 0.574914 0.218082
1.000000 0.580652 0.249393
1.000000 0.588006 0.281834
1.000000 0.597772 0.316838
0.000000 0.411597 0.206119
0.000000 0.411872 0.206149
0.000000 0.413428 0.206210
0.000000 0.416114 0.206332
0.000000 0.420539 0.206394
0.000000 0.426825 0.206577
0.000000 0.435218 0.206790
0.063905 0.445502 0.206607
0.178378 0.457893 0.206546
0.250217 0.473365 0.205844
0.321813 0.493141 0.203616
0.396735 0.514183 0.200809
0.475257 0.536309 0.197482
0.556329 0.558740 0.194186
0.641321 0.582300 0.189975
0.711269 0.591730 0.167208
0.774350 0.596826 0.142611
0.831937 0.599756 0.115358
0.884062 0.600855 0.077272
0.929870 0.600214 0.000000
0.970001 0.598474 0.000000
1.000000 0.597955 0.000000
1.000000 0.597772 0.050690
1.000000 0.597772 0.106294
1.000000 0.598199 0.136721
1.000000 0.599145 0.165011
1.000000 0.600641 0.192844
1.000000 0.603021 0.221225
1.000000 0.606409 0.250309
1.000000 0.611292 0.280827
1.000000 0.618006 0.313390
1.000000 0.627008 0.348119
0.000000 0.461006 0.217716
0.000000 0.461372 0.217838
0.000000 0.462684 0.217746
0.000000 0.465431 0.217807
0.000000 0.469703 0.218021
0.000000 0.475624 0.218296
0.000000 0.483406 0.218448
0.000000 0.493019 0.218753
0.152407 0.504143 0.218997
0.239139 0.517021 0.219577
0.313451 0.533318 0.219394
0.387915 0.552056 0.218357
0.463203 0.571496 0.217929
0.540703 0.591516 0.217685
0.619532 0.611536 0.217960
0.699001 0.631678 0.221073
0.763882 0.639124 0.202884
0.821164 0.642267 0.184543
0.872709 0.643030 0.166415
0.918456 0.642023 0.150088
0.958740 0.639826 0.135805
0.994720 0.637232 0.124758
1.000000 0.635065 0.130587
1.000000 0.634180 0.154513
1.000000 0.633570 0.178622
1.000000 0.633539 0.203372
1.000000 0.634150 0.229221
1.000000 0.635706 0.256260
1.000000 0.638331 0.284550
1.000000 0.642451 0.314733
1.000000 0.648402 0.346960
1.000000 0.656458 0.380926
0.000000 0.509880 0.230014
0.000000 0.510216 0.229984
0.000000 0.511406 0.230228
0.000000 0.513725 0.230289
0.000000 0.517540 0.230625
0.000000 0.522850 0.231113
0.000000 0.529625 0.231815
0.000000 0.537957 0.232639
0.123873 0.547784 0.233707
0.228397 0.558923 0.235142
0.306767 0.571069 0.237125
0.380316 0.587457 0.238041
0.453468 0.604730 0.239597
0.527520 0.622461 0.242069
0.601740 0.640192 0.245426
0.676600 0.658137 0.250309
0.750698 0.675776 0.258305
0.810025 0.681819 0.245640
0.860868 0.682795 0.231693
0.906218 0.681697 0.219577
0.946746 0.679469 0.209781
0.982940 0.676600 0.202914
1.000000 0.673426 0.199313
1.000000 0.669947 0.199008
1.000000 0.668391 0.218936
1.000000 0.667597 0.242252
1.000000 0.667475 0.267002
1.000000 0.668238 0.293217
1.000000 0.670222 0.321233
1.000000 0.673548 0.350805
1.000000 0.678584 0.381994
1.000000 0.685725 0.415137
0.000000 0.555810 0.244511
0.000000 0.556054 0.244602
0.000000 0.557061 0.244755
0.000000 0.559075 0.245090
0.000000 0.562371 0.245640
0.000000 0.566918 0.246433
0.000000 0.572747 0.247410
0.000000 0.579889 0.248966
0.096407 0.588342 0.250767
0.221073 0.597864 0.253178
0.302800 0.608484 0.256168
0.375158 0.620905 0.259586
0.446052 0.636042 0.263005
0.516533 0.651575 0.267521
0.587518 0.667597 0.273136
0.658350 0.683803 0.280247
0.728450 0.699916 0.288884
0.795682 0.715023 0.301366
0.848875 0.719570 0.294316
0.893736 0.718898 0.283513
0.934112 0.717128 0.275364
0.970459 0.714321 0.269596
1.000000 0.711147 0.266911
1.000000 0.707546 0.267033
1.000000 0.703792 0.270085
1.000000 0.701015 0.282231
1.000000 0.700252 0.306371
1.000000 0.700374 0.331975
1.000000 0.701625 0.359106
1.000000 0.704128 0.387610
1.000000 0.708339 0.417975
1.000000 0.714687 0.450324
0.000000 0.598291 0.262028
0.000000 0.598383 0.262058
0.000000 0.599298 0.262272
0.000000 0.601007 0.262699
0.000000 0.603754 0.263554
0.000000 0.607660 0.264775
0.000000 0.612634 0.266239
0.000000 0.618738 0.268345
0.086122 0.625940 0.270878
0.220981 0.634211 0.274022
0.302892 0.643214 0.278111
0.373999 0.653071 0.283024
0.441810 0.665370 0.288365
0.509453 0.679316 0.294408
0.576593 0.693538 0.301823
0.643427 0.708003 0.310674
0.709590 0.722469 0.321050
0.773983 0.736843 0.332921
0.833646 0.749508 0.348425
0.881132 0.753170 0.346319
0.921202 0.752041 0.338872
0.957244 0.749874 0.333989
0.989685 0.746914 0.331365
1.000000 0.743496 0.331731
1.000000 0.739773 0.334691
1.000000 0.736049 0.340185
1.000000 0.732479 0.348302
1.000000 0.731594 0.371099
1.000000 0.732052 0.397223
1.000000 0.733883 0.425116
1.000000 0.737392 0.454688
1.000000 0.742947 0.486213
0.000000 0.637476 0.282933
0.000000 0.637629 0.282994
0.000000 0.638392 0.283391
0.000000 0.639857 0.283970
0.000000 0.642176 0.285039
0.000000 0.645411 0.286503
0.000000 0.649653 0.288579
0.000000 0.654841 0.291112
0.114076 0.660914 0.294377
0.231754 0.668025 0.298375
0.309941 0.675868 0.303319
0.378302 0.684535 0.309178
0.442908 0.693690 0.315984
0.506889 0.705928 0.323552
0.570214 0.718685 0.332403
0.633265 0.731594 0.342443
0.695308 0.744594 0.353704
0.755734 0.757504 0.366247
0.814115 0.770291 0.379950
0.866789 0.780941 0.396735
0.908659 0.783780 0.398688
0.944244 0.782437 0.394263
0.976349 0.779995 0.392157
1.000000 0.776944 0.392401
1.000000 0.773526 0.395026
1.000000 0.769924 0.400305
1.000000 0.766384 0.407996
1.000000 0.763119 0.418372
1.000000 0.761379 0.435492
1.000000 0.762539 0.462593
1.000000 0.765408 0.491524
1.000000 0.770352 0.522362
0.000000 0.674495 0.308507
0.000000 0.674617 0.308598
0.000000 0.675288 0.308995
0.000000 0.676448 0.309819
0.000000 0.678492 0.311009
0.000000 0.681300 0.312902
0.000000 0.684901 0.315129
0.000000 0.689357 0.318334
0.163058 0.694667 0.322301
0.254704 0.700771 0.326848
0.326116 0.707515 0.332555
0.390417 0.715053 0.339208
0.451026 0.723110 0.346777
0.510399 0.732326 0.355383
0.569696 0.743557 0.364935
0.628351 0.755001 0.375341
0.686213 0.766567 0.386999
0.742672 0.778073 0.399481
0.797238 0.789517 0.413245
0.849271 0.800778 0.427893
0.895384 0.809720 0.445533
0.931762 0.811704 0.450813
0.963317 0.810147 0.448981
0.991821 0.807614 0.449409
1.000000 0.804623 0.452033
1.000000 0.801297 0.456977
1.000000 0.797940 0.464302
1.000000 0.794797 0.474037
1.000000 0.792142 0.486427
1.000000 0.790341 0.501488
1.000000 0.792355 0.528344
1.000000 0.796902 0.558892
0.000000 0.710018 0.339117
0.000000 0.710140 0.339269
0.000000 0.710658 0.339666
0.000000 0.711757 0.340642
0.000000 0.713436 0.342016
0.000000 0.715816 0.344030
0.000000 0.718898 0.346807
0.113527 0.722744 0.350225
0.217716 0.727260 0.354528
0.289555 0.732509 0.359686
0.351843 0.738369 0.365698
0.409796 0.744778 0.372564
0.465400 0.751797 0.380285
0.519799 0.759091 0.389044
0.574426 0.768154 0.398871
0.628595 0.778256 0.409461
0.682063 0.788418 0.421057
0.734615 0.798642 0.433600
0.785245 0.808774 0.447089
0.833829 0.818814 0.461341
0.879606 0.828641 0.476600
0.919646 0.835996 0.494270
0.951080 0.837095 0.502068
0.978943 0.835386 0.502525
1.000000 0.832853 0.505180
1.000000 0.830014 0.510063
1.000000 0.826932 0.517113
1.000000 0.824002 0.526604
1.000000 0.821530 0.538689
1.000000 0.819944 0.553521
1.000000 0.819760 0.571313
1.000000 0.822446 0.595789
0.000000 0.744167 0.374395
0.000000 0.744259 0.374517
0.000000 0.744717 0.374975
0.000000 0.745571 0.375891
0.000000 0.747066 0.377386
0.000000 0.749050 0.379431
0.135042 0.751705 0.382391
0.214206 0.754910 0.385931
0.275639 0.758724 0.390173
0.331182 0.763180 0.395331
0.383673 0.768154 0.401343
0.435187 0.773648 0.408270
0.485512 0.779599 0.416052
0.535241 0.785916 0.424781
0.584253 0.792569 0.434333
0.633936 0.801236 0.444800
0.683101 0.810117 0.456245
0.731167 0.819089 0.468544
0.777890 0.828031 0.481727
0.822721 0.836820 0.495521
0.865415 0.845518 0.509972
0.905394 0.854002 0.525292
0.940032 0.859922 0.542870
0.966949 0.860288 0.552850
0.991241 0.858366 0.555352
1.000000 0.856046 0.560204
1.000000 0.853422 0.567224
1.000000 0.850828 0.576654
1.000000 0.848661 0.588525
1.000000 0.847349 0.603052
1.000000 0.847440 0.620508
1.000000 0.848569 0.638911
0.000000 0.776852 0.412940
0.000000 0.776944 0.412940
0.018921 0.777340 0.413489
0.107301 0.778134 0.414405
0.156405 0.779263 0.415900
0.200992 0.780972 0.418036
0.245457 0.783169 0.420783
0.289281 0.785824 0.424262
0.333379 0.789090 0.428534
0.377874 0.792813 0.433722
0.421851 0.797024 0.439551
0.466346 0.801602 0.446357
0.510948 0.806638 0.453895
0.555566 0.811978 0.462318
0.600061 0.817624 0.471626
0.644160 0.823880 0.481788
0.688899 0.831601 0.492836
0.732692 0.839353 0.504631
0.775265 0.847105 0.517174
0.816342 0.854795 0.530419
0.855436 0.862364 0.544579
0.892393 0.869780 0.559228
0.927245 0.876982 0.574487
0.956939 0.881621 0.591791
0.979675 0.881376 0.603174
1.000000 0.879393 0.607385
1.000000 0.877256 0.614435
1.000000 0.875151 0.623774
1.000000 0.873289 0.635340
1.000000 0.872282 0.649317
1.000000 0.872068 0.664515
1.000000 0.872862 0.680690
0.238743 0.808133 0.454322
0.240604 0.808225 0.454475
0.246983 0.808469 0.454841
0.259129 0.809140 0.455787
0.277226 0.810086 0.457221
0.300694 0.811521 0.459297
0.327672 0.813321 0.461982
0.358556 0.815549 0.465400
0.392187 0.818173 0.469581
0.427527 0.821286 0.474525
0.464485 0.824735 0.480171
0.502586 0.828580 0.486610
0.541466 0.832761 0.493904
0.580804 0.837186 0.501884
0.620447 0.841947 0.510735
0.659815 0.846830 0.520317
0.699458 0.852750 0.530877
0.738888 0.859373 0.542260
0.777279 0.865965 0.554314
0.814450 0.872557 0.567102
0.849790 0.879088 0.580499
0.883513 0.885496 0.594476
0.915373 0.891691 0.608881
0.945373 0.897673 0.623682
0.970611 0.901213 0.640223
0.989471 0.900450 0.652613
1.000000 0.898375 0.658198
1.000000 0.896696 0.667109
1.000000 0.895262 0.678248
1.000000 0.894163 0.690455
1.000000 0.893797 0.703670
1.000000 0.894621 0.718624
0.342321 0.837797 0.498512
0.343389 0.837888 0.498634
0.347295 0.838132 0.499031
0.354925 0.838621 0.499855
0.366796 0.839445 0.501244
0.382544 0.840574 0.503227
0.402258 0.842008 0.505791
0.425574 0.843809 0.509026
0.451637 0.845975 0.512871
0.480201 0.848447 0.517571
0.510765 0.851286 0.522942
0.543175 0.854398 0.529107
0.576684 0.857786 0.536034
0.611017 0.861479 0.543725
0.645594 0.865324 0.552148
0.680507 0.869383 0.561303
0.715175 0.873564 0.571221
0.749935 0.878935 0.581964
0.784085 0.884489 0.593469
0.817075 0.890043 0.605493
0.848814 0.895537 0.618097
0.879057 0.900969 0.631128
0.907774 0.906249 0.644495
0.934874 0.911315 0.658167
0.960296 0.916136 0.672114
0.981415 0.918761 0.687556
0.996582 0.917540 0.700252
1.000000 0.915526 0.706783
1.000000 0.914153 0.716274
1.000000 0.913115 0.726894
1.000000 0.912902 0.739101
1.000000 0.913787 0.752834
0.429847 0.865660 0.545220
0.430701 0.865721 0.545342
0.433387 0.865965 0.545739
0.438880 0.866361 0.546593
0.447456 0.867002 0.547906
0.459358 0.867826 0.549828
0.474372 0.869017 0.552148
0.492378 0.870420 0.555261
0.513146 0.872129 0.558984
0.536370 0.874083 0.563439
0.561700 0.876341 0.568505
0.588617 0.878782 0.574304
0.616846 0.881498 0.580835
0.645960 0.884398 0.587945
0.675929 0.887510 0.595911
0.705898 0.890776 0.604425
0.735958 0.894194 0.613642
0.765805 0.897887 0.623407
0.795438 0.902464 0.633997
0.824247 0.907073 0.645014
0.852140 0.911650 0.656519
0.878904 0.916106 0.668452
0.904356 0.920439 0.680659
0.928557 0.924620 0.693263
0.951202 0.928618 0.706111
0.972290 0.932403 0.719081
0.989471 0.933928 0.732601
1.000000 0.932219 0.744259
1.000000 0.930053 0.749783
1.000000 0.929351 0.759548
1.000000 0.929320 0.770779
1.000000 0.930236 0.783444
0.510369 0.891295 0.593744
0.511223 0.891356 0.594049
0.514092 0.891600 0.594812
0.518517 0.891936 0.595758
0.525078 0.892424 0.597009
0.534112 0.893095 0.598657
0.545617 0.893980 0.600916
0.559777 0.895079 0.603754
0.576135 0.896391 0.607233
0.594629 0.897917 0.611200
0.615137 0.899626 0.615930
0.637201 0.901549 0.621271
0.660609 0.903655 0.627192
0.684840 0.905913 0.633722
0.709804 0.908354 0.640894
0.735225 0.910948 0.648646
0.760616 0.913664 0.656977
0.785946 0.916442 0.665766
0.811002 0.919677 0.675288
0.835813 0.923400 0.685328
0.859892 0.927031 0.695796
0.883116 0.930602 0.706661
0.905272 0.934081 0.717769
0.926055 0.937194 0.728511
0.945617 0.940093 0.739284
0.964019 0.942809 0.750210
0.981140 0.945373 0.761105
0.994934 0.946258 0.772854
1.000000 0.944671 0.783566
1.000000 0.942931 0.788724
1.000000 0.943114 0.798947
1.000000 0.944182 0.810575
0.587213 0.914641 0.643549
0.587610 0.914702 0.643702
0.590143 0.914855 0.644556
0.594842 0.915221 0.646113
0.599878 0.915587 0.647303
0.606836 0.916075 0.648798
0.615808 0.916716 0.650874
0.626642 0.917571 0.653407
0.639429 0.918517 0.656489
0.654170 0.919677 0.660121
0.670375 0.920958 0.664363
0.688014 0.922423 0.669123
0.706874 0.924010 0.674464
0.726650 0.925750 0.680323
