20 Preset/Russian Style/【3】LUT video cho PR-AE-FCPX/Lut Tone (4).cube
# Created by Adobe Lightroom plugin Export LUT (1.24.0)
# www.johnrellis.com/lightroom/exportlut.htm
# Preset: 俄罗斯情绪-素材江湖02
# Color profile: C:\Program Files (x86)\Common Files\Adobe\Color\Profiles\Recommended\VideoHD.icc
LUT_3D_SIZE 5
DOMAIN_MIN 0.000000 0.000000 0.000000
DOMAIN_MAX 0.903226 0.903226 0.903226
0.000000 0.000000 0.000000
0.148653 0.011994 0.000977
0.473915 0.112032 0.000000
0.826261 0.220340 0.000000
1.000000 0.271794 0.000000
0.000000 0.133944 0.078126
0.137484 0.149905 0.048219
0.478828 0.241855 0.000000
0.823239 0.309728 0.000000
1.000000 0.345922 0.000000
0.000000 0.440284 0.261601
0.019684 0.448798 0.257603
0.432349 0.485023 0.209262
0.801236 0.547631 0.130159
1.000000 0.553826 0.136172
0.000000 0.721096 0.540795
0.203128 0.728176 0.550317
0.434211 0.739925 0.549615
0.690822 0.768490 0.506859
0.983307 0.790677 0.518395
0.506310 0.924437 0.811307
0.543328 0.925414 0.818479
0.638148 0.927855 0.832883
0.742763 0.933074 0.833707
0.885313 0.944060 0.814420
0.097932 0.094362 0.135134
0.199771 0.086946 0.152377
0.532036 0.010498 0.135531
0.844511 0.209018 0.100923
1.000000 0.278386 0.000000
0.101595 0.192294 0.176089
0.203098 0.216281 0.188998
0.526207 0.262730 0.175540
0.837888 0.316899 0.142458
1.000000 0.356023 0.100221
0.000000 0.470130 0.352056
0.199954 0.483131 0.358282
0.458930 0.512871 0.329656
0.806058 0.563867 0.311040
1.000000 0.569848 0.322698
0.180972 0.727871 0.585809
0.279118 0.734524 0.594720
0.463874 0.747555 0.599817
0.696620 0.773648 0.565545
0.976593 0.795987 0.580407
0.519646 0.924132 0.821592
0.556359 0.925536 0.828946
0.656031 0.928801 0.847044
0.752346 0.933776 0.847166
0.887938 0.944610 0.830655
0.277867 0.285863 0.474830
0.350256 0.291936 0.480934
0.589227 0.307164 0.520012
0.870359 0.333043 0.514092
1.000000 0.426001 0.526818
0.308354 0.395056 0.515099
0.364904 0.395331 0.518151
0.581415 0.398169 0.541344
0.859831 0.417121 0.533623
1.000000 0.488472 0.556420
0.305760 0.559319 0.578576
0.370214 0.567071 0.586664
0.539818 0.602350 0.612665
0.818875 0.635462 0.627893
1.000000 0.650202 0.641230
0.398688 0.766018 0.725338
0.439979 0.771176 0.731594
0.569696 0.788968 0.752316
0.735134 0.807797 0.738430
0.968383 0.829892 0.761593
0.568078 0.929107 0.861387
0.599298 0.930358 0.866575
0.695796 0.933745 0.883421
0.789517 0.939422 0.891691
0.900847 0.949065 0.882048
0.508934 0.558648 0.807370
0.541161 0.560723 0.808316
0.658106 0.563653 0.811734
0.860075 0.586328 0.826871
1.000000 0.650507 0.830198
0.530205 0.611749 0.818082
0.555749 0.610864 0.817868
0.657710 0.607294 0.818418
0.851133 0.624964 0.832853
1.000000 0.681270 0.839994
0.555291 0.715908 0.837339
0.581292 0.719356 0.838590
0.667689 0.729305 0.846128
0.825742 0.736110 0.855711
0.986999 0.765042 0.865934
0.578943 0.823148 0.866026
0.603113 0.825376 0.868070
0.682399 0.832639 0.874815
0.795743 0.851743 0.886076
0.965209 0.867155 0.897368
0.686976 0.938781 0.923766
0.700008 0.939666 0.924926
0.745083 0.941894 0.927825
0.840635 0.948425 0.940246
0.923308 0.956939 0.938048
0.796811 0.830869 0.969177
0.805173 0.830991 0.969207
0.839353 0.830594 0.969116
0.908049 0.828000 0.969482
0.991302 0.845457 0.965911
0.804227 0.845212 0.969207
0.810636 0.844297 0.968994
0.840360 0.841794 0.968566
0.905882 0.839780 0.969360
0.988190 0.856138 0.967071
0.822690 0.883757 0.970306
0.828367 0.883665 0.970062
0.851347 0.882292 0.970275
0.901213 0.878080 0.970550
0.978424 0.886900 0.970306
0.830503 0.921996 0.972808
0.836667 0.922576 0.972930
0.859342 0.923644 0.973053
0.899809 0.924987 0.973968
0.966369 0.926879 0.974975
0.837156 0.962066 0.976287
0.843015 0.962432 0.976501
0.863828 0.962921 0.976898
0.903258 0.964385 0.978088
0.955627 0.970855 0.981353
