20 Preset/Russian Style/【3】LUT video cho PR-AE-FCPX/Lut Tone (15).cube
# Created by Adobe Lightroom plugin Export LUT (1.24.0)
# www.johnrellis.com/lightroom/exportlut.htm
# Preset: 俄罗斯情绪-素材江湖08
# Color profile: C:\Program Files (x86)\Common Files\Adobe\Color\Profiles\Recommended\VideoHD.icc
LUT_3D_SIZE 32
DOMAIN_MIN 0.0 0.0 0.0
DOMAIN_MAX 1.0 1.0 1.0
0.010651 0.009766 0.006348
0.009949 0.010986 0.006226
0.032654 0.012879 0.006653
0.099184 0.013733 0.004730
0.137819 0.013672 0.001801
0.178012 0.013184 0.000000
0.218997 0.013306 0.000000
0.259434 0.010895 0.000000
0.299077 0.005005 0.000000
0.337987 0.000000 0.000000
0.376471 0.000000 0.000000
0.414191 0.000000 0.000000
0.451575 0.000000 0.000000
0.488624 0.000000 0.000000
0.525231 0.000000 0.000000
0.561364 0.000000 0.000000
0.596979 0.000000 0.000000
0.631983 0.000000 0.000000
0.666651 0.000000 0.000000
0.700435 0.000000 0.000000
0.733822 0.000000 0.000000
0.766384 0.000000 0.000000
0.798428 0.000000 0.000000
0.830167 0.000000 0.000000
0.861601 0.000000 0.000000
0.892729 0.000000 0.000000
0.923522 0.000000 0.000000
0.954070 0.000000 0.000000
0.984344 0.000000 0.000000
1.000000 0.000000 0.000000
1.000000 0.000000 0.000000
1.000000 0.000000 0.000000
0.004669 0.019409 0.006287
0.004669 0.019409 0.006287
0.031891 0.023041 0.006409
0.100130 0.021271 0.003632
0.138643 0.022187 0.001709
0.178500 0.022889 0.000000
0.219272 0.020844 0.000000
0.259495 0.018647 0.000000
0.299351 0.013489 0.000000
0.338323 0.004822 0.000000
0.376593 0.000000 0.000000
0.414252 0.000000 0.000000
0.451575 0.000000 0.000000
0.488624 0.000000 0.000000
0.525170 0.000000 0.000000
0.561364 0.000000 0.000000
0.596979 0.000000 0.000000
0.632105 0.000000 0.000000
0.666621 0.000000 0.000000
0.700496 0.000000 0.000000
0.733791 0.000000 0.000000
0.766354 0.000000 0.000000
0.798428 0.000000 0.000000
0.830137 0.000000 0.000000
0.861570 0.000000 0.000000
0.892668 0.000000 0.000000
0.923491 0.000000 0.000000
0.954040 0.000000 0.000000
0.984314 0.000000 0.000000
1.000000 0.000000 0.000000
1.000000 0.000000 0.000000
1.000000 0.000000 0.000000
0.000000 0.057740 0.009247
0.000000 0.059236 0.010040
0.033600 0.057404 0.009583
0.100587 0.062409 0.005921
0.140383 0.058045 0.003418
0.180087 0.060731 0.000732
0.220401 0.059876 0.000000
0.260502 0.055299 0.000000
0.299992 0.051545 0.000000
0.338689 0.042115 0.000000
0.376806 0.031159 0.000000
0.414496 0.018402 0.000000
0.451789 0.002411 0.000000
0.488716 0.000000 0.000000
0.525322 0.000000 0.000000
0.561364 0.000000 0.000000
0.597070 0.000000 0.000000
0.632105 0.000000 0.000000
0.666590 0.000000 0.000000
0.700404 0.000000 0.000000
0.733730 0.000000 0.000000
0.766171 0.000000 0.000000
0.798215 0.000000 0.000000
0.830014 0.000000 0.000000
0.861387 0.000000 0.000000
0.892576 0.000000 0.000000
0.923339 0.000000 0.000000
0.953887 0.000000 0.000000
0.984161 0.000000 0.000000
1.000000 0.000000 0.000000
1.000000 0.000000 0.000000
1.000000 0.000000 0.000000
0.002350 0.100771 0.019532
0.008576 0.101259 0.020325
0.045167 0.101381 0.020691
0.100496 0.102327 0.017548
0.141360 0.105348 0.011902
0.182528 0.104067 0.006531
0.222782 0.103273 0.002655
0.261906 0.102022 0.000000
0.301244 0.100069 0.000000
0.339574 0.096620 0.000000
0.377600 0.092775 0.000000
0.415045 0.085389 0.000000
0.452308 0.074647 0.000000
0.489052 0.055909 0.000000
0.525505 0.034760 0.000000
0.561639 0.012543 0.000000
0.597162 0.000000 0.000000
0.632074 0.000000 0.000000
0.666560 0.000000 0.000000
0.700221 0.000000 0.000000
0.733455 0.000000 0.000000
0.765957 0.000000 0.000000
0.798001 0.000000 0.000000
0.829679 0.000000 0.000000
0.861143 0.000000 0.000000
0.892241 0.000000 0.000000
0.923064 0.000000 0.000000
0.953643 0.000000 0.000000
0.983886 0.000000 0.000000
1.000000 0.000000 0.000000
1.000000 0.000000 0.000000
1.000000 0.000000 0.000000
0.017487 0.132815 0.037659
0.026398 0.132815 0.038605
0.063111 0.132631 0.041382
0.103578 0.133730 0.036957
0.140230 0.136690 0.029969
0.183993 0.139651 0.018372
0.225528 0.136233 0.009339
0.264469 0.134585 0.004486
0.302953 0.132662 0.000000
0.341070 0.130098 0.000000
0.378637 0.126680 0.000000
0.415869 0.122652 0.000000
0.452979 0.117525 0.000000
0.489754 0.112093 0.000000
0.526055 0.105715 0.000000
0.561730 0.099245 0.000000
0.597284 0.089296 0.000000
0.632074 0.073884 0.000000
0.666377 0.048524 0.000000
0.700160 0.020539 0.000000
0.733211 0.000000 0.000000
0.765652 0.000000 0.000000
0.797604 0.000000 0.000000
0.829343 0.000000 0.000000
0.860655 0.000000 0.000000
0.891783 0.000000 0.000000
0.922545 0.000000 0.000000
0.953155 0.000000 0.000000
0.983429 0.000000 0.000000
1.000000 0.000000 0.000000
1.000000 0.000000 0.000000
1.000000 0.000000 0.000000
0.020996 0.165225 0.054627
0.029938 0.165255 0.055573
0.066926 0.165103 0.057221
0.104982 0.165530 0.055390
0.139498 0.166995 0.049165
0.181918 0.172549 0.036011
0.225742 0.173861 0.023224
0.266667 0.169375 0.011810
0.305333 0.165530 0.005066
0.343145 0.162905 0.000000
0.380255 0.159915 0.000000
0.417212 0.156527 0.000000
0.453895 0.152834 0.000000
0.490364 0.149050 0.000000
0.526329 0.144625 0.000000
0.562188 0.139437 0.000000
0.597223 0.134218 0.000000
0.632044 0.128206 0.000000
0.666224 0.121492 0.000000
0.699763 0.115145 0.000000
0.732692 0.107485 0.000000
0.765042 0.099641 0.000000
0.796994 0.092012 0.000000
0.828611 0.082338 0.000000
0.860014 0.066590 0.000000
0.891142 0.051606 0.000000
0.921996 0.042176 0.000000
0.952514 0.037812 0.000000
0.982849 0.040772 0.000000
1.000000 0.049836 0.000000
1.000000 0.065858 0.000000
1.000000 0.087892 0.000000
0.019348 0.198245 0.075990
0.028565 0.198276 0.075807
0.066560 0.198276 0.078309
0.105043 0.198306 0.079500
0.139590 0.199435 0.072938
0.176974 0.200320 0.063233
0.221836 0.207492 0.044709
0.266850 0.208164 0.026673
0.306737 0.203037 0.015351
0.345281 0.196536 0.005921
0.382025 0.193698 0.000122
0.418647 0.190829 0.000000
0.455024 0.187686 0.000000
0.491157 0.184176 0.000000
0.526909 0.180636 0.000000
0.562341 0.176638 0.000000
0.597406 0.172396 0.000000
0.631952 0.168032 0.000000
0.665888 0.163546 0.000000
0.699245 0.158846 0.000000
0.732021 0.154086 0.000000
0.764218 0.149264 0.000000
0.796170 0.144717 0.000000
0.827909 0.140291 0.000000
0.859220 0.136965 0.000000
0.890288 0.133883 0.000000
0.921080 0.131746 0.000000
0.951629 0.130495 0.000000
0.981933 0.131319 0.000000
1.000000 0.133211 0.000000
1.000000 0.137118 0.000000
1.000000 0.142824 0.000000
0.021637 0.232090 0.095369
0.031556 0.232181 0.096010
0.070527 0.232090 0.096590
0.107454 0.231937 0.098054
0.140322 0.232547 0.096468
0.177310 0.233494 0.092958
0.215000 0.234440 0.088197
0.261784 0.242374 0.070375
0.306218 0.242741 0.049378
0.345129 0.236912 0.034241
0.383459 0.229679 0.022217
0.420111 0.224949 0.013123
0.456092 0.222171 0.006500
0.491859 0.219120 0.000000
0.527428 0.215824 0.000000
0.562524 0.212314 0.000000
0.597253 0.208957 0.000000
0.631586 0.205234 0.000000
0.665400 0.201266 0.000000
0.698512 0.197574 0.000000
0.731044 0.194003 0.000000
0.763210 0.190188 0.000000
0.795132 0.186893 0.000000
0.826749 0.183810 0.000000
0.858152 0.181216 0.000000
0.889189 0.179080 0.000000
0.919982 0.177707 0.000000
0.950561 0.176791 0.000000
0.980865 0.177188 0.000000
1.000000 0.178805 0.000000
1.000000 0.181460 0.000000
1.000000 0.185672 0.000000
0.032959 0.266575 0.115908
0.043458 0.266667 0.115816
0.079225 0.266575 0.116884
0.110811 0.266636 0.118196
0.142763 0.266819 0.118593
0.178347 0.267582 0.115694
0.214817 0.268345 0.111971
0.253605 0.269017 0.107179
0.300755 0.277531 0.096681
0.344396 0.277043 0.085878
0.382849 0.271031 0.070893
0.420447 0.263767 0.052491
0.457191 0.256748 0.038361
0.492531 0.253666 0.031220
0.527794 0.250767 0.021820
0.562585 0.247501 0.013428
0.597101 0.244388 0.002960
0.631128 0.241123 0.000000
0.664576 0.237613 0.000000
0.697536 0.234470 0.000000
0.729976 0.231205 0.000000
0.761929 0.228275 0.000000
0.793759 0.225498 0.000000
0.825406 0.222843 0.000000
0.856809 0.220676 0.000000
0.887846 0.219089 0.000000
0.918669 0.217746 0.000000
0.949248 0.217350 0.000000
0.979553 0.217594 0.000000
1.000000 0.218662 0.000000
1.000000 0.220951 0.000000
1.000000 0.224155 0.000000
0.045747 0.301549 0.138613
0.057374 0.301457 0.138827
0.088350 0.301549 0.139345
0.115267 0.301579 0.140841
0.144442 0.301793 0.142519
0.179080 0.302220 0.140169
0.215274 0.302800 0.137118
0.252354 0.303593 0.133059
0.291051 0.304082 0.127962
0.338537 0.312871 0.117678
0.381476 0.311925 0.108003
0.419348 0.305791 0.099275
0.456428 0.298344 0.090639
0.492714 0.289860 0.078340
0.527703 0.285832 0.065370
0.562371 0.282567 0.054658
0.596338 0.279637 0.042939
0.630121 0.276555 0.029572
0.663386 0.273411 0.018067
0.696101 0.270420 0.004730
0.728450 0.267582 0.000000
0.760372 0.264714 0.000000
0.792142 0.262242 0.000000
0.823758 0.260075 0.000000
0.855100 0.258122 0.000000
0.886168 0.256718 0.000000
0.916991 0.255467 0.000000
0.947601 0.255009 0.000000
0.978027 0.255161 0.000000
1.000000 0.255955 0.000000
1.000000 0.257725 0.000000
1.000000 0.260624 0.000000
0.058198 0.336858 0.161715
0.066712 0.336919 0.161685
0.093568 0.337041 0.162448
0.118746 0.337011 0.163302
0.147219 0.337163 0.165225
0.180056 0.337560 0.164248
0.215518 0.338048 0.161471
0.251713 0.338567 0.158145
0.289189 0.338994 0.153841
0.327672 0.339422 0.148531
0.375372 0.348577 0.137392
0.417426 0.347234 0.127565
0.454749 0.340856 0.119265
0.491279 0.333257 0.109926
0.526848 0.324590 0.100832
0.561456 0.317784 0.092836
0.595300 0.314763 0.086702
0.628840 0.311650 0.078340
0.661860 0.308812 0.063111
0.694423 0.305791 0.048768
0.726558 0.302892 0.031434
0.758419 0.300084 0.013367
0.790219 0.298009 0.000000
0.821836 0.295750 0.000000
0.853208 0.293919 0.000000
0.884276 0.292638 0.000000
0.915068 0.291783 0.000000
0.945739 0.291173 0.000000
0.976165 0.291173 0.000000
1.000000 0.291966 0.000000
1.000000 0.293553 0.000000
1.000000 0.295903 0.000000
0.068299 0.372564 0.183139
0.080079 0.372534 0.183261
0.096620 0.372564 0.183474
0.120760 0.372686 0.184604
0.149172 0.372961 0.186191
0.180484 0.373205 0.186954
0.215091 0.373663 0.184054
0.250736 0.373999 0.180880
0.287297 0.374395 0.177188
0.324987 0.374670 0.172580
0.363470 0.374762 0.166659
0.410925 0.384405 0.155337
0.451820 0.382269 0.145876
0.488869 0.375860 0.136568
0.524712 0.368078 0.127749
0.559747 0.359442 0.117983
0.593805 0.349859 0.108278
0.627070 0.346532 0.102419
0.659937 0.343511 0.097139
0.692256 0.340642 0.089906
0.724361 0.337804 0.080140
0.756161 0.335271 0.060334
0.788052 0.332921 0.038087
0.819608 0.330968 0.016602
0.850919 0.329290 0.000000
0.882017 0.327825 0.000000
0.912902 0.326818 0.000000
0.943542 0.326360 0.000000
0.974090 0.326452 0.000000
1.000000 0.327001 0.000000
1.000000 0.328283 0.000000
1.000000 0.330358 0.000000
0.073121 0.408362 0.203250
0.080812 0.408362 0.203220
0.099001 0.408270 0.203830
0.122438 0.408545 0.204776
0.150118 0.408789 0.205997
0.180392 0.409094 0.208011
0.214664 0.409308 0.205570
0.249546 0.409583 0.202884
0.285466 0.409827 0.199527
0.322026 0.409979 0.195193
0.359716 0.409949 0.190005
0.397864 0.409857 0.183902
0.445411 0.419684 0.171817
0.485115 0.416999 0.162142
0.521904 0.410620 0.152438
0.557214 0.402625 0.143313
0.591547 0.393866 0.133333
0.624994 0.384253 0.123049
0.657679 0.377905 0.115236
0.689876 0.375006 0.109682
0.721645 0.372168 0.103182
0.753536 0.369757 0.095705
0.785428 0.367437 0.086305
0.817044 0.365393 0.063874
0.848417 0.363714 0.036286
0.879484 0.362371 0.007385
0.910430 0.361364 0.000000
0.941131 0.360784 0.000000
0.971771 0.360693 0.000000
1.000000 0.361273 0.000000
1.000000 0.362432 0.000000
1.000000 0.364385 0.000000
0.071443 0.443824 0.222049
0.079988 0.443793 0.222171
0.098482 0.444007 0.222629
0.121859 0.444068 0.223392
0.149905 0.444312 0.224460
0.179507 0.444678 0.226078
0.212985 0.444953 0.225467
0.247379 0.445014 0.222721
0.283024 0.445106 0.219608
0.319158 0.445106 0.215488
0.355962 0.445106 0.210819
0.393347 0.444831 0.205692
0.432563 0.445655 0.199283
0.478828 0.454505 0.186770
0.517632 0.451240 0.176791
0.554101 0.444831 0.166964
0.588708 0.436683 0.157168
0.622156 0.427893 0.147585
0.655085 0.418372 0.136812
0.686976 0.408942 0.126802
0.718685 0.406043 0.121065
0.750698 0.403662 0.113893
0.782589 0.401465 0.106294
0.814237 0.399420 0.096742
0.845579 0.397742 0.083436
0.876677 0.396460 0.053559
0.907713 0.395239 0.019654
0.938415 0.394751 0.000000
0.969177 0.394598 0.000000
0.999878 0.395087 0.000000
1.000000 0.396246 0.000000
1.000000 0.398016 0.000000
0.062470 0.478737 0.239658
0.072969 0.478798 0.239628
0.095583 0.478889 0.239933
0.119966 0.479042 0.240482
0.148318 0.479316 0.241550
0.178500 0.479744 0.243076
0.210513 0.480079 0.243992
0.245243 0.480110 0.241550
0.280491 0.479927 0.238468
0.316381 0.479896 0.234745
0.352514 0.479683 0.230716
0.389380 0.479377 0.225803
0.426398 0.478950 0.220340
0.466957 0.481544 0.212436
0.511376 0.488533 0.200381
0.549340 0.484718 0.190127
0.585321 0.478340 0.179782
0.619043 0.470130 0.170291
0.651942 0.461158 0.160128
0.684169 0.451698 0.149691
0.715724 0.441901 0.138613
0.747616 0.437018 0.130343
0.779477 0.434821 0.122713
0.811093 0.432929 0.114290
0.842466 0.431128 0.104616
0.873686 0.429816 0.092287
0.904692 0.428687 0.069368
0.935485 0.428077 0.030304
0.966339 0.427985 0.000000
0.997162 0.428351 0.000000
1.000000 0.429419 0.000000
1.000000 0.431067 0.000000
0.051972 0.513115 0.255711
0.064149 0.513146 0.255772
0.091981 0.513207 0.256077
0.116121 0.513390 0.256596
0.145602 0.513725 0.257511
0.176425 0.514000 0.258976
0.208072 0.514611 0.260685
0.242618 0.514549 0.258885
0.277714 0.514427 0.256168
0.313146 0.514214 0.252811
0.348913 0.513939 0.249027
0.385199 0.513420 0.244541
0.421820 0.512902 0.239445
0.458869 0.512230 0.233799
0.500298 0.516350 0.224704
0.542840 0.521599 0.212985
0.580133 0.517418 0.202548
0.615503 0.510979 0.192233
0.648524 0.502678 0.182223
0.680873 0.493690 0.171969
0.712886 0.484688 0.161135
0.744594 0.475471 0.149477
0.776120 0.467659 0.138094
0.807767 0.465736 0.130251
0.839109 0.464088 0.121584
0.870359 0.462623 0.111177
0.901366 0.461677 0.098909
0.932341 0.460883 0.080140
0.963317 0.460761 0.034211
0.994202 0.461280 0.000000
1.000000 0.462226 0.000000
1.000000 0.463813 0.000000
0.043336 0.546746 0.270787
0.053254 0.546777 0.270939
0.086580 0.546838 0.271214
0.113466 0.546990 0.271580
0.143069 0.547295 0.272526
0.173648 0.547692 0.273747
0.206394 0.548119 0.275273
0.239841 0.548363 0.275151
0.274754 0.548119 0.272648
0.309911 0.547845 0.269505
0.345403 0.547417 0.266056
0.381353 0.547021 0.261875
0.417456 0.546258 0.257298
0.453742 0.545525 0.251896
0.490303 0.544518 0.245945
0.533043 0.550164 0.236057
0.573724 0.553674 0.224247
0.610132 0.549157 0.213809
0.644831 0.542809 0.203403
0.677302 0.534508 0.193240
0.709743 0.526146 0.182559
0.741604 0.517479 0.171298
0.773098 0.508721 0.159182
0.804288 0.499702 0.145968
0.835599 0.496315 0.136263
0.866880 0.494942 0.127138
0.897948 0.493843 0.116518
0.929046 0.493202 0.102876
0.960082 0.493111 0.084535
0.991150 0.493538 0.035004
1.000000 0.494484 0.000000
1.000000 0.496071 0.000000
0.033295 0.579522 0.285191
0.041260 0.579492 0.285191
0.081331 0.579553 0.285527
0.110079 0.579736 0.285954
0.140261 0.579980 0.286687
0.172305 0.580377 0.287785
0.204288 0.580804 0.289311
0.237278 0.581292 0.290501
0.271977 0.581048 0.288121
0.307012 0.580652 0.285313
0.342321 0.580133 0.282078
0.377752 0.579492 0.278202
0.413367 0.578851 0.273838
0.449287 0.577935 0.269017
0.485267 0.576898 0.263493
0.521263 0.575708 0.257389
0.564904 0.582788 0.246433
0.603967 0.584649 0.235172
0.639429 0.579950 0.224704
0.673915 0.573907 0.213718
0.706355 0.566094 0.203464
0.738369 0.558038 0.192447
0.769894 0.549767 0.180789
0.801205 0.541314 0.168582
0.832212 0.532677 0.154726
0.863188 0.526513 0.141512
0.894377 0.525475 0.131838
0.925597 0.524956 0.119966
0.956786 0.524865 0.105074
0.987976 0.525292 0.086336
1.000000 0.526299 0.034455
1.000000 0.527855 0.000000
0.027893 0.611444 0.298802
0.035828 0.611475 0.298924
0.072938 0.611597 0.299077
0.108309 0.611719 0.299626
0.139010 0.611963 0.300328
0.170687 0.612360 0.301274
0.203189 0.612848 0.302739
0.235691 0.613428 0.304387
0.270024 0.613306 0.302953
0.304936 0.612909 0.300359
0.339666 0.612451 0.297215
0.374731 0.611872 0.293797
0.410193 0.611078 0.289677
0.445624 0.610193 0.285008
0.481056 0.609277 0.280034
0.516899 0.608057 0.274449
0.552575 0.606836 0.268040
0.597253 0.615259 0.256016
0.634852 0.615747 0.245029
0.669459 0.610773 0.234409
0.702998 0.604578 0.223819
0.735042 0.597040 0.212985
0.766629 0.589258 0.201755
0.797910 0.581292 0.190005
0.828946 0.573266 0.177157
0.859861 0.565301 0.162966
0.890745 0.557397 0.146456
0.922087 0.555932 0.134981
0.953368 0.555962 0.122499
0.984741 0.556420 0.106416
1.000000 0.557519 0.086030
1.000000 0.558984 0.029633
0.026215 0.643854 0.311925
0.033875 0.643824 0.311986
0.072999 0.643946 0.312139
0.107149 0.644068 0.312657
0.138155 0.644373 0.313268
0.170901 0.644709 0.314336
0.202457 0.645228 0.315404
0.235416 0.645838 0.317052
0.268956 0.646143 0.317449
0.303349 0.645747 0.314855
0.338293 0.645167 0.311986
0.373114 0.644617 0.308659
0.408148 0.643824 0.304692
0.443366 0.643000 0.300450
0.478614 0.642023 0.295750
0.514000 0.640925 0.290410
0.549432 0.639673 0.284489
0.584924 0.638178 0.277745
0.630671 0.647913 0.264714
0.666224 0.646632 0.254185
0.699550 0.640986 0.243717
0.731838 0.634333 0.233219
0.763302 0.627161 0.222141
0.794614 0.619654 0.210941
0.825650 0.612207 0.198825
0.856596 0.604700 0.185580
0.887510 0.597406 0.170474
0.918639 0.590265 0.153384
0.950011 0.586328 0.137087
0.981476 0.586969 0.123415
1.000000 0.588006 0.107057
1.000000 0.589624 0.083040
0.031281 0.676570 0.324590
0.039185 0.676600 0.324712
0.077028 0.676661 0.324865
0.109316 0.676814 0.325322
0.139681 0.677089 0.325933
0.171267 0.677485 0.326757
0.203464 0.677913 0.327977
0.236088 0.678553 0.329564
0.268894 0.679286 0.331273
0.303380 0.678859 0.328923
0.338140 0.678248 0.326207
0.372869 0.677577 0.323125
0.407599 0.676814 0.319432
0.442390 0.675929 0.315312
0.477607 0.674922 0.310948
0.512596 0.673793 0.305669
0.547601 0.672480 0.300267
0.582849 0.671077 0.293950
0.617853 0.669490 0.287358
0.664088 0.679713 0.273289
0.697444 0.676600 0.263371
0.729305 0.670314 0.253117
0.760311 0.663264 0.242527
0.791470 0.656367 0.231479
0.822416 0.649348 0.219944
0.853330 0.642481 0.207492
0.884306 0.635676 0.193393
0.915496 0.629084 0.177951
0.946777 0.622827 0.160159
0.978363 0.616876 0.138369
1.000000 0.617884 0.123659
1.000000 0.619501 0.107179
0.064332 0.708644 0.337377
0.070558 0.708675 0.337407
0.093721 0.708736 0.337560
0.118135 0.708858 0.337957
0.145998 0.709102 0.338628
0.176486 0.709377 0.339452
0.207736 0.709865 0.340734
0.239750 0.710384 0.342168
0.272221 0.710964 0.343908
0.305730 0.710964 0.343267
0.339574 0.710353 0.340703
0.373999 0.709651 0.337713
0.408270 0.708919 0.334203
0.442908 0.707912 0.330419
0.477485 0.706905 0.325963
0.512108 0.705745 0.321202
0.546807 0.704372 0.315953
0.581476 0.702937 0.310155
0.616114 0.701381 0.303746
0.650690 0.699611 0.296666
0.697353 0.710140 0.282139
0.728481 0.705470 0.272770
0.759060 0.698726 0.262547
0.788907 0.691371 0.252049
0.819516 0.684779 0.240909
0.850340 0.678431 0.228916
0.881346 0.672175 0.215885
0.912444 0.666163 0.201694
0.943694 0.660517 0.185763
0.975219 0.655116 0.167330
1.000000 0.650080 0.145052
1.000000 0.648676 0.125460
0.102968 0.739498 0.350591
0.105592 0.739528 0.350561
0.116670 0.739590 0.350835
0.134981 0.739773 0.351232
0.159548 0.739925 0.351812
0.187350 0.740169 0.352667
0.216800 0.740536 0.353765
0.247379 0.740993 0.355200
0.278691 0.741543 0.356847
0.310887 0.741939 0.358007
0.343816 0.741329 0.355505
0.377264 0.740597 0.352605
0.410834 0.739773 0.349279
0.444831 0.738796 0.345556
0.478767 0.737728 0.341558
0.512840 0.736538 0.336980
0.547082 0.735256 0.331792
0.581415 0.733761 0.326329
0.615503 0.732204 0.320226
0.649744 0.730434 0.313512
0.683833 0.728573 0.306340
0.730037 0.738766 0.291630
0.759670 0.733242 0.282444
0.789029 0.726223 0.272038
0.817624 0.718746 0.261784
0.847837 0.712490 0.250401
0.878691 0.706844 0.238041
0.909636 0.701442 0.224887
0.940887 0.696254 0.210330
0.972320 0.691371 0.194064
1.000000 0.686885 0.176059
1.000000 0.682704 0.155062
0.134890 0.769162 0.364233
0.137484 0.769162 0.364294
0.144717 0.769223 0.364385
0.160098 0.769284 0.364843
0.180056 0.769436 0.365423
0.204074 0.769711 0.366217
0.230228 0.770016 0.367346
0.259098 0.770382 0.368719
0.289006 0.770840 0.370428
0.319463 0.771389 0.372351
0.351019 0.770993 0.370794
0.383246 0.770260 0.368017
0.416052 0.769375 0.364874
0.448737 0.768460 0.361456
0.482002 0.767422 0.357427
0.515343 0.766201 0.353063
0.549035 0.764858 0.348150
0.582757 0.763455 0.342809
0.616388 0.761837 0.336980
0.650050 0.760128 0.330632
0.683650 0.758267 0.323796
0.717128 0.756313 0.316289
0.762631 0.765805 0.301701
0.791043 0.760006 0.292332
0.819364 0.752895 0.282109
0.847044 0.745449 0.271702
0.876585 0.739559 0.260349
0.907469 0.734615 0.247837
0.938567 0.730007 0.234470
0.969848 0.725673 0.220310
1.000000 0.721675 0.204746
1.000000 0.718044 0.188174
0.170169 0.797452 0.378576
0.171786 0.797482 0.378637
0.177371 0.797482 0.378912
0.188876 0.797574 0.379187
0.205539 0.797726 0.379797
0.225986 0.797910 0.380560
0.249424 0.798123 0.381659
0.275669 0.798489 0.382940
0.303258 0.798825 0.384619
0.332067 0.799252 0.386664
0.361975 0.799283 0.386969
0.392767 0.798550 0.384344
0.423926 0.797726 0.381323
0.455726 0.796780 0.378027
0.487984 0.795712 0.374090
0.520348 0.794553 0.369909
0.553185 0.793210 0.365240
0.585931 0.791836 0.360143
0.618982 0.790280 0.354620
0.652003 0.788632 0.348516
0.685084 0.786831 0.341863
0.718044 0.784909 0.334691
0.752102 0.783810 0.326452
0.795804 0.791714 0.312535
0.823270 0.785794 0.303044
0.850553 0.778805 0.292638
0.877226 0.771481 0.282139
0.906004 0.765805 0.271122
0.936950 0.761685 0.258824
0.968017 0.757900 0.246128
0.999268 0.754391 0.232944
1.000000 0.751156 0.219150
0.208072 0.824460 0.393866
0.208896 0.824460 0.393896
0.213748 0.824491 0.394018
0.222965 0.824552 0.394446
0.235996 0.824643 0.394995
0.253330 0.824796 0.395850
0.274083 0.824979 0.396887
0.297124 0.825223 0.398169
0.322515 0.825467 0.399847
0.349340 0.825803 0.401770
0.377417 0.826169 0.404089
0.406104 0.825498 0.401556
0.435706 0.824674 0.398688
0.465980 0.823789 0.395331
0.496925 0.822751 0.391760
0.528161 0.821653 0.387610
0.559808 0.820401 0.383246
0.591852 0.819059 0.378241
0.623987 0.817594 0.372930
0.656306 0.816037 0.367010
0.688716 0.814298 0.360662
0.721248 0.812497 0.353674
0.753536 0.810605 0.346258
0.788144 0.810330 0.337285
0.829953 0.816922 0.324285
0.856443 0.810910 0.314702
0.882658 0.804044 0.304509
0.908324 0.796872 0.294194
0.936095 0.791318 0.283604
0.966979 0.787991 0.272404
0.997894 0.784939 0.260807
1.000000 0.781918 0.249363
0.247288 0.850462 0.410224
0.248264 0.850462 0.410315
0.251835 0.850462 0.410407
0.259159 0.850523 0.410895
0.270054 0.850614 0.411444
0.285069 0.850706 0.412146
0.302647 0.850858 0.413153
0.323308 0.851011 0.414588
0.346288 0.851194 0.416205
0.370825 0.851438 0.418128
0.397223 0.851713 0.420508
0.423926 0.851438 0.420111
0.451545 0.850675 0.417304
0.480079 0.849821 0.414069
0.509239 0.848875 0.410590
0.539239 0.847837 0.406561
0.569696 0.846677 0.402319
0.600549 0.845396 0.397498
0.631708 0.844022 0.392370
0.663264 0.842588 0.386694
0.694850 0.841001 0.380591
0.726619 0.839322 0.373968
0.758419 0.837522 0.366827
0.790188 0.835721 0.359106
0.825071 0.836088 0.349676
0.865049 0.841550 0.337530
0.890562 0.835538 0.328161
0.915679 0.828824 0.318303
0.940368 0.821836 0.308537
0.966674 0.816190 0.298650
0.996948 0.813382 0.288792
1.000000 0.810727 0.279362
0.288762 0.875700 0.428107
0.289281 0.875700 0.428077
0.292485 0.875669 0.428290
0.298283 0.875731 0.428656
0.307469 0.875792 0.429236
0.319982 0.875853 0.430060
0.335515 0.875944 0.431098
0.353704 0.876036 0.432441
0.374090 0.876188 0.434119
0.396735 0.876341 0.436042
0.420813 0.876493 0.438300
0.445899 0.876555 0.440162
0.471504 0.875853 0.437476
0.497963 0.875090 0.434424
