20 Preset/Russian Style/【3】LUT video cho PR-AE-FCPX/Lut Tone (8).cube
# Created by Adobe Lightroom plugin Export LUT (1.24.0)
# www.johnrellis.com/lightroom/exportlut.htm
# Preset: 俄罗斯情绪-素材江湖04
# Color profile: C:\Program Files (x86)\Common Files\Adobe\Color\Profiles\Recommended\VideoHD.icc
LUT_3D_SIZE 8
DOMAIN_MIN 0.000000 0.000000 0.000000
DOMAIN_MAX 0.903226 0.903226 0.903226
0.000000 0.000000 0.000000
0.127199 0.008148 0.000000
0.258000 0.047028 0.000000
0.410742 0.112703 0.000000
0.599969 0.175296 0.000000
0.815579 0.248661 0.000000
1.000000 0.313146 0.000000
1.000000 0.351934 0.000000
0.000000 0.114778 0.069703
0.101015 0.118685 0.063844
0.246281 0.129122 0.000000
0.403388 0.159579 0.000000
0.594598 0.210941 0.000000
0.811368 0.273838 0.000000
1.000000 0.332708 0.000000
1.000000 0.373632 0.000000
0.000000 0.227390 0.151980
0.000000 0.231357 0.146334
0.193790 0.240879 0.126009
0.373480 0.258030 0.079896
0.575128 0.297398 0.000000
0.795834 0.347936 0.000000
1.000000 0.396490 0.000000
1.000000 0.427314 0.000000
0.000000 0.372442 0.242100
0.000000 0.375250 0.238224
0.000000 0.386664 0.216648
0.312139 0.397589 0.190280
0.528008 0.418585 0.138033
0.763973 0.462989 0.000000
0.985870 0.502464 0.000000
1.000000 0.518883 0.000000
0.000000 0.551446 0.350286
0.000000 0.553643 0.346929
0.000000 0.563012 0.330297
0.000000 0.579065 0.285466
0.458015 0.590173 0.255497
0.702235 0.605280 0.198459
0.948486 0.642206 0.000000
1.000000 0.644526 0.000000
0.000000 0.752071 0.471290
0.000000 0.753780 0.468330
0.000000 0.760800 0.454627
0.000000 0.773434 0.422583
0.149325 0.785580 0.381201
0.620935 0.793668 0.347875
0.883970 0.806363 0.296239
1.000000 0.796017 0.254887
0.000000 0.938842 0.588251
0.000000 0.939452 0.586053
0.000000 0.941619 0.577050
0.000000 0.944793 0.563195
0.000000 0.946410 0.559045
0.505272 0.945495 0.552575
0.776181 0.944060 0.528038
0.993683 0.946502 0.503990
0.000000 1.000000 0.673213
0.000000 1.000000 0.673274
0.000000 1.000000 0.675319
0.000000 1.000000 0.688075
0.202670 1.000000 0.729580
0.688624 1.000000 0.801572
0.801236 1.000000 0.795163
0.910185 1.000000 0.785092
0.037385 0.039033 0.106905
0.130495 0.045289 0.105470
0.260380 0.075593 0.089235
0.407294 0.130831 0.050477
0.597101 0.183780 0.000000
0.813779 0.248508 0.000000
1.000000 0.310613 0.000000
1.000000 0.355230 0.000000
0.000000 0.123049 0.123690
0.109255 0.126955 0.123110
0.245579 0.139254 0.112245
0.401648 0.165652 0.081209
0.593225 0.211154 0.000000
0.810513 0.270115 0.000000
1.000000 0.327886 0.000000
1.000000 0.369360 0.000000
0.000000 0.233860 0.179965
0.000000 0.237461 0.177920
0.196628 0.247501 0.163943
0.375158 0.263340 0.135653
0.575891 0.298619 0.030488
0.796597 0.346014 0.000000
1.000000 0.393072 0.000000
1.000000 0.423072 0.000000
0.000000 0.376776 0.261082
0.000000 0.379461 0.258305
0.000000 0.390204 0.242466
0.313573 0.401831 0.217716
0.530510 0.422217 0.174838
0.765835 0.464118 0.000000
0.986938 0.501701 0.000000
1.000000 0.517113 0.000000
0.000000 0.554467 0.364569
0.000000 0.556786 0.361730
0.000000 0.565942 0.347234
0.000000 0.582422 0.305211
0.458686 0.593194 0.277348
0.704341 0.607996 0.226780
0.949798 0.643122 0.101106
1.000000 0.644343 0.000000
0.000000 0.754177 0.482643
0.000000 0.755856 0.479896
0.000000 0.762722 0.467414
0.000000 0.775051 0.438117
0.156252 0.787472 0.398810
0.621668 0.795346 0.367193
0.884886 0.807980 0.318883
1.000000 0.796658 0.281285
0.000000 0.939483 0.596582
0.000000 0.940063 0.594476
0.000000 0.942229 0.586084
0.000000 0.945190 0.573083
0.000000 0.946685 0.569879
0.511620 0.945739 0.565515
0.778042 0.944305 0.541802
0.993713 0.946899 0.518517
0.000000 1.000000 0.678553
0.000000 1.000000 0.678645
0.000000 1.000000 0.680751
0.000000 1.000000 0.693385
0.215640 1.000000 0.734218
0.694148 1.000000 0.806729
0.804990 1.000000 0.801083
0.911803 1.000000 0.791196
0.095613 0.101411 0.204715
0.143465 0.101808 0.204257
0.262608 0.106447 0.208011
0.427314 0.090120 0.194491
0.613184 0.139895 0.165408
0.822354 0.214084 0.112520
1.000000 0.279973 0.000000
1.000000 0.327520 0.000000
0.057740 0.154635 0.218051
0.127626 0.153750 0.218753
0.252903 0.157351 0.218021
0.418952 0.151461 0.201816
0.606744 0.188632 0.178073
0.818112 0.245365 0.126680
1.000000 0.301549 0.000000
1.000000 0.344244 0.000000
0.000000 0.254704 0.253605
0.000000 0.256352 0.253361
0.209598 0.264317 0.252537
0.386175 0.276860 0.239536
0.586328 0.299992 0.213138
0.804837 0.337224 0.160403
1.000000 0.378607 0.000000
1.000000 0.406653 0.000000
0.000000 0.390112 0.320653
0.000000 0.392584 0.320500
0.000000 0.402380 0.316289
0.319005 0.416480 0.299229
0.541924 0.434607 0.270603
0.775082 0.467201 0.220432
0.992706 0.498177 0.133730
1.000000 0.510216 0.000000
0.000000 0.565911 0.416968
0.000000 0.567956 0.415259
0.000000 0.576532 0.407294
0.000000 0.592462 0.383520
0.461616 0.604944 0.354345
0.712947 0.618799 0.316136
0.955352 0.646723 0.254948
1.000000 0.643732 0.183352
0.000000 0.762142 0.526635
0.000000 0.763699 0.524712
0.000000 0.770138 0.515862
0.000000 0.781582 0.495857
0.187106 0.794797 0.465278
0.626093 0.801785 0.438758
0.888548 0.814115 0.399756
1.000000 0.799527 0.370459
0.000000 0.942016 0.629969
0.000000 0.942504 0.628290
0.000000 0.944396 0.621576
0.000000 0.946899 0.612024
0.000000 0.947784 0.611719
0.539757 0.946471 0.616388
0.785977 0.945312 0.594873
0.993927 0.948455 0.574395
0.000000 1.000000 0.700038
0.000000 1.000000 0.700160
0.000000 1.000000 0.702296
0.000000 1.000000 0.714199
0.254215 1.000000 0.752529
0.701167 1.000000 0.819333
0.819730 1.000000 0.823728
0.918212 1.000000 0.814664
0.126650 0.142336 0.332006
0.171267 0.144320 0.332128
0.282170 0.151492 0.332067
0.430762 0.155215 0.338689
0.639185 0.102022 0.337652
0.854612 0.000000 0.286290
1.000000 0.185306 0.247532
1.000000 0.272099 0.189700
0.093690 0.189700 0.343999
0.153780 0.190463 0.343664
0.275181 0.193698 0.342443
0.425483 0.194827 0.344915
0.633906 0.163180 0.340520
0.849241 0.131624 0.294133
1.000000 0.230533 0.256168
1.000000 0.297459 0.199130
0.000000 0.295567 0.371771
0.000000 0.296483 0.372045
0.231754 0.298192 0.372351
0.401373 0.298955 0.369116
0.614710 0.290318 0.354192
0.827817 0.310765 0.324681
1.000000 0.351293 0.288914
1.000000 0.380713 0.230777
0.000000 0.421515 0.419989
0.000000 0.422400 0.419684
0.000000 0.426825 0.418463
0.336461 0.438849 0.417304
0.563226 0.454292 0.400793
0.790799 0.472877 0.374640
1.000000 0.493355 0.336004
1.000000 0.500389 0.283787
0.000000 0.585229 0.500267
0.000000 0.587182 0.500175
0.000000 0.594903 0.499367
0.000000 0.609094 0.493538
0.471504 0.625208 0.475410
0.728023 0.637964 0.446998
0.965270 0.653681 0.408179
1.000000 0.645167 0.368078
0.000000 0.775875 0.601892
0.000000 0.777279 0.600855
0.000000 0.782834 0.596429
0.000000 0.792782 0.586664
0.264836 0.804959 0.571923
0.638605 0.812772 0.552026
0.895201 0.824002 0.522148
1.000000 0.805203 0.497475
0.000000 0.946502 0.688441
0.000000 0.946838 0.687282
0.000000 0.948333 0.682856
0.000000 0.950072 0.676936
0.000000 0.950011 0.678981
0.594659 0.947265 0.699580
0.803555 0.946777 0.681788
0.995300 0.951049 0.664881
0.000000 1.000000 0.737819
0.000000 1.000000 0.737881
0.000000 1.000000 0.739498
0.000000 1.000000 0.749477
0.278264 1.000000 0.782589
0.709163 1.000000 0.840299
0.843900 1.000000 0.859709
0.929168 1.000000 0.851926
0.165835 0.198154 0.492653
0.208530 0.199435 0.492653
0.322179 0.203891 0.492256
0.462531 0.207462 0.490242
0.643915 0.194858 0.500389
0.870451 0.117067 0.500206
1.000000 0.000000 0.452674
1.000000 0.224247 0.411170
0.132479 0.237339 0.502312
0.186923 0.237675 0.502007
0.312261 0.239292 0.500938
0.458656 0.239567 0.497749
0.640375 0.229557 0.504692
0.866361 0.180575 0.502373
1.000000 0.143954 0.455879
1.000000 0.262882 0.417456
0.000000 0.346532 0.527337
0.000000 0.344945 0.527581
0.249393 0.337560 0.528679
0.433875 0.337102 0.524346
0.624079 0.334173 0.522942
0.849058 0.319036 0.513878
1.000000 0.316472 0.472206
1.000000 0.373053 0.441718
0.000000 0.475502 0.567041
0.000000 0.475807 0.567010
0.000000 0.477455 0.566918
0.361608 0.480659 0.565850
0.581628 0.482856 0.560723
0.814267 0.483650 0.544305
1.000000 0.497658 0.517296
1.000000 0.506615 0.480201
0.000000 0.624750 0.623041
0.000000 0.625483 0.622797
0.000000 0.628626 0.621729
0.127749 0.635492 0.619409
0.500145 0.648585 0.617273
0.750607 0.662593 0.601099
0.976471 0.665095 0.573388
1.000000 0.653346 0.537530
0.000000 0.795132 0.699886
0.000000 0.796262 0.699763
0.000000 0.800259 0.698268
0.000000 0.806546 0.693935
0.335790 0.817624 0.689784
0.667750 0.826658 0.684474
0.906035 0.834501 0.661097
1.000000 0.813565 0.635676
0.000000 0.952941 0.768246
0.000000 0.953155 0.767178
0.000000 0.954070 0.762905
0.000000 0.955016 0.757443
0.000000 0.953674 0.758846
0.639521 0.949279 0.780392
0.831205 0.948638 0.778714
0.998383 0.953063 0.765347
0.000000 1.000000 0.788998
0.000000 1.000000 0.788754
0.000000 1.000000 0.788846
0.000000 1.000000 0.794736
0.214878 1.000000 0.819638
0.709163 1.000000 0.866423
0.872862 1.000000 0.900725
0.943114 1.000000 0.894377
0.213046 0.263035 0.682856
0.252750 0.263737 0.682582
0.368750 0.265171 0.681392
0.516167 0.265293 0.678706
0.679835 0.261204 0.673823
0.878019 0.245457 0.679194
1.000000 0.255833 0.658503
1.000000 0.345800 0.622370
0.181186 0.294713 0.689143
0.228916 0.294896 0.688808
0.355962 0.294987 0.687373
0.509453 0.293828 0.684382
0.677028 0.289616 0.679133
0.875151 0.278141 0.682521
1.000000 0.290745 0.661585
1.000000 0.371801 0.627222
0.000000 0.394720 0.708858
0.000000 0.392340 0.709071
0.286931 0.387945 0.708370
0.476905 0.387396 0.704860
0.661341 0.385992 0.699306
0.861265 0.384375 0.696864
1.000000 0.400275 0.675349
1.000000 0.462623 0.647974
0.000000 0.531670 0.737636
0.000000 0.531609 0.737697
0.021729 0.531731 0.737606
0.402106 0.529564 0.737423
0.619379 0.530297 0.732876
0.829648 0.532311 0.725429
1.000000 0.548363 0.705196
1.000000 0.594079 0.689967
0.000000 0.676081 0.777432
0.000000 0.676417 0.777310
0.000000 0.678004 0.776699
0.234897 0.681544 0.775296
0.546868 0.687984 0.772183
0.774716 0.694484 0.766201
0.974273 0.704738 0.751553
1.000000 0.713893 0.732082
0.000000 0.822232 0.821866
0.000000 0.822721 0.821683
0.000000 0.824826 0.820951
0.000000 0.829038 0.819333
0.409705 0.835416 0.816678
0.711696 0.841886 0.813138
0.921111 0.846616 0.801450
1.000000 0.833249 0.780026
0.000000 0.961791 0.867826
0.000000 0.961852 0.867277
0.000000 0.962066 0.864775
0.000000 0.961608 0.860105
0.197024 0.958892 0.855009
0.669612 0.953491 0.859953
0.867735 0.951843 0.871946
0.998444 0.953033 0.862272
0.000000 1.000000 0.872129
0.000000 1.000000 0.871397
0.000000 1.000000 0.868559
0.000000 1.000000 0.864469
0.000000 1.000000 0.868986
0.698878 1.000000 0.900847
0.895872 1.000000 0.936217
0.959533 0.999939 0.937743
0.299596 0.352331 0.879850
0.332006 0.353613 0.880674
0.434089 0.354986 0.879271
0.577661 0.357519 0.877317
0.740475 0.359136 0.873503
0.915953 0.360510 0.867094
1.000000 0.390906 0.837827
1.000000 0.468208 0.787381
0.278569 0.374517 0.877592
0.313542 0.375830 0.878752
0.420966 0.376593 0.877409
0.566644 0.377600 0.874754
0.730495 0.378027 0.870268
0.905486 0.377844 0.862821
1.000000 0.402533 0.834379
1.000000 0.472541 0.784878
0.195407 0.462989 0.889708
0.245823 0.463203 0.889403
0.378729 0.463142 0.887205
0.539513 0.463966 0.884031
0.709865 0.464607 0.878599
0.888853 0.466499 0.871885
1.000000 0.489937 0.846647
1.000000 0.553033 0.803067
0.000000 0.589776 0.903166
0.000000 0.589685 0.902708
0.304051 0.590417 0.901061
0.499733 0.596887 0.899443
0.677089 0.598840 0.894591
0.857908 0.603510 0.889128
1.000000 0.620935 0.868711
1.000000 0.667414 0.833066
0.000000 0.711177 0.915587
0.000000 0.710658 0.914519
0.000000 0.711177 0.912657
0.402075 0.715480 0.910552
0.634577 0.731930 0.906523
0.810544 0.740291 0.901213
0.975372 0.747738 0.889677
1.000000 0.781521 0.868925
0.000000 0.832120 0.931884
0.000000 0.832578 0.931853
0.000000 0.834073 0.931182
0.195956 0.837644 0.929717
0.552758 0.845090 0.926543
0.777981 0.861326 0.922759
0.928679 0.872770 0.918761
1.000000 0.885374 0.909819
0.000000 0.946990 0.951446
0.000000 0.947601 0.951629
0.000000 0.948669 0.950988
0.000000 0.950958 0.949889
0.466926 0.953552 0.947601
0.727504 0.955993 0.945037
0.898344 0.956817 0.943175
0.999786 0.956512 0.938323
0.000000 1.000000 0.964446
0.000000 1.000000 0.963867
0.000000 1.000000 0.961913
0.000000 1.000000 0.957794
0.379919 1.000000 0.953643
0.710658 1.000000 0.953491
0.900725 1.000000 0.964294
0.976135 0.998962 0.974212
0.461799 0.492470 0.996796
0.479072 0.494087 0.996857
0.539818 0.496742 0.995422
0.642603 0.504906 0.993835
0.769833 0.516258 0.991058
0.910979 0.530602 0.986938
1.000000 0.552453 0.981750
1.000000 0.615717 0.930358
0.458320 0.508080 0.995453
0.475471 0.509728 0.995514
0.536767 0.512596 0.994446
0.638758 0.519463 0.992737
0.765530 0.529778 0.989960
0.906310 0.543236 0.985870
1.000000 0.562646 0.980468
1.000000 0.622156 0.930419
0.460822 0.575128 0.994995
0.476600 0.576013 0.994812
0.534478 0.577752 0.993652
0.635279 0.586114 0.992767
0.756802 0.593561 0.989685
0.892699 0.603662 0.985351
1.000000 0.621118 0.980285
1.000000 0.670832 0.936553
0.450263 0.662898 0.995117
0.471931 0.666407 0.994903
0.548119 0.679774 0.993133
0.638849 0.686854 0.991638
0.749599 0.694148 0.989075
0.874022 0.703304 0.985473
1.000000 0.716915 0.981140
1.000000 0.750912 0.948516
0.353246 0.740139 0.997284
0.380835 0.741909 0.997131
0.467353 0.746944 0.995636
0.611597 0.768246 0.992584
0.752956 0.798093 0.987945
0.856443 0.803555 0.985046
0.970947 0.812741 0.981933
1.000000 0.835233 0.962646
0.149660 0.829374 1.000000
0.209720 0.829709 0.999817
0.355688 0.832456 0.998444
0.526421 0.840909 0.996033
0.696010 0.857542 0.992370
0.855589 0.892821 0.987610
0.946899 0.905180 0.986023
1.000000 0.914794 0.978058
0.000000 0.917937 1.000000
0.000000 0.918425 1.000000
0.211643 0.920745 1.000000
0.473487 0.926513 1.000000
0.669337 0.936278 0.998077
0.825681 0.948913 0.994751
0.936858 0.962860 0.990875
0.997162 0.968780 0.988586
0.000000 0.995331 1.000000
0.000000 0.995422 1.000000
0.000000 0.995972 1.000000
0.391913 0.997070 1.000000
0.634119 0.998291 1.000000
0.806241 0.999268 0.998718
0.925109 0.999542 0.997101
0.987671 0.998718 0.996185
