20 Preset/Russian Style/【3】LUT video cho PR-AE-FCPX/Lut Tone (23).cube
# Created by Adobe Lightroom plugin Export LUT (1.24.0)
# www.johnrellis.com/lightroom/exportlut.htm
# Preset: 俄罗斯情绪-素材江湖12
# Color profile: C:\Program Files (x86)\Common Files\Adobe\Color\Profiles\Recommended\VideoHD.icc
LUT_3D_SIZE 5
DOMAIN_MIN 0.000000 0.000000 0.000000
DOMAIN_MAX 0.903226 0.903226 0.903226
0.000000 0.000000 0.000000
0.121462 0.004059 0.000000
0.358373 0.087526 0.000000
0.641047 0.172702 0.000000
0.901213 0.242130 0.000000
0.000000 0.124544 0.045441
0.114900 0.126467 0.027008
0.368902 0.176699 0.000000
0.644282 0.233738 0.000000
0.904662 0.288151 0.000000
0.000000 0.383185 0.177523
0.000000 0.386542 0.137148
0.346990 0.386450 0.121401
0.634882 0.414557 0.000000
0.915496 0.441260 0.000000
0.000000 0.634974 0.335271
0.000000 0.635615 0.330724
0.234348 0.637995 0.306554
0.579706 0.636683 0.300725
0.877714 0.678645 0.287724
0.000000 0.903075 0.537041
0.000000 0.902861 0.539147
0.140291 0.903502 0.535821
0.571832 0.905028 0.529931
0.840085 0.902983 0.535515
0.010803 0.043397 0.123537
0.152834 0.040009 0.128237
0.400153 0.000000 0.100435
0.660792 0.136812 0.000000
0.914092 0.212589 0.000000
0.000000 0.161013 0.158846
0.157107 0.162509 0.155215
0.404334 0.183291 0.133608
0.661952 0.223026 0.008362
0.916594 0.271336 0.000000
0.000000 0.403815 0.259617
0.000000 0.406104 0.246647
0.371283 0.406409 0.224765
0.651331 0.425147 0.196536
0.922362 0.446387 0.078920
0.000000 0.642908 0.387518
0.000000 0.643366 0.385443
0.283360 0.645686 0.368536
0.592554 0.644892 0.362737
0.884245 0.685481 0.354070
0.000000 0.905486 0.561730
0.000000 0.905241 0.563897
0.243412 0.904784 0.569787
0.585443 0.906645 0.560388
0.844968 0.904723 0.564508
0.000000 0.163149 0.372045
0.195499 0.173617 0.371221
0.463447 0.170901 0.385595
0.700771 0.152895 0.351598
0.942901 0.202274 0.315160
0.139193 0.274510 0.394202
0.210300 0.257939 0.394507
0.465766 0.260929 0.399786
0.697292 0.259495 0.365850
0.941283 0.291661 0.337346
0.000000 0.459327 0.453437
0.177615 0.459968 0.452308
0.451148 0.462196 0.447089
0.683345 0.474464 0.438636
0.937194 0.484016 0.407599
0.000000 0.671382 0.533867
0.000000 0.671809 0.532677
0.390845 0.673671 0.525505
0.636622 0.674189 0.514366
0.912322 0.705806 0.513298
0.000000 0.915679 0.644038
0.000000 0.915160 0.645655
0.328740 0.912779 0.657923
0.630304 0.912993 0.659022
0.863096 0.911223 0.659052
0.212589 0.335485 0.617670
0.293950 0.343908 0.617060
0.476570 0.375830 0.614527
0.733272 0.377447 0.627466
0.954894 0.398901 0.612329
0.276768 0.401923 0.625818
0.323888 0.400092 0.625788
0.488014 0.422370 0.623377
0.731655 0.422156 0.634180
0.953491 0.437873 0.619867
0.328710 0.543114 0.651026
0.377966 0.543359 0.650080
0.508202 0.540887 0.654047
0.724971 0.548821 0.657832
0.951080 0.558892 0.647578
0.246098 0.717800 0.711482
0.313878 0.718166 0.711208
0.491188 0.719997 0.710292
0.711971 0.724025 0.707515
0.948119 0.734035 0.701991
0.000000 0.933989 0.796201
0.000000 0.933623 0.794736
0.375402 0.931670 0.788449
0.697322 0.925597 0.797482
0.895933 0.923919 0.795926
0.471534 0.569055 0.876738
0.503563 0.572992 0.876127
0.613977 0.589868 0.874388
0.774563 0.616999 0.871489
0.992920 0.617578 0.873899
0.486702 0.596551 0.878935
0.516503 0.599878 0.878477
0.621424 0.614496 0.876707
0.774990 0.640620 0.873808
0.989380 0.639460 0.876188
0.569696 0.707393 0.886717
0.583032 0.703548 0.886839
0.640040 0.692073 0.887755
0.780484 0.714412 0.885130
0.978759 0.714473 0.887266
0.545220 0.814176 0.911192
0.568292 0.813748 0.910521
0.656153 0.812558 0.907988
0.789517 0.813779 0.908324
0.962127 0.826047 0.908965
0.548180 0.946563 0.944182
0.571160 0.946593 0.944030
0.658564 0.947021 0.943694
0.795834 0.947509 0.942870
0.944335 0.948547 0.942687
