20 Preset/Dark Style/【3】LUT video cho PR-AE-FCPX/19Tones (3)/19Tones - Village.cube
# Created by Adobe Lightroom plugin Export LUT (1.24.0)
# www.johnrellis.com/lightroom/exportlut.htm
# Preset: 19Tones - Village
# Color profile: E:\lut插件\exportlut.1.24\exportlut.lrplugin\color profiles\Rec709gamma2.4.icc
LUT_3D_SIZE 8
DOMAIN_MIN 0.000000 0.000000 0.000000
DOMAIN_MAX 0.903226 0.903226 0.903226
0.105837 0.187747 0.211307
0.115023 0.188144 0.211704
0.171145 0.188296 0.212619
0.302892 0.181979 0.212863
0.545617 0.126619 0.209232
0.818479 0.000000 0.200443
1.000000 0.000000 0.190829
1.000000 0.011170 0.205356
0.109407 0.192416 0.212558
0.116518 0.192905 0.212314
0.169497 0.195956 0.211856
0.283330 0.194949 0.211704
0.501854 0.167239 0.208927
0.779171 0.000000 0.199588
1.000000 0.000000 0.187015
1.000000 0.101869 0.192935
0.127901 0.222446 0.216831
0.142580 0.216373 0.217411
0.185885 0.228275 0.215152
0.345220 0.257572 0.205020
0.564782 0.252781 0.196994
0.853788 0.254185 0.174441
1.000000 0.292851 0.158785
1.000000 0.327733 0.184573
0.177920 0.300938 0.222904
0.194705 0.288426 0.223728
0.216068 0.251682 0.225772
0.425360 0.369421 0.207553
0.761379 0.509148 0.076478
0.925505 0.514031 0.000000
1.000000 0.502556 0.000000
1.000000 0.493690 0.135042
0.279637 0.445624 0.217838
0.293736 0.427008 0.220249
0.317967 0.363775 0.227024
0.361364 0.338689 0.227604
0.673335 0.547539 0.164645
0.898497 0.680720 0.000000
1.000000 0.663844 0.000000
1.000000 0.645075 0.000000
0.421576 0.607782 0.201816
0.447272 0.609400 0.203464
0.472572 0.548516 0.209445
0.451881 0.430396 0.223209
0.594934 0.496407 0.207614
0.853178 0.723842 0.163302
0.987671 0.816678 0.210513
1.000000 0.787259 0.170138
0.590570 0.781582 0.249241
0.602594 0.777646 0.247379
0.628656 0.743038 0.224643
0.653681 0.666194 0.201663
0.611139 0.518639 0.205844
0.821012 0.702724 0.190005
0.949645 0.834623 0.321355
1.000000 0.887175 0.444343
0.754604 0.907073 0.508659
0.759548 0.904967 0.503380
0.781918 0.897154 0.486641
0.824491 0.881895 0.457465
0.843015 0.815335 0.308049
0.901823 0.801480 0.303014
0.971466 0.877836 0.465187
1.000000 0.917571 0.591669
0.107210 0.189120 0.212955
0.108644 0.189639 0.213016
0.150088 0.190433 0.217685
0.263920 0.184298 0.219364
0.479225 0.143618 0.219364
0.752621 0.000000 0.214817
0.978546 0.000000 0.208621
1.000000 0.000000 0.212772
0.104250 0.192538 0.215732
0.114290 0.193301 0.216587
0.162509 0.194491 0.217563
0.270146 0.192660 0.218784
0.478462 0.164065 0.218082
0.749966 0.000000 0.212467
0.956878 0.000000 0.204746
1.000000 0.000000 0.204715
0.103517 0.228000 0.220554
0.135714 0.223026 0.222934
0.181674 0.227848 0.221805
0.324193 0.247898 0.213931
0.526452 0.238773 0.209812
0.789120 0.217655 0.197879
0.978424 0.224155 0.185946
1.000000 0.268711 0.192172
0.154025 0.304845 0.228428
0.179843 0.293248 0.229007
0.216587 0.257053 0.230045
0.362829 0.332464 0.221317
0.646876 0.423346 0.169375
0.835080 0.433082 0.129122
0.982116 0.437690 0.116762
1.000000 0.446082 0.141878
0.259831 0.454139 0.225620
0.277867 0.433753 0.227481
0.311437 0.368261 0.232273
0.338689 0.325475 0.233005
0.617517 0.502831 0.192172
0.858854 0.636835 0.000000
0.976684 0.632105 0.000000
1.000000 0.619715 0.000000
0.391699 0.597833 0.213291
0.405585 0.585229 0.214298
0.438209 0.528588 0.219303
0.431464 0.420630 0.228855
0.559350 0.470130 0.218692
0.835294 0.705623 0.180575
0.977752 0.804379 0.208225
1.000000 0.774929 0.151827
0.556756 0.762692 0.242710
0.561212 0.750942 0.234745
0.587579 0.712184 0.217868
0.614466 0.634485 0.205875
0.580194 0.497658 0.212680
0.791867 0.672572 0.191318
0.934264 0.816678 0.289677
1.000000 0.874571 0.397894
0.729122 0.896574 0.472236
0.738216 0.896452 0.475380
0.761044 0.887175 0.455177
0.805478 0.870115 0.423865
0.857084 0.835294 0.360571
0.904753 0.805875 0.320897
0.968292 0.874449 0.461097
1.000000 0.915557 0.589349
0.113924 0.193942 0.219730
0.118044 0.195560 0.220737
0.127962 0.202609 0.224979
0.226902 0.225559 0.260197
0.504601 0.160861 0.281987
0.804105 0.000000 0.277867
1.000000 0.000000 0.285191
1.000000 0.000000 0.306218
0.119356 0.199130 0.224857
0.125002 0.201358 0.226688
0.139284 0.210239 0.232090
0.246067 0.225162 0.262699
0.501671 0.163943 0.273991
0.791592 0.000000 0.268162
0.989288 0.000000 0.275059
1.000000 0.000000 0.292576
0.073732 0.231357 0.251347
0.102632 0.233585 0.253605
0.188022 0.242954 0.262089
0.341985 0.238102 0.261784
0.582666 0.209689 0.262089
0.833066 0.153506 0.262455
0.999542 0.163729 0.266911
1.000000 0.245670 0.286229
0.000000 0.390387 0.266026
0.000000 0.386328 0.259342
0.256107 0.343053 0.272984
0.416968 0.373297 0.273228
0.691768 0.433936 0.238590
0.872984 0.425544 0.229984
1.000000 0.429572 0.239902
1.000000 0.444221 0.268650
0.000000 0.556237 0.251774
0.134066 0.543389 0.262211
0.349432 0.476631 0.273686
0.370855 0.350561 0.261814
0.663935 0.547539 0.264591
0.873808 0.645747 0.215885
0.983642 0.628687 0.155184
1.000000 0.614710 0.224430
0.354711 0.675135 0.281437
0.386694 0.665522 0.282506
0.455879 0.609186 0.269871
0.486671 0.493416 0.256748
0.558892 0.473335 0.251713
0.832486 0.709621 0.282383
0.971557 0.800565 0.335851
1.000000 0.774777 0.297185
0.549065 0.806332 0.347356
0.556420 0.797299 0.336553
0.589349 0.761685 0.302983
0.631281 0.686397 0.260807
0.618677 0.547570 0.233585
0.789944 0.674403 0.244602
0.935576 0.826322 0.387030
1.000000 0.881102 0.504173
0.719295 0.906432 0.537224
0.722377 0.903288 0.527825
0.744747 0.893980 0.505943
0.794491 0.880247 0.483284
0.848661 0.846281 0.415412
0.900786 0.805112 0.354803
0.965972 0.877867 0.508232
0.999390 0.919280 0.638819
0.128878 0.205203 0.236667
0.136080 0.208713 0.240146
0.168490 0.226505 0.253696
0.205722 0.254948 0.273289
0.376349 0.371954 0.384924
0.764218 0.309331 0.477546
0.969909 0.217990 0.488930
1.000000 0.195651 0.478950
0.139315 0.214267 0.246799
0.147433 0.217960 0.250248
0.186130 0.238346 0.266056
0.231357 0.272282 0.289311
0.407385 0.394110 0.406592
0.779019 0.313725 0.480751
0.970733 0.220676 0.481575
1.000000 0.192874 0.468757
0.141787 0.227756 0.257969
0.153384 0.231601 0.260929
0.217380 0.264347 0.293675
0.300877 0.319677 0.334142
0.555383 0.410803 0.461738
0.842893 0.340764 0.490517
1.000000 0.302770 0.484321
1.000000 0.323491 0.475807
0.000000 0.378180 0.388159
0.000000 0.381140 0.390906
0.173434 0.399573 0.408759
0.469154 0.439765 0.451545
0.695796 0.415015 0.435584
0.869657 0.403052 0.426642
0.996246 0.417243 0.431525
1.000000 0.454627 0.452369
0.000000 0.722591 0.514214
0.000000 0.711421 0.499275
0.000000 0.674464 0.448280
0.536461 0.580591 0.441749
0.716060 0.621057 0.461524
0.885405 0.658320 0.437446
0.988800 0.629511 0.421576
1.000000 0.622187 0.446754
0.000000 0.801511 0.396551
0.000000 0.804318 0.405097
0.374304 0.770230 0.433783
0.588067 0.686793 0.428168
0.602838 0.518364 0.340826
0.844572 0.745296 0.470741
0.962127 0.804715 0.519524
1.000000 0.778500 0.471870
0.447272 0.863310 0.469154
0.479805 0.860014 0.476478
0.579370 0.842069 0.496925
0.660273 0.793973 0.447974
0.702663 0.679530 0.343084
0.796506 0.691127 0.345342
0.930449 0.838834 0.527489
1.000000 0.885527 0.626001
0.713039 0.929778 0.655146
0.722042 0.927794 0.657832
0.748470 0.919921 0.653162
0.784237 0.904631 0.613977
0.836606 0.874571 0.542199
0.895140 0.819150 0.432563
0.958312 0.880064 0.575158
0.991821 0.925628 0.713771
0.163699 0.231327 0.276463
0.174868 0.236912 0.283024
0.222263 0.261357 0.306706
0.347356 0.343725 0.370550
0.417243 0.401312 0.413703
0.638941 0.588922 0.595941
0.852720 0.644160 0.710567
0.989349 0.611200 0.722103
0.176791 0.242008 0.289311
0.188907 0.248478 0.296666
0.242313 0.275792 0.323156
0.371923 0.360113 0.388281
0.447791 0.423682 0.435737
0.655604 0.606195 0.612360
0.859678 0.646174 0.713558
0.991150 0.611810 0.720729
0.197696 0.266026 0.310643
0.213901 0.274693 0.321019
0.272953 0.304234 0.352789
0.430091 0.401648 0.434119
0.531212 0.489296 0.500053
0.685298 0.638148 0.642756
0.879088 0.633692 0.707729
0.997986 0.594018 0.700801
0.163302 0.307958 0.355901
0.182345 0.310765 0.357763
0.257176 0.327031 0.368048
0.487922 0.456519 0.494118
0.647028 0.597192 0.603845
0.773495 0.689418 0.707973
0.919432 0.632685 0.701106
1.000000 0.590204 0.673579
0.000000 0.599634 0.599176
0.000000 0.603815 0.603388
0.158816 0.615747 0.615900
0.496956 0.639765 0.641810
0.719448 0.676967 0.679591
0.846494 0.646174 0.649775
0.950530 0.629877 0.630579
1.000000 0.631891 0.626520
0.000000 0.858152 0.713985
0.000000 0.855009 0.709224
0.000000 0.836362 0.681544
0.446876 0.800992 0.629511
0.686030 0.716060 0.596521
0.827420 0.763119 0.642451
0.939635 0.792752 0.651667
1.000000 0.771023 0.633722
0.254978 0.908019 0.638453
0.271824 0.904753 0.630823
0.356817 0.893156 0.605127
0.558984 0.868193 0.604761
0.720699 0.805356 0.587579
0.757076 0.667018 0.444617
0.910369 0.840543 0.645716
0.984405 0.876219 0.697993
0.526085 0.949828 0.640345
0.546044 0.947570 0.644129
0.619409 0.938598 0.660883
0.736934 0.925872 0.707088
0.803372 0.899901 0.676967
0.864744 0.849271 0.563653
0.935363 0.864164 0.603876
0.978302 0.921782 0.752865
0.250767 0.294163 0.375891
0.267216 0.302770 0.385748
0.330388 0.335241 0.417426
0.473518 0.423896 0.492866
0.658137 0.604974 0.616052
0.693385 0.647150 0.651331
0.794095 0.767269 0.765835
0.875364 0.838224 0.844022
0.250156 0.295445 0.373205
0.263798 0.302037 0.380163
0.325780 0.334020 0.412238
0.464485 0.418982 0.485664
0.649836 0.595605 0.608240
0.685389 0.638239 0.642847
0.788510 0.760464 0.759213
0.874418 0.830869 0.838834
0.283116 0.327977 0.404669
0.296300 0.334386 0.412696
0.370336 0.374212 0.454475
0.518364 0.466865 0.532799
0.692226 0.638727 0.653285
0.729030 0.688228 0.690303
0.811643 0.788663 0.786557
0.891783 0.832639 0.846189
0.253574 0.332860 0.392950
0.273472 0.343969 0.405524
0.380743 0.406043 0.473945
0.576318 0.534234 0.594659
0.753964 0.710964 0.725307
0.797299 0.771206 0.769619
0.851408 0.836088 0.833066
0.921019 0.840024 0.859464
0.188693 0.464149 0.533959
0.219089 0.465583 0.534661
0.317815 0.473945 0.539574
0.462654 0.498451 0.551202
0.718776 0.679286 0.702358
0.815366 0.793240 0.790982
0.869627 0.840848 0.843198
0.946624 0.809140 0.836332
0.000000 0.764370 0.756527
0.163119 0.769406 0.761746
0.359289 0.772152 0.765682
0.541405 0.779477 0.774838
0.706081 0.793027 0.789944
0.842191 0.825193 0.822324
0.914549 0.810880 0.807767
0.979614 0.800992 0.796597
0.515770 0.943236 0.867033
0.537713 0.942535 0.866819
0.587396 0.936858 0.859403
0.660029 0.925200 0.843290
0.733944 0.903990 0.812589
0.823301 0.848875 0.773953
0.901793 0.867338 0.796078
0.972076 0.882475 0.802335
0.570703 0.967590 0.804501
0.573297 0.966339 0.801389
0.601129 0.962097 0.794247
0.658991 0.954711 0.784512
0.741024 0.938628 0.775998
0.841398 0.902678 0.768002
0.902037 0.845212 0.662104
0.964080 0.923857 0.816068
0.388952 0.392248 0.517693
0.408789 0.403662 0.529351
0.471382 0.439307 0.558434
0.588586 0.523125 0.617517
0.712764 0.648524 0.695155
0.795163 0.768582 0.767086
0.803067 0.778286 0.776455
0.851011 0.835569 0.832547
0.378210 0.386755 0.506889
0.398383 0.398474 0.519310
0.460883 0.433417 0.549157
0.574060 0.511620 0.605127
0.701076 0.635554 0.683406
0.787106 0.758724 0.757565
0.792630 0.765499 0.764096
0.842283 0.825315 0.822416
0.405341 0.416785 0.534539
0.420935 0.425147 0.542107
0.483040 0.459907 0.570092
0.596399 0.539666 0.627008
0.718471 0.659144 0.703639
0.808225 0.784573 0.782559
0.816587 0.794675 0.792386
0.861692 0.848020 0.844907
0.407233 0.440742 0.539605
0.425666 0.450446 0.548791
0.490486 0.486580 0.583703
0.611048 0.570092 0.650874
0.742458 0.695064 0.734340
0.835386 0.814878 0.815152
0.848569 0.832700 0.829740
0.882689 0.872068 0.868956
0.272190 0.402167 0.482124
0.280186 0.399542 0.477363
0.328038 0.409216 0.482216
0.513848 0.518975 0.592767
0.714931 0.678340 0.723110
0.837552 0.815763 0.820340
0.865660 0.852598 0.849454
0.901183 0.892943 0.889952
0.239292 0.628046 0.698726
0.268925 0.628748 0.699214
0.357885 0.629358 0.698573
0.479072 0.631708 0.696559
0.609064 0.640345 0.690303
0.825254 0.807279 0.817594
0.893980 0.884825 0.881804
0.923857 0.911589 0.911192
0.427497 0.865446 0.855741
0.451850 0.866453 0.857053
0.518639 0.866789 0.858427
0.621515 0.868894 0.862181
0.729061 0.872618 0.867674
0.827085 0.881712 0.878019
0.907469 0.899962 0.897063
0.953887 0.887449 0.884459
0.645655 0.975952 0.921233
0.655451 0.975799 0.921752
0.696712 0.975525 0.924620
0.748531 0.972808 0.923796
0.796994 0.965240 0.913054
0.841032 0.953033 0.893706
0.897490 0.919646 0.868345
0.953399 0.932799 0.885954
0.591638 0.558434 0.692897
0.603235 0.567254 0.698634
0.634760 0.589532 0.709804
0.698970 0.645533 0.739467
0.770230 0.721828 0.776242
0.829252 0.798886 0.815457
0.862272 0.848692 0.845548
0.866148 0.853147 0.850004
0.580224 0.549584 0.683619
0.592615 0.558831 0.690028
0.628138 0.584680 0.704585
0.692378 0.639307 0.734005
0.765927 0.716976 0.772274
0.826841 0.795987 0.813046
0.860288 0.846372 0.843259
0.863157 0.849699 0.846555
0.578180 0.556603 0.685695
0.588434 0.563714 0.690242
0.624201 0.588556 0.704585
0.698268 0.652155 0.741787
0.770443 0.726131 0.778622
0.830838 0.801450 0.818387
0.867308 0.854490 0.851347
0.869688 0.857237 0.854124
0.564752 0.562829 0.680323
0.575891 0.570489 0.686702
0.612726 0.594690 0.705562
0.688685 0.654780 0.742336
0.772519 0.735744 0.786069
0.839597 0.813657 0.830381
0.882353 0.871702 0.868559
0.884245 0.873838 0.870726
0.442145 0.507683 0.618677
0.461006 0.517967 0.628229
0.522454 0.551232 0.656825
0.639857 0.630640 0.719112
0.747524 0.719905 0.776791
0.836118 0.812314 0.832029
0.892973 0.882841 0.880980
0.899077 0.890593 0.887602
0.330755 0.561669 0.669093
0.336675 0.557153 0.663935
0.367407 0.544518 0.647822
0.428290 0.529686 0.622766
0.624079 0.634119 0.708705
0.815915 0.798917 0.825742
0.903410 0.893095 0.894408
0.922301 0.916350 0.913756
0.397223 0.780758 0.835477
0.407233 0.779782 0.834623
0.449134 0.776089 0.831296
0.529046 0.772732 0.827146
0.627466 0.768856 0.819608
0.728664 0.768551 0.806638
0.891386 0.883421 0.889342
0.941436 0.937224 0.935149
0.601404 0.929137 0.921477
0.607782 0.928893 0.921355
0.638911 0.928710 0.921752
0.697200 0.929473 0.923644
0.765743 0.930785 0.926238
0.834531 0.933440 0.930022
0.899229 0.939361 0.936889
0.954650 0.951537 0.949859
