20 Preset/Dark Style/【3】LUT video cho PR-AE-FCPX/19Tones (3)/19Tones - Reflection x Water.cube
# Created by Adobe Lightroom plugin Export LUT (1.24.0)
# www.johnrellis.com/lightroom/exportlut.htm
# Preset: 19Tones - Reflection x Water
# Color profile: E:\lut插件\exportlut.1.24\exportlut.lrplugin\color profiles\Rec709gamma2.4.icc
LUT_3D_SIZE 8
DOMAIN_MIN 0.000000 0.000000 0.000000
DOMAIN_MAX 0.903226 0.903226 0.903226
0.105837 0.187747 0.211307
0.090120 0.188540 0.209262
0.172488 0.182010 0.220035
0.455940 0.012573 0.260624
0.793088 0.000000 0.319158
1.000000 0.000000 0.385138
1.000000 0.000000 0.422034
1.000000 0.000000 0.459266
0.111147 0.181582 0.211460
0.098177 0.183627 0.208316
0.150362 0.186038 0.210025
0.384039 0.123140 0.217563
0.718776 0.000000 0.253178
0.990326 0.000000 0.311376
1.000000 0.000000 0.362890
1.000000 0.000000 0.416785
0.000000 0.236851 0.197848
0.074006 0.234653 0.198764
0.130861 0.201907 0.216770
0.338842 0.240726 0.190127
0.688685 0.186801 0.171298
0.971405 0.000000 0.161532
1.000000 0.000000 0.172885
1.000000 0.000000 0.251041
0.000000 0.554681 0.186160
0.000000 0.546380 0.192477
0.377996 0.503014 0.247868
0.455482 0.422248 0.387121
0.750668 0.486488 0.171725
0.905638 0.461585 0.000000
1.000000 0.374060 0.000000
1.000000 0.000000 0.000000
0.301915 0.787106 0.339178
0.366674 0.783169 0.343694
0.541924 0.776181 0.377325
0.691035 0.728206 0.485389
0.698299 0.641260 0.594415
0.851896 0.653071 0.379889
0.982879 0.610742 0.000000
1.000000 0.571160 0.000000
0.592706 0.885344 0.576226
0.627741 0.889830 0.598718
0.686824 0.885710 0.614008
0.768307 0.871275 0.649439
0.824643 0.837369 0.699977
0.823697 0.794400 0.758450
0.906035 0.804532 0.666987
1.000000 0.761593 0.347234
0.746670 0.936950 0.742306
0.755367 0.937163 0.746487
0.777493 0.934600 0.750546
0.817411 0.930968 0.761898
0.859373 0.915007 0.781033
0.889189 0.895048 0.811124
0.887297 0.871489 0.844785
0.929198 0.877195 0.806332
0.839200 0.968322 0.843107
0.841611 0.968048 0.843565
0.852750 0.967285 0.846799
0.873747 0.966186 0.854246
0.887510 0.957641 0.846403
0.917082 0.949187 0.865751
0.936126 0.939208 0.887266
0.934051 0.925261 0.906493
0.106172 0.187320 0.210056
0.103243 0.186557 0.210178
0.139773 0.183780 0.214908
0.354894 0.136080 0.228763
0.692714 0.000000 0.261265
0.964935 0.000000 0.318853
1.000000 0.000000 0.371405
1.000000 0.000000 0.426825
0.111177 0.182528 0.207156
0.094881 0.182132 0.206516
0.145632 0.181552 0.207187
0.345892 0.139071 0.207126
0.664271 0.000000 0.218601
0.942901 0.000000 0.266911
1.000000 0.000000 0.325231
1.000000 0.000000 0.389197
0.000000 0.225559 0.202884
0.073396 0.224704 0.204135
0.130831 0.202701 0.221225
0.325231 0.231754 0.192050
0.625086 0.171237 0.179995
0.902403 0.000000 0.167269
1.000000 0.000000 0.173373
1.000000 0.000000 0.232700
0.000000 0.468635 0.208133
0.000000 0.464851 0.211978
0.313115 0.438178 0.247196
0.354650 0.351629 0.335546
0.635218 0.400153 0.182284
0.823789 0.386755 0.000000
1.000000 0.315190 0.000000
1.000000 0.000000 0.039155
0.249882 0.765805 0.335393
0.321386 0.759335 0.335637
0.504417 0.747402 0.358343
0.650996 0.688258 0.445441
0.646693 0.586755 0.545678
0.818997 0.609583 0.335485
0.956115 0.577539 0.000000
1.000000 0.542870 0.000000
0.558770 0.872557 0.551781
0.579431 0.871855 0.556909
0.649714 0.868315 0.575280
0.745113 0.855772 0.617945
0.809537 0.821653 0.677241
0.812619 0.780880 0.745357
0.899901 0.791287 0.645289
1.000000 0.745815 0.311620
0.725368 0.929992 0.722927
0.728634 0.928466 0.720729
0.753353 0.925505 0.724605
0.800229 0.922423 0.740200
0.849760 0.908141 0.767086
0.881376 0.886961 0.798978
0.877043 0.859464 0.831632
0.921752 0.864225 0.786191
0.826932 0.965240 0.832242
0.831815 0.965515 0.834989
0.843351 0.964569 0.837980
0.866056 0.963500 0.846189
0.893523 0.960266 0.856260
0.918700 0.950317 0.869322
0.935393 0.938476 0.886595
0.933043 0.924163 0.905486
0.096498 0.181338 0.204318
0.094728 0.180789 0.204379
0.097566 0.182467 0.206455
0.372992 0.132692 0.278233
0.764553 0.000000 0.388220
0.994995 0.000000 0.403357
1.000000 0.000000 0.395483
1.000000 0.000000 0.393194
0.091402 0.181003 0.206394
0.094575 0.181155 0.207156
0.109926 0.190585 0.213901
0.396948 0.121798 0.289036
0.744808 0.000000 0.341588
0.972686 0.000000 0.355505
1.000000 0.000000 0.355932
1.000000 0.000000 0.360479
0.000000 0.222995 0.235630
0.000000 0.228733 0.238437
0.182315 0.226169 0.235996
0.420020 0.186069 0.216281
0.744320 0.000000 0.207065
0.965576 0.000000 0.198825
1.000000 0.000000 0.199252
1.000000 0.000000 0.227665
0.000000 0.481666 0.293126
0.000000 0.486091 0.284184
0.350317 0.479774 0.311376
0.421912 0.402136 0.405402
0.692714 0.411994 0.200687
0.889464 0.355688 0.106386
1.000000 0.223270 0.104616
1.000000 0.000000 0.118990
0.249393 0.756313 0.418402
0.331884 0.753658 0.423285
0.520287 0.747250 0.449470
0.676722 0.708492 0.518669
0.683375 0.628382 0.605768
0.841428 0.623377 0.364569
0.965423 0.568780 0.000000
1.000000 0.515007 0.000000
0.571496 0.867399 0.596155
0.592767 0.867338 0.602106
0.658015 0.863645 0.616754
0.747463 0.854002 0.647150
0.809598 0.820188 0.694453
0.812467 0.782254 0.754940
0.903746 0.790402 0.645716
1.000000 0.742306 0.329290
0.739956 0.930571 0.750881
0.743557 0.929290 0.749660
0.764065 0.925841 0.750484
0.805570 0.922026 0.760739
0.852567 0.909392 0.781338
0.884520 0.889982 0.810910
0.883055 0.867185 0.843931
0.929808 0.873228 0.798611
0.830777 0.965148 0.841978
0.832242 0.964630 0.841367
0.843412 0.963684 0.843992
0.868315 0.963378 0.854398
0.895140 0.961059 0.863218
0.921263 0.952239 0.877073
0.938109 0.941283 0.893492
0.935882 0.927672 0.910887
0.083558 0.183810 0.221378
0.096010 0.185550 0.224247
0.141085 0.205325 0.234440
0.195651 0.247990 0.266850
0.661311 0.197147 0.429969
0.981323 0.000000 0.611505
1.000000 0.000000 0.618677
1.000000 0.000000 0.575280
0.094179 0.193820 0.234806
0.108064 0.196353 0.238102
0.165530 0.221653 0.250340
0.230442 0.271733 0.288914
0.709743 0.186862 0.457435
0.986145 0.000000 0.619165
1.000000 0.000000 0.594598
1.000000 0.000000 0.554986
0.084840 0.226017 0.257725
0.115663 0.230198 0.261387
0.222416 0.263127 0.292058
0.336553 0.344274 0.357855
0.806943 0.107271 0.521263
0.999603 0.000000 0.540520
1.000000 0.000000 0.509361
1.000000 0.000000 0.479683
0.000000 0.449134 0.418830
0.000000 0.454963 0.421973
0.248447 0.469947 0.422644
0.516655 0.439094 0.408667
0.765286 0.338140 0.307774
0.954376 0.147005 0.288640
1.000000 0.000000 0.275456
1.000000 0.000000 0.259922
0.216312 0.758419 0.559777
0.314366 0.753079 0.556909
0.511254 0.743801 0.555627
0.699794 0.731655 0.606989
0.720058 0.676661 0.677150
0.871397 0.624292 0.396887
0.997253 0.537560 0.167941
1.000000 0.445594 0.171969
0.621241 0.868986 0.687160
0.641932 0.873899 0.695277
0.692531 0.869474 0.701656
0.771817 0.865995 0.723018
0.829435 0.839322 0.751369
0.827268 0.803372 0.789273
0.916442 0.794339 0.655909
1.000000 0.729702 0.341588
0.749508 0.929747 0.783749
0.756893 0.929717 0.786038
0.781369 0.928374 0.791775
0.821775 0.926238 0.802823
0.865415 0.918517 0.816983
0.893797 0.899504 0.836179
0.890532 0.876982 0.860166
0.939239 0.879606 0.805936
0.842985 0.967041 0.864530
0.845212 0.966766 0.864775
0.855161 0.965850 0.866667
0.874693 0.964569 0.871855
0.899596 0.962676 0.878660
0.924743 0.955383 0.889036
0.941741 0.945251 0.903380
0.940764 0.933562 0.919921
0.105470 0.211612 0.281529
0.128969 0.218021 0.288792
0.212680 0.247349 0.310338
0.336339 0.344030 0.357641
0.464302 0.436103 0.447913
0.807858 0.533257 0.634394
1.000000 0.348455 0.717922
1.000000 0.030152 0.778042
0.128542 0.229191 0.300450
0.149416 0.235172 0.308965
0.241245 0.267918 0.332647
0.368383 0.366491 0.379522
0.497169 0.461555 0.472938
0.826291 0.531792 0.643458
1.000000 0.353643 0.722194
1.000000 0.096345 0.780270
0.172213 0.280888 0.339513
0.197787 0.287907 0.349523
0.296452 0.318761 0.383032
0.473060 0.442542 0.454444
0.572015 0.524773 0.534417
0.868589 0.492622 0.651698
1.000000 0.340276 0.729641
1.000000 0.000000 0.744289
0.068330 0.376135 0.414557
0.151186 0.379217 0.417243
0.309270 0.397681 0.432227
0.576959 0.523369 0.541985
0.717098 0.590936 0.625940
0.936004 0.476051 0.699092
1.000000 0.349737 0.673243
1.000000 0.000000 0.634455
0.000000 0.684474 0.633845
0.000000 0.689265 0.638392
0.350378 0.703151 0.651637
0.632136 0.697261 0.644160
0.741024 0.657313 0.619348
0.893675 0.546044 0.470832
1.000000 0.439796 0.443000
1.000000 0.267735 0.412634
0.472480 0.845731 0.706935
0.503899 0.844541 0.707912
0.595453 0.835721 0.706325
0.707088 0.828702 0.713039
0.804257 0.818479 0.744991
0.819699 0.798276 0.795560
0.928283 0.762264 0.612818
1.000000 0.670039 0.336034
0.722988 0.923674 0.804379
0.728389 0.922301 0.803738
0.757351 0.918730 0.806577
0.799832 0.918395 0.812894
0.856321 0.917082 0.829770
0.891783 0.899382 0.845304
0.889036 0.876738 0.866148
0.945678 0.868925 0.784390
0.821988 0.963439 0.867857
0.826658 0.962890 0.869108
0.838407 0.961883 0.870329
0.863951 0.962524 0.878202
0.893370 0.961028 0.886290
0.922515 0.956786 0.895903
0.941375 0.945953 0.907927
0.940002 0.933227 0.922179
0.195712 0.288975 0.421576
0.226993 0.298344 0.431159
0.334173 0.334203 0.456947
0.516564 0.439429 0.519707
0.636011 0.585901 0.593072
0.708492 0.664363 0.667628
0.840055 0.763546 0.780392
1.000000 0.685145 0.819699
0.207065 0.296452 0.419104
0.228397 0.301366 0.425544
0.333043 0.337011 0.452674
0.511467 0.438483 0.515496
0.623346 0.573266 0.580957
0.700710 0.655390 0.659144
0.842771 0.749966 0.772885
1.000000 0.671901 0.814633
0.285466 0.367681 0.477089
0.307195 0.372900 0.484993
0.408942 0.407935 0.521263
0.577600 0.504875 0.571771
0.676112 0.628046 0.633173
0.739528 0.700679 0.702113
0.879698 0.747707 0.787259
1.000000 0.678462 0.823697
0.265904 0.425696 0.492531
0.303014 0.435615 0.504631
0.464210 0.494453 0.566705
0.650629 0.598169 0.650507
0.758694 0.723873 0.724178
0.800717 0.775418 0.773678
0.929747 0.755581 0.816373
1.000000 0.699153 0.844327
0.252689 0.586816 0.619074
0.294408 0.587976 0.620172
0.426551 0.595148 0.626642
0.590875 0.616968 0.642695
0.775235 0.743191 0.743496
0.851255 0.760098 0.783902
0.966888 0.707698 0.816861
1.000000 0.646876 0.806394
0.395331 0.815579 0.770871
0.437263 0.819486 0.775814
0.530877 0.822446 0.780911
0.654170 0.829709 0.791348
0.786160 0.820493 0.785397
0.844053 0.799252 0.771969
0.958587 0.719600 0.665827
1.000000 0.652705 0.647120
0.665766 0.925505 0.842588
0.680415 0.925658 0.844388
0.719844 0.923064 0.845396
0.781796 0.918791 0.848661
0.844480 0.915129 0.854795
0.896422 0.909545 0.869047
0.898009 0.889158 0.885710
0.966888 0.861601 0.772763
0.782712 0.965393 0.878904
0.785794 0.964721 0.878538
0.804898 0.963043 0.880705
0.842618 0.961334 0.888670
0.879759 0.959808 0.895811
0.917601 0.958556 0.906584
0.943084 0.949798 0.917601
0.942870 0.937163 0.929992
0.342168 0.395575 0.578882
0.372259 0.406653 0.587610
0.468788 0.443458 0.606653
0.612451 0.530877 0.645899
0.727993 0.658961 0.696590
0.761410 0.727138 0.727321
0.800168 0.774746 0.773007
0.858274 0.844053 0.840940
0.340887 0.396796 0.570520
0.366583 0.406012 0.580377
0.461952 0.442023 0.600122
0.601556 0.523247 0.636500
0.719570 0.649226 0.687861
0.752407 0.716243 0.716945
0.791104 0.763577 0.762264
0.850858 0.835386 0.832364
0.404944 0.455604 0.602869
0.423224 0.460639 0.608148
0.496559 0.485481 0.626520
0.629664 0.563195 0.663050
0.740414 0.678126 0.711971
0.774746 0.743526 0.743008
0.813443 0.790860 0.788663
0.874907 0.848081 0.849607
0.439124 0.522271 0.625116
0.463172 0.528985 0.630854
0.536034 0.552270 0.653773
0.654414 0.614435 0.698116
0.770352 0.721736 0.750027
0.812284 0.789456 0.787289
0.844572 0.828031 0.825101
0.912566 0.850065 0.865110
0.307103 0.550927 0.613947
0.324010 0.547784 0.610193
0.399664 0.546593 0.605646
0.608392 0.626001 0.683833
0.764492 0.728817 0.759274
0.833402 0.814847 0.812100
0.863096 0.849638 0.846525
0.947387 0.845243 0.877043
0.394385 0.732052 0.751705
0.416052 0.732692 0.752407
0.489693 0.733669 0.753902
0.599542 0.736812 0.756924
0.717647 0.745876 0.761624
0.859709 0.844327 0.842802
0.906920 0.864714 0.873014
0.981415 0.837369 0.891051
0.569726 0.891539 0.857572
0.584924 0.892363 0.859037
0.630488 0.893065 0.861540
0.705013 0.895628 0.867430
0.786526 0.900572 0.876188
0.869200 0.899565 0.877897
0.905852 0.882200 0.864988
0.991608 0.824491 0.795956
0.714961 0.966766 0.904967
0.722927 0.966430 0.905333
0.756161 0.965484 0.907683
0.803037 0.963043 0.910094
0.855985 0.959960 0.913817
0.907500 0.957549 0.921508
0.944152 0.956390 0.930816
0.948119 0.944030 0.941070
0.541283 0.547082 0.724208
0.556207 0.554131 0.727932
0.606165 0.576257 0.733089
0.690913 0.631556 0.750301
0.772061 0.709621 0.773373
0.824430 0.793606 0.802060
0.836820 0.818875 0.816068
0.860288 0.846372 0.843259
0.535424 0.544793 0.718227
0.549187 0.550896 0.722408
0.601831 0.575097 0.730129
0.686213 0.628565 0.746883
0.769192 0.706874 0.770779
0.822995 0.791531 0.800443
0.834470 0.816068 0.813321
0.857633 0.843320 0.840208
0.551476 0.571252 0.723354
0.562493 0.575219 0.726223
0.602899 0.589837 0.734432
0.695003 0.649012 0.756924
0.775509 0.720668 0.779843
0.829648 0.799191 0.808774
0.842496 0.825559 0.822660
0.864775 0.851560 0.848447
0.558221 0.608087 0.727565
0.570733 0.612665 0.731502
0.612421 0.626215 0.742336
0.690486 0.666529 0.765042
0.781064 0.738582 0.792813
0.843137 0.814969 0.825925
0.860075 0.846128 0.843015
0.880613 0.869749 0.866606
0.440436 0.607263 0.699519
0.463416 0.613519 0.705562
0.537041 0.631586 0.722438
0.663325 0.681605 0.760006
0.763821 0.739773 0.796078
0.847471 0.820798 0.835874
0.877043 0.865660 0.862516
0.898466 0.889891 0.886870
0.374914 0.694209 0.750759
0.384405 0.691341 0.748104
0.429145 0.683467 0.740352
0.512230 0.674830 0.729824
0.689296 0.723659 0.771054
0.840574 0.823636 0.844572
0.904967 0.897124 0.894224
0.923522 0.917693 0.915129
0.510704 0.843839 0.854063
0.520531 0.843381 0.853788
0.560815 0.841764 0.852964
0.633173 0.840909 0.853178
0.720485 0.841276 0.854002
0.801205 0.839902 0.850767
0.914000 0.905547 0.905913
0.942382 0.931487 0.931426
0.643183 0.945647 0.918608
0.649561 0.945251 0.918486
0.679500 0.944305 0.918944
0.733913 0.943786 0.921233
0.797665 0.944701 0.925750
0.861753 0.947478 0.932372
0.921508 0.951202 0.939391
0.952911 0.942412 0.933989
