20 Preset/Dark Style/【3】LUT video cho PR-AE-FCPX/19Tones (3)/19Tones - Reflection x Water.cube
# Created by Adobe Lightroom plugin Export LUT (1.24.0)
# www.johnrellis.com/lightroom/exportlut.htm
# Preset: 19Tones - Reflection x Water
# Color profile: E:\lut插件\exportlut.1.24\exportlut.lrplugin\color profiles\Rec709gamma2.4.icc
LUT_3D_SIZE 5
DOMAIN_MIN 0.000000 0.000000 0.000000
DOMAIN_MAX 0.903226 0.903226 0.903226
0.105837 0.187747 0.211307
0.124056 0.186618 0.213718
0.639033 0.000000 0.290013
1.000000 0.000000 0.396338
1.000000 0.000000 0.459266
0.034150 0.207919 0.201083
0.108797 0.188479 0.207950
0.511040 0.183139 0.191867
1.000000 0.000000 0.179843
1.000000 0.000000 0.315709
0.000000 0.702846 0.238499
0.402075 0.673548 0.255558
0.608698 0.548791 0.503105
0.917815 0.544030 0.000000
1.000000 0.411658 0.000000
0.660822 0.906767 0.647059
0.704707 0.903899 0.658808
0.816434 0.880644 0.708461
0.843412 0.818814 0.785702
1.000000 0.802457 0.524071
0.839200 0.968322 0.843107
0.848905 0.967498 0.845548
0.872007 0.960174 0.839597
0.923308 0.947021 0.871275
0.934051 0.925261 0.906493
0.100587 0.182559 0.204685
0.094118 0.180331 0.204440
0.566949 0.000000 0.312016
1.000000 0.000000 0.347326
1.000000 0.000000 0.397742
0.008545 0.198825 0.217533
0.139742 0.201846 0.218051
0.548150 0.000000 0.202823
0.992401 0.000000 0.192599
1.000000 0.000000 0.261601
0.000000 0.635065 0.296300
0.345800 0.621729 0.314977
0.540398 0.490547 0.472145
0.873503 0.483253 0.000000
1.000000 0.369207 0.000000
0.664637 0.900694 0.671138
0.708919 0.898833 0.683711
0.817502 0.879271 0.725368
0.841703 0.817807 0.790402
1.000000 0.795621 0.519463
0.840543 0.967620 0.849424
0.849516 0.966674 0.851072
0.885161 0.964111 0.861662
0.928893 0.951293 0.883574
0.939330 0.931487 0.915068
0.089418 0.193271 0.245060
0.152590 0.212345 0.259922
0.304448 0.322087 0.336431
0.975952 0.000000 0.638361
1.000000 0.000000 0.692958
0.132540 0.240177 0.287266
0.208652 0.259403 0.308537
0.426978 0.408331 0.420630
0.990967 0.000000 0.658839
1.000000 0.000000 0.638727
0.000000 0.573571 0.529198
0.000000 0.593469 0.543175
0.649073 0.554437 0.517571
0.962829 0.359319 0.363592
1.000000 0.000000 0.328832
0.650111 0.884062 0.737057
0.687861 0.877104 0.734859
0.809140 0.874846 0.763790
0.845121 0.825895 0.815579
1.000000 0.757321 0.471748
0.828550 0.964233 0.861082
0.840665 0.963836 0.864408
0.880522 0.961791 0.875364
0.927489 0.952056 0.892180
0.938079 0.930755 0.917845
0.210849 0.300847 0.441627
0.314305 0.334081 0.470649
0.610163 0.531182 0.578302
0.726284 0.684962 0.687190
0.968261 0.729488 0.820157
0.276127 0.355535 0.479774
0.358434 0.379644 0.507500
0.640681 0.565789 0.607660
0.742275 0.704005 0.705287
0.977020 0.720211 0.820798
0.220157 0.450355 0.507225
0.320165 0.457282 0.511254
0.686732 0.634058 0.669856
0.798215 0.772335 0.770687
1.000000 0.714229 0.841276
0.475868 0.842985 0.802121
0.539727 0.842435 0.803220
0.723873 0.852689 0.818967
0.860594 0.821927 0.797238
1.000000 0.695796 0.680201
0.771298 0.965911 0.884398
0.791806 0.964630 0.886778
0.860807 0.961547 0.899535
0.926848 0.959655 0.915404
0.943908 0.938537 0.932433
0.541283 0.547082 0.724208
0.589654 0.567926 0.730770
0.734463 0.669306 0.761410
0.831662 0.812741 0.810056
0.860288 0.846372 0.843259
0.550317 0.565637 0.723781
0.589563 0.580133 0.732601
0.735286 0.677516 0.764340
0.836667 0.817899 0.815824
0.864561 0.851316 0.848203
0.522576 0.612879 0.719509
0.585046 0.633661 0.734401
0.724300 0.698573 0.776272
0.854276 0.832853 0.836881
0.888060 0.878172 0.875090
0.415564 0.739315 0.784207
0.454994 0.733883 0.779263
0.596094 0.722164 0.764920
0.860899 0.846128 0.860136
0.927184 0.921691 0.919249
0.643183 0.945647 0.918608
0.669459 0.944549 0.918700
0.765499 0.944152 0.923339
0.877317 0.948699 0.934600
0.952911 0.942412 0.933989
