20 Preset/Dark Style/【3】LUT video cho PR-AE-FCPX/19Tones (3)/19Tones - Skate Place.cube
# Created by Adobe Lightroom plugin Export LUT (1.24.0)
# www.johnrellis.com/lightroom/exportlut.htm
# Preset: 19Tones - Skate Place
# Color profile: E:\lut插件\exportlut.1.24\exportlut.lrplugin\color profiles\Rec709gamma2.4.icc
LUT_3D_SIZE 8
DOMAIN_MIN 0.000000 0.000000 0.000000
DOMAIN_MAX 0.903226 0.903226 0.903226
0.105837 0.187747 0.211307
0.119997 0.188571 0.212131
0.219913 0.188144 0.214206
0.458320 0.160281 0.215702
0.784970 0.000000 0.213382
0.994507 0.000000 0.221775
1.000000 0.246311 0.281865
1.000000 0.382300 0.368658
0.111025 0.197360 0.212436
0.118257 0.194736 0.215122
0.197696 0.203128 0.215610
0.399786 0.200687 0.216678
0.721523 0.138369 0.215396
0.961028 0.121889 0.221195
1.000000 0.258640 0.266331
1.000000 0.377386 0.347997
0.147219 0.269230 0.212222
0.183658 0.252842 0.213413
0.215274 0.251286 0.241886
0.421698 0.303288 0.239231
0.723415 0.326879 0.227176
0.971588 0.387060 0.249516
1.000000 0.460365 0.335607
1.000000 0.523766 0.430518
0.249943 0.437842 0.189425
0.287755 0.410071 0.195071
0.328283 0.319310 0.208408
0.549432 0.471473 0.354376
0.793637 0.631678 0.482368
0.952453 0.630030 0.381994
1.000000 0.644251 0.453498
1.000000 0.662837 0.524254
0.431678 0.653223 0.024750
0.456855 0.630030 0.067262
0.511009 0.538140 0.134646
0.574365 0.481086 0.185245
0.761654 0.675074 0.526085
0.850065 0.779294 0.706722
0.959289 0.770779 0.601770
1.000000 0.773342 0.619898
0.575830 0.798062 0.000000
0.604944 0.799069 0.000000
0.661982 0.756374 0.000000
0.707424 0.650660 0.000000
0.803372 0.688319 0.229160
0.862669 0.810208 0.703731
0.897459 0.872831 0.846189
0.958740 0.876432 0.804196
0.696864 0.893431 0.294652
0.709773 0.891569 0.287938
0.749020 0.875334 0.218082
0.814664 0.840208 0.000000
0.869657 0.762783 0.000000
0.918151 0.828916 0.480262
0.913298 0.881743 0.814755
0.926268 0.915557 0.904143
0.806546 0.952605 0.588128
0.811154 0.951568 0.580987
0.833036 0.947509 0.555413
0.878508 0.939605 0.506126
0.933715 0.908629 0.288914
0.990845 0.894957 0.366888
0.966705 0.918761 0.764981
0.953307 0.934661 0.893217
0.105959 0.188632 0.215671
0.123079 0.187228 0.218784
0.219120 0.184115 0.222568
0.415686 0.161105 0.227329
0.731350 0.000000 0.232029
0.959136 0.000000 0.242222
1.000000 0.158785 0.281041
1.000000 0.324681 0.348486
0.101137 0.196445 0.219638
0.121859 0.198550 0.221317
0.210544 0.201846 0.225040
0.407599 0.193118 0.229740
0.714199 0.107729 0.233585
0.948333 0.002594 0.243626
1.000000 0.211795 0.276646
1.000000 0.333654 0.337804
0.004883 0.284825 0.221775
0.163790 0.271427 0.225772
0.223606 0.258793 0.254337
0.421302 0.299016 0.248173
0.703182 0.310430 0.246311
0.937133 0.348241 0.263371
1.000000 0.402258 0.313176
1.000000 0.473182 0.394446
0.184787 0.448859 0.206485
0.253086 0.422675 0.209262
0.333684 0.334630 0.216098
0.483314 0.425605 0.340429
0.719966 0.547845 0.410468
0.903716 0.561517 0.337041
1.000000 0.583062 0.391058
1.000000 0.614435 0.469551
0.395270 0.661341 0.124666
0.425818 0.636500 0.129610
0.493599 0.541711 0.156374
0.536492 0.454170 0.199710
0.724239 0.634943 0.495735
0.831846 0.748867 0.667903
0.950408 0.743801 0.561151
1.000000 0.751217 0.588800
0.542626 0.789303 0.093629
0.562707 0.780087 0.050477
0.625055 0.735683 0.000000
0.675502 0.629450 0.000000
0.774929 0.659297 0.226566
0.853910 0.799374 0.691676
0.892454 0.865629 0.837156
0.955871 0.867552 0.790433
0.669917 0.884092 0.282567
0.677729 0.878416 0.260655
0.718532 0.859709 0.189364
0.787259 0.821653 0.000000
0.845640 0.742794 0.000000
0.905730 0.812802 0.447608
0.904814 0.870481 0.798398
0.919463 0.907347 0.894591
0.788266 0.947631 0.559991
0.796170 0.947448 0.560845
0.818509 0.942809 0.532280
0.866239 0.934112 0.480537
0.936309 0.917296 0.370489
0.991852 0.897429 0.384955
0.965545 0.917205 0.762081
0.952300 0.933623 0.892241
0.102113 0.190616 0.247013
0.123079 0.188205 0.263493
0.292393 0.163424 0.314855
0.670863 0.000000 0.372229
0.876402 0.000000 0.352483
1.000000 0.000000 0.353399
1.000000 0.216709 0.409552
1.000000 0.405097 0.478981
0.112398 0.204135 0.248203
0.123751 0.203555 0.263340
0.295140 0.185489 0.317845
0.622065 0.000000 0.348241
0.839292 0.000000 0.336278
0.998535 0.000000 0.347997
1.000000 0.246616 0.398779
1.000000 0.406043 0.465736
0.000000 0.289433 0.307713
0.007904 0.295781 0.313024
0.302068 0.320439 0.334844
0.553796 0.310155 0.336614
0.812131 0.308171 0.350500
0.980682 0.360052 0.385840
1.000000 0.434913 0.437812
1.000000 0.515953 0.504509
0.000000 0.603662 0.325231
0.000000 0.594751 0.301946
0.403265 0.510979 0.310307
0.585626 0.516381 0.457710
0.786374 0.595636 0.478187
0.931945 0.601099 0.471809
1.000000 0.623133 0.519188
1.000000 0.654231 0.574487
0.000000 0.761227 0.269200
0.250736 0.747494 0.283879
0.511040 0.674647 0.273228
0.582483 0.493843 0.225193
0.763943 0.692287 0.593256
0.852964 0.774075 0.703304
0.954986 0.754665 0.606226
1.000000 0.769680 0.656519
0.493294 0.834104 0.342473
0.523674 0.827695 0.337621
0.604852 0.790402 0.276890
0.692531 0.695644 0.179599
0.772000 0.660731 0.271733
0.854307 0.807614 0.723079
0.897856 0.870207 0.841611
0.958160 0.871519 0.802182
0.662867 0.901823 0.466377
0.669154 0.897551 0.449561
0.704219 0.880491 0.386481
0.774075 0.844694 0.269627
0.846525 0.771237 0.000000
0.904143 0.816373 0.485084
0.908812 0.879515 0.820371
0.927489 0.915679 0.902800
0.786618 0.951080 0.646326
0.788968 0.949584 0.636255
0.807370 0.945129 0.609430
0.853422 0.938354 0.572015
0.920226 0.922240 0.472969
0.991363 0.899535 0.410101
0.965301 0.920684 0.779660
0.954070 0.937163 0.900359
0.040223 0.193576 0.337957
0.098726 0.190677 0.371527
0.339910 0.128206 0.527611
0.738643 0.000000 0.636469
1.000000 0.000000 0.667170
1.000000 0.000000 0.597528
1.000000 0.259434 0.572534
1.000000 0.440314 0.596643
0.039307 0.211246 0.350591
0.097444 0.209995 0.379400
0.330755 0.168399 0.528557
0.754208 0.000000 0.649928
1.000000 0.000000 0.668391
1.000000 0.000000 0.598505
1.000000 0.320317 0.576593
1.000000 0.466102 0.601801
0.150607 0.260380 0.316564
0.173342 0.267460 0.324681
0.285985 0.309667 0.466896
0.731533 0.279606 0.639063
0.967712 0.382147 0.656489
1.000000 0.448005 0.621180
1.000000 0.535882 0.634668
1.000000 0.601190 0.658442
0.000000 0.567224 0.577142
0.000000 0.570794 0.580438
0.355840 0.593500 0.601984
0.692561 0.646265 0.650477
0.844480 0.628565 0.633112
0.942321 0.633204 0.634058
1.000000 0.659236 0.655024
1.000000 0.694697 0.686336
0.000000 0.866239 0.674220
0.000000 0.859251 0.662470
0.390723 0.833066 0.618158
0.696071 0.757015 0.582513
0.808865 0.769345 0.729915
0.880858 0.799741 0.746426
0.952361 0.790127 0.726009
1.000000 0.798337 0.746120
0.313725 0.899260 0.559258
0.396246 0.899016 0.571191
0.571374 0.877256 0.590417
0.720699 0.828489 0.557610
0.803891 0.707546 0.388800
0.868681 0.838315 0.791531
0.910826 0.882139 0.855161
0.963348 0.877226 0.820188
0.622339 0.926940 0.624628
0.643091 0.924620 0.631495
0.710048 0.913603 0.649775
0.768124 0.890776 0.590326
0.847837 0.839139 0.427466
0.906096 0.830930 0.565942
0.914214 0.891875 0.849882
0.936339 0.924041 0.910460
0.794247 0.960815 0.760098
0.801144 0.959594 0.762631
0.820005 0.955413 0.759213
0.845457 0.948333 0.724331
0.895109 0.934508 0.649592
0.980743 0.910369 0.506432
0.964538 0.924773 0.800992
0.957122 0.943145 0.913512
0.000000 0.197574 0.535821
0.000000 0.192172 0.570489
0.326482 0.130312 0.681727
0.739528 0.000000 0.840757
0.993042 0.000000 0.864042
1.000000 0.000000 0.820645
1.000000 0.380468 0.762600
1.000000 0.512200 0.733791
0.000000 0.219516 0.543542
0.000000 0.216373 0.577356
0.323857 0.174655 0.686030
0.730831 0.000000 0.837369
0.993011 0.000000 0.865904
1.000000 0.157321 0.821592
1.000000 0.442176 0.766629
1.000000 0.543328 0.739315
0.090120 0.301610 0.498756
0.111604 0.306004 0.531945
0.298283 0.315312 0.639918
0.686549 0.299748 0.808347
0.965881 0.330999 0.857725
1.000000 0.511131 0.817472
1.000000 0.584039 0.773770
1.000000 0.621759 0.750271
0.175082 0.414374 0.519524
0.222904 0.417945 0.521233
0.366308 0.439551 0.531334
0.643275 0.592218 0.737057
0.898558 0.689418 0.842100
0.971801 0.740932 0.826658
1.000000 0.727657 0.792966
1.000000 0.729732 0.778744
0.240330 0.771206 0.772519
0.323522 0.773556 0.774899
0.510582 0.780575 0.781827
0.703182 0.796445 0.796414
0.838590 0.820951 0.818112
0.895995 0.804501 0.801633
0.949767 0.799069 0.795438
0.993957 0.804227 0.799435
0.528832 0.919738 0.822995
0.549096 0.917601 0.820645
0.604303 0.906584 0.805295
0.686824 0.885771 0.775235
0.802548 0.837247 0.740536
0.875059 0.855711 0.834195
0.918944 0.879789 0.853147
0.964508 0.876463 0.841825
0.613733 0.945922 0.766964
0.616632 0.944121 0.762509
0.639918 0.937469 0.748348
0.726131 0.922789 0.750759
0.819730 0.890318 0.730282
0.891691 0.824063 0.593133
0.914183 0.896941 0.868345
0.939879 0.923766 0.907530
0.690242 0.972137 0.756680
0.701534 0.970642 0.759854
0.745113 0.964935 0.773312
0.821378 0.957000 0.806302
0.867185 0.944457 0.785153
0.929503 0.922576 0.691524
0.959442 0.920714 0.798734
0.955413 0.943236 0.918578
0.000000 0.206851 0.756466
0.080018 0.199619 0.772335
0.365759 0.147494 0.818479
0.647364 0.000000 0.887633
0.918273 0.000000 0.953063
1.000000 0.000000 0.949859
1.000000 0.390265 0.895140
1.000000 0.603174 0.858061
0.000000 0.232303 0.735683
0.000000 0.227420 0.749416
0.347112 0.193759 0.801328
0.631678 0.000000 0.876036
0.908354 0.000000 0.945922
1.000000 0.000000 0.943420
1.000000 0.431952 0.891264
1.000000 0.615747 0.856229
0.041962 0.335515 0.714809
0.165255 0.336584 0.729305
0.371160 0.343420 0.787808
0.630030 0.342657 0.863615
0.887510 0.371740 0.932952
1.000000 0.480293 0.933867
1.000000 0.638361 0.893339
1.000000 0.714870 0.867399
0.295872 0.438056 0.611383
0.322026 0.450446 0.631128
0.458198 0.514977 0.719844
0.663386 0.610193 0.831144
0.858488 0.715267 0.907408
0.971710 0.763027 0.922515
1.000000 0.807950 0.904906
1.000000 0.813565 0.885100
0.377264 0.625971 0.727352
0.404852 0.627558 0.727321
0.501823 0.636866 0.728481
0.637568 0.664881 0.733944
0.813107 0.792294 0.849607
0.930327 0.845823 0.904051
0.974060 0.863523 0.900450
0.999084 0.848142 0.879911
0.576349 0.858579 0.857664
0.602716 0.861021 0.860227
0.663020 0.862760 0.861997
0.748959 0.867552 0.866484
0.830930 0.876188 0.874266
0.902617 0.894560 0.891630
0.936278 0.888151 0.885191
0.970245 0.885924 0.882841
0.755581 0.960815 0.915068
0.763577 0.960418 0.914946
0.781765 0.957183 0.910887
0.810361 0.950591 0.901701
0.841032 0.938903 0.883635
0.888273 0.909636 0.857725
0.926329 0.916381 0.903197
0.952392 0.930205 0.914122
0.745968 0.978180 0.870085
0.747066 0.977478 0.868345
0.760342 0.975036 0.864683
0.789029 0.970916 0.859831
0.833616 0.962371 0.856107
0.898589 0.944732 0.852873
0.954803 0.918944 0.801572
0.956817 0.947692 0.930663
0.221164 0.237034 0.863127
0.272862 0.233127 0.870207
0.411963 0.204196 0.889677
0.602045 0.085939 0.922972
0.803372 0.000000 0.959655
0.988586 0.000000 0.988464
1.000000 0.000000 0.980041
1.000000 0.481544 0.929656
0.212009 0.261357 0.851499
0.266178 0.259342 0.859617
0.404517 0.237980 0.880674
0.592432 0.169467 0.914794
0.795621 0.000000 0.953491
0.982116 0.000000 0.984009
1.000000 0.154849 0.974914
1.000000 0.483803 0.925414
0.291783 0.372747 0.841093
0.324651 0.372656 0.847044
0.435218 0.370214 0.868162
0.604425 0.366278 0.903838
0.791135 0.360418 0.942992
0.964965 0.391577 0.976257
1.000000 0.519310 0.966949
1.000000 0.661677 0.927428
0.419409 0.520012 0.799557
0.439612 0.524834 0.806271
0.504875 0.537652 0.833646
0.640223 0.577752 0.876829
0.792233 0.633967 0.920317
0.929290 0.708919 0.956725
1.000000 0.753780 0.954620
1.000000 0.798001 0.930938
0.416968 0.557122 0.707240
0.425757 0.554070 0.702358
0.480690 0.564508 0.707790
0.628656 0.656703 0.800992
0.780148 0.751766 0.879515
0.900847 0.820951 0.932372
0.975738 0.847410 0.944030
1.000000 0.872251 0.935058
0.538231 0.762081 0.834775
0.552514 0.763210 0.834836
0.602869 0.766659 0.834073
0.681392 0.774563 0.832578
0.764248 0.787991 0.829313
0.879576 0.869688 0.902800
0.957183 0.907897 0.941650
0.985473 0.917845 0.940032
0.708186 0.911284 0.910704
0.717891 0.912016 0.911467
0.745937 0.912810 0.912261
0.792721 0.915160 0.914488
0.844877 0.918791 0.917723
0.895995 0.925353 0.923735
0.940948 0.936675 0.934569
0.963439 0.931792 0.929656
0.806027 0.980346 0.947112
0.810849 0.980224 0.947478
0.831510 0.979980 0.949371
0.857206 0.978454 0.949126
0.880339 0.974517 0.943145
0.902159 0.968383 0.932158
0.936858 0.953033 0.918547
0.961852 0.956451 0.948089
0.389136 0.304051 0.928099
0.409766 0.301518 0.930755
0.476234 0.279118 0.938231
0.593042 0.229831 0.954284
0.736049 0.000000 0.974884
0.889158 0.000000 0.997040
1.000000 0.000000 1.000000
1.000000 0.000000 1.000000
0.389563 0.325231 0.922667
0.410285 0.323522 0.925597
0.477821 0.306157 0.934142
0.592065 0.265751 0.950439
0.733883 0.157839 0.971740
0.886290 0.000000 0.994598
1.000000 0.000000 1.000000
1.000000 0.164065 1.000000
0.432044 0.421759 0.911620
0.447333 0.421149 0.914092
0.503716 0.412848 0.923003
0.612116 0.407446 0.941955
0.739040 0.377478 0.963470
0.879423 0.318517 0.986725
1.000000 0.316197 1.000000
1.000000 0.466743 0.992615
0.499947 0.551598 0.887022
0.513512 0.554650 0.890257
0.558343 0.559319 0.901091
0.643854 0.573449 0.921080
0.751797 0.591028 0.945159
0.868101 0.612146 0.969299
0.976593 0.654475 0.986419
1.000000 0.702571 0.979980
0.511772 0.618402 0.830350
0.526024 0.624598 0.835843
0.571069 0.641230 0.852873
0.665126 0.684108 0.884398
0.757534 0.721096 0.916381
0.856748 0.762631 0.946868
0.950317 0.806943 0.972168
1.000000 0.827176 0.970397
0.538384 0.702998 0.831357
0.541985 0.700557 0.829007
0.564233 0.694972 0.821592
0.615167 0.692378 0.810117
0.730709 0.757748 0.860136
0.849912 0.836271 0.921141
0.936797 0.886564 0.959564
0.987915 0.904814 0.967437
0.654566 0.850950 0.902403
0.659998 0.850828 0.901976
0.683375 0.850767 0.900420
0.728939 0.853056 0.898741
0.784512 0.857023 0.896086
0.841428 0.864408 0.892515
0.922545 0.917479 0.941070
0.976776 0.945006 0.967163
0.772244 0.948363 0.948699
0.775814 0.948302 0.948669
0.792966 0.948730 0.949035
0.824918 0.950225 0.950408
0.863340 0.952453 0.952392
0.902586 0.955657 0.955200
0.939483 0.960540 0.959655
0.969757 0.967712 0.966583
