20 Preset/Dark Style/【3】LUT video cho PR-AE-FCPX/19Tones (3)/19Tones - Village.cube
# Created by Adobe Lightroom plugin Export LUT (1.24.0)
# www.johnrellis.com/lightroom/exportlut.htm
# Preset: 19Tones - Village
# Color profile: E:\lut插件\exportlut.1.24\exportlut.lrplugin\color profiles\Rec709gamma2.4.icc
LUT_3D_SIZE 5
DOMAIN_MIN 0.000000 0.000000 0.000000
DOMAIN_MAX 0.903226 0.903226 0.903226
0.105837 0.187747 0.211307
0.151369 0.188449 0.212467
0.413153 0.166201 0.211826
0.897063 0.000000 0.196475
1.000000 0.011170 0.205356
0.121859 0.212222 0.215427
0.162692 0.215946 0.214206
0.436011 0.232822 0.205234
0.915740 0.206851 0.176455
1.000000 0.293584 0.194095
0.229068 0.376837 0.222171
0.259556 0.314305 0.227085
0.571008 0.466651 0.188022
0.938750 0.596246 0.000000
1.000000 0.567132 0.003571
0.482307 0.670710 0.204440
0.513695 0.623713 0.204288
0.469642 0.414069 0.223850
0.883665 0.758022 0.194034
1.000000 0.814420 0.245640
0.754604 0.907073 0.508659
0.774289 0.899657 0.491585
0.817868 0.837400 0.340307
0.924376 0.825711 0.342840
1.000000 0.917571 0.591669
0.111513 0.192142 0.216983
0.119295 0.196933 0.219699
0.355810 0.187228 0.252659
0.838437 0.000000 0.249851
1.000000 0.000000 0.266575
0.093751 0.215579 0.237034
0.157778 0.222354 0.243290
0.417182 0.210117 0.243809
0.857420 0.015259 0.241062
1.000000 0.190951 0.257908
0.000000 0.439826 0.240330
0.264958 0.383215 0.255009
0.517052 0.433997 0.244968
0.893980 0.535760 0.138735
1.000000 0.543023 0.220371
0.458930 0.721706 0.282109
0.512932 0.679774 0.267674
0.522118 0.469306 0.241886
0.876585 0.756527 0.287663
1.000000 0.809964 0.335729
0.742061 0.912444 0.555047
0.760159 0.904631 0.534874
0.833890 0.871183 0.462013
0.931884 0.839811 0.414160
1.000000 0.925566 0.659876
0.143038 0.216037 0.252811
0.177005 0.232914 0.268742
0.293400 0.314427 0.329168
0.761807 0.503960 0.592523
1.000000 0.435187 0.611414
0.169772 0.241855 0.278599
0.213535 0.263249 0.301610
0.378302 0.373358 0.386328
0.805661 0.504631 0.602564
1.000000 0.450965 0.601434
0.000000 0.485634 0.490944
0.000000 0.499123 0.504021
0.613672 0.563806 0.571923
0.890929 0.525322 0.535729
1.000000 0.550469 0.545373
0.000000 0.854429 0.557671
0.000000 0.833585 0.521630
0.650111 0.728420 0.513085
0.861295 0.778134 0.562676
1.000000 0.797086 0.549157
0.631495 0.935210 0.634363
0.684230 0.928557 0.653925
0.785885 0.898436 0.629969
0.885557 0.799100 0.434058
0.984253 0.919829 0.717342
0.264927 0.304356 0.391577
0.324010 0.334966 0.424140
0.573754 0.505547 0.560754
0.716579 0.673640 0.676417
0.856504 0.841978 0.838895
0.290105 0.329900 0.416175
0.349279 0.360357 0.447181
0.602136 0.535515 0.587854
0.734371 0.694575 0.696315
0.860807 0.846952 0.843870
0.226108 0.336492 0.395850
0.272709 0.348760 0.404242
0.612207 0.567346 0.617456
0.793179 0.766171 0.764767
0.907500 0.846586 0.860105
0.243809 0.801785 0.792935
0.365606 0.800320 0.792538
0.638758 0.811093 0.806394
0.860594 0.846708 0.843626
0.969726 0.819486 0.815488
0.597742 0.971069 0.841764
0.626795 0.968017 0.838285
0.719966 0.955718 0.823484
0.859312 0.908965 0.801236
0.960784 0.925200 0.832975
0.591638 0.558434 0.692897
0.623499 0.581140 0.705348
0.735592 0.682795 0.757595
0.841642 0.816953 0.825742
0.866148 0.853147 0.850004
0.582849 0.557885 0.687953
0.617609 0.582300 0.702632
0.733211 0.684108 0.757107
0.843259 0.818814 0.828183
0.869841 0.857389 0.854215
0.529137 0.548913 0.661860
0.576593 0.578088 0.684657
0.713313 0.681178 0.754604
0.850004 0.827512 0.839322
0.890349 0.880766 0.877684
0.352728 0.628077 0.728725
0.384497 0.618433 0.718044
0.503410 0.593439 0.679835
0.834470 0.820035 0.840391
0.926757 0.921233 0.918761
0.601404 0.929137 0.921477
0.628412 0.928710 0.921569
0.731289 0.930083 0.924926
0.851347 0.934539 0.931426
0.954650 0.951537 0.949859
