20 Preset/Dark Style/【3】LUT video cho PR-AE-FCPX/19Tones (3)/19Tones - Sea.cube
# Created by Adobe Lightroom plugin Export LUT (1.24.0)
# www.johnrellis.com/lightroom/exportlut.htm
# Preset: 19Tones - Sea
# Color profile: E:\lut插件\exportlut.1.24\exportlut.lrplugin\color profiles\Rec709gamma2.4.icc
LUT_3D_SIZE 32
DOMAIN_MIN 0.0 0.0 0.0
DOMAIN_MAX 1.0 1.0 1.0
0.123445 0.183383 0.210758
0.123445 0.183383 0.210758
0.123445 0.183383 0.210758
0.123445 0.183383 0.210758
0.123781 0.183505 0.210727
0.125368 0.183536 0.210971
0.126925 0.183597 0.211215
0.129305 0.183566 0.211582
0.131930 0.183688 0.211948
0.135744 0.183719 0.212284
0.140475 0.183627 0.212863
0.146731 0.183291 0.213352
0.154360 0.183047 0.214176
0.164462 0.182559 0.215000
0.176394 0.181765 0.215793
0.190158 0.180789 0.216556
0.206424 0.179324 0.217441
0.225162 0.177310 0.218387
0.247257 0.174350 0.219547
0.273381 0.170230 0.220768
0.303319 0.164187 0.222293
0.337194 0.155703 0.223972
0.395514 0.135073 0.226902
0.461769 0.093568 0.230442
0.529534 0.000000 0.234379
0.599512 0.000000 0.238682
0.672206 0.000000 0.243839
0.746517 0.000000 0.250187
0.822324 0.000000 0.257908
0.899229 0.000000 0.268101
0.972015 0.000000 0.281712
1.000000 0.000000 0.299657
0.123445 0.183383 0.210758
0.123445 0.183383 0.210758
0.123445 0.183383 0.210758
0.123445 0.183383 0.210758
0.123781 0.183505 0.210727
0.125368 0.183536 0.210971
0.126925 0.183597 0.211215
0.128939 0.183597 0.211460
0.131533 0.183719 0.211795
0.135012 0.183597 0.212284
0.139528 0.183566 0.212650
0.145266 0.183413 0.213230
0.152651 0.183230 0.214054
0.162112 0.182650 0.214633
0.173281 0.182132 0.215427
0.186618 0.181094 0.216220
0.202304 0.179721 0.217075
0.220493 0.177890 0.217929
0.241733 0.175204 0.218997
0.266697 0.171359 0.220218
0.295018 0.165988 0.221653
0.327001 0.158633 0.223239
0.380346 0.141451 0.225925
0.439734 0.110964 0.228946
0.500969 0.001038 0.232303
0.565026 0.000000 0.236393
0.634119 0.000000 0.241062
0.707179 0.000000 0.246677
0.783749 0.000000 0.253819
0.863157 0.000000 0.263676
0.941833 0.000000 0.276402
1.000000 0.000000 0.293187
0.123445 0.183383 0.210758
0.123445 0.183383 0.210758
0.123445 0.183383 0.210758
0.123445 0.183383 0.210758
0.123690 0.183505 0.210880
0.125368 0.183536 0.210971
0.126925 0.183597 0.211215
0.128939 0.183597 0.211460
0.131533 0.183719 0.211795
0.134646 0.183627 0.212161
0.139132 0.183597 0.212650
0.144564 0.183474 0.213107
0.151858 0.183139 0.213687
0.160922 0.182773 0.214267
0.171756 0.182132 0.214939
0.184756 0.181155 0.215610
0.199649 0.179934 0.216495
0.217380 0.178073 0.217227
0.238041 0.175540 0.218296
0.262272 0.172122 0.219425
0.290288 0.166873 0.220493
0.321782 0.159915 0.222080
0.373938 0.143893 0.224460
0.429847 0.117464 0.227115
0.487587 0.039338 0.230259
0.547662 0.000000 0.233738
0.613825 0.000000 0.237736
0.685878 0.000000 0.243198
0.762570 0.000000 0.250156
0.842924 0.000000 0.259129
0.923888 0.000000 0.271061
0.997223 0.000000 0.286839
0.123293 0.183536 0.210758
0.123293 0.183536 0.210758
0.123201 0.183536 0.210880
0.123201 0.183536 0.210880
0.123995 0.183658 0.210849
0.125826 0.183505 0.210971
0.127474 0.183566 0.211093
0.129366 0.183566 0.211460
0.132052 0.183688 0.211673
0.135225 0.183597 0.211917
0.139315 0.183597 0.212253
0.144930 0.183291 0.212619
0.151888 0.183017 0.213077
0.160342 0.182681 0.213504
0.170596 0.182132 0.214206
0.182650 0.181277 0.214725
0.196872 0.180179 0.215244
0.213138 0.178592 0.216007
0.232578 0.176364 0.216831
0.255283 0.173068 0.217655
0.281468 0.168673 0.218875
0.314183 0.161685 0.220005
0.361028 0.148257 0.221897
0.412421 0.127077 0.224063
0.467964 0.086732 0.226413
0.528527 0.000000 0.229648
0.596582 0.000000 0.233524
0.671687 0.000000 0.238376
0.751095 0.000000 0.244694
0.832761 0.000000 0.253147
0.913542 0.000000 0.264286
0.986175 0.000000 0.278843
0.123934 0.183932 0.211215
0.123934 0.183932 0.211215
0.123934 0.183932 0.211215
0.123934 0.183932 0.211215
0.124636 0.184207 0.211032
0.126345 0.183963 0.210788
0.127718 0.184176 0.211032
0.129335 0.184207 0.211124
0.132296 0.183993 0.211368
0.135531 0.183902 0.211490
0.139406 0.183780 0.211704
0.144717 0.183505 0.211948
0.151064 0.183261 0.212161
0.159426 0.182834 0.212497
0.169375 0.182162 0.212802
0.181247 0.181338 0.213352
0.195163 0.180301 0.213748
0.211398 0.178744 0.214389
0.230411 0.176486 0.214878
0.252445 0.173556 0.215671
0.277897 0.169253 0.216434
0.313481 0.161807 0.217288
0.357214 0.149477 0.218631
0.406073 0.129946 0.220066
0.459998 0.095094 0.222019
0.519524 0.000000 0.224338
0.586145 0.000000 0.227359
0.660182 0.000000 0.231510
0.738430 0.000000 0.236728
0.819150 0.000000 0.244205
0.899901 0.000000 0.254520
0.973968 0.000000 0.268040
0.124819 0.184482 0.211795
0.124819 0.184482 0.211795
0.124819 0.184482 0.211795
0.124819 0.184482 0.211795
0.124636 0.184665 0.211765
0.126375 0.184848 0.211337
0.129061 0.184543 0.210971
0.130312 0.184909 0.211032
0.132082 0.185092 0.211246
0.135317 0.185000 0.211368
0.139193 0.184878 0.211582
0.144747 0.184726 0.211795
0.151125 0.184512 0.212009
0.159121 0.184115 0.212345
0.168887 0.183780 0.212650
0.180880 0.182956 0.212924
0.194430 0.182132 0.213443
0.211063 0.180575 0.213809
0.229892 0.178866 0.214237
0.251865 0.176028 0.214786
0.278965 0.171817 0.215518
0.317388 0.164614 0.216434
0.459480 0.113985 0.219333
0.531975 0.000000 0.220981
0.607568 0.000000 0.222965
0.684565 0.000000 0.225254
0.759487 0.000000 0.228122
0.832670 0.000000 0.231754
0.903502 0.000000 0.236759
0.968536 0.000000 0.243717
1.000000 0.000000 0.254429
1.000000 0.000000 0.273075
0.126345 0.185428 0.212680
0.126345 0.185428 0.212680
0.126345 0.185428 0.212680
0.126345 0.185428 0.212680
0.126345 0.185428 0.212680
0.126833 0.186038 0.212222
0.129641 0.186465 0.211643
0.133394 0.185946 0.211032
0.136446 0.186007 0.211124
0.139040 0.186435 0.211307
0.142275 0.186954 0.211337
0.148226 0.186923 0.211643
0.155673 0.186740 0.211826
0.164767 0.186496 0.212131
0.175479 0.186191 0.212406
0.187747 0.185611 0.212772
0.202304 0.184756 0.213138
0.219394 0.183505 0.213443
0.239719 0.181582 0.213993
0.264103 0.178958 0.214572
0.306432 0.173342 0.215305
0.357549 0.163882 0.216281
0.418311 0.146700 0.217319
0.488014 0.113222 0.218723
0.564416 0.000000 0.220340
0.642725 0.000000 0.222171
0.718715 0.000000 0.224399
0.792111 0.000000 0.227451
0.864134 0.000000 0.231571
0.932250 0.000000 0.237186
0.993591 0.000000 0.245182
1.000000 0.000000 0.255985
0.127565 0.186221 0.213596
0.127657 0.186221 0.213474
0.127565 0.186221 0.213596
0.127565 0.186221 0.213596
0.127565 0.186221 0.213596
0.127749 0.186709 0.213169
0.129030 0.187381 0.212589
0.132601 0.187930 0.211826
0.136629 0.187381 0.211215
0.142123 0.187289 0.211032
0.145571 0.187747 0.211185
0.149416 0.188510 0.211337
0.154543 0.189120 0.211460
0.162936 0.189120 0.211734
0.172915 0.188907 0.212009
0.184421 0.188724 0.212222
0.198276 0.188174 0.212558
0.214755 0.187411 0.212863
0.235142 0.186252 0.213321
0.265629 0.184360 0.213809
0.303166 0.180728 0.214389
0.348699 0.174594 0.215091
0.403510 0.163546 0.215824
0.466712 0.144198 0.216709
0.536858 0.105806 0.217807
0.610529 0.000000 0.219150
0.684688 0.000000 0.220859
0.757626 0.000000 0.223270
0.830808 0.000000 0.226627
0.901549 0.000000 0.231113
0.967346 0.000000 0.237980
1.000000 0.000000 0.247562
0.129366 0.187594 0.214725
0.129366 0.187594 0.214725
0.129366 0.187594 0.214725
0.129366 0.187594 0.214725
0.129366 0.187594 0.214725
0.129366 0.187594 0.214725
0.130312 0.188327 0.213870
0.132631 0.189242 0.213107
0.136873 0.189883 0.212070
0.142397 0.189212 0.211337
0.150301 0.188907 0.210880
0.154665 0.189578 0.211002
0.159335 0.190494 0.211093
0.164706 0.191348 0.211307
0.171481 0.192325 0.211490
0.182864 0.192172 0.211704
0.195834 0.192203 0.211887
0.214755 0.192050 0.212192
0.237827 0.191836 0.212497
0.265965 0.190860 0.212802
0.300481 0.188937 0.213321
0.342535 0.185214 0.213687
0.393072 0.178622 0.214084
0.451728 0.166903 0.214572
0.517052 0.146151 0.215183
0.586603 0.105013 0.216159
0.658839 0.000000 0.217350
0.731533 0.000000 0.219089
0.804776 0.000000 0.221592
0.876951 0.000000 0.225376
0.945678 0.000000 0.231174
1.000000 0.000000 0.239811
0.132235 0.189151 0.216403
0.132235 0.189151 0.216403
0.132235 0.189151 0.216403
0.132235 0.189151 0.216403
0.131868 0.189181 0.216281
0.132021 0.188998 0.216281
0.132265 0.189456 0.215732
0.133364 0.190463 0.214725
0.137118 0.191562 0.213657
0.142489 0.192386 0.212619
0.148989 0.191928 0.211704
0.159579 0.191073 0.210910
0.164675 0.191958 0.210971
0.170382 0.192874 0.211063
0.177401 0.194217 0.211185
0.186404 0.195865 0.211215
0.198611 0.197513 0.211185
0.217044 0.198093 0.211429
0.239353 0.198520 0.211521
0.266300 0.198459 0.211765
0.298222 0.197879 0.211948
0.335729 0.196292 0.212131
0.379492 0.193057 0.212284
0.429847 0.186984 0.212497
0.486152 0.176364 0.212772
0.547967 0.157839 0.213199
0.615686 0.123812 0.213748
0.687953 0.000000 0.214633
0.763485 0.000000 0.216342
0.840146 0.000000 0.219150
0.915404 0.000000 0.223636
0.982910 0.000000 0.230991
0.134859 0.191104 0.218265
0.134859 0.191104 0.218265
0.134859 0.191104 0.218265
0.134859 0.191104 0.218265
0.134859 0.191104 0.218265
0.134859 0.191104 0.218265
0.134859 0.191104 0.218265
0.135592 0.192142 0.217136
0.138003 0.193454 0.215854
0.142733 0.195041 0.214481
0.150057 0.196109 0.213230
0.159152 0.195987 0.212131
0.173739 0.194858 0.210880
0.181857 0.195926 0.210910
0.190158 0.197452 0.210971
0.199191 0.199283 0.210971
0.209537 0.201236 0.210910
0.220706 0.203677 0.210880
0.238468 0.205356 0.210788
0.263340 0.206180 0.210849
0.292729 0.206851 0.210819
0.327153 0.207156 0.210666
0.367742 0.206577 0.210330
0.414954 0.204135 0.210269
0.468299 0.198856 0.210086
0.527153 0.189242 0.210025
0.592432 0.171969 0.210056
0.663935 0.141085 0.210178
0.739376 0.050752 0.210971
0.817105 0.000000 0.212802
0.894499 0.000000 0.216190
0.965393 0.000000 0.222202
0.138918 0.193790 0.220981
0.138918 0.193790 0.220981
0.139193 0.193912 0.220951
0.139193 0.193912 0.220951
0.139132 0.193912 0.221073
0.139590 0.194156 0.221164
0.139773 0.194278 0.221286
0.139986 0.195010 0.220951
0.141939 0.196780 0.219516
0.145907 0.199069 0.217838
0.153994 0.201572 0.215946
0.163943 0.203281 0.214084
0.197055 0.211948 0.212711
0.220340 0.209689 0.210636
0.239017 0.210941 0.209781
0.251225 0.213352 0.209689
0.264469 0.216190 0.209445
0.278843 0.219638 0.209201
0.295018 0.223484 0.208804
0.312993 0.228153 0.208286
0.346044 0.231327 0.207614
0.387427 0.233310 0.206851
0.433997 0.234470 0.205875
0.485969 0.234318 0.204654
0.542657 0.231907 0.203189
0.604181 0.225803 0.201663
0.669032 0.213352 0.200839
0.735439 0.192905 0.200778
0.803281 0.160555 0.201511
0.872221 0.101076 0.203525
0.937987 0.000000 0.207462
0.997864 0.000000 0.214847
0.151614 0.202365 0.229221
0.151308 0.202396 0.229099
0.151156 0.202274 0.229007
0.150973 0.202152 0.228916
0.150973 0.201877 0.228702
0.150790 0.201755 0.228611
0.150607 0.201633 0.228489
0.150790 0.201755 0.228611
0.151736 0.203799 0.226841
0.155489 0.206943 0.224430
0.163485 0.211093 0.221775
0.177523 0.216342 0.218814
0.194949 0.219883 0.215702
0.214267 0.220554 0.212985
0.239200 0.218296 0.210452
0.266880 0.219150 0.208682
0.279728 0.222019 0.208560
0.292973 0.225040 0.208255
0.307683 0.228611 0.207858
0.323583 0.232761 0.207340
0.341222 0.237613 0.206668
0.362005 0.243168 0.205692
0.404181 0.246403 0.204623
0.451789 0.249180 0.203159
0.504448 0.250706 0.201511
0.562646 0.250156 0.199374
0.625513 0.246860 0.196994
0.692531 0.238651 0.195102
0.763729 0.223880 0.194247
0.836942 0.201877 0.194430
0.908446 0.169955 0.196262
0.973693 0.122560 0.201511
0.161410 0.209079 0.235813
0.160983 0.208988 0.235599
0.160647 0.208743 0.235416
0.160159 0.208408 0.235111
0.159701 0.208072 0.234714
0.159060 0.207614 0.234318
0.158724 0.207370 0.234134
0.158755 0.207370 0.234012
0.159152 0.208133 0.233707
0.161013 0.211612 0.230900
0.167025 0.216037 0.227848
0.178378 0.221561 0.224521
0.196506 0.228336 0.220554
0.216159 0.232547 0.216739
0.237675 0.232883 0.213077
0.261143 0.228885 0.210147
0.296818 0.229068 0.207370
0.309545 0.231968 0.207034
0.323400 0.235264 0.206516
0.338323 0.239139 0.205997
0.355169 0.243778 0.205325
0.374640 0.249393 0.204288
0.396124 0.255924 0.203037
0.426947 0.262699 0.201328
0.477119 0.267338 0.199161
0.532952 0.270756 0.196689
0.594324 0.272648 0.193454
0.660304 0.271733 0.189853
0.730556 0.267521 0.186557
0.805936 0.258213 0.184695
0.881346 0.244602 0.184146
0.951812 0.226902 0.187106
0.172244 0.217014 0.243442
0.172091 0.216922 0.243351
0.171695 0.216587 0.242954
0.170993 0.216068 0.242374
0.170077 0.215396 0.241825
0.169223 0.214755 0.241154
0.168765 0.214420 0.240879
0.168338 0.214328 0.240696
0.168765 0.214420 0.240879
0.169833 0.217014 0.239170
0.173709 0.221927 0.235782
0.182773 0.228000 0.232059
0.197635 0.235325 0.227634
0.219059 0.243473 0.222477
0.240696 0.247745 0.217441
0.263157 0.247410 0.213046
0.285985 0.242100 0.209415
0.330144 0.240940 0.205325
0.343389 0.244083 0.204807
0.357610 0.247684 0.204257
0.373724 0.252201 0.203555
0.392462 0.257572 0.202335
0.413184 0.264103 0.200992
0.436805 0.271641 0.199222
0.462898 0.280430 0.196872
0.506096 0.288243 0.193790
0.566461 0.294255 0.189761
0.633936 0.299229 0.184970
0.706935 0.302312 0.179294
0.785183 0.303349 0.173190
0.867277 0.300847 0.169375
0.943725 0.296452 0.169253
0.183719 0.225498 0.251530
0.183841 0.225589 0.251621
0.183841 0.225376 0.251438
0.183352 0.225193 0.251164
0.182803 0.224765 0.250797
0.182376 0.224460 0.250553
0.182437 0.224460 0.250431
0.182650 0.224674 0.250736
0.183169 0.225071 0.251164
0.184237 0.225895 0.251865
0.186374 0.231144 0.247623
0.192172 0.237400 0.242679
0.203372 0.244388 0.237217
0.220218 0.252049 0.230869
0.243198 0.260258 0.224094
0.264378 0.263279 0.217838
0.287205 0.262242 0.212619
0.311192 0.256535 0.208316
0.356909 0.254368 0.203342
0.377081 0.257206 0.202060
0.393957 0.261997 0.201144
0.413245 0.267735 0.199832
0.435004 0.274662 0.198123
0.459510 0.282658 0.196017
0.486641 0.292058 0.193118
0.517235 0.302922 0.189578
0.551537 0.315496 0.185061
0.615656 0.325780 0.178470
0.689540 0.333898 0.170718
0.767269 0.340795 0.161868
0.847135 0.346166 0.152743
0.924773 0.348669 0.148348
0.196689 0.235477 0.261051
0.196689 0.235477 0.261051
0.196658 0.235264 0.260960
0.196445 0.235080 0.260716
0.196201 0.234867 0.260533
0.195956 0.234684 0.260380
0.195865 0.234806 0.260349
0.196201 0.234867 0.260533
0.196689 0.235477 0.261051
0.197787 0.236118 0.261723
0.198856 0.239017 0.260105
0.202396 0.245579 0.254643
0.210605 0.253178 0.248417
0.224033 0.261357 0.241428
0.243565 0.270237 0.233616
0.268711 0.279393 0.225223
0.291234 0.282109 0.217929
0.315770 0.281071 0.211673
0.342077 0.275334 0.206638
0.387549 0.272282 0.200778
0.419379 0.274723 0.197879
0.438849 0.280613 0.196323
0.460975 0.287846 0.194278
0.486061 0.296269 0.191714
0.514214 0.306188 0.188357
0.545922 0.317601 0.184024
0.582238 0.330999 0.178378
0.622614 0.346258 0.170871
0.671656 0.363043 0.161135
0.751614 0.375250 0.148379
0.833158 0.386755 0.133181
0.912108 0.396429 0.119173
0.214694 0.249516 0.274632
0.215000 0.249790 0.274876
0.240024 0.271000 0.295262
0.239933 0.270756 0.295048
0.239384 0.270451 0.294682
0.238712 0.269902 0.294194
0.238437 0.269474 0.293858
0.238285 0.269505 0.293767
0.238621 0.269810 0.294133
0.239658 0.270695 0.294896
0.240818 0.271702 0.295964
0.242069 0.279271 0.288701
0.247715 0.288823 0.278386
0.258762 0.298955 0.266789
0.276158 0.309056 0.254337
0.299901 0.319188 0.241398
0.329168 0.329137 0.227817
0.353002 0.329198 0.216953
0.379004 0.325170 0.207889
0.407782 0.316258 0.200778
0.454108 0.309545 0.193118
0.500145 0.310582 0.186893
0.521172 0.317144 0.184573
0.544610 0.324895 0.181338
0.569696 0.333440 0.177523
0.597772 0.343236 0.172763
0.628992 0.354437 0.166873
0.664607 0.367834 0.158755
0.706020 0.384131 0.147646
0.753079 0.403571 0.132021
0.818235 0.423072 0.108431
0.897765 0.437995 0.066590
0.243259 0.273991 0.298161
0.245945 0.276310 0.300389
0.248631 0.278691 0.302739
0.251011 0.280888 0.304753
0.252689 0.282383 0.306249
0.253208 0.282658 0.306584
0.252873 0.282536 0.306371
0.252506 0.282231 0.306126
0.252781 0.282475 0.306310
0.253452 0.282902 0.306798
0.254276 0.283787 0.307652
0.255192 0.286442 0.306493
0.257206 0.296025 0.295445
0.264164 0.306126 0.283635
0.277134 0.316747 0.270726
0.296483 0.327520 0.256901
0.321813 0.338415 0.242557
0.353979 0.349920 0.227726
0.380102 0.351019 0.215640
0.409888 0.348547 0.205173
0.442542 0.341222 0.196445
0.490364 0.334356 0.187442
0.552483 0.335363 0.177096
0.576196 0.342901 0.173312
0.601099 0.351171 0.168948
0.628199 0.360479 0.163607
0.658289 0.371221 0.156802
0.692622 0.384131 0.147829
0.732570 0.399969 0.134768
0.778225 0.419257 0.115389
0.828794 0.442145 0.079530
0.881468 0.468086 0.000000
0.261326 0.290318 0.313909
0.264225 0.293034 0.316564
0.267308 0.295933 0.319402
0.270329 0.298650 0.322118
0.272251 0.300511 0.323919
0.272862 0.301213 0.324529
0.272709 0.301091 0.324407
0.272648 0.300847 0.324224
0.272496 0.300877 0.324163
0.272953 0.301122 0.324468
0.273625 0.301732 0.325109
0.274449 0.302647 0.325963
0.274754 0.308965 0.319219
0.278447 0.319738 0.306401
0.287449 0.330938 0.292485
0.302770 0.342504 0.277226
0.324681 0.354284 0.261143
0.353124 0.366552 0.244511
0.387671 0.378973 0.227298
0.416541 0.380743 0.213138
0.448859 0.378729 0.200565
0.485573 0.372290 0.189639
0.533471 0.363989 0.179049
0.611872 0.363806 0.162631
0.636378 0.371649 0.157534
0.662531 0.380407 0.151431
0.691341 0.390692 0.143221
0.724239 0.403052 0.132387
0.762539 0.418433 0.116518
0.806180 0.437263 0.090028
0.854185 0.459541 0.000000
0.902800 0.484382 0.000000
0.283513 0.311376 0.334569
0.286564 0.314397 0.337407
0.289586 0.317418 0.340398
0.292363 0.320073 0.343053
0.294347 0.322148 0.345068
0.295171 0.322911 0.345800
0.295171 0.322911 0.345800
0.294835 0.322576 0.345525
0.294957 0.322728 0.345617
0.295171 0.322911 0.345800
0.295781 0.323583 0.346471
0.296666 0.324407 0.347265
0.297429 0.325078 0.347936
0.298009 0.336339 0.334569
0.303685 0.348394 0.319524
0.315526 0.361242 0.303380
0.334997 0.375494 0.286107
0.361852 0.390753 0.267857
0.397345 0.407691 0.248173
0.440345 0.425269 0.226566
0.478096 0.431403 0.207767
0.520500 0.433387 0.189609
0.566430 0.429145 0.172305
0.619379 0.419226 0.156466
0.708309 0.418952 0.126955
0.746914 0.426581 0.111391
0.777493 0.438056 0.095003
0.811307 0.451637 0.047761
0.848997 0.468238 0.000000
0.888853 0.487343 0.000000
0.929259 0.508812 0.000000
0.968139 0.532341 0.000000
0.331640 0.359991 0.382391
0.333135 0.361608 0.383978
0.334264 0.362768 0.385138
0.334783 0.363226 0.385626
0.334966 0.363409 0.385779
0.334295 0.362646 0.385046
0.333532 0.361852 0.384283
0.332830 0.361212 0.383642
0.332708 0.361120 0.383520
0.333135 0.361608 0.383978
0.333989 0.362493 0.384863
0.335027 0.363561 0.385931
0.335943 0.364508 0.386847
0.336126 0.369757 0.381598
0.338384 0.383062 0.364172
0.346532 0.397070 0.345190
0.361639 0.411780 0.324834
0.384985 0.427527 0.302739
0.416419 0.444312 0.279179
0.456641 0.462257 0.253300
0.502922 0.478950 0.225437
0.542107 0.482704 0.200748
0.584131 0.481239 0.176822
0.627863 0.472999 0.154360
0.676631 0.459083 0.133974
0.762203 0.457069 0.088380
0.812894 0.461982 0.004334
0.845426 0.475502 0.000000
0.880064 0.491127 0.000000
0.915892 0.508965 0.000000
0.951537 0.528862 0.000000
0.985657 0.550561 0.000000
0.363745 0.393378 0.415412
0.365118 0.394751 0.416785
0.366369 0.396094 0.418128
0.367132 0.396918 0.418921
0.367346 0.397101 0.419104
0.366888 0.396674 0.418647
0.366278 0.395911 0.417975
0.365789 0.395453 0.417487
0.365789 0.395453 0.417487
0.366339 0.396063 0.418097
0.367285 0.397040 0.419043
0.368536 0.398413 0.420386
0.369665 0.399512 0.421454
0.371038 0.400916 0.422827
0.371374 0.412268 0.409857
0.376410 0.427863 0.390539
0.388464 0.444404 0.369116
0.408423 0.461891 0.345708
0.437385 0.480323 0.320195
0.475441 0.499611 0.291814
0.522179 0.519219 0.260624
0.573449 0.535943 0.225620
0.615290 0.538872 0.193454
0.659327 0.536278 0.159548
0.678645 0.509911 0.134920
0.727108 0.495735 0.103578
0.807706 0.491951 0.000000
0.868376 0.494209 0.000000
0.900420 0.508904 0.000000
0.933471 0.525719 0.000000
0.966735 0.545037 0.000000
0.998383 0.566064 0.000000
0.420722 0.451637 0.472633
0.423590 0.454536 0.475471
0.424994 0.455879 0.476783
0.424567 0.455421 0.476356
0.422553 0.453407 0.474403
0.419532 0.450538 0.471595
0.415961 0.446906 0.468086
0.412665 0.443519 0.464759
0.409705 0.440650 0.461921
0.407660 0.438575 0.459907
0.405676 0.436591 0.457954
0.404791 0.435584 0.457008
0.404181 0.435004 0.456397
0.403326 0.434150 0.455573
0.401831 0.434852 0.452033
0.400977 0.448402 0.430518
0.406775 0.463020 0.407599
0.420783 0.479561 0.383673
0.444373 0.497841 0.358160
0.477943 0.517845 0.330968
0.521019 0.538659 0.300572
0.571557 0.558953 0.265843
0.622919 0.574060 0.226596
0.662806 0.574456 0.188693
0.702449 0.568383 0.147463
0.741970 0.555779 0.101106
0.788144 0.540124 0.000000
0.858915 0.532097 0.000000
0.922484 0.528740 0.000000
0.951110 0.543572 0.000000
0.980255 0.560906 0.000000
1.000000 0.580438 0.000000
0.455787 0.485573 0.505455
0.458961 0.488594 0.508324
0.461067 0.490517 0.510216
0.461463 0.490913 0.510613
0.460975 0.490455 0.510124
0.459937 0.489479 0.509239
0.458961 0.488502 0.508293
0.458076 0.487709 0.507561
0.457832 0.487465 0.507317
0.458076 0.487709 0.507561
0.458167 0.487770 0.507622
0.458625 0.488197 0.508019
0.458686 0.488350 0.508110
0.458259 0.487922 0.507713
0.457130 0.486854 0.506706
0.454902 0.493355 0.495033
0.456153 0.508263 0.471351
0.465217 0.524376 0.446143
0.484047 0.542260 0.419898
0.512779 0.561730 0.391638
0.550988 0.581903 0.360693
0.597833 0.602075 0.325505
0.651026 0.621271 0.284794
0.702449 0.634516 0.238499
0.742275 0.633722 0.190036
0.781765 0.627131 0.131807
0.820890 0.614069 0.000000
0.864378 0.597742 0.000000
0.924559 0.586236 0.000000
0.986114 0.576745 0.000000
1.000000 0.592004 0.000000
1.000000 0.609125 0.000000
0.516533 0.540185 0.557275
0.518395 0.541833 0.558801
0.519219 0.542473 0.559442
0.519097 0.542443 0.559380
0.518181 0.541650 0.558648
0.516808 0.540429 0.557519
0.515282 0.539086 0.556237
0.513939 0.537987 0.555200
0.512963 0.537133 0.554406
0.512840 0.537011 0.554314
0.512566 0.536767 0.554070
0.513176 0.537285 0.554589
0.513451 0.537530 0.554772
0.513298 0.537438 0.554681
0.512352 0.536553 0.553887
0.510948 0.535302 0.552728
0.508812 0.547906 0.533593
0.512993 0.563684 0.509758
0.526055 0.581109 0.484352
0.549035 0.600061 0.457160
0.581415 0.619867 0.427344
0.622126 0.639368 0.393591
0.669215 0.657740 0.354681
0.721279 0.674769 0.309392
0.768734 0.684627 0.257694
0.804410 0.681147 0.202426
0.839750 0.672389 0.132692
0.874449 0.657649 0.000000
0.913451 0.640497 0.000000
0.964477 0.627314 0.000000
1.000000 0.616907 0.000000
1.000000 0.627619 0.000000
0.572869 0.587732 0.601556
0.574487 0.589044 0.602777
0.575708 0.590051 0.603723
0.576410 0.590600 0.604242
0.577264 0.591302 0.604883
0.578851 0.592645 0.606073
0.582788 0.595880 0.609125
0.587976 0.600122 0.613001
0.594720 0.605615 0.618067
0.602472 0.611902 0.623896
0.610925 0.618799 0.630213
0.619135 0.625391 0.636255
0.626581 0.631403 0.641779
0.632502 0.636133 0.646113
0.636439 0.639307 0.649042
0.637873 0.640467 0.650080
0.637842 0.644495 0.646174
0.639185 0.660090 0.626459
0.647822 0.676936 0.605707
0.664149 0.694331 0.582788
0.688289 0.711727 0.557458
0.719020 0.728267 0.528496
0.755001 0.743008 0.493965
0.795010 0.756069 0.453620
0.837644 0.767300 0.404608
0.874693 0.771481 0.349004
0.902708 0.764645 0.289036
0.930541 0.752926 0.217807
0.958251 0.736110 0.117586
0.988647 0.716579 0.000000
1.000000 0.699184 0.000000
1.000000 0.685237 0.000000
0.689448 0.681727 0.687800
0.689540 0.681788 0.687892
0.689052 0.681392 0.687556
0.688319 0.680842 0.686976
0.687282 0.679957 0.686213
0.686519 0.679347 0.685664
0.686183 0.679133 0.685451
0.686519 0.679347 0.685664
0.687648 0.680262 0.686488
0.689387 0.681666 0.687800
0.691768 0.683589 0.689509
0.694423 0.685695 0.691463
0.697078 0.687831 0.693416
0.699306 0.689601 0.695033
