20 Preset/Dark Style/【3】LUT video cho PR-AE-FCPX/19Tones (3)/19Tones - Village.cube
# Created by Adobe Lightroom plugin Export LUT (1.24.0)
# www.johnrellis.com/lightroom/exportlut.htm
# Preset: 19Tones - Village
# Color profile: E:\lut插件\exportlut.1.24\exportlut.lrplugin\color profiles\Rec709gamma2.4.icc
LUT_3D_SIZE 32
DOMAIN_MIN 0.0 0.0 0.0
DOMAIN_MAX 1.0 1.0 1.0
0.105837 0.187747 0.211307
0.105837 0.187747 0.211307
0.107332 0.187808 0.211429
0.109712 0.187991 0.211521
0.115023 0.188144 0.211704
0.123018 0.188418 0.212009
0.135439 0.188479 0.212253
0.151369 0.188449 0.212467
0.171145 0.188296 0.212619
0.195163 0.187808 0.212802
0.224155 0.186984 0.212985
0.259648 0.185367 0.212955
0.302892 0.181979 0.212863
0.354559 0.175967 0.212436
0.413153 0.166201 0.211826
0.477180 0.151034 0.210697
0.545617 0.126619 0.209232
0.617212 0.072084 0.207492
0.688930 0.000000 0.205356
0.756649 0.000000 0.203006
0.818479 0.000000 0.200443
0.897063 0.000000 0.196475
0.963226 0.000000 0.192966
1.000000 0.000000 0.191196
1.000000 0.000000 0.190829
1.000000 0.000000 0.191958
1.000000 0.000000 0.194736
1.000000 0.000000 0.199130
1.000000 0.011170 0.205356
1.000000 0.136965 0.214725
1.000000 0.190280 0.227939
1.000000 0.236088 0.247105
0.105531 0.187900 0.211429
0.105531 0.187900 0.211429
0.107118 0.187961 0.211398
0.109529 0.188144 0.211490
0.114809 0.188296 0.211704
0.122835 0.188571 0.211978
0.134432 0.188693 0.212253
0.149569 0.188602 0.212345
0.168368 0.188571 0.212619
0.191012 0.188266 0.212802
0.218509 0.187655 0.212894
0.252293 0.186038 0.212955
0.293217 0.183352 0.212772
0.342657 0.178256 0.212528
0.399084 0.169894 0.211887
0.461860 0.156435 0.210880
0.529442 0.135256 0.209415
0.600397 0.096193 0.207858
0.672480 0.000000 0.205844
0.740719 0.000000 0.203525
0.803037 0.000000 0.201114
0.880064 0.000000 0.197360
0.945464 0.000000 0.193973
0.993957 0.000000 0.191562
1.000000 0.000000 0.190646
1.000000 0.000000 0.190677
1.000000 0.000000 0.192416
1.000000 0.000000 0.195651
1.000000 0.000000 0.200992
1.000000 0.103609 0.208865
1.000000 0.167788 0.220188
1.000000 0.216983 0.237675
0.106081 0.188632 0.211612
0.106661 0.188602 0.211612
0.107271 0.188571 0.211582
0.109560 0.188907 0.211551
0.115450 0.189029 0.211612
0.123507 0.189273 0.211765
0.134859 0.189578 0.212009
0.149386 0.189670 0.212222
0.167514 0.189853 0.212345
0.189792 0.189639 0.212558
0.216373 0.189151 0.212619
0.249058 0.187961 0.212558
0.288640 0.185885 0.212497
0.336156 0.181643 0.212131
0.391180 0.174441 0.211521
0.452216 0.162692 0.210605
0.518853 0.143526 0.209506
0.589563 0.110964 0.208042
0.661524 0.000000 0.205966
0.730739 0.000000 0.203525
0.794247 0.000000 0.201053
0.872740 0.000000 0.197208
0.936706 0.000000 0.193759
0.985229 0.000000 0.191379
1.000000 0.000000 0.190127
1.000000 0.000000 0.189883
1.000000 0.000000 0.190921
1.000000 0.000000 0.193484
1.000000 0.000000 0.198184
1.000000 0.099153 0.205447
1.000000 0.162539 0.216312
1.000000 0.211704 0.231540
0.107271 0.189883 0.212100
0.107271 0.189883 0.212100
0.109163 0.189639 0.212222
0.110414 0.190036 0.211917
0.115938 0.190921 0.211765
0.125185 0.191409 0.211643
0.136751 0.191653 0.211856
0.151339 0.191897 0.211948
0.168856 0.192111 0.212070
0.190768 0.192203 0.212100
0.216800 0.192081 0.212284
0.248539 0.191348 0.212161
0.286839 0.189731 0.211978
0.332738 0.186282 0.211734
0.385412 0.180179 0.211185
0.444038 0.170321 0.210422
0.507897 0.154665 0.209323
0.575525 0.130098 0.207828
0.645411 0.085451 0.205936
0.713802 0.000000 0.203677
0.777432 0.000000 0.201053
0.855955 0.000000 0.197208
0.918578 0.000000 0.193606
0.968841 0.000000 0.190799
1.000000 0.000000 0.188937
1.000000 0.000000 0.188235
1.000000 0.000000 0.189181
1.000000 0.000000 0.191623
1.000000 0.000000 0.196048
1.000000 0.122591 0.203037
1.000000 0.173312 0.213382
1.000000 0.216770 0.227176
0.109407 0.192416 0.212558
0.109316 0.192416 0.212680
0.111208 0.192172 0.212680
0.113436 0.192050 0.212680
0.116518 0.192905 0.212314
0.125063 0.194461 0.211917
0.137484 0.195254 0.211704
0.152102 0.195743 0.211582
0.169497 0.195956 0.211856
0.190494 0.196109 0.211887
0.215518 0.196139 0.211948
0.246250 0.195926 0.211795
0.283330 0.194949 0.211704
0.327825 0.192569 0.211307
0.379492 0.187961 0.210819
0.437812 0.180056 0.210025
0.501854 0.167239 0.208927
0.570001 0.147524 0.207340
0.639918 0.117220 0.205142
0.708248 0.039796 0.202792
0.779171 0.000000 0.199588
0.852110 0.000000 0.195682
0.912383 0.000000 0.192172
0.962463 0.000000 0.189090
1.000000 0.000000 0.187015
1.000000 0.000000 0.185977
1.000000 0.000000 0.186709
1.000000 0.000000 0.188724
1.000000 0.101869 0.192935
1.000000 0.151522 0.199435
1.000000 0.191531 0.209262
1.000000 0.228031 0.222751
0.111452 0.196323 0.213199
0.111910 0.196292 0.213352
0.114504 0.195865 0.213382
0.117800 0.195102 0.213565
0.120699 0.195529 0.213352
0.126162 0.197208 0.212863
0.138125 0.200381 0.212070
0.154299 0.201419 0.211643
0.173342 0.202548 0.211368
0.194736 0.202762 0.211368
0.220432 0.202884 0.211398
0.251347 0.203067 0.211307
0.288884 0.202579 0.211124
0.333623 0.201022 0.210727
0.385779 0.197482 0.210056
0.444160 0.191043 0.209049
0.508446 0.180941 0.207675
0.576562 0.165286 0.205844
0.646540 0.143313 0.203555
0.713680 0.113191 0.200809
0.791836 0.038697 0.196780
0.860533 0.000000 0.192569
1.000000 0.089021 0.181338
1.000000 0.123171 0.181460
1.000000 0.152041 0.183810
1.000000 0.176516 0.188327
1.000000 0.199863 0.194949
1.000000 0.222477 0.203128
1.000000 0.245640 0.213901
1.000000 0.269413 0.227024
1.000000 0.294255 0.242618
1.000000 0.319158 0.260960
0.116640 0.204410 0.214328
0.117372 0.204257 0.214328
0.120027 0.203555 0.214542
0.124544 0.202090 0.214664
0.129091 0.200290 0.214969
0.135042 0.202548 0.214389
0.144808 0.206485 0.213535
0.164920 0.213474 0.211978
0.188266 0.214755 0.211307
0.215549 0.216709 0.210391
0.247013 0.217899 0.209934
0.284337 0.218235 0.209628
0.327947 0.217838 0.209171
0.377935 0.216251 0.208408
0.433051 0.212680 0.207370
0.492775 0.206607 0.205966
0.557031 0.197421 0.204135
0.623621 0.184909 0.201694
0.690974 0.169680 0.198734
0.770474 0.152804 0.194186
0.853147 0.141695 0.188113
0.923888 0.143618 0.182254
0.981262 0.156680 0.177951
1.000000 0.176669 0.175875
1.000000 0.196414 0.177005
1.000000 0.214969 0.180758
1.000000 0.231754 0.186374
1.000000 0.248447 0.193820
1.000000 0.265812 0.203464
1.000000 0.283970 0.215518
1.000000 0.304021 0.230198
1.000000 0.325353 0.247288
0.121859 0.212222 0.215427
0.122499 0.212070 0.215427
0.125460 0.211124 0.215518
0.129793 0.209598 0.215824
0.135378 0.207156 0.216068
0.140108 0.205936 0.216190
0.149264 0.209903 0.215427
0.162692 0.215946 0.214206
0.190127 0.227420 0.211765
0.218387 0.229435 0.210819
0.251835 0.232059 0.209506
0.290562 0.235080 0.207919
0.333806 0.235477 0.207309
0.382635 0.234714 0.206424
0.436011 0.232822 0.205234
0.493690 0.228946 0.203677
0.555718 0.222965 0.201541
0.620569 0.215518 0.198642
0.696712 0.207401 0.194675
0.777707 0.202090 0.188937
0.850614 0.200900 0.182864
0.915740 0.206851 0.176455
0.970489 0.217136 0.171572
1.000000 0.230533 0.169009
1.000000 0.244724 0.169192
1.000000 0.257359 0.172030
1.000000 0.269383 0.177249
1.000000 0.280919 0.184451
1.000000 0.293584 0.194095
1.000000 0.307988 0.205692
1.000000 0.324163 0.219760
1.000000 0.341985 0.236393
0.127901 0.222446 0.216831
0.128878 0.222049 0.216892
0.131777 0.221042 0.216983
0.136355 0.219211 0.217197
0.142580 0.216373 0.217411
0.147768 0.212772 0.217716
0.154665 0.213687 0.217502
0.167269 0.219699 0.216648
0.185885 0.228275 0.215152
0.222171 0.245884 0.211460
0.258701 0.250278 0.209598
0.299596 0.253910 0.207614
0.345220 0.257572 0.205020
0.394812 0.259586 0.202792
0.447883 0.258427 0.201389
0.504295 0.256260 0.199496
0.564782 0.252781 0.196994
0.640131 0.250889 0.192721
0.717159 0.250065 0.187106
0.788113 0.250614 0.181003
0.853788 0.254185 0.174441
0.913512 0.262028 0.167575
0.964904 0.271550 0.162020
1.000000 0.282414 0.158724
1.000000 0.292851 0.158785
1.000000 0.301701 0.161776
1.000000 0.310094 0.167086
1.000000 0.318425 0.174868
1.000000 0.327733 0.184573
1.000000 0.338506 0.196231
1.000000 0.350988 0.210819
1.000000 0.365301 0.227604
0.136263 0.235019 0.218387
0.136690 0.234684 0.218448
0.139467 0.233433 0.218479
0.144656 0.231205 0.218753
0.150942 0.227512 0.218967
0.156649 0.223270 0.219272
0.160861 0.218265 0.219516
0.171725 0.223362 0.218936
0.188724 0.231601 0.217868
0.213199 0.243595 0.215824
0.257694 0.265751 0.211093
0.305241 0.275944 0.207309
0.352026 0.280339 0.204257
0.402991 0.284520 0.200565
0.457801 0.288487 0.196353
0.520867 0.290501 0.192721
0.595636 0.293584 0.187778
0.669398 0.296056 0.181918
0.738491 0.299016 0.175509
0.802152 0.302647 0.168643
0.860441 0.307774 0.161593
0.912566 0.314031 0.154879
0.957702 0.320989 0.149264
0.996338 0.327489 0.146273
1.000000 0.333928 0.145693
1.000000 0.339452 0.147982
1.000000 0.344823 0.153384
1.000000 0.351293 0.160372
1.000000 0.358495 0.170260
1.000000 0.367376 0.182773
1.000000 0.377813 0.197726
1.000000 0.389868 0.216251
0.144686 0.248661 0.219883
0.145602 0.248203 0.219944
0.148440 0.246799 0.220005
0.153292 0.244450 0.220188
0.159884 0.240543 0.220462
0.166476 0.235660 0.220768
0.171878 0.230014 0.221042
0.176974 0.227085 0.221134
0.193057 0.235386 0.220432
0.216434 0.247257 0.218906
0.249058 0.264134 0.216068
0.303319 0.292119 0.209659
0.366247 0.310857 0.202365
0.426062 0.319249 0.197024
0.490883 0.327428 0.190372
0.557519 0.335546 0.182223
0.625055 0.342901 0.173190
0.690608 0.346654 0.166476
0.751827 0.350042 0.159487
0.809049 0.354284 0.151827
0.862181 0.358862 0.144198
0.910246 0.364508 0.136324
0.952819 0.370031 0.130465
0.989899 0.375036 0.127169
1.000000 0.379492 0.127169
1.000000 0.383276 0.130343
1.000000 0.386847 0.136416
1.000000 0.390845 0.144930
1.000000 0.395850 0.156527
1.000000 0.402319 0.170443
1.000000 0.410346 0.186893
1.000000 0.419959 0.206058
0.156222 0.266911 0.221286
0.157168 0.266392 0.221347
0.159823 0.265049 0.221439
0.164920 0.262303 0.221714
0.171908 0.257664 0.221927
0.178897 0.252140 0.222385
0.185000 0.245487 0.222629
0.188998 0.238041 0.222995
0.198642 0.239719 0.222812
0.221256 0.251621 0.221775
0.255558 0.270176 0.219638
0.305852 0.297124 0.214908
0.462715 0.388037 0.194217
0.572259 0.436042 0.165164
0.640284 0.445319 0.149325
0.702083 0.453254 0.131228
0.758022 0.459998 0.109499
0.809140 0.466651 0.073091
0.857816 0.470039 0.023560
0.902434 0.470924 0.004028
0.941466 0.470893 0.000000
0.975708 0.469978 0.001892
1.000000 0.468727 0.020539
1.000000 0.467353 0.052430
1.000000 0.465614 0.089357
1.000000 0.463478 0.108339
1.000000 0.461677 0.125948
1.000000 0.460548 0.142672
1.000000 0.460487 0.160159
1.000000 0.462257 0.178500
1.000000 0.465919 0.198459
1.000000 0.471901 0.220096
0.177920 0.300938 0.222904
0.178561 0.300450 0.222873
0.181369 0.298009 0.222965
0.186984 0.294316 0.223392
0.194705 0.288426 0.223728
0.202640 0.281041 0.224277
0.209781 0.272068 0.224949
0.214694 0.262028 0.225406
0.216068 0.251682 0.225772
0.240787 0.264530 0.225315
0.281712 0.287388 0.223392
0.341863 0.321508 0.218479
0.425360 0.369421 0.207553
0.533501 0.434699 0.183474
0.651423 0.499733 0.132601
0.709865 0.505547 0.109590
0.761379 0.509148 0.076478
0.807340 0.511681 0.000000
0.849973 0.514611 0.000000
0.888365 0.516869 0.000000
0.925505 0.514031 0.000000
0.959167 0.511315 0.000000
0.989319 0.508385 0.000000
1.000000 0.505455 0.000000
1.000000 0.502556 0.000000
1.000000 0.499489 0.023346
1.000000 0.496803 0.083955
1.000000 0.494697 0.111574
1.000000 0.493690 0.135042
1.000000 0.494240 0.157961
1.000000 0.496498 0.180850
1.000000 0.500603 0.205325
0.203189 0.339452 0.223056
0.203525 0.338628 0.223117
0.206394 0.335058 0.223331
0.211521 0.329717 0.223911
0.218235 0.321752 0.224430
0.225681 0.311162 0.225193
0.232212 0.299321 0.225864
0.236515 0.286534 0.226627
0.237980 0.273075 0.227054
0.242283 0.266392 0.227420
0.279576 0.287633 0.226230
0.333227 0.318456 0.222873
0.406989 0.361486 0.215335
0.500816 0.418097 0.199344
0.605737 0.486915 0.167391
0.715023 0.558770 0.078798
0.762936 0.559014 0.000000
0.805905 0.558343 0.000000
0.845853 0.558221 0.000000
0.881834 0.557641 0.000000
0.914824 0.557488 0.000000
0.946624 0.555535 0.000000
0.976745 0.551263 0.000000
1.000000 0.547234 0.000000
1.000000 0.543206 0.000000
1.000000 0.538903 0.000000
1.000000 0.534844 0.000000
1.000000 0.531579 0.034485
1.000000 0.529320 0.101472
1.000000 0.528496 0.133577
1.000000 0.529290 0.162112
1.000000 0.531823 0.190341
0.229068 0.376837 0.222171
0.229313 0.376318 0.222324
0.231785 0.372259 0.222568
0.236210 0.365576 0.223239
0.242252 0.355596 0.224094
0.248997 0.343572 0.225071
0.255161 0.329473 0.226169
0.259556 0.314305 0.227085
0.261265 0.298344 0.227878
0.259037 0.282383 0.228428
0.276249 0.286595 0.228275
0.324498 0.314855 0.226108
0.390387 0.353582 0.220951
0.474006 0.404089 0.209812
0.571008 0.466651 0.188022
0.665400 0.534905 0.149050
0.765469 0.611048 0.000000
0.806332 0.607691 0.000000
0.843809 0.604547 0.000000
0.877775 0.601007 0.000000
0.909209 0.598260 0.000000
0.938750 0.596246 0.000000
0.965911 0.594659 0.000000
0.992981 0.589441 0.000000
1.000000 0.583917 0.000000
1.000000 0.578607 0.000000
1.000000 0.573846 0.000000
1.000000 0.569879 0.000000
1.000000 0.567132 0.003571
1.000000 0.566033 0.104524
1.000000 0.566522 0.146151
1.000000 0.568688 0.183291
0.253880 0.411505 0.220523
0.254734 0.411200 0.220615
0.257298 0.407782 0.220920
0.262211 0.401648 0.221653
0.268833 0.392035 0.222599
0.276036 0.380163 0.223972
0.283391 0.365881 0.225345
0.289036 0.349676 0.226688
0.291661 0.331762 0.228000
0.289860 0.312596 0.229007
0.282383 0.292760 0.229618
0.319524 0.313085 0.228489
0.377234 0.347234 0.224918
0.449805 0.391119 0.217319
0.535027 0.445136 0.202487
0.624628 0.507530 0.176761
0.708064 0.572168 0.133364
0.801907 0.652766 0.000000
0.838132 0.647547 0.000000
0.871550 0.642573 0.000000
0.902953 0.638544 0.000000
0.932372 0.635309 0.000000
0.959564 0.632441 0.000000
0.984833 0.630121 0.000000
1.000000 0.626764 0.000000
1.000000 0.620600 0.000000
1.000000 0.615229 0.000000
1.000000 0.610285 0.000000
1.000000 0.606226 0.000000
1.000000 0.603571 0.025208
1.000000 0.602045 0.122683
1.000000 0.602014 0.167544
0.279637 0.445624 0.217838
0.280491 0.445106 0.217990
0.282963 0.441657 0.218326
0.287327 0.436194 0.219181
0.293736 0.427008 0.220249
0.301305 0.414740 0.221836
0.308812 0.400458 0.223606
0.314824 0.383246 0.225315
0.317967 0.363775 0.227024
0.316869 0.342809 0.228489
0.310826 0.320867 0.229526
0.309483 0.307713 0.230045
0.361364 0.338689 0.227604
0.426947 0.378576 0.222324
0.505058 0.427649 0.212009
0.590845 0.485573 0.193515
0.673335 0.547539 0.164645
0.748898 0.610132 0.118105
0.832090 0.686305 0.000000
0.868070 0.686610 0.000000
0.898497 0.680720 0.000000
0.927092 0.675624 0.000000
0.953796 0.671260 0.000000
0.978759 0.667262 0.000000
1.000000 0.663844 0.000000
1.000000 0.660792 0.000000
1.000000 0.655604 0.000000
1.000000 0.649928 0.000000
1.000000 0.645075 0.000000
1.000000 0.641352 0.000000
1.000000 0.638788 0.094392
1.000000 0.637476 0.155245
0.312871 0.486824 0.213931
0.314061 0.486824 0.214023
0.358801 0.532525 0.210208
0.363409 0.525689 0.211185
0.369085 0.515648 0.212650
0.375738 0.501518 0.214755
0.382238 0.483070 0.217411
0.386877 0.461433 0.220279
0.389014 0.437079 0.223056
0.387152 0.410071 0.225742
0.379065 0.380682 0.227970
0.364294 0.350591 0.229709
0.383307 0.353857 0.229343
0.450904 0.395911 0.224308
0.528466 0.446265 0.215000
0.610132 0.503929 0.199374
0.686305 0.563592 0.177615
0.755215 0.622309 0.148013
0.816037 0.677821 0.109682
0.878355 0.737606 0.000000
0.910948 0.741421 0.000000
0.936095 0.731991 0.000000
0.959838 0.723629 0.000000
0.982116 0.715938 0.000000
1.000000 0.708492 0.000000
1.000000 0.701839 0.000000
1.000000 0.696010 0.000000
1.000000 0.690578 0.000000
1.000000 0.683833 0.000000
1.000000 0.678431 0.000000
1.000000 0.674434 0.012451
1.000000 0.671748 0.140169
0.361822 0.543450 0.208194
0.366552 0.547112 0.207797
0.372961 0.548913 0.208011
0.380865 0.547814 0.208499
0.389685 0.542107 0.209598
0.397284 0.530632 0.211398
0.403967 0.513787 0.213626
0.409186 0.493324 0.216464
0.411963 0.469734 0.219608
0.411017 0.442878 0.222690
0.405066 0.413703 0.225498
0.393194 0.382757 0.227878
0.373175 0.350134 0.229740
0.420508 0.377173 0.227298
0.490944 0.422095 0.220829
0.569055 0.475105 0.209293
0.646113 0.532708 0.192630
0.717769 0.591608 0.170718
0.782956 0.649683 0.144137
0.838895 0.702419 0.117250
0.894011 0.756039 0.046571
0.928252 0.767636 0.000000
0.951873 0.758480 0.000000
0.973999 0.749905 0.000000
0.994415 0.741665 0.000000
1.000000 0.733944 0.000000
1.000000 0.727047 0.000000
1.000000 0.721126 0.000000
1.000000 0.716518 0.000000
1.000000 0.711482 0.000000
1.000000 0.706569 0.000000
1.000000 0.702876 0.106752
0.389807 0.573907 0.204685
0.394812 0.578058 0.204746
0.401556 0.580468 0.204776
0.409369 0.580194 0.205356
0.418006 0.575402 0.206180
0.425727 0.565087 0.207553
0.432532 0.550225 0.209415
0.438087 0.531304 0.211826
0.441535 0.508812 0.214755
0.441840 0.482460 0.218173
0.437629 0.453254 0.221469
0.427863 0.421332 0.224704
0.411414 0.388006 0.227237
0.401923 0.366125 0.228763
0.466621 0.407141 0.223941
0.540032 0.455909 0.215305
0.616632 0.511345 0.201877
0.688533 0.568780 0.184634
0.754543 0.626154 0.164218
0.813565 0.681147 0.144076
0.862608 0.728664 0.136477
0.910430 0.775509 0.130709
0.944213 0.792050 0.112154
0.966186 0.782895 0.061646
0.986511 0.774014 0.000000
1.000000 0.765499 0.000000
1.000000 0.757748 0.000000
1.000000 0.751034 0.000000
1.000000 0.745602 0.000000
1.000000 0.741360 0.000000
1.000000 0.738094 0.000000
1.000000 0.733333 0.016632
0.421576 0.607782 0.201816
0.426154 0.611505 0.201938
0.432258 0.613703 0.202243
0.439582 0.613397 0.202731
0.447272 0.609400 0.203464
0.454810 0.600122 0.204288
0.461585 0.586694 0.205356
0.467659 0.569635 0.207156
0.472572 0.548516 0.209445
0.474617 0.524651 0.212497
0.472724 0.496376 0.215915
0.465736 0.464790 0.219760
0.451881 0.430396 0.223209
0.431342 0.394568 0.226139
0.449042 0.396521 0.225742
0.518822 0.442420 0.218814
0.594934 0.496407 0.207614
0.668971 0.554437 0.192966
0.737881 0.613855 0.176944
0.800381 0.672023 0.163394
0.853178 0.723842 0.163302
0.896086 0.766781 0.183841
0.935607 0.805692 0.211704
0.967254 0.825101 0.222751
0.987671 0.816678 0.210513
1.000000 0.808286 0.196750
1.000000 0.800412 0.184421
1.000000 0.793301 0.174197
1.000000 0.787259 0.170138
1.000000 0.782254 0.171176
1.000000 0.778042 0.176974
1.000000 0.774350 0.185519
0.482307 0.670710 0.204440
0.484291 0.672114 0.204807
0.487312 0.671748 0.205112
0.491218 0.668482 0.204898
0.496132 0.661891 0.204501
0.501549 0.652399 0.204257
0.507378 0.639521 0.204044
0.513695 0.623713 0.204288
0.519524 0.604669 0.204959
0.524102 0.582422 0.206394
0.525689 0.556420 0.208713
0.522698 0.526574 0.211917
0.512993 0.492348 0.215793
0.495674 0.454444 0.220005
0.469642 0.414069 0.223850
0.520470 0.444800 0.219577
0.593194 0.496742 0.209689
0.664057 0.552575 0.197360
0.729915 0.609216 0.184726
0.789975 0.665126 0.174899
0.841215 0.715358 0.176303
0.883665 0.758022 0.194034
0.918303 0.792569 0.225528
0.949920 0.823453 0.259892
0.978698 0.844236 0.279454
0.997559 0.835782 0.267063
1.000000 0.827878 0.257237
1.000000 0.820706 0.249729
1.000000 0.814420 0.245640
1.000000 0.809018 0.246159
1.000000 0.804318 0.249577
1.000000 0.800137 0.256229
0.516228 0.706386 0.209506
0.517845 0.707515 0.210117
0.520684 0.707149 0.210208
0.524437 0.704646 0.209964
0.529076 0.699306 0.209140
0.534478 0.691188 0.207584
0.540673 0.679713 0.205997
0.547417 0.665583 0.204410
0.554040 0.649226 0.203494
0.560327 0.629328 0.203342
0.564477 0.606287 0.203769
0.565545 0.579583 0.205417
0.561364 0.548302 0.208011
0.550805 0.512779 0.211734
0.531579 0.472786 0.216220
0.518059 0.444129 0.219852
0.589105 0.494911 0.210849
0.658228 0.549401 0.199741
0.723232 0.605371 0.189090
0.782650 0.660700 0.181613
0.834043 0.711208 0.185367
0.876524 0.754299 0.204685
0.911376 0.789670 0.237308
0.939849 0.818204 0.277562
0.959930 0.836301 0.294804
0.986755 0.859007 0.322698
1.000000 0.851255 0.312902
1.000000 0.844083 0.305486
1.000000 0.837797 0.301976
1.000000 0.832273 0.301884
1.000000 0.827634 0.306493
1.000000 0.823575 0.313420
0.566125 0.756802 0.233219
0.568811 0.758938 0.235233
0.571374 0.758572 0.235203
0.573785 0.755459 0.233097
0.576562 0.749752 0.229892
0.580011 0.741146 0.225162
0.583886 0.729946 0.219638
0.588586 0.715938 0.214328
0.593713 0.699153 0.209232
0.598688 0.679438 0.205386
0.602228 0.656336 0.202548
0.604089 0.630579 0.201389
0.602319 0.600946 0.201694
0.595239 0.566583 0.203647
0.580957 0.527733 0.207340
0.558282 0.484932 0.212528
0.573144 0.483803 0.212100
0.639124 0.534661 0.201938
0.703182 0.588617 0.191135
0.763363 0.643580 0.182712
0.817075 0.695888 0.182803
0.861509 0.740963 0.198123
0.897765 0.777951 0.226627
0.927001 0.807462 0.262699
0.950774 0.831174 0.302129
0.971618 0.851804 0.341344
0.995270 0.874693 0.375402
1.000000 0.867308 0.365576
1.000000 0.860441 0.358892
1.000000 0.854490 0.357000
1.000000 0.849485 0.359380
1.000000 0.845243 0.366278
0.590570 0.781582 0.249241
0.593103 0.783261 0.251316
0.595911 0.783474 0.251804
0.598901 0.781613 0.250523
0.602594 0.777646 0.247379
0.607294 0.772000 0.243046
0.613336 0.764248 0.237339
0.620569 0.754726 0.231205
0.628656 0.743038 0.224643
0.637018 0.729122 0.218112
0.644526 0.711879 0.211490
0.650599 0.691371 0.206241
0.653681 0.666194 0.201663
0.652735 0.636622 0.198978
0.646235 0.602075 0.198703
0.633173 0.562799 0.200931
0.611139 0.518639 0.205844
0.654353 0.548943 0.200412
0.714076 0.600458 0.191470
0.770413 0.652766 0.185885
0.821012 0.702724 0.190005
0.863310 0.745907 0.208469
0.898100 0.781857 0.239689
0.926543 0.811002 0.278691
0.949645 0.834623 0.321355
0.968505 0.853941 0.364538
0.984649 0.870665 0.406867
1.000000 0.890288 0.443519
1.000000 0.887175 0.444343
1.000000 0.881254 0.442390
1.000000 0.876127 0.444556
1.000000 0.871611 0.449439
0.628443 0.815946 0.287510
0.629908 0.816678 0.288945
0.631708 0.816190 0.288609
0.634058 0.814420 0.286473
0.637232 0.811215 0.282475
0.641444 0.806607 0.277043
0.647028 0.800381 0.270115
0.653864 0.792508 0.261967
0.661677 0.783230 0.253330
0.670466 0.772030 0.243992
0.679286 0.758358 0.233646
0.687709 0.742306 0.223789
0.694728 0.722835 0.213962
0.698787 0.698939 0.205173
0.698268 0.669703 0.198642
0.692897 0.635523 0.194949
0.681819 0.597253 0.194766
0.672206 0.565637 0.198367
0.727260 0.614343 0.191165
0.779751 0.664118 0.188174
0.826596 0.710933 0.195682
0.866117 0.751675 0.216739
0.898863 0.785611 0.248600
0.925811 0.813474 0.287694
0.947814 0.836149 0.329473
0.965850 0.854917 0.371893
0.980865 0.870726 0.414130
0.993469 0.884184 0.453681
1.000000 0.901366 0.489845
1.000000 0.901579 0.498604
1.000000 0.896513 0.500633
1.000000 0.892088 0.505608
0.659724 0.842313 0.328069
0.660945 0.842802 0.329229
0.662745 0.842710 0.329595
0.665309 0.841642 0.328099
0.669184 0.839872 0.325658
0.674861 0.837552 0.322545
0.682918 0.835172 0.320531
0.693019 0.832181 0.317662
0.704921 0.828855 0.314733
0.718349 0.824765 0.311376
0.732723 0.819669 0.306798
0.747280 0.812863 0.299687
0.761501 0.804135 0.290776
0.774441 0.792508 0.278294
0.785397 0.777188 0.262913
0.793027 0.757076 0.244816
0.797269 0.732540 0.227359
0.797818 0.703273 0.212039
0.812253 0.702541 0.214450
0.849302 0.740902 0.233188
0.881682 0.775021 0.262364
0.909270 0.804044 0.299138
0.932006 0.828092 0.340185
0.950774 0.848234 0.383246
0.966186 0.864988 0.425086
0.979095 0.879301 0.464759
0.989960 0.891630 0.502525
0.999115 0.902312 0.538415
1.000000 0.911772 0.572747
1.000000 0.923980 0.605005
1.000000 0.926024 0.619715
1.000000 0.921691 0.623377
0.721096 0.885618 0.440436
0.721370 0.885527 0.440284
0.722164 0.884886 0.438666
0.723476 0.883818 0.436133
0.725917 0.882139 0.432044
0.729580 0.879789 0.426612
0.734646 0.877073 0.420844
0.741329 0.873655 0.413672
0.749630 0.869718 0.406134
0.759182 0.865263 0.397803
0.769986 0.859831 0.388067
0.781674 0.853574 0.377111
0.794034 0.845884 0.363928
0.806241 0.836667 0.348669
