20 Preset/Dark Style/【3】LUT video cho PR-AE-FCPX/19Tones (3)/19Tones - Sea.cube
# Created by Adobe Lightroom plugin Export LUT (1.24.0)
# www.johnrellis.com/lightroom/exportlut.htm
# Preset: 19Tones - Sea
# Color profile: E:\lut插件\exportlut.1.24\exportlut.lrplugin\color profiles\Rec709gamma2.4.icc
LUT_3D_SIZE 8
DOMAIN_MIN 0.000000 0.000000 0.000000
DOMAIN_MAX 0.903226 0.903226 0.903226
0.123445 0.183383 0.210758
0.123781 0.183505 0.210727
0.131930 0.183688 0.211948
0.154360 0.183047 0.214176
0.206424 0.179324 0.217441
0.303319 0.164187 0.222293
0.529534 0.000000 0.234379
0.822324 0.000000 0.257908
0.123934 0.183932 0.211215
0.124636 0.184207 0.211032
0.132296 0.183993 0.211368
0.151064 0.183261 0.212161
0.195163 0.180301 0.213748
0.277897 0.169253 0.216434
0.459998 0.095094 0.222019
0.738430 0.000000 0.236728
0.129366 0.187594 0.214725
0.129366 0.187594 0.214725
0.136873 0.189883 0.212070
0.159335 0.190494 0.211093
0.195834 0.192203 0.211887
0.300481 0.188937 0.213321
0.517052 0.146151 0.215183
0.804776 0.000000 0.221592
0.151614 0.202365 0.229221
0.150973 0.201877 0.228702
0.151736 0.203799 0.226841
0.194949 0.219883 0.215702
0.279728 0.222019 0.208560
0.341222 0.237613 0.206668
0.504448 0.250706 0.201511
0.763729 0.223880 0.194247
0.196689 0.235477 0.261051
0.196201 0.234867 0.260533
0.196689 0.235477 0.261051
0.210605 0.253178 0.248417
0.291234 0.282109 0.217929
0.419379 0.274723 0.197879
0.514214 0.306188 0.188357
0.671656 0.363043 0.161135
0.283513 0.311376 0.334569
0.294347 0.322148 0.345068
0.294957 0.322728 0.345617
0.297429 0.325078 0.347936
0.334997 0.375494 0.286107
0.478096 0.431403 0.207767
0.708309 0.418952 0.126955
0.848997 0.468238 0.000000
0.455787 0.485573 0.505455
0.460975 0.490455 0.510124
0.457832 0.487465 0.507317
0.458686 0.488350 0.508110
0.456153 0.508263 0.471351
0.550988 0.581903 0.360693
0.742275 0.633722 0.190036
0.924559 0.586236 0.000000
0.752102 0.732387 0.734249
0.751949 0.732265 0.734127
0.755062 0.734859 0.736538
0.765103 0.743160 0.744228
0.716396 0.703334 0.707637
0.747250 0.756008 0.669581
0.843046 0.809751 0.573785
0.957946 0.817838 0.375769
0.123079 0.183536 0.211124
0.123537 0.183505 0.211124
0.130800 0.183627 0.211826
0.148104 0.183474 0.213077
0.190646 0.180667 0.214420
0.268345 0.170962 0.217136
0.427070 0.119020 0.223484
0.678523 0.000000 0.239750
0.124086 0.183780 0.211215
0.124880 0.184176 0.211429
0.131350 0.184360 0.211734
0.148959 0.184054 0.212345
0.188815 0.182193 0.213535
0.263920 0.173831 0.215213
0.401709 0.135805 0.218662
0.627710 0.000000 0.227115
0.130190 0.187839 0.215061
0.130190 0.187839 0.215061
0.136172 0.189731 0.212985
0.155489 0.190341 0.212192
0.190249 0.191501 0.212833
0.269627 0.189120 0.213809
0.412390 0.169894 0.215183
0.664363 0.000000 0.219150
0.146365 0.199008 0.225925
0.146242 0.198886 0.225711
0.147402 0.200076 0.225315
0.175113 0.209415 0.216159
0.230198 0.208682 0.211337
0.276432 0.218631 0.210727
0.401038 0.225162 0.209201
0.627802 0.211215 0.203861
0.192172 0.231876 0.257633
0.190799 0.230564 0.256443
0.189395 0.229709 0.255558
0.196445 0.240421 0.244205
0.258579 0.259892 0.219547
0.367132 0.254459 0.204105
0.453559 0.281621 0.197757
0.601862 0.330144 0.179538
0.267216 0.295720 0.319280
0.267918 0.296483 0.319951
0.269566 0.297948 0.321416
0.274754 0.302922 0.326207
0.309606 0.348516 0.279057
0.447761 0.407111 0.214023
0.668147 0.396765 0.147524
0.800290 0.442512 0.091005
0.418555 0.449470 0.470558
0.413214 0.444129 0.465339
0.409705 0.440650 0.461921
0.414679 0.445655 0.466835
0.423224 0.473793 0.446082
0.511162 0.547112 0.344213
0.688319 0.593622 0.191409
0.876768 0.550530 0.000000
0.714931 0.702205 0.706538
0.721523 0.707515 0.711421
0.723720 0.709255 0.713039
0.735531 0.718837 0.721798
0.745235 0.726772 0.729091
0.755703 0.761624 0.680751
0.837461 0.805478 0.570489
0.953887 0.813596 0.370916
0.122499 0.184421 0.213596
0.122347 0.184421 0.213870
0.127932 0.183352 0.215305
0.170687 0.180758 0.220310
0.215061 0.180484 0.225254
0.302129 0.175357 0.237858
0.487617 0.102052 0.252720
0.751919 0.000000 0.270512
0.123781 0.185092 0.214023
0.124025 0.185061 0.214420
0.130037 0.184756 0.215763
0.163546 0.183749 0.218997
0.203952 0.184421 0.224125
0.294743 0.176364 0.232639
0.457252 0.121401 0.241581
0.709010 0.000000 0.254307
0.131807 0.188876 0.216190
0.132815 0.189517 0.216831
0.136965 0.191745 0.217563
0.159884 0.192264 0.217838
0.212222 0.191928 0.220279
0.307988 0.184573 0.223789
0.465064 0.147066 0.228122
0.712306 0.000000 0.233799
0.156161 0.205539 0.232242
0.156954 0.206119 0.232822
0.157809 0.206699 0.233310
0.182956 0.215946 0.223758
0.242039 0.215946 0.218296
0.305699 0.225772 0.218204
0.459571 0.225772 0.219242
0.700252 0.187045 0.218387
0.202945 0.240085 0.265537
0.202487 0.239902 0.265293
0.203159 0.240269 0.265721
0.208560 0.249577 0.260197
0.275975 0.274357 0.230014
0.383276 0.264958 0.211490
0.467872 0.291081 0.205417
0.647791 0.333837 0.189120
0.278355 0.306432 0.329625
0.279911 0.307958 0.331151
0.280705 0.308690 0.331884
0.283391 0.311254 0.334386
0.308385 0.348180 0.294987
0.442969 0.405737 0.230594
0.666285 0.395178 0.165499
0.805753 0.448341 0.119509
0.444221 0.474647 0.495003
0.439857 0.470375 0.490883
0.431830 0.462623 0.483345
0.431189 0.462013 0.482765
0.435187 0.477974 0.471962
0.517723 0.555535 0.374273
0.710597 0.612757 0.227146
0.911925 0.568811 0.000000
0.725429 0.710658 0.714290
0.721950 0.707851 0.711757
0.723171 0.708827 0.712612
0.742855 0.724819 0.727291
0.751644 0.732021 0.733944
0.766598 0.766873 0.703090
0.842405 0.812284 0.604242
0.956146 0.820676 0.418250
0.120546 0.185306 0.217563
0.120089 0.185306 0.218296
0.119295 0.185855 0.220829
0.140414 0.183932 0.228183
0.271855 0.165591 0.258366
0.402777 0.129183 0.280186
0.554284 0.000000 0.309575
0.771969 0.000000 0.361700
0.121889 0.186221 0.218906
0.122133 0.186496 0.219516
0.121035 0.187228 0.222232
0.144900 0.185214 0.230076
0.279820 0.166323 0.257572
0.395789 0.140261 0.276890
0.539269 0.026429 0.304723
0.756405 0.000000 0.357092
0.127535 0.189151 0.220401
0.128603 0.189792 0.221042
0.132052 0.192660 0.225010
0.164797 0.192264 0.235813
0.269810 0.187564 0.252354
0.378363 0.183841 0.273259
0.559899 0.151980 0.312963
0.803372 0.000000 0.340734
0.157321 0.207095 0.234287
0.159548 0.208316 0.235233
0.167422 0.213657 0.240116
0.184695 0.222812 0.241733
0.240726 0.223758 0.239719
0.343084 0.222843 0.245548
0.511833 0.204593 0.254643
0.764370 0.016419 0.267857
0.222812 0.256321 0.281102
0.223789 0.257176 0.281956
0.230991 0.263066 0.287694
0.237156 0.268528 0.292912
0.297276 0.297002 0.258488
0.404211 0.286687 0.236759
0.491402 0.312047 0.229679
0.732082 0.326940 0.228641
0.320226 0.348333 0.370886
0.330297 0.358648 0.381048
0.327855 0.356146 0.378576
0.331273 0.359533 0.381994
0.342687 0.385229 0.356054
0.470924 0.435798 0.271122
0.681300 0.413581 0.203647
0.816800 0.462776 0.173587
0.480751 0.508598 0.527489
0.483314 0.510887 0.529625
0.486152 0.513420 0.532067
0.492226 0.518822 0.537194
0.497108 0.523156 0.541253
0.548516 0.587488 0.449348
0.733089 0.635615 0.297093
0.942748 0.576471 0.073793
0.765377 0.743404 0.744411
0.764889 0.743008 0.744076
0.765011 0.743099 0.744137
0.769894 0.747189 0.747921
0.775051 0.751522 0.751919
0.783230 0.772305 0.738766
0.845090 0.819242 0.654322
0.958160 0.832456 0.496284
0.117556 0.186618 0.223636
0.117006 0.186893 0.224674
0.115328 0.187747 0.228489
0.109743 0.189700 0.238865
0.173159 0.182620 0.264744
0.464027 0.000000 0.389746
0.762661 0.000000 0.458625
0.941009 0.000000 0.494179
0.118593 0.187686 0.225193
0.118044 0.187991 0.226230
0.116793 0.188785 0.230198
0.111360 0.191012 0.240574
0.179507 0.183810 0.268132
0.475135 0.000000 0.391119
0.752926 0.000000 0.450507
0.932799 0.000000 0.488045
0.124819 0.191501 0.228580
0.124544 0.191928 0.229709
0.124239 0.193484 0.234318
0.122499 0.197482 0.246433
0.200168 0.191958 0.274510
0.481331 0.094209 0.365911
0.681575 0.000000 0.406226
0.872648 0.000000 0.453010
0.135653 0.198459 0.233890
0.136751 0.199191 0.234714
0.142245 0.202914 0.238987
0.161471 0.218143 0.257969
0.282231 0.222141 0.309392
0.445594 0.216556 0.336126
0.601678 0.209354 0.375402
0.809506 0.179660 0.438819
0.206424 0.244999 0.272129
0.210422 0.247959 0.274693
0.226993 0.259678 0.284428
0.247776 0.277928 0.301976
0.280430 0.297490 0.298528
0.363104 0.293523 0.283940
0.535027 0.294469 0.299321
0.782467 0.265324 0.323369
0.296056 0.323827 0.346715
0.298833 0.326635 0.349462
0.304570 0.332372 0.355108
0.320012 0.347997 0.370520
0.328893 0.357122 0.379553
0.442267 0.424079 0.323247
0.636378 0.414160 0.273594
0.768521 0.454658 0.252415
0.490150 0.516991 0.535424
0.488167 0.515221 0.533776
0.488777 0.515770 0.534295
0.497932 0.523980 0.541985
0.510643 0.535058 0.552453
0.530999 0.573358 0.510826
0.706111 0.624384 0.365576
0.918456 0.558709 0.212253
0.745937 0.727321 0.729610
0.744839 0.726436 0.728786
0.743496 0.725338 0.727779
0.764370 0.742550 0.743618
0.772946 0.749722 0.750271
0.782925 0.758145 0.758083
0.824460 0.807218 0.684718
0.942107 0.823331 0.531365
0.113130 0.188479 0.231754
0.112367 0.188785 0.232975
0.109407 0.189761 0.237888
0.097810 0.192447 0.252293
0.027893 0.196445 0.287938
0.248936 0.171633 0.365332
0.752651 0.000000 0.626276
1.000000 0.000000 0.682063
0.114260 0.188998 0.232029
0.113680 0.189303 0.233005
0.110933 0.190280 0.237705
0.102144 0.192905 0.250828
0.052827 0.197360 0.282719
0.244663 0.175113 0.354101
0.726406 0.000000 0.603571
1.000000 0.000000 0.667018
0.117617 0.192203 0.236149
0.117250 0.192599 0.237339
0.114748 0.194217 0.243229
0.108553 0.197757 0.256809
0.081361 0.206424 0.292271
0.274357 0.183749 0.371801
0.769802 0.000000 0.608667
1.000000 0.000000 0.655024
0.126680 0.195712 0.236057
0.127504 0.196841 0.238132
0.131899 0.203159 0.249393
0.133455 0.212589 0.270787
0.131350 0.233982 0.324041
0.374151 0.220249 0.439155
0.879973 0.000000 0.624811
1.000000 0.000000 0.644343
0.149538 0.214481 0.256107
0.150820 0.215366 0.257115
0.157137 0.220096 0.262547
0.172976 0.231693 0.275792
0.225467 0.278050 0.332189
0.488472 0.315068 0.472236
0.747585 0.329625 0.527489
0.925048 0.362402 0.585443
0.283024 0.318120 0.346746
0.291142 0.325475 0.353796
0.309972 0.341680 0.367620
0.343999 0.372839 0.395087
0.379309 0.409522 0.431373
0.452522 0.462013 0.435431
0.614588 0.455055 0.406226
0.866545 0.465095 0.458350
0.496468 0.522637 0.540764
0.504570 0.529808 0.547509
0.516991 0.540612 0.557641
0.543572 0.563287 0.578882
0.587671 0.599908 0.612787
0.596155 0.606806 0.619196
0.725277 0.659724 0.500816
0.915892 0.603082 0.386114
0.749233 0.730037 0.732113
0.747280 0.728450 0.730648
0.752041 0.732357 0.734249
0.773190 0.749935 0.750454
0.784756 0.759762 0.759579
0.795377 0.768887 0.768063
0.816159 0.801785 0.743099
0.927916 0.825223 0.610925
0.107057 0.190097 0.239506
0.105898 0.190402 0.241093
0.101076 0.191409 0.246860
0.084810 0.194217 0.262028
0.000000 0.200076 0.297002
0.000000 0.194156 0.376104
0.343420 0.132235 0.515343
0.936095 0.000000 0.782071
0.108400 0.190219 0.239048
0.107118 0.190646 0.240543
0.103212 0.191623 0.246098
0.090333 0.194278 0.259983
0.000000 0.199863 0.292119
0.000000 0.194858 0.363104
0.328283 0.143862 0.488594
0.900542 0.000000 0.754574
0.111116 0.192050 0.241123
0.110262 0.192325 0.242374
0.106294 0.193729 0.248051
0.095155 0.196963 0.262791
0.016327 0.204013 0.296300
0.000000 0.204166 0.374151
0.364324 0.147219 0.518242
0.955230 0.000000 0.779324
0.118593 0.195193 0.242252
0.118135 0.195621 0.243503
0.115938 0.197696 0.249851
0.108797 0.203067 0.266850
0.076081 0.214633 0.306828
0.000000 0.234043 0.404486
0.442817 0.176699 0.570428
1.000000 0.000000 0.788846
0.125856 0.194430 0.233524
0.126009 0.194553 0.233738
0.127291 0.197116 0.238651
0.133974 0.209262 0.261265
0.137270 0.230137 0.306767
0.122927 0.276036 0.414954
0.542504 0.266636 0.603601
1.000000 0.250126 0.771756
0.158083 0.229618 0.280125
0.158846 0.230442 0.281163
0.163394 0.233982 0.285557
0.172610 0.241825 0.295262
0.191714 0.257481 0.314458
0.291295 0.363409 0.446265
0.772366 0.502098 0.699855
0.974853 0.596643 0.745998
0.385382 0.436347 0.474647
0.391730 0.442390 0.480201
0.413153 0.461128 0.495979
0.463966 0.503166 0.531060
0.554314 0.572290 0.587366
0.623957 0.629297 0.639826
0.712032 0.683497 0.643763
0.868345 0.651484 0.602350
0.729213 0.713710 0.717098
0.732235 0.716152 0.719356
0.748562 0.729519 0.731594
0.768124 0.745724 0.746548
0.793362 0.767178 0.766476
0.826688 0.796841 0.794400
0.839231 0.808530 0.805539
0.912718 0.837491 0.721614
0.091646 0.192874 0.254978
0.089754 0.193149 0.256840
0.076417 0.194308 0.263462
0.013947 0.197543 0.281987
0.000000 0.204349 0.322789
0.000000 0.217868 0.408667
0.000000 0.192477 0.556695
0.497169 0.000000 0.713893
0.094697 0.192691 0.253086
0.092866 0.192966 0.254978
0.081666 0.194308 0.261723
0.027222 0.197208 0.279149
0.000000 0.203861 0.318090
0.000000 0.217166 0.401038
0.000000 0.193698 0.543481
0.485786 0.000000 0.699611
0.098878 0.193179 0.251316
0.097536 0.193454 0.252811
0.091066 0.194736 0.259251
0.044587 0.198306 0.277867
0.000000 0.205386 0.316136
0.000000 0.219608 0.397772
0.000000 0.200687 0.544701
0.502556 0.000000 0.704768
0.107454 0.193729 0.246677
0.106172 0.194003 0.248325
0.101289 0.195651 0.254673
0.084321 0.199527 0.271885
0.000000 0.208194 0.311162
0.000000 0.226780 0.399512
0.000000 0.218875 0.561913
0.555566 0.000000 0.730190
0.118257 0.192203 0.235264
0.117464 0.192752 0.236759
0.115694 0.195285 0.244083
0.108644 0.199649 0.258518
0.078584 0.210025 0.294255
0.000000 0.234409 0.384070
0.000000 0.267430 0.569177
0.635889 0.154574 0.757931
0.122438 0.193484 0.233646
0.122194 0.193362 0.233555
0.122499 0.193057 0.232914
0.123018 0.192508 0.231724
0.122713 0.205478 0.260960
0.090150 0.244297 0.358190
0.000000 0.360113 0.602564
0.796597 0.428351 0.813687
0.148501 0.247593 0.319249
0.148867 0.247776 0.319371
0.150423 0.248386 0.319890
0.154055 0.250401 0.322393
0.160433 0.253819 0.326787
0.171298 0.259434 0.334722
0.330266 0.448646 0.577813
0.915648 0.719966 0.849088
0.537163 0.591791 0.636469
0.540215 0.593774 0.637812
0.559594 0.606989 0.647486
0.605859 0.638941 0.671809
0.678767 0.688380 0.708797
0.773556 0.754940 0.759762
0.846372 0.815335 0.812039
0.890471 0.851255 0.827237
