20 Preset/Dark Style/【3】LUT video cho PR-AE-FCPX/19Tones (3)/19Tones - Skate Place.cube
# Created by Adobe Lightroom plugin Export LUT (1.24.0)
# www.johnrellis.com/lightroom/exportlut.htm
# Preset: 19Tones - Skate Place
# Color profile: E:\lut插件\exportlut.1.24\exportlut.lrplugin\color profiles\Rec709gamma2.4.icc
LUT_3D_SIZE 32
DOMAIN_MIN 0.0 0.0 0.0
DOMAIN_MAX 1.0 1.0 1.0
0.105837 0.187747 0.211307
0.106142 0.187869 0.211429
0.108217 0.187900 0.211521
0.111391 0.188174 0.211734
0.119997 0.188571 0.212131
0.134920 0.188785 0.212619
0.157168 0.188968 0.213230
0.185122 0.188907 0.213718
0.219913 0.188144 0.214206
0.262913 0.186526 0.214786
0.316411 0.182773 0.215244
0.382086 0.174868 0.215579
0.458320 0.160281 0.215702
0.542779 0.134096 0.215579
0.629297 0.084047 0.214969
0.711604 0.000000 0.214176
0.784970 0.000000 0.213382
0.850065 0.000000 0.213535
0.906828 0.000000 0.214755
0.955291 0.000000 0.217472
0.994507 0.000000 0.221775
1.000000 0.000000 0.231388
1.000000 0.138491 0.245914
1.000000 0.200565 0.263127
1.000000 0.246311 0.281865
1.000000 0.284062 0.301427
1.000000 0.318486 0.322240
1.000000 0.350652 0.344518
1.000000 0.382300 0.368658
1.000000 0.414618 0.395239
1.000000 0.447181 0.424018
1.000000 0.480964 0.456519
0.105928 0.188022 0.211398
0.105928 0.188022 0.211398
0.107698 0.188235 0.211643
0.111177 0.188357 0.211734
0.119234 0.188785 0.212253
0.133333 0.189212 0.212589
0.154177 0.189548 0.213077
0.181155 0.189487 0.213596
0.213687 0.189151 0.214206
0.254246 0.187900 0.214725
0.304997 0.184665 0.215152
0.367437 0.178134 0.215610
0.440833 0.165652 0.215671
0.522148 0.144686 0.215610
0.607935 0.106722 0.215122
0.691402 0.000000 0.214206
0.767514 0.000000 0.213443
0.835050 0.000000 0.213657
0.893797 0.000000 0.214725
0.944030 0.000000 0.216861
0.984741 0.000000 0.220768
1.000000 0.000000 0.228946
1.000000 0.119295 0.241520
1.000000 0.182925 0.256443
1.000000 0.227817 0.272801
1.000000 0.265721 0.290623
1.000000 0.300237 0.310033
1.000000 0.333074 0.330999
1.000000 0.365362 0.354437
1.000000 0.398047 0.380468
1.000000 0.431525 0.409430
1.000000 0.466041 0.441718
0.106538 0.189059 0.211673
0.107118 0.189029 0.211673
0.107088 0.188846 0.212070
0.110201 0.189273 0.212131
0.118135 0.190036 0.212375
0.131563 0.190799 0.212802
0.151400 0.191531 0.213260
0.177005 0.191989 0.213748
0.208286 0.192081 0.214237
0.247623 0.191409 0.214725
0.296361 0.189151 0.215061
0.356512 0.184390 0.215518
0.427344 0.174746 0.215610
0.506889 0.158053 0.215488
0.591180 0.130404 0.214817
0.675624 0.077699 0.214145
0.753811 0.000000 0.213809
0.823362 0.000000 0.213870
0.883452 0.000000 0.214786
0.935424 0.000000 0.216709
0.977783 0.000000 0.220340
1.000000 0.000000 0.228550
1.000000 0.130831 0.240116
1.000000 0.186130 0.254368
1.000000 0.228611 0.269780
1.000000 0.263706 0.286198
1.000000 0.296696 0.304784
1.000000 0.328771 0.325383
1.000000 0.360601 0.348333
1.000000 0.393225 0.374182
1.000000 0.426520 0.402625
1.000000 0.460426 0.433814
0.108217 0.191623 0.212009
0.109346 0.191562 0.212009
0.112642 0.191379 0.212131
0.110597 0.190860 0.213107
0.115724 0.192020 0.213809
0.130068 0.193790 0.213474
0.149477 0.195010 0.213748
0.173953 0.196017 0.214206
0.204349 0.196872 0.214633
0.242313 0.196963 0.214969
0.289281 0.196262 0.215335
0.347265 0.193179 0.215640
0.415595 0.186862 0.215640
0.493324 0.174350 0.215702
0.575677 0.154452 0.215213
0.658656 0.124300 0.214817
0.736538 0.071443 0.214298
0.805875 0.000000 0.214389
0.866697 0.000000 0.215152
0.919982 0.000000 0.216648
0.964202 0.000000 0.219791
1.000000 0.091127 0.227298
1.000000 0.151705 0.237400
1.000000 0.195987 0.250309
1.000000 0.234257 0.265537
1.000000 0.269047 0.282567
1.000000 0.302464 0.302068
1.000000 0.334325 0.323705
1.000000 0.366308 0.347448
1.000000 0.398260 0.373419
1.000000 0.429877 0.401495
1.000000 0.461372 0.430701
0.111025 0.197360 0.212436
0.112154 0.197299 0.212436
0.117006 0.196628 0.212497
0.121736 0.195621 0.212955
0.118257 0.194736 0.215122
0.123354 0.196536 0.216861
0.143984 0.199588 0.215549
0.168399 0.201633 0.215244
0.197696 0.203128 0.215610
0.233829 0.204349 0.215885
0.278569 0.204807 0.216220
0.333989 0.203983 0.216434
0.399786 0.200687 0.216678
0.475441 0.192996 0.216617
0.556970 0.180179 0.216434
0.641566 0.160922 0.215824
0.721523 0.138369 0.215396
0.793393 0.116030 0.215152
0.856199 0.099641 0.215793
0.910613 0.100984 0.217380
0.961028 0.121889 0.221195
1.000000 0.158419 0.228367
1.000000 0.193393 0.238285
1.000000 0.226474 0.251102
1.000000 0.258640 0.266331
1.000000 0.288975 0.283635
1.000000 0.318608 0.303136
1.000000 0.347875 0.324376
1.000000 0.377386 0.347997
1.000000 0.406958 0.373480
1.000000 0.436561 0.400855
1.000000 0.466499 0.429755
0.115877 0.206790 0.212619
0.117159 0.206577 0.212650
0.123049 0.205600 0.212711
0.132082 0.203738 0.212863
0.134554 0.202304 0.214298
0.130404 0.201205 0.218357
0.134035 0.203799 0.222751
0.161898 0.208713 0.219669
0.194430 0.212314 0.217472
0.230503 0.214817 0.217716
0.275273 0.216861 0.217990
0.330510 0.218143 0.218326
0.395850 0.217563 0.218265
0.470893 0.213931 0.218265
0.552697 0.206729 0.217899
0.636774 0.195865 0.217258
0.717647 0.183871 0.216709
0.789670 0.175509 0.216556
0.852995 0.172152 0.217288
0.907225 0.176822 0.218906
0.962951 0.195834 0.223880
1.000000 0.220432 0.231876
1.000000 0.321996 0.279911
1.000000 0.351751 0.304173
1.000000 0.379065 0.328344
1.000000 0.404242 0.352575
1.000000 0.428321 0.377142
1.000000 0.451575 0.401221
1.000000 0.475135 0.426520
1.000000 0.498695 0.451911
1.000000 0.521904 0.477119
1.000000 0.543755 0.501030
0.125429 0.226230 0.212650
0.127138 0.225925 0.212680
0.134615 0.224002 0.212772
0.146578 0.220401 0.213016
0.158358 0.215671 0.213291
0.158724 0.215396 0.216861
0.155642 0.215366 0.224918
0.158328 0.220035 0.237064
0.199161 0.228824 0.230014
0.247105 0.235203 0.224460
0.301244 0.240238 0.222080
0.365179 0.244297 0.222019
0.437751 0.246311 0.221592
0.516930 0.245731 0.221042
0.599115 0.242924 0.220127
0.679316 0.239048 0.219272
0.752926 0.237003 0.218692
0.818540 0.237430 0.218967
0.876829 0.241581 0.220493
0.937896 0.257511 0.224979
0.992493 0.282780 0.235019
1.000000 0.310735 0.250614
1.000000 0.339818 0.271763
1.000000 0.368688 0.296605
1.000000 0.395636 0.323095
1.000000 0.420142 0.348974
1.000000 0.441810 0.373663
1.000000 0.462623 0.397375
1.000000 0.483589 0.421546
1.000000 0.504265 0.445686
1.000000 0.525536 0.470558
1.000000 0.546471 0.494606
0.134432 0.245243 0.212650
0.136263 0.244541 0.212619
0.144167 0.242222 0.212802
0.156435 0.237858 0.213077
0.170077 0.231601 0.213352
0.178439 0.226474 0.214755
0.181582 0.228458 0.220523
0.180758 0.230564 0.232212
0.181888 0.237583 0.254917
0.232700 0.250736 0.244236
0.291478 0.260136 0.235233
0.355962 0.267124 0.227176
0.426001 0.272557 0.226139
0.502647 0.276310 0.225132
0.582483 0.278202 0.224063
0.661097 0.279454 0.222934
0.734798 0.281254 0.222202
0.800870 0.285313 0.222324
0.868009 0.295689 0.224369
0.931518 0.314305 0.229923
0.981323 0.333959 0.240421
1.000000 0.355993 0.255894
1.000000 0.378943 0.276280
1.000000 0.402411 0.300389
1.000000 0.424720 0.326299
1.000000 0.444953 0.351415
1.000000 0.463661 0.375311
1.000000 0.481392 0.398688
1.000000 0.499977 0.422705
1.000000 0.518853 0.446906
1.000000 0.538170 0.471321
1.000000 0.557397 0.495186
0.147219 0.269230 0.212222
0.149142 0.268589 0.212314
0.156741 0.265904 0.212467
0.169253 0.260746 0.212863
0.183658 0.252842 0.213413
0.196475 0.243137 0.213809
0.203616 0.241062 0.217044
0.211063 0.245914 0.225345
0.215274 0.251286 0.241886
0.218631 0.262730 0.278813
0.279423 0.281712 0.265843
0.349340 0.294682 0.251896
0.421698 0.303288 0.239231
0.495979 0.309850 0.231235
0.574182 0.315862 0.229740
0.651514 0.321111 0.228275
0.723415 0.326879 0.227176
0.799680 0.338628 0.228061
0.868284 0.354101 0.231388
0.925414 0.370062 0.238224
0.971588 0.387060 0.249516
1.000000 0.404761 0.265507
1.000000 0.423163 0.286076
1.000000 0.441962 0.310094
1.000000 0.460365 0.335607
1.000000 0.476814 0.360113
1.000000 0.492378 0.383734
1.000000 0.507622 0.406714
1.000000 0.523766 0.430518
1.000000 0.540215 0.454078
1.000000 0.557397 0.478004
1.000000 0.574701 0.501366
0.163027 0.299687 0.210788
0.165194 0.298558 0.211002
0.172641 0.294987 0.211185
0.185336 0.288884 0.211765
0.200229 0.278965 0.212619
0.213535 0.267124 0.213382
0.222690 0.253666 0.214084
0.233555 0.258946 0.219791
0.246525 0.267338 0.231327
0.257420 0.277134 0.253635
0.267796 0.293858 0.301518
0.332616 0.318853 0.295781
0.409430 0.334600 0.275608
0.487068 0.345129 0.257298
0.563287 0.353033 0.240757
0.645686 0.364843 0.236057
0.730648 0.381628 0.236179
0.804013 0.397345 0.238163
0.867124 0.412787 0.242954
0.919646 0.427192 0.251164
0.962310 0.440467 0.263584
0.996948 0.453101 0.279301
1.000000 0.465919 0.297856
1.000000 0.478737 0.319036
1.000000 0.491493 0.341161
1.000000 0.503593 0.363409
1.000000 0.516289 0.386175
1.000000 0.529564 0.409308
1.000000 0.543999 0.433234
1.000000 0.559716 0.458198
1.000000 0.575982 0.483040
1.000000 0.592706 0.507652
0.181003 0.330694 0.208438
0.183108 0.329778 0.208499
0.190585 0.326268 0.208743
0.203098 0.319615 0.209537
0.218906 0.309300 0.210636
0.233585 0.296025 0.211765
0.244388 0.280369 0.212985
0.251835 0.270054 0.215305
0.270909 0.281529 0.222995
0.292576 0.295476 0.238682
0.312749 0.311223 0.268925
0.331670 0.334600 0.330571
0.399329 0.367163 0.339544
0.490852 0.391669 0.314763
0.580194 0.409949 0.290623
0.661067 0.424201 0.267613
0.733089 0.437079 0.250492
0.800259 0.452369 0.253208
0.858701 0.466255 0.258762
0.907927 0.478492 0.267552
0.948791 0.489204 0.280156
0.982635 0.499336 0.295872
1.000000 0.509575 0.314275
1.000000 0.519738 0.334905
1.000000 0.529870 0.356573
1.000000 0.539910 0.378607
1.000000 0.550103 0.400885
1.000000 0.561212 0.423682
1.000000 0.573541 0.447486
1.000000 0.587152 0.472023
1.000000 0.601465 0.496376
1.000000 0.616297 0.520287
0.205142 0.370367 0.203220
0.206668 0.369757 0.203220
0.214176 0.366003 0.203830
0.227054 0.358679 0.204837
0.242954 0.347601 0.206332
0.258610 0.332921 0.208042
0.271031 0.314855 0.210025
0.277684 0.294865 0.211795
0.291142 0.293950 0.216159
0.319982 0.311437 0.226749
0.356603 0.335119 0.248661
0.395148 0.363653 0.294041
0.522576 0.469154 0.440986
0.604578 0.530510 0.492256
0.687984 0.557122 0.448829
0.758541 0.571374 0.407691
0.818082 0.578058 0.369268
0.867918 0.580316 0.334508
0.910613 0.585351 0.330480
0.946685 0.591730 0.345464
0.976623 0.596979 0.362493
1.000000 0.601740 0.381262
1.000000 0.606531 0.401373
1.000000 0.611627 0.421546
1.000000 0.616907 0.441505
1.000000 0.621942 0.460548
1.000000 0.627070 0.478370
1.000000 0.632502 0.495369
1.000000 0.638819 0.512505
1.000000 0.646509 0.530266
1.000000 0.655299 0.548760
1.000000 0.665217 0.567712
0.249943 0.437842 0.189425
0.251408 0.436591 0.189609
0.257969 0.431830 0.190707
0.271000 0.423194 0.192599
0.287755 0.410071 0.195071
0.304875 0.392584 0.198215
0.319341 0.371099 0.201694
0.328008 0.346258 0.205142
0.328283 0.319310 0.208408
0.366400 0.340551 0.215213
0.421027 0.374975 0.231540
0.485084 0.418860 0.271214
0.549432 0.471473 0.354376
0.598077 0.531121 0.490059
0.664912 0.598169 0.570611
0.734493 0.621912 0.526696
0.793637 0.631678 0.482368
0.843137 0.633021 0.439521
0.885405 0.630579 0.400641
0.921843 0.626490 0.368109
0.952453 0.630030 0.381994
0.978576 0.633448 0.398505
1.000000 0.636652 0.416175
1.000000 0.640467 0.434791
1.000000 0.644251 0.453498
1.000000 0.648157 0.471687
1.000000 0.652399 0.489357
1.000000 0.657160 0.506737
1.000000 0.662837 0.524254
1.000000 0.669978 0.542809
1.000000 0.677882 0.561334
1.000000 0.686793 0.580377
0.301244 0.506249 0.167330
0.301823 0.504845 0.167849
0.307683 0.498360 0.170047
0.318822 0.487648 0.173312
0.332708 0.472175 0.177737
0.348089 0.450294 0.183383
0.361151 0.425513 0.189120
0.369757 0.396826 0.194980
0.371374 0.365667 0.200412
0.375708 0.346929 0.205539
0.431800 0.382147 0.213993
0.499031 0.426764 0.237552
0.569360 0.479835 0.294194
0.627955 0.536584 0.398932
0.663539 0.592706 0.541222
0.710262 0.654994 0.637140
0.766110 0.673243 0.592859
0.814572 0.679011 0.549187
0.857450 0.678462 0.507744
0.895109 0.673976 0.468452
0.928527 0.668177 0.432776
0.957122 0.666285 0.422889
0.980468 0.668910 0.438819
1.000000 0.671870 0.456367
1.000000 0.674830 0.473915
1.000000 0.677760 0.490944
1.000000 0.680995 0.507836
1.000000 0.684596 0.524346
1.000000 0.689357 0.541466
1.000000 0.695430 0.559655
1.000000 0.702419 0.577996
1.000000 0.710353 0.596857
0.350134 0.565454 0.138674
0.351568 0.563867 0.139406
0.356207 0.557824 0.142000
0.364843 0.547051 0.146792
0.376928 0.530327 0.153689
0.390204 0.508263 0.162020
0.402747 0.481392 0.170748
0.411627 0.450996 0.179416
0.414954 0.417243 0.187564
0.410590 0.382086 0.194827
0.436072 0.385382 0.200626
0.503655 0.429938 0.212406
0.576287 0.482734 0.247959
0.640589 0.538476 0.324590
0.687129 0.593225 0.446113
0.712703 0.643793 0.584771
0.744045 0.700679 0.691554
0.788632 0.714870 0.650263
0.829862 0.719142 0.609674
0.867277 0.717708 0.570672
0.901335 0.713222 0.534173
0.932280 0.707637 0.501213
0.960174 0.701259 0.470863
0.981750 0.702296 0.481239
0.999939 0.704280 0.496864
1.000000 0.706600 0.512932
1.000000 0.709346 0.529198
1.000000 0.712917 0.546288
1.000000 0.717617 0.564355
1.000000 0.723873 0.583703
1.000000 0.731197 0.603723
1.000000 0.739437 0.624109
0.393286 0.611994 0.104738
0.394385 0.611627 0.105165
0.399207 0.606989 0.108125
0.408362 0.598230 0.113405
0.420569 0.584741 0.120821
0.435187 0.566064 0.130373
0.450141 0.543389 0.140841
0.462318 0.514916 0.152438
0.469245 0.481483 0.164523
0.468208 0.444068 0.176120
0.456001 0.402441 0.187015
0.509850 0.434882 0.192630
0.579492 0.484596 0.212039
0.642908 0.536706 0.264958
0.693629 0.587762 0.359197
0.727535 0.636042 0.486702
0.746151 0.680903 0.616266
0.766659 0.732601 0.730465
0.803830 0.745510 0.695338
0.839689 0.750149 0.659876
0.873686 0.750149 0.625879
0.905180 0.747372 0.594202
0.934020 0.742855 0.564843
0.960388 0.737545 0.538048
0.982910 0.734218 0.525444
0.999542 0.736538 0.541405
1.000000 0.739223 0.557641
1.000000 0.742458 0.574304
1.000000 0.746365 0.591485
1.000000 0.751308 0.609339
1.000000 0.756954 0.627527
1.000000 0.763394 0.645808
0.431678 0.653223 0.024750
0.432776 0.652247 0.026581
0.437140 0.648524 0.032227
0.445106 0.641444 0.045838
0.456855 0.630030 0.067262
0.471382 0.614221 0.089601
0.486732 0.593713 0.103700
0.500816 0.568627 0.119051
0.511009 0.538140 0.134646
0.514244 0.502281 0.150423
0.507988 0.460639 0.166232
0.505913 0.432715 0.178408
0.574365 0.481086 0.185245
0.639033 0.532250 0.217655
0.693751 0.582666 0.288853
0.735439 0.630426 0.396857
0.761654 0.675074 0.526085
0.774990 0.715206 0.648280
0.789883 0.760037 0.754635
0.819181 0.774075 0.735866
0.850065 0.779294 0.706722
0.879911 0.780362 0.678584
0.908202 0.778653 0.651392
0.934722 0.775204 0.625574
0.959289 0.770779 0.601770
0.982025 0.765896 0.580133
0.998688 0.766537 0.586328
1.000000 0.769589 0.602838
1.000000 0.773342 0.619898
1.000000 0.777768 0.637263
1.000000 0.782773 0.654688
1.000000 0.788327 0.671931
0.473701 0.697017 0.000000
0.475654 0.696742 0.000000
0.523644 0.739010 0.000000
0.531121 0.733455 0.000000
0.542382 0.724086 0.000000
0.555840 0.710933 0.000000
0.571313 0.692866 0.000000
0.586755 0.670283 0.000000
0.600641 0.642847 0.000000
0.610620 0.610101 0.000000
0.613703 0.570794 0.084321
0.605982 0.524193 0.120912
0.628229 0.524132 0.139528
0.687160 0.573877 0.170169
0.737026 0.621515 0.243198
0.775631 0.665827 0.349767
0.799924 0.704952 0.478279
0.811856 0.738888 0.601709
0.816220 0.768612 0.707637
0.824887 0.800839 0.790555
0.844541 0.813077 0.786496
0.868193 0.816892 0.763210
0.891936 0.817441 0.740261
0.915221 0.815549 0.717556
0.937591 0.811643 0.694545
0.958923 0.806729 0.672389
0.979370 0.801114 0.650843
0.997711 0.796567 0.635950
1.000000 0.798947 0.650141
1.000000 0.802213 0.665309
1.000000 0.806241 0.681025
1.000000 0.810666 0.696315
0.524407 0.748684 0.000000
0.529107 0.751797 0.000000
0.536889 0.753262 0.000000
0.546868 0.752407 0.000000
0.559899 0.747433 0.000000
0.573968 0.737667 0.000000
0.589166 0.723171 0.000000
0.604547 0.704280 0.000000
0.619257 0.680934 0.000000
0.631403 0.652216 0.000000
0.639246 0.618158 0.000000
0.639551 0.577783 0.034302
0.627314 0.528862 0.110414
0.672084 0.560906 0.128420
0.723629 0.607477 0.179843
0.766751 0.651789 0.268315
0.798428 0.692042 0.382116
0.817441 0.727687 0.510094
0.826749 0.759213 0.628504
0.830533 0.786709 0.726711
0.838224 0.815274 0.801572
0.854826 0.829892 0.809873
0.875547 0.834379 0.791012
0.896391 0.835782 0.772183
0.916899 0.834775 0.753079
0.936980 0.832120 0.734005
0.956451 0.828550 0.715572
0.975280 0.824552 0.698451
0.993225 0.820890 0.683589
1.000000 0.821164 0.686030
1.000000 0.824765 0.700740
1.000000 0.828763 0.715297
0.549584 0.773312 0.000000
0.554192 0.776242 0.000000
0.561456 0.778073 0.000000
0.570947 0.777981 0.000000
0.582879 0.774380 0.000000
0.595972 0.766873 0.000000
0.610620 0.755306 0.000000
0.626184 0.739895 0.000000
0.641596 0.721035 0.000000
0.655940 0.697047 0.000000
0.666957 0.668025 0.000000
0.673060 0.633387 0.000000
0.671321 0.591760 0.000000
0.668757 0.558587 0.073945
0.719814 0.603754 0.118502
0.763851 0.646967 0.198489
0.799222 0.686976 0.302251
0.823178 0.722347 0.424201
0.836576 0.753628 0.548882
0.842588 0.781338 0.659876
0.845274 0.805386 0.747463
0.851652 0.830045 0.813809
0.865232 0.845426 0.830594
0.883238 0.850126 0.815030
0.901305 0.851896 0.799222
0.919493 0.851713 0.783261
0.937438 0.850187 0.767788
0.955169 0.847990 0.753109
0.972381 0.845823 0.740291
0.988983 0.843778 0.729458
1.000000 0.842008 0.720577
1.000000 0.845426 0.733730
0.575830 0.798062 0.000000
0.579644 0.800687 0.000000
0.585962 0.802152 0.000000
0.594446 0.801816 0.000000
0.604944 0.799069 0.000000
0.617029 0.793027 0.000000
0.630701 0.783963 0.000000
0.645808 0.771756 0.000000
0.661982 0.756374 0.000000
0.677638 0.737423 0.000000
0.691798 0.714382 0.000000
0.702571 0.685786 0.000000
0.707424 0.650660 0.000000
0.704860 0.608942 0.000000
0.721279 0.605615 0.000000
0.765530 0.647974 0.121859
0.803372 0.688319 0.229160
0.831510 0.724361 0.348302
0.849332 0.756497 0.478218
0.858762 0.785092 0.599908
0.862669 0.810208 0.703731
0.865568 0.831815 0.779934
0.871214 0.852537 0.835538
0.882231 0.867735 0.857511
0.897459 0.872831 0.846189
0.912810 0.875486 0.834745
0.928191 0.876524 0.823636
0.943572 0.876677 0.813260
0.958740 0.876432 0.804196
0.973510 0.875975 0.796323
0.987671 0.875364 0.789700
1.000000 0.874510 0.783902
0.621759 0.837308 0.125368
0.623682 0.838071 0.127779
0.626917 0.837797 0.127443
0.632441 0.835904 0.119173
0.639948 0.832517 0.105104
0.649744 0.826932 0.062684
0.661585 0.819486 0.000000
0.675593 0.810117 0.000000
0.691310 0.798520 0.000000
0.708400 0.784360 0.000000
0.725063 0.767117 0.000000
0.740352 0.745815 0.000000
0.752163 0.719448 0.000000
0.758816 0.687129 0.000000
0.756893 0.646021 0.000000
0.786496 0.669062 0.000000
0.820401 0.704952 0.153231
0.846799 0.737026 0.284215
0.864378 0.765377 0.414221
0.873777 0.790585 0.540154
0.877195 0.812741 0.650629
0.878141 0.832456 0.738338
0.879423 0.849485 0.801358
0.883024 0.865721 0.847837
0.891325 0.879789 0.872618
0.904570 0.884520 0.862760
0.918273 0.887572 0.853391
0.932219 0.889494 0.844724
0.946227 0.890684 0.836942
0.959991 0.891386 0.830167
0.973327 0.891722 0.824369
0.986175 0.891661 0.819181
0.645838 0.856565 0.178347
0.647242 0.857176 0.180850
0.650294 0.856962 0.180117
0.655238 0.855558 0.175174
0.662013 0.852934 0.165103
0.670710 0.848722 0.149111
0.682033 0.842802 0.122713
0.695186 0.835508 0.079072
0.710353 0.826658 0.000000
0.727077 0.815732 0.000000
0.744442 0.802548 0.000000
0.761471 0.786740 0.000000
0.777035 0.766903 0.000000
0.789792 0.742947 0.000000
0.798306 0.713283 0.000000
0.802457 0.685695 0.000000
0.834257 0.718959 0.000000
0.859556 0.748409 0.210117
0.877806 0.774594 0.347814
0.888182 0.797696 0.480262
0.892241 0.818265 0.598077
0.892485 0.836698 0.697292
0.892424 0.852903 0.770535
0.893370 0.867063 0.823087
0.891661 0.875120 0.856382
0.898161 0.888670 0.883909
0.910246 0.893614 0.875669
0.922850 0.897154 0.867979
0.935729 0.899809 0.861143
0.948699 0.901732 0.855161
0.961425 0.903258 0.850248
0.973724 0.904326 0.846006
0.680476 0.881621 0.260166
0.682612 0.882536 0.264225
0.685084 0.882383 0.263951
0.688655 0.880827 0.257511
0.693263 0.878080 0.246860
0.699672 0.873991 0.230808
0.707942 0.868559 0.209018
0.718532 0.861784 0.181033
0.731289 0.853635 0.143709
0.745907 0.844144 0.086122
0.761440 0.832670 0.000000
0.778012 0.819272 0.000000
0.793912 0.803311 0.000000
0.808286 0.783688 0.000000
0.819730 0.759548 0.000000
0.827176 0.730098 0.000000
0.838376 0.723079 0.000000
0.862638 0.749905 0.056489
0.882109 0.774563 0.260746
0.895262 0.797086 0.398871
0.901549 0.817258 0.526726
0.902739 0.835142 0.637079
0.901518 0.850767 0.724453
0.900633 0.864195 0.787564
0.900603 0.875731 0.832975
0.901671 0.886351 0.867338
0.906279 0.898558 0.895537
0.916838 0.903197 0.888518
0.928130 0.906706 0.881926
0.939818 0.909575 0.876249
0.951659 0.911925 0.871489
0.963317 0.913817 0.867582
0.696864 0.893431 0.294652
0.698756 0.894285 0.298924
0.701411 0.894316 0.299443
0.704829 0.893431 0.295689
0.709773 0.891569 0.287938
0.716304 0.888884 0.276432
0.724971 0.885344 0.261540
0.735988 0.880766 0.242252
0.749020 0.875334 0.218082
0.763973 0.868833 0.188235
0.780026 0.860990 0.147921
0.797208 0.851621 0.065827
0.814664 0.840208 0.000000
0.831601 0.826291 0.000000
0.847074 0.809262 0.000000
0.860349 0.788724 0.000000
0.869657 0.762783 0.000000
0.884306 0.772641 0.000000
0.900877 0.792905 0.190982
0.912535 0.811734 0.345495
0.918151 0.828916 0.480262
0.918883 0.844511 0.596429
0.916625 0.858549 0.692409
0.914458 0.870909 0.763546
0.913298 0.881743 0.814755
0.913054 0.891264 0.852445
0.913664 0.899901 0.881437
0.917449 0.910246 0.905974
0.926268 0.915557 0.904143
0.936370 0.919310 0.899138
0.946685 0.922393 0.894865
0.957092 0.924865 0.891234
0.722286 0.909606 0.357641
0.723445 0.909941 0.359838
0.725124 0.909728 0.359045
0.727871 0.908904 0.354955
0.731838 0.907408 0.347723
0.737484 0.905150 0.336797
0.744869 0.902281 0.323400
0.754299 0.898650 0.306126
0.765805 0.894285 0.285832
0.779355 0.889158 0.261326
0.794491 0.882963 0.231266
0.811032 0.875853 0.194278
0.828428 0.867338 0.142245
0.846128 0.857053 0.000000
0.863371 0.844572 0.000000
0.879698 0.829679 0.000000
0.894682 0.812192 0.000000
0.904204 0.793515 0.000000
0.918242 0.810025 0.015290
0.928557 0.825681 0.286625
0.933623 0.840208 0.430152
0.933928 0.853544 0.552544
0.930816 0.865660 0.655634
0.927184 0.876555 0.734768
0.924498 0.886229 0.792264
0.922942 0.894774 0.834287
0.922332 0.902464 0.866148
0.922240 0.909392 0.891112
0.925231 0.918273 0.913024
0.932647 0.923949 0.914855
0.941955 0.927886 0.910918
0.951446 0.931151 0.907591
0.742794 0.922057 0.409949
0.743740 0.922271 0.411353
0.745388 0.922210 0.411292
0.748043 0.921691 0.408942
0.752132 0.920806 0.404578
0.757992 0.919707 0.398932
0.766354 0.918517 0.393744
0.776883 0.917021 0.387213
0.789425 0.915343 0.379553
0.803799 0.913359 0.370642
0.819974 0.910918 0.358465
0.837339 0.907774 0.342535
0.855833 0.903807 0.320897
0.874907 0.898711 0.292424
0.894591 0.892241 0.253239
0.914305 0.883879 0.197818
0.933806 0.874144 0.108827
0.953368 0.863035 0.000000
0.962310 0.857572 0.118441
0.965637 0.867002 0.328435
0.964721 0.876219 0.470924
0.960540 0.884947 0.587976
0.954498 0.893034 0.682887
0.949157 0.900450 0.753109
0.945159 0.907134 0.804166
0.942473 0.913207 0.841917
0.940703 0.918761 0.871000
0.939574 0.923888 0.894041
0.938964 0.928618 0.912718
0.940398 0.934600 0.929198
0.945617 0.939361 0.932982
0.953063 0.942718 0.929931
0.784573 0.942321 0.528374
0.784787 0.942260 0.528222
0.785580 0.941985 0.526329
0.787015 0.941466 0.523186
0.789578 0.940612 0.517784
0.793423 0.939483 0.511009
0.798764 0.938109 0.502708
0.805875 0.936431 0.492897
0.814664 0.934508 0.481819
0.825254 0.932219 0.468482
0.837522 0.929564 0.453407
0.851469 0.926482 0.435554
0.867002 0.922820 0.413611
0.883787 0.918425 0.386664
