20 Preset/Dark Style/【3】LUT video cho PR-AE-FCPX/19Tones (3)/19Tones - Skate Place.cube
# Created by Adobe Lightroom plugin Export LUT (1.24.0)
# www.johnrellis.com/lightroom/exportlut.htm
# Preset: 19Tones - Skate Place
# Color profile: E:\lut插件\exportlut.1.24\exportlut.lrplugin\color profiles\Rec709gamma2.4.icc
LUT_3D_SIZE 5
DOMAIN_MIN 0.000000 0.000000 0.000000
DOMAIN_MAX 0.903226 0.903226 0.903226
0.105837 0.187747 0.211307
0.185122 0.188907 0.213718
0.629297 0.084047 0.214969
1.000000 0.000000 0.231388
1.000000 0.382300 0.368658
0.134432 0.245243 0.212650
0.180758 0.230564 0.232212
0.582483 0.278202 0.224063
1.000000 0.355993 0.255894
1.000000 0.499977 0.422705
0.350134 0.565454 0.138674
0.411627 0.450996 0.179416
0.687129 0.593225 0.446113
0.932280 0.707637 0.501213
1.000000 0.717617 0.564355
0.621759 0.837308 0.125368
0.675593 0.810117 0.000000
0.756893 0.646021 0.000000
0.878141 0.832456 0.738338
0.946227 0.890684 0.836942
0.806546 0.952605 0.588128
0.825437 0.948821 0.563684
0.895171 0.918822 0.358831
0.986816 0.901640 0.504295
0.953307 0.934661 0.893217
0.104341 0.189914 0.233707
0.220340 0.177707 0.270665
0.698482 0.000000 0.298466
1.000000 0.000000 0.318120
1.000000 0.357214 0.423590
0.000000 0.250706 0.270970
0.226566 0.269200 0.286412
0.647517 0.247196 0.294804
1.000000 0.302892 0.341375
1.000000 0.468025 0.457038
0.000000 0.653468 0.222324
0.405280 0.567773 0.243290
0.658686 0.575860 0.477882
0.916533 0.669245 0.484810
1.000000 0.719326 0.606653
0.586908 0.859922 0.351019
0.648432 0.837308 0.297398
0.771298 0.691646 0.000000
0.876310 0.835691 0.757321
0.947051 0.890532 0.838926
0.801816 0.954192 0.654932
0.816861 0.950408 0.630915
0.893156 0.933959 0.527977
0.988525 0.910124 0.560845
0.957092 0.940887 0.905333
0.000000 0.195773 0.425605
0.236240 0.164767 0.555200
0.902007 0.000000 0.779599
1.000000 0.000000 0.706874
1.000000 0.473304 0.664820
0.100618 0.266484 0.411963
0.214633 0.271794 0.527977
0.891539 0.026947 0.777890
1.000000 0.441505 0.712795
1.000000 0.581750 0.694087
0.000000 0.685695 0.690455
0.326909 0.695644 0.700374
0.782895 0.753536 0.752590
0.928801 0.731868 0.729641
1.000000 0.758358 0.752071
0.498360 0.920043 0.705898
0.540948 0.908385 0.682887
0.770474 0.848081 0.658534
0.883452 0.860136 0.825772
0.953399 0.887266 0.842557
0.743313 0.964050 0.748959
0.779690 0.959716 0.764645
0.851133 0.944457 0.745113
0.978546 0.900908 0.530510
0.954376 0.940642 0.912200
0.000000 0.208835 0.774746
0.301946 0.175631 0.817472
0.754360 0.000000 0.921508
1.000000 0.000000 0.956268
1.000000 0.569085 0.873045
0.000000 0.305180 0.752712
0.304845 0.300816 0.795315
0.741207 0.254887 0.908202
1.000000 0.381140 0.944610
1.000000 0.673579 0.878935
0.300267 0.456306 0.594781
0.375036 0.470741 0.604944
0.710323 0.666224 0.831693
0.957702 0.782498 0.914122
1.000000 0.830228 0.893431
0.634302 0.877256 0.876402
0.674006 0.876799 0.876036
0.798306 0.884398 0.883116
0.913054 0.906126 0.903349
0.966155 0.895079 0.892180
0.766781 0.979278 0.895171
0.780484 0.977478 0.893492
0.826505 0.970825 0.885649
0.911131 0.948028 0.874846
0.957671 0.949371 0.934447
0.389136 0.304051 0.928099
0.454139 0.286351 0.935546
0.662654 0.177676 0.964294
0.927642 0.000000 1.000000
1.000000 0.000000 1.000000
0.421454 0.394263 0.916197
0.478584 0.386694 0.924681
0.668238 0.346349 0.955200
0.919249 0.184939 0.995636
1.000000 0.413947 0.995422
0.525383 0.601770 0.865232
0.566857 0.613001 0.877562
0.699611 0.645014 0.917205
0.885954 0.701961 0.963500
1.000000 0.771450 0.974426
0.578576 0.750942 0.856260
0.599390 0.747982 0.851652
0.686976 0.747921 0.836362
0.869657 0.859007 0.924559
0.984283 0.916381 0.966949
0.772244 0.948363 0.948699
0.787228 0.948516 0.948852
0.843900 0.951293 0.951385
0.912230 0.956695 0.956146
0.969757 0.967712 0.966583
