20 Preset/Dark Style/【3】LUT video cho PR-AE-FCPX/19Tones (3)/19Tones - Reflection x Water.cube
# Created by Adobe Lightroom plugin Export LUT (1.24.0)
# www.johnrellis.com/lightroom/exportlut.htm
# Preset: 19Tones - Reflection x Water
# Color profile: E:\lut插件\exportlut.1.24\exportlut.lrplugin\color profiles\Rec709gamma2.4.icc
LUT_3D_SIZE 32
DOMAIN_MIN 0.0 0.0 0.0
DOMAIN_MAX 1.0 1.0 1.0
0.105837 0.187747 0.211307
0.105837 0.187747 0.211307
0.105837 0.187747 0.211307
0.105837 0.187747 0.211307
0.090120 0.188540 0.209262
0.063905 0.189120 0.207553
0.085786 0.188693 0.208988
0.124056 0.186618 0.213718
0.172488 0.182010 0.220035
0.228580 0.173526 0.227787
0.293614 0.158724 0.236851
0.370184 0.129397 0.247868
0.455940 0.012573 0.260624
0.548180 0.000000 0.275029
0.639033 0.000000 0.290013
0.722072 0.000000 0.305425
0.793088 0.000000 0.319158
0.854856 0.000000 0.332158
0.936522 0.000000 0.353338
0.999329 0.000000 0.371496
1.000000 0.000000 0.385138
1.000000 0.000000 0.396338
1.000000 0.000000 0.405280
1.000000 0.000000 0.413703
1.000000 0.000000 0.422034
1.000000 0.000000 0.430396
1.000000 0.000000 0.439124
1.000000 0.000000 0.449012
1.000000 0.000000 0.459266
1.000000 0.000000 0.470100
1.000000 0.000000 0.482002
1.000000 0.000000 0.494636
0.105837 0.187747 0.211307
0.105837 0.187747 0.211307
0.105837 0.187747 0.211307
0.105837 0.187747 0.211307
0.090120 0.188540 0.209262
0.065888 0.189090 0.207553
0.082246 0.188785 0.208865
0.119051 0.186954 0.212985
0.164950 0.182834 0.218570
0.218204 0.175448 0.225467
0.280430 0.162234 0.233890
0.353460 0.137514 0.244205
0.436316 0.070222 0.256291
0.525902 0.000000 0.269535
0.616876 0.000000 0.283940
0.702022 0.000000 0.298741
0.775967 0.000000 0.312902
0.840024 0.000000 0.326146
0.921630 0.000000 0.346502
0.984649 0.000000 0.364080
1.000000 0.000000 0.378027
1.000000 0.000000 0.389075
1.000000 0.000000 0.397986
1.000000 0.000000 0.406683
1.000000 0.000000 0.415717
1.000000 0.000000 0.424414
1.000000 0.000000 0.433448
1.000000 0.000000 0.443061
1.000000 0.000000 0.454200
1.000000 0.000000 0.465614
1.000000 0.000000 0.477790
1.000000 0.000000 0.490913
0.105837 0.187747 0.211307
0.105837 0.187747 0.211307
0.105837 0.187747 0.211307
0.104158 0.187839 0.211185
0.088167 0.188602 0.209781
0.060304 0.189120 0.209140
0.079713 0.188785 0.209781
0.116426 0.187137 0.212192
0.160769 0.183169 0.216220
0.212009 0.176394 0.221653
0.271641 0.164553 0.228672
0.341680 0.142702 0.237675
0.421790 0.094453 0.248325
0.508751 0.000000 0.260044
0.598596 0.000000 0.273503
0.684871 0.000000 0.287419
0.760769 0.000000 0.301030
0.827146 0.000000 0.314611
0.910857 0.000000 0.334691
0.974121 0.000000 0.351751
1.000000 0.000000 0.365576
1.000000 0.000000 0.377356
1.000000 0.000000 0.387457
1.000000 0.000000 0.396857
1.000000 0.000000 0.405463
1.000000 0.000000 0.415259
1.000000 0.000000 0.424903
1.000000 0.000000 0.435492
1.000000 0.000000 0.447028
1.000000 0.000000 0.458717
1.000000 0.000000 0.471962
1.000000 0.000000 0.484993
0.107118 0.186770 0.211429
0.107332 0.186587 0.211429
0.106355 0.186496 0.211460
0.104189 0.187076 0.211002
0.088441 0.185458 0.211673
0.062318 0.187503 0.211521
0.079164 0.188602 0.211368
0.116396 0.186862 0.211215
0.158785 0.183200 0.212589
0.207828 0.177066 0.215640
0.264256 0.166415 0.220645
0.330938 0.147066 0.227085
0.407019 0.107485 0.235355
0.490913 0.000000 0.245304
0.578058 0.000000 0.256748
0.662776 0.000000 0.268345
0.740322 0.000000 0.281468
0.811154 0.000000 0.294469
0.891936 0.000000 0.311742
0.954070 0.000000 0.327886
1.000000 0.000000 0.341955
1.000000 0.000000 0.354376
1.000000 0.000000 0.365332
1.000000 0.000000 0.376745
1.000000 0.000000 0.387671
1.000000 0.000000 0.398901
1.000000 0.000000 0.410285
1.000000 0.000000 0.422370
1.000000 0.000000 0.435035
1.000000 0.000000 0.448127
1.000000 0.000000 0.461738
1.000000 0.000000 0.475685
0.111147 0.181582 0.211460
0.110109 0.181643 0.211337
0.106813 0.181827 0.211063
0.100893 0.182498 0.210117
0.098177 0.183627 0.208316
0.086976 0.182345 0.209445
0.087343 0.185367 0.211307
0.111757 0.187320 0.210544
0.150362 0.186038 0.210025
0.196963 0.180575 0.209567
0.250950 0.169284 0.209598
0.312566 0.153445 0.212650
0.384039 0.123140 0.217563
0.464668 0.000000 0.224338
0.550103 0.000000 0.232609
0.636988 0.000000 0.242161
0.718776 0.000000 0.253178
0.801999 0.000000 0.266545
0.879820 0.000000 0.282322
0.941985 0.000000 0.297490
0.990326 0.000000 0.311376
1.000000 0.000000 0.324590
1.000000 0.000000 0.337469
1.000000 0.000000 0.350195
1.000000 0.000000 0.362890
1.000000 0.000000 0.376013
1.000000 0.000000 0.389380
1.000000 0.000000 0.403143
1.000000 0.000000 0.416785
1.000000 0.000000 0.431220
1.000000 0.000000 0.446082
1.000000 0.000000 0.460883
0.106935 0.179477 0.209751
0.106416 0.179507 0.209628
0.104128 0.179629 0.209506
0.100191 0.179873 0.208865
0.095796 0.180301 0.207248
0.094240 0.180911 0.205600
0.093416 0.181247 0.205966
0.110628 0.186557 0.208164
0.143984 0.191379 0.208957
0.186160 0.190768 0.208164
0.237125 0.185550 0.207523
0.297948 0.173251 0.206790
0.368292 0.148531 0.206088
0.447822 0.090822 0.205203
0.533745 0.000000 0.204196
0.621454 0.000000 0.209567
0.705440 0.000000 0.217655
0.800229 0.000000 0.228397
0.876402 0.000000 0.241245
0.938354 0.000000 0.255833
0.987213 0.000000 0.270573
1.000000 0.000000 0.285161
1.000000 0.000000 0.312871
1.000000 0.000000 0.328161
1.000000 0.000000 0.343877
1.000000 0.000000 0.359228
1.000000 0.000000 0.373877
1.000000 0.000000 0.389899
1.000000 0.000000 0.404883
1.000000 0.000000 0.420783
1.000000 0.000000 0.436591
1.000000 0.000000 0.452277
0.088655 0.189487 0.204898
0.089387 0.189456 0.204868
0.090517 0.189273 0.204776
0.093935 0.188998 0.204501
0.096834 0.186923 0.204196
0.098238 0.184085 0.203983
0.096803 0.181796 0.204654
0.112184 0.185855 0.203799
0.151003 0.194553 0.203006
0.195651 0.202914 0.203769
0.246891 0.206119 0.203861
0.311955 0.200137 0.202274
0.386358 0.184512 0.200717
0.468757 0.151553 0.199008
0.555688 0.035157 0.197513
0.643183 0.000000 0.195926
0.748653 0.000000 0.193362
0.839689 0.000000 0.191196
0.914549 0.000000 0.189944
0.975097 0.000000 0.192721
1.000000 0.000000 0.210666
1.000000 0.000000 0.229618
1.000000 0.000000 0.248844
1.000000 0.000000 0.268894
1.000000 0.000000 0.289189
1.000000 0.000000 0.308293
1.000000 0.000000 0.328038
1.000000 0.000000 0.347265
1.000000 0.000000 0.365728
1.000000 0.000000 0.384649
1.000000 0.000000 0.403113
1.000000 0.000000 0.421759
0.034150 0.207919 0.201083
0.038148 0.207889 0.201083
0.048066 0.207736 0.201083
0.074037 0.207004 0.201114
0.093812 0.205081 0.201328
0.106111 0.199771 0.202365
0.112123 0.193881 0.204440
0.108797 0.188479 0.207950
0.131502 0.195254 0.206912
0.180636 0.205478 0.200534
0.231815 0.214755 0.198398
0.285130 0.222324 0.198276
0.350134 0.221134 0.196841
0.427527 0.208835 0.194369
0.511040 0.183139 0.191867
0.616754 0.123507 0.187839
0.719814 0.000000 0.183841
0.806058 0.000000 0.180941
0.880217 0.000000 0.179324
0.944152 0.000000 0.178714
0.997894 0.000000 0.178958
1.000000 0.000000 0.179843
1.000000 0.000000 0.181277
1.000000 0.000000 0.191684
1.000000 0.000000 0.217594
1.000000 0.000000 0.243717
1.000000 0.000000 0.267979
1.000000 0.000000 0.292515
1.000000 0.000000 0.315709
1.000000 0.000000 0.338476
1.000000 0.000000 0.361334
1.000000 0.000000 0.383032
0.000000 0.236851 0.197848
0.000000 0.236667 0.197879
0.000000 0.236362 0.198032
0.010193 0.235599 0.198184
0.074006 0.234653 0.198764
0.109743 0.227726 0.200961
0.127840 0.219089 0.204623
0.135958 0.210056 0.209812
0.130861 0.201907 0.216770
0.157504 0.211093 0.216678
0.218875 0.223819 0.202457
0.279576 0.233402 0.194003
0.338842 0.240726 0.190127
0.399725 0.247044 0.188296
0.492378 0.243107 0.183078
0.592218 0.224186 0.177035
0.688685 0.186801 0.171298
0.773281 0.108949 0.166842
0.848081 0.000000 0.163638
0.914611 0.000000 0.162020
0.971405 0.000000 0.161532
1.000000 0.000000 0.162875
1.000000 0.000000 0.165469
1.000000 0.000000 0.168704
1.000000 0.000000 0.172885
1.000000 0.000000 0.177035
1.000000 0.000000 0.186954
1.000000 0.000000 0.220951
1.000000 0.000000 0.251041
1.000000 0.000000 0.279728
1.000000 0.000000 0.307774
1.000000 0.000000 0.334691
0.000000 0.277440 0.195712
0.000000 0.277012 0.195773
0.000000 0.276310 0.196017
0.000000 0.275303 0.196506
0.014343 0.273381 0.197391
0.106050 0.268132 0.199863
0.140688 0.256718 0.205173
0.161044 0.244633 0.211795
0.168276 0.232334 0.220127
0.160678 0.221073 0.230289
0.188571 0.231724 0.232609
0.264317 0.249485 0.210483
0.343023 0.262974 0.193210
0.418982 0.272282 0.180179
0.489570 0.278782 0.171847
0.559380 0.281285 0.166110
0.652003 0.272099 0.157321
0.738369 0.252445 0.148806
0.816831 0.217014 0.141604
0.885924 0.155642 0.136751
0.944579 0.000000 0.134768
0.994079 0.000000 0.136355
1.000000 0.000000 0.140078
1.000000 0.000000 0.145571
1.000000 0.000000 0.152041
1.000000 0.000000 0.159060
1.000000 0.000000 0.165835
1.000000 0.000000 0.172305
1.000000 0.000000 0.178378
1.000000 0.000000 0.200473
1.000000 0.000000 0.237949
1.000000 0.000000 0.272099
0.000000 0.324132 0.194308
0.000000 0.323980 0.194308
0.000000 0.323613 0.194614
0.000000 0.322972 0.195315
0.000000 0.321813 0.196597
0.090944 0.320378 0.198367
0.151492 0.308690 0.205020
0.186831 0.294377 0.213779
0.207889 0.279728 0.224186
0.219760 0.268254 0.238590
0.213443 0.256077 0.255558
0.247837 0.271885 0.265263
0.341009 0.294255 0.228122
0.426886 0.307134 0.197421
0.504845 0.314214 0.172274
0.573602 0.318517 0.153201
0.634272 0.322118 0.140200
0.704677 0.320684 0.128634
0.780880 0.310216 0.115419
0.848722 0.293278 0.102968
0.910765 0.261967 0.094545
0.963439 0.213352 0.092744
1.000000 0.122866 0.096712
1.000000 0.000000 0.105257
1.000000 0.000000 0.115938
1.000000 0.000000 0.127321
1.000000 0.000000 0.138827
1.000000 0.000000 0.149569
1.000000 0.000000 0.159396
1.000000 0.000000 0.168795
1.000000 0.000000 0.177096
1.000000 0.000000 0.187564
0.000000 0.390814 0.191531
0.000000 0.391089 0.191562
0.000000 0.391485 0.192142
0.000000 0.392706 0.193027
0.000000 0.394324 0.194430
0.050416 0.396338 0.196872
0.171817 0.393347 0.203342
0.231174 0.380194 0.216373
0.272007 0.364660 0.232090
0.297704 0.347326 0.250340
0.305882 0.328252 0.271489
0.292699 0.308995 0.295018
0.437720 0.401617 0.377111
0.555779 0.430304 0.293309
0.644587 0.440345 0.218570
0.711604 0.441047 0.149935
0.764279 0.437415 0.046662
0.807614 0.433112 0.000000
0.844907 0.430152 0.000000
0.900359 0.420813 0.000000
0.950469 0.404211 0.000000
0.993194 0.382269 0.000000
1.000000 0.351080 0.000000
1.000000 0.303868 0.000000
1.000000 0.238193 0.000000
1.000000 0.115084 0.000000
1.000000 0.000000 0.034241
1.000000 0.000000 0.096498
1.000000 0.000000 0.121248
1.000000 0.000000 0.140017
1.000000 0.000000 0.155703
1.000000 0.000000 0.169131
0.000000 0.554681 0.186160
0.000000 0.554009 0.186496
0.000000 0.552178 0.187259
0.000000 0.549615 0.189456
0.000000 0.546380 0.192477
0.141573 0.542718 0.196933
0.247227 0.539971 0.203159
0.321660 0.522667 0.223545
0.377996 0.503014 0.247868
0.421332 0.483009 0.275822
0.452064 0.463447 0.308019
0.466346 0.443397 0.345739
0.455482 0.422248 0.387121
0.490028 0.444495 0.426764
0.607172 0.478279 0.338384
0.689418 0.488106 0.253056
0.750668 0.486488 0.171725
0.797971 0.480323 0.055543
0.837491 0.473518 0.000000
0.870939 0.467262 0.000000
0.905638 0.461585 0.000000
0.953063 0.447974 0.000000
0.994049 0.430091 0.000000
1.000000 0.407691 0.000000
1.000000 0.374060 0.000000
1.000000 0.326543 0.000000
1.000000 0.265080 0.000000
1.000000 0.167147 0.000000
1.000000 0.000000 0.000000
1.000000 0.000000 0.080720
1.000000 0.000000 0.115023
1.000000 0.000000 0.138338
0.000000 0.637415 0.202548
0.000000 0.636225 0.202152
0.000000 0.632837 0.202243
0.000000 0.628931 0.203952
0.000000 0.623743 0.206424
0.197910 0.618067 0.210544
0.287022 0.613245 0.216709
0.361120 0.603571 0.231388
0.421942 0.585504 0.257023
0.472602 0.567559 0.286412
0.513298 0.549737 0.320439
0.541924 0.531456 0.359258
0.553094 0.510979 0.401129
0.539300 0.487312 0.444099
0.555169 0.502068 0.492897
0.655848 0.530144 0.395392
0.728298 0.535393 0.299535
0.783322 0.530602 0.208377
0.827512 0.522667 0.106447
0.863767 0.513542 0.000000
0.895018 0.505272 0.000000
0.923247 0.499214 0.000000
0.959686 0.490608 0.000000
0.999573 0.475563 0.000000
1.000000 0.456611 0.000000
1.000000 0.431952 0.000000
1.000000 0.393744 0.000000
1.000000 0.346593 0.000000
1.000000 0.286931 0.000000
1.000000 0.198795 0.000000
1.000000 0.000000 0.000000
1.000000 0.000000 0.063233
0.000000 0.702846 0.238499
0.000000 0.702144 0.238529
0.000000 0.699275 0.237919
0.054871 0.694972 0.238071
0.188174 0.689235 0.238804
0.265385 0.682826 0.241398
0.335790 0.677485 0.246921
0.402075 0.673548 0.255558
0.462043 0.658991 0.279332
0.514092 0.643580 0.308873
0.558892 0.628138 0.342870
0.594903 0.612726 0.381476
0.618036 0.594965 0.422370
0.624720 0.574212 0.463813
0.608698 0.548791 0.503105
0.608850 0.555016 0.553735
0.694911 0.578820 0.457710
0.760769 0.581323 0.356115
0.812528 0.574914 0.258183
0.853513 0.564355 0.156405
0.887755 0.553582 0.000000
0.917815 0.544030 0.000000
0.944671 0.536248 0.000000
0.969360 0.530816 0.000000
1.000000 0.517754 0.000000
1.000000 0.500999 0.000000
1.000000 0.480995 0.000000
1.000000 0.449836 0.000000
1.000000 0.411658 0.000000
1.000000 0.365942 0.000000
1.000000 0.308171 0.000000
1.000000 0.227573 0.000000
0.181186 0.750179 0.285679
0.188449 0.750332 0.286198
0.210025 0.749142 0.286503
0.246342 0.747158 0.287510
0.292088 0.744228 0.289616
0.343664 0.741176 0.293309
0.398779 0.738796 0.300816
0.456306 0.737148 0.310948
0.512108 0.731868 0.329442
0.561761 0.719753 0.356909
0.604791 0.705715 0.387640
0.639704 0.689876 0.420508
0.664820 0.671656 0.454841
0.677699 0.650019 0.488411
0.676387 0.625086 0.520378
0.656916 0.596521 0.550225
0.646448 0.596155 0.601801
0.721859 0.617823 0.512993
0.783383 0.620142 0.413611
0.832883 0.613275 0.314122
0.873564 0.603082 0.214694
0.908110 0.592126 0.063630
0.937896 0.582147 0.000000
0.964782 0.573602 0.000000
0.989166 0.567102 0.000000
1.000000 0.559838 0.000000
1.000000 0.545159 0.000000
1.000000 0.527642 0.000000
1.000000 0.501366 0.000000
1.000000 0.467933 0.000000
1.000000 0.428382 0.000000
1.000000 0.381567 0.000000
0.301915 0.787106 0.339178
0.304570 0.786984 0.339178
0.316075 0.786221 0.339788
0.336309 0.785000 0.340887
0.366674 0.783169 0.343694
0.404578 0.781094 0.347753
0.447761 0.779202 0.354742
0.494179 0.777523 0.364599
0.541924 0.776181 0.377325
0.586999 0.767086 0.399908
0.628046 0.755612 0.427039
0.663142 0.742763 0.455634
0.691035 0.728206 0.485389
0.710353 0.711238 0.514397
0.719448 0.691310 0.542321
0.716365 0.667872 0.568872
0.698299 0.641260 0.594415
0.687007 0.638941 0.640955
0.748440 0.657893 0.568383
0.804074 0.659846 0.477607
0.851896 0.653071 0.379889
0.892210 0.642634 0.280919
0.926452 0.631220 0.171817
0.956298 0.620233 0.000000
0.982879 0.610742 0.000000
1.000000 0.603052 0.000000
1.000000 0.597498 0.000000
1.000000 0.587060 0.000000
1.000000 0.571160 0.000000
1.000000 0.548272 0.000000
1.000000 0.517571 0.000000
1.000000 0.482734 0.000000
0.402930 0.821530 0.407019
0.406653 0.821897 0.408301
0.505791 0.851835 0.486976
0.515801 0.850980 0.487984
0.531060 0.849668 0.490028
0.550713 0.847868 0.492866
0.575708 0.845823 0.496925
0.604211 0.843809 0.503716
0.635737 0.842008 0.512810
0.668605 0.838071 0.526207
0.699489 0.829465 0.544671
0.727108 0.819669 0.564111
0.749874 0.808042 0.583246
0.767361 0.794430 0.602228
0.778317 0.778561 0.620417
0.782010 0.760220 0.638148
0.776577 0.738643 0.654841
0.760342 0.714626 0.671412
0.747311 0.708003 0.704768
0.788815 0.718410 0.647791
0.835111 0.717403 0.566522
0.878202 0.709346 0.477302
0.916991 0.696498 0.378119
0.950439 0.682033 0.272526
0.979065 0.667323 0.140078
1.000000 0.654108 0.000000
1.000000 0.642878 0.000000
1.000000 0.634211 0.000000
1.000000 0.627893 0.000000
1.000000 0.612421 0.000000
1.000000 0.590539 0.000000
1.000000 0.562097 0.000000
0.507012 0.855802 0.493355
0.515465 0.858030 0.500053
0.527214 0.860105 0.507500
0.541650 0.861601 0.514763
0.558801 0.862150 0.521324
0.576806 0.861418 0.525719
0.597375 0.859892 0.529931
0.620813 0.858000 0.534752
0.647181 0.856291 0.542016
0.675624 0.854520 0.551080
0.703822 0.847990 0.565850
0.729732 0.839719 0.582208
0.752529 0.830014 0.598871
0.771237 0.818997 0.615412
0.785336 0.806271 0.632074
0.794064 0.791775 0.648157
0.796567 0.775418 0.663905
0.791928 0.757321 0.679835
0.778592 0.737453 0.696071
0.768154 0.732723 0.726741
0.801755 0.742916 0.685206
0.845121 0.744717 0.615625
0.886046 0.738857 0.537255
0.923796 0.727687 0.448798
0.957641 0.713375 0.348669
0.987213 0.698573 0.237308
1.000000 0.684840 0.000000
1.000000 0.672877 0.000000
1.000000 0.663722 0.000000
1.000000 0.657038 0.000000
1.000000 0.647974 0.000000
1.000000 0.626459 0.000000
0.550408 0.870878 0.534173
0.557946 0.872862 0.540703
0.568261 0.874784 0.548058
0.580621 0.876188 0.554864
0.594629 0.876768 0.560998
0.609369 0.876310 0.565179
0.626062 0.875090 0.568963
0.645075 0.873503 0.573114
0.666712 0.871855 0.578729
0.690211 0.870176 0.585992
0.714839 0.867063 0.595911
0.738491 0.860044 0.609583
0.759854 0.852049 0.623499
0.778653 0.843137 0.638087
0.794003 0.832975 0.652399
0.805356 0.821561 0.666407
0.812131 0.808621 0.680201
0.813779 0.794430 0.694057
0.809537 0.778897 0.708278
0.798245 0.762356 0.723110
0.789242 0.758175 0.749874
0.815610 0.767147 0.720363
0.854673 0.770443 0.661952
0.892821 0.766232 0.593256
0.928771 0.756588 0.514946
0.962463 0.743465 0.424781
0.993164 0.728878 0.322454
1.000000 0.715053 0.202029
1.000000 0.703151 0.000000
1.000000 0.693385 0.000000
1.000000 0.685695 0.000000
1.000000 0.679622 0.000000
0.592706 0.885344 0.576226
0.598535 0.886900 0.581659
0.606775 0.888304 0.587579
0.616693 0.889372 0.593683
0.627741 0.889830 0.598718
0.639582 0.889403 0.602258
0.653193 0.888426 0.605524
0.668666 0.887144 0.609125
0.686824 0.885710 0.614008
0.706355 0.884215 0.619898
0.727474 0.882811 0.627344
0.748531 0.877928 0.637812
0.768307 0.871275 0.649439
0.786221 0.863920 0.661524
0.801755 0.855802 0.673884
0.814694 0.846860 0.686610
0.824643 0.837369 0.699977
0.831052 0.827207 0.713680
0.833524 0.816617 0.728145
0.831449 0.805753 0.743191
0.823697 0.794400 0.758450
0.817624 0.792660 0.782925
0.837797 0.800961 0.764950
0.872129 0.806027 0.719844
0.906035 0.804532 0.666987
0.939757 0.797635 0.602899
0.972412 0.787289 0.529747
1.000000 0.774868 0.445716
1.000000 0.761593 0.347234
1.000000 0.748836 0.227970
1.000000 0.737026 0.000000
1.000000 0.726192 0.000000
0.660822 0.906767 0.647059
0.663111 0.907225 0.649042
0.666255 0.907469 0.650874
0.670680 0.907408 0.652491
0.676631 0.906950 0.653742
0.683894 0.906096 0.654902
0.693141 0.905058 0.656367
0.704707 0.903899 0.658808
0.718471 0.902678 0.662348
0.734310 0.901518 0.667201
0.751400 0.900389 0.673121
0.769100 0.898405 0.680140
0.786038 0.893095 0.689174
0.802029 0.887205 0.698756
0.816434 0.880644 0.708461
0.828885 0.873442 0.718349
0.839261 0.865629 0.728603
0.847044 0.857267 0.739315
0.851865 0.848417 0.750393
0.853330 0.839048 0.761929
0.850767 0.829191 0.773709
0.843412 0.818814 0.785702
0.836973 0.815732 0.805081
0.850858 0.821012 0.792264
0.880735 0.825559 0.753353
0.911284 0.825010 0.708461
0.942290 0.820371 0.655818
0.973663 0.812436 0.594018
1.000000 0.802457 0.524071
1.000000 0.790860 0.442390
1.000000 0.778164 0.343084
1.000000 0.765072 0.211398
0.690883 0.917235 0.680079
0.692500 0.917601 0.681544
0.695064 0.917815 0.683070
0.698848 0.917723 0.684443
0.703670 0.917418 0.685817
0.709651 0.916777 0.686793
0.717311 0.915984 0.688167
0.726833 0.915038 0.690242
0.738155 0.914031 0.693141
0.751369 0.913085 0.697200
0.765743 0.912078 0.702052
0.780911 0.911101 0.707607
0.796262 0.907774 0.714626
0.810941 0.903014 0.722835
0.824735 0.897765 0.731289
0.837186 0.892027 0.740139
0.848081 0.885863 0.749264
0.857115 0.879332 0.758846
0.863920 0.872343 0.768643
0.868254 0.865019 0.778775
0.869657 0.857420 0.789273
0.867674 0.849393 0.799893
0.861570 0.840909 0.810513
0.855955 0.838071 0.826963
0.860105 0.835294 0.812345
0.887114 0.840116 0.778500
0.915312 0.841001 0.740536
0.944152 0.838376 0.697047
0.973541 0.833005 0.646937
1.000000 0.825132 0.587671
1.000000 0.815579 0.520165
1.000000 0.804288 0.438758
0.730556 0.930449 0.723751
0.732662 0.930999 0.725795
0.734646 0.931121 0.726986
0.736568 0.930846 0.727108
0.738827 0.930205 0.726558
0.742092 0.929229 0.725795
0.746365 0.928069 0.724971
0.752163 0.926726 0.724544
0.759792 0.925353 0.724971
0.769100 0.923980 0.726223
0.779568 0.922515 0.728176
0.791592 0.921172 0.731228
0.804196 0.919493 0.734798
0.816709 0.915007 0.740291
0.828641 0.909941 0.745968
0.839933 0.904509 0.752224
0.850309 0.898741 0.759121
0.859617 0.892821 0.766995
0.867582 0.886870 0.775723
0.873991 0.880888 0.785367
0.878111 0.874784 0.795407
0.879545 0.868284 0.805386
0.877653 0.861082 0.814908
0.871733 0.853056 0.823941
0.865751 0.849271 0.837613
0.871458 0.851347 0.833341
0.895262 0.855863 0.803769
0.920592 0.857237 0.771328
0.946990 0.855772 0.734737
0.974243 0.852110 0.693416
1.000000 0.846372 0.646021
1.000000 0.838712 0.590417
0.746670 0.936950 0.742306
0.748562 0.937377 0.744076
0.750515 0.937591 0.745357
0.752651 0.937499 0.746090
0.755367 0.937163 0.746487
0.758938 0.936675 0.746914
0.763790 0.936065 0.747646
0.770016 0.935363 0.748745
0.777493 0.934600 0.750546
0.786313 0.933837 0.752895
0.795956 0.932952 0.755550
0.806485 0.932036 0.758694
0.817411 0.930968 0.761898
0.828641 0.928466 0.765896
0.839384 0.924346 0.770596
0.849638 0.919829 0.775509
0.859373 0.915007 0.781033
0.868406 0.910033 0.787289
0.876646 0.905058 0.794553
0.883696 0.900084 0.802609
0.889189 0.895048 0.811124
0.892760 0.889830 0.819821
0.893858 0.884215 0.828397
0.892210 0.878141 0.836728
0.887297 0.871489 0.844785
0.882109 0.868162 0.856565
0.885344 0.869688 0.856168
0.906401 0.874571 0.831846
0.929198 0.877195 0.806332
0.952911 0.877440 0.778195
0.977142 0.875700 0.747189
1.000000 0.872160 0.712276
0.770748 0.945525 0.769100
0.771695 0.945708 0.769955
0.772793 0.945739 0.770535
0.774228 0.945617 0.770748
0.776333 0.945281 0.770993
0.779141 0.944823 0.771115
0.782956 0.944244 0.771450
0.787808 0.943572 0.772091
0.793851 0.942901 0.773312
0.801053 0.942168 0.775021
0.809110 0.941375 0.777096
0.818082 0.940581 0.779660
0.827543 0.939666 0.782376
0.837400 0.938628 0.785214
0.847135 0.935363 0.788998
0.856626 0.931579 0.793088
0.865751 0.927520 0.797696
0.874540 0.923308 0.802914
0.882750 0.919097 0.809110
0.890227 0.914885 0.816068
0.896513 0.910704 0.823514
0.901335 0.906340 0.831113
0.904265 0.901610 0.838621
0.905028 0.896544 0.845914
0.903349 0.891020 0.853056
0.898894 0.884977 0.860014
0.894041 0.881712 0.870054
0.894835 0.882292 0.872251
0.913878 0.887297 0.851377
0.934752 0.890990 0.830655
0.956207 0.892638 0.808682
0.977935 0.892576 0.785183
0.788418 0.952178 0.788876
0.789120 0.952331 0.789487
0.790249 0.952361 0.790127
0.791714 0.952331 0.790616
0.794003 0.952209 0.791379
0.797360 0.952117 0.792630
0.802304 0.952148 0.794888
0.808408 0.952209 0.797787
0.815671 0.952331 0.801358
0.823819 0.952483 0.805478
0.832639 0.952636 0.809903
0.841794 0.952667 0.814389
0.851072 0.952575 0.818723
0.860166 0.952300 0.822629
0.869017 0.951263 0.826352
0.877287 0.948638 0.830106
0.885252 0.945739 0.833921
0.892912 0.942657 0.838010
0.900298 0.939544 0.842832
0.907164 0.936431 0.848203
0.913329 0.933288 0.853941
0.918395 0.930022 0.859831
0.922148 0.926452 0.865660
0.924407 0.922667 0.871427
0.924926 0.918547 0.877043
0.923552 0.914092 0.882597
0.919982 0.909361 0.888243
0.915770 0.906310 0.895842
0.914580 0.906035 0.899565
0.930053 0.910491 0.883360
0.947356 0.914366 0.868284
0.964813 0.916625 0.852781
0.822995 0.962737 0.825650
0.823117 0.962768 0.825681
0.823484 0.962646 0.825650
0.824125 0.962524 0.825589
0.825376 0.962280 0.825620
0.827237 0.962036 0.825803
0.829862 0.961730 0.826261
0.833341 0.961425 0.827146
0.837675 0.961120 0.828397
0.842832 0.960784 0.830014
0.848722 0.960418 0.831998
0.855100 0.960052 0.834195
0.862028 0.959594 0.836576
