20 Preset/Dark Style/【3】LUT video cho PR-AE-FCPX/19Tones (3)/19Tones - Sea.cube
# Created by Adobe Lightroom plugin Export LUT (1.24.0)
# www.johnrellis.com/lightroom/exportlut.htm
# Preset: 19Tones - Sea
# Color profile: E:\lut插件\exportlut.1.24\exportlut.lrplugin\color profiles\Rec709gamma2.4.icc
LUT_3D_SIZE 5
DOMAIN_MIN 0.000000 0.000000 0.000000
DOMAIN_MAX 0.903226 0.903226 0.903226
0.123445 0.183383 0.210758
0.129305 0.183566 0.211582
0.176394 0.181765 0.215793
0.337194 0.155703 0.223972
0.822324 0.000000 0.257908
0.127565 0.186221 0.213596
0.132601 0.187930 0.211826
0.172915 0.188907 0.212009
0.348699 0.174594 0.215091
0.830808 0.000000 0.226627
0.172244 0.217014 0.243442
0.168338 0.214328 0.240696
0.240696 0.247745 0.217441
0.392462 0.257572 0.202335
0.706935 0.302312 0.179294
0.331640 0.359991 0.382391
0.332830 0.361212 0.383642
0.338384 0.383062 0.364172
0.542107 0.482704 0.200748
0.880064 0.491127 0.000000
0.752102 0.732387 0.734249
0.753567 0.733608 0.735409
0.709255 0.697627 0.702388
0.765530 0.771756 0.652003
0.957946 0.817838 0.375769
0.122866 0.184115 0.212741
0.126162 0.183383 0.213809
0.176333 0.182773 0.218784
0.317571 0.167483 0.229923
0.695460 0.000000 0.247410
0.128878 0.187045 0.214389
0.132052 0.188754 0.215183
0.174655 0.188846 0.216526
0.321691 0.175875 0.220981
0.695064 0.000000 0.228946
0.170535 0.215976 0.242283
0.169772 0.215183 0.241642
0.213657 0.232731 0.223117
0.339178 0.241794 0.212222
0.691341 0.279973 0.198398
0.336004 0.364569 0.386908
0.339361 0.367926 0.390295
0.343847 0.382238 0.382788
0.530632 0.476020 0.221744
0.863828 0.484169 0.000000
0.753170 0.733272 0.735073
0.752712 0.732906 0.734768
0.762814 0.741268 0.742458
0.792325 0.790646 0.693935
0.966400 0.833494 0.446265
0.119509 0.185855 0.220432
0.117983 0.186435 0.223301
0.153323 0.183658 0.241886
0.525139 0.000000 0.344213
0.852110 0.000000 0.415991
0.125154 0.189761 0.224063
0.124941 0.190677 0.227054
0.171328 0.189609 0.248600
0.478798 0.110964 0.317937
0.828428 0.000000 0.406500
0.176822 0.221561 0.248814
0.187778 0.228641 0.254429
0.224002 0.251164 0.263523
0.384497 0.252506 0.263767
0.775692 0.187045 0.293278
0.362982 0.392554 0.414649
0.357855 0.387213 0.409339
0.368536 0.398413 0.420386
0.521752 0.481575 0.303380
0.813382 0.470954 0.199344
0.741848 0.723995 0.726528
0.747066 0.728298 0.730465
0.759945 0.738888 0.740261
0.775875 0.769284 0.724239
0.945281 0.820157 0.491829
0.112825 0.188602 0.232639
0.109621 0.189639 0.237125
0.082887 0.194675 0.265202
0.261418 0.168307 0.384680
1.000000 0.000000 0.709407
0.115206 0.191043 0.235416
0.112978 0.192142 0.239902
0.094301 0.198550 0.267979
0.274296 0.176730 0.384100
1.000000 0.000000 0.684749
0.128817 0.196048 0.234775
0.131258 0.198428 0.238712
0.148165 0.222202 0.280705
0.386389 0.234165 0.433600
1.000000 0.000000 0.635431
0.313634 0.351385 0.381872
0.326970 0.362432 0.390814
0.394629 0.425330 0.446906
0.508293 0.512749 0.481025
0.856382 0.497627 0.479408
0.747524 0.728634 0.730800
0.755123 0.734920 0.736599
0.792782 0.766659 0.766018
0.814023 0.785397 0.783566
0.924071 0.826993 0.635706
0.091646 0.192874 0.254978
0.083253 0.193851 0.260990
0.000000 0.200290 0.298619
0.000000 0.223117 0.441535
0.497169 0.000000 0.713893
0.096834 0.193088 0.252232
0.091127 0.194186 0.258213
0.000000 0.200809 0.293706
0.000000 0.224643 0.432380
0.504570 0.000000 0.710475
0.112428 0.193637 0.242679
0.110109 0.194980 0.247807
0.082948 0.203403 0.279820
0.000000 0.236606 0.420111
0.585473 0.000000 0.739071
0.123018 0.198703 0.243565
0.123079 0.198306 0.242863
0.124056 0.197116 0.240299
0.108675 0.265599 0.392340
0.835080 0.505516 0.824338
0.537163 0.591791 0.636469
0.552667 0.602167 0.643854
0.639307 0.661707 0.689113
0.798764 0.774166 0.775235
0.890471 0.851255 0.827237
