20 Preset/Dark Style/【3】LUT video cho PR-AE-FCPX/19Tones (3)/19Tones - Denis Blue.cube
# Created by Adobe Lightroom plugin Export LUT (1.24.0)
# www.johnrellis.com/lightroom/exportlut.htm
# Preset: 19Tones - Denis Blue
# Color profile: E:\lut插件\exportlut.1.24\exportlut.lrplugin\color profiles\Rec709gamma2.4.icc
LUT_3D_SIZE 32
DOMAIN_MIN 0.0 0.0 0.0
DOMAIN_MAX 1.0 1.0 1.0
0.050935 0.190860 0.225711
0.050935 0.190860 0.225711
0.051911 0.190982 0.225834
0.079438 0.192142 0.227054
0.126467 0.194949 0.230167
0.220127 0.201389 0.234806
0.367437 0.209628 0.240421
0.550561 0.217441 0.245701
0.722957 0.240879 0.251621
0.846006 0.292760 0.260807
0.927977 0.354253 0.278691
0.980652 0.413947 0.317998
1.000000 0.469398 0.371191
1.000000 0.521019 0.430396
1.000000 0.568872 0.491493
1.000000 0.613245 0.550652
1.000000 0.652857 0.603693
1.000000 0.688594 0.651057
1.000000 0.718837 0.690181
1.000000 0.750027 0.730098
1.000000 0.780911 0.768307
1.000000 0.802792 0.794919
1.000000 0.818967 0.814206
1.000000 0.831266 0.828397
1.000000 0.840879 0.839292
1.000000 0.848692 0.848051
1.000000 0.855619 0.855650
1.000000 0.861540 0.861997
1.000000 0.867002 0.867796
1.000000 0.872251 0.873350
0.999939 0.877165 0.878477
0.999023 0.882017 0.883543
0.050935 0.190860 0.225711
0.050935 0.190860 0.225711
0.051911 0.190982 0.225834
0.079011 0.192294 0.227024
0.127260 0.195224 0.229801
0.216159 0.202060 0.233921
0.354009 0.211093 0.238895
0.530022 0.219486 0.243626
0.701045 0.241337 0.247898
0.827909 0.288670 0.255497
0.915007 0.347112 0.272862
0.971649 0.405310 0.309087
1.000000 0.460578 0.360204
1.000000 0.512535 0.418311
1.000000 0.560479 0.479347
1.000000 0.605615 0.539849
1.000000 0.646235 0.594507
1.000000 0.682338 0.642512
1.000000 0.713680 0.683406
1.000000 0.745266 0.723934
1.000000 0.775357 0.761410
1.000000 0.797147 0.788083
1.000000 0.813352 0.807523
1.000000 0.825742 0.821927
1.000000 0.835538 0.833249
1.000000 0.843656 0.842283
1.000000 0.850828 0.850248
1.000000 0.857053 0.856931
1.000000 0.862852 0.863188
1.000000 0.868284 0.868925
1.000000 0.873594 0.874510
1.000000 0.878538 0.879698
0.047761 0.191775 0.225986
0.047059 0.191928 0.225956
0.057130 0.192233 0.225803
0.089815 0.193912 0.226474
0.139040 0.199039 0.228092
0.225620 0.208713 0.230716
0.356664 0.221469 0.233677
0.522148 0.234989 0.236301
0.687770 0.258701 0.238590
0.815427 0.302831 0.244205
0.905791 0.356603 0.264408
0.964416 0.410864 0.299687
1.000000 0.463172 0.351110
1.000000 0.512657 0.409705
1.000000 0.560388 0.473823
1.000000 0.603754 0.532616
1.000000 0.644953 0.589715
1.000000 0.680598 0.637873
1.000000 0.711666 0.679042
1.000000 0.744076 0.720912
1.000000 0.774105 0.758968
1.000000 0.795590 0.785489
1.000000 0.811307 0.804532
1.000000 0.823972 0.819486
1.000000 0.833616 0.830594
1.000000 0.841428 0.839414
1.000000 0.848722 0.847593
1.000000 0.855070 0.854520
1.000000 0.860990 0.860838
1.000000 0.866636 0.866941
1.000000 0.871946 0.872526
1.000000 0.876890 0.877714
0.011200 0.201999 0.227024
0.008606 0.203311 0.226169
0.048249 0.207218 0.225040
0.107515 0.208957 0.225437
0.167453 0.217685 0.225284
0.245365 0.228916 0.224796
0.370184 0.246769 0.224674
0.526268 0.267399 0.224521
0.684779 0.295354 0.226291
0.809293 0.335576 0.234195
0.898314 0.382055 0.255406
0.957122 0.429999 0.291783
0.994903 0.476661 0.343450
1.000000 0.521813 0.403082
1.000000 0.564874 0.464912
1.000000 0.607202 0.527703
1.000000 0.645502 0.583246
1.000000 0.680110 0.632166
1.000000 0.710475 0.673732
1.000000 0.743160 0.717067
1.000000 0.770169 0.751888
1.000000 0.791257 0.778653
1.000000 0.807340 0.798550
1.000000 0.820218 0.814115
1.000000 0.830655 0.826291
1.000000 0.839811 0.836881
1.000000 0.847776 0.845884
1.000000 0.854734 0.853635
1.000000 0.860929 0.860349
1.000000 0.866575 0.866423
1.000000 0.871763 0.872007
1.000000 0.876402 0.876890
0.000000 0.252598 0.225742
0.000000 0.255070 0.225589
0.000000 0.266117 0.221988
0.121889 0.279057 0.218540
0.217899 0.281559 0.219059
0.323186 0.293645 0.217319
0.407019 0.296361 0.216007
0.523583 0.310552 0.214237
0.671778 0.340063 0.213413
0.792233 0.376532 0.220188
0.881621 0.415839 0.240360
0.943084 0.455940 0.278325
0.983490 0.496010 0.331579
1.000000 0.535973 0.393347
1.000000 0.576745 0.461006
1.000000 0.616205 0.525078
1.000000 0.653162 0.582757
1.000000 0.685481 0.630732
1.000000 0.714717 0.672999
1.000000 0.747829 0.718563
1.000000 0.773556 0.753048
1.000000 0.792966 0.778317
1.000000 0.808225 0.797696
1.000000 0.821073 0.813504
1.000000 0.831662 0.826200
1.000000 0.840574 0.836637
1.000000 0.848447 0.845701
1.000000 0.855253 0.853361
1.000000 0.861295 0.860044
1.000000 0.866819 0.866056
1.000000 0.871794 0.871427
1.000000 0.876310 0.876249
0.000000 0.371923 0.225437
0.000000 0.376410 0.221408
0.000000 0.393378 0.212680
0.000000 0.429084 0.193698
0.265629 0.442725 0.185367
0.424475 0.440406 0.187076
0.557977 0.443488 0.184787
0.620600 0.421180 0.190036
0.676387 0.407538 0.192752
0.786282 0.437263 0.200687
0.872953 0.469184 0.225101
0.933745 0.500603 0.271244
0.974517 0.532464 0.328649
1.000000 0.565881 0.396277
1.000000 0.601373 0.466865
1.000000 0.635523 0.530236
1.000000 0.669123 0.589288
1.000000 0.698665 0.637049
1.000000 0.729915 0.684749
1.000000 0.758816 0.726528
1.000000 0.781827 0.758877
1.000000 0.799680 0.783017
1.000000 0.845060 0.839231
1.000000 0.854795 0.851102
0.998779 0.862394 0.860105
0.997711 0.868559 0.867185
0.996704 0.874083 0.873564
0.996124 0.878599 0.878569
0.995483 0.882933 0.883360
0.995148 0.886595 0.887297
0.994812 0.889921 0.890867
0.994659 0.892821 0.893889
0.000000 0.605158 0.263706
0.000000 0.608270 0.253147
0.000000 0.625269 0.202121
0.000000 0.653315 0.160464
0.257389 0.687861 0.000000
0.519615 0.681544 0.013397
0.676570 0.671931 0.116274
0.787381 0.658076 0.161776
0.820157 0.606531 0.178744
0.849058 0.569574 0.190890
0.892119 0.561059 0.219608
0.944457 0.581079 0.287755
0.978363 0.602319 0.362890
0.999237 0.626215 0.437079
1.000000 0.652308 0.506615
1.000000 0.678828 0.567987
1.000000 0.704433 0.619959
1.000000 0.730007 0.666773
1.000000 0.762417 0.719142
1.000000 0.787411 0.757229
1.000000 0.807706 0.786679
1.000000 0.824826 0.810361
1.000000 0.839353 0.829496
1.000000 0.851041 0.844327
0.998291 0.860472 0.855924
0.997009 0.867857 0.864805
0.996246 0.873472 0.871458
0.995789 0.878019 0.876707
0.995453 0.882017 0.881254
0.995239 0.885527 0.885191
0.995087 0.888701 0.888640
0.994965 0.891539 0.891722
0.000000 0.727260 0.404303
0.000000 0.729580 0.394903
0.000000 0.741756 0.349432
0.000000 0.759487 0.280735
0.000000 0.779080 0.242008
0.459998 0.795834 0.179324
0.640162 0.785092 0.216739
0.768490 0.774990 0.264134
0.861723 0.762814 0.320562
0.886107 0.710536 0.300633
0.907408 0.668757 0.290501
0.926970 0.637476 0.288273
0.960327 0.643091 0.352850
0.984283 0.658717 0.430304
0.998230 0.677913 0.503593
1.000000 0.698451 0.565515
1.000000 0.719661 0.618860
1.000000 0.748379 0.675868
1.000000 0.774075 0.723140
1.000000 0.794583 0.757900
1.000000 0.812650 0.786557
1.000000 0.828183 0.809598
0.999847 0.841428 0.828061
0.997925 0.852873 0.843442
0.996582 0.861997 0.855253
0.995727 0.868925 0.863951
0.995300 0.874266 0.870512
0.995056 0.878630 0.875792
0.994781 0.882658 0.880552
0.994751 0.886046 0.884520
0.994690 0.889158 0.888029
0.994812 0.891752 0.890898
0.000000 0.803006 0.561089
0.000000 0.804623 0.557366
0.000000 0.811002 0.535760
0.000000 0.822080 0.492317
0.000000 0.835752 0.434485
0.332341 0.846067 0.405615
0.584894 0.851896 0.376440
0.715114 0.842283 0.407721
0.815244 0.833677 0.444312
0.889982 0.823239 0.489937
0.915129 0.783413 0.465644
0.933532 0.745541 0.437873
0.950805 0.713344 0.414435
0.968322 0.696712 0.425666
0.984985 0.708675 0.502556
0.995148 0.724239 0.568261
1.000000 0.747097 0.633814
1.000000 0.768765 0.687282
1.000000 0.787961 0.728573
1.000000 0.805234 0.762081
0.999634 0.820584 0.789059
0.998108 0.834348 0.811337
0.996674 0.846433 0.829526
0.995392 0.856840 0.844480
0.994476 0.865293 0.856016
0.993927 0.871794 0.864714
0.993774 0.876799 0.871214
0.993683 0.881041 0.876646
0.993683 0.884764 0.881224
0.993805 0.887907 0.885069
0.993927 0.890806 0.888487
0.994171 0.893217 0.891295
0.234470 0.845060 0.667994
0.243626 0.845731 0.666896
0.276677 0.848692 0.663203
0.281559 0.854917 0.646632
0.240665 0.865202 0.602014
0.361120 0.874052 0.566583
0.531701 0.880125 0.546471
0.672511 0.881559 0.535088
0.764767 0.873808 0.558160
0.840696 0.866819 0.584161
0.900999 0.859434 0.613245
0.924132 0.830838 0.600977
0.940948 0.799039 0.565545
0.956359 0.770840 0.538109
0.971679 0.751949 0.529320
0.984527 0.756649 0.579065
0.991180 0.772457 0.643641
0.994324 0.788449 0.694820
0.995026 0.804196 0.736324
0.995178 0.818112 0.767971
0.994629 0.830808 0.793668
0.993896 0.842008 0.814298
0.993408 0.851621 0.830472
0.992920 0.860105 0.843931
0.992645 0.867124 0.854429
0.992737 0.872648 0.862425
0.992676 0.877653 0.869474
0.992859 0.881773 0.875059
0.992981 0.885557 0.880064
0.993103 0.888975 0.884428
0.993378 0.891905 0.888090
0.993561 0.894621 0.891417
0.450752 0.868528 0.735195
0.454261 0.869047 0.734951
0.467323 0.870970 0.733913
0.495827 0.874266 0.733425
0.490517 0.881193 0.714137
0.478187 0.890379 0.678889
0.554437 0.896300 0.665003
0.649317 0.901183 0.652674
0.737575 0.900938 0.651514
0.804318 0.895171 0.668910
0.860746 0.890013 0.687343
0.908232 0.885954 0.708736
0.929595 0.868376 0.711635
0.943816 0.845670 0.687007
0.957488 0.825223 0.666438
0.970428 0.807889 0.650568
0.981415 0.796475 0.648646
0.986084 0.807462 0.699306
0.988220 0.819059 0.739864
0.989441 0.829923 0.770901
0.989746 0.840330 0.796323
0.989899 0.849699 0.816281
0.990051 0.858061 0.832151
0.990143 0.865476 0.845274
0.990265 0.871824 0.855833
0.990570 0.877012 0.864073
0.990936 0.881407 0.870756
0.991272 0.885283 0.876432
0.991577 0.888823 0.881437
0.991882 0.892027 0.885832
0.992248 0.894835 0.889555
0.992615 0.897276 0.892729
0.576257 0.888029 0.787594
0.578058 0.888334 0.787533
0.586664 0.889433 0.787900
0.601709 0.891783 0.787961
0.614496 0.895842 0.783536
0.609155 0.902007 0.766659
0.618616 0.908659 0.747463
0.669886 0.913024 0.741482
0.732387 0.916960 0.734249
0.791836 0.916350 0.742275
0.840452 0.913634 0.759274
0.882200 0.911315 0.775387
0.927581 0.923705 0.836332
0.942229 0.915251 0.840574
0.950042 0.900969 0.825925
0.958099 0.887846 0.813077
0.966094 0.875914 0.801633
0.973693 0.865446 0.792416
0.978424 0.864042 0.802213
0.980377 0.869902 0.823331
0.981781 0.875486 0.839780
0.982727 0.880797 0.853117
0.983520 0.885588 0.863828
0.984314 0.889738 0.872282
0.984985 0.893309 0.879118
0.985687 0.896239 0.884520
0.986358 0.898619 0.888823
0.987060 0.900572 0.892210
0.987732 0.902312 0.895171
0.988373 0.903960 0.897765
0.988983 0.905547 0.900145
0.989502 0.907073 0.902342
0.688441 0.908873 0.839414
0.689357 0.909026 0.839414
0.693538 0.909728 0.839628
0.702815 0.911254 0.840360
0.716579 0.913603 0.841306
0.717189 0.917723 0.834623
0.716030 0.923064 0.823545
0.736263 0.927581 0.819028
0.770932 0.931518 0.818784
0.812558 0.935393 0.819242
0.848508 0.934783 0.828519
0.880308 0.933898 0.840330
0.908568 0.933471 0.851682
0.932860 0.933288 0.862425
0.946624 0.928405 0.868833
0.952331 0.916838 0.857389
0.958343 0.905577 0.846067
0.964324 0.895109 0.835874
0.970306 0.885710 0.827146
0.976043 0.877470 0.820096
0.978454 0.880583 0.835355
0.980041 0.884825 0.849516
0.981384 0.888853 0.860777
0.982513 0.892515 0.869932
0.983551 0.895720 0.877134
0.984466 0.898497 0.883085
0.985382 0.900755 0.887755
0.986145 0.902800 0.891691
0.986938 0.904631 0.895109
0.987671 0.906371 0.898100
0.988312 0.907958 0.900694
0.988922 0.909453 0.903105
0.753262 0.923003 0.870878
0.753170 0.923003 0.870573
0.754940 0.923278 0.870237
0.759365 0.924010 0.870237
0.766354 0.925292 0.870146
0.769253 0.927611 0.866911
0.766690 0.931060 0.859464
0.769223 0.934997 0.851713
0.789944 0.938048 0.851011
0.816861 0.941253 0.851194
0.848295 0.944060 0.852903
0.874266 0.943236 0.860899
0.898314 0.942718 0.869017
0.919860 0.942321 0.876799
0.938903 0.941924 0.883665
0.951232 0.938567 0.889097
0.955108 0.928527 0.879026
0.959472 0.918700 0.869017
0.964050 0.909667 0.860380
0.968841 0.901305 0.852476
0.973419 0.894163 0.846464
0.977203 0.890898 0.847501
0.979065 0.893980 0.859312
0.980591 0.897124 0.869108
0.981933 0.899931 0.876921
0.983124 0.902373 0.883116
0.984131 0.904479 0.888273
0.985138 0.906249 0.892332
0.985992 0.907988 0.896025
0.986786 0.909636 0.899199
0.987518 0.911101 0.901976
0.988190 0.912535 0.904479
0.791531 0.932647 0.890043
0.791775 0.932708 0.889952
0.792660 0.932799 0.889586
0.794949 0.933196 0.889250
0.799161 0.933898 0.888884
0.803250 0.935210 0.887663
0.800900 0.937560 0.882506
0.798795 0.940764 0.875547
0.809018 0.943572 0.873228
0.827024 0.946227 0.873411
0.849638 0.949065 0.874296
0.873716 0.950652 0.877592
0.893767 0.950134 0.883787
0.912230 0.949706 0.889494
0.929046 0.949187 0.894621
0.944121 0.948547 0.898924
0.954681 0.945800 0.902770
0.957977 0.937713 0.895415
0.961181 0.929381 0.887175
0.964691 0.921538 0.879667
0.968444 0.914397 0.873106
0.972320 0.908110 0.867674
0.976165 0.902586 0.863188
0.978637 0.902617 0.868772
0.980316 0.904784 0.876890
0.981720 0.906889 0.883574
0.983001 0.908721 0.888975
0.984070 0.910552 0.893736
0.985016 0.912352 0.897917
0.985779 0.914214 0.901732
0.986450 0.916014 0.905241
0.987030 0.917754 0.908354
0.817075 0.939605 0.902861
0.817472 0.939727 0.902983
0.818601 0.939910 0.902983
0.820890 0.940368 0.903044
0.824491 0.941070 0.903136
0.829465 0.942229 0.903288
0.829160 0.944152 0.900542
0.828489 0.946746 0.896452
0.831571 0.949493 0.893126
0.843839 0.951690 0.893370
0.858946 0.953918 0.893950
0.876890 0.956054 0.894499
0.893736 0.956329 0.896910
0.908415 0.955566 0.900298
0.922423 0.954772 0.903471
0.935576 0.953948 0.906401
0.948028 0.953155 0.909209
0.957305 0.950988 0.912078
0.960418 0.944579 0.907378
0.962921 0.937469 0.900542
0.965789 0.930938 0.894499
0.968933 0.924987 0.889220
0.972229 0.919646 0.884672
0.975555 0.914885 0.880858
0.978698 0.911009 0.878202
0.980346 0.912749 0.885466
0.981750 0.914427 0.891417
0.982940 0.916045 0.896483
0.983978 0.917571 0.900755
0.984894 0.919066 0.904509
0.985687 0.920439 0.907744
0.986358 0.921752 0.910674
0.836606 0.945129 0.912779
0.836820 0.945190 0.912810
0.837766 0.945373 0.912871
0.839597 0.945739 0.912993
0.842649 0.946380 0.913268
0.847105 0.947326 0.913756
0.847807 0.948821 0.912169
0.847471 0.950805 0.909392
0.847532 0.953185 0.905913
0.855009 0.955108 0.905394
0.866056 0.956970 0.905821
0.879179 0.958831 0.906279
0.894438 0.960601 0.906767
0.907103 0.960143 0.909209
0.918975 0.959472 0.911681
0.930419 0.958770 0.914031
0.941314 0.958038 0.916228
0.951781 0.957427 0.918608
0.960082 0.955840 0.921111
0.963012 0.950835 0.918364
0.965087 0.944823 0.912566
0.967468 0.939269 0.907500
0.970092 0.934203 0.903075
0.972839 0.929564 0.899107
0.975677 0.925414 0.895689
0.978424 0.921721 0.892821
0.980682 0.920287 0.893797
0.981994 0.921630 0.899138
0.983093 0.923003 0.903807
0.984070 0.924346 0.907774
0.984894 0.925566 0.911131
0.985595 0.926696 0.914031
0.855558 0.950500 0.922484
0.856107 0.950622 0.922667
0.875364 0.955718 0.932403
0.876738 0.956023 0.932616
0.878843 0.956512 0.932891
0.881773 0.957122 0.933288
0.882872 0.958129 0.932616
0.882567 0.959411 0.930877
0.882536 0.960998 0.928832
0.885130 0.962585 0.927581
0.891814 0.963928 0.927855
0.899870 0.965301 0.928222
0.909026 0.966552 0.928344
0.919036 0.967346 0.928557
0.927062 0.966735 0.929717
0.934997 0.966064 0.930724
0.942809 0.965332 0.931640
0.950591 0.964569 0.932525
0.958221 0.963928 0.933715
0.964721 0.962707 0.934966
0.967071 0.958801 0.933043
0.968444 0.953857 0.928130
0.970153 0.949157 0.923583
0.972076 0.944732 0.919463
0.974121 0.940429 0.915404
0.976318 0.936370 0.911620
0.978576 0.932586 0.908049
0.980896 0.929107 0.904967
0.982330 0.928893 0.907347
0.983368 0.929747 0.911101
0.984253 0.930663 0.914397
0.985016 0.931487 0.917205
0.876585 0.956420 0.933227
0.878264 0.956847 0.934051
0.880522 0.957427 0.934966
0.883055 0.958038 0.935912
0.885985 0.958740 0.936797
0.888914 0.959411 0.937407
0.890471 0.960235 0.937133
0.890043 0.961273 0.935729
0.889891 0.962554 0.934051
0.890043 0.964050 0.932036
0.895262 0.965209 0.932250
0.901579 0.966400 0.932464
0.908873 0.967529 0.932586
0.917235 0.968597 0.932586
0.925444 0.968811 0.933074
0.932494 0.968261 0.934051
0.939544 0.967712 0.934997
0.946593 0.967163 0.936004
0.953674 0.966674 0.937224
0.960601 0.966308 0.938628
0.966674 0.965576 0.940093
0.969146 0.962585 0.939391
0.970336 0.958373 0.935210
0.971801 0.954284 0.931212
0.973388 0.950286 0.927337
0.975219 0.946410 0.923552
0.977111 0.942748 0.920043
0.979065 0.939391 0.916930
0.981079 0.936400 0.914275
0.983001 0.933959 0.912474
0.983948 0.934691 0.916014
0.984771 0.935363 0.918975
0.886229 0.959350 0.938079
0.887877 0.959777 0.938872
0.889921 0.960296 0.939757
0.892271 0.960876 0.940673
0.894865 0.961517 0.941466
0.897429 0.962097 0.942107
0.898741 0.962799 0.941955
0.898436 0.963653 0.940826
0.898283 0.964660 0.939513
0.898283 0.965881 0.937896
0.900999 0.966979 0.937285
0.905913 0.967987 0.937499
0.911650 0.968963 0.937591
0.918303 0.969940 0.937652
0.925933 0.970825 0.937682
0.932372 0.970611 0.938354
0.938506 0.970153 0.939178
0.944640 0.969726 0.940063
0.950866 0.969299 0.941070
0.957092 0.968994 0.942260
0.963165 0.968750 0.943633
0.968750 0.968353 0.945129
0.971130 0.966003 0.945098
0.972168 0.962341 0.941436
0.973388 0.958709 0.937774
0.974762 0.955138 0.934173
0.976318 0.951659 0.930663
0.977996 0.948363 0.927520
0.979736 0.945464 0.924895
0.981476 0.942870 0.922606
0.983215 0.940581 0.920806
0.984588 0.939330 0.920684
0.895964 0.962371 0.942901
0.897246 0.962707 0.943572
0.898955 0.963134 0.944305
0.900969 0.963622 0.945068
0.903105 0.964141 0.945800
0.905303 0.964630 0.946349
0.906096 0.965240 0.946105
0.905852 0.965911 0.945220
0.905730 0.966766 0.944152
0.905669 0.967773 0.942870
0.907042 0.968780 0.941985
0.910918 0.969635 0.942138
0.915496 0.970489 0.942199
0.920775 0.971344 0.942321
0.926879 0.972168 0.942412
0.933532 0.972747 0.942626
0.939025 0.972473 0.943633
0.944640 0.972229 0.944732
0.950317 0.972076 0.946075
0.955993 0.972015 0.947570
0.961578 0.972015 0.949248
0.966918 0.972107 0.951049
0.971771 0.972107 0.952758
0.973846 0.970459 0.953429
0.974731 0.967651 0.950713
0.975677 0.964874 0.947967
0.976776 0.962097 0.945281
0.977935 0.959472 0.942809
0.979187 0.957092 0.940703
0.980468 0.954894 0.938903
0.981720 0.952941 0.937316
0.982940 0.951110 0.935882
0.912200 0.967071 0.951202
0.912749 0.967193 0.951476
0.913451 0.967376 0.951720
0.914366 0.967559 0.951995
0.915526 0.967834 0.952270
0.916686 0.968139 0.952453
0.916625 0.968536 0.951965
0.916320 0.969055 0.951202
0.916228 0.969696 0.950378
0.916289 0.970520 0.949462
0.916838 0.971405 0.948577
0.919860 0.972107 0.948730
0.923308 0.972808 0.948821
0.927337 0.973541 0.948943
0.931945 0.974212 0.949004
0.937224 0.974884 0.949065
0.942199 0.975006 0.949493
0.946685 0.974792 0.950286
0.951263 0.974609 0.951141
0.955901 0.974487 0.952178
0.960510 0.974365 0.953277
0.965087 0.974334 0.954498
0.969482 0.974334 0.955718
0.973632 0.974334 0.956939
0.975463 0.972869 0.957549
0.976165 0.970367 0.954986
0.977020 0.967926 0.952544
0.977996 0.965576 0.950286
0.979034 0.963348 0.948241
0.980102 0.961273 0.946380
0.981170 0.959319 0.944762
0.982238 0.957488 0.943206
0.920134 0.969543 0.955108
0.920531 0.969604 0.955322
0.921141 0.969757 0.955566
0.921935 0.969970 0.955810
0.922942 0.970184 0.956085
0.923186 0.970428 0.955932
0.922972 0.970794 0.955444
0.922759 0.971221 0.954833
0.922698 0.971771 0.954192
0.922789 0.972412 0.953460
0.923003 0.973175 0.952605
0.925414 0.973785 0.952758
0.928252 0.974395 0.952880
0.931579 0.975006 0.953033
0.935393 0.975647 0.953185
0.939635 0.976257 0.953338
0.944549 0.976837 0.953552
0.948394 0.976715 0.954284
0.952361 0.976562 0.955108
0.956390 0.976471 0.955993
0.960388 0.976440 0.957000
0.964385 0.976410 0.958068
0.968261 0.976440 0.959197
0.971984 0.976501 0.960327
0.974975 0.975830 0.959564
0.976593 0.974487 0.960021
0.977356 0.972381 0.957977
0.978119 0.970214 0.955810
0.979004 0.968139 0.953796
0.979950 0.966155 0.951995
0.980896 0.964324 0.950408
0.981872 0.962585 0.948882
0.931090 0.972717 0.960693
0.931670 0.972839 0.960967
0.932097 0.972961 0.961151
0.932311 0.973053 0.961151
0.932036 0.973144 0.960876
0.931518 0.973236 0.960357
0.930846 0.973358 0.959716
0.930175 0.973571 0.958984
0.929595 0.973907 0.958129
0.929107 0.974334 0.957244
0.928710 0.974823 0.956207
0.930205 0.975280 0.956054
0.932189 0.975708 0.955932
0.934569 0.976165 0.955810
0.937316 0.976623 0.955627
0.940551 0.977111 0.955474
0.944366 0.977569 0.955413
0.948272 0.977752 0.955657
0.951812 0.977661 0.956390
0.955535 0.977600 0.957305
0.959319 0.977569 0.958312
0.963012 0.977569 0.959350
0.966613 0.977539 0.960296
0.970001 0.977539 0.961151
0.973297 0.977478 0.961944
0.976440 0.977447 0.962646
0.977783 0.976196 0.962829
0.978515 0.974304 0.961028
0.979217 0.972320 0.958892
0.979980 0.970428 0.956970
0.980835 0.968566 0.955200
0.981689 0.966857 0.953613
0.934874 0.974273 0.962524
0.935363 0.974395 0.962799
0.935668 0.974517 0.962890
0.935698 0.974609 0.962829
0.935607 0.974731 0.962676
0.935393 0.974884 0.962402
0.935271 0.975067 0.962036
0.935058 0.975341 0.961608
0.934966 0.975708 0.961151
0.934936 0.976135 0.960632
0.934905 0.976623 0.959960
0.936400 0.976959 0.959991
0.938079 0.977356 0.959991
0.940002 0.977752 0.959899
0.942168 0.978119 0.959777
0.944671 0.978515 0.959655
0.947631 0.978912 0.959533
0.951080 0.979309 0.959533
0.954070 0.979248 0.960052
0.957183 0.979187 0.960784
0.960388 0.979156 0.961608
0.963561 0.979187 0.962493
0.966674 0.979187 0.963378
0.969665 0.979187 0.964202
0.972564 0.979187 0.964965
0.975341 0.979217 0.965698
0.978058 0.979217 0.966400
0.979156 0.978149 0.966583
0.979797 0.976654 0.965240
0.980377 0.975006 0.963500
0.981018 0.973388 0.961852
0.981689 0.971832 0.960266
0.940246 0.976318 0.965301
0.940490 0.976379 0.965393
0.940581 0.976410 0.965423
0.940581 0.976501 0.965332
0.940429 0.976562 0.965179
0.940246 0.976684 0.964904
0.940002 0.976837 0.964569
0.939788 0.977020 0.964172
0.939666 0.977295 0.963745
0.939574 0.977630 0.963256
0.939696 0.978027 0.962799
0.940917 0.978302 0.962799
0.942321 0.978637 0.962799
0.943877 0.978973 0.962737
0.945647 0.979278 0.962646
0.947662 0.979614 0.962493
0.950042 0.979950 0.962371
0.952850 0.980316 0.962341
0.955718 0.980438 0.962615
0.958404 0.980407 0.963226
0.961181 0.980377 0.963928
0.963958 0.980377 0.964691
0.966613 0.980377 0.965393
0.969299 0.980377 0.966094
0.971862 0.980377 0.966705
0.974334 0.980346 0.967315
0.976776 0.980346 0.967895
0.979187 0.980346 0.968475
0.980102 0.979339 0.968566
0.980713 0.978027 0.967468
0.981231 0.976593 0.965881
0.981781 0.975128 0.964355
0.943786 0.977844 0.967041
0.943969 0.977874 0.967132
0.944091 0.977935 0.967163
0.944152 0.977996 0.967132
0.944213 0.978088 0.967102
0.944366 0.978241 0.967041
0.944762 0.978485 0.967071
0.945281 0.978820 0.967163
0.945953 0.979187 0.967254
0.946715 0.979583 0.967346
0.947936 0.979980 0.967651
0.949584 0.980346 0.968109
0.951293 0.980713 0.968505
0.952941 0.981048 0.968811
0.954559 0.981353 0.968994
0.956146 0.981628 0.969055
0.957885 0.981903 0.969055
0.959869 0.982177 0.969085
0.962127 0.982452 0.969207
0.964050 0.982422 0.969665
0.966033 0.982422 0.970184
0.967987 0.982422 0.970703
0.969940 0.982422 0.971191
0.971832 0.982422 0.971679
0.973724 0.982422 0.972107
0.975525 0.982422 0.972473
0.977325 0.982422 0.972869
0.979126 0.982391 0.973297
0.980896 0.982422 0.973693
0.981445 0.981598 0.973663
0.981872 0.980621 0.972869
0.982208 0.979492 0.971618
0.952392 0.980255 0.971588
0.952392 0.980285 0.971557
0.952331 0.980285 0.971527
0.952239 0.980316 0.971435
0.952148 0.980346 0.971313
0.952056 0.980438 0.971160
0.951995 0.980529 0.971008
0.951965 0.980682 0.970794
0.952026 0.980896 0.970611
0.952178 0.981109 0.970428
0.953002 0.981292 0.970520
0.953887 0.981506 0.970642
0.954925 0.981750 0.970764
0.956023 0.981994 0.970855
