20 Preset/Dark Style/【3】LUT video cho PR-AE-FCPX/19Tones (3)/19Tones - Denis Blue.cube
# Created by Adobe Lightroom plugin Export LUT (1.24.0)
# www.johnrellis.com/lightroom/exportlut.htm
# Preset: 19Tones - Denis Blue
# Color profile: E:\lut插件\exportlut.1.24\exportlut.lrplugin\color profiles\Rec709gamma2.4.icc
LUT_3D_SIZE 5
DOMAIN_MIN 0.000000 0.000000 0.000000
DOMAIN_MAX 0.903226 0.903226 0.903226
0.050935 0.190860 0.225711
0.550561 0.217441 0.245701
1.000000 0.568872 0.491493
1.000000 0.802792 0.794919
1.000000 0.867002 0.867796
0.000000 0.727260 0.404303
0.768490 0.774990 0.264134
0.998230 0.677913 0.503593
1.000000 0.828183 0.809598
0.994781 0.882658 0.880552
0.791531 0.932647 0.890043
0.798795 0.940764 0.875547
0.929046 0.949187 0.894621
0.972320 0.908110 0.867674
0.985016 0.912352 0.897917
0.912200 0.967071 0.951202
0.916320 0.969055 0.951202
0.931945 0.974212 0.949004
0.965087 0.974334 0.954498
0.979034 0.963348 0.948241
0.955383 0.981445 0.973083
0.955444 0.981842 0.972625
0.955016 0.982238 0.969390
0.967681 0.983459 0.971588
0.979065 0.983398 0.974121
0.000000 0.580835 0.851621
0.000000 0.586633 0.870817
0.811215 0.831907 0.850065
0.942535 0.894865 0.911620
0.967773 0.917937 0.927733
0.000000 0.694484 0.853117
0.000000 0.722408 0.863035
0.855833 0.867491 0.884001
0.944823 0.907622 0.920104
0.968566 0.920806 0.928527
0.824979 0.881468 0.893767
0.840757 0.900267 0.907897
0.907408 0.941466 0.923857
0.949645 0.919188 0.910369
0.971679 0.936431 0.935546
0.915221 0.961700 0.956298
0.923125 0.964477 0.958679
0.939055 0.972076 0.961059
0.964477 0.974792 0.963806
0.976654 0.967864 0.959808
0.961547 0.981140 0.977050
0.961761 0.981537 0.976867
0.963439 0.982910 0.976196
0.971466 0.984100 0.976837
0.979858 0.984192 0.978698
0.000000 0.742367 0.978759
0.000000 0.740749 0.978485
0.761196 0.880369 0.959319
0.931121 0.943481 0.950591
0.944030 0.951415 0.958251
0.000000 0.770871 0.972442
0.000000 0.773587 0.970825
0.801450 0.900328 0.959258
0.938628 0.949889 0.956268
0.950469 0.956207 0.962585
0.365332 0.881895 0.960235
0.596094 0.894926 0.958770
0.840940 0.927428 0.958862
0.951690 0.961547 0.967895
0.965637 0.967285 0.972198
0.904997 0.950835 0.959777
0.912322 0.952117 0.960388
0.942565 0.961791 0.967315
0.964660 0.973571 0.976562
0.974182 0.974578 0.975586
0.956634 0.976684 0.976837
0.959869 0.977905 0.978027
0.968688 0.981353 0.981292
0.974151 0.984039 0.982483
0.980072 0.984741 0.983215
0.000000 0.768063 0.996216
0.000000 0.769619 0.995148
0.594781 0.873594 0.979400
0.895293 0.940551 0.972412
0.961669 0.969329 0.974060
0.000000 0.781094 0.992218
0.000000 0.783230 0.991394
0.632898 0.882658 0.977173
0.902892 0.944732 0.972992
0.962615 0.970245 0.975097
0.000000 0.841733 0.984222
0.000000 0.858061 0.980804
0.739254 0.911742 0.973358
0.925689 0.957885 0.976043
0.968719 0.975250 0.979370
0.792264 0.937865 0.974304
0.817319 0.941772 0.974426
0.888975 0.955840 0.976287
0.948241 0.971038 0.980194
0.976318 0.981079 0.983734
0.940826 0.971557 0.977356
0.946227 0.972808 0.978058
0.962799 0.977081 0.980652
0.976959 0.982177 0.984619
0.980743 0.985382 0.986633
0.000000 0.771603 1.000000
0.000000 0.772427 1.000000
0.000000 0.833524 0.990967
0.903441 0.952300 0.979706
0.948272 0.967132 0.980468
0.000000 0.777127 1.000000
0.000000 0.779965 0.999603
0.000000 0.843870 0.989014
0.902251 0.952270 0.979767
0.950927 0.968658 0.981018
0.000000 0.796017 0.997253
0.000000 0.797177 0.996551
0.289281 0.864164 0.985412
0.904753 0.954711 0.980011
0.962005 0.974914 0.983398
0.000000 0.847837 0.991882
0.000000 0.859373 0.989563
0.674006 0.912413 0.981079
0.918639 0.962707 0.981689
0.973480 0.981537 0.986267
0.785611 0.943542 0.978882
0.816770 0.948241 0.979095
0.898650 0.963622 0.981079
0.957305 0.978271 0.985107
0.979675 0.985290 0.987945
