20 Preset/Dark Style/【3】LUT video cho PR-AE-FCPX/19Tones (3)/19Tones - Denis Blue.cube
# Created by Adobe Lightroom plugin Export LUT (1.24.0)
# www.johnrellis.com/lightroom/exportlut.htm
# Preset: 19Tones - Denis Blue
# Color profile: E:\lut插件\exportlut.1.24\exportlut.lrplugin\color profiles\Rec709gamma2.4.icc
LUT_3D_SIZE 8
DOMAIN_MIN 0.000000 0.000000 0.000000
DOMAIN_MAX 0.903226 0.903226 0.903226
0.050935 0.190860 0.225711
0.126467 0.194949 0.230167
0.722957 0.240879 0.251621
1.000000 0.469398 0.371191
1.000000 0.652857 0.603693
1.000000 0.780911 0.768307
1.000000 0.840879 0.839292
1.000000 0.867002 0.867796
0.000000 0.252598 0.225742
0.217899 0.281559 0.219059
0.671778 0.340063 0.213413
0.983490 0.496010 0.331579
1.000000 0.653162 0.582757
1.000000 0.773556 0.753048
1.000000 0.831662 0.826200
1.000000 0.861295 0.860044
0.000000 0.803006 0.561089
0.000000 0.835752 0.434485
0.815244 0.833677 0.444312
0.950805 0.713344 0.414435
1.000000 0.747097 0.633814
0.999634 0.820584 0.789059
0.994476 0.865293 0.856016
0.993683 0.884764 0.881224
0.688441 0.908873 0.839414
0.716579 0.913603 0.841306
0.770932 0.931518 0.818784
0.908568 0.933471 0.851682
0.958343 0.905577 0.846067
0.978454 0.880583 0.835355
0.983551 0.895720 0.877134
0.986938 0.904631 0.895109
0.836606 0.945129 0.912779
0.842649 0.946380 0.913268
0.847532 0.953185 0.905913
0.894438 0.960601 0.906767
0.941314 0.958038 0.916228
0.965087 0.944823 0.912566
0.975677 0.925414 0.895689
0.983093 0.923003 0.903807
0.895964 0.962371 0.942901
0.903105 0.964141 0.945800
0.905730 0.966766 0.944152
0.915496 0.970489 0.942199
0.939025 0.972473 0.943633
0.961578 0.972015 0.949248
0.974731 0.967651 0.950713
0.979187 0.957092 0.940703
0.934874 0.974273 0.962524
0.935607 0.974731 0.962676
0.934966 0.975708 0.961151
0.938079 0.977356 0.959991
0.947631 0.978912 0.959533
0.960388 0.979156 0.961608
0.972564 0.979187 0.964965
0.979797 0.976654 0.965240
0.955383 0.981445 0.973083
0.955322 0.981537 0.972930
0.955535 0.982025 0.972503
0.958495 0.982696 0.972930
0.958129 0.982757 0.969665
0.965881 0.983429 0.971008
0.972808 0.983490 0.972992
0.979065 0.983398 0.974121
0.000000 0.262974 0.394018
0.000000 0.249821 0.383215
0.433936 0.393622 0.440375
0.889128 0.647578 0.700191
0.953857 0.776608 0.798093
0.975708 0.830289 0.841825
0.983795 0.860410 0.868193
0.988586 0.878264 0.883879
0.000000 0.310124 0.409339
0.000000 0.335576 0.451667
0.568566 0.506889 0.554253
0.890227 0.692958 0.727352
0.953368 0.774807 0.788937
0.974975 0.828641 0.836790
0.983764 0.856443 0.862333
0.989227 0.874357 0.878691
0.483223 0.607050 0.637110
0.512291 0.674800 0.691585
0.719326 0.825559 0.723415
0.890898 0.743801 0.670588
0.949401 0.798611 0.776608
0.970611 0.844022 0.837919
0.979767 0.871336 0.870329
0.985351 0.888609 0.889158
0.693233 0.876249 0.853147
0.713985 0.883421 0.856779
0.780789 0.909453 0.862242
0.884276 0.921752 0.861021
0.937774 0.891447 0.843259
0.963409 0.872709 0.838865
0.975311 0.889616 0.875456
0.982208 0.901762 0.894743
0.833860 0.936919 0.915862
0.838224 0.938079 0.915923
0.860075 0.944457 0.918090
0.883452 0.954284 0.910399
0.932372 0.953124 0.914885
0.958618 0.940734 0.911498
0.970581 0.921569 0.894347
0.979675 0.921935 0.905180
0.889250 0.958160 0.941405
0.892485 0.958984 0.942168
0.904143 0.962097 0.944671
0.910124 0.967285 0.941466
0.935424 0.970794 0.943236
0.959350 0.970886 0.949920
0.973053 0.966949 0.951293
0.977661 0.956146 0.940581
0.929808 0.972107 0.960571
0.930388 0.972198 0.960510
0.931456 0.973358 0.959747
0.933593 0.975616 0.958099
0.944884 0.977752 0.958801
0.958526 0.978363 0.960723
0.970916 0.978180 0.963409
0.978820 0.975433 0.963287
0.953765 0.980621 0.972412
0.954376 0.980896 0.972625
0.954437 0.981353 0.972107
0.956970 0.982208 0.972320
0.961456 0.983062 0.972625
0.967163 0.983612 0.972717
0.972961 0.983490 0.973693
0.978943 0.983398 0.974670
0.000000 0.638025 0.901884
0.000000 0.638849 0.902953
0.000000 0.663355 0.908232
0.826261 0.847105 0.863859
0.853208 0.873381 0.887724
0.925963 0.901854 0.918334
0.952453 0.920531 0.933196
0.964416 0.933043 0.942382
0.000000 0.659327 0.887877
0.000000 0.651606 0.887938
0.000000 0.704555 0.906645
0.840696 0.861326 0.876799
0.858335 0.878233 0.892088
0.925566 0.902007 0.918181
0.951720 0.919310 0.931823
0.964141 0.930022 0.939452
0.000000 0.745968 0.891997
0.000000 0.751858 0.893950
0.097536 0.780209 0.894438
0.848356 0.879026 0.905882
0.891752 0.901701 0.914672
0.935637 0.916289 0.928893
0.954528 0.928496 0.938170
0.965545 0.932677 0.940337
0.638697 0.846738 0.879454
0.681117 0.854276 0.884001
0.787228 0.874846 0.895201
0.881468 0.906218 0.917571
0.918425 0.917967 0.923003
0.943267 0.925963 0.931334
0.958343 0.933288 0.938018
0.967987 0.937987 0.941955
0.865782 0.911192 0.920531
0.868376 0.914275 0.922911
0.880552 0.926055 0.931792
0.904356 0.943053 0.943023
0.932158 0.956481 0.945190
0.952422 0.950286 0.943206
0.960906 0.940185 0.934539
0.970703 0.945098 0.942809
0.898619 0.949920 0.948455
0.901427 0.951171 0.949462
0.910185 0.955108 0.952270
0.925231 0.961730 0.956664
0.937560 0.968597 0.957122
0.958618 0.971435 0.961181
0.970977 0.970275 0.963256
0.974884 0.963684 0.956970
0.934081 0.970184 0.965087
0.934691 0.970367 0.965148
0.938750 0.971618 0.966094
0.947265 0.974243 0.968444
0.950469 0.977020 0.967193
0.961913 0.978973 0.968566
0.971954 0.979400 0.971221
0.978607 0.978302 0.972015
0.958831 0.980255 0.975982
0.959258 0.980346 0.976074
0.961181 0.980957 0.976654
0.962463 0.982086 0.976623
0.965057 0.983032 0.976562
0.970092 0.983948 0.976867
0.974823 0.984009 0.977722
0.979461 0.984009 0.978485
0.000000 0.723415 0.966094
0.000000 0.726986 0.965545
0.000000 0.727810 0.968353
0.650599 0.837247 0.951324
0.898802 0.920165 0.938598
0.912383 0.927306 0.936217
0.924987 0.937133 0.945220
0.951629 0.944182 0.953552
0.000000 0.738949 0.961700
0.000000 0.736049 0.961883
0.000000 0.744472 0.964416
0.687861 0.852720 0.951232
0.900938 0.923125 0.942535
0.915679 0.930205 0.938781
0.927062 0.938598 0.946593
0.952544 0.945373 0.954467
0.000000 0.772580 0.957549
0.000000 0.773678 0.956970
0.000000 0.786679 0.953582
0.719997 0.873991 0.949065
0.902434 0.928069 0.949584
0.929595 0.942199 0.949432
0.941619 0.950164 0.956970
0.959472 0.954650 0.962005
0.000000 0.855863 0.952453
0.000000 0.859709 0.951598
0.546960 0.878202 0.949554
0.775540 0.903868 0.948241
0.901549 0.934661 0.954742
0.940185 0.951171 0.957397
0.951293 0.955657 0.962158
0.964996 0.961303 0.967102
0.785824 0.919066 0.944060
0.795529 0.920256 0.944305
0.833433 0.926818 0.946868
0.884428 0.938811 0.952789
0.926177 0.951446 0.960113
0.952667 0.961608 0.966613
0.962860 0.964477 0.968902
0.969848 0.966217 0.969879
0.908507 0.944305 0.952270
0.914122 0.946838 0.954406
0.923278 0.949493 0.956420
0.938964 0.955291 0.961151
0.950561 0.964538 0.968658
0.959777 0.972564 0.972717
0.970550 0.974243 0.974273
0.974060 0.971435 0.971344
0.940337 0.965454 0.967926
0.941680 0.966155 0.968536
0.946014 0.968505 0.970428
0.953185 0.972320 0.973449
0.960937 0.976287 0.976349
0.966064 0.979461 0.977050
0.973297 0.980682 0.978119
0.978637 0.980713 0.979004
0.960479 0.979278 0.978119
0.961089 0.979492 0.978332
0.963622 0.980316 0.979187
0.967956 0.981750 0.980743
0.971130 0.983124 0.981628
0.973053 0.984100 0.981384
0.976898 0.984619 0.981842
0.980285 0.984771 0.982544
0.000000 0.753964 0.986328
0.000000 0.756863 0.985504
0.000000 0.754818 0.985534
0.470344 0.843259 0.974487
0.821164 0.906188 0.964446
0.917967 0.940520 0.960418
0.944213 0.954559 0.960388
0.947875 0.957641 0.963104
0.000000 0.763241 0.983368
0.000000 0.762203 0.983856
0.000000 0.765011 0.983948
0.515679 0.851469 0.972930
0.830289 0.910704 0.964691
0.919707 0.942077 0.961517
0.945830 0.955932 0.961578
0.949004 0.958587 0.963928
0.000000 0.785000 0.980926
0.000000 0.786252 0.980652
0.000000 0.797726 0.977935
0.557244 0.863920 0.968719
0.848569 0.920714 0.964813
0.921355 0.944457 0.963439
0.949950 0.959350 0.964630
0.951629 0.960754 0.965850
0.000000 0.834928 0.975402
0.000000 0.839384 0.974304
0.178103 0.861387 0.969848
0.685054 0.895262 0.964965
0.858946 0.930236 0.965362
0.930999 0.952850 0.968414
0.958190 0.966186 0.970672
0.958801 0.966705 0.971099
0.602075 0.904479 0.965667
0.635645 0.907561 0.965484
0.726558 0.917601 0.965179
0.819211 0.931823 0.965820
0.886107 0.944976 0.967102
0.934600 0.958404 0.970886
0.963775 0.970764 0.974640
0.966522 0.971862 0.975830
0.834562 0.939483 0.961151
0.840574 0.940551 0.961517
0.859159 0.943542 0.962219
0.889860 0.949828 0.964446
0.923461 0.958526 0.968505
0.951507 0.968261 0.974334
0.968750 0.975158 0.978790
0.974640 0.977386 0.980316
0.930144 0.961028 0.967315
0.931121 0.961089 0.967315
0.936858 0.962341 0.968078
0.948943 0.966369 0.971130
0.961089 0.971191 0.975097
0.967956 0.976471 0.979339
0.972564 0.980377 0.981262
0.977844 0.981201 0.981872
0.954864 0.973785 0.975769
0.955596 0.974151 0.976104
0.958709 0.975677 0.977386
0.965393 0.978851 0.980224
0.970947 0.981506 0.982483
0.975463 0.983581 0.984131
0.977508 0.984710 0.984100
0.980346 0.985016 0.984527
0.000000 0.767910 0.995911
0.000000 0.769955 0.995392
0.000000 0.770352 0.994385
0.000000 0.832425 0.984985
0.808133 0.916045 0.974151
0.889799 0.937926 0.971710
0.938689 0.956664 0.971557
0.962402 0.969665 0.973693
0.000000 0.773373 0.993042
0.000000 0.772488 0.992920
0.000000 0.773617 0.992370
0.000000 0.829770 0.984039
0.804166 0.914946 0.973541
0.887877 0.937163 0.971313
0.937530 0.955993 0.971252
0.961975 0.969299 0.973358
0.000000 0.787411 0.990875
0.000000 0.788205 0.990509
0.000000 0.798795 0.988434
0.362310 0.855039 0.979461
0.816770 0.920928 0.973205
0.902800 0.945006 0.972747
0.943236 0.960143 0.973480
0.964996 0.971771 0.975525
0.000000 0.827848 0.986175
0.000000 0.832181 0.985229
0.000000 0.855283 0.980743
0.653254 0.896056 0.975097
0.847471 0.934142 0.973724
0.927886 0.958404 0.976379
0.953826 0.967498 0.977447
0.969940 0.975830 0.979065
0.368444 0.885100 0.977569
0.447333 0.889036 0.976867
0.627649 0.903746 0.974731
0.774166 0.924224 0.973114
0.863676 0.942382 0.973449
0.924620 0.959075 0.976043
0.957641 0.970489 0.978943
0.971771 0.977295 0.980346
0.764523 0.931823 0.972595
0.779202 0.934173 0.972839
0.813321 0.939544 0.973053
0.859586 0.948089 0.973968
0.903258 0.957671 0.975677
0.940307 0.967590 0.978393
0.964752 0.975738 0.981598
0.975433 0.980285 0.982971
0.891875 0.959197 0.973907
0.896208 0.960143 0.974273
0.907683 0.962585 0.975067
0.926207 0.966796 0.976623
0.945953 0.971893 0.978820
0.962219 0.976684 0.981292
0.972381 0.980255 0.983459
0.978515 0.982696 0.985046
0.947173 0.971160 0.975952
0.947967 0.971283 0.976013
0.952483 0.972351 0.976684
0.960845 0.974731 0.978393
0.969696 0.977783 0.980835
0.975372 0.981689 0.984039
0.978729 0.984253 0.985992
0.980713 0.985321 0.986267
0.000000 0.770993 0.999298
0.000000 0.771511 0.999268
0.000000 0.773434 0.997925
0.000000 0.807614 0.992706
0.736141 0.903624 0.978759
0.879789 0.940612 0.976501
0.922362 0.953857 0.976165
0.951232 0.965515 0.976867
0.000000 0.773556 0.998291
0.000000 0.775082 0.997925
0.000000 0.775662 0.997009
0.000000 0.809842 0.991821
0.725307 0.901244 0.978576
0.876463 0.939391 0.976196
0.919158 0.952300 0.975647
0.948974 0.964080 0.976135
0.000000 0.784207 0.995575
0.000000 0.784146 0.995361
0.000000 0.788479 0.994415
0.000000 0.833097 0.987671
0.749569 0.908537 0.977661
0.894102 0.946929 0.976989
0.929900 0.958007 0.977173
0.955047 0.968109 0.978210
0.000000 0.805142 0.993133
0.000000 0.807401 0.992706
0.000000 0.822507 0.990082
0.360204 0.866484 0.982483
0.786374 0.920531 0.976928
0.907744 0.953643 0.978149
0.944030 0.965728 0.979644
0.961608 0.972503 0.980529
0.000000 0.849119 0.987335
0.000000 0.852567 0.986572
0.000000 0.869718 0.983276
0.630610 0.900023 0.978759
0.810941 0.930297 0.976654
0.907927 0.955505 0.978271
0.952361 0.970642 0.981323
0.967285 0.976287 0.982513
0.570214 0.905760 0.979889
0.601251 0.908568 0.979522
0.691768 0.918608 0.978393
0.791012 0.933501 0.977508
0.869139 0.949248 0.977966
0.925750 0.964080 0.980163
0.959197 0.975006 0.983062
0.973114 0.980163 0.984619
0.818631 0.945373 0.977234
0.826169 0.946685 0.977356
0.849546 0.950866 0.977752
0.885130 0.958068 0.978790
0.920470 0.966308 0.980529
0.948119 0.973754 0.982757
0.966735 0.979339 0.984649
0.977569 0.983124 0.986267
0.904570 0.965240 0.978027
0.907530 0.965850 0.978241
0.919768 0.968566 0.979187
0.936980 0.972564 0.980743
0.954253 0.976959 0.982666
0.968170 0.980865 0.984588
0.977234 0.983825 0.986328
0.981170 0.985321 0.987335
0.000000 0.771603 1.000000
0.000000 0.771878 1.000000
0.000000 0.774228 1.000000
0.000000 0.788724 0.998199
0.636316 0.887907 0.982818
0.878752 0.944213 0.979309
0.926146 0.959319 0.979919
0.948272 0.967132 0.980468
0.000000 0.773068 1.000000
0.000000 0.773342 1.000000
0.000000 0.776425 1.000000
0.000000 0.791165 0.997650
0.632044 0.887480 0.982757
0.876158 0.943359 0.979187
0.925414 0.959045 0.979828
0.947601 0.966796 0.980346
0.000000 0.778988 1.000000
0.000000 0.779141 1.000000
0.000000 0.781308 0.998871
0.000000 0.804471 0.995392
0.662196 0.894133 0.981811
0.878202 0.944579 0.979187
0.931975 0.962158 0.980499
0.951446 0.968963 0.981109
0.000000 0.790127 0.997986
0.000000 0.790433 0.997772
0.000000 0.791867 0.996918
0.000000 0.821469 0.992340
0.691768 0.902220 0.980804
0.885130 0.947967 0.979461
0.943603 0.967803 0.981964
0.958618 0.972992 0.982635
0.000000 0.803677 0.996246
0.000000 0.803983 0.996155
0.000000 0.807309 0.995483
0.000000 0.839353 0.990204
0.685023 0.904997 0.980529
0.884825 0.949493 0.979675
0.949432 0.971069 0.983001
0.966003 0.977203 0.984344
0.000000 0.834226 0.993317
0.000000 0.836362 0.992950
0.000000 0.847562 0.990906
0.242344 0.877714 0.985260
0.725765 0.917571 0.980163
0.892546 0.954314 0.980499
0.955413 0.974487 0.984131
0.972351 0.980896 0.985962
0.257633 0.894621 0.985290
0.364416 0.897856 0.984710
0.575250 0.910521 0.982727
0.744869 0.929870 0.980713
0.853208 0.949157 0.980468
0.920104 0.965209 0.982208
0.958312 0.976684 0.984833
0.976043 0.983154 0.986999
0.785611 0.943542 0.978882
0.794095 0.944732 0.978912
0.827054 0.949920 0.979187
0.874998 0.958679 0.980194
0.919738 0.968444 0.982147
0.951385 0.976593 0.984497
0.970581 0.982300 0.986633
0.979675 0.985290 0.987945
