20 Preset/Ocident style/【1】LRtemplate Lightroom bản cũ/Ocident style 3/Tone (9).lrtemplate
s = {
	id = "450A247A-5E2F-464F-84A8-5D6C6100ACD5",
	internalName = "Socium 11",
	title = "Socium 11",
	type = "Develop",
	value = {
		settings = {
			AutoLateralCA = 0,
			Blacks2012 = -17,
			BlueHue = -24,
			BlueSaturation = -78,
			CameraProfile = "Adobe Standard",
			ChromaticAberrationB = 0,
			ChromaticAberrationR = 0,
			Clarity2012 = 0,
			ColorNoiseReduction = 25,
			ColorNoiseReductionDetail = 50,
			ColorNoiseReductionSmoothness = 50,
			Contrast2012 = 0,
			ConvertToGrayscale = false,
			CropConstrainToWarp = 0,
			Defringe = 0,
			DefringeGreenAmount = 0,
			DefringeGreenHueHi = 60,
			DefringeGreenHueLo = 40,
			DefringePurpleAmount = 0,
			DefringePurpleHueHi = 70,
			DefringePurpleHueLo = 30,
			Dehaze = -3,
			EnableCalibration = true,
			EnableColorAdjustments = true,
			EnableDetail = true,
			EnableEffects = true,
			EnableLensCorrections = true,
			EnableSplitToning = true,
			Exposure2012 = 1,
			GrainAmount = 0,
			GrainFrequency = 45,
			GrainSize = 40,
			GreenHue = 100,
			GreenSaturation = -29,
			Highlights2012 = -61,
			HueAdjustmentAqua = 10,
			HueAdjustmentBlue = -5,
			HueAdjustmentGreen = 10,
			HueAdjustmentMagenta = 20,
			HueAdjustmentOrange = 0,
			HueAdjustmentPurple = 20,
			HueAdjustmentRed = 0,
			HueAdjustmentYellow = 0,
			LensManualDistortionAmount = 0,
			LensProfileEnable = 0,
			LensProfileSetup = "LensDefaults",
			LuminanceAdjustmentAqua = 10,
			LuminanceAdjustmentBlue = -15,
			LuminanceAdjustmentGreen = -5,
			LuminanceAdjustmentMagenta = 20,
			LuminanceAdjustmentOrange = -2,
			LuminanceAdjustmentPurple = 20,
			LuminanceAdjustmentRed = 5,
			LuminanceAdjustmentYellow = 10,
			LuminanceNoiseReductionContrast = 0,
			LuminanceNoiseReductionDetail = 50,
			LuminanceSmoothing = 0,
			ParametricDarks = 0,
			ParametricHighlightSplit = 75,
			ParametricHighlights = 0,
			ParametricLights = 0,
			ParametricMidtoneSplit = 60,
			ParametricShadowSplit = 14,
			ParametricShadows = 0,
			ProcessVersion = "6.7",
			RedHue = 86,
			RedSaturation = 34,
			Saturation = -5,
			SaturationAdjustmentAqua = -50,
			SaturationAdjustmentBlue = -30,
			SaturationAdjustmentGreen = -50,
			SaturationAdjustmentMagenta = -40,
			SaturationAdjustmentOrange = -8,
			SaturationAdjustmentPurple = -50,
			SaturationAdjustmentRed = -30,
			SaturationAdjustmentYellow = -15,
			ShadowTint = 2,
			Shadows2012 = 48,
			SharpenDetail = 31,
			SharpenEdgeMasking = 0,
			SharpenRadius = 1,
			Sharpness = 29,
			SplitToningBalance = 0,
			SplitToningHighlightHue = 53,
			SplitToningHighlightSaturation = 0,
			SplitToningShadowHue = 201,
			SplitToningShadowSaturation = 6,
			ToneCurveName2012 = "Custom",
			ToneCurvePV2012 = {
				54,
				36,
				186,
				187,
				255,
				255,
			},
			ToneCurvePV2012Blue = {
				0,
				0,
				65,
				45,
				119,
				122,
				183,
				195,
				255,
				255,
			},
			ToneCurvePV2012Green = {
				0,
				0,
				255,
				255,
			},
			ToneCurvePV2012Red = {
				0,
				0,
				255,
				255,
			},
			Vibrance = 60,
			VignetteAmount = 0,
			VignetteMidpoint = 50,
			Whites2012 = -50,
		},
		uuid = "7BEA7922-5F72-47E5-90D8-798C70E59E30",
	},
	version = 0,
}
