20 Preset/Ocident style/【1】LRtemplate Lightroom bản cũ/Ocident style 3/Tone (1).lrtemplate
s = {
	id = "781ABA99-2870-4970-9705-E70048C91935",
	internalName = "Socium 3",
	title = "Socium 3",
	type = "Develop",
	value = {
		settings = {
			AutoLateralCA = 0,
			Blacks2012 = 24,
			BlueHue = -29,
			BlueSaturation = -10,
			CameraProfile = "Adobe Standard",
			ChromaticAberrationB = 0,
			ChromaticAberrationR = 0,
			Clarity2012 = 0,
			ColorNoiseReduction = 25,
			ColorNoiseReductionDetail = 50,
			ColorNoiseReductionSmoothness = 50,
			Contrast2012 = -17,
			ConvertToGrayscale = false,
			CropConstrainToWarp = 0,
			Defringe = 0,
			DefringeGreenAmount = 0,
			DefringeGreenHueHi = 60,
			DefringeGreenHueLo = 40,
			DefringePurpleAmount = 0,
			DefringePurpleHueHi = 70,
			DefringePurpleHueLo = 30,
			Dehaze = 0,
			EnableCalibration = true,
			EnableColorAdjustments = true,
			EnableDetail = true,
			EnableEffects = true,
			EnableLensCorrections = true,
			EnableSplitToning = true,
			Exposure2012 = 0.95,
			GrainAmount = 43,
			GrainFrequency = 66,
			GrainSize = 28,
			GreenHue = 57,
			GreenSaturation = -25,
			Highlights2012 = -28,
			HueAdjustmentAqua = 0,
			HueAdjustmentBlue = -10,
			HueAdjustmentGreen = 100,
			HueAdjustmentMagenta = 0,
			HueAdjustmentOrange = -3,
			HueAdjustmentPurple = 0,
			HueAdjustmentRed = -37,
			HueAdjustmentYellow = 10,
			LensManualDistortionAmount = 0,
			LensProfileEnable = 0,
			LensProfileSetup = "LensDefaults",
			LuminanceAdjustmentAqua = 0,
			LuminanceAdjustmentBlue = 16,
			LuminanceAdjustmentGreen = 30,
			LuminanceAdjustmentMagenta = 0,
			LuminanceAdjustmentOrange = -66,
			LuminanceAdjustmentPurple = 0,
			LuminanceAdjustmentRed = -40,
			LuminanceAdjustmentYellow = -17,
			LuminanceNoiseReductionContrast = 0,
			LuminanceNoiseReductionDetail = 50,
			LuminanceSmoothing = 0,
			ParametricDarks = 0,
			ParametricHighlightSplit = 75,
			ParametricHighlights = 0,
			ParametricLights = 0,
			ParametricMidtoneSplit = 50,
			ParametricShadowSplit = 25,
			ParametricShadows = 0,
			ProcessVersion = "6.7",
			RedHue = 34,
			RedSaturation = -17,
			Saturation = -35,
			SaturationAdjustmentAqua = 10,
			SaturationAdjustmentBlue = 25,
			SaturationAdjustmentGreen = -21,
			SaturationAdjustmentMagenta = 0,
			SaturationAdjustmentOrange = 15,
			SaturationAdjustmentPurple = 0,
			SaturationAdjustmentRed = 49,
			SaturationAdjustmentYellow = -55,
			ShadowTint = 10,
			Shadows2012 = -5,
			SharpenDetail = 25,
			SharpenEdgeMasking = 0,
			SharpenRadius = 1,
			Sharpness = 35,
			SplitToningBalance = 0,
			SplitToningHighlightHue = 184,
			SplitToningHighlightSaturation = 17,
			SplitToningShadowHue = 44,
			SplitToningShadowSaturation = 14,
			ToneCurveName2012 = "Custom",
			ToneCurvePV2012 = {
				0,
				0,
				38,
				35,
				108,
				108,
				177,
				163,
				255,
				236,
			},
			ToneCurvePV2012Blue = {
				0,
				0,
				39,
				13,
				87,
				65,
				123,
				124,
				183,
				199,
				255,
				255,
			},
			ToneCurvePV2012Green = {
				0,
				0,
				40,
				14,
				83,
				59,
				123,
				126,
				172,
				185,
				255,
				255,
			},
			ToneCurvePV2012Red = {
				0,
				0,
				40,
				12,
				82,
				55,
				119,
				122,
				186,
				196,
				255,
				255,
			},
			Vibrance = 0,
			VignetteAmount = 0,
			VignetteMidpoint = 50,
			Whites2012 = 7,
		},
		uuid = "DEFD44DF-9B30-4E1A-AC8F-492707612DE7",
	},
	version = 0,
}
