20 Preset/Ocident style/【1】LRtemplate Lightroom bản cũ/Ocident style 3/Tone (15).lrtemplate
s = {
	id = "F0FDD6F1-299F-463F-8439-D9CB97714456",
	internalName = "Socium 2",
	title = "Socium 2",
	type = "Develop",
	value = {
		settings = {
			AutoLateralCA = 0,
			Blacks2012 = 71,
			BlueHue = -51,
			BlueSaturation = 0,
			CameraProfile = "Adobe Standard",
			ChromaticAberrationB = 0,
			ChromaticAberrationR = 0,
			Clarity2012 = 0,
			ColorNoiseReduction = 25,
			ColorNoiseReductionDetail = 50,
			ColorNoiseReductionSmoothness = 50,
			Contrast2012 = 0,
			ConvertToGrayscale = false,
			CropConstrainToWarp = 0,
			Defringe = 0,
			DefringeGreenAmount = 0,
			DefringeGreenHueHi = 60,
			DefringeGreenHueLo = 40,
			DefringePurpleAmount = 0,
			DefringePurpleHueHi = 70,
			DefringePurpleHueLo = 30,
			Dehaze = 10,
			EnableCalibration = true,
			EnableColorAdjustments = true,
			EnableDetail = true,
			EnableEffects = true,
			EnableLensCorrections = true,
			EnableSplitToning = true,
			Exposure2012 = -0.45,
			GrainAmount = 37,
			GrainFrequency = 65,
			GrainSize = 36,
			GreenHue = 100,
			GreenSaturation = 0,
			Highlights2012 = 29,
			HueAdjustmentAqua = 33,
			HueAdjustmentBlue = -27,
			HueAdjustmentGreen = -100,
			HueAdjustmentMagenta = 0,
			HueAdjustmentOrange = -15,
			HueAdjustmentPurple = 0,
			HueAdjustmentRed = -25,
			HueAdjustmentYellow = -13,
			LensManualDistortionAmount = 0,
			LensProfileEnable = 0,
			LensProfileSetup = "LensDefaults",
			LuminanceAdjustmentAqua = 0,
			LuminanceAdjustmentBlue = 20,
			LuminanceAdjustmentGreen = -12,
			LuminanceAdjustmentMagenta = 0,
			LuminanceAdjustmentOrange = -28,
			LuminanceAdjustmentPurple = 0,
			LuminanceAdjustmentRed = -15,
			LuminanceAdjustmentYellow = 68,
			LuminanceNoiseReductionContrast = 0,
			LuminanceNoiseReductionDetail = 50,
			LuminanceSmoothing = 0,
			ParametricDarks = 0,
			ParametricHighlightSplit = 75,
			ParametricHighlights = 0,
			ParametricLights = 0,
			ParametricMidtoneSplit = 50,
			ParametricShadowSplit = 25,
			ParametricShadows = 0,
			ProcessVersion = "6.7",
			RedHue = 63,
			RedSaturation = 19,
			Saturation = -37,
			SaturationAdjustmentAqua = -46,
			SaturationAdjustmentBlue = -76,
			SaturationAdjustmentGreen = -30,
			SaturationAdjustmentMagenta = 23,
			SaturationAdjustmentOrange = 19,
			SaturationAdjustmentPurple = 74,
			SaturationAdjustmentRed = 9,
			SaturationAdjustmentYellow = 27,
			ShadowTint = -45,
			Shadows2012 = 49,
			SharpenDetail = 11,
			SharpenEdgeMasking = 0,
			SharpenRadius = 0.8,
			Sharpness = 34,
			SplitToningBalance = 0,
			SplitToningHighlightHue = 189,
			SplitToningHighlightSaturation = 3,
			SplitToningShadowHue = 38,
			SplitToningShadowSaturation = 12,
			ToneCurveName2012 = "Custom",
			ToneCurvePV2012 = {
				0,
				5,
				51,
				66,
				107,
				107,
				177,
				163,
				254,
				255,
			},
			ToneCurvePV2012Blue = {
				0,
				0,
				39,
				13,
				87,
				65,
				123,
				124,
				183,
				199,
				255,
				255,
			},
			ToneCurvePV2012Green = {
				0,
				0,
				40,
				14,
				83,
				59,
				123,
				126,
				172,
				185,
				255,
				255,
			},
			ToneCurvePV2012Red = {
				0,
				0,
				48,
				15,
				85,
				61,
				124,
				125,
				186,
				196,
				255,
				255,
			},
			Vibrance = 0,
			VignetteAmount = 43,
			VignetteMidpoint = 50,
			Whites2012 = 33,
		},
		uuid = "5947D012-E6AC-4F91-8843-F1A42D9C630A",
	},
	version = 0,
}
