20 Preset/Car Style/【2】XMP cho Photoshop - Lightroom CC/Tone 26.xmp
<x:xmpmeta xmlns:x="adobe:ns:meta/" x:xmptk="Adobe XMP Core 5.6-c140 79.160451, 2017/05/06-01:08:21        ">
 <rdf:RDF xmlns:rdf="http://www.w3.org/1999/02/22-rdf-syntax-ns#">
  <rdf:Description rdf:about=""
    xmlns:crs="http://ns.adobe.com/camera-raw-settings/1.0/"
   crs:PresetType="Normal"
   crs:Cluster=""
   crs:UUID="8FD2BC68706CA94AA5550BEA53C19279"
   crs:SupportsAmount="False"
   crs:SupportsColor="True"
   crs:SupportsMonochrome="True"
   crs:SupportsHighDynamicRange="True"
   crs:SupportsNormalDynamicRange="True"
   crs:SupportsSceneReferred="True"
   crs:SupportsOutputReferred="True"
   crs:CameraModelRestriction=""
   crs:Copyright=""
   crs:ContactInfo=""
   crs:Version="12.0"
   crs:ProcessVersion="10.0"
   crs:WhiteBalance="As Shot"
   crs:Saturation="-46"
   crs:Sharpness="17"
   crs:LuminanceSmoothing="23"
   crs:ColorNoiseReduction="25"
   crs:VignetteAmount="0"
   crs:ShadowTint="0"
   crs:RedHue="0"
   crs:RedSaturation="0"
   crs:GreenHue="0"
   crs:GreenSaturation="0"
   crs:BlueHue="0"
   crs:BlueSaturation="0"
   crs:Vibrance="+46"
   crs:HueAdjustmentRed="+5"
   crs:HueAdjustmentOrange="+10"
   crs:HueAdjustmentYellow="+49"
   crs:HueAdjustmentGreen="+41"
   crs:HueAdjustmentAqua="+20"
   crs:HueAdjustmentBlue="-9"
   crs:HueAdjustmentPurple="0"
   crs:HueAdjustmentMagenta="0"
   crs:SaturationAdjustmentRed="+28"
   crs:SaturationAdjustmentOrange="-14"
   crs:SaturationAdjustmentYellow="-37"
   crs:SaturationAdjustmentGreen="+56"
   crs:SaturationAdjustmentAqua="-35"
   crs:SaturationAdjustmentBlue="-25"
   crs:SaturationAdjustmentPurple="-27"
   crs:SaturationAdjustmentMagenta="-24"
   crs:LuminanceAdjustmentRed="+5"
   crs:LuminanceAdjustmentOrange="0"
   crs:LuminanceAdjustmentYellow="+10"
   crs:LuminanceAdjustmentGreen="0"
   crs:LuminanceAdjustmentAqua="0"
   crs:LuminanceAdjustmentBlue="-25"
   crs:LuminanceAdjustmentPurple="-15"
   crs:LuminanceAdjustmentMagenta="0"
   crs:SplitToningShadowHue="122"
   crs:SplitToningShadowSaturation="17"
   crs:SplitToningHighlightHue="351"
   crs:SplitToningHighlightSaturation="3"
   crs:SplitToningBalance="+98"
   crs:ParametricShadows="0"
   crs:ParametricDarks="0"
   crs:ParametricLights="0"
   crs:ParametricHighlights="0"
   crs:ParametricShadowSplit="20"
   crs:ParametricMidtoneSplit="48"
   crs:ParametricHighlightSplit="75"
   crs:SharpenRadius="+1.3"
   crs:SharpenDetail="30"
   crs:SharpenEdgeMasking="0"
   crs:PostCropVignetteAmount="-23"
   crs:PostCropVignetteMidpoint="40"
   crs:PostCropVignetteFeather="43"
   crs:PostCropVignetteRoundness="-18"
   crs:PostCropVignetteStyle="1"
   crs:PostCropVignetteHighlightContrast="0"
   crs:GrainAmount="18"
   crs:GrainSize="35"
   crs:GrainFrequency="68"
   crs:LuminanceNoiseReductionDetail="50"
   crs:ColorNoiseReductionDetail="50"
   crs:LuminanceNoiseReductionContrast="0"
   crs:ColorNoiseReductionSmoothness="50"
   crs:LensManualDistortionAmount="0"
   crs:AutoLateralCA="0"
   crs:Exposure2012="0.00"
   crs:Contrast2012="-13"
   crs:Highlights2012="-84"
   crs:Shadows2012="+74"
   crs:Whites2012="-49"
   crs:Blacks2012="-13"
   crs:Clarity2012="+11"
   crs:DefringePurpleAmount="0"
   crs:DefringePurpleHueLo="30"
   crs:DefringePurpleHueHi="70"
   crs:DefringeGreenAmount="0"
   crs:DefringeGreenHueLo="40"
   crs:DefringeGreenHueHi="60"
   crs:Dehaze="-5"
   crs:ConvertToGrayscale="False"
   crs:OverrideLookVignette="True"
   crs:ToneCurveName2012="Custom"
   crs:CameraProfile="Adobe Standard"
   crs:HasSettings="True">
   <crs:Name>
    <rdf:Alt>
     <rdf:li xml:lang="x-default">Tone 26</rdf:li>
    </rdf:Alt>
   </crs:Name>
   <crs:ShortName>
    <rdf:Alt>
     <rdf:li xml:lang="x-default"/>
    </rdf:Alt>
   </crs:ShortName>
   <crs:SortName>
    <rdf:Alt>
     <rdf:li xml:lang="x-default"/>
    </rdf:Alt>
   </crs:SortName>
   <crs:Group>
    <rdf:Alt>
     <rdf:li xml:lang="x-default">Car Style</rdf:li>
    </rdf:Alt>
   </crs:Group>
   <crs:Description>
    <rdf:Alt>
     <rdf:li xml:lang="x-default"/>
    </rdf:Alt>
   </crs:Description>
   <crs:ToneCurvePV2012>
    <rdf:Seq>
     <rdf:li>0, 44</rdf:li>
     <rdf:li>43, 59</rdf:li>
     <rdf:li>90, 92</rdf:li>
     <rdf:li>151, 157</rdf:li>
     <rdf:li>211, 192</rdf:li>
     <rdf:li>253, 216</rdf:li>
    </rdf:Seq>
   </crs:ToneCurvePV2012>
   <crs:ToneCurvePV2012Red>
    <rdf:Seq>
     <rdf:li>0, 0</rdf:li>
     <rdf:li>40, 9</rdf:li>
     <rdf:li>76, 46</rdf:li>
     <rdf:li>126, 122</rdf:li>
     <rdf:li>182, 204</rdf:li>
     <rdf:li>255, 255</rdf:li>
    </rdf:Seq>
   </crs:ToneCurvePV2012Red>
   <crs:ToneCurvePV2012Green>
    <rdf:Seq>
     <rdf:li>0, 0</rdf:li>
     <rdf:li>36, 10</rdf:li>
     <rdf:li>76, 46</rdf:li>
     <rdf:li>124, 122</rdf:li>
     <rdf:li>180, 202</rdf:li>
     <rdf:li>255, 255</rdf:li>
    </rdf:Seq>
   </crs:ToneCurvePV2012Green>
   <crs:ToneCurvePV2012Blue>
    <rdf:Seq>
     <rdf:li>0, 0</rdf:li>
     <rdf:li>36, 10</rdf:li>
     <rdf:li>76, 46</rdf:li>
     <rdf:li>122, 118</rdf:li>
     <rdf:li>183, 206</rdf:li>
     <rdf:li>222, 235</rdf:li>
     <rdf:li>255, 255</rdf:li>
    </rdf:Seq>
   </crs:ToneCurvePV2012Blue>
   <crs:Look
    crs:Name=""/>
  </rdf:Description>
 </rdf:RDF>
</x:xmpmeta>
