20 Preset/Natural Wedding/【3】LUT video cho PR-AE-FCPX/Lut Tone (8).cube
# Created by Adobe Lightroom plugin Export LUT (1.24.0)
# www.johnrellis.com/lightroom/exportlut.htm
# Preset: 清新婚礼-素材江湖08
# Color profile: C:\Program Files (x86)\Common Files\Adobe\Color\Profiles\Recommended\VideoHD.icc
LUT_3D_SIZE 32
DOMAIN_MIN 0.0 0.0 0.0
DOMAIN_MAX 1.0 1.0 1.0
0.000000 0.091127 0.084382
0.000000 0.090791 0.084504
0.000000 0.090669 0.083894
0.000000 0.090364 0.082673
0.000000 0.089601 0.080842
0.000000 0.087800 0.078370
0.000000 0.084993 0.074189
0.035523 0.080629 0.069398
0.118318 0.069245 0.063600
0.204623 0.023255 0.056336
0.322881 0.000000 0.044923
0.443671 0.000000 0.025696
0.544762 0.000000 0.003540
0.629511 0.000000 0.000000
0.705318 0.000000 0.000000
0.773098 0.000000 0.000000
0.832334 0.000000 0.000000
0.882628 0.000000 0.000000
0.922515 0.000000 0.000000
0.954040 0.000000 0.000000
0.979736 0.000000 0.000000
1.000000 0.000000 0.000000
1.000000 0.000000 0.000000
1.000000 0.000000 0.000000
1.000000 0.000000 0.057160
1.000000 0.000000 0.139712
1.000000 0.000000 0.191989
1.000000 0.000000 0.240024
1.000000 0.164126 0.286473
1.000000 0.264714 0.332647
1.000000 0.342382 0.380011
1.000000 0.409369 0.426917
0.000000 0.090333 0.083864
0.000000 0.090333 0.084596
0.000000 0.090211 0.083986
0.000000 0.089906 0.082765
0.000000 0.088685 0.081025
0.000000 0.087037 0.078462
0.000000 0.085145 0.073060
0.027588 0.081209 0.069429
0.112947 0.071473 0.064820
0.195285 0.031769 0.056641
0.310063 0.000000 0.045747
0.431525 0.000000 0.028199
0.533959 0.000000 0.005005
0.619745 0.000000 0.000000
0.695491 0.000000 0.000000
0.764767 0.000000 0.000000
0.825437 0.000000 0.000000
0.876860 0.000000 0.000000
0.917784 0.000000 0.000000
0.950195 0.000000 0.000000
0.976349 0.000000 0.000000
0.998993 0.000000 0.000000
1.000000 0.000000 0.000000
1.000000 0.000000 0.000000
1.000000 0.000000 0.018158
1.000000 0.000000 0.124666
1.000000 0.000000 0.178408
1.000000 0.000000 0.227085
1.000000 0.124514 0.274235
1.000000 0.243809 0.321752
1.000000 0.325414 0.369238
1.000000 0.395605 0.416999
0.000000 0.087678 0.081575
0.000000 0.087800 0.081575
0.000000 0.088045 0.083040
0.000000 0.087404 0.081819
0.000000 0.086122 0.079988
0.000000 0.084901 0.076844
0.000000 0.084382 0.073213
0.023194 0.082246 0.068147
0.107301 0.077119 0.063294
0.186130 0.045136 0.056184
0.298589 0.000000 0.045228
0.420844 0.000000 0.025971
0.524346 0.000000 0.003082
0.610742 0.000000 0.000000
0.687251 0.000000 0.000000
0.756893 0.000000 0.000000
0.818235 0.000000 0.000000
0.871000 0.000000 0.000000
0.913176 0.000000 0.000000
0.946624 0.000000 0.000000
0.973419 0.000000 0.000000
0.996887 0.000000 0.000000
1.000000 0.000000 0.000000
1.000000 0.000000 0.000000
1.000000 0.000000 0.000000
1.000000 0.000000 0.116182
1.000000 0.000000 0.171817
1.000000 0.000000 0.221103
1.000000 0.115175 0.268345
1.000000 0.237827 0.316014
1.000000 0.319646 0.363714
1.000000 0.389929 0.411658
0.000000 0.080903 0.076051
0.000000 0.080903 0.076051
0.000000 0.081056 0.076051
0.000000 0.080842 0.079805
0.000000 0.080812 0.078492
0.000000 0.081727 0.074037
0.000000 0.083009 0.071260
0.016846 0.083436 0.066896
0.101808 0.083040 0.061341
0.177554 0.063203 0.053773
0.287083 0.000000 0.041871
0.407355 0.000000 0.022217
0.512902 0.000000 0.000000
0.599756 0.000000 0.000000
0.676112 0.000000 0.000000
0.745876 0.000000 0.000000
0.807828 0.000000 0.000000
0.861357 0.000000 0.000000
0.904997 0.000000 0.000000
0.939544 0.000000 0.000000
0.967315 0.000000 0.000000
0.992187 0.000000 0.000000
1.000000 0.000000 0.000000
1.000000 0.000000 0.000000
1.000000 0.000000 0.000000
1.000000 0.000000 0.107179
1.000000 0.000000 0.166964
1.000000 0.000000 0.218509
1.000000 0.136934 0.267094
1.000000 0.245182 0.314519
1.000000 0.323522 0.362371
1.000000 0.390570 0.409003
0.000000 0.073091 0.066102
0.000000 0.073091 0.066102
0.000000 0.073304 0.066102
0.000000 0.073518 0.068391
0.000000 0.074189 0.072969
0.000000 0.078676 0.072358
0.000000 0.081636 0.068147
0.010346 0.085389 0.063233
0.092439 0.088777 0.058259
0.161807 0.085847 0.050935
0.264683 0.040497 0.037659
0.386084 0.000000 0.016602
0.493507 0.000000 0.000000
0.582696 0.000000 0.000000
0.660670 0.000000 0.000000
0.731411 0.000000 0.000000
0.796048 0.000000 0.000000
0.851713 0.000000 0.000000
0.897337 0.000000 0.000000
0.933318 0.000000 0.000000
0.962005 0.000000 0.000000
0.988525 0.000000 0.000000
1.000000 0.000000 0.000000
1.000000 0.000000 0.000000
1.000000 0.000000 0.000000
1.000000 0.000000 0.102693
1.000000 0.000000 0.165011
1.000000 0.000000 0.216983
1.000000 0.166354 0.265415
1.000000 0.258061 0.313115
1.000000 0.330846 0.360662
1.000000 0.394446 0.406836
0.000000 0.075410 0.058045
0.000000 0.075410 0.058045
0.000000 0.075410 0.058045
0.000000 0.075410 0.058045
0.000000 0.075196 0.060304
0.000000 0.075196 0.064851
0.000000 0.081971 0.063447
0.006134 0.088350 0.060365
0.083040 0.093385 0.054719
0.149722 0.098482 0.045594
0.248905 0.094545 0.030396
0.368811 0.039887 0.004242
0.478065 0.000000 0.000000
0.568902 0.000000 0.000000
0.647395 0.000000 0.000000
0.720058 0.000000 0.000000
0.785885 0.000000 0.000000
0.843137 0.000000 0.000000
0.890501 0.000000 0.000000
0.927550 0.000000 0.000000
0.958099 0.000000 0.000000
0.985443 0.000000 0.000000
1.000000 0.000000 0.000000
1.000000 0.000000 0.000000
1.000000 0.000000 0.121157
1.000000 0.000000 0.181521
1.000000 0.160800 0.231601
1.000000 0.238376 0.278386
1.000000 0.301946 0.322850
1.000000 0.359808 0.367102
1.000000 0.412848 0.409888
1.000000 0.461555 0.451362
0.000000 0.090608 0.054902
0.000000 0.091035 0.054749
0.000000 0.090608 0.053773
0.000000 0.090883 0.053620
0.000000 0.090639 0.053590
0.000000 0.089326 0.053834
0.000000 0.089631 0.054627
0.032990 0.096681 0.051057
0.096223 0.104921 0.045991
0.155245 0.115206 0.035096
0.260624 0.125551 0.011933
0.381476 0.128420 0.000000
0.487709 0.130007 0.000000
0.575647 0.130098 0.000000
0.653101 0.118868 0.000000
0.724056 0.088197 0.000000
0.789029 0.000000 0.000000
0.845151 0.000000 0.000000
0.891356 0.000000 0.000000
0.928313 0.000000 0.000000
0.962951 0.000000 0.000000
0.990845 0.000000 0.000000
1.000000 0.000000 0.000000
1.000000 0.000000 0.000000
1.000000 0.000000 0.102327
1.000000 0.132937 0.171389
1.000000 0.203799 0.223880
1.000000 0.261997 0.271427
1.000000 0.315648 0.316228
1.000000 0.366827 0.359869
1.000000 0.415991 0.402502
1.000000 0.462623 0.444404
0.000000 0.112917 0.058534
0.000000 0.113252 0.058381
0.000000 0.113252 0.054963
0.000000 0.113588 0.054627
0.000000 0.113497 0.055543
0.000000 0.112184 0.052369
0.000000 0.109407 0.047486
0.033692 0.108400 0.044892
0.106630 0.122621 0.035401
0.167391 0.136660 0.021363
0.248020 0.151461 0.000000
0.353887 0.169253 0.000000
0.461738 0.187259 0.000000
0.551415 0.201266 0.000000
0.629847 0.207614 0.000000
0.702113 0.203861 0.000000
0.768643 0.192294 0.000000
0.827237 0.173861 0.000000
0.876402 0.149783 0.000000
0.919036 0.122988 0.000000
0.954314 0.098177 0.000000
0.982055 0.081086 0.000000
1.000000 0.095399 0.000000
1.000000 0.126467 0.000000
1.000000 0.166995 0.090852
1.000000 0.208835 0.166232
1.000000 0.250553 0.219821
1.000000 0.293675 0.267491
1.000000 0.338201 0.313146
1.000000 0.383001 0.356909
1.000000 0.427649 0.399939
1.000000 0.471138 0.441871
0.000000 0.160464 0.064973
0.000000 0.160861 0.062409
0.000000 0.161288 0.057557
0.000000 0.162234 0.055482
0.000000 0.163455 0.055116
0.000000 0.165194 0.056397
0.000000 0.159640 0.043946
0.024384 0.152255 0.032136
0.108003 0.149233 0.022827
0.187839 0.172366 0.000000
0.272221 0.191104 0.000000
0.360540 0.209171 0.000000
0.443488 0.228977 0.000000
0.529320 0.253300 0.000000
0.608331 0.267704 0.000000
0.681209 0.272740 0.000000
0.749233 0.270268 0.000000
0.809934 0.262242 0.000000
0.864958 0.252293 0.000000
0.909850 0.241276 0.000000
0.944762 0.230106 0.000000
0.972656 0.222934 0.000000
0.995178 0.222660 0.000000
1.000000 0.230503 0.000000
1.000000 0.247318 0.084382
1.000000 0.270298 0.165499
1.000000 0.299107 0.221012
1.000000 0.331548 0.268894
1.000000 0.367987 0.314641
1.000000 0.406287 0.358404
1.000000 0.445991 0.401038
1.000000 0.485206 0.442573
0.000000 0.241184 0.074769
0.000000 0.241184 0.069093
0.000000 0.241733 0.056977
0.000000 0.243107 0.046876
0.000000 0.245518 0.047303
0.000000 0.248325 0.049775
0.000000 0.248753 0.042084
0.000000 0.237247 0.003601
0.123842 0.222873 0.000000
0.193301 0.214908 0.000000
0.293431 0.240757 0.000000
0.377600 0.259342 0.000000
0.452491 0.278355 0.000000
0.518181 0.295171 0.000000
0.587427 0.313970 0.000000
0.658686 0.327489 0.000000
0.728695 0.331151 0.000000
0.797330 0.331762 0.000000
0.854856 0.326818 0.000000
0.899413 0.318242 0.000000
0.934112 0.309117 0.000000
0.961852 0.301427 0.000000
0.984405 0.297490 0.000000
1.000000 0.298802 0.000000
1.000000 0.306096 0.050904
1.000000 0.319554 0.158602
1.000000 0.339208 0.216342
1.000000 0.364416 0.266056
1.000000 0.394476 0.312596
1.000000 0.428107 0.357183
1.000000 0.464027 0.401068
1.000000 0.500511 0.443397
0.000000 0.334966 0.106722
0.000000 0.335119 0.105257
0.000000 0.336950 0.096284
0.000000 0.339208 0.078981
0.000000 0.342504 0.083223
0.000000 0.347021 0.090272
0.000000 0.352575 0.096590
0.000000 0.346899 0.040528
0.141085 0.330755 0.000000
0.232670 0.311315 0.000000
0.304997 0.298711 0.000000
0.396338 0.322881 0.000000
0.466011 0.339422 0.000000
0.528069 0.353002 0.000000
0.585443 0.363561 0.000000
0.647883 0.375799 0.000000
0.717800 0.387579 0.000000
0.783658 0.391241 0.000000
0.840635 0.388067 0.000000
0.885344 0.380957 0.000000
0.920806 0.372015 0.000000
0.949310 0.364172 0.000000
0.972808 0.359167 0.000000
0.992248 0.357641 0.000000
1.000000 0.360815 0.057588
1.000000 0.369696 0.164034
1.000000 0.383795 0.221561
1.000000 0.403510 0.271366
1.000000 0.428168 0.318120
1.000000 0.456764 0.362676
1.000000 0.487892 0.405829
1.000000 0.520470 0.448127
0.000000 0.439094 0.169924
0.000000 0.439704 0.168368
0.000000 0.440833 0.161135
0.000000 0.443549 0.147860
0.000000 0.447211 0.151247
0.000000 0.451728 0.157870
0.000000 0.457435 0.167086
0.000000 0.464057 0.177829
0.146365 0.450599 0.117250
0.259678 0.431800 0.000000
0.335302 0.409033 0.000000
0.402625 0.393988 0.000000
0.512291 0.448127 0.000000
0.578698 0.458076 0.000000
0.641138 0.462898 0.000000
0.699214 0.464729 0.000000
0.751766 0.463996 0.000000
0.806546 0.464576 0.000000
0.853880 0.461646 0.000000
0.893919 0.453895 0.000000
0.925719 0.445533 0.000000
0.951446 0.438270 0.000000
0.972564 0.433112 0.000000
0.990051 0.432197 0.068330
1.000000 0.434668 0.167544
1.000000 0.441260 0.223758
1.000000 0.451972 0.271244
1.000000 0.466926 0.314275
1.000000 0.485847 0.355413
1.000000 0.507897 0.395422
1.000000 0.532525 0.434577
1.000000 0.558831 0.473365
0.000000 0.550622 0.264591
0.000000 0.550530 0.263401
0.000000 0.550835 0.259007
0.000000 0.552361 0.250736
0.000000 0.553735 0.249607
0.000000 0.555718 0.254826
0.000000 0.559289 0.262455
0.000000 0.563775 0.272770
0.177462 0.566796 0.269993
0.274083 0.557153 0.215549
0.356970 0.545830 0.134432
0.433082 0.531212 0.000000
0.508293 0.520378 0.000000
0.583886 0.525902 0.000000
0.647974 0.526635 0.000000
0.704311 0.523125 0.000000
0.753811 0.517967 0.000000
0.796994 0.511467 0.000000
0.835782 0.504936 0.000000
0.874174 0.498634 0.000000
0.906523 0.490761 0.000000
0.933928 0.482856 0.000000
0.956512 0.476814 0.000000
0.975494 0.473365 0.057221
0.991516 0.473487 0.168795
1.000000 0.477424 0.226047
1.000000 0.485481 0.274479
1.000000 0.497353 0.318059
1.000000 0.513146 0.359686
1.000000 0.532586 0.400458
1.000000 0.554101 0.439460
1.000000 0.577691 0.478309
0.000000 0.624353 0.346899
0.000000 0.624201 0.346227
0.000000 0.624628 0.344152
0.000000 0.625635 0.338811
0.000000 0.627436 0.336461
0.000000 0.629541 0.342138
0.000000 0.632959 0.350256
0.060426 0.637751 0.361028
0.243595 0.643885 0.375128
0.308751 0.641230 0.353582
0.367407 0.631861 0.303166
0.434302 0.620356 0.237552
0.504936 0.605219 0.130648
0.579980 0.590814 0.000000
0.648920 0.585168 0.000000
0.705196 0.578668 0.000000
0.752743 0.569757 0.000000
0.793088 0.560235 0.000000
0.827817 0.550164 0.000000
0.857420 0.540459 0.000000
0.888457 0.532006 0.000000
0.916655 0.524010 0.000000
0.940673 0.517723 0.000000
0.960906 0.513420 0.091493
0.978027 0.511894 0.178744
0.992584 0.514092 0.235752
1.000000 0.519585 0.283116
1.000000 0.528985 0.326665
1.000000 0.542168 0.368353
1.000000 0.558495 0.408423
1.000000 0.577264 0.447150
1.000000 0.598352 0.486122
0.000000 0.683589 0.427649
0.000000 0.683589 0.427070
0.000000 0.683650 0.424964
0.000000 0.684077 0.421210
0.000000 0.684840 0.417182
0.000000 0.685664 0.420539
0.079805 0.687465 0.426490
0.226078 0.690211 0.435218
0.310185 0.694118 0.446143
0.382879 0.698787 0.458656
0.413519 0.691981 0.422736
0.457649 0.683589 0.378027
0.512047 0.672450 0.319921
0.574670 0.657374 0.237491
0.644099 0.641321 0.109102
0.702541 0.629419 0.000000
0.749844 0.619226 0.000000
0.788266 0.607202 0.000000
0.821256 0.594995 0.000000
0.849821 0.583459 0.000000
0.874937 0.572992 0.000000
0.899290 0.563958 0.000000
0.924559 0.555993 0.000000
0.946014 0.550530 0.116182
0.964080 0.547967 0.193973
0.979644 0.548486 0.247898
0.993194 0.552514 0.295293
1.000000 0.560418 0.339391
1.000000 0.571710 0.380774
1.000000 0.586236 0.421149
1.000000 0.603540 0.461067
1.000000 0.623041 0.500664
0.098054 0.723201 0.491005
0.102235 0.723384 0.491005
0.110506 0.723720 0.489876
0.128542 0.724239 0.487953
0.152712 0.725277 0.485054
0.214847 0.726192 0.488014
0.276280 0.727657 0.494179
0.335515 0.729549 0.502403
0.394049 0.731899 0.512596
0.450599 0.734432 0.524804
0.489174 0.734157 0.521202
0.509270 0.728145 0.486519
0.540307 0.719783 0.442145
0.582635 0.708614 0.386755
0.633967 0.693721 0.312779
0.694148 0.677058 0.222385
0.742123 0.661646 0.191531
0.780667 0.649409 0.185092
0.812497 0.636408 0.179690
0.840482 0.623987 0.176364
0.865446 0.612787 0.175601
0.887999 0.602899 0.178378
0.908293 0.594324 0.183749
0.930388 0.587152 0.186984
0.950286 0.582391 0.215213
0.966644 0.582391 0.267643
0.980957 0.585443 0.313573
0.993469 0.591760 0.356298
1.000000 0.601038 0.396643
1.000000 0.613306 0.435981
1.000000 0.627802 0.474342
1.000000 0.644404 0.512535
0.307713 0.749020 0.545373
0.308568 0.749050 0.545098
0.311009 0.749203 0.544640
0.316411 0.749660 0.543511
0.324773 0.750454 0.541833
0.347326 0.751156 0.543481
0.382391 0.751888 0.548943
0.421698 0.752773 0.556085
0.462898 0.753902 0.564782
0.505119 0.755306 0.575097
0.547814 0.756802 0.587152
0.563684 0.754269 0.568902
0.577783 0.749111 0.534966
0.601709 0.741878 0.492897
0.636133 0.732113 0.440467
0.680598 0.719142 0.374304
0.733547 0.704097 0.299565
0.772396 0.687648 0.274601
0.804532 0.675196 0.269566
0.831510 0.662348 0.264897
0.855894 0.650843 0.262943
0.878111 0.640375 0.262791
0.898192 0.631281 0.264408
0.916442 0.623590 0.268162
0.934630 0.617273 0.272679
0.953521 0.613489 0.288060
0.968566 0.615839 0.333196
0.981842 0.620905 0.374578
0.993347 0.628901 0.414374
1.000000 0.639307 0.452583
1.000000 0.652033 0.490425
1.000000 0.666835 0.528557
0.426917 0.767330 0.597192
0.427924 0.767514 0.597375
0.482307 0.775143 0.623713
0.485634 0.775479 0.623377
0.490578 0.775937 0.622766
0.500420 0.776364 0.623346
0.519341 0.776486 0.627497
0.542046 0.776761 0.632959
0.567742 0.777188 0.639887
0.595636 0.777737 0.648188
0.623651 0.778500 0.657099
0.648707 0.778897 0.663508
0.649561 0.775662 0.638148
0.655787 0.771145 0.605066
0.670314 0.765011 0.564446
0.694881 0.756680 0.514824
0.729976 0.745541 0.453468
0.773526 0.731960 0.388952
0.803159 0.715480 0.365148
0.828611 0.703212 0.358556
0.850858 0.691157 0.352819
0.871397 0.680446 0.349279
0.890410 0.670802 0.347570
0.907897 0.662409 0.347448
0.924163 0.655146 0.348058
0.939513 0.649256 0.350134
0.956664 0.645899 0.359197
0.970367 0.649226 0.396979
0.982574 0.655116 0.433570
0.993225 0.663813 0.470375
1.000000 0.674769 0.507286
1.000000 0.687739 0.544823
0.528008 0.782071 0.649500
0.532219 0.782650 0.651667
0.537652 0.783352 0.653864
0.543664 0.784054 0.655695
0.550408 0.784787 0.656977
0.556878 0.785428 0.657374
0.571069 0.785550 0.660945
0.587579 0.785702 0.665095
0.606531 0.786007 0.670375
0.627314 0.786374 0.676631
0.649104 0.786954 0.683528
0.671077 0.787625 0.690944
0.682429 0.786801 0.686397
0.683497 0.783658 0.663691
0.688746 0.779568 0.633753
0.701015 0.774075 0.595422
0.722377 0.766873 0.548882
0.753689 0.757443 0.492622
0.792813 0.745693 0.435859
0.818906 0.730922 0.414191
0.841215 0.720211 0.409705
0.861265 0.710018 0.405859
0.879942 0.700740 0.402747
0.897246 0.692439 0.401099
0.913573 0.685084 0.400305
0.928985 0.678981 0.400763
0.943755 0.674342 0.402960
0.958465 0.672480 0.413458
0.971344 0.677394 0.449378
0.982727 0.684779 0.485451
0.992706 0.694362 0.521752
1.000000 0.705898 0.558923
0.584985 0.790768 0.681910
0.588342 0.791257 0.683711
0.592828 0.791928 0.685695
0.597467 0.792569 0.687282
0.602625 0.793210 0.688563
0.607599 0.793820 0.689052
0.616602 0.794064 0.691096
0.628779 0.794217 0.694331
0.642878 0.794491 0.698390
0.658381 0.794888 0.702937
0.675105 0.795407 0.708217
0.692531 0.796048 0.713954
0.709926 0.796750 0.719814
0.712734 0.794827 0.708125
0.714199 0.791684 0.688106
0.719173 0.787839 0.662226
0.729580 0.782925 0.628107
0.747951 0.776638 0.584619
0.775448 0.768643 0.533165
0.809995 0.758480 0.481819
0.832670 0.745205 0.461311
0.852232 0.735866 0.457343
0.870390 0.727230 0.453986
0.887388 0.719417 0.451759
0.903502 0.712337 0.450080
0.918914 0.706355 0.449042
0.933776 0.701503 0.449470
0.948150 0.698085 0.451728
0.960388 0.698238 0.466621
0.972412 0.704494 0.501793
0.983062 0.712886 0.537438
0.992309 0.723110 0.573846
0.630976 0.799039 0.709529
0.633448 0.799435 0.710933
0.636408 0.799985 0.712276
0.639948 0.800534 0.713588
0.643580 0.801144 0.714443
0.647303 0.801633 0.714870
0.653254 0.802060 0.715999
0.662440 0.802243 0.718532
0.673182 0.802579 0.721645
0.685389 0.802976 0.725307
0.698573 0.803555 0.729397
0.712490 0.804227 0.733913
0.726772 0.804990 0.738613
0.738521 0.805295 0.740597
0.738613 0.802670 0.726955
0.740688 0.799619 0.709804
0.745937 0.796048 0.688228
0.755703 0.791714 0.659968
0.771939 0.786496 0.623529
0.796231 0.780056 0.578027
0.826719 0.771817 0.533654
0.846983 0.760800 0.515709
0.864225 0.753475 0.513542
0.880858 0.746944 0.511711
0.896727 0.741176 0.510796
0.911894 0.736202 0.510246
0.926635 0.732113 0.510399
0.940795 0.729305 0.512566
0.954559 0.727962 0.516838
0.965362 0.730678 0.537072
0.974914 0.738338 0.572992
0.984497 0.747433 0.607935
0.679042 0.809751 0.739956
0.679866 0.809964 0.740414
0.680842 0.810178 0.740749
0.682185 0.810422 0.740963
0.683864 0.810727 0.740902
0.685939 0.811032 0.740810
0.689204 0.811460 0.740963
0.696010 0.811704 0.742824
0.704250 0.812070 0.745144
0.713771 0.812589 0.748043
0.724147 0.813199 0.751278
0.735348 0.813993 0.754849
0.746944 0.814817 0.758541
0.758816 0.815702 0.762325
0.764401 0.814847 0.758816
0.765164 0.812161 0.747066
0.767514 0.809049 0.732448
0.772305 0.805417 0.714107
0.780667 0.801266 0.690791
0.794034 0.796353 0.660334
0.814176 0.790463 0.620020
0.840146 0.783200 0.578759
0.858000 0.773495 0.559838
0.873289 0.767025 0.555962
0.888609 0.761624 0.553338
0.903563 0.757046 0.552209
0.918120 0.753323 0.551781
0.932189 0.750698 0.553277
0.945922 0.749264 0.556664
0.959258 0.749172 0.562066
0.968383 0.753841 0.588464
0.976135 0.762020 0.624445
0.706538 0.818021 0.758358
0.707149 0.818204 0.758724
0.707973 0.818418 0.758968
0.708980 0.818692 0.759121
0.710292 0.818997 0.759121
0.711940 0.819333 0.759030
0.714046 0.819760 0.758907
0.719387 0.820096 0.760250
0.726040 0.820493 0.762112
0.733822 0.821042 0.764401
0.742428 0.821714 0.767056
0.751797 0.822507 0.769924
0.761593 0.823331 0.772976
0.771908 0.824277 0.776211
0.782528 0.825284 0.779599
0.784237 0.823301 0.772244
0.785916 0.820645 0.761990
0.788907 0.817624 0.749447
0.793942 0.814176 0.733944
0.801724 0.810239 0.714443
0.813413 0.805722 0.689631
0.830381 0.800381 0.656672
0.852689 0.794125 0.621118
0.868864 0.786099 0.603174
0.881437 0.778714 0.591241
0.895750 0.774350 0.588891
0.910033 0.771023 0.588006
0.923949 0.768551 0.588861
0.937682 0.767056 0.590997
0.951019 0.766812 0.595575
0.964019 0.767849 0.602319
0.971313 0.774502 0.635798
0.733730 0.828244 0.777310
0.734493 0.828550 0.777768
0.735012 0.828702 0.777951
0.735531 0.828855 0.777829
0.736080 0.828946 0.777462
0.736873 0.829068 0.776974
0.737881 0.829252 0.776364
0.740993 0.829374 0.776638
0.745907 0.829526 0.777737
0.751858 0.829831 0.779171
0.758450 0.830228 0.780850
0.766018 0.830808 0.782925
0.774197 0.831418 0.785214
0.782834 0.832120 0.787625
0.791745 0.832853 0.790188
0.798734 0.832883 0.790280
0.799466 0.830350 0.781888
0.801389 0.827604 0.772213
0.804837 0.824643 0.760952
0.810208 0.821378 0.747341
0.817929 0.817716 0.730495
0.828733 0.813535 0.709163
0.843595 0.808530 0.681025
0.862974 0.802823 0.650324
0.877592 0.795590 0.632471
0.890227 0.790921 0.627649
0.903502 0.787381 0.624720
0.917021 0.784878 0.623865
0.930419 0.783261 0.624628
0.943633 0.782742 0.627405
0.956603 0.783352 0.632502
0.968078 0.786038 0.645106
0.750484 0.835966 0.789425
0.751156 0.836210 0.789853
0.751736 0.836423 0.790066
0.752377 0.836637 0.790097
0.753079 0.836820 0.789944
0.754086 0.837095 0.789792
0.755398 0.837461 0.789548
0.758022 0.837888 0.789822
0.762661 0.838254 0.791073
0.768185 0.838743 0.792569
0.774289 0.839231 0.794278
0.781125 0.839872 0.796231
0.788388 0.840543 0.798276
0.796109 0.841215 0.800473
0.804044 0.841886 0.802701
0.812253 0.842649 0.805051
0.815763 0.841581 0.801633
0.816953 0.839170 0.793851
0.819364 0.836545 0.785031
0.823301 0.833707 0.775051
0.828824 0.830594 0.763241
0.836210 0.827146 0.748898
0.846036 0.823148 0.730800
0.859007 0.818540 0.707424
0.875700 0.813626 0.682582
0.888853 0.807553 0.667781
0.900450 0.803861 0.663813
0.912718 0.801328 0.661860
0.925750 0.800046 0.662104
0.938689 0.799588 0.663813
0.951446 0.800046 0.667353
0.964019 0.801450 0.672633
0.769039 0.845090 0.802914
0.769345 0.845212 0.803128
0.769680 0.845335 0.803189
0.770108 0.845487 0.803189
0.770718 0.845640 0.803037
0.771511 0.845853 0.802823
0.772610 0.846189 0.802548
0.774228 0.846586 0.802396
0.778256 0.846860 0.803433
0.783017 0.847227 0.804715
0.788418 0.847684 0.806180
0.794461 0.848264 0.807889
0.800961 0.848875 0.809720
0.807736 0.849516 0.811643
0.814939 0.850126 0.813626
0.822293 0.850797 0.815702
0.829923 0.851560 0.817899
0.830655 0.849577 0.811551
0.832212 0.847318 0.804166
0.835019 0.844907 0.795987
0.839231 0.842252 0.786801
0.844846 0.839322 0.776089
0.852018 0.835966 0.763394
0.861173 0.832151 0.747555
0.872862 0.827817 0.727352
0.887663 0.823362 0.706355
0.899596 0.817929 0.693385
0.910216 0.814817 0.689723
0.921691 0.812802 0.688167
0.934356 0.812406 0.689204
0.946960 0.812741 0.691676
0.959564 0.814115 0.696071
0.785153 0.853452 0.814725
0.785367 0.853574 0.814847
0.785763 0.853696 0.814969
0.786252 0.853880 0.815000
0.786984 0.854093 0.815030
0.788052 0.854490 0.815122
0.789670 0.855070 0.815366
0.791745 0.855802 0.815763
0.795865 0.856535 0.817136
0.800961 0.857298 0.818906
0.806699 0.858213 0.820920
0.812802 0.859129 0.823056
0.819242 0.860075 0.825254
0.825772 0.860929 0.827359
0.832425 0.861784 0.829465
0.839109 0.862486 0.831418
0.845884 0.863218 0.833341
0.850614 0.863157 0.832914
0.851499 0.861357 0.826993
0.853300 0.859403 0.820340
0.856291 0.857267 0.812833
0.860410 0.854856 0.804349
0.865904 0.852110 0.794644
0.872831 0.848966 0.783444
0.881346 0.845426 0.770199
0.891814 0.841459 0.753964
0.904723 0.837552 0.737545
0.915282 0.832883 0.726986
0.924804 0.830350 0.724056
0.935210 0.828916 0.722927
0.947326 0.829404 0.724697
0.959411 0.830655 0.727810
0.807492 0.864897 0.830686
0.807492 0.864927 0.830686
0.807584 0.864958 0.830655
0.807858 0.865019 0.830594
0.808255 0.865141 0.830442
0.808865 0.865324 0.830320
0.809812 0.865599 0.830198
0.811063 0.865995 0.830137
0.813535 0.866392 0.830625
0.817350 0.866789 0.831724
0.821683 0.867277 0.832975
0.826474 0.867796 0.834409
0.831632 0.868376 0.835935
0.837095 0.868986 0.837552
