20 Preset/Natural Wedding/【3】LUT video cho PR-AE-FCPX/Lut Tone (8).cube
# Created by Adobe Lightroom plugin Export LUT (1.24.0)
# www.johnrellis.com/lightroom/exportlut.htm
# Preset: 清新婚礼-素材江湖08
# Color profile: C:\Program Files (x86)\Common Files\Adobe\Color\Profiles\Recommended\VideoHD.icc
LUT_3D_SIZE 8
DOMAIN_MIN 0.000000 0.000000 0.000000
DOMAIN_MAX 0.903226 0.903226 0.903226
0.000000 0.091127 0.084382
0.000000 0.089601 0.080842
0.118318 0.069245 0.063600
0.544762 0.000000 0.003540
0.832334 0.000000 0.000000
0.979736 0.000000 0.000000
1.000000 0.000000 0.057160
1.000000 0.164126 0.286473
0.000000 0.073091 0.066102
0.000000 0.074189 0.072969
0.092439 0.088777 0.058259
0.493507 0.000000 0.000000
0.796048 0.000000 0.000000
0.962005 0.000000 0.000000
1.000000 0.000000 0.000000
1.000000 0.166354 0.265415
0.000000 0.160464 0.064973
0.000000 0.163455 0.055116
0.108003 0.149233 0.022827
0.443488 0.228977 0.000000
0.749233 0.270268 0.000000
0.944762 0.230106 0.000000
1.000000 0.247318 0.084382
1.000000 0.367987 0.314641
0.000000 0.550622 0.264591
0.000000 0.553735 0.249607
0.177462 0.566796 0.269993
0.508293 0.520378 0.000000
0.753811 0.517967 0.000000
0.906523 0.490761 0.000000
0.991516 0.473487 0.168795
1.000000 0.513146 0.359686
0.307713 0.749020 0.545373
0.324773 0.750454 0.541833
0.462898 0.753902 0.564782
0.577783 0.749111 0.534966
0.733547 0.704097 0.299565
0.855894 0.650843 0.262943
0.934630 0.617273 0.272679
0.993347 0.628901 0.414374
0.630976 0.799039 0.709529
0.643580 0.801144 0.714443
0.673182 0.802579 0.721645
0.726772 0.804990 0.738613
0.745937 0.796048 0.688228
0.826719 0.771817 0.533654
0.896727 0.741176 0.510796
0.954559 0.727962 0.516838
0.750484 0.835966 0.789425
0.753079 0.836820 0.789944
0.762661 0.838254 0.791073
0.788388 0.840543 0.798276
0.815763 0.841581 0.801633
0.828824 0.830594 0.763241
0.875700 0.813626 0.682582
0.925750 0.800046 0.662104
0.822812 0.873381 0.841733
0.823667 0.873625 0.841642
0.828214 0.874937 0.841764
0.844205 0.876707 0.846464
0.858762 0.875578 0.847593
0.873259 0.874632 0.841306
0.889616 0.867491 0.812680
0.927092 0.855924 0.765286
0.000000 0.084138 0.058442
0.000000 0.084504 0.062074
0.100649 0.066255 0.058412
0.462257 0.000000 0.000305
0.779904 0.000000 0.000000
0.955383 0.000000 0.000000
1.000000 0.000000 0.000000
1.000000 0.000000 0.243290
0.000000 0.073548 0.057038
0.000000 0.073243 0.057221
0.096529 0.080812 0.053101
0.451820 0.000000 0.000000
0.763302 0.000000 0.000000
0.946746 0.000000 0.000000
1.000000 0.000000 0.000000
1.000000 0.116396 0.231022
0.000000 0.151492 0.096345
0.000000 0.162509 0.097169
0.113710 0.155764 0.050263
0.444282 0.218784 0.000000
0.724819 0.276829 0.000000
0.924498 0.253819 0.000000
1.000000 0.236271 0.000000
1.000000 0.331060 0.269841
0.000000 0.517815 0.273686
0.000000 0.525078 0.285039
0.191440 0.552117 0.311589
0.479683 0.492256 0.000000
0.711543 0.489845 0.000000
0.881712 0.473426 0.000000
0.978149 0.451942 0.000000
1.000000 0.483009 0.311681
0.266850 0.741665 0.539910
0.328191 0.741451 0.547906
0.443336 0.745602 0.560113
0.563531 0.740658 0.538048
0.711025 0.691981 0.314275
0.841428 0.643030 0.280400
0.925902 0.612177 0.286290
0.990448 0.615869 0.386816
0.612024 0.795315 0.700862
0.626795 0.795346 0.705806
0.656214 0.797391 0.712032
0.715633 0.800290 0.731685
0.739284 0.792599 0.687190
0.820462 0.769314 0.541466
0.890990 0.739223 0.517937
0.949462 0.725185 0.519707
0.741726 0.832303 0.784482
0.745357 0.832151 0.785183
0.753475 0.833738 0.785336
0.781003 0.836454 0.793576
0.812314 0.839109 0.800320
0.824613 0.828092 0.761959
0.870420 0.810269 0.678920
0.921050 0.795773 0.655787
0.816983 0.870787 0.838437
0.820432 0.871397 0.839811
0.824521 0.872740 0.839658
0.840574 0.874723 0.844327
0.861723 0.877043 0.850523
0.874784 0.875334 0.843778
0.889189 0.867247 0.814054
0.926055 0.855467 0.766842
0.000000 0.075441 0.104280
0.000000 0.071473 0.105379
0.038148 0.065644 0.097139
0.475990 0.000000 0.138460
0.809628 0.000000 0.064637
0.955932 0.000000 0.000000
1.000000 0.000000 0.000000
1.000000 0.244144 0.267033
0.000000 0.088960 0.116426
0.000000 0.085542 0.123995
0.075624 0.080568 0.114351
0.489570 0.000000 0.137270
0.792874 0.000000 0.088136
0.947570 0.000000 0.000000
1.000000 0.079957 0.000000
1.000000 0.261021 0.258335
0.000000 0.166934 0.183871
0.000000 0.173648 0.190585
0.127230 0.201755 0.214694
0.511620 0.222385 0.197879
0.768124 0.261021 0.164370
0.929442 0.294102 0.133974
1.000000 0.313756 0.091096
1.000000 0.375494 0.282963
0.000000 0.504662 0.359350
0.000000 0.515496 0.369635
0.240940 0.551232 0.418372
0.487526 0.531701 0.332189
0.714626 0.522606 0.305486
0.881102 0.513787 0.294499
0.968841 0.500633 0.285740
1.000000 0.508934 0.331945
0.173434 0.731991 0.557946
0.269139 0.732845 0.566064
0.471778 0.736843 0.603021
0.612573 0.745266 0.632532
0.710658 0.704646 0.471015
0.827329 0.665736 0.441474
0.911345 0.643946 0.436164
0.983551 0.634699 0.434516
0.591089 0.792111 0.701991
0.608637 0.792203 0.707424
0.664179 0.792294 0.725185
0.716030 0.796475 0.740505
0.747799 0.792325 0.721187
0.809812 0.770748 0.609491
0.877592 0.748287 0.588830
0.936522 0.739651 0.588891
0.735897 0.831296 0.786252
0.740352 0.831144 0.787350
0.759609 0.831785 0.793179
0.781582 0.835111 0.798215
0.817075 0.839597 0.809720
0.828183 0.829648 0.778195
0.867674 0.812955 0.712703
0.916808 0.802457 0.695674
0.810758 0.869963 0.837858
0.813687 0.869963 0.838682
0.826749 0.871031 0.843229
0.840452 0.874235 0.846677
0.862394 0.876829 0.853269
0.878935 0.876921 0.851438
0.891142 0.869017 0.823575
0.925658 0.857084 0.778958
0.000000 0.096010 0.310918
0.000000 0.090394 0.324956
0.049592 0.053071 0.327947
0.347875 0.000000 0.310643
0.724453 0.000000 0.369543
0.945800 0.000000 0.347784
1.000000 0.287480 0.385901
1.000000 0.359808 0.370550
0.000000 0.127535 0.338445
0.000000 0.120272 0.351659
0.081727 0.101137 0.359838
0.383795 0.000000 0.340673
0.732570 0.000000 0.384497
0.941558 0.000000 0.368353
0.999939 0.333471 0.398779
1.000000 0.387335 0.382300
0.000000 0.252079 0.392248
0.000000 0.254887 0.397070
0.000000 0.267002 0.425635
0.438972 0.268193 0.415656
0.749691 0.338170 0.447425
0.910765 0.431434 0.468269
0.972717 0.486244 0.469001
1.000000 0.493812 0.443946
0.000000 0.502068 0.490761
0.000000 0.505516 0.492805
0.000000 0.524743 0.505303
0.468269 0.563928 0.533043
0.717098 0.578393 0.527947
0.852750 0.586969 0.524193
0.931945 0.592004 0.518791
0.997284 0.590143 0.502159
0.000000 0.715846 0.593591
0.000000 0.716609 0.597772
0.360815 0.722164 0.620569
0.609491 0.733272 0.672694
0.701747 0.718135 0.620966
0.802335 0.697261 0.598383
0.887388 0.691432 0.596185
0.957092 0.687648 0.588647
0.553643 0.788937 0.711849
0.580102 0.789975 0.719020
0.638788 0.789395 0.731930
0.719387 0.791714 0.756497
0.770047 0.797299 0.768978
0.799710 0.776150 0.697688
0.859983 0.763241 0.681025
0.920348 0.759915 0.676692
0.716609 0.828153 0.786587
0.723049 0.828519 0.788479
0.746334 0.829770 0.795285
0.784909 0.833066 0.808072
0.819577 0.839384 0.819120
0.836637 0.834226 0.804013
0.864256 0.816434 0.752346
0.911131 0.809201 0.738705
0.798581 0.869810 0.838254
0.802060 0.869963 0.839231
0.816556 0.870817 0.843626
0.842863 0.873259 0.852781
0.862821 0.876829 0.857969
0.886442 0.879881 0.864408
0.894194 0.871855 0.838834
0.925231 0.859983 0.798062
0.000000 0.161379 0.528985
0.000000 0.155673 0.538445
0.000000 0.146242 0.543938
0.430823 0.058442 0.550744
0.625055 0.039460 0.533257
0.847318 0.361730 0.555108
0.953491 0.440375 0.552850
1.000000 0.521386 0.570977
0.000000 0.208469 0.539696
0.000000 0.206699 0.548638
0.000000 0.199588 0.558740
0.435554 0.170748 0.561486
0.632258 0.191623 0.545678
0.843534 0.402167 0.565270
0.947601 0.468971 0.563653
1.000000 0.542931 0.583581
0.000000 0.338140 0.556634
0.000000 0.339513 0.559899
0.000000 0.355138 0.583886
0.437690 0.371344 0.594446
0.635370 0.400458 0.580163
0.825376 0.506218 0.594598
0.925811 0.550622 0.598932
0.979736 0.606348 0.624292
0.000000 0.518059 0.607996
0.000000 0.521355 0.609033
0.000000 0.538689 0.615656
0.437354 0.578454 0.639033
0.644251 0.598901 0.641718
0.807736 0.635096 0.656275
0.894560 0.659754 0.668269
0.956603 0.669459 0.663539
0.000000 0.689113 0.667720
0.000000 0.690852 0.669306
0.222843 0.696040 0.674708
0.493202 0.705104 0.686427
0.674006 0.717220 0.704646
0.786252 0.719265 0.703212
0.864591 0.721126 0.701198
0.933165 0.720912 0.693751
0.382788 0.775540 0.710933
0.411261 0.775387 0.712612
0.499702 0.774014 0.717830
0.631769 0.774868 0.736873
0.741146 0.781338 0.765835
0.784482 0.775418 0.745602
0.843107 0.769528 0.736110
0.911162 0.771572 0.734829
0.663630 0.821164 0.781491
0.669886 0.820920 0.782223
0.696590 0.821012 0.786954
0.745571 0.823728 0.799222
0.803342 0.829923 0.817746
0.841611 0.836484 0.826902
0.857115 0.816739 0.780911
0.903044 0.810666 0.768154
0.757046 0.864500 0.830472
0.761227 0.864530 0.831296
0.778866 0.865049 0.835233
0.813718 0.868101 0.845518
0.855467 0.872587 0.859586
0.884642 0.878691 0.869322
0.895933 0.873960 0.854978
0.921019 0.860136 0.815274
0.000000 0.300114 0.684352
0.000000 0.304143 0.688350
0.000000 0.312016 0.691554
0.404791 0.328130 0.698329
0.632319 0.343511 0.704128
0.784909 0.394049 0.679805
0.876616 0.572107 0.682521
0.944793 0.629725 0.699458
0.000000 0.326299 0.679469
0.000000 0.328862 0.682429
0.000000 0.342596 0.689967
0.400488 0.354437 0.694636
0.623896 0.368444 0.700130
0.777066 0.416358 0.678431
0.871061 0.580224 0.683162
0.941558 0.633204 0.699763
0.000000 0.438270 0.691646
0.000000 0.442084 0.693874
0.140627 0.464881 0.704524
0.411170 0.479713 0.707881
0.620996 0.491157 0.711666
0.767269 0.526543 0.696498
0.855039 0.638056 0.706813
0.931823 0.667506 0.720211
0.000000 0.569146 0.710536
0.000000 0.570855 0.709804
0.169162 0.582300 0.710201
0.454078 0.618006 0.727687
0.635950 0.633661 0.735256
0.759762 0.654627 0.730098
0.844602 0.703212 0.743282
0.924529 0.712917 0.750729
0.000000 0.679805 0.732052
0.000000 0.680964 0.732143
0.301549 0.685908 0.733211
0.485206 0.695888 0.736477
0.650660 0.714687 0.748043
0.754879 0.726192 0.753353
0.843168 0.740719 0.764553
0.922637 0.743954 0.767727
0.371130 0.764218 0.759182
0.400641 0.765072 0.760494
0.478523 0.765103 0.761715
0.584833 0.765774 0.764767
0.685725 0.768276 0.770809
0.774929 0.776791 0.784665
0.847501 0.779812 0.786526
0.913909 0.781430 0.784482
0.603815 0.814878 0.792050
0.613458 0.815061 0.793118
0.643153 0.814786 0.795224
0.691707 0.815122 0.799619
0.755184 0.818723 0.810330
0.828031 0.828702 0.831693
0.854490 0.820249 0.812497
0.901335 0.815702 0.802060
0.713039 0.859953 0.832456
0.716365 0.859770 0.832578
0.732631 0.860075 0.834562
0.765286 0.861997 0.840024
0.813748 0.865537 0.850401
0.872679 0.872984 0.869383
0.902831 0.879057 0.876463
0.918151 0.862303 0.837888
0.000000 0.474647 0.777188
0.000000 0.480995 0.777951
0.259403 0.498085 0.779019
0.423011 0.506310 0.779263
0.588891 0.513725 0.779171
0.756222 0.522637 0.779599
0.845701 0.561303 0.758022
0.893187 0.671778 0.760922
0.000000 0.490120 0.775692
0.000000 0.495827 0.776547
0.271061 0.515496 0.778195
0.425910 0.521233 0.778164
0.588647 0.527886 0.778286
0.752895 0.535790 0.778744
0.841917 0.572045 0.758236
0.890715 0.675929 0.761654
0.000000 0.545708 0.774594
0.019684 0.549401 0.775082
0.293431 0.565667 0.777279
0.452369 0.581720 0.779049
0.597742 0.586542 0.779416
0.746517 0.594079 0.780545
0.831296 0.624689 0.765805
0.885252 0.701595 0.773281
0.000000 0.616388 0.774411
0.129519 0.616907 0.773587
0.308110 0.626520 0.775143
0.487770 0.650385 0.780423
0.621027 0.662409 0.783047
0.742489 0.669612 0.785306
0.819059 0.690059 0.778470
0.880888 0.734035 0.789517
0.283055 0.692561 0.784421
0.304875 0.693019 0.783993
0.383551 0.695308 0.782834
0.493355 0.699977 0.781003
0.642481 0.719234 0.787472
0.743374 0.726772 0.792569
0.814633 0.738582 0.792660
0.885039 0.762325 0.806363
0.449989 0.758450 0.798245
0.462715 0.758602 0.798245
0.509789 0.759274 0.797971
0.581720 0.760311 0.797665
0.661982 0.761807 0.797574
0.751064 0.769589 0.804776
0.823453 0.778988 0.812436
0.900267 0.788479 0.823789
0.581476 0.807889 0.817105
0.588586 0.807919 0.817288
0.614984 0.807614 0.817655
0.660090 0.807340 0.818753
0.715419 0.807645 0.820981
0.775113 0.810147 0.825986
0.843503 0.818631 0.837888
0.909087 0.821469 0.838437
0.676204 0.854124 0.845609
0.680079 0.854215 0.845884
0.696132 0.854643 0.847013
0.724422 0.855436 0.848905
0.764187 0.857206 0.852049
0.820768 0.861906 0.860197
0.893858 0.874235 0.881773
0.916350 0.866209 0.864134
0.471382 0.661372 0.836362
0.485908 0.663905 0.836393
0.538079 0.672877 0.835843
0.592523 0.672724 0.835294
0.666255 0.672236 0.834531
0.752132 0.671656 0.833677
0.839750 0.673335 0.833524
0.885863 0.687922 0.819852
0.472847 0.664912 0.835630
0.486946 0.667262 0.835660
0.538933 0.676112 0.835386
0.595880 0.677668 0.834775
0.667842 0.677028 0.834104
0.752041 0.676295 0.833341
0.838407 0.677424 0.833158
0.884367 0.691402 0.819913
0.483070 0.681300 0.834623
0.496376 0.683070 0.834623
0.545129 0.690120 0.834440
0.613886 0.698817 0.834684
0.677638 0.697475 0.834073
0.754238 0.696071 0.833524
0.835782 0.696437 0.833707
0.880858 0.708309 0.822782
0.488594 0.705623 0.833799
0.501335 0.706935 0.833860
0.548150 0.711971 0.833860
0.623011 0.721736 0.834714
0.690608 0.725765 0.835294
0.758389 0.724575 0.835386
0.832975 0.724178 0.836149
0.877836 0.733425 0.828733
0.516747 0.739681 0.837644
0.524010 0.739834 0.837430
0.548730 0.739467 0.836149
0.606256 0.742000 0.834623
0.691463 0.750484 0.837247
0.759487 0.752163 0.838804
0.829068 0.751888 0.840421
0.877714 0.759243 0.836790
0.579553 0.780545 0.846403
0.583673 0.780270 0.846128
0.601221 0.779324 0.845182
0.634058 0.777646 0.843565
0.677790 0.774533 0.840940
0.753811 0.778317 0.844327
0.826963 0.780575 0.848508
0.882933 0.787808 0.848966
0.638331 0.819944 0.859464
0.641596 0.819791 0.859403
0.655207 0.819059 0.859007
0.680629 0.817777 0.858396
0.715633 0.815518 0.857389
0.758053 0.811826 0.855711
0.820829 0.811368 0.858274
0.891783 0.821439 0.864744
0.684901 0.858030 0.875090
0.687343 0.857939 0.875059
0.697993 0.857664 0.875120
0.718776 0.857328 0.875425
0.749477 0.856870 0.875883
0.790402 0.856504 0.876738
0.842588 0.857511 0.879057
0.909636 0.866911 0.889067
