20 Preset/Natural Wedding/【3】LUT video cho PR-AE-FCPX/Lut Tone (8).cube
# Created by Adobe Lightroom plugin Export LUT (1.24.0)
# www.johnrellis.com/lightroom/exportlut.htm
# Preset: 清新婚礼-素材江湖08
# Color profile: C:\Program Files (x86)\Common Files\Adobe\Color\Profiles\Recommended\VideoHD.icc
LUT_3D_SIZE 5
DOMAIN_MIN 0.000000 0.000000 0.000000
DOMAIN_MAX 0.903226 0.903226 0.903226
0.000000 0.091127 0.084382
0.035523 0.080629 0.069398
0.705318 0.000000 0.000000
1.000000 0.000000 0.000000
1.000000 0.164126 0.286473
0.000000 0.112917 0.058534
0.033692 0.108400 0.044892
0.629847 0.207614 0.000000
0.982055 0.081086 0.000000
1.000000 0.338201 0.313146
0.000000 0.683589 0.427649
0.226078 0.690211 0.435218
0.644099 0.641321 0.109102
0.899290 0.563958 0.000000
1.000000 0.571710 0.380774
0.679042 0.809751 0.739956
0.696010 0.811704 0.742824
0.764401 0.814847 0.758816
0.840146 0.783200 0.578759
0.945922 0.749264 0.556664
0.822812 0.873381 0.841733
0.826383 0.874510 0.841550
0.847410 0.874296 0.844175
0.875792 0.873198 0.835508
0.927092 0.855924 0.765286
0.000000 0.075349 0.082643
0.000000 0.070069 0.077546
0.667140 0.000000 0.020233
0.972015 0.000000 0.000000
1.000000 0.192905 0.250431
0.000000 0.117922 0.122347
0.024750 0.135073 0.138308
0.639796 0.160952 0.042481
0.956664 0.226230 0.000000
1.000000 0.328954 0.270756
0.000000 0.651911 0.447089
0.262486 0.664424 0.486610
0.606012 0.628626 0.340276
0.877287 0.575708 0.303288
1.000000 0.572045 0.369512
0.664271 0.806302 0.738766
0.701534 0.807034 0.751614
0.771145 0.814145 0.772763
0.830472 0.783871 0.633082
0.934325 0.757321 0.608118
0.817136 0.872160 0.840879
0.828550 0.872984 0.844755
0.853086 0.876707 0.850614
0.881041 0.875883 0.844846
0.928130 0.858824 0.779171
0.000000 0.120027 0.431739
0.000000 0.103670 0.447028
0.508446 0.000000 0.434089
0.933104 0.233768 0.464363
1.000000 0.477790 0.504234
0.000000 0.258091 0.469825
0.000000 0.257298 0.496986
0.543450 0.264469 0.490669
0.910674 0.421149 0.511803
1.000000 0.540337 0.535302
0.000000 0.613519 0.588556
0.000000 0.622644 0.595331
0.584497 0.659510 0.632258
0.834836 0.668238 0.628992
0.960418 0.670588 0.616510
0.570581 0.795651 0.733761
0.619135 0.794247 0.741176
0.750698 0.799100 0.777279
0.810971 0.787076 0.737331
0.906950 0.774960 0.715236
0.779202 0.866392 0.833310
0.794553 0.867338 0.837644
0.847349 0.872160 0.854978
0.888731 0.878691 0.865171
0.921965 0.858854 0.804379
0.000000 0.330541 0.707210
0.000000 0.348302 0.714687
0.502190 0.373846 0.721157
0.802640 0.433478 0.699458
0.928222 0.641749 0.715755
0.000000 0.426703 0.710170
0.000000 0.445380 0.717708
0.502953 0.473793 0.724849
0.787961 0.517754 0.708095
0.919615 0.666133 0.727932
0.000000 0.622431 0.730037
0.132753 0.628931 0.729885
0.543999 0.665095 0.742458
0.765621 0.691798 0.746700
0.910338 0.730007 0.766781
0.451850 0.777340 0.776638
0.503075 0.776547 0.776577
0.649744 0.777310 0.781247
0.792325 0.787045 0.798276
0.910491 0.790097 0.796994
0.699214 0.858518 0.833707
0.715419 0.858946 0.835630
0.776913 0.862455 0.845304
0.879057 0.874144 0.873320
0.917510 0.863066 0.844083
0.471382 0.661372 0.836362
0.521141 0.669734 0.836027
0.627466 0.672602 0.834958
0.774624 0.671687 0.833555
0.885863 0.687922 0.819852
0.481209 0.676539 0.834989
0.528252 0.683467 0.834867
0.639490 0.691829 0.834348
0.774685 0.690059 0.833433
0.882139 0.703578 0.822110
0.490761 0.720089 0.834562
0.527153 0.722347 0.833585
0.658015 0.736233 0.835325
0.776059 0.737819 0.836576
0.877134 0.746120 0.832242
0.596857 0.791073 0.849729
0.611749 0.790249 0.848997
0.666987 0.786984 0.846372
0.769406 0.785611 0.847013
0.884642 0.795499 0.852445
0.684901 0.858030 0.875090
0.694423 0.857725 0.875090
0.732906 0.857115 0.875639
0.802335 0.856535 0.877104
0.909636 0.866911 0.889067
