20 Preset/Natural Wedding/【3】LUT video cho PR-AE-FCPX/Lut Tone (15).cube
# Created by Adobe Lightroom plugin Export LUT (1.24.0)
# www.johnrellis.com/lightroom/exportlut.htm
# Preset: 清新婚礼-素材江湖15
# Color profile: C:\Program Files (x86)\Common Files\Adobe\Color\Profiles\Recommended\VideoHD.icc
LUT_3D_SIZE 32
DOMAIN_MIN 0.0 0.0 0.0
DOMAIN_MAX 1.0 1.0 1.0
0.000000 0.000000 0.000000
0.000000 0.001190 0.000000
0.000000 0.002411 0.000824
0.000000 0.005798 0.000366
0.000000 0.012329 0.001709
0.016480 0.019257 0.003845
0.055573 0.025910 0.007813
0.098329 0.031617 0.013642
0.125093 0.037324 0.022278
0.153384 0.041505 0.035950
0.186526 0.041566 0.053223
0.224033 0.040101 0.076631
0.268437 0.031952 0.093690
0.321477 0.010010 0.108217
0.383429 0.000000 0.122469
0.451057 0.000000 0.136751
0.521233 0.000000 0.151034
0.591516 0.000000 0.166110
0.658259 0.000000 0.182071
0.718959 0.000000 0.198947
0.774655 0.000000 0.218967
0.830655 0.004059 0.247349
0.869291 0.179629 0.275883
0.897124 0.258366 0.306371
0.916381 0.324926 0.338598
0.929473 0.384588 0.373449
0.937896 0.440314 0.412512
0.942687 0.492012 0.456184
0.944579 0.540368 0.503838
0.944915 0.584192 0.552422
0.944427 0.623774 0.600305
0.943694 0.659388 0.645899
0.000000 0.001190 0.000000
0.000000 0.001190 0.000000
0.000000 0.003601 0.000671
0.000000 0.006989 0.000214
0.000000 0.013519 0.001587
0.014496 0.019501 0.003845
0.053895 0.026154 0.006683
0.097322 0.030854 0.012665
0.122591 0.036286 0.021485
0.150881 0.040894 0.034028
0.182437 0.042725 0.050263
0.219333 0.040681 0.072908
0.262455 0.033478 0.092042
0.313664 0.014954 0.105684
0.374121 0.000000 0.119936
0.441108 0.000000 0.134279
0.511315 0.000000 0.148592
0.581781 0.000000 0.163607
0.649042 0.000000 0.179385
0.710323 0.000000 0.195956
0.766934 0.000000 0.215305
0.822507 0.000000 0.241886
0.861601 0.159396 0.269078
0.890440 0.238743 0.297612
0.911192 0.304936 0.327886
0.925658 0.364935 0.361059
0.935424 0.421790 0.398596
0.941436 0.475105 0.441016
0.944244 0.525505 0.488502
0.944976 0.571740 0.538201
0.944579 0.613489 0.587579
0.943877 0.650752 0.634760
0.000000 0.006012 0.000397
0.000000 0.006012 0.000397
0.000000 0.006012 0.000397
0.000000 0.009400 0.000000
0.000000 0.015717 0.001282
0.015076 0.021668 0.003540
0.053468 0.027344 0.005402
0.096498 0.032288 0.011383
0.122103 0.037720 0.019074
0.149050 0.043244 0.030518
0.180606 0.044312 0.046906
0.216709 0.042390 0.068635
0.258671 0.036469 0.089265
0.308659 0.020294 0.103120
0.367803 0.000000 0.117037
0.433814 0.000000 0.131380
0.503716 0.000000 0.145754
0.574121 0.000000 0.160647
0.641932 0.000000 0.176364
0.704311 0.000000 0.192935
0.763027 0.000000 0.212619
0.818082 0.000000 0.238041
0.857389 0.150088 0.264286
0.886778 0.229068 0.292058
0.908141 0.295048 0.321843
0.923461 0.354711 0.354009
0.934020 0.411627 0.390387
0.940703 0.465858 0.432349
0.944030 0.517205 0.479591
0.945037 0.564691 0.529686
0.944762 0.607507 0.579889
0.944060 0.645686 0.627863
0.000000 0.016846 0.001312
0.000000 0.016846 0.001312
0.000000 0.016602 0.001312
0.000000 0.017578 0.000000
0.000000 0.021271 0.000488
0.017762 0.027008 0.001617
0.055879 0.032685 0.004608
0.097505 0.037629 0.008331
0.122103 0.042298 0.015076
0.148836 0.046845 0.026673
0.179751 0.047395 0.040955
0.214847 0.045624 0.061738
0.256046 0.041260 0.084382
0.304417 0.027710 0.098848
0.361456 0.000000 0.112947
0.425910 0.000000 0.126711
0.494118 0.000000 0.141207
0.563134 0.000000 0.155489
0.630701 0.000000 0.170840
0.693355 0.000000 0.187228
0.754482 0.000000 0.206821
0.808377 0.000000 0.230533
0.848722 0.132143 0.255558
0.879820 0.213046 0.282414
0.903471 0.280888 0.312230
0.920714 0.342931 0.344732
0.932738 0.402533 0.381994
0.940368 0.459205 0.424964
0.944060 0.512627 0.473548
0.945220 0.561303 0.524712
0.945098 0.604028 0.574640
0.944366 0.641932 0.622278
0.000000 0.032227 0.002747
0.000000 0.032227 0.002747
0.000000 0.031800 0.002747
0.000000 0.030365 0.002869
0.000000 0.034058 0.000000
0.018616 0.038148 0.000092
0.058015 0.042634 0.000977
0.097383 0.045624 0.005005
0.121096 0.050721 0.010620
0.147311 0.053559 0.020294
0.177310 0.054017 0.033631
0.211429 0.053803 0.051057
0.251133 0.050172 0.074342
0.298253 0.040436 0.092958
0.354131 0.016541 0.106783
0.417548 0.000000 0.120760
0.486275 0.000000 0.135286
0.556054 0.000000 0.149874
0.624170 0.000000 0.165164
0.687221 0.000000 0.181308
0.751553 0.000000 0.201968
0.804288 0.000000 0.224613
0.844633 0.132235 0.248905
0.876524 0.209934 0.275853
0.901122 0.276158 0.305394
0.919280 0.338079 0.337957
0.932006 0.397467 0.375250
0.940093 0.454170 0.417914
0.944305 0.507469 0.466011
0.945556 0.556542 0.517388
0.945464 0.599817 0.567864
0.944793 0.637934 0.615778
0.000000 0.055604 0.006561
0.000000 0.055604 0.006561
0.000000 0.056367 0.006378
0.000000 0.053498 0.006653
0.000000 0.051423 0.005646
0.011994 0.056703 0.002197
0.059266 0.061494 0.000641
0.099031 0.063081 0.001404
0.122469 0.064820 0.005188
0.148623 0.066438 0.012757
0.178164 0.065919 0.025116
0.211734 0.066163 0.040284
0.250980 0.064210 0.061189
0.297459 0.056794 0.085847
0.352972 0.038605 0.100343
0.416358 0.000366 0.114534
0.484596 0.000000 0.128878
0.554528 0.000000 0.143862
0.622797 0.000000 0.159182
0.686976 0.000000 0.175601
0.753811 0.000000 0.197055
0.805173 0.011658 0.219638
0.887083 0.245274 0.280247
0.910765 0.311070 0.313787
0.926818 0.371466 0.350042
0.937194 0.427405 0.389563
0.943236 0.479255 0.433082
0.946014 0.527001 0.479988
0.946624 0.570367 0.528191
0.946197 0.608881 0.575006
0.945403 0.643030 0.619135
0.944701 0.673274 0.659876
0.000000 0.089418 0.015869
0.000000 0.089876 0.015717
0.000000 0.089631 0.016815
0.000000 0.089204 0.016785
0.000000 0.084474 0.017609
0.008087 0.084443 0.012696
0.062654 0.088716 0.004974
0.105470 0.090272 0.005035
0.132479 0.089174 0.004517
0.159884 0.088136 0.008881
0.190311 0.086976 0.016449
0.226352 0.086641 0.031983
0.267918 0.085908 0.051545
0.317021 0.082521 0.078431
0.374548 0.067506 0.095613
0.438117 0.035340 0.109834
0.505943 0.000000 0.124361
0.574792 0.000000 0.139284
0.641535 0.000000 0.155276
0.714137 0.000000 0.175082
0.780148 0.032685 0.199527
0.831418 0.148287 0.226535
0.871031 0.219333 0.257023
0.900786 0.287053 0.291447
0.921355 0.350988 0.329198
0.934508 0.409491 0.369146
0.942260 0.462837 0.412451
0.946136 0.511803 0.459297
0.947204 0.557000 0.508690
0.947082 0.596796 0.556542
0.946319 0.632349 0.602380
0.945464 0.663966 0.645075
0.000000 0.105745 0.029908
0.000000 0.106020 0.030884
0.000000 0.106111 0.031830
0.000000 0.106233 0.034882
0.000000 0.103578 0.033448
0.006836 0.099397 0.033570
0.041291 0.101137 0.023133
0.099001 0.104311 0.013397
0.130465 0.105715 0.013855
0.160983 0.104036 0.014923
0.192233 0.102815 0.018067
0.226474 0.102144 0.025025
0.265843 0.100710 0.032013
0.313054 0.100343 0.052430
0.368902 0.097475 0.080140
0.430579 0.090944 0.097597
0.497047 0.072786 0.111910
0.565423 0.036957 0.127108
0.635920 0.015106 0.143709
0.711391 0.045014 0.164431
0.773861 0.111208 0.187350
0.823972 0.164645 0.212985
0.864042 0.222202 0.242618
0.895048 0.281834 0.275547
0.917327 0.341253 0.312322
0.932036 0.397681 0.351629
0.941222 0.450355 0.393927
0.946197 0.499825 0.440528
0.947967 0.546166 0.490730
0.948058 0.587549 0.540520
0.947326 0.624506 0.588434
0.946349 0.657404 0.633143
0.000000 0.125002 0.050965
0.000000 0.125246 0.050813
0.000000 0.124971 0.053040
0.000000 0.125307 0.055909
0.000000 0.124117 0.056123
0.004730 0.119509 0.057954
0.038025 0.116854 0.054200
0.085878 0.118898 0.039673
0.123873 0.122835 0.027253
0.159213 0.123995 0.027710
0.193515 0.122530 0.028504
0.230381 0.120974 0.029847
0.269810 0.120974 0.037171
0.315465 0.120546 0.045441
0.368109 0.119142 0.053498
0.428138 0.117525 0.078828
0.493355 0.114595 0.097475
0.561944 0.111696 0.112673
0.640253 0.115023 0.130770
0.710597 0.128054 0.150820
0.770260 0.153628 0.173465
0.819242 0.189914 0.198886
0.859220 0.234592 0.227878
0.890898 0.285557 0.260594
0.914183 0.339147 0.296788
0.930114 0.392004 0.335485
0.940459 0.443122 0.377691
0.946380 0.492226 0.424262
0.948882 0.538567 0.474800
0.949187 0.581018 0.526329
0.948394 0.618952 0.576196
0.947326 0.652644 0.622736
0.000000 0.146120 0.080568
0.000000 0.146090 0.080568
0.000000 0.145876 0.081971
0.000000 0.145846 0.084596
0.000000 0.146181 0.089906
0.000000 0.141970 0.088228
0.034516 0.136324 0.088441
0.077089 0.136110 0.081178
0.109804 0.138308 0.060731
0.151827 0.142977 0.043793
0.190555 0.144442 0.044648
0.229129 0.143648 0.043183
0.272007 0.143038 0.041138
0.318029 0.143557 0.049744
0.370855 0.144839 0.058167
0.429084 0.145663 0.067262
0.494118 0.146975 0.075074
0.571038 0.152682 0.094484
0.645106 0.161166 0.113405
0.712093 0.174166 0.134066
0.768582 0.192569 0.157351
0.814939 0.217777 0.182834
0.853269 0.250492 0.210941
0.884428 0.290288 0.242069
0.908446 0.334844 0.276463
0.925902 0.381964 0.313603
0.937987 0.430426 0.354772
0.945678 0.478614 0.400519
0.949462 0.526116 0.451881
0.950286 0.571038 0.506584
0.949676 0.611170 0.559808
0.948486 0.646906 0.609888
0.000000 0.167758 0.099397
0.000000 0.167758 0.099763
0.000000 0.167880 0.100740
0.000000 0.168063 0.102358
0.000000 0.168307 0.105928
0.000000 0.166567 0.105501
0.019501 0.161074 0.106172
0.078492 0.154696 0.106996
0.105898 0.157443 0.098451
0.138430 0.160433 0.087587
0.185092 0.166018 0.069429
0.228611 0.169039 0.068696
0.272679 0.169894 0.066346
0.322698 0.170779 0.059724
0.376867 0.172793 0.061891
0.442145 0.178744 0.071290
0.510857 0.185306 0.077058
0.580072 0.192874 0.081636
0.646235 0.201694 0.087556
0.709529 0.213535 0.109560
0.763943 0.228183 0.135286
0.809659 0.246921 0.162631
0.848112 0.272068 0.191989
0.879881 0.303807 0.223911
0.904906 0.341711 0.258610
0.923552 0.383764 0.296269
0.936858 0.428656 0.337530
0.945525 0.475044 0.383612
0.950164 0.521569 0.435340
0.951476 0.566644 0.491615
0.950988 0.607477 0.547143
0.949767 0.643854 0.599481
0.000000 0.194430 0.118227
0.000000 0.194553 0.118776
0.000000 0.194522 0.119020
0.000000 0.194919 0.120821
0.000000 0.195346 0.123598
0.000000 0.195834 0.127474
0.000000 0.190341 0.124544
0.070710 0.183566 0.125521
0.106935 0.179477 0.123629
0.134859 0.183108 0.114687
0.172366 0.186526 0.103029
0.225101 0.194736 0.091585
0.303868 0.218051 0.094514
0.370642 0.227848 0.090578
0.441962 0.237064 0.079591
0.514641 0.245701 0.062043
0.584405 0.256046 0.067903
0.650416 0.266484 0.075380
0.710079 0.277348 0.088167
0.761501 0.288090 0.100404
0.805631 0.299840 0.119966
0.843748 0.315953 0.156863
0.875517 0.336767 0.193027
0.901030 0.363958 0.230045
0.920500 0.396460 0.269169
0.934752 0.432715 0.310582
0.944457 0.471321 0.354589
0.950347 0.511284 0.402533
0.952972 0.551324 0.454658
0.953094 0.590326 0.509545
0.952178 0.625910 0.562432
0.950774 0.658534 0.612665
0.000000 0.236851 0.143008
0.000000 0.236667 0.143038
0.000000 0.236393 0.143282
0.000000 0.236393 0.144289
0.000000 0.236179 0.145907
0.000000 0.236271 0.148623
0.000000 0.232303 0.145907
0.034607 0.223636 0.146761
0.110231 0.214511 0.147799
0.139559 0.213931 0.142885
0.177340 0.222507 0.134432
0.227909 0.232517 0.122774
0.301823 0.252842 0.108919
0.374395 0.269291 0.102998
0.446662 0.281590 0.093874
0.517449 0.290623 0.079133
0.585718 0.297734 0.046723
0.647395 0.305791 0.052918
0.703548 0.314000 0.072358
0.752346 0.322179 0.092775
0.794553 0.330480 0.109468
0.831632 0.340490 0.128328
0.864286 0.354040 0.158968
0.891905 0.374212 0.199527
0.913664 0.400061 0.240574
0.930114 0.430945 0.282506
0.941985 0.466041 0.327367
0.949645 0.504295 0.376165
0.953582 0.544121 0.429999
0.954406 0.584070 0.488045
0.953704 0.620844 0.544671
0.952300 0.654505 0.598230
0.000000 0.275456 0.160891
0.000000 0.275242 0.160739
0.000000 0.274998 0.160952
0.000000 0.274601 0.161318
0.000000 0.275181 0.162692
0.000000 0.276646 0.165164
0.000000 0.277623 0.167239
0.000000 0.269963 0.164370
0.092256 0.261082 0.166293
0.143099 0.251347 0.168795
0.178439 0.259800 0.161440
0.225925 0.271611 0.150576
0.286168 0.284184 0.135317
0.370459 0.309453 0.115633
0.445350 0.325689 0.105196
0.515862 0.336065 0.092866
0.581384 0.342687 0.070680
0.642298 0.347143 0.039185
0.697261 0.352026 0.040284
0.744472 0.357610 0.077821
0.786191 0.363592 0.102419
0.823148 0.371099 0.122652
0.855650 0.380652 0.143618
0.884184 0.392401 0.165682
0.907774 0.412299 0.211582
0.926085 0.437873 0.256352
0.939574 0.468635 0.303136
0.948821 0.503288 0.352605
0.954009 0.541344 0.407446
0.955810 0.580468 0.467170
0.955200 0.618067 0.527794
0.953796 0.652369 0.584894
0.000000 0.336736 0.183230
0.000000 0.336706 0.183230
0.000000 0.336217 0.183017
0.000000 0.335698 0.183200
0.000000 0.335332 0.183444
0.000000 0.335332 0.184573
0.000000 0.336278 0.186954
0.000000 0.330602 0.181552
0.000000 0.319493 0.183688
0.127657 0.307500 0.186313
0.177798 0.300572 0.186648
0.222812 0.313451 0.176211
0.279301 0.327428 0.162417
0.347295 0.341222 0.143221
0.437812 0.367956 0.116213
0.510063 0.380957 0.103548
0.576532 0.388403 0.089754
0.635920 0.391913 0.065888
0.690242 0.393805 0.041840
0.737819 0.394842 0.039612
0.778897 0.398596 0.090761
0.815610 0.403754 0.115236
0.848234 0.410681 0.139071
0.876951 0.419867 0.162936
0.901518 0.431281 0.187411
0.921721 0.449409 0.227756
0.936919 0.475532 0.277836
0.947784 0.507103 0.329961
0.954376 0.543359 0.387152
0.956970 0.582300 0.450690
0.956725 0.620600 0.516136
0.955291 0.655848 0.578119
0.000000 0.398169 0.201389
0.000000 0.398230 0.201480
0.000000 0.398199 0.201724
0.000000 0.398047 0.201633
0.000000 0.398108 0.201846
0.000000 0.398596 0.202609
0.000000 0.400214 0.204318
0.000000 0.400427 0.204227
0.000000 0.389807 0.200748
0.022461 0.376715 0.203525
0.169100 0.362097 0.206516
0.220096 0.360967 0.202548
0.273106 0.373510 0.188907
0.335790 0.385870 0.171054
0.406683 0.397009 0.147127
0.496254 0.421210 0.115358
0.564324 0.429755 0.101839
0.625544 0.434180 0.089723
0.679408 0.435279 0.076417
0.727382 0.434638 0.065034
0.770413 0.433845 0.065278
0.808072 0.436988 0.105653
0.841337 0.442206 0.133761
0.870665 0.449592 0.160159
0.895750 0.459113 0.187198
0.917296 0.471199 0.215061
0.934752 0.488899 0.253025
0.946929 0.516594 0.308721
0.954620 0.549554 0.368322
0.958068 0.585870 0.433387
0.958160 0.622736 0.501518
0.956817 0.657038 0.566003
0.000000 0.456764 0.217655
0.000000 0.456733 0.217655
0.000000 0.456611 0.217624
0.000000 0.456550 0.217502
0.000000 0.456611 0.217655
0.000000 0.457282 0.218418
0.000000 0.458503 0.219944
0.000000 0.460395 0.223728
0.000000 0.453193 0.216068
0.000000 0.440497 0.218692
0.132753 0.425788 0.221561
0.214420 0.409461 0.224949
0.265202 0.416205 0.214878
0.323217 0.428595 0.199130
0.389685 0.439887 0.178286
0.463111 0.450080 0.150332
0.551812 0.471962 0.116335
0.614618 0.476844 0.105776
0.670710 0.478401 0.098543
0.718044 0.476661 0.096651
0.761196 0.474769 0.099214
0.800259 0.473121 0.105165
0.834684 0.474525 0.127260
0.864347 0.479927 0.157992
0.889982 0.487495 0.187259
0.911925 0.497780 0.217319
0.930510 0.510948 0.248203
0.945678 0.528557 0.285496
0.954589 0.558129 0.348394
0.959045 0.592004 0.416205
0.959533 0.627680 0.488380
0.958312 0.661280 0.556573
0.000000 0.516289 0.235325
0.000000 0.516747 0.235569
0.000000 0.552422 0.248997
0.000000 0.552331 0.249271
0.000000 0.552087 0.249912
0.000000 0.551873 0.251194
0.000000 0.551751 0.253635
0.000000 0.552087 0.258396
0.000000 0.549737 0.258244
0.000000 0.538231 0.253086
0.110231 0.524224 0.255039
0.228061 0.507927 0.257176
0.290105 0.492439 0.257267
0.342962 0.502708 0.241489
0.403998 0.511803 0.222141
0.471534 0.519615 0.197757
0.544457 0.525597 0.164736
0.626490 0.540032 0.133822
0.678706 0.537194 0.131075
0.724971 0.533013 0.131258
0.765011 0.527520 0.135134
0.801785 0.523400 0.142123
0.835111 0.520500 0.151278
0.864439 0.519249 0.166079
0.888457 0.523522 0.197208
0.909148 0.530175 0.226993
0.926879 0.539757 0.257694
0.941955 0.552667 0.290379
0.954314 0.569848 0.328405
0.959625 0.600061 0.398474
0.960845 0.633478 0.473548
0.959777 0.665980 0.545739
0.000000 0.579583 0.260136
0.000000 0.582635 0.261601
0.000000 0.585870 0.263371
0.000000 0.588556 0.265446
0.000000 0.590356 0.267430
0.000000 0.590967 0.269444
0.000000 0.590784 0.272374
0.000000 0.590295 0.276921
0.000000 0.590051 0.284428
0.000000 0.582055 0.273594
0.000000 0.569909 0.274449
0.213382 0.555871 0.275700
0.285832 0.538933 0.276463
0.336248 0.532189 0.271244
0.389044 0.540978 0.254856
0.449439 0.548943 0.234592
0.515923 0.555840 0.209537
0.586877 0.561608 0.177035
0.663355 0.573480 0.153231
0.710994 0.569482 0.155154
0.753414 0.564843 0.160037
0.790799 0.560204 0.166476
0.824491 0.556481 0.175540
0.854520 0.553491 0.186465
0.880888 0.551385 0.198550
0.902434 0.555322 0.227787
0.920653 0.562646 0.259373
0.936217 0.573388 0.293431
0.949279 0.587732 0.330297
0.959594 0.606165 0.373205
0.961852 0.637385 0.452003
0.961212 0.669032 0.529320
0.000000 0.618830 0.280766
0.000000 0.621576 0.282658
0.000000 0.624475 0.284825
0.000000 0.626886 0.287266
0.000000 0.628504 0.289921
0.000000 0.628840 0.292546
0.000000 0.628473 0.295933
0.000000 0.627619 0.300786
0.000000 0.626764 0.308446
0.000000 0.623041 0.307042
0.000000 0.613428 0.300999
0.214511 0.601709 0.301061
0.289921 0.587640 0.300603
0.343908 0.571588 0.300755
0.388922 0.572717 0.290257
0.440284 0.580285 0.273472
0.498909 0.586908 0.253025
0.562188 0.592554 0.228367
0.629664 0.597375 0.197360
0.699092 0.605982 0.181186
0.741665 0.600702 0.185855
0.779904 0.595758 0.192874
0.814023 0.591424 0.201907
0.844297 0.587732 0.212863
0.870939 0.584924 0.224460
0.894621 0.583459 0.238254
0.914458 0.586328 0.262486
0.930480 0.594965 0.297795
0.943908 0.607355 0.336126
0.954803 0.623224 0.378576
0.962615 0.643183 0.429450
0.962524 0.673365 0.511742
0.000000 0.654444 0.305608
0.000000 0.656611 0.307500
0.000000 0.658778 0.310002
0.000000 0.660517 0.312718
0.000000 0.661616 0.315709
0.000000 0.661707 0.318975
0.000000 0.661067 0.322667
0.000000 0.659968 0.328099
0.000000 0.658808 0.335851
0.000000 0.657313 0.346899
0.122683 0.650568 0.333349
0.238529 0.640955 0.332464
0.306126 0.629633 0.331060
0.357763 0.616663 0.329839
0.399878 0.602502 0.328405
0.442512 0.609644 0.314519
0.492439 0.616663 0.298161
0.548821 0.623194 0.279454
0.609918 0.629297 0.257664
0.674952 0.634760 0.231174
0.738033 0.641871 0.224247
0.776669 0.637263 0.233738
0.810636 0.632959 0.244663
0.840848 0.629603 0.257237
0.867277 0.627283 0.271550
0.890532 0.626154 0.287358
0.911101 0.626673 0.304875
0.928862 0.630488 0.328649
0.941588 0.641840 0.371069
0.951629 0.656519 0.417914
0.959136 0.673793 0.468208
0.963622 0.694087 0.525444
0.000000 0.697597 0.349065
0.000000 0.698299 0.350256
0.000000 0.698726 0.351598
0.000000 0.698726 0.353246
0.000000 0.698268 0.355383
0.000000 0.697353 0.358129
0.000000 0.696071 0.362249
0.000000 0.694545 0.368109
0.000000 0.692927 0.376410
0.180941 0.691188 0.388037
0.255436 0.687709 0.386511
0.301152 0.680507 0.379767
0.351781 0.671656 0.377661
0.394842 0.661341 0.375219
0.432074 0.649500 0.372442
0.465278 0.642756 0.366461
0.504417 0.648676 0.352483
0.549981 0.654108 0.336675
0.600671 0.659174 0.318425
0.656031 0.663569 0.297490
0.715175 0.667628 0.272404
0.769253 0.671412 0.269993
0.801968 0.665431 0.279118
0.830594 0.659968 0.289372
0.856809 0.656519 0.302403
0.880247 0.654719 0.318029
0.901030 0.654780 0.336248
0.919432 0.657099 0.357488
0.935637 0.661982 0.382818
0.946685 0.673701 0.427497
0.954620 0.688960 0.478279
0.960906 0.705562 0.528740
0.000000 0.723232 0.383795
0.000000 0.723690 0.384924
0.000000 0.723964 0.386419
0.000000 0.723934 0.388342
0.000000 0.723445 0.390936
0.000000 0.722499 0.394202
0.000000 0.721248 0.398962
0.000000 0.719661 0.405219
0.086732 0.717952 0.414099
0.253941 0.716030 0.425544
0.340795 0.713802 0.438697
0.354437 0.708949 0.424933
0.393530 0.701778 0.422370
0.429297 0.693599 0.419623
0.461707 0.684382 0.416754
0.490883 0.674006 0.413672
0.520806 0.673426 0.405432
0.557031 0.678828 0.392462
0.598810 0.683833 0.377844
0.645502 0.688228 0.360906
0.695949 0.692226 0.341772
0.750423 0.696559 0.320409
0.796292 0.697902 0.321874
0.824308 0.692226 0.332464
0.845579 0.682124 0.331243
0.868833 0.679255 0.345678
0.890043 0.678645 0.363653
0.908690 0.680232 0.385168
0.925261 0.684108 0.410712
0.939574 0.690639 0.440864
0.950072 0.701930 0.483314
0.957000 0.717037 0.534417
0.000000 0.750362 0.434363
0.000000 0.751034 0.436439
0.000000 0.751125 0.437964
0.000000 0.750607 0.439399
0.000000 0.749538 0.440955
0.000000 0.747951 0.443275
0.000000 0.745968 0.446601
0.130953 0.743679 0.451270
0.245701 0.741146 0.458381
0.322972 0.738430 0.467903
0.387884 0.735531 0.479561
0.414008 0.731868 0.475257
0.434607 0.726040 0.467384
0.461830 0.718868 0.463081
0.487617 0.710658 0.458320
0.511864 0.701595 0.453468
0.534752 0.691554 0.448798
0.562585 0.695216 0.437934
0.596338 0.699916 0.425483
0.635431 0.704585 0.412238
0.678462 0.708888 0.397314
0.724910 0.712428 0.379828
0.775174 0.716640 0.360540
0.814054 0.716091 0.363073
0.838315 0.710140 0.372412
0.859709 0.705043 0.382940
0.879973 0.702663 0.397955
0.898619 0.702876 0.417548
0.915190 0.705379 0.441260
0.929747 0.710414 0.469490
0.942504 0.717830 0.501518
0.953094 0.727993 0.538567
0.000000 0.766262 0.470680
0.000000 0.766751 0.472633
0.000000 0.766934 0.474586
0.000000 0.766629 0.476570
0.000000 0.765896 0.479011
0.094667 0.764797 0.482399
0.200290 0.763424 0.487221
0.270909 0.761837 0.493690
0.331548 0.759976 0.501884
0.387304 0.757900 0.512200
0.438178 0.755550 0.523674
0.479408 0.753017 0.532952
0.485939 0.749325 0.520745
0.507317 0.743801 0.517174
0.527886 0.737392 0.512566
0.547845 0.730282 0.507897
0.567407 0.722377 0.503319
0.586908 0.716823 0.497780
0.612604 0.720974 0.487984
0.643061 0.725093 0.477546
0.677699 0.728969 0.465858
0.715694 0.732418 0.452369
0.756222 0.735225 0.436255
0.801266 0.739254 0.420020
0.833585 0.737911 0.425116
0.854459 0.733150 0.436316
0.872953 0.729427 0.448341
0.890440 0.728420 0.465797
0.906859 0.730343 0.488624
0.921386 0.734340 0.514549
0.934264 0.740414 0.543786
0.945678 0.748470 0.575708
0.184695 0.783169 0.519158
0.192508 0.783352 0.520287
0.206455 0.783291 0.521569
0.227359 0.782864 0.523186
0.254704 0.782132 0.525505
0.287419 0.781064 0.528557
0.323095 0.779721 0.532769
0.361425 0.778134 0.538293
0.401617 0.776303 0.545403
0.441413 0.774380 0.553887
0.481483 0.772152 0.563836
0.519829 0.769863 0.575158
0.532433 0.767269 0.570001
0.545342 0.763241 0.563989
0.562341 0.758175 0.560266
0.578973 0.752468 0.556115
0.595544 0.746242 0.551934
0.611810 0.739559 0.548058
0.630518 0.738277 0.542504
0.654108 0.742000 0.534539
0.681575 0.745571 0.525994
0.712184 0.748836 0.515984
0.745480 0.751553 0.503899
0.781155 0.753689 0.489052
0.821103 0.757382 0.475074
0.848264 0.755581 0.480751
0.866423 0.751675 0.491554
0.882628 0.748714 0.503532
0.898039 0.748440 0.520684
0.912871 0.751614 0.545068
0.926146 0.756649 0.572168
0.938170 0.763851 0.602625
0.325048 0.796689 0.562982
0.328557 0.796780 0.563867
0.335332 0.796719 0.565240
0.346593 0.796475 0.567071
0.363043 0.795987 0.569787
0.384619 0.795346 0.573816
0.411963 0.794705 0.579797
0.442573 0.793973 0.587396
0.475441 0.793179 0.596643
0.508934 0.792264 0.607019
0.542901 0.791226 0.618616
0.575586 0.790036 0.630762
0.600305 0.788663 0.638514
0.606592 0.786801 0.631983
0.620874 0.783597 0.631098
0.634272 0.779690 0.628870
0.647303 0.775326 0.626246
0.660304 0.770535 0.623499
0.673396 0.765621 0.621485
0.689845 0.767391 0.616938
0.709499 0.770443 0.611383
0.731899 0.773251 0.604944
0.756497 0.775662 0.596796
0.783474 0.777646 0.586786
0.812345 0.779171 0.574395
0.845396 0.782376 0.563958
0.866911 0.780880 0.570062
0.881743 0.778347 0.580499
0.895201 0.776730 0.591791
0.908110 0.777371 0.607691
0.921263 0.781857 0.631708
0.933471 0.787961 0.657923
0.460090 0.814145 0.629541
0.460700 0.814115 0.629694
0.463264 0.813931 0.630060
0.468635 0.813535 0.630976
0.477028 0.812955 0.632502
0.488899 0.812131 0.634791
0.504173 0.811185 0.638178
0.522179 0.810117 0.642603
0.542687 0.808896 0.648035
0.565362 0.807523 0.654627
0.588861 0.806058 0.662104
0.612940 0.804501 0.670375
0.636927 0.802853 0.679255
0.643122 0.801236 0.674800
