20 Preset/Natural Wedding/【3】LUT video cho PR-AE-FCPX/Lut Tone (2).cube
# Created by Adobe Lightroom plugin Export LUT (1.24.0)
# www.johnrellis.com/lightroom/exportlut.htm
# Preset: 清新婚礼-素材江湖02
# Color profile: C:\Program Files (x86)\Common Files\Adobe\Color\Profiles\Recommended\VideoHD.icc
LUT_3D_SIZE 32
DOMAIN_MIN 0.0 0.0 0.0
DOMAIN_MAX 1.0 1.0 1.0
0.092714 0.056123 0.002716
0.092226 0.055146 0.002869
0.091615 0.055390 0.001740
0.090394 0.054627 0.001892
0.089906 0.053651 0.002075
0.092409 0.051789 0.002197
0.098421 0.050965 0.001953
0.109651 0.049134 0.001495
0.125185 0.045808 0.000793
0.145357 0.039673 0.000916
0.173709 0.029847 0.000153
0.211521 0.009552 0.000000
0.257969 0.000000 0.000000
0.310124 0.000000 0.000000
0.365423 0.000000 0.000000
0.420417 0.000000 0.000000
0.475074 0.000000 0.001465
0.528466 0.000000 0.013947
0.579797 0.000000 0.042451
0.628382 0.000000 0.088258
0.673152 0.000000 0.115084
0.713527 0.000000 0.143496
0.749050 0.000000 0.173129
0.780270 0.124392 0.204044
0.805844 0.185306 0.236759
0.829892 0.242832 0.276524
0.847807 0.293248 0.316136
0.860441 0.338689 0.354620
0.869108 0.381628 0.392432
0.874449 0.423682 0.430243
0.876829 0.465187 0.467933
0.876463 0.506279 0.504997
0.092958 0.054932 0.002869
0.092226 0.055146 0.002869
0.090852 0.055604 0.001740
0.089631 0.054841 0.001923
0.089906 0.053651 0.002075
0.092409 0.051789 0.002197
0.098421 0.050965 0.001953
0.109651 0.049134 0.001495
0.124697 0.046021 0.000793
0.144045 0.041535 0.000793
0.171908 0.031189 0.000183
0.208774 0.012238 0.000000
0.254307 0.000000 0.000000
0.305882 0.000000 0.000000
0.360693 0.000000 0.000000
0.415900 0.000000 0.000000
0.470710 0.000000 0.000000
0.524193 0.000000 0.012329
0.575555 0.000000 0.037842
0.623957 0.000000 0.083284
0.668818 0.000000 0.111574
0.709194 0.000000 0.139834
0.744961 0.000000 0.168978
0.776699 0.116365 0.199649
0.802884 0.179171 0.232181
0.827115 0.236118 0.270939
0.845274 0.285527 0.309514
0.858488 0.330938 0.347478
0.867765 0.373816 0.385260
0.873686 0.415869 0.423163
0.876585 0.457618 0.461097
0.876707 0.499123 0.498695
0.091127 0.054414 0.001892
0.091127 0.054414 0.001892
0.091127 0.054414 0.001892
0.089906 0.053651 0.002075
0.089906 0.053651 0.002075
0.092866 0.052766 0.002045
0.099519 0.051728 0.001801
0.110567 0.049897 0.001343
0.125338 0.047974 0.000488
0.145357 0.043061 0.000458
0.173098 0.033661 0.000000
0.209903 0.014496 0.000000
0.254978 0.000000 0.000000
0.306645 0.000000 0.000000
0.360845 0.000000 0.000000
0.415534 0.000000 0.000000
0.470069 0.000000 0.000000
0.523247 0.000000 0.007843
0.574456 0.000000 0.032227
0.623072 0.000000 0.078218
0.667872 0.000000 0.108309
0.708125 0.000000 0.136782
0.744015 0.000000 0.166110
0.775784 0.119997 0.197147
0.802029 0.180087 0.229557
0.826169 0.235874 0.268101
0.844297 0.284215 0.306218
0.857664 0.328496 0.343816
0.867094 0.371038 0.381567
0.873350 0.412757 0.419287
0.876524 0.454261 0.457313
0.876829 0.495644 0.494911
0.090181 0.052461 0.002228
0.090181 0.052461 0.002228
0.090181 0.052461 0.002228
0.090181 0.052461 0.002228
0.090639 0.053437 0.002045
0.094759 0.053285 0.001862
0.102235 0.053010 0.001465
0.113863 0.051942 0.000824
0.129458 0.049348 0.000000
0.149569 0.046174 0.000000
0.178073 0.036652 0.000000
0.215213 0.017090 0.000000
0.260502 0.000000 0.000000
0.311467 0.000000 0.000000
0.364843 0.000000 0.000000
0.418555 0.000000 0.000000
0.471717 0.000000 0.000000
0.524132 0.000000 0.000977
0.574243 0.000000 0.021790
0.621881 0.000000 0.063447
0.666102 0.000000 0.102205
0.706294 0.000000 0.131014
0.742123 0.000000 0.160647
0.774319 0.127077 0.192325
0.801450 0.185153 0.225956
0.825711 0.238590 0.264744
0.843992 0.285985 0.303319
0.857450 0.329992 0.341405
0.867063 0.372045 0.379614
0.873289 0.413428 0.417609
0.876463 0.454170 0.455329
0.876951 0.494331 0.492348
0.090181 0.052461 0.002228
0.090181 0.052461 0.002228
0.090181 0.052461 0.002228
0.090181 0.052461 0.002228
0.090639 0.053437 0.002045
0.094942 0.055482 0.001556
0.106416 0.058228 0.000488
0.118349 0.057893 0.000000
0.134798 0.055634 0.000000
0.155825 0.053498 0.000000
0.185153 0.043397 0.000000
0.223117 0.023590 0.000000
0.268467 0.000000 0.000000
0.319280 0.000000 0.000000
0.372259 0.000000 0.000000
0.425513 0.000000 0.000000
0.478309 0.000000 0.000000
0.529992 0.000000 0.000000
0.579644 0.000000 0.008270
0.626459 0.000000 0.047486
0.669886 0.000000 0.096132
0.709071 0.000000 0.125948
0.744350 0.060517 0.156649
0.776150 0.145937 0.188968
0.803555 0.198581 0.224491
0.826871 0.248234 0.263188
0.844541 0.292546 0.301427
0.857755 0.334356 0.339483
0.867124 0.375036 0.377447
0.873320 0.414923 0.415259
0.876555 0.454658 0.452857
0.877104 0.493843 0.489723
0.090852 0.055604 0.001740
0.090852 0.055604 0.001740
0.090852 0.055604 0.001740
0.091615 0.055390 0.001740
0.092073 0.056367 0.001587
0.094026 0.056886 0.001404
0.104219 0.061280 0.000214
0.122560 0.067231 0.000000
0.143740 0.069825 0.000000
0.167941 0.065522 0.000000
0.199496 0.055787 0.000000
0.239200 0.037140 0.000000
0.285374 0.004944 0.000000
0.336156 0.000000 0.000000
0.388220 0.000000 0.000000
0.440436 0.000000 0.000000
0.491981 0.000000 0.000000
0.542718 0.000000 0.000000
0.590936 0.000000 0.000000
0.636286 0.000000 0.028534
0.678279 0.000000 0.088411
0.716182 0.014984 0.120912
0.771664 0.161227 0.174228
0.797940 0.204227 0.208194
0.823728 0.252934 0.250248
0.843534 0.298863 0.292851
0.857481 0.340734 0.333349
0.867094 0.379889 0.372137
0.873259 0.417914 0.409918
0.876555 0.455116 0.446693
0.877348 0.491615 0.482338
0.876005 0.527184 0.516442
0.094057 0.062470 0.001770
0.094057 0.062470 0.001770
0.094759 0.062226 0.001770
0.094759 0.062226 0.001770
0.095979 0.062989 0.000458
0.098451 0.063294 0.000275
0.103304 0.066102 0.000000
0.120668 0.077089 0.000000
0.148043 0.084779 0.000000
0.193149 0.090181 0.000000
0.232120 0.085756 0.000000
0.276066 0.069123 0.000000
0.324376 0.038758 0.000000
0.373877 0.000000 0.000000
0.423743 0.000000 0.000000
0.473610 0.000000 0.000000
0.522606 0.000000 0.000000
0.570184 0.000000 0.000000
0.615869 0.000000 0.000000
0.659266 0.000000 0.008362
0.699733 0.093202 0.083253
0.736538 0.141115 0.123262
0.769711 0.182467 0.160037
0.799039 0.223972 0.200015
0.825132 0.268772 0.244785
0.843992 0.309819 0.287327
0.857389 0.347539 0.327550
0.866728 0.383734 0.365911
0.872984 0.419226 0.403174
0.876463 0.454261 0.439551
0.877562 0.489174 0.475166
0.876524 0.523705 0.509514
0.099763 0.073976 0.002136
0.099763 0.073976 0.002136
0.100099 0.072786 0.001160
0.100099 0.072786 0.001160
0.101137 0.073548 0.000977
0.103212 0.075044 0.000671
0.108064 0.076661 0.000000
0.116457 0.080751 0.000000
0.139986 0.090761 0.000000
0.176852 0.099641 0.000000
0.235538 0.107454 0.000000
0.301518 0.110780 0.000000
0.348211 0.105013 0.000000
0.395850 0.097047 0.000000
0.444099 0.087098 0.000000
0.491737 0.073304 0.000000
0.538567 0.066651 0.000000
0.584009 0.081056 0.000000
0.627680 0.101076 0.000000
0.669062 0.125704 0.000000
0.707454 0.153811 0.033814
0.742855 0.183780 0.108736
0.774289 0.215030 0.149722
0.804623 0.253300 0.195773
0.827970 0.290318 0.240391
0.845243 0.325353 0.282536
0.857908 0.358831 0.322362
0.866880 0.391638 0.360540
0.872984 0.424414 0.397925
0.876493 0.457465 0.434455
0.877745 0.490639 0.470100
0.876860 0.523949 0.504692
0.106874 0.085878 0.002838
0.106874 0.085878 0.002838
0.106935 0.085908 0.001709
0.107759 0.084993 0.001862
0.108949 0.084718 0.001831
0.110933 0.087037 0.001190
0.115694 0.088411 0.000000
0.122103 0.090303 0.000000
0.134859 0.095003 0.000000
0.169375 0.107607 0.000000
0.218784 0.120912 0.000000
0.283604 0.134890 0.000000
0.362402 0.150149 0.000000
0.422004 0.154849 0.000000
0.468208 0.153323 0.000000
0.514031 0.152590 0.000000
0.558770 0.154726 0.000000
0.602350 0.161166 0.000000
0.643610 0.171603 0.000000
0.682521 0.187167 0.000000
0.718807 0.205814 0.000000
0.751888 0.227634 0.087007
0.784451 0.255894 0.142458
0.811002 0.285588 0.191104
0.831724 0.315618 0.236240
0.847410 0.345190 0.278508
0.859037 0.374334 0.318517
0.867521 0.403723 0.356817
0.873350 0.433600 0.394293
0.876738 0.464149 0.430884
0.877897 0.495399 0.466682
0.877073 0.526970 0.501366
0.116548 0.096742 0.002960
0.116732 0.096315 0.003113
0.116732 0.096315 0.003113
0.117128 0.095491 0.003418
0.117586 0.094667 0.002564
0.119692 0.096284 0.001770
0.124453 0.098268 0.000000
0.131106 0.100893 0.000000
0.140871 0.104250 0.000000
0.160800 0.112184 0.000000
0.207340 0.131746 0.000000
0.266056 0.151369 0.000000
0.335180 0.171969 0.000000
0.410224 0.193881 0.000000
0.491737 0.215183 0.000000
0.536492 0.216159 0.000000
0.579950 0.218845 0.000000
0.621820 0.224063 0.000000
0.661219 0.232120 0.000000
0.698238 0.243137 0.000000
0.732631 0.256840 0.000000
0.765805 0.275486 0.029267
0.793301 0.295750 0.129946
0.815915 0.317418 0.181704
0.834073 0.340185 0.227573
0.848356 0.364050 0.270085
0.859312 0.388739 0.310338
0.867552 0.414771 0.349401
0.873320 0.441840 0.387518
0.876768 0.470527 0.424994
0.878080 0.500175 0.461677
0.877317 0.530602 0.497322
0.126040 0.109743 0.005615
0.126192 0.109407 0.005768
0.126436 0.109071 0.004791
0.126772 0.108339 0.005066
0.127352 0.107271 0.004395
0.129671 0.107942 0.002747
0.134096 0.110842 0.001007
0.141085 0.114504 0.000000
0.151675 0.119631 0.000000
0.166842 0.125216 0.000000
0.196017 0.138521 0.000000
0.252354 0.165743 0.000000
0.317662 0.191958 0.000000
0.387671 0.217990 0.000000
0.460243 0.242954 0.000000
0.539239 0.268284 0.000000
0.601953 0.282383 0.000000
0.641413 0.285039 0.000000
0.678676 0.289738 0.000000
0.715511 0.298619 0.000000
0.748928 0.309453 0.000000
0.777401 0.321660 0.000000
0.801511 0.336004 0.110506
0.821347 0.351690 0.171389
0.837675 0.369268 0.220584
0.850584 0.388312 0.264530
0.860716 0.409033 0.305974
0.868406 0.431495 0.345586
0.873777 0.455573 0.384253
0.877012 0.481483 0.422156
0.878172 0.508904 0.459205
0.877348 0.537377 0.495186
0.137789 0.126406 0.009369
0.137789 0.126406 0.009369
0.138094 0.125856 0.009674
0.138430 0.125277 0.008850
0.139559 0.124056 0.007172
0.140414 0.122591 0.005646
0.145113 0.126558 0.002930
0.152834 0.131411 0.000000
0.163638 0.137636 0.000000
0.178805 0.145785 0.000000
0.199954 0.154940 0.000000
0.237736 0.174380 0.000000
0.318059 0.223697 0.000000
0.387793 0.256535 0.000000
0.460182 0.286412 0.000000
0.533043 0.313329 0.000000
0.608759 0.340398 0.000000
0.683680 0.365362 0.000000
0.724392 0.371221 0.000000
0.755917 0.375372 0.000000
0.782223 0.380468 0.000000
0.804044 0.387152 0.000000
0.822385 0.395605 0.127657
0.837613 0.406622 0.190921
0.849882 0.419196 0.240909
0.859525 0.433356 0.284672
0.866941 0.449226 0.325078
0.872435 0.466896 0.363378
0.876036 0.486702 0.400214
0.877928 0.508385 0.436316
0.878111 0.531792 0.471443
0.876646 0.556847 0.505730
0.153567 0.151431 0.021759
0.153902 0.151369 0.021759
0.153994 0.150759 0.021088
0.154543 0.149477 0.018585
0.155032 0.147738 0.016388
0.155795 0.145541 0.013367
0.159640 0.147433 0.010468
0.167575 0.153658 0.006043
0.178805 0.161715 0.000000
0.194339 0.171542 0.000000
0.215640 0.183871 0.000000
0.244388 0.198367 0.000000
0.292729 0.226810 0.000000
0.364416 0.270970 0.000000
0.438544 0.309483 0.000000
0.513817 0.342382 0.000000
0.586542 0.370764 0.000000
0.654566 0.394293 0.000000
0.720363 0.415625 0.000000
0.766201 0.425818 0.000000
0.788724 0.425452 0.000000
0.808164 0.426886 0.000000
0.824735 0.430610 0.081941
0.838834 0.436835 0.169772
0.850462 0.445258 0.226139
0.859739 0.455940 0.273503
0.866941 0.468544 0.315892
0.872313 0.483223 0.355871
0.875883 0.500298 0.394110
0.877806 0.519646 0.431342
0.878019 0.540948 0.467353
0.876585 0.564202 0.502373
0.167544 0.174502 0.040620
0.167361 0.174350 0.040803
0.168002 0.173434 0.039277
0.168002 0.172274 0.036927
0.168521 0.170352 0.032929
0.169894 0.167941 0.029206
0.171786 0.166140 0.023743
0.179751 0.173220 0.019898
0.191135 0.182834 0.012726
0.206546 0.194522 0.004120
0.227878 0.209171 0.000000
0.255680 0.226505 0.000000
0.291173 0.246464 0.000000
0.344274 0.280888 0.000000
0.416022 0.325841 0.000000
0.489845 0.362768 0.000000
0.561242 0.393286 0.000000
0.627985 0.418250 0.000000
0.689662 0.439033 0.000000
0.745266 0.456153 0.000000
0.789731 0.466896 0.000000
0.811734 0.466865 0.000000
0.827115 0.466621 0.000000
0.840238 0.469001 0.145266
0.851194 0.473793 0.210880
0.860105 0.481117 0.262730
0.867124 0.490608 0.308354
0.872282 0.502312 0.349889
0.875731 0.516503 0.389319
0.877592 0.533318 0.427497
0.877775 0.552331 0.464454
0.876371 0.573541 0.500084
0.184360 0.202823 0.077485
0.184207 0.202701 0.076509
0.184237 0.202029 0.074983
0.185000 0.200473 0.070985
0.185641 0.198337 0.065309
0.186648 0.195712 0.058961
0.188144 0.192416 0.049805
0.194247 0.197208 0.044953
0.205051 0.206851 0.039338
0.219974 0.219272 0.032044
0.239872 0.234562 0.020630
0.265537 0.252598 0.002502
0.297459 0.273014 0.000000
0.335332 0.295079 0.000000
0.391150 0.331701 0.000000
0.462257 0.374151 0.000000
0.533562 0.409033 0.000000
0.600549 0.436866 0.000000
0.662318 0.459510 0.000000
0.717556 0.477424 0.000000
0.764126 0.490425 0.000000
0.802518 0.499306 0.000000
0.828885 0.502708 0.000000
0.841215 0.501671 0.109560
0.851652 0.502892 0.193484
0.860197 0.506981 0.251194
0.867002 0.513603 0.300053
0.872068 0.523125 0.344579
0.875486 0.535058 0.386297
0.877165 0.549767 0.426184
0.877287 0.567041 0.464668
0.875761 0.586603 0.501579
0.200626 0.230900 0.101442
0.200626 0.230900 0.101442
0.200931 0.230320 0.100587
0.201450 0.228916 0.098970
0.202274 0.227237 0.096193
0.203372 0.224582 0.092988
0.205112 0.221744 0.088350
0.208530 0.221286 0.082887
0.219455 0.232029 0.081361
0.234043 0.244999 0.079530
0.252659 0.260319 0.073518
0.275608 0.277592 0.062043
0.303746 0.297063 0.042878
0.337011 0.317967 0.011200
0.375616 0.339574 0.000000
0.432471 0.375280 0.000000
0.501579 0.415320 0.000000
0.569940 0.448005 0.000000
0.632532 0.473732 0.000000
0.689937 0.494636 0.000000
0.738613 0.509850 0.000000
0.779049 0.520531 0.000000
0.812680 0.528405 0.000000
0.839567 0.533501 0.040894
0.851987 0.533165 0.175143
0.860319 0.534539 0.240787
0.866880 0.538598 0.293462
0.871794 0.545281 0.340642
0.875029 0.554894 0.384344
0.876616 0.567010 0.425208
0.876616 0.581598 0.463966
0.875120 0.598474 0.500877
0.216373 0.257633 0.121798
0.216190 0.257359 0.121614
0.216587 0.257053 0.120577
0.217166 0.255741 0.119081
0.217777 0.254032 0.116487
0.218967 0.251560 0.113527
0.220523 0.248722 0.109255
0.222599 0.245487 0.103792
0.231724 0.253117 0.103578
0.245060 0.265934 0.103822
0.262181 0.281010 0.103822
0.283116 0.298100 0.102602
0.308629 0.317144 0.100069
0.338384 0.337316 0.093843
0.373724 0.358831 0.079713
0.413947 0.380407 0.035462
0.471931 0.415717 0.025818
0.538628 0.453864 0.012207
0.603479 0.484627 0.000000
0.662043 0.508293 0.000000
0.714107 0.527062 0.000000
0.756527 0.539452 0.000000
0.791745 0.548211 0.000000
0.821164 0.555016 0.112245
0.844816 0.559869 0.173037
0.859922 0.562036 0.228916
0.866361 0.563531 0.286503
0.871061 0.567895 0.336522
0.874235 0.575036 0.382147
0.875731 0.585077 0.424781
0.875700 0.597467 0.464576
0.874174 0.612146 0.501946
0.232334 0.284947 0.143130
0.232639 0.285161 0.143465
0.240940 0.297337 0.153536
0.241398 0.296208 0.152071
0.242191 0.294255 0.149203
0.243229 0.292027 0.145876
0.244724 0.289067 0.141787
0.246738 0.285344 0.136141
0.252049 0.286412 0.132540
0.265293 0.299718 0.135286
0.281468 0.314946 0.137789
0.301610 0.332311 0.140383
0.325414 0.350927 0.141848
0.353521 0.370611 0.141665
0.386114 0.390875 0.139742
0.423102 0.411780 0.135103
0.464515 0.432471 0.125460
0.521538 0.466438 0.132265
0.584375 0.500847 0.140261
0.644099 0.528038 0.131289
0.696498 0.548363 0.125093
0.739742 0.562341 0.127260
0.775204 0.571252 0.133852
0.804776 0.577691 0.161685
0.829496 0.582910 0.206638
0.849516 0.586694 0.246403
0.865751 0.589868 0.282994
0.870237 0.591180 0.334051
0.873198 0.595605 0.380529
0.874601 0.603082 0.423835
0.874540 0.613397 0.464912
0.873106 0.625818 0.502739
0.250736 0.315343 0.168399
0.251499 0.316564 0.169558
0.252811 0.317266 0.170016
0.253849 0.317327 0.169406
0.255009 0.316594 0.167849
0.256474 0.314763 0.165133
0.257847 0.311894 0.160678
0.259434 0.308354 0.155612
0.261906 0.304387 0.149386
0.272862 0.315160 0.151766
0.287907 0.329564 0.155276
0.306188 0.346105 0.158816
0.327733 0.363714 0.162417
0.353307 0.382757 0.164889
0.383246 0.402380 0.166354
0.417029 0.422980 0.166598
0.454963 0.443671 0.163851
0.496193 0.464485 0.157748
0.553796 0.498634 0.170718
0.613581 0.531304 0.183993
0.669825 0.556939 0.182528
0.716487 0.574609 0.185397
0.754513 0.586175 0.191653
0.785733 0.593530 0.199557
0.812009 0.599329 0.226261
0.833738 0.604211 0.263432
0.851316 0.608087 0.298802
0.865568 0.611566 0.332799
0.871702 0.614649 0.375219
0.873289 0.619745 0.420203
0.873320 0.627863 0.462287
0.871977 0.638514 0.501579
0.264652 0.338384 0.187747
0.265446 0.339452 0.188479
0.266453 0.340490 0.189029
0.267643 0.340703 0.188907
0.268925 0.340154 0.187686
0.270359 0.338445 0.185092
0.271397 0.336126 0.181369
0.273259 0.332677 0.176211
0.275120 0.328801 0.170413
0.281712 0.331884 0.168582
0.295598 0.345708 0.172702
0.312779 0.361547 0.177676
0.332799 0.378485 0.182162
0.356725 0.396765 0.186831
0.384009 0.416052 0.190707
0.415167 0.435950 0.193179
0.450263 0.456336 0.194736
0.488289 0.476905 0.194003
0.529778 0.497475 0.191073
0.586145 0.530907 0.207645
0.642298 0.561303 0.223850
0.692836 0.583642 0.227756
0.733577 0.598260 0.234012
0.766964 0.607996 0.242649
0.794461 0.613855 0.250462
0.817777 0.619593 0.281102
0.836759 0.624292 0.315038
0.852171 0.628382 0.348241
0.864408 0.632502 0.380804
0.871672 0.636835 0.416876
0.871885 0.642756 0.460090
0.870695 0.651331 0.500175
0.278843 0.361852 0.207523
0.279515 0.363104 0.208591
0.280674 0.363684 0.208896
0.281712 0.363958 0.208804
0.283024 0.363500 0.207553
0.284154 0.362066 0.205142
0.285313 0.359655 0.201480
0.286870 0.356603 0.196872
0.288426 0.353124 0.191379
0.290929 0.348943 0.185336
0.303990 0.362005 0.190005
0.319921 0.377050 0.195621
0.338872 0.393317 0.201022
0.360906 0.411139 0.206638
0.387091 0.429938 0.212345
0.416266 0.449592 0.217472
0.448981 0.470130 0.221958
0.485023 0.491035 0.225315
0.524559 0.512383 0.227848
0.566766 0.533593 0.228641
0.622278 0.566522 0.249516
0.673854 0.594415 0.270634
0.716640 0.612329 0.279332
0.751736 0.624567 0.289738
0.780453 0.632410 0.299809
0.804471 0.637873 0.312840
0.824125 0.643671 0.345922
0.839933 0.648554 0.378515
0.852506 0.653193 0.410254
0.862242 0.658045 0.441444
0.869657 0.663264 0.471351
0.868315 0.670069 0.511131
0.298863 0.393133 0.234989
0.299229 0.393530 0.235325
0.299809 0.393469 0.235203
0.299992 0.392950 0.234104
0.300755 0.391882 0.232364
0.301549 0.389960 0.229679
0.302373 0.387610 0.226017
0.303899 0.384680 0.221683
0.305394 0.381079 0.216190
0.307561 0.377356 0.210361
0.315923 0.382574 0.210391
0.331365 0.397284 0.216831
0.349737 0.413367 0.223362
0.370886 0.430518 0.229923
0.395453 0.448676 0.236851
0.422797 0.467994 0.243412
0.453254 0.487678 0.249424
0.486885 0.507805 0.254795
0.523156 0.528038 0.259709
0.561700 0.548119 0.263096
0.602380 0.567895 0.265446
0.653956 0.597986 0.287968
0.697017 0.619898 0.310094
0.733089 0.633661 0.319860
0.763302 0.643336 0.330144
0.788632 0.650019 0.340246
0.809812 0.655787 0.361700
0.826780 0.661555 0.393988
0.840330 0.666743 0.425422
0.850950 0.671809 0.456031
0.859007 0.677089 0.485389
0.864988 0.682795 0.513176
0.314824 0.417243 0.255772
0.315129 0.417517 0.255985
0.315435 0.417517 0.255680
0.315892 0.416938 0.254826
0.316381 0.416083 0.253239
0.317266 0.414313 0.250767
0.317998 0.412299 0.247715
0.319219 0.409339 0.243168
0.320745 0.406287 0.238376
0.322820 0.402869 0.232975
0.326055 0.400244 0.227451
0.341161 0.414466 0.234440
0.358465 0.429908 0.241459
0.379156 0.446754 0.249149
0.402472 0.464607 0.256748
0.428351 0.483314 0.264683
0.457252 0.502739 0.272190
0.488777 0.522423 0.279484
0.522820 0.542382 0.286290
0.558801 0.562066 0.292271
0.596918 0.581506 0.297490
0.635523 0.599847 0.301366
0.680995 0.625483 0.326696
0.717189 0.643183 0.351049
0.745785 0.651057 0.354162
0.772274 0.659236 0.364752
0.795071 0.665156 0.375036
0.813474 0.671809 0.406073
0.828153 0.677699 0.437598
0.839719 0.683162 0.468055
0.848569 0.688746 0.497475
0.855283 0.694484 0.525139
0.335302 0.446509 0.281315
0.335882 0.447242 0.282048
0.336400 0.447303 0.282017
0.336492 0.446509 0.280827
0.336767 0.444892 0.278630
0.337011 0.442847 0.275883
0.337163 0.440162 0.272007
0.337530 0.437018 0.267674
0.338384 0.433326 0.262455
0.339757 0.429389 0.256413
0.341161 0.424933 0.249790
0.351202 0.431861 0.251469
0.367834 0.446357 0.258457
0.386847 0.461738 0.265873
0.408301 0.478309 0.273320
0.432105 0.495644 0.281041
0.458778 0.513817 0.288853
0.487861 0.532555 0.296788
0.519585 0.551720 0.304479
0.553765 0.571099 0.312444
0.589288 0.590112 0.319310
0.625483 0.607996 0.325780
0.660639 0.623804 0.330724
0.700160 0.645472 0.357244
0.730831 0.659663 0.380865
0.757473 0.668147 0.390356
0.780636 0.674800 0.400244
0.800412 0.681056 0.419776
0.816220 0.687465 0.450233
0.828702 0.693294 0.480079
0.838407 0.699001 0.508934
0.845731 0.704860 0.536461
0.352239 0.469490 0.301183
0.352697 0.470100 0.301579
0.353246 0.470344 0.301823
0.353552 0.469978 0.301030
0.354070 0.468788 0.299413
0.354284 0.467292 0.297093
0.355108 0.465370 0.294163
0.355993 0.463050 0.290623
0.357122 0.460334 0.286381
0.358801 0.457343 0.281376
0.360449 0.453803 0.275608
0.364904 0.452796 0.271519
0.381262 0.466926 0.279240
0.399634 0.482124 0.287144
0.420111 0.498024 0.295079
0.442878 0.514733 0.303502
0.468086 0.531945 0.311833
0.495491 0.549859 0.320348
0.525078 0.568048 0.329229
0.556939 0.586450 0.337987
0.590082 0.604547 0.346746
0.623011 0.621027 0.354925
0.655116 0.635767 0.362219
0.686275 0.648951 0.368048
0.720027 0.666926 0.395911
0.745724 0.678431 0.419867
0.768551 0.685389 0.429603
0.788571 0.691096 0.440070
0.805142 0.698207 0.469947
0.818235 0.704494 0.499001
0.828458 0.710445 0.526940
0.836362 0.716274 0.553155
0.374121 0.497932 0.326390
0.374395 0.498268 0.326726
0.374762 0.498329 0.326574
0.375006 0.497688 0.325597
0.375219 0.496742 0.324102
0.375586 0.495247 0.321904
0.376043 0.493507 0.319158
0.376959 0.491157 0.315679
0.377813 0.488624 0.311559
0.379278 0.485664 0.306950
0.380835 0.482338 0.301488
0.383032 0.478553 0.295293
0.395392 0.487587 0.299290
0.412726 0.502098 0.307500
0.432593 0.517479 0.315892
0.454139 0.533196 0.324498
0.477913 0.549615 0.333318
0.503868 0.566583 0.342443
0.531640 0.583886 0.351843
0.561456 0.601343 0.361517
0.591669 0.617792 0.371252
0.621668 0.632929 0.380591
0.650996 0.646509 0.389258
0.679469 0.658686 0.396735
0.706783 0.669459 0.402533
0.735470 0.684413 0.430182
0.757259 0.693843 0.453285
0.777035 0.699519 0.462287
0.793912 0.705715 0.483772
0.807950 0.712612 0.512444
0.818967 0.718929 0.540002
0.827665 0.724880 0.565270
0.397253 0.526360 0.352148
0.397650 0.526543 0.352331
0.397772 0.526665 0.352178
0.398230 0.526299 0.351568
0.398688 0.525719 0.350408
0.399542 0.524956 0.348852
0.401038 0.524468 0.347631
0.402930 0.523796 0.345708
0.405310 0.523064 0.343542
0.407904 0.522179 0.341039
0.411231 0.520897 0.337682
0.414618 0.519188 0.333806
0.422156 0.521782 0.333165
0.440436 0.536522 0.342870
0.460517 0.551873 0.352819
0.481819 0.567132 0.362463
0.504784 0.582605 0.372198
0.529320 0.598444 0.382238
0.555108 0.613947 0.392737
0.581537 0.628779 0.403326
0.608087 0.642603 0.414282
0.634211 0.655360 0.424659
0.659632 0.666865 0.434333
0.684047 0.677150 0.442725
0.707607 0.686366 0.449775
0.730251 0.694606 0.455055
0.753323 0.706355 0.481453
0.770565 0.713619 0.502617
0.786282 0.718990 0.519127
0.799435 0.724453 0.540703
0.810697 0.730800 0.565484
0.819944 0.736538 0.587427
0.435981 0.568658 0.393622
0.435981 0.568536 0.393530
0.436072 0.568292 0.393256
0.436072 0.567773 0.392340
0.436286 0.567010 0.391089
0.436530 0.565942 0.389258
0.437018 0.564660 0.386999
0.437964 0.563287 0.384558
0.439216 0.561730 0.381567
0.440925 0.559960 0.378058
0.443000 0.558007 0.374212
0.445258 0.555688 0.369543
0.447913 0.553063 0.364416
0.462684 0.563409 0.370977
