20 Preset/Natural Wedding/【3】LUT video cho PR-AE-FCPX/Lut Tone (9).cube
# Created by Adobe Lightroom plugin Export LUT (1.24.0)
# www.johnrellis.com/lightroom/exportlut.htm
# Preset: 清新婚礼-素材江湖09
# Color profile: C:\Program Files (x86)\Common Files\Adobe\Color\Profiles\Recommended\VideoHD.icc
LUT_3D_SIZE 8
DOMAIN_MIN 0.000000 0.000000 0.000000
DOMAIN_MAX 0.903226 0.903226 0.903226
0.000000 0.000000 0.000000
0.030579 0.012146 0.002258
0.244938 0.000000 0.008179
0.553063 0.000000 0.051820
0.780270 0.074342 0.191257
0.867521 0.337011 0.320836
0.875486 0.504753 0.473426
0.856474 0.616175 0.602411
0.006806 0.031495 0.004608
0.017182 0.027008 0.003906
0.213962 0.050629 0.002533
0.515251 0.000000 0.026459
0.755947 0.139193 0.173648
0.859007 0.338903 0.306859
0.874723 0.492256 0.451179
0.857481 0.607294 0.589014
0.037476 0.165438 0.087922
0.089631 0.157992 0.084596
0.162295 0.135744 0.024842
0.467872 0.200168 0.000000
0.720485 0.285313 0.154604
0.843381 0.412360 0.307622
0.863310 0.533684 0.466377
0.849241 0.629694 0.601312
0.235080 0.382238 0.270726
0.246128 0.377325 0.265690
0.310277 0.360266 0.271336
0.418067 0.332799 0.179843
0.687984 0.436164 0.180911
0.815061 0.509392 0.311345
0.844419 0.578668 0.467353
0.838254 0.649470 0.600946
0.428931 0.594354 0.471992
0.435096 0.592859 0.469490
0.472847 0.588617 0.475837
0.518334 0.575982 0.453803
0.609247 0.529503 0.337011
0.762478 0.580285 0.338476
0.818936 0.620111 0.449561
0.823178 0.672786 0.597375
0.580133 0.705653 0.639673
0.587335 0.708125 0.643824
0.597864 0.707424 0.644007
0.627283 0.704372 0.655573
0.638911 0.693050 0.613825
0.705104 0.662867 0.517144
0.777493 0.680934 0.536553
0.803403 0.706050 0.609155
0.669581 0.756069 0.717922
0.670985 0.756344 0.718379
0.674098 0.755978 0.718074
0.683314 0.755093 0.720455
0.693172 0.752377 0.721370
0.698543 0.745937 0.695216
0.735348 0.729397 0.646937
0.773373 0.739406 0.664363
0.711727 0.789487 0.753994
0.712062 0.789425 0.753902
0.713771 0.789425 0.753780
0.717800 0.789425 0.754177
0.722866 0.785733 0.753872
0.727169 0.783688 0.750179
0.734890 0.779446 0.734890
0.757534 0.770657 0.716396
0.006867 0.018921 0.013092
0.022675 0.016175 0.008637
0.216770 0.008270 0.014557
0.493751 0.000000 0.023133
0.745113 0.122866 0.164889
0.855955 0.328038 0.298955
0.875639 0.480049 0.438483
0.859922 0.596765 0.577813
0.000000 0.044251 0.015442
0.032105 0.050599 0.017304
0.202243 0.078004 0.023316
0.478401 0.000000 0.009491
0.733089 0.169802 0.157717
0.850553 0.340734 0.294316
0.873625 0.478370 0.428412
0.860075 0.592065 0.568688
0.029023 0.168643 0.099916
0.117433 0.173098 0.113344
0.179355 0.152834 0.082643
0.450629 0.207858 0.017548
0.699916 0.282933 0.138308
0.833341 0.400336 0.287663
0.863493 0.510185 0.431159
0.852598 0.611627 0.577203
0.217990 0.369635 0.266239
0.258762 0.371313 0.276890
0.320592 0.360662 0.286564
0.402289 0.325628 0.202487
0.656428 0.412329 0.185092
0.801205 0.483467 0.276677
0.844755 0.555383 0.428046
0.841489 0.632563 0.576196
0.417334 0.587121 0.465888
0.437446 0.586542 0.472724
0.468330 0.581415 0.472602
0.512963 0.566278 0.455756
0.594568 0.517845 0.342687
0.752865 0.570947 0.337163
0.818265 0.610040 0.427832
0.824643 0.664424 0.582757
0.569085 0.700465 0.631800
0.578515 0.700832 0.636103
0.590204 0.700587 0.636774
0.621241 0.698848 0.649409
0.635248 0.688655 0.613153
0.700618 0.660700 0.523430
0.777127 0.676661 0.526268
0.803799 0.701900 0.600732
0.664179 0.753384 0.714260
0.666590 0.753140 0.714992
0.669764 0.752743 0.714595
0.679652 0.752316 0.717311
0.691890 0.750637 0.720516
0.696742 0.744106 0.694514
0.732967 0.726833 0.645319
0.772854 0.735439 0.656825
0.709255 0.787686 0.752316
0.710933 0.788174 0.753109
0.712581 0.788113 0.752956
0.716426 0.788266 0.753292
0.724727 0.787381 0.755581
0.728389 0.784543 0.751614
0.734951 0.779568 0.735958
0.757198 0.770230 0.715755
0.000000 0.085267 0.136995
0.064546 0.081086 0.133974
0.154330 0.056550 0.104311
0.459663 0.000000 0.163424
0.736873 0.232853 0.260105
0.846464 0.368688 0.309392
0.869963 0.499733 0.441901
0.855833 0.608484 0.584558
0.000000 0.111940 0.144442
0.075074 0.112978 0.150057
0.173922 0.100191 0.122896
0.463935 0.107485 0.180240
0.721370 0.260716 0.263554
0.838865 0.381994 0.312596
0.868162 0.497780 0.432319
0.855772 0.605249 0.577356
0.000000 0.193820 0.179599
0.056977 0.197391 0.182681
0.230442 0.211154 0.197665
0.466468 0.267002 0.239170
0.696223 0.352453 0.285557
0.822385 0.440070 0.332250
0.858976 0.523186 0.432410
0.849882 0.617945 0.579309
0.164157 0.384649 0.297978
0.220645 0.388342 0.305791
0.359716 0.399908 0.338933
0.433509 0.376379 0.305425
0.659663 0.459571 0.316258
0.790372 0.521172 0.367163
0.841459 0.566400 0.433631
0.838804 0.640345 0.582818
0.390509 0.588190 0.477699
0.413703 0.588739 0.484108
0.492500 0.593194 0.514794
0.545525 0.590936 0.530144
0.605035 0.551141 0.431495
0.742580 0.599176 0.440070
0.810269 0.622766 0.465034
0.823331 0.667506 0.585168
0.556512 0.699855 0.632715
0.567193 0.700435 0.637110
0.602380 0.701717 0.652094
0.626856 0.701625 0.659327
0.643732 0.694331 0.643549
0.693935 0.670680 0.576196
0.764004 0.689815 0.584863
0.802914 0.703334 0.603235
0.660578 0.754086 0.714961
0.663508 0.753964 0.715938
0.675563 0.754116 0.720638
0.682826 0.753994 0.721523
0.697078 0.753201 0.727199
0.700587 0.747433 0.707881
0.730098 0.733303 0.671046
0.772183 0.738857 0.664698
0.706050 0.787655 0.751797
0.707668 0.787747 0.752377
0.714504 0.788724 0.755123
0.718593 0.789456 0.755703
0.726467 0.788937 0.757656
0.731930 0.786923 0.756100
0.737270 0.782040 0.742031
0.757412 0.771908 0.719875
0.000000 0.159091 0.312352
0.088441 0.162325 0.315862
0.237186 0.147402 0.298955
0.351354 0.125643 0.261631
0.627039 0.224277 0.340978
0.819028 0.389868 0.427619
0.838926 0.556939 0.543389
0.854704 0.605066 0.574334
0.000000 0.192538 0.320714
0.124819 0.195315 0.324712
0.254398 0.183566 0.313115
0.365393 0.163272 0.278050
0.633356 0.258518 0.353887
0.812894 0.422705 0.446693
0.835264 0.563073 0.546654
0.852262 0.609125 0.576928
0.084962 0.269596 0.338537
0.147738 0.272038 0.339300
0.279332 0.280491 0.347234
0.396612 0.265721 0.320928
0.656641 0.367254 0.401953
0.788357 0.530419 0.522332
0.819394 0.600732 0.576349
0.841459 0.633753 0.598138
0.089906 0.403326 0.388251
0.163210 0.404059 0.388403
0.303044 0.410071 0.392950
0.455299 0.427222 0.408179
0.647456 0.505272 0.469123
0.757076 0.576928 0.533501
0.801266 0.627161 0.583917
0.827970 0.655512 0.609064
0.312108 0.594232 0.512108
0.342565 0.593866 0.514641
0.439429 0.596033 0.530419
0.557031 0.605463 0.570245
0.608789 0.587427 0.537469
0.723812 0.633417 0.560388
0.777493 0.667384 0.606622
0.809018 0.687648 0.630701
0.535271 0.703365 0.643519
0.550134 0.705501 0.649226
0.585992 0.705440 0.658656
0.638025 0.707973 0.678065
0.663020 0.708736 0.685237
0.688991 0.688746 0.640894
0.748653 0.708980 0.650660
0.789059 0.720119 0.654810
0.648829 0.754421 0.714748
0.652979 0.754696 0.716182
0.667781 0.755337 0.721340
0.690089 0.757198 0.730282
0.702449 0.758022 0.734310
0.707820 0.753994 0.726192
0.727260 0.741787 0.700191
0.765743 0.749722 0.697414
0.699489 0.788571 0.751614
0.701381 0.788754 0.752285
0.709133 0.789670 0.755032
0.722896 0.791867 0.760464
0.729183 0.792020 0.761257
0.738399 0.791043 0.763546
0.741054 0.786221 0.751186
0.758145 0.777066 0.733333
0.149569 0.269841 0.476875
0.197757 0.274113 0.481422
0.306554 0.267521 0.470802
0.433692 0.243717 0.448188
0.538842 0.237095 0.414557
0.721645 0.386847 0.494484
0.815793 0.534356 0.584009
0.818692 0.652003 0.662196
0.177340 0.295384 0.481758
0.218112 0.299260 0.486275
0.320104 0.295537 0.481178
0.439734 0.269718 0.456336
0.543847 0.263645 0.423926
0.722103 0.406073 0.504143
0.811612 0.547601 0.592035
0.815213 0.659449 0.667445
0.203403 0.359991 0.489845
0.233188 0.361089 0.490547
0.336950 0.369268 0.501549
0.454261 0.354192 0.485908
0.553948 0.346990 0.453956
0.718502 0.465949 0.532891
0.796567 0.590509 0.617700
0.803616 0.683131 0.683803
0.227543 0.459358 0.527825
0.256931 0.460060 0.527550
0.347417 0.464332 0.527947
0.470100 0.475837 0.537346
0.572747 0.471656 0.516350
0.717647 0.568902 0.595727
0.769436 0.666011 0.669093
0.794797 0.701869 0.692866
0.274357 0.580011 0.579126
0.300572 0.580926 0.579950
0.383795 0.582879 0.581598
0.490547 0.587243 0.585534
0.593133 0.595727 0.593469
0.701686 0.652735 0.642573
0.753994 0.693324 0.677516
0.786282 0.716304 0.695064
0.449653 0.691402 0.645106
0.463630 0.691920 0.646632
0.510521 0.692744 0.651087
0.582757 0.693629 0.662165
0.651362 0.698604 0.682643
0.679957 0.693660 0.672511
0.738003 0.719356 0.687404
0.775113 0.736965 0.703090
0.617060 0.753048 0.712367
0.621027 0.752773 0.712886
0.638025 0.752438 0.716091
0.668360 0.753780 0.724300
0.699672 0.756741 0.735592
0.712886 0.757931 0.739101
0.724147 0.746639 0.718837
0.761410 0.756619 0.718471
0.677821 0.786191 0.746700
0.680323 0.786282 0.747372
0.690364 0.786862 0.750149
0.708614 0.789578 0.756466
0.730190 0.793118 0.764492
0.740932 0.793881 0.767391
0.744594 0.790127 0.760494
0.757961 0.780850 0.744503
0.291173 0.399817 0.634302
0.315862 0.402960 0.635798
0.385473 0.400702 0.630915
0.482094 0.388708 0.620142
0.589471 0.362737 0.598535
0.670985 0.372656 0.569451
0.761501 0.525383 0.622705
0.796841 0.644190 0.682368
0.295079 0.408850 0.628931
0.317174 0.410620 0.629694
0.388190 0.412421 0.628473
0.479194 0.398047 0.616236
0.584314 0.372595 0.594995
0.666316 0.382544 0.567926
0.757778 0.529534 0.622095
0.795285 0.645960 0.682521
0.316777 0.460029 0.635340
0.336339 0.461189 0.635981
0.406714 0.468025 0.639796
0.490822 0.458106 0.630182
0.586755 0.435431 0.611078
0.666224 0.444617 0.588739
0.747677 0.569818 0.638575
0.788235 0.667567 0.693904
0.344945 0.531395 0.649042
0.358740 0.531060 0.647822
0.412146 0.532494 0.645014
0.510033 0.547021 0.653620
0.595972 0.537133 0.644068
0.668482 0.542138 0.628046
0.739406 0.635157 0.672114
0.780240 0.701381 0.713008
0.381598 0.608759 0.665522
0.394415 0.608942 0.665187
0.441840 0.610315 0.664210
0.512749 0.613031 0.662867
0.595453 0.620539 0.665095
0.661585 0.621759 0.656123
0.735225 0.686519 0.698451
0.775143 0.732876 0.730159
0.446174 0.686275 0.687282
0.459052 0.687373 0.688350
0.495796 0.687587 0.688350
0.552239 0.688350 0.688808
0.612085 0.689784 0.689509
0.670405 0.695186 0.693690
0.732509 0.731838 0.722133
0.771084 0.751553 0.735744
0.576135 0.749996 0.719966
0.582666 0.750362 0.720790
0.603601 0.750851 0.722683
0.637385 0.752316 0.726619
0.675624 0.754360 0.732753
0.710811 0.757534 0.742245
0.723232 0.752773 0.735500
0.762173 0.766018 0.738766
0.653895 0.786587 0.748165
0.656062 0.786496 0.748379
0.666377 0.786618 0.749996
0.684871 0.787930 0.753750
0.709865 0.790463 0.759854
0.739895 0.795285 0.769833
0.751827 0.796201 0.772061
0.759792 0.786618 0.757198
0.445045 0.527489 0.717342
0.458045 0.530907 0.717891
0.494514 0.534020 0.716548
0.543267 0.525078 0.712154
0.608728 0.507958 0.703975
0.687160 0.481514 0.691066
0.739925 0.499580 0.671962
0.770626 0.623407 0.693416
0.440009 0.528161 0.713954
0.453162 0.531823 0.714809
0.493050 0.537591 0.714199
0.539422 0.527123 0.709255
0.604211 0.509392 0.700832
0.681880 0.482002 0.687190
0.735195 0.497932 0.667475
0.768978 0.619074 0.689723
0.449897 0.556298 0.714382
0.459846 0.557549 0.714351
0.497780 0.562524 0.714015
0.548699 0.561578 0.711208
0.605371 0.544579 0.703151
0.677302 0.521172 0.691279
0.730159 0.539269 0.676753
0.762600 0.645350 0.699855
0.456794 0.596857 0.715328
0.462379 0.595972 0.714351
0.496590 0.598322 0.713649
0.559289 0.609277 0.714687
0.611933 0.603174 0.709957
0.672358 0.586328 0.701045
0.721157 0.600916 0.691188
0.753994 0.677790 0.712154
0.479866 0.645319 0.719814
0.484352 0.644434 0.718959
0.507164 0.643732 0.717006
0.547295 0.643641 0.714137
0.612146 0.652338 0.714870
0.664179 0.643885 0.708888
0.710414 0.651118 0.702083
0.749538 0.709682 0.726040
0.517723 0.697414 0.727199
0.523278 0.697658 0.727169
0.543786 0.698146 0.726711
0.577600 0.698726 0.725734
0.617609 0.698299 0.723690
0.666590 0.701808 0.723873
0.707668 0.705623 0.721004
0.756283 0.743465 0.744289
0.566125 0.743862 0.738094
0.570947 0.744167 0.738308
0.586908 0.744259 0.738399
0.614893 0.744717 0.738705
0.648066 0.745205 0.738949
0.681636 0.746120 0.739406
0.713497 0.747768 0.740352
0.765103 0.773587 0.758663
0.624933 0.782498 0.754086
0.628107 0.782650 0.754360
0.641138 0.783536 0.755825
0.661402 0.785000 0.757992
0.686366 0.787808 0.761318
0.715511 0.792081 0.766415
0.751492 0.797665 0.775875
0.762417 0.793057 0.769986
0.591882 0.652430 0.756344
0.596704 0.654047 0.756374
0.611536 0.656886 0.755337
0.628443 0.651972 0.753872
0.654292 0.642908 0.751247
0.690486 0.628229 0.747127
0.737423 0.611841 0.742214
0.765072 0.620813 0.729335
0.588037 0.651148 0.755276
0.592981 0.652857 0.755306
0.609003 0.656489 0.754635
0.626856 0.652613 0.753017
0.652583 0.643458 0.750393
0.688808 0.628901 0.746304
0.735683 0.611292 0.741024
0.763699 0.619928 0.728084
0.585626 0.658259 0.754299
0.589960 0.659266 0.754238
0.605402 0.662043 0.753536
0.630671 0.666072 0.752895
0.653315 0.656764 0.750118
0.686305 0.642298 0.745876
0.731106 0.625269 0.740597
0.758846 0.634668 0.729366
0.578515 0.670924 0.753353
0.583307 0.671962 0.753384
0.599451 0.674403 0.752895
0.628748 0.680537 0.752438
0.655116 0.678767 0.750546
0.684230 0.667567 0.746822
0.724544 0.652064 0.741695
0.751614 0.661616 0.733272
0.577203 0.692103 0.754208
0.580377 0.692500 0.754177
0.589502 0.691554 0.753201
0.613062 0.692866 0.751766
0.651789 0.699245 0.751278
0.680812 0.693904 0.748348
0.715969 0.682002 0.743740
0.744137 0.690333 0.738064
0.589685 0.721462 0.756832
0.591150 0.721004 0.756558
0.598901 0.719966 0.755642
0.615473 0.719020 0.754452
0.638819 0.717433 0.752651
0.678950 0.722560 0.752834
0.711818 0.718685 0.750210
0.740291 0.724056 0.747127
0.610285 0.753628 0.762417
0.612207 0.753536 0.762325
0.620447 0.753323 0.761990
0.636316 0.753414 0.761654
0.657404 0.753201 0.761074
0.680964 0.752071 0.759915
0.710170 0.751064 0.759152
0.740475 0.752682 0.756802
0.627893 0.783017 0.769650
0.629603 0.782986 0.769650
0.637568 0.783047 0.769741
0.652522 0.783658 0.770230
0.672358 0.784421 0.770932
0.695308 0.785458 0.771756
0.721431 0.786954 0.772915
0.751888 0.787961 0.773465
