20 Preset/Natural Wedding/【3】LUT video cho PR-AE-FCPX/Lut Tone (9).cube
# Created by Adobe Lightroom plugin Export LUT (1.24.0)
# www.johnrellis.com/lightroom/exportlut.htm
# Preset: 清新婚礼-素材江湖09
# Color profile: C:\Program Files (x86)\Common Files\Adobe\Color\Profiles\Recommended\VideoHD.icc
LUT_3D_SIZE 5
DOMAIN_MIN 0.000000 0.000000 0.000000
DOMAIN_MAX 0.903226 0.903226 0.903226
0.000000 0.000000 0.000000
0.174594 0.012238 0.005798
0.684718 0.000000 0.122560
0.875364 0.386358 0.358129
0.856474 0.616175 0.602411
0.022248 0.125978 0.048402
0.117128 0.105562 0.013886
0.626307 0.197971 0.081605
0.860563 0.431189 0.349859
0.850645 0.628717 0.604608
0.338750 0.501061 0.369421
0.380224 0.488869 0.366522
0.529931 0.442023 0.264469
0.808347 0.555627 0.334081
0.831571 0.658961 0.596796
0.613581 0.724514 0.670222
0.621088 0.724300 0.670497
0.653681 0.719722 0.678187
0.715999 0.684657 0.558709
0.795224 0.715572 0.623957
0.711727 0.789487 0.753994
0.713161 0.789425 0.753780
0.718502 0.786221 0.752621
0.727932 0.782834 0.747158
0.757534 0.770657 0.716396
0.004273 0.062440 0.100526
0.114290 0.044923 0.073976
0.630823 0.119722 0.182345
0.860075 0.388373 0.326757
0.857908 0.600763 0.577295
0.000000 0.149752 0.127993
0.173800 0.164279 0.142733
0.594903 0.258762 0.211154
0.847013 0.427131 0.320470
0.852659 0.611841 0.577966
0.298161 0.490547 0.373022
0.403906 0.495277 0.402594
0.519829 0.451942 0.333837
0.793301 0.554437 0.355871
0.831357 0.655695 0.588464
0.604059 0.723049 0.668788
0.629175 0.724208 0.679774
0.662654 0.722866 0.691218
0.709346 0.691798 0.600763
0.794736 0.714809 0.622217
0.708949 0.789151 0.753414
0.714992 0.789944 0.755825
0.722530 0.789731 0.756558
0.732113 0.786038 0.752590
0.758633 0.772549 0.719234
0.033906 0.212284 0.393896
0.238987 0.210056 0.388922
0.449683 0.176394 0.338628
0.807034 0.423163 0.486824
0.827695 0.649714 0.644099
0.147066 0.293523 0.406806
0.274144 0.300267 0.416358
0.474769 0.276005 0.375067
0.793576 0.492287 0.525566
0.821073 0.661524 0.650599
0.183108 0.498604 0.487465
0.306554 0.501335 0.489509
0.533837 0.519615 0.507744
0.741238 0.633661 0.611200
0.802884 0.692073 0.662867
0.549401 0.719326 0.668025
0.578332 0.717952 0.672602
0.661738 0.721767 0.699031
0.698054 0.709194 0.675898
0.776944 0.732906 0.682063
0.689815 0.786709 0.748684
0.698177 0.787655 0.751522
0.725643 0.791867 0.761837
0.740352 0.791348 0.764431
0.757229 0.778012 0.737942
0.321355 0.425666 0.656641
0.388586 0.431586 0.657313
0.538537 0.407141 0.638453
0.690730 0.399329 0.596674
0.789487 0.636988 0.683040
0.338750 0.465522 0.655665
0.399908 0.471321 0.657801
0.540551 0.454597 0.643763
0.684932 0.446113 0.606500
0.783474 0.653101 0.690028
0.372168 0.571527 0.667689
0.413672 0.571283 0.664912
0.549157 0.582757 0.666529
0.672389 0.578210 0.645808
0.771359 0.706996 0.717617
0.488136 0.705898 0.705257
0.513634 0.705379 0.704646
0.594934 0.706630 0.705348
0.683162 0.711086 0.708248
0.768429 0.756649 0.741329
0.646540 0.786801 0.749325
0.656916 0.787015 0.750820
0.691676 0.789303 0.757198
0.743557 0.796597 0.771939
0.760433 0.788235 0.760433
0.591882 0.652430 0.756344
0.606470 0.655695 0.755673
0.640253 0.648219 0.752743
0.701503 0.623896 0.745937
0.765072 0.620813 0.729335
0.587457 0.656733 0.754788
0.602441 0.659937 0.754269
0.639918 0.657557 0.751644
0.697810 0.634424 0.744900
0.760464 0.632044 0.729671
0.574060 0.679652 0.753445
0.585962 0.679957 0.752438
0.638819 0.688380 0.751247
0.689418 0.674769 0.745357
0.747707 0.674739 0.735103
0.597528 0.730983 0.758694
0.604578 0.730312 0.758022
0.633631 0.728817 0.756039
0.686336 0.729213 0.753841
0.739864 0.731411 0.749386
0.627893 0.783017 0.769650
0.634882 0.783017 0.769680
0.662013 0.784024 0.770565
0.701472 0.785824 0.772030
0.751888 0.787961 0.773465
