20 Preset/Natural Wedding/【3】LUT video cho PR-AE-FCPX/Lut Tone (17).cube
# Created by Adobe Lightroom plugin Export LUT (1.24.0)
# www.johnrellis.com/lightroom/exportlut.htm
# Preset: 清新婚礼-素材江湖17
# Color profile: C:\Program Files (x86)\Common Files\Adobe\Color\Profiles\Recommended\VideoHD.icc
LUT_3D_SIZE 8
DOMAIN_MIN 0.000000 0.000000 0.000000
DOMAIN_MAX 0.903226 0.903226 0.903226
0.000000 0.000000 0.000000
0.000000 0.010163 0.000885
0.128084 0.028260 0.016480
0.271366 0.027955 0.093660
0.507591 0.000000 0.156039
0.752316 0.000000 0.220981
0.910155 0.312627 0.332097
0.973816 0.520531 0.484993
0.000000 0.025025 0.001373
0.000000 0.026551 0.000000
0.123781 0.044068 0.005676
0.255314 0.041657 0.070069
0.474708 0.000000 0.140230
0.729488 0.000000 0.205203
0.889158 0.267887 0.301183
0.966796 0.489143 0.449317
0.000000 0.127077 0.043336
0.000000 0.126162 0.048463
0.127810 0.124636 0.016907
0.272618 0.119448 0.031647
0.481605 0.120363 0.102998
0.748165 0.161776 0.179355
0.906737 0.330480 0.292241
0.976806 0.523491 0.456519
0.000000 0.237858 0.146212
0.000000 0.237095 0.149874
0.116213 0.216373 0.152316
0.299229 0.251652 0.115877
0.568902 0.292424 0.089082
0.773526 0.324010 0.125490
0.907622 0.394324 0.238010
0.979980 0.536400 0.412543
0.000000 0.444434 0.220279
0.000000 0.444221 0.220310
0.000000 0.440894 0.219211
0.264408 0.405646 0.217899
0.536126 0.458930 0.133150
0.741360 0.462806 0.119356
0.882658 0.481819 0.186526
0.977417 0.559869 0.332158
0.000000 0.637079 0.301488
0.000000 0.644404 0.310765
0.000000 0.641993 0.329198
0.298344 0.612909 0.324865
0.478462 0.600336 0.294224
0.721157 0.627955 0.223362
0.867216 0.624018 0.260563
0.969512 0.650965 0.348913
0.000000 0.762417 0.456916
0.000000 0.762539 0.464485
0.284489 0.756924 0.484474
0.455360 0.745937 0.498878
0.549493 0.713832 0.483314
0.667475 0.723110 0.446021
0.841978 0.741238 0.402228
0.940002 0.744503 0.459876
0.452125 0.852750 0.666224
0.469429 0.851835 0.668666
0.536034 0.848753 0.681270
0.634302 0.843717 0.706905
0.663996 0.823209 0.673671
0.728511 0.810575 0.673243
0.822873 0.824094 0.653101
0.931456 0.832975 0.632074
0.000000 0.011994 0.008728
0.000000 0.011109 0.006409
0.117250 0.037537 0.021729
0.241672 0.044160 0.063630
0.456306 0.000000 0.134829
0.712673 0.000000 0.198947
0.876249 0.240543 0.288457
0.959930 0.462776 0.427344
0.000000 0.038209 0.014496
0.000000 0.040558 0.014923
0.121004 0.063539 0.030304
0.243320 0.069947 0.068818
0.449714 0.013519 0.125887
0.705837 0.000000 0.190372
0.865599 0.227237 0.273777
0.954345 0.442023 0.405005
0.000000 0.132235 0.082765
0.000000 0.133059 0.089754
0.130678 0.131655 0.072358
0.265721 0.131533 0.092348
0.459693 0.132448 0.115389
0.709926 0.154299 0.162051
0.871336 0.273136 0.253727
0.962341 0.468818 0.401373
0.000000 0.232486 0.154208
0.000000 0.232822 0.157382
0.119905 0.220859 0.163577
0.279942 0.239506 0.133791
0.510918 0.262882 0.119600
0.720485 0.292058 0.141176
0.868070 0.344915 0.199283
0.963561 0.484321 0.358160
0.000000 0.439307 0.228428
0.000000 0.437720 0.228000
0.000000 0.436896 0.232303
0.256901 0.389807 0.225162
0.506798 0.434211 0.153170
0.715572 0.442908 0.137026
0.862547 0.464881 0.191226
0.966308 0.533837 0.299718
0.000000 0.625605 0.300877
0.000000 0.625879 0.303319
0.000000 0.625177 0.318700
0.279393 0.601434 0.320897
0.465248 0.587915 0.296208
0.710842 0.620478 0.232914
0.857511 0.616052 0.264195
0.961486 0.641047 0.343542
0.000000 0.753140 0.441871
0.000000 0.750546 0.443275
0.202243 0.744961 0.461463
0.432715 0.736049 0.484749
0.537346 0.706722 0.474525
0.655634 0.714565 0.438453
0.830259 0.731014 0.388861
0.931304 0.732265 0.438117
0.414862 0.847532 0.650141
0.440192 0.847654 0.655970
0.511284 0.844327 0.667994
0.616571 0.839445 0.694759
0.676478 0.828794 0.690486
0.732235 0.812345 0.681819
0.820798 0.823087 0.654902
0.929686 0.831907 0.632990
0.000000 0.069276 0.125368
0.000000 0.045869 0.123507
0.125917 0.035676 0.111543
0.265965 0.089754 0.143374
0.487007 0.107698 0.195804
0.731655 0.128115 0.228122
0.883757 0.274388 0.279301
0.966003 0.482918 0.430762
0.000000 0.097688 0.136782
0.000000 0.095857 0.137942
0.131624 0.083711 0.126162
0.263859 0.116548 0.155795
0.478157 0.127413 0.195956
0.721767 0.148836 0.226291
0.873655 0.263798 0.265568
0.961913 0.467262 0.411719
0.000000 0.157900 0.164126
0.000000 0.159426 0.165743
0.146761 0.161746 0.171633
0.286503 0.175448 0.186252
0.508446 0.188296 0.205753
0.733608 0.228824 0.231022
0.875151 0.318578 0.270970
0.964752 0.478126 0.396033
0.000000 0.266514 0.211093
0.000000 0.269871 0.213718
0.114626 0.280125 0.223148
0.322515 0.286503 0.210330
0.554650 0.307073 0.210147
0.743618 0.343084 0.234562
0.875303 0.406256 0.279942
0.968627 0.502617 0.362188
0.000000 0.473518 0.277043
0.000000 0.474006 0.276493
0.000000 0.478798 0.281102
0.307286 0.445808 0.289036
0.544976 0.480018 0.236606
0.731838 0.473030 0.229984
0.863706 0.500603 0.281590
0.960388 0.569268 0.373907
0.000000 0.640375 0.343938
0.000000 0.641230 0.346624
0.000000 0.639796 0.358434
0.332708 0.628016 0.377386
0.489723 0.600702 0.358160
0.712764 0.631434 0.311131
0.853666 0.629297 0.335760
0.954528 0.660883 0.418555
0.000000 0.763027 0.479713
0.000000 0.760800 0.481025
0.201877 0.754269 0.494270
0.466407 0.745754 0.531304
0.560479 0.719814 0.516991
0.666011 0.721462 0.491463
0.832639 0.741390 0.457679
0.931395 0.746120 0.502617
0.392035 0.851133 0.663233
0.411597 0.849729 0.664149
0.489357 0.846281 0.674861
0.606348 0.842466 0.703120
0.682155 0.832944 0.708370
0.739132 0.815579 0.703670
0.823087 0.826444 0.682612
0.928466 0.835416 0.663050
0.000000 0.119020 0.239048
0.000000 0.119142 0.241764
0.064973 0.104555 0.228183
0.261540 0.084840 0.221225
0.500969 0.000000 0.254917
0.741817 0.194766 0.312566
0.859617 0.401038 0.392340
0.948608 0.508568 0.461280
0.000000 0.147066 0.253117
0.000000 0.145907 0.253574
0.089784 0.127474 0.242985
0.274022 0.110140 0.233127
0.516625 0.061646 0.265232
0.742061 0.239231 0.323033
0.857511 0.407568 0.392767
0.947204 0.511955 0.461494
0.000000 0.208560 0.271183
0.000000 0.210178 0.272831
0.077241 0.208072 0.278447
0.304723 0.181125 0.264195
0.553674 0.229709 0.302251
0.744015 0.381079 0.373632
0.866087 0.470253 0.424384
0.951171 0.552056 0.489296
0.000000 0.333196 0.313787
0.000000 0.334661 0.314611
0.000000 0.345220 0.321538
0.374975 0.364477 0.338476
0.579522 0.395697 0.351415
0.738949 0.440040 0.374670
0.856474 0.501549 0.418280
0.946136 0.576410 0.488838
0.000000 0.532616 0.373083
0.000000 0.534112 0.373266
0.000000 0.543053 0.378332
0.367926 0.550439 0.402197
0.590326 0.547417 0.384314
0.745022 0.539269 0.384558
0.857420 0.573663 0.434272
0.944213 0.628107 0.508049
0.000000 0.677943 0.439216
0.000000 0.682826 0.447150
0.000000 0.678767 0.453437
0.397833 0.672969 0.484382
0.561700 0.641382 0.491524
0.725612 0.663874 0.455360
0.850553 0.661494 0.463722
0.942535 0.693080 0.536309
0.000000 0.777707 0.539635
0.000000 0.777279 0.543938
0.168429 0.773495 0.558251
0.463539 0.766629 0.586847
0.606195 0.751827 0.603021
0.688319 0.738094 0.582086
0.833371 0.755917 0.554986
0.927581 0.760830 0.584375
0.343206 0.861814 0.696407
0.370397 0.860838 0.698116
0.462531 0.857053 0.706477
0.586084 0.850919 0.724788
0.703883 0.842466 0.751186
0.751553 0.825986 0.737575
0.824857 0.830961 0.724117
0.926146 0.841489 0.711238
0.000000 0.205509 0.385290
0.000000 0.203891 0.388190
0.000000 0.165988 0.382696
0.272801 0.140505 0.352422
0.501061 0.000000 0.359411
0.743343 0.000000 0.384863
0.862760 0.381689 0.448493
0.926055 0.582971 0.582391
0.000000 0.233890 0.397986
0.000000 0.231571 0.401221
0.000000 0.197208 0.398291
0.282353 0.159274 0.364508
0.513146 0.052583 0.368383
0.745357 0.124697 0.391485
0.859648 0.406531 0.458350
0.922454 0.594507 0.591699
0.000000 0.307469 0.420539
0.000000 0.306371 0.422370
0.000000 0.294957 0.430182
0.303197 0.237766 0.411109
0.539330 0.202243 0.394324
0.736477 0.284733 0.410834
0.842893 0.481788 0.492073
0.909850 0.622126 0.611444
0.000000 0.424537 0.456916
0.000000 0.424659 0.458076
0.000000 0.428321 0.466590
0.310765 0.431495 0.482246
0.582269 0.399481 0.457679
0.730922 0.489479 0.486793
0.823819 0.603693 0.580407
0.914031 0.642969 0.619501
0.000000 0.570336 0.501762
0.000000 0.572320 0.503746
0.000000 0.577417 0.509789
0.255192 0.585718 0.523064
0.602502 0.596094 0.546563
0.722225 0.608118 0.555169
0.828946 0.631922 0.578851
0.918395 0.668330 0.620661
0.000000 0.679774 0.527459
0.000000 0.680751 0.529229
0.000000 0.681331 0.533165
0.261357 0.684504 0.550713
0.576928 0.679164 0.580652
0.720821 0.684657 0.581018
0.836881 0.687404 0.586999
0.923857 0.716579 0.639216
0.000000 0.791714 0.612421
0.000000 0.789792 0.611292
0.000000 0.784573 0.612299
0.356420 0.778561 0.629694
0.596429 0.770901 0.660761
0.698939 0.745663 0.659846
0.824521 0.764248 0.639551
0.916930 0.765866 0.648737
0.000000 0.868376 0.706569
0.000000 0.867185 0.707912
0.230106 0.862638 0.714839
0.491157 0.857847 0.736629
0.657160 0.848814 0.759152
0.755734 0.836393 0.769894
0.818021 0.830838 0.759243
0.917357 0.841825 0.746853
0.000000 0.327794 0.581384
0.000000 0.323522 0.582910
0.000000 0.301396 0.586236
0.174533 0.228611 0.570703
0.513085 0.190860 0.528405
0.729854 0.111147 0.524559
0.871855 0.304601 0.530938
0.938170 0.550347 0.621881
0.000000 0.342473 0.577142
0.000000 0.337469 0.577691
0.000000 0.315740 0.579919
0.160739 0.240208 0.563012
0.504265 0.207828 0.521202
0.721126 0.148959 0.519402
0.863767 0.317174 0.527459
0.932952 0.551598 0.618555
0.000000 0.421210 0.609003
0.000000 0.418860 0.609094
0.000000 0.403906 0.610071
0.159945 0.331456 0.596246
0.521416 0.307561 0.555505
0.728145 0.292271 0.544610
0.855009 0.420905 0.556329
0.924773 0.594568 0.644526
0.000000 0.517723 0.632258
0.000000 0.516228 0.631220
0.000000 0.516655 0.634089
0.249119 0.522759 0.644587
0.553124 0.488533 0.623957
0.735378 0.483528 0.602808
0.844450 0.562402 0.621576
0.915587 0.666377 0.698177
0.000000 0.613825 0.643793
0.000000 0.613886 0.644099
0.000000 0.615534 0.646815
0.167147 0.621363 0.654719
0.555993 0.629328 0.666102
0.721859 0.610986 0.645716
0.825376 0.658778 0.673365
0.897734 0.727382 0.744259
0.000000 0.713954 0.671168
0.000000 0.716152 0.674647
0.000000 0.715511 0.676295
0.143832 0.714504 0.681392
0.530053 0.714717 0.692073
0.738003 0.727657 0.722591
0.828916 0.737484 0.732967
0.907988 0.755581 0.753719
0.000000 0.803372 0.713985
0.000000 0.804044 0.716518
0.000000 0.802640 0.719692
0.255436 0.800259 0.726802
0.538567 0.798886 0.739651
0.728298 0.790341 0.756924
0.828092 0.787533 0.748470
0.912657 0.788663 0.750790
0.000000 0.881956 0.773526
0.000000 0.880919 0.772671
0.000000 0.877623 0.772976
0.285161 0.871763 0.776303
0.555352 0.861906 0.783139
0.742367 0.850614 0.803250
0.819577 0.834195 0.804410
0.910887 0.847227 0.796353
0.000000 0.441932 0.739406
0.000000 0.439521 0.739742
0.000000 0.430457 0.738521
0.000000 0.369787 0.731991
0.452155 0.340185 0.706844
0.680293 0.320287 0.674922
0.846983 0.333715 0.666377
0.938293 0.469978 0.672206
0.000000 0.454932 0.739132
0.000000 0.452857 0.739620
0.000000 0.444068 0.738460
0.000000 0.392340 0.731838
0.452064 0.356451 0.707576
0.678553 0.337743 0.675044
0.843381 0.349248 0.666072
0.934630 0.477852 0.671870
0.000000 0.510002 0.748104
0.000000 0.508049 0.747829
0.000000 0.500664 0.746242
0.149264 0.489296 0.742367
0.463050 0.431891 0.721828
0.681331 0.419196 0.688838
0.838071 0.430610 0.681666
0.927886 0.532769 0.691615
0.000000 0.582483 0.759579
0.000000 0.581323 0.758541
0.000000 0.581659 0.758389
0.098451 0.582940 0.757443
0.484413 0.546929 0.747799
0.686122 0.536339 0.715541
0.828824 0.539025 0.709285
0.917479 0.607752 0.722316
0.000000 0.662287 0.770260
0.000000 0.661860 0.769802
0.000000 0.661646 0.769619
0.000000 0.662959 0.770321
0.507225 0.666377 0.771756
0.686549 0.638575 0.753780
0.820279 0.634180 0.741207
0.907744 0.686305 0.760739
0.000000 0.745724 0.786831
0.000000 0.745663 0.787015
0.000000 0.744869 0.787381
0.000000 0.743374 0.788296
0.472663 0.741421 0.790921
0.693172 0.742367 0.798642
0.822141 0.729152 0.786526
0.901549 0.766537 0.807584
0.000000 0.821469 0.808621
0.000000 0.821225 0.808927
0.000000 0.819272 0.809171
0.000000 0.815793 0.810239
0.478920 0.811276 0.812528
0.683558 0.808499 0.818631
0.841947 0.815427 0.834745
0.905882 0.819791 0.837430
0.000000 0.885710 0.831998
0.000000 0.885283 0.832242
0.000000 0.883543 0.833341
0.166934 0.879942 0.834928
0.496193 0.874876 0.837430
0.686000 0.869688 0.841825
0.836271 0.859800 0.849729
0.910887 0.858732 0.846616
0.000000 0.598871 0.862242
0.000000 0.599603 0.861936
0.000000 0.602258 0.859586
0.328405 0.599390 0.855985
0.490211 0.549615 0.849973
0.683558 0.541558 0.833677
0.825437 0.529961 0.817777
0.935668 0.553124 0.812955
0.000000 0.605951 0.861662
0.000000 0.606653 0.861387
0.000000 0.609155 0.859342
0.345068 0.610925 0.855497
0.491463 0.558190 0.849943
0.683009 0.549584 0.833890
0.823667 0.537438 0.817655
0.933715 0.558404 0.812741
0.000000 0.636896 0.862516
0.000000 0.637079 0.862150
0.000000 0.638025 0.860197
0.359655 0.644068 0.856931
0.502037 0.595605 0.852689
0.684169 0.584771 0.837583
0.820829 0.572778 0.821317
0.928985 0.587366 0.817044
0.000000 0.680964 0.864256
0.000000 0.681666 0.864103
0.000000 0.684321 0.862943
0.309361 0.685969 0.860105
0.550652 0.672053 0.856199
0.685359 0.640131 0.845670
0.817563 0.628290 0.829343
0.922240 0.635309 0.825742
0.000000 0.733333 0.866972
0.000000 0.733333 0.866880
0.000000 0.732052 0.866087
0.121492 0.733425 0.864408
0.527276 0.731685 0.861601
0.679347 0.700771 0.856260
0.813199 0.688441 0.839475
0.914946 0.690547 0.836790
0.000000 0.795254 0.870726
0.000000 0.794614 0.870512
0.000000 0.792447 0.869718
0.000000 0.788510 0.868711
0.446021 0.782315 0.867643
0.680903 0.778286 0.866331
0.811887 0.755856 0.857664
0.910002 0.754238 0.851896
0.000000 0.854246 0.877012
0.000000 0.853696 0.876921
0.000000 0.851469 0.876493
0.000000 0.847318 0.875975
0.459876 0.840970 0.875273
0.654505 0.833097 0.874662
0.815457 0.827176 0.875029
0.909422 0.816617 0.868376
0.000000 0.904173 0.885313
0.000000 0.903655 0.885222
0.000000 0.901549 0.885100
0.241062 0.897581 0.884947
0.497078 0.891630 0.884672
0.671412 0.884245 0.884398
0.812070 0.877714 0.885039
0.925292 0.881529 0.892210
