20 Preset/Natural Wedding/【3】LUT video cho PR-AE-FCPX/Lut Tone (4).cube
# Created by Adobe Lightroom plugin Export LUT (1.24.0)
# www.johnrellis.com/lightroom/exportlut.htm
# Preset: 清新婚礼-素材江湖04
# Color profile: C:\Program Files (x86)\Common Files\Adobe\Color\Profiles\Recommended\VideoHD.icc
LUT_3D_SIZE 32
DOMAIN_MIN 0.0 0.0 0.0
DOMAIN_MAX 1.0 1.0 1.0
0.000000 0.000000 0.000000
0.000000 0.000000 0.000000
0.001282 0.000977 0.000000
0.004242 0.001740 0.000824
0.011475 0.002045 0.000641
0.021668 0.003113 0.001404
0.035126 0.004913 0.002045
0.058839 0.005615 0.001465
0.089845 0.006714 0.001678
0.112245 0.007843 0.001282
0.144656 0.004303 0.000153
0.192660 0.000000 0.000000
0.253727 0.000000 0.000000
0.322301 0.000000 0.000000
0.393988 0.000000 0.000000
0.466163 0.000000 0.000000
0.536645 0.000000 0.000000
0.603601 0.000000 0.000000
0.665309 0.000000 0.000000
0.721462 0.000000 0.000000
0.772641 0.000000 0.000000
0.818936 0.000000 0.000000
0.860685 0.000000 0.000000
0.899504 0.000000 0.000000
0.934447 0.000000 0.000000
0.964508 0.000000 0.000000
0.989624 0.000000 0.000000
1.000000 0.000000 0.000000
1.000000 0.000000 0.000000
1.000000 0.000000 0.000000
1.000000 0.000000 0.061280
1.000000 0.154086 0.141848
0.000000 0.001190 0.000000
0.001282 0.000977 0.000000
0.002960 0.000763 0.000977
0.006226 0.001495 0.000793
0.010773 0.003235 0.000488
0.020966 0.004303 0.001251
0.035126 0.004913 0.002045
0.058137 0.006836 0.001312
0.089326 0.009125 0.001373
0.112428 0.010040 0.000977
0.144778 0.006500 0.000000
0.192844 0.000000 0.000000
0.253849 0.000000 0.000000
0.322210 0.000000 0.000000
0.394110 0.000000 0.000000
0.466468 0.000000 0.000000
0.536736 0.000000 0.000000
0.603326 0.000000 0.000000
0.665064 0.000000 0.000000
0.721614 0.000000 0.000000
0.772549 0.000000 0.000000
0.818936 0.000000 0.000000
0.860410 0.000000 0.000000
0.899290 0.000000 0.000000
0.934386 0.000000 0.000000
0.964324 0.000000 0.000000
0.989532 0.000000 0.000000
1.000000 0.000000 0.000000
1.000000 0.000000 0.000000
1.000000 0.000000 0.000000
1.000000 0.000000 0.058198
1.000000 0.156130 0.141787
0.000000 0.003388 0.000671
0.001556 0.003174 0.000671
0.001556 0.003174 0.000671
0.004089 0.005127 0.000366
0.011017 0.005432 0.001312
0.018830 0.007904 0.000824
0.033021 0.008545 0.001587
0.055695 0.010437 0.002014
0.089143 0.012512 0.002045
0.112093 0.014618 0.001526
0.144930 0.010864 0.000366
0.193271 0.000000 0.000000
0.254459 0.000000 0.000000
0.322454 0.000000 0.000000
0.394446 0.000000 0.000000
0.467048 0.000000 0.000000
0.536767 0.000000 0.000000
0.603357 0.000000 0.000000
0.664973 0.000000 0.000000
0.721370 0.000000 0.000000
0.772396 0.000000 0.000000
0.818448 0.000000 0.000000
0.860258 0.000000 0.000000
0.898985 0.000000 0.000000
0.934051 0.000000 0.000000
0.963867 0.000000 0.000000
0.988983 0.000000 0.000000
1.000000 0.000000 0.000000
1.000000 0.000000 0.000000
1.000000 0.000000 0.000000
1.000000 0.000000 0.060639
1.000000 0.167544 0.143252
0.000641 0.009918 0.002014
0.000641 0.009918 0.002014
0.000641 0.009918 0.002014
0.004639 0.009491 0.002014
0.009155 0.011200 0.001678
0.016968 0.013703 0.001190
0.032410 0.015290 0.001801
0.054383 0.018402 0.002075
0.088533 0.021698 0.000855
0.111391 0.024994 0.000153
0.145480 0.021759 0.000000
0.193820 0.004822 0.000000
0.255528 0.000000 0.000000
0.323919 0.000000 0.000000
0.395117 0.000000 0.000000
0.467048 0.000000 0.000000
0.537102 0.000000 0.000000
0.603082 0.000000 0.000000
0.664637 0.000000 0.000000
0.720790 0.000000 0.000000
0.771817 0.000000 0.000000
0.817746 0.000000 0.000000
0.859586 0.000000 0.000000
0.898344 0.000000 0.000000
0.933196 0.000000 0.000000
0.962860 0.000000 0.000000
0.988006 0.000000 0.000000
1.000000 0.000000 0.000000
1.000000 0.000000 0.000000
1.000000 0.000000 0.000000
1.000000 0.041382 0.068086
1.000000 0.188205 0.145357
0.001312 0.019837 0.004059
0.001312 0.019837 0.004059
0.001312 0.019837 0.004059
0.003601 0.019623 0.002899
0.009552 0.018952 0.002869
0.017365 0.021454 0.002380
0.030396 0.024475 0.001709
0.051667 0.028779 0.001862
0.087495 0.034241 0.000305
0.111727 0.038300 0.000000
0.146426 0.038025 0.000000
0.195712 0.023316 0.000000
0.257145 0.000000 0.000000
0.325566 0.000000 0.000000
0.396399 0.000000 0.000000
0.467659 0.000000 0.000000
0.537560 0.000000 0.000000
0.603265 0.000000 0.000000
0.664210 0.000000 0.000000
0.720180 0.000000 0.000000
0.771084 0.000000 0.000000
0.816709 0.000000 0.000000
0.858183 0.000000 0.000000
0.897002 0.000000 0.000000
0.931731 0.000000 0.000000
0.961242 0.000000 0.000000
0.986450 0.000000 0.000000
1.000000 0.000000 0.000000
1.000000 0.000000 0.000000
1.000000 0.000000 0.000000
1.000000 0.135592 0.077668
1.000000 0.215640 0.148440
0.000092 0.035554 0.006439
0.000092 0.035554 0.006439
0.002075 0.035340 0.006439
0.004791 0.033906 0.006592
0.011048 0.033234 0.005432
0.019287 0.032349 0.004242
0.032898 0.037568 0.003265
0.055756 0.042847 0.002106
0.088869 0.049500 0.001556
0.112062 0.057191 0.000000
0.148043 0.060609 0.000000
0.198398 0.048920 0.000000
0.259312 0.017914 0.000000
0.327214 0.000000 0.000000
0.397467 0.000000 0.000000
0.468666 0.000000 0.000000
0.537407 0.000000 0.000000
0.602625 0.000000 0.000000
0.663630 0.000000 0.000000
0.719051 0.000000 0.000000
0.769436 0.000000 0.000000
0.815244 0.000000 0.000000
0.856596 0.000000 0.000000
0.894896 0.000000 0.000000
0.929290 0.000000 0.000000
0.958892 0.000000 0.000000
0.984100 0.000000 0.000000
1.000000 0.000000 0.000000
1.000000 0.000000 0.000000
1.000000 0.102632 0.000000
1.000000 0.188052 0.085939
1.000000 0.247562 0.153475
0.000000 0.062409 0.009583
0.000000 0.062409 0.009583
0.001099 0.062165 0.009583
0.005097 0.061738 0.009552
0.012757 0.058656 0.008698
0.021729 0.056550 0.007691
0.037201 0.055970 0.006348
0.069123 0.064729 0.004517
0.096193 0.072908 0.002502
0.119203 0.080659 0.000000
0.155978 0.084443 0.000000
0.206027 0.082826 0.000000
0.264469 0.070466 0.000000
0.329076 0.035828 0.000000
0.399451 0.000000 0.000000
0.469306 0.000000 0.000000
0.537621 0.000000 0.000000
0.602472 0.000000 0.000000
0.662745 0.000000 0.000000
0.717220 0.000000 0.000000
0.767453 0.000000 0.000000
0.812528 0.000000 0.000000
0.854032 0.000000 0.000000
0.892454 0.000000 0.000000
0.926268 0.000000 0.000000
0.955779 0.000000 0.000000
0.980957 0.000000 0.000000
1.000000 0.000000 0.000000
1.000000 0.116274 0.000000
1.000000 0.183688 0.000000
1.000000 0.235966 0.094270
1.000000 0.282689 0.160128
0.000000 0.095888 0.014893
0.000000 0.095796 0.014893
0.000183 0.095644 0.014862
0.007111 0.095766 0.015839
0.017487 0.094209 0.015106
0.034424 0.092317 0.012085
0.053040 0.090303 0.010224
0.082765 0.088991 0.007813
0.107820 0.094484 0.004456
0.135988 0.099336 0.001465
0.173709 0.103517 0.000000
0.219638 0.105776 0.000000
0.278447 0.105562 0.000000
0.342077 0.099794 0.000000
0.407691 0.086275 0.000000
0.473854 0.037263 0.000000
0.537987 0.000000 0.000000
0.601373 0.000000 0.000000
0.660853 0.000000 0.000000
0.715358 0.000000 0.000000
0.764553 0.000000 0.000000
0.809537 0.000000 0.000000
0.850736 0.000000 0.000000
0.888365 0.000000 0.000000
0.922210 0.000000 0.000000
0.951873 0.000000 0.000000
0.976959 0.109407 0.000000
0.998322 0.161288 0.000000
1.000000 0.203464 0.000000
1.000000 0.243748 0.000000
1.000000 0.281071 0.102815
1.000000 0.319005 0.168429
0.000000 0.132021 0.022065
0.000000 0.131960 0.022065
0.000000 0.132082 0.023011
0.000000 0.132052 0.023957
0.010163 0.131350 0.025147
0.037934 0.128389 0.020752
0.074495 0.123995 0.016907
0.098848 0.118746 0.012024
0.120180 0.115999 0.007507
0.157168 0.124269 0.000702
0.198276 0.130251 0.000000
0.245579 0.135348 0.000000
0.297551 0.137819 0.000000
0.355810 0.138827 0.000000
0.419928 0.136904 0.000000
0.484016 0.132235 0.000000
0.546258 0.125429 0.000000
0.605432 0.118929 0.000000
0.661036 0.113313 0.000000
0.712215 0.112428 0.000000
0.761013 0.110475 0.000000
0.805417 0.115389 0.000000
0.845853 0.126558 0.000000
0.883391 0.143343 0.000000
0.917296 0.164370 0.000000
0.946868 0.187991 0.000000
0.971954 0.213291 0.000000
0.993439 0.239414 0.000000
1.000000 0.267277 0.000000
1.000000 0.295323 0.000000
1.000000 0.325383 0.115755
1.000000 0.356573 0.178622
0.000000 0.189425 0.026764
0.000000 0.189364 0.026764
0.000000 0.189670 0.028534
0.000000 0.190036 0.031067
0.000000 0.190768 0.035187
0.025757 0.187106 0.029908
0.091981 0.181094 0.022980
0.121950 0.173556 0.014466
0.147951 0.164431 0.007599
0.178042 0.158602 0.000000
0.226474 0.167697 0.000000
0.274174 0.174319 0.000000
0.325658 0.179538 0.000000
0.378729 0.182895 0.000000
0.432563 0.185061 0.000000
0.494026 0.187503 0.000000
0.554101 0.189090 0.000000
0.611353 0.191196 0.000000
0.664698 0.193851 0.000000
0.714076 0.198703 0.000000
0.759335 0.205386 0.000000
0.800381 0.213718 0.000000
0.839841 0.223087 0.000000
0.877379 0.234928 0.000000
0.911192 0.248814 0.000000
0.940764 0.264866 0.000000
0.965942 0.282200 0.000000
0.987518 0.300877 0.000000
1.000000 0.321508 0.000000
1.000000 0.343847 0.000000
1.000000 0.367712 0.131655
1.000000 0.394079 0.191684
0.000000 0.262852 0.044404
0.000000 0.263096 0.043946
0.000000 0.263157 0.047913
0.000000 0.263920 0.054810
0.000000 0.265232 0.064729
0.055085 0.264256 0.066560
0.117189 0.256901 0.044038
0.153140 0.247990 0.021607
0.185702 0.236393 0.003723
0.216037 0.222995 0.000000
0.251713 0.213443 0.000000
0.303532 0.222293 0.000000
0.354070 0.228763 0.000000
0.405341 0.234104 0.000000
0.456947 0.238590 0.000000
0.507774 0.242557 0.000000
0.560601 0.246952 0.000000
0.615747 0.252628 0.000000
0.667353 0.258518 0.000000
0.714351 0.264744 0.000000
0.757900 0.271519 0.000000
0.797910 0.279606 0.000000
0.835538 0.289342 0.000000
0.870909 0.300450 0.000000
0.904387 0.312718 0.000000
0.933837 0.325963 0.000000
0.959075 0.339879 0.000000
0.980621 0.354955 0.000000
0.999023 0.371191 0.000000
1.000000 0.389044 0.035401
1.000000 0.409033 0.148745
1.000000 0.431067 0.206302
0.000000 0.345617 0.111238
0.000000 0.345830 0.111971
0.000000 0.346288 0.113710
0.000000 0.347204 0.117525
0.021271 0.348455 0.124086
0.122194 0.350500 0.133028
0.159274 0.343786 0.120577
0.193820 0.333532 0.102113
0.227420 0.321691 0.074189
0.259831 0.307347 0.018128
0.291234 0.289403 0.000000
0.329290 0.277379 0.000000
0.380865 0.284031 0.000000
0.430671 0.291264 0.000000
0.479957 0.296849 0.000000
0.528374 0.301823 0.000000
0.574701 0.306004 0.000000
0.618830 0.310185 0.000000
0.666896 0.316960 0.000000
0.712398 0.323888 0.000000
0.754879 0.331182 0.000000
0.794217 0.338872 0.000000
0.831327 0.347570 0.000000
0.866056 0.357916 0.000000
0.897704 0.368872 0.000000
0.925933 0.379828 0.000000
0.951324 0.391211 0.000000
0.972992 0.403571 0.000000
0.991485 0.417060 0.000000
1.000000 0.431647 0.095064
1.000000 0.448463 0.167819
1.000000 0.467323 0.223697
0.000000 0.430488 0.177310
0.000000 0.430701 0.178317
0.000000 0.430915 0.180026
0.088624 0.432105 0.183993
0.138125 0.433417 0.190005
0.180148 0.435676 0.198215
0.215488 0.433783 0.198154
0.244541 0.424079 0.181064
0.274022 0.412360 0.159731
0.305028 0.397742 0.133822
0.335882 0.380621 0.100465
0.366888 0.360357 0.020722
0.404486 0.345953 0.000000
0.452583 0.349798 0.000000
0.500267 0.356512 0.000000
0.545617 0.361486 0.000000
0.589410 0.365850 0.000000
0.630793 0.369879 0.000000
0.670100 0.373816 0.000000
0.709194 0.378943 0.000000
0.750454 0.385809 0.000000
0.789181 0.393713 0.000000
0.825803 0.402167 0.000000
0.860197 0.410834 0.000000
0.891417 0.420233 0.000000
0.918853 0.429572 0.000000
0.942992 0.438453 0.000000
0.964630 0.448554 0.000000
0.983307 0.459602 0.000000
0.999298 0.472084 0.126833
1.000000 0.486336 0.190768
1.000000 0.502678 0.243687
0.155428 0.510796 0.251194
0.157595 0.510826 0.251865
0.169833 0.511315 0.253574
0.188693 0.512261 0.256901
0.215457 0.513634 0.262455
0.246433 0.515709 0.270420
0.280919 0.518090 0.280522
0.302159 0.509850 0.264958
0.326055 0.498878 0.245762
0.351904 0.485206 0.221622
0.379644 0.469276 0.193240
0.408026 0.450080 0.159518
0.436469 0.427955 0.116701
0.472389 0.412177 0.048768
0.516625 0.413550 0.001801
0.560967 0.420142 0.000000
0.602106 0.424231 0.000000
0.641016 0.427985 0.000000
0.678370 0.431403 0.000000
0.713405 0.434485 0.000000
0.746639 0.437720 0.000000
0.782986 0.443977 0.000000
0.819120 0.452064 0.000000
0.853208 0.459876 0.000000
0.883818 0.468086 0.000000
0.911040 0.475776 0.000000
0.934844 0.483192 0.000000
0.955871 0.490669 0.000000
0.974456 0.499428 0.062196
0.990692 0.509911 0.158053
1.000000 0.522301 0.214389
1.000000 0.536553 0.264897
0.251957 0.580072 0.324254
0.254124 0.580011 0.324681
0.260349 0.580468 0.326207
0.272679 0.581170 0.329198
0.291752 0.582147 0.334234
0.315160 0.584009 0.341314
0.342748 0.586084 0.350225
0.365301 0.583337 0.347906
0.382116 0.573846 0.329473
0.402289 0.562493 0.308324
0.424781 0.548760 0.283452
0.448829 0.532250 0.253391
0.474006 0.513420 0.220035
0.500023 0.490913 0.178775
0.533257 0.474556 0.140719
0.572656 0.473976 0.128084
0.613336 0.479561 0.115694
0.650355 0.482704 0.105684
0.685267 0.485328 0.095369
0.718746 0.487434 0.087007
0.750576 0.489998 0.072847
0.781125 0.493080 0.055329
0.811856 0.497536 0.049653
0.845121 0.505089 0.053651
0.875456 0.512078 0.070893
0.902251 0.518608 0.093324
0.925811 0.524834 0.110964
0.946685 0.531121 0.130770
0.965118 0.537499 0.150576
0.981537 0.545495 0.188540
0.995636 0.556268 0.240269
1.000000 0.568750 0.288334
0.334234 0.639094 0.395392
0.335454 0.639185 0.395666
0.339940 0.639460 0.397009
0.349096 0.640131 0.399725
0.363195 0.641138 0.404242
0.381109 0.642603 0.410437
0.403113 0.644434 0.418585
0.427741 0.646540 0.428077
0.439612 0.638544 0.411780
0.453895 0.628962 0.392645
0.470710 0.617548 0.370092
0.490059 0.603723 0.343847
0.511070 0.587671 0.313268
0.533440 0.568750 0.278538
0.556237 0.546990 0.237980
0.586572 0.530846 0.204288
0.621698 0.528313 0.193515
0.658503 0.532708 0.185855
0.691615 0.534874 0.180545
0.723384 0.536431 0.176608
0.753750 0.538354 0.173098
0.783261 0.540703 0.170809
0.811704 0.543877 0.170809
0.838590 0.547051 0.171542
0.866331 0.552392 0.176150
0.892699 0.558099 0.184360
0.915953 0.563561 0.194583
0.936645 0.568841 0.206699
0.955077 0.574182 0.220462
0.971649 0.580072 0.235813
0.986267 0.588220 0.267674
0.998566 0.599054 0.313237
0.406012 0.688930 0.462959
0.406867 0.688960 0.463386
0.410407 0.689265 0.464546
0.417182 0.689815 0.466957
0.427893 0.690669 0.470985
0.441993 0.691951 0.476478
0.459724 0.693233 0.483528
0.480201 0.695247 0.492653
0.494484 0.692317 0.488777
0.504356 0.684504 0.471351
0.516442 0.675166 0.451667
0.531060 0.664149 0.428748
0.547326 0.650782 0.401404
0.565545 0.635340 0.370581
0.585138 0.617395 0.335515
0.605829 0.596338 0.295048
0.633204 0.580804 0.262730
0.664179 0.576623 0.253086
0.697505 0.580133 0.248112
0.727535 0.581323 0.242863
0.756649 0.582818 0.240513
0.785000 0.584680 0.239292
0.812009 0.586847 0.239231
0.837400 0.589258 0.240269
0.860960 0.591638 0.243137
0.882658 0.594293 0.248417
0.905730 0.598932 0.256474
0.926238 0.603449 0.267002
0.944488 0.608118 0.278813
0.961028 0.613275 0.292271
0.976165 0.619074 0.306706
0.989044 0.627649 0.339788
0.470039 0.729519 0.526146
0.470619 0.729610 0.526482
0.473335 0.729763 0.527398
0.478462 0.730129 0.529595
0.486885 0.730770 0.532921
0.498207 0.731685 0.537835
0.512352 0.732815 0.544182
0.529290 0.734188 0.551934
0.546807 0.735195 0.559167
0.552941 0.729183 0.544030
0.560906 0.721889 0.526635
0.571252 0.713283 0.506615
0.583307 0.702815 0.482918
0.597406 0.690181 0.455207
0.613367 0.675807 0.424903
0.630762 0.658930 0.389654
0.649073 0.639307 0.350134
0.673915 0.624537 0.318608
0.701137 0.619104 0.308659
0.731502 0.622095 0.304784
0.759426 0.623255 0.301122
0.786191 0.624750 0.300328
0.811612 0.626215 0.299901
0.835538 0.627680 0.301061
0.857572 0.628962 0.304143
0.878050 0.630396 0.307927
0.896788 0.632136 0.312566
0.915435 0.635126 0.320714
0.933532 0.639246 0.331731
0.950042 0.643854 0.343694
0.965148 0.648951 0.357610
0.979004 0.654810 0.372747
0.528649 0.760525 0.584497
0.529137 0.760464 0.584619
0.531304 0.760616 0.585443
0.535576 0.760830 0.587427
0.542290 0.761257 0.590448
0.551080 0.761746 0.594507
0.562676 0.762539 0.600092
0.576226 0.763424 0.606775
0.591669 0.764492 0.614801
0.599756 0.762173 0.609735
0.604303 0.757168 0.595178
0.610712 0.751003 0.577752
0.618799 0.743435 0.557244
0.629145 0.734463 0.533806
0.641566 0.723537 0.507012
0.655665 0.710780 0.476967
0.671382 0.695308 0.441993
0.687953 0.677546 0.403357
0.710658 0.663996 0.373358
0.734585 0.657588 0.362829
0.762020 0.659693 0.359319
0.787198 0.660609 0.357031
0.810941 0.661494 0.357000
0.833127 0.662104 0.357946
0.853788 0.662684 0.360266
0.873014 0.663386 0.363531
0.890837 0.664363 0.368109
0.907317 0.665705 0.373999
0.922606 0.667567 0.381140
0.938903 0.671473 0.392126
0.953948 0.676173 0.405097
0.967895 0.681361 0.419196
0.584192 0.783597 0.638911
0.584680 0.783536 0.639063
0.586358 0.783658 0.639918
0.589624 0.783810 0.641505
0.594812 0.784085 0.644068
0.601923 0.784390 0.647608
0.610925 0.784878 0.652186
0.621942 0.785489 0.658076
0.634272 0.786099 0.664942
0.645533 0.786191 0.669184
0.647211 0.782773 0.657252
0.650202 0.778592 0.642695
0.654597 0.773404 0.625666
0.661036 0.767178 0.606073
0.669490 0.759548 0.582849
0.680140 0.750546 0.556817
0.692866 0.739620 0.526940
0.707271 0.726680 0.493202
0.722805 0.711025 0.455055
0.743465 0.698604 0.426001
0.764096 0.691615 0.415412
0.787808 0.692561 0.412879
0.809873 0.692805 0.411261
0.830533 0.692744 0.411872
0.849790 0.692897 0.413947
0.867826 0.693080 0.416693
0.884611 0.693385 0.420569
0.900328 0.694118 0.425483
0.915099 0.695369 0.432105
0.929076 0.697414 0.439521
0.942840 0.700710 0.450111
0.956695 0.705592 0.463722
0.634974 0.801083 0.688136
0.635187 0.801114 0.688319
0.636469 0.801144 0.688869
0.639063 0.801266 0.690303
0.643122 0.801450 0.692409
0.648432 0.801694 0.695247
0.655451 0.802029 0.698970
0.663844 0.802396 0.703670
0.673396 0.802945 0.709102
0.684047 0.803525 0.715328
0.687434 0.801846 0.710475
0.688258 0.798795 0.699184
0.689998 0.795224 0.685878
0.693050 0.790921 0.670192
0.697658 0.785702 0.651118
0.704341 0.779477 0.629419
0.713161 0.772000 0.604578
0.724269 0.762875 0.575372
0.737484 0.752010 0.542626
0.752316 0.739040 0.505516
0.771267 0.728176 0.477821
0.788663 0.720424 0.466377
0.808560 0.720089 0.464485
0.827726 0.719753 0.463752
0.845762 0.719356 0.464637
0.862608 0.719203 0.467323
0.878447 0.719234 0.470558
0.893523 0.719539 0.474861
0.907683 0.720516 0.480476
0.921202 0.722072 0.487404
0.933989 0.724392 0.496101
0.946105 0.727443 0.506401
0.678035 0.815213 0.729763
0.678218 0.815213 0.729793
0.679103 0.815274 0.730312
0.680934 0.815335 0.731289
0.684016 0.815457 0.732845
0.688136 0.815702 0.735073
0.693355 0.815976 0.737881
0.699611 0.816342 0.741421
0.706935 0.816770 0.745449
0.715084 0.817288 0.750118
0.721614 0.817227 0.752193
0.721767 0.814878 0.744198
0.722347 0.812192 0.734737
0.723537 0.808927 0.722957
0.725673 0.805081 0.708949
0.729061 0.800626 0.692012
0.734157 0.795285 0.671778
0.741390 0.788937 0.648310
0.750912 0.781430 0.621332
0.762570 0.772335 0.589715
0.776486 0.761410 0.553796
0.793576 0.751980 0.527398
0.808255 0.744320 0.516014
0.825132 0.743069 0.513695
0.841825 0.742519 0.513664
0.857725 0.742061 0.515099
0.872709 0.741848 0.517662
0.886961 0.742123 0.521721
0.900603 0.742794 0.526726
0.913664 0.744076 0.533043
0.926085 0.745937 0.540673
0.937957 0.748531 0.549981
0.712673 0.827420 0.762661
0.712856 0.827451 0.762783
0.713619 0.827481 0.763119
0.715023 0.827543 0.763882
0.717189 0.827695 0.764981
0.720333 0.827878 0.766659
0.724208 0.828122 0.768704
0.729061 0.828458 0.771328
0.734737 0.828824 0.774411
0.741176 0.829343 0.777920
0.748165 0.829892 0.781857
0.749660 0.828489 0.778195
0.749752 0.826291 0.771298
0.750210 0.823728 0.762936
0.751186 0.820737 0.753048
0.752926 0.817227 0.740993
0.755642 0.813199 0.726650
0.759609 0.808530 0.709163
0.765377 0.803006 0.688167
0.773281 0.796536 0.663081
0.783566 0.788846 0.633722
0.796231 0.779660 0.599451
0.811521 0.771511 0.575006
0.824063 0.764126 0.562707
0.838529 0.762631 0.560693
0.853239 0.761868 0.560662
0.867399 0.761654 0.562402
0.880919 0.761868 0.566247
0.894072 0.762387 0.570611
0.906645 0.763485 0.576287
0.918730 0.765103 0.583246
0.930358 0.767330 0.591608
0.740932 0.838376 0.788724
0.741085 0.838376 0.788815
0.741543 0.838376 0.789029
0.742702 0.838468 0.789609
0.744381 0.838621 0.790463
0.746822 0.838773 0.791653
0.749935 0.838987 0.793240
0.753658 0.839292 0.795193
0.758175 0.839658 0.797482
0.763302 0.840085 0.800137
0.768856 0.840604 0.803098
0.772976 0.840482 0.803952
0.772946 0.838651 0.798947
0.773037 0.836515 0.792966
0.773434 0.834043 0.785855
0.774289 0.831235 0.777188
0.775753 0.828031 0.767178
0.778012 0.824338 0.754879
0.781338 0.820066 0.740108
0.786038 0.815152 0.722133
0.792538 0.809476 0.700374
0.801328 0.802731 0.673793
0.812589 0.794858 0.642481
0.826230 0.787747 0.619287
0.837095 0.780972 0.607111
0.849699 0.779416 0.605066
0.862730 0.778836 0.605127
0.875761 0.778988 0.607355
0.888243 0.779568 0.611536
0.900298 0.780545 0.616602
0.912047 0.782010 0.622889
0.923339 0.784085 0.630457
0.764279 0.848356 0.809415
0.764370 0.848386 0.809476
0.764889 0.848386 0.809720
0.765682 0.848447 0.810147
0.767056 0.848569 0.810758
0.769009 0.848722 0.811704
0.771542 0.848966 0.812894
0.774655 0.849241 0.814389
0.778256 0.849577 0.816159
0.782437 0.849973 0.818204
0.787137 0.850462 0.820523
0.792264 0.850980 0.823087
0.792874 0.849729 0.820218
0.792752 0.847929 0.815793
0.792935 0.845853 0.810605
0.793271 0.843503 0.804379
0.794095 0.840848 0.797147
0.795377 0.837827 0.788449
0.797330 0.834379 0.778012
0.800107 0.830442 0.765530
0.804074 0.826017 0.750362
0.809537 0.820829 0.731838
0.816922 0.814939 0.709285
0.826688 0.808042 0.681300
0.838712 0.801846 0.660517
0.848264 0.795743 0.648646
0.859373 0.794400 0.646448
0.871122 0.794003 0.646784
0.883116 0.794614 0.649897
0.894743 0.795621 0.654292
0.906004 0.797055 0.660090
0.917144 0.798978 0.666743
0.784543 0.857755 0.826352
0.784634 0.857755 0.826352
0.784970 0.857786 0.826505
0.785702 0.857847 0.826871
0.786801 0.857969 0.827359
0.788449 0.858091 0.828061
0.790524 0.858305 0.829007
0.793057 0.858579 0.830167
0.796139 0.858885 0.831510
0.799588 0.859281 0.833066
0.803616 0.859709 0.834897
0.808011 0.860197 0.836912
0.810697 0.859983 0.837034
0.810513 0.858427 0.833707
0.810361 0.856626 0.829740
0.810513 0.854643 0.825193
0.810849 0.852384 0.819852
0.811551 0.849790 0.813443
0.812680 0.846952 0.805936
0.814389 0.843717 0.797116
0.816861 0.840085 0.786587
0.820310 0.835966 0.773678
0.824918 0.831327 0.758358
0.831144 0.826017 0.739284
0.839445 0.819913 0.715633
0.849943 0.814572 0.697902
0.858366 0.809110 0.686824
0.868345 0.808011 0.684749
0.878874 0.807797 0.685176
0.890166 0.808835 0.688624
0.901091 0.810300 0.693690
0.912016 0.812253 0.699825
0.802518 0.866819 0.840269
0.802609 0.866819 0.840299
0.802884 0.866850 0.840391
0.803494 0.866941 0.840665
0.804471 0.867033 0.841093
0.805814 0.867155 0.841611
0.807553 0.867369 0.842344
0.809751 0.867613 0.843259
0.812375 0.867918 0.844327
0.815335 0.868284 0.845579
0.818723 0.868681 0.847013
0.822507 0.869169 0.848600
0.826596 0.869718 0.850340
0.826688 0.868467 0.848112
0.826505 0.866880 0.845090
0.826444 0.865110 0.841550
0.826566 0.863127 0.837552
0.826902 0.860899 0.832792
0.827543 0.858457 0.827298
0.828550 0.855711 0.820829
0.830106 0.852628 0.813169
0.832242 0.849241 0.804196
0.835264 0.845457 0.793423
0.839292 0.841154 0.780453
0.844633 0.836362 0.764614
0.851774 0.830869 0.744839
0.860838 0.826230 0.730343
0.868193 0.821408 0.720760
0.877195 0.820554 0.719081
0.886748 0.820462 0.719356
0.897551 0.822019 0.723293
0.908293 0.824002 0.728573
0.818692 0.875792 0.851987
0.818753 0.875792 0.851987
0.819059 0.875822 0.852079
0.819516 0.875883 0.852323
0.820371 0.875975 0.852628
0.821530 0.876127 0.853056
0.823026 0.876341 0.853635
0.824918 0.876555 0.854368
0.827146 0.876860 0.855222
0.829740 0.877195 0.856229
0.832670 0.877592 0.857389
0.835966 0.878050 0.858701
0.839567 0.878569 0.860136
0.841520 0.878264 0.859922
