20 Preset/Natural Wedding/【3】LUT video cho PR-AE-FCPX/Lut Tone (18).cube
# Created by Adobe Lightroom plugin Export LUT (1.24.0)
# www.johnrellis.com/lightroom/exportlut.htm
# Preset: 清新婚礼-素材江湖18
# Color profile: C:\Program Files (x86)\Common Files\Adobe\Color\Profiles\Recommended\VideoHD.icc
LUT_3D_SIZE 32
DOMAIN_MIN 0.0 0.0 0.0
DOMAIN_MAX 1.0 1.0 1.0
0.000000 0.000000 0.000000
0.000000 0.001190 0.000000
0.000000 0.002411 0.000824
0.000000 0.004578 0.000519
0.005646 0.008270 0.001007
0.029877 0.013336 0.002106
0.085725 0.014374 0.001923
0.122835 0.009918 0.003601
0.175021 0.000000 0.004150
0.248661 0.000000 0.003693
0.339452 0.000000 0.002136
0.440467 0.000000 0.000000
0.542779 0.000000 0.000000
0.640223 0.000000 0.000000
0.727016 0.000000 0.000000
0.803098 0.000000 0.000000
0.869505 0.000000 0.000000
0.928222 0.000000 0.000336
0.978515 0.000000 0.048219
1.000000 0.000000 0.099458
1.000000 0.000000 0.133608
1.000000 0.000000 0.175143
1.000000 0.000000 0.211826
1.000000 0.099519 0.247929
1.000000 0.253696 0.283848
1.000000 0.338567 0.320043
1.000000 0.406836 0.358587
1.000000 0.466346 0.399420
1.000000 0.521569 0.444221
1.000000 0.574029 0.492805
1.000000 0.624384 0.544945
1.000000 0.672328 0.599847
0.000000 0.001190 0.000000
0.000000 0.001190 0.000000
0.000000 0.003601 0.000671
0.000000 0.005798 0.000366
0.004913 0.009491 0.000885
0.028168 0.013550 0.001007
0.081971 0.015045 0.001953
0.119844 0.011261 0.003662
0.169558 0.000000 0.004303
0.240543 0.000000 0.004211
0.328466 0.000000 0.001923
0.427802 0.000000 0.000000
0.529808 0.000000 0.000000
0.627192 0.000000 0.000000
0.714931 0.000000 0.000000
0.792599 0.000000 0.000000
0.860472 0.000000 0.000000
0.920256 0.000000 0.000000
0.971740 0.000000 0.036225
1.000000 0.000000 0.093629
1.000000 0.000000 0.127565
1.000000 0.000000 0.167086
1.000000 0.000000 0.203128
1.000000 0.000000 0.237705
1.000000 0.220493 0.271946
1.000000 0.312963 0.307530
1.000000 0.384894 0.345281
1.000000 0.447150 0.385473
1.000000 0.504448 0.429664
1.000000 0.558679 0.478065
1.000000 0.610925 0.530632
1.000000 0.660426 0.585840
0.000000 0.006012 0.000397
0.000000 0.007202 0.000244
0.000000 0.007202 0.000244
0.000000 0.009400 0.000000
0.004791 0.012879 0.000427
0.030030 0.016724 0.000519
0.080629 0.018647 0.001495
0.118868 0.015106 0.002075
0.165988 0.001801 0.002655
0.235019 0.000000 0.002564
0.321386 0.000000 0.000519
0.419562 0.000000 0.000000
0.520226 0.000000 0.000000
0.617639 0.000000 0.000000
0.705989 0.000000 0.000000
0.783932 0.000000 0.000000
0.852903 0.000000 0.000000
0.913420 0.000000 0.000000
0.966033 0.000000 0.020386
1.000000 0.000000 0.084016
1.000000 0.000000 0.121462
1.000000 0.000000 0.160616
1.000000 0.000000 0.196414
1.000000 0.000000 0.230747
1.000000 0.206271 0.264897
1.000000 0.300969 0.299657
1.000000 0.374090 0.336919
1.000000 0.437568 0.377111
1.000000 0.495857 0.421241
1.000000 0.550866 0.469459
1.000000 0.603632 0.522026
1.000000 0.653773 0.577447
0.000000 0.015625 0.000336
0.000000 0.016846 0.000183
0.000000 0.015412 0.000305
0.000000 0.017578 0.000000
0.003784 0.020844 0.000000
0.029725 0.023499 0.000000
0.081880 0.025208 0.000000
0.118105 0.023285 0.001038
0.164797 0.011658 0.000336
0.231937 0.000000 0.000031
0.316625 0.000000 0.000000
0.412146 0.000000 0.000000
0.512169 0.000000 0.000000
0.608179 0.000000 0.000000
0.695827 0.000000 0.000000
0.773922 0.000000 0.000000
0.842649 0.000000 0.000000
0.903166 0.000000 0.000000
0.956664 0.000000 0.000000
1.000000 0.000000 0.047517
1.000000 0.000000 0.107729
1.000000 0.000000 0.147555
1.000000 0.000000 0.183383
1.000000 0.000000 0.217594
1.000000 0.185428 0.253330
1.000000 0.289189 0.289220
1.000000 0.366217 0.327886
1.000000 0.432441 0.369696
1.000000 0.492378 0.415167
1.000000 0.547997 0.464179
1.000000 0.600122 0.516106
1.000000 0.649317 0.570520
0.000000 0.031037 0.001770
0.000000 0.032227 0.001617
0.000000 0.031800 0.001617
0.000000 0.030365 0.001740
0.000000 0.032868 0.000122
0.025574 0.036286 0.000000
0.079438 0.037995 0.000000
0.115938 0.037720 0.000000
0.160372 0.029297 0.000000
0.224796 0.000000 0.000000
0.306157 0.000000 0.000000
0.399542 0.000000 0.000000
0.497536 0.000000 0.000000
0.594232 0.000000 0.000000
0.682918 0.000000 0.000000
0.762081 0.000000 0.000000
0.833127 0.000000 0.000000
0.895293 0.000000 0.000000
0.949950 0.000000 0.000000
0.995514 0.000000 0.003967
1.000000 0.000000 0.091279
1.000000 0.000000 0.134524
1.000000 0.000000 0.171603
1.000000 0.000000 0.207828
1.000000 0.189517 0.244022
1.000000 0.289952 0.280797
1.000000 0.365270 0.320195
1.000000 0.430640 0.362432
1.000000 0.489540 0.407507
1.000000 0.544518 0.456550
1.000000 0.596338 0.508537
1.000000 0.645014 0.562554
0.000000 0.052247 0.003601
0.000000 0.052003 0.003601
0.000000 0.052766 0.004547
0.000000 0.051118 0.003571
0.000000 0.049012 0.002533
0.015442 0.051911 0.000549
0.075471 0.057557 0.000000
0.116579 0.058808 0.000000
0.160800 0.053773 0.000000
0.224247 0.025849 0.000000
0.304021 0.000000 0.000000
0.395758 0.000000 0.000000
0.492470 0.000000 0.000000
0.588067 0.000000 0.000000
0.677150 0.000000 0.000000
0.757229 0.000000 0.000000
0.828244 0.000000 0.000000
0.891325 0.000000 0.000000
0.946502 0.000000 0.000000
0.993103 0.000000 0.000000
1.000000 0.000000 0.048737
1.000000 0.000000 0.119417
1.000000 0.153079 0.209659
1.000000 0.268742 0.250858
1.000000 0.346105 0.291752
1.000000 0.410071 0.332799
1.000000 0.466163 0.375250
1.000000 0.517266 0.419562
1.000000 0.565393 0.466377
1.000000 0.611109 0.515740
1.000000 0.654200 0.566155
1.000000 0.694697 0.617212
0.000000 0.085237 0.010101
0.000000 0.085847 0.009949
0.000000 0.086336 0.009796
0.000000 0.085634 0.008606
0.000000 0.081727 0.009155
0.013733 0.080659 0.005493
0.074067 0.084230 0.001282
0.124056 0.090425 0.000000
0.181216 0.089693 0.000000
0.249302 0.075654 0.000000
0.332128 0.015717 0.000000
0.426276 0.000000 0.000000
0.522789 0.000000 0.000000
0.615900 0.000000 0.000000
0.700557 0.000000 0.000000
0.775967 0.000000 0.000000
0.843992 0.000000 0.000000
0.904051 0.000000 0.000000
0.957092 0.000000 0.000000
1.000000 0.000000 0.000000
1.000000 0.000000 0.019532
1.000000 0.000000 0.122286
1.000000 0.122164 0.173465
1.000000 0.250889 0.220493
1.000000 0.333165 0.266209
1.000000 0.399023 0.310033
1.000000 0.455207 0.354040
1.000000 0.506096 0.398840
1.000000 0.554131 0.446296
1.000000 0.599268 0.495125
1.000000 0.642603 0.546166
1.000000 0.683497 0.597894
0.000000 0.104799 0.017884
0.000000 0.105104 0.017731
0.000000 0.105257 0.017578
0.000000 0.106233 0.018036
0.000000 0.103120 0.015625
0.009644 0.099489 0.015412
0.058534 0.099947 0.008637
0.111666 0.105348 0.000824
0.174166 0.113283 0.000000
0.249149 0.112398 0.000000
0.332708 0.100893 0.000000
0.421149 0.055116 0.000000
0.511620 0.000000 0.000000
0.602472 0.000000 0.000000
0.686671 0.000000 0.000000
0.762203 0.000000 0.000000
0.830350 0.000000 0.000000
0.891569 0.000000 0.000000
0.948547 0.000000 0.000000
1.000000 0.000000 0.000000
1.000000 0.000000 0.000000
1.000000 0.000000 0.059236
1.000000 0.172457 0.143191
1.000000 0.264591 0.194644
1.000000 0.336522 0.242924
1.000000 0.397192 0.289006
1.000000 0.451057 0.333837
1.000000 0.500542 0.379736
1.000000 0.547601 0.427741
1.000000 0.592401 0.477577
1.000000 0.635584 0.529595
1.000000 0.676753 0.582605
0.000000 0.133761 0.028229
0.000000 0.133974 0.028077
0.000000 0.134310 0.027741
0.000000 0.135439 0.027893
0.000000 0.134646 0.022278
0.000000 0.128328 0.023987
0.045075 0.125063 0.020294
0.102846 0.127169 0.009369
0.160250 0.135042 0.000000
0.242435 0.145937 0.000000
0.331701 0.145968 0.000000
0.424384 0.137423 0.000000
0.512963 0.119234 0.000000
0.598505 0.088106 0.000000
0.677974 0.000000 0.000000
0.752163 0.000000 0.000000
0.820249 0.000000 0.000000
0.882750 0.000000 0.000000
0.946410 0.000000 0.000000
0.997284 0.000000 0.000000
1.000000 0.000000 0.000000
1.000000 0.150668 0.000000
1.000000 0.226932 0.098695
1.000000 0.291661 0.165530
1.000000 0.350622 0.218692
1.000000 0.404120 0.267338
1.000000 0.454108 0.314611
1.000000 0.501274 0.362127
1.000000 0.546441 0.410956
1.000000 0.590112 0.461982
1.000000 0.632532 0.515221
1.000000 0.673213 0.569390
0.000000 0.174990 0.043946
0.000000 0.174929 0.042786
0.000000 0.175174 0.042451
0.000000 0.176181 0.040009
0.000000 0.177798 0.039033
0.000000 0.171237 0.030213
0.000000 0.162112 0.032837
0.092622 0.161624 0.022095
0.147585 0.164309 0.003235
0.224216 0.175021 0.000000
0.320073 0.188296 0.000000
0.414160 0.190555 0.000000
0.509087 0.187289 0.000000
0.593652 0.179263 0.000000
0.672633 0.168826 0.000000
0.744900 0.158022 0.000000
0.813016 0.151705 0.000000
0.882811 0.150668 0.000000
0.943511 0.155947 0.000000
0.992493 0.173831 0.000000
1.000000 0.200626 0.000000
1.000000 0.235325 0.000000
1.000000 0.275761 0.000000
1.000000 0.318853 0.119203
1.000000 0.363317 0.184176
1.000000 0.408118 0.236667
1.000000 0.453193 0.286809
1.000000 0.497658 0.336248
1.000000 0.541741 0.387091
1.000000 0.585382 0.440986
1.000000 0.627924 0.496437
1.000000 0.669215 0.553338
0.000000 0.224369 0.069245
0.000000 0.224338 0.069245
0.000000 0.225193 0.067994
0.000000 0.226505 0.064790
0.000000 0.228489 0.063691
0.000000 0.226658 0.043397
0.000000 0.216495 0.047639
0.046479 0.205081 0.050935
0.140017 0.209537 0.019715
0.209445 0.213535 0.000000
0.302617 0.228153 0.000000
0.405127 0.244083 0.000000
0.499580 0.248936 0.000000
0.590204 0.248631 0.000000
0.670222 0.245579 0.000000
0.748684 0.247471 0.000000
0.819059 0.250584 0.000000
0.881712 0.255619 0.000000
0.936736 0.263432 0.000000
0.984009 0.270237 0.000000
1.000000 0.281376 0.000000
1.000000 0.299535 0.000000
1.000000 0.324285 0.000000
1.000000 0.354376 0.000000
1.000000 0.388525 0.143343
1.000000 0.425788 0.207706
1.000000 0.464851 0.262669
1.000000 0.505455 0.315587
1.000000 0.546593 0.368933
1.000000 0.588159 0.424475
1.000000 0.629206 0.481666
1.000000 0.669429 0.540398
0.000000 0.288273 0.096925
0.000000 0.288670 0.096651
0.000000 0.289006 0.095583
0.000000 0.290837 0.095399
0.000000 0.292973 0.094423
0.000000 0.295872 0.094911
0.000000 0.286076 0.079835
0.000000 0.273442 0.082490
0.122591 0.265324 0.073121
0.203250 0.271397 0.016266
0.284855 0.276219 0.000000
0.388556 0.294987 0.000000
0.535821 0.347417 0.000000
0.637354 0.359930 0.000000
0.726497 0.365667 0.000000
0.803738 0.368261 0.000000
0.868528 0.371649 0.000000
0.924987 0.375891 0.000000
0.971557 0.380377 0.000000
1.000000 0.385229 0.000000
1.000000 0.391333 0.000000
1.000000 0.401862 0.000000
1.000000 0.416876 0.000000
1.000000 0.437415 0.000000
1.000000 0.462043 0.148959
1.000000 0.490150 0.219669
1.000000 0.520378 0.277317
1.000000 0.552575 0.331426
1.000000 0.586023 0.384985
1.000000 0.620661 0.440284
1.000000 0.655848 0.496803
1.000000 0.691493 0.555230
0.000000 0.382330 0.126772
0.000000 0.382116 0.126345
0.000000 0.381933 0.125521
0.000000 0.382177 0.125032
0.000000 0.382757 0.124666
0.000000 0.383917 0.125399
0.000000 0.378393 0.109895
0.000000 0.364080 0.110903
0.053834 0.348272 0.112367
0.196078 0.346441 0.096254
0.291569 0.361273 0.019684
0.393133 0.377234 0.000000
0.516045 0.408515 0.000000
0.623255 0.430274 0.000000
0.713405 0.438209 0.000000
0.790433 0.439399 0.000000
0.857359 0.437110 0.000000
0.912139 0.436561 0.000000
0.957671 0.436561 0.000000
0.995392 0.437201 0.000000
1.000000 0.438941 0.000000
1.000000 0.442786 0.000000
1.000000 0.449989 0.000000
1.000000 0.463233 0.000000
1.000000 0.480995 0.000000
1.000000 0.503075 0.167086
1.000000 0.529015 0.238193
1.000000 0.558007 0.299351
1.000000 0.589349 0.357549
1.000000 0.622644 0.416571
1.000000 0.656519 0.476143
1.000000 0.691188 0.537102
0.000000 0.452399 0.150088
0.000000 0.452033 0.149874
0.000000 0.451820 0.149416
0.000000 0.451545 0.149050
0.000000 0.453010 0.149660
0.000000 0.455756 0.151614
0.000000 0.458259 0.151980
0.000000 0.448615 0.139345
0.000000 0.436591 0.141299
0.179477 0.423285 0.143404
0.281743 0.434546 0.119142
0.380621 0.449104 0.053101
0.483680 0.463142 0.000000
0.600183 0.488869 0.000000
0.693385 0.501457 0.000000
0.771603 0.503502 0.000000
0.838376 0.500084 0.000000
0.895995 0.494942 0.000000
0.943175 0.490150 0.000000
0.981170 0.487434 0.000000
1.000000 0.486183 0.000000
1.000000 0.487312 0.000000
1.000000 0.490364 0.000000
1.000000 0.495216 0.000000
1.000000 0.507164 0.000000
1.000000 0.523857 0.083192
1.000000 0.544854 0.195895
1.000000 0.569574 0.266667
1.000000 0.597772 0.330846
1.000000 0.628260 0.392981
1.000000 0.660578 0.456336
1.000000 0.693874 0.520378
0.000000 0.538170 0.184207
0.000000 0.538262 0.184115
0.000000 0.537652 0.183810
0.000000 0.536980 0.184146
0.000000 0.536645 0.184451
0.000000 0.536614 0.186282
0.000000 0.537621 0.191470
0.000000 0.532128 0.175509
0.000000 0.520195 0.175082
0.154360 0.506889 0.175723
0.271916 0.498787 0.172274
0.366735 0.511528 0.146151
0.462837 0.523766 0.103029
0.561425 0.534386 0.000000
0.668116 0.553735 0.000000
0.749050 0.559564 0.000000
0.818112 0.558038 0.000000
0.876432 0.552361 0.000000
0.926055 0.544549 0.000000
0.967193 0.536309 0.000000
1.000000 0.532677 0.000000
1.000000 0.531304 0.000000
1.000000 0.531792 0.000000
1.000000 0.534142 0.000000
1.000000 0.538231 0.000000
1.000000 0.547875 0.000000
1.000000 0.564416 0.137209
1.000000 0.585565 0.231083
1.000000 0.610956 0.304356
1.000000 0.639765 0.373480
1.000000 0.670741 0.442023
1.000000 0.703182 0.511254
0.000000 0.604730 0.218967
0.000000 0.604883 0.219059
0.000000 0.604822 0.219760
0.000000 0.604517 0.220432
0.000000 0.604303 0.221714
0.000000 0.604517 0.224704
0.000000 0.605402 0.230167
0.000000 0.605188 0.231266
0.000000 0.596155 0.219089
0.150484 0.584527 0.217960
0.279881 0.571069 0.216922
0.363745 0.568841 0.206271
0.449378 0.577386 0.180392
0.536950 0.584741 0.142245
0.625879 0.590295 0.043366
0.720638 0.603937 0.000000
0.792172 0.605554 0.000000
0.853513 0.602350 0.000000
0.904540 0.595026 0.000000
0.947997 0.586084 0.000000
0.985290 0.577203 0.000000
1.000000 0.573663 0.000000
1.000000 0.572656 0.000000
1.000000 0.573388 0.000000
1.000000 0.575860 0.000000
1.000000 0.580163 0.000000
1.000000 0.589044 0.000000
1.000000 0.606226 0.190646
1.000000 0.627893 0.277379
1.000000 0.653101 0.352178
1.000000 0.680842 0.424323
1.000000 0.710384 0.496040
0.000000 0.658137 0.254887
0.000000 0.658076 0.254978
0.000000 0.657923 0.255375
0.000000 0.657588 0.256352
0.000000 0.657221 0.258183
0.000000 0.657313 0.261601
0.000000 0.657435 0.267247
0.000000 0.657923 0.276341
0.000000 0.652705 0.260746
0.163088 0.642390 0.258579
0.288792 0.630610 0.256138
0.367926 0.617151 0.254063
0.441077 0.620569 0.237888
0.518486 0.627314 0.214115
0.598779 0.632624 0.180331
0.680720 0.636591 0.128511
0.767056 0.647578 0.000000
0.830655 0.647242 0.000000
0.884581 0.642390 0.000000
0.928862 0.634089 0.000000
0.967346 0.625574 0.000000
1.000000 0.617090 0.000000
1.000000 0.612329 0.000000
1.000000 0.611414 0.000000
1.000000 0.612390 0.000000
1.000000 0.615351 0.000000
1.000000 0.620264 0.000000
1.000000 0.628351 0.130709
1.000000 0.646571 0.245823
1.000000 0.668635 0.329656
1.000000 0.693812 0.408026
1.000000 0.720821 0.483589
0.000000 0.706508 0.295140
0.000000 0.706722 0.295659
0.000000 0.733944 0.324865
0.000000 0.733577 0.326146
0.000000 0.732876 0.328588
0.000000 0.731899 0.332433
0.000000 0.730953 0.338170
0.000000 0.729976 0.346868
0.205264 0.727657 0.346166
0.281559 0.719570 0.333471
0.362982 0.709194 0.329534
0.426642 0.697322 0.325048
0.480842 0.685695 0.318334
0.543877 0.690303 0.300237
0.610864 0.693874 0.277348
0.680720 0.696132 0.248264
0.752682 0.697017 0.208469
0.826627 0.703243 0.174197
0.877379 0.697902 0.133791
0.920928 0.690150 0.062440
0.957641 0.680598 0.000000
0.990204 0.671687 0.000000
1.000000 0.663050 0.000000
1.000000 0.655818 0.000000
1.000000 0.654047 0.000000
1.000000 0.653956 0.000000
1.000000 0.655879 0.108431
1.000000 0.660060 0.161501
1.000000 0.667262 0.208957
1.000000 0.685512 0.305089
1.000000 0.707424 0.389288
1.000000 0.731777 0.469703
0.000000 0.754635 0.346380
0.000000 0.756802 0.349126
0.000000 0.759091 0.353033
0.000000 0.760708 0.357275
0.000000 0.761593 0.361517
0.000000 0.761257 0.366033
0.000000 0.760189 0.371588
0.000000 0.758755 0.378912
0.273655 0.757351 0.389166
0.308354 0.752224 0.370947
0.378058 0.743435 0.366522
0.437079 0.733272 0.361761
0.486854 0.721157 0.355474
0.536156 0.715267 0.345647
0.594324 0.718959 0.327916
0.656580 0.721675 0.306218
0.721889 0.723537 0.279179
0.788357 0.724605 0.245335
0.854856 0.729458 0.223178
0.899901 0.724300 0.197635
0.938903 0.717433 0.171542
0.972320 0.709743 0.143160
1.000000 0.701839 0.111208
1.000000 0.694026 0.045014
1.000000 0.686336 0.000000
1.000000 0.684199 0.088502
1.000000 0.684657 0.146426
1.000000 0.687404 0.189944
1.000000 0.692439 0.228519
1.000000 0.700374 0.269139
1.000000 0.719387 0.363012
1.000000 0.741207 0.449165
0.000000 0.783261 0.383398
0.000000 0.785183 0.386572
0.000000 0.787076 0.390539
0.000000 0.788479 0.394965
0.000000 0.789151 0.399420
0.000000 0.788693 0.403998
0.000000 0.787625 0.409186
0.179049 0.786007 0.415839
0.311528 0.784298 0.425055
0.369390 0.781369 0.420996
0.407599 0.774838 0.408911
0.457984 0.766567 0.403632
0.503136 0.756710 0.397009
0.544488 0.745571 0.390356
0.591424 0.744625 0.378058
0.645289 0.747280 0.361181
0.702815 0.749233 0.340887
0.762448 0.750454 0.316655
0.823148 0.751278 0.287327
0.881498 0.754665 0.272679
0.920867 0.749294 0.253239
0.955230 0.743099 0.235447
0.985077 0.736385 0.218418
1.000000 0.729427 0.202396
1.000000 0.722377 0.185000
1.000000 0.715724 0.168093
1.000000 0.712459 0.179873
1.000000 0.713832 0.218021
1.000000 0.717617 0.254490
1.000000 0.723659 0.290806
1.000000 0.732753 0.334386
1.000000 0.751827 0.427344
0.000000 0.808469 0.422827
0.000000 0.809903 0.425757
0.000000 0.811246 0.429389
0.000000 0.812161 0.433448
0.000000 0.812436 0.437781
0.000000 0.811917 0.442206
0.116030 0.810697 0.446815
0.262577 0.809079 0.453101
0.354314 0.807279 0.461311
0.431769 0.805203 0.472053
0.443915 0.801114 0.452613
0.485847 0.794369 0.447425
0.525017 0.786496 0.440986
0.561913 0.777554 0.434058
0.596979 0.767727 0.426429
0.643091 0.770535 0.413764
0.693446 0.772946 0.398749
0.747158 0.775021 0.381903
0.802457 0.776974 0.362737
0.858488 0.778592 0.340398
0.909575 0.781735 0.333745
0.943847 0.777737 0.322454
0.973449 0.772763 0.311833
0.999695 0.767575 0.302342
1.000000 0.762387 0.293919
1.000000 0.757259 0.286351
1.000000 0.752590 0.279240
1.000000 0.749722 0.280797
1.000000 0.752865 0.315648
1.000000 0.758083 0.351751
1.000000 0.765225 0.389807
1.000000 0.775662 0.440803
0.000000 0.837736 0.481331
0.000000 0.838163 0.482734
0.000000 0.838346 0.484382
0.000000 0.838102 0.486183
0.098604 0.837400 0.488502
0.210605 0.836240 0.491432
0.287419 0.834745 0.495552
0.356207 0.832914 0.501152
0.419806 0.830961 0.508568
0.481788 0.828824 0.518639
0.511101 0.826352 0.513603
0.533501 0.821683 0.502892
0.565118 0.815549 0.497078
0.596033 0.808530 0.490242
0.625483 0.800534 0.482490
0.657343 0.795315 0.473457
0.698878 0.797269 0.461494
0.743740 0.798795 0.447944
0.791012 0.800107 0.432441
0.839658 0.801083 0.414801
0.888701 0.802060 0.394324
0.931090 0.803433 0.390265
0.959838 0.798764 0.379095
0.985077 0.793362 0.368414
1.000000 0.788540 0.360296
1.000000 0.784146 0.353948
1.000000 0.780240 0.349157
1.000000 0.777218 0.346563
1.000000 0.775174 0.346838
1.000000 0.778317 0.376745
1.000000 0.784176 0.414679
1.000000 0.791623 0.454353
0.180392 0.854582 0.521324
0.189395 0.854887 0.522545
0.211521 0.854948 0.524010
0.242618 0.854704 0.525963
0.281254 0.854063 0.528344
0.324163 0.852964 0.531243
0.370794 0.851560 0.535271
0.419379 0.849821 0.540429
0.469947 0.847929 0.547631
0.520989 0.845792 0.556756
0.568963 0.843473 0.566705
0.573816 0.840726 0.549615
0.599481 0.835874 0.544121
0.625238 0.830350 0.538048
0.650629 0.824155 0.531273
0.675380 0.817258 0.523949
0.706752 0.815732 0.515404
0.744564 0.817380 0.505211
0.785122 0.818784 0.493721
0.827420 0.819883 0.480293
0.870542 0.820859 0.465217
0.913939 0.822416 0.448798
0.949035 0.822507 0.447242
0.973724 0.818265 0.438544
0.993744 0.809812 0.416510
1.000000 0.805692 0.410163
1.000000 0.802365 0.406256
1.000000 0.799802 0.405005
1.000000 0.798093 0.406317
1.000000 0.797543 0.410986
1.000000 0.800351 0.433722
1.000000 0.806912 0.473945
0.356573 0.872007 0.572168
0.363561 0.872404 0.574182
0.372290 0.872374 0.575372
0.385443 0.871855 0.576440
0.403418 0.870878 0.577508
0.427161 0.869444 0.579004
0.455116 0.867704 0.581201
0.487892 0.865568 0.584466
0.525139 0.863218 0.589532
0.564538 0.860685 0.596368
0.604944 0.857939 0.604883
0.620325 0.855558 0.597925
0.633234 0.851835 0.587579
0.652827 0.847044 0.580804
0.672694 0.841611 0.573053
0.692775 0.835569 0.564843
0.712947 0.829038 0.556237
0.743862 0.829831 0.547570
0.778347 0.831174 0.538079
0.815427 0.832547 0.528313
0.853544 0.833738 0.517144
0.892027 0.834714 0.504143
0.931121 0.836545 0.489784
0.960723 0.835599 0.488350
0.982422 0.831266 0.478981
1.000000 0.826596 0.470039
1.000000 0.822965 0.464454
1.000000 0.820371 0.462287
1.000000 0.818662 0.462867
1.000000 0.818082 0.467475
1.000000 0.818662 0.475532
1.000000 0.821012 0.491127
0.431891 0.882322 0.605158
0.437049 0.882628 0.606806
0.444221 0.882658 0.608453
0.454932 0.882261 0.609888
0.470100 0.881559 0.611719
0.489754 0.880522 0.614038
0.514244 0.879179 0.617456
0.543084 0.877562 0.622126
0.575128 0.875700 0.628077
0.609552 0.873655 0.635767
0.644617 0.871336 0.644312
0.674128 0.869078 0.650385
0.676326 0.867033 0.636683
0.692012 0.863249 0.631128
0.707759 0.858946 0.624414
0.723903 0.854215 0.617182
0.740475 0.848997 0.609674
0.759335 0.845090 0.601953
0.787015 0.846342 0.594537
0.817197 0.847562 0.586877
0.849027 0.848783 0.578363
0.881651 0.849851 0.568627
0.914366 0.850736 0.556970
0.948547 0.852903 0.545373
0.973205 0.851682 0.545586
0.992279 0.848173 0.538781
1.000000 0.844480 0.532311
1.000000 0.841917 0.530114
1.000000 0.840818 0.532189
1.000000 0.840635 0.537255
1.000000 0.841398 0.545769
1.000000 0.843290 0.558099
0.515496 0.893462 0.646601
0.517906 0.893553 0.647425
0.522545 0.893462 0.648402
0.530205 0.893034 0.649622
0.541344 0.892332 0.651209
0.556512 0.891295 0.653285
0.575311 0.890013 0.656245
0.597772 0.888487 0.660212
0.623224 0.886748 0.665278
0.650416 0.884855 0.671443
0.679133 0.882750 0.678492
0.707790 0.880613 0.686519
0.715511 0.878996 0.679591
0.724514 0.876310 0.672419
0.737514 0.872801 0.667079
0.750820 0.868925 0.661067
0.764675 0.864744 0.654871
0.778958 0.860288 0.648371
0.797971 0.858824 0.642664
0.822354 0.860075 0.636896
0.848447 0.861357 0.630823
0.875608 0.862516 0.623743
0.903349 0.863523 0.614923
0.931579 0.864317 0.604059
0.961547 0.866606 0.593988
0.982361 0.865202 0.594842
0.999359 0.862211 0.588952
1.000000 0.859129 0.583948
1.000000 0.857298 0.583154
1.000000 0.857511 0.589044
1.000000 0.858549 0.597681
1.000000 0.860838 0.610681
0.580377 0.902739 0.682643
0.582361 0.902800 0.683314
0.586297 0.902708 0.684321
0.592859 0.902373 0.685695
0.602533 0.901884 0.687617
0.615930 0.901213 0.690578
0.633661 0.900481 0.694881
0.654505 0.899626 0.700374
0.677729 0.898680 0.707027
0.702327 0.897673 0.714473
0.727749 0.896605 0.722560
0.752743 0.895384 0.730983
0.771359 0.894316 0.735470
0.774807 0.893217 0.728115
0.786007 0.890929 0.725887
0.796719 0.888151 0.722438
0.807492 0.885039 0.718410
0.818631 0.881743 0.714046
0.830289 0.878325 0.710018
0.847196 0.878874 0.706477
0.866361 0.880247 0.702785
0.886748 0.881559 0.698482
0.907774 0.882719 0.692836
0.929625 0.883726 0.685847
0.952026 0.884550 0.677089
0.976562 0.887144 0.669825
0.993317 0.886015 0.671351
1.000000 0.883940 0.668116
1.000000 0.881865 0.665461
1.000000 0.880980 0.666712
1.000000 0.882689 0.675288
1.000000 0.885313 0.686702
0.669276 0.915801 0.734554
0.669734 0.915740 0.734646
0.671565 0.915557 0.734890
0.675196 0.915221 0.735439
0.681147 0.914672 0.736385
0.689509 0.913939 0.737819
0.700404 0.913115 0.740017
0.713619 0.912108 0.742855
0.728817 0.910979 0.746395
0.745724 0.909789 0.750637
0.763577 0.908507 0.755428
0.781979 0.907164 0.760739
0.800443 0.905760 0.766476
0.804105 0.904753 0.761349
