20 Preset/Natural Wedding/【3】LUT video cho PR-AE-FCPX/Lut Tone (18).cube
# Created by Adobe Lightroom plugin Export LUT (1.24.0)
# www.johnrellis.com/lightroom/exportlut.htm
# Preset: 清新婚礼-素材江湖18
# Color profile: C:\Program Files (x86)\Common Files\Adobe\Color\Profiles\Recommended\VideoHD.icc
LUT_3D_SIZE 8
DOMAIN_MIN 0.000000 0.000000 0.000000
DOMAIN_MAX 0.903226 0.903226 0.903226
0.000000 0.000000 0.000000
0.005646 0.008270 0.001007
0.175021 0.000000 0.004150
0.542779 0.000000 0.000000
0.869505 0.000000 0.000000
1.000000 0.000000 0.133608
1.000000 0.253696 0.283848
1.000000 0.521569 0.444221
0.000000 0.031037 0.001770
0.000000 0.032868 0.000122
0.160372 0.029297 0.000000
0.497536 0.000000 0.000000
0.833127 0.000000 0.000000
1.000000 0.000000 0.091279
1.000000 0.189517 0.244022
1.000000 0.489540 0.407507
0.000000 0.133761 0.028229
0.000000 0.134646 0.022278
0.160250 0.135042 0.000000
0.512963 0.119234 0.000000
0.820249 0.000000 0.000000
1.000000 0.000000 0.000000
1.000000 0.350622 0.218692
1.000000 0.546441 0.410956
0.000000 0.382330 0.126772
0.000000 0.382757 0.124666
0.053834 0.348272 0.112367
0.516045 0.408515 0.000000
0.857359 0.437110 0.000000
1.000000 0.438941 0.000000
1.000000 0.480995 0.000000
1.000000 0.589349 0.357549
0.000000 0.658137 0.254887
0.000000 0.657221 0.258183
0.000000 0.652705 0.260746
0.441077 0.620569 0.237888
0.767056 0.647578 0.000000
0.967346 0.625574 0.000000
1.000000 0.612390 0.000000
1.000000 0.646571 0.245823
0.000000 0.808469 0.422827
0.000000 0.812436 0.437781
0.354314 0.807279 0.461311
0.525017 0.786496 0.440986
0.693446 0.772946 0.398749
0.909575 0.781735 0.333745
1.000000 0.762387 0.293919
1.000000 0.752865 0.315648
0.431891 0.882322 0.605158
0.470100 0.881559 0.611719
0.575128 0.875700 0.628077
0.676326 0.867033 0.636683
0.740475 0.848997 0.609674
0.849027 0.848783 0.578363
0.973205 0.851682 0.545586
1.000000 0.840818 0.532189
0.717769 0.925811 0.765133
0.727596 0.925017 0.766964
0.766201 0.922210 0.775814
0.823911 0.918273 0.792142
0.836393 0.906249 0.768429
0.876860 0.899382 0.762631
0.938354 0.905943 0.752316
1.000000 0.910857 0.738521
0.000000 0.015595 0.009400
0.002258 0.014038 0.007080
0.151095 0.011414 0.008698
0.464363 0.000000 0.000000
0.813657 0.000000 0.000000
1.000000 0.000000 0.062623
1.000000 0.111757 0.227390
1.000000 0.458442 0.385840
0.000000 0.042817 0.013886
0.000671 0.043061 0.014435
0.154299 0.042756 0.014221
0.463508 0.000000 0.000000
0.802579 0.000000 0.000000
1.000000 0.000000 0.000000
1.000000 0.101747 0.204654
1.000000 0.439734 0.361791
0.000000 0.140322 0.068177
0.000000 0.143832 0.068177
0.169802 0.144228 0.029572
0.498970 0.119081 0.000000
0.795438 0.000000 0.000000
1.000000 0.000000 0.000000
1.000000 0.284276 0.154849
1.000000 0.491646 0.353429
0.000000 0.368505 0.153689
0.000000 0.371099 0.152651
0.094240 0.354376 0.146517
0.485725 0.384863 0.000000
0.807034 0.395911 0.000000
0.991669 0.401343 0.000000
1.000000 0.433692 0.000000
1.000000 0.542321 0.295048
0.000000 0.652369 0.270939
0.000000 0.650172 0.272618
0.000000 0.646571 0.287785
0.428443 0.604181 0.253880
0.740139 0.625818 0.113436
0.949279 0.607691 0.000000
1.000000 0.598901 0.000000
1.000000 0.625971 0.193088
0.000000 0.799985 0.419776
0.000000 0.799283 0.424689
0.300542 0.795346 0.447272
0.509789 0.777462 0.436957
0.680568 0.763668 0.400671
0.901427 0.776455 0.344182
1.000000 0.757229 0.302281
1.000000 0.746822 0.317052
0.384009 0.877867 0.591974
0.414954 0.875822 0.593011
0.533410 0.869963 0.608087
0.657557 0.861814 0.624475
0.730159 0.844877 0.602136
0.840452 0.843992 0.571221
0.967590 0.845823 0.532799
1.000000 0.833371 0.511711
0.695216 0.922942 0.754818
0.709621 0.922637 0.758877
0.750698 0.919554 0.767666
0.813443 0.915404 0.785183
0.844816 0.909514 0.779294
0.879149 0.900420 0.768490
0.937224 0.905211 0.753841
1.000000 0.910002 0.739590
0.000000 0.074678 0.119844
0.000000 0.049622 0.117067
0.140963 0.028565 0.105531
0.497963 0.000000 0.135500
0.835233 0.000000 0.156893
1.000000 0.000000 0.168154
1.000000 0.252934 0.206088
1.000000 0.493416 0.386755
0.000000 0.101686 0.136660
0.000000 0.097200 0.138735
0.159030 0.064546 0.124331
0.501091 0.000000 0.145846
0.821408 0.000000 0.161349
1.000000 0.000000 0.168521
1.000000 0.249577 0.183078
1.000000 0.480842 0.366339
0.000000 0.190616 0.184421
0.000000 0.194125 0.187625
0.219883 0.200381 0.197757
0.540795 0.186893 0.192203
0.829282 0.183536 0.182986
1.000000 0.267308 0.181613
1.000000 0.366278 0.199771
1.000000 0.510826 0.345525
0.000000 0.428748 0.260533
0.000000 0.436103 0.262913
0.165072 0.455268 0.276402
0.541222 0.460151 0.245212
0.830381 0.457679 0.194827
0.994385 0.472419 0.203372
1.000000 0.508751 0.234379
1.000000 0.565423 0.297856
0.000000 0.677913 0.360388
0.000000 0.677607 0.362005
0.120882 0.677577 0.378454
0.504326 0.649683 0.379126
0.765805 0.665248 0.315984
0.951690 0.639582 0.241306
1.000000 0.637079 0.272740
1.000000 0.663264 0.341344
0.000000 0.808194 0.479927
0.000000 0.807950 0.484535
0.324620 0.803647 0.500938
0.561242 0.792660 0.514580
0.698543 0.771298 0.483406
0.897246 0.783902 0.444465
1.000000 0.767758 0.408667
1.000000 0.764462 0.432654
0.408911 0.882048 0.628382
0.438239 0.880217 0.629450
0.545830 0.873960 0.640040
0.691737 0.864683 0.670253
0.752560 0.850156 0.648005
0.845853 0.847135 0.624994
0.963561 0.851896 0.601221
1.000000 0.843259 0.586206
0.687922 0.925017 0.763485
0.697658 0.923888 0.764370
0.740597 0.920684 0.772305
0.809232 0.917113 0.790768
0.850095 0.911559 0.791745
0.883391 0.902098 0.783597
0.937804 0.907469 0.772732
1.000000 0.912902 0.760800
0.000000 0.152316 0.319341
0.000000 0.142184 0.324712
0.116182 0.090089 0.301122
0.443000 0.000000 0.291112
0.797879 0.000000 0.321660
1.000000 0.170901 0.355932
1.000000 0.448615 0.414954
1.000000 0.542779 0.446174
0.000000 0.197299 0.344366
0.000000 0.186496 0.345769
0.132906 0.128206 0.328374
0.470832 0.000000 0.310948
0.810239 0.000000 0.337438
1.000000 0.264103 0.369635
1.000000 0.463630 0.418128
1.000000 0.551202 0.448890
0.000000 0.311284 0.373663
0.000000 0.312322 0.376410
0.144259 0.305272 0.385443
0.521508 0.249729 0.360174
0.829068 0.328496 0.390631
0.992584 0.481880 0.441718
1.000000 0.553887 0.463569
1.000000 0.608515 0.485573
0.000000 0.524895 0.432990
0.000000 0.526421 0.434058
0.000000 0.537133 0.443519
0.588891 0.553429 0.467079
0.821317 0.561791 0.458198
0.965606 0.581140 0.457465
1.000000 0.613367 0.470314
1.000000 0.654017 0.497993
0.000000 0.721859 0.505547
0.000000 0.721706 0.507164
0.068879 0.723720 0.519249
0.591638 0.724788 0.550744
0.791043 0.718837 0.528283
0.941924 0.698268 0.488533
1.000000 0.703853 0.505699
1.000000 0.724208 0.537377
0.000000 0.830472 0.592340
0.000000 0.832731 0.601190
0.388373 0.826902 0.608331
0.631281 0.818692 0.634546
0.753414 0.797116 0.629786
0.896178 0.805142 0.602869
0.994476 0.790768 0.564630
1.000000 0.794064 0.591516
0.410163 0.888548 0.680995
0.447730 0.887541 0.684382
0.562280 0.882628 0.695644
0.704402 0.874449 0.718074
0.797116 0.864164 0.726802
0.858854 0.855222 0.707088
0.956359 0.860410 0.690181
1.000000 0.854673 0.674647
0.676417 0.931609 0.784085
0.688441 0.930663 0.785458
0.734005 0.927245 0.791745
0.801541 0.922271 0.804105
0.865995 0.916899 0.819211
0.891295 0.907744 0.806912
0.937957 0.910521 0.799161
0.999115 0.917815 0.791867
0.000000 0.287388 0.538476
0.000000 0.280583 0.542382
0.000000 0.208286 0.536278
0.454963 0.144717 0.495888
0.753445 0.000000 0.495155
0.969360 0.248844 0.511009
1.000000 0.482551 0.544244
1.000000 0.657343 0.630701
0.000000 0.333562 0.553552
0.000000 0.328099 0.557610
0.000000 0.273533 0.554437
0.469459 0.203189 0.511192
0.760647 0.140047 0.506737
0.966888 0.309422 0.520562
1.000000 0.509087 0.554406
1.000000 0.672450 0.641962
0.000000 0.451850 0.577173
0.000000 0.451362 0.579126
0.000000 0.445228 0.586694
0.503593 0.381262 0.564080
0.766018 0.366247 0.538506
0.948150 0.453376 0.545983
1.000000 0.588617 0.587243
1.000000 0.708858 0.666743
0.000000 0.605005 0.612146
0.000000 0.605646 0.613062
0.000000 0.611475 0.620386
0.538170 0.617731 0.633906
0.777829 0.590997 0.608850
0.928099 0.639887 0.621820
0.996643 0.718257 0.673640
1.000000 0.738460 0.679347
0.000000 0.749142 0.653346
0.000000 0.749783 0.655055
0.000000 0.749813 0.660243
0.536400 0.750271 0.671809
0.792844 0.754482 0.692012
0.906432 0.751980 0.681575
0.985321 0.757534 0.679042
1.000000 0.770687 0.686580
0.000000 0.830686 0.674189
0.000000 0.830411 0.676020
0.266148 0.827268 0.680262
0.572900 0.824002 0.695338
0.775174 0.816800 0.718013
0.885161 0.817838 0.716426
0.972839 0.810361 0.696132
1.000000 0.817197 0.712703
0.321782 0.895567 0.736690
0.357855 0.894011 0.736049
0.481483 0.888792 0.737240
0.657404 0.880735 0.750179
0.801785 0.872251 0.771420
0.864164 0.858488 0.765988
0.946227 0.865263 0.755520
1.000000 0.859190 0.734676
0.551049 0.937652 0.789029
0.571801 0.936431 0.790219
0.646784 0.931792 0.795804
0.756130 0.926574 0.811002
0.843442 0.920226 0.825467
0.894713 0.913359 0.829313
0.933532 0.910216 0.821225
0.993042 0.918059 0.814542
0.000000 0.459327 0.733913
0.000000 0.457374 0.734981
0.000000 0.449866 0.736385
0.408301 0.367132 0.724361
0.724880 0.357427 0.684596
0.924498 0.368017 0.675654
1.000000 0.511620 0.671748
1.000000 0.672023 0.714565
0.000000 0.482002 0.729488
0.000000 0.478798 0.729793
0.000000 0.469490 0.730373
0.400946 0.386053 0.717128
0.715694 0.376867 0.677394
0.915709 0.386664 0.670680
1.000000 0.519707 0.668910
1.000000 0.673426 0.712245
0.000000 0.585565 0.750851
0.000000 0.585046 0.750668
0.000000 0.578851 0.750210
0.441962 0.515648 0.739590
0.725978 0.500389 0.703975
0.908385 0.506432 0.691920
1.000000 0.600427 0.692653
1.000000 0.714900 0.734066
0.000000 0.689967 0.763455
0.000000 0.689174 0.762509
0.000000 0.691188 0.763485
0.537499 0.696742 0.769192
0.752163 0.667689 0.754177
0.899443 0.665888 0.737087
0.979889 0.716182 0.741878
1.000000 0.776516 0.773190
0.000000 0.776516 0.767819
0.000000 0.776150 0.767880
0.000000 0.775509 0.769162
0.531334 0.776242 0.773526
0.763607 0.779202 0.779873
0.882994 0.765774 0.766140
0.960906 0.787961 0.774777
1.000000 0.821012 0.800687
0.000000 0.850736 0.782986
0.000000 0.851194 0.785031
0.295537 0.847898 0.785794
0.566400 0.842405 0.788479
0.758572 0.837552 0.794339
0.893370 0.842924 0.811154
0.956725 0.842741 0.807828
1.000000 0.846036 0.807340
0.312230 0.901030 0.802579
0.363836 0.900603 0.804013
0.491554 0.897185 0.805814
0.647120 0.891417 0.810117
0.784787 0.886320 0.818235
0.887266 0.880674 0.828336
0.944579 0.878874 0.822416
1.000000 0.874876 0.809018
0.490028 0.946166 0.830014
0.505669 0.945159 0.829648
0.576776 0.941619 0.830533
0.685725 0.935851 0.833951
0.797024 0.928130 0.840208
0.889677 0.921874 0.853361
0.932006 0.912657 0.850492
0.987701 0.922271 0.846128
0.000000 0.604486 0.837064
0.000000 0.604852 0.836942
0.000000 0.605982 0.834836
0.414527 0.556695 0.832059
0.676295 0.534722 0.816220
0.864958 0.529625 0.794186
0.989044 0.558251 0.783474
1.000000 0.661433 0.776211
0.000000 0.619226 0.836057
0.000000 0.619532 0.835996
0.000000 0.619623 0.834073
0.434974 0.579339 0.830777
0.676417 0.550744 0.815946
0.862425 0.544457 0.793698
0.985351 0.569329 0.783078
1.000000 0.666804 0.776089
0.000000 0.675441 0.837888
0.000000 0.674891 0.837522
0.000000 0.672480 0.835630
0.522667 0.667140 0.832029
0.688441 0.620020 0.821225
0.860105 0.613214 0.799954
0.974243 0.630915 0.791348
1.000000 0.707546 0.788327
0.000000 0.741634 0.840208
0.000000 0.740993 0.839475
0.102907 0.741817 0.838590
0.538933 0.742611 0.836606
0.714443 0.715908 0.831296
0.859281 0.708492 0.812131
0.957397 0.714992 0.805600
1.000000 0.761196 0.806546
0.000000 0.805478 0.842374
0.000000 0.804929 0.842008
0.244541 0.803525 0.841428
0.533562 0.802182 0.840909
0.746761 0.803494 0.840299
0.860105 0.786038 0.830228
0.943847 0.784634 0.821927
0.997772 0.811582 0.828244
0.000000 0.862425 0.848753
0.049592 0.861845 0.848814
0.369421 0.859373 0.848753
0.573754 0.855131 0.848783
0.741787 0.850980 0.849638
0.870603 0.851164 0.853513
0.940826 0.844022 0.846189
0.994018 0.858244 0.854246
0.330419 0.908263 0.860197
0.368658 0.907561 0.860349
0.483742 0.904479 0.860380
0.628229 0.899107 0.860838
0.761074 0.893309 0.862089
0.867247 0.890501 0.866026
0.947936 0.896239 0.877806
0.993591 0.895232 0.873106
0.463172 0.948943 0.872984
0.485328 0.948272 0.873198
0.563897 0.945739 0.874266
0.670832 0.941344 0.875975
0.776059 0.936767 0.878813
0.863584 0.934325 0.883482
0.936980 0.930755 0.890074
0.983734 0.931731 0.886046
0.221958 0.747372 0.901183
0.302007 0.748348 0.900755
0.482368 0.751888 0.898283
0.648188 0.752956 0.894621
0.731807 0.718593 0.890745
0.857053 0.714809 0.879332
0.951049 0.710536 0.868956
1.000000 0.733730 0.861997
0.227878 0.752956 0.900603
0.304906 0.753872 0.900206
0.483284 0.757046 0.897948
0.658198 0.761501 0.893950
0.733730 0.725399 0.890471
0.856657 0.721004 0.879210
0.949371 0.716121 0.868650
1.000000 0.737392 0.861814
0.246250 0.776608 0.900633
0.315892 0.776883 0.900206
0.485817 0.778256 0.898131
0.671717 0.784939 0.894560
0.746059 0.754330 0.891386
0.857633 0.747921 0.880583
0.944823 0.742397 0.869871
1.000000 0.757443 0.864195
0.267094 0.808713 0.901488
0.323278 0.809140 0.901274
0.472816 0.810819 0.899962
0.658381 0.812589 0.896971
0.784787 0.806943 0.893004
0.860227 0.787869 0.884977
0.939269 0.781765 0.873686
1.000000 0.789090 0.869627
0.272770 0.844572 0.903838
0.319402 0.844297 0.903716
0.446021 0.842710 0.902831
0.622827 0.842649 0.901061
0.778775 0.842588 0.898131
0.861143 0.826932 0.892882
0.934691 0.820279 0.880095
0.992706 0.822629 0.877623
0.368383 0.883787 0.908446
0.395422 0.883146 0.908202
0.489479 0.880797 0.907378
0.618372 0.876951 0.906218
0.744472 0.872435 0.904967
0.864408 0.871427 0.903838
0.932525 0.859586 0.895506
0.987518 0.859098 0.890776
0.462745 0.921874 0.917479
0.481849 0.921324 0.917357
0.551354 0.918975 0.916869
0.652949 0.915007 0.916228
0.757992 0.910246 0.915496
0.849241 0.906004 0.915068
0.929320 0.904173 0.916167
0.983612 0.898100 0.908965
0.538903 0.960967 0.930358
0.552605 0.960418 0.930297
0.603906 0.958343 0.930144
0.683986 0.954864 0.930083
0.769924 0.950683 0.929992
0.848051 0.946929 0.930114
0.917754 0.944915 0.931640
0.982238 0.952117 0.942870
