20 Preset/Natural Wedding/【3】LUT video cho PR-AE-FCPX/Lut Tone (12).cube
# Created by Adobe Lightroom plugin Export LUT (1.24.0)
# www.johnrellis.com/lightroom/exportlut.htm
# Preset: 清新婚礼-素材江湖12
# Color profile: C:\Program Files (x86)\Common Files\Adobe\Color\Profiles\Recommended\VideoHD.icc
LUT_3D_SIZE 32
DOMAIN_MIN 0.0 0.0 0.0
DOMAIN_MAX 1.0 1.0 1.0
0.000000 0.007202 0.001373
0.000000 0.007202 0.001373
0.000000 0.007202 0.001373
0.000000 0.008179 0.001221
0.000000 0.010376 0.002045
0.000214 0.013306 0.002686
0.013672 0.015137 0.003326
0.045167 0.018311 0.002258
0.095125 0.018463 0.003174
0.130983 0.013855 0.002411
0.182986 0.000000 0.000122
0.250462 0.000000 0.000000
0.330114 0.000000 0.000000
0.417762 0.000000 0.000000
0.507683 0.000000 0.000000
0.596155 0.000000 0.000000
0.679591 0.000000 0.000000
0.755489 0.000000 0.000000
0.823148 0.000000 0.000000
0.883177 0.000000 0.000000
0.935637 0.000000 0.000000
0.979522 0.000000 0.000000
1.000000 0.000000 0.000000
1.000000 0.000000 0.000000
1.000000 0.000000 0.000000
1.000000 0.000000 0.000000
1.000000 0.000000 0.000000
1.000000 0.000000 0.097414
1.000000 0.000000 0.156863
1.000000 0.155306 0.205356
1.000000 0.252110 0.252781
1.000000 0.325536 0.301396
0.000000 0.007202 0.001373
0.000000 0.007202 0.001373
0.000000 0.008423 0.001221
0.000000 0.008179 0.001221
0.000000 0.010376 0.002045
0.000214 0.013306 0.002686
0.013245 0.016327 0.002045
0.043183 0.018555 0.002289
0.093111 0.019135 0.002075
0.127810 0.015442 0.002441
0.177584 0.000092 0.000305
0.242985 0.000000 0.000000
0.321202 0.000000 0.000000
0.407507 0.000000 0.000000
0.496773 0.000000 0.000000
0.585595 0.000000 0.000000
0.670008 0.000000 0.000000
0.746548 0.000000 0.000000
0.814908 0.000000 0.000000
0.875639 0.000000 0.000000
0.928679 0.000000 0.000000
0.973358 0.000000 0.000000
1.000000 0.000000 0.000000
1.000000 0.000000 0.000000
1.000000 0.000000 0.000000
1.000000 0.000000 0.000000
1.000000 0.000000 0.000000
1.000000 0.000000 0.071229
1.000000 0.000000 0.144381
1.000000 0.119936 0.194156
1.000000 0.233036 0.242863
1.000000 0.309850 0.290806
0.000000 0.010803 0.002045
0.000000 0.010803 0.002045
0.000000 0.010590 0.000916
0.000000 0.011810 0.000763
0.000000 0.013977 0.001587
0.000061 0.016693 0.002258
0.013123 0.019715 0.001587
0.045014 0.021698 0.001801
0.093538 0.023499 0.001465
0.127962 0.020996 0.000549
0.176852 0.005127 0.000000
0.241642 0.000000 0.000000
0.318212 0.000000 0.000000
0.403052 0.000000 0.000000
0.491768 0.000000 0.000000
0.579797 0.000000 0.000000
0.663752 0.000000 0.000000
0.740749 0.000000 0.000000
0.809934 0.000000 0.000000
0.871000 0.000000 0.000000
0.924468 0.000000 0.000000
0.969757 0.000000 0.000000
1.000000 0.000000 0.000000
1.000000 0.000000 0.000000
1.000000 0.000000 0.000000
1.000000 0.000000 0.000000
1.000000 0.000000 0.000000
1.000000 0.000000 0.038483
1.000000 0.000000 0.135286
1.000000 0.109712 0.186282
1.000000 0.226047 0.235416
1.000000 0.303593 0.284184
0.000000 0.017823 0.002289
0.000000 0.017823 0.002289
0.000000 0.017823 0.002289
0.000000 0.018799 0.001007
0.000000 0.020752 0.000671
0.002045 0.023255 0.000183
0.016785 0.026032 0.000641
0.051270 0.029999 0.000580
0.097749 0.031128 0.000183
0.132204 0.030121 0.000000
0.181277 0.016297 0.000000
0.244297 0.000000 0.000000
0.319890 0.000000 0.000000
0.403082 0.000000 0.000000
0.489662 0.000000 0.000000
0.576013 0.000000 0.000000
0.658015 0.000000 0.000000
0.733547 0.000000 0.000000
0.801999 0.000000 0.000000
0.862882 0.000000 0.000000
0.916594 0.000000 0.000000
0.962615 0.000000 0.000000
1.000000 0.000000 0.000000
1.000000 0.000000 0.000000
1.000000 0.000000 0.000000
1.000000 0.000000 0.000000
1.000000 0.000000 0.000000
1.000000 0.000000 0.000427
1.000000 0.000000 0.124941
1.000000 0.125673 0.179965
1.000000 0.230106 0.229465
1.000000 0.302922 0.277592
0.000000 0.030823 0.004028
0.000000 0.030823 0.004028
0.000000 0.030823 0.004028
0.000000 0.031800 0.002747
0.000000 0.033539 0.001282
0.001892 0.035584 0.000000
0.021454 0.040101 0.000000
0.059907 0.043610 0.000000
0.101442 0.046693 0.000000
0.136751 0.047974 0.000000
0.185733 0.035218 0.000000
0.248234 0.000000 0.000000
0.321874 0.000000 0.000000
0.403418 0.000000 0.000000
0.488502 0.000000 0.000000
0.573602 0.000000 0.000000
0.655940 0.000000 0.000000
0.731563 0.000000 0.000000
0.799893 0.000000 0.000000
0.860349 0.000000 0.000000
0.913725 0.000000 0.000000
0.959747 0.000000 0.000000
0.997650 0.000000 0.000000
1.000000 0.000000 0.000000
1.000000 0.000000 0.000000
1.000000 0.000000 0.000000
1.000000 0.000000 0.000000
1.000000 0.000000 0.000000
1.000000 0.000000 0.108736
1.000000 0.150088 0.169345
1.000000 0.237827 0.220523
1.000000 0.305943 0.269291
0.000000 0.053193 0.006836
0.000000 0.053193 0.006836
0.000000 0.054170 0.006683
0.000000 0.054932 0.004242
0.000000 0.055482 0.002930
0.000000 0.057069 0.000153
0.029786 0.062684 0.000000
0.079500 0.068238 0.000000
0.110994 0.074556 0.000000
0.149355 0.075654 0.000000
0.199832 0.065736 0.000000
0.262669 0.034974 0.000000
0.335302 0.000000 0.000000
0.415442 0.000000 0.000000
0.498665 0.000000 0.000000
0.582452 0.000000 0.000000
0.662348 0.000000 0.000000
0.736751 0.000000 0.000000
0.803403 0.000000 0.000000
0.862913 0.000000 0.000000
0.915251 0.000000 0.000000
0.960296 0.000000 0.000000
1.000000 0.000000 0.000000
1.000000 0.000000 0.000000
1.000000 0.000000 0.000000
1.000000 0.000000 0.000000
1.000000 0.000000 0.000000
1.000000 0.124636 0.084199
1.000000 0.210330 0.157626
1.000000 0.272404 0.211215
1.000000 0.326635 0.259739
1.000000 0.378576 0.308202
0.000000 0.095735 0.011322
0.000000 0.095735 0.011322
0.000000 0.096010 0.011139
0.000000 0.096529 0.009674
0.000000 0.095979 0.005097
0.001526 0.095003 0.000427
0.052796 0.095003 0.000000
0.102998 0.100191 0.000000
0.139406 0.102449 0.000000
0.185336 0.103975 0.000000
0.241367 0.102663 0.000000
0.308293 0.096559 0.000000
0.381903 0.072480 0.000000
0.461036 0.000000 0.000000
0.541161 0.000000 0.000000
0.619196 0.000000 0.000000
0.694270 0.000000 0.000000
0.762753 0.000000 0.000000
0.825284 0.000000 0.000000
0.882048 0.000000 0.000000
0.932769 0.000000 0.000000
0.976410 0.000000 0.000000
1.000000 0.000000 0.000000
1.000000 0.000000 0.000000
1.000000 0.000000 0.000000
1.000000 0.000000 0.000000
1.000000 0.081575 0.000000
1.000000 0.173556 0.000000
1.000000 0.232090 0.126772
1.000000 0.281651 0.187045
1.000000 0.329473 0.239109
1.000000 0.376471 0.288396
0.000000 0.132235 0.016663
0.000000 0.132235 0.017792
0.000000 0.132845 0.017304
0.000000 0.133852 0.017639
0.000000 0.133028 0.009735
0.000000 0.130739 0.000122
0.046845 0.127840 0.000000
0.110140 0.127535 0.000000
0.159640 0.133822 0.000000
0.208713 0.136141 0.000000
0.265873 0.136690 0.000000
0.329534 0.134798 0.000000
0.400610 0.130190 0.000000
0.474617 0.121645 0.000000
0.549676 0.108186 0.000000
0.624140 0.080018 0.000000
0.695613 0.000000 0.000000
0.761868 0.000000 0.000000
0.822782 0.000000 0.000000
0.878294 0.000000 0.000000
0.928069 0.000000 0.000000
0.971252 0.000000 0.000000
1.000000 0.000000 0.000000
1.000000 0.000000 0.000000
1.000000 0.006287 0.000000
1.000000 0.130495 0.000000
1.000000 0.180941 0.000000
1.000000 0.222416 0.000000
1.000000 0.262089 0.075441
1.000000 0.301671 0.161776
1.000000 0.341497 0.218570
1.000000 0.383429 0.270848
0.000000 0.190555 0.022766
0.000000 0.190677 0.023743
0.000000 0.191775 0.023651
0.000000 0.193515 0.023865
0.000000 0.194095 0.018128
0.000000 0.190433 0.000000
0.000000 0.185397 0.000000
0.113222 0.178317 0.000000
0.172732 0.175692 0.000000
0.236210 0.182528 0.000000
0.295689 0.184787 0.000000
0.359625 0.185367 0.000000
0.426368 0.184115 0.000000
0.495766 0.181186 0.000000
0.567529 0.179049 0.000000
0.637232 0.175601 0.000000
0.703975 0.172122 0.000000
0.766110 0.170443 0.000000
0.824430 0.162936 0.000000
0.877745 0.155154 0.000000
0.926055 0.149844 0.000000
0.967956 0.149386 0.000000
1.000000 0.162661 0.000000
1.000000 0.181033 0.000000
1.000000 0.201572 0.000000
1.000000 0.223667 0.000000
1.000000 0.246342 0.000000
1.000000 0.271550 0.000000
1.000000 0.298405 0.000000
1.000000 0.327886 0.128969
1.000000 0.360906 0.196353
1.000000 0.396582 0.252811
0.000000 0.272007 0.036133
0.000000 0.272129 0.036927
0.000000 0.272831 0.036652
0.000000 0.274937 0.039368
0.000000 0.278508 0.042542
0.000000 0.273198 0.000549
0.000000 0.265751 0.000000
0.095674 0.256474 0.000000
0.180301 0.244175 0.000000
0.250034 0.237949 0.000000
0.321935 0.243961 0.000000
0.385687 0.245792 0.000000
0.451148 0.246464 0.000000
0.517723 0.245640 0.000000
0.584039 0.243595 0.000000
0.650507 0.243565 0.000000
0.714778 0.245060 0.000000
0.774777 0.246342 0.000000
0.829801 0.248600 0.000000
0.880003 0.252232 0.000000
0.926757 0.255802 0.000000
0.971038 0.259007 0.000000
1.000000 0.263096 0.000000
1.000000 0.268528 0.000000
1.000000 0.275944 0.000000
1.000000 0.285618 0.000000
1.000000 0.297704 0.000000
1.000000 0.312627 0.000000
1.000000 0.331182 0.000000
1.000000 0.353918 0.031586
1.000000 0.380743 0.164858
1.000000 0.411810 0.230442
0.000000 0.365667 0.092561
0.000000 0.365942 0.092683
0.000000 0.367102 0.093935
0.000000 0.369970 0.096162
0.000000 0.374823 0.098695
0.000000 0.374365 0.081086
0.000000 0.366339 0.000000
0.000000 0.355749 0.000000
0.177157 0.342718 0.000000
0.261631 0.325750 0.000000
0.338933 0.315343 0.000000
0.414130 0.319493 0.000000
0.479652 0.319615 0.000000
0.544335 0.318761 0.000000
0.607294 0.317327 0.000000
0.668452 0.315007 0.000000
0.725704 0.311986 0.000000
0.782620 0.313390 0.000000
0.835416 0.315373 0.000000
0.887327 0.321324 0.000000
0.933257 0.327031 0.000000
0.971954 0.332769 0.000000
1.000000 0.336645 0.000000
1.000000 0.337102 0.000000
1.000000 0.339635 0.000000
1.000000 0.343359 0.000000
1.000000 0.349187 0.000000
1.000000 0.357824 0.000000
1.000000 0.369970 0.000000
1.000000 0.386175 0.000000
1.000000 0.406958 0.126925
1.000000 0.432624 0.206851
0.000000 0.471504 0.145602
0.000000 0.471901 0.145937
0.000000 0.473091 0.146487
0.000000 0.476081 0.149447
0.000000 0.480751 0.153628
0.000000 0.486702 0.157839
0.000000 0.478920 0.115663
0.000000 0.468025 0.000000
0.148836 0.455299 0.000000
0.269780 0.438209 0.000000
0.353460 0.417395 0.000000
0.433875 0.403113 0.000000
0.546227 0.433845 0.000000
0.610376 0.429480 0.000000
0.668818 0.423377 0.000000
0.723812 0.416602 0.000000
0.780087 0.413947 0.000000
0.833616 0.412238 0.000000
0.883299 0.412146 0.000000
0.928130 0.414527 0.000000
0.965911 0.415534 0.000000
0.997681 0.416388 0.000000
1.000000 0.417090 0.000000
1.000000 0.418463 0.000000
1.000000 0.417823 0.000000
1.000000 0.416754 0.000000
1.000000 0.417395 0.000000
1.000000 0.420630 0.000000
1.000000 0.427100 0.000000
1.000000 0.437476 0.000000
1.000000 0.452399 0.118685
1.000000 0.472175 0.206088
0.000000 0.594385 0.225132
0.000000 0.594079 0.225010
0.000000 0.594293 0.225681
0.000000 0.595636 0.227573
0.000000 0.597589 0.230320
0.000000 0.600671 0.234928
0.000000 0.597498 0.218143
0.000000 0.587030 0.174319
0.148226 0.574823 0.107546
0.287633 0.560113 0.000000
0.384100 0.542840 0.000000
0.466407 0.521263 0.000000
0.550347 0.508232 0.000000
0.628046 0.507500 0.000000
0.693721 0.505730 0.000000
0.750729 0.500450 0.000000
0.802274 0.494118 0.000000
0.848692 0.486793 0.000000
0.890898 0.479438 0.000000
0.927642 0.471901 0.000000
0.961791 0.468452 0.000000
0.991730 0.465736 0.000000
1.000000 0.463752 0.000000
1.000000 0.461952 0.000000
1.000000 0.460761 0.000000
1.000000 0.459480 0.000000
1.000000 0.457252 0.000000
1.000000 0.457252 0.000000
1.000000 0.460151 0.000000
1.000000 0.466773 0.000000
1.000000 0.477516 0.000000
1.000000 0.493202 0.167788
0.000000 0.668269 0.290806
0.000000 0.668025 0.290654
0.000000 0.668238 0.291234
0.000000 0.668696 0.292638
0.000000 0.669917 0.295415
0.000000 0.671931 0.299840
0.000000 0.674495 0.300969
0.000000 0.667445 0.267765
0.204105 0.659541 0.226230
0.315892 0.650141 0.167330
0.407996 0.638666 0.000000
0.492897 0.624781 0.000000
0.571496 0.606836 0.000000
0.650233 0.592370 0.000000
0.714412 0.582300 0.000000
0.769100 0.574731 0.000000
0.815732 0.564569 0.000000
0.857603 0.554131 0.000000
0.895567 0.543359 0.000000
0.928740 0.532738 0.000000
0.958404 0.521874 0.000000
0.985718 0.513512 0.000000
1.000000 0.509148 0.000000
1.000000 0.505608 0.000000
1.000000 0.502434 0.000000
1.000000 0.499672 0.000000
1.000000 0.497108 0.000000
1.000000 0.494697 0.000000
1.000000 0.494667 0.000000
1.000000 0.497963 0.000000
1.000000 0.505089 0.000000
1.000000 0.517174 0.115267
0.000000 0.739193 0.374792
0.000000 0.739101 0.375128
0.000000 0.739223 0.375341
0.000000 0.739284 0.376379
0.000000 0.739773 0.378820
0.000000 0.741207 0.383032
0.197055 0.743740 0.389807
0.263096 0.740597 0.371527
0.318669 0.733730 0.336553
0.382361 0.725704 0.293004
0.450385 0.716335 0.239719
0.521263 0.704768 0.162387
0.591516 0.690394 0.000000
0.659144 0.671595 0.000000
0.727535 0.654231 0.000000
0.779629 0.638636 0.000000
0.825467 0.627802 0.000000
0.863890 0.615106 0.000000
0.898039 0.602045 0.000000
0.928679 0.589014 0.000000
0.956298 0.576715 0.000000
0.981628 0.565057 0.000000
1.000000 0.554253 0.000000
1.000000 0.547509 0.000000
1.000000 0.542687 0.000000
1.000000 0.538323 0.000000
1.000000 0.534569 0.000000
1.000000 0.531762 0.000000
1.000000 0.529747 0.000000
1.000000 0.530999 0.000000
1.000000 0.536004 0.000000
1.000000 0.545556 0.000000
0.201785 0.787930 0.456580
0.207980 0.788083 0.457282
0.221683 0.788113 0.458045
0.246342 0.788540 0.459632
0.281895 0.789059 0.463020
0.323583 0.790097 0.467781
0.371557 0.791867 0.475654
0.415106 0.792844 0.477150
0.438880 0.788449 0.446967
0.471321 0.782925 0.410681
0.512352 0.775509 0.366125
0.561364 0.766049 0.311437
0.615381 0.753780 0.241642
0.672175 0.738064 0.124514
0.727413 0.718441 0.000000
0.784939 0.699214 0.000000
0.827451 0.680537 0.000000
0.865537 0.667689 0.000000
0.897398 0.653651 0.000000
0.926268 0.639826 0.000000
0.952728 0.626795 0.000000
0.977081 0.614618 0.000000
0.999573 0.603021 0.000000
1.000000 0.592309 0.000000
1.000000 0.582483 0.000000
1.000000 0.577111 0.000000
1.000000 0.572381 0.000000
1.000000 0.568231 0.000000
1.000000 0.565057 0.000000
1.000000 0.563684 0.000000
1.000000 0.565728 0.000000
1.000000 0.571801 0.000000
0.388464 0.818631 0.531456
0.390173 0.818601 0.531792
0.395209 0.818631 0.532403
0.407111 0.818814 0.534295
0.425208 0.819242 0.537316
0.448859 0.819883 0.541985
0.478828 0.820798 0.548943
0.513756 0.822141 0.558099
0.529473 0.819944 0.539574
0.545769 0.816098 0.508843
0.569543 0.810941 0.470741
0.601251 0.804471 0.426123
0.639643 0.795987 0.371588
0.683864 0.784817 0.303288
0.732052 0.770504 0.210727
0.780972 0.752773 0.000000
0.830686 0.734310 0.000000
0.865476 0.714565 0.000000
0.897124 0.701228 0.000000
0.924285 0.686763 0.000000
0.949371 0.673274 0.000000
0.972625 0.660578 0.000000
0.994079 0.648798 0.000000
1.000000 0.637354 0.000000
1.000000 0.626520 0.000000
1.000000 0.616175 0.000000
1.000000 0.608545 0.000000
1.000000 0.603632 0.000000
1.000000 0.599603 0.000000
1.000000 0.596277 0.000000
1.000000 0.596002 0.000000
1.000000 0.599695 0.000000
0.509209 0.840299 0.602869
0.510582 0.840421 0.603418
0.570489 0.849516 0.642542
0.576776 0.849607 0.644099
0.586328 0.849638 0.646632
0.599756 0.849821 0.650233
0.616785 0.849973 0.655329
0.637476 0.850340 0.662196
0.653285 0.850126 0.660670
0.657435 0.847837 0.636439
0.665980 0.844755 0.606744
0.680232 0.840696 0.570428
0.700282 0.835111 0.524834
0.727016 0.827573 0.468544
0.759854 0.817777 0.400336
0.797665 0.805386 0.317113
0.838376 0.789761 0.199863
0.879118 0.772305 0.000000
0.905486 0.751553 0.000000
0.930449 0.737392 0.000000
0.952575 0.722744 0.000000
0.973327 0.709377 0.000000
0.992798 0.696559 0.000000
1.000000 0.684169 0.000000
1.000000 0.672114 0.000000
1.000000 0.660487 0.000000
1.000000 0.649256 0.000000
1.000000 0.638880 0.000000
1.000000 0.633143 0.000000
1.000000 0.628840 0.000000
1.000000 0.625605 0.000000
1.000000 0.626734 0.000000
0.613519 0.857053 0.675074
0.618433 0.857664 0.678340
0.625574 0.858335 0.682551
0.634119 0.858946 0.686763
0.644312 0.859342 0.691249
0.655390 0.859586 0.695247
0.668360 0.859739 0.699672
0.683528 0.859922 0.704829
0.701106 0.860258 0.711513
0.703365 0.858915 0.695430
0.705928 0.856840 0.671504
0.712551 0.854093 0.642481
0.723873 0.850217 0.606073
0.741024 0.845151 0.561303
0.764279 0.838407 0.507195
0.793362 0.829740 0.440650
0.827543 0.818875 0.360632
0.864836 0.805600 0.258518
0.901823 0.790188 0.102815
0.925231 0.771176 0.000000
0.947387 0.758389 0.000000
0.967620 0.745418 0.000000
0.986236 0.732967 0.000000
1.000000 0.720943 0.000000
1.000000 0.709010 0.000000
1.000000 0.697353 0.000000
1.000000 0.686213 0.000000
1.000000 0.675624 0.000000
1.000000 0.665858 0.000000
1.000000 0.658381 0.000000
1.000000 0.654505 0.000000
1.000000 0.651942 0.000000
0.673274 0.866087 0.719387
0.677180 0.866575 0.722347
0.683009 0.867185 0.725917
0.689631 0.867643 0.729641
0.697414 0.868132 0.733333
0.705684 0.868315 0.736568
0.715084 0.868437 0.739956
0.726070 0.868589 0.743862
0.738979 0.868833 0.748836
0.746456 0.868437 0.745510
0.746609 0.866941 0.728511
0.748836 0.865019 0.706477
0.753689 0.862394 0.678431
0.762905 0.859007 0.643427
0.777493 0.854429 0.600427
0.797726 0.848539 0.548119
0.823758 0.840970 0.484504
0.854520 0.831632 0.407385
0.888670 0.820340 0.314855
0.922057 0.806607 0.205570
0.942657 0.789029 0.115389
0.961944 0.777310 0.022827
0.980133 0.765469 0.000000
0.996857 0.753933 0.000000
1.000000 0.742519 0.000000
1.000000 0.731319 0.000000
1.000000 0.720363 0.000000
1.000000 0.709987 0.000000
1.000000 0.700221 0.000000
1.000000 0.691341 0.000000
1.000000 0.683192 0.000000
1.000000 0.678614 0.000000
0.722194 0.874022 0.757229
0.725216 0.874449 0.759396
0.729030 0.874907 0.761898
0.734035 0.875303 0.764767
0.739651 0.875639 0.767483
0.745754 0.875853 0.769924
0.752804 0.876036 0.772549
0.761074 0.876188 0.775540
0.770657 0.876463 0.779324
0.781430 0.876768 0.783749
0.780789 0.875639 0.771511
0.781338 0.874113 0.756435
0.783139 0.872251 0.736355
0.787533 0.869780 0.710811
0.795438 0.866667 0.678248
0.808042 0.862730 0.638087
0.826230 0.857725 0.589624
0.850126 0.851469 0.530907
0.878691 0.843900 0.461646
0.910796 0.834897 0.377264
0.941466 0.823453 0.289952
0.960143 0.808011 0.234318
0.977050 0.797665 0.215427
0.993256 0.787472 0.196536
1.000000 0.777340 0.176364
1.000000 0.767300 0.156191
1.000000 0.757443 0.125185
1.000000 0.747890 0.065919
1.000000 0.738857 0.000000
1.000000 0.730373 0.000000
1.000000 0.722469 0.000000
1.000000 0.715145 0.000000
0.774838 0.883665 0.798367
0.775967 0.883818 0.799130
0.777462 0.883970 0.799924
0.779416 0.884062 0.800809
0.782284 0.884184 0.801846
0.785855 0.884215 0.803037
0.790524 0.884337 0.804623
0.796201 0.884459 0.806638
0.803128 0.884733 0.809262
0.811246 0.885130 0.812528
0.814786 0.884825 0.809659
0.814328 0.883665 0.799405
0.814633 0.882170 0.785977
0.816342 0.880339 0.769100
0.820157 0.878050 0.747189
0.826810 0.875212 0.719265
0.837278 0.871702 0.683223
0.852628 0.867308 0.637781
0.873320 0.861875 0.582971
0.898802 0.855253 0.516838
0.928130 0.847257 0.436194
0.955657 0.836698 0.355322
0.972229 0.822049 0.302586
0.986816 0.812100 0.284733
1.000000 0.802487 0.266697
1.000000 0.793149 0.248081
1.000000 0.784176 0.233005
1.000000 0.775479 0.214755
1.000000 0.767056 0.193729
1.000000 0.759030 0.166903
1.000000 0.751553 0.135042
1.000000 0.744411 0.081147
0.804013 0.890257 0.820981
0.804685 0.890410 0.821439
0.805814 0.890501 0.822080
0.807523 0.890654 0.822782
0.809659 0.890745 0.823606
0.812406 0.890837 0.824552
0.815976 0.890959 0.825742
0.820340 0.891142 0.827298
0.825711 0.891447 0.829313
0.831998 0.891844 0.831785
0.838224 0.892241 0.833768
0.837400 0.891264 0.826474
0.837034 0.890074 0.817288
0.837613 0.888640 0.805875
0.839322 0.886900 0.791104
0.843015 0.884764 0.772396
0.849271 0.882170 0.748562
0.858762 0.879057 0.717586
0.872435 0.875273 0.677668
0.890959 0.870603 0.627253
0.914183 0.864927 0.566400
0.941344 0.858091 0.492134
0.966918 0.848478 0.415991
0.982330 0.835050 0.366339
0.994141 0.823697 0.335515
1.000000 0.814878 0.317632
1.000000 0.806455 0.300084
1.000000 0.798550 0.287755
1.000000 0.790829 0.272343
1.000000 0.783474 0.255283
1.000000 0.776608 0.237064
1.000000 0.770077 0.215915
0.832792 0.898009 0.842893
0.833677 0.898222 0.843473
0.834470 0.898375 0.843900
0.835325 0.898375 0.844144
0.836454 0.898344 0.844358
0.837858 0.898283 0.844572
0.839841 0.898253 0.844907
0.842466 0.898253 0.845518
0.845853 0.898375 0.846494
0.850065 0.898558 0.847837
0.854826 0.898863 0.849424
0.856046 0.898344 0.846403
0.855131 0.897215 0.839475
0.854612 0.895811 0.830900
0.854673 0.894194 0.819883
0.855955 0.892302 0.806210
0.859068 0.890105 0.788815
0.864744 0.887572 0.766964
0.873625 0.884642 0.739284
0.886351 0.881224 0.703639
0.903502 0.877165 0.657771
0.925139 0.872129 0.600855
0.950683 0.865965 0.529747
0.974426 0.857023 0.457313
0.989014 0.844083 0.405249
1.000000 0.835264 0.387457
1.000000 0.827054 0.369299
1.000000 0.819303 0.351568
1.000000 0.812039 0.337743
1.000000 0.805173 0.323308
1.000000 0.798734 0.308110
1.000000 0.792691 0.291661
0.849027 0.903624 0.855161
0.849729 0.903807 0.855650
0.850462 0.903960 0.856046
0.851316 0.904051 0.856382
0.852445 0.904143 0.856718
0.853971 0.904234 0.857206
0.856016 0.904356 0.857816
0.858610 0.904570 0.858701
0.861814 0.904845 0.859800
0.865537 0.905211 0.861204
0.869657 0.905638 0.862669
0.873228 0.905913 0.863249
0.872526 0.904936 0.858366
0.872007 0.903746 0.852262
0.871763 0.902342 0.844724
0.872160 0.900725 0.835355
0.873533 0.898894 0.823575
0.876524 0.896849 0.808927
0.881712 0.894499 0.790616
0.889708 0.891875 0.767391
0.901030 0.888762 0.736995
0.916258 0.885100 0.697230
0.935790 0.880644 0.644831
0.959442 0.875242 0.579339
0.981689 0.867094 0.512108
0.995819 0.855161 0.462135
1.000000 0.847227 0.445228
1.000000 0.839933 0.428840
1.000000 0.833280 0.413245
1.000000 0.827085 0.399908
1.000000 0.821256 0.387274
1.000000 0.815793 0.373724
0.865873 0.910338 0.867918
0.866178 0.910430 0.868132
0.866636 0.910521 0.868345
0.867216 0.910552 0.868528
0.868070 0.910613 0.868742
0.869230 0.910704 0.869078
0.870756 0.910796 0.869535
0.872740 0.910979 0.870146
0.875242 0.911223 0.870939
0.878172 0.911559 0.872007
0.881468 0.911955 0.873167
0.885191 0.912444 0.874540
0.885832 0.911955 0.872099
0.885344 0.910948 0.867491
0.885008 0.909697 0.861845
0.885039 0.908293 0.855009
0.885771 0.906737 0.846799
0.887419 0.904967 0.836606
0.890501 0.903044 0.824338
0.895415 0.900938 0.808774
0.902678 0.898497 0.788876
0.912810 0.895659 0.762844
0.926390 0.892271 0.728328
0.944091 0.888182 0.681392
0.966186 0.883268 0.619562
0.987121 0.875639 0.556176
1.000000 0.864439 0.506188
1.000000 0.857053 0.489754
1.000000 0.850309 0.473671
1.000000 0.844633 0.459693
1.000000 0.839261 0.447150
1.000000 0.834379 0.435950
0.878691 0.916472 0.877775
0.878935 0.916564 0.877928
0.879301 0.916655 0.878111
0.879881 0.916716 0.878325
0.880766 0.916869 0.878660
0.882017 0.917082 0.879179
0.883818 0.917449 0.879973
0.886107 0.917906 0.880980
0.888823 0.918486 0.882231
0.891905 0.919188 0.883665
0.895354 0.919921 0.885222
0.898955 0.920745 0.886870
0.901671 0.921202 0.887297
0.901732 0.920623 0.884337
0.901884 0.919768 0.880644
0.902068 0.918669 0.876036
0.902525 0.917418 0.870451
0.903593 0.915953 0.863859
0.905516 0.914397 0.856046
0.908476 0.912688 0.846586
0.912810 0.910765 0.834867
0.918914 0.908537 0.819852
0.927153 0.905943 0.799954
0.938354 0.902892 0.773190
0.953185 0.899260 0.736324
0.972503 0.894957 0.685237
0.991882 0.888090 0.628595
1.000000 0.877989 0.582208
1.000000 0.871366 0.566369
1.000000 0.865446 0.551934
1.000000 0.860716 0.539544
1.000000 0.856352 0.528313
0.894957 0.925017 0.890471
0.894987 0.925017 0.890501
0.895140 0.925017 0.890501
0.895445 0.925048 0.890593
0.895933 0.925109 0.890715
0.896727 0.925200 0.890959
0.897826 0.925322 0.891325
0.899199 0.925566 0.891814
0.900938 0.925841 0.892454
0.902983 0.926238 0.893248
0.905272 0.926696 0.894133
0.907927 0.927184 0.895171
0.910704 0.927733 0.896269
0.911040 0.927276 0.894194
