20 Preset/Natural Wedding/【3】LUT video cho PR-AE-FCPX/Lut Tone (12).cube
# Created by Adobe Lightroom plugin Export LUT (1.24.0)
# www.johnrellis.com/lightroom/exportlut.htm
# Preset: 清新婚礼-素材江湖12
# Color profile: C:\Program Files (x86)\Common Files\Adobe\Color\Profiles\Recommended\VideoHD.icc
LUT_3D_SIZE 5
DOMAIN_MIN 0.000000 0.000000 0.000000
DOMAIN_MAX 0.903226 0.903226 0.903226
0.000000 0.007202 0.001373
0.045167 0.018311 0.002258
0.507683 0.000000 0.000000
0.979522 0.000000 0.000000
1.000000 0.000000 0.156863
0.000000 0.132235 0.016663
0.110140 0.127535 0.000000
0.549676 0.108186 0.000000
0.971252 0.000000 0.000000
1.000000 0.262089 0.075441
0.000000 0.739193 0.374792
0.263096 0.740597 0.371527
0.727535 0.654231 0.000000
0.981628 0.565057 0.000000
1.000000 0.529747 0.000000
0.774838 0.883665 0.798367
0.796201 0.884459 0.806638
0.820157 0.878050 0.747189
0.955657 0.836698 0.355322
1.000000 0.767056 0.193729
0.904509 0.931090 0.898283
0.908354 0.931762 0.899657
0.914977 0.930541 0.896452
0.924987 0.923613 0.861845
0.998505 0.902922 0.688472
0.000000 0.043549 0.127962
0.080018 0.041871 0.117281
0.526329 0.000000 0.138216
0.959747 0.000000 0.082368
1.000000 0.158236 0.000000
0.000000 0.160342 0.191775
0.117617 0.169558 0.195926
0.578729 0.148226 0.171450
0.964813 0.156588 0.059541
1.000000 0.297795 0.000000
0.130678 0.699153 0.473457
0.351415 0.716884 0.486549
0.697414 0.643610 0.220157
0.958404 0.563806 0.050080
1.000000 0.554009 0.046052
0.779629 0.878233 0.809018
0.801602 0.879667 0.817746
0.833677 0.876616 0.794308
0.943145 0.837766 0.493019
1.000000 0.775998 0.370031
0.905547 0.930053 0.900359
0.909300 0.930663 0.901640
0.923033 0.933379 0.906188
0.929137 0.925719 0.875151
0.991577 0.905913 0.742428
0.000000 0.163546 0.545953
0.000000 0.163577 0.554376
0.569787 0.146487 0.546410
0.921813 0.347662 0.543511
1.000000 0.578668 0.622461
0.000000 0.306706 0.576257
0.000000 0.303868 0.588739
0.605982 0.339483 0.584100
0.913603 0.479377 0.584497
1.000000 0.628412 0.648127
0.000000 0.669001 0.664912
0.189395 0.671962 0.666743
0.666682 0.685695 0.680385
0.893004 0.697078 0.673762
1.000000 0.704219 0.653620
0.742641 0.858457 0.818845
0.769589 0.857725 0.824033
0.849851 0.867918 0.850828
0.903899 0.842802 0.752621
0.994354 0.806058 0.683223
0.903960 0.922972 0.904143
0.907195 0.924559 0.905150
0.923278 0.929595 0.911650
0.934447 0.927337 0.900481
0.975189 0.906676 0.820554
0.000000 0.396155 0.822385
0.000000 0.410742 0.827543
0.551141 0.454231 0.823453
0.863920 0.529870 0.817777
0.967102 0.692531 0.803433
0.000000 0.480690 0.821805
0.000000 0.488930 0.824582
0.562982 0.524559 0.823636
0.856596 0.584283 0.817868
0.958556 0.718563 0.810300
0.000000 0.673213 0.826658
0.250431 0.674403 0.825650
0.607568 0.695583 0.831296
0.846921 0.730739 0.829679
0.945403 0.790066 0.839780
0.625910 0.840177 0.855528
0.654627 0.839139 0.855070
0.755947 0.838956 0.857115
0.873503 0.844022 0.864164
0.949950 0.847013 0.862394
0.861814 0.910582 0.899077
0.869871 0.911406 0.900816
0.900786 0.916197 0.909148
0.942321 0.929931 0.926268
0.962707 0.910887 0.884062
0.469123 0.668421 0.914061
0.526848 0.675929 0.913176
0.680507 0.698268 0.910124
0.834745 0.724392 0.904845
0.941650 0.760250 0.900999
0.474006 0.685145 0.911772
0.530663 0.691890 0.911101
0.686122 0.715297 0.908324
0.833921 0.737209 0.903532
0.939025 0.769955 0.900389
0.473762 0.742031 0.908080
0.526238 0.744686 0.907439
0.693172 0.763485 0.905760
0.836179 0.782162 0.902647
0.934661 0.806516 0.902037
0.672236 0.838529 0.910277
0.682979 0.837247 0.909697
0.731228 0.833433 0.908263
0.841672 0.837552 0.908324
0.938231 0.856138 0.911040
0.823209 0.904051 0.922026
0.828305 0.903899 0.921965
0.851652 0.904265 0.922515
0.892088 0.905241 0.923522
0.950439 0.912566 0.929107
