20 Preset/Natural Wedding/【3】LUT video cho PR-AE-FCPX/Lut Tone (1).cube
# Created by Adobe Lightroom plugin Export LUT (1.24.0)
# www.johnrellis.com/lightroom/exportlut.htm
# Preset: 清新婚礼-素材江湖01
# Color profile: C:\Program Files (x86)\Common Files\Adobe\Color\Profiles\Recommended\VideoHD.icc
LUT_3D_SIZE 8
DOMAIN_MIN 0.000000 0.000000 0.000000
DOMAIN_MAX 0.903226 0.903226 0.903226
0.000000 0.000000 0.000000
0.011475 0.002045 0.000641
0.102907 0.005859 0.000000
0.330571 0.000000 0.000000
0.618555 0.000000 0.000000
0.822110 0.000000 0.000000
0.943023 0.000000 0.000000
1.000000 0.000000 0.000000
0.001038 0.017670 0.003235
0.009277 0.016785 0.002045
0.097658 0.035706 0.000000
0.309972 0.000000 0.000000
0.594171 0.000000 0.000000
0.802274 0.000000 0.000000
0.933196 0.000000 0.000000
1.000000 0.000000 0.000000
0.000000 0.146609 0.019654
0.000000 0.145571 0.021698
0.133669 0.125185 0.000000
0.359777 0.156130 0.000000
0.605341 0.143557 0.000000
0.799496 0.114168 0.000000
0.937438 0.158267 0.000000
1.000000 0.235752 0.000000
0.132021 0.461555 0.217136
0.195956 0.461860 0.226719
0.297581 0.435462 0.175845
0.438025 0.375158 0.000000
0.657313 0.415747 0.000000
0.814817 0.429969 0.000000
0.917662 0.433021 0.000000
0.975921 0.438941 0.000000
0.464149 0.697139 0.507408
0.480537 0.698024 0.513787
0.531304 0.699092 0.525231
0.573297 0.668238 0.436255
0.659113 0.605432 0.274174
0.783993 0.604883 0.219760
0.874388 0.596124 0.183932
0.937499 0.585504 0.176211
0.658717 0.778958 0.701534
0.669856 0.781277 0.710262
0.689845 0.782650 0.721950
0.695613 0.776822 0.699306
0.708431 0.759670 0.623316
0.767056 0.726101 0.491798
0.835721 0.714900 0.468818
0.890806 0.705318 0.456519
0.750149 0.815763 0.790799
0.752682 0.816281 0.792416
0.759731 0.816983 0.795926
0.767819 0.816709 0.796841
0.766171 0.809506 0.775570
0.774014 0.798734 0.735103
0.808377 0.780819 0.655573
0.850126 0.772671 0.635065
0.798978 0.848722 0.834806
0.799985 0.848936 0.835172
0.804562 0.849943 0.837156
0.813596 0.852140 0.841154
0.810605 0.844816 0.830808
0.813352 0.838590 0.817960
0.821042 0.829923 0.796231
0.840452 0.817838 0.757412
0.000946 0.008484 0.011231
0.012055 0.009552 0.008637
0.107393 0.006226 0.006348
0.314549 0.000000 0.000000
0.588739 0.000000 0.000000
0.794430 0.000000 0.000000
0.927703 0.000000 0.000000
1.000000 0.000000 0.000000
0.000000 0.028779 0.013031
0.013611 0.031586 0.013489
0.113222 0.042939 0.010010
0.322026 0.000000 0.000000
0.587518 0.000000 0.000000
0.788388 0.000000 0.000000
0.922118 0.000000 0.000000
0.997345 0.000000 0.000000
0.000000 0.158175 0.063478
0.030274 0.160922 0.067018
0.155123 0.142672 0.026703
0.371344 0.162844 0.000000
0.603388 0.144503 0.000000
0.788144 0.140932 0.000000
0.917998 0.179904 0.000000
0.990356 0.226535 0.000000
0.156710 0.441901 0.232761
0.209140 0.444831 0.242832
0.310369 0.433936 0.226078
0.430335 0.371679 0.062623
0.630793 0.398657 0.000000
0.787503 0.410590 0.000000
0.898955 0.418097 0.000000
0.967010 0.422675 0.000000
0.461280 0.688716 0.509148
0.475990 0.688838 0.513634
0.532403 0.692744 0.535943
0.563684 0.657191 0.444709
0.641871 0.591028 0.289036
0.769436 0.593927 0.240665
0.864958 0.589563 0.209354
0.931090 0.581476 0.201968
0.649561 0.774350 0.694118
0.655787 0.774838 0.697688
0.678309 0.776761 0.711025
0.689601 0.772427 0.695460
0.702937 0.755367 0.622858
0.761563 0.722805 0.499672
0.831083 0.712612 0.476417
0.886992 0.702998 0.461524
0.744930 0.812833 0.786435
0.746090 0.812680 0.786740
0.753414 0.813352 0.790402
0.764004 0.813993 0.793912
0.763485 0.807553 0.773922
0.770962 0.796658 0.733242
0.804807 0.777615 0.650477
0.847440 0.768856 0.627649
0.795987 0.846311 0.832609
0.797543 0.846891 0.833494
0.802060 0.847837 0.835416
0.811215 0.850156 0.839567
0.813748 0.846891 0.834043
0.814755 0.839445 0.820218
0.820768 0.829831 0.797574
0.839597 0.817563 0.758877
0.000000 0.049683 0.121096
0.003418 0.041138 0.121431
0.139681 0.036500 0.111177
0.357153 0.000000 0.114290
0.651728 0.000000 0.100008
0.822690 0.000000 0.068757
0.936400 0.000000 0.000000
0.999207 0.145022 0.000000
0.000000 0.093080 0.134493
0.000000 0.088991 0.137026
0.161624 0.083101 0.126802
0.380926 0.000000 0.125216
0.648615 0.000000 0.115328
0.815702 0.000000 0.090089
0.929900 0.005859 0.000000
0.994018 0.186404 0.000000
0.000000 0.204013 0.183200
0.000000 0.207370 0.185275
0.230961 0.216831 0.190646
0.447303 0.223453 0.182925
0.652583 0.229465 0.165072
0.815671 0.263645 0.145754
0.919707 0.306371 0.119570
0.982086 0.333410 0.033326
0.194064 0.454292 0.324224
0.255344 0.460182 0.336522
0.386572 0.483925 0.375494
0.478981 0.440162 0.298222
0.655848 0.462898 0.270970
0.798215 0.476204 0.255192
0.894011 0.485054 0.246128
0.955718 0.486641 0.230625
0.487922 0.679835 0.551995
0.497322 0.682643 0.554040
0.552209 0.692592 0.579095
0.599634 0.682094 0.557733
0.656245 0.623194 0.431006
0.768460 0.623926 0.398383
0.854307 0.619135 0.377844
0.916533 0.615198 0.376471
0.653071 0.770504 0.704280
0.659754 0.771359 0.708217
0.681880 0.773678 0.720729
0.706264 0.774777 0.729000
0.710536 0.758724 0.673884
0.755337 0.728695 0.569390
0.820554 0.722560 0.552300
0.874571 0.717128 0.542596
0.747585 0.812314 0.791196
0.748928 0.812284 0.791623
0.755825 0.812833 0.794827
0.769589 0.814969 0.802365
0.769741 0.809354 0.787778
0.774289 0.798917 0.755001
0.801236 0.781704 0.689937
0.841306 0.776455 0.674159
0.796353 0.846036 0.834287
0.797208 0.846036 0.834531
0.801755 0.847044 0.836484
0.811917 0.850065 0.841337
0.817655 0.848844 0.839567
0.818326 0.841672 0.827024
0.823056 0.831907 0.806363
0.839231 0.819486 0.771389
0.000000 0.116609 0.347570
0.000000 0.115877 0.356146
0.174838 0.117769 0.351781
0.406195 0.102358 0.344457
0.595666 0.157931 0.337621
0.809171 0.126345 0.345220
0.921538 0.270024 0.363348
0.969421 0.371740 0.371405
0.000000 0.159915 0.367864
0.000000 0.160098 0.372198
0.203677 0.163668 0.371130
0.424964 0.163668 0.362493
0.605890 0.215122 0.355474
0.812161 0.202701 0.359777
0.916106 0.320073 0.382208
0.965148 0.393256 0.379889
0.000000 0.281468 0.400275
0.000000 0.284581 0.401953
0.243839 0.294530 0.411292
0.459510 0.310948 0.404395
0.647150 0.353368 0.415503
0.821164 0.380377 0.422461
0.899290 0.456092 0.442542
0.949950 0.482795 0.430304
0.000000 0.487526 0.472175
0.133913 0.488014 0.472023
0.330694 0.494972 0.476448
0.512596 0.511101 0.489174
0.667292 0.526574 0.487404
0.786923 0.544518 0.486397
0.867277 0.560906 0.485664
0.923491 0.569696 0.476814
0.422431 0.670192 0.579797
0.445106 0.670954 0.583520
0.527245 0.677546 0.604639
0.631861 0.698939 0.652857
0.667933 0.662165 0.582422
0.760189 0.663935 0.564752
0.833799 0.664485 0.559319
0.889067 0.663691 0.554376
0.652186 0.765042 0.719814
0.663478 0.767117 0.726284
0.686793 0.768765 0.736172
0.718563 0.776181 0.754147
0.731014 0.770321 0.740871
0.750393 0.742885 0.667781
0.805447 0.740749 0.654749
0.855253 0.738674 0.645777
0.747860 0.808774 0.795590
0.749630 0.809354 0.796475
0.756069 0.811368 0.799496
0.771725 0.814664 0.808164
0.783169 0.815122 0.810269
0.782010 0.804288 0.785031
0.797269 0.787167 0.735744
0.833860 0.785031 0.724453
0.796811 0.846128 0.837522
0.797574 0.846403 0.837797
0.802548 0.847562 0.839902
0.812436 0.850217 0.844236
0.826230 0.853788 0.850156
0.824674 0.845914 0.838041
0.826993 0.835538 0.819547
0.839475 0.822812 0.789639
0.000000 0.224369 0.551995
0.000000 0.229435 0.557122
0.174197 0.243687 0.559716
0.437171 0.265568 0.559411
0.620569 0.303410 0.561700
0.741115 0.384497 0.548730
0.858579 0.446265 0.559167
0.923796 0.499641 0.566308
0.000000 0.265202 0.561181
0.000000 0.269780 0.566094
0.212711 0.283085 0.570581
0.449470 0.302892 0.569146
0.624353 0.336675 0.568902
0.741512 0.411688 0.557275
0.856382 0.465309 0.566766
0.920500 0.513939 0.573175
0.000000 0.376837 0.581079
0.000000 0.380011 0.583825
0.270756 0.391608 0.592676
0.474342 0.409430 0.591730
0.628748 0.435035 0.586999
0.736019 0.490944 0.579767
0.847196 0.523674 0.589166
0.908568 0.557733 0.593652
0.122194 0.518944 0.612787
0.190341 0.520409 0.613123
0.335393 0.528252 0.616297
0.500023 0.546746 0.628046
0.643366 0.568719 0.628504
0.744991 0.600122 0.633021
0.834684 0.615229 0.636439
0.882536 0.641077 0.644556
0.357000 0.661341 0.657771
0.378729 0.662348 0.658747
0.452155 0.665278 0.661585
0.557244 0.671534 0.667689
0.663416 0.680842 0.676875
0.744930 0.687587 0.676570
0.809171 0.694606 0.676844
0.860166 0.698878 0.673304
0.552911 0.747097 0.700679
0.564904 0.747585 0.703151
0.605310 0.748592 0.711269
0.667842 0.753231 0.729885
0.727626 0.765682 0.759518
0.741939 0.748684 0.724849
0.792355 0.751797 0.720241
0.839017 0.753445 0.717678
0.720150 0.801663 0.787289
0.722591 0.801602 0.787839
0.734035 0.802213 0.791684
0.757473 0.805203 0.802121
0.780941 0.812619 0.815061
0.787106 0.808072 0.806882
0.792294 0.789975 0.767300
0.826932 0.789364 0.757839
0.786038 0.838743 0.834562
0.787625 0.838956 0.835172
0.794858 0.840116 0.838071
0.804532 0.845029 0.842435
0.820615 0.850401 0.849668
0.831693 0.850736 0.850431
0.830014 0.838895 0.832609
0.837278 0.824094 0.804196
0.000000 0.375219 0.708309
0.000000 0.381476 0.710964
0.276585 0.396918 0.712337
0.460517 0.417548 0.711055
0.615564 0.445777 0.706722
0.736782 0.483619 0.706020
0.803342 0.551415 0.689601
0.853880 0.628016 0.704952
0.000000 0.389593 0.700954
0.000000 0.392737 0.701869
0.280735 0.408392 0.705531
0.456489 0.425360 0.703975
0.610590 0.453468 0.701411
0.731960 0.491157 0.702419
0.799496 0.556939 0.688014
0.852201 0.629175 0.703822
0.112978 0.471839 0.711177
0.184665 0.473610 0.711666
0.333257 0.484565 0.715389
0.481117 0.498573 0.713893
0.618982 0.519768 0.710964
0.730465 0.551141 0.711910
0.792355 0.606744 0.702815
0.845518 0.658259 0.718013
0.270451 0.570611 0.721553
0.294072 0.570855 0.720790
0.377905 0.575952 0.720790
0.518853 0.598627 0.731228
0.640497 0.620203 0.733028
0.731930 0.642573 0.733272
0.783871 0.680232 0.732418
0.838682 0.701503 0.742397
0.402808 0.665705 0.734371
0.416693 0.666255 0.734310
0.469093 0.669245 0.734859
0.550774 0.675990 0.736995
0.649714 0.690455 0.743130
0.729061 0.705653 0.745724
0.781582 0.723995 0.751339
0.837369 0.729976 0.754971
0.540307 0.745632 0.754971
0.551263 0.746731 0.756252
0.580652 0.747189 0.756863
0.628534 0.748684 0.758602
0.684016 0.751614 0.761959
0.742153 0.758938 0.770596
0.789364 0.764157 0.773556
0.831937 0.767514 0.773709
0.669795 0.794614 0.784176
0.673945 0.794949 0.785000
0.686519 0.795071 0.786252
0.716243 0.796963 0.793149
0.753445 0.801358 0.804837
0.791989 0.811460 0.823331
0.792569 0.796323 0.798398
0.826139 0.797696 0.793118
0.760525 0.832547 0.829343
0.761898 0.832547 0.829557
0.768765 0.833402 0.831540
0.783322 0.836240 0.836545
0.805844 0.841245 0.845182
0.831693 0.851377 0.856870
0.837919 0.846036 0.849851
0.837522 0.827573 0.821988
0.272770 0.497780 0.783200
0.302220 0.501823 0.783719
0.391974 0.516075 0.784421
0.499062 0.532647 0.783413
0.607660 0.552087 0.781064
0.708095 0.579248 0.778103
0.785702 0.611231 0.777890
0.819608 0.658564 0.764431
0.283635 0.507744 0.781521
0.311101 0.511528 0.782223
0.396277 0.524590 0.783047
0.500847 0.540429 0.782010
0.607294 0.558495 0.779812
0.706447 0.584039 0.776699
0.783413 0.614313 0.776364
0.817746 0.660060 0.763272
0.327764 0.551049 0.781979
0.347906 0.553338 0.782223
0.419806 0.563134 0.782803
0.521080 0.582025 0.783291
0.616632 0.596521 0.781216
0.708064 0.618647 0.778836
0.779568 0.646754 0.779446
0.813413 0.686397 0.770932
0.367620 0.610132 0.782559
0.383246 0.610834 0.782345
0.445319 0.617578 0.782986
0.542229 0.635187 0.785031
0.634882 0.654200 0.785122
0.713588 0.671504 0.783902
0.775387 0.691859 0.785214
0.808896 0.720058 0.781949
0.458595 0.680262 0.787320
0.465827 0.680140 0.786923
0.497200 0.681331 0.786130
0.551476 0.684443 0.785245
0.646082 0.702510 0.788540
0.718776 0.716793 0.789700
0.773159 0.730465 0.791623
0.808194 0.751553 0.794736
0.563684 0.745083 0.795926
0.568994 0.745296 0.795926
0.588861 0.746059 0.795895
0.623468 0.747372 0.795865
0.668055 0.749294 0.795956
0.727047 0.757107 0.800015
0.778378 0.767788 0.804013
0.815671 0.779202 0.809903
0.654200 0.791379 0.809476
0.657374 0.791531 0.809659
0.668696 0.791684 0.809934
0.689937 0.792142 0.810666
0.718685 0.793027 0.811978
0.752682 0.795132 0.814633
0.790860 0.799832 0.820279
0.828977 0.802976 0.821683
0.726955 0.825864 0.829923
0.728542 0.825956 0.830076
0.735134 0.826535 0.830961
0.747097 0.827390 0.832212
0.768124 0.829923 0.836271
0.800595 0.836728 0.846281
0.844938 0.852201 0.865110
0.840726 0.833280 0.841672
0.510521 0.637079 0.832395
0.520348 0.639673 0.832334
0.555413 0.648615 0.831418
0.606836 0.661311 0.830198
0.661158 0.671504 0.828550
0.718593 0.684413 0.826413
0.772366 0.700374 0.824308
0.815000 0.715572 0.824155
0.511192 0.639979 0.831601
0.520806 0.642481 0.831571
0.555932 0.651453 0.830838
0.608209 0.664759 0.829618
0.661555 0.674372 0.828000
0.718410 0.686885 0.825986
0.771633 0.701930 0.823850
0.814145 0.716640 0.823667
0.519890 0.656153 0.830716
0.528618 0.658137 0.830594
0.561639 0.665644 0.829923
0.619501 0.682918 0.829282
0.667903 0.690272 0.827817
0.720668 0.700160 0.825956
0.771542 0.713222 0.824216
0.812772 0.726345 0.824338
0.526329 0.680842 0.829892
0.535027 0.682521 0.829862
0.567285 0.688533 0.829404
0.621332 0.701228 0.828946
0.676814 0.714168 0.828305
0.725216 0.721889 0.827024
0.772519 0.732082 0.825925
0.811673 0.742947 0.826474
0.549340 0.716243 0.830381
0.553429 0.716457 0.830320
0.567437 0.715999 0.829618
0.612604 0.721767 0.829038
0.675898 0.734615 0.829191
0.728145 0.744320 0.829038
0.773495 0.752193 0.828550
0.811765 0.761440 0.829862
0.613855 0.761196 0.833921
0.615686 0.760922 0.833738
0.624353 0.760159 0.833127
0.642359 0.759121 0.832273
0.668971 0.757534 0.831113
0.727352 0.766445 0.832853
0.776974 0.774960 0.834348
0.815640 0.783047 0.836454
0.676051 0.799222 0.841764
0.677455 0.799130 0.841672
0.683619 0.798825 0.841428
0.696010 0.798245 0.841093
0.714321 0.797299 0.840482
0.738308 0.795651 0.839689
0.777310 0.797238 0.841276
0.822782 0.805447 0.844999
0.722988 0.829404 0.852049
0.723995 0.829374 0.852049
0.728542 0.829374 0.852110
0.737942 0.829618 0.852445
0.752255 0.829953 0.852964
0.772152 0.830594 0.853849
0.799649 0.832395 0.855863
0.842466 0.838468 0.862058
