20 Preset/Natural Wedding/【3】LUT video cho PR-AE-FCPX/Lut Tone (17).cube
# Created by Adobe Lightroom plugin Export LUT (1.24.0)
# www.johnrellis.com/lightroom/exportlut.htm
# Preset: 清新婚礼-素材江湖17
# Color profile: C:\Program Files (x86)\Common Files\Adobe\Color\Profiles\Recommended\VideoHD.icc
LUT_3D_SIZE 32
DOMAIN_MIN 0.0 0.0 0.0
DOMAIN_MAX 1.0 1.0 1.0
0.000000 0.000000 0.000000
0.000000 0.001190 0.000000
0.000000 0.002411 0.000824
0.000000 0.006012 0.000397
0.000000 0.010163 0.000885
0.007996 0.015808 0.002197
0.046815 0.020264 0.005371
0.097932 0.024109 0.007904
0.128084 0.028260 0.016480
0.159213 0.030213 0.027802
0.192844 0.030854 0.045869
0.229831 0.029480 0.071351
0.271366 0.027955 0.093660
0.320562 0.015930 0.109712
0.378088 0.000000 0.125795
0.441474 0.000000 0.141207
0.507591 0.000000 0.156039
0.574426 0.000000 0.171023
0.638666 0.000000 0.186526
0.697566 0.000000 0.202426
0.752316 0.000000 0.220981
0.809171 0.065309 0.247379
0.851041 0.179355 0.273991
0.884092 0.250492 0.302281
0.910155 0.312627 0.332097
0.931273 0.369207 0.364141
0.948425 0.422889 0.400122
0.962402 0.473243 0.440436
0.973816 0.520531 0.484993
0.983459 0.563958 0.531304
0.991485 0.604334 0.578668
0.997742 0.642298 0.626368
0.000000 0.001190 0.000000
0.000000 0.001190 0.000000
0.000000 0.002411 0.000824
0.000000 0.005798 0.000366
0.000000 0.010163 0.000885
0.007996 0.015808 0.002197
0.043153 0.020722 0.004242
0.096132 0.023560 0.008087
0.125765 0.027192 0.014557
0.156466 0.029816 0.025910
0.189334 0.030610 0.043030
0.225101 0.030274 0.067628
0.265751 0.028046 0.091188
0.313298 0.018769 0.107240
0.369482 0.000000 0.123110
0.432105 0.000000 0.138643
0.498299 0.000000 0.153475
0.565118 0.000000 0.168582
0.629755 0.000000 0.183902
0.689174 0.000000 0.199588
0.744625 0.000000 0.217685
0.800717 0.009308 0.242435
0.842405 0.161898 0.267643
0.875761 0.232517 0.294102
0.902647 0.293919 0.322210
0.924651 0.350530 0.352789
0.942901 0.405005 0.387274
0.958007 0.456733 0.426398
0.970459 0.505913 0.470527
0.980835 0.551507 0.517571
0.989471 0.593652 0.565850
0.996368 0.632868 0.614374
0.000000 0.004822 0.000549
0.000000 0.004822 0.000549
0.000000 0.006012 0.000397
0.000000 0.006989 0.000214
0.000000 0.011353 0.000732
0.008576 0.017975 0.001892
0.043702 0.022889 0.003937
0.095735 0.025971 0.006653
0.124544 0.030060 0.013153
0.154696 0.032136 0.023529
0.187015 0.032624 0.039704
0.222599 0.031983 0.062196
0.262211 0.030793 0.088411
0.308568 0.023682 0.104433
0.363653 0.000977 0.120058
0.425299 0.000000 0.135683
0.491035 0.000000 0.150790
0.557794 0.000000 0.165774
0.622858 0.000000 0.181003
0.683345 0.000000 0.196750
0.740688 0.000000 0.215122
0.796170 0.000000 0.238865
0.837766 0.154330 0.263218
0.871305 0.223972 0.289006
0.898528 0.284764 0.316533
0.920989 0.340978 0.346197
0.939849 0.395331 0.379736
0.955596 0.447822 0.418341
0.968566 0.497963 0.462196
0.979400 0.544640 0.509422
0.988342 0.587640 0.558190
0.995544 0.627497 0.607141
0.000000 0.012024 0.000763
0.000000 0.013214 0.000610
0.000000 0.012024 0.000763
0.000000 0.014191 0.000458
0.000000 0.017151 0.000000
0.010010 0.022339 0.000153
0.046418 0.028260 0.002014
0.096651 0.031312 0.004730
0.124971 0.034424 0.010254
0.154543 0.035767 0.018555
0.186404 0.036713 0.033600
0.220798 0.035218 0.055329
0.259831 0.035370 0.082216
0.304692 0.029450 0.099489
0.357763 0.011597 0.115206
0.417945 0.000000 0.130709
0.482033 0.000000 0.146059
0.547417 0.000000 0.160678
0.612024 0.000000 0.175814
0.672663 0.000000 0.191318
0.732326 0.000000 0.209812
0.786221 0.000000 0.231785
0.828336 0.139620 0.255039
0.863127 0.209659 0.279973
0.892241 0.271885 0.307591
0.916594 0.330083 0.337560
0.937133 0.386816 0.371893
0.954070 0.441657 0.411475
0.967681 0.493751 0.456489
0.978790 0.541558 0.504601
0.987884 0.584314 0.552941
0.995087 0.623682 0.601190
0.000000 0.025025 0.001373
0.000000 0.026215 0.001251
0.000000 0.026215 0.001251
0.000000 0.024811 0.001373
0.000000 0.026551 0.000000
0.010559 0.033478 0.000000
0.048280 0.038178 0.000000
0.096040 0.041718 0.001099
0.123781 0.044068 0.005676
0.152773 0.044862 0.012970
0.183841 0.043549 0.025116
0.217655 0.042206 0.043641
0.255314 0.041657 0.070069
0.299260 0.038880 0.092927
0.351141 0.025727 0.108736
0.410163 0.000000 0.124514
0.474708 0.000000 0.140230
0.540703 0.000000 0.155154
0.605798 0.000000 0.170382
0.666743 0.000000 0.185946
0.729488 0.000000 0.205203
0.782071 0.000977 0.226413
0.824002 0.140230 0.248875
0.859312 0.207187 0.273838
0.889158 0.267887 0.301183
0.914336 0.325872 0.331273
0.935454 0.382391 0.365576
0.952850 0.437140 0.404852
0.966796 0.489143 0.449317
0.978027 0.537224 0.497597
0.987304 0.580377 0.546258
0.994629 0.619745 0.594415
0.000000 0.046448 0.003235
0.000000 0.046448 0.003235
0.000000 0.047425 0.004211
0.000000 0.044556 0.003357
0.000000 0.043885 0.003326
0.004669 0.048676 0.000061
0.052186 0.055634 0.000000
0.098970 0.058717 0.000000
0.125277 0.060334 0.000000
0.153841 0.058961 0.006439
0.184543 0.056672 0.016480
0.217929 0.054566 0.032898
0.255283 0.054475 0.055940
0.298405 0.054231 0.084474
0.350011 0.046601 0.102144
0.409155 0.023560 0.118135
0.473030 0.000000 0.133730
0.539269 0.000000 0.149294
0.604517 0.000000 0.164767
0.666468 0.000000 0.180697
0.731746 0.000000 0.200809
0.783017 0.080293 0.221683
0.871763 0.240208 0.277836
0.901976 0.301274 0.308721
0.925994 0.358434 0.342138
0.945098 0.412146 0.378515
0.960266 0.462501 0.418555
0.972229 0.509239 0.462165
0.981872 0.551904 0.507622
0.989776 0.590539 0.553094
0.996124 0.625849 0.597742
1.000000 0.658808 0.641566
0.000000 0.086427 0.009979
0.000000 0.086427 0.009979
0.000000 0.086763 0.010956
0.000000 0.086183 0.010895
0.000000 0.080018 0.011902
0.002930 0.079988 0.006989
0.058473 0.085359 0.000214
0.106569 0.088930 0.000000
0.136782 0.087984 0.000000
0.165530 0.085237 0.002106
0.196689 0.082216 0.008637
0.231785 0.080232 0.023285
0.271031 0.080476 0.045197
0.316686 0.080812 0.076814
0.370153 0.076875 0.097292
0.429541 0.059083 0.113832
0.493294 0.031128 0.129732
0.558587 0.000000 0.145266
0.622492 0.000000 0.161349
0.692958 0.000000 0.180392
0.757839 0.092164 0.203098
0.810147 0.155276 0.228031
0.853117 0.217350 0.256291
0.888762 0.279484 0.287907
0.917205 0.339757 0.322728
0.939178 0.395697 0.359472
0.956054 0.447303 0.399329
0.969146 0.495094 0.442664
0.979461 0.539422 0.488991
0.987915 0.578943 0.534813
0.994751 0.615259 0.580438
0.999969 0.648920 0.625208
0.000000 0.105440 0.023468
0.000000 0.105715 0.023285
0.000000 0.105867 0.024262
0.000000 0.106355 0.026001
0.000000 0.102846 0.024872
0.000000 0.098634 0.026123
0.037568 0.100282 0.015686
0.100313 0.104250 0.005432
0.134707 0.105470 0.005707
0.167117 0.103151 0.005524
0.198672 0.100740 0.010071
0.231968 0.099214 0.017334
0.269017 0.097871 0.025666
0.313176 0.098116 0.047669
0.364965 0.098390 0.081544
0.422583 0.096742 0.101045
0.484962 0.092256 0.117433
0.549676 0.083833 0.133761
0.617212 0.078706 0.150423
0.690303 0.095613 0.170474
0.751644 0.127138 0.191958
0.802487 0.170108 0.215549
0.845426 0.220951 0.242771
0.881651 0.275547 0.273106
0.911192 0.331426 0.306920
0.934356 0.385290 0.343053
0.952514 0.436164 0.381994
0.966613 0.484352 0.424964
0.977722 0.529747 0.471809
0.986633 0.570611 0.519127
0.993896 0.607965 0.566125
0.999481 0.642481 0.612268
0.000000 0.127077 0.043336
0.000000 0.127291 0.043183
0.000000 0.127321 0.045258
0.000000 0.127596 0.048096
0.000000 0.126162 0.048463
0.000000 0.120974 0.051728
0.030304 0.118593 0.046662
0.085786 0.120699 0.030823
0.127810 0.124636 0.016907
0.165164 0.124727 0.017578
0.199771 0.122347 0.018616
0.235294 0.119936 0.021546
0.272618 0.119448 0.031647
0.315312 0.118929 0.041840
0.364355 0.118624 0.054017
0.420325 0.119509 0.083955
0.481605 0.120363 0.102998
0.546441 0.121370 0.120272
0.621424 0.127138 0.138857
0.689662 0.139498 0.158358
0.748165 0.161776 0.179355
0.797696 0.192844 0.202701
0.840177 0.233005 0.229160
0.876646 0.280003 0.259098
0.906737 0.330480 0.292241
0.930846 0.381079 0.327825
0.949950 0.430396 0.366613
0.964996 0.478126 0.409552
0.976806 0.523491 0.456519
0.986053 0.565301 0.505303
0.993500 0.603326 0.553735
0.999359 0.638300 0.601129
0.000000 0.149783 0.075257
0.000000 0.149538 0.075410
0.000000 0.149508 0.077485
0.000000 0.149660 0.080964
0.000000 0.149630 0.088624
0.000000 0.145296 0.085603
0.028260 0.139315 0.086885
0.075013 0.139254 0.076417
0.112276 0.141573 0.052735
0.157321 0.145632 0.034577
0.196445 0.145876 0.037110
0.233371 0.144320 0.037415
0.274174 0.142489 0.036500
0.317235 0.142947 0.048157
0.366430 0.144686 0.062165
0.421180 0.146120 0.076143
0.482338 0.148653 0.086641
0.555230 0.156252 0.103792
0.626215 0.165988 0.123507
0.691157 0.178866 0.143404
0.746609 0.195590 0.165103
0.793423 0.218479 0.187991
0.833921 0.248295 0.213535
0.869169 0.285344 0.241855
0.899107 0.327520 0.273259
0.924010 0.372534 0.307286
0.944549 0.419348 0.345129
0.961242 0.466194 0.387243
0.974395 0.512657 0.434821
0.984588 0.556756 0.486183
0.992767 0.596674 0.537377
0.999145 0.633234 0.587579
0.000000 0.171786 0.098726
0.000000 0.171756 0.099123
0.000000 0.171878 0.100099
0.000000 0.172000 0.102449
0.000000 0.172335 0.106661
0.000000 0.170565 0.106538
0.015412 0.164828 0.107301
0.080140 0.158328 0.108156
0.107607 0.161318 0.098909
0.142214 0.164004 0.086213
0.189944 0.168978 0.065095
0.232120 0.170687 0.066590
0.273808 0.170504 0.066651
0.320928 0.170565 0.063844
0.371862 0.172213 0.068818
0.433021 0.178561 0.083070
0.497993 0.185397 0.090394
0.563836 0.193088 0.096132
0.627527 0.201968 0.101961
0.688777 0.213901 0.122530
0.742123 0.227939 0.145541
0.788205 0.245457 0.169986
0.828580 0.268894 0.196201
0.864103 0.298863 0.224979
0.894743 0.335119 0.256443
0.920500 0.375647 0.290806
0.942046 0.419074 0.328740
0.959686 0.464240 0.371160
0.973663 0.509728 0.418952
0.984405 0.554009 0.471626
0.992798 0.594476 0.524681
0.999390 0.631342 0.576684
0.000000 0.197879 0.119661
0.000000 0.197940 0.120211
0.000000 0.197940 0.120729
0.000000 0.198276 0.122744
0.000000 0.198611 0.126284
0.000000 0.198856 0.131106
0.000000 0.193576 0.127993
0.079103 0.186923 0.128664
0.110140 0.182895 0.126833
0.138216 0.186374 0.117372
0.175814 0.189609 0.104738
0.227787 0.196628 0.093996
0.301946 0.217960 0.099733
0.364782 0.226658 0.097536
0.432197 0.234989 0.092988
0.501183 0.242924 0.088594
0.567803 0.252873 0.094118
0.631434 0.262974 0.099428
0.689448 0.273289 0.107088
0.740047 0.283604 0.117525
0.784482 0.294987 0.133394
0.824460 0.310826 0.164675
0.859709 0.331243 0.196262
0.890379 0.358068 0.229496
0.916625 0.389899 0.264866
0.938476 0.425513 0.302892
0.956268 0.463142 0.343389
0.970581 0.502251 0.387701
0.981750 0.541497 0.436225
0.990356 0.579797 0.488045
0.997284 0.615137 0.539178
1.000000 0.648463 0.589899
0.000000 0.237858 0.146212
0.000000 0.237736 0.146029
0.000000 0.237400 0.146700
0.000000 0.237400 0.147860
0.000000 0.237095 0.149874
0.000000 0.237003 0.153323
0.000000 0.233280 0.150881
0.056489 0.225071 0.151400
0.116213 0.216373 0.152316
0.143923 0.215824 0.147616
0.180240 0.223728 0.139254
0.228702 0.233036 0.127962
0.299229 0.251652 0.115877
0.367712 0.266636 0.112367
0.436133 0.277684 0.106538
0.503563 0.285863 0.098756
0.568902 0.292424 0.089082
0.628565 0.300206 0.093843
0.683162 0.308019 0.101869
0.731106 0.315953 0.112734
0.773526 0.324010 0.125490
0.811917 0.334234 0.140383
0.847471 0.347906 0.165927
0.879667 0.368353 0.201236
0.907622 0.394324 0.238010
0.931334 0.425086 0.276219
0.951202 0.459754 0.317418
0.967315 0.497322 0.362646
0.979980 0.536400 0.412543
0.989563 0.575586 0.467079
0.997070 0.611902 0.521447
1.000000 0.645899 0.574762
0.000000 0.273869 0.164553
0.000000 0.273777 0.164401
0.000000 0.273503 0.164584
0.000000 0.273106 0.165316
0.000000 0.273533 0.167025
0.000000 0.274784 0.169650
0.000000 0.275669 0.172183
0.000000 0.268467 0.169314
0.105501 0.260014 0.171206
0.149447 0.250736 0.173526
0.182101 0.258701 0.166629
0.226505 0.269749 0.156588
0.283513 0.281407 0.142763
0.363470 0.304753 0.126009
0.434485 0.319677 0.118746
0.501701 0.329259 0.110140
0.564599 0.335332 0.100679
0.623621 0.339483 0.091188
0.677119 0.344152 0.092683
0.723476 0.349645 0.105409
0.765347 0.355688 0.120455
0.803464 0.363561 0.135988
0.838529 0.373602 0.152499
0.871092 0.386328 0.170413
0.900511 0.407080 0.210697
0.925841 0.433173 0.251225
0.947204 0.463996 0.294163
0.964752 0.498360 0.339849
0.978668 0.535760 0.390845
0.989258 0.574212 0.446723
0.997101 0.611200 0.504509
1.000000 0.645594 0.560784
0.000000 0.331243 0.186709
0.000000 0.331212 0.186862
0.000000 0.330724 0.186801
0.000000 0.330175 0.187167
0.000000 0.329808 0.187533
0.000000 0.329747 0.188785
0.000000 0.330571 0.191318
0.000000 0.325231 0.186435
0.000946 0.314702 0.188296
0.138918 0.303349 0.190616
0.182956 0.296818 0.190860
0.224155 0.308934 0.181277
0.277104 0.321935 0.168978
0.341283 0.334844 0.151705
0.427131 0.359808 0.129671
0.496040 0.371954 0.120638
0.559991 0.378943 0.110964
0.617548 0.382300 0.102419
0.670375 0.384131 0.095155
0.717189 0.385168 0.094881
0.758328 0.389197 0.112886
0.796201 0.394934 0.130129
0.831205 0.402655 0.148562
0.863737 0.413092 0.167636
0.893492 0.426093 0.187991
0.920317 0.445624 0.223758
0.943297 0.472419 0.269505
0.962524 0.504173 0.317784
0.977996 0.540124 0.370977
0.989593 0.578515 0.430488
0.998138 0.616205 0.492683
1.000000 0.651362 0.553491
0.000000 0.388891 0.204593
0.000000 0.388952 0.204837
0.000000 0.388922 0.205051
0.000000 0.388769 0.204990
0.000000 0.388800 0.205203
0.000000 0.389227 0.206119
0.000000 0.390723 0.207858
0.000000 0.390875 0.207980
0.000000 0.380743 0.204715
0.092103 0.368414 0.207279
0.176791 0.354589 0.209781
0.222568 0.353521 0.206180
0.271458 0.365240 0.193881
0.330266 0.376959 0.177829
0.397436 0.387396 0.157076
0.482765 0.410285 0.131350
0.548180 0.418494 0.121431
0.607446 0.422797 0.113039
0.659876 0.423926 0.106905
0.707057 0.423529 0.103609
0.750118 0.423194 0.103334
0.788937 0.427008 0.122805
0.824582 0.433356 0.143984
0.857694 0.442237 0.164828
0.888029 0.453590 0.187167
0.915923 0.467750 0.210910
0.940764 0.487282 0.245029
0.961303 0.515740 0.296605
0.977783 0.548760 0.352239
0.990051 0.584771 0.413245
0.998810 0.620966 0.477913
1.000000 0.654902 0.540887
0.000000 0.444434 0.220279
0.000000 0.444404 0.220279
0.000000 0.444282 0.220279
0.000000 0.444190 0.220310
0.000000 0.444221 0.220310
0.000000 0.444862 0.221256
0.000000 0.445991 0.222690
0.000000 0.447791 0.226169
0.000000 0.440894 0.219211
0.000000 0.428717 0.221622
0.148348 0.414740 0.224216
0.218235 0.399268 0.227054
0.264408 0.405646 0.217899
0.318608 0.417395 0.203586
0.381170 0.428138 0.185153
0.451057 0.437873 0.160800
0.536126 0.458930 0.133150
0.596979 0.463844 0.125490
0.651545 0.465492 0.120027
0.698177 0.464088 0.118532
0.741360 0.462806 0.119356
0.781552 0.462226 0.122316
0.818296 0.465034 0.138003
0.851774 0.472145 0.162356
0.882658 0.481819 0.186526
0.911040 0.494514 0.212314
0.936889 0.510094 0.239353
0.959808 0.529747 0.273228
0.977417 0.559869 0.332158
0.990631 0.593683 0.395911
0.999817 0.628748 0.464515
1.000000 0.661860 0.530907
0.000000 0.501457 0.236912
0.000000 0.501884 0.237186
0.000000 0.536553 0.249638
0.000000 0.536431 0.249943
0.000000 0.536248 0.250462
0.000000 0.536004 0.251560
0.000000 0.535912 0.253849
0.000000 0.536278 0.258274
0.000000 0.534020 0.258122
0.000000 0.522789 0.253452
0.130800 0.509209 0.255314
0.230503 0.493446 0.257237
0.287480 0.478462 0.257420
0.336828 0.488441 0.242771
0.394629 0.497322 0.225132
0.459052 0.504967 0.202884
0.528985 0.510918 0.173861
0.608545 0.525231 0.147524
0.659663 0.522759 0.145022
0.705531 0.519219 0.144686
0.746151 0.514702 0.146914
0.784482 0.511925 0.151156
0.820554 0.510826 0.157168
0.854002 0.511803 0.167971
0.883360 0.518456 0.194125
0.910369 0.527642 0.219944
0.934936 0.539788 0.247105
0.957305 0.554986 0.276707
0.977203 0.574121 0.311589
0.991028 0.604578 0.377874
1.000000 0.637507 0.449317
1.000000 0.669337 0.519432
0.000000 0.563043 0.259861
0.000000 0.566033 0.261112
0.000000 0.569238 0.262852
0.000000 0.571801 0.264744
0.000000 0.573632 0.266484
0.000000 0.574212 0.268284
0.000000 0.574060 0.271092
0.000000 0.573602 0.275273
0.000000 0.573449 0.282139
0.000000 0.565637 0.272099
0.045136 0.553765 0.273045
0.215549 0.540093 0.274144
0.282689 0.523644 0.274968
0.330327 0.517082 0.270176
0.380194 0.525719 0.255039
0.437690 0.533593 0.236271
0.501549 0.540368 0.213291
0.569970 0.546136 0.184298
0.644709 0.558129 0.163272
0.692042 0.554803 0.164340
0.735012 0.551263 0.167391
0.774014 0.548089 0.171939
0.810513 0.546319 0.178012
0.844572 0.545678 0.185824
0.876097 0.546441 0.194400
0.903899 0.553124 0.219669
0.928923 0.563256 0.247898
0.951781 0.576471 0.278782
0.972259 0.593042 0.312566
0.989990 0.613367 0.352544
1.000000 0.644373 0.427619
1.000000 0.675288 0.502464
0.000000 0.601587 0.278721
0.000000 0.604273 0.280461
0.000000 0.607141 0.282567
0.000000 0.609583 0.284703
0.000000 0.611139 0.287114
0.000000 0.611536 0.289586
0.000000 0.611200 0.292699
0.000000 0.610437 0.297093
0.000000 0.609674 0.304143
0.000000 0.606073 0.302770
0.016480 0.596582 0.297215
0.214054 0.585046 0.297337
0.284947 0.571283 0.297063
0.336492 0.555596 0.297368
0.379431 0.556756 0.287572
0.428534 0.564233 0.271824
0.484932 0.570825 0.252842
0.546197 0.576562 0.229984
0.611810 0.581476 0.201633
0.680476 0.590723 0.186465
0.723720 0.586633 0.189822
0.763699 0.583276 0.194797
0.800717 0.580987 0.201328
0.835172 0.579828 0.209354
0.867002 0.579919 0.218021
0.896727 0.581598 0.228763
0.923247 0.587579 0.249760
0.946502 0.598962 0.281895
0.967315 0.613764 0.317235
0.985565 0.631708 0.356817
1.000000 0.653132 0.404700
1.000000 0.682582 0.484382
0.000000 0.637079 0.301488
0.000000 0.639277 0.303288
0.000000 0.641474 0.305547
0.000000 0.643244 0.308080
0.000000 0.644404 0.310765
0.000000 0.644526 0.313756
0.000000 0.643977 0.317082
0.000000 0.643000 0.322118
0.000000 0.641993 0.329198
0.000000 0.640620 0.339300
0.121187 0.633814 0.326635
0.232639 0.624170 0.325963
0.298344 0.612909 0.324865
0.348486 0.600061 0.323888
0.389410 0.586053 0.322667
0.430213 0.593256 0.309606
0.478462 0.600336 0.294224
0.533349 0.606958 0.276677
0.593011 0.613367 0.256077
0.657008 0.619226 0.231205
0.721157 0.627955 0.223362
0.762142 0.625330 0.230716
0.799649 0.623438 0.239261
0.834836 0.623041 0.249088
0.867216 0.624018 0.260563
0.897063 0.626215 0.273533
0.924559 0.630121 0.288334
0.949432 0.637171 0.309331
0.969512 0.650965 0.348913
0.986633 0.667628 0.393011
1.000000 0.686244 0.440955
1.000000 0.706935 0.496681
0.000000 0.681697 0.341497
0.000000 0.682429 0.342596
0.000000 0.682948 0.343816
0.000000 0.682948 0.345281
0.000000 0.682582 0.347204
0.000000 0.681697 0.349706
0.000000 0.680476 0.353399
0.000000 0.679072 0.358770
0.000000 0.677638 0.366308
0.162203 0.676081 0.376928
0.240269 0.672572 0.375189
0.287572 0.665095 0.368933
0.338842 0.655940 0.367285
0.382086 0.645380 0.365209
0.419043 0.633356 0.362860
0.451606 0.626612 0.357397
0.489937 0.632746 0.344121
0.534478 0.638514 0.329046
0.584649 0.644007 0.311559
0.639582 0.648981 0.291539
0.698756 0.653712 0.267460
0.755978 0.660182 0.263249
0.792355 0.656703 0.270359
0.825772 0.654047 0.278355
0.857786 0.653895 0.288914
0.887846 0.655543 0.302007
0.915587 0.658991 0.317510
0.941131 0.664576 0.336309
0.964324 0.672541 0.359197
0.982361 0.686458 0.401343
0.996857 0.703029 0.450050
1.000000 0.720424 0.499245
0.000000 0.709712 0.373724
0.000000 0.710292 0.374792
0.000000 0.710628 0.376196
0.000000 0.710658 0.377966
0.000000 0.710231 0.380194
0.000000 0.709377 0.383154
0.000000 0.708186 0.387366
0.000000 0.706783 0.392950
0.000000 0.705226 0.400977
0.228244 0.703517 0.411444
0.319158 0.701534 0.423377
0.334661 0.696162 0.410132
0.375952 0.688472 0.407996
0.413123 0.679744 0.405615
0.446204 0.670008 0.403265
0.475746 0.659113 0.400641
0.505425 0.658656 0.392828
0.541558 0.664546 0.380316
0.583490 0.670222 0.366155
0.630610 0.675380 0.349706
0.681941 0.680323 0.331029
0.737850 0.685939 0.309880
0.789029 0.690883 0.309148
0.822110 0.688228 0.317662
0.847227 0.680140 0.315618
0.876921 0.680568 0.327733
0.905119 0.683436 0.343328
0.930938 0.688319 0.362371
0.954498 0.695338 0.385595
0.975494 0.704524 0.413581
0.992370 0.717647 0.454200
1.000000 0.733577 0.504356
0.000000 0.741848 0.421576
0.000000 0.742702 0.423560
0.000000 0.742916 0.424933
0.000000 0.742397 0.426184
0.000000 0.741268 0.427527
0.000000 0.739590 0.429389
0.000000 0.737514 0.432258
0.000000 0.735134 0.436347
0.201816 0.732601 0.442664
0.290288 0.730037 0.451087
0.359472 0.727230 0.461524
0.387549 0.723171 0.456703
0.411383 0.716457 0.449195
0.441505 0.708370 0.445411
0.469398 0.699214 0.441199
0.495003 0.689174 0.436988
0.518669 0.678340 0.432929
0.546899 0.682551 0.422339
0.581323 0.688014 0.410163
0.621515 0.693660 0.397162
0.666041 0.699062 0.382391
0.714443 0.703853 0.364996
0.767544 0.709804 0.345464
0.812863 0.713222 0.345861
0.842588 0.710170 0.353491
0.869688 0.707942 0.362341
0.896422 0.708644 0.375341
0.921965 0.712032 0.392859
0.945342 0.717494 0.414618
0.966400 0.725154 0.441047
0.985199 0.734676 0.471595
1.000000 0.746181 0.507927
0.000000 0.762417 0.456916
0.000000 0.763149 0.458747
0.000000 0.763485 0.460639
0.000000 0.763210 0.462348
0.000000 0.762539 0.464485
0.000000 0.761471 0.467445
0.074311 0.760189 0.471595
0.209262 0.758633 0.477272
0.284489 0.756924 0.484474
0.347173 0.755154 0.493568
0.402380 0.753017 0.503655
0.446448 0.750607 0.511498
0.455360 0.745937 0.498878
0.481117 0.739193 0.495674
0.505150 0.731502 0.491524
0.527886 0.723049 0.487373
0.549493 0.713832 0.483314
0.570397 0.707546 0.478187
0.597742 0.712642 0.468391
0.630274 0.717891 0.457832
0.667475 0.723110 0.446021
0.708644 0.727993 0.432349
0.752682 0.732357 0.416022
0.802152 0.738460 0.399145
0.841978 0.741238 0.402228
0.868772 0.739254 0.412024
0.893126 0.738064 0.422705
0.916930 0.739803 0.438605
0.940002 0.744503 0.459876
0.960723 0.750881 0.484627
0.979187 0.758785 0.513176
0.995239 0.768124 0.545403
0.000000 0.786282 0.505150
0.000000 0.786587 0.506188
0.000000 0.786587 0.507347
0.018311 0.786221 0.508751
0.140902 0.785489 0.510704
0.200076 0.784390 0.513176
0.251865 0.783078 0.516686
0.301091 0.781552 0.521294
0.348821 0.779843 0.527306
0.394293 0.778073 0.534600
0.438911 0.776028 0.543236
0.481209 0.773953 0.553185
0.496040 0.770779 0.546532
0.513359 0.765499 0.540307
0.534966 0.758999 0.536858
0.555596 0.751827 0.532982
0.575433 0.744045 0.529168
0.594202 0.735775 0.525658
0.615198 0.734432 0.520134
0.641840 0.739376 0.511833
0.672908 0.744381 0.502831
0.707698 0.749081 0.492470
0.745449 0.753292 0.479866
0.785733 0.756893 0.464576
0.831174 0.762814 0.449805
0.865904 0.764675 0.453895
0.889769 0.763088 0.463630
0.911345 0.762234 0.474769
0.932525 0.764126 0.491035
0.953368 0.769589 0.514702
0.972015 0.776364 0.541802
0.988464 0.784787 0.573480
0.225223 0.806699 0.549737
0.230289 0.806912 0.550591
0.240299 0.806973 0.551843
0.256870 0.806760 0.553460
0.279759 0.806394 0.555749
0.308354 0.805936 0.559228
0.342535 0.805661 0.564508
0.379217 0.805356 0.571283
0.417578 0.805112 0.579583
0.456031 0.804807 0.589044
0.494850 0.804379 0.599634
0.532250 0.803769 0.610925
0.561089 0.802640 0.617578
0.570031 0.800076 0.609277
0.589960 0.795804 0.608423
0.608392 0.790555 0.606195
0.625879 0.784695 0.603571
0.643000 0.778317 0.600793
0.659388 0.771817 0.598932
0.680110 0.774380 0.593774
0.704829 0.778775 0.587488
0.732998 0.782864 0.580255
0.763546 0.786526 0.571160
0.796536 0.789700 0.560204
0.831174 0.792294 0.546777
0.870573 0.797421 0.535119
0.898711 0.798489 0.540551
0.918334 0.797360 0.550958
0.936065 0.796902 0.562463
0.953185 0.798672 0.579065
0.970581 0.804318 0.605035
0.985748 0.811185 0.634730
0.379095 0.834653 0.619593
0.379980 0.834623 0.619715
0.383459 0.834409 0.619928
0.390478 0.833982 0.620630
0.401465 0.833371 0.621759
0.416510 0.832547 0.623560
0.435737 0.831662 0.626307
0.458045 0.830655 0.629999
0.483192 0.829496 0.634730
0.510796 0.828305 0.640558
0.539513 0.826932 0.647333
0.569116 0.825437 0.655207
0.598810 0.823819 0.663966
0.607355 0.821714 0.657191
