20 Preset/Natural Wedding/【3】LUT video cho PR-AE-FCPX/Lut Tone (15).cube
# Created by Adobe Lightroom plugin Export LUT (1.24.0)
# www.johnrellis.com/lightroom/exportlut.htm
# Preset: 清新婚礼-素材江湖15
# Color profile: C:\Program Files (x86)\Common Files\Adobe\Color\Profiles\Recommended\VideoHD.icc
LUT_3D_SIZE 8
DOMAIN_MIN 0.000000 0.000000 0.000000
DOMAIN_MAX 0.903226 0.903226 0.903226
0.000000 0.000000 0.000000
0.000000 0.012329 0.001709
0.125093 0.037324 0.022278
0.268437 0.031952 0.093690
0.521233 0.000000 0.151034
0.774655 0.000000 0.218967
0.916381 0.324926 0.338598
0.944579 0.540368 0.503838
0.000000 0.032227 0.002747
0.000000 0.034058 0.000000
0.121096 0.050721 0.010620
0.251133 0.050172 0.074342
0.486275 0.000000 0.135286
0.751553 0.000000 0.201968
0.901122 0.276158 0.305394
0.944305 0.507469 0.466011
0.000000 0.125002 0.050965
0.000000 0.124117 0.056123
0.123873 0.122835 0.027253
0.269810 0.120974 0.037171
0.493355 0.114595 0.097475
0.770260 0.153628 0.173465
0.914183 0.339147 0.296788
0.948882 0.538567 0.474800
0.000000 0.236851 0.143008
0.000000 0.236179 0.145907
0.110231 0.214511 0.147799
0.301823 0.252842 0.108919
0.585718 0.297734 0.046723
0.794553 0.330480 0.109468
0.913664 0.400061 0.240574
0.953582 0.544121 0.429999
0.000000 0.456764 0.217655
0.000000 0.456611 0.217655
0.000000 0.453193 0.216068
0.265202 0.416205 0.214878
0.551812 0.471962 0.116335
0.761196 0.474769 0.099214
0.889982 0.487495 0.187259
0.954589 0.558129 0.348394
0.000000 0.654444 0.305608
0.000000 0.661616 0.315709
0.000000 0.658808 0.335851
0.306126 0.629633 0.331060
0.492439 0.616663 0.298161
0.738033 0.641871 0.224247
0.867277 0.627283 0.271550
0.941588 0.641840 0.371069
0.000000 0.766262 0.470680
0.000000 0.765896 0.479011
0.331548 0.759976 0.501884
0.485939 0.749325 0.520745
0.567407 0.722377 0.503319
0.677699 0.728969 0.465858
0.833585 0.737911 0.425116
0.906859 0.730343 0.488624
0.527428 0.825650 0.671839
0.540764 0.824765 0.674800
0.592584 0.821530 0.688899
0.667750 0.816648 0.714199
0.685023 0.801877 0.688991
0.731197 0.792538 0.688472
0.800351 0.802213 0.672450
0.887236 0.807370 0.655634
0.000000 0.015595 0.011658
0.000000 0.014282 0.009339
0.114839 0.046143 0.028626
0.236606 0.054322 0.070039
0.466743 0.000000 0.130373
0.734401 0.000000 0.195132
0.890837 0.246525 0.291539
0.942382 0.480720 0.442237
0.000000 0.046418 0.019104
0.000000 0.047852 0.020661
0.117800 0.071412 0.038514
0.238621 0.078492 0.074220
0.459693 0.000000 0.121401
0.727413 0.000000 0.185916
0.881895 0.231113 0.275792
0.940978 0.458625 0.418219
0.000000 0.129458 0.085756
0.000000 0.130220 0.091157
0.126253 0.129335 0.078462
0.263401 0.130983 0.091829
0.470558 0.127047 0.110079
0.731472 0.145113 0.154635
0.886442 0.278172 0.254765
0.945495 0.482734 0.415381
0.000000 0.231144 0.151308
0.000000 0.231632 0.153964
0.113527 0.219333 0.158877
0.281468 0.239780 0.128054
0.525292 0.266056 0.108186
0.741756 0.296666 0.129091
0.882536 0.350652 0.196719
0.947906 0.492103 0.370916
0.000000 0.451423 0.226658
0.000000 0.449775 0.226017
0.000000 0.449042 0.230320
0.257237 0.399451 0.222843
0.521324 0.446204 0.141176
0.735775 0.454627 0.121462
0.873747 0.472175 0.190097
0.949371 0.533196 0.313085
0.000000 0.643030 0.304692
0.000000 0.643244 0.307469
0.000000 0.642298 0.324254
0.285435 0.618128 0.326604
0.478706 0.604211 0.300084
0.728267 0.634821 0.233951
0.859922 0.620813 0.274174
0.936461 0.633753 0.364385
0.000000 0.759365 0.455024
0.000000 0.757015 0.456977
0.254917 0.751125 0.477638
0.461646 0.741878 0.505516
0.555169 0.716426 0.493812
0.667109 0.722072 0.457313
0.825589 0.730129 0.409979
0.902129 0.720302 0.465461
0.495674 0.822568 0.656733
0.515770 0.822263 0.662867
0.571466 0.818784 0.676814
0.653773 0.813718 0.704097
0.695521 0.805692 0.702632
0.734432 0.793729 0.695491
0.798886 0.801480 0.673976
0.885832 0.806546 0.656367
0.000000 0.072236 0.123049
0.000000 0.054383 0.121279
0.121798 0.046632 0.110597
0.264225 0.085664 0.140505
0.500298 0.087221 0.192386
0.753658 0.111360 0.226566
0.896818 0.280949 0.282078
0.945434 0.499336 0.446540
0.000000 0.098573 0.133272
0.000000 0.097047 0.134432
0.126986 0.088106 0.123873
0.262669 0.112337 0.151980
0.491096 0.113466 0.192538
0.743618 0.137118 0.224430
0.888518 0.268986 0.267338
0.944640 0.482673 0.426123
0.000000 0.154360 0.160006
0.000000 0.155673 0.161715
0.142336 0.158358 0.167361
0.288304 0.171786 0.182406
0.523156 0.183200 0.202579
0.755337 0.228397 0.229465
0.888487 0.325719 0.273381
0.947021 0.490486 0.410101
0.000000 0.267491 0.209964
0.000000 0.271214 0.212284
0.098787 0.282597 0.221592
0.327520 0.289616 0.207523
0.571496 0.311925 0.206607
0.764645 0.350530 0.233066
0.885740 0.414832 0.284001
0.950256 0.509056 0.376013
0.000000 0.487251 0.278752
0.000000 0.487800 0.278080
0.000000 0.492775 0.282841
0.311101 0.458412 0.291325
0.561028 0.493690 0.234867
0.751461 0.485451 0.228244
0.871702 0.509056 0.287510
0.939300 0.571191 0.390784
0.000000 0.657710 0.350927
0.000000 0.658534 0.353826
0.000000 0.656733 0.366796
0.343175 0.644465 0.387732
0.504051 0.616968 0.366857
0.729274 0.645441 0.318456
0.854093 0.634424 0.349310
0.926116 0.655451 0.441810
0.000000 0.766964 0.492409
0.000000 0.764920 0.494362
0.262974 0.758358 0.509941
0.497566 0.748867 0.552117
0.579797 0.726955 0.538293
0.676905 0.727382 0.512810
0.824155 0.738643 0.481849
0.897765 0.733608 0.531090
0.481056 0.825315 0.666041
0.495247 0.824094 0.667781
0.555016 0.820432 0.680720
0.646693 0.816007 0.709590
0.701289 0.808530 0.716732
0.740536 0.795865 0.712886
0.800809 0.803861 0.696681
0.884031 0.809476 0.681514
0.000000 0.120790 0.237522
0.000000 0.120150 0.240391
0.064149 0.104128 0.225986
0.260014 0.078614 0.219699
0.514946 0.000000 0.255650
0.763546 0.191745 0.316686
0.869566 0.415381 0.402655
0.929046 0.526085 0.478584
0.000000 0.147829 0.252659
0.000000 0.145663 0.253178
0.081544 0.125063 0.242069
0.274113 0.104585 0.232242
0.531670 0.000000 0.266514
0.763546 0.240635 0.327794
0.867491 0.421820 0.403174
0.927794 0.529137 0.478889
0.000000 0.208591 0.272404
0.000000 0.209812 0.274174
0.035920 0.206271 0.280339
0.308293 0.177157 0.265263
0.570672 0.228214 0.305730
0.763699 0.391638 0.381994
0.870634 0.485481 0.437751
0.925963 0.567834 0.508934
0.000000 0.339117 0.317937
0.000000 0.340612 0.318822
0.000000 0.352087 0.326207
0.383246 0.372778 0.344244
0.596735 0.405921 0.358129
0.757809 0.452522 0.383459
0.861387 0.515343 0.431769
0.920775 0.588708 0.509239
0.000000 0.548333 0.381353
0.000000 0.549920 0.381689
0.000000 0.559045 0.387091
0.376898 0.566186 0.413123
0.607263 0.562890 0.394232
0.761471 0.553216 0.395209
0.857176 0.584619 0.450507
0.914549 0.634668 0.530785
0.000000 0.694148 0.452308
0.000000 0.698604 0.460639
0.000000 0.694087 0.467689
0.414374 0.687190 0.501366
0.577661 0.656397 0.509453
0.738003 0.675929 0.472999
0.844175 0.666499 0.484443
0.907286 0.690578 0.561852
0.000000 0.778286 0.549462
0.000000 0.777493 0.554131
0.261601 0.772854 0.570672
0.502556 0.764553 0.603845
0.629389 0.751003 0.624262
0.697688 0.739834 0.604273
0.819303 0.750546 0.580255
0.889250 0.748318 0.610559
0.454475 0.833280 0.690730
0.472847 0.832273 0.693141
0.539696 0.828397 0.703914
0.633265 0.822324 0.724392
0.718990 0.815244 0.748684
0.750881 0.803220 0.738888
0.802670 0.807034 0.728908
0.881559 0.814450 0.719387
0.000000 0.208133 0.393500
0.000000 0.205264 0.396704
0.000000 0.163210 0.390936
0.275090 0.133639 0.358770
0.515312 0.000000 0.366400
0.765194 0.000000 0.393256
0.871489 0.398016 0.460456
0.897246 0.606806 0.602533
0.000000 0.236698 0.407233
0.000000 0.233433 0.410742
0.000000 0.195254 0.407691
0.284916 0.153506 0.371740
0.528069 0.000000 0.376013
0.767025 0.108919 0.400244
0.867399 0.423438 0.471168
0.893065 0.617395 0.611688
0.000000 0.312902 0.431617
0.000000 0.311559 0.433570
0.000000 0.298802 0.442023
0.306889 0.237400 0.421607
0.555657 0.197940 0.403693
0.757168 0.289891 0.421149
0.848051 0.500008 0.507897
0.880552 0.641810 0.630945
0.000000 0.435828 0.470832
0.000000 0.435920 0.472084
0.000000 0.439734 0.481209
0.314092 0.443275 0.497963
0.598932 0.410010 0.471778
0.747250 0.504234 0.502800
0.819486 0.621607 0.600366
0.881834 0.659144 0.638941
0.000000 0.586908 0.519005
0.000000 0.588922 0.521141
0.000000 0.594049 0.527550
0.257816 0.602106 0.541497
0.618280 0.611933 0.565911
0.733730 0.623651 0.574975
0.822080 0.646235 0.599451
0.883787 0.678798 0.640681
0.000000 0.696010 0.544579
0.000000 0.696803 0.546349
0.000000 0.696803 0.550408
0.279973 0.698329 0.568353
0.595300 0.691188 0.600336
0.729702 0.694972 0.601709
0.824521 0.693660 0.608789
0.884672 0.716793 0.658656
0.000000 0.789578 0.616480
0.000000 0.787839 0.615839
0.000000 0.782498 0.618616
0.413489 0.774563 0.639094
0.626184 0.764981 0.674006
0.709041 0.744961 0.675563
0.808408 0.757504 0.658961
0.877379 0.754818 0.668116
0.129122 0.840879 0.690852
0.219181 0.839597 0.693050
0.390631 0.834653 0.703212
0.563592 0.828397 0.728756
0.686030 0.820127 0.752621
0.755093 0.810727 0.762905
0.798489 0.806790 0.755032
0.874388 0.814908 0.745998
0.000000 0.333837 0.601465
0.000000 0.329076 0.603052
0.000000 0.305241 0.606531
0.160342 0.227634 0.590570
0.526787 0.185550 0.546502
0.750393 0.090425 0.541955
0.880369 0.320256 0.542138
0.908690 0.577020 0.630976
0.000000 0.349187 0.597162
0.000000 0.343725 0.597742
0.000000 0.320378 0.600031
0.143648 0.240055 0.582666
0.517754 0.204257 0.538903
0.741573 0.138918 0.536645
0.873228 0.332311 0.539269
0.904936 0.577844 0.628443
0.000000 0.431037 0.629206
0.000000 0.428626 0.629297
0.000000 0.413123 0.630304
0.144137 0.337621 0.616571
0.535119 0.312535 0.574823
0.747402 0.298161 0.562799
0.860319 0.438819 0.568902
0.892973 0.618952 0.654963
0.000000 0.530266 0.651545
0.000000 0.528801 0.650538
0.000000 0.529320 0.653223
0.256016 0.536156 0.662867
0.566613 0.502739 0.643061
0.749905 0.498543 0.621180
0.838437 0.582879 0.634394
0.876890 0.683406 0.705318
0.000000 0.627344 0.661769
0.000000 0.627405 0.662043
0.000000 0.628931 0.664454
0.189761 0.634516 0.671382
0.574365 0.643458 0.680934
0.731533 0.627161 0.661952
0.812436 0.674098 0.685176
0.859373 0.731350 0.743526
0.000000 0.724910 0.685420
0.000000 0.726619 0.688380
0.000000 0.725521 0.689693
0.211368 0.723293 0.693843
0.556847 0.721462 0.702541
0.741268 0.730678 0.726833
0.809354 0.738125 0.734951
0.866789 0.751247 0.750790
0.000000 0.797818 0.710780
0.000000 0.797879 0.712886
0.000000 0.795285 0.715755
0.359258 0.790433 0.722713
0.585779 0.785641 0.735744
0.735286 0.777279 0.752712
0.807675 0.775021 0.746853
0.870542 0.774655 0.748836
0.000000 0.851865 0.746578
0.000000 0.850889 0.746212
0.106600 0.847166 0.748470
0.432441 0.840391 0.755581
0.614130 0.830503 0.767453
0.745968 0.821347 0.787411
0.800229 0.809201 0.788785
0.869413 0.819181 0.782712
0.000000 0.445624 0.747646
0.000000 0.443458 0.747921
0.000000 0.436072 0.746792
0.000000 0.377386 0.741848
0.461036 0.348577 0.720485
0.693538 0.329595 0.691829
0.854612 0.349950 0.677729
0.916197 0.497993 0.669062
0.000000 0.458961 0.747250
0.000000 0.457130 0.747585
0.000000 0.449989 0.746548
0.000000 0.400763 0.741390
0.461250 0.365789 0.720943
0.691646 0.347875 0.691859
0.850919 0.365667 0.677607
0.912810 0.505486 0.669398
0.000000 0.513878 0.753567
0.000000 0.512230 0.753353
0.000000 0.506493 0.751888
0.189731 0.499763 0.748257
0.474586 0.444862 0.731930
0.692714 0.433204 0.703365
0.842069 0.449104 0.691188
0.901427 0.559899 0.688655
0.000000 0.585107 0.761135
0.000000 0.584344 0.760311
0.000000 0.585870 0.759884
0.192691 0.590723 0.758297
0.505394 0.562585 0.750423
0.694697 0.553582 0.724208
0.825772 0.559533 0.714412
0.884337 0.631678 0.718166
0.000000 0.662013 0.767514
0.000000 0.661830 0.767117
0.000000 0.662348 0.766690
0.078187 0.665431 0.766476
0.541405 0.673945 0.766140
0.695613 0.654170 0.752132
0.809506 0.652064 0.740200
0.868894 0.699947 0.752621
0.000000 0.739376 0.777920
0.000000 0.739284 0.777981
0.000000 0.738674 0.778012
0.187747 0.737667 0.778195
0.524681 0.737270 0.779355
0.708125 0.741054 0.784268
0.804044 0.732265 0.774746
0.861143 0.760159 0.790616
0.000000 0.805814 0.792599
0.000000 0.805386 0.792813
0.000000 0.803067 0.792874
0.300084 0.798795 0.793484
0.545922 0.793454 0.794949
0.703456 0.790219 0.799527
0.816373 0.795346 0.812436
0.864836 0.798489 0.814725
0.000000 0.854643 0.804837
0.000000 0.854002 0.805112
0.000000 0.851408 0.806516
0.390478 0.846525 0.808865
0.574426 0.840574 0.812558
0.705928 0.835996 0.817990
0.811063 0.828916 0.825345
0.869810 0.828275 0.822690
0.000000 0.588098 0.839292
0.000000 0.589990 0.838895
0.000000 0.597711 0.836362
0.393957 0.605280 0.832303
0.516320 0.566491 0.827573
0.680812 0.562310 0.814603
0.809323 0.554437 0.802152
0.900755 0.582361 0.791531
0.000000 0.594812 0.838773
0.000000 0.596643 0.838376
0.000000 0.604059 0.836088
0.409339 0.616205 0.831662
0.519432 0.575036 0.827359
0.680842 0.570214 0.814572
0.807584 0.561730 0.801877
0.898802 0.587274 0.791409
0.000000 0.623590 0.839048
0.000000 0.624781 0.838621
0.000000 0.630182 0.836393
0.427924 0.645808 0.832334
0.537896 0.611780 0.828611
0.684108 0.604761 0.816556
0.803433 0.596277 0.803830
0.892180 0.614527 0.795102
0.000000 0.663996 0.839963
0.000000 0.665400 0.839689
0.000000 0.670954 0.838224
0.401251 0.680385 0.834714
0.590600 0.679774 0.830106
0.690517 0.657008 0.821592
0.798245 0.648676 0.808743
0.882292 0.657893 0.802609
0.000000 0.711269 0.841703
0.000000 0.711696 0.841550
0.000000 0.712428 0.840574
0.325353 0.718593 0.838285
0.579950 0.725887 0.834592
0.694881 0.709316 0.829252
0.793606 0.700862 0.815763
0.872679 0.703761 0.812222
0.000000 0.767361 0.844419
0.000000 0.767025 0.844175
0.000000 0.766140 0.843290
0.296361 0.765042 0.841886
0.526238 0.763729 0.840208
0.701259 0.766384 0.838346
0.793149 0.752438 0.830594
0.867033 0.751308 0.825681
0.000000 0.820554 0.849821
0.000000 0.820127 0.849699
0.000000 0.818448 0.849180
0.359380 0.815488 0.848417
0.546471 0.811398 0.847440
0.683406 0.807004 0.846708
0.795560 0.803983 0.847166
0.867185 0.796048 0.841215
0.000000 0.865415 0.857725
0.000000 0.864866 0.857664
0.235630 0.862699 0.857481
0.428687 0.858793 0.857298
0.575555 0.853483 0.856992
0.692714 0.847990 0.856870
0.790585 0.843595 0.857664
0.882963 0.846860 0.864683
