20 Preset/Natural Wedding/【3】LUT video cho PR-AE-FCPX/Lut Tone (9).cube
# Created by Adobe Lightroom plugin Export LUT (1.24.0)
# www.johnrellis.com/lightroom/exportlut.htm
# Preset: 清新婚礼-素材江湖09
# Color profile: C:\Program Files (x86)\Common Files\Adobe\Color\Profiles\Recommended\VideoHD.icc
LUT_3D_SIZE 32
DOMAIN_MIN 0.0 0.0 0.0
DOMAIN_MAX 1.0 1.0 1.0
0.000000 0.000000 0.000000
0.001282 0.000977 0.000000
0.005524 0.002716 0.000641
0.012299 0.006409 0.001160
0.030579 0.012146 0.002258
0.077485 0.019104 0.003784
0.118898 0.022827 0.004425
0.174594 0.012238 0.005798
0.244938 0.000000 0.008179
0.320684 0.000000 0.011810
0.399390 0.000000 0.018952
0.477455 0.000000 0.029725
0.553063 0.000000 0.051820
0.622766 0.000000 0.092164
0.684718 0.000000 0.122560
0.737118 0.000000 0.156710
0.780270 0.074342 0.191257
0.813657 0.174929 0.225315
0.838163 0.237369 0.257908
0.855650 0.290440 0.289494
0.867521 0.337011 0.320836
0.875364 0.386358 0.358129
0.878508 0.430976 0.396887
0.878080 0.470161 0.435737
0.875486 0.504753 0.473426
0.871489 0.536065 0.509117
0.866728 0.564721 0.542687
0.861570 0.591424 0.573938
0.856474 0.616175 0.602411
0.852171 0.638788 0.627466
0.848997 0.659022 0.649134
0.846769 0.677180 0.668025
0.000977 0.000977 0.000977
0.001282 0.000977 0.000000
0.005524 0.002716 0.000641
0.012299 0.006409 0.001160
0.028595 0.012360 0.002289
0.075502 0.019318 0.003815
0.116854 0.023713 0.004456
0.170230 0.016571 0.005768
0.239475 0.000000 0.008423
0.314549 0.000000 0.012360
0.391943 0.000000 0.018921
0.470008 0.000000 0.029389
0.545586 0.000000 0.047883
0.615839 0.000000 0.089021
0.678218 0.000000 0.118776
0.731655 0.000000 0.152651
0.775906 0.054749 0.187564
0.810452 0.169345 0.221805
0.835721 0.232914 0.254551
0.853819 0.285954 0.286076
0.866209 0.332830 0.317174
0.874571 0.380926 0.353368
0.878141 0.424720 0.390753
0.878264 0.463386 0.428290
0.876097 0.497871 0.465400
0.872465 0.529198 0.500969
0.867887 0.558160 0.534936
0.862760 0.585382 0.566888
0.857511 0.610864 0.596429
0.852964 0.634272 0.622492
0.849485 0.655238 0.645136
0.847135 0.673976 0.664820
0.001801 0.005341 0.001495
0.001801 0.005341 0.001495
0.002106 0.005341 0.000366
0.010163 0.010010 0.000702
0.028443 0.015747 0.001831
0.070680 0.024353 0.003204
0.113771 0.030640 0.003723
0.165591 0.025483 0.005127
0.233433 0.000000 0.006653
0.307866 0.000000 0.010590
0.385077 0.000000 0.016022
0.463020 0.000000 0.025391
0.538537 0.000000 0.044068
0.608850 0.000000 0.084871
0.672175 0.000000 0.115602
0.726162 0.000000 0.149294
0.771267 0.079500 0.184176
0.806790 0.172457 0.218509
0.833036 0.233707 0.251499
0.851835 0.285954 0.283177
0.864775 0.332433 0.314549
0.873533 0.380377 0.350683
0.877470 0.422980 0.387335
0.877897 0.461006 0.424414
0.876066 0.495033 0.460945
0.872679 0.526207 0.496559
0.868193 0.555291 0.530602
0.863157 0.582574 0.562921
0.857939 0.608362 0.592981
0.853269 0.632074 0.619715
0.849668 0.653376 0.642847
0.847166 0.672358 0.662837
0.002045 0.016480 0.002228
0.002045 0.016480 0.002228
0.004761 0.015045 0.002380
0.007019 0.014832 0.001221
0.023896 0.022950 0.002045
0.063722 0.032990 0.002167
0.109651 0.042359 0.003571
0.159701 0.041840 0.003601
0.226749 0.017121 0.004791
0.300053 0.000000 0.008453
0.377111 0.000000 0.013336
0.454078 0.000000 0.021241
0.529778 0.000000 0.037110
0.600183 0.000000 0.078004
0.663722 0.000000 0.110933
0.718288 0.000000 0.144320
0.764157 0.107912 0.179019
0.800717 0.180697 0.213138
0.828122 0.237125 0.246433
0.847959 0.286961 0.278080
0.861784 0.331701 0.309270
0.871397 0.378485 0.345068
0.876036 0.419684 0.380682
0.877165 0.457038 0.417365
0.875761 0.491524 0.454444
0.872526 0.523461 0.491157
0.868193 0.553338 0.526574
0.863096 0.581445 0.560143
0.857816 0.607630 0.591119
0.853117 0.631556 0.618311
0.849516 0.652735 0.641596
0.847074 0.671473 0.661463
0.006806 0.031495 0.004608
0.007507 0.030304 0.004761
0.007507 0.030304 0.004761
0.011231 0.027680 0.003906
0.017182 0.027008 0.003906
0.052491 0.042084 0.002289
0.102907 0.058350 0.001831
0.149325 0.065248 0.001556
0.213962 0.050629 0.002533
0.286320 0.015229 0.005280
0.362158 0.000000 0.007233
0.439826 0.000000 0.014221
0.515251 0.000000 0.026459
0.586938 0.000000 0.061769
0.651850 0.000000 0.104219
0.708003 0.027558 0.137942
0.755947 0.139193 0.173648
0.794369 0.197910 0.208682
0.823087 0.248936 0.242313
0.843992 0.295109 0.274479
0.859007 0.338903 0.306859
0.869047 0.382879 0.342199
0.874113 0.422095 0.377234
0.875761 0.458381 0.413703
0.874723 0.492256 0.451179
0.871794 0.523888 0.488136
0.867582 0.553521 0.524041
0.862638 0.581262 0.557824
0.857481 0.607294 0.589014
0.852811 0.631037 0.616480
0.849241 0.652125 0.639887
0.846738 0.670863 0.659998
0.008484 0.059113 0.009857
0.008484 0.059113 0.009857
0.010224 0.056703 0.009033
0.014343 0.052857 0.009461
0.020325 0.050019 0.007477
0.037812 0.047028 0.004150
0.094209 0.070192 0.002960
0.140444 0.086702 0.000000
0.202365 0.088624 0.000000
0.274144 0.080110 0.000000
0.349950 0.048768 0.000732
0.427375 0.008789 0.004608
0.503197 0.000000 0.014710
0.575433 0.000000 0.046815
0.641413 0.063874 0.097719
0.699336 0.127535 0.133059
0.748165 0.175967 0.169192
0.788205 0.222965 0.204898
0.818143 0.267430 0.239322
0.839841 0.309575 0.271977
0.856077 0.352392 0.306493
0.866423 0.393194 0.341558
0.873136 0.465248 0.411902
0.872374 0.499702 0.451820
0.869535 0.530938 0.490059
0.865507 0.559472 0.525780
0.860868 0.585718 0.558801
0.856107 0.609949 0.588617
0.851743 0.632105 0.614862
0.848447 0.651881 0.637385
0.846128 0.669459 0.656672
0.844602 0.685115 0.673365
0.014496 0.096529 0.024414
0.015503 0.096132 0.023407
0.019226 0.095216 0.022583
0.029023 0.092836 0.022156
0.040284 0.089448 0.022065
0.054719 0.087465 0.013397
0.085115 0.082338 0.007050
0.134463 0.098817 0.004059
0.200229 0.109957 0.000000
0.274052 0.114870 0.000000
0.351904 0.114992 0.000000
0.430274 0.114687 0.000000
0.506828 0.118685 0.000702
0.579004 0.132143 0.037354
0.644251 0.155795 0.097383
0.700618 0.187320 0.134859
0.748714 0.223606 0.172213
0.787686 0.261509 0.208438
0.816922 0.299657 0.242802
0.839048 0.338598 0.277501
0.855894 0.382025 0.316472
0.865599 0.422309 0.355840
0.869932 0.460060 0.396338
0.870481 0.495399 0.438178
0.868376 0.527855 0.479103
0.864744 0.556939 0.516899
0.860380 0.583215 0.551171
0.855802 0.607324 0.581964
0.851469 0.629572 0.609186
0.848051 0.649378 0.632410
0.845640 0.667170 0.652491
0.844144 0.683009 0.669795
0.022248 0.125978 0.048402
0.022950 0.125704 0.048554
0.028382 0.124483 0.046876
0.038941 0.122042 0.044648
0.061799 0.117678 0.047669
0.079072 0.113893 0.041352
0.095064 0.110811 0.025269
0.117128 0.105562 0.013886
0.179660 0.122225 0.003571
0.253239 0.136599 0.000000
0.331579 0.147311 0.000000
0.410040 0.154635 0.000000
0.487160 0.163851 0.000000
0.559838 0.177829 0.010773
0.626307 0.197971 0.081605
0.684565 0.223423 0.124117
0.734218 0.253605 0.162936
0.775692 0.285954 0.200229
0.807248 0.319219 0.235782
0.832670 0.357977 0.273899
0.849973 0.395361 0.311681
0.860563 0.431189 0.349859
0.866026 0.465553 0.389593
0.867552 0.498390 0.430854
0.866209 0.529198 0.471717
0.863188 0.557244 0.509972
0.859251 0.582849 0.544854
0.854887 0.606592 0.576440
0.850645 0.628717 0.604608
0.847257 0.648524 0.628748
0.844846 0.666377 0.649439
0.843290 0.682338 0.667323
0.037476 0.165438 0.087922
0.038788 0.165255 0.086580
0.044923 0.164248 0.085603
0.059236 0.161807 0.082429
0.089631 0.157992 0.084596
0.107027 0.152163 0.088563
0.114351 0.148684 0.070161
0.133272 0.143954 0.042664
0.162295 0.135744 0.024842
0.234653 0.153841 0.007660
0.311162 0.170291 0.000000
0.390204 0.185977 0.000000
0.467872 0.200168 0.000000
0.541650 0.216129 0.000000
0.609339 0.236027 0.048646
0.669032 0.259098 0.113344
0.720485 0.285313 0.154604
0.763668 0.313787 0.192966
0.799527 0.347082 0.232547
0.825376 0.380041 0.270512
0.843381 0.412360 0.307622
0.854948 0.443946 0.345281
0.861357 0.474830 0.384588
0.863828 0.504936 0.425513
0.863310 0.533684 0.466377
0.860838 0.560327 0.504845
0.857359 0.584924 0.540215
0.853330 0.607996 0.572381
0.849241 0.629694 0.601312
0.845975 0.649256 0.626032
0.843595 0.666896 0.647211
0.842191 0.682734 0.665431
0.093965 0.211551 0.121859
0.094911 0.211124 0.121401
0.098390 0.210086 0.120516
0.104677 0.207919 0.118166
0.117006 0.204685 0.117464
0.136294 0.199283 0.120027
0.150759 0.193423 0.119814
0.160433 0.189029 0.100862
0.182956 0.182406 0.072969
0.215488 0.171481 0.041871
0.292699 0.191012 0.017487
0.367437 0.208804 0.000000
0.445533 0.228763 0.000000
0.520104 0.248234 0.000000
0.589624 0.268681 0.010040
0.651881 0.291539 0.100343
0.706569 0.317052 0.146212
0.754482 0.346715 0.189639
0.790982 0.375708 0.229648
0.817411 0.404059 0.267491
0.836179 0.431647 0.304234
0.848508 0.458625 0.340948
0.855894 0.485206 0.378820
0.859403 0.511559 0.418128
0.859922 0.537255 0.457893
0.858335 0.561852 0.496071
0.855436 0.585382 0.532128
0.851774 0.607935 0.565423
0.847868 0.629480 0.595758
0.844602 0.649256 0.621851
0.842252 0.667048 0.644129
0.840818 0.683162 0.663294
0.134524 0.259403 0.164950
0.134737 0.259312 0.164797
0.137850 0.258488 0.163851
0.142641 0.256931 0.161929
0.150881 0.254795 0.159518
0.170199 0.250401 0.162539
0.189975 0.244968 0.167239
0.200015 0.239872 0.157931
0.213260 0.234318 0.134737
0.239170 0.226627 0.106630
0.274144 0.213443 0.083345
0.352605 0.234836 0.060517
0.426642 0.255375 0.013306
0.500877 0.276982 0.000000
0.571527 0.300206 0.000000
0.637720 0.325475 0.088197
0.694972 0.351202 0.140261
0.742916 0.377386 0.184695
0.780362 0.402899 0.224949
0.807736 0.427100 0.262608
0.827543 0.450721 0.299260
0.841154 0.474159 0.336095
0.849699 0.497749 0.373938
0.854276 0.521355 0.413245
0.855711 0.544945 0.453193
0.854826 0.567834 0.491768
0.852476 0.590082 0.528283
0.849271 0.611627 0.562249
0.845670 0.632349 0.593103
0.842588 0.651637 0.619837
0.840391 0.669093 0.642603
0.839200 0.684871 0.662074
0.178134 0.313512 0.213626
0.178805 0.313481 0.213352
0.180819 0.312963 0.212680
0.185977 0.311894 0.211429
0.192844 0.310185 0.209628
0.207462 0.307164 0.210605
0.228428 0.302678 0.215030
0.248295 0.296849 0.220279
0.254032 0.291752 0.200687
0.270573 0.285161 0.175448
0.298863 0.275975 0.144259
0.335210 0.260990 0.120699
0.438880 0.305394 0.132937
0.516014 0.332799 0.121462
0.587579 0.358556 0.115267
0.651972 0.385504 0.132479
0.706142 0.409644 0.158968
0.750973 0.433448 0.203677
0.784482 0.455055 0.244572
0.809049 0.475257 0.283513
0.826413 0.494911 0.321691
0.837919 0.514031 0.359411
0.844938 0.533349 0.398352
0.848356 0.553216 0.437964
0.849241 0.572869 0.476509
0.848295 0.592248 0.513085
0.846250 0.611048 0.546899
0.843565 0.629358 0.577661
0.840818 0.647028 0.605127
0.838651 0.663539 0.628962
0.837308 0.678798 0.649531
0.836728 0.692836 0.667414
0.235080 0.382238 0.270726
0.235386 0.382055 0.270481
0.236484 0.380896 0.269169
0.240421 0.379492 0.267643
0.246128 0.377325 0.265690
0.255192 0.374304 0.264317
0.274998 0.369940 0.267704
0.295293 0.364752 0.272404
0.310277 0.360266 0.271336
0.319646 0.356725 0.252079
0.341588 0.352117 0.228824
0.375982 0.345708 0.200137
0.418067 0.332799 0.179843
0.497627 0.360662 0.181491
0.569940 0.388861 0.173556
0.632990 0.412024 0.165347
0.687984 0.436164 0.180911
0.733669 0.456611 0.198581
0.769100 0.475380 0.234684
0.795590 0.492683 0.273564
0.815061 0.509392 0.311345
0.828672 0.526207 0.349462
0.837400 0.543267 0.388342
0.842374 0.560815 0.428107
0.844419 0.578668 0.467353
0.844388 0.596643 0.504845
0.842985 0.614527 0.539879
0.840726 0.632197 0.572015
0.838254 0.649470 0.600946
0.836271 0.665736 0.625879
0.835111 0.680781 0.647303
0.834653 0.694667 0.665797
0.285191 0.440711 0.317327
0.285374 0.440558 0.317266
0.286839 0.439857 0.316442
0.290013 0.438697 0.315160
0.294560 0.437018 0.313359
0.301854 0.435370 0.311894
0.318547 0.432624 0.314611
0.338506 0.429236 0.319310
0.360204 0.425788 0.325994
0.369665 0.422248 0.316899
0.381323 0.417914 0.296605
0.404120 0.411933 0.272648
0.438239 0.404089 0.243900
0.477577 0.389258 0.224552
0.550072 0.414343 0.225772
0.614252 0.440131 0.218814
0.668574 0.459571 0.210391
0.715419 0.479927 0.221775
0.752895 0.496742 0.238407
0.781582 0.510918 0.264408
0.803067 0.525536 0.302556
0.818784 0.540307 0.341192
0.829282 0.555474 0.380682
0.835691 0.571252 0.421210
0.838834 0.587304 0.461036
0.839719 0.603815 0.499489
0.838987 0.620386 0.535363
0.837278 0.636988 0.568322
0.835203 0.653437 0.598047
0.833463 0.669184 0.623804
0.832517 0.683803 0.645747
0.832334 0.697383 0.664729
0.338750 0.501061 0.369421
0.339147 0.500969 0.369207
0.340063 0.500145 0.368292
0.342138 0.498665 0.366644
0.345647 0.496742 0.364477
0.351232 0.494545 0.362280
0.361822 0.491920 0.362097
0.380224 0.488869 0.366522
0.400000 0.485908 0.372534
0.420142 0.483101 0.380041
0.424628 0.479194 0.360632
0.438270 0.474311 0.338903
0.461341 0.467811 0.313695
0.493874 0.458534 0.283696
0.529931 0.442023 0.264469
0.594079 0.462928 0.265171
0.650202 0.485573 0.258427
0.697353 0.502190 0.251652
0.736385 0.518242 0.260716
0.766842 0.531518 0.277165
0.790768 0.542687 0.295628
0.808347 0.555627 0.334081
0.820584 0.568811 0.374060
0.828397 0.582666 0.414984
0.832731 0.597192 0.455756
0.834470 0.612085 0.494972
0.834470 0.627375 0.531731
0.833280 0.643091 0.565881
0.831571 0.658961 0.596796
0.830198 0.674281 0.623438
0.829557 0.688624 0.646204
0.829709 0.702022 0.665736
0.386114 0.551476 0.420722
0.386816 0.551629 0.420874
0.387671 0.551202 0.420172
0.389868 0.550500 0.419135
0.393408 0.549432 0.417670
0.398352 0.548028 0.415930
0.405646 0.547051 0.415076
0.422034 0.545251 0.419867
0.440192 0.543572 0.426246
0.459174 0.541497 0.434119
0.471015 0.538415 0.431739
0.476844 0.533379 0.409308
0.490120 0.526543 0.383307
0.511650 0.517723 0.354131
0.540917 0.506188 0.320439
0.572412 0.487709 0.300420
0.628992 0.504448 0.300816
0.678065 0.524254 0.295445
0.718502 0.537896 0.290074
0.751003 0.550317 0.297978
0.776547 0.561944 0.315526
0.796811 0.572137 0.335546
0.811307 0.583062 0.368658
0.820554 0.595392 0.410590
0.826017 0.608423 0.452338
0.828672 0.622156 0.492988
0.829313 0.636347 0.530785
0.828733 0.650874 0.565576
0.827543 0.665644 0.596857
0.826627 0.679927 0.623560
0.826444 0.693355 0.646296
0.826932 0.705989 0.665705
0.428931 0.594354 0.471992
0.429480 0.594263 0.471870
0.430182 0.593835 0.471351
0.432105 0.593408 0.470680
0.435096 0.592859 0.469490
0.439673 0.592065 0.468421
0.445624 0.591333 0.467689
0.457130 0.590204 0.470222
0.472847 0.588617 0.475837
0.489357 0.587060 0.482826
0.506157 0.585138 0.490852
0.511803 0.581476 0.477852
0.518334 0.575982 0.453803
0.531823 0.568902 0.426032
0.552636 0.559716 0.393957
0.580560 0.548058 0.357916
0.609247 0.529503 0.337011
0.658747 0.542901 0.338384
0.701381 0.559686 0.334356
0.735073 0.570092 0.330144
0.762478 0.580285 0.338476
0.783871 0.590600 0.357671
0.800320 0.599634 0.379339
0.812314 0.608637 0.406989
0.818936 0.620111 0.449561
0.822477 0.632471 0.490944
0.823880 0.645533 0.530083
0.823880 0.659052 0.565667
0.823178 0.672786 0.597375
0.822782 0.686183 0.624414
0.823026 0.698970 0.647303
0.824002 0.710933 0.666773
0.470710 0.632593 0.523339
0.471199 0.632715 0.523552
0.491585 0.647913 0.546349
0.492927 0.647639 0.545769
0.495277 0.647181 0.544915
0.498756 0.646601 0.544213
0.503319 0.645930 0.543389
0.509880 0.644984 0.543511
0.522240 0.643824 0.548058
0.535790 0.642542 0.553704
0.549615 0.641108 0.560143
0.561883 0.639155 0.564752
0.562768 0.634607 0.544427
0.568536 0.628473 0.519280
0.580591 0.620752 0.489631
0.599481 0.611017 0.454841
0.625025 0.598901 0.414588
0.650019 0.579706 0.390723
0.689937 0.587427 0.391638
0.723507 0.598993 0.387854
0.750759 0.606012 0.383825
0.772671 0.613611 0.392767
0.789151 0.621668 0.412879
0.801602 0.628931 0.434455
0.811124 0.635767 0.456947
0.815763 0.645502 0.494759
0.817899 0.656428 0.532525
0.818570 0.668238 0.567590
0.818570 0.680598 0.598993
0.818753 0.692805 0.625666
0.819486 0.704677 0.648432
0.820920 0.715938 0.667842
0.516136 0.666438 0.575250
0.518120 0.667628 0.577295
0.520653 0.668727 0.579126
0.523552 0.669581 0.580529
0.526757 0.670100 0.581476
0.529961 0.670008 0.581415
0.533959 0.669612 0.581262
0.538384 0.668971 0.580804
0.547356 0.668025 0.583520
0.558404 0.666896 0.587884
0.570062 0.665797 0.592920
0.581750 0.664363 0.598535
0.587121 0.661830 0.594202
0.587915 0.657588 0.575036
0.593683 0.652125 0.551720
0.605310 0.645197 0.523369
0.623499 0.636713 0.489815
0.648371 0.626581 0.451179
0.671565 0.608911 0.428656
0.705562 0.614282 0.431250
0.734340 0.623743 0.428717
0.758206 0.629938 0.426368
0.776486 0.636683 0.437324
0.789822 0.643763 0.457771
0.800015 0.650202 0.478706
0.807767 0.656703 0.500481
0.812070 0.665095 0.530816
0.813474 0.675654 0.566278
0.813993 0.687098 0.598260
0.814664 0.698512 0.625422
0.815824 0.709651 0.648493
0.817685 0.720394 0.668147
0.549737 0.687434 0.610071
0.551446 0.688380 0.611627
0.553765 0.689448 0.613336
0.556390 0.690242 0.614801
0.559136 0.690730 0.615717
0.561852 0.690791 0.615961
0.564843 0.690547 0.615869
0.568353 0.690059 0.615686
0.574029 0.689509 0.616754
0.582605 0.688594 0.619837
0.591791 0.687648 0.623529
0.601404 0.686610 0.627710
0.610651 0.685359 0.632044
0.611139 0.682490 0.621698
0.612390 0.678614 0.605097
0.617609 0.673854 0.584283
0.628199 0.667872 0.558099
0.645136 0.660670 0.527092
0.668727 0.652064 0.490517
0.689509 0.635859 0.469764
0.718135 0.638880 0.472450
0.742519 0.646571 0.470863
0.763027 0.651423 0.468818
0.777859 0.657588 0.482490
0.788663 0.663935 0.502068
0.797116 0.669978 0.522026
0.803647 0.676173 0.542260
0.808072 0.683589 0.565942
0.809232 0.693874 0.598199
0.810422 0.704524 0.625727
0.812070 0.714992 0.649012
0.814328 0.725124 0.668727
0.580133 0.705653 0.639673
0.581537 0.706386 0.640864
0.583185 0.707118 0.642023
0.585260 0.707729 0.643122
0.587335 0.708125 0.643824
0.589288 0.708125 0.643946
0.591699 0.708034 0.643946
0.594507 0.707729 0.643885
0.597864 0.707424 0.644007
0.604547 0.706783 0.646326
0.611902 0.706081 0.649073
0.619532 0.705257 0.652216
0.627283 0.704372 0.655573
0.633204 0.702998 0.656733
0.632288 0.700252 0.645228
0.633845 0.696986 0.631189
0.638911 0.693050 0.613825
0.648920 0.688380 0.592248
0.664576 0.683040 0.565881
0.686488 0.676692 0.534325
0.705104 0.662867 0.517144
0.729030 0.664820 0.521019
0.749081 0.670741 0.520226
0.766201 0.674678 0.519371
0.777493 0.680934 0.536553
0.786130 0.686885 0.554955
0.792966 0.692897 0.573297
0.798581 0.699214 0.591485
0.803403 0.706050 0.609155
0.805631 0.715389 0.634760
0.808072 0.724971 0.656947
0.811124 0.734157 0.675593
0.613581 0.724514 0.670222
0.614160 0.724788 0.670649
0.614771 0.724910 0.670893
0.615564 0.724971 0.671046
0.616571 0.724941 0.671046
0.617609 0.724758 0.670802
0.619196 0.724514 0.670619
0.621088 0.724300 0.670497
0.623590 0.724056 0.670558
0.627924 0.723720 0.671778
0.633600 0.723262 0.673854
0.639673 0.722713 0.676234
0.645808 0.722072 0.678767
0.651881 0.721218 0.681331
0.653681 0.719722 0.678187
0.653101 0.717433 0.668574
0.654658 0.714626 0.656764
0.659236 0.711330 0.642481
0.667781 0.707454 0.624689
0.681147 0.702785 0.602502
0.700374 0.697292 0.574426
0.715999 0.684657 0.558709
0.735592 0.684565 0.560418
0.752255 0.688380 0.558190
0.766506 0.691798 0.559411
0.775723 0.697719 0.576013
0.783261 0.703456 0.592462
0.789578 0.709377 0.608453
0.795224 0.715572 0.623957
0.800473 0.722194 0.638941
0.804227 0.730404 0.658167
0.807736 0.739132 0.676905
0.635279 0.736385 0.689052
0.635645 0.736507 0.689326
0.636164 0.736629 0.689570
0.636774 0.736721 0.689693
0.637537 0.736721 0.689723
0.638544 0.736568 0.689631
0.639673 0.736446 0.689540
0.641199 0.736263 0.689479
0.643214 0.736110 0.689540
0.645808 0.735988 0.689967
0.650355 0.735653 0.691615
0.655177 0.735225 0.693446
0.660029 0.734798 0.695369
0.665034 0.734249 0.697414
0.669947 0.733608 0.699580
0.669337 0.732082 0.693904
0.669184 0.730190 0.685817
0.670802 0.727932 0.676081
0.675074 0.725307 0.664149
0.682643 0.722133 0.649561
0.694362 0.718441 0.631556
0.710628 0.713710 0.608881
0.724056 0.703029 0.595880
0.740261 0.702144 0.596826
0.754147 0.702602 0.588861
0.765774 0.706477 0.594232
0.774044 0.712093 0.608606
0.781125 0.717678 0.622705
0.787503 0.723445 0.636439
0.793423 0.729580 0.649805
0.799222 0.736202 0.662776
0.804318 0.743648 0.677699
0.656519 0.748043 0.706935
0.656977 0.748287 0.707271
0.657313 0.748409 0.707393
0.657557 0.748318 0.707332
0.657832 0.748135 0.707088
0.658137 0.747890 0.706752
0.658625 0.747555 0.706325
0.659327 0.747189 0.705928
0.660487 0.746883 0.705623
0.661830 0.746548 0.705409
0.664607 0.746090 0.706050
0.668147 0.745632 0.707149
0.671839 0.745113 0.708370
0.675593 0.744533 0.709682
0.679438 0.743832 0.711086
0.681849 0.742855 0.710872
0.680690 0.741238 0.704891
0.680751 0.739437 0.697749
0.682521 0.737484 0.689357
0.686580 0.735286 0.679194
0.693507 0.732784 0.666957
0.704005 0.729671 0.651514
0.717922 0.725246 0.632227
0.729641 0.715938 0.621027
0.743557 0.714260 0.620600
0.756069 0.716060 0.616724
0.765286 0.720424 0.625544
0.773098 0.725551 0.637232
0.780087 0.730892 0.648981
0.786679 0.736507 0.660578
0.793118 0.742550 0.671962
0.799557 0.748959 0.683009
0.669581 0.756069 0.717922
0.669947 0.756283 0.718227
0.670314 0.756405 0.718410
0.670558 0.756435 0.718441
0.670985 0.756344 0.718379
0.671443 0.756283 0.718257
0.672114 0.756161 0.718166
0.672999 0.756069 0.718074
0.674098 0.755978 0.718074
0.675410 0.755886 0.718105
0.677302 0.755734 0.718471
0.680262 0.755428 0.719417
0.683314 0.755093 0.720455
0.686458 0.754665 0.721462
0.689570 0.754116 0.722499
0.692714 0.753506 0.723629
0.693172 0.752377 0.721370
0.692561 0.750942 0.716335
0.692958 0.749447 0.710536
0.694820 0.747799 0.703578
0.698543 0.745937 0.695216
0.704616 0.743771 0.684993
0.713619 0.741207 0.672206
0.725246 0.737118 0.656001
0.735348 0.729397 0.646937
0.747341 0.727596 0.646082
0.757626 0.729946 0.646052
0.765774 0.734310 0.654444
0.773373 0.739406 0.664363
0.780575 0.744717 0.674189
0.787686 0.750332 0.683864
0.794858 0.756161 0.693263
0.682277 0.764614 0.728664
0.682460 0.764736 0.728786
0.682643 0.764767 0.728847
0.682826 0.764736 0.728817
0.683101 0.764675 0.728756
0.683436 0.764584 0.728664
0.683894 0.764492 0.728542
0.684504 0.764370 0.728389
0.685389 0.764279 0.728359
0.686397 0.764187 0.728298
0.687617 0.764065 0.728328
0.689967 0.763821 0.729030
0.692470 0.763546 0.729793
0.695094 0.763210 0.730617
0.697780 0.762753 0.731441
0.700435 0.762234 0.732296
0.703151 0.761624 0.733272
0.702419 0.760494 0.729641
0.702174 0.759243 0.725338
0.702968 0.757931 0.720394
0.704921 0.756497 0.714504
0.708370 0.754849 0.707515
0.713741 0.752895 0.698817
0.721614 0.750576 0.687922
0.731472 0.746731 0.674037
0.740352 0.740108 0.666072
0.750942 0.738247 0.664759
0.759304 0.741573 0.669368
0.767147 0.745571 0.675959
0.774868 0.750759 0.684535
0.782559 0.756100 0.692866
0.790311 0.761563 0.700923
0.692195 0.772183 0.737209
0.692378 0.772244 0.737270
0.692500 0.772305 0.737301
0.692744 0.772305 0.737362
0.693019 0.772366 0.737392
0.693507 0.772396 0.737423
0.694209 0.772549 0.737575
0.695094 0.772732 0.737819
0.696223 0.772976 0.738064
0.697475 0.773251 0.738430
0.698909 0.773526 0.738796
0.700923 0.773709 0.739498
0.703456 0.773800 0.740414
0.705928 0.773739 0.741299
0.708400 0.773587 0.742184
0.710872 0.773220 0.742916
0.713252 0.772763 0.743709
0.714565 0.772122 0.743313
0.714137 0.771115 0.740169
0.714321 0.770077 0.736599
0.715297 0.768917 0.732540
0.717250 0.767636 0.727779
0.720394 0.766110 0.722042
0.725032 0.764370 0.715053
0.731624 0.762325 0.706386
0.739528 0.758846 0.695613
0.747036 0.753414 0.689174
0.755550 0.753109 0.692195
0.763394 0.756161 0.695369
0.771176 0.759701 0.699733
0.779538 0.764675 0.706142
0.787839 0.769680 0.712551
0.703883 0.781918 0.747158
0.703883 0.781918 0.747158
0.703944 0.781888 0.747127
0.703975 0.781888 0.747066
0.704158 0.781827 0.747005
0.704433 0.781765 0.746944
0.704768 0.781735 0.746853
0.705287 0.781704 0.746822
0.705898 0.781704 0.746792
0.706722 0.781704 0.746822
0.707607 0.781704 0.746822
0.708705 0.781704 0.746944
0.710689 0.781582 0.747524
0.712795 0.781399 0.748135
