20 Preset/Natural Wedding/【3】LUT video cho PR-AE-FCPX/Lut Tone (1).cube
# Created by Adobe Lightroom plugin Export LUT (1.24.0)
# www.johnrellis.com/lightroom/exportlut.htm
# Preset: 清新婚礼-素材江湖01
# Color profile: C:\Program Files (x86)\Common Files\Adobe\Color\Profiles\Recommended\VideoHD.icc
LUT_3D_SIZE 32
DOMAIN_MIN 0.0 0.0 0.0
DOMAIN_MAX 1.0 1.0 1.0
0.000000 0.000000 0.000000
0.001984 0.000000 0.000000
0.001282 0.000977 0.000000
0.004242 0.001740 0.000824
0.011475 0.002045 0.000641
0.021973 0.003113 0.000275
0.040131 0.003265 0.001038
0.072023 0.005249 0.001251
0.102907 0.005859 0.000000
0.135805 0.003662 0.000000
0.188113 0.000000 0.000000
0.255344 0.000000 0.000000
0.330571 0.000000 0.000000
0.408026 0.000000 0.000000
0.482979 0.000000 0.000000
0.553613 0.000000 0.000000
0.618555 0.000000 0.000000
0.677516 0.000000 0.000000
0.730892 0.000000 0.000000
0.779080 0.000000 0.000000
0.822110 0.000000 0.000000
0.860044 0.000000 0.000000
0.892393 0.000000 0.000000
0.919768 0.000000 0.000000
0.943023 0.000000 0.000000
0.967498 0.000000 0.000000
0.987243 0.000000 0.000000
1.000000 0.000000 0.000000
1.000000 0.000000 0.000000
1.000000 0.000000 0.000000
1.000000 0.000000 0.000000
1.000000 0.033417 0.079072
0.000000 0.001190 0.000000
0.001282 0.000977 0.000000
0.003265 0.000763 0.000000
0.004242 0.001740 0.000824
0.011475 0.002045 0.000641
0.021973 0.003113 0.000275
0.037415 0.004700 0.000885
0.070039 0.005493 0.001282
0.101015 0.006531 0.000000
0.132784 0.005249 0.000000
0.182620 0.000000 0.000000
0.248478 0.000000 0.000000
0.322393 0.000000 0.000000
0.399542 0.000000 0.000000
0.474311 0.000000 0.000000
0.545586 0.000000 0.000000
0.611200 0.000000 0.000000
0.671138 0.000000 0.000000
0.725002 0.000000 0.000000
0.773495 0.000000 0.000000
0.816800 0.000000 0.000000
0.854978 0.000000 0.000000
0.887816 0.000000 0.000000
0.915740 0.000000 0.000000
0.939544 0.000000 0.000000
0.964019 0.000000 0.000000
0.983886 0.000000 0.000000
0.999847 0.000000 0.000000
1.000000 0.000000 0.000000
1.000000 0.000000 0.000000
1.000000 0.000000 0.000000
1.000000 0.000000 0.034272
0.000000 0.003388 0.000671
0.000000 0.003388 0.000671
0.001556 0.003174 0.000671
0.004791 0.003906 0.000488
0.009339 0.005646 0.000183
0.019532 0.006714 0.000977
0.037293 0.008087 0.000427
0.067201 0.010285 0.000671
0.099245 0.012757 0.000000
0.130678 0.011933 0.000000
0.179477 0.000000 0.000000
0.244968 0.000000 0.000000
0.318151 0.000000 0.000000
0.394079 0.000000 0.000000
0.468788 0.000000 0.000000
0.539940 0.000000 0.000000
0.605890 0.000000 0.000000
0.666041 0.000000 0.000000
0.720424 0.000000 0.000000
0.769497 0.000000 0.000000
0.813199 0.000000 0.000000
0.851682 0.000000 0.000000
0.884977 0.000000 0.000000
0.913298 0.000000 0.000000
0.937285 0.000000 0.000000
0.962097 0.000000 0.000000
0.981903 0.000000 0.000000
0.997894 0.000000 0.000000
1.000000 0.000000 0.000000
1.000000 0.000000 0.000000
1.000000 0.000000 0.000000
1.000000 0.000000 0.012940
0.000092 0.007752 0.002319
0.000092 0.007752 0.002319
0.001373 0.008728 0.002167
0.003662 0.008515 0.001038
0.010163 0.010010 0.000702
0.019959 0.012268 0.000183
0.034699 0.015076 0.000671
0.064210 0.018494 0.000000
0.099001 0.022919 0.000000
0.130404 0.023285 0.000000
0.179202 0.011322 0.000000
0.242863 0.000000 0.000000
0.315557 0.000000 0.000000
0.390204 0.000000 0.000000
0.463783 0.000000 0.000000
0.533928 0.000000 0.000000
0.599329 0.000000 0.000000
0.659022 0.000000 0.000000
0.713069 0.000000 0.000000
0.762112 0.000000 0.000000
0.806027 0.000000 0.000000
0.845212 0.000000 0.000000
0.879301 0.000000 0.000000
0.908782 0.000000 0.000000
0.934356 0.000000 0.000000
0.959564 0.000000 0.000000
0.979706 0.000000 0.000000
0.996185 0.000000 0.000000
1.000000 0.000000 0.000000
1.000000 0.000000 0.000000
1.000000 0.000000 0.000000
1.000000 0.000000 0.000122
0.001038 0.017670 0.003235
0.001038 0.017670 0.003235
0.001038 0.017670 0.003235
0.003021 0.017456 0.003204
0.009277 0.016785 0.002045
0.018372 0.020233 0.001404
0.032685 0.024262 0.000580
0.062776 0.029847 0.000000
0.097658 0.035706 0.000000
0.128542 0.039887 0.000000
0.176242 0.032654 0.000000
0.239017 0.000000 0.000000
0.309972 0.000000 0.000000
0.384283 0.000000 0.000000
0.457801 0.000000 0.000000
0.528008 0.000000 0.000000
0.594171 0.000000 0.000000
0.654627 0.000000 0.000000
0.709133 0.000000 0.000000
0.758328 0.000000 0.000000
0.802274 0.000000 0.000000
0.841520 0.000000 0.000000
0.876036 0.000000 0.000000
0.906035 0.000000 0.000000
0.933196 0.000000 0.000000
0.957885 0.000000 0.000000
0.977783 0.000000 0.000000
0.994171 0.000000 0.000000
1.000000 0.000000 0.000000
1.000000 0.000000 0.000000
1.000000 0.000000 0.000000
1.000000 0.092714 0.000000
0.000000 0.033600 0.005615
0.000000 0.033387 0.005615
0.000549 0.032166 0.005768
0.004822 0.031739 0.004608
0.009094 0.031281 0.003479
0.016632 0.031586 0.002136
0.035492 0.037324 0.001007
0.066133 0.045136 0.000000
0.098787 0.054353 0.000000
0.130495 0.062470 0.000000
0.179599 0.059236 0.000000
0.242252 0.035981 0.000000
0.312108 0.000000 0.000000
0.385260 0.000000 0.000000
0.458198 0.000000 0.000000
0.528374 0.000000 0.000000
0.593988 0.000000 0.000000
0.654078 0.000000 0.000000
0.708431 0.000000 0.000000
0.757473 0.000000 0.000000
0.801175 0.000000 0.000000
0.840116 0.000000 0.000000
0.897429 0.000000 0.000000
0.923308 0.000000 0.000000
0.950988 0.000000 0.000000
0.973693 0.000000 0.000000
0.991150 0.000000 0.000000
1.000000 0.000000 0.000000
1.000000 0.000000 0.000000
1.000000 0.072328 0.000000
1.000000 0.173251 0.000000
1.000000 0.232029 0.124849
0.000000 0.069398 0.008667
0.000000 0.069398 0.008667
0.000000 0.069184 0.008667
0.005493 0.067292 0.008789
0.012482 0.065431 0.007782
0.024720 0.061921 0.004639
0.044190 0.060883 0.003265
0.085664 0.074861 0.000000
0.113100 0.084504 0.000000
0.151858 0.090700 0.000000
0.205142 0.092866 0.000000
0.269169 0.090455 0.000000
0.338903 0.068299 0.000000
0.410651 0.006714 0.000000
0.481483 0.000000 0.000000
0.548028 0.000000 0.000000
0.610620 0.000000 0.000000
0.668208 0.000000 0.000000
0.720394 0.000000 0.000000
0.768246 0.000000 0.000000
0.811948 0.000000 0.000000
0.851255 0.000000 0.000000
0.885771 0.000000 0.000000
0.916991 0.000000 0.000000
0.946349 0.000000 0.000000
0.968750 0.000000 0.000000
0.986175 0.000000 0.000000
1.000000 0.000000 0.000000
1.000000 0.039704 0.000000
1.000000 0.151675 0.000000
1.000000 0.205142 0.000000
1.000000 0.251377 0.113588
0.000000 0.102754 0.013306
0.000000 0.102693 0.014435
0.000000 0.102541 0.014405
0.003662 0.102571 0.015351
0.017334 0.100679 0.012512
0.037690 0.098116 0.009796
0.063020 0.094850 0.006073
0.091707 0.093294 0.002502
0.123293 0.102083 0.000000
0.165347 0.109712 0.000000
0.218601 0.115694 0.000000
0.279728 0.118868 0.000000
0.345922 0.117067 0.000000
0.413062 0.109621 0.000000
0.479469 0.096895 0.000000
0.543236 0.057649 0.000000
0.604700 0.000000 0.000000
0.661830 0.000000 0.000000
0.714046 0.000000 0.000000
0.761563 0.000000 0.000000
0.804990 0.000000 0.000000
0.844266 0.000000 0.000000
0.879088 0.000000 0.000000
0.914397 0.000000 0.000000
0.941985 0.000000 0.000000
0.963745 0.000000 0.000000
0.980957 0.047944 0.000000
0.994873 0.126955 0.000000
1.000000 0.170047 0.000000
1.000000 0.207889 0.000000
1.000000 0.243351 0.000000
1.000000 0.280095 0.108583
0.000000 0.146609 0.019654
0.000000 0.146548 0.019623
0.000000 0.146853 0.020447
0.000000 0.146914 0.022339
0.000000 0.145571 0.021698
0.033845 0.141024 0.016236
0.081727 0.135500 0.008728
0.107454 0.128420 0.002716
0.133669 0.125185 0.000000
0.182162 0.136721 0.000000
0.237034 0.146120 0.000000
0.296910 0.152682 0.000000
0.359777 0.156130 0.000000
0.422980 0.156558 0.000000
0.486763 0.153780 0.000000
0.547692 0.149203 0.000000
0.605341 0.143557 0.000000
0.658778 0.139406 0.000000
0.709590 0.130709 0.000000
0.756680 0.121798 0.000000
0.799496 0.114168 0.000000
0.838529 0.112581 0.000000
0.878355 0.125002 0.000000
0.911131 0.141115 0.000000
0.937438 0.158267 0.000000
0.958526 0.175204 0.000000
0.975525 0.193851 0.000000
0.989502 0.213504 0.000000
1.000000 0.235752 0.000000
1.000000 0.259312 0.000000
1.000000 0.285771 0.000000
1.000000 0.313573 0.110170
0.000000 0.210727 0.023285
0.000000 0.210513 0.023438
0.000000 0.210483 0.024353
0.000000 0.210697 0.027985
0.000000 0.211307 0.033051
0.025910 0.205203 0.021881
0.096956 0.197391 0.010681
0.130770 0.187869 0.000000
0.160769 0.176608 0.000000
0.195499 0.170047 0.000000
0.253452 0.182345 0.000000
0.311894 0.191409 0.000000
0.372534 0.197910 0.000000
0.433539 0.202304 0.000000
0.493446 0.205142 0.000000
0.552148 0.206149 0.000000
0.608423 0.206943 0.000000
0.661189 0.208133 0.000000
0.709499 0.210208 0.000000
0.753811 0.213291 0.000000
0.795865 0.216861 0.000000
0.838224 0.222477 0.000000
0.874754 0.229313 0.000000
0.905089 0.235874 0.000000
0.930083 0.242557 0.000000
0.950652 0.250523 0.000000
0.967803 0.260105 0.000000
0.982147 0.271611 0.000000
0.994232 0.286198 0.000000
1.000000 0.303410 0.000000
1.000000 0.323430 0.000000
1.000000 0.346593 0.110719
0.000000 0.282048 0.058412
0.000000 0.282353 0.058900
0.000000 0.282689 0.063386
0.000000 0.283452 0.071046
0.000000 0.284550 0.082643
0.086458 0.282414 0.077852
0.126986 0.273991 0.039124
0.162936 0.263493 0.004425
0.196750 0.251225 0.000000
0.230259 0.236484 0.000000
0.270024 0.226108 0.000000
0.329625 0.237247 0.000000
0.388281 0.246372 0.000000
0.446845 0.253239 0.000000
0.504448 0.258213 0.000000
0.559350 0.262394 0.000000
0.611780 0.265537 0.000000
0.662440 0.268742 0.000000
0.709316 0.272313 0.000000
0.756008 0.279271 0.000000
0.798215 0.286442 0.000000
0.836118 0.293553 0.000000
0.869841 0.300633 0.000000
0.898985 0.304417 0.000000
0.923369 0.308415 0.000000
0.943664 0.313146 0.000000
0.960845 0.318547 0.000000
0.975311 0.326329 0.000000
0.987640 0.335912 0.000000
0.998199 0.348516 0.000000
1.000000 0.364324 0.000000
1.000000 0.382757 0.120851
0.000000 0.363043 0.129702
0.000000 0.363287 0.130037
0.000000 0.363531 0.131960
0.000000 0.365057 0.136141
0.101839 0.366674 0.142855
0.151186 0.368231 0.150790
0.177554 0.360662 0.131228
0.207706 0.349981 0.106355
0.239200 0.337621 0.056977
0.272770 0.322637 0.000000
0.306065 0.304021 0.000000
0.347601 0.291630 0.000000
0.432959 0.323766 0.000000
0.489326 0.332036 0.000000
0.543572 0.337743 0.000000
0.594659 0.341833 0.000000
0.646784 0.348913 0.000000
0.696254 0.356786 0.000000
0.742184 0.363745 0.000000
0.784665 0.370031 0.000000
0.822721 0.376043 0.000000
0.855680 0.380499 0.000000
0.883604 0.383612 0.000000
0.907591 0.385473 0.000000
0.928405 0.386999 0.000000
0.946105 0.388861 0.000000
0.961059 0.390967 0.000000
0.973724 0.394690 0.000000
0.984680 0.400305 0.000000
0.994202 0.408453 0.000000
1.000000 0.419196 0.091188
1.000000 0.432929 0.167361
0.132021 0.461555 0.217136
0.135225 0.461402 0.217411
0.147097 0.461128 0.218509
0.168673 0.461250 0.221744
0.195956 0.461860 0.226719
0.227939 0.462745 0.234104
0.252171 0.458198 0.226291
0.272557 0.447639 0.203799
0.297581 0.435462 0.175845
0.326421 0.421393 0.141970
0.358770 0.405158 0.095369
0.393133 0.386389 0.000000
0.438025 0.375158 0.000000
0.497963 0.387091 0.000000
0.556023 0.400336 0.000000
0.608911 0.409186 0.000000
0.657313 0.415747 0.000000
0.701564 0.420294 0.000000
0.742336 0.423835 0.000000
0.779477 0.426947 0.000000
0.814817 0.429969 0.000000
0.846250 0.432166 0.000000
0.873411 0.433234 0.000000
0.897032 0.433692 0.000000
0.917662 0.433021 0.000000
0.935607 0.432532 0.000000
0.951110 0.433265 0.000000
0.964416 0.435218 0.000000
0.975921 0.438941 0.000000
0.985992 0.444862 0.000000
0.994598 0.453346 0.106691
1.000000 0.464668 0.178897
0.225650 0.529656 0.286992
0.227146 0.529381 0.287053
0.233616 0.529046 0.288243
0.246159 0.528954 0.290440
0.265080 0.529290 0.294377
0.289525 0.530205 0.300877
0.315679 0.530632 0.306340
0.330358 0.523339 0.287724
0.350469 0.514794 0.266056
0.375097 0.505028 0.240024
0.404700 0.493904 0.209964
0.437415 0.480232 0.171298
0.472389 0.463691 0.120027
0.515038 0.452399 0.004578
0.565972 0.458381 0.000000
0.615808 0.467964 0.000000
0.660517 0.472969 0.000000
0.701442 0.476295 0.000000
0.739742 0.478431 0.000000
0.774838 0.479561 0.000000
0.807034 0.480140 0.000000
0.836240 0.480385 0.000000
0.863005 0.480446 0.000000
0.886503 0.479622 0.000000
0.907073 0.478218 0.000000
0.925261 0.476448 0.000000
0.941405 0.474189 0.000000
0.955200 0.474281 0.000000
0.967071 0.476539 0.000000
0.977447 0.480720 0.000000
0.986419 0.487373 0.128786
0.994110 0.496742 0.195315
0.321904 0.600153 0.369818
0.323003 0.599847 0.369879
0.326970 0.599908 0.370764
0.335546 0.599786 0.372351
0.348852 0.599908 0.375982
0.366735 0.600580 0.381506
0.389349 0.602472 0.389746
0.403540 0.598352 0.381353
0.415412 0.590387 0.361181
0.432349 0.581811 0.338384
0.453895 0.572107 0.312078
0.479622 0.560510 0.281682
0.507988 0.546532 0.244480
0.537865 0.528985 0.197482
0.574914 0.515221 0.149538
0.617578 0.516106 0.125002
0.660883 0.522423 0.091707
0.699550 0.525383 0.003235
0.735653 0.526635 0.000000
0.769223 0.527001 0.000000
0.800046 0.526665 0.000000
0.827726 0.525566 0.000000
0.852506 0.523735 0.000000
0.875364 0.522026 0.000000
0.895964 0.519921 0.000000
0.914305 0.517571 0.000000
0.930724 0.514946 0.000000
0.945525 0.512505 0.000000
0.958160 0.513024 0.000000
0.968902 0.516533 0.030335
0.978180 0.522332 0.160128
0.986053 0.530938 0.221927
0.400122 0.655299 0.443641
0.401404 0.655543 0.444221
0.404791 0.655604 0.445197
0.411200 0.655879 0.447120
0.421485 0.656367 0.450660
0.435554 0.657374 0.455940
0.453742 0.659480 0.464027
0.471717 0.660273 0.468116
0.479652 0.654383 0.452033
0.490333 0.647089 0.432258
0.504417 0.638605 0.408911
0.521813 0.627802 0.380774
0.542321 0.614954 0.347936
0.565026 0.599176 0.308537
0.589288 0.579492 0.260136
0.620630 0.564111 0.216922
0.656886 0.561273 0.195956
0.695094 0.565881 0.179080
0.729580 0.567529 0.160708
0.761990 0.567926 0.140536
0.791836 0.567620 0.119722
0.818814 0.566400 0.097230
0.843137 0.564477 0.056153
0.864958 0.562097 0.004944
0.884825 0.559319 0.000000
0.903349 0.556970 0.000000
0.919860 0.554467 0.000000
0.934844 0.551781 0.000000
0.948730 0.549187 0.000000
0.960021 0.550408 0.118288
0.969451 0.554620 0.189578
0.977447 0.561303 0.244968
0.464149 0.697139 0.507408
0.464942 0.697169 0.507683
0.467170 0.697200 0.508568
0.472419 0.697475 0.510399
0.480537 0.698024 0.513787
0.491981 0.698848 0.518639
0.506432 0.700252 0.525322
0.524010 0.702144 0.534264
0.531304 0.699092 0.525231
0.537499 0.693599 0.508171
0.546380 0.686732 0.488014
0.558495 0.678584 0.464607
0.573297 0.668238 0.436255
0.590448 0.655421 0.402441
0.609979 0.639734 0.362890
0.631250 0.620600 0.315465
0.659113 0.605432 0.274174
0.690455 0.601068 0.256474
0.724941 0.604700 0.244266
0.755612 0.605219 0.231510
0.783993 0.604883 0.219760
0.809995 0.603357 0.209598
0.833524 0.601434 0.200015
0.855009 0.598779 0.191287
0.874388 0.596124 0.183932
0.892149 0.593194 0.176242
0.908507 0.590295 0.173373
0.923613 0.587793 0.174807
0.937499 0.585504 0.176211
0.950469 0.583398 0.177737
0.960540 0.585779 0.222171
0.968627 0.591424 0.273228
0.524590 0.728481 0.567926
0.525414 0.728664 0.568505
0.557244 0.741238 0.598993
0.560906 0.741421 0.600671
0.566461 0.741634 0.603265
0.574151 0.741970 0.606928
0.584253 0.742519 0.612207
0.596551 0.743374 0.618952
0.606012 0.743099 0.620294
0.607233 0.739651 0.606317
0.610254 0.735378 0.589776
0.615412 0.729946 0.569482
0.623011 0.722866 0.544884
0.633539 0.713741 0.515038
0.646754 0.702358 0.480079
0.662623 0.687984 0.438666
0.680537 0.669886 0.390326
0.704067 0.654536 0.349493
0.729305 0.647181 0.330632
0.757473 0.647639 0.320165
0.782498 0.645747 0.309514
0.805997 0.643458 0.300694
0.827573 0.640589 0.292271
0.847379 0.637354 0.284855
0.865660 0.633631 0.276921
0.882353 0.629633 0.269627
0.897826 0.625574 0.262425
0.912261 0.621729 0.256168
0.925933 0.619043 0.256138
0.938811 0.616938 0.257755
0.951141 0.615198 0.258732
0.959594 0.619379 0.302312
0.586206 0.753323 0.629114
0.589136 0.754238 0.631861
0.593072 0.755215 0.635157
0.598291 0.756130 0.638911
0.604517 0.756893 0.642939
0.611261 0.757443 0.646815
0.619348 0.757900 0.651301
0.628656 0.758419 0.656458
0.639582 0.759213 0.663081
0.640345 0.756954 0.653803
0.640650 0.753902 0.640345
0.642329 0.750027 0.623774
0.645777 0.744991 0.603388
0.651759 0.738705 0.579248
0.660548 0.730739 0.550072
0.672602 0.720821 0.516228
0.687526 0.708492 0.476417
0.705013 0.693538 0.431159
0.727413 0.680262 0.393622
0.749630 0.672602 0.376349
0.774319 0.672419 0.368933
0.796750 0.670771 0.361273
0.817594 0.668421 0.354528
0.836759 0.665553 0.348180
0.854520 0.662043 0.341314
0.870909 0.658412 0.335088
0.886107 0.654627 0.329015
0.900359 0.651057 0.323583
0.913878 0.647852 0.318578
0.926696 0.645563 0.317357
0.938994 0.644190 0.320073
0.950378 0.643977 0.327703
0.625544 0.767300 0.668360
0.627924 0.768002 0.670649
0.631464 0.768917 0.673610
0.635492 0.769650 0.676722
0.640406 0.770321 0.679957
0.645563 0.770748 0.683101
0.651545 0.771115 0.686458
0.658442 0.771481 0.690455
0.666712 0.772030 0.695369
0.671199 0.771542 0.694575
0.670619 0.769192 0.684535
0.670741 0.766384 0.672267
0.671626 0.762875 0.656794
0.674006 0.758480 0.637629
0.678523 0.752987 0.614496
0.685908 0.746181 0.586847
0.696437 0.737636 0.554437
0.710140 0.727321 0.516625
0.727138 0.714687 0.473182
0.747860 0.703334 0.438758
0.766934 0.695338 0.422705
0.788388 0.694575 0.416876
0.808255 0.692775 0.410803
0.826719 0.690455 0.405707
0.843839 0.687495 0.399603
0.859709 0.684230 0.393866
0.874540 0.680812 0.388464
0.888579 0.677516 0.383703
0.901884 0.674708 0.380194
0.914641 0.672328 0.377386
0.926940 0.670558 0.375463
0.938842 0.669734 0.377325
0.658717 0.778958 0.701534
0.660578 0.779507 0.703273
0.663142 0.780148 0.705440
0.666194 0.780728 0.707790
0.669856 0.781277 0.710262
0.673701 0.781582 0.712581
0.678248 0.781918 0.715145
0.683589 0.782193 0.718227
0.689845 0.782650 0.721950
0.696895 0.783230 0.726253
0.696162 0.781491 0.719081
0.695674 0.779355 0.710201
0.695613 0.776822 0.699306
0.696345 0.773678 0.685664
0.698299 0.769833 0.668910
0.702083 0.765194 0.648035
0.708431 0.759670 0.623316
0.718074 0.752865 0.593530
0.731136 0.744747 0.560204
0.747616 0.735042 0.521294
0.767056 0.726101 0.491798
0.783902 0.718959 0.478340
0.802335 0.718166 0.474708
0.819699 0.716823 0.471901
0.835721 0.714900 0.468818
0.850706 0.712459 0.464973
0.864744 0.709865 0.461250
0.878111 0.707393 0.458259
0.890806 0.705318 0.456519
0.903105 0.703609 0.454871
0.915007 0.702388 0.454261
0.926635 0.701717 0.454292
0.694667 0.791806 0.737148
0.695369 0.792020 0.737789
0.696407 0.792233 0.738521
0.697719 0.792386 0.739315
0.699702 0.792508 0.740444
0.702022 0.792599 0.741634
0.705165 0.792752 0.743282
0.709041 0.792996 0.745449
0.713710 0.793362 0.748165
0.719234 0.793851 0.751522
0.721523 0.793393 0.750301
0.720790 0.791775 0.744045
0.720302 0.789853 0.736263
0.720180 0.787472 0.726833
0.720699 0.784665 0.715175
0.722255 0.781369 0.701076
0.725246 0.777371 0.683467
0.730404 0.772641 0.662165
0.738277 0.767025 0.635737
0.749508 0.760159 0.603876
0.764187 0.751888 0.567010
0.781338 0.743862 0.538567
0.795590 0.736538 0.524163
0.811124 0.734890 0.519463
0.826169 0.733242 0.516381
0.840452 0.731411 0.513329
0.854063 0.729458 0.510582
0.866941 0.727565 0.508446
0.879332 0.725978 0.507103
0.891295 0.724727 0.506371
0.903014 0.723842 0.506157
0.914519 0.723415 0.506493
0.715969 0.800137 0.758022
0.716487 0.800259 0.758450
0.717281 0.800443 0.759030
0.718318 0.800565 0.759701
0.719905 0.800717 0.760555
0.721828 0.800870 0.761593
0.724239 0.801022 0.762844
0.727321 0.801236 0.764492
0.731014 0.801602 0.766659
0.735348 0.802029 0.769192
0.739681 0.802457 0.771511
0.739071 0.801144 0.766903
0.738491 0.799588 0.761379
0.738125 0.797757 0.754543
0.738064 0.795621 0.746304
0.738735 0.793118 0.736416
0.740230 0.790188 0.724392
0.743038 0.786770 0.709773
0.747555 0.782773 0.692073
0.754391 0.778042 0.670069
0.764187 0.772427 0.642878
0.777401 0.765713 0.609552
0.792752 0.758877 0.583520
0.805112 0.752193 0.569329
0.817411 0.748165 0.557488
0.830900 0.746609 0.554253
0.843931 0.745235 0.552331
0.856413 0.743954 0.550866
0.868528 0.742794 0.549828
0.880217 0.742000 0.549828
0.891691 0.741634 0.550408
0.903044 0.741756 0.551873
0.737179 0.809262 0.778470
0.737819 0.809506 0.779049
0.738369 0.809628 0.779416
0.739010 0.809659 0.779690
0.739834 0.809628 0.779995
0.740841 0.809567 0.780362
0.742306 0.809537 0.780880
0.744228 0.809537 0.781704
0.746731 0.809628 0.782834
0.749752 0.809842 0.784421
0.753231 0.810117 0.786221
0.754055 0.809445 0.784512
0.753292 0.807980 0.780056
0.752499 0.806241 0.774624
0.751888 0.804288 0.768093
0.751705 0.802060 0.760372
0.752010 0.799527 0.751034
0.753292 0.796750 0.740200
0.755856 0.793637 0.727382
0.760037 0.790158 0.712215
0.766262 0.786099 0.693446
0.775051 0.781247 0.670161
0.786709 0.775418 0.640803
0.800381 0.769284 0.616571
0.811276 0.762905 0.601648
0.823117 0.760952 0.596429
0.835050 0.759579 0.593256
0.847013 0.758450 0.591180
0.858640 0.757626 0.589990
0.869993 0.757076 0.589837
0.881224 0.757015 0.590509
0.892363 0.757412 0.592340
0.750149 0.815763 0.790799
0.750668 0.815946 0.791257
0.751217 0.816098 0.791653
0.751797 0.816190 0.791989
0.752682 0.816281 0.792416
0.753841 0.816373 0.792935
0.755367 0.816526 0.793698
0.757351 0.816678 0.794675
0.759731 0.816983 0.795926
0.762539 0.817350 0.797452
0.765652 0.817746 0.799130
0.768429 0.817960 0.800198
0.767819 0.816709 0.796841
0.767208 0.815244 0.792752
0.766659 0.813565 0.787961
0.766262 0.811643 0.782284
0.766171 0.809506 0.775570
0.766690 0.807187 0.767788
0.767971 0.804654 0.758724
0.770352 0.801877 0.748013
0.774014 0.798734 0.735103
0.779294 0.795193 0.719600
0.786709 0.790951 0.700069
0.796689 0.785946 0.675624
0.808377 0.780819 0.655573
0.817899 0.775326 0.642237
0.828367 0.773861 0.638025
0.839078 0.772946 0.635676
0.850126 0.772671 0.635065
0.860960 0.772671 0.635340
0.871794 0.772976 0.636164
0.882689 0.773770 0.637934
0.763790 0.823270 0.803555
0.764065 0.823392 0.803738
0.764340 0.823484 0.803922
0.764828 0.823545 0.804196
0.765499 0.823575 0.804471
0.766415 0.823636 0.804868
0.767697 0.823758 0.805447
0.769253 0.823911 0.806180
0.771206 0.824155 0.807126
0.773556 0.824491 0.808316
0.776272 0.824857 0.809689
0.779263 0.825345 0.811246
0.779782 0.824643 0.809720
0.779232 0.823331 0.806577
0.778744 0.821805 0.802762
0.778286 0.820096 0.798367
0.778103 0.818204 0.793301
0.778286 0.816190 0.787442
0.779019 0.814023 0.780819
0.780423 0.811734 0.773190
0.782681 0.809140 0.764126
0.785946 0.806302 0.753170
0.790494 0.803006 0.739895
0.796780 0.799161 0.723140
0.805325 0.794675 0.702235
0.815427 0.790158 0.685237
0.823728 0.785306 0.673365
0.833127 0.784115 0.669551
0.842954 0.783536 0.667506
0.853391 0.783963 0.667994
0.863951 0.784665 0.669062
0.874662 0.785794 0.670924
0.774929 0.830350 0.813718
0.775113 0.830411 0.813870
0.775387 0.830503 0.814084
0.775814 0.830625 0.814328
0.776547 0.830747 0.814694
0.777615 0.830961 0.815244
0.779171 0.831357 0.816098
0.781064 0.831846 0.817197
0.783352 0.832456 0.818509
0.786007 0.833188 0.820035
0.788998 0.834043 0.821714
0.792203 0.834897 0.823514
0.794644 0.835325 0.824308
0.794705 0.834348 0.822232
0.794705 0.833188 0.819699
0.794553 0.831724 0.816556
0.794430 0.830045 0.812863
0.794553 0.828244 0.808652
0.795010 0.826352 0.803983
0.795895 0.824308 0.798611
0.797269 0.822141 0.792569
0.799252 0.819699 0.785336
0.801907 0.817014 0.776669
0.805509 0.813962 0.766201
0.810422 0.810513 0.753170
0.817166 0.806546 0.736812
0.825284 0.802853 0.723873
0.832242 0.798795 0.714229
0.840574 0.798093 0.711238
0.849424 0.797940 0.709468
0.859586 0.799069 0.710414
0.870207 0.800626 0.711788
0.789334 0.840543 0.826535
0.789364 0.840574 0.826535
0.789487 0.840574 0.826566
0.789822 0.840574 0.826688
0.790280 0.840635 0.826871
0.791012 0.840757 0.827176
0.792050 0.840909 0.827604
0.793362 0.841154 0.828183
0.795010 0.841489 0.828946
0.796963 0.841947 0.829862
0.799191 0.842435 0.830930
0.801755 0.843015 0.832120
0.804501 0.843687 0.833433
0.804898 0.842863 0.831998
