20 Preset/Natural Wedding/【3】LUT video cho PR-AE-FCPX/Lut Tone (12).cube
# Created by Adobe Lightroom plugin Export LUT (1.24.0)
# www.johnrellis.com/lightroom/exportlut.htm
# Preset: 清新婚礼-素材江湖12
# Color profile: C:\Program Files (x86)\Common Files\Adobe\Color\Profiles\Recommended\VideoHD.icc
LUT_3D_SIZE 8
DOMAIN_MIN 0.000000 0.000000 0.000000
DOMAIN_MAX 0.903226 0.903226 0.903226
0.000000 0.007202 0.001373
0.000000 0.010376 0.002045
0.095125 0.018463 0.003174
0.330114 0.000000 0.000000
0.679591 0.000000 0.000000
0.935637 0.000000 0.000000
1.000000 0.000000 0.000000
1.000000 0.000000 0.156863
0.000000 0.030823 0.004028
0.000000 0.033539 0.001282
0.101442 0.046693 0.000000
0.321874 0.000000 0.000000
0.655940 0.000000 0.000000
0.913725 0.000000 0.000000
1.000000 0.000000 0.000000
1.000000 0.000000 0.108736
0.000000 0.190555 0.022766
0.000000 0.194095 0.018128
0.172732 0.175692 0.000000
0.426368 0.184115 0.000000
0.703975 0.172122 0.000000
0.926055 0.149844 0.000000
1.000000 0.201572 0.000000
1.000000 0.298405 0.000000
0.000000 0.594385 0.225132
0.000000 0.597589 0.230320
0.148226 0.574823 0.107546
0.550347 0.508232 0.000000
0.802274 0.494118 0.000000
0.961791 0.468452 0.000000
1.000000 0.460761 0.000000
1.000000 0.460151 0.000000
0.388464 0.818631 0.531456
0.425208 0.819242 0.537316
0.529473 0.819944 0.539574
0.639643 0.795987 0.371588
0.830686 0.734310 0.000000
0.949371 0.673274 0.000000
1.000000 0.626520 0.000000
1.000000 0.599603 0.000000
0.722194 0.874022 0.757229
0.739651 0.875639 0.767483
0.770657 0.876463 0.779324
0.783139 0.872251 0.736355
0.826230 0.857725 0.589624
0.941466 0.823453 0.289952
1.000000 0.777340 0.176364
1.000000 0.738857 0.000000
0.849027 0.903624 0.855161
0.852445 0.904143 0.856718
0.861814 0.904845 0.859800
0.872526 0.904936 0.858366
0.873533 0.898894 0.823575
0.901030 0.888762 0.736995
0.981689 0.867094 0.512108
1.000000 0.833280 0.413245
0.904509 0.931090 0.898283
0.905516 0.931243 0.898619
0.909850 0.932067 0.900237
0.918181 0.933806 0.903593
0.915526 0.929046 0.889921
0.921630 0.924987 0.869413
0.942351 0.918029 0.825162
0.998505 0.902922 0.688472
0.000000 0.017762 0.017029
0.000000 0.019501 0.014435
0.096956 0.023102 0.013733
0.316289 0.000000 0.001678
0.648341 0.000000 0.000000
0.904417 0.000000 0.000000
1.000000 0.000000 0.000000
1.000000 0.000000 0.076143
0.000000 0.043549 0.023926
0.000000 0.045350 0.024537
0.112154 0.056458 0.020661
0.333745 0.000000 0.000000
0.652247 0.000000 0.000000
0.900542 0.000000 0.000000
1.000000 0.000000 0.000000
1.000000 0.000000 0.000000
0.000000 0.190341 0.113130
0.000000 0.198154 0.110323
0.182864 0.186130 0.005005
0.424475 0.180789 0.000000
0.693904 0.159945 0.000000
0.911284 0.164279 0.000000
1.000000 0.212619 0.000000
1.000000 0.277470 0.000000
0.000000 0.558190 0.259037
0.000000 0.564691 0.265995
0.157656 0.561425 0.216648
0.528099 0.491920 0.000000
0.762448 0.464271 0.000000
0.929442 0.441535 0.000000
1.000000 0.437720 0.000000
1.000000 0.442969 0.000000
0.382391 0.808896 0.538720
0.415045 0.808957 0.542657
0.530480 0.811948 0.561608
0.621210 0.784268 0.397650
0.805905 0.717678 0.000000
0.932830 0.660304 0.000000
1.000000 0.616846 0.000000
1.000000 0.593103 0.000000
0.708400 0.869413 0.749813
0.718074 0.869718 0.753567
0.753414 0.870817 0.767361
0.774472 0.867735 0.734951
0.817807 0.853483 0.596979
0.934447 0.820005 0.321782
1.000000 0.774594 0.224216
1.000000 0.735958 0.122011
0.842100 0.900511 0.850797
0.843565 0.900359 0.850828
0.853544 0.901030 0.854093
0.867918 0.901884 0.855772
0.870268 0.896605 0.822751
0.897185 0.886412 0.737148
0.977325 0.863767 0.511742
1.000000 0.829282 0.410163
0.901488 0.929076 0.896178
0.903075 0.929534 0.897002
0.907500 0.930327 0.898589
0.916197 0.932189 0.902129
0.918669 0.930480 0.893889
0.922972 0.925536 0.872831
0.941802 0.917754 0.828641
0.996704 0.902556 0.696742
0.000000 0.059602 0.188022
0.000000 0.052705 0.188785
0.123140 0.048371 0.172457
0.362554 0.000000 0.181857
0.702937 0.000000 0.209873
0.927520 0.000000 0.205264
1.000000 0.000000 0.187869
1.000000 0.240818 0.159518
0.000000 0.099580 0.207462
0.000000 0.095491 0.211490
0.141695 0.093385 0.196750
0.382391 0.000000 0.201816
0.700191 0.000000 0.225376
0.921477 0.000000 0.207156
1.000000 0.123476 0.179751
1.000000 0.256687 0.147555
0.000000 0.224491 0.268254
0.000000 0.228580 0.269841
0.191897 0.237980 0.272831
0.465553 0.246921 0.264591
0.731746 0.246799 0.241672
0.934417 0.274357 0.216678
1.000000 0.320928 0.189853
1.000000 0.364935 0.159243
0.000000 0.543328 0.391791
0.000000 0.552117 0.401770
0.299413 0.588159 0.426764
0.561059 0.542046 0.290867
0.779690 0.506462 0.253178
0.937774 0.495338 0.229038
1.000000 0.495583 0.211612
1.000000 0.498787 0.187655
0.459144 0.788937 0.612879
0.473976 0.791745 0.612207
0.571313 0.800992 0.635401
0.664515 0.793515 0.585840
0.812345 0.736873 0.352911
0.927855 0.682338 0.291661
1.000000 0.641627 0.240055
1.000000 0.626123 0.228275
0.718624 0.862486 0.769619
0.728908 0.863127 0.773678
0.762417 0.864775 0.786282
0.799924 0.865721 0.790402
0.821927 0.852628 0.694545
0.921538 0.822141 0.482643
0.989685 0.783597 0.415290
1.000000 0.751339 0.362951
0.848142 0.898650 0.858457
0.849851 0.898589 0.858732
0.858854 0.899229 0.861418
0.876860 0.901427 0.868101
0.879088 0.896788 0.845884
0.897704 0.887114 0.785458
0.966522 0.866880 0.617609
1.000000 0.837583 0.535912
0.903105 0.928222 0.898894
0.903838 0.928252 0.899016
0.908293 0.929107 0.900664
0.917815 0.931548 0.904906
0.922911 0.931212 0.901244
0.926390 0.926604 0.883268
0.942138 0.919036 0.847135
0.989502 0.904387 0.744961
0.000000 0.119478 0.431495
0.000000 0.115175 0.441047
0.000000 0.113527 0.436072
0.415381 0.024872 0.427955
0.668452 0.093294 0.419013
0.909545 0.190280 0.438849
1.000000 0.403143 0.488380
1.000000 0.480842 0.491859
0.000000 0.164340 0.451942
0.000000 0.160494 0.457191
0.051209 0.157595 0.456367
0.439704 0.141054 0.446448
0.682368 0.194827 0.434638
0.910887 0.268528 0.453895
1.000000 0.446815 0.507225
1.000000 0.492409 0.492958
0.000000 0.302159 0.483986
0.000000 0.303532 0.485725
0.000000 0.306035 0.496498
0.482948 0.324681 0.487098
0.721370 0.397192 0.494270
0.910948 0.473823 0.526177
1.000000 0.543603 0.545495
1.000000 0.559136 0.520867
0.000000 0.559747 0.556420
0.000000 0.560296 0.556023
0.182773 0.567681 0.559380
0.544060 0.580957 0.567987
0.751431 0.591699 0.562249
0.897795 0.603113 0.554772
0.991272 0.613703 0.543450
1.000000 0.617853 0.522026
0.360571 0.767147 0.660609
0.404913 0.767514 0.664393
0.547662 0.772244 0.686152
0.707790 0.791348 0.732601
0.798672 0.757046 0.616175
0.899413 0.722835 0.581506
0.977935 0.707759 0.562188
1.000000 0.699031 0.542870
0.728756 0.851835 0.798215
0.745510 0.853422 0.804959
0.777859 0.854429 0.813901
0.820493 0.861814 0.829007
0.842832 0.857206 0.805844
0.900938 0.830014 0.677058
0.962402 0.802670 0.631098
1.000000 0.779599 0.587915
0.853422 0.892638 0.867399
0.855528 0.893309 0.868070
0.862699 0.895598 0.869932
0.882078 0.899107 0.877592
0.896544 0.900145 0.877165
0.903105 0.890135 0.840757
0.949248 0.871031 0.740078
0.994690 0.848661 0.683925
0.905974 0.927276 0.903929
0.906615 0.927520 0.904082
0.911223 0.928496 0.905821
0.919982 0.930663 0.909422
0.931273 0.933562 0.914122
0.931914 0.928771 0.898741
0.943053 0.921141 0.870909
0.980133 0.907500 0.803586
0.000000 0.219242 0.647303
0.000000 0.219272 0.653376
0.000000 0.226230 0.656489
0.433173 0.240299 0.655390
0.696773 0.272374 0.656001
0.856229 0.389014 0.631312
0.973083 0.504875 0.645167
1.000000 0.603784 0.677943
0.000000 0.263920 0.656916
0.000000 0.264714 0.663081
0.000000 0.270268 0.668788
0.446540 0.286534 0.665492
0.702174 0.319921 0.663355
0.856565 0.427161 0.640131
0.969360 0.528588 0.653956
1.000000 0.618677 0.685817
0.000000 0.398077 0.675959
0.000000 0.399329 0.679438
0.000000 0.404547 0.690059
0.469947 0.423468 0.687831
0.708736 0.454475 0.680140
0.847318 0.532219 0.662318
0.954040 0.600397 0.681270
1.000000 0.664149 0.709590
0.000000 0.576257 0.707088
0.000000 0.577295 0.707179
0.030884 0.584497 0.710384
0.499580 0.602075 0.722011
0.729061 0.627039 0.720211
0.847959 0.671565 0.720302
0.933959 0.705409 0.738369
0.984649 0.733822 0.752285
0.186648 0.746426 0.749142
0.257877 0.747250 0.750057
0.421790 0.748836 0.752285
0.600061 0.752163 0.757107
0.755825 0.756527 0.763119
0.852384 0.759304 0.760067
0.926757 0.762844 0.756008
0.983917 0.763088 0.745388
0.591089 0.831235 0.783047
0.608576 0.831388 0.785580
0.666163 0.831388 0.793332
0.753872 0.834134 0.810910
0.835752 0.846189 0.837919
0.873899 0.829831 0.785977
0.929503 0.815915 0.768734
0.979919 0.807431 0.753109
0.820432 0.883452 0.862425
0.823606 0.883360 0.862913
0.838560 0.883787 0.866392
0.868681 0.886564 0.875914
0.895628 0.894865 0.886351
0.906249 0.891173 0.874052
0.933074 0.871885 0.812833
0.973114 0.855192 0.780789
0.897337 0.919677 0.903197
0.899107 0.919829 0.903777
0.906645 0.920745 0.906493
0.915221 0.925231 0.909819
0.928588 0.929778 0.915648
0.937560 0.930816 0.914488
0.942992 0.922515 0.891539
0.971191 0.907988 0.842191
0.000000 0.375525 0.809110
0.000000 0.380468 0.811795
0.000000 0.393469 0.812955
0.436591 0.416999 0.810361
0.676539 0.450324 0.804135
0.847196 0.497261 0.801114
0.926909 0.588617 0.776761
0.977142 0.688777 0.790768
0.000000 0.393164 0.800656
0.000000 0.394781 0.801633
0.000000 0.407019 0.805234
0.426642 0.426978 0.802609
0.668788 0.460090 0.798093
0.840879 0.506889 0.796780
0.922118 0.595483 0.774533
0.974731 0.690639 0.789487
0.000000 0.496956 0.808652
0.000000 0.498054 0.809171
0.000000 0.507286 0.812741
0.459937 0.521935 0.810208
0.680934 0.547021 0.805509
0.839384 0.585382 0.804349
0.913603 0.657679 0.788876
0.965759 0.725368 0.804074
0.000000 0.622126 0.815274
0.000000 0.621973 0.814450
0.223606 0.626215 0.814145
0.520378 0.649805 0.823728
0.714382 0.673274 0.823972
0.843107 0.699153 0.822416
0.904875 0.744381 0.817350
0.956146 0.775692 0.829007
0.295476 0.737575 0.823453
0.328161 0.737911 0.823392
0.434546 0.739986 0.823667
0.575006 0.745205 0.825132
0.727352 0.757290 0.830106
0.840879 0.772732 0.831205
0.899931 0.795285 0.834501
0.950408 0.809018 0.843198
0.564935 0.826139 0.839658
0.582635 0.826902 0.840848
0.628168 0.826505 0.841215
0.699855 0.826322 0.842466
0.779629 0.827115 0.844816
0.857633 0.832273 0.851438
0.909667 0.835874 0.852720
0.953857 0.837369 0.850675
0.757443 0.874357 0.862119
0.763455 0.874571 0.862882
0.780880 0.874266 0.863828
0.819974 0.875731 0.870085
0.866880 0.880003 0.880583
0.910582 0.891173 0.896269
0.923796 0.875731 0.865049
0.957855 0.866056 0.852110
0.871153 0.912779 0.899809
0.872618 0.912779 0.899992
0.880522 0.913542 0.901762
0.896544 0.916136 0.906371
0.919066 0.920562 0.914214
0.938781 0.929290 0.923339
0.945953 0.926360 0.914031
0.964202 0.910185 0.876432
0.000000 0.514549 0.875944
0.000000 0.519585 0.876646
0.269871 0.533471 0.876921
0.487129 0.553155 0.875090
0.661952 0.575097 0.871519
0.807645 0.606897 0.866758
0.908995 0.645075 0.864469
0.947356 0.704616 0.847288
0.000000 0.523430 0.872740
0.000000 0.528557 0.873686
0.268833 0.541314 0.874174
0.482826 0.558801 0.872313
0.656672 0.578882 0.868803
0.802274 0.607660 0.863767
0.904631 0.643275 0.861173
0.944518 0.701045 0.843656
0.000000 0.581903 0.872496
0.000000 0.584009 0.872648
0.318578 0.592676 0.872770
0.512657 0.612116 0.872313
0.669368 0.626856 0.868772
0.805081 0.651728 0.864622
0.901122 0.686458 0.863706
0.940093 0.737545 0.851713
0.150729 0.659510 0.871275
0.213169 0.659541 0.870909
0.368505 0.664576 0.870970
0.546502 0.681636 0.872221
0.696620 0.700710 0.870909
0.814725 0.720272 0.868315
0.897246 0.745388 0.868284
0.934997 0.780209 0.861570
0.389624 0.743343 0.871641
0.401770 0.742458 0.871000
0.459266 0.741909 0.869932
0.554772 0.742763 0.868894
0.708492 0.759426 0.871061
0.819577 0.774563 0.870756
0.893431 0.790799 0.871458
0.933227 0.817563 0.872099
0.577722 0.817624 0.876066
0.586725 0.817716 0.876097
0.619989 0.817746 0.875975
0.675959 0.817838 0.875883
0.745327 0.817990 0.875700
0.832181 0.825010 0.879088
0.900298 0.837003 0.882017
0.938018 0.851377 0.885771
0.729519 0.868681 0.886778
0.734585 0.868803 0.887022
0.751217 0.868589 0.887175
0.781888 0.868467 0.887724
0.821683 0.868559 0.888548
0.866300 0.869902 0.890440
0.911955 0.874266 0.894774
0.947356 0.876768 0.894957
0.832029 0.904723 0.901823
0.834134 0.904814 0.901976
0.843320 0.905394 0.902922
0.858518 0.905974 0.903990
0.882872 0.908141 0.907439
0.916167 0.914611 0.916381
0.949218 0.928313 0.931456
0.958953 0.913359 0.905486
0.469123 0.668421 0.914061
0.487434 0.671412 0.914000
0.545983 0.678950 0.912810
0.635737 0.692836 0.911162
0.726162 0.704189 0.908782
0.814389 0.719478 0.905608
0.888823 0.740505 0.902373
0.941650 0.760250 0.900999
0.463355 0.669917 0.912779
0.482216 0.672877 0.912779
0.543267 0.681178 0.911864
0.633845 0.695186 0.910185
0.724239 0.706111 0.907866
0.812558 0.720943 0.904784
0.886992 0.740627 0.901427
0.940215 0.759701 0.899931
0.474434 0.690639 0.911070
0.490578 0.692439 0.910948
0.548119 0.698909 0.910063
0.649805 0.718868 0.909117
0.732021 0.726650 0.906828
0.814237 0.737819 0.903868
0.885924 0.755032 0.901030
0.937926 0.772274 0.899931
0.480110 0.723354 0.909026
0.496925 0.725032 0.908965
0.554162 0.730098 0.908385
0.649561 0.743557 0.907500
0.743648 0.758450 0.906004
0.819821 0.767453 0.903868
0.886442 0.780850 0.901793
0.935821 0.795163 0.901366
0.516014 0.769100 0.907530
0.524468 0.769253 0.907530
0.548699 0.767178 0.906859
0.630732 0.772000 0.906035
0.739162 0.785489 0.905364
0.821958 0.796719 0.904265
0.886351 0.807034 0.903044
0.934569 0.819791 0.903624
0.636011 0.824796 0.908507
0.638361 0.824186 0.908263
0.651728 0.822354 0.907530
0.682094 0.819944 0.906645
0.727657 0.816709 0.905669
0.822385 0.827207 0.907042
0.891569 0.838621 0.908141
0.937652 0.849577 0.909697
0.752163 0.870542 0.914855
0.754116 0.870390 0.914763
0.762997 0.869688 0.914427
0.781216 0.868681 0.913970
0.807706 0.867063 0.913298
0.841398 0.864836 0.912413
0.891905 0.866697 0.913481
0.941070 0.876768 0.915984
0.823209 0.904051 0.922026
0.824369 0.903960 0.921965
0.830411 0.903899 0.921996
0.843137 0.904112 0.922332
0.861479 0.904387 0.922728
0.885252 0.904936 0.923278
0.914794 0.906767 0.924743
0.950439 0.912566 0.929107
