20 Preset/Natural Wedding/【3】LUT video cho PR-AE-FCPX/Lut Tone (18).cube
# Created by Adobe Lightroom plugin Export LUT (1.24.0)
# www.johnrellis.com/lightroom/exportlut.htm
# Preset: 清新婚礼-素材江湖18
# Color profile: C:\Program Files (x86)\Common Files\Adobe\Color\Profiles\Recommended\VideoHD.icc
LUT_3D_SIZE 5
DOMAIN_MIN 0.000000 0.000000 0.000000
DOMAIN_MAX 0.903226 0.903226 0.903226
0.000000 0.000000 0.000000
0.122835 0.009918 0.003601
0.727016 0.000000 0.000000
1.000000 0.000000 0.175143
1.000000 0.521569 0.444221
0.000000 0.104799 0.017884
0.111666 0.105348 0.000824
0.686671 0.000000 0.000000
1.000000 0.000000 0.059236
1.000000 0.547601 0.427741
0.000000 0.538170 0.184207
0.000000 0.532128 0.175509
0.668116 0.553735 0.000000
1.000000 0.531304 0.000000
1.000000 0.610956 0.304356
0.000000 0.837736 0.481331
0.356207 0.832914 0.501152
0.625483 0.800534 0.482490
0.931090 0.803433 0.390265
1.000000 0.775174 0.346838
0.717769 0.925811 0.765133
0.753994 0.923064 0.772763
0.818845 0.910063 0.771542
0.891173 0.901152 0.761074
1.000000 0.910857 0.738521
0.000000 0.050385 0.082033
0.101198 0.029999 0.067842
0.675654 0.000000 0.098543
1.000000 0.000000 0.058686
1.000000 0.469764 0.375647
0.000000 0.137881 0.128634
0.143862 0.143313 0.137697
0.678645 0.000000 0.121279
1.000000 0.162966 0.079225
1.000000 0.494942 0.354864
0.000000 0.554406 0.274754
0.000000 0.558312 0.282170
0.649073 0.552392 0.213291
1.000000 0.537530 0.129854
1.000000 0.605402 0.276280
0.000000 0.840238 0.523919
0.369635 0.836210 0.541131
0.658991 0.809903 0.545892
0.924956 0.807340 0.470741
1.000000 0.783169 0.430488
0.708339 0.926940 0.770260
0.745235 0.923919 0.776852
0.842344 0.916136 0.799100
0.897948 0.905028 0.782193
1.000000 0.915984 0.764706
0.000000 0.214328 0.430213
0.000000 0.150057 0.427497
0.610681 0.000000 0.390387
1.000000 0.293370 0.440436
1.000000 0.620569 0.559136
0.000000 0.348852 0.470680
0.000000 0.333165 0.475502
0.655085 0.236454 0.439063
1.000000 0.451972 0.481880
1.000000 0.649226 0.574426
0.000000 0.654261 0.549371
0.000000 0.657221 0.554528
0.706508 0.672236 0.590143
0.956481 0.681086 0.578698
1.000000 0.721492 0.603998
0.000000 0.854643 0.660517
0.335485 0.847929 0.661128
0.724727 0.834379 0.699001
0.908659 0.826352 0.680476
1.000000 0.813748 0.652888
0.619654 0.932677 0.782101
0.678950 0.929442 0.789242
0.818845 0.919890 0.811795
0.898589 0.905821 0.812284
0.995300 0.915831 0.798703
0.000000 0.488563 0.759121
0.000000 0.484932 0.761685
0.565362 0.395850 0.737331
0.942260 0.408362 0.700374
1.000000 0.660609 0.723751
0.000000 0.575799 0.766995
0.000000 0.568322 0.766049
0.575402 0.495247 0.747250
0.928710 0.495399 0.707881
1.000000 0.692195 0.735042
0.000000 0.732937 0.777859
0.000000 0.733242 0.778195
0.639826 0.736873 0.781918
0.900298 0.713222 0.756924
1.000000 0.788754 0.786007
0.000000 0.869108 0.807980
0.284520 0.865232 0.807095
0.675257 0.855497 0.810910
0.909148 0.856901 0.829343
1.000000 0.856626 0.822599
0.484901 0.946868 0.840665
0.556664 0.944213 0.842130
0.740536 0.935698 0.848539
0.903349 0.924681 0.863523
0.986450 0.923919 0.855009
0.221958 0.747372 0.901183
0.433722 0.750423 0.899077
0.675410 0.729702 0.893950
0.883726 0.714290 0.875822
1.000000 0.733730 0.861997
0.247898 0.769528 0.900694
0.440650 0.771145 0.898863
0.708125 0.764706 0.892882
0.882383 0.738827 0.876829
1.000000 0.751827 0.863737
0.249729 0.825498 0.902617
0.420752 0.825834 0.901396
0.723690 0.827817 0.896849
0.881041 0.805234 0.884947
0.996216 0.805386 0.873045
0.398840 0.893828 0.910796
0.483375 0.891661 0.910124
0.690700 0.884520 0.908232
0.882200 0.879026 0.906218
0.986419 0.868254 0.894621
0.538903 0.960967 0.930358
0.587579 0.959045 0.930175
0.727657 0.952789 0.930053
0.866178 0.946136 0.930266
0.982238 0.952117 0.942870
