20 Preset/Natural Wedding/【3】LUT video cho PR-AE-FCPX/Lut Tone (2).cube
# Created by Adobe Lightroom plugin Export LUT (1.24.0)
# www.johnrellis.com/lightroom/exportlut.htm
# Preset: 清新婚礼-素材江湖02
# Color profile: C:\Program Files (x86)\Common Files\Adobe\Color\Profiles\Recommended\VideoHD.icc
LUT_3D_SIZE 5
DOMAIN_MIN 0.000000 0.000000 0.000000
DOMAIN_MAX 0.903226 0.903226 0.903226
0.092714 0.056123 0.002716
0.109651 0.049134 0.001495
0.365423 0.000000 0.000000
0.713527 0.000000 0.143496
0.869108 0.381628 0.392432
0.099763 0.073976 0.002136
0.116457 0.080751 0.000000
0.444099 0.087098 0.000000
0.742855 0.183780 0.108736
0.872984 0.424414 0.397925
0.184360 0.202823 0.077485
0.194247 0.197208 0.044953
0.391150 0.331701 0.000000
0.802518 0.499306 0.000000
0.875486 0.535058 0.386297
0.298863 0.393133 0.234989
0.303899 0.384680 0.221683
0.395453 0.448676 0.236851
0.653956 0.597986 0.287968
0.840330 0.666743 0.425422
0.471473 0.603937 0.430152
0.474281 0.600427 0.422950
0.494057 0.593652 0.398199
0.642969 0.678553 0.475105
0.772488 0.732692 0.552941
0.102144 0.075746 0.025452
0.132723 0.055543 0.034943
0.384009 0.000000 0.090578
0.717556 0.153079 0.144717
0.867185 0.386297 0.367834
0.127382 0.109468 0.048493
0.181674 0.134066 0.102815
0.451270 0.162997 0.117586
0.743374 0.258579 0.150820
0.870207 0.420905 0.368475
0.250126 0.289982 0.204623
0.255192 0.274510 0.181643
0.422248 0.373877 0.183352
0.793088 0.512779 0.199313
0.874571 0.539025 0.373816
0.340276 0.440345 0.308263
0.344091 0.432471 0.295995
0.415564 0.469856 0.297826
0.662715 0.613886 0.367529
0.837247 0.669429 0.437385
0.487404 0.616785 0.457404
0.489021 0.612848 0.449744
0.507012 0.604639 0.426276
0.650141 0.684749 0.503960
0.773373 0.736446 0.570367
0.157656 0.201816 0.318090
0.193027 0.200961 0.350225
0.408087 0.157259 0.393256
0.647059 0.260594 0.402625
0.819181 0.491432 0.514672
0.211215 0.260807 0.332036
0.258762 0.286229 0.373144
0.442237 0.262486 0.426307
0.667567 0.353216 0.437812
0.815488 0.532952 0.535729
0.296483 0.399908 0.386481
0.344457 0.425422 0.412665
0.532769 0.531334 0.517876
0.718379 0.575586 0.542626
0.819394 0.615076 0.566735
0.448280 0.547356 0.476051
0.468116 0.558312 0.486915
0.514244 0.564477 0.491035
0.683680 0.660975 0.557397
0.813199 0.707637 0.603113
0.557122 0.659205 0.554650
0.556390 0.656886 0.548882
0.555871 0.645014 0.521538
0.648829 0.685054 0.554070
0.769894 0.742550 0.621973
0.312383 0.415534 0.548669
0.351293 0.429938 0.566339
0.437537 0.416968 0.593286
0.642878 0.394842 0.618738
0.767697 0.469032 0.595361
0.335180 0.438544 0.545922
0.367590 0.450690 0.561151
0.454047 0.451881 0.595636
0.646632 0.436042 0.621332
0.763973 0.498787 0.599542
0.382055 0.500420 0.545006
0.408026 0.509148 0.553246
0.524804 0.561639 0.603449
0.665003 0.568048 0.635431
0.763149 0.618524 0.635065
0.483986 0.606134 0.580896
0.504814 0.613184 0.587549
0.593072 0.646418 0.618341
0.713405 0.708614 0.672602
0.784298 0.725734 0.681819
0.611353 0.686091 0.622675
0.617365 0.688350 0.624872
0.643244 0.698726 0.634607
0.672358 0.701198 0.633936
0.773159 0.756741 0.681544
0.582055 0.632654 0.682551
0.591119 0.634638 0.684108
0.609918 0.629572 0.690272
0.661128 0.621942 0.697719
0.751064 0.606622 0.703456
0.577661 0.632380 0.678828
0.587549 0.634943 0.680751
0.612604 0.635096 0.687922
0.660609 0.627253 0.695918
0.749844 0.614679 0.702571
0.575036 0.642451 0.670741
0.582879 0.644007 0.672267
0.623346 0.656367 0.681666
0.667659 0.655512 0.693538
0.751217 0.652644 0.703517
0.605310 0.681056 0.673915
0.608759 0.680751 0.674098
0.630335 0.683406 0.677485
0.691951 0.703792 0.694423
0.762478 0.713771 0.711574
0.652094 0.724269 0.682460
0.655421 0.724727 0.682948
0.674525 0.729213 0.687129
0.714534 0.740597 0.697505
0.786923 0.777127 0.728695
