20 Preset/Natural Wedding/【3】LUT video cho PR-AE-FCPX/Lut Tone (15).cube
# Created by Adobe Lightroom plugin Export LUT (1.24.0)
# www.johnrellis.com/lightroom/exportlut.htm
# Preset: 清新婚礼-素材江湖15
# Color profile: C:\Program Files (x86)\Common Files\Adobe\Color\Profiles\Recommended\VideoHD.icc
LUT_3D_SIZE 5
DOMAIN_MIN 0.000000 0.000000 0.000000
DOMAIN_MAX 0.903226 0.903226 0.903226
0.000000 0.000000 0.000000
0.098329 0.031617 0.013642
0.383429 0.000000 0.122469
0.830655 0.004059 0.247349
0.944579 0.540368 0.503838
0.000000 0.105745 0.029908
0.099001 0.104311 0.013397
0.368902 0.097475 0.080140
0.823972 0.164645 0.212985
0.947967 0.546166 0.490730
0.000000 0.336736 0.183230
0.000000 0.330602 0.181552
0.437812 0.367956 0.116213
0.815610 0.403754 0.115236
0.954376 0.543359 0.387152
0.000000 0.697597 0.349065
0.000000 0.694545 0.368109
0.432074 0.649500 0.372442
0.769253 0.671412 0.269993
0.935637 0.661982 0.382818
0.527428 0.825650 0.671839
0.576287 0.822538 0.684047
0.662989 0.807004 0.689998
0.745937 0.795315 0.685878
0.887236 0.807370 0.655634
0.000000 0.052918 0.095644
0.096834 0.035187 0.086336
0.353368 0.098726 0.151614
0.784970 0.060029 0.204105
0.943572 0.481331 0.433722
0.000000 0.127962 0.127779
0.108736 0.130770 0.133303
0.371527 0.146242 0.162387
0.786404 0.188602 0.205783
0.945830 0.485298 0.416999
0.000000 0.355657 0.227543
0.000000 0.360357 0.229313
0.425330 0.367285 0.192050
0.788876 0.403571 0.205539
0.951812 0.531334 0.363134
0.000000 0.703578 0.385534
0.000000 0.701472 0.402686
0.470497 0.667018 0.426551
0.766354 0.677363 0.342260
0.926207 0.672358 0.437720
0.510979 0.827298 0.676570
0.561975 0.823880 0.687434
0.690822 0.814176 0.724025
0.755856 0.799710 0.711391
0.887205 0.812497 0.687282
0.000000 0.158297 0.309697
0.000000 0.133486 0.307073
0.371527 0.028901 0.285924
0.801175 0.218784 0.363622
0.906401 0.584710 0.559045
0.000000 0.236606 0.340703
0.000000 0.226078 0.344457
0.420508 0.154391 0.321813
0.792081 0.355596 0.399603
0.904417 0.599878 0.568078
0.000000 0.469734 0.411627
0.000000 0.476997 0.416785
0.515740 0.507988 0.451484
0.770809 0.555962 0.486763
0.900633 0.639338 0.581018
0.000000 0.730465 0.525383
0.000000 0.723964 0.525658
0.531701 0.712215 0.577661
0.757839 0.705745 0.560998
0.893523 0.708919 0.603754
0.351110 0.834989 0.684443
0.452918 0.831449 0.696620
0.654505 0.819913 0.734432
0.758907 0.801205 0.745022
0.876524 0.812650 0.726741
0.000000 0.355444 0.634424
0.000000 0.338170 0.639216
0.353338 0.235477 0.608911
0.777646 0.152712 0.570916
0.910277 0.550866 0.628656
0.000000 0.423651 0.649348
0.000000 0.407202 0.649378
0.355413 0.315282 0.626032
0.771328 0.279881 0.581384
0.898283 0.583886 0.643580
0.000000 0.576959 0.673091
0.000000 0.577325 0.674495
0.410071 0.586908 0.681941
0.752956 0.558862 0.648127
0.868315 0.690822 0.714504
0.000000 0.751492 0.721340
0.000000 0.748867 0.720241
0.423499 0.743587 0.726131
0.761593 0.749050 0.752499
0.863188 0.761318 0.765591
0.000000 0.852567 0.762020
0.000000 0.849943 0.764675
0.521050 0.839902 0.776181
0.764645 0.823819 0.798978
0.868711 0.820798 0.792386
0.000000 0.588098 0.839292
0.000000 0.594690 0.837217
0.437964 0.578576 0.831266
0.716609 0.561303 0.810452
0.900755 0.582361 0.791531
0.000000 0.614954 0.839017
0.000000 0.620142 0.837156
0.484565 0.622583 0.830411
0.716793 0.592859 0.812039
0.894408 0.606867 0.794369
0.000000 0.685481 0.840909
0.000000 0.689143 0.839567
0.501122 0.703578 0.834043
0.719722 0.680385 0.821347
0.877195 0.680293 0.806912
0.000000 0.781827 0.845914
0.000000 0.780911 0.845182
0.437140 0.777676 0.842924
0.726711 0.775937 0.840024
0.866300 0.762539 0.829221
0.000000 0.865415 0.857725
0.166415 0.863432 0.857542
0.506706 0.856229 0.857145
0.718593 0.846677 0.856901
0.882963 0.846860 0.864683
