20 Preset/Natural Wedding/【3】LUT video cho PR-AE-FCPX/Lut Tone (6).cube
# Created by Adobe Lightroom plugin Export LUT (1.24.0)
# www.johnrellis.com/lightroom/exportlut.htm
# Preset: 清新婚礼-素材江湖06
# Color profile: C:\Program Files (x86)\Common Files\Adobe\Color\Profiles\Recommended\VideoHD.icc
LUT_3D_SIZE 5
DOMAIN_MIN 0.000000 0.000000 0.000000
DOMAIN_MAX 0.903226 0.903226 0.903226
0.000000 0.000000 0.000000
0.055177 0.019623 0.000000
0.474128 0.000000 0.000000
0.919585 0.000000 0.000000
1.000000 0.216526 0.000000
0.000000 0.108095 0.032990
0.078645 0.108003 0.000000
0.467720 0.110994 0.000000
0.899962 0.178225 0.000000
1.000000 0.323766 0.000000
0.101534 0.591211 0.418952
0.232914 0.616876 0.417517
0.578149 0.560906 0.251438
0.876707 0.528161 0.223484
1.000000 0.550713 0.267643
0.726253 0.808499 0.767361
0.741817 0.811307 0.773404
0.791165 0.821225 0.795315
0.837522 0.787716 0.628656
0.920562 0.753323 0.621241
0.850797 0.854520 0.856016
0.854459 0.855528 0.857603
0.860960 0.858457 0.859342
0.874022 0.860716 0.859831
0.889342 0.846555 0.821012
0.000000 0.042359 0.044312
0.038575 0.044617 0.041688
0.475898 0.000000 0.056916
0.900816 0.000000 0.000000
1.000000 0.284825 0.000000
0.000000 0.125978 0.123995
0.097566 0.144808 0.150790
0.500145 0.169375 0.146609
0.895018 0.259190 0.098329
1.000000 0.369543 0.099031
0.167086 0.562737 0.439124
0.330999 0.587091 0.465888
0.561395 0.557946 0.354223
0.857053 0.548302 0.336950
0.991455 0.586511 0.380987
0.720302 0.804868 0.766751
0.743343 0.807004 0.776455
0.791928 0.818479 0.798276
0.830777 0.788510 0.669276
0.910552 0.761105 0.660334
0.848966 0.853635 0.855406
0.853178 0.854520 0.857237
0.863645 0.859190 0.861723
0.877134 0.862028 0.863645
0.890105 0.848020 0.827146
0.000000 0.167605 0.356603
0.101808 0.176150 0.370550
0.423865 0.185550 0.380743
0.875425 0.241123 0.425330
1.000000 0.505699 0.482460
0.000000 0.278965 0.406317
0.177157 0.295720 0.428748
0.474800 0.316411 0.438025
0.875792 0.379034 0.463569
0.979492 0.583124 0.540673
0.221958 0.567041 0.543633
0.337285 0.577508 0.554894
0.596674 0.625971 0.610071
0.832303 0.658259 0.617792
0.934600 0.691798 0.639002
0.687129 0.790036 0.761135
0.708034 0.791562 0.767117
0.781216 0.803342 0.796872
0.817960 0.793240 0.757015
0.886992 0.782559 0.748562
0.837675 0.849088 0.851286
0.842649 0.850187 0.853361
0.861112 0.854734 0.861540
0.882444 0.863584 0.871702
0.887785 0.848173 0.837003
0.213321 0.425849 0.651484
0.327703 0.441901 0.662715
0.563745 0.462531 0.678218
0.775265 0.515953 0.684169
0.903655 0.668818 0.732235
0.276402 0.493477 0.664729
0.368383 0.508141 0.677546
0.578363 0.527031 0.693629
0.773007 0.569268 0.699306
0.896696 0.689479 0.742519
0.425391 0.647395 0.713954
0.471351 0.651179 0.716335
0.635676 0.680781 0.740352
0.775448 0.704128 0.750973
0.883513 0.749660 0.778347
0.667018 0.782345 0.787137
0.682185 0.782528 0.788083
0.739284 0.786709 0.795682
0.812497 0.799191 0.813687
0.877134 0.806851 0.817166
0.817899 0.840940 0.846250
0.822293 0.841825 0.847715
0.840146 0.846281 0.854398
0.874784 0.856596 0.869474
0.887083 0.850553 0.853605
0.622278 0.694240 0.820218
0.650263 0.701839 0.821103
0.713100 0.708614 0.822751
0.802090 0.719478 0.825589
0.863249 0.746120 0.822751
0.628046 0.705318 0.819333
0.654170 0.711818 0.820493
0.719112 0.722103 0.822904
0.801205 0.730739 0.825803
0.860868 0.754330 0.824308
0.648768 0.742733 0.821530
0.661891 0.743404 0.821042
0.737026 0.759304 0.826413
0.803403 0.766629 0.830198
0.857633 0.782742 0.832883
0.745266 0.802976 0.838529
0.748898 0.802426 0.838163
0.767086 0.801053 0.837613
0.814420 0.805905 0.842039
0.864714 0.817136 0.849790
0.815885 0.842588 0.860197
0.818051 0.842588 0.860319
0.828428 0.843412 0.861662
0.848234 0.845182 0.864439
0.884733 0.852567 0.873472
