20 Preset/Natural Wedding/【3】LUT video cho PR-AE-FCPX/Lut Tone (14).cube
# Created by Adobe Lightroom plugin Export LUT (1.24.0)
# www.johnrellis.com/lightroom/exportlut.htm
# Preset: 清新婚礼-素材江湖14
# Color profile: C:\Program Files (x86)\Common Files\Adobe\Color\Profiles\Recommended\VideoHD.icc
LUT_3D_SIZE 8
DOMAIN_MIN 0.000000 0.000000 0.000000
DOMAIN_MAX 0.903226 0.903226 0.903226
0.000000 0.000000 0.000000
0.001923 0.010895 0.001862
0.141756 0.016754 0.012299
0.309453 0.000000 0.054170
0.591699 0.000000 0.109377
0.831846 0.000000 0.162570
0.967010 0.000000 0.260227
1.000000 0.395361 0.387976
0.000000 0.033448 0.002594
0.000000 0.036988 0.000000
0.127230 0.046845 0.007263
0.277958 0.000000 0.043488
0.544762 0.000000 0.099733
0.805722 0.000000 0.150149
0.947906 0.000000 0.235080
1.000000 0.360266 0.360601
0.000000 0.129244 0.044404
0.000000 0.130007 0.040894
0.141054 0.131716 0.000000
0.265476 0.122103 0.044343
0.513787 0.095064 0.070649
0.802731 0.001465 0.132692
0.949004 0.235325 0.237583
0.996674 0.434424 0.377966
0.000000 0.248234 0.134737
0.000000 0.248753 0.134707
0.014313 0.234989 0.121859
0.349706 0.284428 0.000000
0.566155 0.294896 0.101503
0.796536 0.329686 0.103243
0.928038 0.376471 0.210300
0.982818 0.489021 0.364569
0.000000 0.479316 0.206241
0.000000 0.480323 0.202701
0.000000 0.483864 0.175998
0.220706 0.465034 0.142794
0.612329 0.516442 0.000000
0.760464 0.474708 0.104891
0.884245 0.491646 0.210147
0.960937 0.548394 0.334386
0.000000 0.672328 0.290288
0.000000 0.679774 0.297154
0.000000 0.679500 0.304814
0.000000 0.661189 0.270878
0.473732 0.654963 0.193973
0.781521 0.665187 0.000000
0.874113 0.625086 0.252781
0.929931 0.652247 0.408576
0.000000 0.779751 0.429847
0.000000 0.779629 0.435920
0.000000 0.774777 0.451423
0.383673 0.767117 0.455329
0.494270 0.748470 0.413794
0.670222 0.752956 0.341924
0.871122 0.747860 0.235538
0.921172 0.725429 0.429206
0.456947 0.836027 0.603571
0.474617 0.835142 0.606195
0.541405 0.831907 0.618616
0.635126 0.826963 0.641444
0.645777 0.816037 0.603540
0.706813 0.809995 0.584802
0.811429 0.816556 0.542199
0.928679 0.812741 0.478096
0.000000 0.015595 0.012818
0.000000 0.014252 0.010498
0.129152 0.028779 0.018585
0.261631 0.001953 0.041321
0.522728 0.000000 0.096529
0.789578 0.000000 0.144961
0.937591 0.000000 0.223850
0.998138 0.323400 0.342229
0.000000 0.046387 0.020233
0.000000 0.047852 0.021790
0.125368 0.063722 0.032197
0.258061 0.038819 0.049561
0.506462 0.000000 0.091585
0.778347 0.000000 0.138552
0.926116 0.000000 0.212436
0.993164 0.305364 0.325841
0.000000 0.131563 0.084382
0.000000 0.133455 0.088441
0.139590 0.135439 0.048859
0.262364 0.131289 0.092287
0.489540 0.112825 0.094606
0.762417 0.052979 0.117525
0.919280 0.179873 0.202182
0.989105 0.374060 0.332525
0.000000 0.239567 0.146700
0.000000 0.241215 0.147066
0.031403 0.236118 0.138979
0.321569 0.264805 0.055055
0.506645 0.264286 0.127077
0.745541 0.295445 0.121767
0.896025 0.332799 0.168032
0.974395 0.437476 0.315801
0.000000 0.471412 0.219425
0.000000 0.470893 0.216190
0.000000 0.475654 0.201968
0.209720 0.444251 0.165438
0.579767 0.489540 0.000000
0.733486 0.454414 0.129397
0.868772 0.475471 0.208621
0.954986 0.524498 0.302129
0.000000 0.660304 0.293034
0.000000 0.661128 0.293309
0.000000 0.662684 0.298772
0.000000 0.648707 0.272740
0.458564 0.642756 0.206729
0.771695 0.658412 0.000000
0.866117 0.618891 0.259251
0.925292 0.643580 0.399847
0.000000 0.772671 0.419196
0.000000 0.770657 0.419745
0.000000 0.766049 0.432959
0.351812 0.759609 0.444373
0.480446 0.742580 0.408484
0.659022 0.746609 0.338903
0.862852 0.740902 0.228000
0.915618 0.715480 0.410742
0.414771 0.833036 0.590356
0.442420 0.832700 0.595850
0.515373 0.829282 0.608057
0.618250 0.824216 0.632166
0.660914 0.819028 0.619104
0.711299 0.810758 0.594018
0.809659 0.815732 0.546288
0.926909 0.811978 0.482704
0.000000 0.072236 0.122499
0.000000 0.054414 0.120699
0.121950 0.046632 0.109957
0.289708 0.010315 0.130648
0.563592 0.000000 0.160067
0.803189 0.000000 0.181827
0.936034 0.113619 0.221042
0.996338 0.370336 0.350652
0.000000 0.098573 0.132784
0.000000 0.097047 0.133669
0.127138 0.088106 0.123323
0.289311 0.078492 0.140475
0.547173 0.000000 0.164004
0.790738 0.000000 0.183261
0.925536 0.125399 0.210086
0.992523 0.358251 0.336828
0.000000 0.154360 0.159213
0.000000 0.155673 0.160769
0.142550 0.158358 0.166629
0.303471 0.164584 0.175021
0.555718 0.154543 0.184726
0.788998 0.171145 0.197940
0.918853 0.253788 0.225925
0.986358 0.398199 0.333165
0.000000 0.268833 0.210239
0.000000 0.273655 0.212650
0.000000 0.290593 0.218235
0.356237 0.307347 0.182834
0.564874 0.312718 0.212436
0.775051 0.342992 0.223667
0.902770 0.389105 0.257755
0.974029 0.462806 0.324743
0.000000 0.498451 0.281559
0.000000 0.500145 0.280003
0.000000 0.509483 0.277348
0.248447 0.491524 0.258152
0.607446 0.524651 0.154757
0.742580 0.486458 0.247074
0.869871 0.510307 0.297002
0.947814 0.559411 0.371252
0.000000 0.670130 0.346319
0.000000 0.671443 0.347570
0.000000 0.671870 0.352880
0.202182 0.666041 0.351049
0.475776 0.649073 0.302434
0.768521 0.664637 0.204105
0.857420 0.633234 0.343633
0.918029 0.662684 0.457893
0.000000 0.777890 0.458778
0.000000 0.776181 0.459602
0.000000 0.770748 0.469490
0.428107 0.762722 0.499733
0.521202 0.748165 0.465034
0.668940 0.749203 0.411841
0.860807 0.748074 0.335760
0.910246 0.730190 0.480781
0.405676 0.834775 0.602564
0.424628 0.833585 0.603998
0.501671 0.830076 0.615198
0.613916 0.825620 0.640803
0.673030 0.820157 0.639002
0.720638 0.811551 0.619257
0.811643 0.817197 0.581231
0.923369 0.815000 0.528161
0.000000 0.120790 0.237736
0.000000 0.120150 0.240818
0.064149 0.104128 0.225986
0.260044 0.078614 0.219577
0.542840 0.000000 0.254856
0.817838 0.000000 0.280919
0.925536 0.274876 0.337255
0.981231 0.413245 0.385626
0.000000 0.147829 0.253452
0.000000 0.145663 0.254093
0.080781 0.125063 0.242496
0.274052 0.104585 0.232486
0.560784 0.000000 0.265110
0.819028 0.000000 0.289952
0.921324 0.295171 0.340490
0.978393 0.422889 0.388403
0.000000 0.208591 0.274296
0.000000 0.209812 0.276158
0.028443 0.206271 0.282506
0.307958 0.177127 0.266880
0.606043 0.172396 0.299077
0.816983 0.304173 0.344549
0.915648 0.405707 0.379797
0.970672 0.489937 0.423346
0.000000 0.339117 0.322240
0.000000 0.340612 0.323156
0.000000 0.352087 0.330846
0.382086 0.372747 0.349248
0.615656 0.394263 0.353155
0.783352 0.427466 0.365148
0.889860 0.477485 0.393103
0.953429 0.541650 0.441901
0.000000 0.548333 0.385443
0.000000 0.549920 0.385626
0.000000 0.560540 0.390692
0.347021 0.574945 0.408576
0.632868 0.576471 0.365240
0.754696 0.555627 0.404822
0.863920 0.579339 0.436286
0.930785 0.619013 0.487495
0.000000 0.698604 0.445472
0.000000 0.703456 0.452064
0.000000 0.700801 0.455940
0.366186 0.697353 0.477302
0.550134 0.676326 0.461982
0.769467 0.688045 0.402869
0.842527 0.667597 0.478431
0.906950 0.693080 0.544396
0.000000 0.785122 0.517723
0.000000 0.784573 0.521202
0.078370 0.780880 0.532921
0.459541 0.773861 0.557641
0.597986 0.763882 0.563256
0.691981 0.756558 0.524712
0.852689 0.758541 0.473548
0.899657 0.746761 0.564569
0.393317 0.840696 0.631098
0.416693 0.839719 0.633204
0.497810 0.835996 0.642542
0.606897 0.830137 0.660548
0.704219 0.823514 0.680995
0.736721 0.815702 0.657252
0.812833 0.818906 0.630762
0.917540 0.820035 0.594415
0.000000 0.208103 0.397925
0.000000 0.205234 0.401038
0.000000 0.163149 0.395361
0.273320 0.133608 0.363317
0.514549 0.000000 0.371069
0.780850 0.000000 0.395697
0.913848 0.282261 0.423316
0.955474 0.518669 0.511101
0.000000 0.236667 0.411261
0.000000 0.233402 0.414679
0.000000 0.195224 0.411749
0.283116 0.153475 0.376349
0.527306 0.000000 0.380621
0.783413 0.000000 0.401831
0.910613 0.318456 0.431556
0.950744 0.535607 0.520684
0.000000 0.312902 0.434272
0.000000 0.311559 0.436133
0.000000 0.298772 0.444038
0.305516 0.237400 0.424964
0.554955 0.197910 0.407752
0.777127 0.244785 0.418799
0.893797 0.421546 0.459876
0.935149 0.577356 0.543053
0.000000 0.435828 0.469123
0.000000 0.435920 0.470192
0.000000 0.439734 0.478187
0.316838 0.443305 0.492378
0.599390 0.410010 0.469245
0.774319 0.475380 0.482704
0.864988 0.579370 0.539147
0.924468 0.616968 0.561364
0.000000 0.586938 0.508171
0.000000 0.588952 0.509880
0.000000 0.594079 0.515068
0.268711 0.602136 0.526177
0.622889 0.611963 0.545556
0.749966 0.617334 0.544427
0.844480 0.632868 0.554620
0.910765 0.658961 0.578363
0.000000 0.696040 0.526421
0.000000 0.696834 0.527825
0.000000 0.696834 0.531060
0.292149 0.698695 0.545647
0.589502 0.696162 0.567956
0.751369 0.701534 0.551720
0.824491 0.695491 0.584100
0.894621 0.714687 0.614496
0.000000 0.790982 0.582544
0.000000 0.789487 0.581933
0.000000 0.785031 0.583429
0.396246 0.778836 0.598840
0.615473 0.771237 0.624598
0.703059 0.756893 0.611017
0.836942 0.764065 0.578729
0.883909 0.755093 0.627405
0.000000 0.845609 0.638239
0.003632 0.844419 0.640040
0.347265 0.839841 0.648676
0.542321 0.834043 0.671046
0.675074 0.826383 0.691890
0.746548 0.819333 0.693782
0.805936 0.817166 0.672511
0.906401 0.820340 0.644770
0.000000 0.333959 0.582849
0.000000 0.329168 0.584222
0.000000 0.305364 0.587304
0.183963 0.227787 0.574334
0.529534 0.185641 0.536522
0.752041 0.090730 0.532036
0.890867 0.291325 0.527581
0.944396 0.521508 0.574975
0.000000 0.349279 0.579034
0.000000 0.343816 0.579553
0.000000 0.320500 0.581689
0.168399 0.240177 0.567559
0.520226 0.204349 0.529992
0.743130 0.139071 0.527398
0.884123 0.304234 0.524956
0.940703 0.523186 0.572778
0.000000 0.431128 0.604791
0.000000 0.428717 0.604883
0.000000 0.413214 0.605859
0.179995 0.337743 0.595117
0.539483 0.312627 0.559564
0.749874 0.298253 0.548608
0.874022 0.415900 0.547539
0.928801 0.574670 0.595697
0.000000 0.530358 0.621668
0.000000 0.528893 0.620844
0.000000 0.529412 0.622919
0.285008 0.536278 0.630426
0.575463 0.502831 0.613733
0.755123 0.498634 0.594507
0.856535 0.566705 0.598505
0.912627 0.652705 0.639979
0.000000 0.627436 0.627924
0.000000 0.627497 0.628138
0.000000 0.629023 0.629969
0.235660 0.634607 0.635218
0.586603 0.643549 0.642390
0.739437 0.627253 0.625910
0.835691 0.661189 0.637079
0.895628 0.709834 0.674067
0.000000 0.725002 0.645228
0.000000 0.726711 0.647700
0.000000 0.725612 0.648646
0.259464 0.723384 0.651911
0.571832 0.721584 0.658869
0.752743 0.730800 0.679561
0.827146 0.734890 0.681697
0.888823 0.744167 0.689937
0.000000 0.797940 0.664851
0.000000 0.797971 0.666682
0.000000 0.795377 0.669154
0.389380 0.790555 0.675166
0.602441 0.785733 0.686671
0.741512 0.780148 0.699763
0.829252 0.778805 0.683650
0.876921 0.775845 0.702602
0.000000 0.851957 0.695674
0.000000 0.850980 0.695369
0.204593 0.847593 0.697230
0.443549 0.841947 0.703029
0.614832 0.833524 0.713008
0.746487 0.825711 0.730556
0.803861 0.817197 0.721431
0.896269 0.823941 0.703883
0.000000 0.445838 0.705470
0.000000 0.443671 0.705684
0.000000 0.436286 0.704707
0.000000 0.377630 0.700893
0.478737 0.348821 0.682216
0.702266 0.329808 0.657221
0.860777 0.350164 0.644190
0.926024 0.488960 0.632776
0.000000 0.459174 0.704921
0.000000 0.457343 0.705257
0.000000 0.450202 0.704311
0.000000 0.400977 0.700191
0.479042 0.366033 0.682460
0.700435 0.348089 0.657038
0.857145 0.365881 0.643885
0.922881 0.496315 0.632868
0.000000 0.514061 0.709712
0.000000 0.512413 0.709499
0.000000 0.506676 0.708217
0.250675 0.499947 0.704768
0.493172 0.445075 0.690883
0.702388 0.433387 0.665705
0.849149 0.449256 0.654261
0.913298 0.550927 0.648066
0.000000 0.585290 0.715328
0.000000 0.584527 0.714565
0.000000 0.586023 0.714046
0.256596 0.590875 0.712215
0.524773 0.562737 0.705196
0.706020 0.553735 0.681605
0.834409 0.559686 0.672328
0.899046 0.623011 0.671778
0.000000 0.662165 0.719783
0.000000 0.661982 0.719387
0.000000 0.662501 0.718868
0.205966 0.665583 0.718349
0.560906 0.674067 0.717403
0.708858 0.654322 0.704494
0.819852 0.652186 0.693263
0.886961 0.691829 0.700740
0.000000 0.739498 0.728115
0.000000 0.739406 0.728145
0.000000 0.738796 0.728084
0.259922 0.737789 0.728084
0.546197 0.737392 0.728908
0.722713 0.741207 0.733364
0.816068 0.732387 0.723964
0.882322 0.752987 0.735164
0.000000 0.805936 0.741604
0.000000 0.805509 0.741817
0.000000 0.803189 0.741848
0.345464 0.798917 0.742367
0.567132 0.793576 0.743832
0.718593 0.790341 0.748592
0.828733 0.795468 0.762631
0.881682 0.796262 0.761776
0.000000 0.854734 0.754238
0.000000 0.854093 0.754543
0.127443 0.851499 0.756069
0.423651 0.846647 0.758663
0.594385 0.840696 0.762844
0.720912 0.836088 0.769131
0.818112 0.831235 0.775906
0.889494 0.831357 0.764645
0.000000 0.588281 0.791836
0.000000 0.590173 0.791379
0.000000 0.597894 0.788632
0.426764 0.605463 0.784176
0.539330 0.566674 0.779171
0.696498 0.562493 0.765560
0.821500 0.554620 0.752926
0.911101 0.582544 0.742000
0.000000 0.594995 0.791226
0.000000 0.596826 0.790799
0.000000 0.604211 0.788296
0.440558 0.616358 0.783505
0.542290 0.575219 0.778897
0.696529 0.570397 0.765499
0.819760 0.561913 0.752590
0.909178 0.587457 0.741878
0.000000 0.623743 0.791592
0.000000 0.624964 0.791135
0.000000 0.630335 0.788724
0.457404 0.645960 0.784268
0.559716 0.611963 0.780179
0.699794 0.604944 0.767330
0.815824 0.596460 0.754269
0.902831 0.614710 0.745235
0.000000 0.664149 0.792752
0.000000 0.665553 0.792447
0.000000 0.671107 0.790829
0.433173 0.680537 0.787015
0.609827 0.679927 0.781918
0.706111 0.657160 0.772549
0.810941 0.648859 0.758907
0.893309 0.658045 0.752438
0.000000 0.711421 0.795010
0.000000 0.711849 0.794858
0.000000 0.712551 0.793729
0.366522 0.718746 0.791287
0.599481 0.726009 0.787259
0.710262 0.709438 0.781094
0.806516 0.701015 0.766171
0.883970 0.703914 0.762356
0.000000 0.767483 0.798795
0.000000 0.767178 0.798489
0.000000 0.766293 0.797482
0.341741 0.765164 0.795956
0.548150 0.763851 0.794125
0.716091 0.766506 0.792172
0.805844 0.752560 0.783047
0.878325 0.751461 0.777462
0.000000 0.820645 0.806394
0.000000 0.820249 0.806241
0.000000 0.818570 0.805661
0.393957 0.815579 0.804837
0.566491 0.811521 0.803799
0.698177 0.807126 0.803037
0.807462 0.804105 0.803922
0.877958 0.796170 0.796567
0.000000 0.865507 0.817990
0.000000 0.864958 0.817868
0.288945 0.862791 0.817716
0.454383 0.858885 0.817563
0.592889 0.853605 0.817380
0.706142 0.848081 0.817380
0.801633 0.843687 0.818723
0.891814 0.846952 0.828946
