20 Preset/Natural Wedding/【3】LUT video cho PR-AE-FCPX/Lut Tone (1).cube
# Created by Adobe Lightroom plugin Export LUT (1.24.0)
# www.johnrellis.com/lightroom/exportlut.htm
# Preset: 清新婚礼-素材江湖01
# Color profile: C:\Program Files (x86)\Common Files\Adobe\Color\Profiles\Recommended\VideoHD.icc
LUT_3D_SIZE 5
DOMAIN_MIN 0.000000 0.000000 0.000000
DOMAIN_MAX 0.903226 0.903226 0.903226
0.000000 0.000000 0.000000
0.072023 0.005249 0.001251
0.482979 0.000000 0.000000
0.860044 0.000000 0.000000
1.000000 0.000000 0.000000
0.000000 0.102754 0.013306
0.091707 0.093294 0.002502
0.479469 0.096895 0.000000
0.844266 0.000000 0.000000
1.000000 0.170047 0.000000
0.321904 0.600153 0.369818
0.403540 0.598352 0.381353
0.574914 0.515221 0.149538
0.827726 0.525566 0.000000
0.958160 0.513024 0.000000
0.694667 0.791806 0.737148
0.709041 0.792996 0.745449
0.720699 0.784665 0.715175
0.781338 0.743862 0.538567
0.879332 0.725978 0.507103
0.798978 0.848722 0.834806
0.803006 0.849577 0.836484
0.810361 0.847318 0.835416
0.814755 0.836759 0.813718
0.840452 0.817838 0.757412
0.000000 0.033478 0.086702
0.097353 0.029877 0.077119
0.511620 0.000000 0.046876
0.845243 0.000000 0.000000
0.998962 0.000000 0.000000
0.000000 0.143832 0.121035
0.154665 0.152804 0.124819
0.532830 0.132601 0.094942
0.842863 0.155764 0.000000
0.989715 0.252232 0.000000
0.365240 0.582574 0.426978
0.435920 0.595270 0.448859
0.567437 0.524010 0.310430
0.807706 0.539757 0.250523
0.943236 0.545464 0.254002
0.695460 0.788510 0.741970
0.710628 0.790311 0.750851
0.730587 0.786160 0.741299
0.774380 0.747250 0.594812
0.868528 0.734249 0.566247
0.798947 0.848081 0.835935
0.802884 0.848875 0.837522
0.818112 0.852079 0.843473
0.819577 0.839963 0.822080
0.841245 0.820798 0.771939
0.000000 0.164157 0.458381
0.000000 0.174685 0.465461
0.525048 0.196231 0.459236
0.810513 0.313512 0.462928
0.948974 0.445594 0.487312
0.000000 0.293187 0.487526
0.165805 0.300999 0.497475
0.551751 0.337224 0.495613
0.810971 0.413458 0.497810
0.932464 0.514794 0.523308
0.227756 0.586328 0.575097
0.353368 0.589776 0.577600
0.598444 0.609400 0.595178
0.782925 0.629358 0.595148
0.889220 0.645014 0.591608
0.661402 0.774319 0.739437
0.680720 0.774228 0.745205
0.740719 0.784909 0.775692
0.760525 0.759274 0.715175
0.840391 0.756313 0.695430
0.793423 0.841855 0.836515
0.797055 0.843565 0.838010
0.815335 0.849485 0.846067
0.826261 0.844694 0.839109
0.837186 0.822385 0.795010
0.000000 0.395453 0.723690
0.238529 0.413214 0.728908
0.534173 0.450355 0.726741
0.750423 0.511925 0.724819
0.839811 0.639399 0.719936
0.116274 0.462440 0.725185
0.290227 0.472572 0.728023
0.543969 0.504295 0.728817
0.744625 0.553643 0.726558
0.832456 0.661738 0.727840
0.334417 0.615381 0.736873
0.393713 0.618250 0.736599
0.576928 0.641444 0.743496
0.736782 0.675074 0.745571
0.826261 0.719387 0.757290
0.580591 0.760739 0.772854
0.599512 0.760433 0.772519
0.668147 0.762661 0.775357
0.755398 0.770626 0.784939
0.828580 0.776272 0.786130
0.751919 0.830625 0.828092
0.758724 0.831510 0.829984
0.786587 0.836759 0.839109
0.836179 0.852628 0.859831
0.837980 0.828763 0.826658
0.510521 0.637079 0.832395
0.543847 0.645441 0.831693
0.633143 0.666194 0.829465
0.732662 0.688228 0.825895
0.815000 0.715572 0.824155
0.518364 0.651606 0.831083
0.549920 0.658961 0.830533
0.639918 0.680873 0.828611
0.733577 0.699428 0.825559
0.813413 0.723873 0.824369
0.524712 0.694514 0.829740
0.554009 0.698665 0.829252
0.648829 0.717800 0.828519
0.737850 0.734157 0.827146
0.811307 0.751705 0.827787
0.631495 0.772061 0.835874
0.638666 0.771481 0.835416
0.668605 0.769711 0.834012
0.740017 0.774258 0.834501
0.816892 0.788327 0.838224
0.722988 0.829404 0.852049
0.727016 0.829374 0.852049
0.744472 0.829770 0.852689
0.778164 0.830900 0.854185
0.842466 0.838468 0.862058
