20 Preset/Natural Wedding/【3】LUT video cho PR-AE-FCPX/Lut Tone (4).cube
# Created by Adobe Lightroom plugin Export LUT (1.24.0)
# www.johnrellis.com/lightroom/exportlut.htm
# Preset: 清新婚礼-素材江湖04
# Color profile: C:\Program Files (x86)\Common Files\Adobe\Color\Profiles\Recommended\VideoHD.icc
LUT_3D_SIZE 5
DOMAIN_MIN 0.000000 0.000000 0.000000
DOMAIN_MAX 0.903226 0.903226 0.903226
0.000000 0.000000 0.000000
0.058839 0.005615 0.001465
0.393988 0.000000 0.000000
0.818936 0.000000 0.000000
1.000000 0.000000 0.000000
0.000000 0.095888 0.014893
0.082765 0.088991 0.007813
0.407691 0.086275 0.000000
0.809537 0.000000 0.000000
1.000000 0.203464 0.000000
0.251957 0.580072 0.324254
0.365301 0.583337 0.347906
0.533257 0.474556 0.140719
0.781125 0.493080 0.055329
0.965118 0.537499 0.150576
0.678035 0.815213 0.729763
0.699611 0.816342 0.741421
0.725673 0.805081 0.708949
0.793576 0.751980 0.527398
0.900603 0.742794 0.526726
0.833433 0.884825 0.862058
0.838834 0.885588 0.864012
0.855100 0.886809 0.868132
0.857725 0.872923 0.844480
0.883146 0.847776 0.781155
0.000000 0.036408 0.087098
0.097536 0.032074 0.076783
0.481270 0.000000 0.060456
0.840635 0.000000 0.000000
1.000000 0.153964 0.000000
0.000000 0.145541 0.121004
0.154269 0.152438 0.124636
0.512688 0.144808 0.116945
0.833829 0.178531 0.071046
1.000000 0.313420 0.044099
0.334997 0.585351 0.413733
0.416144 0.598291 0.435523
0.561364 0.519585 0.314855
0.786954 0.534203 0.292424
0.957641 0.571466 0.321904
0.685176 0.813046 0.742916
0.706203 0.814572 0.753872
0.740963 0.808774 0.746761
0.791592 0.759304 0.589685
0.893431 0.751553 0.582086
0.833707 0.884367 0.863523
0.839261 0.885191 0.865537
0.859800 0.888640 0.873106
0.860655 0.874540 0.850919
0.882261 0.848936 0.791745
0.000000 0.166659 0.469581
0.000000 0.172793 0.475715
0.538628 0.180331 0.469917
0.823606 0.295201 0.467201
0.992645 0.431861 0.498665
0.000000 0.299168 0.501579
0.151247 0.304295 0.513909
0.564752 0.328588 0.506035
0.827176 0.408881 0.506950
0.973541 0.523827 0.550072
0.160403 0.601190 0.587518
0.330846 0.605035 0.591241
0.607141 0.619104 0.606043
0.801694 0.641352 0.612360
0.925139 0.664088 0.617395
0.657008 0.801511 0.757076
0.686427 0.802426 0.766720
0.761105 0.812406 0.799405
0.785946 0.779049 0.730220
0.872587 0.776211 0.715541
0.830411 0.880034 0.866972
0.834806 0.881498 0.868223
0.857298 0.886748 0.876036
0.871916 0.881407 0.870634
0.880705 0.853025 0.821378
0.000000 0.402533 0.756344
0.209049 0.414893 0.760494
0.549279 0.446998 0.757473
0.784268 0.504814 0.755489
0.890349 0.637568 0.747616
0.000000 0.475441 0.759304
0.270726 0.483497 0.763088
0.561486 0.511528 0.764218
0.781399 0.559197 0.762387
0.882109 0.668513 0.758206
0.298528 0.638178 0.771084
0.368444 0.637812 0.769406
0.580072 0.655451 0.776852
0.766720 0.681178 0.774136
0.873259 0.736324 0.788327
0.565423 0.791226 0.805905
0.592401 0.791379 0.806546
0.679957 0.792325 0.809445
0.787869 0.797482 0.817502
0.874540 0.802548 0.818784
0.773434 0.868986 0.859129
0.783078 0.869810 0.861112
0.820493 0.874052 0.869749
0.880125 0.888029 0.888914
0.881834 0.859953 0.855436
0.441321 0.616571 0.866056
0.485634 0.622736 0.865446
0.611780 0.642481 0.863554
0.750423 0.665400 0.858732
0.860655 0.698512 0.855436
0.436713 0.629023 0.862547
0.481056 0.634791 0.862303
0.610285 0.655421 0.860868
0.746365 0.675288 0.856352
0.856809 0.706783 0.853880
0.416144 0.681788 0.858335
0.458686 0.683284 0.857694
0.603510 0.701350 0.857542
0.742245 0.720302 0.854612
0.851011 0.746365 0.855619
0.561883 0.784298 0.864012
0.572778 0.782589 0.863188
0.624933 0.778622 0.861570
0.743557 0.784268 0.863279
0.858274 0.804044 0.867887
0.703365 0.856809 0.876066
0.709621 0.856474 0.875914
0.739925 0.856657 0.876738
0.793240 0.856779 0.877958
0.875273 0.861814 0.883696
