20 Preset/Natural Wedding/【3】LUT video cho PR-AE-FCPX/Lut Tone (14).cube
# Created by Adobe Lightroom plugin Export LUT (1.24.0)
# www.johnrellis.com/lightroom/exportlut.htm
# Preset: 清新婚礼-素材江湖14
# Color profile: C:\Program Files (x86)\Common Files\Adobe\Color\Profiles\Recommended\VideoHD.icc
LUT_3D_SIZE 5
DOMAIN_MIN 0.000000 0.000000 0.000000
DOMAIN_MAX 0.903226 0.903226 0.903226
0.000000 0.000000 0.000000
0.112459 0.018738 0.007691
0.443702 0.000000 0.088777
0.883177 0.000000 0.185733
1.000000 0.395361 0.387976
0.000000 0.109163 0.026307
0.111879 0.111574 0.000000
0.386114 0.078248 0.053315
0.861387 0.000000 0.164309
0.999573 0.433509 0.387091
0.000000 0.355383 0.173037
0.000000 0.355688 0.152682
0.498024 0.413367 0.000000
0.809445 0.405676 0.134951
0.972168 0.512566 0.345586
0.000000 0.713710 0.328832
0.000000 0.712642 0.338354
0.327794 0.683345 0.298039
0.809781 0.690333 0.000000
0.921996 0.672450 0.426123
0.456947 0.836027 0.603571
0.520684 0.832914 0.614405
0.622004 0.819394 0.611353
0.729854 0.812131 0.577142
0.928679 0.812741 0.478096
0.000000 0.052949 0.095247
0.096834 0.035187 0.086336
0.403693 0.000000 0.126528
0.828824 0.000000 0.155154
0.995209 0.341741 0.339269
0.000000 0.127962 0.127260
0.109010 0.130770 0.132570
0.397833 0.127626 0.148348
0.820523 0.093996 0.166506
0.989258 0.377966 0.334051
0.000000 0.365209 0.227756
0.000000 0.374762 0.223697
0.470802 0.399481 0.130556
0.787076 0.404334 0.211185
0.967010 0.505241 0.328527
0.000000 0.716335 0.371801
0.000000 0.715969 0.381231
0.386419 0.693660 0.367498
0.804501 0.693599 0.206699
0.913268 0.682094 0.468605
0.443427 0.836820 0.611200
0.508904 0.833463 0.620691
0.664485 0.824216 0.651392
0.743221 0.815030 0.611688
0.926940 0.817929 0.531701
0.000000 0.158267 0.312871
0.000000 0.133455 0.310155
0.371099 0.028809 0.288212
0.842527 0.000000 0.343114
0.965057 0.486397 0.460975
0.000000 0.236576 0.345068
0.000000 0.226047 0.348882
0.419806 0.154360 0.325689
0.837705 0.252049 0.371893
0.956512 0.522026 0.477577
0.000000 0.469734 0.414618
0.000000 0.476997 0.419318
0.516075 0.507988 0.449897
0.793088 0.539147 0.460517
0.930205 0.609033 0.517205
0.000000 0.732021 0.508232
0.000000 0.726864 0.507836
0.510430 0.719997 0.543999
0.785794 0.714687 0.494575
0.893767 0.711543 0.580133
0.270146 0.841337 0.628779
0.404303 0.837980 0.639307
0.635554 0.827024 0.672206
0.748989 0.813230 0.665522
0.910796 0.818235 0.612543
0.000000 0.355596 0.610254
0.000000 0.338323 0.614405
0.363897 0.235660 0.589410
0.780087 0.152956 0.556329
0.939788 0.502739 0.581292
0.000000 0.423774 0.621820
0.000000 0.407324 0.622034
0.368139 0.315435 0.603052
0.774289 0.280003 0.564355
0.928283 0.542748 0.593561
0.000000 0.577050 0.638849
0.000000 0.577417 0.639948
0.428534 0.586999 0.645197
0.759579 0.558953 0.615869
0.900175 0.666743 0.653254
0.000000 0.751614 0.675807
0.000000 0.748959 0.674769
0.447547 0.743679 0.679500
0.773831 0.749172 0.702571
0.884154 0.755703 0.705959
0.000000 0.852659 0.710384
0.094667 0.850034 0.712947
0.536309 0.840848 0.723720
0.767330 0.827665 0.743801
0.894041 0.825254 0.718776
0.000000 0.588281 0.791836
0.000000 0.594873 0.789548
0.466590 0.578790 0.783078
0.731167 0.561517 0.761288
0.911101 0.582544 0.742000
0.000000 0.615137 0.791531
0.000000 0.620325 0.789517
0.509636 0.622766 0.782132
0.731441 0.593042 0.762722
0.904967 0.607050 0.744564
0.000000 0.685634 0.793912
0.000000 0.689296 0.792447
0.524987 0.703731 0.786404
0.734463 0.680537 0.772244
0.888365 0.680446 0.756741
0.000000 0.781949 0.800809
0.000000 0.781033 0.799985
0.464881 0.777798 0.797452
0.740749 0.776059 0.794369
0.877562 0.762692 0.781643
0.000000 0.865507 0.817990
0.241947 0.863523 0.817746
0.527276 0.856352 0.817502
0.731350 0.846769 0.817502
0.891814 0.846952 0.828946
