20 Preset/Natural Wedding/【3】LUT video cho PR-AE-FCPX/Lut Tone (17).cube
# Created by Adobe Lightroom plugin Export LUT (1.24.0)
# www.johnrellis.com/lightroom/exportlut.htm
# Preset: 清新婚礼-素材江湖17
# Color profile: C:\Program Files (x86)\Common Files\Adobe\Color\Profiles\Recommended\VideoHD.icc
LUT_3D_SIZE 5
DOMAIN_MIN 0.000000 0.000000 0.000000
DOMAIN_MAX 0.903226 0.903226 0.903226
0.000000 0.000000 0.000000
0.097932 0.024109 0.007904
0.378088 0.000000 0.125795
0.809171 0.065309 0.247379
0.973816 0.520531 0.484993
0.000000 0.105440 0.023468
0.100313 0.104250 0.005432
0.364965 0.098390 0.081544
0.802487 0.170108 0.215549
0.977722 0.529747 0.471809
0.000000 0.331243 0.186709
0.000000 0.325231 0.186435
0.427131 0.359808 0.129671
0.796201 0.394934 0.130129
0.977996 0.540124 0.370977
0.000000 0.681697 0.341497
0.000000 0.679072 0.358770
0.419043 0.633356 0.362860
0.755978 0.660182 0.263249
0.964324 0.672541 0.359197
0.452125 0.852750 0.666224
0.515129 0.849699 0.676783
0.631312 0.830228 0.674830
0.749142 0.814481 0.669856
0.931456 0.832975 0.632074
0.000000 0.048371 0.094301
0.097841 0.026032 0.084230
0.348852 0.107912 0.156039
0.762722 0.100435 0.207248
0.960967 0.464698 0.419104
0.000000 0.130526 0.130648
0.111788 0.133364 0.136538
0.365423 0.151675 0.166873
0.764401 0.192355 0.208988
0.963134 0.471473 0.402808
0.000000 0.348974 0.228397
0.000000 0.353124 0.230808
0.414984 0.359258 0.196841
0.768704 0.394110 0.209140
0.971954 0.528527 0.348486
0.000000 0.688106 0.375982
0.000000 0.686580 0.391394
0.455787 0.651698 0.412970
0.754055 0.666438 0.331121
0.956115 0.680812 0.413184
0.428962 0.854643 0.673945
0.495857 0.851255 0.682826
0.665553 0.840696 0.718471
0.760983 0.820859 0.701564
0.932555 0.839261 0.670100
0.000000 0.156161 0.306676
0.000000 0.135592 0.304112
0.365484 0.066285 0.283574
0.780148 0.217624 0.356909
0.931273 0.564019 0.538659
0.000000 0.234684 0.335515
0.000000 0.226261 0.338903
0.410773 0.161929 0.317357
0.772793 0.345800 0.390387
0.931029 0.580713 0.547234
0.000000 0.456825 0.401495
0.000000 0.463691 0.406287
0.501884 0.493782 0.438331
0.757229 0.540795 0.470558
0.931060 0.626947 0.558831
0.000000 0.717525 0.511009
0.000000 0.711147 0.510643
0.510002 0.702174 0.558343
0.752224 0.697841 0.539239
0.929747 0.711696 0.579187
0.136019 0.862242 0.693904
0.341711 0.859342 0.703548
0.614649 0.848020 0.736568
0.762448 0.823301 0.745815
0.919982 0.839078 0.721004
0.000000 0.348913 0.614038
0.000000 0.332891 0.618830
0.348821 0.236027 0.588586
0.757748 0.158450 0.552789
0.935912 0.523949 0.622187
0.000000 0.414710 0.629419
0.000000 0.398749 0.629419
0.350408 0.310307 0.605707
0.752407 0.274327 0.562982
0.925414 0.558129 0.635767
0.000000 0.564660 0.655451
0.000000 0.564935 0.657069
0.394507 0.573205 0.666072
0.741726 0.542138 0.631128
0.905119 0.675532 0.709529
0.000000 0.746487 0.714382
0.000000 0.743893 0.713130
0.377234 0.741024 0.721218
0.764706 0.751736 0.756252
0.903685 0.769039 0.773648
0.000000 0.882933 0.789700
0.000000 0.880949 0.791196
0.421576 0.872923 0.797604
0.769619 0.853758 0.817838
0.909880 0.849271 0.808988
0.000000 0.598871 0.862242
0.000000 0.600977 0.860380
0.389410 0.565789 0.854551
0.723445 0.539635 0.828397
0.935668 0.553124 0.812955
0.000000 0.627497 0.862333
0.000000 0.628687 0.860746
0.435676 0.612818 0.854643
0.722744 0.571710 0.831510
0.930846 0.579126 0.816220
0.000000 0.704982 0.865660
0.000000 0.706294 0.864561
0.434150 0.708675 0.860227
0.719173 0.665736 0.846006
0.918395 0.661524 0.830655
0.000000 0.811429 0.872526
0.000000 0.809476 0.871916
0.308659 0.801724 0.870268
0.716335 0.790402 0.868070
0.909087 0.769955 0.855741
0.000000 0.904173 0.885313
0.000000 0.902220 0.885130
0.389532 0.894835 0.884825
0.709560 0.882353 0.884428
0.925292 0.881529 0.892210
