20 Preset/Natural Wedding/【3】LUT video cho PR-AE-FCPX/Lut Tone (4).cube
# Created by Adobe Lightroom plugin Export LUT (1.24.0)
# www.johnrellis.com/lightroom/exportlut.htm
# Preset: 清新婚礼-素材江湖04
# Color profile: C:\Program Files (x86)\Common Files\Adobe\Color\Profiles\Recommended\VideoHD.icc
LUT_3D_SIZE 8
DOMAIN_MIN 0.000000 0.000000 0.000000
DOMAIN_MAX 0.903226 0.903226 0.903226
0.000000 0.000000 0.000000
0.011475 0.002045 0.000641
0.089845 0.006714 0.001678
0.253727 0.000000 0.000000
0.536645 0.000000 0.000000
0.772641 0.000000 0.000000
0.934447 0.000000 0.000000
1.000000 0.000000 0.000000
0.001312 0.019837 0.004059
0.009552 0.018952 0.002869
0.087495 0.034241 0.000305
0.257145 0.000000 0.000000
0.537560 0.000000 0.000000
0.771084 0.000000 0.000000
0.931731 0.000000 0.000000
1.000000 0.000000 0.000000
0.000000 0.132021 0.022065
0.010163 0.131350 0.025147
0.120180 0.115999 0.007507
0.297551 0.137819 0.000000
0.546258 0.125429 0.000000
0.761013 0.110475 0.000000
0.917296 0.164370 0.000000
1.000000 0.267277 0.000000
0.000000 0.430488 0.177310
0.138125 0.433417 0.190005
0.274022 0.412360 0.159731
0.404486 0.345953 0.000000
0.589410 0.365850 0.000000
0.750454 0.385809 0.000000
0.891417 0.420233 0.000000
0.983307 0.459602 0.000000
0.406012 0.688930 0.462959
0.427893 0.690669 0.470985
0.494484 0.692317 0.488777
0.547326 0.650782 0.401404
0.633204 0.580804 0.262730
0.756649 0.582818 0.240513
0.860960 0.591638 0.243137
0.944488 0.608118 0.278813
0.634974 0.801083 0.688136
0.643122 0.801450 0.692409
0.673396 0.802945 0.709102
0.689998 0.795224 0.685878
0.713161 0.772000 0.604578
0.771267 0.728176 0.477821
0.845762 0.719356 0.464637
0.907683 0.720516 0.480476
0.764279 0.848356 0.809415
0.767056 0.848569 0.810758
0.778256 0.849577 0.816159
0.792874 0.849729 0.820218
0.794095 0.840848 0.797147
0.804074 0.826017 0.750362
0.838712 0.801846 0.660517
0.883116 0.794614 0.649897
0.833433 0.884825 0.862058
0.834836 0.885039 0.862577
0.840787 0.885863 0.864714
0.851804 0.887572 0.868803
0.855100 0.883726 0.863401
0.856718 0.875486 0.849363
0.863554 0.863828 0.824796
0.883146 0.847776 0.781155
0.001221 0.010651 0.012055
0.014008 0.011505 0.010590
0.103365 0.008789 0.008515
0.282841 0.000000 0.000702
0.546166 0.000000 0.000000
0.769223 0.000000 0.000000
0.930449 0.000000 0.000000
1.000000 0.000000 0.000000
0.000000 0.034333 0.015686
0.016144 0.035706 0.015137
0.110262 0.046235 0.014282
0.293797 0.000000 0.000000
0.552514 0.000000 0.000000
0.769070 0.000000 0.000000
0.927459 0.000000 0.000000
1.000000 0.000000 0.000000
0.000000 0.154543 0.063935
0.029664 0.156161 0.065156
0.148989 0.139528 0.037385
0.331762 0.156313 0.000000
0.572534 0.147890 0.000000
0.771725 0.155184 0.000000
0.914458 0.216281 0.000000
1.000000 0.295598 0.000000
0.113161 0.441291 0.220462
0.184085 0.444526 0.231754
0.305089 0.433570 0.224704
0.422004 0.366369 0.110323
0.598901 0.384161 0.017487
0.756771 0.404273 0.000000
0.892943 0.435859 0.000000
0.981384 0.469795 0.008667
0.418860 0.689540 0.480568
0.439490 0.691341 0.488228
0.512200 0.698482 0.519310
0.557519 0.658167 0.436316
0.637659 0.589410 0.303410
0.757839 0.590967 0.283085
0.859861 0.599084 0.285069
0.942443 0.615198 0.314824
0.638941 0.800534 0.694362
0.646876 0.800870 0.698512
0.676844 0.802487 0.714870
0.696681 0.796445 0.700008
0.716274 0.773861 0.622248
0.771267 0.731106 0.499489
0.844327 0.722469 0.485634
0.905547 0.723537 0.498970
0.765072 0.848051 0.810849
0.767880 0.848295 0.812161
0.779049 0.849363 0.817533
0.795438 0.850248 0.823697
0.796078 0.841398 0.801511
0.804990 0.826658 0.757015
0.837766 0.802701 0.670436
0.881834 0.795834 0.659419
0.833616 0.884703 0.862516
0.835019 0.884916 0.863005
0.840970 0.885801 0.865171
0.852018 0.887541 0.869261
0.856260 0.884184 0.864836
0.857542 0.875914 0.851011
0.863981 0.864225 0.826993
0.882872 0.848081 0.784115
0.000000 0.050233 0.116976
0.011383 0.043153 0.116091
0.136721 0.039490 0.108583
0.332128 0.000000 0.111879
0.623529 0.000000 0.105257
0.815030 0.000000 0.120760
0.939574 0.000000 0.116426
1.000000 0.212284 0.115877
0.000000 0.093843 0.131685
0.000000 0.089662 0.134554
0.161318 0.083986 0.125978
0.366094 0.000000 0.127199
0.638758 0.000000 0.133791
0.813626 0.000000 0.138094
0.936736 0.113222 0.129702
1.000000 0.255192 0.133303
0.000000 0.205112 0.181582
0.000000 0.207950 0.183322
0.228977 0.215000 0.188907
0.432074 0.225437 0.190799
0.638697 0.236667 0.189303
0.802792 0.267277 0.184848
0.923491 0.318486 0.184634
1.000000 0.376043 0.196963
0.162356 0.459297 0.320073
0.233097 0.462867 0.330358
0.370428 0.479927 0.362676
0.467445 0.429145 0.293645
0.622705 0.443153 0.281193
0.774350 0.464912 0.278447
0.894560 0.490272 0.283543
0.973419 0.516991 0.301610
0.458015 0.685603 0.537530
0.469032 0.688533 0.539422
0.530907 0.698390 0.563653
0.591241 0.683742 0.545373
0.651331 0.619013 0.428168
0.760250 0.619867 0.410925
0.855161 0.626551 0.410132
0.933837 0.641077 0.429725
0.647120 0.797421 0.711727
0.654963 0.797971 0.715633
0.684443 0.800198 0.731136
0.719814 0.801144 0.744656
0.727993 0.780911 0.682826
0.770962 0.741543 0.572747
0.838254 0.733913 0.557610
0.897002 0.735012 0.564630
0.766323 0.846586 0.815091
0.769192 0.846891 0.816403
0.780545 0.848112 0.821744
0.800381 0.850614 0.831266
0.803708 0.843839 0.817227
0.808713 0.829343 0.779904
0.834470 0.806027 0.706111
0.877134 0.800443 0.693904
0.833585 0.884123 0.863951
0.835111 0.884337 0.864500
0.841215 0.885313 0.866697
0.852628 0.887266 0.870878
0.860960 0.886168 0.870390
0.861173 0.877714 0.857450
0.865812 0.865873 0.835233
0.881987 0.849332 0.795163
0.000000 0.117830 0.349706
0.000000 0.114809 0.355047
0.177951 0.113893 0.351568
0.410101 0.081147 0.346075
0.602625 0.132357 0.338964
0.812436 0.105745 0.352605
0.945403 0.230625 0.366888
1.000000 0.386664 0.407630
0.000000 0.159060 0.366888
0.000000 0.157473 0.371221
0.201785 0.157961 0.371099
0.427436 0.149630 0.362890
0.612482 0.198367 0.356023
0.815702 0.192386 0.366644
0.941222 0.295872 0.388403
0.999420 0.410956 0.416968
0.000000 0.287877 0.409522
0.000000 0.290532 0.411933
0.242496 0.297856 0.423255
0.472084 0.310613 0.415167
0.648493 0.345495 0.414710
0.824094 0.360815 0.417700
0.920439 0.440345 0.444648
0.982635 0.488014 0.450385
0.000000 0.490944 0.471931
0.000000 0.492683 0.473152
0.312688 0.499275 0.478218
0.511254 0.509636 0.487617
0.664607 0.526024 0.490883
0.791073 0.545434 0.494881
0.886839 0.566522 0.498909
0.954101 0.586938 0.503990
0.383703 0.677058 0.573907
0.412390 0.678706 0.578912
0.507652 0.685206 0.601007
0.621332 0.703639 0.645075
0.666316 0.659663 0.576074
0.758724 0.660731 0.563622
0.848356 0.670222 0.566613
0.917449 0.680903 0.575402
0.641535 0.789120 0.729244
0.651087 0.789395 0.732784
0.684810 0.791379 0.746456
0.726009 0.798978 0.766873
0.747097 0.791226 0.753689
0.769162 0.756680 0.669459
0.828000 0.751553 0.655360
0.883116 0.752499 0.654261
0.766415 0.841886 0.820951
0.768490 0.842374 0.821653
0.776974 0.844480 0.824735
0.798398 0.847807 0.834531
0.816495 0.848356 0.838712
0.815549 0.834165 0.810086
0.830838 0.811368 0.753048
0.870848 0.807828 0.741573
0.831174 0.882292 0.865446
0.832273 0.882658 0.865751
0.838804 0.883818 0.868070
0.851377 0.886137 0.872648
0.868559 0.889738 0.879118
0.867857 0.881468 0.868040
0.869200 0.868864 0.847990
0.880980 0.851591 0.812131
0.000000 0.228946 0.572107
0.000000 0.230838 0.575616
0.172091 0.242222 0.578759
0.448280 0.257115 0.575494
0.635157 0.282475 0.572778
0.760861 0.362646 0.556115
0.889036 0.433173 0.571679
0.966796 0.496254 0.586053
0.000000 0.268956 0.579858
0.000000 0.270451 0.582696
0.204410 0.280430 0.588067
0.457740 0.293095 0.583185
0.638849 0.317754 0.579919
0.761410 0.392401 0.564416
0.887327 0.454810 0.579828
0.963714 0.512840 0.593713
0.000000 0.381323 0.596704
0.000000 0.382666 0.599145
0.252201 0.391058 0.609461
0.481666 0.406928 0.609155
0.648859 0.431098 0.605219
0.762356 0.490333 0.596521
0.880491 0.528466 0.610132
0.951904 0.570794 0.622400
0.000000 0.532036 0.631617
0.110903 0.533410 0.632349
0.315801 0.539605 0.635859
0.500725 0.553887 0.647028
0.660822 0.573907 0.646235
0.768215 0.607477 0.649378
0.868772 0.625910 0.657435
0.926696 0.660700 0.676387
0.321660 0.682033 0.677546
0.347875 0.682612 0.678218
0.436469 0.684962 0.681270
0.556786 0.689876 0.687282
0.679225 0.697536 0.696559
0.768490 0.705623 0.699397
0.840635 0.714107 0.702174
0.900237 0.721828 0.703304
0.552483 0.779782 0.730678
0.565087 0.780087 0.732906
0.613275 0.781155 0.742153
0.684382 0.783658 0.759792
0.756313 0.795712 0.791684
0.768673 0.771603 0.749111
0.818326 0.769345 0.739132
0.874022 0.773220 0.739223
0.735042 0.835813 0.816373
0.739162 0.836027 0.817594
0.755459 0.837064 0.822660
0.785489 0.839536 0.833280
0.815640 0.847013 0.846128
0.825620 0.841093 0.838376
0.829282 0.817624 0.794095
0.866789 0.815549 0.784390
0.821225 0.877470 0.865599
0.823606 0.877714 0.866331
0.833524 0.878843 0.869535
0.844266 0.882506 0.872709
0.863615 0.887388 0.879698
0.877958 0.887846 0.881559
0.874754 0.873686 0.863096
0.880613 0.854673 0.830991
0.000000 0.366491 0.726192
0.000000 0.369512 0.727626
0.240940 0.383062 0.731014
0.457191 0.400458 0.729244
0.629297 0.427863 0.725826
0.761715 0.464454 0.726375
0.839200 0.533867 0.708949
0.902831 0.618677 0.724544
0.000000 0.393286 0.727901
0.000000 0.395758 0.729366
0.262730 0.408392 0.733913
0.464363 0.423529 0.732052
0.631312 0.448829 0.728603
0.761471 0.482979 0.729213
0.837491 0.548943 0.712764
0.900847 0.627955 0.728481
0.000000 0.472175 0.732784
0.000000 0.474189 0.734066
0.303471 0.483101 0.739590
0.483619 0.499641 0.742275
0.638483 0.519860 0.739345
0.760311 0.548363 0.739651
0.830900 0.603449 0.727291
0.893950 0.661677 0.743191
0.190829 0.578607 0.744839
0.232486 0.579706 0.745113
0.345373 0.583978 0.746059
0.505241 0.599268 0.755459
0.649073 0.617487 0.756466
0.758206 0.639216 0.756649
0.820798 0.679988 0.752468
0.885771 0.708705 0.765774
0.370825 0.689570 0.765743
0.388373 0.690150 0.765988
0.451759 0.692287 0.766934
0.546502 0.696681 0.768704
0.662043 0.708339 0.775387
0.759182 0.723537 0.777218
0.819028 0.743893 0.781369
0.884977 0.751064 0.787076
0.526299 0.776913 0.788724
0.535973 0.776944 0.788907
0.572747 0.777279 0.789853
0.632746 0.778103 0.791897
0.702449 0.780056 0.795499
0.771420 0.784115 0.801450
0.824552 0.787472 0.802670
0.876188 0.790829 0.803159
0.666743 0.826871 0.812802
0.670924 0.826871 0.813138
0.690089 0.827207 0.815427
0.729244 0.829099 0.823209
0.778378 0.833433 0.835538
0.829313 0.843809 0.854520
0.829984 0.824369 0.827726
0.865263 0.822934 0.820279
0.785672 0.871031 0.860319
0.788113 0.871275 0.860868
0.798306 0.872313 0.863218
0.817746 0.874693 0.868070
0.847410 0.879149 0.876677
0.876982 0.888212 0.887175
0.884031 0.881346 0.880461
0.881437 0.858762 0.850523
0.231724 0.507500 0.821866
0.275151 0.512963 0.823392
0.381598 0.524620 0.824247
0.507225 0.539178 0.823087
0.631342 0.557488 0.820584
0.742916 0.582330 0.816709
0.828611 0.610132 0.815396
0.868254 0.656458 0.797604
0.222568 0.509270 0.815640
0.266819 0.515221 0.817777
0.373449 0.525414 0.819028
0.499092 0.538628 0.817685
0.622705 0.554009 0.814694
0.734615 0.575067 0.809781
0.821836 0.599359 0.807523
0.863767 0.643336 0.788083
0.286748 0.562249 0.818967
0.312505 0.563989 0.819242
0.398352 0.570062 0.819486
0.516869 0.584710 0.819699
0.629114 0.594903 0.815976
0.735286 0.613977 0.812253
0.819577 0.641688 0.813169
0.860502 0.686061 0.801572
0.332006 0.630060 0.820768
0.352300 0.630579 0.820645
0.424353 0.633570 0.820523
0.538537 0.648280 0.823178
0.646632 0.662959 0.822324
0.742000 0.679591 0.820432
0.816251 0.701778 0.821714
0.855985 0.731380 0.815244
0.419532 0.700587 0.822263
0.426032 0.699001 0.821042
0.462867 0.697566 0.819455
0.530816 0.698634 0.818906
0.646479 0.713924 0.822507
0.740078 0.727779 0.822507
0.809201 0.742336 0.823850
0.854704 0.767910 0.826932
0.526452 0.768826 0.828519
0.533867 0.769070 0.828641
0.561273 0.769436 0.828733
0.609216 0.770321 0.829099
0.670161 0.771389 0.829435
0.749050 0.779355 0.834684
0.816770 0.790280 0.838163
0.862699 0.802396 0.842130
0.642512 0.822995 0.842466
0.647700 0.823362 0.842985
0.663142 0.823209 0.843137
0.692226 0.823301 0.843931
0.730495 0.823270 0.844785
0.776211 0.824308 0.846830
0.828244 0.828183 0.851713
0.873930 0.831083 0.852903
0.731289 0.861723 0.859190
0.733700 0.861845 0.859403
0.744625 0.862730 0.860716
0.761929 0.863340 0.861906
0.793179 0.865599 0.866331
0.836942 0.871458 0.875883
0.887510 0.885161 0.892729
0.882567 0.863157 0.869474
0.441321 0.616571 0.866056
0.456367 0.619867 0.866392
0.500450 0.625086 0.865232
0.573388 0.637476 0.864347
0.651301 0.647547 0.862333
0.730892 0.660670 0.859403
0.804471 0.680751 0.856535
0.860655 0.698512 0.855436
0.431159 0.614710 0.863432
0.446571 0.618097 0.863859
0.494331 0.624903 0.863310
0.568231 0.636896 0.862333
0.646754 0.646601 0.860410
0.727260 0.659571 0.857572
0.800992 0.677852 0.854337
0.857969 0.694606 0.852964
0.433753 0.633143 0.861448
0.446906 0.635004 0.861540
0.492042 0.639857 0.860868
0.577386 0.659724 0.861814
0.649866 0.665919 0.859495
0.726131 0.675166 0.856291
0.798672 0.691981 0.853574
0.854948 0.707851 0.852720
0.428016 0.663844 0.859281
0.442390 0.665736 0.859586
0.489418 0.669978 0.859342
0.570489 0.683131 0.859770
0.655604 0.698299 0.859068
0.729183 0.707210 0.856931
0.798367 0.720912 0.855070
0.852689 0.734310 0.855039
0.441199 0.707912 0.858305
0.449378 0.708461 0.858518
0.470985 0.705776 0.857542
0.542687 0.710292 0.857359
0.644434 0.725521 0.857847
0.726619 0.737636 0.857145
0.795773 0.748562 0.856321
0.851072 0.761593 0.857786
0.526574 0.767056 0.860990
0.528557 0.766079 0.860563
0.541924 0.763577 0.859403
0.573968 0.760983 0.858366
0.624018 0.758572 0.857664
0.723445 0.772457 0.861295
0.801389 0.785458 0.863828
0.857298 0.796750 0.866423
0.638148 0.822110 0.870146
0.640314 0.821897 0.870024
0.649805 0.820951 0.869566
0.670069 0.819730 0.869078
0.699886 0.817716 0.868376
0.738888 0.814939 0.867643
0.798978 0.816434 0.869535
0.860929 0.825193 0.871855
0.703365 0.856809 0.876066
0.704707 0.856657 0.875944
0.712276 0.856474 0.875944
0.728786 0.856596 0.876432
0.752682 0.856626 0.876951
0.784085 0.856657 0.877653
0.824216 0.857694 0.879301
0.875273 0.861814 0.883696
