20 Preset/Natural Wedding/【3】LUT video cho PR-AE-FCPX/Lut Tone (6).cube
# Created by Adobe Lightroom plugin Export LUT (1.24.0)
# www.johnrellis.com/lightroom/exportlut.htm
# Preset: 清新婚礼-素材江湖06
# Color profile: C:\Program Files (x86)\Common Files\Adobe\Color\Profiles\Recommended\VideoHD.icc
LUT_3D_SIZE 8
DOMAIN_MIN 0.000000 0.000000 0.000000
DOMAIN_MAX 0.903226 0.903226 0.903226
0.000000 0.000000 0.000000
0.000000 0.004578 0.000000
0.098726 0.023163 0.000000
0.313878 0.000000 0.000000
0.630701 0.000000 0.000000
0.877470 0.000000 0.000000
1.000000 0.000000 0.000000
1.000000 0.216526 0.000000
0.000000 0.026246 0.000000
0.000000 0.029175 0.000000
0.094514 0.046998 0.000000
0.293614 0.000000 0.000000
0.604425 0.000000 0.000000
0.856901 0.000000 0.000000
0.994965 0.000000 0.000000
1.000000 0.234073 0.000000
0.000000 0.142947 0.083101
0.000000 0.149660 0.072175
0.120516 0.140963 0.005158
0.329656 0.149752 0.000000
0.613672 0.163851 0.000000
0.851652 0.211643 0.000000
0.994232 0.287907 0.000000
1.000000 0.348821 0.000000
0.000000 0.431464 0.297063
0.000000 0.440345 0.294591
0.126925 0.482429 0.301732
0.417304 0.410681 0.143496
0.664942 0.412360 0.112062
0.862852 0.439277 0.035767
0.974121 0.463539 0.078584
1.000000 0.481392 0.137819
0.377234 0.701289 0.540917
0.401373 0.704891 0.545373
0.459724 0.725429 0.554131
0.570855 0.732815 0.544640
0.694942 0.659937 0.350042
0.834409 0.621607 0.326940
0.928862 0.607691 0.338994
0.985016 0.617823 0.372930
0.676875 0.795895 0.733486
0.692378 0.798093 0.741604
0.709560 0.803037 0.747097
0.749508 0.809995 0.764553
0.762356 0.803769 0.728695
0.824094 0.772793 0.575860
0.889006 0.742794 0.558465
0.932921 0.729335 0.574945
0.799374 0.829831 0.818418
0.802487 0.830320 0.819913
0.807950 0.832090 0.821958
0.818387 0.835782 0.826230
0.835477 0.840360 0.833738
0.834440 0.832425 0.809384
0.860929 0.817411 0.743252
0.893095 0.803891 0.730648
0.850797 0.854520 0.856016
0.851926 0.854734 0.856504
0.855283 0.855985 0.857969
0.860136 0.858610 0.859953
0.866453 0.860227 0.861845
0.874205 0.861784 0.862669
0.875731 0.856321 0.848325
0.889342 0.846555 0.821012
0.000000 0.013001 0.000000
0.000000 0.013977 0.000000
0.098421 0.027741 0.000000
0.294560 0.000000 0.000000
0.600061 0.000000 0.000000
0.849577 0.000000 0.000000
0.990234 0.000000 0.000000
1.000000 0.220035 0.000000
0.000000 0.035401 0.000000
0.000000 0.041291 0.001343
0.102968 0.061738 0.000214
0.299077 0.019745 0.000000
0.596796 0.000000 0.000000
0.844053 0.000000 0.000000
0.984283 0.125856 0.000000
1.000000 0.241184 0.000000
0.000000 0.143130 0.105287
0.000000 0.151797 0.113161
0.128450 0.150637 0.068788
0.333715 0.161074 0.026093
0.606165 0.176822 0.000000
0.841184 0.223239 0.000000
0.979126 0.289281 0.000000
1.000000 0.342260 0.000000
0.000000 0.408606 0.300023
0.000000 0.418433 0.307683
0.161410 0.463783 0.315862
0.400671 0.399084 0.187320
0.630518 0.392950 0.161837
0.833707 0.424048 0.132021
0.957610 0.452735 0.129305
1.000000 0.476020 0.162387
0.367498 0.691005 0.537835
0.395178 0.693263 0.543084
0.449897 0.712795 0.549615
0.560388 0.722774 0.546899
0.674403 0.645472 0.358434
0.819547 0.611810 0.336461
0.920653 0.603418 0.347875
0.980407 0.615229 0.379065
0.663264 0.791592 0.725673
0.673304 0.792355 0.729732
0.697139 0.797391 0.738430
0.739834 0.805844 0.757259
0.757473 0.800870 0.726650
0.819089 0.770108 0.580529
0.885130 0.740963 0.562951
0.930358 0.727291 0.575921
0.793606 0.827756 0.814755
0.795499 0.827787 0.815366
0.802548 0.829374 0.818112
0.813779 0.833433 0.822873
0.832761 0.838621 0.831754
0.832273 0.831113 0.808042
0.858518 0.815305 0.739254
0.891508 0.801114 0.725093
0.848081 0.853147 0.854215
0.849607 0.853574 0.855009
0.853483 0.854734 0.856718
0.858457 0.857511 0.858824
0.867918 0.860807 0.863096
0.875120 0.862119 0.863645
0.875639 0.856229 0.848753
0.888884 0.846342 0.821469
0.000000 0.057282 0.090761
0.000000 0.058198 0.092683
0.087465 0.062287 0.090883
0.311223 0.000000 0.110048
0.639734 0.000000 0.115267
0.869230 0.000000 0.119692
0.991699 0.246036 0.119722
1.000000 0.327672 0.121736
0.000000 0.092348 0.109987
0.000000 0.093935 0.118013
0.101320 0.094484 0.115694
0.331029 0.000000 0.124880
0.641779 0.000000 0.144747
0.861357 0.150607 0.141482
0.985657 0.269566 0.134066
1.000000 0.341863 0.136141
0.000000 0.168856 0.182528
0.000000 0.174380 0.189914
0.153902 0.198337 0.220157
0.390326 0.220432 0.219730
0.647303 0.254795 0.217105
0.859281 0.316716 0.212192
0.974426 0.377813 0.213962
1.000000 0.422827 0.223880
0.000000 0.406867 0.346410
0.000000 0.418647 0.356359
0.277958 0.462348 0.392584
0.434424 0.448493 0.330999
0.654536 0.451057 0.319402
0.842069 0.487343 0.318700
0.949096 0.515892 0.328679
1.000000 0.538354 0.343755
0.381109 0.678248 0.558129
0.407599 0.682002 0.564538
0.504387 0.698451 0.593378
0.615412 0.733913 0.633417
0.687800 0.666773 0.466712
0.816007 0.636713 0.444343
0.909514 0.637018 0.454627
0.964019 0.650385 0.481086
0.659388 0.786862 0.728817
0.669520 0.787900 0.732815
0.704280 0.791226 0.746639
0.741421 0.801022 0.762264
0.767300 0.801114 0.753201
0.811917 0.772183 0.635523
0.873930 0.749813 0.621149
0.917723 0.742916 0.634333
0.792721 0.826780 0.815793
0.794705 0.826841 0.816464
0.803952 0.827817 0.820127
0.815030 0.831754 0.824704
0.833280 0.837308 0.833310
0.835569 0.831937 0.816922
0.856229 0.817075 0.761227
0.887175 0.806210 0.751095
0.846433 0.852415 0.853910
0.847410 0.852537 0.854276
0.852201 0.853605 0.856413
0.859190 0.856596 0.859678
0.867979 0.860227 0.863615
0.877592 0.862913 0.866697
0.877226 0.857115 0.852506
0.888914 0.847196 0.826658
0.000000 0.120699 0.259068
0.000000 0.123842 0.267979
0.133700 0.125551 0.277256
0.285557 0.125307 0.278599
0.582879 0.101228 0.331029
0.860716 0.000000 0.312963
0.975250 0.344823 0.358740
1.000000 0.467811 0.396643
0.000000 0.155489 0.286564
0.000000 0.158663 0.295933
0.156466 0.160555 0.305089
0.310521 0.161563 0.304021
0.598505 0.163882 0.346838
0.862150 0.148257 0.334813
0.969451 0.386206 0.377539
1.000000 0.482551 0.406622
0.000000 0.253422 0.341100
0.000000 0.258976 0.346410
0.199466 0.280400 0.370977
0.369421 0.289342 0.372717
0.650172 0.318608 0.399878
0.862028 0.409461 0.418738
0.951476 0.511894 0.454200
0.997009 0.549432 0.461891
0.000000 0.443641 0.435676
0.056123 0.447242 0.438544
0.278752 0.466468 0.454871
0.467201 0.508721 0.493172
0.677974 0.534508 0.492683
0.832273 0.566979 0.499855
0.921263 0.597345 0.512840
0.970581 0.620630 0.524956
0.378759 0.657313 0.580591
0.402228 0.660578 0.585595
0.490852 0.677211 0.611200
0.625269 0.710201 0.663233
0.698604 0.693416 0.604913
0.805539 0.676265 0.588495
0.886992 0.689570 0.602869
0.934325 0.702083 0.619196
0.656703 0.780758 0.737667
0.670466 0.783139 0.743648
0.700862 0.786313 0.754116
0.750362 0.793668 0.774563
0.790311 0.805966 0.792386
0.806332 0.779416 0.713252
0.858396 0.765530 0.701381
0.899687 0.766323 0.711208
0.786709 0.824002 0.815305
0.789670 0.824430 0.816556
0.800443 0.825864 0.820859
0.818265 0.829007 0.828641
0.834714 0.835660 0.836423
0.842344 0.834501 0.830838
0.853483 0.819486 0.788052
0.881743 0.811887 0.780331
0.843778 0.851530 0.853941
0.844907 0.851743 0.854398
0.849760 0.852781 0.856413
0.859281 0.855070 0.860685
0.867857 0.859159 0.864500
0.880705 0.863706 0.870726
0.879820 0.858640 0.858671
0.889158 0.848661 0.834714
0.000000 0.229404 0.446540
0.000000 0.236576 0.455299
0.209812 0.243656 0.462562
0.400946 0.249607 0.475563
0.555474 0.278019 0.478157
0.772305 0.392309 0.532555
0.935668 0.420417 0.525566
0.986358 0.527520 0.551415
0.000000 0.267308 0.461646
0.000000 0.273686 0.470161
0.235233 0.282628 0.480385
0.415381 0.286992 0.490303
0.566217 0.313512 0.491707
0.775814 0.417670 0.542992
0.932525 0.445228 0.535546
0.980682 0.547356 0.564141
0.000000 0.370977 0.496559
0.107668 0.374548 0.499763
0.283574 0.395972 0.523980
0.450050 0.405097 0.535027
0.591638 0.425086 0.534783
0.780728 0.493721 0.573419
0.919677 0.521416 0.568658
0.959808 0.608942 0.606165
0.198795 0.514092 0.558801
0.235477 0.516960 0.561303
0.346929 0.531640 0.573693
0.501640 0.562982 0.605737
0.638697 0.580407 0.615564
0.797421 0.611475 0.636988
0.888731 0.651698 0.652491
0.926818 0.697078 0.679652
0.384375 0.662104 0.642725
0.404486 0.664149 0.645441
0.475471 0.671321 0.654871
0.582025 0.685664 0.674098
0.693874 0.707271 0.702815
0.792996 0.716732 0.703944
0.861631 0.729305 0.710658
0.906096 0.740597 0.717678
0.600977 0.759457 0.725216
0.610010 0.759945 0.726955
0.643153 0.762203 0.733852
0.703487 0.771756 0.754330
0.769497 0.787381 0.783139
0.797665 0.781491 0.760464
0.844968 0.775235 0.754238
0.886259 0.782986 0.764065
0.767178 0.817563 0.809751
0.769406 0.817716 0.810330
0.779965 0.818845 0.813718
0.801785 0.822324 0.822141
0.827695 0.828061 0.833585
0.847410 0.836210 0.842222
0.849638 0.820218 0.807370
0.876310 0.814511 0.800443
0.831662 0.847135 0.849363
0.832853 0.847349 0.849821
0.838224 0.848356 0.851835
0.849699 0.851255 0.856870
0.864622 0.855222 0.863615
0.877989 0.861326 0.870146
0.882078 0.859953 0.865293
0.887663 0.848875 0.841489
0.166018 0.395697 0.623590
0.216037 0.403082 0.629938
0.334142 0.412940 0.636042
0.480720 0.426032 0.646204
0.639643 0.438483 0.657923
0.748470 0.479347 0.654658
0.855314 0.592950 0.691554
0.920867 0.648859 0.709346
0.187198 0.412543 0.621454
0.227085 0.417365 0.625544
0.339239 0.429084 0.634668
0.478035 0.438636 0.643275
0.634241 0.451423 0.655970
0.744198 0.490944 0.654932
0.851133 0.599451 0.692348
0.918853 0.651698 0.709712
0.261662 0.494392 0.645258
0.289677 0.497749 0.648493
0.389502 0.514275 0.664057
0.509514 0.521752 0.670863
0.648371 0.531670 0.681270
0.751156 0.563745 0.682338
0.842222 0.649775 0.716091
0.908873 0.684138 0.729000
0.360571 0.596674 0.682704
0.377020 0.597681 0.683070
0.442725 0.605921 0.688808
0.568017 0.634119 0.714504
0.681056 0.647578 0.726314
0.764736 0.668269 0.729671
0.837583 0.714443 0.753445
0.896849 0.729915 0.759213
0.481331 0.692164 0.723751
0.493324 0.693141 0.724605
0.539452 0.697780 0.728847
0.614954 0.707546 0.737819
0.705501 0.725399 0.755520
0.773007 0.736782 0.763302
0.839994 0.752895 0.775875
0.887175 0.766262 0.782589
0.621790 0.766140 0.766629
0.631037 0.767269 0.768338
0.655848 0.768521 0.770901
0.697017 0.771572 0.776333
0.746059 0.777096 0.785122
0.797574 0.788113 0.800351
0.843412 0.793759 0.803403
0.879759 0.799313 0.806546
0.749783 0.811948 0.810605
0.753140 0.812314 0.811398
0.762936 0.812802 0.813169
0.780728 0.814084 0.816770
0.809049 0.819455 0.826749
0.839994 0.828519 0.840635
0.849149 0.823209 0.827787
0.874266 0.819760 0.822965
0.821134 0.842435 0.846983
0.822019 0.842527 0.847196
0.826474 0.843412 0.848661
0.836057 0.845792 0.852293
0.851041 0.849729 0.858305
0.872007 0.855924 0.867765
0.887419 0.862760 0.874632
0.887144 0.850126 0.850950
0.391821 0.548821 0.748592
0.413733 0.554437 0.751339
0.475593 0.563531 0.754849
0.564416 0.572778 0.759121
0.669398 0.583734 0.764187
0.775448 0.599420 0.770840
0.832547 0.637232 0.763638
0.871672 0.711330 0.779446
0.394232 0.555413 0.745907
0.415717 0.560754 0.748898
0.479255 0.571984 0.753750
0.563287 0.578485 0.757076
0.665888 0.587945 0.761868
0.770993 0.601312 0.767910
0.828519 0.636439 0.760464
0.869627 0.708461 0.776333
0.434058 0.600336 0.753353
0.450202 0.603082 0.754910
0.509575 0.614527 0.760555
0.589593 0.625483 0.765682
0.677333 0.632258 0.769314
0.771725 0.643824 0.775051
0.825345 0.676051 0.772457
0.865263 0.733700 0.789120
0.488441 0.660273 0.764553
0.495766 0.660121 0.764126
0.540978 0.666194 0.767300
0.629572 0.686793 0.778134
0.702724 0.696620 0.783413
0.776120 0.705959 0.789242
0.823270 0.726772 0.790372
0.860716 0.762997 0.804654
0.576226 0.723720 0.782589
0.580499 0.723262 0.782071
0.603815 0.724300 0.782254
0.647425 0.727932 0.783993
0.722347 0.743862 0.794888
0.780484 0.751522 0.801236
0.822751 0.763851 0.804837
0.860410 0.787503 0.819028
0.670344 0.776547 0.803403
0.674372 0.776822 0.803708
0.689204 0.777615 0.804593
0.715328 0.779263 0.806394
0.749599 0.781888 0.809323
0.795834 0.790646 0.818357
0.832334 0.798795 0.824674
0.869291 0.807095 0.832181
0.749325 0.812497 0.824979
0.751888 0.812741 0.825376
0.759823 0.813016 0.826108
0.774990 0.813779 0.827787
0.795315 0.815213 0.830381
0.819547 0.818204 0.834928
0.846738 0.824369 0.842893
0.877745 0.828000 0.844633
0.812345 0.839048 0.848600
0.813352 0.839170 0.848814
0.817899 0.839902 0.849912
0.825376 0.840879 0.851530
0.836210 0.842466 0.853910
0.854368 0.847440 0.860563
0.880766 0.856870 0.872770
0.887236 0.852140 0.862394
0.622278 0.694240 0.820218
0.631098 0.697017 0.820768
0.656214 0.702235 0.821164
0.691035 0.706142 0.822110
0.737026 0.711116 0.823362
0.788663 0.717372 0.825010
0.838621 0.727596 0.827878
0.863249 0.746120 0.822751
0.619989 0.694972 0.819059
0.629023 0.697749 0.819638
0.657649 0.705196 0.820615
0.691127 0.708339 0.821439
0.736324 0.713008 0.822751
0.787625 0.718929 0.824430
0.837186 0.728206 0.827115
0.862089 0.745998 0.821988
0.629206 0.708827 0.819089
0.636622 0.710628 0.819455
0.663355 0.716854 0.820554
0.704005 0.726162 0.822965
0.743038 0.729030 0.823972
0.788785 0.732967 0.825376
0.835447 0.740810 0.828244
0.859983 0.756374 0.824460
0.638788 0.729335 0.819730
0.645991 0.730922 0.820188
0.670924 0.735744 0.821439
0.714961 0.746548 0.824613
0.754025 0.752651 0.826841
0.793362 0.756191 0.828702
0.834684 0.761929 0.831571
0.858244 0.774258 0.830076
0.672786 0.760342 0.825223
0.675990 0.760616 0.825315
0.684230 0.759731 0.824735
0.709957 0.761898 0.824979
0.760678 0.773312 0.829862
0.797391 0.778012 0.832578
0.833921 0.782406 0.835721
0.858091 0.792294 0.836728
0.728389 0.794400 0.834836
0.729091 0.794064 0.834592
0.733639 0.793179 0.834043
0.744839 0.792264 0.833616
0.762692 0.791348 0.833402
0.804044 0.799496 0.838987
0.838102 0.805173 0.843870
0.863035 0.812558 0.847166
0.782071 0.822507 0.847898
0.782834 0.822446 0.847898
0.786313 0.822263 0.847868
0.793820 0.822141 0.848112
0.804837 0.821958 0.848417
0.819181 0.821530 0.848844
0.843259 0.824308 0.852781
0.870573 0.830320 0.857877
0.815885 0.842588 0.860197
0.816403 0.842557 0.860197
0.818936 0.842649 0.860410
0.824521 0.843107 0.861143
0.832975 0.843717 0.862211
0.844663 0.844785 0.863828
0.861112 0.846952 0.866850
0.884733 0.852567 0.873472
