20 Preset/Natural Wedding/【3】LUT video cho PR-AE-FCPX/Lut Tone (6).cube
# Created by Adobe Lightroom plugin Export LUT (1.24.0)
# www.johnrellis.com/lightroom/exportlut.htm
# Preset: 清新婚礼-素材江湖06
# Color profile: C:\Program Files (x86)\Common Files\Adobe\Color\Profiles\Recommended\VideoHD.icc
LUT_3D_SIZE 32
DOMAIN_MIN 0.0 0.0 0.0
DOMAIN_MAX 1.0 1.0 1.0
0.000000 0.000000 0.000000
0.000000 0.000000 0.000000
0.000000 0.000000 0.000000
0.000000 0.002411 0.000000
0.000000 0.004578 0.000000
0.004242 0.008515 0.000000
0.019867 0.013489 0.000000
0.055177 0.019623 0.000000
0.098726 0.023163 0.000000
0.131533 0.026215 0.000000
0.179477 0.016907 0.000000
0.241184 0.000000 0.000000
0.313878 0.000000 0.000000
0.392767 0.000000 0.000000
0.474128 0.000000 0.000000
0.554192 0.000000 0.000000
0.630701 0.000000 0.000000
0.702327 0.000000 0.000000
0.767849 0.000000 0.000000
0.826688 0.000000 0.000000
0.877470 0.000000 0.000000
0.919585 0.000000 0.000000
0.952911 0.000000 0.000000
0.980224 0.000000 0.000000
1.000000 0.000000 0.000000
1.000000 0.000000 0.000000
1.000000 0.109957 0.000000
1.000000 0.171115 0.000000
1.000000 0.216526 0.000000
1.000000 0.256413 0.000000
1.000000 0.294987 0.000000
1.000000 0.333745 0.135103
0.000000 0.000000 0.000000
0.000000 0.000000 0.000000
0.000000 0.001190 0.000000
0.000000 0.002411 0.000000
0.000000 0.004578 0.000000
0.004242 0.008515 0.000000
0.019135 0.014679 0.000000
0.053193 0.019837 0.000000
0.096681 0.023835 0.000000
0.129305 0.027344 0.000000
0.175418 0.020020 0.000000
0.235660 0.000000 0.000000
0.307195 0.000000 0.000000
0.385412 0.000000 0.000000
0.466468 0.000000 0.000000
0.546960 0.000000 0.000000
0.623651 0.000000 0.000000
0.695827 0.000000 0.000000
0.761746 0.000000 0.000000
0.820951 0.000000 0.000000
0.872313 0.000000 0.000000
0.915099 0.000000 0.000000
0.949096 0.000000 0.000000
0.977050 0.000000 0.000000
1.000000 0.000000 0.000000
1.000000 0.000000 0.000000
1.000000 0.096437 0.000000
1.000000 0.163516 0.000000
1.000000 0.209018 0.000000
1.000000 0.249668 0.000000
1.000000 0.288243 0.000000
1.000000 0.327031 0.122652
0.000000 0.002411 0.000000
0.000000 0.002411 0.000000
0.000000 0.003601 0.000000
0.000000 0.006012 0.000000
0.000000 0.007965 0.000000
0.004089 0.011902 0.000000
0.016999 0.018311 0.000000
0.051057 0.023468 0.000000
0.095705 0.028626 0.000000
0.127901 0.031403 0.000000
0.173007 0.025208 0.000000
0.232486 0.000000 0.000000
0.302983 0.000000 0.000000
0.380346 0.000000 0.000000
0.461006 0.000000 0.000000
0.541009 0.000000 0.000000
0.617914 0.000000 0.000000
0.690425 0.000000 0.000000
0.757015 0.000000 0.000000
0.816648 0.000000 0.000000
0.868711 0.000000 0.000000
0.911986 0.000000 0.000000
0.946532 0.000000 0.000000
0.974884 0.000000 0.000000
0.999420 0.000000 0.000000
1.000000 0.000000 0.000000
1.000000 0.106142 0.000000
1.000000 0.166812 0.000000
1.000000 0.210269 0.000000
1.000000 0.249851 0.000000
1.000000 0.287633 0.000000
1.000000 0.325994 0.115755
0.000000 0.012024 0.000000
0.000000 0.013245 0.000000
0.000000 0.013245 0.000000
0.000000 0.014221 0.000000
0.000000 0.016388 0.000000
0.001129 0.020081 0.000000
0.016724 0.025055 0.000000
0.048798 0.030457 0.000000
0.094667 0.036835 0.000000
0.126741 0.039826 0.000000
0.172030 0.036042 0.000000
0.230167 0.013092 0.000000
0.299809 0.000000 0.000000
0.375952 0.000000 0.000000
0.455146 0.000000 0.000000
0.534630 0.000000 0.000000
0.610773 0.000000 0.000000
0.682612 0.000000 0.000000
0.748989 0.000000 0.000000
0.808835 0.000000 0.000000
0.861357 0.000000 0.000000
0.905699 0.000000 0.000000
0.941466 0.000000 0.000000
0.970916 0.000000 0.000000
0.996796 0.000000 0.000000
1.000000 0.000000 0.000000
1.000000 0.128786 0.000000
1.000000 0.179232 0.000000
1.000000 0.219425 0.000000
1.000000 0.256504 0.000000
1.000000 0.292180 0.000000
1.000000 0.328710 0.110170
0.000000 0.026246 0.000000
0.000000 0.026246 0.000000
0.000000 0.027222 0.000000
0.000000 0.027222 0.000000
0.000000 0.029175 0.000000
0.000000 0.031434 0.000000
0.016297 0.035218 0.000000
0.049622 0.041596 0.000000
0.094514 0.046998 0.000000
0.125185 0.054017 0.000000
0.168734 0.053010 0.000000
0.226261 0.036439 0.000000
0.293614 0.000000 0.000000
0.369421 0.000000 0.000000
0.448310 0.000000 0.000000
0.527123 0.000000 0.000000
0.604425 0.000000 0.000000
0.676722 0.000000 0.000000
0.743526 0.000000 0.000000
0.803738 0.000000 0.000000
0.856901 0.000000 0.000000
0.901671 0.000000 0.000000
0.937957 0.000000 0.000000
0.968078 0.000000 0.000000
0.994965 0.000000 0.000000
1.000000 0.107454 0.000000
1.000000 0.160098 0.000000
1.000000 0.199252 0.000000
1.000000 0.234073 0.000000
1.000000 0.267277 0.000000
1.000000 0.300481 0.000000
1.000000 0.334752 0.106874
0.000000 0.046998 0.000000
0.000000 0.048188 0.000000
0.000000 0.048188 0.000000
0.000000 0.049165 0.000000
0.000000 0.049928 0.000000
0.000000 0.049805 0.000000
0.018128 0.054108 0.000000
0.053590 0.056855 0.000000
0.096742 0.064240 0.000000
0.128420 0.071565 0.000000
0.172396 0.072816 0.000000
0.228367 0.064454 0.000000
0.294835 0.040497 0.000000
0.368200 0.000000 0.000000
0.446204 0.000000 0.000000
0.525322 0.000000 0.000000
0.601923 0.000000 0.000000
0.674372 0.000000 0.000000
0.741024 0.000000 0.000000
0.801389 0.000000 0.000000
0.854398 0.000000 0.000000
0.899077 0.000000 0.000000
0.954314 0.000000 0.000000
0.981842 0.103914 0.000000
1.000000 0.157900 0.000000
1.000000 0.196323 0.000000
1.000000 0.228275 0.000000
1.000000 0.257481 0.000000
1.000000 0.285893 0.000000
1.000000 0.314549 0.000000
1.000000 0.343908 0.083497
1.000000 0.374945 0.164492
0.000000 0.084535 0.006653
0.000000 0.085145 0.006500
0.000000 0.085908 0.005219
0.000000 0.088045 0.003632
0.000000 0.089052 0.003143
0.000000 0.087282 0.000000
0.025238 0.085786 0.000000
0.077760 0.088685 0.000000
0.107637 0.089754 0.000000
0.142245 0.092042 0.000000
0.190860 0.094331 0.000000
0.250156 0.093904 0.000000
0.318303 0.088380 0.000000
0.392035 0.065187 0.000000
0.468025 0.023011 0.000000
0.543481 0.000000 0.000000
0.617334 0.000000 0.000000
0.686488 0.000000 0.000000
0.750912 0.000000 0.000000
0.810269 0.000000 0.000000
0.862669 0.024842 0.000000
0.907317 0.101350 0.000000
0.943450 0.135744 0.000000
0.976684 0.170779 0.000000
1.000000 0.202701 0.000000
1.000000 0.230320 0.000000
1.000000 0.254795 0.000000
1.000000 0.278660 0.000000
1.000000 0.302403 0.000000
1.000000 0.327001 0.000000
1.000000 0.353491 0.045869
1.000000 0.381933 0.156130
0.000000 0.108095 0.032990
0.000000 0.108400 0.033967
0.000000 0.109377 0.032380
0.000000 0.110689 0.027222
0.000000 0.112673 0.026123
0.000000 0.113405 0.022065
0.018585 0.110506 0.008087
0.078645 0.108003 0.000000
0.116854 0.111360 0.000000
0.152560 0.112734 0.000000
0.196841 0.113771 0.000000
0.255589 0.116915 0.000000
0.321874 0.117861 0.000000
0.393744 0.115389 0.000000
0.467720 0.110994 0.000000
0.541558 0.105653 0.000000
0.613581 0.102113 0.000000
0.681849 0.105531 0.000000
0.745907 0.115877 0.000000
0.803952 0.133242 0.000000
0.855650 0.154910 0.000000
0.899962 0.178225 0.000000
0.938781 0.201297 0.000000
0.972625 0.224338 0.000000
0.998871 0.246159 0.000000
1.000000 0.265965 0.000000
1.000000 0.284886 0.000000
1.000000 0.303593 0.000000
1.000000 0.323766 0.000000
1.000000 0.344884 0.000000
1.000000 0.368383 0.027344
1.000000 0.393988 0.152438
0.000000 0.142947 0.083101
0.000000 0.143374 0.083619
0.000000 0.144686 0.083772
0.000000 0.146487 0.078676
0.000000 0.149660 0.072175
0.000000 0.153994 0.073152
0.000000 0.152621 0.054139
0.064118 0.146242 0.027832
0.120516 0.140963 0.005158
0.168185 0.145113 0.000000
0.214908 0.146487 0.000000
0.266331 0.146914 0.000000
0.329656 0.149752 0.000000
0.399512 0.153658 0.000000
0.471962 0.156558 0.000000
0.543511 0.159579 0.000000
0.613672 0.163851 0.000000
0.680812 0.171115 0.000000
0.743282 0.181918 0.000000
0.800656 0.195712 0.000000
0.851652 0.211643 0.000000
0.897795 0.231693 0.000000
0.937407 0.251865 0.000000
0.969055 0.270970 0.000000
0.994232 0.287907 0.000000
1.000000 0.303044 0.000000
1.000000 0.317388 0.000000
1.000000 0.332311 0.000000
1.000000 0.348821 0.000000
1.000000 0.366613 0.000000
1.000000 0.387060 0.020508
1.000000 0.410010 0.152926
0.000000 0.193027 0.123323
0.000000 0.193454 0.123476
0.000000 0.194827 0.123934
0.000000 0.197360 0.120211
0.000000 0.201419 0.114351
0.000000 0.206607 0.115389
0.000000 0.214115 0.117311
0.011963 0.205966 0.095735
0.121187 0.195163 0.056580
0.174838 0.185580 0.014557
0.232425 0.189425 0.000000
0.285618 0.190799 0.000000
0.342138 0.190951 0.000000
0.403418 0.192477 0.000000
0.474617 0.199893 0.000000
0.545525 0.207645 0.000000
0.614771 0.216129 0.000000
0.680812 0.225834 0.000000
0.742367 0.237125 0.000000
0.798703 0.250156 0.000000
0.852171 0.266880 0.000000
0.897246 0.283513 0.000000
0.933837 0.298924 0.000000
0.963714 0.313237 0.000000
0.987884 0.326024 0.000000
1.000000 0.337621 0.000000
1.000000 0.347997 0.000000
1.000000 0.359716 0.000000
1.000000 0.373083 0.000000
1.000000 0.388434 0.000000
1.000000 0.406531 0.008850
1.000000 0.427222 0.152621
0.000000 0.254887 0.171847
0.000000 0.255467 0.172213
0.000000 0.257084 0.173678
0.000000 0.260441 0.171328
0.000000 0.265537 0.166171
0.000000 0.272526 0.164248
0.000000 0.281926 0.167391
0.000000 0.286198 0.162020
0.111452 0.273350 0.132692
0.182712 0.257969 0.099062
0.243259 0.243412 0.032288
0.306554 0.246403 0.002258
0.363775 0.247684 0.000000
0.422431 0.248081 0.000000
0.480903 0.247562 0.000000
0.548699 0.256291 0.000000
0.615991 0.266880 0.000000
0.680659 0.277836 0.000000
0.743923 0.291569 0.000000
0.801022 0.305577 0.000000
0.851347 0.319554 0.000000
0.893889 0.332738 0.000000
0.929168 0.345251 0.000000
0.958190 0.356329 0.000000
0.981903 0.366796 0.000000
1.000000 0.376165 0.000000
1.000000 0.384741 0.000000
1.000000 0.392706 0.000000
1.000000 0.400946 0.000000
1.000000 0.413977 0.000000
1.000000 0.429389 0.023560
1.000000 0.447852 0.157839
0.000000 0.332219 0.229129
0.000000 0.332525 0.229648
0.000000 0.334386 0.230900
0.000000 0.338170 0.230014
0.000000 0.343969 0.226200
0.000000 0.352026 0.220951
0.000000 0.362615 0.225010
0.000000 0.374975 0.229953
0.079896 0.371283 0.213260
0.185458 0.354498 0.178775
0.254337 0.333745 0.138918
0.319219 0.314794 0.088289
0.409461 0.335119 0.070588
0.469184 0.335241 0.042054
0.527306 0.334051 0.015320
0.589014 0.336095 0.000000
0.652369 0.343511 0.000000
0.717159 0.357641 0.000000
0.775906 0.370916 0.000000
0.828214 0.383246 0.000000
0.872892 0.394385 0.000000
0.909361 0.403754 0.000000
0.939422 0.411872 0.000000
0.964324 0.419379 0.000000
0.984741 0.426154 0.000000
1.000000 0.432044 0.000000
1.000000 0.437171 0.000000
1.000000 0.442390 0.000000
1.000000 0.447852 0.000000
1.000000 0.453162 0.000000
1.000000 0.463813 0.118898
1.000000 0.479652 0.188388
0.000000 0.431464 0.297063
0.000000 0.431525 0.297337
0.000000 0.432593 0.298314
0.000000 0.435492 0.298070
0.000000 0.440345 0.294591
0.000000 0.447303 0.289799
0.000000 0.456580 0.289982
0.000000 0.468147 0.295048
0.126925 0.482429 0.301732
0.207034 0.467201 0.271946
0.276463 0.448219 0.235264
0.345464 0.428779 0.194553
0.417304 0.410681 0.143496
0.488777 0.410895 0.130220
0.552392 0.413733 0.124575
0.610712 0.413428 0.119997
0.664942 0.412360 0.112062
0.715480 0.410681 0.106355
0.771115 0.421363 0.091066
0.820401 0.431220 0.062287
0.862852 0.439277 0.035767
0.898497 0.446509 0.023438
0.928344 0.452796 0.031403
0.953368 0.458259 0.048005
0.974121 0.463539 0.078584
0.991363 0.468208 0.096101
1.000000 0.472572 0.110536
1.000000 0.476753 0.124331
1.000000 0.481392 0.137819
1.000000 0.486244 0.151858
1.000000 0.491646 0.165591
1.000000 0.500481 0.194247
0.000000 0.510430 0.353216
0.000000 0.510491 0.353185
0.000000 0.511620 0.354437
0.000000 0.513970 0.355627
0.000000 0.518608 0.353277
0.000000 0.525536 0.350042
0.000000 0.534783 0.348180
0.097292 0.545861 0.354345
0.202762 0.559564 0.362646
0.269108 0.567041 0.361089
0.318425 0.552941 0.329320
0.375341 0.535393 0.292638
0.435798 0.513573 0.249454
0.502434 0.492470 0.198581
0.567285 0.486580 0.185580
0.625025 0.485634 0.181827
0.676081 0.481941 0.176974
0.723018 0.477455 0.172763
0.766751 0.473304 0.170016
0.810910 0.476204 0.165286
0.852445 0.482612 0.161990
0.887633 0.488167 0.161593
0.917388 0.493141 0.164157
0.942473 0.497475 0.168490
0.963439 0.501335 0.174624
0.980896 0.505150 0.182864
0.995605 0.508507 0.190219
1.000000 0.511986 0.199222
1.000000 0.515862 0.209049
1.000000 0.520165 0.219242
1.000000 0.525017 0.230106
1.000000 0.530907 0.242496
0.101534 0.591211 0.418952
0.108858 0.591211 0.419226
0.127047 0.591699 0.419867
0.156527 0.592798 0.421454
0.162081 0.595880 0.419257
0.170504 0.600763 0.416541
0.183566 0.608240 0.413367
0.232914 0.616876 0.417517
0.290196 0.627558 0.425757
0.349676 0.640528 0.437049
0.387579 0.638239 0.422522
0.423651 0.624079 0.388373
0.468971 0.606592 0.349737
0.519280 0.583612 0.303288
0.578149 0.560906 0.251438
0.634302 0.549889 0.236698
0.685115 0.546105 0.233188
0.729397 0.540124 0.229465
0.770352 0.533501 0.225864
0.807401 0.527489 0.223697
0.841947 0.523919 0.223026
0.876707 0.528161 0.223484
0.906096 0.531823 0.226200
0.931029 0.535149 0.230259
0.952087 0.538170 0.235843
0.969787 0.540887 0.241886
0.984741 0.543786 0.249271
0.997314 0.547112 0.258305
1.000000 0.550713 0.267643
1.000000 0.554955 0.277806
1.000000 0.560204 0.289738
1.000000 0.566308 0.302342
0.270512 0.653162 0.481025
0.272648 0.653590 0.481422
0.278996 0.653986 0.482399
0.292912 0.655299 0.484504
0.300969 0.658106 0.484352
0.308049 0.662531 0.483131
0.319066 0.669032 0.482338
0.340826 0.676844 0.484321
0.382513 0.685389 0.493782
0.427741 0.695125 0.505303
0.475227 0.705684 0.518700
0.491646 0.695369 0.487343
0.516930 0.681025 0.448951
0.550805 0.662440 0.405310
0.590814 0.638849 0.355230
0.640925 0.614679 0.301030
0.688472 0.600610 0.284062
0.732845 0.595178 0.281193
0.771359 0.587854 0.277714
0.806241 0.580499 0.275486
0.837644 0.573480 0.274998
0.866148 0.567376 0.275761
0.894682 0.568658 0.278752
0.919554 0.571527 0.283635
0.940642 0.574060 0.289708
0.958373 0.576654 0.296269
0.973388 0.579156 0.303990
0.986114 0.581872 0.312444
0.997040 0.585046 0.321386
1.000000 0.588983 0.331823
1.000000 0.593439 0.342718
1.000000 0.598840 0.354833
0.377234 0.701289 0.540917
0.378668 0.701472 0.541192
0.383856 0.701991 0.542229
0.393256 0.702785 0.544335
0.401373 0.704891 0.545373
0.408209 0.708461 0.545342
0.417609 0.713283 0.545525
0.430213 0.719326 0.546258
0.459724 0.725429 0.554131
0.495033 0.732052 0.565057
0.532647 0.739101 0.577508
0.561639 0.742000 0.578607
0.570855 0.732815 0.544640
0.589410 0.720424 0.504723
0.616754 0.703853 0.458015
0.650813 0.682307 0.405646
0.694942 0.659937 0.350042
0.734981 0.644282 0.332311
0.773098 0.637659 0.330022
0.805203 0.629236 0.328191
0.834409 0.621607 0.326940
0.861295 0.614313 0.327031
0.885283 0.608057 0.328740
0.907866 0.605463 0.332647
0.928862 0.607691 0.338994
0.946563 0.609888 0.346410
0.961486 0.612177 0.354314
0.974182 0.614801 0.363287
0.985016 0.617823 0.372930
0.994354 0.621515 0.383703
1.000000 0.625910 0.395270
1.000000 0.631250 0.408057
0.473152 0.738491 0.600092
0.474525 0.738766 0.600671
0.516258 0.751308 0.625818
0.522789 0.751736 0.627893
0.530632 0.752773 0.629938
0.536004 0.754879 0.630335
0.543786 0.757626 0.631464
0.553368 0.761044 0.632929
0.569726 0.764889 0.637568
0.594476 0.768704 0.647028
0.620783 0.772732 0.657618
0.647608 0.776883 0.668940
0.655634 0.774990 0.656062
0.657343 0.767758 0.623011
0.666773 0.757870 0.582422
0.685664 0.744472 0.534020
0.713313 0.726497 0.476875
0.751247 0.706844 0.417823
0.781735 0.689143 0.396857
0.811093 0.680568 0.393988
0.836484 0.671229 0.391272
0.860014 0.663111 0.390173
0.881590 0.655543 0.390082
0.900938 0.648890 0.391516
0.918425 0.642664 0.393133
0.935180 0.643519 0.399512
0.949554 0.644678 0.406378
0.961883 0.646326 0.414160
0.972473 0.648737 0.423651
0.981537 0.652155 0.434668
0.989593 0.656245 0.446632
0.996704 0.661250 0.459754
0.565911 0.766781 0.659388
0.569451 0.767666 0.661555
0.575402 0.768734 0.664546
0.583551 0.769863 0.668269
0.592676 0.771023 0.671962
0.598199 0.772763 0.673365
0.604639 0.774685 0.674861
0.612299 0.777218 0.676417
0.621820 0.780240 0.678798
0.639734 0.782864 0.685969
0.659174 0.785794 0.694240
0.679561 0.788876 0.703182
0.699794 0.791989 0.712154
0.697597 0.787778 0.690730
0.698207 0.781765 0.661616
0.705013 0.773587 0.624079
0.720638 0.762600 0.577630
0.745327 0.747982 0.523156
0.780484 0.731807 0.466102
0.806516 0.715206 0.444526
0.831388 0.707088 0.442481
0.853330 0.699153 0.441596
0.873503 0.691707 0.441291
0.891814 0.684840 0.441840
0.908293 0.678584 0.443153
0.923217 0.673091 0.445197
0.936919 0.671595 0.451026
0.949065 0.673152 0.459419
0.959503 0.675410 0.469429
0.968597 0.678492 0.480629
0.976349 0.682734 0.493874
0.983246 0.687739 0.507927
0.627131 0.782986 0.699672
0.629969 0.783627 0.701503
0.634730 0.784451 0.704097
0.640742 0.785336 0.707118
0.648463 0.786130 0.710567
0.653101 0.787442 0.712093
0.657862 0.788907 0.713344
0.663508 0.790738 0.714748
0.670588 0.792844 0.716762
0.681117 0.795010 0.720699
0.695583 0.797177 0.726955
0.710628 0.799405 0.733791
0.725978 0.801785 0.740749
0.735775 0.802548 0.741146
0.733120 0.798734 0.722225
0.733486 0.793759 0.697627
0.738674 0.787106 0.664851
0.751095 0.778195 0.623011
0.772457 0.766476 0.572198
0.804196 0.753109 0.517113
0.826261 0.737789 0.494850
0.846860 0.730343 0.493812
0.865599 0.723354 0.493172
0.882597 0.716732 0.493721
0.898100 0.710597 0.494453
0.912078 0.705196 0.496132
0.924834 0.700496 0.498878
0.936248 0.697719 0.504112
0.946532 0.699886 0.514458
0.955383 0.702937 0.526146
0.963043 0.706935 0.539574
0.969726 0.711879 0.554009
0.676875 0.795895 0.733486
0.679164 0.796353 0.734920
0.682551 0.796994 0.736812
0.686915 0.797574 0.739040
0.692378 0.798093 0.741604
0.696345 0.798947 0.743069
0.700038 0.800137 0.744198
0.704341 0.801419 0.745510
0.709560 0.803037 0.747097
0.715846 0.804807 0.749203
0.726528 0.806424 0.753933
0.737911 0.808194 0.759182
0.749508 0.809995 0.764553
0.761227 0.811887 0.770047
0.763760 0.810941 0.764248
0.761746 0.807797 0.748745
0.762356 0.803769 0.728695
0.767086 0.798550 0.702510
0.777707 0.791836 0.668849
0.796139 0.782986 0.625025
0.824094 0.772793 0.575860
0.842954 0.759823 0.555138
0.859648 0.753567 0.555138
0.875090 0.747890 0.556359
0.889006 0.742794 0.558465
0.901671 0.738125 0.560723
0.913176 0.734157 0.563622
0.923644 0.731136 0.568231
0.932921 0.729335 0.574945
0.941161 0.731502 0.586267
0.948272 0.735592 0.599969
0.954620 0.740505 0.614679
0.726253 0.808499 0.767361
0.727077 0.808652 0.767849
0.728359 0.808804 0.768551
0.730495 0.808988 0.769467
0.733547 0.809201 0.770748
0.736324 0.809628 0.771756
0.738674 0.810330 0.772427
0.741817 0.811307 0.773404
0.745571 0.812467 0.774624
0.750088 0.813870 0.776242
0.756741 0.815244 0.779110
0.765011 0.816617 0.783017
0.773678 0.818082 0.787045
0.782406 0.819608 0.791165
0.791165 0.821225 0.795315
0.789181 0.819181 0.786252
0.787594 0.816403 0.773770
0.787961 0.813046 0.757839
0.791440 0.808774 0.736995
0.799496 0.803281 0.709499
0.814176 0.796048 0.672572
0.837522 0.787716 0.628656
0.853147 0.776150 0.606867
0.866575 0.770382 0.605768
0.879271 0.765530 0.606653
0.891020 0.761288 0.608453
0.901823 0.757717 0.611139
0.911650 0.755001 0.615412
0.920562 0.753323 0.621241
0.928588 0.752743 0.628931
0.935729 0.754391 0.639551
0.942138 0.758999 0.653468
0.755764 0.816373 0.787869
0.756405 0.816495 0.788235
0.757412 0.816617 0.788785
0.759030 0.816770 0.789517
0.761318 0.816983 0.790494
0.763760 0.817227 0.791470
0.765530 0.817838 0.792020
0.767880 0.818631 0.792782
0.770687 0.819608 0.793790
0.774166 0.820706 0.795071
0.778256 0.821927 0.796719
0.784512 0.823056 0.799649
0.791073 0.824338 0.802731
0.797848 0.825681 0.805966
0.804715 0.827146 0.809232
0.809171 0.827665 0.809689
0.807462 0.825681 0.801968
0.806546 0.823301 0.792142
0.807095 0.820401 0.779568
0.809964 0.816831 0.763058
0.816495 0.812314 0.741238
0.828183 0.806546 0.712093
0.847288 0.799832 0.676387
0.860319 0.790249 0.656458
0.870726 0.783780 0.648859
0.881498 0.779782 0.649683
0.891630 0.776638 0.652125
0.900908 0.774258 0.655848
0.909453 0.772702 0.660975
0.917296 0.772122 0.667628
0.924498 0.772702 0.676081
0.931182 0.774350 0.685969
0.782742 0.824186 0.806668
0.783413 0.824338 0.807065
0.784085 0.824460 0.807431
0.785061 0.824521 0.807828
0.786252 0.824582 0.808255
0.787930 0.824704 0.808865
0.788815 0.825071 0.808988
0.790066 0.825528 0.809232
0.791745 0.826169 0.809659
0.793851 0.826963 0.810300
0.796262 0.827909 0.811093
0.800290 0.828885 0.812802
0.805051 0.829862 0.814969
0.810056 0.830991 0.817227
0.815274 0.832151 0.819577
0.820706 0.833433 0.821988
0.821744 0.832853 0.819455
0.820462 0.830869 0.812802
0.819913 0.828611 0.804623
0.820706 0.826047 0.794369
0.823301 0.822965 0.781125
0.828733 0.819089 0.763455
0.838254 0.814176 0.739528
0.854032 0.808499 0.709834
0.864958 0.800168 0.691646
0.874144 0.795956 0.689601
0.883177 0.792782 0.689998
0.891936 0.790494 0.692500
0.900175 0.788937 0.696071
0.907897 0.788235 0.701137
0.915190 0.788510 0.707851
0.921996 0.789822 0.716060
0.799374 0.829831 0.818418
0.799863 0.829984 0.818723
0.800443 0.830076 0.819028
0.801266 0.830198 0.819394
0.802487 0.830320 0.819913
0.804013 0.830503 0.820554
0.805112 0.830900 0.820920
0.806363 0.831418 0.821378
0.807950 0.832090 0.821958
0.809842 0.832914 0.822660
0.811917 0.833799 0.823392
0.814572 0.834806 0.824460
0.818387 0.835782 0.826230
0.822385 0.836790 0.828031
0.826535 0.837919 0.829862
0.830930 0.839078 0.831754
0.835477 0.840360 0.833738
0.834562 0.838804 0.829496
0.833768 0.836942 0.824094
0.833646 0.834836 0.817502
0.834440 0.832425 0.809384
0.836637 0.829648 0.798917
0.840940 0.826261 0.785153
0.848386 0.822049 0.766415
0.860929 0.817411 0.743252
0.869902 0.810575 0.728328
0.877592 0.807401 0.726833
0.885313 0.805112 0.727687
0.893095 0.803891 0.730648
0.900542 0.803342 0.734707
0.907774 0.803555 0.739834
0.914763 0.804593 0.746212
0.814939 0.835966 0.829526
0.815183 0.836027 0.829709
0.815579 0.836149 0.829892
0.816098 0.836210 0.830137
0.816953 0.836301 0.830472
0.818173 0.836454 0.830961
0.819120 0.836790 0.831327
0.820096 0.837217 0.831632
0.821225 0.837827 0.832029
0.822660 0.838529 0.832547
0.824277 0.839384 0.833127
0.826078 0.840330 0.833799
0.829007 0.841245 0.835111
0.832303 0.842222 0.836576
0.835782 0.843229 0.838102
0.839475 0.844327 0.839689
0.843320 0.845487 0.841337
0.845975 0.845975 0.841611
0.845151 0.844388 0.837644
0.844816 0.842618 0.833036
0.844968 0.840665 0.827604
0.845884 0.838376 0.820890
0.847745 0.835691 0.812467
0.851194 0.832578 0.801419
0.857115 0.828794 0.786496
0.867124 0.824796 0.768154
0.874632 0.819028 0.755520
0.881254 0.816464 0.754238
0.888090 0.814847 0.754940
0.895415 0.814420 0.758236
0.902495 0.814694 0.762570
0.909514 0.815610 0.767788
0.826993 0.841703 0.838407
0.827146 0.841733 0.838499
0.827451 0.841825 0.838651
0.828031 0.841947 0.838926
0.828824 0.842100 0.839292
0.829984 0.842344 0.839811
0.831266 0.842771 0.840452
0.832425 0.843412 0.841001
0.833829 0.844144 0.841672
0.835447 0.845060 0.842435
0.837278 0.846036 0.843290
0.839170 0.847105 0.844205
0.841581 0.848234 0.845304
0.844633 0.849241 0.846738
0.847837 0.850278 0.848264
0.851072 0.851316 0.849699
0.854459 0.852384 0.851164
0.857969 0.853513 0.852720
0.858946 0.853178 0.851499
0.858396 0.851804 0.848051
0.858274 0.850217 0.844175
0.858610 0.848386 0.839658
0.859495 0.846281 0.834257
0.861143 0.843809 0.827695
0.863828 0.840940 0.819394
0.868193 0.837552 0.808530
0.875700 0.834104 0.795377
0.881559 0.829526 0.785946
0.887266 0.827726 0.784970
0.893309 0.826688 0.785428
0.900175 0.826993 0.788510
0.907042 0.827817 0.792355
0.840848 0.848997 0.848661
0.840909 0.848997 0.848661
0.841062 0.848997 0.848753
0.841398 0.849088 0.848875
0.841978 0.849180 0.849119
0.842802 0.849332 0.849454
0.843809 0.849607 0.849882
0.844541 0.850004 0.850156
0.845396 0.850492 0.850523
0.846494 0.851164 0.850950
0.847776 0.851835 0.851438
0.849180 0.852628 0.852049
0.850706 0.853513 0.852628
0.853178 0.854337 0.853788
