20 Preset/Natural Wedding/【3】LUT video cho PR-AE-FCPX/Lut Tone (14).cube
# Created by Adobe Lightroom plugin Export LUT (1.24.0)
# www.johnrellis.com/lightroom/exportlut.htm
# Preset: 清新婚礼-素材江湖14
# Color profile: C:\Program Files (x86)\Common Files\Adobe\Color\Profiles\Recommended\VideoHD.icc
LUT_3D_SIZE 32
DOMAIN_MIN 0.0 0.0 0.0
DOMAIN_MAX 1.0 1.0 1.0
0.000000 0.000000 0.000000
0.000000 0.001190 0.000000
0.000000 0.002411 0.000824
0.000000 0.005798 0.000366
0.001923 0.010895 0.001862
0.026856 0.014771 0.003113
0.080507 0.017456 0.005066
0.112459 0.018738 0.007691
0.141756 0.016754 0.012299
0.174807 0.010559 0.018402
0.212192 0.000000 0.028199
0.256565 0.000000 0.040131
0.309453 0.000000 0.054170
0.372839 0.000000 0.072694
0.443702 0.000000 0.088777
0.517998 0.000000 0.099001
0.591699 0.000000 0.109377
0.662165 0.000000 0.120607
0.726436 0.000000 0.132845
0.781888 0.000000 0.146090
0.831846 0.000000 0.162570
0.883177 0.000000 0.185733
0.919768 0.000000 0.208957
0.946868 0.000000 0.233921
0.967010 0.000000 0.260227
0.981994 0.172488 0.288029
0.993103 0.259861 0.318212
1.000000 0.330510 0.351141
1.000000 0.395361 0.387976
1.000000 0.457038 0.429236
1.000000 0.515343 0.474586
1.000000 0.568231 0.521019
0.000000 0.001190 0.000000
0.000000 0.001190 0.000000
0.000000 0.003601 0.000671
0.000000 0.005798 0.000366
0.001923 0.010895 0.001862
0.024170 0.016175 0.002960
0.077913 0.017884 0.005066
0.110231 0.019623 0.007721
0.138582 0.018555 0.011231
0.171023 0.012268 0.017548
0.207492 0.000275 0.027405
0.250492 0.000000 0.038300
0.301732 0.000000 0.052827
0.363134 0.000000 0.069673
0.432746 0.000000 0.087221
0.506767 0.000000 0.097292
0.580957 0.000000 0.107698
0.652247 0.000000 0.118776
0.717403 0.000000 0.130800
0.773861 0.000000 0.143832
0.824643 0.000000 0.159640
0.875395 0.000000 0.181399
0.912261 0.000000 0.203586
0.940093 0.000000 0.226841
0.961212 0.000000 0.251652
0.977325 0.132845 0.278264
0.989624 0.233219 0.307622
0.998627 0.307744 0.339788
1.000000 0.375250 0.375860
1.000000 0.439094 0.416571
1.000000 0.499886 0.462043
1.000000 0.555444 0.509453
0.000000 0.006012 0.000397
0.000000 0.006012 0.000397
0.000000 0.007202 0.000244
0.000000 0.009400 0.000000
0.000000 0.014527 0.001404
0.022034 0.019806 0.002533
0.071077 0.023163 0.004486
0.107973 0.023926 0.006165
0.136049 0.023285 0.010834
0.167575 0.018097 0.017182
0.203342 0.006470 0.024964
0.245731 0.000000 0.037232
0.295415 0.000000 0.050782
0.355291 0.000000 0.066590
0.423804 0.000000 0.084108
0.496956 0.000000 0.095705
0.571374 0.000000 0.106081
0.643183 0.000000 0.116823
0.709468 0.000000 0.128634
0.767391 0.000000 0.141634
0.820279 0.000000 0.157565
0.870573 0.000000 0.178470
0.907591 0.000000 0.199985
0.935973 0.000000 0.222629
0.957610 0.000000 0.246860
0.974365 0.113527 0.272953
0.987274 0.221103 0.301732
0.996918 0.297215 0.333623
1.000000 0.365454 0.369360
1.000000 0.430121 0.409583
1.000000 0.491615 0.454902
1.000000 0.548394 0.502678
0.000000 0.016846 0.001312
0.000000 0.016846 0.001312
0.000000 0.016602 0.001312
0.000000 0.018585 0.000000
0.000000 0.021515 0.000519
0.017762 0.027008 0.001617
0.066835 0.030365 0.003601
0.104677 0.033021 0.005158
0.132845 0.032807 0.009827
0.163943 0.028534 0.015076
0.199100 0.018250 0.022919
0.240055 0.000000 0.034150
0.288823 0.000000 0.047669
0.346532 0.000000 0.062776
0.412909 0.000000 0.081117
0.484688 0.000000 0.092927
0.558160 0.000000 0.103151
0.629297 0.000000 0.113497
0.696071 0.000000 0.124971
0.755367 0.000000 0.137606
0.810910 0.000000 0.153414
0.860288 0.000000 0.172885
0.898161 0.000000 0.193515
0.928161 0.000000 0.215335
0.951812 0.000000 0.239750
0.970275 0.096284 0.266239
0.984710 0.213687 0.295720
0.995361 0.292576 0.328710
1.000000 0.362249 0.365332
1.000000 0.427375 0.406073
1.000000 0.488045 0.450629
1.000000 0.543877 0.497475
0.000000 0.033448 0.002594
0.000000 0.033448 0.002594
0.000000 0.034424 0.002441
0.000000 0.033967 0.001312
0.000000 0.036988 0.000000
0.018311 0.038148 0.001221
0.056458 0.041657 0.002258
0.099519 0.044953 0.003845
0.127230 0.046845 0.007263
0.157229 0.043153 0.012726
0.191714 0.034882 0.020661
0.231266 0.018006 0.030884
0.277958 0.000000 0.043488
0.333867 0.000000 0.057465
0.398993 0.000000 0.075166
0.469947 0.000000 0.089570
0.544762 0.000000 0.099733
0.617487 0.000000 0.110262
0.685878 0.000000 0.121340
0.746578 0.000000 0.133761
0.805722 0.000000 0.150149
0.854368 0.000000 0.168948
0.892424 0.000000 0.188937
0.923430 0.000000 0.210849
0.947906 0.000000 0.235080
0.967254 0.110872 0.261875
0.982361 0.216373 0.291569
0.993500 0.292576 0.324376
1.000000 0.360266 0.360601
1.000000 0.424262 0.401099
1.000000 0.484382 0.445411
1.000000 0.539910 0.492012
0.000000 0.059449 0.006104
0.000000 0.059449 0.006104
0.000000 0.060182 0.005951
0.000000 0.058564 0.004944
0.000000 0.058412 0.002472
0.023102 0.064546 0.000000
0.064515 0.062043 0.000458
0.096345 0.062776 0.003876
0.122469 0.064820 0.005188
0.152529 0.062989 0.010559
0.186313 0.056306 0.017395
0.225071 0.045045 0.027253
0.270817 0.024262 0.038392
0.325505 0.000000 0.052094
0.389899 0.000000 0.068971
0.461280 0.000000 0.085542
0.535729 0.000000 0.096162
0.609766 0.000000 0.106630
0.679194 0.000000 0.117769
0.741939 0.000000 0.130282
0.804166 0.000000 0.147433
0.852232 0.000000 0.166079
0.930663 0.000000 0.216556
0.955016 0.097475 0.244236
0.972992 0.202853 0.273838
0.986084 0.274571 0.305119
0.995270 0.337102 0.338384
1.000000 0.395117 0.373938
1.000000 0.450629 0.412970
1.000000 0.503136 0.454841
1.000000 0.551659 0.497871
1.000000 0.594537 0.539452
0.000000 0.092287 0.013855
0.000000 0.092195 0.013825
0.000000 0.092470 0.013672
0.000000 0.092592 0.012360
0.000000 0.090578 0.010468
0.008606 0.091432 0.003906
0.086427 0.093874 0.000000
0.109377 0.090578 0.002411
0.127871 0.089570 0.009277
0.157321 0.088716 0.012360
0.191623 0.086275 0.016419
0.232486 0.081788 0.025086
0.280369 0.067720 0.036927
0.337591 0.037598 0.049287
0.403601 0.000000 0.065919
0.474769 0.000000 0.082918
0.549157 0.000000 0.094301
0.622156 0.000000 0.104219
0.690517 0.000000 0.115755
0.761349 0.000000 0.130983
0.823880 0.000000 0.150881
0.872953 0.000000 0.173739
0.911772 0.000000 0.199161
0.941802 0.094331 0.227756
0.964019 0.196963 0.258946
0.979767 0.267552 0.291112
0.990753 0.328069 0.324865
0.997986 0.384588 0.360204
1.000000 0.439033 0.398749
1.000000 0.490883 0.439918
1.000000 0.540002 0.483314
1.000000 0.584009 0.525780
0.000000 0.109163 0.026307
0.000000 0.109499 0.026184
0.000000 0.109987 0.025849
0.000000 0.110506 0.027588
0.000000 0.108705 0.022461
0.000000 0.106325 0.019532
0.048524 0.108583 0.008423
0.111879 0.111574 0.000000
0.137209 0.106752 0.007141
0.157900 0.104280 0.018555
0.187350 0.103700 0.024048
0.225162 0.102571 0.027344
0.268376 0.099641 0.029633
0.322484 0.094148 0.039673
0.386114 0.078248 0.053315
0.455970 0.023957 0.070161
0.529412 0.000000 0.086580
0.603174 0.000000 0.096590
0.676844 0.000000 0.108003
0.752163 0.000000 0.123751
0.812619 0.000000 0.142428
0.861387 0.000000 0.164309
0.901091 0.000000 0.189090
0.932494 0.139590 0.216831
0.956237 0.211460 0.247532
0.973480 0.271763 0.279789
0.985840 0.327276 0.313146
0.994324 0.380896 0.348760
0.999573 0.433509 0.387091
1.000000 0.484596 0.428351
1.000000 0.533562 0.472236
1.000000 0.578393 0.515984
0.000000 0.129244 0.044404
0.000000 0.129488 0.044221
0.000000 0.129824 0.045045
0.000000 0.130159 0.046784
0.000000 0.130007 0.040894
0.000000 0.126711 0.038697
0.017823 0.125978 0.030426
0.090974 0.128573 0.014862
0.141054 0.131716 0.000000
0.169070 0.125704 0.013153
0.193271 0.122560 0.028534
0.222171 0.122530 0.040681
0.265476 0.122103 0.044343
0.315618 0.120485 0.045441
0.373571 0.116457 0.044953
0.440864 0.109255 0.053712
0.513787 0.095064 0.070649
0.588891 0.056794 0.087282
0.671473 0.005585 0.099214
0.743587 0.000000 0.114443
0.802731 0.001465 0.132692
0.851438 0.084077 0.154482
0.891661 0.135225 0.179324
0.924102 0.184848 0.206912
0.949004 0.235325 0.237583
0.967468 0.285313 0.269902
0.980957 0.334874 0.303563
0.990448 0.384649 0.339544
0.996674 0.434424 0.377966
0.999878 0.483680 0.419562
1.000000 0.531762 0.463935
0.999786 0.576349 0.508446
0.000000 0.151247 0.069856
0.000000 0.151217 0.070985
0.000000 0.151278 0.071931
0.000000 0.151736 0.072389
0.000000 0.152346 0.077028
0.000000 0.149783 0.064820
0.000000 0.146029 0.059785
0.054780 0.147189 0.044282
0.117891 0.150149 0.022583
0.173037 0.153384 0.002197
0.204379 0.147372 0.020111
0.231632 0.143801 0.039246
0.261143 0.143862 0.060060
0.309514 0.145205 0.064668
0.367315 0.145602 0.064576
0.431312 0.144747 0.061219
0.502098 0.143374 0.053895
0.585840 0.143862 0.065522
0.665766 0.144381 0.086336
0.736049 0.148043 0.102083
0.793881 0.156069 0.121065
0.841184 0.170443 0.143099
0.880522 0.192386 0.167605
0.912993 0.221225 0.194400
0.938659 0.256077 0.223697
0.958526 0.295384 0.255070
0.973724 0.338293 0.288823
0.984955 0.383642 0.324804
0.992645 0.431312 0.364050
0.997070 0.480079 0.406836
0.998688 0.528161 0.452522
0.998352 0.573754 0.499306
0.000000 0.174136 0.093050
0.000000 0.174105 0.093477
0.000000 0.174472 0.093721
0.000000 0.175021 0.094606
0.000000 0.175692 0.096132
0.000000 0.175265 0.092073
0.000000 0.171664 0.089937
0.025849 0.167117 0.087190
0.100130 0.171237 0.063172
0.150607 0.175051 0.030793
0.211734 0.179721 0.002258
0.247440 0.174136 0.025422
0.279332 0.170565 0.050568
0.314092 0.170596 0.077150
0.363775 0.173526 0.084779
0.434730 0.179660 0.083314
0.509453 0.185489 0.077699
0.584558 0.191440 0.066224
0.655604 0.198001 0.053285
0.723690 0.205417 0.080995
0.781369 0.213291 0.104555
0.829252 0.223789 0.128542
0.869596 0.238804 0.154513
0.903288 0.259190 0.182284
0.930236 0.285557 0.212467
0.951354 0.317510 0.244694
0.967773 0.354162 0.278996
0.980072 0.394873 0.315953
0.988739 0.438758 0.355779
0.993957 0.484901 0.399298
0.996277 0.531151 0.445716
0.996368 0.575799 0.493507
0.000000 0.202426 0.111025
0.000000 0.202701 0.111269
0.000000 0.202853 0.111177
0.000000 0.203586 0.112428
0.000000 0.204501 0.113558
0.000000 0.205997 0.114687
0.000000 0.202548 0.107515
0.000000 0.197910 0.105165
0.079561 0.195895 0.099489
0.134127 0.200992 0.082643
0.190433 0.205722 0.039460
0.259251 0.213931 0.000000
0.332372 0.229099 0.020844
0.383673 0.231327 0.057160
0.436225 0.236271 0.088685
0.495735 0.244297 0.098695
0.572625 0.256046 0.094026
0.645502 0.266972 0.088258
0.710780 0.277226 0.082948
0.766293 0.286168 0.084993
0.813596 0.295018 0.097810
0.855253 0.305089 0.131014
0.889982 0.317845 0.163027
0.918120 0.335332 0.195560
0.940490 0.357366 0.229343
0.957977 0.383856 0.264378
0.971283 0.413977 0.300267
0.981048 0.447700 0.337957
0.987762 0.484443 0.377752
0.991699 0.523491 0.420691
0.993286 0.563104 0.465797
0.993469 0.601587 0.511559
0.000000 0.248234 0.134737
0.000000 0.248081 0.134524
0.000000 0.247959 0.134493
0.000000 0.248356 0.134524
0.000000 0.248753 0.134707
0.000000 0.249760 0.134859
0.000000 0.247562 0.126711
0.000000 0.241550 0.124422
0.014313 0.234989 0.121859
0.119814 0.236606 0.112032
0.182132 0.248295 0.094087
0.255436 0.262028 0.039734
0.349706 0.284428 0.000000
0.410468 0.286412 0.000000
0.465064 0.287907 0.031342
0.516564 0.290440 0.078279
0.566155 0.294896 0.101503
0.633021 0.305058 0.099062
0.695888 0.314641 0.095460
0.750271 0.322515 0.097230
0.796536 0.329686 0.103243
0.836667 0.337255 0.114351
0.872404 0.346441 0.139223
0.903197 0.359472 0.174441
0.928038 0.376471 0.210300
0.947692 0.398077 0.246342
0.963043 0.424140 0.283787
0.974578 0.454749 0.323003
0.982818 0.489021 0.364569
0.987945 0.526513 0.409094
0.990387 0.565057 0.455909
0.991089 0.602991 0.503258
0.000000 0.290043 0.151797
0.000000 0.289769 0.151461
0.000000 0.289830 0.151186
0.000000 0.289769 0.150912
0.000000 0.291081 0.150729
0.000000 0.293645 0.150271
0.000000 0.296208 0.147585
0.000000 0.291600 0.139223
0.000000 0.286137 0.137209
0.081117 0.280125 0.135164
0.162081 0.291997 0.119753
0.237461 0.307408 0.094331
0.323033 0.323827 0.005402
0.426215 0.349767 0.000000
0.486580 0.347601 0.000000
0.538354 0.345098 0.000000
0.584985 0.343572 0.045747
0.628779 0.344762 0.096651
0.681025 0.351202 0.106447
0.735012 0.358526 0.108125
0.781857 0.364782 0.114137
0.822721 0.371313 0.124300
0.858335 0.378729 0.137362
0.889372 0.387366 0.152926
0.916381 0.400916 0.192386
0.937957 0.418585 0.230900
0.954986 0.440742 0.270268
0.968078 0.467262 0.310674
0.977508 0.498573 0.353765
0.983795 0.533349 0.399329
0.987060 0.570397 0.447822
0.988342 0.607446 0.497078
0.000000 0.355383 0.173037
0.000000 0.355352 0.172854
0.000000 0.354986 0.172427
0.000000 0.354894 0.171481
0.000000 0.355108 0.170016
0.000000 0.356115 0.168307
0.000000 0.358434 0.166323
0.000000 0.355688 0.152682
0.000000 0.348425 0.150362
0.000000 0.340673 0.148165
0.120180 0.337987 0.142519
0.210269 0.354345 0.119509
0.297551 0.371618 0.076234
0.391485 0.388708 0.000000
0.498024 0.413367 0.000000
0.553857 0.405951 0.000000
0.601831 0.399115 0.000000
0.643214 0.394202 0.008453
0.681880 0.392432 0.092226
0.720851 0.394202 0.118929
0.767971 0.400000 0.125338
0.809445 0.405676 0.134951
0.845853 0.411963 0.148013
0.877623 0.419379 0.163424
0.904692 0.427802 0.181308
0.927916 0.440742 0.214694
0.946715 0.459693 0.256962
0.961334 0.483558 0.300023
0.972168 0.512566 0.345586
0.979400 0.546075 0.394415
0.983459 0.582269 0.445808
0.985199 0.618799 0.498116
0.000000 0.419318 0.190463
0.000000 0.419501 0.190402
0.000000 0.419593 0.190005
0.000000 0.419898 0.189029
0.000000 0.420508 0.187533
0.000000 0.422065 0.185245
0.000000 0.424964 0.182650
0.000000 0.427192 0.174960
0.000000 0.420661 0.163210
0.000000 0.412512 0.160678
0.000000 0.403021 0.157900
0.166873 0.405707 0.144930
0.265690 0.420905 0.113130
0.359564 0.435554 0.013611
0.455665 0.448554 0.000000
0.557916 0.467903 0.000000
0.608698 0.455451 0.000000
0.652094 0.445716 0.000000
0.689265 0.438239 0.000000
0.723293 0.434119 0.092836
0.754879 0.434089 0.132357
0.795865 0.439399 0.146578
0.833555 0.445350 0.160555
0.866514 0.452186 0.176303
0.894682 0.459907 0.195071
0.918761 0.469306 0.215488
0.938994 0.482795 0.245975
0.954894 0.503868 0.291936
0.966705 0.529900 0.339757
0.974701 0.560266 0.389868
0.979431 0.593500 0.442390
0.981811 0.627375 0.495064
0.000000 0.479316 0.206241
0.000000 0.479255 0.206119
0.000000 0.479255 0.205661
0.000000 0.479622 0.204562
0.000000 0.480323 0.202701
0.000000 0.481819 0.200809
0.000000 0.484138 0.198032
0.000000 0.487495 0.195560
0.000000 0.483864 0.175998
0.000000 0.475654 0.172824
0.000000 0.466255 0.169375
0.050446 0.455482 0.166018
0.220706 0.465034 0.142794
0.321233 0.478828 0.101595
0.418006 0.491310 0.000000
0.514855 0.502037 0.000000
0.612329 0.516442 0.000000
0.657954 0.501274 0.000000
0.697017 0.489113 0.000000
0.729885 0.479500 0.000000
0.760464 0.474708 0.104891
0.788937 0.474128 0.148592
0.821408 0.478309 0.174014
0.855192 0.484535 0.191043
0.884245 0.491646 0.210147
0.909087 0.500298 0.231540
0.930266 0.510887 0.254734
0.948089 0.524834 0.283787
0.960937 0.548394 0.334386
0.969848 0.576287 0.386725
0.975219 0.607446 0.441566
0.978241 0.639246 0.495674
0.000000 0.538811 0.223575
0.000000 0.539269 0.223697
0.000000 0.574426 0.236515
0.000000 0.574609 0.235508
0.000000 0.574975 0.234440
0.000000 0.575402 0.232609
0.000000 0.576226 0.231235
0.000000 0.577752 0.230411
0.000000 0.577569 0.220981
0.000000 0.570397 0.205447
0.000000 0.561364 0.200168
0.000000 0.550561 0.194217
0.189792 0.540703 0.185183
0.306310 0.551171 0.152499
0.406165 0.560235 0.100252
0.501579 0.567651 0.000000
0.595300 0.572839 0.000000
0.681025 0.577111 0.000000
0.717830 0.556664 0.000000
0.750088 0.541222 0.000000
0.777737 0.529442 0.061738
0.803494 0.523430 0.140352
0.827237 0.522118 0.183566
0.850309 0.525231 0.217319
0.878080 0.530083 0.235935
0.901915 0.536126 0.255924
0.922454 0.544091 0.277592
0.940093 0.554528 0.301732
0.955077 0.568414 0.330419
0.964691 0.593194 0.384314
0.970794 0.621607 0.440528
0.974426 0.651118 0.496040
0.000000 0.600732 0.247837
0.000000 0.603662 0.248997
0.000000 0.606928 0.250553
0.000000 0.609705 0.251286
0.000000 0.611872 0.251377
0.000000 0.612970 0.251102
0.000000 0.613611 0.250553
0.000000 0.614130 0.250370
0.000000 0.615076 0.251957
0.000000 0.610620 0.228733
0.000000 0.602777 0.222629
0.000000 0.593622 0.216190
0.117983 0.582177 0.208469
0.260166 0.578820 0.192416
0.360937 0.587366 0.158297
0.454627 0.594568 0.103151
0.546105 0.600244 0.000000
0.635187 0.604547 0.000000
0.713985 0.606043 0.000000
0.748257 0.586481 0.000000
0.778317 0.571618 0.000000
0.804593 0.561425 0.110445
0.828275 0.556054 0.167727
0.849271 0.555047 0.210666
0.867582 0.558007 0.248386
0.890745 0.563439 0.271611
0.911925 0.570214 0.293462
0.930175 0.579431 0.317876
0.945830 0.591424 0.345068
0.958923 0.606836 0.376837
0.965972 0.633082 0.435340
0.970367 0.660853 0.492866
0.000000 0.638300 0.267338
0.000000 0.640925 0.269017
0.000000 0.643793 0.270512
0.000000 0.646265 0.272099
0.000000 0.648127 0.273014
0.000000 0.648981 0.273594
0.000000 0.649256 0.274022
0.000000 0.649195 0.274907
0.000000 0.649439 0.277562
0.000000 0.647730 0.267521
0.000000 0.641657 0.252476
0.000000 0.633967 0.245426
0.000000 0.624628 0.236759
0.229740 0.613977 0.227878
0.327855 0.616144 0.206058
0.417884 0.622736 0.171969
0.505333 0.628138 0.119600
0.590814 0.632380 0.000000
0.675135 0.635492 0.000000
0.746181 0.634241 0.000000
0.777249 0.614954 0.000000
0.804562 0.600946 0.021790
0.828580 0.591547 0.147585
0.849668 0.586664 0.199619
0.867979 0.585962 0.241245
0.883848 0.589441 0.280491
0.901366 0.595972 0.310887
0.920195 0.604120 0.335637
0.936339 0.614954 0.363317
0.950011 0.628504 0.394232
0.960937 0.645594 0.430945
0.966155 0.671351 0.490181
0.000000 0.672328 0.290288
0.000000 0.674403 0.291844
0.000000 0.676539 0.293858
0.000000 0.678431 0.295567
0.000000 0.679774 0.297154
0.000000 0.680262 0.298405
0.000000 0.680201 0.299413
0.000000 0.679835 0.301366
0.000000 0.679500 0.304814
0.000000 0.679042 0.310460
0.000000 0.675166 0.286687
0.000000 0.668788 0.279515
0.000000 0.661189 0.270878
0.218265 0.652461 0.261418
0.308141 0.642939 0.250980
0.392157 0.649195 0.225925
0.473732 0.654963 0.193973
0.555627 0.660029 0.149142
0.636469 0.664363 0.030701
0.717006 0.667811 0.000000
0.781521 0.665187 0.000000
0.810025 0.648035 0.000000
0.834409 0.635584 0.143069
0.855833 0.628016 0.204593
0.874113 0.625086 0.252781
0.889586 0.626398 0.296330
0.902556 0.632074 0.338079
0.914366 0.641718 0.378729
0.929931 0.652247 0.408576
0.943023 0.665126 0.441077
0.953979 0.679957 0.475471
0.962554 0.697261 0.514641
0.000000 0.713710 0.328832
0.000000 0.714443 0.329839
0.000000 0.714931 0.330816
0.000000 0.715053 0.331548
0.000000 0.714870 0.332525
0.000000 0.714321 0.333532
0.000000 0.713527 0.335393
0.000000 0.712642 0.338354
0.000000 0.711727 0.342687
0.000000 0.710811 0.349432
0.000000 0.709010 0.340642
0.000000 0.704494 0.326757
0.144808 0.698421 0.318456
0.255863 0.691402 0.309026
0.327794 0.683345 0.298039
0.391455 0.679072 0.283452
0.462074 0.683864 0.259525
0.533776 0.688045 0.230167
0.606928 0.691493 0.191897
0.680751 0.694179 0.135470
0.754513 0.696284 0.000000
0.809781 0.690333 0.000000
0.833829 0.673304 0.119051
0.854337 0.660700 0.192874
0.872740 0.653681 0.245487
0.888579 0.651575 0.291814
0.901976 0.654139 0.336034
0.913085 0.661219 0.380407
0.921996 0.672450 0.426123
0.934264 0.684504 0.461402
0.945892 0.697627 0.494636
0.955962 0.711910 0.528038
0.000000 0.738399 0.358404
0.000000 0.738918 0.359289
0.000000 0.739254 0.360357
0.000000 0.739315 0.361639
0.000000 0.739101 0.362982
0.000000 0.738460 0.364660
0.000000 0.737575 0.367285
0.000000 0.736538 0.370672
0.000000 0.735439 0.376013
0.000000 0.734127 0.383215
0.111269 0.732692 0.391150
0.123049 0.730098 0.369879
0.229801 0.725277 0.361822
0.298405 0.719722 0.352789
0.354742 0.713405 0.342809
0.404547 0.706325 0.331884
0.459297 0.706386 0.315648
0.520897 0.710536 0.293492
0.585351 0.714107 0.266880
0.651911 0.716823 0.233829
0.719295 0.718837 0.190280
0.787350 0.720943 0.120485
0.834531 0.712978 0.097047
0.855467 0.697383 0.189822
0.869657 0.681544 0.232975
0.885863 0.675471 0.282170
0.900023 0.674708 0.328344
0.911803 0.678614 0.374121
0.921294 0.686885 0.421241
0.928832 0.698909 0.468910
0.937896 0.712245 0.509331
0.948760 0.725368 0.542321
0.000000 0.764431 0.400305
0.000000 0.765133 0.402106
0.000000 0.765255 0.402960
0.000000 0.764858 0.403845
0.000000 0.763973 0.404669
0.000000 0.762631 0.405737
0.000000 0.761044 0.407446
0.000000 0.759152 0.409918
0.000000 0.757107 0.414282
0.000000 0.754971 0.420294
0.235935 0.752621 0.428016
0.272435 0.750454 0.417823
0.300603 0.746670 0.404242
0.343084 0.741726 0.394446
0.383307 0.736019 0.383581
0.422004 0.729702 0.371710
0.460090 0.722774 0.359258
0.510246 0.725673 0.341131
0.565698 0.729061 0.319738
0.624659 0.732082 0.295567
0.685542 0.734493 0.266270
0.747707 0.736080 0.228580
0.811032 0.738125 0.175143
0.851530 0.728725 0.164401
0.869596 0.713802 0.229404
0.884703 0.703090 0.279271
0.898528 0.698024 0.325109
0.910613 0.698238 0.370886
0.920562 0.702968 0.417517
0.928588 0.711849 0.465126
0.935271 0.723781 0.511681
0.941741 0.737545 0.554955
0.000000 0.779751 0.429847
0.000000 0.780270 0.431373
0.000000 0.780453 0.432837
0.000000 0.780209 0.434272
0.000000 0.779629 0.435920
0.000000 0.778744 0.438117
0.000000 0.777646 0.441260
0.000000 0.776303 0.445716
0.000000 0.774777 0.451423
0.234073 0.773068 0.458900
0.324712 0.771023 0.467536
0.384955 0.769009 0.473335
0.383673 0.767117 0.455329
0.410803 0.763272 0.446784
0.437659 0.758907 0.436561
0.465278 0.753964 0.425513
0.494270 0.748470 0.413794
0.526329 0.744747 0.400580
0.570184 0.747799 0.383490
0.618555 0.750576 0.364294
0.670222 0.752956 0.341924
0.724117 0.754696 0.315343
0.779232 0.755673 0.282506
0.836851 0.757656 0.240543
0.871122 0.747860 0.235538
0.886625 0.735103 0.289769
0.899474 0.726467 0.335607
0.910979 0.723262 0.381689
0.921172 0.725429 0.429206
0.929503 0.731563 0.476112
0.936522 0.740749 0.521630
0.942626 0.752377 0.565515
0.000000 0.796048 0.469642
0.000000 0.796231 0.470527
0.000000 0.796170 0.471534
0.000000 0.795834 0.472786
0.000000 0.795193 0.474311
0.000000 0.794247 0.476478
0.000000 0.793088 0.479591
0.171298 0.791653 0.483803
0.262272 0.790066 0.489204
0.331090 0.788266 0.496010
0.390845 0.786252 0.503807
0.443977 0.784176 0.512474
0.454139 0.782773 0.502739
0.466255 0.780209 0.492226
0.486305 0.776699 0.483803
0.506981 0.772732 0.474220
0.529076 0.768429 0.463966
0.552667 0.763790 0.453010
0.582788 0.763088 0.440497
0.621149 0.765743 0.424964
0.663447 0.768124 0.407507
0.708919 0.770016 0.386877
0.756313 0.771206 0.361791
0.805447 0.771725 0.330968
0.857511 0.773495 0.293675
0.886687 0.763760 0.290837
0.899931 0.752682 0.339330
0.910674 0.745449 0.383551
0.920317 0.743404 0.428443
0.929259 0.746944 0.476112
0.936858 0.753719 0.521691
0.943633 0.763485 0.566491
0.000000 0.808988 0.506493
0.000000 0.809079 0.507286
0.000000 0.809018 0.508385
0.115145 0.808743 0.509941
0.174166 0.808316 0.512139
0.228397 0.807736 0.515557
0.282048 0.807126 0.520531
0.334020 0.806394 0.527001
0.383581 0.805631 0.534783
0.430945 0.804746 0.543572
0.476478 0.803738 0.553246
0.518669 0.802579 0.563348
0.548180 0.801572 0.568261
0.550469 0.800870 0.557183
0.566064 0.798764 0.552453
0.581323 0.796109 0.546044
0.597070 0.793088 0.538567
0.613977 0.789792 0.530327
0.632563 0.786404 0.522148
0.658900 0.787778 0.511925
0.689723 0.789944 0.499886
0.723659 0.791745 0.485786
0.759945 0.793057 0.468208
0.798550 0.793820 0.446479
0.838987 0.794003 0.419257
0.883238 0.795682 0.387823
0.906767 0.787259 0.386847
0.916716 0.778958 0.430549
0.924834 0.774014 0.470100
0.932341 0.773312 0.509728
0.940276 0.778042 0.552941
0.947417 0.785428 0.594690
0.362005 0.825254 0.565423
0.363073 0.825223 0.565606
0.366918 0.825040 0.565881
0.375006 0.824643 0.566644
0.387335 0.824094 0.567926
0.404150 0.823331 0.569879
0.425238 0.822446 0.572717
0.449958 0.821347 0.576501
0.477028 0.820188 0.581140
0.506371 0.818845 0.586694
0.536309 0.817411 0.592950
0.566369 0.815915 0.599908
0.595972 0.814298 0.607385
0.599542 0.813565 0.599268
