20 Preset/Natural Wedding/【3】LUT video cho PR-AE-FCPX/Lut Tone (2).cube
# Created by Adobe Lightroom plugin Export LUT (1.24.0)
# www.johnrellis.com/lightroom/exportlut.htm
# Preset: 清新婚礼-素材江湖02
# Color profile: C:\Program Files (x86)\Common Files\Adobe\Color\Profiles\Recommended\VideoHD.icc
LUT_3D_SIZE 8
DOMAIN_MIN 0.000000 0.000000 0.000000
DOMAIN_MAX 0.903226 0.903226 0.903226
0.092714 0.056123 0.002716
0.089906 0.053651 0.002075
0.125185 0.045808 0.000793
0.257969 0.000000 0.000000
0.475074 0.000000 0.001465
0.673152 0.000000 0.115084
0.805844 0.185306 0.236759
0.869108 0.381628 0.392432
0.090181 0.052461 0.002228
0.090639 0.053437 0.002045
0.134798 0.055634 0.000000
0.268467 0.000000 0.000000
0.478309 0.000000 0.000000
0.669886 0.000000 0.096132
0.803555 0.198581 0.224491
0.867124 0.375036 0.377447
0.106874 0.085878 0.002838
0.108949 0.084718 0.001831
0.134859 0.095003 0.000000
0.362402 0.150149 0.000000
0.558770 0.154726 0.000000
0.718807 0.205814 0.000000
0.831724 0.315618 0.236240
0.873350 0.433600 0.394293
0.153567 0.151431 0.021759
0.155032 0.147738 0.016388
0.178805 0.161715 0.000000
0.292729 0.226810 0.000000
0.586542 0.370764 0.000000
0.788724 0.425452 0.000000
0.850462 0.445258 0.226139
0.875883 0.500298 0.394110
0.216373 0.257633 0.121798
0.217777 0.254032 0.116487
0.231724 0.253117 0.103578
0.308629 0.317144 0.100069
0.471931 0.415717 0.025818
0.714107 0.527062 0.000000
0.844816 0.559869 0.173037
0.874235 0.575036 0.382147
0.278843 0.361852 0.207523
0.283024 0.363500 0.207553
0.288426 0.353124 0.191379
0.338872 0.393317 0.201022
0.448981 0.470130 0.221958
0.622278 0.566522 0.249516
0.780453 0.632410 0.299809
0.852506 0.653193 0.410254
0.352239 0.469490 0.301183
0.354070 0.468788 0.299413
0.357122 0.460334 0.286381
0.381262 0.466926 0.279240
0.468086 0.531945 0.311833
0.590082 0.604547 0.346746
0.720027 0.666926 0.395911
0.805142 0.698207 0.469947
0.471473 0.603937 0.430152
0.471962 0.602899 0.428016
0.475654 0.599390 0.420722
0.484688 0.593347 0.406653
0.533898 0.620142 0.418555
0.621332 0.668147 0.463874
0.703090 0.704341 0.503197
0.772488 0.732692 0.552941
0.090639 0.053437 0.002045
0.092287 0.051759 0.003326
0.129488 0.048157 0.002380
0.263279 0.000000 0.000000
0.476478 0.000000 0.000000
0.666438 0.000000 0.088441
0.799893 0.195163 0.217411
0.864591 0.361944 0.365667
0.091707 0.057557 0.002564
0.097261 0.061341 0.003998
0.144350 0.062593 0.001282
0.283268 0.012421 0.000000
0.489967 0.000000 0.000000
0.673457 0.000000 0.061280
0.801022 0.213870 0.210300
0.863310 0.361852 0.356054
0.123873 0.101472 0.012879
0.124971 0.099580 0.010224
0.155581 0.109560 0.000000
0.376257 0.159915 0.000000
0.553704 0.176303 0.000000
0.712734 0.222232 0.000000
0.820951 0.306981 0.205936
0.869413 0.414008 0.365850
0.168826 0.169955 0.065949
0.170199 0.166506 0.056336
0.191257 0.174624 0.031678
0.301732 0.237613 0.000000
0.571527 0.360937 0.000000
0.767483 0.411597 0.000000
0.838651 0.427893 0.177432
0.872923 0.481575 0.362890
0.229496 0.275059 0.148745
0.230564 0.270756 0.142702
0.238682 0.259373 0.123934
0.310735 0.319097 0.126345
0.465553 0.411170 0.110018
0.704189 0.520256 0.045441
0.837797 0.552361 0.137819
0.873167 0.566888 0.361364
0.285496 0.368963 0.222843
0.286931 0.366888 0.219730
0.292638 0.357244 0.204288
0.337926 0.390356 0.210391
0.446357 0.467597 0.234745
0.619532 0.565606 0.267826
0.777188 0.631434 0.316075
0.851347 0.649287 0.398383
0.352728 0.469062 0.306432
0.352483 0.465949 0.302220
0.355200 0.457313 0.288975
0.375128 0.458686 0.278294
0.463142 0.526818 0.314122
0.584985 0.600092 0.349798
0.715267 0.662928 0.396918
0.803281 0.693385 0.455329
0.465339 0.598474 0.426825
0.467597 0.598932 0.426673
0.470741 0.594995 0.418799
0.479866 0.588861 0.404791
0.541009 0.626062 0.431067
0.623529 0.670008 0.471778
0.702480 0.704219 0.507378
0.772000 0.732082 0.550988
0.110109 0.088075 0.064210
0.114076 0.083894 0.080446
0.159274 0.058015 0.090211
0.280156 0.013489 0.101930
0.490455 0.011017 0.151858
0.677729 0.167208 0.195895
0.814298 0.284031 0.248081
0.869566 0.403265 0.376043
0.120302 0.098451 0.075349
0.129213 0.101472 0.093446
0.174929 0.085725 0.106264
0.301518 0.070619 0.117830
0.499275 0.121004 0.165682
0.681239 0.196292 0.198276
0.812833 0.293553 0.243900
0.868742 0.403571 0.367712
0.146242 0.138247 0.104372
0.160494 0.146273 0.115267
0.230838 0.182925 0.163088
0.383001 0.209232 0.178653
0.557519 0.244633 0.192203
0.717403 0.298924 0.216587
0.823392 0.361761 0.258518
0.871519 0.440253 0.368933
0.221683 0.243839 0.182559
0.234775 0.255772 0.194278
0.267155 0.265080 0.201877
0.370916 0.325444 0.206882
0.624384 0.427985 0.228763
0.760555 0.449836 0.250278
0.833829 0.467445 0.287633
0.874083 0.502617 0.369696
0.297581 0.363622 0.273930
0.298405 0.359808 0.268681
0.303532 0.345953 0.247593
0.355474 0.375341 0.246677
0.510765 0.468147 0.275212
0.721340 0.556542 0.301671
0.832822 0.579614 0.325963
0.872648 0.577722 0.366949
0.336400 0.429053 0.312322
0.337591 0.427253 0.309361
0.341100 0.417212 0.294072
0.364050 0.417700 0.279271
0.470069 0.495094 0.314611
0.635035 0.589227 0.361364
0.774746 0.646052 0.410986
0.846403 0.658106 0.436103
0.391424 0.508904 0.368109
0.390875 0.506035 0.364141
0.391638 0.496498 0.350317
0.396796 0.480598 0.325566
0.476173 0.539483 0.358007
0.596796 0.613916 0.403113
0.719417 0.674434 0.458717
0.800595 0.702998 0.506432
0.485969 0.615259 0.459815
0.485389 0.613550 0.456947
0.487495 0.609461 0.448798
0.496986 0.605035 0.436927
0.541894 0.626215 0.447730
0.627192 0.673213 0.494636
0.705196 0.708248 0.534874
0.771725 0.735225 0.571466
0.134371 0.148684 0.231876
0.148409 0.154665 0.250584
0.190311 0.141207 0.273381
0.322393 0.098360 0.295171
0.448035 0.117464 0.281468
0.636378 0.217411 0.336492
0.771450 0.360113 0.406867
0.841550 0.460334 0.461646
0.155032 0.172000 0.244633
0.167819 0.177768 0.259892
0.209720 0.169955 0.289891
0.338567 0.134524 0.311406
0.460395 0.158328 0.295933
0.644282 0.252140 0.349462
0.769406 0.388464 0.421332
0.841337 0.467964 0.463996
0.190066 0.225162 0.261021
0.204898 0.233036 0.271031
0.267277 0.266178 0.320348
0.378088 0.249088 0.352056
0.513329 0.291508 0.357275
0.674922 0.373175 0.406439
0.783474 0.457771 0.456336
0.842802 0.511345 0.486091
0.244633 0.318395 0.305333
0.258793 0.326238 0.313634
0.319524 0.362768 0.351354
0.442481 0.435065 0.425818
0.589105 0.466346 0.443061
0.711299 0.497932 0.459541
0.791501 0.528557 0.477699
0.842405 0.558068 0.498360
0.347692 0.421363 0.371130
0.356451 0.427588 0.377478
0.396277 0.456489 0.406226
0.447028 0.477302 0.425391
0.567193 0.546441 0.457191
0.729122 0.611780 0.501579
0.798184 0.622309 0.518334
0.839384 0.624903 0.525719
0.412299 0.513970 0.431159
0.424537 0.521294 0.440101
0.453742 0.531365 0.454963
0.453193 0.512352 0.427192
0.519738 0.549493 0.440528
0.660334 0.630396 0.494606
0.769039 0.674678 0.538994
0.828885 0.688777 0.559197
0.469245 0.577111 0.474098
0.469215 0.575830 0.471778
0.468727 0.569146 0.461250
0.469184 0.555016 0.438849
0.503441 0.564660 0.432502
0.617395 0.637201 0.486763
0.723445 0.691005 0.543786
0.794705 0.718105 0.580011
0.534600 0.647944 0.525048
0.534295 0.646967 0.523064
0.533745 0.643366 0.515129
0.535729 0.636622 0.500053
0.542229 0.625513 0.475349
0.631250 0.676661 0.529015
0.708736 0.713863 0.574273
0.771603 0.741512 0.608911
0.193637 0.261814 0.393774
0.208530 0.269078 0.405188
0.239170 0.263493 0.428229
0.337163 0.257725 0.456611
0.489540 0.229679 0.478431
0.598199 0.257450 0.453712
0.727352 0.353521 0.482826
0.809598 0.481941 0.535363
0.212070 0.281163 0.399634
0.225925 0.288273 0.410651
0.260319 0.290135 0.437629
0.347631 0.281285 0.464240
0.496925 0.255222 0.485054
0.602747 0.281865 0.460182
0.729763 0.373022 0.489570
0.808042 0.494759 0.540734
0.251041 0.327642 0.405524
0.262181 0.334051 0.414221
0.310613 0.358892 0.449531
0.379034 0.356359 0.483314
0.517205 0.338842 0.503746
0.612238 0.359045 0.478859
0.734646 0.441016 0.512963
0.800931 0.537865 0.558892
0.287877 0.391760 0.424506
0.299535 0.397131 0.430152
0.348821 0.421546 0.455146
0.446265 0.472206 0.511192
0.558740 0.472236 0.542809
0.649165 0.494423 0.533562
0.740444 0.554925 0.564141
0.793149 0.610651 0.596521
0.354101 0.471809 0.456733
0.364996 0.477455 0.462409
0.409918 0.500023 0.484779
0.495308 0.544366 0.527794
0.607660 0.606409 0.585870
0.690700 0.624872 0.595972
0.754208 0.642512 0.605707
0.801999 0.656886 0.613001
0.452338 0.535332 0.490211
0.458625 0.539452 0.494179
0.482673 0.553948 0.508690
0.530571 0.584314 0.537804
0.576776 0.602716 0.554009
0.674311 0.660761 0.594385
0.763424 0.701289 0.627649
0.807614 0.709499 0.635370
0.500084 0.606409 0.528435
0.503075 0.607538 0.529503
0.517876 0.614527 0.536034
0.564721 0.632197 0.560998
0.562646 0.616815 0.535760
0.630671 0.652064 0.559106
0.725765 0.705074 0.610224
0.790494 0.730892 0.633722
0.567834 0.668452 0.574029
0.571801 0.669123 0.575830
0.589105 0.672511 0.584039
0.589593 0.669062 0.574884
0.586297 0.659083 0.552422
0.625269 0.672145 0.556603
0.708309 0.716396 0.606958
0.770260 0.746212 0.640009
0.293919 0.395636 0.530785
0.305730 0.400977 0.537041
0.338140 0.406165 0.552514
0.386938 0.396429 0.568719
0.490028 0.388312 0.590051
0.622034 0.368994 0.601160
0.709346 0.390112 0.579400
0.777646 0.477668 0.586725
0.296056 0.396368 0.523156
0.305730 0.399847 0.527916
0.344030 0.411536 0.546838
0.385779 0.399512 0.562982
0.487373 0.393561 0.585931
0.619593 0.377050 0.598932
0.706477 0.398260 0.577905
0.775875 0.483070 0.586511
0.326848 0.429603 0.526787
0.335424 0.432868 0.530999
0.373754 0.448310 0.550500
0.416541 0.447120 0.572656
0.506279 0.444465 0.594232
0.631189 0.434272 0.608301
0.710414 0.453651 0.588525
0.774502 0.528191 0.599542
0.360143 0.471504 0.529961
0.367651 0.473915 0.532189
0.402960 0.487434 0.544945
0.478645 0.525628 0.585107
0.549645 0.534142 0.612787
0.654414 0.532341 0.626917
0.715694 0.544945 0.609674
0.772183 0.602991 0.625788
0.397833 0.521904 0.539361
0.405280 0.524895 0.542107
0.437903 0.538384 0.554528
0.500847 0.566308 0.579736
0.595056 0.611414 0.618921
0.669764 0.619074 0.638880
0.718257 0.627588 0.631006
0.772305 0.663416 0.648615
0.457801 0.581109 0.558618
0.466224 0.585290 0.562493
0.494026 0.596918 0.573419
0.548211 0.619196 0.594141
0.622065 0.651423 0.623499
0.698421 0.694362 0.660822
0.747524 0.707240 0.668330
0.786587 0.716915 0.673274
0.551659 0.632990 0.584802
0.557366 0.635340 0.587427
0.576165 0.642206 0.595331
0.603723 0.655146 0.608453
0.642023 0.674952 0.627649
0.671229 0.684871 0.636072
0.737209 0.725277 0.664912
0.792477 0.749722 0.683253
0.599786 0.681971 0.612329
0.600488 0.682063 0.612329
0.606806 0.684108 0.614160
0.621485 0.689815 0.619532
0.651148 0.699367 0.631891
0.652979 0.690486 0.616510
0.709133 0.719661 0.639857
0.772152 0.754269 0.673518
0.415991 0.510185 0.622095
0.424842 0.513787 0.625025
0.452613 0.521874 0.632471
0.471870 0.511894 0.641016
0.527214 0.509422 0.650050
0.608911 0.503105 0.661799
0.701778 0.490455 0.665614
0.763424 0.500725 0.648920
0.410651 0.506859 0.616602
0.420111 0.510918 0.619989
0.447761 0.519310 0.627924
0.467628 0.510124 0.637018
0.522148 0.507378 0.646143
0.603143 0.499947 0.657832
0.696559 0.485664 0.661524
0.758755 0.494209 0.644007
0.427619 0.525383 0.616297
0.433875 0.527306 0.618189
0.458442 0.534508 0.625330
0.495613 0.540764 0.637720
0.535729 0.533135 0.646845
0.610986 0.529625 0.658961
0.701198 0.523400 0.665126
0.759335 0.536492 0.650843
0.446723 0.549065 0.612177
0.450935 0.550072 0.613336
0.473121 0.557122 0.620203
0.523919 0.576440 0.636194
0.566827 0.581201 0.650690
0.630274 0.584009 0.663111
0.708492 0.583429 0.670619
0.756527 0.592309 0.658198
0.463996 0.577813 0.611170
0.466651 0.577600 0.611170
0.484443 0.581353 0.614557
0.523247 0.592767 0.623835
0.594873 0.623529 0.647089
0.645838 0.632013 0.664057
0.712856 0.634760 0.673732
0.754574 0.643458 0.665797
0.496681 0.615930 0.615320
0.501305 0.617243 0.616480
0.519493 0.622461 0.620844
0.555505 0.633356 0.629694
0.607324 0.651240 0.643946
0.676661 0.684077 0.670100
0.728969 0.693935 0.685634
0.760464 0.697108 0.680415
0.550927 0.658564 0.626673
0.555535 0.660060 0.627985
0.570459 0.664088 0.631830
0.600122 0.673091 0.640162
0.642145 0.687678 0.653346
0.694270 0.710658 0.673426
0.750057 0.743130 0.700893
0.783291 0.751736 0.705928
0.628870 0.695705 0.644739
0.631189 0.696468 0.645533
0.641779 0.700282 0.649561
0.658778 0.705898 0.655634
0.679652 0.714076 0.663783
0.703334 0.725734 0.674067
0.723323 0.731319 0.677882
0.778042 0.765194 0.704311
0.582055 0.632654 0.682551
0.585748 0.634119 0.683345
0.594598 0.635431 0.684688
0.605859 0.633967 0.688289
0.620447 0.627863 0.691951
0.650965 0.623011 0.696284
0.697993 0.617548 0.702541
0.751064 0.606622 0.703456
0.576410 0.629358 0.680232
0.580377 0.631067 0.681117
0.590967 0.633509 0.683009
0.603906 0.633143 0.686641
0.617914 0.626581 0.690517
0.648768 0.622065 0.695064
0.695644 0.615900 0.701198
0.749233 0.604395 0.702083
0.576074 0.632410 0.677638
0.579095 0.633295 0.678218
0.588983 0.635431 0.680018
0.613916 0.644068 0.685725
0.622614 0.635035 0.689570
0.650813 0.630365 0.693904
0.696437 0.625818 0.700404
0.748989 0.616175 0.701900
0.575982 0.638697 0.673518
0.579278 0.639857 0.674281
0.589593 0.642542 0.676387
0.612909 0.650172 0.681727
0.634241 0.652461 0.688411
0.658686 0.648951 0.693690
0.700801 0.646937 0.700649
0.750668 0.640375 0.703120
0.577844 0.649744 0.669886
0.580438 0.650477 0.670375
0.586175 0.650294 0.670924
0.606104 0.655726 0.675196
0.639979 0.667384 0.683925
0.665827 0.669062 0.692592
0.704524 0.669947 0.700435
0.753170 0.668147 0.704891
0.594232 0.671626 0.671138
0.594568 0.671199 0.670985
0.598535 0.670588 0.671077
0.610773 0.671839 0.672908
0.633143 0.676112 0.677211
0.679866 0.695033 0.691463
0.716274 0.702602 0.703761
0.760861 0.705592 0.710475
0.628138 0.702419 0.678676
0.629023 0.702449 0.678737
0.633112 0.702724 0.679225
0.643091 0.704219 0.680842
0.659815 0.707332 0.684047
0.685878 0.713802 0.690028
0.729335 0.731411 0.704677
0.768643 0.738888 0.715785
0.652094 0.724269 0.682460
0.652735 0.724269 0.682490
0.656947 0.725032 0.683223
0.667231 0.727443 0.685481
0.683223 0.731319 0.689113
0.706905 0.738064 0.695277
0.741726 0.751369 0.706905
0.786923 0.777127 0.728695
