20 Preset/White Style/【3】LUT video cho PR-AE-FCPX/Tone1 (2).cube
# Created by Adobe Lightroom plugin Export LUT (1.24.0)
# www.johnrellis.com/lightroom/exportlut.htm
# Preset: 米白色调-素材江湖01-深圳市江湖客形象设计有限公司版权所有
# Color profile: C:\Program Files (x86)\Common Files\Adobe\Color\Profiles\Recommended\VideoHD.icc
LUT_3D_SIZE 32
DOMAIN_MIN 0.0 0.0 0.0
DOMAIN_MAX 1.0 1.0 1.0
0.024964 0.035554 0.024018
0.025940 0.036530 0.024994
0.034150 0.037812 0.025788
0.051850 0.041352 0.027222
0.081025 0.046723 0.030396
0.099367 0.052918 0.035492
0.116182 0.059754 0.040223
0.136995 0.064179 0.043519
0.160739 0.063203 0.047974
0.187686 0.058564 0.050752
0.217838 0.049500 0.055055
0.250889 0.035401 0.057252
0.286687 0.014038 0.059510
0.325261 0.000000 0.062928
0.366552 0.000000 0.066712
0.409613 0.000000 0.071870
0.454353 0.000000 0.078126
0.499336 0.000000 0.084169
0.543816 0.000000 0.089601
0.587671 0.000000 0.094514
0.634394 0.000000 0.100191
0.678462 0.000000 0.107515
0.717098 0.000000 0.114809
0.751919 0.000000 0.122438
0.782712 0.000000 0.130495
0.810300 0.000000 0.139895
0.835386 0.000000 0.149538
0.858579 0.008881 0.160342
0.880186 0.132601 0.172335
0.900542 0.184665 0.186404
0.919799 0.229496 0.202365
0.938018 0.271366 0.220645
0.025208 0.037720 0.024842
0.025208 0.037720 0.024842
0.032410 0.040223 0.026612
0.052125 0.043549 0.028046
0.081209 0.048890 0.031220
0.098787 0.055329 0.036316
0.115206 0.062379 0.041077
0.135958 0.065827 0.044526
0.159640 0.065064 0.047852
0.186191 0.060883 0.051759
0.216220 0.052247 0.054963
0.248905 0.037873 0.057343
0.284276 0.017639 0.059663
0.322759 0.000000 0.063081
0.363470 0.000000 0.066957
0.406744 0.000000 0.072297
0.451423 0.000000 0.078431
0.496223 0.000000 0.083803
0.540948 0.000000 0.089876
0.584466 0.000000 0.094392
0.630549 0.000000 0.100343
0.673976 0.000000 0.106996
0.712123 0.000000 0.114046
0.746853 0.000000 0.121706
0.777859 0.000000 0.129763
0.805753 0.000000 0.138338
0.831266 0.000000 0.148043
0.854887 0.000000 0.158541
0.876890 0.122896 0.170535
0.897642 0.178317 0.183871
0.917235 0.223697 0.199557
0.935729 0.266026 0.218021
0.026703 0.045228 0.029450
0.028687 0.045014 0.029419
0.030945 0.046967 0.030243
0.049195 0.052705 0.031373
0.079347 0.058076 0.034546
0.098451 0.064271 0.039643
0.115206 0.070100 0.043397
0.135286 0.072816 0.047028
0.159426 0.071839 0.050324
0.185672 0.069062 0.054108
0.215152 0.061128 0.056184
0.247807 0.046937 0.059724
0.283085 0.027161 0.062043
0.321141 0.000061 0.065217
0.361913 0.000000 0.067994
0.405097 0.000000 0.074311
0.449500 0.000000 0.079744
0.494301 0.000000 0.086458
0.539055 0.000000 0.090669
0.582757 0.000000 0.095430
0.628717 0.000000 0.101198
0.671595 0.000000 0.107942
0.709590 0.000000 0.114931
0.744259 0.000000 0.122011
0.775326 0.000000 0.130190
0.803311 0.000000 0.138582
0.828946 0.000000 0.148287
0.852659 0.000000 0.158572
0.874907 0.126619 0.170596
0.895781 0.179965 0.183963
0.915557 0.224216 0.199466
0.934173 0.266056 0.217380
0.035187 0.060792 0.037324
0.037171 0.060578 0.037293
0.041108 0.062318 0.039246
0.048035 0.064790 0.042176
0.073640 0.076387 0.043458
0.097383 0.080049 0.046448
0.114656 0.082979 0.049195
0.135256 0.084565 0.052827
0.158938 0.084840 0.056001
0.185641 0.082948 0.057496
0.215244 0.078553 0.060548
0.247288 0.066468 0.062806
0.282567 0.047883 0.066133
0.320409 0.022431 0.070314
0.360815 0.000000 0.072938
0.403418 0.000000 0.079438
0.447639 0.000000 0.084108
0.491859 0.000000 0.089174
0.536126 0.000000 0.093507
0.579614 0.000000 0.098116
0.624964 0.000000 0.103761
0.666896 0.000000 0.109804
0.704738 0.000000 0.116457
0.739773 0.000000 0.123964
0.771542 0.000000 0.131563
0.800351 0.000000 0.140475
0.826749 0.000000 0.149813
0.851072 0.053223 0.160647
0.873564 0.140780 0.172274
0.894713 0.189059 0.185580
0.914397 0.230869 0.200961
0.932738 0.270878 0.218692
0.048127 0.082246 0.050752
0.050111 0.082094 0.050752
0.053071 0.082582 0.051698
0.061006 0.083375 0.053620
0.070161 0.086183 0.057374
0.092317 0.092103 0.059297
0.112093 0.094453 0.059480
0.134676 0.095064 0.060822
0.158389 0.095644 0.062684
0.185061 0.095033 0.065187
0.214389 0.093507 0.067933
0.246464 0.089815 0.069917
0.281346 0.080476 0.074250
0.319127 0.060243 0.076844
0.359533 0.030030 0.080751
0.402350 0.000000 0.085847
0.446723 0.000000 0.089204
0.491188 0.000000 0.093416
0.535485 0.000000 0.097566
0.579583 0.000000 0.102388
0.624262 0.000000 0.107912
0.665431 0.000000 0.114229
0.702815 0.000000 0.120760
0.738033 0.000000 0.127535
0.769894 0.000000 0.135164
0.798856 0.000000 0.143862
0.825315 0.000000 0.153201
0.849638 0.110170 0.163760
0.872099 0.161074 0.175387
0.893065 0.203220 0.188724
0.912657 0.242100 0.203891
0.930968 0.279881 0.221683
0.063325 0.094179 0.065003
0.064607 0.094545 0.064851
0.068269 0.094362 0.065949
0.075196 0.094484 0.066926
0.082063 0.096010 0.070649
0.089387 0.098116 0.076326
0.105745 0.105318 0.077974
0.130526 0.108461 0.074678
0.158785 0.108949 0.073884
0.185733 0.108980 0.076051
0.215213 0.108278 0.078370
0.247745 0.106416 0.080629
0.282628 0.102541 0.083711
0.320378 0.096803 0.086397
0.360937 0.086580 0.089265
0.403784 0.057313 0.092348
0.448035 0.016052 0.095644
0.492836 0.000000 0.099947
0.537163 0.000000 0.103853
0.582208 0.000000 0.108431
0.626307 0.000000 0.114199
0.666987 0.000000 0.120333
0.730495 0.000000 0.133028
0.763516 0.000000 0.141054
0.792813 0.000000 0.149538
0.819089 0.104311 0.158602
0.842954 0.147738 0.168856
0.864836 0.184573 0.180056
0.885161 0.219120 0.192508
0.904204 0.252628 0.206577
0.921965 0.285710 0.222965
0.938659 0.318303 0.241398
0.079286 0.107790 0.081697
0.079286 0.107790 0.081697
0.082216 0.107973 0.083009
0.086824 0.108064 0.082887
0.091371 0.108675 0.084718
0.097078 0.110628 0.088563
0.104494 0.113619 0.091218
0.125093 0.123445 0.092927
0.153964 0.127962 0.090944
0.187411 0.129305 0.090333
0.221958 0.128542 0.090517
0.255528 0.127993 0.091890
0.291386 0.126070 0.093690
0.329778 0.122560 0.095979
0.370855 0.116762 0.098360
0.413611 0.108888 0.101717
0.457954 0.097078 0.104952
0.502220 0.078370 0.108949
0.546380 0.037293 0.113161
0.594293 0.000000 0.118715
0.639643 0.000000 0.124758
0.681666 0.000000 0.131228
0.720302 0.002319 0.138827
0.755642 0.071931 0.146456
0.786801 0.115846 0.155398
0.814054 0.149538 0.164401
0.838376 0.179934 0.174258
0.860410 0.209934 0.185367
0.880827 0.239811 0.197910
0.899870 0.269413 0.211612
0.917754 0.299809 0.227543
0.934539 0.330053 0.245701
0.089174 0.122927 0.093904
0.089662 0.123171 0.093874
0.091035 0.123049 0.094240
0.093996 0.122835 0.094240
0.098573 0.122469 0.095003
0.104433 0.124086 0.096895
0.111696 0.127077 0.099947
0.121157 0.130922 0.104402
0.144991 0.142672 0.106905
0.177279 0.149294 0.104707
0.214603 0.151888 0.103761
0.254948 0.151492 0.103120
0.292485 0.150790 0.104311
0.330785 0.149294 0.106355
0.371862 0.146181 0.108858
0.414435 0.141909 0.111818
0.458350 0.136446 0.114900
0.502373 0.129183 0.119051
0.548852 0.122377 0.123415
0.594629 0.116487 0.128756
0.638178 0.114412 0.134432
0.679103 0.117342 0.140444
0.717006 0.128206 0.147372
0.751858 0.145602 0.154818
0.782773 0.167025 0.163302
0.809995 0.190402 0.172305
0.834379 0.214328 0.182193
0.856443 0.238865 0.192966
0.876951 0.264683 0.205234
0.895995 0.291661 0.219120
0.913970 0.318914 0.234745
0.930724 0.347326 0.252842
0.098756 0.140871 0.105653
0.099336 0.140810 0.105989
0.100832 0.140475 0.106020
0.103914 0.140261 0.106355
0.108217 0.139681 0.106722
0.113130 0.139284 0.107393
0.121187 0.142123 0.110567
0.130282 0.146242 0.114595
0.141482 0.151095 0.119600
0.167758 0.165072 0.123720
0.203799 0.173434 0.121523
0.243870 0.178103 0.119997
0.288090 0.178988 0.119173
0.333654 0.177218 0.119631
0.374792 0.176455 0.121889
0.417395 0.174899 0.124575
0.460731 0.172305 0.127504
0.506401 0.169497 0.131411
0.552331 0.167300 0.136019
0.596521 0.166384 0.140627
0.638666 0.167666 0.146090
0.678248 0.172274 0.152041
0.715267 0.181674 0.158358
0.749477 0.194888 0.165652
0.779843 0.211582 0.174044
0.806821 0.229831 0.182864
0.830930 0.250095 0.192569
0.852903 0.271519 0.203464
0.873320 0.293889 0.215854
0.892302 0.317601 0.229465
0.910216 0.342321 0.245090
0.926970 0.368109 0.263127
0.110658 0.161288 0.119692
0.110842 0.161105 0.119722
0.112734 0.160800 0.119753
0.114992 0.160433 0.120058
0.118959 0.159762 0.120424
0.124269 0.158389 0.120577
0.131228 0.159304 0.122225
0.140688 0.163058 0.126192
0.151980 0.167849 0.131228
0.164767 0.173678 0.137148
0.193668 0.189090 0.142550
0.231998 0.199680 0.140108
0.275395 0.206180 0.138766
0.322576 0.209049 0.137697
0.374182 0.208347 0.137697
0.420661 0.207706 0.139528
0.465888 0.208286 0.142763
0.511894 0.208652 0.146334
0.556603 0.208957 0.150576
0.599573 0.210636 0.155001
0.640314 0.213535 0.159945
0.677913 0.218723 0.165469
0.713222 0.226566 0.171328
0.745815 0.237644 0.177920
0.775143 0.250919 0.185824
0.801602 0.266239 0.194003
0.825620 0.283604 0.203708
0.847745 0.301884 0.214328
0.868315 0.322148 0.226688
0.887510 0.343664 0.240848
0.905516 0.366674 0.256962
0.922484 0.390661 0.275273
0.123781 0.183169 0.134920
0.124147 0.182834 0.134981
0.125582 0.182742 0.134981
0.128695 0.182223 0.135042
0.132479 0.181308 0.135164
0.137636 0.179965 0.135317
0.143099 0.178378 0.135531
0.152071 0.181399 0.138766
0.163516 0.186191 0.143709
0.176425 0.191989 0.149630
0.191135 0.198886 0.156680
0.222019 0.216434 0.163821
0.263676 0.229282 0.161563
0.310369 0.237491 0.159701
0.361486 0.242435 0.158938
0.416754 0.245365 0.159457
0.472145 0.245487 0.160098
0.516655 0.247532 0.163699
0.559899 0.249851 0.167147
0.601465 0.252598 0.170962
0.640650 0.256291 0.175631
0.677241 0.261509 0.180667
0.711757 0.269566 0.186313
0.743404 0.279271 0.193027
0.772183 0.291417 0.200259
0.798184 0.304845 0.208896
0.821897 0.319921 0.218479
0.843809 0.336339 0.229404
0.864195 0.354253 0.241642
0.883299 0.373663 0.255985
0.901213 0.394415 0.272221
0.918151 0.416052 0.290501
0.139651 0.207675 0.152193
0.139651 0.207675 0.152193
0.141543 0.207279 0.152255
0.143801 0.206607 0.151949
0.147585 0.205692 0.152071
0.152560 0.204135 0.151888
0.157717 0.202365 0.151919
0.164706 0.201236 0.152621
0.176333 0.206058 0.157412
0.189364 0.212131 0.163333
0.204440 0.219089 0.170443
0.221103 0.227237 0.178439
0.262547 0.253971 0.192691
0.312047 0.272221 0.191867
0.366674 0.285039 0.191318
0.423529 0.294041 0.191135
0.480385 0.299474 0.191257
0.536584 0.302464 0.192142
0.585138 0.304875 0.194217
0.624872 0.308995 0.197910
0.661646 0.313939 0.202762
0.695705 0.320378 0.207462
0.726986 0.327733 0.212955
0.755550 0.336797 0.219852
0.781552 0.347173 0.227481
0.805234 0.358373 0.236149
0.826871 0.370581 0.245518
0.847013 0.384161 0.256229
0.865873 0.399054 0.268620
0.883696 0.415229 0.282536
0.900603 0.432563 0.298436
0.916747 0.451423 0.316991
0.159487 0.238224 0.173220
0.159579 0.238102 0.173251
0.160708 0.237705 0.172946
0.163210 0.236545 0.172824
0.166720 0.234989 0.172396
0.171237 0.232914 0.171878
0.176272 0.230625 0.171389
0.181979 0.227451 0.170535
0.191440 0.229221 0.173251
0.205051 0.235294 0.179232
0.220493 0.242710 0.186435
0.239841 0.253147 0.196109
0.261357 0.265049 0.207340
0.300786 0.289616 0.220249
0.352880 0.309972 0.219242
0.407935 0.324224 0.218082
0.463539 0.334264 0.217502
0.518486 0.340795 0.217227
0.571221 0.345251 0.217716
0.620783 0.348211 0.218692
0.657527 0.352636 0.222293
0.690791 0.358556 0.226658
0.721279 0.365454 0.232273
0.749477 0.373510 0.238529
0.775326 0.382605 0.245914
0.798825 0.392920 0.254643
0.820554 0.403937 0.264195
0.840787 0.416052 0.275090
0.859800 0.429450 0.287388
0.877745 0.444282 0.301732
0.894774 0.460029 0.317662
0.910979 0.476875 0.336370
0.178470 0.266423 0.192538
0.178408 0.266056 0.192325
0.179446 0.265599 0.192264
0.181674 0.264347 0.191897
0.184634 0.262455 0.191043
0.188632 0.260380 0.190524
0.193668 0.257420 0.189517
0.199100 0.254276 0.188571
0.205325 0.251072 0.188022
0.219181 0.257755 0.194095
0.235752 0.266117 0.201968
0.254673 0.276097 0.211124
0.276249 0.287755 0.222171
0.299809 0.300877 0.234195
0.340032 0.326238 0.249119
0.392798 0.347692 0.247623
0.446204 0.362676 0.246006
0.499886 0.373388 0.245121
0.551995 0.381201 0.244846
0.601312 0.387121 0.245396
0.647150 0.391669 0.246281
0.686946 0.396735 0.249119
0.716793 0.403357 0.254673
0.744503 0.410834 0.260716
0.769802 0.419043 0.268284
0.793179 0.428168 0.276860
0.814725 0.438117 0.286168
0.834867 0.448859 0.297032
0.853788 0.460792 0.309636
0.871794 0.473793 0.323919
0.888853 0.487892 0.340215
0.905089 0.503288 0.358923
0.199680 0.298772 0.214420
0.200076 0.298253 0.214115
0.200809 0.297826 0.214084
0.202609 0.296513 0.213443
0.205631 0.294499 0.212680
0.209812 0.291875 0.211856
0.214542 0.289006 0.210819
0.219944 0.285588 0.209873
0.225437 0.281529 0.208377
0.234531 0.281254 0.209934
0.250675 0.289494 0.217441
0.269505 0.299290 0.226352
0.290806 0.310430 0.236790
0.314031 0.323095 0.248631
0.338781 0.337011 0.261814
0.378851 0.362371 0.278477
0.430762 0.384588 0.276951
0.482521 0.400122 0.275303
0.533349 0.411810 0.274327
0.582513 0.420600 0.274174
0.628290 0.427893 0.274968
0.671260 0.434638 0.276982
0.709957 0.440620 0.280308
0.739590 0.447272 0.286168
0.764431 0.454536 0.293065
0.787472 0.462715 0.301610
0.808896 0.471565 0.311223
0.829007 0.481361 0.322210
0.848112 0.492103 0.334905
0.866178 0.504051 0.349859
0.883421 0.517235 0.366888
0.899779 0.531487 0.386053
0.223667 0.332372 0.237461
0.223667 0.332250 0.237278
0.224796 0.331762 0.237247
0.226383 0.330571 0.236820
0.229404 0.328466 0.235874
0.232944 0.325811 0.234836
0.237461 0.322820 0.233585
0.242527 0.319127 0.232242
0.248020 0.314702 0.230777
0.253269 0.309483 0.228733
0.266819 0.314092 0.233646
0.285161 0.323186 0.242100
0.305455 0.333532 0.251896
0.327733 0.345281 0.263096
0.351232 0.357702 0.275395
0.376043 0.371435 0.289067
0.415015 0.396979 0.307897
0.465583 0.419318 0.306493
0.514946 0.435340 0.304997
0.563531 0.447822 0.304387
0.609644 0.458198 0.304967
0.652888 0.467628 0.307134
0.692409 0.475715 0.310552
0.727993 0.482887 0.315404
0.759731 0.489387 0.321386
0.782376 0.496803 0.330053
0.803616 0.504753 0.339971
0.823636 0.513329 0.350958
0.842557 0.522911 0.363714
0.860441 0.533532 0.378180
0.877470 0.545098 0.394873
0.893584 0.557855 0.413672
0.248692 0.365667 0.260807
0.248844 0.365423 0.260563
0.249699 0.364843 0.260380
0.251225 0.363256 0.259617
0.253483 0.361608 0.258885
0.256596 0.358862 0.257664
0.260838 0.355688 0.256291
0.265568 0.351629 0.254673
0.270420 0.346777 0.252689
0.275303 0.341131 0.250217
0.281163 0.336553 0.248600
0.299321 0.345373 0.256901
0.319219 0.355352 0.266484
0.340673 0.366461 0.277409
0.363561 0.378546 0.289250
0.387671 0.391516 0.302525
0.412726 0.405493 0.317174
0.450568 0.431098 0.338354
0.499336 0.453803 0.337682
0.546410 0.470253 0.336553
0.591882 0.483955 0.337011
0.635492 0.495827 0.338781
0.675196 0.505882 0.342321
0.711452 0.514427 0.347112
0.744106 0.522057 0.353429
0.773922 0.529046 0.361303
0.798276 0.536095 0.370733
0.818112 0.543969 0.381842
0.836820 0.552667 0.394507
0.854551 0.562341 0.409094
0.871427 0.572900 0.425452
0.887541 0.584497 0.444007
0.276188 0.399542 0.285710
0.276097 0.399390 0.285557
0.286442 0.409644 0.293797
0.287663 0.408301 0.292912
0.289616 0.406226 0.291844
0.292393 0.403113 0.290410
0.295750 0.399573 0.288609
0.299504 0.394842 0.286168
0.303624 0.389563 0.283543
0.307713 0.383124 0.280156
0.311467 0.375982 0.276616
0.322393 0.376684 0.278965
0.341863 0.386175 0.288457
0.362890 0.396735 0.299077
0.385290 0.408179 0.311070
0.408545 0.420386 0.323949
0.432746 0.433448 0.338079
0.457191 0.447272 0.353399
0.492439 0.471809 0.376562
0.538354 0.494026 0.376196
0.581933 0.510582 0.375708
0.623987 0.524651 0.377203
0.662959 0.536126 0.380377
0.698482 0.545617 0.384741
0.730648 0.553582 0.390356
0.760098 0.560601 0.397375
0.787198 0.567285 0.405585
0.812345 0.573877 0.415686
0.831174 0.581353 0.427558
0.848539 0.589960 0.441505
0.865171 0.599573 0.457313
0.881071 0.610163 0.475349
0.307652 0.436042 0.314092
0.308659 0.437018 0.314885
0.310460 0.437446 0.315435
0.312383 0.436988 0.315435
0.314641 0.435798 0.314977
0.316930 0.433143 0.313420
0.320134 0.429633 0.311711
0.322911 0.424750 0.308843
0.326360 0.419226 0.305638
0.329870 0.412879 0.302159
0.333379 0.405951 0.298375
0.335760 0.397436 0.293553
0.352667 0.404669 0.301274
0.373144 0.414832 0.311711
0.394720 0.425879 0.323278
0.417395 0.437720 0.336034
0.440925 0.450355 0.349828
0.465187 0.463905 0.365118
0.490150 0.478462 0.381872
0.524071 0.503014 0.406744
0.567132 0.525170 0.408423
0.608453 0.542473 0.409949
0.647089 0.556390 0.412818
0.682460 0.567651 0.417182
0.714809 0.577050 0.422950
0.744503 0.585229 0.429755
0.771969 0.592676 0.437995
0.797299 0.599878 0.447944
0.821134 0.607172 0.459205
0.841886 0.615015 0.472572
0.858366 0.623926 0.488014
0.874113 0.633906 0.505486
0.335149 0.466957 0.339391
0.336614 0.467872 0.340154
0.338170 0.468147 0.340612
0.339788 0.468055 0.340734
0.342107 0.466987 0.340307
0.344121 0.464424 0.338750
0.346471 0.460822 0.336553
0.348974 0.456214 0.333745
0.351873 0.450935 0.330602
0.354528 0.444373 0.326543
0.357305 0.437201 0.322148
0.359411 0.428901 0.317235
0.365484 0.424659 0.315618
0.385290 0.434424 0.325902
0.406317 0.445136 0.337285
0.428443 0.456672 0.349767
0.451484 0.468910 0.363561
0.474983 0.481941 0.378515
0.499153 0.495979 0.394934
0.523278 0.510552 0.412360
0.555474 0.534447 0.438209
0.594690 0.555871 0.442634
0.632654 0.572686 0.445502
0.667781 0.586084 0.449836
0.700038 0.597223 0.455512
0.729793 0.606622 0.462318
0.757290 0.615045 0.470344
0.782895 0.623011 0.479957
0.806882 0.630915 0.491127
0.829282 0.639063 0.504265
0.850340 0.647517 0.519158
0.867399 0.656611 0.535607
0.364660 0.497963 0.366033
0.365667 0.498909 0.366888
0.367285 0.499397 0.367590
0.368872 0.499092 0.367498
0.370489 0.497871 0.366827
0.372259 0.495399 0.365209
0.374212 0.492134 0.363012
0.376226 0.487709 0.360174
0.378546 0.482368 0.356512
0.380529 0.476143 0.352361
0.382727 0.469032 0.347662
0.384222 0.460853 0.342199
0.385351 0.451667 0.336126
0.398169 0.454414 0.340612
0.418677 0.464881 0.352087
0.440528 0.476173 0.364721
0.463111 0.488350 0.378515
0.486641 0.501335 0.393805
0.510613 0.515373 0.410559
0.534630 0.530022 0.428626
0.558404 0.545403 0.447944
0.589136 0.568994 0.475319
0.623987 0.589136 0.482582
0.658289 0.605432 0.487739
0.690059 0.618830 0.494087
0.719387 0.629999 0.501396
0.746639 0.639857 0.509911
0.772152 0.648920 0.519768
0.796048 0.657679 0.531060
0.818540 0.666346 0.543908
0.839780 0.674922 0.558160
0.859800 0.683711 0.573785
0.402167 0.534997 0.400519
0.402472 0.535119 0.400580
0.403052 0.535027 0.400580
0.403937 0.534142 0.400061
0.404669 0.532403 0.398749
0.405585 0.529839 0.396765
0.406775 0.526421 0.394141
0.408026 0.521996 0.390723
0.409400 0.517021 0.387060
0.411078 0.511009 0.382666
0.412573 0.504204 0.377722
0.413947 0.496498 0.372045
0.414405 0.487404 0.365454
0.414740 0.477577 0.358618
0.434760 0.487648 0.369940
0.455848 0.498573 0.382605
0.477668 0.510124 0.396307
0.500450 0.522423 0.411292
0.523339 0.535546 0.427710
0.546105 0.549126 0.445228
0.568475 0.563256 0.463752
0.590143 0.577600 0.483345
0.616999 0.598962 0.510246
0.646845 0.616693 0.518791
0.677668 0.631983 0.524529
0.706569 0.644923 0.531609
0.733700 0.656214 0.539879
0.759243 0.666438 0.549371
0.783383 0.675990 0.560143
0.806119 0.685145 0.572381
0.827573 0.694209 0.585992
0.847959 0.703243 0.600824
0.433845 0.564782 0.430274
0.434333 0.564965 0.430518
0.434943 0.564721 0.430457
0.435370 0.563867 0.429755
0.435859 0.562158 0.428321
0.436500 0.559930 0.426429
0.437354 0.556878 0.423896
0.438148 0.552789 0.420417
0.439216 0.548180 0.416632
0.440223 0.542657 0.412085
0.440986 0.536065 0.406714
0.441749 0.528557 0.400702
0.441840 0.520104 0.394018
0.441199 0.510124 0.386145
0.449042 0.508263 0.386450
0.469703 0.518853 0.399054
0.491005 0.530144 0.412940
0.513115 0.542046 0.428046
0.535241 0.554559 0.444312
0.557153 0.567651 0.461646
0.578729 0.580987 0.480171
0.599329 0.594507 0.499641
0.618982 0.608026 0.519677
0.642847 0.627619 0.546227
0.666621 0.641352 0.552483
0.694606 0.655726 0.558404
0.721492 0.668727 0.566369
0.746944 0.680201 0.575494
0.771145 0.690822 0.585931
0.794125 0.700862 0.597650
0.815946 0.710597 0.610895
0.836637 0.720272 0.625483
0.469947 0.596307 0.465034
0.470588 0.596674 0.465461
0.470832 0.596460 0.465278
0.471015 0.595453 0.464271
0.470954 0.593744 0.462501
0.470802 0.591394 0.460273
0.470741 0.588128 0.457038
0.470497 0.584009 0.453010
0.470497 0.579217 0.448402
0.470527 0.573632 0.443183
0.470314 0.566979 0.437171
0.470069 0.559747 0.430701
0.469551 0.551507 0.423438
0.468025 0.541802 0.414923
0.466163 0.531029 0.405676
0.481178 0.536614 0.413611
0.501854 0.547112 0.427283
0.522698 0.558282 0.441901
0.543969 0.570245 0.457801
0.565118 0.582605 0.475105
0.585901 0.595392 0.493538
0.605798 0.608148 0.512688
0.624537 0.620783 0.532158
0.642115 0.633265 0.551537
0.663325 0.651118 0.576287
0.686122 0.665888 0.586542
0.711421 0.679469 0.592554
0.736446 0.692164 0.600793
0.760372 0.703731 0.610437
0.783291 0.714626 0.621607
0.805142 0.725063 0.634211
0.826169 0.735317 0.648219
0.499458 0.621057 0.494789
0.500008 0.621454 0.495247
0.500389 0.621241 0.495125
0.500603 0.620630 0.494514
0.500542 0.619287 0.493050
0.500603 0.617182 0.490669
0.500542 0.614649 0.487984
0.500755 0.611566 0.484749
0.500664 0.607599 0.480446
0.500847 0.603174 0.475898
0.500786 0.597711 0.470344
0.500298 0.591302 0.463874
0.499733 0.583978 0.456641
0.498207 0.575250 0.448005
0.496162 0.565240 0.438575
0.497230 0.557916 0.432471
0.516747 0.567864 0.445777
0.536767 0.578454 0.460517
0.556970 0.589502 0.476448
0.577050 0.601038 0.493507
0.596826 0.612940 0.511681
0.615717 0.624903 0.530510
0.633692 0.636957 0.549523
0.650660 0.648859 0.568383
0.666468 0.660639 0.587152
0.685634 0.677272 0.610498
0.705928 0.691249 0.621668
0.729122 0.704341 0.628046
0.752682 0.717250 0.637385
0.775296 0.729122 0.648096
0.797055 0.740414 0.660182
0.818082 0.751431 0.673701
0.531518 0.646754 0.528405
0.531884 0.646937 0.528649
0.531975 0.646723 0.528466
0.532036 0.646052 0.527642
0.531914 0.644770 0.526146
0.531518 0.643000 0.523888
0.531212 0.640620 0.521080
0.530877 0.637873 0.517815
0.530785 0.634455 0.513878
0.530327 0.630365 0.508995
0.529808 0.625452 0.503410
0.529076 0.619837 0.497139
0.528008 0.613306 0.489693
0.526635 0.605737 0.481392
0.524559 0.596948 0.472023
0.521691 0.586816 0.461311
0.530968 0.587457 0.464302
0.549981 0.597314 0.478859
0.569177 0.607660 0.494759
0.588464 0.618494 0.511711
0.607111 0.629633 0.529534
0.625238 0.640925 0.547814
0.642329 0.652186 0.565972
0.658564 0.663447 0.584253
0.673762 0.674556 0.602136
0.688075 0.685573 0.619745
0.705562 0.701167 0.641657
0.723659 0.714260 0.653315
0.744991 0.726741 0.659785
0.767422 0.739986 0.670253
0.789059 0.752407 0.682124
0.809903 0.763943 0.694820
0.560388 0.670283 0.560266
0.560571 0.670436 0.560479
0.560815 0.670314 0.560357
0.560815 0.669734 0.559655
0.560906 0.668849 0.558587
0.561120 0.667628 0.557153
0.561303 0.666102 0.555261
0.561913 0.664210 0.553094
0.562341 0.661860 0.550286
0.562890 0.659144 0.547143
0.563287 0.655787 0.543145
0.563287 0.651575 0.538048
0.563104 0.646723 0.532219
0.562188 0.640742 0.524956
0.560632 0.633631 0.516228
0.558007 0.625147 0.505943
0.554803 0.615381 0.494392
0.571893 0.623713 0.508049
0.590173 0.633448 0.524224
0.608087 0.643488 0.541009
0.625483 0.653895 0.558221
0.642298 0.664424 0.575830
0.658320 0.674983 0.593286
0.673487 0.685512 0.610529
0.687739 0.695949 0.627558
0.701411 0.706355 0.644373
0.714199 0.716640 0.660761
0.729824 0.731075 0.681025
0.745846 0.743313 0.692988
0.765103 0.755001 0.699489
0.785946 0.767971 0.710262
0.806394 0.780087 0.722225
0.594232 0.698604 0.599756
0.594263 0.698604 0.599756
0.594202 0.698360 0.599481
0.594110 0.697780 0.598688
0.593774 0.696773 0.597314
0.593683 0.695491 0.595758
0.593439 0.693751 0.593561
0.593225 0.691676 0.590814
0.593103 0.689296 0.587823
0.592737 0.686244 0.583825
0.592493 0.682887 0.579644
0.591974 0.678859 0.574456
0.591150 0.674128 0.568383
