20 Preset/White Style/【3】LUT video cho PR-AE-FCPX/Tone1 (2).cube
# Created by Adobe Lightroom plugin Export LUT (1.24.0)
# www.johnrellis.com/lightroom/exportlut.htm
# Preset: 米白色调-素材江湖01-深圳市江湖客形象设计有限公司版权所有
# Color profile: C:\Program Files (x86)\Common Files\Adobe\Color\Profiles\Recommended\VideoHD.icc
LUT_3D_SIZE 8
DOMAIN_MIN 0.000000 0.000000 0.000000
DOMAIN_MAX 0.903226 0.903226 0.903226
0.024964 0.035554 0.024018
0.081025 0.046723 0.030396
0.160739 0.063203 0.047974
0.286687 0.014038 0.059510
0.454353 0.000000 0.078126
0.634394 0.000000 0.100191
0.782712 0.000000 0.130495
0.880186 0.132601 0.172335
0.048127 0.082246 0.050752
0.070161 0.086183 0.057374
0.158389 0.095644 0.062684
0.281346 0.080476 0.074250
0.446723 0.000000 0.089204
0.624262 0.000000 0.107912
0.769894 0.000000 0.135164
0.872099 0.161074 0.175387
0.098756 0.140871 0.105653
0.108217 0.139681 0.106722
0.141482 0.151095 0.119600
0.288090 0.178988 0.119173
0.460731 0.172305 0.127504
0.638666 0.167666 0.146090
0.779843 0.211582 0.174044
0.873320 0.293889 0.215854
0.159487 0.238224 0.173220
0.166720 0.234989 0.172396
0.191440 0.229221 0.173251
0.261357 0.265049 0.207340
0.463539 0.334264 0.217502
0.657527 0.352636 0.222293
0.775326 0.382605 0.245914
0.859800 0.429450 0.287388
0.248692 0.365667 0.260807
0.253483 0.361608 0.258885
0.270420 0.346777 0.252689
0.319219 0.355352 0.266484
0.412726 0.405493 0.317174
0.591882 0.483955 0.337011
0.744106 0.522057 0.353429
0.836820 0.552667 0.394507
0.364660 0.497963 0.366033
0.370489 0.497871 0.366827
0.378546 0.482368 0.356512
0.385351 0.451667 0.336126
0.463111 0.488350 0.378515
0.558404 0.545403 0.447944
0.690059 0.618830 0.494087
0.796048 0.657679 0.531060
0.499458 0.621057 0.494789
0.500542 0.619287 0.493050
0.500664 0.607599 0.480446
0.499733 0.583978 0.456641
0.516747 0.567864 0.445777
0.596826 0.612940 0.511681
0.666468 0.660639 0.587152
0.752682 0.717250 0.637385
0.620386 0.722286 0.632319
0.620203 0.720668 0.630152
0.619959 0.714473 0.622126
0.618769 0.701717 0.605402
0.606165 0.671992 0.565209
0.647608 0.687373 0.595911
0.705623 0.726497 0.661707
0.752071 0.763180 0.720943
0.040284 0.063996 0.059358
0.070405 0.072724 0.064332
0.159243 0.077607 0.080751
0.276829 0.069215 0.095552
0.439734 0.000000 0.108370
0.615534 0.000000 0.126162
0.760922 0.000000 0.150027
0.865446 0.134524 0.185122
0.056367 0.091035 0.076448
0.086671 0.096681 0.083833
0.160922 0.104860 0.092988
0.278721 0.103883 0.102693
0.440406 0.038514 0.115358
0.614069 0.000000 0.132937
0.755642 0.000000 0.155184
0.860197 0.166323 0.188632
0.107057 0.152163 0.120394
0.119722 0.153780 0.123781
0.151888 0.161593 0.134615
0.292027 0.185214 0.136873
0.453559 0.183688 0.147311
0.622736 0.179934 0.163577
0.760098 0.209842 0.185885
0.860319 0.285374 0.222507
0.166964 0.246799 0.185000
0.175845 0.244205 0.185061
0.198184 0.235172 0.182956
0.262119 0.266392 0.213565
0.448310 0.324590 0.220768
0.633539 0.340063 0.226658
0.756985 0.367987 0.247593
0.848417 0.416663 0.286076
0.258000 0.374365 0.272404
0.262211 0.369696 0.269932
0.277745 0.353460 0.261936
0.319402 0.355077 0.270512
0.408118 0.401343 0.317876
0.583978 0.476905 0.337041
0.737728 0.514946 0.353674
0.830716 0.546258 0.393256
0.369024 0.500725 0.372656
0.371649 0.497627 0.370642
0.379889 0.483009 0.360937
0.388220 0.453803 0.341497
0.461097 0.486091 0.379797
0.556909 0.544060 0.449592
0.687617 0.616358 0.493935
0.793515 0.654322 0.529412
0.499397 0.620569 0.496956
0.498695 0.617243 0.493141
0.498756 0.605493 0.480537
0.498878 0.582879 0.458076
0.514031 0.565118 0.445136
0.593805 0.610071 0.509972
0.662806 0.656733 0.583368
0.749416 0.712886 0.632288
0.618799 0.720943 0.631678
0.619471 0.720058 0.630671
0.619043 0.713649 0.622400
0.618036 0.700984 0.605829
0.612757 0.678004 0.575311
0.649073 0.688899 0.599115
0.705348 0.726314 0.662257
0.751797 0.762905 0.721218
0.078248 0.101869 0.121889
0.095369 0.106020 0.125673
0.149752 0.123171 0.139681
0.286687 0.133364 0.168643
0.448219 0.074128 0.168948
0.623438 0.000000 0.191684
0.762448 0.100313 0.218051
0.863554 0.216312 0.249943
0.092317 0.120180 0.132357
0.107637 0.126070 0.137514
0.159487 0.142336 0.150332
0.290745 0.147616 0.172610
0.450752 0.113039 0.173861
0.619806 0.102998 0.198062
0.757626 0.140871 0.221103
0.859251 0.234836 0.252934
0.117891 0.178286 0.166018
0.133883 0.183017 0.169589
0.191806 0.203006 0.186435
0.312047 0.209232 0.192966
0.469612 0.215610 0.207767
0.629603 0.224338 0.225681
0.759365 0.256962 0.248020
0.855589 0.321233 0.280949
0.189548 0.287053 0.232914
0.203220 0.288670 0.235203
0.247044 0.290623 0.242374
0.302464 0.305730 0.261448
0.484169 0.351659 0.271611
0.639338 0.367498 0.284245
0.757076 0.396155 0.305852
0.845029 0.440620 0.340703
0.289525 0.414771 0.319371
0.298131 0.413672 0.319799
0.327581 0.405554 0.320012
0.352453 0.385901 0.310643
0.440040 0.433173 0.360601
0.602228 0.498085 0.378607
0.743313 0.528862 0.397864
0.826535 0.558221 0.433967
0.400793 0.533104 0.415534
0.406409 0.532341 0.416052
0.421729 0.520439 0.410864
0.427558 0.490913 0.388251
0.479377 0.502708 0.407996
0.569512 0.558434 0.476204
0.692073 0.624750 0.518120
0.795071 0.660914 0.553216
0.528527 0.642481 0.535821
0.531212 0.640314 0.535210
0.529747 0.629023 0.522026
0.527642 0.607050 0.497688
0.524651 0.574548 0.464820
0.602289 0.618769 0.529290
0.669734 0.665766 0.601556
0.754177 0.720394 0.648219
0.632593 0.732631 0.654231
0.632044 0.730739 0.651820
0.631373 0.724483 0.643610
0.631281 0.712917 0.628748
0.625971 0.690425 0.599023
0.651698 0.692134 0.607904
0.708125 0.730068 0.670802
0.754421 0.766781 0.728786
0.102754 0.145541 0.206302
0.120638 0.151675 0.211429
0.185397 0.174655 0.229709
0.284611 0.206729 0.255467
0.464820 0.249180 0.311284
0.629847 0.200046 0.307073
0.749111 0.170932 0.296086
0.852262 0.250950 0.323919
0.121920 0.167453 0.217594
0.139620 0.173770 0.223178
0.198276 0.194369 0.239872
0.294102 0.224430 0.264805
0.470985 0.260746 0.316350
0.629908 0.213565 0.308385
0.750637 0.190463 0.298436
0.850645 0.273106 0.330053
0.151492 0.217746 0.242130
0.165713 0.221866 0.244877
0.225925 0.245579 0.264714
0.320439 0.278813 0.291875
0.487404 0.295415 0.326421
0.632105 0.265507 0.313481
0.760372 0.298283 0.333379
0.849546 0.358068 0.362615
0.206119 0.324010 0.304143
0.220493 0.327031 0.306462
0.276768 0.341863 0.318364
0.372839 0.374273 0.345953
0.509728 0.377630 0.348730
0.640009 0.392340 0.361273
0.750240 0.420294 0.381323
0.836667 0.461036 0.410376
0.342779 0.484138 0.412207
0.351873 0.482734 0.411353
0.387427 0.479805 0.411261
0.435767 0.471229 0.410803
0.491920 0.485603 0.432593
0.633448 0.529778 0.447395
0.740902 0.548974 0.464851
0.820432 0.573846 0.492226
0.459419 0.586084 0.496223
0.467079 0.587549 0.498787
0.483070 0.581628 0.495338
0.506310 0.566125 0.486488
0.518608 0.540429 0.465858
0.596674 0.589258 0.528618
0.703700 0.642145 0.561334
0.799985 0.671656 0.591394
0.561151 0.671870 0.588251
0.563561 0.671046 0.587915
0.571740 0.666651 0.585229
0.580621 0.652399 0.573358
0.571801 0.618830 0.534264
0.618616 0.636103 0.564538
0.680568 0.680232 0.630274
0.761227 0.730495 0.670832
0.648707 0.753017 0.687068
0.649653 0.752163 0.686427
0.653346 0.748531 0.683528
0.656306 0.737362 0.672389
0.650935 0.715694 0.644099
0.654597 0.696864 0.621576
0.712062 0.735866 0.684291
0.759213 0.773739 0.742092
0.152407 0.215518 0.322728
0.170199 0.221622 0.328222
0.235721 0.244480 0.347021
0.350225 0.290654 0.384344
0.473823 0.333837 0.416480
0.628717 0.426398 0.488533
0.747158 0.394415 0.485145
0.834348 0.376318 0.466896
0.171786 0.234684 0.331456
0.189273 0.241489 0.337743
0.249668 0.262455 0.355566
0.359075 0.306096 0.390814
0.478370 0.347478 0.422034
0.629297 0.436316 0.492226
0.746181 0.400763 0.485573
0.832456 0.381750 0.465919
0.202579 0.278202 0.345830
0.218112 0.284550 0.351476
0.280095 0.310979 0.374273
0.380102 0.352148 0.407355
0.489998 0.392309 0.438117
0.628077 0.451545 0.493355
0.741268 0.419379 0.482612
0.822934 0.397528 0.457893
0.252689 0.365179 0.392157
0.265171 0.367498 0.393744
0.312474 0.379339 0.401770
0.408576 0.418616 0.434211
0.516747 0.466194 0.473060
0.637385 0.483650 0.501122
0.736721 0.450141 0.474464
0.826993 0.466529 0.478706
0.347814 0.493111 0.468727
0.358495 0.495308 0.470619
0.399084 0.503014 0.477546
0.466224 0.518853 0.491768
0.546441 0.543206 0.515068
0.644160 0.542565 0.512840
0.734005 0.553643 0.521447
0.813382 0.574395 0.539361
0.497688 0.624384 0.572381
0.504784 0.625818 0.574304
0.528435 0.628473 0.578576
0.552483 0.619989 0.570703
0.578363 0.604181 0.558099
0.621454 0.618860 0.581659
0.718624 0.656580 0.604456
0.800565 0.674800 0.623865
0.596338 0.706447 0.652735
0.597345 0.705135 0.651240
0.602411 0.700649 0.646235
0.615473 0.693355 0.639887
0.627131 0.675471 0.623896
0.631159 0.651331 0.598230
0.690913 0.694667 0.659907
0.768887 0.738216 0.691737
0.659663 0.772610 0.720943
0.660822 0.771847 0.720333
0.665614 0.768948 0.718227
0.675715 0.764431 0.715663
0.681025 0.749325 0.700954
0.669764 0.716335 0.658228
0.713252 0.739376 0.696223
0.762295 0.778683 0.754086
0.236698 0.311345 0.463752
0.254063 0.317418 0.468666
0.315740 0.339666 0.484779
0.420783 0.384253 0.516472
0.546532 0.451484 0.560174
0.633265 0.489448 0.579644
0.721492 0.575158 0.632898
0.800381 0.588128 0.651789
0.249210 0.322820 0.463600
0.264439 0.328313 0.467536
0.321050 0.348272 0.482399
0.419623 0.389166 0.512016
0.542718 0.454292 0.555840
0.630030 0.492531 0.577234
0.718685 0.576684 0.631098
0.798764 0.586816 0.648890
0.281559 0.364111 0.475441
0.295811 0.369604 0.479469
0.352941 0.393378 0.497688
0.439246 0.428260 0.522728
0.551507 0.487678 0.564446
0.633448 0.524681 0.587701
0.717586 0.598596 0.640345
0.797940 0.595361 0.649928
0.315587 0.422339 0.493080
0.324865 0.423804 0.493355
0.370184 0.438453 0.503471
0.467536 0.486671 0.542840
0.569055 0.540948 0.584131
0.643732 0.577752 0.611048
0.720882 0.631037 0.657618
0.799588 0.608576 0.650202
0.393805 0.524712 0.547265
0.401770 0.525811 0.547967
0.433173 0.531151 0.551537
0.485664 0.541650 0.559106
0.569604 0.576562 0.589166
0.647669 0.618738 0.626581
0.723445 0.633173 0.648890
0.801175 0.602228 0.623041
0.499367 0.627405 0.614191
0.506218 0.629145 0.616083
0.526726 0.631952 0.618799
0.561883 0.637842 0.624659
0.606561 0.647364 0.634241
0.659541 0.664485 0.652308
0.730404 0.664607 0.651087
0.801572 0.672297 0.657771
0.618189 0.730404 0.707240
0.621759 0.731502 0.708705
0.634089 0.734401 0.712367
0.656794 0.740291 0.719814
0.672969 0.734127 0.712825
0.681270 0.711360 0.688655
0.710658 0.720851 0.704891
0.786557 0.753658 0.727108
0.691646 0.803494 0.776577
0.691981 0.802762 0.775723
0.694636 0.800595 0.773129
0.700221 0.796597 0.768399
0.707790 0.787839 0.758816
0.713466 0.768338 0.739467
0.716121 0.746395 0.714687
0.769711 0.789212 0.774197
0.358648 0.426490 0.598993
0.372625 0.432593 0.602899
0.419806 0.450477 0.612665
0.500145 0.487556 0.632471
0.590784 0.541161 0.659602
0.673152 0.604822 0.693233
0.721920 0.624109 0.701381
0.775753 0.676570 0.733974
0.359442 0.429145 0.593439
0.373785 0.435645 0.597986
0.419196 0.452949 0.607874
0.495979 0.486976 0.626490
0.585229 0.538201 0.653223
0.667231 0.599634 0.686091
0.716091 0.617914 0.693599
0.770840 0.670039 0.726497
0.380804 0.459419 0.599084
0.393133 0.464332 0.602045
0.438422 0.483040 0.612665
0.508415 0.513695 0.630488
0.590570 0.559106 0.655848
0.669215 0.615625 0.689570
0.718746 0.637171 0.702022
0.774166 0.687892 0.737819
0.395331 0.495491 0.601831
0.405280 0.498726 0.603693
0.447761 0.515099 0.613916
0.524498 0.552087 0.637598
0.600824 0.592584 0.663783
0.675257 0.643519 0.699458
0.723568 0.666285 0.715877
0.777127 0.710414 0.750698
0.440558 0.560357 0.624537
0.444160 0.559442 0.623224
0.463905 0.559777 0.622217
0.502678 0.564385 0.624140
0.595941 0.613581 0.661311
0.671229 0.660426 0.699001
0.722835 0.688167 0.722225
0.780667 0.734127 0.763729
0.523674 0.644892 0.670924
0.527581 0.645472 0.671412
0.542382 0.647089 0.672450
0.568872 0.650141 0.674586
0.604181 0.653925 0.677119
0.668086 0.683131 0.704311
0.731380 0.723598 0.742275
0.789151 0.736690 0.761013
0.606500 0.725277 0.728786
0.609613 0.726253 0.729824
0.619318 0.727596 0.731106
0.638209 0.730861 0.734279
0.664210 0.735286 0.738460
0.696925 0.742428 0.745327
0.735897 0.754208 0.756924
0.796597 0.753811 0.755337
0.692195 0.808621 0.800534
0.694392 0.809293 0.801266
0.703914 0.812650 0.805051
0.719295 0.817075 0.810056
0.741115 0.823484 0.817105
0.755306 0.820676 0.813687
0.754421 0.795987 0.787289
0.783169 0.806394 0.802945
0.504540 0.556695 0.711208
0.512505 0.560662 0.713130
0.538170 0.571435 0.717189
0.585992 0.596094 0.728542
0.643091 0.630121 0.744869
0.700404 0.670466 0.765591
0.753536 0.715358 0.790433
0.785336 0.723903 0.793729
0.502464 0.556603 0.707759
0.510521 0.560632 0.709804
0.537133 0.572229 0.714809
0.583856 0.595819 0.725765
0.640833 0.629389 0.742275
0.698360 0.669490 0.763272
0.751553 0.713863 0.788113
0.783169 0.721859 0.791165
0.503532 0.566217 0.705501
0.511742 0.570245 0.707301
0.540856 0.583703 0.712978
0.588251 0.608331 0.726345
0.642176 0.638483 0.742123
0.697871 0.675654 0.762722
0.751125 0.719234 0.788540
0.783017 0.728176 0.792844
0.496132 0.578241 0.701259
0.504723 0.582086 0.703365
0.535424 0.595544 0.709834
0.588312 0.622919 0.724544
0.642420 0.652308 0.742184
0.698604 0.688563 0.764736
0.752255 0.730892 0.791836
0.785122 0.742550 0.798947
0.483864 0.597223 0.698177
0.488014 0.597681 0.698421
0.506920 0.600855 0.700099
0.563165 0.624689 0.714595
0.632868 0.661738 0.737758
0.693233 0.698177 0.762936
0.750729 0.741543 0.793362
0.787991 0.759915 0.806516
0.547021 0.667903 0.731563
0.548180 0.666987 0.730678
0.555291 0.664759 0.728389
0.571984 0.662684 0.726223
0.597955 0.660243 0.724086
0.682918 0.709133 0.761471
0.752010 0.759243 0.800198
0.796841 0.786893 0.821683
0.616754 0.740383 0.775051
0.618219 0.740261 0.774899
0.624537 0.739986 0.774441
0.638453 0.740719 0.774838
0.659113 0.741878 0.775570
0.686366 0.743557 0.776913
0.741299 0.768643 0.797971
0.800778 0.807828 0.830625
0.684932 0.807340 0.819608
0.685969 0.807340 0.819608
0.691402 0.808133 0.820218
0.703243 0.810483 0.822232
0.720424 0.813779 0.825071
0.742947 0.818173 0.828794
0.771389 0.824338 0.834104
0.805753 0.832364 0.841032
