20 Preset/White Style/【3】LUT video cho PR-AE-FCPX/Tone1 (2).cube
# Created by Adobe Lightroom plugin Export LUT (1.24.0)
# www.johnrellis.com/lightroom/exportlut.htm
# Preset: 米白色调-素材江湖01-深圳市江湖客形象设计有限公司版权所有
# Color profile: C:\Program Files (x86)\Common Files\Adobe\Color\Profiles\Recommended\VideoHD.icc
LUT_3D_SIZE 5
DOMAIN_MIN 0.000000 0.000000 0.000000
DOMAIN_MAX 0.903226 0.903226 0.903226
0.024964 0.035554 0.024018
0.136995 0.064179 0.043519
0.366552 0.000000 0.066712
0.678462 0.000000 0.107515
0.880186 0.132601 0.172335
0.089174 0.122927 0.093904
0.121157 0.130922 0.104402
0.371862 0.146181 0.108858
0.679103 0.117342 0.140444
0.876951 0.264683 0.205234
0.199680 0.298772 0.214420
0.219944 0.285588 0.209873
0.338781 0.337011 0.261814
0.671260 0.434638 0.276982
0.848112 0.492103 0.334905
0.402167 0.534997 0.400519
0.408026 0.521996 0.390723
0.434760 0.487648 0.369940
0.590143 0.577600 0.483345
0.783383 0.675990 0.560143
0.620386 0.722286 0.632319
0.619898 0.716518 0.624750
0.609247 0.684901 0.582269
0.663203 0.697230 0.612634
0.752071 0.763180 0.720943
0.070130 0.093782 0.105898
0.126131 0.108339 0.117861
0.358892 0.086641 0.141726
0.655421 0.000000 0.178927
0.861631 0.192172 0.228550
0.101808 0.151217 0.139315
0.158145 0.169955 0.155276
0.374884 0.180087 0.171572
0.659968 0.181888 0.202457
0.858366 0.284276 0.253605
0.226413 0.335637 0.256992
0.260685 0.331182 0.260166
0.356451 0.354894 0.292149
0.667597 0.436713 0.312688
0.839597 0.500175 0.372778
0.434485 0.562799 0.441596
0.443671 0.551720 0.434424
0.451270 0.501640 0.394476
0.598322 0.587640 0.504601
0.783719 0.679408 0.575708
0.631800 0.731868 0.651423
0.631159 0.726070 0.643946
0.627283 0.701167 0.611231
0.668055 0.702785 0.624201
0.756008 0.768582 0.730373
0.123995 0.177707 0.260838
0.187259 0.199008 0.278508
0.376501 0.263951 0.331823
0.667750 0.301915 0.397894
0.842069 0.283391 0.375372
0.167391 0.231022 0.283696
0.224491 0.254032 0.304082
0.398932 0.316777 0.355749
0.665949 0.332006 0.399573
0.843076 0.339086 0.390875
0.271122 0.409277 0.385657
0.317693 0.418952 0.393408
0.465736 0.463203 0.432349
0.667994 0.474250 0.439765
0.824735 0.521263 0.477028
0.513695 0.633051 0.561425
0.523980 0.627344 0.556451
0.559625 0.606073 0.541802
0.629541 0.625544 0.577539
0.791135 0.690639 0.624659
0.652552 0.760678 0.700954
0.657191 0.758328 0.699489
0.666651 0.741512 0.683986
0.668238 0.706233 0.640894
0.759335 0.774380 0.745602
0.260044 0.334600 0.494087
0.316106 0.354681 0.508721
0.492866 0.432868 0.560754
0.657588 0.522759 0.610163
0.789639 0.623529 0.681331
0.292821 0.372045 0.500511
0.344427 0.392828 0.515709
0.502098 0.462104 0.564446
0.655848 0.544396 0.613886
0.787839 0.626459 0.679438
0.355108 0.474159 0.531182
0.383520 0.477546 0.532128
0.518700 0.533135 0.575280
0.656580 0.605158 0.631037
0.790158 0.637507 0.673671
0.534325 0.656458 0.647883
0.548577 0.657679 0.648890
0.601587 0.666773 0.658076
0.680537 0.688563 0.680690
0.798581 0.691554 0.681361
0.701045 0.811582 0.790768
0.704036 0.810300 0.789364
0.714504 0.803769 0.781735
0.723903 0.775540 0.752041
0.772335 0.792782 0.780484
0.504540 0.556695 0.711208
0.529625 0.567529 0.715602
0.614191 0.612329 0.736202
0.714382 0.681605 0.771603
0.785336 0.723903 0.793729
0.504906 0.564538 0.707088
0.532860 0.577661 0.712734
0.613611 0.618860 0.733394
0.712337 0.684962 0.769497
0.784024 0.727810 0.793668
0.484565 0.583062 0.697688
0.512657 0.593439 0.702724
0.608942 0.640284 0.728786
0.708461 0.700740 0.768154
0.785794 0.749844 0.801694
0.568109 0.689021 0.744625
0.574121 0.687495 0.743008
0.602716 0.684504 0.739803
0.696864 0.723079 0.769558
0.797391 0.791470 0.823423
0.684932 0.807340 0.819608
0.689509 0.807828 0.819913
0.711238 0.812070 0.823636
0.749508 0.819516 0.829953
0.805753 0.832364 0.841032
