20 Preset/White Style/【3】LUT video cho PR-AE-FCPX/Tone1 (3).cube
# Created by Adobe Lightroom plugin Export LUT (1.24.0)
# www.johnrellis.com/lightroom/exportlut.htm
# Preset: 米白色调-素材江湖02-深圳市江湖客形象设计有限公司版权所有
# Color profile: C:\Program Files (x86)\Common Files\Adobe\Color\Profiles\Recommended\VideoHD.icc
LUT_3D_SIZE 8
DOMAIN_MIN 0.000000 0.000000 0.000000
DOMAIN_MAX 0.903226 0.903226 0.903226
0.024964 0.035554 0.024018
0.094942 0.053285 0.034577
0.196414 0.069825 0.059205
0.347143 0.000000 0.079286
0.516625 0.000000 0.101503
0.667262 0.000000 0.137148
0.777523 0.140017 0.185489
0.844572 0.267185 0.242283
0.065064 0.092500 0.062196
0.088197 0.096376 0.072572
0.193515 0.108003 0.079255
0.339269 0.094362 0.091920
0.506676 0.000000 0.111940
0.656275 0.007721 0.145327
0.764950 0.167117 0.188327
0.836545 0.276677 0.243473
0.119509 0.169619 0.126101
0.131380 0.168338 0.127199
0.175906 0.183383 0.144839
0.346807 0.216556 0.146944
0.515404 0.217838 0.162112
0.662715 0.241581 0.193240
0.767575 0.297185 0.235996
0.833433 0.365850 0.289433
0.204746 0.286961 0.210788
0.212253 0.283055 0.209781
0.239322 0.276707 0.210880
0.319951 0.318791 0.252140
0.511467 0.388251 0.270726
0.666957 0.406561 0.284581
0.753750 0.432380 0.315709
0.815824 0.469764 0.360021
0.315190 0.415991 0.310521
0.318822 0.412207 0.308324
0.332708 0.398596 0.301579
0.379187 0.407599 0.317205
0.463600 0.453254 0.368933
0.604547 0.515679 0.392279
0.719631 0.541894 0.412757
0.791592 0.565728 0.450507
0.427893 0.527153 0.413397
0.432868 0.527642 0.414710
0.437324 0.515618 0.405371
0.441108 0.491005 0.386755
0.504387 0.520684 0.425696
0.577264 0.565454 0.485054
0.673457 0.619074 0.523949
0.757137 0.649104 0.553735
0.534691 0.620264 0.520867
0.535393 0.618982 0.519432
0.534722 0.610407 0.509819
0.532891 0.592950 0.490883
0.545068 0.581201 0.482551
0.604181 0.614954 0.534844
0.655390 0.650538 0.591791
0.724147 0.695033 0.628656
0.622522 0.697993 0.624201
0.622400 0.696681 0.622705
0.622431 0.691646 0.616907
0.621912 0.681666 0.605280
0.610986 0.657801 0.574517
0.641779 0.670100 0.597742
0.687160 0.702205 0.646479
0.726864 0.733883 0.694026
0.053956 0.077668 0.073030
0.088289 0.085420 0.079072
0.192844 0.088380 0.094636
0.333196 0.088289 0.112886
0.498970 0.009918 0.133913
0.647791 0.016724 0.163424
0.756832 0.159365 0.200687
0.830503 0.264652 0.248997
0.073579 0.101686 0.089967
0.099458 0.109895 0.096407
0.195987 0.121004 0.107607
0.334661 0.123445 0.122713
0.498360 0.109712 0.142885
0.644953 0.121401 0.171420
0.750973 0.187472 0.205844
0.825071 0.277104 0.252079
0.130983 0.183108 0.144076
0.147799 0.185306 0.148562
0.187716 0.195865 0.162478
0.349432 0.223941 0.167697
0.505913 0.230198 0.183993
0.646448 0.249851 0.209201
0.749416 0.292119 0.242710
0.821195 0.356725 0.290410
0.213016 0.294713 0.222904
0.222171 0.292088 0.223148
0.246311 0.282322 0.221164
0.318395 0.317540 0.256809
0.494148 0.375555 0.269841
0.644953 0.391577 0.282811
0.737819 0.417090 0.310674
0.805203 0.456703 0.353552
0.323949 0.422705 0.321233
0.327153 0.418738 0.318914
0.339300 0.403876 0.310613
0.377935 0.405585 0.319615
0.456855 0.447272 0.366979
0.596521 0.507927 0.389105
0.713649 0.534905 0.409583
0.785611 0.558953 0.446296
0.430121 0.527977 0.417700
0.431647 0.525475 0.415808
0.436652 0.514031 0.407050
0.441779 0.491066 0.389776
0.501305 0.517632 0.425055
0.574823 0.563378 0.484901
0.671107 0.616388 0.522423
0.754330 0.645472 0.550927
0.533288 0.618769 0.520867
0.532311 0.616205 0.517754
0.531487 0.607599 0.508019
0.530816 0.590814 0.490272
0.541985 0.578119 0.480598
0.601038 0.611902 0.532219
0.651820 0.646571 0.587610
0.720211 0.690303 0.623377
0.620630 0.696101 0.622705
0.621210 0.695491 0.622095
0.621027 0.690272 0.616144
0.620569 0.680385 0.604608
0.616480 0.662898 0.582757
0.642908 0.671504 0.600336
0.686732 0.701869 0.646601
0.726467 0.733455 0.693965
0.092226 0.115969 0.143404
0.111025 0.121828 0.148043
0.182986 0.145602 0.166690
0.342992 0.163546 0.201907
0.504295 0.137789 0.205081
0.650538 0.175326 0.236057
0.753323 0.243503 0.271061
0.824582 0.320470 0.311894
0.108431 0.140902 0.156802
0.129274 0.148714 0.163272
0.195468 0.170443 0.179995
0.346380 0.180636 0.206332
0.504967 0.165255 0.211246
0.645533 0.204257 0.242954
0.747982 0.258762 0.273899
0.820127 0.330022 0.313970
0.148379 0.215061 0.198886
0.168063 0.220981 0.203647
0.236973 0.244816 0.223392
0.368627 0.253330 0.232090
0.517693 0.269352 0.250675
0.648066 0.295140 0.275090
0.744594 0.334966 0.304112
0.813657 0.389776 0.343175
0.243656 0.337713 0.275883
0.257877 0.339300 0.278355
0.302953 0.341802 0.286870
0.359838 0.358221 0.308202
0.522881 0.402197 0.322179
0.646235 0.418647 0.338659
0.734585 0.444068 0.363867
0.800137 0.479286 0.399420
0.356512 0.457679 0.366522
0.363378 0.456733 0.366857
0.387732 0.449897 0.367376
0.408545 0.433356 0.358831
0.483772 0.474464 0.406195
0.609552 0.525200 0.425086
0.716304 0.546838 0.445380
0.781338 0.569787 0.477150
0.456580 0.552361 0.453498
0.460700 0.551873 0.454047
0.471107 0.542779 0.449653
0.474495 0.520287 0.430762
0.514824 0.529992 0.448157
0.583673 0.573663 0.505180
0.673854 0.622431 0.539849
0.755947 0.650874 0.567803
0.555322 0.635187 0.550774
0.556725 0.633417 0.549981
0.554833 0.624811 0.539666
0.552331 0.608820 0.521141
0.549798 0.585046 0.495918
0.607233 0.618280 0.546593
0.657191 0.653529 0.601068
0.725216 0.696895 0.635523
0.630030 0.705806 0.639063
0.629603 0.704158 0.637140
0.629419 0.699062 0.631281
0.629877 0.689967 0.620935
0.626215 0.672358 0.599786
0.645075 0.674098 0.606653
0.689265 0.705196 0.653285
0.729061 0.737057 0.700526
0.128298 0.172732 0.241733
0.150576 0.180362 0.248020
0.227085 0.209689 0.268986
0.338048 0.249454 0.297642
0.506950 0.304540 0.353033
0.645136 0.281468 0.350256
0.736507 0.286107 0.344549
0.810086 0.351354 0.375769
0.154849 0.200137 0.255406
0.175479 0.208103 0.261814
0.243259 0.233371 0.280339
0.348333 0.269810 0.307866
0.511864 0.316686 0.358434
0.644373 0.292454 0.351843
0.736690 0.298314 0.347387
0.807858 0.365179 0.381598
0.194247 0.259861 0.282689
0.210178 0.264652 0.285924
0.276616 0.291814 0.306889
0.373785 0.328740 0.335119
0.524620 0.351324 0.369451
0.644007 0.337102 0.359869
0.739559 0.376562 0.383124
0.804105 0.425513 0.413184
0.268803 0.374090 0.348302
0.282689 0.376959 0.350561
0.336248 0.391119 0.362463
0.424018 0.421363 0.388861
0.539544 0.426246 0.392828
0.641688 0.441718 0.406012
0.724666 0.466560 0.426581
0.790249 0.498756 0.454200
0.408484 0.514702 0.448646
0.415167 0.513603 0.448066
0.442206 0.510887 0.448035
0.480293 0.504906 0.448707
0.524437 0.516899 0.467628
0.631434 0.550530 0.481697
0.712215 0.564446 0.497475
0.775509 0.583825 0.520439
0.503227 0.593072 0.518425
0.509392 0.594476 0.520806
0.520134 0.589929 0.518181
0.536309 0.578454 0.511528
0.545251 0.559442 0.495644
0.603388 0.596704 0.545434
0.682216 0.635615 0.571557
0.761166 0.659541 0.594934
0.579278 0.656794 0.589380
0.581048 0.656245 0.589288
0.586633 0.653071 0.587396
0.592340 0.642786 0.578820
0.585260 0.618219 0.549737
0.619623 0.631434 0.573053
0.665827 0.664668 0.621942
0.732204 0.705470 0.652613
0.642145 0.723690 0.665095
0.642878 0.722927 0.664515
0.645716 0.719844 0.662135
0.648157 0.710414 0.653346
0.644404 0.692592 0.632197
0.647395 0.677913 0.616449
0.692805 0.710170 0.663813
0.733669 0.743557 0.712184
0.201724 0.255711 0.361639
0.220310 0.263005 0.367132
0.287785 0.289128 0.384863
0.398810 0.339635 0.418982
0.508232 0.385351 0.448646
0.627192 0.468788 0.506920
0.719722 0.449165 0.503105
0.787930 0.441474 0.490089
0.224155 0.277775 0.370428
0.242832 0.285710 0.376745
0.303777 0.309056 0.393194
0.407416 0.355352 0.425055
0.511681 0.397803 0.453315
0.627344 0.476448 0.509911
0.718837 0.453773 0.503624
0.786099 0.445533 0.489937
0.260624 0.325170 0.384680
0.275731 0.331853 0.389776
0.336889 0.359106 0.410681
0.427131 0.399207 0.439887
0.519677 0.436683 0.466499
0.625360 0.488045 0.510552
0.713924 0.467659 0.502098
0.777798 0.455695 0.484413
0.319493 0.410040 0.427161
0.330022 0.412512 0.428534
0.371649 0.423468 0.435920
0.453590 0.458412 0.463661
0.540215 0.498665 0.496254
0.632258 0.514153 0.518425
0.709682 0.491646 0.498512
0.779385 0.506310 0.504631
0.412360 0.519493 0.492805
0.420600 0.521233 0.494331
0.451850 0.527520 0.500053
0.503166 0.540002 0.511803
0.563226 0.559014 0.530419
0.636713 0.559197 0.529534
0.704555 0.568231 0.537560
0.768460 0.584222 0.552728
0.529931 0.619562 0.573602
0.535088 0.620600 0.575128
0.551568 0.622461 0.578302
0.568505 0.616144 0.572473
0.587396 0.604852 0.563775
0.620111 0.617151 0.583062
0.693263 0.645747 0.601404
0.762142 0.660883 0.616632
0.603449 0.682948 0.636103
0.603967 0.681788 0.634791
0.607446 0.678126 0.630915
0.616754 0.672602 0.626276
0.625330 0.659266 0.614954
0.628168 0.641840 0.596735
0.673457 0.675044 0.642512
0.738705 0.711086 0.667536
0.649165 0.739895 0.691585
0.650050 0.739254 0.691035
0.653834 0.736568 0.688991
0.662196 0.733089 0.687190
0.666743 0.720150 0.675105
0.658259 0.692897 0.642298
0.693263 0.712490 0.672267
0.735866 0.747311 0.721645
0.305150 0.357641 0.485512
0.320012 0.364111 0.490059
0.372900 0.386114 0.503227
0.461219 0.428260 0.528679
0.560235 0.486702 0.562982
0.627893 0.518181 0.578607
0.693843 0.584222 0.618585
0.758663 0.594659 0.634638
0.315953 0.368414 0.484993
0.328862 0.373846 0.488136
0.376867 0.393256 0.500298
0.459236 0.431250 0.523980
0.556542 0.487739 0.558770
0.624750 0.519585 0.575830
0.691341 0.584558 0.616693
0.756924 0.593072 0.631800
0.348119 0.408240 0.495949
0.359991 0.413275 0.499306
0.407996 0.435157 0.513695
0.476997 0.465217 0.533043
0.563714 0.514549 0.565789
0.627192 0.544610 0.584314
0.690578 0.601160 0.624201
0.756619 0.599298 0.632685
0.382086 0.460060 0.510948
0.389075 0.461219 0.511009
0.425635 0.474098 0.519188
0.502739 0.514641 0.550530
0.579492 0.557580 0.582696
0.635767 0.586145 0.603510
0.694484 0.626184 0.638849
0.759060 0.609766 0.634089
0.450263 0.542290 0.553277
0.456062 0.543297 0.553796
0.478920 0.547692 0.556695
0.517754 0.556390 0.562951
0.580163 0.583856 0.586084
0.638270 0.615808 0.614466
0.696071 0.627253 0.631891
0.759335 0.604822 0.613306
0.531609 0.621424 0.604822
0.536736 0.622980 0.606531
0.551202 0.625147 0.608606
0.576349 0.629725 0.613092
0.608759 0.636988 0.620417
0.647944 0.650355 0.634546
0.703304 0.651301 0.634699
0.764034 0.657649 0.640497
0.617853 0.702663 0.678462
0.620661 0.703792 0.679805
0.629572 0.706233 0.682826
0.646693 0.711391 0.689143
0.659297 0.706386 0.683314
0.665858 0.687800 0.663844
0.689815 0.696071 0.677455
0.755489 0.724422 0.696590
0.673610 0.768429 0.740658
0.673823 0.767666 0.739712
0.676051 0.765560 0.737240
0.680995 0.761929 0.732815
0.687587 0.753872 0.723903
0.692744 0.736477 0.706783
0.695369 0.718105 0.686610
0.742214 0.756558 0.739193
0.415625 0.460243 0.590143
0.426520 0.465492 0.593256
0.461799 0.480842 0.600549
0.522423 0.511711 0.615778
0.591485 0.554314 0.636439
0.655451 0.603510 0.662806
0.694209 0.618769 0.670100
0.741970 0.658137 0.699031
0.416785 0.462806 0.586053
0.427436 0.468269 0.589441
0.461677 0.482979 0.596979
0.519310 0.511192 0.611200
0.587366 0.551995 0.631647
0.650782 0.599725 0.657130
0.689296 0.614282 0.663905
0.737240 0.653132 0.692561
0.435035 0.487831 0.590539
0.444099 0.491981 0.592737
0.478462 0.507774 0.600855
0.530236 0.532525 0.614435
0.592401 0.568353 0.633783
0.652796 0.611872 0.660182
0.692134 0.628534 0.670893
0.741146 0.667201 0.702510
0.448890 0.517174 0.593225
0.456092 0.519707 0.594507
0.487831 0.533318 0.602411
0.544640 0.562737 0.620264
0.601495 0.594263 0.640223
0.658289 0.632990 0.668666
0.697261 0.650477 0.682918
0.744900 0.685512 0.714168
0.486030 0.568078 0.610925
0.488502 0.567468 0.609979
0.502312 0.568170 0.609308
0.530358 0.572534 0.611017
0.599298 0.610651 0.638911
0.655695 0.646021 0.669001
0.697597 0.667750 0.688869
0.749233 0.705531 0.726345
0.549401 0.633631 0.646693
0.552209 0.634089 0.647028
0.562615 0.635523 0.647913
0.581445 0.638148 0.649744
0.606867 0.641505 0.652003
0.654170 0.664027 0.674281
0.706020 0.696834 0.706935
0.757198 0.708156 0.724453
0.608087 0.697993 0.694972
0.610315 0.698848 0.695888
0.617456 0.700008 0.697047
0.631434 0.702815 0.699916
0.651514 0.706752 0.703792
0.677943 0.713069 0.710140
0.710933 0.723507 0.720912
0.764767 0.723720 0.720211
0.672969 0.773068 0.762692
0.674739 0.773739 0.763394
0.682734 0.777127 0.767239
0.695766 0.781643 0.772305
0.714534 0.788235 0.779538
0.727474 0.785641 0.776120
0.727962 0.762173 0.750454
0.753964 0.772702 0.766262
0.529015 0.564416 0.676051
0.534874 0.567437 0.677699
0.553460 0.576104 0.681117
0.589014 0.595453 0.690852
0.632715 0.621729 0.705440
0.678737 0.652430 0.725032
0.724880 0.688746 0.749569
0.753017 0.696437 0.753414
0.527733 0.564324 0.673304
0.533562 0.567529 0.675013
0.552880 0.576776 0.679164
0.587610 0.595300 0.688594
0.631067 0.621210 0.703273
0.677119 0.651759 0.722988
0.723079 0.687587 0.747402
0.751003 0.694697 0.750912
0.529137 0.571832 0.671687
0.535363 0.575006 0.673152
0.556542 0.585718 0.677882
0.591424 0.605005 0.689296
0.632349 0.628260 0.703456
0.676753 0.656611 0.722683
0.722774 0.692042 0.747860
0.751095 0.700099 0.752682
0.525109 0.581079 0.668574
0.531426 0.584283 0.670344
0.553643 0.595056 0.675685
0.592401 0.616449 0.688167
0.632868 0.638911 0.703944
0.677546 0.667018 0.724880
0.723995 0.702052 0.751400
0.753536 0.712520 0.758968
0.518456 0.595789 0.666621
0.521386 0.596155 0.666865
0.534691 0.599023 0.668238
0.575036 0.617975 0.680262
0.625788 0.646357 0.700465
0.673274 0.674922 0.723629
0.722927 0.711330 0.753262
0.756619 0.727840 0.766873
0.564752 0.651484 0.695247
0.565576 0.650813 0.694423
0.570672 0.649104 0.692561
0.582483 0.647608 0.690822
0.601190 0.645960 0.689204
0.665064 0.684291 0.722896
0.724331 0.727108 0.760464
0.765164 0.752651 0.782803
0.612970 0.711299 0.735653
0.614038 0.711208 0.735531
0.618921 0.710964 0.735134
0.629633 0.711543 0.735592
0.646021 0.712551 0.736507
0.668208 0.713985 0.738033
0.715145 0.735958 0.758907
0.769131 0.773068 0.792813
0.665553 0.772244 0.781064
0.666438 0.772274 0.781003
0.671107 0.773037 0.781704
0.681086 0.775418 0.783932
0.696010 0.778714 0.787015
0.715877 0.783230 0.791135
0.741634 0.789700 0.797086
0.774105 0.798367 0.804959
