20 Preset/White Style/【3】LUT video cho PR-AE-FCPX/Tone1 (1).cube
# Created by Adobe Lightroom plugin Export LUT (1.24.0)
# www.johnrellis.com/lightroom/exportlut.htm
# Preset: 米白色调-素材江湖03-深圳市江湖客形象设计有限公司版权所有
# Color profile: C:\Program Files (x86)\Common Files\Adobe\Color\Profiles\Recommended\VideoHD.icc
LUT_3D_SIZE 32
DOMAIN_MIN 0.0 0.0 0.0
DOMAIN_MAX 1.0 1.0 1.0
0.015686 0.025544 0.019928
0.016968 0.026520 0.019745
0.025177 0.027802 0.020539
0.046540 0.030915 0.023102
0.078676 0.037263 0.024994
0.099763 0.041810 0.029084
0.119173 0.047517 0.032624
0.142947 0.049958 0.037018
0.170871 0.046357 0.038880
0.202060 0.037354 0.041291
0.237034 0.020020 0.044160
0.275303 0.000000 0.046052
0.316655 0.000000 0.045655
0.360754 0.000000 0.046845
0.407446 0.000000 0.046479
0.455055 0.000000 0.047333
0.502770 0.000000 0.048188
0.549981 0.000000 0.048920
0.595575 0.000000 0.050813
0.639094 0.000000 0.055695
0.683986 0.000000 0.062440
0.725429 0.000000 0.069978
0.761318 0.000000 0.080110
0.793149 0.000000 0.089082
0.821347 0.000000 0.095735
0.846708 0.000000 0.102876
0.869963 0.000000 0.110903
0.891722 0.000000 0.119875
0.912566 0.000000 0.129397
0.932708 0.091981 0.140597
0.952331 0.165316 0.153353
0.971496 0.217411 0.167849
0.015930 0.027710 0.020752
0.015229 0.028931 0.020600
0.025422 0.029999 0.021393
0.045136 0.033326 0.022797
0.079286 0.038239 0.025971
0.099214 0.044221 0.029908
0.118410 0.048951 0.033631
0.141604 0.051820 0.036866
0.169467 0.048463 0.039887
0.200443 0.039887 0.042329
0.235203 0.023224 0.044068
0.273198 0.000000 0.046021
0.314244 0.000000 0.046784
0.358038 0.000000 0.047059
0.404395 0.000000 0.046601
0.452186 0.000000 0.047791
0.500008 0.000000 0.047395
0.546990 0.000000 0.049470
0.592737 0.000000 0.052552
0.636103 0.000000 0.055543
0.680720 0.000000 0.061402
0.721401 0.000000 0.071321
0.757015 0.000000 0.080812
0.788815 0.000000 0.088472
0.817227 0.000000 0.095033
0.842832 0.000000 0.101961
0.866392 0.000000 0.109682
0.888457 0.000000 0.118196
0.909545 0.000000 0.128084
0.929900 0.068513 0.138918
0.949828 0.158114 0.151186
0.969268 0.211398 0.165377
0.016999 0.036439 0.024048
0.017975 0.037415 0.025025
0.023224 0.037964 0.024842
0.043183 0.043458 0.027100
0.076051 0.048585 0.030274
0.097871 0.054566 0.034241
0.117494 0.059297 0.036805
0.141024 0.060975 0.040192
0.168734 0.057832 0.042084
0.199741 0.048310 0.044678
0.234195 0.032074 0.047578
0.272099 0.006500 0.048402
0.312840 0.000000 0.048890
0.356542 0.000000 0.049195
0.402808 0.000000 0.048920
0.450172 0.000000 0.049592
0.497932 0.000000 0.050507
0.545190 0.000000 0.052277
0.590906 0.000000 0.054231
0.634455 0.000000 0.058198
0.679042 0.000000 0.065248
0.719417 0.000000 0.072694
0.754788 0.000000 0.081819
0.786679 0.000000 0.089601
0.815000 0.000000 0.095430
0.840665 0.000000 0.102419
0.864378 0.000000 0.110353
0.886503 0.000000 0.118898
0.907744 0.000000 0.128542
0.928252 0.083009 0.139101
0.948211 0.160708 0.151003
0.967681 0.213016 0.165255
0.021088 0.055818 0.032624
0.023072 0.055604 0.032624
0.029297 0.057130 0.033417
0.039887 0.059144 0.037446
0.068605 0.068116 0.040192
0.096895 0.073671 0.041840
0.116915 0.077180 0.044556
0.140444 0.077882 0.045869
0.168612 0.074525 0.047730
0.199527 0.066194 0.050172
0.234012 0.051179 0.051789
0.271489 0.028443 0.052338
0.312352 0.000000 0.052827
0.355840 0.000000 0.052857
0.401434 0.000000 0.053315
0.448707 0.000000 0.054017
0.496254 0.000000 0.055818
0.542626 0.000000 0.057435
0.588373 0.000000 0.060395
0.631586 0.000000 0.064179
0.675593 0.000000 0.071504
0.715114 0.000000 0.079713
0.750423 0.000000 0.086183
0.782681 0.000000 0.092226
0.811643 0.000000 0.098024
0.838071 0.000000 0.104738
0.862394 0.000000 0.112734
0.885008 0.000000 0.121431
0.906462 0.000000 0.130770
0.927123 0.109682 0.141512
0.946960 0.172793 0.153323
0.966247 0.220584 0.167178
0.031037 0.079988 0.047059
0.033021 0.079866 0.047028
0.037263 0.080934 0.047852
0.048432 0.082246 0.049622
0.062562 0.084016 0.052338
0.091981 0.090120 0.054414
0.114046 0.092164 0.054536
0.139742 0.092561 0.055665
0.167361 0.091920 0.056275
0.198764 0.089174 0.057435
0.233036 0.082124 0.058747
0.270603 0.064149 0.058991
0.310948 0.034638 0.059052
0.354498 0.000000 0.058778
0.400366 0.000000 0.059937
0.447486 0.000000 0.062318
0.495155 0.000000 0.063508
0.541833 0.000000 0.065766
0.587427 0.000000 0.070283
0.631403 0.000000 0.075288
0.674861 0.000000 0.080446
0.713710 0.000000 0.087037
0.748714 0.000000 0.091890
0.780941 0.000000 0.097078
0.810025 0.000000 0.102663
0.836576 0.000000 0.109224
0.860899 0.000000 0.116762
0.883543 0.000000 0.125185
0.904997 0.026429 0.134463
0.925566 0.139132 0.144900
0.945342 0.189975 0.156832
0.964477 0.233616 0.170382
0.040375 0.095125 0.061707
0.042359 0.095033 0.061677
0.047303 0.095216 0.062654
0.057099 0.096010 0.062135
0.072938 0.096895 0.066011
0.088197 0.098695 0.070527
0.108064 0.105104 0.071138
0.135805 0.107362 0.069062
0.167544 0.107210 0.067994
0.199283 0.106233 0.068513
0.233890 0.103365 0.068238
0.271794 0.097230 0.069276
0.312230 0.087922 0.069856
0.355505 0.057679 0.070924
0.401556 0.006806 0.071443
0.448981 0.000000 0.074952
0.496529 0.000000 0.077638
0.543328 0.000000 0.080079
0.588800 0.000000 0.082979
0.633631 0.000000 0.086610
0.676356 0.000000 0.090517
0.714656 0.000000 0.094636
0.772091 0.000000 0.103883
0.802365 0.000000 0.109346
0.829313 0.000000 0.115969
0.853605 0.000000 0.123659
0.875883 0.000000 0.131533
0.896727 0.118776 0.140475
0.916655 0.166659 0.150484
0.935821 0.206882 0.161105
0.954345 0.243198 0.173953
0.972290 0.277958 0.188174
0.050172 0.110719 0.080476
0.051453 0.110994 0.080385
0.054719 0.111208 0.080262
0.065217 0.111513 0.080049
0.080079 0.112581 0.080232
0.093141 0.114168 0.083711
0.105074 0.116915 0.088045
0.131685 0.125734 0.088472
0.164370 0.129030 0.086122
0.201602 0.129366 0.084169
0.240726 0.127413 0.083253
0.279698 0.123995 0.084596
0.321386 0.118410 0.084901
0.365484 0.109102 0.085603
0.411841 0.094636 0.087800
0.458717 0.057740 0.088350
0.505882 0.000000 0.090059
0.552209 0.000000 0.092226
0.597162 0.000000 0.094118
0.644465 0.000000 0.097536
0.687922 0.000000 0.101045
0.727169 0.000000 0.105501
0.762966 0.000000 0.110750
0.795224 0.000000 0.116945
0.823728 0.000000 0.123323
0.848875 0.051972 0.130953
0.871489 0.124453 0.138491
0.892515 0.164492 0.147219
0.912474 0.199100 0.156985
0.931609 0.231662 0.167514
0.950103 0.263371 0.179599
0.968109 0.294469 0.193668
0.054200 0.129152 0.092073
0.053468 0.129427 0.092012
0.059449 0.129274 0.091981
0.071199 0.129732 0.091798
0.084962 0.130037 0.091615
0.097200 0.131502 0.092744
0.110445 0.133822 0.095918
0.125124 0.136934 0.099489
0.155520 0.148257 0.101137
0.192477 0.153079 0.099214
0.234043 0.154513 0.097536
0.279210 0.152499 0.096529
0.322057 0.149294 0.097139
0.366308 0.144137 0.097536
0.412207 0.136690 0.098390
0.459052 0.126101 0.099611
0.505974 0.112703 0.101015
0.551781 0.094423 0.103243
0.599023 0.056397 0.105196
0.644343 0.014435 0.108644
0.686152 0.000000 0.112123
0.724300 0.000000 0.116304
0.759548 0.024720 0.121553
0.791379 0.089754 0.126589
0.819699 0.121920 0.133089
0.844816 0.151766 0.140291
0.867460 0.179538 0.148043
0.888518 0.206546 0.156374
0.908568 0.233249 0.165743
0.927703 0.261021 0.176242
0.946227 0.288426 0.188174
0.964294 0.316381 0.202213
0.059480 0.150912 0.103883
0.061494 0.150881 0.103883
0.068727 0.150942 0.103822
0.080079 0.151095 0.103700
0.091066 0.151095 0.103212
0.101503 0.151492 0.102937
0.115755 0.153658 0.105959
0.131533 0.156863 0.109529
0.148989 0.161044 0.113832
0.183291 0.174044 0.116670
0.224186 0.180758 0.114443
0.269230 0.183444 0.112703
0.318395 0.182620 0.111727
0.368444 0.178988 0.111482
0.414588 0.175021 0.112032
0.461250 0.169589 0.113252
0.507652 0.162692 0.114717
0.554925 0.155612 0.116548
0.601617 0.148714 0.118837
0.645258 0.143832 0.122316
0.685634 0.142489 0.125460
0.722774 0.146792 0.129213
0.757259 0.156649 0.133852
0.788418 0.170993 0.139010
0.816373 0.188540 0.145357
0.841276 0.207095 0.152071
0.863859 0.227115 0.159487
0.884855 0.248417 0.167910
0.904814 0.270542 0.177249
0.923919 0.293370 0.187839
0.942443 0.317449 0.199588
0.960510 0.342168 0.213413
0.071382 0.175784 0.118379
0.074372 0.175906 0.118624
0.080140 0.175631 0.118379
0.088411 0.175570 0.118013
0.096986 0.175357 0.117372
0.107973 0.174807 0.116426
0.121553 0.175753 0.117433
0.138674 0.178897 0.120638
0.156832 0.182834 0.125093
0.176547 0.187594 0.130739
0.213870 0.202548 0.134951
0.257694 0.210666 0.132265
0.306584 0.214969 0.130587
0.359075 0.215732 0.129397
0.413764 0.213382 0.128695
0.463539 0.210239 0.129580
0.511559 0.208408 0.130770
0.559258 0.205722 0.132845
0.604547 0.203647 0.135042
0.646937 0.202914 0.137575
0.685847 0.204410 0.140871
0.721401 0.208957 0.144137
0.754269 0.216220 0.148440
0.784268 0.226383 0.153231
0.811368 0.239078 0.158480
0.835935 0.253086 0.165255
0.858396 0.268833 0.172366
0.879515 0.286259 0.180575
0.899626 0.305333 0.189792
0.919036 0.325475 0.200290
0.937682 0.346960 0.212924
0.955932 0.369360 0.227024
0.085634 0.202762 0.134432
0.086275 0.202609 0.134218
0.089570 0.202640 0.134432
0.096284 0.202121 0.133486
0.104677 0.201938 0.132937
0.115511 0.201297 0.131685
0.128847 0.200412 0.130404
0.145510 0.202976 0.133425
0.164401 0.206943 0.137819
0.185580 0.211887 0.143191
0.207767 0.217563 0.149874
0.247745 0.233951 0.155062
0.295323 0.244114 0.152682
0.347234 0.250034 0.150668
0.402228 0.252964 0.149722
0.459754 0.254276 0.149691
0.516228 0.253269 0.149874
0.562371 0.253208 0.151400
0.606104 0.253422 0.153292
0.647181 0.254246 0.155428
0.684779 0.256718 0.157870
0.719295 0.261112 0.161318
0.751522 0.267796 0.164767
0.780850 0.276249 0.169711
0.807645 0.286564 0.174899
0.831815 0.298528 0.181308
0.854185 0.311894 0.188205
0.875212 0.326390 0.196506
0.895262 0.342657 0.205936
0.914549 0.360357 0.216403
0.933227 0.379248 0.229191
0.951446 0.399207 0.243626
0.096254 0.232609 0.152224
0.096590 0.232700 0.152407
0.099825 0.232517 0.151827
0.105745 0.232181 0.151614
0.114015 0.231632 0.150607
0.125307 0.230716 0.149447
0.137697 0.229526 0.147829
0.153201 0.229191 0.147402
0.173251 0.233249 0.151827
0.194919 0.238041 0.156954
0.217899 0.243870 0.163302
0.242344 0.250492 0.170535
0.294347 0.276646 0.182315
0.349828 0.291508 0.180911
0.408270 0.301640 0.180270
0.467201 0.308080 0.179629
0.524895 0.311803 0.179568
0.579889 0.313848 0.179812
0.627008 0.315221 0.181064
0.665614 0.317815 0.182712
0.700923 0.321355 0.185367
0.733272 0.325841 0.188235
0.762661 0.331884 0.191867
0.789487 0.338903 0.196811
0.813993 0.347417 0.202213
0.836484 0.356481 0.208499
0.857328 0.366796 0.215244
0.877134 0.378119 0.223239
0.896086 0.391089 0.232486
0.914519 0.405219 0.243320
0.932433 0.420783 0.255528
0.950225 0.437446 0.269780
0.109621 0.269566 0.174319
0.110445 0.269627 0.174472
0.113466 0.269078 0.173892
0.119265 0.268345 0.172976
0.127291 0.267247 0.171603
0.138125 0.265873 0.170413
0.151064 0.263706 0.168124
0.165133 0.261814 0.166171
0.183658 0.263432 0.167910
0.206180 0.268406 0.173098
0.230930 0.274632 0.179568
0.258824 0.283696 0.188052
0.288853 0.293797 0.197910
0.337957 0.316838 0.208408
0.395148 0.333104 0.206821
0.452399 0.344121 0.205600
0.508782 0.351446 0.204593
0.563165 0.356207 0.204288
0.613672 0.359442 0.204288
0.660060 0.361883 0.205478
0.695186 0.365118 0.207034
0.726986 0.369116 0.209659
0.755825 0.374212 0.213413
0.782528 0.380133 0.217624
0.806943 0.387243 0.222568
0.829435 0.395148 0.228794
0.850431 0.404211 0.235935
0.870451 0.414099 0.243992
0.889677 0.425330 0.253239
0.908293 0.438025 0.263920
0.926452 0.451728 0.276585
0.944396 0.466468 0.291112
0.123384 0.303685 0.194247
0.124025 0.303593 0.194278
0.127230 0.303014 0.193790
0.132204 0.302007 0.192966
0.140536 0.300786 0.191714
0.150179 0.298924 0.189822
0.162356 0.296910 0.187869
0.176516 0.294530 0.185153
0.192355 0.292271 0.182925
0.216129 0.298039 0.188357
0.241825 0.305394 0.195315
0.269993 0.313725 0.203250
0.300542 0.323369 0.212802
0.332158 0.334051 0.223301
0.381262 0.357305 0.235203
0.437781 0.373877 0.233524
0.492744 0.385107 0.231968
0.545953 0.392889 0.230900
0.596216 0.398871 0.230594
0.642298 0.403418 0.231052
0.684352 0.407416 0.231998
0.721248 0.411444 0.233951
0.749783 0.415869 0.237247
0.776150 0.421180 0.241520
0.800443 0.427192 0.246738
0.822812 0.434028 0.252720
0.843931 0.441535 0.259495
0.863981 0.450141 0.267552
0.883299 0.459785 0.276829
0.902068 0.470680 0.287907
0.920378 0.482643 0.300633
0.938476 0.495766 0.315373
0.140200 0.341863 0.216861
0.141146 0.341772 0.216892
0.143862 0.341314 0.216342
0.149355 0.340093 0.215213
0.156497 0.338720 0.213962
0.166384 0.336828 0.212161
0.178408 0.334508 0.209995
0.192172 0.331975 0.207645
0.207034 0.328740 0.204349
0.226139 0.328832 0.204318
0.252415 0.335729 0.210910
0.281010 0.343847 0.218936
0.311254 0.352880 0.227878
0.343053 0.362982 0.238132
0.375250 0.373480 0.249241
0.423041 0.396399 0.262608
0.477699 0.413092 0.260838
0.529351 0.424414 0.259281
0.579004 0.432868 0.258335
0.625055 0.439582 0.258183
0.667506 0.445289 0.259129
0.706508 0.450782 0.261234
0.741817 0.455726 0.264500
0.769833 0.460304 0.268376
0.793790 0.465339 0.273381
0.816159 0.471046 0.279515
0.837278 0.477485 0.286351
0.857572 0.485084 0.294499
0.877165 0.493721 0.304173
0.896208 0.503441 0.315435
0.914855 0.514336 0.328862
0.933227 0.526513 0.344121
0.162875 0.381109 0.240787
0.163363 0.380926 0.240482
0.165652 0.380591 0.240360
0.170596 0.379461 0.239384
0.177127 0.378058 0.238041
0.186557 0.376043 0.236118
0.197726 0.373632 0.233799
0.210880 0.370825 0.231022
0.225559 0.367285 0.227665
0.240970 0.363531 0.224094
0.264714 0.367132 0.227787
0.292607 0.374304 0.235111
0.322179 0.382330 0.243412
0.352941 0.391089 0.252995
0.384009 0.400519 0.263371
0.415564 0.410437 0.274937
0.461067 0.432593 0.289921
0.512932 0.449287 0.288670
0.561517 0.460975 0.287419
0.607568 0.469978 0.286961
0.650294 0.477943 0.287938
0.689998 0.485145 0.289677
0.725917 0.491371 0.293339
0.758480 0.496986 0.297887
0.787747 0.502037 0.303593
0.809995 0.506950 0.309514
0.831174 0.512688 0.316838
0.851530 0.519188 0.324834
0.871153 0.526574 0.334661
0.890135 0.535058 0.345586
0.908751 0.544457 0.358648
0.927123 0.555016 0.373602
0.188846 0.418402 0.264897
0.189822 0.418250 0.264897
0.191073 0.417731 0.264286
0.195102 0.416693 0.263157
0.201236 0.415198 0.262028
0.209262 0.413153 0.259770
0.219242 0.410712 0.257420
0.231724 0.407599 0.254673
0.244724 0.403723 0.250797
0.258946 0.399359 0.246860
0.275425 0.395758 0.243442
0.303044 0.402502 0.250553
0.332036 0.410010 0.258793
0.362005 0.418250 0.267918
0.392676 0.426917 0.278019
0.423713 0.436194 0.289311
0.454353 0.446235 0.301427
0.497658 0.467994 0.318791
0.546532 0.484535 0.318181
0.591516 0.496315 0.317571
0.634119 0.506340 0.318242
0.674159 0.515068 0.320073
0.710475 0.522423 0.323522
0.743496 0.528862 0.328161
0.773617 0.534630 0.334447
0.801297 0.540124 0.341436
0.825040 0.545495 0.349157
0.845365 0.551263 0.357397
0.865019 0.557916 0.366796
0.884031 0.565515 0.378088
0.902770 0.573999 0.390967
0.921263 0.583429 0.405768
0.219516 0.455360 0.290776
0.219547 0.455543 0.290959
0.231357 0.465614 0.298253
0.234531 0.464637 0.297490
0.239170 0.463050 0.295659
0.246342 0.460792 0.293614
0.254887 0.457801 0.290532
0.264683 0.454353 0.286992
0.276341 0.450324 0.283055
0.289036 0.445350 0.278202
0.302464 0.439796 0.272953
0.323186 0.439765 0.273472
0.351690 0.446571 0.281559
0.381048 0.453895 0.290471
0.410803 0.461677 0.300298
0.440467 0.469917 0.311315
0.470222 0.478584 0.322820
0.499275 0.487922 0.335546
0.538476 0.508141 0.354467
0.583154 0.523980 0.354406
0.624506 0.535546 0.354314
0.663294 0.545434 0.355993
0.699062 0.553552 0.359197
0.731685 0.560357 0.363745
0.761410 0.566064 0.369238
0.788937 0.571435 0.375860
0.814694 0.576776 0.383520
0.839139 0.582300 0.392309
0.858976 0.587976 0.401282
0.877928 0.594598 0.411994
0.896574 0.602167 0.424598
0.915038 0.610620 0.438972
0.254734 0.494087 0.320378
0.256474 0.494972 0.321080
0.258549 0.495460 0.321294
0.262150 0.495460 0.320958
0.267094 0.494697 0.320287
0.273045 0.492592 0.317784
0.280339 0.489876 0.315068
0.288670 0.486183 0.311162
0.298589 0.482124 0.306920
0.309697 0.477028 0.301640
0.321447 0.471534 0.296117
0.334142 0.465034 0.289830
0.359808 0.469856 0.295872
0.388220 0.476753 0.304601
0.417090 0.484230 0.314427
0.446235 0.492103 0.325048
0.475349 0.500420 0.336370
0.504021 0.509270 0.348913
0.532097 0.518761 0.362676
0.568872 0.538628 0.383124
0.610193 0.554192 0.385016
0.648890 0.566339 0.386816
0.684474 0.575982 0.390112
0.717128 0.583948 0.394537
0.747158 0.590600 0.399939
0.774868 0.596643 0.406592
0.800931 0.602411 0.414374
0.825711 0.608301 0.423224
0.849424 0.614435 0.433539
0.871122 0.620996 0.445136
0.889830 0.627955 0.457221
0.908385 0.635889 0.471473
0.287236 0.525902 0.346654
0.288334 0.526665 0.347021
0.290715 0.527184 0.347387
0.293797 0.527398 0.347417
0.297917 0.526543 0.346197
0.303105 0.524865 0.344305
0.309026 0.522148 0.341344
0.316014 0.518700 0.337530
0.324681 0.514794 0.333318
0.334081 0.509880 0.328008
0.344121 0.504204 0.321813
0.355077 0.498116 0.315404
0.370428 0.494331 0.311833
0.398138 0.500908 0.320623
0.426093 0.507866 0.330205
0.454444 0.515251 0.340490
0.482856 0.523064 0.352026
0.510765 0.531334 0.364202
0.537957 0.540215 0.377478
0.564446 0.549676 0.392096
0.598627 0.568780 0.413336
0.635920 0.583490 0.417395
0.671138 0.595056 0.420722
0.703731 0.604517 0.425422
0.733608 0.612238 0.430976
0.761501 0.619104 0.437415
0.787716 0.625483 0.445045
0.812680 0.631891 0.453864
0.836637 0.638422 0.464363
0.859709 0.645350 0.476387
0.882170 0.652613 0.489906
0.901762 0.660212 0.504021
0.321324 0.556817 0.374029
0.323033 0.557610 0.374914
0.324773 0.558068 0.375250
0.327581 0.558099 0.375006
0.331273 0.557458 0.374243
0.334966 0.555749 0.372198
0.339849 0.553246 0.368994
0.345830 0.550103 0.365332
0.352514 0.546227 0.360632
0.360601 0.541772 0.355383
0.369329 0.536461 0.349279
0.378637 0.530388 0.342260
0.388373 0.523278 0.334264
0.409125 0.524743 0.337102
0.436591 0.531334 0.346685
0.464210 0.538415 0.357183
0.491951 0.545953 0.368688
0.519432 0.554162 0.381262
0.546502 0.562921 0.395148
0.572625 0.572473 0.410040
0.597894 0.582483 0.426001
0.629450 0.600885 0.448798
0.662165 0.614527 0.455818
0.694423 0.625849 0.461036
0.724147 0.635187 0.467262
0.751858 0.643336 0.474495
0.778195 0.650752 0.482612
0.803220 0.657984 0.491737
0.827237 0.665217 0.502525
0.850553 0.672572 0.514763
0.873136 0.680201 0.528527
0.895171 0.688167 0.543694
0.365057 0.592035 0.409216
0.365545 0.592248 0.409369
0.366491 0.592096 0.409125
0.367864 0.591547 0.408209
0.370245 0.590265 0.406653
0.373083 0.588464 0.404303
0.376684 0.585901 0.401007
0.381140 0.582971 0.397192
0.386725 0.579400 0.392645
0.393225 0.575219 0.387243
0.400244 0.570184 0.380896
0.408057 0.564630 0.373846
0.416236 0.558160 0.365942
0.425147 0.550988 0.357366
0.451392 0.557092 0.366827
0.478096 0.563531 0.377111
0.504448 0.570581 0.388495
0.530663 0.578027 0.400885
0.556115 0.586023 0.414282
0.580865 0.594415 0.428656
0.604578 0.603143 0.443793
0.627070 0.612207 0.460029
0.654841 0.628626 0.482582
0.683345 0.640558 0.490608
0.712428 0.651026 0.496468
0.739895 0.660304 0.503655
0.766171 0.668849 0.511803
0.791257 0.676905 0.521111
0.815518 0.684840 0.531853
0.838956 0.692714 0.543847
0.861753 0.700771 0.557305
0.884245 0.708888 0.571801
0.401526 0.619928 0.439734
0.401862 0.620081 0.439765
0.402838 0.619928 0.439551
0.404028 0.619471 0.438788
0.405951 0.618433 0.437415
0.408118 0.616815 0.435096
0.410803 0.614618 0.431861
0.414221 0.611841 0.427771
0.418677 0.608637 0.423285
0.424048 0.604700 0.417670
0.429786 0.600397 0.411719
0.436316 0.595239 0.404608
0.443153 0.589044 0.396368
0.450172 0.582177 0.387274
0.465187 0.580224 0.385687
0.490578 0.586450 0.396216
0.515984 0.593133 0.407599
0.541009 0.600183 0.419959
0.565270 0.607507 0.433204
0.588891 0.615229 0.447547
0.611444 0.623285 0.462562
0.633051 0.631617 0.478523
0.653559 0.640192 0.495277
0.678492 0.655268 0.517693
0.701442 0.663874 0.523705
0.728298 0.674067 0.530327
0.754452 0.683742 0.538506
0.779477 0.692836 0.547814
0.803891 0.701534 0.558190
0.827604 0.710079 0.569879
0.850767 0.718715 0.583062
0.873686 0.727382 0.597284
0.441749 0.648402 0.474678
0.442725 0.648768 0.475441
0.443244 0.648676 0.475074
0.443854 0.647974 0.473945
0.444678 0.646754 0.472023
0.445655 0.644953 0.469123
0.447181 0.642603 0.465461
0.449195 0.639857 0.461097
0.451942 0.636591 0.456062
0.455543 0.632807 0.450263
0.459754 0.628595 0.443824
0.464363 0.623529 0.436042
0.469856 0.617914 0.427863
0.475257 0.611505 0.418372
0.481147 0.604028 0.407813
0.501244 0.606744 0.413519
0.524834 0.612512 0.424262
0.548486 0.618677 0.436255
0.571588 0.625391 0.449287
0.594354 0.632624 0.463600
0.616175 0.640162 0.478462
0.637079 0.647974 0.494209
0.656672 0.655787 0.510155
0.675105 0.663630 0.526543
0.697261 0.677455 0.548516
0.719539 0.687465 0.558526
0.744320 0.697353 0.565026
0.769131 0.707240 0.573663
0.793362 0.716609 0.583307
0.817105 0.725826 0.594507
0.840574 0.734920 0.606928
0.863737 0.744167 0.620813
0.474220 0.670893 0.504631
0.474891 0.671229 0.505089
0.475593 0.671199 0.504967
0.476234 0.670741 0.504234
0.476905 0.669795 0.502464
0.477913 0.668482 0.500206
0.479316 0.666712 0.497169
0.481422 0.664637 0.493568
0.483742 0.662104 0.489143
0.486732 0.659052 0.483803
0.490150 0.655512 0.477760
0.493874 0.651270 0.470527
0.498329 0.646509 0.462684
0.502861 0.640864 0.453315
0.507500 0.634211 0.442603
0.515892 0.629206 0.435218
0.537957 0.634363 0.445960
0.560082 0.640009 0.457801
0.581964 0.646082 0.470558
0.603388 0.652644 0.484260
0.624170 0.659541 0.499031
0.644129 0.666682 0.514397
0.663050 0.674006 0.530175
0.680781 0.681422 0.546532
0.697414 0.689021 0.562615
0.717983 0.702266 0.583581
0.738186 0.712062 0.594293
0.761563 0.721950 0.601129
0.785641 0.732418 0.610620
0.809323 0.742458 0.621454
0.832914 0.752285 0.633570
0.856291 0.762081 0.646967
0.509026 0.694209 0.538201
0.509300 0.694392 0.538506
0.509758 0.694270 0.538231
0.510063 0.693721 0.537224
0.510430 0.692927 0.535637
0.511162 0.691768 0.533471
0.511833 0.690211 0.530449
0.512963 0.688289 0.526696
0.514641 0.686061 0.522606
0.516564 0.683253 0.517266
0.519097 0.680079 0.511376
0.521935 0.676417 0.504509
0.525170 0.672175 0.496681
0.528771 0.667323 0.487831
0.532647 0.661524 0.477638
0.536797 0.655146 0.466468
0.550561 0.654780 0.467201
0.571435 0.659998 0.478981
0.592096 0.665553 0.491463
0.612329 0.671534 0.504906
0.632166 0.677913 0.519371
0.651179 0.684535 0.534478
0.669245 0.691341 0.549798
0.686366 0.698421 0.565393
0.702602 0.705562 0.580713
0.717952 0.712825 0.595941
0.737118 0.725521 0.615473
0.755642 0.735042 0.626673
0.777798 0.744717 0.633478
0.801480 0.755795 0.643946
0.825101 0.766506 0.655756
0.848539 0.776822 0.668574
0.540215 0.716030 0.570245
0.540368 0.716121 0.570397
0.540673 0.716030 0.570062
0.540978 0.715694 0.569390
0.541588 0.715114 0.568261
0.542321 0.714229 0.566491
0.543664 0.713313 0.564599
0.545434 0.712154 0.562158
0.547417 0.710719 0.559167
0.549859 0.708980 0.555535
0.552667 0.706905 0.551232
0.555627 0.704341 0.545800
0.558709 0.701259 0.539483
0.561883 0.697444 0.531701
0.565240 0.692988 0.522698
0.568444 0.687648 0.511986
0.572137 0.681605 0.500175
0.590845 0.685847 0.510735
0.610101 0.691005 0.523278
0.629145 0.696620 0.536858
0.647578 0.702571 0.550896
0.665400 0.708858 0.565301
0.682399 0.715328 0.579706
0.698604 0.721981 0.594263
0.714137 0.728756 0.608728
0.728878 0.735714 0.623041
0.743038 0.742794 0.637201
0.760922 0.754971 0.655299
0.777981 0.764126 0.666682
0.798917 0.773373 0.673518
0.822171 0.784604 0.684718
0.845518 0.795438 0.697169
0.575433 0.742611 0.609003
0.575402 0.742580 0.608789
0.575372 0.742336 0.608331
0.575555 0.741939 0.607599
0.575769 0.741238 0.606287
0.576196 0.740322 0.604486
0.576837 0.739223 0.602472
0.577630 0.737789 0.599512
0.578729 0.736110 0.596246
0.580133 0.734157 0.592279
0.581811 0.731838 0.587701
0.583795 0.729213 0.582422
0.585870 0.726101 0.576013
