20 Preset/White Style/【3】LUT video cho PR-AE-FCPX/Tone1 (1).cube
# Created by Adobe Lightroom plugin Export LUT (1.24.0)
# www.johnrellis.com/lightroom/exportlut.htm
# Preset: 米白色调-素材江湖03-深圳市江湖客形象设计有限公司版权所有
# Color profile: C:\Program Files (x86)\Common Files\Adobe\Color\Profiles\Recommended\VideoHD.icc
LUT_3D_SIZE 5
DOMAIN_MIN 0.000000 0.000000 0.000000
DOMAIN_MAX 0.903226 0.903226 0.903226
0.015686 0.025544 0.019928
0.142947 0.049958 0.037018
0.407446 0.000000 0.046479
0.725429 0.000000 0.069978
0.912566 0.000000 0.129397
0.054200 0.129152 0.092073
0.125124 0.136934 0.099489
0.412207 0.136690 0.098390
0.724300 0.000000 0.116304
0.908568 0.233249 0.165743
0.140200 0.341863 0.216861
0.192172 0.331975 0.207645
0.375250 0.373480 0.249241
0.706508 0.450782 0.261234
0.877165 0.493721 0.304173
0.365057 0.592035 0.409216
0.381140 0.582971 0.397192
0.451392 0.557092 0.366827
0.627070 0.612207 0.460029
0.815518 0.684840 0.531853
0.602045 0.765591 0.640406
0.604517 0.761685 0.632776
0.609705 0.739437 0.589929
0.683070 0.745846 0.607111
0.782650 0.790341 0.698756
0.041108 0.090272 0.119234
0.127535 0.107057 0.128450
0.397101 0.000000 0.147219
0.702815 0.000000 0.174929
0.894530 0.135836 0.208560
0.075013 0.157717 0.154147
0.158389 0.175967 0.169009
0.413092 0.176699 0.179965
0.705043 0.159487 0.199893
0.890318 0.263127 0.233616
0.187381 0.373571 0.276219
0.239506 0.370855 0.274998
0.388678 0.388586 0.294804
0.699794 0.455238 0.312810
0.868009 0.502739 0.354040
0.404761 0.610651 0.457557
0.422126 0.602960 0.448951
0.466407 0.567071 0.400916
0.631739 0.619654 0.489601
0.814115 0.688624 0.555138
0.613916 0.772305 0.661524
0.615656 0.768154 0.653712
0.625177 0.751156 0.620447
0.686671 0.750515 0.622187
0.785855 0.795254 0.711208
0.000000 0.175875 0.316320
0.173434 0.201938 0.331914
0.408453 0.279637 0.375341
0.704494 0.308202 0.431312
0.871305 0.263188 0.385779
0.107027 0.237430 0.337377
0.208957 0.263127 0.355566
0.427161 0.336950 0.397223
0.700038 0.340734 0.430854
0.871183 0.327794 0.399939
0.233799 0.441382 0.429633
0.301579 0.449165 0.435370
0.480079 0.484810 0.464515
0.692378 0.489540 0.462440
0.850614 0.524102 0.481575
0.507286 0.660121 0.589776
0.518791 0.655634 0.584741
0.559960 0.639307 0.564813
0.650965 0.649256 0.583124
0.816129 0.700923 0.623774
0.634882 0.793912 0.715999
0.641321 0.792111 0.714290
0.659022 0.779171 0.697993
0.683864 0.753475 0.651484
0.786770 0.799924 0.735714
0.198520 0.336767 0.564996
0.290959 0.359686 0.576104
0.514855 0.449561 0.613489
0.678920 0.545434 0.647242
0.811246 0.635584 0.707179
0.237919 0.378393 0.567773
0.318639 0.400885 0.579248
0.520073 0.479377 0.614893
0.676020 0.566552 0.649683
0.809354 0.638453 0.704982
0.298772 0.494270 0.587701
0.343114 0.496407 0.587396
0.521233 0.549126 0.619623
0.672938 0.625574 0.662928
0.811521 0.647547 0.696223
0.516564 0.678401 0.679652
0.534569 0.679072 0.680018
0.598322 0.685603 0.685878
0.688106 0.701808 0.700893
0.820859 0.699580 0.693538
0.695430 0.835843 0.811307
0.698909 0.834958 0.809964
0.711452 0.830076 0.802304
0.727016 0.806332 0.770260
0.796323 0.816403 0.785092
0.480751 0.559045 0.762417
0.514244 0.571283 0.765347
0.618494 0.620844 0.779751
0.731502 0.696498 0.806363
0.809537 0.740291 0.823575
0.478706 0.568414 0.758572
0.515740 0.582971 0.762417
0.616999 0.628382 0.777157
0.729397 0.700404 0.804685
0.808316 0.744900 0.823697
0.433936 0.589258 0.749905
0.475990 0.600397 0.753384
0.603754 0.650263 0.772274
0.723354 0.716304 0.803616
0.810208 0.768124 0.831113
0.527764 0.705989 0.785641
0.537377 0.704219 0.784054
0.577722 0.698909 0.780179
0.699184 0.735317 0.803189
0.821897 0.811215 0.850797
0.661830 0.833310 0.849271
0.668482 0.833768 0.849546
0.698421 0.837675 0.852506
0.751522 0.844541 0.857572
0.828061 0.855467 0.865599
