20 Preset/White Style/【3】LUT video cho PR-AE-FCPX/Tone1 (1).cube
# Created by Adobe Lightroom plugin Export LUT (1.24.0)
# www.johnrellis.com/lightroom/exportlut.htm
# Preset: 米白色调-素材江湖03-深圳市江湖客形象设计有限公司版权所有
# Color profile: C:\Program Files (x86)\Common Files\Adobe\Color\Profiles\Recommended\VideoHD.icc
LUT_3D_SIZE 8
DOMAIN_MIN 0.000000 0.000000 0.000000
DOMAIN_MAX 0.903226 0.903226 0.903226
0.015686 0.025544 0.019928
0.078676 0.037263 0.024994
0.170871 0.046357 0.038880
0.316655 0.000000 0.045655
0.502770 0.000000 0.048188
0.683986 0.000000 0.062440
0.821347 0.000000 0.095735
0.912566 0.000000 0.129397
0.031037 0.079988 0.047059
0.062562 0.084016 0.052338
0.167361 0.091920 0.056275
0.310948 0.034638 0.059052
0.495155 0.000000 0.063508
0.674861 0.000000 0.080446
0.810025 0.000000 0.102663
0.904997 0.026429 0.134463
0.059480 0.150912 0.103883
0.091066 0.151095 0.103212
0.148989 0.161044 0.113832
0.318395 0.182620 0.111727
0.507652 0.162692 0.114717
0.685634 0.142489 0.125460
0.816373 0.188540 0.145357
0.904814 0.270542 0.177249
0.109621 0.269566 0.174319
0.127291 0.267247 0.171603
0.183658 0.263432 0.167910
0.288853 0.293797 0.197910
0.508782 0.351446 0.204593
0.695186 0.365118 0.207034
0.806943 0.387243 0.222568
0.889677 0.425330 0.253239
0.188846 0.418402 0.264897
0.201236 0.415198 0.262028
0.244724 0.403723 0.250797
0.332036 0.410010 0.258793
0.454353 0.446235 0.301427
0.634119 0.506340 0.318242
0.773617 0.534630 0.334447
0.865019 0.557916 0.366796
0.321324 0.556817 0.374029
0.331273 0.557458 0.374243
0.352514 0.546227 0.360632
0.388373 0.523278 0.334264
0.491951 0.545953 0.368688
0.597894 0.582483 0.426001
0.724147 0.635187 0.467262
0.827237 0.665217 0.502525
0.474220 0.670893 0.504631
0.476905 0.669795 0.502464
0.483742 0.662104 0.489143
0.498329 0.646509 0.462684
0.537957 0.634363 0.445960
0.624170 0.659541 0.499031
0.697414 0.689021 0.562615
0.785641 0.732418 0.610620
0.602045 0.765591 0.640406
0.602625 0.764553 0.638422
0.605646 0.760311 0.630030
0.612268 0.751827 0.612757
0.615473 0.731228 0.572290
0.666651 0.739773 0.593561
0.728878 0.764797 0.647364
0.782650 0.790341 0.698756
0.027985 0.053956 0.066590
0.063264 0.064454 0.069001
0.168307 0.059022 0.082399
0.305852 0.012421 0.093568
0.487587 0.000000 0.100526
0.666529 0.000000 0.110445
0.802090 0.000000 0.126711
0.898924 0.000000 0.152346
0.037568 0.090059 0.081819
0.079805 0.095491 0.088319
0.170016 0.101045 0.094392
0.307652 0.086610 0.100862
0.488167 0.000000 0.107820
0.665003 0.000000 0.117891
0.797330 0.000000 0.132967
0.893980 0.085206 0.157107
0.086061 0.161013 0.125643
0.104311 0.163760 0.127535
0.158358 0.171481 0.135073
0.320378 0.190372 0.136904
0.499489 0.177615 0.141695
0.670680 0.160800 0.150912
0.798856 0.190219 0.165743
0.892607 0.264866 0.191684
0.123903 0.276371 0.191684
0.141512 0.274723 0.190524
0.190829 0.268528 0.183139
0.288243 0.294011 0.209995
0.492836 0.342687 0.215122
0.673762 0.353368 0.218051
0.790860 0.374578 0.230411
0.878782 0.414679 0.258335
0.205112 0.424933 0.281407
0.215152 0.421180 0.277714
0.253849 0.408453 0.265202
0.332097 0.408545 0.267277
0.448554 0.441535 0.306767
0.626215 0.499916 0.322820
0.767422 0.528893 0.339055
0.858824 0.552575 0.369482
0.328557 0.557488 0.383581
0.334173 0.555261 0.380957
0.355474 0.544854 0.368261
0.390417 0.523217 0.342748
0.489601 0.543328 0.373266
0.595636 0.580987 0.430610
0.721462 0.633051 0.470161
0.824277 0.662348 0.503655
0.475013 0.669520 0.508537
0.475441 0.667140 0.504509
0.481971 0.659327 0.491096
0.496986 0.644404 0.465858
0.535058 0.631647 0.447211
0.621271 0.656825 0.499367
0.693935 0.685481 0.560876
0.782193 0.728298 0.607111
0.600671 0.763821 0.640803
0.602136 0.763455 0.639826
0.604822 0.759030 0.631220
0.611444 0.750607 0.614130
0.621027 0.735683 0.583001
0.667659 0.741054 0.597894
0.728481 0.764523 0.648859
0.782162 0.790036 0.699825
0.039155 0.098024 0.140780
0.082948 0.102724 0.143374
0.155032 0.123110 0.154635
0.315160 0.125673 0.184787
0.493050 0.000000 0.176638
0.671168 0.000000 0.193393
0.801083 0.000000 0.212863
0.895720 0.172183 0.233951
0.052735 0.118868 0.152071
0.095003 0.125307 0.156680
0.164096 0.145113 0.166232
0.318639 0.142611 0.188266
0.495369 0.040620 0.181918
0.667506 0.000000 0.200687
0.796567 0.059419 0.216220
0.891539 0.200443 0.237369
0.090852 0.188754 0.185855
0.117006 0.193301 0.189273
0.194644 0.212314 0.204654
0.338659 0.215305 0.208316
0.512413 0.213870 0.217746
0.673762 0.216129 0.229282
0.795773 0.246647 0.243381
0.886809 0.306432 0.265232
0.164889 0.313024 0.256352
0.183200 0.315160 0.258244
0.239292 0.319585 0.261082
0.325200 0.331853 0.273106
0.521141 0.370336 0.282322
0.675776 0.381353 0.289036
0.788418 0.403449 0.301915
0.874327 0.439338 0.324956
0.253574 0.458381 0.342535
0.265812 0.457649 0.341863
0.309270 0.451545 0.337896
0.363287 0.436072 0.321050
0.475380 0.469154 0.361883
0.638087 0.519188 0.377691
0.769253 0.542962 0.395148
0.853849 0.564294 0.419409
0.369543 0.580957 0.435370
0.377142 0.580255 0.434760
0.402808 0.571557 0.428138
0.428107 0.550072 0.400275
0.504387 0.555718 0.411810
0.603754 0.592004 0.466773
0.722744 0.640314 0.503349
0.823941 0.669306 0.536004
0.507256 0.684138 0.551171
0.511589 0.682216 0.550561
0.514153 0.674464 0.536645
0.523033 0.659754 0.510491
0.543114 0.637873 0.474281
0.627100 0.663081 0.525231
0.698085 0.692653 0.585107
0.785306 0.735256 0.628260
0.614862 0.772183 0.665095
0.614923 0.770840 0.662715
0.616938 0.766354 0.654292
0.623163 0.758633 0.639002
0.631037 0.743648 0.609003
0.669276 0.743648 0.610803
0.730251 0.767758 0.660731
0.784054 0.793423 0.710536
0.000000 0.142611 0.249180
0.079988 0.149538 0.254063
0.188388 0.178164 0.269535
0.308171 0.215854 0.290684
0.506310 0.257969 0.347234
0.672847 0.186831 0.332464
0.785336 0.131075 0.308171
0.882506 0.223392 0.325780
0.052918 0.167514 0.260655
0.108003 0.174594 0.265934
0.201389 0.200198 0.279820
0.317418 0.235966 0.300359
0.511101 0.270817 0.351934
0.671931 0.203067 0.332616
0.786526 0.158846 0.309758
0.881315 0.249821 0.331212
0.100435 0.228153 0.284428
0.128603 0.231968 0.286961
0.221897 0.256535 0.304387
0.340917 0.296208 0.326513
0.523552 0.307591 0.359197
0.669886 0.263523 0.334630
0.792264 0.292607 0.345037
0.878874 0.347112 0.362921
0.164950 0.351598 0.343725
0.189151 0.354437 0.345556
0.269261 0.367254 0.355016
0.386267 0.395239 0.377447
0.538781 0.395300 0.375433
0.671595 0.405554 0.381170
0.778592 0.427771 0.392554
0.864378 0.460639 0.409522
0.337255 0.514153 0.446998
0.347601 0.513420 0.446387
0.385901 0.511528 0.445136
0.439734 0.505821 0.438575
0.516625 0.513970 0.449775
0.658350 0.548150 0.462684
0.763790 0.561700 0.473579
0.846464 0.579339 0.489296
0.446967 0.619928 0.525750
0.455207 0.621302 0.527489
0.473457 0.616846 0.522576
0.503166 0.605035 0.509300
0.536370 0.585351 0.482826
0.622339 0.616419 0.531121
0.728573 0.656001 0.559777
0.825559 0.680873 0.586511
0.545953 0.704891 0.608972
0.548852 0.704311 0.608423
0.559136 0.700893 0.604517
0.574121 0.690364 0.591516
0.580133 0.667201 0.550896
0.638544 0.675959 0.570397
0.704677 0.704311 0.622766
0.790036 0.744625 0.658686
0.630304 0.788357 0.699916
0.631678 0.787686 0.699123
0.637415 0.784817 0.695766
0.646143 0.776333 0.684871
0.650660 0.761013 0.656611
0.670344 0.747738 0.631556
0.732509 0.772702 0.680018
0.787503 0.799588 0.729152
0.010620 0.215396 0.388251
0.107851 0.222477 0.393011
0.226078 0.249790 0.408881
0.375341 0.306340 0.438941
0.508019 0.354589 0.463233
0.658686 0.449470 0.529015
0.774533 0.404761 0.515831
0.861173 0.371527 0.486397
0.095674 0.237095 0.395727
0.137728 0.244602 0.401526
0.240909 0.269627 0.416175
0.383124 0.323064 0.444526
0.511467 0.369329 0.467964
0.658259 0.459327 0.531975
0.773281 0.411048 0.515740
0.859068 0.377569 0.485237
0.135439 0.286900 0.406989
0.166598 0.293553 0.411872
0.266545 0.322728 0.431647
0.400031 0.371191 0.458198
0.519005 0.416236 0.481453
0.655177 0.474128 0.531426
0.767422 0.429725 0.510979
0.848783 0.394812 0.475471
0.195346 0.388800 0.447242
0.216464 0.390906 0.448157
0.288487 0.400427 0.453712
0.414923 0.437812 0.479652
0.537591 0.489509 0.510277
0.660060 0.502434 0.533593
0.760403 0.459174 0.498421
0.852079 0.466194 0.491218
0.319402 0.524773 0.512016
0.334356 0.526421 0.513329
0.387762 0.532189 0.517998
0.469215 0.543816 0.527855
0.558404 0.562158 0.544274
0.662257 0.558862 0.537865
0.754574 0.564965 0.539422
0.837858 0.579156 0.547387
0.498512 0.647150 0.602502
0.506615 0.648157 0.604120
0.533623 0.650233 0.608087
0.557183 0.643702 0.600244
0.584131 0.631281 0.583673
0.638544 0.640009 0.596216
0.737026 0.669703 0.615534
0.823850 0.684321 0.628809
0.589258 0.730617 0.676234
0.590356 0.729458 0.674647
0.596185 0.725948 0.669673
0.610651 0.720272 0.662287
0.627131 0.706111 0.644129
0.645960 0.687343 0.614710
0.710597 0.715938 0.661616
0.795102 0.751736 0.688746
0.642969 0.803372 0.737789
0.644617 0.802762 0.737179
0.651240 0.800443 0.734920
0.664546 0.797086 0.731472
0.676020 0.785245 0.715999
0.678798 0.761410 0.673915
0.731411 0.775814 0.699886
0.788846 0.803769 0.747890
0.167208 0.312871 0.535210
0.200504 0.319799 0.539208
0.299626 0.345464 0.551568
0.436622 0.397009 0.575189
0.572534 0.475166 0.606439
0.656641 0.512902 0.618769
0.740597 0.593652 0.664118
0.822477 0.598322 0.676997
0.186587 0.326238 0.533989
0.214633 0.332372 0.537011
0.305425 0.355627 0.548425
0.434821 0.402930 0.570581
0.568811 0.478248 0.602441
0.653498 0.516289 0.616480
0.737881 0.595392 0.662531
0.820798 0.597101 0.674128
0.222690 0.371618 0.541680
0.247318 0.377539 0.544915
0.333684 0.403235 0.559045
0.449378 0.443336 0.577813
0.574029 0.510399 0.608698
0.654292 0.547448 0.624659
0.735744 0.616541 0.670375
0.819821 0.605035 0.674098
0.252110 0.437690 0.553185
0.267613 0.438575 0.553002
0.336919 0.452094 0.560357
0.465675 0.501122 0.591424
0.584771 0.559716 0.623285
0.660243 0.597436 0.643122
0.737423 0.646998 0.684596
0.821317 0.616541 0.671778
0.352422 0.549523 0.595270
0.363561 0.550256 0.595605
0.406287 0.553918 0.597467
0.473457 0.560632 0.601617
0.574975 0.591943 0.624262
0.660548 0.636011 0.654383
0.739101 0.647028 0.673335
0.822568 0.607874 0.640833
0.480446 0.651240 0.648676
0.488746 0.652674 0.650080
0.514275 0.654536 0.651759
0.556725 0.658686 0.655390
0.608545 0.665431 0.661463
0.667384 0.678309 0.673854
0.744656 0.675929 0.668849
0.824063 0.679561 0.669154
0.612299 0.749660 0.729915
0.616510 0.750729 0.731228
0.630915 0.753262 0.734493
0.657740 0.758602 0.741360
0.675257 0.753628 0.734554
0.685481 0.733852 0.708156
0.725063 0.738491 0.715023
0.810208 0.766720 0.734035
0.683131 0.828855 0.796567
0.683619 0.828244 0.795712
0.686976 0.826566 0.793240
0.693812 0.823575 0.788388
0.703639 0.816526 0.778134
0.714595 0.800259 0.757015
0.731136 0.782467 0.728359
0.794186 0.813138 0.776425
0.318181 0.428321 0.660334
0.338231 0.434760 0.663142
0.404242 0.455024 0.669642
0.504509 0.496345 0.683253
0.606348 0.555627 0.702083
0.690517 0.624720 0.726680
0.739742 0.641810 0.731807
0.796963 0.690578 0.760952
0.319951 0.433204 0.655848
0.340154 0.439734 0.659022
0.403998 0.459144 0.665705
0.500938 0.497505 0.678523
0.601648 0.554223 0.697139
0.685756 0.621302 0.721187
0.734829 0.637629 0.725765
0.792416 0.685939 0.755123
0.337804 0.464607 0.658259
0.355718 0.469795 0.660212
0.419532 0.490364 0.667720
0.509178 0.524407 0.680232
0.604700 0.574670 0.698360
0.686763 0.635828 0.723812
0.736477 0.655360 0.732509
0.795377 0.702541 0.764614
0.338506 0.502922 0.657496
0.354284 0.506279 0.658747
0.416449 0.523369 0.666224
0.516716 0.561730 0.683406
0.609552 0.606073 0.703212
0.690242 0.660548 0.731319
0.739834 0.682368 0.743740
0.798215 0.724727 0.776028
0.389868 0.575769 0.673243
0.396185 0.574792 0.672084
0.425177 0.574243 0.670588
0.478004 0.575891 0.670558
0.596338 0.626032 0.699336
0.683894 0.676173 0.730373
0.738369 0.704677 0.749203
0.802060 0.749325 0.788144
0.491920 0.664820 0.709133
0.496986 0.665187 0.709377
0.516777 0.666102 0.709743
0.550683 0.667567 0.710353
0.594812 0.668696 0.710658
0.671870 0.695094 0.732174
0.744503 0.738705 0.765530
0.810819 0.749447 0.782437
0.586786 0.746273 0.757321
0.590478 0.747036 0.758114
0.602808 0.748135 0.758968
0.626246 0.750698 0.761135
0.658656 0.754177 0.763912
0.698665 0.759792 0.768460
0.745815 0.769039 0.776272
0.818631 0.765621 0.770565
0.681514 0.833066 0.823636
0.684199 0.833677 0.824308
0.696071 0.836820 0.827756
0.716243 0.841215 0.832578
0.745266 0.847654 0.839719
0.763577 0.845823 0.836515
0.764279 0.823423 0.807797
0.805661 0.829252 0.815305
0.480751 0.559045 0.762417
0.490974 0.563165 0.763760
0.525719 0.575769 0.766445
0.584985 0.603113 0.774289
0.652064 0.640467 0.785977
0.716213 0.684352 0.801633
0.773648 0.733608 0.821500
0.809537 0.740291 0.823575
0.478889 0.560143 0.759609
0.489143 0.564263 0.761044
0.524498 0.577417 0.764431
0.582910 0.603632 0.772061
0.650111 0.640436 0.783932
0.714504 0.684016 0.799863
0.771908 0.732784 0.819669
0.807523 0.738949 0.821469
0.475776 0.570550 0.757259
0.486946 0.574823 0.758480
0.525719 0.589929 0.762264
0.584985 0.616358 0.771908
0.649989 0.649714 0.783536
0.713313 0.690272 0.799313
0.771420 0.738308 0.820127
0.807370 0.745724 0.823087
0.456886 0.583612 0.753109
0.468849 0.587610 0.754574
0.511467 0.602197 0.759060
0.579889 0.631342 0.769558
0.646723 0.663264 0.783017
0.712245 0.702724 0.800839
0.772213 0.749599 0.823148
0.809476 0.760403 0.828580
0.425574 0.606012 0.749691
0.431464 0.606043 0.749813
0.460639 0.608789 0.750668
0.540337 0.633417 0.761196
0.629816 0.672328 0.778744
0.703517 0.711940 0.799069
0.769955 0.760098 0.824704
0.812467 0.778500 0.835508
0.503899 0.684138 0.775296
0.506126 0.683253 0.774502
0.517510 0.680720 0.772396
0.541711 0.677180 0.769894
0.577050 0.671504 0.766751
0.684016 0.720974 0.796811
0.768582 0.776272 0.830228
0.821256 0.806027 0.849088
0.583856 0.761166 0.810605
0.585962 0.760983 0.810422
0.595056 0.760525 0.809903
0.613916 0.760464 0.809751
0.641444 0.760220 0.809537
0.676875 0.759060 0.809079
0.748745 0.783352 0.826474
0.825223 0.829221 0.857511
0.661830 0.833310 0.849271
0.663447 0.833341 0.849271
0.671138 0.834043 0.849760
0.687312 0.836210 0.851408
0.711147 0.839231 0.853666
0.742428 0.843290 0.856657
0.781521 0.848875 0.860807
0.828061 0.855467 0.865599
