20 Preset/White Style/【3】LUT video cho PR-AE-FCPX/Tone1 (3).cube
# Created by Adobe Lightroom plugin Export LUT (1.24.0)
# www.johnrellis.com/lightroom/exportlut.htm
# Preset: 米白色调-素材江湖02-深圳市江湖客形象设计有限公司版权所有
# Color profile: C:\Program Files (x86)\Common Files\Adobe\Color\Profiles\Recommended\VideoHD.icc
LUT_3D_SIZE 32
DOMAIN_MIN 0.0 0.0 0.0
DOMAIN_MAX 1.0 1.0 1.0
0.024964 0.035554 0.024018
0.028229 0.036316 0.023865
0.040681 0.039307 0.025452
0.069551 0.044923 0.028656
0.094942 0.053285 0.034577
0.113313 0.064240 0.042084
0.136843 0.071931 0.049256
0.165194 0.073365 0.055085
0.196414 0.069825 0.059205
0.230350 0.062684 0.064485
0.267338 0.047089 0.068849
0.306188 0.025299 0.074098
0.347143 0.000000 0.079286
0.389746 0.000000 0.083894
0.432746 0.000000 0.089662
0.475257 0.000000 0.094728
0.516625 0.000000 0.101503
0.556390 0.000000 0.109224
0.594171 0.000000 0.117067
0.629664 0.000000 0.126101
0.667262 0.000000 0.137148
0.701564 0.000000 0.148928
0.730343 0.000000 0.161074
0.755673 0.096437 0.172976
0.777523 0.140017 0.185489
0.796628 0.175753 0.198215
0.813870 0.207309 0.211765
0.829435 0.237888 0.226627
0.844572 0.267185 0.242283
0.859220 0.296818 0.259373
0.873655 0.326787 0.278508
0.887694 0.357488 0.299718
0.024201 0.038941 0.025818
0.025483 0.039918 0.025666
0.039918 0.042695 0.027283
0.069825 0.047089 0.029480
0.094789 0.056672 0.035248
0.112642 0.067842 0.042756
0.136049 0.074556 0.050111
0.163760 0.075441 0.054963
0.195010 0.072145 0.060243
0.228244 0.066133 0.064424
0.264622 0.051850 0.068849
0.303410 0.030976 0.074128
0.343786 0.003510 0.079347
0.386023 0.000000 0.084810
0.429053 0.000000 0.089387
0.471748 0.000000 0.094972
0.513207 0.000000 0.101350
0.553155 0.000000 0.108919
0.590997 0.000000 0.117037
0.626490 0.000000 0.125978
0.663600 0.000000 0.136446
0.697230 0.000000 0.147768
0.725856 0.000000 0.159731
0.751186 0.088655 0.171206
0.773251 0.134279 0.183352
0.792660 0.169955 0.195865
0.810300 0.201572 0.208927
0.826322 0.232059 0.223575
0.841611 0.261662 0.239048
0.856626 0.291356 0.255833
0.871244 0.321691 0.274907
0.885557 0.352422 0.295903
0.028809 0.050568 0.029786
0.031769 0.051331 0.030762
0.037690 0.052827 0.032715
0.066743 0.061830 0.034302
0.093111 0.070405 0.041352
0.112367 0.078645 0.048035
0.135714 0.082277 0.053285
0.163333 0.083619 0.059113
0.194095 0.082551 0.063111
0.227176 0.078279 0.067475
0.263340 0.065736 0.072908
0.301915 0.046723 0.076905
0.342168 0.019928 0.081849
0.384039 0.000000 0.086519
0.426886 0.000000 0.091249
0.469306 0.000000 0.096223
0.510948 0.000000 0.102937
0.550866 0.000000 0.110506
0.588830 0.000000 0.118563
0.624506 0.000000 0.127077
0.661646 0.000000 0.137667
0.694942 0.000000 0.148867
0.723354 0.000000 0.160281
0.748745 0.097719 0.171756
0.770779 0.138582 0.183627
0.790433 0.171603 0.195834
0.808164 0.203220 0.208865
0.824308 0.232853 0.223209
0.839811 0.261753 0.238254
0.854887 0.291356 0.255406
0.869657 0.321080 0.273991
0.884031 0.351568 0.294560
0.044709 0.075166 0.044190
0.045991 0.076143 0.044038
0.051606 0.077638 0.047120
0.063447 0.079713 0.050996
0.090181 0.088655 0.053895
0.112276 0.091157 0.057313
0.135988 0.093660 0.061250
0.163302 0.094484 0.064820
0.194034 0.093904 0.069947
0.227329 0.092561 0.073854
0.263096 0.088472 0.078004
0.301244 0.076631 0.082033
0.341283 0.052705 0.086366
0.382666 0.024231 0.090486
0.425055 0.000000 0.094453
0.467231 0.000000 0.099886
0.508171 0.000000 0.106538
0.547784 0.000000 0.113802
0.585443 0.000000 0.121218
0.620966 0.000000 0.130007
0.657557 0.000000 0.140200
0.690059 0.000000 0.150790
0.718471 0.052033 0.161685
0.744228 0.113313 0.172915
0.767117 0.148013 0.184360
0.787472 0.179934 0.196994
0.805905 0.209812 0.210513
0.822599 0.238865 0.224704
0.838376 0.267308 0.240269
0.853574 0.296239 0.257023
0.868223 0.325170 0.275578
0.882536 0.354284 0.295689
0.065064 0.092500 0.062196
0.066773 0.092439 0.063325
0.072999 0.092988 0.064118
0.080507 0.093843 0.067048
0.088197 0.096376 0.072572
0.106569 0.103517 0.074189
0.133852 0.106630 0.074067
0.162936 0.107424 0.076356
0.193515 0.108003 0.079255
0.226596 0.107332 0.082338
0.261662 0.105043 0.085512
0.299596 0.100923 0.088685
0.339269 0.094362 0.091920
0.380774 0.082521 0.095521
0.423133 0.055024 0.100099
0.464942 0.027802 0.105562
0.506676 0.000000 0.111940
0.546136 0.000000 0.119173
0.584070 0.000000 0.126802
0.620172 0.000000 0.135317
0.656275 0.007721 0.145327
0.687984 0.066590 0.155489
0.716121 0.109010 0.166201
0.741939 0.138888 0.177127
0.764950 0.167117 0.188327
0.785519 0.195346 0.200961
0.804044 0.222568 0.214115
0.820798 0.249516 0.228122
0.836545 0.276677 0.243473
0.851682 0.303838 0.260136
0.866392 0.331456 0.278233
0.880461 0.359838 0.298344
0.081453 0.106355 0.080629
0.082094 0.106661 0.081239
0.085206 0.106813 0.081849
0.090059 0.107118 0.083070
0.095979 0.109194 0.086549
0.104036 0.112123 0.090242
0.126223 0.121981 0.091524
0.158175 0.126009 0.090364
0.194430 0.126101 0.090242
0.227543 0.126833 0.092195
0.262913 0.125673 0.094270
0.300755 0.123812 0.096742
0.340429 0.120577 0.100130
0.381750 0.115297 0.103822
0.423804 0.109224 0.108583
0.466255 0.101961 0.114199
0.507225 0.096254 0.120455
0.546929 0.091371 0.127352
0.584588 0.090028 0.134890
0.621820 0.096376 0.143832
0.656947 0.109834 0.153353
0.688136 0.127596 0.163058
0.739498 0.175509 0.185092
0.763058 0.199771 0.197238
0.783505 0.222934 0.209628
0.801541 0.246708 0.222660
0.817655 0.269993 0.236332
0.832609 0.293584 0.250858
0.847013 0.317632 0.266728
0.860899 0.342168 0.283635
0.874388 0.367163 0.301946
0.887297 0.392767 0.321874
0.093477 0.125826 0.095613
0.094087 0.125765 0.096010
0.096223 0.126131 0.096284
0.101106 0.125978 0.096986
0.106325 0.126802 0.098634
0.115145 0.130068 0.101839
0.125460 0.134371 0.106691
0.153414 0.147066 0.108766
0.190066 0.152712 0.106813
0.231022 0.154177 0.106081
0.272557 0.153017 0.106691
0.311498 0.152590 0.109682
0.351568 0.151308 0.113039
0.393042 0.149020 0.117189
0.434974 0.145846 0.121736
0.476081 0.143374 0.127260
0.516594 0.141268 0.133425
0.555230 0.140841 0.140261
0.592401 0.143038 0.147799
0.632013 0.151797 0.157412
0.667933 0.164187 0.167910
0.700191 0.180453 0.178347
0.729061 0.200076 0.190005
0.754879 0.221042 0.202457
0.777066 0.242954 0.215030
0.796109 0.264897 0.228367
0.812711 0.285740 0.241764
0.827817 0.307500 0.256077
0.842344 0.329442 0.271458
0.856382 0.351965 0.287663
0.869841 0.375616 0.305547
0.882933 0.399725 0.325109
0.104524 0.146334 0.109468
0.105715 0.146242 0.109438
0.108003 0.146059 0.109773
0.111604 0.145998 0.110353
0.117647 0.145724 0.111238
0.125399 0.147768 0.114107
0.136263 0.151858 0.118441
0.148745 0.157412 0.124392
0.179232 0.172274 0.127810
0.219242 0.180179 0.125673
0.263340 0.183261 0.124971
0.310399 0.182406 0.124941
0.352026 0.182101 0.127718
0.393103 0.181430 0.131289
0.434546 0.180514 0.135439
0.475227 0.179843 0.140536
0.515129 0.179965 0.146578
0.553429 0.180880 0.152682
0.592889 0.185214 0.160983
0.630518 0.192599 0.169619
0.664698 0.203037 0.179171
0.695918 0.216159 0.189242
0.724361 0.231907 0.199954
0.749844 0.249485 0.211612
0.772000 0.268467 0.224186
0.791135 0.287236 0.236912
0.807889 0.306157 0.249973
0.823178 0.325505 0.263951
0.837797 0.345739 0.278965
0.851926 0.366705 0.294865
0.865537 0.388525 0.312444
0.878782 0.411170 0.331426
0.119509 0.169619 0.126101
0.120027 0.169558 0.126101
0.122011 0.169436 0.126101
0.125887 0.168948 0.126650
0.131380 0.168338 0.127199
0.138399 0.167758 0.128237
0.148898 0.171603 0.132601
0.161196 0.176852 0.137789
0.175906 0.183383 0.144839
0.208225 0.200320 0.149813
0.251133 0.210452 0.147585
0.297490 0.215457 0.146853
0.346807 0.216556 0.146944
0.394842 0.215335 0.148348
0.436072 0.215702 0.152193
0.476234 0.216434 0.156924
0.515404 0.217838 0.162112
0.555291 0.221256 0.169039
0.593957 0.226108 0.176242
0.629847 0.232822 0.184665
0.662715 0.241581 0.193240
0.692927 0.252934 0.202579
0.720760 0.266117 0.212894
0.745663 0.281285 0.224338
0.767575 0.297185 0.235996
0.786679 0.313512 0.248234
0.803433 0.330297 0.261204
0.818753 0.347570 0.274754
0.833433 0.365850 0.289433
0.847623 0.384833 0.304906
0.861326 0.404944 0.322179
0.874601 0.426062 0.340764
0.137087 0.195254 0.144198
0.137453 0.195224 0.144411
0.139590 0.194644 0.144289
0.142885 0.194278 0.144533
0.147768 0.193179 0.144869
0.154208 0.191928 0.145205
0.162905 0.193027 0.147402
0.174960 0.197665 0.152682
0.188998 0.203861 0.159091
0.204776 0.211368 0.166934
0.239445 0.229862 0.173892
0.283391 0.241886 0.171725
0.332067 0.248936 0.170748
0.382330 0.252079 0.170779
0.433387 0.252384 0.172030
0.477028 0.253605 0.175784
0.518059 0.257084 0.181338
0.557916 0.261631 0.187655
0.595270 0.266667 0.194491
0.629847 0.273106 0.202335
0.661402 0.280644 0.210178
0.690089 0.289372 0.218448
0.716426 0.300175 0.227878
0.740230 0.312291 0.238071
0.761440 0.325353 0.248692
0.780270 0.339025 0.260227
0.797116 0.353704 0.272587
0.812711 0.369085 0.285710
0.827634 0.385809 0.300237
0.842100 0.403632 0.315923
0.856138 0.422400 0.332738
0.869780 0.442145 0.351263
0.155947 0.221897 0.163546
0.156405 0.221744 0.163577
0.158206 0.221500 0.163760
0.161379 0.220554 0.163546
0.165896 0.219852 0.163973
0.171786 0.218173 0.163821
0.178470 0.216373 0.164034
0.189578 0.220188 0.168460
0.203830 0.225956 0.174624
0.219730 0.233219 0.182345
0.237339 0.241611 0.191073
0.273014 0.261723 0.199741
0.318853 0.275975 0.197910
0.368200 0.284855 0.196811
0.419043 0.290532 0.197330
0.471504 0.294896 0.199771
0.521447 0.297002 0.202914
0.559655 0.301305 0.208713
0.595361 0.306218 0.214603
0.628382 0.311681 0.221561
0.658839 0.318059 0.228489
0.686519 0.325811 0.236332
0.712306 0.335149 0.245274
0.735683 0.345373 0.254520
0.756619 0.356420 0.265110
0.775204 0.368658 0.276158
0.792050 0.381170 0.288212
0.807614 0.394903 0.301061
0.822629 0.409857 0.314946
0.837247 0.425696 0.330022
0.851316 0.442969 0.346960
0.865049 0.461067 0.364996
0.177584 0.250980 0.184756
0.177981 0.250858 0.184756
0.179049 0.250553 0.184787
0.182132 0.249851 0.184878
0.186313 0.248722 0.184726
0.191623 0.246983 0.184665
0.198123 0.244999 0.184451
0.206271 0.243870 0.185458
0.219883 0.249699 0.191562
0.235691 0.256565 0.198672
0.253208 0.264805 0.207065
0.272313 0.274449 0.217105
0.320378 0.306188 0.235477
0.372534 0.325872 0.236057
0.425971 0.339361 0.237217
0.478767 0.348730 0.239231
0.529015 0.354894 0.242069
0.576318 0.358801 0.245151
0.615259 0.362676 0.250065
0.645930 0.367956 0.256382
0.673915 0.373663 0.263188
0.699214 0.380438 0.270573
0.722164 0.387640 0.278599
0.742885 0.395819 0.287541
0.761593 0.404730 0.297520
0.778317 0.414191 0.307744
0.793668 0.423987 0.318547
0.808377 0.434760 0.330266
0.822538 0.446784 0.343206
0.836423 0.459998 0.357122
0.849973 0.474159 0.372534
0.863310 0.489662 0.389837
0.204746 0.286961 0.210788
0.204959 0.286931 0.210941
0.206180 0.286015 0.210575
0.208652 0.284916 0.210239
0.212253 0.283055 0.209781
0.216709 0.280674 0.208988
0.222324 0.277897 0.208255
0.228428 0.274479 0.207492
0.239322 0.276707 0.210880
0.255039 0.283879 0.218082
0.273167 0.292668 0.226871
0.295628 0.304906 0.238529
0.319951 0.318791 0.252140
0.361456 0.344671 0.267521
0.412421 0.365179 0.268437
0.462806 0.378973 0.269261
0.511467 0.388251 0.270726
0.557580 0.394415 0.272557
0.600366 0.398779 0.275486
0.638697 0.402167 0.278965
0.666957 0.406561 0.284581
0.691859 0.411963 0.291081
0.714412 0.418067 0.298589
0.735103 0.424933 0.306554
0.753750 0.432380 0.315709
0.770687 0.440467 0.325689
0.786313 0.449195 0.336217
0.801297 0.458991 0.347601
0.815824 0.469764 0.360021
0.829984 0.481727 0.373877
0.843900 0.494606 0.389014
0.857420 0.508812 0.405982
0.228916 0.317632 0.233371
0.229160 0.317266 0.233127
0.230106 0.316899 0.233066
0.231693 0.315282 0.232364
0.234897 0.313298 0.231449
0.239048 0.310765 0.230625
0.243992 0.307836 0.229648
0.249668 0.304387 0.228702
0.256199 0.301366 0.228122
0.272526 0.308965 0.235782
0.291295 0.318456 0.244907
0.312779 0.329625 0.256077
0.336095 0.342504 0.268833
0.360601 0.356420 0.283024
0.400061 0.381659 0.299992
0.447944 0.401587 0.300420
0.494789 0.414771 0.300450
0.539361 0.423987 0.301396
0.581323 0.430732 0.303380
0.619959 0.435615 0.305791
0.655177 0.439643 0.309331
0.685512 0.443580 0.314092
0.707729 0.448829 0.320897
0.728206 0.454658 0.328618
0.746761 0.460975 0.337163
0.763699 0.468116 0.346532
0.779507 0.475532 0.356420
0.794583 0.484108 0.367468
0.809354 0.493568 0.379583
0.823728 0.504204 0.392828
0.837766 0.516014 0.407782
0.851591 0.528923 0.424201
0.257023 0.351415 0.258640
0.257145 0.351171 0.258488
0.258000 0.350469 0.258335
0.259342 0.349126 0.257511
0.262211 0.347387 0.256931
0.265751 0.344823 0.255894
0.270512 0.341680 0.254673
0.275608 0.338262 0.253544
0.281071 0.334264 0.252018
0.290806 0.334203 0.253910
0.308751 0.342992 0.262699
0.329046 0.353613 0.273289
0.351141 0.365179 0.285191
0.374609 0.378271 0.298802
0.398596 0.391821 0.313268
0.434974 0.415625 0.331182
0.480140 0.434943 0.331182
0.522911 0.447883 0.331426
0.564233 0.457191 0.332128
0.602228 0.464149 0.333928
0.637415 0.469856 0.336706
0.670130 0.474678 0.340703
0.699245 0.478950 0.345647
0.721584 0.483558 0.352453
0.739956 0.488838 0.360266
0.756802 0.494789 0.369177
0.772671 0.501427 0.378851
0.788083 0.509209 0.389685
0.803220 0.517815 0.401465
0.817929 0.527825 0.414862
0.832303 0.538994 0.429877
0.846433 0.551385 0.446479
0.286625 0.384833 0.284794
0.286839 0.384863 0.284947
0.287510 0.384283 0.284550
0.289067 0.383062 0.284001
0.291264 0.380957 0.282933
0.294285 0.378698 0.282139
0.298344 0.375769 0.280827
0.302922 0.372198 0.279271
0.307805 0.367956 0.277470
0.313115 0.363287 0.275700
0.327092 0.368048 0.281468
0.345739 0.377203 0.291051
0.366125 0.387579 0.301976
0.387640 0.398779 0.314122
0.409735 0.410773 0.327214
0.432319 0.423407 0.341375
0.465827 0.445838 0.360082
0.507469 0.464332 0.360327
0.547112 0.477333 0.360693
0.584894 0.486976 0.361852
0.620233 0.494850 0.364233
0.653254 0.501396 0.367712
0.683131 0.506950 0.372595
0.710048 0.511742 0.378729
0.733761 0.516197 0.385962
0.750576 0.521447 0.394354
0.766659 0.527520 0.403693
0.782223 0.534325 0.414008
0.797391 0.542168 0.425452
0.812100 0.551110 0.438270
0.826535 0.560998 0.452308
0.840604 0.572015 0.467842
0.315190 0.415991 0.310521
0.315160 0.415717 0.310185
0.316014 0.415106 0.310002
0.317052 0.413947 0.309148
0.318822 0.412207 0.308324
0.321660 0.409827 0.307225
0.324651 0.406622 0.305516
0.328466 0.402991 0.303746
0.332708 0.398596 0.301579
0.337041 0.393622 0.299229
0.342290 0.389502 0.297612
0.360235 0.398047 0.306798
0.379187 0.407599 0.317205
0.399451 0.417945 0.328649
0.420569 0.429114 0.341161
0.441993 0.440864 0.354589
0.463600 0.453254 0.368933
0.494545 0.474495 0.389136
0.533532 0.492866 0.389746
0.569818 0.505516 0.390326
0.604547 0.515679 0.392279
0.637720 0.524163 0.395575
0.667811 0.531029 0.400153
0.695003 0.536828 0.405921
0.719631 0.541894 0.412757
0.741909 0.546715 0.420600
0.760739 0.552178 0.429511
0.776425 0.558434 0.439399
0.791592 0.565728 0.450507
0.806455 0.573938 0.462623
0.820981 0.583062 0.476143
0.835233 0.593286 0.491096
0.344427 0.446174 0.336461
0.344793 0.446326 0.336614
0.356756 0.457252 0.346746
0.357458 0.455909 0.345830
0.358831 0.454078 0.344732
0.360937 0.451667 0.343389
0.363104 0.448280 0.341253
0.365881 0.444129 0.338689
0.368811 0.439612 0.336034
0.372015 0.433814 0.332616
0.374975 0.427619 0.329076
0.385046 0.428473 0.331640
0.402991 0.437171 0.341650
0.421881 0.446693 0.352636
0.441413 0.456611 0.364233
0.461402 0.467201 0.376928
0.481392 0.478035 0.390173
0.501244 0.489540 0.404211
0.528649 0.509056 0.425055
0.563409 0.525780 0.425574
0.596368 0.537987 0.426642
0.627985 0.547967 0.429114
0.656977 0.555749 0.432837
0.683436 0.562188 0.437903
0.707485 0.567346 0.443519
0.729519 0.572137 0.450385
0.750515 0.577020 0.457893
0.770596 0.582300 0.466407
0.786252 0.588525 0.476356
0.800992 0.595941 0.487678
0.815518 0.604334 0.500359
0.829770 0.613703 0.514549
0.376257 0.478126 0.365454
0.377722 0.479072 0.366552
0.379095 0.479591 0.367071
0.380926 0.479438 0.367376
0.382788 0.478645 0.367071
0.384375 0.476539 0.365667
0.386419 0.473426 0.363745
0.388312 0.469306 0.360937
0.390600 0.464576 0.357855
0.393042 0.459297 0.354467
0.395453 0.453132 0.350561
0.397345 0.446265 0.346136
0.412543 0.452613 0.353948
0.430426 0.461341 0.364233
0.448890 0.470771 0.375372
0.468055 0.480751 0.387518
0.487373 0.491218 0.400488
0.506798 0.502251 0.414282
0.526207 0.513970 0.429145
0.551812 0.532860 0.450538
0.584039 0.549432 0.453071
0.614893 0.562005 0.455360
0.643549 0.571740 0.458930
0.669825 0.579461 0.463355
0.693904 0.585809 0.468818
0.716060 0.591363 0.475257
0.737270 0.596796 0.482399
0.757626 0.602533 0.490608
0.777279 0.608728 0.500084
0.795163 0.615625 0.510887
0.809689 0.623560 0.523033
0.824094 0.632288 0.536431
0.401770 0.502647 0.388830
0.403113 0.503716 0.390021
0.404578 0.504387 0.390784
0.406287 0.504448 0.391180
0.407904 0.503349 0.390539
0.409400 0.501640 0.389532
0.410803 0.498634 0.387213
0.412207 0.494972 0.384710
0.414008 0.490608 0.381689
0.415625 0.485298 0.377783
0.417517 0.479438 0.373724
0.418830 0.472602 0.368994
0.423743 0.469062 0.367468
0.440803 0.477394 0.377447
0.458503 0.486336 0.388220
0.476692 0.495766 0.400000
0.495308 0.505638 0.412512
0.513939 0.516136 0.425879
0.532525 0.527031 0.440070
0.550896 0.538537 0.455238
0.574884 0.556725 0.476600
0.603693 0.572381 0.480781
0.631678 0.584436 0.484230
0.657649 0.593927 0.488411
0.681483 0.601556 0.493599
0.703548 0.608087 0.499611
0.724636 0.614343 0.506462
0.745174 0.620630 0.514305
0.765103 0.627253 0.523491
0.784451 0.634333 0.533837
0.803189 0.641901 0.545403
0.818967 0.650019 0.557794
0.427893 0.527153 0.413397
0.428870 0.527794 0.414160
0.430030 0.528313 0.414740
0.431556 0.528283 0.415015
0.432868 0.527642 0.414710
0.433783 0.525658 0.413153
0.435035 0.523003 0.411170
0.436103 0.519707 0.408515
0.437324 0.515618 0.405371
0.438575 0.510552 0.401617
0.439734 0.504845 0.397192
0.440742 0.498543 0.392493
0.441108 0.491005 0.386755
0.451667 0.493355 0.390967
0.468666 0.501946 0.401678
0.486244 0.511009 0.413123
0.504387 0.520684 0.425696
0.522728 0.531029 0.439155
0.541100 0.542016 0.453498
0.559319 0.553399 0.468910
0.577264 0.565454 0.485054
0.599634 0.583154 0.506981
0.625025 0.597772 0.513481
0.650141 0.609613 0.518364
0.673457 0.619074 0.523949
0.695338 0.627100 0.530205
0.716426 0.634546 0.537133
0.737026 0.641810 0.544915
0.757137 0.649104 0.553735
0.776669 0.656641 0.563561
0.795743 0.664363 0.574365
0.814328 0.672328 0.586053
0.460395 0.556237 0.444465
0.460731 0.556512 0.444648
0.461189 0.556512 0.444770
0.461555 0.555657 0.444068
0.462104 0.554437 0.443030
0.462470 0.552392 0.441291
0.463050 0.549767 0.439124
0.463447 0.546349 0.436072
0.464271 0.542565 0.432929
0.465156 0.538140 0.429145
0.465705 0.532860 0.424811
0.466194 0.526757 0.419745
0.466011 0.519677 0.413825
0.466285 0.512291 0.407935
0.482246 0.520256 0.418250
0.499062 0.528771 0.429389
0.516045 0.537835 0.441413
0.533410 0.547356 0.454261
0.550561 0.557458 0.467994
0.567590 0.567956 0.482490
0.584344 0.578698 0.497627
0.600244 0.589563 0.513420
0.619654 0.605280 0.534356
0.641291 0.618189 0.541344
0.663752 0.629114 0.546197
0.685145 0.638422 0.552117
0.706233 0.647028 0.558618
0.726894 0.655207 0.566003
0.747127 0.663203 0.574334
0.766873 0.671138 0.583490
0.786221 0.679194 0.593713
0.805234 0.687312 0.604669
0.485267 0.578576 0.469245
0.485634 0.578790 0.469581
0.485939 0.578485 0.469337
0.486427 0.578027 0.468971
0.486702 0.576837 0.467903
0.486854 0.575036 0.466163
0.487129 0.572686 0.463966
0.487434 0.569512 0.461036
0.487892 0.566033 0.457862
0.488411 0.561913 0.454231
0.488777 0.557092 0.449866
0.488960 0.551476 0.444831
0.488655 0.544976 0.439033
0.487892 0.537499 0.432380
0.493812 0.536095 0.432654
0.509758 0.544274 0.443671
0.526238 0.553063 0.455726
0.542779 0.562249 0.468330
0.559380 0.571893 0.481788
0.575647 0.581750 0.495888
0.591608 0.591882 0.510826
0.606806 0.602045 0.526177
0.621118 0.612177 0.541833
0.638392 0.626551 0.561761
0.655238 0.635920 0.566094
0.675837 0.646418 0.571008
0.696712 0.656275 0.577173
0.717128 0.665522 0.584192
0.737453 0.674311 0.592035
0.757534 0.682948 0.600885
0.777127 0.691585 0.610681
0.796536 0.700221 0.621271
0.513207 0.602533 0.498024
0.513848 0.602930 0.498604
0.514031 0.602655 0.498360
0.514092 0.602014 0.497749
0.513787 0.600610 0.496132
0.513420 0.598657 0.494057
0.512871 0.596185 0.491249
0.512413 0.593103 0.488075
0.512047 0.589380 0.484230
0.511742 0.585290 0.480079
0.511101 0.580316 0.474983
0.510704 0.574884 0.469764
0.509880 0.568536 0.463630
0.508843 0.561334 0.456855
0.506767 0.553033 0.448768
0.518456 0.557427 0.455695
0.533745 0.565393 0.466896
0.549371 0.574029 0.479133
0.565087 0.582971 0.492073
0.580896 0.592340 0.505974
0.596216 0.601923 0.520592
0.610925 0.611536 0.535637
0.624598 0.620996 0.550530
0.637568 0.630304 0.565240
0.652827 0.643275 0.583429
0.669673 0.654108 0.591150
0.689174 0.664485 0.595789
0.709163 0.674556 0.601953
0.729183 0.684138 0.609094
0.749142 0.693385 0.617273
0.768856 0.702571 0.626581
0.788266 0.711879 0.637232
0.534691 0.620264 0.520867
0.535210 0.620508 0.521172
0.535393 0.620508 0.521172
0.535546 0.620020 0.520714
0.535393 0.618982 0.519432
0.535271 0.617548 0.517845
0.535027 0.615595 0.515587
0.534844 0.613214 0.512932
0.534722 0.610407 0.509819
0.534508 0.607050 0.506126
0.534051 0.603082 0.501671
0.533715 0.598474 0.496773
0.532891 0.592950 0.490883
0.531579 0.586511 0.484077
0.529747 0.579156 0.476448
0.530571 0.573754 0.471565
0.545068 0.581201 0.482551
0.559777 0.589075 0.494301
0.574792 0.597406 0.507012
0.589624 0.606043 0.520562
0.604181 0.614954 0.534844
0.618158 0.623957 0.549340
0.631342 0.632898 0.563684
0.643732 0.641779 0.577905
0.655390 0.650538 0.591791
0.669886 0.663050 0.608850
0.685725 0.673854 0.616938
0.704402 0.684321 0.621698
0.724147 0.695033 0.628656
0.743709 0.705226 0.636622
0.763272 0.715206 0.645991
0.782681 0.725216 0.656641
0.558373 0.639216 0.546746
0.558679 0.639368 0.547051
0.558709 0.639246 0.546899
0.558740 0.638697 0.546258
0.558526 0.637751 0.545006
0.558312 0.636469 0.543511
0.557824 0.634730 0.541283
0.557366 0.632563 0.538689
0.556909 0.630030 0.535515
0.556451 0.627039 0.531914
0.555840 0.623499 0.527642
0.555047 0.619318 0.522698
0.554192 0.614679 0.517235
0.552728 0.609003 0.510552
0.550958 0.602502 0.503136
0.548699 0.595117 0.494881
0.555505 0.595666 0.497292
0.569574 0.603021 0.508904
0.583703 0.610773 0.521386
0.597833 0.618799 0.534600
0.611627 0.627100 0.548302
0.624903 0.635554 0.562127
0.637537 0.643915 0.575860
0.649500 0.652308 0.589410
0.660914 0.660792 0.602655
0.671931 0.669337 0.615473
0.685939 0.681575 0.631281
0.700679 0.692134 0.639857
0.718441 0.702510 0.644953
0.737881 0.713863 0.653071
0.757198 0.724849 0.662440
0.776333 0.735500 0.672847
0.579248 0.656367 0.570581
0.579370 0.656428 0.570642
0.579583 0.656336 0.570581
0.579522 0.655970 0.570123
0.579553 0.655299 0.569268
0.579614 0.654444 0.568261
0.579858 0.653376 0.567010
0.580194 0.652064 0.565454
0.580560 0.650568 0.563653
0.581018 0.648707 0.561486
0.581231 0.646357 0.558679
0.581445 0.643580 0.555322
0.581170 0.640070 0.551080
0.580407 0.635798 0.545739
0.579126 0.630671 0.539239
0.577142 0.624598 0.531579
0.574517 0.617456 0.522637
0.587152 0.623713 0.533471
0.600427 0.630884 0.545800
0.613489 0.638361 0.558434
0.626215 0.646052 0.571466
0.638575 0.653925 0.584558
0.650446 0.661952 0.597436
0.661952 0.670192 0.610132
0.673091 0.678431 0.622461
0.683894 0.686793 0.634638
0.694423 0.695216 0.646998
0.707576 0.707118 0.662562
0.721157 0.717403 0.671992
0.737789 0.727535 0.677272
0.756435 0.739254 0.686336
0.775143 0.750607 0.696529
0.604486 0.678920 0.600824
0.604334 0.678859 0.600763
0.604334 0.678614 0.600427
0.604211 0.678096 0.599847
0.604028 0.677333 0.598901
0.603845 0.676265 0.597620
0.603693 0.675044 0.596185
0.603479 0.673365 0.594171
0.603265 0.671534 0.591943
0.603082 0.669337 0.589258
0.602838 0.666773 0.586175
0.602411 0.663722 0.582422
0.601678 0.660243 0.578058
