20 Preset/White Style/【3】LUT video cho PR-AE-FCPX/Tone1 (3).cube
# Created by Adobe Lightroom plugin Export LUT (1.24.0)
# www.johnrellis.com/lightroom/exportlut.htm
# Preset: 米白色调-素材江湖02-深圳市江湖客形象设计有限公司版权所有
# Color profile: C:\Program Files (x86)\Common Files\Adobe\Color\Profiles\Recommended\VideoHD.icc
LUT_3D_SIZE 5
DOMAIN_MIN 0.000000 0.000000 0.000000
DOMAIN_MAX 0.903226 0.903226 0.903226
0.024964 0.035554 0.024018
0.165194 0.073365 0.055085
0.432746 0.000000 0.089662
0.701564 0.000000 0.148928
0.844572 0.267185 0.242283
0.104524 0.146334 0.109468
0.148745 0.157412 0.124392
0.434546 0.180514 0.135439
0.695918 0.216159 0.189242
0.837797 0.345739 0.278965
0.257023 0.351415 0.258640
0.275608 0.338262 0.253544
0.398596 0.391821 0.313268
0.670130 0.474678 0.340703
0.803220 0.517815 0.401465
0.460395 0.556237 0.444465
0.463447 0.546349 0.436072
0.482246 0.520256 0.418250
0.600244 0.589563 0.513420
0.747127 0.663203 0.574334
0.622522 0.697993 0.624201
0.622400 0.693324 0.618799
0.613519 0.667384 0.586847
0.653590 0.677974 0.610101
0.726864 0.733883 0.694026
0.085298 0.105287 0.122286
0.151705 0.125582 0.139590
0.419806 0.118166 0.171359
0.675257 0.169711 0.223514
0.824369 0.301122 0.290196
0.125185 0.181521 0.166720
0.195712 0.205295 0.186618
0.432898 0.222568 0.208591
0.673915 0.262821 0.251072
0.818143 0.361089 0.317296
0.288396 0.386023 0.302953
0.320012 0.381537 0.306218
0.411139 0.405127 0.340215
0.663539 0.474891 0.368017
0.794247 0.524773 0.429114
0.485512 0.576623 0.477455
0.491218 0.568292 0.471473
0.495003 0.530632 0.438544
0.605554 0.596338 0.528801
0.747463 0.665553 0.584588
0.630274 0.705867 0.637873
0.629908 0.701076 0.632410
0.627588 0.681025 0.608942
0.657801 0.683009 0.619013
0.730983 0.739254 0.702663
0.161013 0.211704 0.300359
0.231144 0.237949 0.319249
0.425940 0.314549 0.372900
0.665705 0.370031 0.431617
0.798764 0.376349 0.418433
0.214817 0.274540 0.325353
0.276555 0.300420 0.345403
0.445380 0.367193 0.395361
0.662409 0.394263 0.433845
0.797360 0.415259 0.433631
0.340276 0.450904 0.423224
0.379492 0.459236 0.430060
0.501274 0.496468 0.464027
0.657588 0.507256 0.472480
0.778225 0.544518 0.506249
0.543725 0.627619 0.567834
0.550378 0.623102 0.563836
0.575280 0.607630 0.553368
0.627131 0.623224 0.581567
0.754574 0.673274 0.617456
0.644190 0.729580 0.675196
0.647852 0.727657 0.674098
0.655573 0.713527 0.661769
0.657191 0.684901 0.629725
0.733150 0.743465 0.714260
0.327886 0.379034 0.509026
0.374182 0.398535 0.520897
0.517174 0.469062 0.561883
0.645014 0.542992 0.600885
0.750820 0.619257 0.656703
0.357702 0.413794 0.514427
0.400397 0.432837 0.526299
0.524590 0.492561 0.564416
0.643183 0.558740 0.603174
0.749142 0.621088 0.654902
0.415961 0.500908 0.539239
0.437415 0.504173 0.540032
0.540398 0.549187 0.573877
0.644190 0.605066 0.616938
0.751888 0.629664 0.651057
0.558099 0.643427 0.630396
0.567926 0.644251 0.630976
0.605798 0.651453 0.638148
0.664179 0.668788 0.656306
0.762600 0.672145 0.658106
0.680934 0.776272 0.754086
0.683528 0.775021 0.752590
0.692897 0.769009 0.745327
0.701747 0.743221 0.718074
0.744503 0.759792 0.744900
0.529015 0.564416 0.676051
0.547082 0.572930 0.679713
0.610346 0.607996 0.697658
0.690578 0.661219 0.730922
0.753017 0.696437 0.753414
0.530083 0.570581 0.672969
0.550408 0.581048 0.677607
0.610407 0.613184 0.695491
0.688899 0.663966 0.729091
0.751980 0.699763 0.753414
0.517845 0.584802 0.665949
0.538048 0.593286 0.670100
0.607996 0.629908 0.692256
0.685939 0.676936 0.728420
0.754360 0.718868 0.761807
0.579370 0.668482 0.706905
0.583703 0.667262 0.705501
0.604181 0.664942 0.702968
0.676600 0.695949 0.730648
0.765774 0.757046 0.784787
0.665553 0.772244 0.781064
0.669459 0.772732 0.781430
0.687953 0.776974 0.785428
0.721767 0.784665 0.792416
0.774105 0.798367 0.804959
