20 Preset/White Style/【3】LUT video cho PR-AE-FCPX/White Style LUT (6).cube
# Created by Adobe Lightroom plugin Export LUT (1.24.0)
# www.johnrellis.com/lightroom/exportlut.htm
# Preset: 通透白调-素材江湖06
# Color profile: C:\Program Files (x86)\Common Files\Adobe\Color\Profiles\Recommended\VideoHD.icc
LUT_3D_SIZE 32
DOMAIN_MIN 0.0 0.0 0.0
DOMAIN_MAX 1.0 1.0 1.0
0.000000 0.000000 0.000000
0.006928 0.000305 0.000946
0.026062 0.001465 0.002686
0.064607 0.003754 0.005005
0.098360 0.009369 0.009888
0.120668 0.014923 0.017762
0.146639 0.021332 0.025849
0.177584 0.026947 0.033875
0.213809 0.028351 0.039429
0.256748 0.023926 0.043977
0.306340 0.009094 0.048066
0.362310 0.000000 0.047364
0.423835 0.000000 0.045045
0.488869 0.000000 0.040009
0.554894 0.000000 0.032593
0.619135 0.000000 0.025422
0.679500 0.000000 0.020356
0.734615 0.000000 0.017731
0.783688 0.000000 0.020722
0.827237 0.000000 0.029816
0.864866 0.000000 0.048829
0.905943 0.000000 0.085542
0.939239 0.000000 0.107881
0.966766 0.000000 0.129244
0.990021 0.000000 0.150179
1.000000 0.054566 0.171237
1.000000 0.149569 0.193240
1.000000 0.199527 0.216373
1.000000 0.243595 0.241794
1.000000 0.285924 0.270268
1.000000 0.327825 0.302861
1.000000 0.370611 0.340368
0.002228 0.004120 0.002777
0.002228 0.004120 0.002777
0.024598 0.006043 0.004334
0.063142 0.008331 0.006653
0.097444 0.012970 0.011688
0.119783 0.019715 0.019440
0.145022 0.025605 0.026551
0.175051 0.031128 0.033631
0.210544 0.032685 0.039399
0.252293 0.030701 0.044038
0.300633 0.017273 0.048554
0.355413 0.000000 0.048524
0.415869 0.000000 0.046571
0.480293 0.000000 0.042084
0.545769 0.000000 0.034119
0.610407 0.000000 0.027375
0.671504 0.000000 0.021241
0.727413 0.000000 0.017975
0.777157 0.000000 0.020142
0.821225 0.000000 0.028992
0.859342 0.000000 0.045686
0.899870 0.000000 0.080964
0.932586 0.000000 0.104158
0.959930 0.000000 0.124086
0.983307 0.000000 0.144106
1.000000 0.000000 0.164431
1.000000 0.130831 0.185336
1.000000 0.185245 0.208103
1.000000 0.230381 0.233005
1.000000 0.273198 0.260777
1.000000 0.315953 0.292638
1.000000 0.359197 0.329351
0.005859 0.020142 0.014069
0.009094 0.020874 0.013916
0.019623 0.021942 0.013550
0.056336 0.027863 0.014313
0.095766 0.032258 0.019318
0.118288 0.038056 0.026093
0.143343 0.045380 0.033082
0.173342 0.050141 0.038056
0.208255 0.053773 0.043702
0.249577 0.050752 0.047547
0.297185 0.041749 0.050690
0.351324 0.018738 0.049470
0.410925 0.000000 0.048524
0.474403 0.000000 0.043091
0.539757 0.000000 0.036408
0.604089 0.000000 0.028595
0.665492 0.000000 0.022400
0.721859 0.000000 0.020142
0.772213 0.000000 0.021637
0.816861 0.000000 0.030304
0.855680 0.000000 0.047059
0.896513 0.000000 0.081331
0.928923 0.000000 0.103334
0.956085 0.000000 0.122957
0.979370 0.000000 0.142397
1.000000 0.016388 0.162142
1.000000 0.135256 0.182956
1.000000 0.186374 0.205295
1.000000 0.230014 0.229618
1.000000 0.272099 0.257237
1.000000 0.313695 0.288548
1.000000 0.356237 0.324620
0.020081 0.050263 0.035645
0.021057 0.051240 0.036622
0.027680 0.051545 0.038727
0.048829 0.057069 0.036439
0.091188 0.065522 0.037629
0.115846 0.074495 0.038239
0.142000 0.080323 0.042939
0.172061 0.083467 0.046784
0.207431 0.086397 0.051148
0.248173 0.087953 0.053285
0.295506 0.084962 0.054902
0.348363 0.073671 0.053193
0.407477 0.041138 0.050721
0.469978 0.000000 0.045869
0.533898 0.000000 0.037873
0.597436 0.000000 0.032136
0.658198 0.000000 0.026184
0.714076 0.000000 0.022766
0.764370 0.000000 0.024140
0.809140 0.000000 0.033387
0.849485 0.000000 0.048768
0.889311 0.000000 0.082277
0.921386 0.000000 0.102602
0.949004 0.000000 0.121523
0.973266 0.000000 0.140688
0.995178 0.094331 0.161227
1.000000 0.154391 0.182864
1.000000 0.199741 0.205692
1.000000 0.240482 0.230533
1.000000 0.280430 0.258183
1.000000 0.319860 0.288975
1.000000 0.359777 0.323766
0.033967 0.088350 0.066590
0.035981 0.088258 0.066590
0.039948 0.088106 0.066560
0.053529 0.088319 0.069612
0.083375 0.091157 0.066804
0.108949 0.094820 0.064057
0.138430 0.100435 0.060578
0.169436 0.104189 0.060090
0.204440 0.107240 0.061616
0.244877 0.109621 0.062043
0.290867 0.110475 0.062013
0.343267 0.109163 0.059358
0.401068 0.103090 0.055055
0.463172 0.091951 0.049958
0.527184 0.049500 0.043000
0.590661 0.000000 0.035889
0.652308 0.000000 0.029419
0.708980 0.000000 0.026978
0.759823 0.000000 0.029236
0.804929 0.000000 0.038544
0.847562 0.000000 0.057710
0.885863 0.000000 0.088045
0.917357 0.000000 0.105959
0.945037 0.000000 0.124544
0.969574 0.095125 0.143832
0.991730 0.145846 0.164370
1.000000 0.185397 0.185763
1.000000 0.222141 0.208347
1.000000 0.258091 0.233066
1.000000 0.293797 0.260227
1.000000 0.330388 0.290684
1.000000 0.367834 0.324926
0.047974 0.106050 0.090272
0.047974 0.106050 0.090272
0.053254 0.105562 0.089479
0.066285 0.105074 0.090730
0.084077 0.106386 0.090791
0.104097 0.109926 0.088930
0.130465 0.113985 0.087098
0.164675 0.121828 0.082277
0.204593 0.129580 0.075746
0.245548 0.133974 0.074495
0.291600 0.137209 0.071656
0.343633 0.139376 0.066987
0.401404 0.138643 0.062684
0.463081 0.135042 0.055634
0.526696 0.127352 0.048432
0.590387 0.115389 0.042084
0.651514 0.098573 0.035523
0.708278 0.068574 0.034058
0.758999 0.025452 0.038087
0.803799 0.002289 0.049042
0.848569 0.020386 0.074281
0.885588 0.075319 0.096193
0.951720 0.169589 0.142367
0.976867 0.198886 0.164797
0.998779 0.226444 0.187533
1.000000 0.254276 0.210544
1.000000 0.281834 0.234195
1.000000 0.310063 0.258885
1.000000 0.339147 0.285649
1.000000 0.369390 0.315221
1.000000 0.400366 0.347570
1.000000 0.432166 0.382025
0.057008 0.132296 0.105318
0.059693 0.131991 0.105379
0.064973 0.131624 0.104738
0.076631 0.130831 0.104463
0.091737 0.129580 0.106905
0.106081 0.132540 0.105104
0.130282 0.137301 0.102541
0.163302 0.141146 0.100282
0.205203 0.152682 0.095521
0.255680 0.164828 0.089723
0.309880 0.173861 0.082887
0.365270 0.178408 0.079469
0.424964 0.180880 0.072755
0.487160 0.181338 0.064973
0.550042 0.179263 0.056458
0.611109 0.175418 0.050050
0.669825 0.170413 0.045777
0.723415 0.165988 0.046326
0.771695 0.163302 0.055787
0.820401 0.167025 0.078462
0.865599 0.178805 0.098207
0.903197 0.194949 0.118837
0.935424 0.214481 0.141604
0.963592 0.236881 0.165408
0.987945 0.260227 0.189059
1.000000 0.283848 0.213169
1.000000 0.306920 0.236454
1.000000 0.330846 0.260929
1.000000 0.356146 0.287022
1.000000 0.382452 0.315068
1.000000 0.410315 0.346044
1.000000 0.439490 0.379583
0.066224 0.157229 0.120119
0.068238 0.157198 0.120119
0.074220 0.156710 0.119600
0.082612 0.155917 0.118837
0.095186 0.154543 0.119570
0.109407 0.153811 0.121492
0.127993 0.158511 0.119326
0.156893 0.164065 0.115969
0.192966 0.167483 0.113924
0.241306 0.182742 0.108217
0.297948 0.197848 0.101411
0.362615 0.212222 0.091829
0.422431 0.218265 0.087373
0.483253 0.222019 0.081086
0.544762 0.224002 0.073335
0.605097 0.224399 0.066224
0.662715 0.224338 0.062470
0.716030 0.223972 0.064027
0.767269 0.225711 0.076753
0.817105 0.232456 0.093202
0.859281 0.241276 0.109621
0.895354 0.252262 0.128908
0.926879 0.266026 0.150607
0.954772 0.282322 0.173556
0.979095 0.300450 0.196963
1.000000 0.318914 0.220035
1.000000 0.337987 0.243351
1.000000 0.357885 0.267185
1.000000 0.379644 0.292882
1.000000 0.402899 0.320745
1.000000 0.427710 0.350866
1.000000 0.454383 0.383795
0.071290 0.187625 0.137453
0.073274 0.187594 0.137453
0.079500 0.187045 0.136812
0.088197 0.186221 0.135988
0.097017 0.184787 0.134981
0.114656 0.182406 0.138094
0.130343 0.183749 0.138491
0.154360 0.189731 0.135317
0.187839 0.196231 0.131441
0.228244 0.199832 0.129061
0.282170 0.217594 0.123171
0.344823 0.235416 0.115389
0.414252 0.252171 0.104677
0.482948 0.264652 0.093874
0.543542 0.269627 0.090120
0.602564 0.273045 0.085878
0.659236 0.275547 0.083589
0.714778 0.279362 0.088563
0.767727 0.284764 0.096101
0.814145 0.290776 0.108614
0.854002 0.297948 0.124392
0.888640 0.306645 0.143526
0.919371 0.316838 0.164706
0.946807 0.329381 0.186679
0.970977 0.343450 0.209659
0.992340 0.358038 0.232212
1.000000 0.373602 0.255283
1.000000 0.390478 0.278904
1.000000 0.408972 0.304448
1.000000 0.428931 0.331701
1.000000 0.451026 0.361425
1.000000 0.474739 0.393347
0.072633 0.223209 0.157778
0.075929 0.223056 0.157412
0.080354 0.222507 0.156924
0.090730 0.221347 0.155917
0.099123 0.219883 0.154391
0.115938 0.217441 0.155123
0.136172 0.214054 0.158694
0.155062 0.218479 0.157046
0.183658 0.225071 0.153323
0.221988 0.232547 0.148745
0.266392 0.236820 0.145205
0.324254 0.254154 0.139712
0.391089 0.274907 0.131319
0.462562 0.294438 0.120912
0.536370 0.312688 0.106783
0.599176 0.321538 0.100801
0.661067 0.329778 0.101900
0.717586 0.336431 0.106538
0.767483 0.341955 0.115816
0.811337 0.347173 0.128450
0.848936 0.352361 0.143679
0.881468 0.357855 0.161410
0.910369 0.364752 0.180392
0.936461 0.373175 0.200565
0.959869 0.382635 0.221408
0.981018 0.393530 0.242771
1.000000 0.405829 0.265171
1.000000 0.419776 0.288579
1.000000 0.435950 0.314122
1.000000 0.454047 0.341680
1.000000 0.474128 0.371588
1.000000 0.496315 0.403876
0.071138 0.261051 0.179416
0.072145 0.260960 0.179294
0.080201 0.260594 0.178683
0.090883 0.259648 0.177523
0.101839 0.258122 0.176303
0.114931 0.256321 0.174899
0.139620 0.253239 0.178470
0.160769 0.251011 0.181857
0.184451 0.258122 0.178408
0.217807 0.266148 0.174228
0.260868 0.274510 0.168826
0.309392 0.279423 0.164370
0.370062 0.296086 0.159731
0.440192 0.319951 0.151431
0.516930 0.345159 0.141878
0.593530 0.367926 0.131319
0.663264 0.385534 0.122621
0.716152 0.391241 0.128878
0.763302 0.395880 0.138308
0.804959 0.399725 0.150393
0.841093 0.403021 0.165225
0.872801 0.406806 0.181979
0.901305 0.411841 0.200534
0.927245 0.417792 0.219913
0.950683 0.425086 0.240391
0.971923 0.433661 0.261479
0.991913 0.443519 0.283726
1.000000 0.455177 0.306920
1.000000 0.468788 0.332158
1.000000 0.484627 0.359380
1.000000 0.502495 0.388739
1.000000 0.522301 0.420020
0.058015 0.306126 0.205356
0.061738 0.305943 0.205264
0.070039 0.305577 0.204654
0.088106 0.304814 0.203708
0.101259 0.303471 0.202274
0.116426 0.301518 0.200687
0.140261 0.298741 0.201938
0.167178 0.295048 0.206088
0.189761 0.296330 0.207462
0.218387 0.304631 0.203494
0.256626 0.313787 0.198489
0.305852 0.325353 0.193179
0.390051 0.361791 0.202274
0.462318 0.382147 0.200290
0.541955 0.413306 0.194797
0.618921 0.439155 0.189914
0.687861 0.459022 0.187137
0.747829 0.474342 0.187625
0.793637 0.480598 0.196384
0.829435 0.481575 0.210880
0.860899 0.482277 0.227207
0.888792 0.483619 0.244205
0.913939 0.485695 0.262028
0.936858 0.489174 0.281468
0.957885 0.493782 0.301183
0.977447 0.499367 0.320897
0.995880 0.505974 0.340978
1.000000 0.514153 0.361822
1.000000 0.524254 0.384314
1.000000 0.536309 0.408453
1.000000 0.550347 0.434485
1.000000 0.566644 0.462623
0.021332 0.370672 0.242741
0.025360 0.370428 0.242374
0.041444 0.369299 0.241428
0.072267 0.367651 0.239933
0.096742 0.365057 0.237888
0.116274 0.361944 0.235325
0.137453 0.358251 0.233158
0.172091 0.354192 0.237339
0.202487 0.352453 0.244022
0.230564 0.360998 0.244327
0.268009 0.375097 0.242069
0.317479 0.390967 0.239139
0.377203 0.407507 0.235142
0.440711 0.418341 0.231174
0.511467 0.433936 0.231510
0.587579 0.463416 0.228702
0.656733 0.485634 0.227115
0.717586 0.501793 0.227878
0.770077 0.514122 0.231540
0.814237 0.522789 0.238193
0.845335 0.521965 0.252110
0.873320 0.521904 0.267826
0.898802 0.522606 0.284794
0.922240 0.524498 0.302434
0.943816 0.527520 0.321233
0.963928 0.531731 0.340520
0.983032 0.537255 0.360266
1.000000 0.544305 0.380865
1.000000 0.553094 0.402869
1.000000 0.564050 0.426856
1.000000 0.576654 0.452308
1.000000 0.591455 0.479652
0.005676 0.428534 0.278111
0.007996 0.428046 0.277867
0.025422 0.427070 0.276921
0.061128 0.425238 0.275273
0.095674 0.422889 0.273259
0.117922 0.420172 0.270848
0.140322 0.417304 0.268437
0.172946 0.413855 0.270024
0.208804 0.410407 0.275517
0.240238 0.408057 0.281926
0.271763 0.420783 0.279728
0.314122 0.435126 0.277287
0.366918 0.450172 0.274174
0.427710 0.464820 0.269474
0.491890 0.474830 0.263798
0.554620 0.480415 0.265110
0.623987 0.505943 0.264469
0.685756 0.524437 0.265995
0.740414 0.538506 0.269810
0.786709 0.548547 0.276097
0.826596 0.555962 0.284520
0.859251 0.559686 0.296849
0.885069 0.559564 0.312688
0.908904 0.560479 0.329778
0.930907 0.562432 0.347631
0.951476 0.565698 0.366094
0.971099 0.570001 0.384894
0.990021 0.575799 0.404791
1.000000 0.583368 0.426001
1.000000 0.592920 0.448859
1.000000 0.604364 0.473396
1.000000 0.617670 0.499519
0.056672 0.488380 0.319982
0.063600 0.487984 0.319646
0.079103 0.486702 0.318486
0.095766 0.484352 0.316228
0.113436 0.481147 0.313451
0.133272 0.477394 0.310002
0.153597 0.473701 0.306828
0.176913 0.470039 0.304448
0.215549 0.465888 0.308995
0.250340 0.462226 0.315404
0.281254 0.464515 0.319615
0.316838 0.477546 0.317662
0.361944 0.490913 0.315312
0.415106 0.503960 0.311620
0.474739 0.515496 0.306218
0.537407 0.523827 0.298955
0.591363 0.520714 0.300328
0.654383 0.542565 0.302495
0.710475 0.558923 0.306737
0.759182 0.571038 0.313024
0.800961 0.579919 0.321721
0.837827 0.587335 0.332311
0.870634 0.593896 0.344579
0.895750 0.595148 0.359930
0.918059 0.596185 0.376562
0.939086 0.598535 0.393835
0.959228 0.602136 0.412177
0.978790 0.607507 0.431830
0.997986 0.614710 0.452979
1.000000 0.623835 0.475898
1.000000 0.635004 0.500542
1.000000 0.647852 0.526299
0.128756 0.538079 0.360754
0.130556 0.538048 0.360754
0.134035 0.537285 0.359930
0.141817 0.535821 0.358282
0.152926 0.533684 0.355810
0.167117 0.531029 0.353094
0.183871 0.528557 0.350530
0.202976 0.525963 0.348028
0.232883 0.522850 0.350072
0.267948 0.519158 0.355657
0.300084 0.515099 0.362280
0.329473 0.520256 0.362585
0.365759 0.530266 0.359380
0.409796 0.539788 0.354894
0.459632 0.548302 0.349248
0.514824 0.555840 0.342351
0.574243 0.562249 0.333898
0.620783 0.553643 0.334752
0.678309 0.572992 0.339513
0.729763 0.588190 0.346410
0.774166 0.599695 0.355627
0.813199 0.608942 0.367010
0.847837 0.616907 0.379980
0.878935 0.624079 0.393988
0.906035 0.629603 0.409369
0.927642 0.631647 0.426215
0.948241 0.635035 0.444221
0.968414 0.639765 0.462867
0.988006 0.646113 0.482612
1.000000 0.653956 0.503593
1.000000 0.663386 0.525658
1.000000 0.674311 0.548547
0.187808 0.580011 0.400885
0.188449 0.579858 0.400702
0.190677 0.579278 0.400031
0.194797 0.578210 0.398657
0.202335 0.576562 0.396674
0.211643 0.574670 0.394415
0.224033 0.572351 0.391913
0.238560 0.569970 0.389349
0.255985 0.567224 0.387488
0.288121 0.563561 0.392187
0.318242 0.559564 0.397620
0.346502 0.555108 0.403876
0.375311 0.563348 0.401099
0.411170 0.571344 0.397345
0.453162 0.578729 0.392676
0.500359 0.585229 0.386664
0.551812 0.590967 0.379797
0.606806 0.596216 0.372168
0.649683 0.588190 0.372381
0.701106 0.602167 0.378882
0.747768 0.616449 0.388495
0.788724 0.627710 0.400122
0.825010 0.637140 0.413336
0.857481 0.645502 0.427832
0.886961 0.653254 0.443061
0.914336 0.660975 0.459022
0.937377 0.665919 0.475837
0.958068 0.670283 0.493507
0.978210 0.676112 0.512169
0.997864 0.683223 0.531609
1.000000 0.691768 0.551995
1.000000 0.701656 0.573266
0.252110 0.618647 0.443946
0.252628 0.618860 0.444129
0.296483 0.640864 0.471656
0.298589 0.640040 0.470466
0.302159 0.638697 0.468727
0.307317 0.636744 0.466346
0.314153 0.634546 0.463691
0.322515 0.631983 0.460761
0.333013 0.629419 0.458198
0.352148 0.626123 0.459205
0.376440 0.622126 0.463142
0.399695 0.617639 0.467475
0.421820 0.615503 0.469123
0.447913 0.620874 0.464973
0.479377 0.625696 0.459602
0.515618 0.629999 0.453285
0.556603 0.633478 0.445655
0.601404 0.636622 0.437354
0.649500 0.639307 0.428656
0.687007 0.631037 0.426917
0.730343 0.638972 0.433753
0.771267 0.651453 0.444923
0.807858 0.661707 0.457374
0.840604 0.670497 0.470680
0.870115 0.678157 0.484016
0.897612 0.685451 0.497597
0.923766 0.692866 0.511284
0.948852 0.700465 0.525719
0.969116 0.704952 0.541344
0.989014 0.711055 0.558648
1.000000 0.718563 0.577081
1.000000 0.727382 0.596643
0.325139 0.657801 0.493111
0.328923 0.659632 0.495460
0.334051 0.661280 0.497719
0.339147 0.662318 0.499092
0.344305 0.662593 0.499397
0.349279 0.661646 0.498207
0.354559 0.659754 0.496071
0.360479 0.657465 0.493294
0.368597 0.654963 0.490669
0.378729 0.652186 0.488563
0.399390 0.648524 0.491646
0.419959 0.644465 0.495064
0.439338 0.639460 0.498116
0.459297 0.640284 0.497200
0.483894 0.644892 0.492988
0.513054 0.649134 0.487922
0.547051 0.653040 0.482124
0.585260 0.656550 0.475837
0.627161 0.659937 0.469368
0.671748 0.663050 0.462806
0.706905 0.656306 0.461860
0.746212 0.661738 0.469978
0.784421 0.674250 0.482795
0.818692 0.684688 0.496040
0.849516 0.693568 0.509209
0.878019 0.701747 0.522667
0.905089 0.709743 0.536095
0.931273 0.718196 0.550103
0.956664 0.727108 0.564843
0.979309 0.734859 0.580682
0.999298 0.741787 0.597986
1.000000 0.749966 0.616236
0.372717 0.682307 0.525444
0.376776 0.683925 0.527764
0.381292 0.685512 0.530053
0.386206 0.686610 0.531731
0.390692 0.687007 0.532311
0.394751 0.686275 0.531456
0.398535 0.684871 0.529595
0.403113 0.682856 0.527276
0.409003 0.680690 0.524804
0.415778 0.678218 0.522271
0.429145 0.675135 0.522667
0.446479 0.671534 0.525322
0.463569 0.667170 0.527794
0.480018 0.662348 0.530358
0.498787 0.665827 0.527428
0.521599 0.669764 0.523552
0.548699 0.673426 0.518883
0.579736 0.676783 0.513695
0.614557 0.680049 0.508476
0.652735 0.683162 0.503197
0.693477 0.686183 0.497902
0.726070 0.680751 0.497414
0.761532 0.683650 0.505486
0.797391 0.696162 0.518975
0.829496 0.706569 0.532189
0.859068 0.715846 0.545312
0.886992 0.724666 0.558556
0.914000 0.733730 0.572198
0.940337 0.743313 0.586847
0.965789 0.753292 0.602258
0.990326 0.763638 0.618280
1.000000 0.771420 0.634913
0.420294 0.705226 0.557244
0.423651 0.706569 0.559228
0.427344 0.707851 0.561089
0.431220 0.708705 0.562493
0.434791 0.709010 0.562921
0.437995 0.708400 0.562310
0.440955 0.707179 0.560754
0.444404 0.705592 0.558862
0.448829 0.703792 0.556725
0.454017 0.701717 0.554559
0.460975 0.699336 0.552819
0.475532 0.696162 0.554803
0.490028 0.692561 0.556725
0.504356 0.688441 0.558770
0.518944 0.685847 0.559838
0.536675 0.689693 0.557000
0.558587 0.693599 0.554101
0.584344 0.697475 0.551141
0.613581 0.701534 0.548394
0.646387 0.705592 0.545739
0.681849 0.709651 0.543420
0.719722 0.713588 0.541070
0.750149 0.710109 0.541985
0.782620 0.711788 0.550622
0.816220 0.724819 0.565393
0.846983 0.736110 0.579583
0.876036 0.746670 0.593591
0.904204 0.757198 0.607813
0.931609 0.767880 0.622431
0.958129 0.778592 0.637293
0.983551 0.789242 0.652338
1.000000 0.799741 0.667597
0.483864 0.734554 0.599695
0.485237 0.735042 0.600427
0.486488 0.735286 0.600793
0.487678 0.735134 0.600702
0.488746 0.734615 0.600031
0.489876 0.733669 0.598688
0.491585 0.732387 0.597101
0.493904 0.730953 0.595300
0.496803 0.729335 0.593378
0.501061 0.727687 0.591699
0.505852 0.725826 0.589960
0.515190 0.723384 0.590204
0.527153 0.720302 0.591791
0.538964 0.716823 0.593378
0.550774 0.712917 0.594965
0.563470 0.712856 0.594415
0.579522 0.716121 0.591791
0.598810 0.719387 0.589105
0.621393 0.722744 0.586419
0.647242 0.726131 0.583642
0.675990 0.729427 0.580926
0.707271 0.732662 0.578271
0.740719 0.735744 0.575372
0.768215 0.732448 0.574853
0.797299 0.731868 0.581781
0.829160 0.744808 0.596246
0.859251 0.756863 0.610742
0.888487 0.768582 0.625116
0.917052 0.780209 0.639551
0.944640 0.791623 0.654078
0.971130 0.802853 0.668788
0.996246 0.813779 0.683680
0.523919 0.753750 0.627314
0.524865 0.754177 0.627893
0.525963 0.754360 0.628260
0.527001 0.754299 0.628260
0.528161 0.753872 0.627710
0.529076 0.753140 0.626764
0.530358 0.752071 0.625422
0.532128 0.750851 0.623896
0.534813 0.749508 0.622461
0.538018 0.748104 0.620966
0.541863 0.746578 0.619501
0.546899 0.744717 0.618341
0.557000 0.742184 0.619684
0.567315 0.739315 0.621210
0.577752 0.736172 0.622797
0.588067 0.732692 0.624384
0.600305 0.735012 0.623133
0.615412 0.738308 0.621241
0.633326 0.741695 0.619409
0.654047 0.745083 0.617487
0.677607 0.748501 0.615625
0.703670 0.751827 0.613764
0.732052 0.755062 0.611841
0.762325 0.758083 0.609766
0.783749 0.751369 0.602289
0.810330 0.749477 0.608179
0.841520 0.763027 0.622980
0.871702 0.775998 0.637476
0.901427 0.788754 0.652003
0.930266 0.801266 0.666682
0.958099 0.813565 0.681727
0.984558 0.825467 0.696956
0.569574 0.776608 0.659754
0.570977 0.777218 0.660700
0.571801 0.777432 0.660945
0.572045 0.777035 0.660456
0.571862 0.776211 0.659358
0.571496 0.775051 0.657771
0.571252 0.773556 0.655787
0.571283 0.771878 0.653559
0.571893 0.770047 0.651301
0.573297 0.768276 0.649104
0.575097 0.766232 0.646845
0.577600 0.764248 0.644770
0.583459 0.761776 0.644282
0.591333 0.758816 0.644739
0.599420 0.755489 0.645197
0.607599 0.751949 0.645808
0.616297 0.749325 0.646143
0.627710 0.752193 0.644312
0.642023 0.755367 0.642756
0.659205 0.758877 0.641566
0.678889 0.762448 0.640528
0.700984 0.765927 0.639368
0.724910 0.769100 0.637812
0.750607 0.771878 0.635767
0.777951 0.774289 0.633143
0.801175 0.771908 0.631403
0.826169 0.770291 0.636652
0.856413 0.782681 0.649866
0.886748 0.796262 0.663905
0.916533 0.809659 0.678340
0.945342 0.822782 0.693202
0.972900 0.835599 0.708583
0.596826 0.792233 0.680293
0.598047 0.792813 0.681147
0.598993 0.793088 0.681575
0.599512 0.792966 0.681422
0.599847 0.792538 0.680873
0.600427 0.791867 0.680018
0.601160 0.791073 0.679042
0.602197 0.790097 0.677913
0.603662 0.789120 0.676692
0.605676 0.787991 0.675563
0.607904 0.786679 0.674159
0.610529 0.785183 0.672786
0.613794 0.783444 0.671473
0.620661 0.781003 0.671992
0.627619 0.778195 0.672389
0.634668 0.775082 0.672877
0.641932 0.771847 0.673426
0.650294 0.771450 0.673182
0.661341 0.774350 0.671901
0.674891 0.777615 0.670954
0.690944 0.781064 0.670192
0.709071 0.784543 0.669459
0.729244 0.787930 0.668605
0.751217 0.791104 0.667384
0.774929 0.794034 0.665919
0.800320 0.796719 0.664088
0.822599 0.795529 0.662837
0.846983 0.795377 0.668544
0.877256 0.807370 0.681422
0.908019 0.822049 0.695918
0.937774 0.836210 0.710780
0.966094 0.849668 0.725826
0.628473 0.811704 0.704952
0.629084 0.811978 0.705348
0.629480 0.812070 0.705440
0.629755 0.811917 0.705226
0.630030 0.811429 0.704677
0.630335 0.810788 0.703853
0.630793 0.809995 0.702907
0.631556 0.809049 0.701778
0.632685 0.808042 0.700649
0.634241 0.807034 0.699550
0.636133 0.805814 0.698268
0.638361 0.804593 0.697078
0.640772 0.803128 0.695735
0.645563 0.801175 0.695491
0.651759 0.798703 0.695918
0.658045 0.796017 0.696315
0.664607 0.793210 0.696925
0.671504 0.790372 0.697780
0.680140 0.792050 0.697261
0.691127 0.795193 0.696529
0.704189 0.798611 0.696071
0.719295 0.802060 0.695583
0.736141 0.805509 0.694911
0.754818 0.808713 0.694057
0.775204 0.811765 0.692866
0.797269 0.814633 0.691371
0.821195 0.817411 0.689784
0.843107 0.817288 0.688624
0.866575 0.817716 0.694392
0.896666 0.829221 0.707301
0.927459 0.844602 0.722255
0.956878 0.859190 0.737575
0.654871 0.830259 0.726711
0.655360 0.830503 0.727016
0.655756 0.830625 0.727169
0.656275 0.830594 0.727138
0.656916 0.830472 0.727016
0.657954 0.830350 0.726925
0.659693 0.830533 0.727169
0.662043 0.830808 0.727565
0.664942 0.831174 0.728115
0.668269 0.831601 0.728786
0.671962 0.832029 0.729519
0.675837 0.832242 0.730068
0.679622 0.832212 0.730373
0.683680 0.831693 0.730526
0.690333 0.830411 0.731991
0.696559 0.828550 0.732937
0.702754 0.826413 0.733822
0.709163 0.824216 0.734920
0.716121 0.822660 0.736233
0.724910 0.825895 0.735866
0.735500 0.829404 0.735683
0.747951 0.832975 0.735500
0.761837 0.836484 0.735073
0.777493 0.839872 0.734493
0.794766 0.843046 0.733669
0.813748 0.846098 0.732601
0.834409 0.849058 0.731472
0.856870 0.851987 0.730251
0.878355 0.852842 0.729366
0.900389 0.853483 0.734981
0.929534 0.864103 0.747707
0.959075 0.879423 0.763180
0.692744 0.859648 0.759365
0.692805 0.859617 0.759396
0.692805 0.859495 0.759213
0.692897 0.859220 0.758907
0.693080 0.858854 0.758480
0.693416 0.858396 0.757961
0.694087 0.857969 0.757473
0.695094 0.857511 0.756954
0.696529 0.857084 0.756527
0.698207 0.856718 0.756100
0.700343 0.856260 0.755703
0.702632 0.855802 0.755306
0.705196 0.855192 0.754818
0.707790 0.854398 0.754208
