20 Preset/White Style/【3】LUT video cho PR-AE-FCPX/White Style LUT (5).cube
# Created by Adobe Lightroom plugin Export LUT (1.24.0)
# www.johnrellis.com/lightroom/exportlut.htm
# Preset: 通透白调-素材江湖05
# Color profile: C:\Program Files (x86)\Common Files\Adobe\Color\Profiles\Recommended\VideoHD.icc
LUT_3D_SIZE 5
DOMAIN_MIN 0.000000 0.000000 0.000000
DOMAIN_MAX 0.903226 0.903226 0.903226
0.000000 0.000000 0.000000
0.165347 0.088075 0.037598
0.437873 0.170718 0.019684
0.768643 0.315190 0.000000
0.941222 0.485817 0.214054
0.069947 0.157534 0.111635
0.182834 0.178470 0.090089
0.450996 0.249210 0.050660
0.763973 0.388006 0.011200
0.936645 0.527184 0.239475
0.000000 0.451179 0.282994
0.113771 0.449775 0.277287
0.502525 0.521294 0.203159
0.779568 0.548363 0.218418
0.912932 0.634668 0.397620
0.377142 0.710079 0.578241
0.400610 0.709743 0.577295
0.494484 0.714565 0.578698
0.729397 0.744167 0.507744
0.906523 0.737728 0.536492
0.659876 0.850523 0.783749
0.666194 0.850523 0.784268
0.683284 0.847349 0.782406
0.740566 0.858610 0.781308
0.857481 0.873533 0.755093
0.027985 0.100008 0.158907
0.188632 0.091066 0.169314
0.466438 0.174044 0.175814
0.761166 0.339605 0.209384
0.926787 0.498970 0.297581
0.103670 0.198245 0.195071
0.213870 0.205600 0.201938
0.475654 0.277043 0.213748
0.757687 0.405493 0.240665
0.920500 0.536217 0.338048
0.152834 0.476020 0.359045
0.251316 0.476844 0.361761
0.506065 0.520714 0.312200
0.762692 0.559228 0.341772
0.898497 0.650507 0.488014
0.436011 0.714809 0.616571
0.455024 0.714992 0.615595
0.526696 0.715877 0.619806
0.729183 0.745296 0.560418
0.897581 0.745327 0.588495
0.670497 0.851316 0.791775
0.676081 0.851225 0.791806
0.699855 0.851713 0.794949
0.749172 0.860563 0.793637
0.859770 0.875639 0.769619
0.000000 0.217197 0.467262
0.000000 0.198276 0.478950
0.511925 0.199832 0.501976
0.783474 0.363226 0.497932
0.904784 0.560174 0.568078
0.043854 0.354223 0.498116
0.180545 0.323919 0.505913
0.527672 0.316014 0.526513
0.772488 0.443397 0.523033
0.897612 0.593286 0.591150
0.194583 0.552544 0.574914
0.318853 0.554955 0.577661
0.550622 0.566583 0.591028
0.739895 0.621942 0.614435
0.875944 0.685939 0.656519
0.451942 0.734951 0.686275
0.500755 0.732784 0.690517
0.619135 0.732753 0.710079
0.735073 0.753170 0.691035
0.873320 0.770596 0.711879
0.676295 0.854795 0.809476
0.695216 0.854612 0.814115
0.726619 0.854917 0.818143
0.763760 0.859007 0.820645
0.859861 0.875181 0.799649
0.000000 0.425635 0.752377
0.000000 0.408148 0.756649
0.485115 0.414679 0.763058
0.758724 0.459113 0.764736
0.892180 0.599573 0.752438
0.230320 0.515038 0.754482
0.280552 0.499825 0.757046
0.502342 0.482216 0.763180
0.752438 0.510491 0.764736
0.884733 0.626276 0.757046
0.470008 0.667628 0.758541
0.503380 0.666743 0.760494
0.579461 0.647181 0.769314
0.742947 0.646204 0.773983
0.870054 0.707332 0.777707
0.551598 0.762661 0.793210
0.572503 0.762325 0.792935
0.646998 0.764126 0.794827
0.753445 0.769833 0.800259
0.861112 0.800198 0.812192
0.626398 0.869810 0.838621
0.644770 0.869230 0.839597
0.711299 0.867735 0.844968
0.797696 0.866667 0.858183
0.865019 0.878660 0.847654
0.528923 0.669886 0.884581
0.540368 0.664607 0.885313
0.609979 0.658106 0.887053
0.746578 0.665522 0.888029
0.880400 0.690822 0.886290
0.566247 0.698054 0.882963
0.575036 0.693202 0.883696
0.624689 0.680629 0.886107
0.748836 0.684840 0.887327
0.878325 0.705074 0.886198
0.653956 0.771786 0.881010
0.658412 0.768124 0.881529
0.678553 0.752255 0.884459
0.756954 0.742672 0.887297
0.873930 0.752316 0.887999
0.707118 0.835264 0.884886
0.714504 0.835294 0.884642
0.741970 0.833310 0.885832
0.779812 0.817929 0.891264
0.873167 0.817411 0.894652
0.731807 0.883696 0.902403
0.738155 0.883726 0.902464
0.764706 0.884367 0.903044
0.812619 0.885679 0.904173
0.879149 0.888914 0.906920
