20 Preset/White Style/【3】LUT video cho PR-AE-FCPX/White Style LUT (2).cube
# Created by Adobe Lightroom plugin Export LUT (1.24.0)
# www.johnrellis.com/lightroom/exportlut.htm
# Preset: 通透白调-素材江湖02
# Color profile: C:\Program Files (x86)\Common Files\Adobe\Color\Profiles\Recommended\VideoHD.icc
LUT_3D_SIZE 8
DOMAIN_MIN 0.000000 0.000000 0.000000
DOMAIN_MAX 0.903226 0.903226 0.903226
0.000000 0.000000 0.000000
0.103395 0.007568 0.010956
0.228794 0.013672 0.042115
0.413153 0.000000 0.062165
0.581720 0.000000 0.075257
0.715328 0.000000 0.096529
0.822629 0.075685 0.129488
0.906737 0.186893 0.175784
0.003693 0.101717 0.063111
0.097505 0.098207 0.088502
0.226200 0.109529 0.074800
0.404273 0.090150 0.078004
0.571160 0.031067 0.087312
0.704707 0.089052 0.103151
0.811734 0.152682 0.132906
0.898131 0.215793 0.177035
0.000000 0.249210 0.118868
0.000000 0.249882 0.115633
0.250767 0.245121 0.166720
0.407782 0.260777 0.149355
0.561212 0.267277 0.121553
0.696559 0.277684 0.136172
0.807065 0.296422 0.167300
0.893706 0.321538 0.210483
0.000000 0.424231 0.184634
0.000000 0.422217 0.181094
0.232303 0.416358 0.171786
0.447333 0.433753 0.292058
0.572625 0.450294 0.321202
0.681025 0.428168 0.203555
0.785733 0.429023 0.223880
0.874022 0.436530 0.261540
0.000000 0.560266 0.271031
0.000000 0.558587 0.268467
0.206729 0.552667 0.257084
0.425544 0.553918 0.289677
0.590082 0.576745 0.436194
0.667567 0.587793 0.510643
0.759915 0.560815 0.394751
0.845274 0.542321 0.327123
0.000000 0.658289 0.367041
0.000000 0.659358 0.367376
0.235660 0.654902 0.357488
0.384131 0.646021 0.336980
0.561578 0.654810 0.428229
0.682643 0.676417 0.581445
0.733150 0.696284 0.683040
0.812680 0.683711 0.612360
0.254459 0.739467 0.480507
0.270787 0.739345 0.479408
0.323827 0.736538 0.470192
0.407446 0.731472 0.452918
0.512902 0.723964 0.434638
0.665675 0.737209 0.580987
0.753445 0.754665 0.701747
0.790433 0.775113 0.788663
0.433539 0.822965 0.623011
0.438178 0.822812 0.621881
0.458991 0.822507 0.617670
0.499763 0.822232 0.609979
0.550256 0.815610 0.583612
0.656886 0.816953 0.625605
0.764920 0.823026 0.729763
0.825254 0.829831 0.799222
0.017243 0.029419 0.113252
0.106996 0.030884 0.116121
0.243534 0.000000 0.125246
0.422583 0.000000 0.133364
0.583551 0.000000 0.141421
0.711910 0.000000 0.151644
0.813291 0.094179 0.170626
0.896635 0.187533 0.201694
0.045502 0.105684 0.124666
0.109438 0.114931 0.129458
0.248966 0.113344 0.134646
0.420478 0.092561 0.139986
0.578729 0.060639 0.146395
0.706630 0.105074 0.156252
0.806821 0.161013 0.174166
0.890440 0.217411 0.203830
0.000000 0.258030 0.189609
0.000000 0.262058 0.168795
0.263828 0.259190 0.202853
0.415412 0.270726 0.178805
0.564935 0.272831 0.169375
0.693904 0.280308 0.178378
0.796780 0.293889 0.197269
0.883940 0.317876 0.229343
0.000000 0.424445 0.239048
0.000000 0.424475 0.219516
0.238926 0.419348 0.207553
0.443030 0.431342 0.308721
0.561303 0.442084 0.323308
0.669520 0.420935 0.224887
0.774014 0.421881 0.240574
0.864256 0.430152 0.272007
0.000000 0.560937 0.308019
0.000000 0.559564 0.294774
0.216892 0.552850 0.282872
0.421393 0.550164 0.302983
0.583307 0.571130 0.440772
0.661799 0.582177 0.506249
0.753780 0.555261 0.393256
0.839689 0.538750 0.335882
0.000000 0.656031 0.386694
0.000000 0.655512 0.380377
0.241245 0.651453 0.371008
0.384283 0.643336 0.351965
0.557885 0.651453 0.433204
0.680018 0.674464 0.584558
0.731197 0.694118 0.680903
0.810147 0.680262 0.608423
0.260655 0.736416 0.487648
0.271397 0.735378 0.484016
0.322850 0.732479 0.474861
0.405798 0.727810 0.458350
0.507958 0.720638 0.435859
0.662348 0.734279 0.580316
0.750149 0.751522 0.699580
0.787625 0.771878 0.785122
0.430121 0.819821 0.622950
0.436255 0.820249 0.622980
0.456611 0.819760 0.618463
0.497200 0.819516 0.610773
0.555993 0.818357 0.596216
0.657069 0.817807 0.629480
0.764157 0.822599 0.730465
0.824857 0.829496 0.799771
0.000000 0.085603 0.258640
0.122774 0.076112 0.261509
0.284031 0.008087 0.266423
0.456886 0.000000 0.265690
0.614984 0.000000 0.275486
0.737209 0.036561 0.282811
0.826230 0.170626 0.290379
0.902220 0.236332 0.306523
0.001801 0.149508 0.269474
0.128695 0.144564 0.271855
0.293431 0.132845 0.275334
0.460090 0.091279 0.270756
0.612634 0.119417 0.281102
0.731411 0.155276 0.283268
0.819608 0.209415 0.290837
0.896818 0.258640 0.306981
0.145022 0.278538 0.291539
0.189853 0.284611 0.293645
0.305882 0.307134 0.300572
0.461433 0.303624 0.297856
0.600366 0.302525 0.296086
0.716518 0.308568 0.299413
0.807004 0.321355 0.306615
0.886809 0.342840 0.323980
0.176699 0.445350 0.372564
0.215000 0.447852 0.370397
0.287205 0.454108 0.336675
0.466743 0.460548 0.391302
0.579644 0.460792 0.371099
0.688350 0.444221 0.331426
0.783810 0.442451 0.338720
0.867948 0.448554 0.357122
0.242008 0.573693 0.437995
0.263493 0.573846 0.433600
0.276677 0.573175 0.387762
0.427405 0.563622 0.371344
0.593500 0.586938 0.500755
0.668177 0.593103 0.534173
0.754360 0.558831 0.422217
0.841459 0.550011 0.404395
0.299657 0.661433 0.492927
0.298466 0.661524 0.484474
0.302281 0.660456 0.449622
0.409003 0.652277 0.429603
0.559106 0.654597 0.475135
0.680537 0.678889 0.614740
0.733455 0.697871 0.689540
0.810971 0.681788 0.618280
0.370031 0.738796 0.562524
0.367529 0.738338 0.555688
0.367712 0.736934 0.530571
0.430823 0.731991 0.513634
0.516503 0.724239 0.486610
0.662959 0.736141 0.602838
0.752285 0.755612 0.716030
0.792172 0.776638 0.791165
0.471168 0.819791 0.661189
0.469703 0.819669 0.657008
0.472419 0.820066 0.644617
0.509819 0.820493 0.638361
0.563287 0.819364 0.624384
0.653651 0.819089 0.639338
0.764828 0.824369 0.738857
0.826169 0.831479 0.806241
0.000000 0.123598 0.442817
0.145724 0.122286 0.445533
0.325872 0.111879 0.449104
0.489296 0.078340 0.446235
0.624140 0.000000 0.424384
0.739895 0.105898 0.419532
0.826291 0.225803 0.424659
0.894347 0.319860 0.449226
0.055573 0.194430 0.452399
0.169650 0.194186 0.453315
0.332982 0.189609 0.455390
0.492714 0.172519 0.452430
0.625666 0.107912 0.427497
0.738857 0.184756 0.424109
0.823484 0.264134 0.430335
0.890867 0.342748 0.455146
0.172824 0.356390 0.464393
0.221561 0.355627 0.465034
0.337926 0.343694 0.467597
0.491737 0.331029 0.466285
0.626856 0.309911 0.445686
0.733669 0.345190 0.451148
0.813077 0.390661 0.468940
0.887297 0.395209 0.460914
0.295109 0.465309 0.486793
0.316228 0.467506 0.487495
0.390723 0.477913 0.491127
0.492927 0.498116 0.499458
0.609400 0.488624 0.489235
0.705592 0.481392 0.481117
0.788754 0.477943 0.476387
0.866636 0.480476 0.478706
0.348150 0.595331 0.568688
0.362371 0.595239 0.566674
0.415412 0.596612 0.559228
0.474586 0.599176 0.526360
0.606073 0.609308 0.584619
0.676509 0.602228 0.566979
0.758968 0.573663 0.504845
0.842283 0.572045 0.511528
0.411078 0.674891 0.608698
0.422339 0.676356 0.609400
0.453559 0.675502 0.601495
0.470771 0.673915 0.560571
0.562982 0.665248 0.545830
0.685603 0.690455 0.665003
0.739101 0.703731 0.702754
0.814206 0.680171 0.627222
0.469642 0.743832 0.656947
0.475196 0.743801 0.655879
0.488991 0.743343 0.646479
0.483680 0.742580 0.607294
0.544091 0.735348 0.582361
0.663691 0.740780 0.639460
0.755550 0.761959 0.741115
0.798367 0.781918 0.797818
0.540948 0.822080 0.725948
0.540032 0.822171 0.723201
0.536492 0.822751 0.710903
0.534600 0.824247 0.686793
0.578332 0.822873 0.673365
0.642176 0.821103 0.653223
0.764370 0.826902 0.751553
0.828611 0.834989 0.817563
0.150454 0.205478 0.618372
0.213077 0.207858 0.619623
0.353918 0.212253 0.619898
0.505425 0.215732 0.620813
0.639612 0.214145 0.612482
0.741634 0.185763 0.576440
0.820279 0.226719 0.545617
0.892241 0.315099 0.547662
0.187289 0.264347 0.622126
0.235996 0.265568 0.623224
0.361151 0.266178 0.623468
0.505638 0.264927 0.623194
0.638636 0.258000 0.614740
0.739834 0.229252 0.577874
0.818296 0.262333 0.548821
0.889738 0.338293 0.551690
0.265721 0.403693 0.628077
0.278599 0.395666 0.629114
0.374945 0.393042 0.629145
0.503532 0.388464 0.628748
0.630823 0.374701 0.619837
0.728664 0.341283 0.579889
0.807462 0.368231 0.561639
0.878233 0.413886 0.567224
0.336889 0.521996 0.636255
0.354681 0.523857 0.636439
0.418280 0.532433 0.638331
0.509270 0.524529 0.639307
0.621088 0.512474 0.634791
0.713008 0.485756 0.600214
0.788540 0.505180 0.599329
0.859098 0.524956 0.607904
0.432929 0.599054 0.646601
0.443549 0.600458 0.647242
0.483986 0.605493 0.648615
0.546654 0.615045 0.651606
0.613886 0.627222 0.655573
0.688045 0.615778 0.642512
0.762966 0.604639 0.629908
0.839902 0.597040 0.621546
0.483711 0.684199 0.699641
0.489998 0.684382 0.698939
0.512535 0.683833 0.694179
0.551751 0.683925 0.685573
0.589105 0.683742 0.658350
0.687770 0.698939 0.709041
0.742123 0.697719 0.701900
0.818448 0.671107 0.642634
0.518791 0.750912 0.729519
0.521569 0.750454 0.728023
0.534295 0.749447 0.722469
0.564233 0.749081 0.713954
0.579034 0.747433 0.679774
0.651698 0.741085 0.669306
0.757076 0.766751 0.765866
0.802976 0.781857 0.798062
0.556420 0.822629 0.768338
0.559442 0.822538 0.767605
0.572625 0.822232 0.764645
0.599939 0.823575 0.760647
0.594873 0.825620 0.727687
0.647181 0.823575 0.709285
0.756954 0.827329 0.761624
0.828916 0.836667 0.828580
0.275486 0.314916 0.743435
0.303563 0.317296 0.744045
0.391058 0.323003 0.743496
0.506767 0.331792 0.743130
0.628077 0.338109 0.741207
0.734188 0.336248 0.729549
0.816617 0.322179 0.694179
0.887419 0.321019 0.657801
0.292363 0.349187 0.740475
0.315770 0.350072 0.740291
0.395178 0.352728 0.739620
0.505089 0.356695 0.738827
0.623987 0.360449 0.737575
0.729854 0.356176 0.727047
0.812436 0.339757 0.692195
0.883940 0.337835 0.657465
0.348974 0.452888 0.743740
0.364935 0.452522 0.743465
0.424414 0.452064 0.742733
0.514092 0.449012 0.739895
0.620752 0.447761 0.738552
0.722011 0.437690 0.729427
0.803586 0.414038 0.695796
0.876066 0.411505 0.666743
0.431281 0.569940 0.745205
0.442267 0.569940 0.744594
0.486061 0.571313 0.743954
0.540185 0.564111 0.745693
0.623682 0.560998 0.745144
0.712245 0.547570 0.737606
0.790005 0.516533 0.706264
0.862547 0.518151 0.689235
0.487129 0.637690 0.745144
0.494575 0.638788 0.745205
0.523461 0.643397 0.745663
0.571160 0.651850 0.747219
0.626551 0.646632 0.747066
0.699275 0.635187 0.742123
0.771695 0.605982 0.714687
0.844114 0.613733 0.713558
0.548211 0.688991 0.749874
0.554009 0.690303 0.750729
0.572534 0.692714 0.751064
0.604791 0.697414 0.752041
0.646723 0.704158 0.753597
0.697169 0.714626 0.757595
0.757809 0.703365 0.745937
0.829313 0.693019 0.735500
0.593194 0.762081 0.797330
0.595514 0.763149 0.797818
0.602869 0.765469 0.797482
0.622065 0.765591 0.792813
0.649378 0.765286 0.783688
0.674556 0.762478 0.757595
0.764279 0.777676 0.799039
0.813046 0.778378 0.795254
0.607324 0.828702 0.824399
0.608423 0.828428 0.823514
0.614496 0.828336 0.820615
0.627955 0.829007 0.815091
0.651637 0.829374 0.804990
0.665919 0.830442 0.776699
0.740566 0.829221 0.773678
0.831662 0.841154 0.845518
0.386145 0.422248 0.822171
0.400153 0.424109 0.822507
0.448646 0.427619 0.821836
0.525811 0.434577 0.821225
0.616297 0.441169 0.819821
0.712825 0.446784 0.817868
0.800748 0.442542 0.808774
0.872740 0.428992 0.781277
0.395850 0.441840 0.819638
0.408942 0.443519 0.820096
0.454078 0.446021 0.819577
0.526879 0.449836 0.818631
0.614832 0.454322 0.817197
0.709712 0.457496 0.815091
0.796506 0.450446 0.805631
0.868223 0.434272 0.777890
0.439216 0.514122 0.819333
0.447852 0.514244 0.819211
0.482429 0.514092 0.818509
0.542443 0.514580 0.817594
0.619287 0.514611 0.816098
0.707057 0.514305 0.814603
0.791104 0.504448 0.807065
0.863371 0.485176 0.782254
0.509422 0.608179 0.818723
0.511101 0.605524 0.818509
0.527367 0.600275 0.818204
0.571191 0.599268 0.817807
0.631556 0.596582 0.816831
0.706355 0.593286 0.816159
0.783261 0.580072 0.810025
0.853941 0.554437 0.787472
0.546349 0.677302 0.818814
0.550591 0.676844 0.818326
0.569818 0.676295 0.817655
0.604578 0.675441 0.817350
0.643061 0.667109 0.817380
0.703853 0.661616 0.816709
0.773465 0.647791 0.811490
0.844907 0.620905 0.792355
0.587213 0.721370 0.820554
0.590661 0.721981 0.820676
0.604273 0.724178 0.821073
0.629297 0.728298 0.821897
0.664668 0.734188 0.823301
0.709010 0.729458 0.824094
0.770809 0.718929 0.820462
0.838743 0.689967 0.799802
0.630243 0.763882 0.827115
0.632990 0.764553 0.827451
0.643030 0.766049 0.827695
0.662654 0.769223 0.828367
0.690974 0.773800 0.829191
0.727657 0.780301 0.830594
0.771878 0.788968 0.832792
0.830259 0.776089 0.821225
0.672267 0.829160 0.864317
0.674128 0.829587 0.864530
0.682399 0.831601 0.865721
0.693660 0.835660 0.866972
0.708309 0.839139 0.864652
0.730495 0.840299 0.856840
0.751003 0.840452 0.833707
0.837278 0.848722 0.867948
0.505394 0.539788 0.882872
0.511894 0.540764 0.882994
0.535912 0.541833 0.882322
0.580743 0.545647 0.882048
0.640650 0.549767 0.881437
0.711086 0.553094 0.880674
0.788418 0.554864 0.879545
0.865446 0.548058 0.875059
0.510674 0.550164 0.881407
0.517052 0.551049 0.881559
0.540307 0.552178 0.881193
0.583154 0.554803 0.880827
0.641413 0.558007 0.880339
0.710597 0.560327 0.879606
0.786831 0.560632 0.878386
0.863279 0.552331 0.873716
0.535454 0.591608 0.879545
0.540398 0.591699 0.879576
0.559564 0.591638 0.879210
0.597833 0.593866 0.879576
0.649042 0.593805 0.878996
0.712367 0.592798 0.878264
0.785306 0.590600 0.877531
0.859464 0.579553 0.873228
0.568505 0.646845 0.877897
0.572412 0.646967 0.877989
0.587579 0.646479 0.877836
0.617609 0.646204 0.877928
0.660975 0.644953 0.877897
0.716793 0.642267 0.877684
0.784512 0.638087 0.877775
0.854826 0.624323 0.874052
0.607507 0.708003 0.876738
0.610834 0.708125 0.876860
0.622583 0.706996 0.876646
0.635981 0.699092 0.877501
0.671504 0.696498 0.877470
0.719753 0.692592 0.877501
0.781765 0.687465 0.878050
0.850065 0.673945 0.875547
0.632685 0.755642 0.878294
0.634455 0.755642 0.878141
0.642695 0.756252 0.877897
0.660761 0.756985 0.878019
0.689876 0.753902 0.878477
0.726406 0.747524 0.880247
0.782589 0.744472 0.881834
0.848203 0.733120 0.880552
0.668971 0.795468 0.882750
0.670588 0.795682 0.882750
0.677790 0.796567 0.882719
0.692775 0.798886 0.883085
0.716030 0.802731 0.883787
0.748104 0.808377 0.885191
0.786801 0.803861 0.886229
0.844266 0.793606 0.884733
0.708156 0.833249 0.888334
0.709468 0.833371 0.888304
0.715511 0.834318 0.888396
0.728237 0.836545 0.888853
0.747585 0.839872 0.889403
0.773831 0.844480 0.890135
0.807034 0.850675 0.891325
0.844846 0.858213 0.892912
