20 Preset/White Style/【3】LUT video cho PR-AE-FCPX/White Style LUT (6).cube
# Created by Adobe Lightroom plugin Export LUT (1.24.0)
# www.johnrellis.com/lightroom/exportlut.htm
# Preset: 通透白调-素材江湖06
# Color profile: C:\Program Files (x86)\Common Files\Adobe\Color\Profiles\Recommended\VideoHD.icc
LUT_3D_SIZE 5
DOMAIN_MIN 0.000000 0.000000 0.000000
DOMAIN_MAX 0.903226 0.903226 0.903226
0.000000 0.000000 0.000000
0.177584 0.026947 0.033875
0.554894 0.000000 0.032593
0.905943 0.000000 0.085542
1.000000 0.243595 0.241794
0.066224 0.157229 0.120119
0.156893 0.164065 0.115969
0.544762 0.224002 0.073335
0.895354 0.252262 0.128908
1.000000 0.379644 0.292882
0.056672 0.488380 0.319982
0.176913 0.470039 0.304448
0.474739 0.515496 0.306218
0.837827 0.587335 0.332311
0.997986 0.614710 0.452979
0.483864 0.734554 0.599695
0.493904 0.730953 0.595300
0.550774 0.712917 0.594965
0.707271 0.732662 0.578271
0.917052 0.780209 0.639551
0.718563 0.882048 0.782895
0.721828 0.881071 0.781674
0.722408 0.866667 0.766415
0.775113 0.869200 0.778408
0.880858 0.892790 0.777218
0.014252 0.066651 0.138033
0.159518 0.079194 0.147005
0.530938 0.000000 0.197177
0.885679 0.000000 0.239658
1.000000 0.274144 0.334264
0.035889 0.186007 0.180423
0.195041 0.198093 0.196475
0.552117 0.200717 0.217075
0.874052 0.246342 0.264103
1.000000 0.386297 0.367559
0.160861 0.503563 0.371160
0.272129 0.499794 0.377783
0.474678 0.511559 0.362280
0.822690 0.584802 0.398077
0.983612 0.623529 0.510491
0.527062 0.740658 0.629297
0.536034 0.737789 0.625513
0.576989 0.721401 0.619074
0.711604 0.735470 0.604425
0.915862 0.784146 0.658961
0.725582 0.883848 0.789975
0.728084 0.882383 0.788174
0.741604 0.879057 0.784512
0.785885 0.876371 0.791440
0.888975 0.900114 0.790707
0.000000 0.139376 0.414221
0.178988 0.146365 0.421241
0.512749 0.140505 0.454932
0.848020 0.226261 0.495583
1.000000 0.427314 0.561242
0.000000 0.310185 0.475319
0.167910 0.272007 0.477363
0.539727 0.289555 0.493751
0.838651 0.368048 0.524743
0.990356 0.502190 0.590417
0.000000 0.583612 0.555688
0.269291 0.586969 0.562280
0.578271 0.603632 0.591791
0.804715 0.622095 0.613153
0.958892 0.659602 0.651514
0.544335 0.760220 0.678035
0.570855 0.756374 0.679408
0.658228 0.752865 0.695705
0.735622 0.753841 0.685908
0.921904 0.799954 0.719600
0.715816 0.887236 0.799863
0.729549 0.887572 0.803616
0.762203 0.885618 0.808316
0.791836 0.875059 0.806424
0.886137 0.896452 0.803098
0.000000 0.284672 0.714961
0.150668 0.298924 0.715969
0.550347 0.359289 0.715236
0.801724 0.417762 0.724971
0.941894 0.563836 0.714137
0.000000 0.420111 0.722835
0.221622 0.406806 0.723354
0.557763 0.449928 0.719142
0.789090 0.490272 0.724910
0.931792 0.597894 0.719387
0.316289 0.651575 0.733059
0.402411 0.651881 0.733089
0.590448 0.640192 0.737270
0.765927 0.652949 0.737484
0.923613 0.693690 0.754238
0.551934 0.787320 0.765438
0.576898 0.786038 0.765347
0.666133 0.787442 0.771359
0.785458 0.795102 0.786130
0.937926 0.804288 0.797696
0.698238 0.907897 0.836881
0.709407 0.907622 0.837858
0.755367 0.907652 0.843687
0.830686 0.902983 0.854978
0.897154 0.904692 0.844266
0.383062 0.541344 0.863127
0.446662 0.548882 0.861662
0.618708 0.582635 0.858518
0.786465 0.633936 0.852293
0.927306 0.648798 0.859831
0.426093 0.589258 0.860288
0.471595 0.590814 0.859739
0.624811 0.614740 0.856687
0.783688 0.654017 0.850858
0.921813 0.665858 0.858671
0.557916 0.726833 0.861387
0.580224 0.723018 0.860624
0.641199 0.702663 0.861112
0.781125 0.718502 0.855955
0.914763 0.728145 0.865721
0.586999 0.828092 0.877043
0.601709 0.826444 0.876310
0.664057 0.823606 0.877684
0.779232 0.807736 0.883757
0.923980 0.824033 0.894713
0.681605 0.929503 0.910399
0.692226 0.929198 0.910643
0.740047 0.930694 0.914611
0.823545 0.932525 0.921294
0.937377 0.938903 0.935119
