20 Preset/White Style/【3】LUT video cho PR-AE-FCPX/White Style LUT (5).cube
# Created by Adobe Lightroom plugin Export LUT (1.24.0)
# www.johnrellis.com/lightroom/exportlut.htm
# Preset: 通透白调-素材江湖05
# Color profile: C:\Program Files (x86)\Common Files\Adobe\Color\Profiles\Recommended\VideoHD.icc
LUT_3D_SIZE 8
DOMAIN_MIN 0.000000 0.000000 0.000000
DOMAIN_MAX 0.903226 0.903226 0.903226
0.000000 0.000000 0.000000
0.101808 0.027100 0.011780
0.193545 0.097810 0.043671
0.342016 0.144228 0.038300
0.541436 0.199802 0.000000
0.727504 0.286473 0.000000
0.859678 0.393408 0.046967
0.941222 0.485817 0.214054
0.046052 0.091646 0.062898
0.102998 0.098085 0.046235
0.193423 0.121279 0.050660
0.334752 0.167147 0.034272
0.530785 0.223178 0.000000
0.716274 0.303807 0.000000
0.847410 0.399634 0.015717
0.933898 0.488685 0.206241
0.070375 0.186770 0.127687
0.095308 0.186465 0.124910
0.216556 0.214267 0.098665
0.376898 0.241428 0.072877
0.552819 0.304326 0.052857
0.725338 0.389319 0.068360
0.851011 0.469429 0.143343
0.933104 0.538781 0.247532
0.000000 0.351354 0.219608
0.023865 0.350011 0.216556
0.169558 0.357214 0.211215
0.398657 0.418372 0.150240
0.620722 0.436072 0.117403
0.751308 0.493660 0.168215
0.847227 0.551720 0.251896
0.917510 0.609155 0.362554
0.000000 0.542535 0.362493
0.076905 0.541985 0.360479
0.191623 0.542016 0.358007
0.347936 0.564752 0.343725
0.584527 0.598993 0.274113
0.758328 0.583673 0.237522
0.844633 0.618036 0.323339
0.910704 0.662257 0.435187
0.317937 0.679408 0.533989
0.332006 0.682246 0.537774
0.363104 0.681697 0.536217
0.426062 0.680262 0.545953
0.537041 0.701411 0.512535
0.706386 0.720394 0.461860
0.848081 0.696376 0.423224
0.907774 0.723476 0.519005
0.513024 0.775631 0.677485
0.517571 0.776028 0.678309
0.530419 0.775387 0.678004
0.555413 0.774838 0.680110
0.598291 0.778775 0.680201
0.673945 0.793149 0.658686
0.788998 0.805509 0.627283
0.897032 0.786954 0.598383
0.659876 0.850523 0.783749
0.661341 0.850492 0.783719
0.668666 0.850614 0.784573
0.683070 0.851194 0.787076
0.697108 0.847471 0.786679
0.729458 0.855924 0.783474
0.782528 0.866056 0.772854
0.857481 0.873533 0.755093
0.024140 0.047395 0.094209
0.106600 0.046601 0.096132
0.202152 0.097841 0.094850
0.342596 0.150027 0.101137
0.535271 0.207980 0.092897
0.715328 0.291569 0.073823
0.843168 0.389960 0.107973
0.930205 0.478950 0.195407
0.066346 0.104067 0.102876
0.112703 0.106538 0.105409
0.204410 0.130556 0.108614
0.345373 0.173434 0.108827
0.535668 0.229709 0.101991
0.713008 0.310124 0.092775
0.837491 0.400732 0.119844
0.924956 0.484871 0.200717
0.110048 0.199710 0.155062
0.132906 0.200504 0.155184
0.224765 0.221042 0.136599
0.377966 0.249454 0.130983
0.549462 0.312291 0.136599
0.715114 0.387457 0.145083
0.835904 0.461707 0.182467
0.921996 0.532067 0.264073
0.103365 0.355047 0.241978
0.125002 0.354620 0.239017
0.193729 0.358038 0.237217
0.393530 0.410346 0.185489
0.599634 0.425299 0.164858
0.730190 0.482246 0.201053
0.830564 0.542443 0.268070
0.907378 0.600366 0.364660
0.133944 0.543938 0.381811
0.157137 0.542809 0.379095
0.224125 0.541375 0.373846
0.352178 0.558099 0.359899
0.575769 0.590143 0.293706
0.747524 0.578302 0.263157
0.835691 0.614618 0.341833
0.903655 0.659358 0.444282
0.330510 0.676234 0.539971
0.338994 0.676326 0.539788
0.368597 0.676143 0.538109
0.427680 0.675837 0.546624
0.535119 0.696803 0.519402
0.703151 0.717464 0.473579
0.842893 0.695094 0.438972
0.903166 0.722133 0.527153
0.512535 0.772213 0.676967
0.514427 0.771542 0.675929
0.526909 0.770748 0.675227
0.552728 0.770718 0.677790
0.596979 0.775387 0.680629
0.671351 0.790036 0.659571
0.785336 0.801907 0.627070
0.893523 0.783169 0.597436
0.656703 0.848203 0.781888
0.659358 0.848631 0.782681
0.666377 0.848661 0.783230
0.680842 0.849332 0.785702
0.702724 0.849638 0.791104
0.732082 0.856443 0.786801
0.782589 0.865660 0.774624
0.857084 0.873106 0.756863
0.000244 0.112367 0.190280
0.089662 0.101747 0.194797
0.225864 0.100710 0.203708
0.392615 0.126253 0.205570
0.575738 0.212833 0.215152
0.736782 0.324376 0.242985
0.848569 0.427253 0.281590
0.927398 0.512047 0.344549
0.095247 0.156497 0.201266
0.114412 0.145357 0.205142
0.234226 0.139956 0.213321
0.394568 0.167819 0.212161
0.572320 0.243809 0.225376
0.731411 0.343725 0.251408
0.843076 0.436255 0.284764
0.923033 0.517510 0.347601
0.108248 0.240085 0.236698
0.149630 0.242161 0.238468
0.256016 0.249851 0.245426
0.402960 0.288151 0.253635
0.581445 0.347417 0.266392
0.730495 0.419989 0.287694
0.837400 0.490761 0.325536
0.916045 0.556695 0.390448
0.019898 0.394751 0.311315
0.149630 0.397253 0.316533
0.280339 0.404578 0.332311
0.426520 0.438270 0.307195
0.609491 0.463569 0.312596
0.731197 0.519738 0.352605
0.825254 0.574151 0.408789
0.901793 0.620752 0.469123
0.240635 0.565972 0.456672
0.277562 0.566247 0.461982
0.336217 0.566186 0.461463
0.408820 0.572930 0.459449
0.591638 0.605066 0.410040
0.744198 0.599969 0.397742
0.826627 0.635279 0.459083
0.892790 0.678523 0.534600
0.407263 0.685542 0.591638
0.413062 0.685817 0.590967
0.435035 0.685481 0.588067
0.472877 0.685023 0.587396
0.554894 0.699458 0.575250
0.704036 0.719966 0.540032
0.833280 0.705165 0.522240
0.894041 0.733791 0.590417
0.549706 0.777066 0.703120
0.551568 0.776516 0.702296
0.561028 0.775387 0.700282
0.581628 0.774838 0.700313
0.617395 0.776364 0.705104
0.681361 0.791623 0.687800
0.787594 0.804715 0.662684
0.891264 0.788418 0.640955
0.669764 0.849729 0.791745
0.670802 0.849485 0.791409
0.677119 0.849485 0.791562
0.691859 0.850675 0.794278
0.710262 0.851194 0.797604
0.739651 0.856992 0.797391
0.786801 0.866606 0.786404
0.858335 0.874205 0.769955
0.000000 0.174105 0.356817
0.000000 0.162692 0.362799
0.207828 0.157534 0.374884
0.408331 0.156558 0.388281
0.611078 0.198978 0.393591
0.755093 0.326879 0.396246
0.843046 0.451850 0.439399
0.912047 0.542016 0.496254
0.000000 0.221012 0.372900
0.000000 0.211307 0.376379
0.217288 0.196109 0.387182
0.417151 0.195254 0.399115
0.614710 0.240208 0.402533
0.750454 0.361425 0.411994
0.839658 0.466835 0.449042
0.909514 0.551019 0.503655
0.131289 0.334722 0.395789
0.172335 0.334417 0.400183
0.253574 0.312749 0.414679
0.435157 0.307286 0.426612
0.617578 0.362219 0.432532
0.742397 0.453132 0.458259
0.833371 0.530877 0.499672
0.904021 0.592493 0.541894
0.036408 0.454871 0.463844
0.152682 0.456153 0.464912
0.302312 0.462226 0.471015
0.461555 0.473304 0.483528
0.605219 0.512139 0.498360
0.723873 0.555413 0.519188
0.815610 0.599634 0.547692
0.889586 0.644648 0.584497
0.158022 0.601709 0.545434
0.223026 0.601343 0.546929
0.369390 0.602258 0.557549
0.501549 0.605737 0.578790
0.610224 0.626520 0.559564
0.732113 0.635981 0.566155
0.809995 0.670527 0.602045
0.874632 0.709712 0.645380
0.421424 0.705776 0.642451
0.442054 0.707607 0.647303
0.500938 0.706447 0.656458
0.558465 0.706050 0.663813
0.601160 0.710689 0.661738
0.711391 0.729244 0.635889
0.819760 0.725673 0.632746
0.880156 0.753780 0.674922
0.572442 0.785306 0.731502
0.580987 0.785367 0.733516
0.611872 0.785061 0.740719
0.628687 0.785183 0.739101
0.652155 0.785031 0.740108
0.700008 0.796323 0.731594
0.791348 0.808804 0.711482
0.885100 0.797604 0.699672
0.693385 0.854246 0.810819
0.695430 0.854185 0.810971
0.700893 0.854093 0.810544
0.712154 0.854368 0.810788
0.728054 0.854673 0.812222
0.752316 0.857694 0.814755
0.793332 0.867857 0.805203
0.860685 0.876188 0.791348
0.000000 0.267674 0.571893
0.000000 0.260319 0.575463
0.000000 0.247257 0.582849
0.390143 0.248203 0.594965
0.606744 0.266239 0.605066
0.756832 0.348943 0.600427
0.841611 0.466682 0.593194
0.896971 0.581445 0.634150
0.000000 0.310857 0.580438
0.000000 0.303868 0.584070
0.071229 0.281498 0.590875
0.397986 0.280797 0.600092
0.608911 0.298283 0.609491
0.755123 0.374029 0.604273
0.838712 0.482704 0.598444
0.894896 0.589624 0.638331
0.135378 0.433204 0.596155
0.162631 0.427985 0.597803
0.241154 0.401678 0.605585
0.419409 0.386358 0.615473
0.610071 0.397528 0.620203
0.743130 0.452735 0.613306
0.826139 0.536339 0.616083
0.886259 0.617304 0.651484
0.269566 0.544701 0.615930
0.298070 0.545892 0.616480
0.383215 0.548180 0.623163
0.469673 0.530205 0.637140
0.615503 0.528038 0.644343
0.730526 0.565759 0.641077
0.807767 0.621515 0.657588
0.876890 0.666255 0.678737
0.322667 0.631220 0.660853
0.344793 0.631800 0.661616
0.418158 0.633478 0.663569
0.520317 0.636988 0.667567
0.624353 0.642054 0.673030
0.714931 0.665400 0.681483
0.795804 0.692317 0.694209
0.866453 0.721248 0.710658
0.393042 0.715480 0.693507
0.406744 0.716304 0.694301
0.457740 0.718196 0.696742
0.558221 0.717311 0.704829
0.645624 0.718196 0.718563
0.716182 0.734432 0.711269
0.804837 0.745510 0.719326
0.865934 0.772000 0.742489
0.545098 0.795010 0.753262
0.552361 0.794400 0.753536
0.582483 0.793088 0.756161
0.639857 0.792782 0.765713
0.687922 0.793118 0.773495
0.717464 0.797482 0.771969
0.793454 0.810727 0.755825
0.874754 0.807462 0.752743
0.656519 0.857877 0.811307
0.661799 0.857633 0.812253
0.683925 0.856840 0.816434
0.724544 0.857176 0.826688
0.745480 0.857481 0.828550
0.764889 0.858030 0.831174
0.798367 0.867369 0.825223
0.861112 0.876097 0.812467
0.000000 0.395727 0.728542
0.000000 0.390692 0.730007
0.000000 0.369512 0.734127
0.381933 0.381628 0.739803
0.591150 0.389227 0.744839
0.738460 0.426215 0.743801
0.834806 0.503563 0.731441
0.894835 0.599512 0.732692
0.000000 0.423865 0.726497
0.000000 0.418555 0.727474
0.090913 0.394842 0.731746
0.386450 0.399237 0.736080
0.588006 0.405707 0.741451
0.734310 0.439582 0.741360
0.830686 0.512322 0.730129
0.891752 0.604334 0.732357
0.257023 0.523980 0.734707
0.269139 0.519615 0.735225
0.315618 0.501671 0.738491
0.425605 0.480476 0.741176
0.593408 0.484016 0.745235
0.731106 0.505638 0.745693
0.822995 0.562463 0.737240
0.884733 0.636622 0.741909
0.417029 0.623835 0.740505
0.428809 0.623041 0.740841
0.471229 0.620020 0.743862
0.510460 0.599542 0.750912
0.611749 0.591485 0.756222
0.730007 0.601221 0.757046
0.814450 0.637415 0.753231
0.876738 0.687098 0.759243
0.473091 0.684993 0.748836
0.483650 0.685481 0.748928
0.523857 0.687770 0.749569
0.585748 0.691463 0.752499
0.636957 0.679438 0.760403
0.724727 0.677516 0.763699
0.803494 0.700160 0.763485
0.865690 0.735317 0.774166
0.513603 0.739101 0.770565
0.523278 0.740017 0.771450
0.553185 0.740352 0.771908
0.602747 0.741421 0.773068
0.662989 0.743313 0.775021
0.731502 0.748531 0.780056
0.800351 0.767758 0.787991
0.862089 0.787411 0.796750
0.561242 0.802976 0.796902
0.567285 0.803738 0.797604
0.587579 0.805203 0.798764
0.624140 0.808316 0.800870
0.688228 0.808774 0.805234
0.752926 0.808682 0.814145
0.802121 0.818143 0.806180
0.868681 0.825193 0.810910
0.632013 0.867155 0.831296
0.636133 0.866758 0.831327
0.655085 0.865904 0.832425
0.691310 0.865019 0.835904
0.742306 0.863706 0.843229
0.785519 0.863706 0.850980
0.808896 0.868162 0.850919
0.863951 0.877897 0.840085
0.265263 0.532189 0.820157
0.279606 0.529778 0.820859
0.325536 0.516655 0.822660
0.442054 0.515221 0.824552
0.579614 0.523369 0.825864
0.717403 0.531792 0.827726
0.817685 0.566339 0.825010
0.883940 0.622797 0.813901
0.304143 0.548608 0.818845
0.315038 0.546349 0.819608
0.352361 0.533684 0.821469
0.449805 0.527520 0.823301
0.581292 0.534203 0.824674
0.715969 0.541100 0.826413
0.815305 0.572778 0.823667
0.881590 0.626429 0.812894
0.412329 0.608026 0.818967
0.417548 0.605829 0.819333
0.438880 0.595514 0.820829
0.487617 0.578210 0.823636
0.596490 0.582086 0.824857
0.716762 0.586603 0.826871
0.812131 0.610803 0.825315
0.877867 0.655024 0.817166
0.527703 0.684932 0.819730
0.529778 0.682918 0.819730
0.541100 0.675685 0.820890
0.564874 0.661067 0.823911
0.623529 0.650538 0.826749
0.720638 0.652308 0.829160
0.808682 0.665034 0.828885
0.872831 0.696132 0.823606
0.582818 0.740871 0.820615
0.586969 0.740414 0.820676
0.604944 0.739101 0.821775
0.637812 0.736446 0.824582
0.660121 0.719203 0.828733
0.724025 0.712184 0.832090
0.805570 0.717159 0.832914
0.869230 0.741268 0.831510
0.611719 0.780117 0.830838
0.616022 0.780331 0.830961
0.632776 0.781003 0.831174
0.663203 0.782376 0.831601
0.704555 0.784207 0.832639
0.740993 0.774350 0.838773
0.807401 0.773312 0.841489
0.866880 0.790921 0.841917
0.633143 0.820157 0.846403
0.636805 0.820340 0.846555
0.651118 0.820554 0.846799
0.678187 0.821134 0.847410
0.715969 0.822080 0.848264
0.761959 0.823728 0.849790
0.812833 0.826719 0.852445
0.865843 0.841032 0.857816
0.661524 0.867491 0.864225
0.664424 0.867735 0.864378
0.676753 0.868803 0.865202
0.698634 0.870573 0.866300
0.729641 0.873381 0.867826
0.778256 0.874388 0.870665
0.831205 0.874266 0.877806
0.869749 0.882017 0.872160
0.528923 0.669886 0.884581
0.532372 0.668757 0.884855
0.544640 0.662531 0.885588
0.577996 0.656062 0.886870
0.645441 0.660182 0.887236
0.725002 0.664363 0.887816
0.814969 0.668391 0.888823
0.880400 0.690822 0.886290
0.538994 0.677363 0.883757
0.542321 0.676387 0.884062
0.553887 0.670405 0.884855
0.582666 0.662135 0.886320
0.647791 0.665644 0.886717
0.725582 0.669276 0.887327
0.814054 0.672511 0.888334
0.879393 0.693660 0.885832
0.577234 0.706844 0.882506
0.579522 0.705592 0.882689
0.588190 0.700099 0.883452
0.607141 0.689693 0.885557
0.659785 0.689052 0.886229
0.730007 0.690791 0.886870
0.813077 0.692378 0.888090
0.877501 0.709621 0.886046
0.627955 0.749020 0.881285
0.629633 0.748135 0.881559
0.635981 0.743771 0.882292
0.649134 0.734676 0.884062
0.677546 0.724361 0.886137
0.737789 0.724910 0.887114
0.812284 0.725063 0.888518
0.875151 0.736965 0.887236
0.674525 0.792630 0.880980
0.676997 0.792416 0.881193
0.685756 0.790616 0.881712
0.693324 0.782986 0.883268
0.707820 0.770535 0.885710
0.745785 0.762478 0.887846
0.810941 0.761929 0.889525
0.873136 0.769497 0.889311
0.702449 0.828641 0.882383
0.703914 0.828275 0.882414
0.710658 0.826993 0.882750
0.724758 0.824704 0.883879
0.747250 0.820890 0.886015
0.765286 0.808103 0.889769
0.812894 0.803769 0.892729
0.873106 0.807919 0.893584
0.716823 0.854276 0.891783
0.718624 0.854276 0.891752
0.726558 0.854337 0.891691
0.742275 0.854704 0.891752
0.765866 0.855406 0.891905
0.796536 0.856687 0.892424
0.823056 0.848173 0.896880
0.874113 0.846952 0.898680
0.731807 0.883696 0.902403
0.733394 0.883696 0.902403
0.740536 0.883787 0.902495
0.754849 0.884123 0.902831
0.776272 0.884642 0.903288
0.804501 0.885405 0.903960
0.839231 0.886717 0.905058
0.879149 0.888914 0.906920
