20 Preset/White Style/【3】LUT video cho PR-AE-FCPX/White Style LUT (2).cube
# Created by Adobe Lightroom plugin Export LUT (1.24.0)
# www.johnrellis.com/lightroom/exportlut.htm
# Preset: 通透白调-素材江湖02
# Color profile: C:\Program Files (x86)\Common Files\Adobe\Color\Profiles\Recommended\VideoHD.icc
LUT_3D_SIZE 32
DOMAIN_MIN 0.0 0.0 0.0
DOMAIN_MAX 1.0 1.0 1.0
0.000000 0.000000 0.000000
0.006928 0.000305 0.000946
0.028351 0.001221 0.001526
0.072541 0.002838 0.004974
0.103395 0.007568 0.010956
0.127321 0.011780 0.018799
0.155093 0.018372 0.026490
0.189425 0.020691 0.035340
0.228794 0.013672 0.042115
0.272404 0.000000 0.047669
0.318853 0.000000 0.053407
0.366125 0.000000 0.058534
0.413153 0.000000 0.062165
0.458473 0.000000 0.063630
0.501915 0.000000 0.065858
0.542870 0.000000 0.069093
0.581720 0.000000 0.075257
0.618311 0.000000 0.080903
0.652735 0.000000 0.086122
0.685237 0.000000 0.091829
0.715328 0.000000 0.096529
0.743404 0.000000 0.103212
0.771023 0.000000 0.110536
0.798154 0.000000 0.119509
0.822629 0.075685 0.129488
0.845212 0.115999 0.139467
0.866514 0.142031 0.150759
0.886870 0.165286 0.162753
0.906737 0.186893 0.175784
0.926482 0.208164 0.190249
0.946227 0.229648 0.206851
0.966155 0.251804 0.225559
0.000000 0.006775 0.002502
0.005188 0.004883 0.003754
0.027863 0.006775 0.004181
0.070100 0.008637 0.007630
0.103578 0.011933 0.012604
0.126345 0.017792 0.020294
0.154086 0.023407 0.029297
0.187778 0.025422 0.036042
0.227085 0.018860 0.043977
0.270542 0.000763 0.050690
0.316289 0.000000 0.055543
0.363378 0.000000 0.059602
0.410163 0.000000 0.061860
0.455543 0.000000 0.063478
0.498909 0.000000 0.065766
0.540063 0.000000 0.069001
0.579095 0.000000 0.075502
0.615869 0.000000 0.081147
0.650599 0.000000 0.087343
0.682979 0.000000 0.091737
0.713008 0.000000 0.097414
0.741115 0.000000 0.103029
0.768490 0.000000 0.110384
0.795193 0.000000 0.119448
0.819486 0.075196 0.128786
0.841917 0.114595 0.138308
0.863310 0.140139 0.149020
0.883787 0.163180 0.160678
0.903807 0.184634 0.173648
0.923705 0.205509 0.187991
0.943572 0.226932 0.204074
0.963653 0.249088 0.222660
0.000000 0.027588 0.012055
0.004120 0.029297 0.012848
0.025605 0.024414 0.019867
0.061616 0.031525 0.020478
0.101472 0.035828 0.023011
0.125154 0.042664 0.029450
0.153292 0.048280 0.036164
0.187350 0.047883 0.043214
0.226474 0.040558 0.050172
0.269230 0.024811 0.054505
0.314611 0.001526 0.059083
0.361669 0.000000 0.061891
0.408545 0.000000 0.064302
0.453437 0.000000 0.065553
0.496651 0.000000 0.067750
0.537987 0.000000 0.073091
0.576898 0.000000 0.078889
0.613672 0.000000 0.082887
0.648310 0.000000 0.088014
0.680903 0.000000 0.092927
0.711177 0.000000 0.098146
0.739284 0.000000 0.103548
0.766995 0.000000 0.111299
0.793362 0.029999 0.119203
0.817380 0.097169 0.128725
0.839902 0.123537 0.138521
0.861173 0.147707 0.149142
0.881712 0.168856 0.160494
0.901854 0.189059 0.173342
0.921813 0.209201 0.187594
0.941802 0.229557 0.203555
0.961913 0.251133 0.221653
0.003052 0.070192 0.032136
0.006012 0.070924 0.033112
0.028687 0.072847 0.033539
0.064759 0.065919 0.052979
0.093172 0.073091 0.062440
0.123110 0.083497 0.048463
0.152773 0.086000 0.051911
0.187320 0.085634 0.056672
0.226963 0.082094 0.061036
0.269383 0.071260 0.063966
0.314641 0.051606 0.065827
0.360479 0.026337 0.067781
0.407111 0.000000 0.068666
0.451911 0.000000 0.071595
0.494514 0.000000 0.073426
0.535302 0.000000 0.078126
0.573999 0.000000 0.082094
0.610498 0.000000 0.086671
0.644892 0.000000 0.090272
0.677272 0.000000 0.095216
0.707485 0.000000 0.099611
0.735653 0.000000 0.105684
0.763699 0.047089 0.112825
0.789975 0.097566 0.121340
0.814145 0.121584 0.130007
0.837034 0.142885 0.139773
0.858854 0.162600 0.150271
0.879820 0.181186 0.162234
0.900237 0.199832 0.174502
0.920378 0.218265 0.188846
0.940307 0.237400 0.204532
0.960266 0.257420 0.222538
0.003693 0.101717 0.063111
0.008942 0.101869 0.062928
0.032654 0.102113 0.062379
0.076417 0.101534 0.068544
0.097505 0.098207 0.088502
0.112734 0.098787 0.094697
0.148714 0.105684 0.084932
0.187198 0.109285 0.074586
0.226200 0.109529 0.074800
0.268437 0.107820 0.075685
0.312871 0.104128 0.076844
0.358831 0.097871 0.076936
0.404273 0.090150 0.078004
0.449073 0.074586 0.079438
0.491676 0.053681 0.081483
0.532067 0.042939 0.084565
0.571160 0.031067 0.087312
0.607507 0.035187 0.090333
0.641962 0.044984 0.093782
0.674495 0.064393 0.098299
0.704707 0.089052 0.103151
0.733181 0.102846 0.109407
0.761471 0.119997 0.116762
0.787472 0.136843 0.124453
0.811734 0.152682 0.132906
0.834684 0.168765 0.142641
0.856626 0.184329 0.153170
0.877684 0.199954 0.164523
0.898131 0.215793 0.177035
0.918273 0.231998 0.191043
0.938231 0.249332 0.206729
0.958099 0.267979 0.224308
0.000000 0.128389 0.085267
0.000000 0.128511 0.085878
0.014252 0.129000 0.085420
0.056550 0.129976 0.083833
0.102571 0.127810 0.091768
0.124178 0.123537 0.104250
0.137179 0.121920 0.116091
0.181308 0.130617 0.104219
0.225742 0.136965 0.092103
0.269169 0.139223 0.087495
0.313359 0.138582 0.086732
0.358587 0.137423 0.086458
0.403784 0.134859 0.087831
0.447883 0.132357 0.088624
0.490120 0.130037 0.089815
0.530358 0.129397 0.090852
0.568902 0.129335 0.092927
0.605585 0.130587 0.096590
0.640009 0.134188 0.099489
0.672175 0.139773 0.103853
0.702358 0.146487 0.108339
0.731868 0.154940 0.114626
0.774319 0.176699 0.126253
0.800778 0.188540 0.136049
0.825010 0.200259 0.146090
0.847623 0.212222 0.156924
0.868803 0.224552 0.168093
0.889128 0.237095 0.180087
0.908843 0.250278 0.193545
0.928252 0.264622 0.208042
0.947478 0.280095 0.224399
0.966644 0.296544 0.242466
0.000000 0.165957 0.096803
0.000000 0.166232 0.097078
0.000000 0.166445 0.096834
0.008240 0.167300 0.095460
0.091951 0.167910 0.094636
0.133547 0.164431 0.107027
0.162112 0.160189 0.123507
0.174411 0.155032 0.144381
0.224674 0.166201 0.128389
0.273960 0.173220 0.112856
0.320714 0.178592 0.096651
0.366003 0.179477 0.096193
0.410712 0.179629 0.096620
0.453590 0.179873 0.096712
0.494972 0.180056 0.097688
0.534234 0.180545 0.099245
0.572015 0.181704 0.101472
0.607721 0.183993 0.104128
0.641688 0.186893 0.107546
0.673915 0.190463 0.112093
0.704646 0.195468 0.116732
0.736904 0.203433 0.123903
0.766232 0.212345 0.132204
0.793362 0.221683 0.141115
0.818601 0.230686 0.151095
0.841733 0.240635 0.161379
0.863310 0.249973 0.172213
0.883787 0.260258 0.184451
0.903716 0.271397 0.197024
0.923217 0.283299 0.211154
0.942565 0.296605 0.227146
0.961852 0.311315 0.244938
0.000000 0.205661 0.107149
0.000000 0.205997 0.107362
0.000000 0.205997 0.106508
0.000000 0.206516 0.105623
0.030304 0.207248 0.103700
0.124239 0.206577 0.107942
0.170596 0.203738 0.123751
0.203952 0.200381 0.143435
0.216983 0.193759 0.170748
0.267521 0.205386 0.157198
0.318181 0.212863 0.138918
0.364416 0.217594 0.120516
0.407172 0.220554 0.106538
0.449439 0.221805 0.106722
0.490242 0.223026 0.107668
0.529107 0.224063 0.108583
0.566461 0.225864 0.110384
0.602136 0.227573 0.113161
0.636072 0.229801 0.116304
0.668238 0.232486 0.120211
0.700832 0.237827 0.125246
0.731991 0.243595 0.131655
0.760830 0.249454 0.139834
0.787747 0.256077 0.148501
0.812772 0.263340 0.158328
0.836057 0.270634 0.168124
0.857847 0.278050 0.178378
0.878569 0.286107 0.189792
0.898650 0.295262 0.202518
0.918364 0.305486 0.216587
0.937987 0.316747 0.232090
0.957458 0.329808 0.249790
0.000000 0.249210 0.118868
0.000000 0.249424 0.118746
0.000000 0.249302 0.118349
0.000000 0.249699 0.117556
0.000000 0.249882 0.115633
0.096468 0.250095 0.113649
0.163851 0.248814 0.124758
0.213840 0.246769 0.143618
0.250767 0.245121 0.166720
0.265690 0.237919 0.197360
0.312535 0.249729 0.191073
0.362737 0.257023 0.170565
0.407782 0.260777 0.149355
0.447150 0.262791 0.127657
0.485908 0.264286 0.119753
0.524224 0.265690 0.120150
0.561212 0.267277 0.121553
0.596612 0.269078 0.123903
0.630396 0.270573 0.126894
0.664332 0.273991 0.131136
0.696559 0.277684 0.136172
0.727047 0.281895 0.142733
0.755428 0.286351 0.149691
0.782040 0.291081 0.157961
0.807065 0.296422 0.167300
0.830411 0.301854 0.176516
0.852415 0.307622 0.186740
0.873350 0.314336 0.198032
0.893706 0.321538 0.210483
0.913634 0.329931 0.224063
0.933410 0.339818 0.239292
0.953094 0.351141 0.256992
0.000000 0.294194 0.132692
0.000000 0.294163 0.132143
0.000000 0.293950 0.131838
0.000000 0.293767 0.131044
0.000000 0.293767 0.129458
0.000000 0.293309 0.126619
0.142611 0.292729 0.126009
0.208774 0.292058 0.144045
0.259648 0.291203 0.166293
0.298863 0.290898 0.192172
0.314458 0.283604 0.225193
0.356176 0.295567 0.228763
0.404334 0.302098 0.205661
0.447150 0.305180 0.183169
0.485145 0.305913 0.159457
0.518700 0.305211 0.134798
0.555322 0.306828 0.135225
0.591302 0.308507 0.137179
0.626703 0.311101 0.140169
0.660243 0.313573 0.144564
0.691707 0.316045 0.148745
0.721187 0.318883 0.154879
0.748836 0.321599 0.161105
0.774899 0.324773 0.168673
0.799557 0.328130 0.176761
0.822812 0.332036 0.185641
0.844968 0.336553 0.195560
0.866392 0.341466 0.206149
0.887144 0.347692 0.218387
0.907591 0.354894 0.232029
0.927825 0.363470 0.247471
0.948028 0.373693 0.264988
0.000000 0.336950 0.147463
0.000000 0.336950 0.146975
0.000000 0.336828 0.146853
0.000000 0.336675 0.145754
0.000000 0.336431 0.143954
0.000000 0.336004 0.141756
0.115358 0.335271 0.138796
0.193881 0.334813 0.145174
0.257267 0.335119 0.166751
0.308049 0.335698 0.191867
0.347082 0.336706 0.220554
0.362737 0.329931 0.255467
0.399237 0.342168 0.270420
0.444984 0.347906 0.245212
0.485451 0.349676 0.220584
0.521782 0.349187 0.195956
0.555108 0.348089 0.170993
0.586938 0.347234 0.152865
0.621698 0.349065 0.155734
0.654231 0.350805 0.158938
0.685237 0.352209 0.163027
0.714443 0.354040 0.168215
0.741939 0.355962 0.174044
0.768002 0.357977 0.181033
0.792782 0.360296 0.188907
0.816251 0.363256 0.197360
0.838712 0.366583 0.206943
0.860319 0.370611 0.217502
0.881437 0.375525 0.229191
0.902190 0.381567 0.242618
0.922698 0.389166 0.257908
0.943175 0.398108 0.275120
0.000000 0.379156 0.164096
0.000000 0.379095 0.163729
0.000000 0.378973 0.163272
0.000000 0.378729 0.162661
0.000000 0.378393 0.160830
0.000000 0.377722 0.158633
0.065003 0.376837 0.155612
0.174594 0.375494 0.152163
0.247623 0.376104 0.167941
0.307042 0.377539 0.192294
0.355688 0.379278 0.220279
0.393866 0.381933 0.251560
0.420508 0.386175 0.296483
0.452247 0.398932 0.325566
0.497505 0.405310 0.299870
0.537713 0.406928 0.273564
0.572778 0.405493 0.246799
0.603845 0.401923 0.219211
0.631220 0.397314 0.190921
0.660426 0.396002 0.181552
0.690974 0.396887 0.186007
0.719417 0.397406 0.190646
0.746059 0.398016 0.196597
0.771389 0.398962 0.203555
0.795438 0.400244 0.210880
0.818357 0.401740 0.218814
0.840177 0.403662 0.228000
0.861143 0.406256 0.237949
0.881682 0.409918 0.249393
0.901976 0.414588 0.262516
0.922148 0.420600 0.277409
0.942351 0.428504 0.294835
0.000000 0.424231 0.184634
0.000000 0.424170 0.184604
0.000000 0.423713 0.184360
0.000000 0.423163 0.182742
0.000000 0.422217 0.181094
0.000000 0.420935 0.178866
0.000000 0.419562 0.176242
0.163241 0.417700 0.172610
0.232303 0.416358 0.171786
0.301335 0.418524 0.195651
0.358251 0.421790 0.223178
0.407019 0.427161 0.255406
0.447333 0.433753 0.292058
0.467750 0.433082 0.334295
0.494453 0.446387 0.377661
0.536004 0.450660 0.349554
0.572625 0.450294 0.321202
0.604730 0.446693 0.291966
0.633082 0.441260 0.263066
0.658259 0.435004 0.233860
0.681025 0.428168 0.203555
0.708919 0.428046 0.205753
0.735714 0.428046 0.211093
0.761288 0.428443 0.217105
0.785733 0.429023 0.223880
0.808988 0.430152 0.231846
0.831327 0.431556 0.240787
0.852934 0.433570 0.250309
0.874022 0.436530 0.261540
0.894896 0.440650 0.274693
0.915526 0.446052 0.289647
0.936156 0.453071 0.307317
0.000000 0.460304 0.204257
0.000000 0.460090 0.203494
0.000000 0.459724 0.203372
0.000000 0.459083 0.202457
0.000000 0.458045 0.200534
0.000000 0.457221 0.198764
0.000000 0.456062 0.195865
0.149172 0.454719 0.192782
0.222171 0.453193 0.188693
0.287785 0.454017 0.197879
0.350896 0.458259 0.225132
0.405432 0.463416 0.256138
0.451972 0.469398 0.290867
0.490455 0.476326 0.329351
0.510460 0.476387 0.372473
0.531853 0.488228 0.425086
0.568627 0.491157 0.399023
0.601923 0.489235 0.368933
0.631830 0.484535 0.338567
0.658289 0.478065 0.308598
0.681971 0.470466 0.278264
0.703792 0.462745 0.248112
0.725917 0.457313 0.227176
0.751766 0.457343 0.232303
0.776547 0.457679 0.239139
0.800229 0.458350 0.246220
0.823026 0.459266 0.254734
0.845029 0.460853 0.264591
0.866575 0.463294 0.275639
0.887846 0.466835 0.288609
0.908934 0.471687 0.303807
0.930022 0.478187 0.321691
0.000000 0.497993 0.226596
0.000000 0.497871 0.226871
0.000000 0.497444 0.225742
0.000000 0.496681 0.224765
0.000000 0.495583 0.223331
0.000000 0.494087 0.221012
0.000000 0.492439 0.217807
0.139223 0.490822 0.214694
0.214817 0.488838 0.210849
0.272831 0.486946 0.206455
0.338018 0.490120 0.226902
0.396887 0.495216 0.256931
0.448188 0.500938 0.290349
0.492348 0.507347 0.326970
0.528466 0.514183 0.366064
0.547662 0.514549 0.409491
0.565545 0.523796 0.460883
0.596857 0.528161 0.447608
0.627771 0.525200 0.416693
0.655329 0.519554 0.385779
0.680049 0.512322 0.355230
0.702998 0.504479 0.324987
0.724331 0.496345 0.294652
0.744533 0.488258 0.263859
0.767300 0.485237 0.254704
0.791348 0.485664 0.262028
0.814633 0.486366 0.270176
0.837186 0.487800 0.280156
0.859403 0.490059 0.291417
0.881315 0.493446 0.304814
0.903105 0.498238 0.320806
0.924804 0.504662 0.339452
0.000000 0.530968 0.249149
0.000000 0.530907 0.248936
0.000000 0.530541 0.248356
0.000000 0.529992 0.247471
0.000000 0.529015 0.245762
0.000000 0.527855 0.243900
0.000000 0.526482 0.241062
0.134249 0.524865 0.238132
0.211185 0.523033 0.234470
0.267948 0.521111 0.230411
0.322087 0.519646 0.229892
0.384833 0.524193 0.258396
0.439307 0.529290 0.290196
0.486824 0.534813 0.324804
0.527459 0.540551 0.361700
0.560967 0.546929 0.401587
0.579034 0.547601 0.444465
0.594202 0.554894 0.493690
0.620630 0.560906 0.493996
0.648829 0.557397 0.463508
0.674800 0.551690 0.433173
0.698970 0.544732 0.403235
0.721645 0.537072 0.373571
0.743038 0.528954 0.343420
0.763577 0.520867 0.313024
0.783383 0.513115 0.282170
0.806729 0.513268 0.287602
0.829801 0.514488 0.297337
0.852415 0.516533 0.308812
0.874601 0.519615 0.322393
0.896666 0.523980 0.338323
0.918608 0.529778 0.357122
0.000000 0.560266 0.271031
0.000000 0.560143 0.271061
0.000000 0.559930 0.270787
0.000000 0.559442 0.269718
0.000000 0.558587 0.268467
0.000000 0.557458 0.266300
0.000000 0.556146 0.263828
0.131960 0.554528 0.260655
0.206729 0.552667 0.257084
0.262760 0.550530 0.252781
0.312322 0.548058 0.247898
0.367285 0.549004 0.259159
0.425544 0.553918 0.289677
0.476173 0.559045 0.322667
0.520836 0.564630 0.358404
0.559014 0.570459 0.396521
0.590082 0.576745 0.436194
0.607233 0.578088 0.478859
0.619532 0.583307 0.526177
0.641382 0.591028 0.539025
0.667567 0.587793 0.510643
0.692500 0.582513 0.481788
0.715999 0.576043 0.452979
0.738430 0.568688 0.424048
0.759915 0.560815 0.394751
0.780636 0.553002 0.365423
0.801083 0.545312 0.335393
0.822202 0.540307 0.315221
0.845274 0.542321 0.327123
0.868009 0.545312 0.340978
0.890471 0.549523 0.357397
0.912810 0.555200 0.376562
0.000000 0.588037 0.294804
0.000000 0.588128 0.294774
0.000000 0.596094 0.302098
0.000000 0.595636 0.301427
0.000000 0.594751 0.299687
0.000000 0.593652 0.297704
0.000000 0.592157 0.294987
0.150820 0.590448 0.291875
0.216129 0.588464 0.288121
0.268711 0.586297 0.283787
0.315526 0.583642 0.278538
0.359045 0.580682 0.272770
0.416663 0.583948 0.296910
0.470039 0.588769 0.329534
0.517540 0.593530 0.364355
0.558282 0.598474 0.401007
0.592920 0.603540 0.439643
0.620844 0.609064 0.478981
0.636225 0.610315 0.519982
0.645533 0.613703 0.564263
0.663294 0.623468 0.589105
0.687495 0.620264 0.562310
0.710903 0.615167 0.534997
0.733364 0.608698 0.507347
0.755032 0.601312 0.479072
0.776059 0.593469 0.450599
0.796872 0.585565 0.421698
0.817624 0.578027 0.393042
0.838804 0.571160 0.364141
0.861234 0.570428 0.360510
0.884062 0.574517 0.377386
0.906706 0.580072 0.397101
0.000000 0.615778 0.321050
0.000000 0.616449 0.321660
0.000000 0.616938 0.321935
0.000000 0.617182 0.321660
0.000000 0.616968 0.321324
0.000000 0.616144 0.319463
0.031403 0.614893 0.317052
0.158694 0.613245 0.313603
0.217075 0.611383 0.309941
0.266392 0.609216 0.305608
0.310704 0.606836 0.300725
0.352239 0.604028 0.294957
0.396094 0.602136 0.295140
0.452491 0.606561 0.326574
0.502037 0.611078 0.360296
0.545678 0.615717 0.396002
0.583551 0.620600 0.433234
0.615717 0.625818 0.471992
0.641901 0.631525 0.511345
0.656641 0.633570 0.551690
0.664393 0.636347 0.593347
0.679988 0.648493 0.627771
0.702266 0.646204 0.604791
0.724208 0.641901 0.580529
0.745846 0.636164 0.554986
0.767117 0.629664 0.529076
0.788205 0.622644 0.502770
0.809415 0.615625 0.476448
0.831022 0.609216 0.450599
0.853330 0.603479 0.425116
0.876738 0.598810 0.400305
0.899901 0.603601 0.416785
0.000000 0.637415 0.343450
0.000000 0.638056 0.344335
0.000000 0.638605 0.344488
0.000000 0.638911 0.344610
0.000000 0.638727 0.344182
0.000000 0.638056 0.342535
0.106935 0.636927 0.339818
0.174411 0.635431 0.336767
0.224643 0.633692 0.333288
0.268620 0.631708 0.329107
0.309850 0.629450 0.324407
0.349126 0.626917 0.319036
0.386908 0.623835 0.312261
0.434577 0.624506 0.325414
0.486610 0.628779 0.358434
0.532525 0.633173 0.393286
0.573083 0.637751 0.429938
0.608148 0.642542 0.467597
0.637842 0.647822 0.506188
0.662074 0.653498 0.544732
0.675898 0.656092 0.583703
0.682460 0.658015 0.621424
0.696071 0.671931 0.663264
0.716518 0.670344 0.643397
0.736873 0.667048 0.622614
0.757473 0.662470 0.600763
0.778134 0.657038 0.577966
0.799222 0.651301 0.554864
0.820829 0.645716 0.532128
0.843137 0.640803 0.510124
0.866514 0.636652 0.489143
0.890990 0.633692 0.469642
0.000000 0.658289 0.367041
0.000000 0.658839 0.367926
0.000000 0.659266 0.368505
0.000000 0.659480 0.368292
0.000000 0.659358 0.367376
0.079255 0.658686 0.366003
0.146792 0.657710 0.363684
0.194064 0.656458 0.360967
0.235660 0.654902 0.357488
0.274784 0.653132 0.353582
0.312596 0.650996 0.348547
0.348638 0.648737 0.343572
0.384131 0.646021 0.336980
0.419043 0.642908 0.330053
0.470710 0.646082 0.357641
0.518761 0.650294 0.391943
0.561578 0.654810 0.428229
0.599420 0.659602 0.465705
0.632258 0.664759 0.504295
0.660090 0.670375 0.543023
0.682643 0.676417 0.581445
0.696223 0.679835 0.618311
0.702144 0.681544 0.652461
0.715236 0.694789 0.691585
0.733150 0.696284 0.683040
0.752346 0.694118 0.665797
0.771786 0.691035 0.648096
0.791867 0.687373 0.630060
0.812680 0.683711 0.612360
0.834470 0.680354 0.595148
0.857298 0.677607 0.578912
0.881285 0.675807 0.564294
0.000000 0.682002 0.397223
0.000000 0.682246 0.397681
0.001404 0.682246 0.397345
0.073640 0.682063 0.396826
0.119265 0.681636 0.395880
0.154238 0.680812 0.393805
0.188113 0.679835 0.391608
0.221530 0.678645 0.388830
0.254582 0.677241 0.385321
0.287663 0.675715 0.381292
0.320989 0.673884 0.376745
0.353796 0.671870 0.371618
0.386542 0.669459 0.365911
0.418921 0.666712 0.359258
0.456214 0.665126 0.360174
0.506249 0.669032 0.394202
0.550896 0.673030 0.429969
0.590478 0.677272 0.466865
0.625452 0.681788 0.504570
0.655482 0.686610 0.542412
0.680842 0.691768 0.579889
0.701381 0.697353 0.614984
0.714076 0.700649 0.648096
0.719600 0.702022 0.678889
0.731380 0.713405 0.713558
0.747127 0.717372 0.713741
0.765133 0.716243 0.699641
0.783841 0.714473 0.685359
0.803372 0.712520 0.671351
0.823850 0.710658 0.657893
0.845487 0.709285 0.645441
0.868132 0.708736 0.634699
0.140291 0.701228 0.423072
0.142794 0.701411 0.423499
0.150118 0.701442 0.423255
0.162234 0.701320 0.422736
0.178988 0.700923 0.421698
0.199069 0.700282 0.420172
0.221958 0.699428 0.417700
0.247471 0.698360 0.414923
0.274052 0.697200 0.411688
0.302434 0.695888 0.408179
0.330907 0.694331 0.404028
0.360357 0.692561 0.399023
0.390051 0.690486 0.393042
0.420020 0.688136 0.386603
0.450019 0.685573 0.379644
0.492012 0.686305 0.395239
0.538750 0.690059 0.430945
0.580224 0.693965 0.467720
0.617090 0.698116 0.505150
0.649378 0.702480 0.542779
0.677180 0.707179 0.579736
0.700526 0.712215 0.614405
0.719631 0.717617 0.646815
0.731807 0.721065 0.676997
0.735653 0.720577 0.702144
0.746395 0.730465 0.732967
0.760739 0.736660 0.740322
0.777890 0.736538 0.728847
0.795926 0.736110 0.717678
0.814969 0.735714 0.707240
0.835203 0.735744 0.697841
0.856535 0.736477 0.690028
0.210513 0.722042 0.454047
0.212741 0.722316 0.454597
0.215854 0.722377 0.454383
0.222507 0.722042 0.453346
0.231724 0.721523 0.452033
0.244297 0.720729 0.450080
0.259617 0.719722 0.447547
0.277623 0.718532 0.444343
0.298192 0.717220 0.440589
0.320714 0.715785 0.436561
0.344396 0.714168 0.431983
0.369787 0.712428 0.426734
0.395941 0.710414 0.421057
0.422736 0.708217 0.414405
0.450233 0.705715 0.407233
0.478035 0.702937 0.399176
0.524346 0.705470 0.429969
0.567498 0.708858 0.466224
0.606073 0.712520 0.503197
0.640467 0.716518 0.540642
0.670405 0.720851 0.577325
0.696254 0.725429 0.612055
0.717861 0.730220 0.643885
0.735531 0.735164 0.673274
0.747097 0.738338 0.700221
0.752163 0.739315 0.724971
0.761868 0.747677 0.752071
0.774899 0.755520 0.764736
0.791257 0.756222 0.755459
0.808682 0.756924 0.746883
0.827268 0.757961 0.739406
0.847074 0.759701 0.733455
0.254459 0.739467 0.480507
0.255833 0.739712 0.480842
0.258885 0.739803 0.480812
0.263798 0.739681 0.480507
0.270787 0.739345 0.479408
0.280186 0.738857 0.477668
0.292424 0.738216 0.475746
0.306920 0.737453 0.473243
0.323827 0.736538 0.470192
0.342443 0.735592 0.466835
0.362646 0.734432 0.462867
0.384558 0.733059 0.458167
0.407446 0.731472 0.452918
0.431373 0.729671 0.446937
0.455879 0.727596 0.439826
0.481392 0.725216 0.432288
0.512902 0.723964 0.434638
0.557824 0.726833 0.470863
0.598047 0.729976 0.507591
0.633845 0.733425 0.544610
0.665675 0.737209 0.580987
0.693233 0.741238 0.614954
0.716915 0.745541 0.646479
0.736904 0.750027 0.675471
0.753445 0.754665 0.701747
0.764584 0.757809 0.725795
0.769619 0.758724 0.747860
0.778408 0.765805 0.771725
0.790433 0.775113 0.788663
0.806180 0.776913 0.781674
0.823148 0.778866 0.775631
0.841276 0.781369 0.770962
0.299840 0.758724 0.511589
0.300938 0.758846 0.511925
0.302678 0.758877 0.511894
0.306157 0.758694 0.511192
0.311131 0.758419 0.510033
0.318151 0.757961 0.508598
0.327245 0.757412 0.506798
0.338231 0.756710 0.504234
0.351476 0.756008 0.501518
0.366735 0.755123 0.498146
0.383581 0.754147 0.494606
0.402014 0.753079 0.490120
0.421668 0.751827 0.485512
0.442420 0.750393 0.479835
0.464454 0.748653 0.473426
0.487160 0.746792 0.466224
0.511040 0.744686 0.458289
0.548058 0.745205 0.476417
0.589837 0.747829 0.513024
0.627222 0.750729 0.549889
0.660487 0.753902 0.585473
0.689631 0.757382 0.618830
0.714870 0.761044 0.649592
0.736690 0.764889 0.677974
0.755215 0.768856 0.703700
0.770565 0.772976 0.726833
0.781186 0.775845 0.748135
0.785855 0.776425 0.767849
0.793515 0.782193 0.788876
0.804410 0.792447 0.808896
0.819730 0.795224 0.803861
0.836271 0.798398 0.800046
0.341253 0.777676 0.543572
0.341863 0.777768 0.543725
0.343420 0.777798 0.543725
0.346288 0.777737 0.543328
0.350347 0.777646 0.542687
0.356329 0.777462 0.541863
0.364202 0.777462 0.540703
0.374212 0.777432 0.539757
0.385901 0.777401 0.538476
0.399145 0.777340 0.536706
0.414160 0.777249 0.534722
0.430243 0.777066 0.532128
0.447578 0.776699 0.528954
0.465797 0.776059 0.524865
0.484901 0.775204 0.519951
0.504875 0.773983 0.513848
0.525902 0.772580 0.507164
0.548119 0.771054 0.499580
0.589776 0.772763 0.533440
0.628351 0.774960 0.569604
0.662318 0.777462 0.603601
0.692348 0.780148 0.635401
0.718776 0.782986 0.664698
0.741665 0.786007 0.691402
0.761379 0.789090 0.715480
0.778134 0.792355 0.737270
0.792111 0.795743 0.757015
0.801877 0.798062 0.775204
0.805966 0.798123 0.792203
0.812100 0.802365 0.810025
0.821714 0.811948 0.829252
0.835752 0.816220 0.828122
0.393317 0.801602 0.586481
0.393439 0.801602 0.586419
0.394354 0.801511 0.586206
0.396033 0.801389 0.585718
0.398932 0.801205 0.584894
0.402899 0.800961 0.583703
0.408423 0.800717 0.582391
0.415198 0.800443 0.580774
0.423682 0.800168 0.578943
0.433570 0.799924 0.576898
0.444984 0.799588 0.574548
0.457618 0.799222 0.571588
0.471687 0.798825 0.568383
0.486854 0.798245 0.564416
