20 Preset/White Style/【3】LUT video cho PR-AE-FCPX/White Style LUT (1).cube
# Created by Adobe Lightroom plugin Export LUT (1.24.0)
# www.johnrellis.com/lightroom/exportlut.htm
# Preset: 通透白调-素材江湖01
# Color profile: C:\Program Files (x86)\Common Files\Adobe\Color\Profiles\Recommended\VideoHD.icc
LUT_3D_SIZE 32
DOMAIN_MIN 0.0 0.0 0.0
DOMAIN_MAX 1.0 1.0 1.0
0.000000 0.000000 0.000000
0.006928 0.000305 0.000946
0.026764 0.000244 0.002838
0.066590 0.003510 0.005005
0.100160 0.006500 0.010163
0.122255 0.010864 0.017060
0.146975 0.016754 0.023072
0.175967 0.021515 0.032563
0.210697 0.019135 0.038972
0.249546 0.007202 0.046693
0.291905 0.000000 0.052918
0.336004 0.000000 0.057588
0.380438 0.000000 0.061280
0.423957 0.000000 0.065187
0.465919 0.000000 0.067994
0.505882 0.000000 0.072297
0.543572 0.000000 0.078462
0.579522 0.000000 0.081666
0.613672 0.000000 0.087678
0.646021 0.000000 0.091554
0.676204 0.000000 0.096681
0.704341 0.000000 0.101686
0.732662 0.000000 0.107607
0.760891 0.000000 0.115175
0.786282 0.000000 0.122744
0.809506 0.065736 0.131594
0.831418 0.110567 0.140322
0.852445 0.136538 0.150210
0.872862 0.158755 0.161105
0.892882 0.180209 0.173007
0.912902 0.200961 0.186496
0.932921 0.222232 0.201663
0.001221 0.005341 0.003754
0.003906 0.003906 0.003906
0.023896 0.007233 0.004181
0.065126 0.008087 0.006653
0.099702 0.011078 0.011810
0.121645 0.016632 0.019715
0.145815 0.021790 0.027008
0.174716 0.025788 0.033295
0.209445 0.023651 0.040833
0.247562 0.011841 0.047608
0.289738 0.000000 0.053864
0.333501 0.000000 0.058595
0.377691 0.000000 0.062196
0.421393 0.000000 0.065156
0.462928 0.000000 0.069306
0.503166 0.000000 0.073793
0.541192 0.000000 0.078553
0.577173 0.000000 0.082795
0.611444 0.000000 0.087007
0.643580 0.000000 0.091768
0.673854 0.000000 0.096162
0.702022 0.000000 0.101717
0.730129 0.000000 0.107729
0.757900 0.000000 0.114748
0.782864 0.000000 0.121828
0.806119 0.062989 0.130220
0.828061 0.108034 0.139040
0.849210 0.134707 0.148409
0.869810 0.156558 0.159152
0.890043 0.177768 0.170962
0.910185 0.198581 0.184237
0.930419 0.219730 0.199405
0.004425 0.022522 0.013764
0.007385 0.023285 0.014740
0.022095 0.021485 0.019226
0.056092 0.028809 0.019806
0.098146 0.032563 0.020264
0.119570 0.038575 0.027039
0.144594 0.043488 0.034333
0.174228 0.046082 0.039612
0.208499 0.043397 0.046204
0.247013 0.031373 0.052979
0.288579 0.012360 0.058137
0.331884 0.000000 0.061463
0.376257 0.000000 0.065217
0.419348 0.000000 0.067659
0.461036 0.000000 0.070527
0.501213 0.000000 0.075715
0.538994 0.000000 0.079194
0.575372 0.000000 0.084230
0.609522 0.000000 0.088594
0.641779 0.000000 0.092103
0.672084 0.000000 0.096803
0.700282 0.000000 0.101869
0.728542 0.000000 0.108309
0.755947 0.000000 0.114656
0.780850 0.024353 0.122225
0.804044 0.088594 0.130526
0.825956 0.117494 0.139040
0.847227 0.140841 0.148531
0.867826 0.161868 0.158663
0.888151 0.182040 0.170352
0.908415 0.201511 0.183474
0.928649 0.221805 0.198642
0.011322 0.058869 0.041413
0.011902 0.058900 0.039155
0.025483 0.059510 0.042206
0.054841 0.058076 0.053101
0.090394 0.066224 0.057862
0.117525 0.078767 0.045380
0.143587 0.081758 0.049256
0.173770 0.081849 0.052583
0.208713 0.079133 0.058137
0.247227 0.071077 0.061067
0.288518 0.054688 0.065919
0.331487 0.032776 0.067689
0.375280 0.004730 0.069764
0.418006 0.000000 0.073060
0.459327 0.000000 0.075715
0.498939 0.000000 0.079561
0.536614 0.000000 0.083619
0.572351 0.000000 0.087617
0.606378 0.000000 0.090608
0.638514 0.000000 0.094453
0.668666 0.000000 0.098817
0.697047 0.000000 0.104097
0.725338 0.000000 0.109590
0.752682 0.032074 0.116701
0.777737 0.089143 0.123659
0.801266 0.113893 0.131594
0.823636 0.135988 0.140383
0.845365 0.155215 0.149935
0.866331 0.173617 0.159945
0.886809 0.191714 0.171756
0.906981 0.210208 0.185031
0.927001 0.229129 0.199435
0.022156 0.093721 0.077272
0.022461 0.093721 0.076143
0.034943 0.094026 0.075776
0.064515 0.093141 0.080049
0.090425 0.092714 0.088594
0.106813 0.095064 0.091676
0.139162 0.101137 0.081788
0.173434 0.104555 0.070710
0.208225 0.104707 0.072267
0.246494 0.103212 0.074769
0.287419 0.100038 0.075502
0.330022 0.094453 0.077821
0.372808 0.087282 0.078737
0.415656 0.068940 0.080446
0.457160 0.045777 0.082979
0.496437 0.030274 0.085389
0.534173 0.015015 0.088594
0.570062 0.008240 0.091157
0.603906 0.009979 0.093874
0.636103 0.020264 0.097322
0.666316 0.037354 0.102113
0.694759 0.069001 0.106722
0.723262 0.094575 0.112398
0.750301 0.111391 0.119051
0.775387 0.128206 0.126345
0.798947 0.144900 0.133791
0.821530 0.160037 0.142824
0.843259 0.175540 0.152041
0.864286 0.191043 0.162295
0.884764 0.206760 0.174289
0.904936 0.223026 0.186801
0.924926 0.240208 0.201266
0.025422 0.114626 0.095521
0.025727 0.114626 0.095125
0.034150 0.114687 0.093477
0.058930 0.114839 0.094484
0.092866 0.114504 0.098085
0.111635 0.114321 0.104982
0.128695 0.115389 0.111391
0.167544 0.123171 0.100771
0.207797 0.128725 0.090974
0.247623 0.131106 0.085939
0.288243 0.130648 0.085756
0.330724 0.129000 0.086458
0.373236 0.126558 0.088014
0.415503 0.123354 0.088594
0.456214 0.120699 0.090028
0.495521 0.118227 0.092012
0.532830 0.116793 0.094148
0.568597 0.116701 0.096254
0.602564 0.117739 0.099062
0.634455 0.121370 0.103304
0.664637 0.127047 0.106477
0.693843 0.134554 0.112154
0.737362 0.155459 0.121645
0.764675 0.167178 0.129488
0.789609 0.178439 0.137819
0.812741 0.190341 0.146426
0.834562 0.202121 0.155703
0.855375 0.214298 0.166079
0.875517 0.226841 0.176852
0.895079 0.240116 0.188602
0.914488 0.253971 0.202274
0.933684 0.268956 0.217197
0.004883 0.144076 0.111604
0.005798 0.144076 0.110658
0.010163 0.144015 0.108034
0.039521 0.144045 0.108186
0.087251 0.143282 0.109377
0.117189 0.143679 0.115969
0.142153 0.144533 0.124666
0.160403 0.144625 0.136904
0.206577 0.154299 0.123079
0.251408 0.161532 0.109804
0.295811 0.166323 0.095888
0.338293 0.167269 0.095918
0.380804 0.167330 0.096101
0.422095 0.166781 0.096529
0.462043 0.166293 0.097871
0.500206 0.166079 0.099763
0.536767 0.166812 0.101259
0.571679 0.167605 0.103822
0.605035 0.170077 0.106233
0.636988 0.172946 0.109865
0.667384 0.177310 0.114351
0.699306 0.184268 0.120058
0.729397 0.192508 0.127108
0.757473 0.201389 0.133974
0.783383 0.210269 0.142245
0.807034 0.219760 0.151095
0.829221 0.228855 0.159731
0.850248 0.238437 0.169741
0.870481 0.248417 0.180606
0.890166 0.259770 0.191836
0.909667 0.271580 0.205081
0.929015 0.284611 0.219852
0.000000 0.175845 0.126375
0.000000 0.175967 0.126589
0.000000 0.175814 0.123079
0.003235 0.175692 0.122164
0.064485 0.174990 0.122866
0.110536 0.174960 0.126467
0.145937 0.176516 0.134615
0.176791 0.178805 0.145663
0.197604 0.178775 0.161898
0.245335 0.189548 0.149386
0.292882 0.196933 0.133516
0.337438 0.201877 0.117250
0.378973 0.204685 0.105867
0.419348 0.205844 0.105867
0.458686 0.206729 0.106752
0.496040 0.207431 0.108003
0.532250 0.208682 0.109255
0.567071 0.209873 0.111391
0.600366 0.211582 0.114656
0.632013 0.214176 0.117647
0.664271 0.218692 0.122133
0.695125 0.223667 0.127962
0.724483 0.229679 0.133761
0.752255 0.236027 0.140932
0.777829 0.243320 0.148348
0.801663 0.249943 0.157443
0.823941 0.257237 0.165713
0.845151 0.264866 0.175235
0.865629 0.273167 0.185580
0.885496 0.282506 0.197116
0.905241 0.292363 0.209903
0.924712 0.303929 0.224063
0.000000 0.212436 0.143740
0.000000 0.212680 0.143679
0.000000 0.212375 0.141238
0.000000 0.212436 0.138155
0.021698 0.211490 0.138796
0.099367 0.210117 0.139864
0.142794 0.211490 0.146242
0.182223 0.214450 0.156527
0.216587 0.218173 0.169070
0.240543 0.218418 0.187259
0.287572 0.229984 0.179873
0.335576 0.237430 0.161654
0.379217 0.241733 0.143435
0.418006 0.244236 0.124758
0.455482 0.245792 0.117830
0.492561 0.247135 0.118685
0.528374 0.248325 0.120089
0.562707 0.250065 0.121584
0.595850 0.251408 0.124239
0.628992 0.254459 0.127657
0.660731 0.257847 0.132174
0.690730 0.261814 0.136904
0.719661 0.266117 0.142947
0.747066 0.270939 0.149538
0.772702 0.276036 0.157290
0.796506 0.281285 0.165286
0.818875 0.286992 0.173922
0.840269 0.293034 0.183139
0.860929 0.299718 0.193179
0.881041 0.307225 0.204318
0.900847 0.315923 0.216922
0.920592 0.325719 0.230838
0.000000 0.251896 0.163302
0.000000 0.251804 0.162570
0.000000 0.251591 0.160159
0.000000 0.251469 0.155459
0.000000 0.250431 0.155856
0.081575 0.249027 0.156832
0.130953 0.247654 0.158602
0.179751 0.250736 0.168093
0.222293 0.254734 0.180087
0.259770 0.259831 0.194522
0.285069 0.260624 0.214633
0.329229 0.272740 0.214145
0.375891 0.279881 0.193973
0.417670 0.283177 0.173434
0.455085 0.284703 0.153017
0.488411 0.285130 0.131868
0.523766 0.286595 0.131746
0.558526 0.288273 0.133425
0.593103 0.290501 0.136385
0.625727 0.293065 0.139467
0.656580 0.295415 0.143587
0.685756 0.297917 0.148287
0.713863 0.300847 0.153536
0.740505 0.304265 0.159731
0.765652 0.307561 0.166201
0.789212 0.311498 0.173922
0.811826 0.315709 0.181888
0.833585 0.320500 0.190402
0.854612 0.326116 0.200565
0.875242 0.332464 0.211734
0.895476 0.339940 0.224399
0.915679 0.348760 0.238468
0.000000 0.290654 0.182345
0.000000 0.290501 0.181888
0.000000 0.290623 0.180240
0.000000 0.290288 0.175509
0.000000 0.289494 0.173861
0.042634 0.288304 0.174807
0.124483 0.286442 0.175662
0.172488 0.286961 0.180728
0.221836 0.291203 0.191897
0.265751 0.296574 0.206088
0.304417 0.303044 0.222477
0.329870 0.304143 0.243626
0.370916 0.317174 0.252110
0.415534 0.323430 0.229740
0.455299 0.326085 0.207706
0.490913 0.326268 0.185672
0.523766 0.326238 0.163760
0.555047 0.325933 0.147707
0.588678 0.327672 0.149874
0.620600 0.329351 0.153323
0.650935 0.330785 0.156283
0.679713 0.332464 0.160769
0.707698 0.334783 0.165988
0.734340 0.336950 0.171542
0.759426 0.339483 0.177432
0.783169 0.342504 0.184634
0.805936 0.345708 0.192447
0.827939 0.349401 0.201205
0.849210 0.353918 0.210910
0.870085 0.359258 0.221683
0.890623 0.365637 0.234134
0.911009 0.373419 0.247990
0.000000 0.330083 0.203433
0.000000 0.330083 0.203311
0.000000 0.329656 0.200931
0.000000 0.329656 0.197391
0.000000 0.329320 0.193912
0.013642 0.327672 0.194278
0.119326 0.326024 0.194858
0.165560 0.323583 0.195834
0.217533 0.326818 0.204746
0.266209 0.332341 0.218143
0.309789 0.338750 0.234134
0.349004 0.346380 0.253056
0.384894 0.358007 0.283146
0.422766 0.371801 0.302617
0.466835 0.378454 0.278752
0.506218 0.380926 0.255222
0.540978 0.380468 0.231357
0.571832 0.378119 0.206821
0.599176 0.374609 0.181979
0.627863 0.373602 0.173770
0.657679 0.374517 0.177371
0.686030 0.375341 0.181674
0.713161 0.376318 0.185916
0.738796 0.377569 0.191714
0.762997 0.379065 0.197818
0.786099 0.380560 0.204471
0.808133 0.382361 0.211673
0.829374 0.384741 0.220096
0.849973 0.387854 0.229587
0.870268 0.391882 0.239902
0.890379 0.396979 0.251713
0.910521 0.403418 0.265904
0.000000 0.372808 0.228458
0.000000 0.372808 0.228458
0.000000 0.372412 0.226780
0.000000 0.371893 0.222873
0.000000 0.371099 0.217563
0.008484 0.369177 0.216922
0.123445 0.367102 0.217319
0.171145 0.364446 0.217777
0.212497 0.362737 0.220035
0.265507 0.368414 0.233280
0.314031 0.375586 0.249393
0.358953 0.384985 0.268986
0.399756 0.396033 0.291966
0.429267 0.402808 0.319249
0.463752 0.417243 0.350164
0.504692 0.422248 0.324437
0.540734 0.422766 0.298680
0.572747 0.420264 0.272557
0.601007 0.416175 0.246586
0.626062 0.410986 0.220737
0.648676 0.405097 0.193668
0.676448 0.405310 0.195529
0.703670 0.405890 0.200198
0.729397 0.406683 0.204959
0.753933 0.407385 0.210483
0.777310 0.408484 0.216709
0.799832 0.409888 0.224002
0.821530 0.411841 0.231968
0.842710 0.414343 0.240879
0.863493 0.417823 0.251286
0.884031 0.422248 0.263310
0.904540 0.428046 0.277287
0.000000 0.407141 0.251225
0.000000 0.407141 0.251133
0.000000 0.406806 0.249668
0.000000 0.406104 0.245701
0.000000 0.405432 0.240940
0.031098 0.404273 0.238224
0.129549 0.402472 0.238590
0.175875 0.400397 0.239231
0.214664 0.397925 0.239567
0.260410 0.399542 0.246555
0.311406 0.407080 0.262486
0.358495 0.415930 0.281315
0.401892 0.426001 0.303075
0.441291 0.437232 0.327764
0.470344 0.444434 0.355901
0.500389 0.457832 0.393988
0.537346 0.461738 0.369757
0.570520 0.460822 0.342412
0.600092 0.457252 0.315129
0.626429 0.451911 0.288029
0.650233 0.445655 0.260929
0.672267 0.439216 0.234012
0.694606 0.434699 0.214939
0.720546 0.435218 0.219333
0.745388 0.435615 0.224491
0.769131 0.436439 0.230716
0.791958 0.437507 0.237278
0.814084 0.438880 0.245274
0.835599 0.440894 0.254215
0.856779 0.443915 0.264408
0.877653 0.447852 0.276646
0.898589 0.453071 0.290684
0.000000 0.443091 0.276951
0.000000 0.443091 0.276951
0.000000 0.442725 0.275517
0.004730 0.441962 0.271763
0.028870 0.441016 0.267094
0.089296 0.439643 0.262058
0.143893 0.437598 0.261997
0.185855 0.435157 0.261875
0.222507 0.432624 0.262058
0.256718 0.429877 0.262699
0.305547 0.435279 0.275486
0.354467 0.443610 0.293431
0.399176 0.453010 0.314031
0.440925 0.463355 0.337438
0.478462 0.474495 0.363073
0.506432 0.481849 0.391516
0.533165 0.493111 0.429145
0.566308 0.498116 0.415106
0.596979 0.496101 0.386572
0.624659 0.491798 0.358465
0.649805 0.485847 0.330602
0.672877 0.479347 0.303197
0.694240 0.472480 0.275944
0.714229 0.465431 0.248203
0.736812 0.462898 0.239628
0.760769 0.463416 0.245274
0.784085 0.464302 0.252171
0.806668 0.465583 0.260075
0.828794 0.467445 0.269078
0.850523 0.470283 0.279698
0.872068 0.474220 0.292576
0.893584 0.479347 0.307256
0.102937 0.475013 0.302129
0.103609 0.474952 0.301427
0.106142 0.474800 0.300359
0.108248 0.474311 0.297673
0.114626 0.473518 0.293248
0.122621 0.472572 0.286961
0.160861 0.470741 0.286015
0.198093 0.468818 0.286259
0.232853 0.466346 0.286381
0.264897 0.463630 0.286656
0.298955 0.462104 0.289036
0.348211 0.469642 0.306004
0.394263 0.478035 0.325292
0.436744 0.487098 0.347021
0.475593 0.496773 0.370855
0.510643 0.507195 0.396796
0.537774 0.514672 0.425330
0.561120 0.523949 0.461494
0.591272 0.530785 0.458808
0.620050 0.528374 0.430152
0.646357 0.524010 0.402228
0.670619 0.518242 0.374670
0.693141 0.511650 0.347356
0.714290 0.504662 0.320195
0.734249 0.497505 0.292576
0.753445 0.490639 0.264439
0.776699 0.490883 0.268467
0.799710 0.491981 0.276463
0.822141 0.493660 0.285252
0.844114 0.496193 0.295933
0.865904 0.499641 0.308537
0.887572 0.504295 0.323400
0.144869 0.503868 0.326116
0.145296 0.503807 0.325780
0.147036 0.503655 0.324804
0.149233 0.503197 0.322271
0.152651 0.502495 0.318151
0.156558 0.501671 0.312352
0.178592 0.500206 0.309239
0.211276 0.498177 0.309209
0.242039 0.495827 0.309087
0.272129 0.493141 0.309026
0.301030 0.490059 0.308782
0.339513 0.492012 0.316991
0.386358 0.499977 0.335485
0.429664 0.508446 0.356115
0.469886 0.517540 0.378943
0.506859 0.527092 0.403601
0.540185 0.537285 0.430060
0.566247 0.545220 0.458900
0.587030 0.553124 0.494057
0.614313 0.561700 0.502068
0.640986 0.559442 0.474891
0.666041 0.555108 0.447608
0.689509 0.549523 0.420752
0.711604 0.543084 0.393896
0.732570 0.536217 0.366949
0.752743 0.529107 0.339757
0.772305 0.522118 0.312139
0.792569 0.517510 0.293339
0.815335 0.519188 0.302434
0.837705 0.521569 0.313268
0.859892 0.524926 0.326177
0.881987 0.529381 0.341466
0.180819 0.531579 0.351476
0.180728 0.531579 0.351141
0.192966 0.539666 0.358068
0.194034 0.539330 0.355840
0.196323 0.538659 0.351904
0.199252 0.537804 0.346624
0.208194 0.536584 0.341436
0.234775 0.534325 0.340734
0.261906 0.532006 0.340368
0.289128 0.529290 0.339940
0.315404 0.526085 0.339117
0.341466 0.522515 0.338384
0.385199 0.528130 0.353429
0.429023 0.535912 0.373602
0.470100 0.544152 0.395605
0.507897 0.552789 0.419196
0.542138 0.561822 0.444343
0.573144 0.571344 0.470893
0.597345 0.579004 0.499092
0.614588 0.584771 0.532189
0.638392 0.595117 0.551080
0.662959 0.592584 0.525078
0.686427 0.588159 0.498726
0.708797 0.582452 0.472175
0.730129 0.575677 0.445258
0.750576 0.568536 0.418341
0.770443 0.561181 0.391150
0.790066 0.554040 0.363958
0.809781 0.547356 0.336584
0.831235 0.546258 0.331518
0.853666 0.549493 0.344579
0.876036 0.553826 0.360296
0.215702 0.559533 0.379065
0.216129 0.560174 0.379248
0.218296 0.560845 0.379400
0.219913 0.561242 0.377874
0.222446 0.561181 0.374975
0.225193 0.560632 0.370703
0.228275 0.559625 0.363989
0.248417 0.557641 0.362554
0.272526 0.555322 0.361730
0.297002 0.552728 0.360998
0.321294 0.549767 0.360113
0.345861 0.546471 0.359319
0.373571 0.544640 0.361639
0.418250 0.552026 0.380774
0.459754 0.559899 0.401740
0.498482 0.568200 0.424537
0.534295 0.576928 0.448920
0.566888 0.585931 0.474678
0.595941 0.595361 0.501915
0.619257 0.603357 0.530205
0.634150 0.608240 0.562066
0.656062 0.621271 0.591394
0.679194 0.619257 0.567559
0.701472 0.615442 0.543175
0.723049 0.610071 0.517998
0.743862 0.603967 0.492775
0.764279 0.597284 0.467170
0.784421 0.590509 0.441566
0.804654 0.584070 0.416144
0.825315 0.578241 0.391058
0.846769 0.573175 0.365820
0.869444 0.576867 0.378485
0.241886 0.582177 0.402167
0.243015 0.582849 0.402625
0.244419 0.583551 0.402716
0.246342 0.583886 0.401587
0.248478 0.583978 0.399207
0.250523 0.583520 0.395026
0.253117 0.582666 0.389593
0.264836 0.581079 0.385687
0.285832 0.579004 0.384924
0.307561 0.576410 0.383856
0.329992 0.573632 0.382818
0.352422 0.570520 0.381659
0.374792 0.566888 0.380255
0.408820 0.568933 0.389654
0.450965 0.576501 0.410101
0.490242 0.584375 0.432105
0.526909 0.592523 0.455726
0.560357 0.600885 0.480629
0.590692 0.609613 0.506767
0.617792 0.618647 0.533989
0.639826 0.626764 0.562097
0.652613 0.630854 0.591882
0.673091 0.645808 0.628656
0.694270 0.644465 0.607965
0.715206 0.641199 0.586206
0.735836 0.636713 0.563470
0.756313 0.631189 0.540002
0.776577 0.625483 0.516747
0.797116 0.619776 0.493721
0.818051 0.614435 0.471077
0.839689 0.609796 0.449104
0.862272 0.605982 0.427619
0.268620 0.604547 0.426642
0.269535 0.605158 0.427008
0.270848 0.605676 0.427070
0.272435 0.606012 0.426215
0.274266 0.606043 0.423957
0.275395 0.605615 0.419867
0.277348 0.604852 0.414771
0.282628 0.603632 0.409339
0.300725 0.601801 0.408545
0.320317 0.599542 0.407599
0.340429 0.596948 0.406317
0.361089 0.594079 0.405005
0.381689 0.590845 0.403601
0.402533 0.587121 0.401770
0.442603 0.592950 0.419165
0.482429 0.600366 0.440742
0.519738 0.608148 0.463935
0.554467 0.616297 0.488808
0.586053 0.624781 0.514672
0.614801 0.633692 0.541894
0.640345 0.643000 0.569696
0.661433 0.651698 0.597406
0.673091 0.655512 0.624811
0.692348 0.669764 0.659724
0.711635 0.671382 0.649836
0.731136 0.669276 0.631678
0.750729 0.665980 0.612726
0.770535 0.662043 0.593500
0.790860 0.657801 0.573999
0.811765 0.653620 0.554711
0.833463 0.649897 0.536095
0.856016 0.646967 0.518639
0.301915 0.629725 0.456703
0.302464 0.629938 0.456855
0.302708 0.629969 0.456245
0.303410 0.629847 0.454719
0.304295 0.629511 0.452369
0.305303 0.628901 0.448737
0.306310 0.628107 0.443793
0.307988 0.627192 0.437781
0.321569 0.625483 0.435859
0.338231 0.623529 0.434791
0.356023 0.621363 0.433814
0.374609 0.618799 0.432380
0.393378 0.615839 0.430732
0.412512 0.612604 0.428870
0.436774 0.611170 0.431586
0.477119 0.618036 0.452827
0.514672 0.625147 0.475410
0.549584 0.632532 0.499306
0.581659 0.640253 0.524468
0.610986 0.648310 0.550469
0.637354 0.656641 0.576867
0.660639 0.665187 0.602930
0.680323 0.673365 0.628046
0.691005 0.676722 0.653040
0.708125 0.689235 0.684291
0.725795 0.693355 0.683101
0.744167 0.692073 0.667659
0.762905 0.689967 0.652033
0.782223 0.687465 0.636316
0.802152 0.684901 0.621057
0.822965 0.682551 0.606317
0.844816 0.680842 0.592615
0.329595 0.649805 0.482612
0.330144 0.649958 0.482704
0.330419 0.650050 0.482185
0.331151 0.649989 0.481056
0.331701 0.649653 0.478920
0.332494 0.649134 0.475502
0.333257 0.648493 0.470985
0.334356 0.647608 0.465339
0.342138 0.646448 0.462013
0.356451 0.644709 0.460883
0.371862 0.642725 0.459724
0.388495 0.640497 0.458350
0.405371 0.637964 0.456825
0.422705 0.635035 0.454719
0.440620 0.631922 0.453040
0.470832 0.634028 0.463752
0.509148 0.640742 0.486122
0.544427 0.647730 0.509728
0.577081 0.655024 0.534264
0.606928 0.662531 0.559442
0.634211 0.670314 0.585260
0.658564 0.678309 0.610254
0.680171 0.686488 0.634607
0.698817 0.694484 0.657832
0.707118 0.695888 0.677974
0.722744 0.706935 0.705989
0.739528 0.713375 0.711940
0.756863 0.713130 0.699519
0.774960 0.712215 0.686824
0.793820 0.711177 0.674586
0.813596 0.710353 0.663172
0.834348 0.709987 0.652766
0.361517 0.671443 0.512291
0.362219 0.671717 0.512718
0.362554 0.671809 0.512352
0.362799 0.671565 0.511009
0.362646 0.671077 0.508415
0.362615 0.670405 0.505180
0.362921 0.669490 0.500938
0.362951 0.668452 0.495277
0.365606 0.667231 0.489906
0.377142 0.665431 0.488350
0.389960 0.663416 0.486671
0.403937 0.661158 0.484901
0.418647 0.658717 0.482948
0.434058 0.655909 0.480873
0.450019 0.652796 0.478340
0.466072 0.649439 0.475746
0.501976 0.654566 0.494850
0.537560 0.660945 0.517632
0.570520 0.667689 0.541375
0.601251 0.674708 0.566247
0.629053 0.682063 0.591150
0.654353 0.689540 0.615412
0.676875 0.697078 0.638788
0.696895 0.704677 0.661097
0.714382 0.712245 0.682124
0.723751 0.715175 0.702693
0.737942 0.724758 0.727230
0.753902 0.733028 0.738735
0.770413 0.733516 0.728420
0.787839 0.733761 0.718593
0.806241 0.734157 0.709468
0.825711 0.735012 0.701595
0.387732 0.689265 0.537865
0.388281 0.689540 0.538079
0.388556 0.689693 0.537804
0.389075 0.689570 0.536919
0.389380 0.689326 0.535088
0.389471 0.688869 0.532250
0.389807 0.688350 0.528588
0.390478 0.687739 0.524285
0.391180 0.687068 0.518822
0.400092 0.685786 0.517082
0.411261 0.684230 0.515831
0.423529 0.682429 0.514397
0.436469 0.680354 0.512657
0.450172 0.678035 0.510704
0.464271 0.675319 0.508232
0.478798 0.672358 0.505669
0.499245 0.671382 0.508934
0.534691 0.677150 0.531029
0.567956 0.683284 0.554314
0.598749 0.689693 0.578271
0.627039 0.696407 0.602136
0.652735 0.703365 0.625422
0.675990 0.710414 0.647944
0.696834 0.717525 0.669398
0.715480 0.724727 0.689845
0.732052 0.731960 0.708858
0.741329 0.735073 0.727413
0.754360 0.743587 0.749142
0.769986 0.753597 0.765072
0.785824 0.755123 0.757168
0.802792 0.756619 0.749966
0.820859 0.758511 0.743923
0.417884 0.708644 0.566979
0.418311 0.708766 0.567193
0.418433 0.708797 0.566766
0.418799 0.708675 0.566003
0.418799 0.708431 0.564172
0.418921 0.708034 0.561761
0.419165 0.707576 0.558709
0.419318 0.706996 0.554498
0.419776 0.706386 0.549737
0.424475 0.705440 0.546502
0.433906 0.704097 0.545312
0.444404 0.702541 0.543969
0.455634 0.700832 0.542473
0.467506 0.698817 0.540642
0.480110 0.696559 0.538537
0.492958 0.694087 0.536095
0.506432 0.691371 0.533410
0.532952 0.693324 0.545342
0.566278 0.698878 0.568078
0.596979 0.704738 0.590875
0.625330 0.710903 0.613581
0.651270 0.717220 0.635798
0.674952 0.723720 0.657191
0.696376 0.730282 0.677790
0.715785 0.736873 0.697169
0.733150 0.743496 0.715297
0.748745 0.750240 0.732418
0.757748 0.753323 0.748989
0.769619 0.760647 0.768063
0.784848 0.772061 0.787381
0.800351 0.774594 0.781582
0.817044 0.777340 0.776699
0.447456 0.727321 0.596155
0.447761 0.727382 0.596277
0.448005 0.727443 0.596063
0.448310 0.727443 0.595331
0.448554 0.727321 0.594049
0.449012 0.727230 0.592279
0.449836 0.727230 0.590173
0.450965 0.727260 0.587579
0.452522 0.727321 0.584619
0.455421 0.727352 0.581689
0.464424 0.726864 0.581811
0.474159 0.726162 0.581781
0.484535 0.725338 0.581567
0.495399 0.724147 0.580835
0.506523 0.722683 0.579614
0.518090 0.720851 0.577935
0.530022 0.718807 0.576074
0.542504 0.716609 0.573968
0.573571 0.721096 0.593896
0.603662 0.726345 0.615290
0.631464 0.731838 0.636347
0.657191 0.737545 0.657069
0.680720 0.743313 0.676905
0.702266 0.749203 0.695827
0.721767 0.755123 0.713497
0.739559 0.761074 0.730251
0.755612 0.767056 0.745968
0.770047 0.773129 0.760739
0.778714 0.775967 0.775174
0.789059 0.781949 0.791409
0.803311 0.793118 0.810239
0.817899 0.797055 0.808164
0.484749 0.750790 0.633265
0.484688 0.750790 0.633143
0.484718 0.750698 0.632776
0.484596 0.750576 0.631922
0.484749 0.750393 0.630793
0.484749 0.750179 0.628931
0.485054 0.749966 0.626825
0.485573 0.749722 0.624140
0.486213 0.749508 0.621149
0.486976 0.749294 0.617334
0.492958 0.748623 0.616297
0.500755 0.747829 0.615747
0.509178 0.746883 0.615106
0.518364 0.745785 0.614313
