20 Preset/White Style/【3】LUT video cho PR-AE-FCPX/White Style LUT (5).cube
# Created by Adobe Lightroom plugin Export LUT (1.24.0)
# www.johnrellis.com/lightroom/exportlut.htm
# Preset: 通透白调-素材江湖05
# Color profile: C:\Program Files (x86)\Common Files\Adobe\Color\Profiles\Recommended\VideoHD.icc
LUT_3D_SIZE 32
DOMAIN_MIN 0.0 0.0 0.0
DOMAIN_MAX 1.0 1.0 1.0
0.000000 0.000000 0.000000
0.006226 0.001495 0.000793
0.027893 0.004608 0.002228
0.069520 0.013214 0.005859
0.101808 0.027100 0.011780
0.120882 0.044923 0.020447
0.141421 0.069001 0.027802
0.165347 0.088075 0.037598
0.193545 0.097810 0.043671
0.224918 0.108248 0.047425
0.260258 0.119905 0.046723
0.299443 0.131838 0.043549
0.342016 0.144228 0.038300
0.388373 0.157321 0.030854
0.437873 0.170718 0.019684
0.489448 0.184512 0.005371
0.541436 0.199802 0.000000
0.591699 0.217288 0.000000
0.639033 0.236881 0.000000
0.682399 0.259281 0.000000
0.727504 0.286473 0.000000
0.768643 0.315190 0.000000
0.803464 0.342809 0.000000
0.833555 0.368750 0.000000
0.859678 0.393408 0.046967
0.882719 0.416938 0.106020
0.903716 0.440070 0.141512
0.923247 0.462928 0.177005
0.941222 0.485817 0.214054
0.957610 0.509148 0.254734
0.972320 0.533013 0.299260
0.984924 0.557794 0.349645
0.001495 0.005341 0.002625
0.005768 0.004883 0.001465
0.026734 0.009186 0.002747
0.068391 0.017823 0.006409
0.101656 0.030488 0.012451
0.120089 0.049714 0.020966
0.140688 0.071626 0.028626
0.164584 0.088685 0.037476
0.192020 0.098268 0.042573
0.223270 0.108766 0.046357
0.258152 0.120027 0.047150
0.297032 0.132204 0.044007
0.339330 0.144564 0.038941
0.385229 0.157595 0.030762
0.434241 0.170840 0.020142
0.485908 0.184817 0.006989
0.537896 0.200137 0.000000
0.588403 0.217197 0.000000
0.635859 0.236667 0.000000
0.679286 0.258610 0.000000
0.723842 0.285130 0.000000
0.764401 0.312963 0.000000
0.799069 0.339940 0.000000
0.829252 0.365545 0.000000
0.855528 0.390082 0.033143
0.878843 0.413519 0.100557
0.900175 0.436530 0.136019
0.920073 0.459266 0.170932
0.938476 0.482307 0.208347
0.955291 0.505699 0.248661
0.970367 0.529747 0.293065
0.983398 0.554498 0.342870
0.009003 0.022095 0.011475
0.009979 0.023072 0.012451
0.030457 0.027619 0.008057
0.077394 0.032410 0.007630
0.101595 0.045014 0.013855
0.119356 0.065675 0.022248
0.139986 0.082704 0.030213
0.163821 0.093446 0.039216
0.191440 0.103120 0.045136
0.222293 0.112856 0.046845
0.257084 0.124239 0.046174
0.295750 0.135805 0.044343
0.337774 0.148135 0.038056
0.383215 0.161227 0.029786
0.432044 0.174624 0.018891
0.483650 0.188235 0.005951
0.535668 0.203311 0.000000
0.586053 0.220554 0.000000
0.633539 0.239872 0.000000
0.677089 0.261479 0.000000
0.721920 0.287694 0.000000
0.762081 0.315038 0.000000
0.796628 0.341375 0.000000
0.826780 0.366552 0.000000
0.853086 0.390753 0.028565
0.876585 0.413703 0.097536
0.898070 0.436561 0.132937
0.918151 0.459174 0.168734
0.936736 0.481941 0.205875
0.953765 0.505333 0.246220
0.969055 0.529168 0.290501
0.982300 0.553735 0.339910
0.020233 0.060426 0.032013
0.020539 0.060426 0.030884
0.032715 0.061250 0.031647
0.079896 0.070649 0.022675
0.105440 0.072450 0.021180
0.121981 0.084230 0.028077
0.141360 0.093294 0.034913
0.163455 0.102144 0.042512
0.191135 0.111147 0.046021
0.221958 0.121157 0.047120
0.256687 0.132113 0.046143
0.294896 0.143404 0.042908
0.336584 0.156283 0.035737
0.381903 0.169162 0.027039
0.430152 0.182193 0.017212
0.481117 0.196170 0.002472
0.532769 0.211154 0.000000
0.582788 0.227878 0.000000
0.629969 0.246891 0.000000
0.673487 0.267582 0.000000
0.717830 0.292882 0.000000
0.757107 0.318914 0.000000
0.791836 0.344121 0.000000
0.822416 0.368902 0.000000
0.849516 0.392767 0.018128
0.873747 0.416175 0.093843
0.895903 0.439033 0.131991
0.916533 0.461585 0.167727
0.935515 0.484321 0.205417
0.952697 0.507439 0.245975
0.967956 0.530907 0.290379
0.981140 0.554894 0.338842
0.046052 0.091646 0.062898
0.048341 0.091554 0.061738
0.053590 0.091768 0.061585
0.075044 0.093812 0.058137
0.102998 0.098085 0.046235
0.127565 0.098451 0.038636
0.146578 0.104494 0.043366
0.168154 0.112093 0.048676
0.193423 0.121279 0.050660
0.221622 0.131746 0.051209
0.255497 0.142733 0.047425
0.293278 0.154757 0.040742
0.334752 0.167147 0.034272
0.379736 0.180606 0.024231
0.428107 0.194125 0.011780
0.479194 0.208103 0.000000
0.530785 0.223178 0.000000
0.580957 0.239902 0.000000
0.628199 0.258488 0.000000
0.672755 0.279271 0.000000
0.716274 0.303807 0.000000
0.754940 0.328283 0.000000
0.789303 0.352605 0.000000
0.819974 0.376501 0.000000
0.847410 0.399634 0.015717
0.871824 0.422400 0.094270
0.894194 0.444434 0.132509
0.914885 0.466590 0.168124
0.933898 0.488685 0.206241
0.951141 0.511101 0.246677
0.966461 0.533959 0.290745
0.979736 0.557397 0.338872
0.059724 0.109712 0.084932
0.061707 0.109651 0.084932
0.068696 0.109133 0.084291
0.078614 0.109438 0.084779
0.097108 0.114199 0.078553
0.124727 0.119631 0.065034
0.155398 0.119142 0.052216
0.176669 0.125643 0.055085
0.201541 0.133822 0.056733
0.229770 0.144106 0.056306
0.261418 0.155459 0.054902
0.296818 0.168551 0.051148
0.337163 0.181674 0.044007
0.382147 0.195254 0.033417
0.430182 0.209171 0.018952
0.481209 0.223697 0.003937
0.532494 0.239078 0.000000
0.582269 0.255802 0.000000
0.629053 0.274327 0.000000
0.674464 0.295933 0.000000
0.717159 0.319341 0.000000
0.754940 0.343206 0.000000
0.811948 0.385809 0.000000
0.840482 0.408820 0.001373
0.865660 0.430396 0.088533
0.887968 0.451301 0.127474
0.908476 0.471809 0.163516
0.927245 0.492164 0.199985
0.944335 0.512779 0.237949
0.959655 0.533745 0.279179
0.973083 0.555230 0.324315
0.984466 0.577264 0.372717
0.067231 0.132692 0.098360
0.069215 0.132662 0.098360
0.073487 0.132540 0.097963
0.083314 0.132265 0.096773
0.095521 0.134249 0.096162
0.118135 0.140536 0.090486
0.153079 0.148013 0.080507
0.189609 0.147921 0.063752
0.216831 0.154177 0.061524
0.245640 0.163577 0.062013
0.278264 0.174685 0.060700
0.314183 0.187350 0.058015
0.353765 0.201358 0.054200
0.396643 0.216617 0.047181
0.443397 0.231815 0.037293
0.493660 0.246159 0.021515
0.543877 0.261875 0.004669
0.592218 0.278782 0.000000
0.638178 0.297917 0.000000
0.685878 0.321294 0.000000
0.728634 0.345495 0.000000
0.767453 0.370153 0.000000
0.802029 0.394263 0.000000
0.832700 0.417456 0.027161
0.859434 0.439307 0.093172
0.882841 0.459846 0.125216
0.903899 0.479438 0.162295
0.923003 0.498909 0.198947
0.940337 0.518639 0.237339
0.955901 0.538567 0.278050
0.969635 0.559197 0.322545
0.981384 0.580316 0.370214
0.069947 0.157534 0.111635
0.071931 0.157504 0.111635
0.077211 0.157198 0.111025
0.085817 0.157351 0.110292
0.094911 0.156924 0.109926
0.112825 0.162173 0.106386
0.142885 0.169650 0.099733
0.182834 0.178470 0.090089
0.223606 0.179232 0.076234
0.257572 0.184054 0.069184
0.289921 0.194125 0.069123
0.325109 0.206027 0.066285
0.363897 0.219181 0.063447
0.406104 0.233677 0.058412
0.450996 0.249210 0.050660
0.497597 0.265965 0.043915
0.544335 0.284489 0.037079
0.591974 0.300786 0.020569
0.640558 0.321294 0.007355
0.685451 0.342870 0.000000
0.726314 0.365393 0.000366
0.763973 0.388006 0.011200
0.797940 0.410437 0.044739
0.828153 0.432044 0.090517
0.854795 0.452766 0.117433
0.878294 0.471809 0.143954
0.899535 0.490333 0.170840
0.919036 0.508507 0.200992
0.936645 0.527184 0.239475
0.952453 0.546258 0.279881
0.966430 0.565850 0.324498
0.978363 0.586328 0.372076
0.070375 0.186770 0.127687
0.070649 0.186770 0.127413
0.076814 0.186831 0.126589
0.086458 0.186618 0.126040
0.095308 0.186465 0.124910
0.110933 0.187503 0.125521
0.135134 0.195010 0.118929
0.171176 0.204135 0.110628
0.216556 0.214267 0.098665
0.261295 0.215183 0.085389
0.303227 0.218265 0.077333
0.338445 0.229129 0.076387
0.376898 0.241428 0.072877
0.418372 0.255436 0.068849
0.462531 0.270512 0.064210
0.507713 0.286564 0.057893
0.552819 0.304326 0.052857
0.599359 0.325383 0.052705
0.643641 0.347967 0.057557
0.685969 0.368780 0.060395
0.725338 0.389319 0.068360
0.761746 0.410132 0.088106
0.794827 0.430732 0.102815
0.824552 0.450538 0.121523
0.851011 0.469429 0.143343
0.874296 0.487282 0.167269
0.895598 0.504479 0.192172
0.915160 0.521569 0.218509
0.933104 0.538781 0.247532
0.949187 0.556481 0.285557
0.963226 0.575158 0.329900
0.975311 0.594568 0.377478
0.063386 0.220432 0.146120
0.066377 0.220279 0.145937
0.071229 0.220462 0.145663
0.084596 0.220035 0.144381
0.094392 0.219883 0.143221
0.108064 0.219638 0.142885
0.130220 0.223880 0.141024
0.160494 0.232914 0.133120
0.202579 0.242954 0.122225
0.252781 0.254337 0.107851
0.302373 0.255375 0.093477
0.351873 0.255619 0.082918
0.389899 0.267124 0.081605
0.431037 0.280125 0.079255
0.474281 0.294713 0.077150
0.518517 0.310582 0.073091
0.565332 0.329686 0.071687
0.610346 0.350011 0.076295
0.652003 0.371069 0.085054
0.690333 0.392920 0.096284
0.725887 0.414893 0.109682
0.759609 0.435035 0.121523
0.791196 0.452796 0.134066
0.819760 0.470314 0.149691
0.845396 0.486824 0.168948
0.868559 0.502922 0.189731
0.889860 0.518914 0.212558
0.909636 0.534936 0.238224
0.927916 0.551232 0.266056
0.944610 0.567773 0.296818
0.959380 0.585107 0.334966
0.971771 0.603845 0.383246
0.046632 0.257084 0.166567
0.048920 0.257084 0.166384
0.058473 0.256901 0.165866
0.075715 0.257023 0.164858
0.091310 0.256901 0.163699
0.104738 0.256718 0.162692
0.127535 0.256413 0.165621
0.152560 0.265476 0.158328
0.189700 0.275822 0.148470
0.237034 0.287480 0.135744
0.293462 0.299687 0.118288
0.349615 0.303746 0.099214
0.405097 0.297734 0.088106
0.445655 0.309636 0.086732
0.489357 0.324010 0.084871
0.534783 0.340826 0.086366
0.578698 0.358343 0.088350
0.620539 0.376623 0.093904
0.659388 0.395758 0.100679
0.695521 0.415167 0.110414
0.729244 0.435004 0.123659
0.760586 0.454871 0.139345
0.789364 0.474464 0.158999
0.815946 0.492531 0.179263
0.841337 0.507561 0.197269
0.864225 0.522271 0.217105
0.885496 0.537011 0.238834
0.905241 0.551843 0.263401
0.923461 0.566949 0.290349
0.940154 0.582513 0.320684
0.955200 0.598444 0.353460
0.968322 0.615198 0.392645
0.014374 0.298833 0.189792
0.018067 0.298650 0.189670
0.026459 0.298802 0.189303
0.046448 0.298680 0.188205
0.079225 0.298802 0.187472
0.099367 0.298711 0.186313
0.117830 0.298924 0.185946
0.146670 0.302190 0.186404
0.178103 0.312871 0.177615
0.221592 0.324834 0.166110
0.274662 0.337621 0.150576
0.336980 0.351171 0.130404
0.416022 0.370367 0.108461
0.480873 0.361486 0.093568
0.527642 0.374426 0.095033
0.571435 0.389868 0.099519
0.612451 0.405707 0.105776
0.651057 0.422370 0.113924
0.686824 0.439429 0.124727
0.720211 0.456672 0.138064
0.751339 0.474006 0.153780
0.779416 0.490700 0.171817
0.805081 0.506981 0.191989
0.828428 0.523186 0.215122
0.849668 0.538903 0.239536
0.869169 0.554620 0.265904
0.888823 0.566979 0.286564
0.907012 0.579553 0.309606
0.923796 0.592615 0.335668
0.939269 0.606073 0.363348
0.953307 0.620081 0.394079
0.966003 0.634791 0.426917
0.000000 0.351354 0.219608
0.000000 0.351354 0.219211
0.000000 0.351019 0.218906
0.000000 0.350683 0.217838
0.023865 0.350011 0.216556
0.074586 0.349584 0.215061
0.106813 0.349401 0.214054
0.140322 0.348638 0.216861
0.169558 0.357214 0.211215
0.209232 0.369085 0.200778
0.261326 0.384436 0.188388
0.324712 0.401434 0.172274
0.398657 0.418372 0.150240
0.474159 0.428779 0.122164
0.534752 0.416480 0.108370
0.582177 0.422889 0.108888
0.620722 0.436072 0.117403
0.656641 0.449897 0.126528
0.690181 0.464240 0.138735
0.721828 0.478950 0.152407
0.751308 0.493660 0.168215
0.778378 0.508232 0.186252
0.803250 0.522728 0.205570
0.826230 0.537316 0.228000
0.847227 0.551720 0.251896
0.866545 0.566430 0.278019
0.884520 0.581201 0.306035
0.901030 0.596124 0.335790
0.917510 0.609155 0.362554
0.933135 0.621851 0.389746
0.947326 0.635004 0.419226
0.960143 0.648890 0.450660
0.000000 0.398444 0.247807
0.000000 0.398230 0.247349
0.000000 0.397925 0.247166
0.000000 0.397620 0.246189
0.000000 0.396918 0.244602
0.018311 0.396521 0.243534
0.088228 0.397223 0.242679
0.119844 0.398016 0.242588
0.163119 0.400855 0.247013
0.198611 0.413672 0.238041
0.247745 0.427985 0.227359
0.307317 0.443091 0.213870
0.376806 0.458595 0.196658
0.452399 0.473030 0.174289
0.527947 0.483131 0.144442
0.581445 0.467475 0.131533
0.628107 0.467384 0.130190
0.661891 0.478492 0.141207
0.694148 0.490303 0.153750
0.724331 0.502586 0.167697
0.752468 0.514916 0.183536
0.778561 0.527703 0.201755
0.802853 0.540551 0.221317
0.825223 0.553613 0.243381
0.845884 0.566827 0.267460
0.865110 0.580255 0.292790
0.882933 0.593927 0.320348
0.899290 0.607935 0.350072
0.914366 0.622278 0.381323
0.928069 0.637079 0.414740
0.941161 0.651148 0.446784
0.954101 0.664149 0.476692
0.000000 0.451179 0.282994
0.000000 0.451118 0.283146
0.000000 0.450752 0.282475
0.000000 0.450385 0.281559
0.000000 0.450019 0.280461
0.000000 0.449531 0.278904
0.062135 0.449470 0.277897
0.113771 0.449775 0.277287
0.157046 0.450019 0.280613
0.196719 0.456977 0.278965
0.240543 0.469642 0.269444
0.295750 0.482979 0.257816
0.359014 0.496529 0.243687
0.429053 0.509575 0.226108
0.502525 0.521294 0.203159
0.574823 0.530907 0.174258
0.621759 0.513146 0.160220
0.667903 0.507836 0.156313
0.698634 0.517235 0.169192
0.727565 0.527245 0.183810
0.754452 0.537591 0.200656
0.779568 0.548363 0.218418
0.803067 0.559503 0.238651
0.824796 0.570977 0.260197
0.844938 0.582818 0.283879
0.863920 0.595148 0.309667
0.881559 0.607813 0.336797
0.897856 0.620996 0.366186
0.912932 0.634668 0.397620
0.926696 0.648890 0.430671
0.939055 0.663722 0.465614
0.950103 0.679042 0.500877
0.000000 0.499794 0.321782
0.000000 0.499916 0.321721
0.000000 0.499641 0.321050
0.000000 0.499397 0.320348
0.000000 0.499214 0.319463
0.000000 0.498909 0.318151
0.091554 0.499062 0.317174
0.129915 0.499458 0.316960
0.161929 0.500053 0.317327
0.209812 0.500114 0.325444
0.246281 0.510552 0.316472
0.293675 0.521599 0.305821
0.349554 0.532616 0.292882
0.412238 0.543236 0.277317
0.478065 0.553033 0.258854
0.545678 0.562188 0.236728
0.613184 0.570672 0.209079
0.655421 0.553338 0.194736
0.702174 0.543511 0.185428
0.730007 0.551537 0.200839
0.756130 0.560235 0.217868
0.780728 0.569512 0.236454
0.803586 0.579248 0.256840
0.824857 0.589502 0.279149
0.844724 0.600183 0.303319
0.863462 0.611536 0.329015
0.880858 0.623255 0.356176
0.896971 0.635523 0.385504
0.911833 0.648188 0.415839
0.925292 0.661372 0.447944
0.937469 0.675135 0.481147
0.948425 0.689448 0.514611
0.000000 0.542535 0.362493
0.000000 0.542321 0.362097
0.000000 0.542290 0.361975
0.019409 0.542107 0.361181
0.076905 0.541985 0.360479
0.111360 0.541802 0.359442
0.138552 0.541680 0.358495
0.164767 0.541894 0.358099
0.191623 0.542016 0.358007
0.224735 0.542199 0.362066
0.262638 0.545617 0.364477
0.300755 0.555138 0.354772
0.347936 0.564752 0.343725
0.401892 0.573999 0.330388
0.460761 0.582971 0.314427
0.522087 0.591241 0.295811
0.584527 0.598993 0.274113
0.647272 0.606409 0.248539
0.686488 0.590631 0.232731
0.733059 0.576745 0.220188
0.758328 0.583673 0.237522
0.782101 0.591241 0.256260
0.804288 0.599542 0.276616
0.825071 0.608453 0.299168
0.844633 0.618036 0.323339
0.863005 0.628321 0.349065
0.880156 0.639155 0.376654
0.896117 0.650416 0.405158
0.910704 0.662257 0.435187
0.924071 0.674586 0.466011
0.936126 0.687526 0.498146
0.946960 0.701076 0.530419
0.137179 0.581781 0.406775
0.138247 0.581903 0.406744
0.168734 0.593561 0.421393
0.175021 0.593378 0.420752
0.184878 0.593072 0.419776
0.197787 0.592920 0.419135
0.212345 0.592554 0.418036
0.229618 0.592340 0.417121
0.248631 0.592340 0.417182
0.269444 0.592493 0.417884
0.302678 0.591974 0.425360
0.333135 0.598138 0.420783
0.369390 0.606012 0.410498
0.412970 0.613703 0.398322
0.462013 0.620966 0.384283
0.514916 0.627863 0.367712
0.570214 0.634211 0.348089
0.626703 0.640101 0.326116
0.683986 0.645380 0.301274
0.719844 0.629908 0.284154
0.761776 0.616083 0.271855
0.787442 0.617548 0.284977
0.808316 0.623926 0.305303
0.828031 0.631098 0.327581
0.846555 0.638880 0.350408
0.864012 0.647395 0.374365
0.880339 0.656550 0.400061
0.895598 0.666377 0.426886
0.909819 0.676844 0.454902
0.922789 0.688228 0.484932
0.934752 0.700191 0.514977
0.945403 0.712917 0.546136
0.214633 0.620417 0.455238
0.217258 0.621424 0.456519
0.221744 0.622522 0.458137
0.227756 0.623346 0.458930
0.236027 0.623865 0.459174
0.245396 0.623957 0.458808
0.256962 0.623621 0.457893
0.269749 0.623377 0.457099
0.285466 0.623224 0.456977
0.301823 0.623163 0.457038
0.324224 0.622858 0.460151
0.353246 0.623713 0.465583
0.381018 0.630732 0.456703
0.415900 0.637781 0.446540
0.456367 0.644587 0.434791
0.501732 0.651026 0.421241
0.550652 0.657038 0.405341
0.601862 0.662593 0.388128
0.654658 0.667781 0.367926
0.707973 0.672602 0.346319
0.742336 0.658808 0.328649
0.781643 0.646113 0.317571
0.808469 0.643763 0.326604
0.827726 0.649836 0.348455
0.845975 0.656519 0.370672
0.863127 0.663966 0.394324
0.879179 0.672114 0.419104
0.894194 0.680995 0.445319
0.908171 0.690578 0.472450
0.921111 0.700984 0.500633
0.932921 0.712215 0.530236
0.943603 0.724208 0.560174
0.267491 0.650904 0.495064
0.270207 0.651881 0.496620
0.273503 0.652949 0.497902
0.278538 0.653803 0.499001
0.284794 0.654383 0.499275
0.292302 0.654444 0.499153
0.300847 0.654322 0.498421
0.311559 0.653986 0.497810
0.323796 0.653803 0.497505
0.337224 0.653529 0.497292
0.352331 0.653468 0.497902
0.376898 0.652888 0.504082
0.400671 0.656123 0.502861
0.427497 0.662348 0.494392
0.460182 0.668391 0.484688
0.497810 0.674189 0.473610
0.539849 0.679591 0.460822
0.584619 0.684688 0.446418
0.631861 0.689479 0.430182
0.680568 0.693965 0.412390
0.730343 0.698085 0.392737
0.763729 0.687007 0.376379
0.799283 0.674220 0.366308
0.827665 0.668788 0.370306
0.845548 0.674464 0.392493
0.862364 0.680934 0.415351
0.878172 0.688014 0.439033
0.892973 0.695857 0.463844
0.906706 0.704616 0.490333
0.919554 0.714137 0.517205
0.931243 0.724575 0.545464
0.941894 0.735744 0.574334
0.317937 0.679408 0.533989
0.320073 0.680232 0.535271
0.323095 0.681086 0.536431
0.327123 0.681758 0.537224
0.332006 0.682246 0.537774
0.337865 0.682277 0.537499
0.344793 0.682155 0.537072
0.353338 0.681941 0.536767
0.363104 0.681697 0.536217
0.374365 0.681514 0.536339
0.386847 0.681361 0.536645
0.402838 0.681086 0.539086
0.426062 0.680262 0.545953
0.446052 0.685542 0.539178
0.471778 0.690944 0.531395
0.502129 0.696254 0.522698
0.537041 0.701411 0.512535
0.575860 0.706416 0.501640
0.617212 0.711299 0.489845
0.661097 0.715938 0.476570
0.706386 0.720394 0.461860
0.752895 0.724544 0.445777
0.785946 0.716091 0.431189
0.818540 0.704158 0.423041
0.848081 0.696376 0.423224
0.864683 0.702083 0.446052
0.880034 0.708461 0.469673
0.894469 0.715541 0.493751
0.907774 0.723476 0.519005
0.920165 0.732296 0.545159
0.931518 0.741909 0.571923
0.941741 0.752316 0.599390
0.377142 0.710079 0.578241
0.377996 0.710353 0.578576
0.379309 0.710567 0.578851
0.381750 0.710567 0.578912
0.384833 0.710567 0.578698
0.388739 0.710292 0.578180
0.394141 0.710048 0.577874
0.400610 0.709743 0.577295
0.408484 0.709499 0.577050
0.417670 0.709377 0.577203
0.428260 0.709285 0.577844
0.439490 0.709194 0.578698
0.457404 0.708583 0.583490
0.475807 0.709895 0.585138
0.494484 0.714565 0.578698
0.517479 0.719203 0.571344
0.544762 0.723659 0.563348
0.576013 0.728054 0.554162
0.610681 0.732357 0.544366
0.648127 0.736477 0.533410
0.688014 0.740414 0.521080
0.729397 0.744167 0.507744
0.771939 0.747585 0.492592
0.803983 0.740688 0.478370
0.833371 0.728786 0.470344
0.863798 0.718654 0.466255
0.879057 0.724208 0.488930
0.893339 0.730556 0.512139
0.906523 0.737728 0.536492
0.918761 0.745693 0.561578
0.929992 0.754513 0.587274
0.940154 0.764157 0.613611
0.423621 0.732998 0.612451
0.424384 0.733242 0.612848
0.425635 0.733394 0.613123
0.427466 0.733486 0.613214
0.429999 0.733455 0.613123
0.433448 0.733272 0.613001
0.437690 0.733089 0.612726
0.443183 0.732845 0.612482
0.449775 0.732631 0.612390
0.457588 0.732479 0.612573
0.466407 0.732448 0.613336
0.476173 0.732326 0.614221
0.487800 0.732174 0.616327
0.505669 0.731441 0.622126
0.520348 0.734646 0.619440
0.537377 0.738979 0.613611
0.558373 0.743313 0.607050
0.583154 0.747524 0.599878
0.611414 0.751705 0.592004
0.642695 0.755734 0.583185
0.676905 0.759640 0.573693
0.713161 0.763302 0.563165
0.751278 0.766690 0.551171
0.790463 0.769833 0.538018
0.819760 0.762509 0.520378
0.846250 0.750973 0.513176
0.875731 0.741146 0.508812
0.891752 0.744564 0.528222
0.904997 0.750973 0.551263
0.917144 0.758267 0.575616
0.928344 0.766476 0.600763
0.938537 0.775479 0.626551
0.474495 0.756771 0.649256
0.475563 0.757107 0.649805
0.476509 0.757259 0.650111
0.477546 0.757137 0.649866
0.479072 0.756832 0.649470
0.481117 0.756435 0.648920
0.483711 0.755917 0.648127
0.487312 0.755367 0.647486
0.492134 0.754818 0.646967
0.497902 0.754391 0.646845
0.504417 0.753994 0.646845
0.512108 0.753658 0.647333
0.520439 0.753323 0.648157
0.533165 0.752621 0.651392
0.547051 0.752590 0.654292
0.558923 0.756222 0.649104
0.574365 0.760006 0.643488
0.593378 0.763851 0.637446
0.615961 0.767788 0.630762
0.641810 0.771756 0.623835
0.670558 0.775631 0.616419
0.701717 0.779263 0.607782
0.734798 0.782620 0.598291
0.769467 0.785519 0.587396
0.805386 0.788052 0.574884
0.835142 0.783871 0.562554
0.858915 0.772549 0.555413
0.886320 0.763729 0.552361
0.903624 0.764431 0.566766
0.915740 0.770871 0.589624
0.926818 0.778286 0.613825
0.936980 0.786526 0.638392
0.513024 0.775631 0.677485
0.513939 0.775937 0.678035
0.514946 0.776120 0.678340
0.516106 0.776120 0.678431
0.517571 0.776028 0.678309
0.519768 0.775937 0.678279
0.522606 0.775692 0.678096
0.526055 0.775540 0.677913
0.530419 0.775387 0.678004
0.535698 0.775265 0.678279
0.541588 0.775143 0.678676
0.548150 0.774990 0.679255
0.555413 0.774838 0.680110
0.563470 0.774563 0.681361
0.576318 0.773800 0.685451
0.587030 0.775418 0.684749
0.598291 0.778775 0.680201
0.612604 0.782284 0.675319
0.629999 0.785885 0.670069
0.650538 0.789548 0.664576
0.673945 0.793149 0.658686
0.699763 0.796628 0.652308
0.727718 0.799924 0.644984
0.757595 0.802884 0.636744
0.788998 0.805509 0.627283
0.821866 0.807797 0.616480
0.850217 0.805142 0.605554
0.871427 0.794430 0.599451
0.897032 0.786954 0.598383
0.915343 0.785763 0.609216
0.926329 0.792325 0.631891
0.936522 0.799680 0.654780
0.552453 0.795468 0.706447
0.552850 0.795621 0.706661
0.553460 0.795682 0.706813
0.554345 0.795651 0.706813
0.555444 0.795529 0.706661
0.557275 0.795377 0.706569
0.559258 0.795193 0.706325
0.562097 0.795010 0.706172
0.565667 0.794858 0.706264
0.569909 0.794736 0.706416
0.574701 0.794583 0.706630
0.580316 0.794522 0.707179
0.586328 0.794461 0.707851
0.592737 0.794278 0.708675
0.602136 0.793790 0.711086
0.613367 0.793179 0.714717
0.621942 0.796170 0.711238
0.632807 0.799344 0.707210
0.646418 0.802579 0.703120
0.662745 0.805936 0.698939
0.681605 0.809293 0.694301
0.702785 0.812558 0.689265
0.726040 0.815610 0.683619
0.751217 0.818448 0.677211
0.778103 0.820981 0.669795
0.806546 0.823270 0.661494
0.836362 0.825254 0.652277
0.863401 0.823606 0.642603
0.882200 0.813535 0.637171
0.906096 0.807340 0.637964
0.925444 0.804501 0.645472
0.935668 0.811337 0.667567
0.586633 0.813474 0.731716
0.586969 0.813565 0.731838
0.587518 0.813657 0.731991
0.588342 0.813718 0.732052
0.589532 0.813718 0.732143
0.591424 0.813809 0.732387
0.594110 0.814054 0.732815
0.597436 0.814359 0.733455
0.601495 0.814786 0.734310
0.606134 0.815274 0.735317
0.611566 0.815793 0.736568
0.617273 0.816312 0.737850
0.623316 0.816739 0.739132
0.629541 0.817044 0.740444
0.636133 0.817197 0.741878
0.646174 0.816831 0.745266
0.655116 0.817655 0.746395
0.663233 0.820523 0.743374
0.673579 0.823423 0.740291
0.686091 0.826474 0.737057
0.700771 0.829435 0.733547
0.717494 0.832395 0.729824
0.736110 0.835172 0.725429
0.756558 0.837736 0.720699
0.778592 0.840085 0.715206
0.802243 0.842252 0.709102
0.827420 0.844144 0.702205
0.854002 0.845853 0.694606
0.879118 0.845182 0.686519
0.895323 0.835813 0.682124
0.917082 0.830991 0.684443
0.936767 0.827024 0.689631
0.627405 0.834226 0.760891
0.627436 0.834195 0.760861
0.627710 0.834165 0.760861
0.628168 0.834134 0.760800
0.628931 0.834043 0.760708
0.630182 0.833951 0.760708
0.631830 0.833921 0.760708
0.634028 0.833921 0.760861
0.636866 0.833951 0.761166
0.640070 0.834012 0.761532
0.643977 0.834104 0.762051
0.648188 0.834226 0.762692
0.652918 0.834379 0.763485
0.658015 0.834440 0.764401
