20 Preset/White Style/【3】LUT video cho PR-AE-FCPX/White Style LUT (2).cube
# Created by Adobe Lightroom plugin Export LUT (1.24.0)
# www.johnrellis.com/lightroom/exportlut.htm
# Preset: 通透白调-素材江湖02
# Color profile: C:\Program Files (x86)\Common Files\Adobe\Color\Profiles\Recommended\VideoHD.icc
LUT_3D_SIZE 5
DOMAIN_MIN 0.000000 0.000000 0.000000
DOMAIN_MAX 0.903226 0.903226 0.903226
0.000000 0.000000 0.000000
0.189425 0.020691 0.035340
0.501915 0.000000 0.065858
0.743404 0.000000 0.103212
0.906737 0.186893 0.175784
0.000000 0.205661 0.107149
0.203952 0.200381 0.143435
0.490242 0.223026 0.107668
0.731991 0.243595 0.131655
0.898650 0.295262 0.202518
0.000000 0.497993 0.226596
0.139223 0.490822 0.214694
0.528466 0.514183 0.366064
0.702998 0.504479 0.324987
0.859403 0.490059 0.291417
0.000000 0.682002 0.397223
0.221530 0.678645 0.388830
0.456214 0.665126 0.360174
0.701381 0.697353 0.614984
0.803372 0.712520 0.671351
0.433539 0.822965 0.623011
0.451942 0.822568 0.618982
0.517174 0.816220 0.591638
0.689235 0.818387 0.655634
0.825254 0.829831 0.799222
0.004150 0.074250 0.215396
0.228794 0.026947 0.223697
0.532830 0.000000 0.235203
0.753536 0.017670 0.245274
0.898680 0.217624 0.273136
0.112245 0.228763 0.245975
0.251926 0.254337 0.254307
0.526360 0.250462 0.252781
0.739254 0.265568 0.259495
0.889372 0.309117 0.289311
0.169436 0.509331 0.372412
0.211276 0.509697 0.326970
0.528862 0.519951 0.420783
0.695613 0.501457 0.354009
0.856748 0.498207 0.358587
0.279484 0.684871 0.485725
0.285313 0.684260 0.456428
0.465309 0.670008 0.419379
0.701137 0.700160 0.637812
0.803372 0.712978 0.676295
0.464118 0.822477 0.653956
0.467079 0.822690 0.642847
0.533989 0.821408 0.626795
0.690059 0.821561 0.668391
0.827726 0.832914 0.806943
0.048615 0.159548 0.535821
0.298466 0.161410 0.537987
0.571221 0.148470 0.533227
0.761501 0.141909 0.486519
0.895201 0.312657 0.494697
0.204379 0.342199 0.548333
0.317967 0.330327 0.549004
0.569879 0.313878 0.545312
0.754299 0.304875 0.500664
0.885283 0.396521 0.517967
0.363653 0.538415 0.573571
0.417151 0.544823 0.575494
0.560540 0.570062 0.585504
0.714839 0.551873 0.564782
0.852689 0.542840 0.554742
0.461585 0.698085 0.666804
0.482826 0.696620 0.660670
0.533684 0.695064 0.619165
0.704585 0.712764 0.704677
0.807279 0.706020 0.679042
0.549737 0.820829 0.746059
0.562707 0.821042 0.743771
0.562097 0.823667 0.704799
0.667109 0.820859 0.682185
0.827665 0.834653 0.821286
0.299687 0.337804 0.763058
0.376806 0.343969 0.763333
0.563012 0.357183 0.761654
0.750546 0.360235 0.749569
0.882841 0.339818 0.688380
0.351659 0.436866 0.761898
0.406928 0.437140 0.761318
0.564508 0.438209 0.759579
0.741329 0.429023 0.748409
0.874876 0.393408 0.689570
0.466773 0.615198 0.761257
0.498054 0.615351 0.760311
0.585260 0.608301 0.759823
0.718532 0.590387 0.751858
0.851072 0.556878 0.713802
0.572961 0.709865 0.772335
0.586389 0.711208 0.772030
0.637110 0.718929 0.773678
0.715785 0.733516 0.777859
0.827237 0.712612 0.756954
0.623163 0.830503 0.837583
0.629053 0.830747 0.835782
0.653101 0.832181 0.827146
0.687190 0.833463 0.791592
0.832731 0.842710 0.850614
0.505394 0.539788 0.882872
0.527855 0.541283 0.882506
0.609216 0.547906 0.881804
0.730190 0.553979 0.880552
0.865446 0.548058 0.875059
0.528740 0.579767 0.880278
0.547631 0.580285 0.880095
0.618250 0.582391 0.879637
0.730037 0.583093 0.878721
0.861204 0.572259 0.873930
0.592706 0.680018 0.876982
0.596857 0.674434 0.877195
0.644343 0.671199 0.876982
0.732143 0.664790 0.876585
0.852049 0.647822 0.874327
0.642786 0.766445 0.879820
0.649897 0.767056 0.879637
0.681331 0.771115 0.880034
0.741054 0.761227 0.881529
0.847410 0.748043 0.881651
0.708156 0.833249 0.888334
0.713405 0.833982 0.888334
0.737118 0.838102 0.889128
0.781552 0.845884 0.890410
0.844846 0.858213 0.892912
