20 Preset/White Style/【3】LUT video cho PR-AE-FCPX/White Style LUT (1).cube
# Created by Adobe Lightroom plugin Export LUT (1.24.0)
# www.johnrellis.com/lightroom/exportlut.htm
# Preset: 通透白调-素材江湖01
# Color profile: C:\Program Files (x86)\Common Files\Adobe\Color\Profiles\Recommended\VideoHD.icc
LUT_3D_SIZE 8
DOMAIN_MIN 0.000000 0.000000 0.000000
DOMAIN_MAX 0.903226 0.903226 0.903226
0.000000 0.000000 0.000000
0.100160 0.006500 0.010163
0.210697 0.019135 0.038972
0.380438 0.000000 0.061280
0.543572 0.000000 0.078462
0.676204 0.000000 0.096681
0.786282 0.000000 0.122744
0.872862 0.158755 0.161105
0.022156 0.093721 0.077272
0.090425 0.092714 0.088594
0.208225 0.104707 0.072267
0.372808 0.087282 0.078737
0.534173 0.015015 0.088594
0.666316 0.037354 0.102113
0.775387 0.128206 0.126345
0.864286 0.191043 0.162295
0.000000 0.212436 0.143740
0.021698 0.211490 0.138796
0.216587 0.218173 0.169070
0.379217 0.241733 0.143435
0.528374 0.248325 0.120089
0.660731 0.257847 0.132174
0.772702 0.276036 0.157290
0.860929 0.299718 0.193179
0.000000 0.372808 0.228458
0.000000 0.371099 0.217563
0.212497 0.362737 0.220035
0.399756 0.396033 0.291966
0.540734 0.422766 0.298680
0.648676 0.405097 0.193668
0.753933 0.407385 0.210483
0.842710 0.414343 0.240879
0.144869 0.503868 0.326116
0.152651 0.502495 0.318151
0.242039 0.495827 0.309087
0.386358 0.499977 0.335485
0.540185 0.537285 0.430060
0.640986 0.559442 0.474891
0.732570 0.536217 0.366949
0.815335 0.519188 0.302434
0.268620 0.604547 0.426642
0.274266 0.606043 0.423957
0.300725 0.601801 0.408545
0.381689 0.590845 0.403601
0.519738 0.608148 0.463935
0.640345 0.643000 0.569696
0.711635 0.671382 0.649836
0.790860 0.657801 0.573999
0.387732 0.689265 0.537865
0.389380 0.689326 0.535088
0.391180 0.687068 0.518822
0.436469 0.680354 0.512657
0.499245 0.671382 0.508934
0.627039 0.696407 0.602136
0.715480 0.724727 0.689845
0.769986 0.753597 0.765072
0.515496 0.771695 0.664790
0.515770 0.771572 0.662989
0.517784 0.771267 0.655573
0.536706 0.769894 0.650599
0.564752 0.760983 0.639124
0.636957 0.765988 0.668940
0.727474 0.784848 0.736080
0.790921 0.803037 0.788663
0.036530 0.046540 0.100282
0.099306 0.037934 0.108461
0.219394 0.020844 0.120882
0.389776 0.000000 0.127962
0.546105 0.000000 0.135988
0.673304 0.000000 0.145815
0.777035 0.020996 0.162264
0.862852 0.160922 0.187442
0.064485 0.099733 0.116091
0.104555 0.109468 0.123781
0.228122 0.109377 0.129000
0.388708 0.090455 0.134676
0.542504 0.039979 0.141054
0.668818 0.081422 0.150546
0.770840 0.137942 0.165408
0.856718 0.193698 0.189364
0.071504 0.228031 0.188327
0.105165 0.229160 0.178775
0.233066 0.234165 0.198459
0.387579 0.251713 0.170718
0.532280 0.254002 0.163149
0.658259 0.261082 0.170932
0.762387 0.274205 0.186679
0.851286 0.296574 0.212833
0.101289 0.377325 0.260044
0.114900 0.376226 0.250401
0.226963 0.369177 0.241794
0.398352 0.395270 0.304631
0.529931 0.415137 0.301213
0.637415 0.398383 0.214145
0.742153 0.400610 0.227024
0.833036 0.408453 0.252323
0.196536 0.506859 0.349126
0.199924 0.505058 0.340856
0.254948 0.498238 0.324437
0.385504 0.497414 0.343450
0.534844 0.532250 0.432654
0.634913 0.553857 0.471229
0.726284 0.530846 0.366705
0.810056 0.515862 0.312200
0.288060 0.603510 0.439216
0.289769 0.602808 0.433875
0.305852 0.599390 0.415229
0.384527 0.589258 0.410895
0.517357 0.605188 0.466560
0.638270 0.641291 0.571832
0.709560 0.669215 0.647761
0.788205 0.654383 0.570489
0.393561 0.686732 0.542657
0.393133 0.685725 0.538201
0.394873 0.683406 0.522362
0.435370 0.677394 0.513817
0.495583 0.668238 0.508202
0.624201 0.693660 0.600763
0.712398 0.721614 0.687282
0.766964 0.750179 0.761166
0.514855 0.768887 0.664637
0.516136 0.769345 0.663813
0.517693 0.768887 0.656062
0.534356 0.767697 0.649561
0.570397 0.764157 0.647517
0.637598 0.766842 0.671748
0.726925 0.784451 0.736568
0.790616 0.802762 0.789120
0.094636 0.112795 0.213321
0.126284 0.107973 0.220432
0.246586 0.085054 0.237705
0.409522 0.016083 0.250736
0.570184 0.000000 0.263767
0.699886 0.000000 0.267338
0.792111 0.149264 0.274754
0.870115 0.213046 0.288365
0.136965 0.166445 0.228122
0.152682 0.160616 0.233951
0.258640 0.143160 0.248875
0.415625 0.133333 0.258030
0.571160 0.129091 0.267979
0.694575 0.140017 0.268193
0.785763 0.189883 0.275608
0.864866 0.236454 0.289006
0.179385 0.255222 0.265660
0.204868 0.261814 0.268956
0.283848 0.285344 0.281193
0.432959 0.283299 0.280339
0.567681 0.283391 0.279973
0.681971 0.289799 0.283726
0.774563 0.302251 0.290654
0.855619 0.321843 0.304265
0.208042 0.410315 0.352483
0.238773 0.412207 0.352361
0.303075 0.414679 0.338262
0.429664 0.428351 0.374578
0.550317 0.435645 0.348699
0.657404 0.422217 0.314214
0.753719 0.421698 0.320745
0.838071 0.427070 0.335332
0.303105 0.529198 0.433875
0.318181 0.529168 0.432929
0.332525 0.525566 0.407843
0.405280 0.515038 0.396124
0.550927 0.551415 0.484413
0.642573 0.566064 0.500511
0.727535 0.535851 0.397803
0.812894 0.527489 0.379217
0.371099 0.616510 0.506828
0.372564 0.616114 0.502556
0.376654 0.613092 0.482612
0.417182 0.604273 0.463386
0.525139 0.610956 0.498512
0.642054 0.647364 0.598810
0.711757 0.673304 0.657679
0.788418 0.656428 0.582544
0.445380 0.693965 0.589532
0.445136 0.693080 0.585779
0.444617 0.690333 0.570397
0.460670 0.685206 0.550683
0.510857 0.675013 0.540856
0.627741 0.696590 0.618372
0.716091 0.726497 0.702602
0.771450 0.755093 0.767788
0.537072 0.771664 0.687617
0.536767 0.771206 0.685328
0.537804 0.770626 0.677882
0.544823 0.770809 0.666560
0.578393 0.767117 0.663691
0.637018 0.767910 0.678767
0.728573 0.786435 0.743404
0.792752 0.805173 0.795132
0.185550 0.197665 0.371435
0.211185 0.196323 0.376715
0.303319 0.179751 0.390448
0.438453 0.158145 0.399481
0.565942 0.164431 0.397467
0.688106 0.193210 0.404364
0.784726 0.244114 0.412207
0.863523 0.301640 0.427680
0.229129 0.254826 0.385077
0.245762 0.251255 0.388190
0.317357 0.232456 0.399451
0.443885 0.207919 0.407233
0.568048 0.209110 0.402808
0.688838 0.231144 0.409339
0.783383 0.272099 0.416663
0.861845 0.320104 0.431220
0.324743 0.369329 0.403296
0.331304 0.369848 0.407263
0.353704 0.356725 0.418952
0.451362 0.329259 0.427008
0.576318 0.328405 0.425910
0.692866 0.342870 0.433265
0.784054 0.369879 0.444556
0.859098 0.372503 0.436042
0.337285 0.438483 0.448676
0.349706 0.440711 0.449744
0.396704 0.451575 0.456245
0.467292 0.471168 0.468482
0.581476 0.463691 0.460670
0.678279 0.458259 0.454749
0.761898 0.456123 0.451392
0.839292 0.458228 0.452918
0.348943 0.562280 0.536461
0.363043 0.562005 0.534966
0.414710 0.562554 0.531029
0.474342 0.562524 0.516106
0.573358 0.579156 0.558648
0.652857 0.577356 0.536126
0.734096 0.552056 0.480079
0.815824 0.549462 0.483711
0.431647 0.639246 0.591394
0.441657 0.640681 0.592920
0.470405 0.639429 0.589746
0.490455 0.635126 0.566644
0.541344 0.626093 0.555810
0.652522 0.661738 0.644739
0.717311 0.679835 0.672877
0.790463 0.655634 0.594995
0.501946 0.706081 0.653498
0.506981 0.706050 0.653437
0.520500 0.704921 0.649348
0.520684 0.701259 0.625849
0.546075 0.692500 0.605737
0.633997 0.703029 0.648066
0.721828 0.734066 0.725795
0.777401 0.760311 0.774929
0.577722 0.779385 0.729732
0.577630 0.779171 0.728054
0.577844 0.778408 0.721187
0.578912 0.777462 0.707576
0.594018 0.774502 0.694087
0.632380 0.769253 0.688808
0.730007 0.789090 0.753841
0.796597 0.809476 0.805661
0.313359 0.325231 0.540948
0.327459 0.324224 0.543542
0.379492 0.314244 0.549218
0.472816 0.283818 0.558221
0.585534 0.271550 0.557275
0.682399 0.280491 0.542077
0.765713 0.307439 0.531548
0.846128 0.352636 0.539330
0.340276 0.364141 0.548211
0.350866 0.362341 0.550683
0.392676 0.349950 0.555474
0.476173 0.317693 0.562402
0.586053 0.300511 0.560632
0.681422 0.305272 0.544701
0.764858 0.328252 0.535088
0.844602 0.368719 0.542809
0.411933 0.458930 0.564202
0.411444 0.453956 0.565850
0.430121 0.441413 0.569055
0.486030 0.412940 0.573754
0.583795 0.387549 0.570703
0.673518 0.382300 0.552148
0.759335 0.397253 0.548272
0.837766 0.422705 0.554742
0.468818 0.531548 0.583917
0.476051 0.533776 0.584771
0.504540 0.544091 0.589532
0.517021 0.528435 0.595605
0.585473 0.500389 0.594263
0.668818 0.491463 0.578851
0.753414 0.498024 0.580041
0.830045 0.507408 0.583795
0.470283 0.576287 0.610681
0.476814 0.577691 0.611566
0.502068 0.582544 0.614252
0.543481 0.591333 0.619104
0.590387 0.602014 0.624720
0.665766 0.591974 0.613306
0.740719 0.582086 0.602014
0.815549 0.574273 0.593042
0.465339 0.658076 0.670130
0.472358 0.658106 0.669581
0.497780 0.656855 0.665217
0.540764 0.655543 0.658534
0.582513 0.653529 0.644007
0.660060 0.673030 0.685512
0.720455 0.674922 0.674342
0.793423 0.648219 0.614527
0.525109 0.719905 0.708919
0.528130 0.719326 0.707698
0.541741 0.717800 0.703975
0.572168 0.716640 0.700252
0.590784 0.712184 0.680598
0.631342 0.705226 0.672663
0.726253 0.740291 0.748440
0.781369 0.759854 0.775051
0.578607 0.785061 0.757656
0.581598 0.784848 0.757351
0.594079 0.784115 0.756222
0.619623 0.784543 0.756374
0.620966 0.782498 0.736873
0.644373 0.777218 0.722652
0.725795 0.789090 0.761929
0.798581 0.811948 0.815610
0.433478 0.454749 0.681605
0.440589 0.454261 0.682918
0.466194 0.446540 0.684688
0.517205 0.428748 0.688045
0.596216 0.390051 0.689815
0.685298 0.383307 0.681666
0.760128 0.391150 0.661250
0.826230 0.411597 0.645319
0.445533 0.472969 0.680049
0.450446 0.471138 0.680385
0.471931 0.462348 0.681666
0.517540 0.442847 0.684382
0.593225 0.405310 0.686641
0.681819 0.396612 0.679622
0.756405 0.402686 0.659846
0.823575 0.420539 0.645228
0.495491 0.539574 0.690242
0.497627 0.537346 0.690242
0.508812 0.528618 0.691035
0.536034 0.507713 0.690394
0.595666 0.473548 0.691676
0.677943 0.457832 0.685389
0.750240 0.456336 0.666590
0.819150 0.466621 0.655329
0.562768 0.614313 0.701076
0.563775 0.613306 0.701045
0.569268 0.609644 0.702480
0.576104 0.594965 0.705287
0.608759 0.569329 0.705745
0.675441 0.546349 0.699702
0.742061 0.536248 0.682063
0.813840 0.539147 0.676753
0.581628 0.645441 0.710597
0.584985 0.646418 0.710872
0.598718 0.650721 0.712612
0.622766 0.659205 0.716213
0.628016 0.645624 0.716030
0.669886 0.620661 0.710323
0.732357 0.606470 0.695155
0.808377 0.606409 0.695430
0.577905 0.671351 0.722774
0.581689 0.672633 0.723751
0.593225 0.674708 0.724636
0.613764 0.678706 0.726345
0.641199 0.684047 0.728420
0.675166 0.691951 0.732326
0.735988 0.681971 0.721614
0.804807 0.671534 0.710597
0.570275 0.738796 0.773434
0.573083 0.739742 0.773892
0.582605 0.741726 0.773709
0.605585 0.740902 0.769100
0.637537 0.739193 0.761532
0.667506 0.733944 0.745113
0.737118 0.753079 0.779599
0.789975 0.755886 0.772244
0.604669 0.798825 0.804288
0.606012 0.798459 0.803464
0.613519 0.797818 0.801205
0.629328 0.797330 0.797330
0.655512 0.795804 0.791287
0.673884 0.792294 0.774502
0.716487 0.789517 0.772091
0.803799 0.817746 0.831235
0.541619 0.567498 0.771267
0.545312 0.567681 0.772274
0.555535 0.561883 0.772793
0.578882 0.550439 0.774533
0.618463 0.527092 0.775814
0.681605 0.487831 0.776059
0.753384 0.484901 0.768429
0.814481 0.486458 0.749599
0.545190 0.573907 0.768063
0.548852 0.574365 0.769345
0.558190 0.568597 0.769955
0.578668 0.555627 0.770962
0.615961 0.531762 0.771908
0.677211 0.490913 0.771420
0.747921 0.485695 0.763058
0.808774 0.484932 0.743679
0.576898 0.614801 0.773037
0.578180 0.613611 0.773159
0.583001 0.607324 0.773007
0.596765 0.595026 0.773434
0.624628 0.572351 0.773312
0.677302 0.534966 0.773159
0.745785 0.527367 0.767361
0.806973 0.525353 0.751644
0.624018 0.669093 0.780728
0.622705 0.666743 0.780362
0.621393 0.659815 0.779843
0.627802 0.650324 0.780331
0.643702 0.632013 0.779934
0.682429 0.602655 0.779751
0.743282 0.587945 0.774929
0.802060 0.578393 0.760403
0.662654 0.710689 0.785672
0.662043 0.709499 0.785000
0.662287 0.706874 0.784726
0.664332 0.701747 0.785702
0.665217 0.686091 0.785367
0.686000 0.661952 0.783688
0.737087 0.640925 0.778531
0.797269 0.630518 0.768399
0.661494 0.724605 0.792813
0.663325 0.725277 0.793179
0.670558 0.727565 0.794186
0.684352 0.732082 0.796262
0.704250 0.738979 0.799252
0.708217 0.727474 0.799222
0.741146 0.704036 0.793545
0.797299 0.687434 0.780636
0.658625 0.747494 0.804379
0.660761 0.748287 0.804959
0.666865 0.749508 0.805447
0.679194 0.752346 0.806760
0.696864 0.755947 0.808011
0.720180 0.760708 0.809628
0.748379 0.765957 0.810819
0.806058 0.753872 0.799435
0.652674 0.806546 0.844358
0.654017 0.807034 0.844633
0.660182 0.809567 0.846281
0.669764 0.813413 0.847501
0.687861 0.815579 0.844907
0.714748 0.814267 0.837430
0.740719 0.809232 0.821256
0.812528 0.826932 0.852110
0.636103 0.661646 0.835538
0.637659 0.661402 0.835996
0.641321 0.656947 0.835813
0.652064 0.650019 0.837125
0.670863 0.636774 0.838621
0.702510 0.613794 0.840085
0.754025 0.585382 0.841123
0.814511 0.578882 0.836790
0.637263 0.664332 0.833951
0.638849 0.664149 0.834470
0.642817 0.660365 0.834745
0.652613 0.652979 0.835813
0.670649 0.639612 0.837247
0.701442 0.616876 0.838682
0.751827 0.587182 0.839292
0.811704 0.579583 0.834592
0.650752 0.683192 0.834501
0.651637 0.682521 0.834714
0.654170 0.678492 0.834714
0.663661 0.673243 0.836790
0.677790 0.659846 0.837583
0.703975 0.637415 0.838315
0.750973 0.607263 0.839170
0.809262 0.598383 0.834836
0.673182 0.712917 0.836851
0.673884 0.712551 0.837156
0.675349 0.709255 0.837308
0.680476 0.703304 0.838407
0.690791 0.692073 0.839475
0.711513 0.672969 0.840452
0.752224 0.642939 0.841733
0.807736 0.632685 0.837888
0.704952 0.749355 0.840208
0.705501 0.749264 0.840604
0.705623 0.746609 0.840787
0.703395 0.738857 0.841917
0.707362 0.728695 0.842435
0.720241 0.712001 0.843015
0.752651 0.685512 0.844205
0.806363 0.671839 0.841886
0.727718 0.775998 0.846159
0.728267 0.775967 0.845975
0.731868 0.776730 0.845823
0.737575 0.777829 0.846708
0.738338 0.772702 0.848569
0.741024 0.760433 0.851225
0.762264 0.741146 0.853513
0.811154 0.723537 0.852415
0.731746 0.793790 0.856962
0.732662 0.793973 0.856992
0.736629 0.794949 0.857267
0.745602 0.797787 0.858457
0.759884 0.802640 0.860655
0.780240 0.810697 0.864408
0.783108 0.800198 0.865049
0.813138 0.774929 0.860716
0.731289 0.815579 0.867521
0.731960 0.815640 0.867491
0.735775 0.816526 0.867796
0.744228 0.818845 0.868956
0.756985 0.822141 0.870390
0.774228 0.826505 0.872160
0.796475 0.832059 0.874388
0.821927 0.836728 0.875090
