20 Preset/White Style/【3】LUT video cho PR-AE-FCPX/White Style LUT (1).cube
# Created by Adobe Lightroom plugin Export LUT (1.24.0)
# www.johnrellis.com/lightroom/exportlut.htm
# Preset: 通透白调-素材江湖01
# Color profile: C:\Program Files (x86)\Common Files\Adobe\Color\Profiles\Recommended\VideoHD.icc
LUT_3D_SIZE 5
DOMAIN_MIN 0.000000 0.000000 0.000000
DOMAIN_MAX 0.903226 0.903226 0.903226
0.000000 0.000000 0.000000
0.175967 0.021515 0.032563
0.465919 0.000000 0.067994
0.704341 0.000000 0.101686
0.872862 0.158755 0.161105
0.000000 0.175845 0.126375
0.176791 0.178805 0.145663
0.458686 0.206729 0.106752
0.695125 0.223667 0.127962
0.865629 0.273167 0.185580
0.000000 0.443091 0.276951
0.185855 0.435157 0.261875
0.478462 0.474495 0.363073
0.672877 0.479347 0.303197
0.828794 0.467445 0.269078
0.301915 0.629725 0.456703
0.307988 0.627192 0.437781
0.436774 0.611170 0.431586
0.660639 0.665187 0.602930
0.782223 0.687465 0.636316
0.515496 0.771695 0.664790
0.516991 0.771328 0.657984
0.544793 0.762814 0.640009
0.662379 0.770748 0.687160
0.790921 0.803037 0.788663
0.082368 0.099153 0.178653
0.198337 0.076204 0.200198
0.489967 0.000000 0.224918
0.716152 0.000000 0.232853
0.866026 0.193606 0.256504
0.142885 0.208865 0.224094
0.232517 0.235508 0.238315
0.494423 0.233005 0.238926
0.703761 0.247379 0.246494
0.857450 0.288090 0.271275
0.244602 0.465370 0.369329
0.274723 0.462440 0.346197
0.485512 0.483894 0.407599
0.666407 0.477913 0.334173
0.827207 0.476112 0.335424
0.373297 0.638178 0.513603
0.376989 0.636042 0.497017
0.455268 0.620081 0.470741
0.662898 0.669245 0.623102
0.781827 0.688197 0.642695
0.534630 0.773373 0.684627
0.535363 0.772793 0.677638
0.560082 0.769833 0.662806
0.665003 0.773922 0.696803
0.794217 0.806638 0.795956
0.250767 0.259800 0.457984
0.317876 0.251164 0.467872
0.517967 0.213321 0.480720
0.705776 0.243076 0.468971
0.855283 0.326116 0.483467
0.347570 0.390112 0.482521
0.367071 0.373632 0.487984
0.522606 0.327916 0.497230
0.704524 0.336339 0.484901
0.850614 0.389746 0.500572
0.405951 0.512566 0.534173
0.438544 0.519005 0.537804
0.535088 0.542840 0.552483
0.691035 0.527886 0.535790
0.827268 0.519860 0.526329
0.467994 0.666346 0.643671
0.489570 0.664393 0.639704
0.542962 0.659907 0.617914
0.673762 0.685512 0.684169
0.783902 0.682094 0.648981
0.579217 0.780667 0.742061
0.590967 0.780484 0.741878
0.597467 0.778561 0.719936
0.652125 0.771847 0.706752
0.796323 0.809415 0.808896
0.457465 0.480110 0.704189
0.477638 0.475257 0.706508
0.558129 0.442267 0.710414
0.702419 0.406531 0.703700
0.821469 0.426612 0.670680
0.499580 0.538323 0.708461
0.509789 0.531304 0.709194
0.566339 0.497780 0.711788
0.696376 0.456153 0.704952
0.814603 0.461585 0.673518
0.597406 0.648432 0.721248
0.599115 0.645563 0.721218
0.606683 0.625818 0.722866
0.682521 0.581567 0.714290
0.802945 0.571679 0.698482
0.601984 0.693080 0.747005
0.609949 0.694087 0.747036
0.642145 0.700526 0.749783
0.693690 0.711055 0.753719
0.802731 0.691249 0.733059
0.613855 0.802884 0.816800
0.620935 0.802701 0.815274
0.649531 0.802090 0.808682
0.690425 0.796811 0.786557
0.805631 0.819699 0.835966
0.636103 0.661646 0.835538
0.639796 0.658228 0.835752
0.660273 0.644526 0.837949
0.713436 0.606348 0.840665
0.814511 0.578882 0.836790
0.647150 0.677852 0.834684
0.650172 0.674769 0.835050
0.666499 0.660975 0.836851
0.713497 0.624079 0.839109
0.811063 0.594263 0.835752
0.689937 0.732052 0.838621
0.687404 0.727108 0.838560
0.692439 0.714626 0.839261
0.720150 0.683528 0.840024
0.806302 0.650538 0.839048
0.730404 0.781308 0.849790
0.733608 0.782010 0.849729
0.750118 0.787839 0.851652
0.750973 0.769863 0.854368
0.811917 0.736355 0.854673
0.731289 0.815579 0.867521
0.734463 0.816190 0.867674
0.750118 0.820432 0.869657
0.779416 0.827787 0.872709
0.821927 0.836728 0.875090
