20 Preset/White Style/【3】LUT video cho PR-AE-FCPX/White Style LUT (6).cube
# Created by Adobe Lightroom plugin Export LUT (1.24.0)
# www.johnrellis.com/lightroom/exportlut.htm
# Preset: 通透白调-素材江湖06
# Color profile: C:\Program Files (x86)\Common Files\Adobe\Color\Profiles\Recommended\VideoHD.icc
LUT_3D_SIZE 8
DOMAIN_MIN 0.000000 0.000000 0.000000
DOMAIN_MAX 0.903226 0.903226 0.903226
0.000000 0.000000 0.000000
0.098360 0.009369 0.009888
0.213809 0.028351 0.039429
0.423835 0.000000 0.045045
0.679500 0.000000 0.020356
0.864866 0.000000 0.048829
0.990021 0.000000 0.150179
1.000000 0.243595 0.241794
0.033967 0.088350 0.066590
0.083375 0.091157 0.066804
0.204440 0.107240 0.061616
0.401068 0.103090 0.055055
0.652308 0.000000 0.029419
0.847562 0.000000 0.057710
0.969574 0.095125 0.143832
1.000000 0.258091 0.233066
0.071290 0.187625 0.137453
0.097017 0.184787 0.134981
0.187839 0.196231 0.131441
0.414252 0.252171 0.104677
0.659236 0.275547 0.083589
0.854002 0.297948 0.124392
0.970977 0.343450 0.209659
1.000000 0.408972 0.304448
0.021332 0.370672 0.242741
0.096742 0.365057 0.237888
0.202487 0.352453 0.244022
0.377203 0.407507 0.235142
0.656733 0.485634 0.227115
0.845335 0.521965 0.252110
0.943816 0.527520 0.321233
1.000000 0.553094 0.402869
0.187808 0.580011 0.400885
0.202335 0.576562 0.396674
0.255985 0.567224 0.387488
0.375311 0.563348 0.401099
0.551812 0.590967 0.379797
0.747768 0.616449 0.388495
0.886961 0.653254 0.443061
0.978210 0.676112 0.512169
0.420294 0.705226 0.557244
0.434791 0.709010 0.562921
0.448829 0.703792 0.556725
0.490028 0.692561 0.556725
0.558587 0.693599 0.554101
0.681849 0.709651 0.543420
0.816220 0.724819 0.565393
0.931609 0.767880 0.622431
0.596826 0.792233 0.680293
0.599847 0.792538 0.680873
0.603662 0.789120 0.676692
0.613794 0.783444 0.671473
0.641932 0.771847 0.673426
0.690944 0.781064 0.670192
0.774929 0.794034 0.665919
0.877256 0.807370 0.681422
0.718563 0.882048 0.782895
0.719234 0.881682 0.782406
0.723293 0.880919 0.781521
0.732265 0.880217 0.781003
0.735103 0.864836 0.769619
0.765103 0.865141 0.777615
0.812650 0.880613 0.779507
0.880858 0.892790 0.777218
0.007935 0.024262 0.083619
0.089662 0.030671 0.087678
0.201205 0.028565 0.100649
0.398077 0.000000 0.111208
0.649042 0.000000 0.116854
0.843290 0.000000 0.132967
0.962554 0.000000 0.178775
1.000000 0.214847 0.248753
0.027253 0.096162 0.096803
0.095064 0.099550 0.101778
0.207492 0.104097 0.108858
0.397284 0.086793 0.115511
0.643183 0.000000 0.119905
0.837430 0.000000 0.137209
0.952056 0.050538 0.179324
1.000000 0.240513 0.245548
0.097505 0.195041 0.155489
0.124605 0.196323 0.158633
0.196719 0.203952 0.154940
0.415412 0.252110 0.141024
0.644038 0.264591 0.141573
0.831876 0.281956 0.166537
0.944945 0.317540 0.219730
1.000000 0.383520 0.298558
0.117861 0.366461 0.256657
0.139101 0.362646 0.252476
0.213504 0.353124 0.254276
0.360327 0.386450 0.242557
0.617487 0.452949 0.229953
0.811734 0.489601 0.245914
0.918761 0.497261 0.301762
1.000000 0.526360 0.380163
0.216434 0.577905 0.412238
0.225986 0.573266 0.406592
0.267582 0.561089 0.393103
0.369146 0.549096 0.399390
0.533654 0.573114 0.374029
0.732204 0.602197 0.382055
0.876066 0.641016 0.434150
0.967376 0.662654 0.500938
0.416938 0.698573 0.554894
0.421241 0.697658 0.553704
0.436591 0.693050 0.547997
0.479072 0.683406 0.548394
0.549859 0.684932 0.548882
0.675990 0.704036 0.542107
0.810666 0.719692 0.562951
0.925231 0.761044 0.616785
0.587793 0.785458 0.673854
0.586755 0.783627 0.671382
0.590143 0.779965 0.666773
0.601770 0.775174 0.662196
0.634241 0.765896 0.667170
0.683253 0.774472 0.664118
0.766018 0.785824 0.657221
0.867704 0.797604 0.670954
0.710719 0.875151 0.776394
0.713161 0.876066 0.777371
0.716732 0.874998 0.776028
0.725826 0.874327 0.775509
0.743191 0.871153 0.777340
0.768215 0.867094 0.781186
0.811337 0.879210 0.779202
0.879210 0.891173 0.776486
0.000244 0.081636 0.164523
0.094759 0.084138 0.165713
0.195041 0.089693 0.176455
0.400855 0.000000 0.213016
0.665583 0.000000 0.243259
0.863767 0.000000 0.270848
0.967071 0.142794 0.321141
1.000000 0.317662 0.383093
0.031220 0.133028 0.183383
0.095827 0.121889 0.185000
0.208408 0.126345 0.191562
0.406958 0.097017 0.219608
0.662989 0.000000 0.244450
0.853880 0.000000 0.274846
0.957275 0.192447 0.317784
1.000000 0.330724 0.378637
0.000000 0.229953 0.221073
0.108248 0.233677 0.225589
0.242069 0.245975 0.242222
0.450080 0.253971 0.254826
0.679408 0.265629 0.275151
0.845090 0.304417 0.307652
0.943969 0.363165 0.353155
1.000000 0.434028 0.415381
0.058564 0.411353 0.316930
0.155550 0.415900 0.324102
0.290379 0.423621 0.345098
0.410040 0.437659 0.339940
0.661189 0.497902 0.350164
0.817441 0.514092 0.380835
0.916197 0.531304 0.427039
0.994354 0.563287 0.484474
0.270665 0.602106 0.467811
0.301091 0.601801 0.471901
0.370733 0.597894 0.477333
0.433021 0.581537 0.476570
0.568109 0.603052 0.460243
0.746242 0.629328 0.471901
0.876219 0.662623 0.516075
0.961608 0.679530 0.564294
0.466590 0.709743 0.591852
0.480507 0.710048 0.595514
0.496162 0.705776 0.591394
0.517662 0.696345 0.582635
0.573480 0.691310 0.584161
0.683894 0.709926 0.578851
0.812314 0.729274 0.600305
0.926787 0.771023 0.648676
0.618860 0.794003 0.697780
0.618219 0.792447 0.695674
0.619440 0.787991 0.689815
0.626856 0.782071 0.682979
0.650538 0.772671 0.682918
0.694240 0.778744 0.682277
0.774044 0.792447 0.678981
0.876066 0.808896 0.695033
0.720821 0.878996 0.786343
0.720668 0.878019 0.785153
0.723842 0.876707 0.783413
0.734340 0.877501 0.784085
0.748135 0.874296 0.783505
0.774441 0.869749 0.789609
0.816495 0.882719 0.788510
0.883299 0.894682 0.785794
0.000000 0.115328 0.310307
0.000000 0.117433 0.315465
0.229770 0.125429 0.320592
0.392889 0.115114 0.345037
0.631678 0.011902 0.379034
0.834012 0.006226 0.418647
0.941985 0.249027 0.453468
1.000000 0.388952 0.508965
0.000000 0.168978 0.339788
0.000000 0.158541 0.341588
0.240421 0.165835 0.343359
0.409552 0.162509 0.363256
0.640070 0.149599 0.388708
0.834012 0.170413 0.427924
0.937957 0.291173 0.461952
1.000000 0.411902 0.516716
0.000000 0.308324 0.384344
0.000000 0.308476 0.388464
0.241337 0.284184 0.396704
0.436561 0.293400 0.405005
0.666621 0.320043 0.438300
0.834073 0.366400 0.475807
0.930327 0.448280 0.522972
1.000000 0.510674 0.560876
0.000000 0.474830 0.448920
0.000000 0.476234 0.451179
0.272801 0.486061 0.464485
0.477363 0.504845 0.491432
0.673121 0.518395 0.507073
0.804440 0.538903 0.528740
0.897887 0.567254 0.557519
0.978088 0.600549 0.590875
0.285161 0.643305 0.548821
0.316991 0.642023 0.550256
0.421485 0.641413 0.562097
0.540154 0.642908 0.585626
0.618097 0.645136 0.577417
0.766506 0.671870 0.593011
0.869413 0.687251 0.617090
0.954376 0.702388 0.642939
0.503288 0.733333 0.639185
0.522118 0.736507 0.645747
0.560479 0.734035 0.651972
0.608453 0.730068 0.659205
0.632990 0.715969 0.653651
0.708370 0.729702 0.645563
0.822538 0.751644 0.662562
0.933745 0.788083 0.696956
0.628656 0.804898 0.717769
0.634577 0.805051 0.719417
0.655756 0.804318 0.724514
0.675135 0.800900 0.724788
0.686610 0.792203 0.717739
0.717983 0.790249 0.716487
0.786130 0.802243 0.711269
0.886748 0.822721 0.726833
0.730953 0.890043 0.803220
0.733822 0.889769 0.803799
0.746548 0.888975 0.806851
0.753902 0.886992 0.804257
0.762692 0.883207 0.799710
0.785336 0.877073 0.802914
0.823697 0.887266 0.803494
0.890471 0.900847 0.802396
0.000000 0.170169 0.521996
0.000000 0.173129 0.525994
0.220157 0.182162 0.528801
0.434730 0.204685 0.533928
0.627008 0.196475 0.560662
0.798337 0.271519 0.566583
0.906371 0.372808 0.576837
0.985351 0.469154 0.611536
0.000000 0.217990 0.541466
0.000000 0.215854 0.545312
0.228580 0.224002 0.546288
0.442878 0.243687 0.545342
0.633356 0.243748 0.569543
0.797177 0.313024 0.572229
0.903014 0.400793 0.583581
0.982300 0.486458 0.617090
0.000000 0.388037 0.575647
0.000000 0.381781 0.577081
0.228794 0.345434 0.578363
0.461341 0.368109 0.577661
0.638025 0.378302 0.589136
0.781643 0.426368 0.584558
0.887694 0.483162 0.604181
0.969543 0.538018 0.632349
0.000000 0.541619 0.604944
0.000000 0.542626 0.606287
0.288945 0.549371 0.613703
0.484688 0.538537 0.622644
0.645319 0.550835 0.626581
0.771481 0.574365 0.630060
0.872435 0.597833 0.648341
0.959014 0.623438 0.668727
0.265629 0.664240 0.637232
0.302556 0.665095 0.638849
0.410132 0.666773 0.643732
0.540368 0.670588 0.653193
0.656764 0.676143 0.665278
0.764950 0.680781 0.671504
0.857511 0.690608 0.682399
0.945220 0.704341 0.696895
0.486336 0.743191 0.673518
0.498604 0.743069 0.674830
0.539635 0.740200 0.677272
0.605737 0.738003 0.685237
0.674464 0.737057 0.698665
0.725704 0.742885 0.698177
0.835721 0.770504 0.716670
0.934173 0.790707 0.736202
0.621790 0.814786 0.737942
0.625055 0.813687 0.737514
0.642023 0.811368 0.738369
0.681056 0.810880 0.746273
0.720089 0.807828 0.752621
0.736233 0.795804 0.746212
0.793545 0.807523 0.740444
0.894072 0.830716 0.754177
0.704036 0.890532 0.803403
0.707362 0.890166 0.803830
0.721798 0.889189 0.806363
0.754269 0.891722 0.816556
0.778408 0.889372 0.818997
0.792386 0.883146 0.814664
0.824857 0.885740 0.815946
0.889128 0.898772 0.813016
0.000000 0.264927 0.694240
0.000000 0.269322 0.695338
0.229007 0.281254 0.693446
0.460487 0.312566 0.693568
0.638605 0.371771 0.694148
0.783902 0.385199 0.706844
0.875914 0.472908 0.692897
0.953460 0.558892 0.701747
0.000000 0.294743 0.691432
0.000000 0.297368 0.691157
0.233249 0.308690 0.690150
0.457801 0.336400 0.690059
0.631159 0.387243 0.688930
0.775784 0.400580 0.702113
0.869230 0.482033 0.689937
0.948699 0.562188 0.699916
0.046540 0.456947 0.707912
0.143191 0.450416 0.708156
0.289799 0.433509 0.709468
0.480385 0.449500 0.703761
0.638483 0.485847 0.700343
0.768704 0.497841 0.710170
0.859098 0.553094 0.702174
0.942138 0.606836 0.715023
0.279973 0.608667 0.721828
0.317388 0.607874 0.721309
0.436347 0.610163 0.722652
0.532982 0.597436 0.728267
0.663050 0.616632 0.726589
0.765988 0.623377 0.731167
0.850462 0.650446 0.728908
0.939879 0.673121 0.743130
0.386450 0.693965 0.726619
0.405524 0.694301 0.726986
0.473793 0.696437 0.729091
0.571221 0.701839 0.734249
0.666133 0.696132 0.738979
0.755093 0.701167 0.740658
0.841032 0.712551 0.744320
0.936065 0.720821 0.757717
0.509331 0.763973 0.741085
0.523400 0.765469 0.743160
0.560357 0.765377 0.744717
0.619196 0.765957 0.748226
0.687709 0.767636 0.753719
0.763943 0.775143 0.765743
0.852842 0.781918 0.773922
0.941558 0.789456 0.782742
0.630243 0.836393 0.781003
0.636408 0.837125 0.782376
0.654810 0.836545 0.783688
0.688075 0.835416 0.786404
0.732937 0.833707 0.790829
0.781888 0.829557 0.796994
0.817685 0.827939 0.788724
0.921599 0.855802 0.805997
0.698329 0.903899 0.828336
0.700099 0.903075 0.827756
0.711269 0.902007 0.828092
0.735958 0.901915 0.831357
0.774105 0.900481 0.837064
0.815854 0.897307 0.843931
0.835447 0.889220 0.840238
0.894713 0.902800 0.836362
0.000000 0.388403 0.788144
0.129091 0.394507 0.789059
0.322057 0.408759 0.787594
0.492012 0.439673 0.785977
0.638605 0.482399 0.782193
0.754726 0.526726 0.779263
0.858091 0.536156 0.786191
0.923400 0.591791 0.773190
0.000000 0.406775 0.783719
0.149233 0.412879 0.785000
0.325353 0.425666 0.783719
0.487800 0.450507 0.781155
0.632319 0.488228 0.777157
0.747189 0.527794 0.773281
0.850065 0.533318 0.779355
0.915709 0.585412 0.765560
0.289525 0.523552 0.788266
0.306004 0.520256 0.788449
0.378668 0.513512 0.787503
0.513817 0.529808 0.784726
0.641230 0.553521 0.780179
0.747829 0.584527 0.776669
0.845487 0.590997 0.785367
0.914763 0.633600 0.778714
0.459480 0.654231 0.794034
0.473365 0.653620 0.793179
0.500359 0.642603 0.792660
0.558129 0.629816 0.793668
0.662196 0.642695 0.790402
0.755642 0.663325 0.788266
0.840970 0.666499 0.796384
0.912963 0.689906 0.794003
0.472786 0.724849 0.796902
0.480995 0.723873 0.795987
0.525292 0.723232 0.795590
0.606683 0.722530 0.797055
0.669551 0.710140 0.798825
0.755581 0.720119 0.796933
0.832670 0.723171 0.802457
0.913756 0.742061 0.808713
0.547662 0.785061 0.804990
0.555108 0.785397 0.805417
0.583001 0.786069 0.806729
0.630457 0.787442 0.809537
0.690944 0.789090 0.813718
0.763851 0.784543 0.820737
0.841459 0.790555 0.825071
0.923857 0.799191 0.830289
0.618799 0.845243 0.824643
0.624475 0.846006 0.825589
0.642817 0.846159 0.826658
0.677180 0.847135 0.829435
0.723659 0.848173 0.833036
0.781827 0.850706 0.839048
0.851194 0.856657 0.849332
0.938170 0.862486 0.856779
0.693629 0.916045 0.862821
0.697047 0.916411 0.863401
0.712459 0.918639 0.866606
0.738247 0.920439 0.870115
0.774105 0.919799 0.872984
0.819516 0.918395 0.877043
0.870054 0.914092 0.883146
0.908751 0.914122 0.875151
0.383062 0.541344 0.863127
0.403937 0.544976 0.863462
0.466835 0.551598 0.861143
0.566094 0.570397 0.859617
0.669917 0.595636 0.856840
0.764645 0.625452 0.853025
0.846128 0.648096 0.853544
0.927306 0.648798 0.859831
0.386114 0.549645 0.860136
0.406531 0.553246 0.860533
0.469581 0.560693 0.859068
0.565148 0.576867 0.857237
0.667750 0.600183 0.854551
0.761868 0.628351 0.850797
0.842252 0.648920 0.850523
0.922911 0.648096 0.856260
0.444373 0.606714 0.859281
0.452430 0.605188 0.859495
0.493996 0.604150 0.858396
0.583062 0.619837 0.858793
0.674769 0.635340 0.855558
0.762051 0.654719 0.851286
0.840055 0.672236 0.851041
0.919005 0.669886 0.857206
0.530541 0.689570 0.859709
0.536522 0.688624 0.860227
0.555657 0.681453 0.860319
0.601160 0.674983 0.861326
0.683955 0.685206 0.859586
0.765957 0.698360 0.856962
0.840848 0.712734 0.856474
0.916869 0.709041 0.863371
0.549981 0.753475 0.863554
0.559411 0.753841 0.864073
0.589593 0.751705 0.863523
0.640070 0.748226 0.864469
0.682002 0.732662 0.865232
0.763058 0.740291 0.863035
0.839322 0.753170 0.862211
0.915190 0.751247 0.871031
0.568048 0.810788 0.870970
0.571588 0.809903 0.870359
0.589075 0.807767 0.869352
0.625971 0.806119 0.869902
0.692836 0.801480 0.872404
0.758572 0.791348 0.878538
0.846159 0.805081 0.881834
0.922911 0.809384 0.890349
0.622980 0.869596 0.887419
0.626276 0.869352 0.887358
0.640620 0.868467 0.887327
0.670130 0.868162 0.888792
0.713771 0.868009 0.891661
0.772030 0.868833 0.897032
0.849271 0.865019 0.905882
0.927459 0.870207 0.909026
0.681605 0.929503 0.910399
0.684138 0.929290 0.910307
0.696468 0.929259 0.910918
0.722408 0.930175 0.913146
0.760372 0.931060 0.916106
0.809445 0.932128 0.920043
0.869352 0.934325 0.925994
0.937377 0.938903 0.935119
