20 Preset/Dark Portrait/【3】LUT video cho PR-AE-FCPX/Tone  (13).cube
# Created by Adobe Lightroom plugin Export LUT (1.22.0)
# www.johnrellis.com/lightroom/exportlut.htm
# Preset: Milestone_09
# Color profile: C:\Program Files (x86)\Common Files\Adobe\Color\Profiles\VideoHD.icc
LUT_3D_SIZE 8
DOMAIN_MIN 0.000000 0.000000 0.000000
DOMAIN_MAX 0.903226 0.903226 0.903226
0.007660 0.014466 0.012757
0.051759 0.019043 0.018585
0.182925 0.017731 0.025971
0.368719 0.010101 0.042084
0.556725 0.022705 0.076722
0.728420 0.096376 0.138308
0.892271 0.248417 0.246952
0.989899 0.401892 0.378851
0.019196 0.050996 0.023102
0.149538 0.085939 0.022522
0.218143 0.046998 0.020233
0.377478 0.050599 0.031403
0.549310 0.074434 0.058015
0.725734 0.148074 0.119753
0.872129 0.260227 0.215671
0.976349 0.395575 0.344060
0.050538 0.165499 0.043580
0.201205 0.236881 0.057404
0.475441 0.350011 0.063447
0.493477 0.204440 0.020569
0.597101 0.183597 0.040070
0.758785 0.245274 0.106996
0.903014 0.349096 0.223484
0.991882 0.465126 0.363256
0.123690 0.347692 0.109224
0.265751 0.416388 0.150576
0.532464 0.570977 0.248966
0.797055 0.672389 0.343816
0.813840 0.518853 0.150546
0.797513 0.369665 0.081941
0.914702 0.435340 0.208286
0.994110 0.524010 0.355169
0.201175 0.503532 0.198978
0.311345 0.537316 0.236606
0.524163 0.653529 0.351049
0.768704 0.767971 0.515770
0.895323 0.799252 0.567926
0.923064 0.694514 0.370245
0.921599 0.539696 0.204593
0.990387 0.583215 0.332799
0.312444 0.647242 0.321996
0.396612 0.661555 0.356481
0.569665 0.738247 0.469032
0.755489 0.814847 0.607080
0.884276 0.869352 0.724300
0.940459 0.876982 0.741390
0.967285 0.820493 0.616815
0.996796 0.742275 0.492958
0.467933 0.775479 0.484993
0.523125 0.780423 0.508385
0.626581 0.806058 0.571618
0.768978 0.854551 0.683162
0.869047 0.891814 0.770932
0.933684 0.919066 0.827970
0.960906 0.916686 0.825406
0.977539 0.882322 0.760708
0.649073 0.874998 0.666743
0.679683 0.875364 0.679744
0.723934 0.876524 0.700893
0.811734 0.898619 0.767697
0.873320 0.914794 0.811337
0.924132 0.932280 0.852628
0.955779 0.943267 0.879973
0.968139 0.937926 0.873228
0.014130 0.019013 0.039307
0.058167 0.021027 0.032776
0.195682 0.021546 0.038331
0.356085 0.029480 0.047822
0.527977 0.043641 0.060792
0.700160 0.110780 0.115633
0.852537 0.224735 0.205997
0.962799 0.358953 0.326390
0.026429 0.063386 0.057588
0.127016 0.067933 0.057099
0.245182 0.073823 0.057191
0.388922 0.080720 0.056092
0.540795 0.096895 0.055360
0.705653 0.156466 0.103334
0.844541 0.247471 0.188144
0.955444 0.367712 0.307256
0.080201 0.185733 0.090089
0.219883 0.227451 0.121614
0.410376 0.278904 0.129671
0.439826 0.175174 0.061677
0.579980 0.191775 0.060914
0.725338 0.232731 0.086183
0.862547 0.314641 0.182956
0.969268 0.426154 0.316014
0.144442 0.339696 0.150271
0.261265 0.373083 0.184115
0.503410 0.525719 0.288121
0.718257 0.587274 0.322545
0.721767 0.432197 0.159640
0.748043 0.336767 0.077485
0.872435 0.392645 0.163241
0.971923 0.482429 0.304479
0.220188 0.501732 0.236728
0.309636 0.508751 0.259678
0.511376 0.627008 0.373510
0.748287 0.745602 0.530999
0.867033 0.765866 0.551446
0.890257 0.654597 0.365576
0.907225 0.526207 0.188479
0.978973 0.561028 0.302953
0.312444 0.637049 0.340093
0.388281 0.644739 0.365576
0.544701 0.710750 0.462715
0.739590 0.799496 0.607599
0.876738 0.862028 0.731289
0.932280 0.868559 0.742611
0.959472 0.810178 0.614832
0.993713 0.731563 0.473182
0.446082 0.761929 0.480293
0.497932 0.763973 0.497963
0.588495 0.780758 0.545281
0.748562 0.840391 0.669001
0.861479 0.885222 0.768795
0.930388 0.915984 0.829831
0.957214 0.912535 0.824033
0.976562 0.875883 0.745876
0.625238 0.868742 0.656489
0.660853 0.870024 0.671992
0.708919 0.871336 0.693874
0.797574 0.891569 0.758083
0.874388 0.915373 0.818082
0.924193 0.932403 0.857267
0.955291 0.943389 0.883726
0.967773 0.937774 0.874174
0.019989 0.024445 0.136599
0.118502 0.032349 0.105867
0.241703 0.026032 0.111299
0.431586 0.030610 0.127901
0.573938 0.120180 0.163485
0.730282 0.171176 0.175631
0.870817 0.256077 0.215763
0.974823 0.389654 0.342657
0.033478 0.080507 0.185061
0.186282 0.101808 0.151980
0.305821 0.111818 0.157137
0.437018 0.155673 0.173220
0.588220 0.186770 0.179873
0.735256 0.227817 0.188296
0.863859 0.285710 0.206821
0.969574 0.399573 0.326116
0.060456 0.204318 0.190463
0.219425 0.222629 0.195071
0.349248 0.230106 0.196109
0.484535 0.250462 0.199039
0.626734 0.275120 0.201022
0.755428 0.305974 0.206241
0.875639 0.350896 0.221286
0.975006 0.442298 0.324376
0.158785 0.366674 0.236240
0.286656 0.390082 0.261326
0.515801 0.524224 0.382574
0.664424 0.531548 0.368963
0.659693 0.379126 0.214450
0.776059 0.399664 0.222477
0.889403 0.436927 0.242710
0.981720 0.504173 0.323888
0.245396 0.522484 0.305425
0.342901 0.531456 0.331579
0.519280 0.616815 0.433417
0.754665 0.748440 0.601526
0.846830 0.746426 0.581872
0.860594 0.626337 0.403510
0.892729 0.521874 0.257328
0.984466 0.572564 0.316381
0.328344 0.644739 0.390051
0.406287 0.652857 0.416083
0.531395 0.689662 0.482155
0.732967 0.790036 0.633387
0.872953 0.859342 0.756283
0.921935 0.858762 0.750149
0.947723 0.798734 0.630091
0.992126 0.727718 0.480964
0.447669 0.768093 0.513207
0.504631 0.771298 0.532616
0.580133 0.775418 0.561730
0.738491 0.832700 0.678431
0.859312 0.883055 0.781888
0.930297 0.917174 0.843748
0.954803 0.912871 0.835813
0.973388 0.877806 0.765469
0.606409 0.868894 0.662379
0.643091 0.869078 0.675563
0.696895 0.870512 0.698360
0.779721 0.884245 0.750912
0.869017 0.912505 0.819883
0.923705 0.932403 0.863432
0.955077 0.944335 0.891356
0.966583 0.938750 0.881376
0.035645 0.035737 0.298070
0.193240 0.044160 0.276890
0.301701 0.071534 0.241215
0.462165 0.061952 0.257084
0.652094 0.114046 0.278477
0.774441 0.204440 0.290990
0.862669 0.349645 0.357885
0.964202 0.412116 0.381353
0.102327 0.118227 0.350103
0.255863 0.137331 0.324926
0.355505 0.167422 0.288792
0.514061 0.183993 0.307591
0.662165 0.236912 0.316747
0.757504 0.324834 0.345953
0.862913 0.381109 0.364752
0.962799 0.435584 0.385321
0.067506 0.240146 0.377325
0.263249 0.255711 0.371740
0.401282 0.288792 0.339147
0.537591 0.323674 0.353948
0.650721 0.385046 0.382086
0.769863 0.412757 0.385565
0.883146 0.452583 0.399420
0.974365 0.494606 0.414130
0.117128 0.389593 0.368139
0.253819 0.410437 0.376959
0.469062 0.463661 0.424201
0.561822 0.437873 0.386755
0.670802 0.451301 0.385595
0.778866 0.470893 0.388251
0.884062 0.500664 0.398260
0.974029 0.543236 0.420996
0.211521 0.520714 0.384405
0.359289 0.551507 0.422766
0.492470 0.573846 0.464210
0.744717 0.735958 0.652399
0.794095 0.688960 0.579309
0.798947 0.552605 0.399908
0.896025 0.578088 0.416510
0.977081 0.614862 0.445472
0.360021 0.657710 0.475868
0.421759 0.674952 0.489052
0.528374 0.685817 0.526146
0.722438 0.778744 0.664546
0.873442 0.861845 0.791806
0.909056 0.846128 0.760159
0.931731 0.775570 0.634668
0.981292 0.697566 0.484016
0.427192 0.768460 0.550835
0.479316 0.775540 0.562188
0.575189 0.783627 0.598016
0.708125 0.815488 0.676844
0.854917 0.880339 0.797299
0.930480 0.919310 0.860472
0.951202 0.911467 0.845945
0.968963 0.874784 0.778134
0.575708 0.873960 0.679652
0.616907 0.875303 0.691066
0.681880 0.876097 0.714351
0.754757 0.878874 0.746395
0.855650 0.906676 0.817746
0.921019 0.931395 0.868956
0.954467 0.945342 0.900114
0.965209 0.940032 0.890196
0.097749 0.067720 0.488411
0.261692 0.086336 0.474311
0.402716 0.136233 0.438666
0.505730 0.158053 0.414282
0.677363 0.187930 0.436896
0.825772 0.274601 0.455085
0.904875 0.367895 0.465064
0.963684 0.487404 0.521080
0.173648 0.168795 0.522087
0.313359 0.189792 0.507103
0.445563 0.235416 0.475349
0.544030 0.253544 0.454688
0.701808 0.297520 0.474495
0.817807 0.365667 0.481605
0.894560 0.434974 0.494057
0.948058 0.543145 0.555230
0.153750 0.284001 0.559472
0.337926 0.313512 0.543908
0.479774 0.351263 0.513512
0.563012 0.365881 0.483040
0.709621 0.416785 0.509789
0.792142 0.453742 0.503807
0.866270 0.519158 0.534203
0.938750 0.573785 0.563348
0.153414 0.430976 0.557549
0.298711 0.447944 0.566766
0.492927 0.475624 0.555444
0.599359 0.505913 0.537530
0.698116 0.533104 0.546136
0.771298 0.568353 0.562097
0.865385 0.584009 0.562310
0.948608 0.606409 0.565728
0.184756 0.538415 0.517967
0.303929 0.553033 0.525933
0.447242 0.569207 0.532891
0.666255 0.654322 0.622797
0.700221 0.596155 0.552575
0.789303 0.605676 0.550866
0.879149 0.623743 0.554986
0.957977 0.650813 0.567041
0.175235 0.605310 0.479072
0.315465 0.627985 0.505638
0.481453 0.660060 0.551904
0.614984 0.688746 0.600855
0.838834 0.830228 0.779599
0.870909 0.796994 0.726833
0.893614 0.691066 0.564721
0.964904 0.719600 0.591577
0.300084 0.740505 0.560418
0.400519 0.751736 0.582116
0.531304 0.770230 0.621241
0.639948 0.787991 0.656275
0.818967 0.856291 0.782162
0.923247 0.914214 0.866392
0.942809 0.901671 0.844633
0.961151 0.855680 0.766262
0.433875 0.858305 0.666712
0.506828 0.861234 0.681971
0.605554 0.866575 0.706264
0.707515 0.874998 0.739834
0.807858 0.885679 0.789578
0.910735 0.925719 0.867582
0.952605 0.945190 0.906493
0.963287 0.939849 0.896117
0.223880 0.157778 0.679286
0.355688 0.182803 0.669734
0.495888 0.229953 0.648920
0.619501 0.323217 0.618555
0.712673 0.308446 0.604944
0.837980 0.366827 0.609827
0.932830 0.454963 0.623621
0.981109 0.537255 0.636286
0.270115 0.248844 0.686030
0.384833 0.270054 0.676417
0.514794 0.310552 0.657465
0.625971 0.386267 0.624842
0.708125 0.373083 0.607721
0.833829 0.434394 0.623682
0.918517 0.503044 0.632898
0.969482 0.569940 0.646693
0.301793 0.375677 0.714931
0.416144 0.393347 0.704677
0.545434 0.426337 0.685908
0.648188 0.482429 0.652094
0.713924 0.472602 0.628809
0.837278 0.531487 0.656397
0.904875 0.576593 0.658320
0.956603 0.624262 0.671595
0.253147 0.501610 0.736202
0.389380 0.508476 0.727474
0.552483 0.540154 0.713222
0.678859 0.590387 0.695796
0.741482 0.597314 0.679072
0.841215 0.639246 0.700618
0.894072 0.660212 0.696590
0.940887 0.697200 0.713497
0.257572 0.593622 0.698390
0.363592 0.605768 0.704250
0.496956 0.625605 0.714382
0.659052 0.650813 0.710140
0.742061 0.672267 0.700343
0.814115 0.690089 0.703761
0.865202 0.716793 0.716945
0.930968 0.730098 0.719631
0.225986 0.657954 0.646296
0.324804 0.668177 0.653468
0.444434 0.680964 0.661158
0.578271 0.696559 0.670192
0.789425 0.783383 0.765682
0.810117 0.730251 0.701320
0.882536 0.745296 0.708736
0.946136 0.762142 0.716548
0.000000 0.705348 0.587366
0.133364 0.722164 0.606287
0.371740 0.747036 0.638148
0.596612 0.783017 0.695125
0.752651 0.814420 0.753811
0.912200 0.906432 0.872038
0.928038 0.883848 0.840116
0.953460 0.818143 0.736629
0.103059 0.845518 0.675868
0.266697 0.848631 0.684657
0.435615 0.854093 0.702937
0.622889 0.865293 0.742763
0.751400 0.877958 0.778683
0.881773 0.909850 0.853208
0.949737 0.944457 0.912902
0.961028 0.939483 0.902953
0.353857 0.270085 0.801480
0.452125 0.298314 0.798093
0.568505 0.340856 0.786496
0.686549 0.412787 0.767605
0.763882 0.492958 0.740261
0.834348 0.456977 0.726070
0.923156 0.514916 0.729519
0.980194 0.581659 0.734951
0.368444 0.333959 0.797452
0.459754 0.358038 0.793942
0.570550 0.393866 0.782681
0.683345 0.453681 0.763821
0.757382 0.523186 0.736934
0.820768 0.486854 0.719081
0.910918 0.538659 0.725704
0.966461 0.591638 0.726802
0.394781 0.440803 0.812619
0.480964 0.457679 0.806851
0.587701 0.484718 0.795468
0.696071 0.530297 0.778103
0.765530 0.588739 0.751675
0.821775 0.559075 0.734524
0.910246 0.614527 0.751583
0.957519 0.657832 0.753079
0.365820 0.540063 0.827756
0.460121 0.551843 0.822202
0.586328 0.578546 0.811826
0.705409 0.614893 0.798795
0.781033 0.664271 0.777249
0.829404 0.649317 0.762692
0.908782 0.696590 0.781949
0.947356 0.719631 0.777829
0.323796 0.633387 0.818143
0.401648 0.639429 0.819089
0.515129 0.645930 0.816953
0.664729 0.667750 0.806668
0.774380 0.705287 0.790036
0.823850 0.710231 0.776211
0.897307 0.747738 0.793790
0.936278 0.768276 0.795712
0.290715 0.704829 0.792660
0.370062 0.711055 0.795590
0.479469 0.721920 0.800626
0.616663 0.741299 0.810056
0.761929 0.765408 0.813138
0.834592 0.787137 0.807767
0.889281 0.804288 0.813748
0.924895 0.819913 0.820005
0.206149 0.767453 0.763516
0.295659 0.771420 0.765743
0.409705 0.777035 0.768582
0.549462 0.787381 0.774990
0.685573 0.801633 0.784421
0.866056 0.863951 0.848753
0.885191 0.830838 0.811093
0.936522 0.839445 0.813901
0.000000 0.831113 0.730770
0.000000 0.829770 0.725887
0.000000 0.833768 0.726497
0.348852 0.847654 0.748440
0.647425 0.863981 0.785763
0.828061 0.887816 0.835172
0.940764 0.938476 0.912383
0.956847 0.935454 0.905760
0.492439 0.405371 0.877256
0.560174 0.429969 0.874540
0.642542 0.459815 0.866178
0.738979 0.512718 0.855741
0.815824 0.577844 0.839322
0.865415 0.617395 0.825895
0.916442 0.592798 0.814969
0.969329 0.637140 0.812161
0.493874 0.448707 0.874876
0.558068 0.468025 0.871733
0.640864 0.495613 0.864652
0.734951 0.540368 0.854307
0.812436 0.599664 0.839109
0.860746 0.637873 0.825284
0.908629 0.610742 0.812680
0.962860 0.652644 0.811856
0.489631 0.511284 0.876555
0.552697 0.525505 0.873136
0.635431 0.546502 0.866148
0.734157 0.588434 0.858030
0.811246 0.636530 0.843259
0.856870 0.673121 0.828031
0.901884 0.648829 0.816403
0.956085 0.687709 0.818326
0.418921 0.560632 0.883238
0.524865 0.594324 0.879240
0.618463 0.611963 0.873289
0.724575 0.643915 0.865415
0.810636 0.685420 0.853361
0.858183 0.727352 0.838437
0.899504 0.707912 0.829618
0.950958 0.741176 0.833585
0.356847 0.651514 0.885679
0.436530 0.655543 0.884276
0.537804 0.660334 0.880400
0.677852 0.688930 0.872984
0.791531 0.722499 0.862058
0.856321 0.766384 0.848112
0.894774 0.760372 0.841093
0.946227 0.793149 0.849729
0.341588 0.730648 0.875273
0.401587 0.733120 0.875608
0.488930 0.737972 0.876219
0.608453 0.751308 0.879362
0.752071 0.770321 0.873899
0.857694 0.808927 0.867765
0.901579 0.827207 0.864927
0.946075 0.848844 0.871977
0.367529 0.814969 0.873442
0.421546 0.816190 0.873655
0.500175 0.818204 0.874022
0.607324 0.823819 0.875883
0.726101 0.835080 0.879911
0.838254 0.853605 0.885649
0.901976 0.870207 0.879393
0.937530 0.879576 0.880125
0.251621 0.869535 0.860044
0.311254 0.869169 0.859403
0.398230 0.869078 0.858824
0.514519 0.870542 0.859251
0.642451 0.872770 0.859861
0.770871 0.878416 0.862638
0.894041 0.900481 0.883604
0.935119 0.904143 0.885130
