20 Preset/Dark Portrait/【3】LUT video cho PR-AE-FCPX/Tone  (5).cube
# Created by Adobe Lightroom plugin Export LUT (1.22.0)
# www.johnrellis.com/lightroom/exportlut.htm
# Preset: Horizon_02
# Color profile: C:\Program Files (x86)\Common Files\Adobe\Color\Profiles\VideoHD.icc
LUT_3D_SIZE 5
DOMAIN_MIN 0.000000 0.000000 0.000000
DOMAIN_MAX 0.903226 0.903226 0.903226
0.040803 0.033875 0.045472
0.221317 0.031800 0.045655
0.452705 0.050538 0.048676
0.689723 0.115358 0.062806
0.918181 0.187015 0.106569
0.113069 0.142397 0.132815
0.307805 0.208347 0.168551
0.603204 0.267918 0.148379
0.803403 0.298711 0.138125
0.993896 0.337377 0.187900
0.277897 0.360784 0.311192
0.393103 0.405432 0.353277
0.656184 0.545495 0.443946
0.890593 0.574212 0.430488
1.000000 0.567620 0.422339
0.454292 0.602747 0.511131
0.523674 0.626276 0.531060
0.701076 0.721950 0.642451
0.886351 0.798917 0.703182
1.000000 0.817411 0.714534
0.693477 0.847898 0.746151
0.732601 0.857450 0.756527
0.832029 0.888487 0.806699
0.942687 0.938079 0.890471
1.000000 0.949310 0.899840
0.095674 0.081239 0.116091
0.173434 0.068727 0.147036
0.375799 0.062470 0.112734
0.635157 0.144472 0.132937
0.898192 0.235386 0.150912
0.130526 0.165377 0.202060
0.255467 0.215366 0.246647
0.494270 0.247745 0.239963
0.712734 0.289097 0.237095
0.944671 0.345678 0.246494
0.271763 0.363134 0.351843
0.362402 0.393378 0.374151
0.593286 0.520073 0.470588
0.826383 0.562127 0.470375
1.000000 0.573632 0.468818
0.453742 0.605798 0.540185
0.513176 0.624720 0.553765
0.679591 0.711757 0.648035
0.867552 0.798917 0.721492
1.000000 0.824552 0.737362
0.683192 0.846189 0.755032
0.722469 0.855924 0.765225
0.821225 0.887633 0.809140
0.939635 0.939055 0.894987
0.999512 0.953277 0.909697
0.254429 0.253483 0.322942
0.284367 0.266575 0.339422
0.402747 0.189425 0.332830
0.470863 0.066041 0.174899
0.785977 0.175021 0.221042
0.303258 0.330114 0.394537
0.362371 0.350774 0.404181
0.419501 0.270268 0.355108
0.580774 0.233036 0.284276
0.854154 0.306249 0.308873
0.309483 0.413428 0.447120
0.354955 0.419623 0.447791
0.531121 0.514977 0.525048
0.739193 0.535027 0.510430
0.948272 0.544976 0.495735
0.408850 0.593286 0.561791
0.477821 0.615991 0.582086
0.613428 0.673945 0.632898
0.834958 0.796811 0.747005
0.997711 0.825254 0.760708
0.609552 0.830869 0.747677
0.673060 0.844785 0.767361
0.771939 0.871275 0.798581
0.921080 0.931395 0.889158
0.993652 0.955383 0.918791
0.484535 0.526390 0.588067
0.552453 0.570001 0.606989
0.461921 0.440436 0.569421
0.628687 0.360906 0.531090
0.657984 0.106386 0.297978
0.517693 0.577264 0.630091
0.565148 0.597284 0.636530
0.529198 0.538720 0.606989
0.629267 0.425696 0.545983
0.630915 0.114961 0.262547
0.525658 0.622492 0.661891
0.557275 0.624201 0.659510
0.607446 0.632197 0.658686
0.600427 0.451759 0.518303
0.807919 0.408484 0.454536
0.514885 0.686305 0.693355
0.532982 0.679957 0.686000
0.566155 0.668727 0.670130
0.774746 0.780636 0.768399
0.956939 0.780941 0.748287
0.542382 0.829679 0.776883
0.585504 0.835203 0.781521
0.698116 0.859678 0.807919
0.856321 0.904570 0.860105
0.985046 0.960662 0.936187
0.732937 0.780240 0.807736
0.760861 0.797848 0.817868
0.796597 0.822812 0.839658
0.666346 0.609827 0.764858
0.855009 0.578912 0.738399
0.717494 0.783963 0.816922
0.764736 0.808164 0.829709
0.833585 0.851041 0.854856
0.692897 0.672023 0.781491
0.856901 0.622797 0.751980
0.719844 0.808072 0.838651
0.753872 0.819486 0.844114
0.821561 0.850431 0.861662
0.767422 0.786465 0.827939
0.868711 0.694697 0.780240
0.742458 0.857023 0.874296
0.767605 0.861967 0.877317
0.817807 0.874998 0.886412
0.887663 0.903319 0.907103
0.853910 0.717098 0.765469
0.753658 0.911345 0.906371
0.769680 0.912108 0.906767
0.801450 0.914397 0.908202
0.835050 0.911833 0.903288
0.960357 0.958953 0.951904
