20 Preset/Dark Portrait/【3】LUT video cho PR-AE-FCPX/Tone  (1).cube
# Created by Adobe Lightroom plugin Export LUT (1.22.0)
# www.johnrellis.com/lightroom/exportlut.htm
# Preset: Candy_03
# Color profile: C:\Program Files (x86)\Common Files\Adobe\Color\Profiles\VideoHD.icc
LUT_3D_SIZE 8
DOMAIN_MIN 0.000000 0.000000 0.000000
DOMAIN_MAX 0.903226 0.903226 0.903226
0.051728 0.034516 0.035981
0.117220 0.037324 0.036622
0.237705 0.047028 0.038788
0.398444 0.077821 0.047425
0.565148 0.134890 0.063478
0.756039 0.220493 0.104952
0.891508 0.296391 0.163485
0.998627 0.375128 0.241459
0.061799 0.049042 0.042054
0.133364 0.068482 0.049104
0.280491 0.105409 0.061189
0.434516 0.144106 0.074006
0.601953 0.203128 0.099977
0.755337 0.268528 0.138216
0.882017 0.334020 0.191562
0.988159 0.406439 0.266300
0.112276 0.104921 0.074586
0.160708 0.118624 0.077028
0.301122 0.175387 0.100160
0.542473 0.290043 0.162875
0.694850 0.341009 0.191257
0.819577 0.388006 0.230198
0.933227 0.449165 0.295537
1.000000 0.510063 0.368963
0.191562 0.205631 0.137850
0.238132 0.219394 0.142641
0.314122 0.240055 0.143008
0.542657 0.379431 0.221195
0.786191 0.536004 0.354894
0.885557 0.567681 0.400793
0.957061 0.592828 0.440589
1.000000 0.630121 0.494667
0.289128 0.337224 0.225986
0.334722 0.356146 0.237522
0.389868 0.368170 0.232364
0.477821 0.388556 0.227420
0.705226 0.545068 0.345739
0.871031 0.664942 0.496407
0.954803 0.722347 0.585138
1.000000 0.744594 0.623529
0.394812 0.500359 0.339940
0.442969 0.528283 0.361730
0.487831 0.535943 0.356542
0.551812 0.539757 0.341527
0.662135 0.576410 0.358770
0.837766 0.703426 0.519219
0.943450 0.793484 0.662684
0.996918 0.851164 0.758297
0.520531 0.671839 0.488289
0.556054 0.685542 0.504417
0.594446 0.693599 0.508751
0.637842 0.692897 0.492256
0.698573 0.688319 0.467506
0.811582 0.735225 0.530541
0.923980 0.818509 0.675685
0.982818 0.874662 0.778561
0.666896 0.812741 0.653285
0.689876 0.819120 0.663600
0.725429 0.829221 0.679591
0.753597 0.831174 0.672114
0.779110 0.817746 0.637812
0.840879 0.820615 0.626520
0.932158 0.868162 0.726253
0.983917 0.911376 0.822019
0.053620 0.038788 0.043275
0.093965 0.045563 0.060761
0.174502 0.046357 0.060243
0.314702 0.069947 0.077821
0.481880 0.122225 0.106447
0.648157 0.190494 0.139406
0.803250 0.265721 0.180911
0.935546 0.346136 0.241184
0.075380 0.060975 0.063478
0.130404 0.086122 0.086732
0.228244 0.102113 0.096193
0.368536 0.134340 0.114321
0.528252 0.186252 0.140658
0.679042 0.246647 0.170901
0.817319 0.311742 0.210330
0.939147 0.384710 0.269749
0.120943 0.119509 0.105013
0.178836 0.146456 0.126314
0.282383 0.182834 0.143282
0.469337 0.261540 0.193301
0.610864 0.305150 0.213535
0.744900 0.354955 0.242985
0.866361 0.412085 0.288029
0.969268 0.478767 0.353521
0.195193 0.214023 0.167544
0.246921 0.236149 0.183505
0.313207 0.255344 0.185489
0.485054 0.347326 0.239689
0.712306 0.489754 0.349737
0.814023 0.514153 0.372290
0.904326 0.547509 0.409033
0.981109 0.594141 0.465034
0.293645 0.347417 0.257023
0.336309 0.364630 0.269047
0.389349 0.378912 0.270115
0.462806 0.388739 0.258488
0.663996 0.521630 0.355993
0.837461 0.647822 0.497322
0.927886 0.701320 0.571038
0.985412 0.726955 0.609400
0.387274 0.493812 0.356176
0.426795 0.511742 0.370153
0.479469 0.531487 0.380591
0.539300 0.537713 0.367254
0.636561 0.562371 0.370367
0.818143 0.697139 0.529198
0.929961 0.789822 0.667414
0.987579 0.842771 0.751186
0.502617 0.655726 0.487678
0.532830 0.664912 0.497780
0.581109 0.681117 0.515526
0.622705 0.682612 0.501396
0.683742 0.682429 0.481544
0.791135 0.722652 0.528008
0.909728 0.809018 0.669764
0.974548 0.867216 0.771298
0.649683 0.802426 0.647852
0.674586 0.810208 0.659632
0.711849 0.821317 0.676783
0.746792 0.827909 0.679164
0.784878 0.827970 0.665675
0.838712 0.826108 0.646601
0.925841 0.866361 0.728511
0.980713 0.911223 0.824521
0.067170 0.058686 0.075349
0.110323 0.077943 0.097383
0.198703 0.091218 0.139101
0.310063 0.083528 0.133089
0.422187 0.094667 0.128023
0.590509 0.164614 0.166201
0.761471 0.251316 0.214267
0.908721 0.343755 0.276310
0.104768 0.091676 0.104250
0.151705 0.115389 0.125734
0.235447 0.142184 0.168246
0.322698 0.116304 0.139620
0.472297 0.166964 0.170108
0.626581 0.231785 0.205936
0.780667 0.306706 0.249424
0.916625 0.387060 0.306554
0.138491 0.139986 0.142580
0.191165 0.167849 0.168490
0.290776 0.223148 0.215183
0.423102 0.254459 0.232364
0.563073 0.296605 0.254490
0.701015 0.348363 0.282780
0.830350 0.408240 0.322484
0.942046 0.476448 0.379370
0.198093 0.232151 0.207095
0.261601 0.269413 0.238529
0.350713 0.318791 0.276707
0.484901 0.382177 0.311223
0.674891 0.491279 0.395636
0.780484 0.516960 0.412573
0.879240 0.555596 0.446906
0.962615 0.603204 0.496254
0.298924 0.364935 0.298894
0.348333 0.393835 0.321752
0.417212 0.429633 0.348547
0.484260 0.440558 0.337957
0.657374 0.547814 0.419684
0.824002 0.672450 0.554864
0.906249 0.703700 0.593011
0.970306 0.730495 0.627283
0.387427 0.505272 0.392676
0.430823 0.529595 0.413092
0.488930 0.555871 0.434089
0.547082 0.567285 0.429786
0.619501 0.566522 0.407172
0.799924 0.701198 0.558923
0.918425 0.798367 0.693080
0.978607 0.844846 0.761837
0.506401 0.666560 0.522057
0.538079 0.677424 0.534142
0.583520 0.692348 0.550317
0.633631 0.703914 0.555261
0.684688 0.700679 0.532036
0.778500 0.726131 0.553246
0.904509 0.819059 0.696712
0.972381 0.879820 0.797330
0.640833 0.800961 0.659663
0.663416 0.807156 0.668513
0.701106 0.818601 0.685145
0.752193 0.835660 0.708309
0.785092 0.835447 0.694423
0.836027 0.835142 0.677852
0.920134 0.869291 0.741176
0.978149 0.915831 0.836881
0.095705 0.102174 0.136141
0.150332 0.126467 0.155459
0.209354 0.156008 0.204379
0.343389 0.177035 0.257786
0.469795 0.178531 0.255009
0.475959 0.097475 0.163088
0.650446 0.179782 0.208621
0.829984 0.281193 0.267979
0.147585 0.147921 0.174380
0.193668 0.168887 0.191745
0.259068 0.208133 0.233982
0.379156 0.234562 0.290745
0.467109 0.200107 0.252689
0.528618 0.170260 0.205753
0.691981 0.246525 0.248539
0.852476 0.337621 0.304692
0.182071 0.191073 0.207492
0.230014 0.214084 0.227604
0.308049 0.262455 0.268956
0.416022 0.308476 0.327886
0.481788 0.243992 0.260655
0.620813 0.301366 0.292210
0.771420 0.373053 0.335912
0.900786 0.446723 0.387060
0.236088 0.270939 0.268101
0.282322 0.295384 0.289647
0.356146 0.342626 0.330236
0.473335 0.420569 0.391516
0.594476 0.447181 0.402625
0.711238 0.476692 0.416693
0.825925 0.520989 0.447181
0.927947 0.576196 0.494301
0.300206 0.383337 0.344945
0.340856 0.407294 0.363958
0.416693 0.453773 0.402747
0.514122 0.513054 0.448188
0.643763 0.578241 0.492897
0.795773 0.679408 0.593225
0.876951 0.696345 0.607843
0.949706 0.721981 0.634913
0.377813 0.520256 0.435340
0.424414 0.548180 0.459419
0.493721 0.583368 0.492073
0.579248 0.625940 0.531609
0.636561 0.623743 0.506859
0.787655 0.720119 0.610132
0.909331 0.815152 0.731930
0.966796 0.843107 0.769863
0.472480 0.661555 0.537591
0.515526 0.677821 0.556634
0.580377 0.704280 0.588525
0.649592 0.732357 0.619257
0.697597 0.736172 0.608759
0.762387 0.732998 0.586816
0.896483 0.829343 0.726284
0.968566 0.891447 0.822934
0.611841 0.800931 0.668849
0.646571 0.809934 0.684718
0.694545 0.823484 0.707515
0.747799 0.840696 0.731685
0.790860 0.849546 0.737392
0.832944 0.847837 0.718898
0.910491 0.871458 0.754696
0.975036 0.922148 0.853361
0.143618 0.174350 0.226780
0.200839 0.198245 0.243839
0.271611 0.236973 0.275944
0.344762 0.267124 0.346166
0.499702 0.300298 0.403418
0.622431 0.311589 0.398657
0.622095 0.190372 0.277165
0.713405 0.174228 0.241581
0.196750 0.218173 0.259464
0.242679 0.238682 0.274968
0.311925 0.278325 0.304082
0.376867 0.315618 0.369635
0.517662 0.346044 0.423865
0.616052 0.327703 0.395026
0.614618 0.199710 0.268742
0.754391 0.242130 0.280797
0.239139 0.265507 0.294713
0.284245 0.288182 0.312566
0.345525 0.323369 0.339513
0.418952 0.378271 0.397467
0.534569 0.403632 0.445747
0.596429 0.336065 0.376837
0.637140 0.254643 0.289342
0.801877 0.342138 0.342107
0.283177 0.329717 0.341680
0.323461 0.350164 0.358404
0.385199 0.387366 0.388830
0.472969 0.451759 0.440894
0.574243 0.496712 0.495430
0.612177 0.384222 0.385412
0.738491 0.430701 0.409155
0.866606 0.493660 0.450660
0.330419 0.414313 0.400671
0.365942 0.433082 0.416358
0.422492 0.465919 0.444129
0.503319 0.522911 0.492805
0.613367 0.594110 0.549950
0.720668 0.615351 0.560540
0.818753 0.634028 0.570397
0.913664 0.669215 0.599817
0.362707 0.505333 0.457130
0.393896 0.522179 0.470863
0.439307 0.545190 0.488960
0.524254 0.592676 0.529992
0.627161 0.650385 0.579675
0.756558 0.719509 0.639490
0.886229 0.809323 0.742702
0.946532 0.822477 0.756680
0.424414 0.647547 0.553521
0.460822 0.658015 0.563897
0.517723 0.676997 0.583124
0.607538 0.716670 0.625696
0.702113 0.759609 0.673213
0.749538 0.752163 0.644007
0.877989 0.829770 0.744411
0.960327 0.895445 0.838376
0.526055 0.777859 0.654047
0.558160 0.784604 0.663081
0.617700 0.798672 0.684596
0.708766 0.827939 0.729732
0.783413 0.854063 0.766323
0.825895 0.858732 0.760555
0.886625 0.862974 0.754818
0.967071 0.922545 0.861173
0.217441 0.284581 0.355016
0.271916 0.306706 0.368566
0.348363 0.348516 0.395605
0.417914 0.400122 0.453834
0.499092 0.415503 0.517876
0.648981 0.450904 0.560082
0.761257 0.492500 0.564935
0.786007 0.344427 0.434302
0.257420 0.315587 0.372351
0.301488 0.334874 0.385016
0.365179 0.368994 0.407294
0.435279 0.419867 0.454108
0.506523 0.441382 0.519799
0.649500 0.477058 0.564233
0.749752 0.493965 0.555016
0.774044 0.340856 0.420142
0.305974 0.372412 0.414862
0.343755 0.388952 0.425757
0.400702 0.418463 0.445045
0.475807 0.467506 0.477302
0.534569 0.498299 0.542382
0.663050 0.531090 0.585657
0.742458 0.506096 0.549035
0.765042 0.339544 0.402197
0.345006 0.431952 0.456611
0.380285 0.447059 0.467048
0.435279 0.476570 0.488594
0.516106 0.531273 0.529870
0.589868 0.587945 0.589014
0.692256 0.610620 0.627558
0.740536 0.522515 0.542260
0.773922 0.359594 0.392248
0.376043 0.490059 0.492836
0.408148 0.504509 0.504143
0.457374 0.528740 0.523217
0.527611 0.568048 0.554498
0.613886 0.626520 0.602106
0.703914 0.663874 0.648829
0.727840 0.519158 0.508690
0.849027 0.573449 0.543053
0.408820 0.562432 0.538689
0.439979 0.576959 0.551080
0.484901 0.595636 0.566705
0.549248 0.627253 0.593988
0.629633 0.674372 0.636408
0.738430 0.741848 0.697169
0.833219 0.763455 0.713710
0.914183 0.779080 0.725704
0.452766 0.669886 0.613794
0.482948 0.681056 0.623957
0.527123 0.696803 0.638239
0.588739 0.721126 0.660548
0.674983 0.759365 0.698299
0.769314 0.802487 0.742275
0.867033 0.844511 0.784268
0.954711 0.905486 0.863676
0.500511 0.778988 0.688991
0.524041 0.782803 0.692500
0.564263 0.790433 0.700038
0.641688 0.810819 0.725032
0.734432 0.839780 0.762875
0.829252 0.875669 0.811734
0.871397 0.872801 0.791012
0.959442 0.927367 0.878111
0.290471 0.406622 0.490272
0.342321 0.430182 0.504387
0.411322 0.463142 0.520989
0.494118 0.515129 0.551904
0.547173 0.550225 0.608270
0.628473 0.557733 0.656519
0.754879 0.592462 0.684016
0.848753 0.652827 0.701961
0.313146 0.422034 0.493233
0.357549 0.442664 0.506035
0.418891 0.471931 0.521752
0.498207 0.519554 0.548333
0.552575 0.559197 0.601923
0.623072 0.563745 0.647395
0.744228 0.593317 0.673915
0.832700 0.634455 0.681056
0.351934 0.470161 0.527550
0.389899 0.484993 0.535485
0.444617 0.508812 0.547753
0.518914 0.550744 0.571008
0.579034 0.593957 0.613825
0.639857 0.604700 0.661646
0.757443 0.636530 0.694179
0.836393 0.654902 0.689296
0.389258 0.524834 0.565179
0.420630 0.534691 0.569848
0.471473 0.554314 0.580072
0.544274 0.592889 0.603571
0.619776 0.642084 0.636378
0.670344 0.664118 0.688746
0.775784 0.689754 0.721279
0.837552 0.667811 0.689235
0.413397 0.567010 0.587488
0.439734 0.573175 0.590234
0.480690 0.585168 0.596643
0.541650 0.612116 0.614862
0.620417 0.656611 0.646296
0.687770 0.702998 0.697383
0.781491 0.725490 0.733608
0.831571 0.661677 0.668940
0.445289 0.624018 0.621698
0.472023 0.632319 0.627710
0.513390 0.646296 0.638117
0.571618 0.669612 0.656245
0.642603 0.703487 0.683955
0.729976 0.756985 0.730587
0.811582 0.790372 0.774441
0.827512 0.642817 0.627344
0.493263 0.700099 0.672999
0.518181 0.707668 0.679500
0.555444 0.718624 0.688746
0.609491 0.737392 0.705409
0.673762 0.762356 0.728511
0.750240 0.799710 0.765316
0.844846 0.851743 0.817563
0.917998 0.866209 0.830167
0.519158 0.783810 0.731624
0.542931 0.789578 0.737148
0.590173 0.804379 0.752285
0.645411 0.819059 0.767269
0.709590 0.837888 0.786770
0.788296 0.865049 0.816648
0.879118 0.902464 0.861570
0.950042 0.933745 0.899413
0.385382 0.543450 0.630243
0.432837 0.563378 0.638849
0.491768 0.586633 0.645075
0.568444 0.627802 0.663172
0.625879 0.665583 0.695308
0.670100 0.684169 0.735592
0.746670 0.693812 0.774838
0.848051 0.726528 0.795804
0.395636 0.551812 0.630335
0.437903 0.568566 0.637232
0.495399 0.592126 0.645441
0.567651 0.629450 0.661952
0.630640 0.670100 0.691707
0.672938 0.690669 0.733059
0.743740 0.697993 0.770932
0.845579 0.731136 0.794339
0.409400 0.571557 0.640131
0.448341 0.585412 0.645319
0.501305 0.605249 0.651881
0.574670 0.643427 0.671290
0.644892 0.684382 0.693568
0.683345 0.706874 0.734859
0.747890 0.715511 0.773831
0.849180 0.749020 0.800992
0.414954 0.596796 0.655573
0.455695 0.611261 0.662287
0.509483 0.629999 0.669306
0.580560 0.662562 0.685725
0.655024 0.702937 0.708278
0.708339 0.738369 0.747219
0.763821 0.750210 0.788083
0.861570 0.782132 0.818814
0.436744 0.633448 0.674739
0.464942 0.641505 0.678950
0.503777 0.651057 0.682551
0.566461 0.673335 0.694026
0.647303 0.710933 0.715389
0.725093 0.757961 0.749020
0.778439 0.783261 0.799802
0.871336 0.812222 0.833799
0.460121 0.676417 0.697993
0.481727 0.679622 0.698848
0.515648 0.685206 0.700465
0.568261 0.699763 0.708858
0.637720 0.726894 0.727504
0.735103 0.780362 0.768826
0.815946 0.834928 0.828763
0.886687 0.849790 0.855650
0.506004 0.740047 0.739406
0.527825 0.744106 0.741970
0.561212 0.750515 0.745937
0.613306 0.764736 0.756527
0.679438 0.787198 0.774777
0.759640 0.822324 0.806241
0.835447 0.860014 0.840757
0.900999 0.885405 0.876585
0.568902 0.811795 0.789975
0.590692 0.816587 0.794186
0.626368 0.825071 0.801938
0.672328 0.835599 0.811490
0.727932 0.850004 0.825132
0.791043 0.869505 0.844785
0.859556 0.897185 0.874601
0.929564 0.933410 0.914977
