20 Preset/Dark Portrait/【3】LUT video cho PR-AE-FCPX/Tone  (6).cube
# Created by Adobe Lightroom plugin Export LUT (1.22.0)
# www.johnrellis.com/lightroom/exportlut.htm
# Preset: Horizon_03
# Color profile: C:\Program Files (x86)\Common Files\Adobe\Color\Profiles\VideoHD.icc
LUT_3D_SIZE 32
DOMAIN_MIN 0.0 0.0 0.0
DOMAIN_MAX 1.0 1.0 1.0
0.053223 0.034180 0.035981
0.054322 0.034058 0.036133
0.062409 0.033448 0.036378
0.076539 0.032319 0.036591
0.098390 0.031647 0.037018
0.122255 0.031250 0.037629
0.148409 0.031403 0.038514
0.177127 0.032227 0.039887
0.209415 0.033631 0.041901
0.244144 0.036011 0.044282
0.280278 0.039155 0.047150
0.316869 0.043305 0.050416
0.354314 0.049378 0.053956
0.390753 0.056703 0.058412
0.426184 0.066285 0.063539
0.460975 0.078218 0.069459
0.494697 0.091707 0.076326
0.528252 0.106905 0.084627
0.571466 0.127352 0.096834
0.615564 0.150027 0.110658
0.655360 0.171939 0.124910
0.692622 0.193606 0.139437
0.726619 0.214450 0.154330
0.759030 0.235019 0.169253
0.789670 0.255009 0.184604
0.819150 0.274723 0.200229
0.848325 0.294987 0.217044
0.877806 0.316258 0.234958
0.907561 0.338537 0.254520
0.937835 0.362585 0.276341
0.968719 0.388647 0.300664
0.999969 0.417182 0.327977
0.053193 0.034180 0.036164
0.055543 0.034546 0.036225
0.065431 0.035157 0.036561
0.083650 0.035615 0.037110
0.105257 0.035950 0.037568
0.128969 0.036835 0.038453
0.155184 0.037934 0.039643
0.184604 0.039704 0.041474
0.217105 0.042390 0.043732
0.251865 0.045808 0.046418
0.287938 0.050263 0.049226
0.324681 0.055848 0.052552
0.361547 0.063264 0.056519
0.397681 0.072175 0.060914
0.432837 0.082979 0.066529
0.467201 0.095308 0.072786
0.500816 0.108583 0.080140
0.533440 0.122377 0.088716
0.578058 0.143679 0.101717
0.618921 0.164553 0.115053
0.656458 0.184878 0.128725
0.691768 0.205051 0.142611
0.724422 0.224369 0.156680
0.755337 0.243290 0.170993
0.784634 0.261662 0.185702
0.813046 0.280247 0.200900
0.841611 0.299413 0.216983
0.870298 0.319432 0.234257
0.899229 0.340581 0.253208
0.929198 0.363684 0.274052
0.959564 0.388556 0.297581
0.990387 0.415961 0.323919
0.053010 0.035309 0.036164
0.056184 0.036347 0.036439
0.068849 0.038697 0.036988
0.089845 0.040864 0.037690
0.111421 0.042176 0.038483
0.135256 0.043854 0.039704
0.162112 0.046235 0.041321
0.192416 0.049226 0.043397
0.225437 0.052857 0.045777
0.260685 0.057435 0.048585
0.297124 0.063233 0.051575
0.333776 0.070253 0.054994
0.370001 0.078340 0.059358
0.406012 0.088655 0.064302
0.440864 0.099825 0.070008
0.474647 0.111482 0.076631
0.507530 0.124422 0.084779
0.543206 0.139895 0.094240
0.585077 0.159396 0.107118
0.624567 0.179538 0.120272
0.660639 0.198917 0.133577
0.694820 0.217777 0.147494
0.726375 0.235874 0.161196
0.756313 0.253910 0.175387
0.784756 0.271458 0.189670
0.812406 0.289067 0.204318
0.840269 0.307530 0.220218
0.868650 0.326818 0.237217
0.897642 0.347784 0.256138
0.927337 0.370336 0.277165
0.957855 0.395270 0.300816
0.988739 0.422553 0.327398
0.053071 0.037476 0.036652
0.057404 0.039673 0.036744
0.070680 0.043030 0.037476
0.092561 0.046784 0.038270
0.118288 0.050446 0.039887
0.143313 0.053498 0.041657
0.171176 0.056794 0.043702
0.202121 0.060822 0.045747
0.235782 0.065736 0.048371
0.271092 0.071382 0.051118
0.306981 0.077943 0.054322
0.343603 0.086519 0.058106
0.379431 0.095583 0.062531
0.414496 0.105226 0.067903
0.448585 0.116152 0.073762
0.481514 0.127626 0.080964
0.513390 0.139559 0.089082
0.549889 0.155123 0.099397
0.588678 0.173281 0.111482
0.625147 0.191043 0.123659
0.659266 0.208743 0.136477
0.692134 0.226627 0.149935
0.723568 0.244358 0.163546
0.753964 0.262211 0.177829
0.783352 0.279973 0.192538
0.812222 0.298100 0.207919
0.841215 0.317113 0.224582
0.870085 0.336461 0.242405
0.899657 0.357763 0.261723
0.929229 0.380285 0.282994
0.958556 0.404089 0.306157
0.987854 0.430091 0.331640
0.052461 0.041627 0.037049
0.059174 0.045411 0.037049
0.072999 0.049195 0.037690
0.092439 0.053376 0.038972
0.118318 0.058412 0.040528
0.147951 0.064454 0.043366
0.177981 0.069551 0.046357
0.210239 0.075166 0.048585
0.243809 0.081544 0.051148
0.279271 0.088167 0.054017
0.314855 0.095735 0.057588
0.351202 0.104005 0.061402
0.386999 0.113252 0.066072
0.421912 0.123293 0.071962
0.455848 0.133822 0.078645
0.488869 0.145388 0.086488
0.521324 0.157534 0.094850
0.560266 0.174624 0.106203
0.597467 0.191684 0.118196
0.632532 0.208621 0.130404
0.665187 0.225101 0.143008
0.697169 0.241978 0.156069
0.727901 0.259037 0.169711
0.757687 0.276127 0.184146
0.786923 0.293462 0.199100
0.815640 0.311162 0.214633
0.844511 0.329870 0.231266
0.872984 0.348913 0.249058
0.901518 0.368994 0.268254
0.930205 0.390661 0.289097
0.958862 0.413886 0.311894
0.987213 0.438911 0.337102
0.052522 0.049622 0.037568
0.062318 0.053834 0.037568
0.077150 0.057954 0.038483
0.096010 0.062501 0.040009
0.120912 0.068971 0.042359
0.151217 0.076600 0.044465
0.186709 0.086061 0.048127
0.221073 0.094209 0.051545
0.258549 0.103090 0.055451
0.294102 0.110414 0.058747
0.330083 0.118441 0.062470
0.365850 0.126925 0.066957
0.401282 0.136385 0.072297
0.435859 0.146334 0.078706
0.469612 0.157107 0.086458
0.502586 0.168643 0.094575
0.536767 0.181949 0.103914
0.575463 0.198886 0.116243
0.611658 0.215305 0.128481
0.645441 0.231479 0.140963
0.677577 0.247318 0.153841
0.708736 0.263676 0.167117
0.801999 0.327703 0.219608
0.830442 0.345251 0.235752
0.857237 0.362097 0.251804
0.883055 0.379370 0.268345
0.907958 0.396612 0.285191
0.932403 0.414588 0.303227
0.956237 0.433204 0.322606
0.980255 0.453376 0.343725
1.000000 0.475013 0.366552
1.000000 0.498482 0.391577
0.055360 0.065248 0.039979
0.069642 0.070375 0.040589
0.087953 0.075959 0.041840
0.108278 0.082246 0.043915
0.134554 0.089937 0.046296
0.169345 0.101656 0.049409
0.207218 0.112551 0.051575
0.249424 0.124483 0.056245
0.287236 0.134279 0.062074
0.327520 0.145388 0.068910
0.366552 0.155886 0.075441
0.401770 0.164920 0.081971
0.436316 0.173861 0.088777
0.469673 0.183749 0.096376
0.502159 0.194034 0.104311
0.533227 0.204318 0.112673
0.573083 0.221653 0.125185
0.612268 0.239261 0.139315
0.648859 0.256657 0.153353
0.683497 0.273930 0.167636
0.717556 0.291661 0.182925
0.751736 0.310643 0.199680
0.785458 0.330602 0.217258
0.817899 0.350286 0.235416
0.848020 0.369360 0.253544
0.875792 0.387427 0.270848
0.901610 0.405127 0.288304
0.926421 0.422797 0.306065
0.950286 0.440833 0.325078
0.973693 0.459907 0.345617
0.997070 0.480537 0.367834
1.000000 0.503227 0.392309
0.060151 0.079194 0.043854
0.074586 0.085115 0.044373
0.092561 0.090822 0.045106
0.112917 0.097322 0.047028
0.138369 0.105409 0.049561
0.169863 0.115541 0.052552
0.209903 0.129976 0.056245
0.251377 0.142061 0.058778
0.294133 0.155032 0.065583
0.333776 0.166506 0.073854
0.373693 0.178897 0.083680
0.413916 0.192142 0.094575
0.447578 0.201114 0.101625
0.480049 0.210208 0.108980
0.511864 0.220035 0.116640
0.544854 0.231205 0.126284
0.584131 0.248112 0.139254
0.619928 0.263523 0.151888
0.653559 0.278599 0.164614
0.685451 0.293431 0.177859
0.717861 0.309514 0.191897
0.750271 0.326848 0.207614
0.782589 0.345098 0.224491
0.813718 0.363500 0.241947
0.843839 0.381994 0.259556
0.871336 0.399451 0.276860
0.897429 0.416693 0.294224
0.922240 0.433967 0.312139
0.946838 0.452399 0.331212
0.970367 0.471260 0.351629
0.993561 0.491493 0.374029
1.000000 0.513268 0.398169
0.065126 0.096651 0.048280
0.080690 0.102632 0.048646
0.098482 0.108492 0.049104
0.118593 0.115206 0.050538
0.143832 0.123537 0.053040
0.174350 0.133669 0.056336
0.210483 0.146090 0.060609
0.255711 0.162661 0.065339
0.298802 0.175875 0.068605
0.342138 0.190158 0.078401
0.381933 0.203189 0.090608
0.421027 0.216281 0.102632
0.459724 0.230289 0.115236
0.494209 0.241245 0.125032
0.525048 0.250004 0.132753
0.562829 0.264775 0.144289
0.598749 0.279210 0.156435
0.631891 0.292454 0.168399
0.663691 0.305974 0.180362
0.694820 0.320073 0.193362
0.726497 0.335485 0.207675
0.758785 0.352605 0.223423
0.790555 0.370062 0.240360
0.821286 0.388067 0.257969
0.850278 0.405432 0.275517
0.877043 0.421973 0.292363
0.902007 0.438178 0.309331
0.926024 0.454536 0.326665
0.949584 0.471931 0.345190
0.972442 0.490059 0.364935
0.994385 0.509087 0.386694
1.000000 0.529473 0.410010
0.070192 0.117006 0.053010
0.086854 0.122866 0.053590
0.104982 0.128817 0.053895
0.123995 0.134768 0.054566
0.148806 0.143038 0.057069
0.178866 0.152895 0.060517
0.214176 0.164981 0.064637
0.254063 0.179232 0.070588
0.302281 0.198123 0.076905
0.345434 0.212100 0.082277
0.388434 0.226932 0.094911
0.427497 0.240940 0.109712
0.465217 0.254429 0.123293
0.502922 0.268986 0.137514
0.544335 0.287236 0.153536
0.581201 0.301427 0.165408
0.616114 0.314916 0.177066
0.648463 0.327489 0.189059
0.679316 0.339971 0.200992
0.709316 0.352972 0.213779
0.738857 0.366247 0.227207
0.768399 0.380743 0.241611
0.797269 0.395605 0.256748
0.824949 0.410407 0.272190
0.851591 0.425513 0.288029
0.876829 0.440314 0.303838
0.901122 0.455451 0.320165
0.924743 0.470985 0.337255
0.948058 0.487861 0.355901
0.971191 0.506310 0.376318
0.993683 0.525566 0.398260
1.000000 0.545922 0.422004
0.074128 0.137423 0.058015
0.092348 0.143282 0.058259
0.110262 0.148928 0.058961
0.129030 0.154818 0.059205
0.153872 0.162875 0.061128
0.183383 0.173190 0.064729
0.217929 0.185489 0.069673
0.257298 0.199832 0.076112
0.300969 0.216770 0.084688
0.350530 0.237644 0.093111
0.393713 0.251835 0.100038
0.435065 0.267185 0.114870
0.473610 0.281621 0.131838
0.513390 0.298283 0.148531
0.556237 0.318425 0.167544
0.597436 0.338140 0.186526
0.631983 0.352026 0.199832
0.662623 0.362860 0.210788
0.691829 0.373358 0.221988
0.720485 0.384710 0.233890
0.748959 0.396918 0.246891
0.777371 0.409979 0.260685
0.805020 0.423377 0.275242
0.831754 0.437171 0.290349
0.857572 0.451179 0.305760
0.881926 0.464790 0.321233
0.905516 0.479194 0.337469
0.928496 0.494209 0.354528
0.951202 0.510430 0.373022
0.973419 0.527947 0.393256
0.995422 0.546807 0.414923
1.000000 0.566583 0.438392
0.079377 0.161227 0.064057
0.098024 0.166995 0.064515
0.116976 0.172671 0.065034
0.135897 0.178408 0.065156
0.159243 0.185672 0.066285
0.189120 0.196017 0.070253
0.223209 0.208408 0.075502
0.261936 0.222904 0.083040
0.304570 0.239872 0.092103
0.351629 0.260014 0.102907
0.400610 0.281132 0.113619
0.442969 0.295933 0.122530
0.516869 0.342504 0.157687
0.567803 0.369879 0.185397
0.612543 0.392523 0.209628
0.653956 0.413092 0.232700
0.692103 0.432044 0.254704
0.725887 0.447669 0.273655
0.752865 0.455970 0.284703
0.778958 0.464820 0.296361
0.804562 0.474617 0.308812
0.829129 0.484382 0.321782
0.852689 0.494423 0.334874
0.875334 0.505089 0.348547
0.896880 0.515801 0.362402
0.917479 0.526726 0.376379
0.937041 0.537682 0.390692
0.956298 0.549920 0.405951
0.975280 0.562921 0.422156
0.994202 0.577539 0.440040
1.000000 0.593439 0.459571
1.000000 0.611200 0.481178
0.087160 0.196658 0.074769
0.108736 0.202335 0.074922
0.128206 0.207584 0.075654
0.148074 0.212863 0.075929
0.171237 0.218936 0.076448
0.200717 0.228214 0.080140
0.235386 0.240482 0.086244
0.273899 0.255070 0.094392
0.316014 0.272221 0.104158
0.361700 0.292149 0.116304
0.412940 0.317082 0.131075
0.463874 0.341283 0.146304
0.517876 0.368170 0.163821
0.568811 0.394324 0.189090
0.614313 0.417762 0.216739
0.653223 0.436194 0.239811
0.689296 0.452796 0.261784
0.722866 0.468574 0.282353
0.755306 0.484382 0.302647
0.781247 0.492897 0.315038
0.805814 0.500877 0.326574
0.829587 0.509392 0.338781
0.852567 0.518364 0.351293
0.874784 0.527825 0.364233
0.896025 0.537896 0.377844
0.916136 0.547875 0.391730
0.935790 0.558618 0.406073
0.955047 0.570306 0.421363
0.974029 0.583154 0.437995
0.992859 0.597314 0.455940
1.000000 0.612848 0.475502
1.000000 0.630213 0.497047
0.093935 0.221256 0.083192
0.114900 0.226474 0.084108
0.134676 0.231571 0.084382
0.154208 0.236393 0.085115
0.176577 0.241947 0.085634
0.203616 0.249516 0.086976
0.236912 0.261112 0.093568
0.273960 0.275273 0.101259
0.314275 0.291447 0.111086
0.357916 0.310643 0.122988
0.406043 0.333806 0.138064
0.465461 0.368475 0.159518
0.520043 0.397711 0.179446
0.569024 0.420081 0.196201
0.613947 0.441382 0.220310
0.653925 0.460395 0.246342
0.688197 0.475196 0.268803
0.720516 0.489265 0.289403
0.752102 0.504021 0.310399
0.782986 0.519463 0.331395
0.810391 0.531518 0.348913
0.833829 0.539422 0.360845
0.856413 0.547631 0.373175
0.877989 0.556023 0.386053
0.898924 0.565423 0.399512
0.918822 0.574823 0.413306
0.938109 0.584771 0.427344
0.956725 0.595361 0.442145
0.975158 0.607294 0.458259
0.993408 0.620691 0.475959
1.000000 0.635584 0.495308
1.000000 0.652033 0.516533
0.101930 0.247135 0.093477
0.122774 0.252323 0.094057
0.142641 0.257115 0.094697
0.161624 0.261570 0.095216
0.183413 0.266850 0.095644
0.208072 0.273045 0.096620
0.239750 0.283238 0.101656
0.275639 0.297032 0.109743
0.314885 0.313176 0.119448
0.359045 0.334356 0.132967
0.408942 0.360967 0.150210
0.462379 0.391180 0.170321
0.522820 0.428046 0.195499
0.573754 0.453773 0.215183
0.618524 0.472602 0.231968
0.658686 0.489479 0.254826
0.694240 0.505089 0.280491
0.725032 0.517388 0.301671
0.755062 0.529961 0.323095
0.784604 0.543786 0.343938
0.813443 0.558251 0.365850
0.841062 0.573419 0.388251
0.862486 0.580072 0.399603
0.883299 0.587610 0.411933
0.903349 0.595331 0.424475
0.922728 0.603845 0.437751
0.941650 0.613336 0.452003
0.960113 0.623804 0.467292
0.978454 0.635645 0.483925
0.996643 0.649195 0.502464
1.000000 0.664332 0.522789
1.000000 0.680964 0.544915
0.111025 0.274083 0.104921
0.132357 0.279179 0.105592
0.151125 0.284031 0.106477
0.170230 0.288762 0.107424
0.191745 0.294102 0.108186
0.216587 0.300664 0.109194
0.245029 0.309209 0.112093
0.281102 0.323919 0.120882
0.322637 0.344152 0.133364
0.367346 0.367010 0.148135
0.414618 0.392187 0.165042
0.464912 0.419745 0.184329
0.517723 0.449622 0.205783
0.575677 0.484413 0.232395
0.619959 0.502983 0.249607
0.658991 0.516350 0.265019
0.694911 0.529412 0.286015
0.727626 0.543114 0.311406
0.757321 0.555047 0.333684
0.786374 0.568109 0.356268
0.815030 0.582300 0.379095
0.842679 0.597101 0.402472
0.868742 0.612177 0.426032
0.891020 0.622431 0.442695
0.910491 0.629572 0.455207
0.929381 0.637324 0.468299
0.947662 0.645991 0.482216
0.965362 0.655634 0.497230
0.982788 0.666316 0.513207
0.999695 0.678492 0.530846
1.000000 0.691829 0.549737
1.000000 0.706569 0.570153
0.121126 0.301091 0.117006
0.141299 0.305760 0.118013
0.160433 0.310369 0.118868
0.178470 0.314885 0.119844
0.199435 0.320104 0.120607
0.224369 0.328069 0.122560
0.252689 0.338262 0.125521
0.287724 0.353460 0.133974
0.327367 0.372320 0.145876
0.369757 0.393561 0.160189
0.415229 0.417273 0.176333
0.462715 0.443122 0.194888
0.512932 0.470802 0.215640
0.564385 0.499336 0.238529
0.620996 0.532891 0.267094
0.660060 0.546044 0.282902
0.696498 0.557214 0.297917
0.729854 0.568536 0.318883
0.760372 0.580896 0.344244
0.788937 0.592889 0.368170
0.816739 0.605921 0.391760
0.843656 0.619593 0.415686
0.869535 0.633936 0.439338
0.893889 0.648615 0.463630
0.916228 0.662074 0.485481
0.934630 0.669276 0.498421
0.952361 0.677272 0.512169
0.969512 0.686336 0.527062
0.986145 0.696407 0.542962
1.000000 0.707668 0.560174
1.000000 0.720119 0.578607
1.000000 0.733700 0.598444
0.132540 0.330907 0.131014
0.152773 0.337255 0.133059
0.180972 0.359960 0.143313
0.200626 0.366918 0.145815
0.223239 0.374914 0.148165
0.248875 0.383978 0.151247
0.276890 0.394018 0.154604
0.309453 0.406928 0.160311
0.349523 0.426764 0.173556
0.392615 0.448951 0.189181
0.438300 0.473274 0.206668
0.485695 0.498970 0.226596
0.534539 0.525017 0.248508
0.584771 0.551751 0.272129
0.635309 0.578149 0.297459
0.688777 0.607660 0.329259
0.722469 0.614984 0.343236
0.754452 0.621912 0.357549
0.783413 0.629389 0.376959
0.809262 0.638361 0.401709
0.834012 0.647883 0.424598
0.858305 0.658717 0.447669
0.881804 0.670375 0.470436
0.904112 0.682551 0.493141
0.925017 0.694942 0.515587
0.944671 0.707973 0.538140
0.960815 0.715206 0.551904
0.976165 0.721798 0.564324
0.991333 0.730068 0.578637
1.000000 0.739956 0.594751
1.000000 0.751217 0.612451
1.000000 0.763363 0.631220
0.150881 0.376898 0.153933
0.172244 0.384192 0.156558
0.191836 0.391485 0.159121
0.210941 0.398627 0.161532
0.232761 0.406348 0.164065
0.256992 0.414343 0.167178
0.283665 0.423194 0.169589
0.312596 0.432929 0.172854
0.349126 0.449439 0.183352
0.390082 0.469703 0.197910
0.433356 0.492073 0.214694
0.478492 0.515618 0.233494
0.525353 0.540063 0.254459
0.573205 0.564904 0.277043
0.621668 0.589746 0.301274
0.671412 0.615259 0.328161
0.720302 0.640345 0.359442
0.752102 0.646632 0.373968
0.782834 0.653162 0.389288
0.810697 0.660731 0.409400
0.834958 0.669368 0.434638
0.859007 0.679530 0.458961
0.882261 0.690639 0.482704
0.904356 0.702144 0.506188
0.924956 0.713924 0.529076
0.944305 0.726253 0.551873
0.962371 0.739010 0.574701
0.978424 0.749416 0.593317
0.992584 0.756497 0.606561
1.000000 0.764981 0.621454
1.000000 0.774624 0.637629
1.000000 0.785550 0.655360
0.163882 0.410620 0.170260
0.183444 0.417273 0.172915
0.202274 0.424048 0.175296
0.221347 0.430671 0.177584
0.241794 0.437812 0.180636
0.264744 0.445380 0.183200
0.290501 0.453590 0.185672
0.318273 0.462593 0.188663
0.350286 0.474800 0.194522
0.389807 0.493751 0.208957
0.431617 0.514672 0.225193
0.475532 0.536950 0.243809
0.520409 0.559838 0.263767
0.566613 0.583398 0.286198
0.613886 0.607172 0.309972
0.661769 0.630915 0.335698
0.710475 0.655421 0.365393
0.754788 0.675837 0.395666
0.784573 0.681270 0.410163
0.812985 0.686915 0.425940
0.838712 0.693446 0.445930
0.861387 0.701717 0.471046
0.883604 0.711299 0.495430
0.905303 0.722042 0.519524
0.925444 0.732906 0.542504
0.944244 0.744198 0.565179
0.961791 0.755917 0.587762
0.978241 0.768368 0.610651
0.993591 0.781735 0.634180
1.000000 0.789212 0.648188
1.000000 0.798032 0.663813
1.000000 0.807889 0.680751
0.176181 0.445716 0.187839
0.195651 0.452613 0.190677
0.213993 0.459541 0.193179
0.232029 0.466224 0.195926
0.252079 0.473213 0.198795
0.274937 0.480232 0.201175
0.299199 0.487495 0.203464
0.325994 0.495460 0.206332
0.354742 0.504326 0.209506
0.391363 0.520348 0.221439
0.431891 0.539727 0.237369
0.474037 0.560388 0.255436
0.517754 0.581933 0.275120
0.562737 0.604120 0.297063
0.608942 0.626947 0.320989
0.655573 0.649714 0.346929
0.703334 0.673304 0.375494
0.751919 0.697993 0.409644
0.793149 0.715999 0.440650
0.822385 0.722286 0.458289
0.850095 0.729061 0.476844
0.875059 0.736629 0.499153
0.896178 0.745418 0.525719
0.916320 0.755123 0.551110
0.936065 0.766079 0.576104
0.953887 0.776852 0.599786
0.970397 0.787900 0.622736
0.985657 0.799527 0.645624
0.999725 0.811917 0.669062
1.000000 0.824887 0.692744
1.000000 0.834440 0.710536
1.000000 0.842588 0.725612
0.195163 0.495644 0.214359
0.213107 0.501091 0.216648
0.230808 0.506157 0.218540
0.247440 0.510826 0.220188
0.266575 0.515953 0.221927
0.287968 0.521508 0.224033
0.311742 0.527886 0.226169
0.337774 0.535149 0.229007
0.365820 0.543359 0.232456
0.398627 0.555535 0.239963
0.439033 0.574609 0.256809
0.480964 0.594720 0.275486
0.523949 0.615381 0.296300
0.568750 0.636713 0.318669
0.613733 0.657923 0.343053
0.659541 0.679286 0.369512
0.705318 0.700557 0.397589
0.751431 0.721859 0.427466
0.796750 0.743648 0.463630
0.832029 0.756466 0.491524
0.857511 0.760525 0.507652
0.881407 0.764920 0.524132
0.902495 0.770169 0.543725
0.920104 0.776547 0.566918
0.937133 0.784085 0.589441
0.954437 0.793851 0.613153
0.970581 0.804135 0.636286
0.985412 0.815061 0.659358
0.999023 0.826627 0.682582
1.000000 0.838621 0.705837
1.000000 0.850919 0.729152
1.000000 0.861906 0.749874
0.206851 0.530266 0.232303
0.224460 0.535271 0.234318
0.241032 0.539818 0.236393
0.257542 0.544091 0.238254
0.275944 0.548852 0.240177
0.296910 0.554101 0.242008
0.319493 0.559930 0.244572
0.344945 0.566735 0.247166
0.372259 0.574426 0.250767
0.401404 0.583215 0.254765
0.440192 0.600305 0.269902
0.481514 0.619501 0.289128
0.524346 0.639460 0.310033
0.567956 0.659693 0.332830
0.612726 0.680262 0.357763
0.657710 0.700862 0.384466
0.703151 0.721309 0.413092
0.748043 0.741543 0.443030
0.792508 0.761318 0.474434
0.835019 0.781338 0.513603
0.865385 0.790890 0.539147
0.888457 0.794308 0.555322
0.909758 0.798215 0.571588
0.928496 0.802914 0.590509
0.941588 0.805509 0.607691
0.956146 0.811948 0.628565
0.971740 0.821408 0.651911
0.986053 0.831388 0.674769
0.999054 0.841917 0.697658
1.000000 0.852934 0.720394
1.000000 0.864347 0.743343
1.000000 0.875883 0.766171
0.226505 0.577600 0.260258
0.243717 0.582605 0.262913
0.260075 0.586847 0.264927
0.275608 0.590265 0.266239
0.292790 0.593591 0.267552
0.312505 0.597406 0.268864
0.334173 0.601617 0.270359
0.357855 0.606500 0.272282
0.383673 0.612268 0.274937
0.411414 0.618921 0.277806
0.444160 0.629664 0.286503
0.484260 0.646754 0.304814
0.525628 0.664454 0.325078
0.567956 0.682490 0.347112
0.610681 0.700649 0.370916
0.654078 0.718929 0.396368
0.697566 0.737331 0.423499
0.741268 0.755886 0.452583
0.784756 0.774563 0.483589
0.827146 0.793149 0.516655
0.866667 0.811826 0.557824
0.892729 0.818662 0.580468
0.913085 0.821378 0.595697
0.931518 0.824063 0.610224
0.947173 0.827024 0.626307
0.959777 0.831022 0.645350
0.971862 0.835904 0.663478
0.985351 0.844419 0.685542
0.997803 0.853666 0.707454
1.000000 0.863554 0.729610
1.000000 0.873991 0.752010
1.000000 0.884764 0.774472
0.235782 0.606195 0.275914
0.253117 0.611109 0.278569
0.268925 0.615351 0.280919
0.284337 0.619043 0.282780
0.301488 0.622858 0.284550
0.321019 0.627192 0.286625
0.342626 0.632166 0.289250
0.366552 0.637903 0.291997
0.392340 0.644312 0.295720
0.419928 0.651545 0.299748
0.449287 0.659266 0.304265
0.489052 0.675654 0.323125
0.530938 0.693202 0.344610
0.573419 0.710842 0.367956
0.616114 0.728267 0.392645
0.658991 0.745571 0.418830
0.702083 0.762753 0.446265
0.744747 0.779812 0.475380
0.786618 0.796658 0.506035
0.827543 0.813443 0.537957
0.866361 0.829862 0.572198
0.900664 0.845640 0.612055
0.921355 0.849241 0.629786
0.938720 0.851072 0.643641
0.954376 0.853086 0.657038
0.967773 0.855589 0.671992
0.978454 0.859312 0.689967
0.988312 0.863310 0.706355
0.999786 0.871641 0.728206
1.000000 0.880430 0.749844
1.000000 0.889616 0.771267
1.000000 0.899016 0.792599
0.252689 0.643946 0.299321
0.268864 0.648005 0.301701
0.283635 0.651514 0.303746
0.298436 0.654627 0.305394
0.314763 0.657893 0.307439
0.333806 0.661646 0.309361
0.354650 0.665980 0.311498
0.377539 0.670954 0.314458
0.402533 0.676631 0.317693
0.429419 0.683131 0.321935
0.457618 0.690120 0.326726
0.492775 0.701900 0.339452
0.534447 0.718441 0.361700
0.576562 0.735103 0.385321
0.618891 0.751339 0.410346
0.661158 0.767391 0.436500
0.703304 0.783230 0.463874
0.744930 0.798947 0.492775
0.786099 0.814633 0.523278
0.826230 0.830320 0.555077
0.864439 0.845640 0.587793
0.899260 0.860410 0.623224
0.928832 0.874083 0.661402
0.945373 0.875456 0.675105
0.960021 0.876829 0.687984
0.973175 0.878325 0.700191
0.984253 0.880339 0.713954
0.992920 0.883238 0.729946
1.000000 0.886412 0.744564
1.000000 0.893675 0.764858
1.000000 0.901671 0.785489
1.000000 0.909941 0.805844
0.269383 0.679133 0.322118
0.284489 0.682399 0.324254
0.299107 0.685542 0.326482
0.313146 0.688502 0.328435
0.329778 0.692134 0.330602
0.348669 0.696559 0.333806
0.370642 0.702449 0.337987
0.394751 0.709255 0.343664
0.421241 0.717128 0.350164
0.450050 0.725887 0.357519
0.480446 0.735164 0.365911
0.512200 0.744808 0.375341
0.556603 0.762356 0.401709
0.600549 0.779171 0.429084
0.644190 0.795102 0.457221
0.686549 0.809934 0.485389
0.728267 0.824186 0.514122
0.768704 0.838010 0.543908
0.808377 0.851865 0.574792
0.846189 0.865415 0.606348
0.881529 0.878599 0.638209
0.913787 0.891142 0.669612
0.941283 0.902495 0.702998
0.962310 0.911254 0.733883
0.974151 0.911101 0.744106
0.984619 0.911101 0.753780
0.993927 0.911376 0.763333
1.000000 0.912200 0.774044
1.000000 0.913970 0.786893
1.000000 0.916106 0.798947
1.000000 0.921660 0.816342
1.000000 0.928313 0.834958
0.307744 0.732540 0.365942
0.322026 0.735378 0.368231
0.335393 0.737850 0.370184
0.348516 0.740108 0.371923
0.363409 0.742641 0.373816
0.380774 0.745785 0.376165
0.400610 0.749599 0.379492
0.422492 0.754116 0.383276
0.446571 0.759426 0.388159
0.472297 0.765286 0.393805
0.499794 0.771633 0.400061
0.528710 0.778347 0.407202
0.566033 0.789609 0.424933
0.608515 0.803799 0.451057
