20 Preset/Dark Portrait/【3】LUT video cho PR-AE-FCPX/Tone  (11).cube
# Created by Adobe Lightroom plugin Export LUT (1.22.0)
# www.johnrellis.com/lightroom/exportlut.htm
# Preset: Milestone_06
# Color profile: C:\Program Files (x86)\Common Files\Adobe\Color\Profiles\VideoHD.icc
LUT_3D_SIZE 32
DOMAIN_MIN 0.0 0.0 0.0
DOMAIN_MAX 1.0 1.0 1.0
0.013703 0.009705 0.012970
0.032654 0.012116 0.018006
0.059144 0.012787 0.021027
0.095064 0.011627 0.022705
0.138766 0.009094 0.023896
0.187106 0.004852 0.024872
0.237339 0.000000 0.025666
0.288518 0.000000 0.026642
0.340368 0.000000 0.028412
0.393042 0.000000 0.030518
0.445228 0.000000 0.033204
0.497017 0.000000 0.036408
0.548333 0.000000 0.040375
0.598444 0.000000 0.045197
0.646540 0.000000 0.050996
0.692988 0.000000 0.058198
0.736751 0.000000 0.066835
0.777218 0.000000 0.077516
0.814359 0.000000 0.090211
0.859983 0.000000 0.108186
0.909087 0.000000 0.130495
0.950744 0.035309 0.152590
0.985657 0.077302 0.174014
1.000000 0.119692 0.195224
1.000000 0.156985 0.215946
1.000000 0.191012 0.236728
1.000000 0.224949 0.258305
1.000000 0.258640 0.280888
1.000000 0.293126 0.305119
1.000000 0.328862 0.331365
1.000000 0.366155 0.359869
1.000000 0.404730 0.390814
0.019196 0.020844 0.017853
0.037018 0.020111 0.017945
0.073610 0.023011 0.018708
0.113802 0.023438 0.019715
0.157290 0.022156 0.020630
0.204410 0.019013 0.021393
0.252506 0.014374 0.021973
0.301793 0.008423 0.022644
0.351995 0.001984 0.024048
0.402899 0.000000 0.026001
0.453223 0.000000 0.028260
0.503899 0.000000 0.031159
0.553857 0.000000 0.034699
0.602380 0.000000 0.039033
0.649592 0.000000 0.044526
0.695186 0.000000 0.051392
0.738186 0.000000 0.059632
0.777737 0.000000 0.070008
0.814084 0.000000 0.082582
0.864622 0.000000 0.103090
0.908537 0.024689 0.123629
0.946685 0.057404 0.144137
0.979339 0.093935 0.164492
1.000000 0.128939 0.184573
1.000000 0.160769 0.204501
1.000000 0.191623 0.224491
1.000000 0.222354 0.245426
1.000000 0.253666 0.267430
1.000000 0.286168 0.290990
1.000000 0.320104 0.316625
1.000000 0.356023 0.344640
1.000000 0.393591 0.375128
0.021759 0.035737 0.020081
0.040986 0.031861 0.019257
0.065034 0.033112 0.018463
0.112856 0.039796 0.017823
0.170657 0.043153 0.016571
0.218540 0.040894 0.016938
0.265843 0.036805 0.017365
0.314397 0.031128 0.017945
0.363531 0.025422 0.019226
0.413489 0.019135 0.020905
0.463416 0.012482 0.023041
0.512993 0.006378 0.025483
0.561883 0.000000 0.028901
0.609583 0.000000 0.033204
0.655787 0.000000 0.038575
0.700099 0.000000 0.045045
0.741817 0.000000 0.053254
0.780453 0.000000 0.063233
0.823728 0.006226 0.078248
0.869871 0.026673 0.098207
0.910430 0.052064 0.118074
0.946563 0.083314 0.138216
0.977722 0.114229 0.158053
1.000000 0.143740 0.177737
1.000000 0.171817 0.197055
1.000000 0.199252 0.216739
1.000000 0.227604 0.237430
1.000000 0.257145 0.259556
1.000000 0.288548 0.283360
1.000000 0.321904 0.309392
1.000000 0.357366 0.337865
1.000000 0.394720 0.368963
0.022339 0.059358 0.020966
0.047608 0.053712 0.020142
0.065675 0.045899 0.019257
0.100954 0.051911 0.017731
0.159609 0.063233 0.015137
0.221256 0.068360 0.012940
0.281956 0.067475 0.011658
0.329015 0.061402 0.012390
0.377691 0.055024 0.013519
0.426337 0.048615 0.015045
0.475074 0.041566 0.017212
0.523308 0.035431 0.019684
0.570581 0.028870 0.022858
0.616876 0.023743 0.026978
0.661250 0.019684 0.032197
0.704036 0.017578 0.038575
0.744167 0.017975 0.046387
0.781582 0.021851 0.056123
0.827298 0.034577 0.071809
0.868315 0.052064 0.090150
0.905547 0.074189 0.108858
0.939910 0.100801 0.128420
0.970733 0.127138 0.148104
0.998566 0.153628 0.168093
1.000000 0.180087 0.188418
1.000000 0.207218 0.209293
1.000000 0.235599 0.231327
1.000000 0.265202 0.254704
1.000000 0.296300 0.279393
1.000000 0.328801 0.305730
1.000000 0.362402 0.333745
1.000000 0.396948 0.363378
0.021241 0.095644 0.020905
0.052369 0.088136 0.020111
0.076387 0.075471 0.019776
0.094362 0.065888 0.019318
0.139071 0.076814 0.016419
0.202426 0.091737 0.011719
0.265141 0.098177 0.008667
0.332158 0.100160 0.006012
0.386053 0.095552 0.006134
0.434272 0.088350 0.007813
0.481910 0.080568 0.009796
0.529229 0.072999 0.012299
0.575982 0.066133 0.015351
0.621790 0.060273 0.019440
0.666102 0.055390 0.024567
0.708858 0.052918 0.030823
0.748836 0.052583 0.038849
0.792996 0.059693 0.050233
0.834806 0.071565 0.065217
0.873045 0.087831 0.083101
0.907988 0.106722 0.101900
0.940734 0.127321 0.121370
0.970611 0.149172 0.141176
0.997894 0.172213 0.161471
1.000000 0.196353 0.182345
1.000000 0.221530 0.203708
1.000000 0.248020 0.226169
1.000000 0.275761 0.249607
1.000000 0.304936 0.274357
1.000000 0.335729 0.300572
1.000000 0.367681 0.328344
1.000000 0.400732 0.357824
0.018402 0.142061 0.020142
0.056703 0.134951 0.019318
0.089052 0.121431 0.018921
0.111238 0.107515 0.018524
0.131502 0.096437 0.018158
0.183810 0.110109 0.013977
0.250126 0.124941 0.008087
0.315496 0.132723 0.002869
0.384100 0.136385 0.000000
0.451331 0.136263 0.000000
0.498512 0.128664 0.000061
0.545251 0.121279 0.002625
0.591211 0.114290 0.005890
0.636164 0.107973 0.010163
0.679835 0.102724 0.015442
0.721523 0.099428 0.022034
0.765194 0.101015 0.030915
0.808591 0.107668 0.043488
0.847837 0.117372 0.058412
0.883787 0.129671 0.076173
0.917266 0.144442 0.096162
0.948699 0.161471 0.116793
1.000000 0.252689 0.184756
1.000000 0.275151 0.208072
1.000000 0.297459 0.230961
1.000000 0.319768 0.253727
1.000000 0.342565 0.276555
1.000000 0.366186 0.300145
1.000000 0.390692 0.324529
1.000000 0.416510 0.350195
1.000000 0.443183 0.377050
1.000000 0.470527 0.405005
0.010468 0.220920 0.017273
0.066865 0.212009 0.016205
0.112428 0.195529 0.015503
0.142458 0.179141 0.014862
0.166384 0.159823 0.014618
0.189548 0.144381 0.014466
0.251774 0.160769 0.008362
0.324010 0.175814 0.001160
0.393194 0.183261 0.000000
0.464851 0.188144 0.000000
0.538140 0.189242 0.000000
0.595270 0.183841 0.000000
0.639979 0.175265 0.000000
0.682856 0.168032 0.000000
0.722896 0.162112 0.004364
0.767086 0.161440 0.013275
0.812650 0.166018 0.025879
0.853269 0.172335 0.041260
0.890745 0.181949 0.059968
0.925811 0.194583 0.082521
0.959350 0.210483 0.106996
0.991119 0.229953 0.132753
1.000000 0.252171 0.159060
1.000000 0.275822 0.185489
1.000000 0.299565 0.211429
1.000000 0.322087 0.236088
1.000000 0.344244 0.260136
1.000000 0.366369 0.284123
1.000000 0.389563 0.308843
1.000000 0.413886 0.334417
1.000000 0.439307 0.361303
1.000000 0.465705 0.389319
0.010040 0.271275 0.017243
0.071626 0.262882 0.015717
0.120272 0.247044 0.014038
0.154269 0.230930 0.013092
0.182498 0.212375 0.012207
0.204959 0.190982 0.011780
0.230533 0.177096 0.011536
0.297032 0.194583 0.004639
0.369299 0.209445 0.000000
0.439887 0.217777 0.000000
0.511498 0.223026 0.000000
0.582910 0.225071 0.000000
0.651301 0.224063 0.000000
0.692622 0.215518 0.000000
0.739498 0.211948 0.000000
0.783169 0.210300 0.000000
0.821927 0.210300 0.011872
0.857572 0.212345 0.026551
0.891112 0.217044 0.044129
0.923003 0.224765 0.064668
0.954376 0.236057 0.089601
0.984558 0.251255 0.115602
1.000000 0.269047 0.142000
1.000000 0.288884 0.168521
1.000000 0.309636 0.194675
1.000000 0.330114 0.220035
1.000000 0.350622 0.244877
1.000000 0.371710 0.269688
1.000000 0.393805 0.295201
1.000000 0.417151 0.321447
1.000000 0.441718 0.348882
1.000000 0.467292 0.377508
0.014466 0.323583 0.019776
0.081025 0.316960 0.017517
0.131319 0.301640 0.014740
0.167147 0.286198 0.012787
0.198581 0.267704 0.010773
0.224857 0.246830 0.009155
0.245426 0.223209 0.008453
0.276585 0.212955 0.007904
0.343938 0.230014 0.000458
0.416754 0.244816 0.000000
0.488411 0.253819 0.000000
0.559258 0.259159 0.000000
0.633082 0.263706 0.000000
0.709041 0.268254 0.000000
0.761990 0.265629 0.000000
0.798947 0.259800 0.000000
0.833738 0.256443 0.000000
0.866300 0.255375 0.010834
0.897459 0.256901 0.028534
0.927977 0.262119 0.049104
0.958282 0.270909 0.074220
0.987732 0.283818 0.102846
1.000000 0.299199 0.131289
1.000000 0.316716 0.159365
1.000000 0.334844 0.186496
1.000000 0.352636 0.212467
1.000000 0.370642 0.237644
1.000000 0.389197 0.262638
1.000000 0.408972 0.288273
1.000000 0.429908 0.314305
1.000000 0.452247 0.341558
1.000000 0.475898 0.370092
0.027192 0.378546 0.027436
0.097749 0.372503 0.024140
0.146578 0.357702 0.019623
0.182254 0.342443 0.016144
0.214511 0.324254 0.012329
0.242924 0.303380 0.009155
0.266789 0.279545 0.006928
0.285740 0.254948 0.005554
0.321233 0.247654 0.004181
0.389593 0.264286 0.000000
0.465614 0.280552 0.000000
0.544091 0.294255 0.000000
0.619806 0.302983 0.000000
0.693080 0.308232 0.000000
0.757778 0.310307 0.000000
0.814298 0.310216 0.000000
0.847837 0.304723 0.000000
0.879454 0.301915 0.000000
0.909270 0.301701 0.012085
0.938018 0.304234 0.033753
0.965637 0.309819 0.058930
0.991791 0.318303 0.087984
1.000000 0.328832 0.117250
1.000000 0.340948 0.144930
1.000000 0.354437 0.171633
1.000000 0.368780 0.197604
1.000000 0.384192 0.223239
1.000000 0.400763 0.249058
1.000000 0.419379 0.275456
1.000000 0.439460 0.302953
1.000000 0.461250 0.331395
1.000000 0.484382 0.360967
0.046845 0.426947 0.038819
0.117891 0.422705 0.035828
0.162905 0.409094 0.029511
0.197818 0.395453 0.024353
0.230625 0.378698 0.018555
0.260746 0.359411 0.013123
0.287572 0.337255 0.008301
0.309606 0.312627 0.004822
0.329992 0.289311 0.003204
0.374334 0.288762 0.000275
0.448890 0.308629 0.000000
0.526726 0.325719 0.000000
0.602655 0.337346 0.000000
0.673945 0.344305 0.000000
0.738643 0.347234 0.000000
0.797055 0.348119 0.000000
0.851133 0.349645 0.000000
0.888548 0.346960 0.000000
0.916564 0.344152 0.000000
0.943542 0.343999 0.014038
0.969604 0.346899 0.039521
0.994263 0.352392 0.068788
1.000000 0.360174 0.100984
1.000000 0.369726 0.130861
1.000000 0.380682 0.159365
1.000000 0.392706 0.186679
1.000000 0.406012 0.213321
1.000000 0.420752 0.240055
1.000000 0.437446 0.267369
1.000000 0.455818 0.295323
1.000000 0.475929 0.324468
1.000000 0.497383 0.354589
0.079316 0.480873 0.057404
0.145083 0.478370 0.054597
0.186709 0.465400 0.046387
0.219883 0.452338 0.039063
0.252384 0.436622 0.031495
0.284733 0.420417 0.023590
0.315740 0.402777 0.016266
0.343175 0.381964 0.009461
0.366125 0.357916 0.003357
0.386084 0.333501 0.001160
0.434150 0.334966 0.000000
0.508965 0.353613 0.000000
0.650690 0.415198 0.000000
0.722408 0.424628 0.000000
0.784695 0.428656 0.000000
0.841886 0.430396 0.000000
0.892973 0.431708 0.000000
0.938201 0.434241 0.000000
0.975586 0.435706 0.000000
0.996612 0.432685 0.015045
1.000000 0.432319 0.048493
1.000000 0.434241 0.085451
1.000000 0.437842 0.120302
1.000000 0.443366 0.151766
1.000000 0.450172 0.181003
1.000000 0.458137 0.208774
1.000000 0.467201 0.235355
1.000000 0.477638 0.261601
1.000000 0.489662 0.288060
1.000000 0.503716 0.315190
1.000000 0.519524 0.343236
1.000000 0.537255 0.372656
0.149294 0.563165 0.103914
0.209110 0.564660 0.103700
0.246006 0.554742 0.093477
0.278019 0.543786 0.083589
0.309545 0.529747 0.070375
0.340490 0.512810 0.057038
0.369940 0.493233 0.043091
0.397101 0.470954 0.029389
0.421332 0.446265 0.017121
0.441932 0.419135 0.005982
0.460822 0.392920 0.002319
0.519493 0.400427 0.000000
0.600732 0.421698 0.000000
0.678645 0.438483 0.000000
0.747097 0.448554 0.000000
0.806271 0.452979 0.000000
0.859739 0.454871 0.000000
0.907225 0.455818 0.000000
0.949462 0.458747 0.000000
0.987030 0.462104 0.000000
1.000000 0.461341 0.016022
1.000000 0.460700 0.052247
1.000000 0.461860 0.091157
1.000000 0.465034 0.126925
1.000000 0.469825 0.158877
1.000000 0.475898 0.188815
1.000000 0.483436 0.217502
1.000000 0.492714 0.245518
1.000000 0.503777 0.273594
1.000000 0.516838 0.302220
1.000000 0.531579 0.331518
1.000000 0.548241 0.362005
0.211185 0.619440 0.148562
0.260319 0.619989 0.148074
0.290074 0.609918 0.137392
0.315709 0.598993 0.124544
0.342473 0.585077 0.109804
0.369604 0.568353 0.092439
0.396399 0.549126 0.073579
0.421912 0.527245 0.054353
0.445197 0.502861 0.036713
0.465766 0.476295 0.021271
0.483070 0.447517 0.007477
0.500008 0.420813 0.003693
0.563165 0.432136 0.000000
0.639582 0.451148 0.000000
0.709773 0.464485 0.000000
0.772427 0.472786 0.000000
0.827329 0.476783 0.000000
0.877104 0.478859 0.000000
0.922576 0.480659 0.000000
0.962768 0.484565 0.000000
0.998322 0.489021 0.000000
1.000000 0.491920 0.021515
1.000000 0.491249 0.060914
1.000000 0.492500 0.102571
1.000000 0.495430 0.138949
1.000000 0.499916 0.171939
1.000000 0.505699 0.202670
1.000000 0.513207 0.232364
1.000000 0.522576 0.261845
1.000000 0.534081 0.291569
1.000000 0.547417 0.321996
1.000000 0.562737 0.353429
0.267369 0.663935 0.190188
0.310155 0.665217 0.191653
0.333501 0.655299 0.179660
0.353948 0.644465 0.166751
0.375402 0.631342 0.151644
0.398291 0.615595 0.133486
0.422309 0.598383 0.113039
0.446967 0.578790 0.090761
0.470710 0.557214 0.067140
0.493202 0.533806 0.046326
0.512657 0.507805 0.027008
0.528496 0.479255 0.010376
0.544427 0.452949 0.007355
0.612451 0.468544 0.001404
0.682582 0.484413 0.000000
0.745907 0.494820 0.000000
0.803769 0.502098 0.000000
0.854185 0.505577 0.000000
0.900786 0.508049 0.000000
0.942840 0.509941 0.000000
0.979706 0.514153 0.000000
1.000000 0.518822 0.007477
1.000000 0.523400 0.033845
1.000000 0.523095 0.075532
1.000000 0.523888 0.118105
1.000000 0.526390 0.154818
1.000000 0.531029 0.188724
1.000000 0.537469 0.221012
1.000000 0.546075 0.253025
1.000000 0.557031 0.285313
1.000000 0.570092 0.318273
1.000000 0.585016 0.352148
0.320867 0.702480 0.230808
0.360662 0.704982 0.234287
0.379767 0.697047 0.223636
0.397559 0.687953 0.211765
0.416327 0.676783 0.197696
0.436835 0.663600 0.180362
0.458869 0.648981 0.161929
0.482063 0.632349 0.141390
0.505272 0.613886 0.118624
0.527672 0.593713 0.093233
0.547936 0.570459 0.064820
0.564752 0.543816 0.038453
0.576837 0.513268 0.018433
0.587152 0.483711 0.012909
0.654200 0.499519 0.007630
0.716152 0.510735 0.003479
0.774319 0.519585 0.000000
0.828794 0.526787 0.000000
0.877134 0.531243 0.000000
0.921538 0.534813 0.000000
0.961517 0.538201 0.000000
0.995789 0.543725 0.000000
1.000000 0.548943 0.026032
1.000000 0.554162 0.056611
1.000000 0.556542 0.098024
1.000000 0.557519 0.139986
1.000000 0.560540 0.177340
1.000000 0.565484 0.212131
1.000000 0.572229 0.245823
1.000000 0.581079 0.279149
1.000000 0.591638 0.312566
1.000000 0.603998 0.346380
0.368414 0.734005 0.267063
0.402960 0.736110 0.270726
0.420111 0.729671 0.261570
0.434272 0.721767 0.249821
0.450446 0.712215 0.236637
0.468025 0.700832 0.220584
0.487648 0.687892 0.203037
0.508232 0.673030 0.183261
0.529076 0.656489 0.161349
0.549920 0.637964 0.136843
0.569665 0.617273 0.109773
0.587701 0.594079 0.078492
0.602838 0.567712 0.047028
0.613428 0.537713 0.025269
0.627253 0.512230 0.017884
0.689357 0.525628 0.014893
0.747707 0.536187 0.011383
0.802884 0.544976 0.006775
0.854124 0.552331 0.001282
0.900267 0.557549 0.000000
0.941894 0.561791 0.000000
0.978790 0.566003 0.000000
1.000000 0.571771 0.017975
1.000000 0.577325 0.048951
1.000000 0.582818 0.084199
1.000000 0.587427 0.121065
1.000000 0.589075 0.162997
1.000000 0.592584 0.201053
1.000000 0.597955 0.237125
1.000000 0.605219 0.272404
1.000000 0.614374 0.307378
1.000000 0.625177 0.342473
0.421057 0.766171 0.308751
0.451637 0.768246 0.313085
0.524224 0.792905 0.355108
0.534020 0.786618 0.343328
0.545037 0.778653 0.329076
0.557305 0.769070 0.312413
0.570977 0.757595 0.292882
0.585992 0.744442 0.270909
0.602106 0.729763 0.247288
0.618891 0.713161 0.222049
0.635431 0.694392 0.193515
0.650752 0.672938 0.162020
0.663874 0.648066 0.126040
0.674342 0.619837 0.085512
0.681239 0.588556 0.054322
0.696651 0.565637 0.041352
0.753414 0.576379 0.040040
0.805966 0.584924 0.037507
0.854520 0.591608 0.033448
0.898619 0.596796 0.028107
0.938140 0.600427 0.021851
0.973785 0.603388 0.013886
1.000000 0.606806 0.024750
1.000000 0.611353 0.057252
1.000000 0.615320 0.092988
1.000000 0.619135 0.126558
1.000000 0.623194 0.157351
1.000000 0.624537 0.195346
1.000000 0.627619 0.232944
1.000000 0.633021 0.269688
1.000000 0.640436 0.306096
1.000000 0.649500 0.342412
0.493355 0.804379 0.368994
0.522301 0.807218 0.375952
0.542504 0.806912 0.375677
0.554345 0.803128 0.368048
0.566308 0.797513 0.357031
0.577935 0.789700 0.341985
0.590051 0.780179 0.323888
0.603326 0.768826 0.303655
0.617823 0.756130 0.281468
0.633021 0.741787 0.256657
0.648646 0.725399 0.229709
0.663752 0.706905 0.200107
0.677241 0.685298 0.167086
0.688838 0.660792 0.129641
0.697871 0.632898 0.087709
0.703975 0.602808 0.058503
0.723842 0.584741 0.046937
0.778347 0.595575 0.046052
0.829282 0.604608 0.045045
0.875578 0.611994 0.042847
0.917205 0.617700 0.039429
0.954772 0.622431 0.033539
0.988128 0.625879 0.024933
1.000000 0.630610 0.049287
1.000000 0.635157 0.086275
1.000000 0.639368 0.121523
1.000000 0.643397 0.153964
1.000000 0.647669 0.184665
1.000000 0.650813 0.219791
1.000000 0.654231 0.258213
1.000000 0.659724 0.295811
1.000000 0.667018 0.333043
0.525444 0.821683 0.396643
0.550713 0.823819 0.403235
0.572351 0.825101 0.406928
0.582910 0.821897 0.399969
0.593591 0.817441 0.390509
0.604150 0.811246 0.376684
0.615137 0.803494 0.360113
0.627008 0.794247 0.341222
0.640101 0.783658 0.320531
0.653864 0.771450 0.296788
0.668208 0.757595 0.271092
0.682582 0.741634 0.243046
0.695888 0.723384 0.211246
0.708217 0.702358 0.176211
0.718685 0.678309 0.137545
0.726925 0.651209 0.094301
0.732662 0.622217 0.066712
0.756069 0.608423 0.055543
0.807736 0.618921 0.056275
0.855344 0.627741 0.055879
0.898405 0.634791 0.054902
0.936828 0.640467 0.052796
0.971344 0.645075 0.046937
1.000000 0.648798 0.042420
1.000000 0.653742 0.079683
1.000000 0.658106 0.116884
1.000000 0.662135 0.150118
1.000000 0.666346 0.181765
1.000000 0.671046 0.212802
1.000000 0.675593 0.246189
1.000000 0.679713 0.285740
1.000000 0.685634 0.324712
0.562554 0.840116 0.430640
0.585901 0.842222 0.437354
0.607843 0.844327 0.443854
0.619196 0.842618 0.440314
0.628504 0.839048 0.431281
0.637537 0.833890 0.418952
0.646479 0.827329 0.403113
0.656184 0.819364 0.384283
0.667018 0.810269 0.363714
0.678614 0.799832 0.340581
0.691096 0.787961 0.315435
0.703792 0.774350 0.287572
0.716426 0.758633 0.257237
0.728573 0.740871 0.224002
0.739925 0.720516 0.187350
0.750027 0.697749 0.147433
0.758968 0.672633 0.103700
0.766201 0.646326 0.080476
0.794522 0.638270 0.071870
0.844907 0.650202 0.077607
0.890349 0.660426 0.082307
0.930632 0.668849 0.085756
0.965301 0.675349 0.087098
0.995789 0.680201 0.083040
1.000000 0.685176 0.099336
1.000000 0.690272 0.136995
1.000000 0.694759 0.171267
1.000000 0.699001 0.203799
1.000000 0.703578 0.235660
1.000000 0.708370 0.267185
1.000000 0.713313 0.298436
1.000000 0.717433 0.338506
0.622065 0.865690 0.486488
0.638941 0.866514 0.490059
0.655085 0.867124 0.493416
0.665736 0.866117 0.491768
0.671656 0.862364 0.481819
0.678126 0.857603 0.469703
0.685176 0.851957 0.454505
0.693355 0.845426 0.437415
0.702571 0.838132 0.417914
0.713100 0.829923 0.396887
0.724483 0.820462 0.372778
0.736263 0.809689 0.346685
0.748043 0.797177 0.317327
0.759609 0.782650 0.284886
0.770626 0.765957 0.249393
0.781125 0.747005 0.211093
0.790799 0.725551 0.169436
0.799100 0.701564 0.124636
0.805661 0.676539 0.102235
0.834531 0.670863 0.095705
0.879179 0.680659 0.101228
0.918822 0.688624 0.104891
0.953216 0.694575 0.106661
0.982818 0.698665 0.105806
1.000000 0.701503 0.099367
1.000000 0.706661 0.134340
1.000000 0.711482 0.169772
1.000000 0.716060 0.203677
1.000000 0.720760 0.236515
1.000000 0.725460 0.268925
1.000000 0.730190 0.300786
1.000000 0.734798 0.332158
0.649195 0.879179 0.513237
0.664088 0.879728 0.516472
0.677760 0.880186 0.519463
0.690944 0.880461 0.521691
0.696773 0.877470 0.513359
0.702693 0.873533 0.502800
0.709194 0.868833 0.489387
0.716854 0.863401 0.474434
0.725368 0.857298 0.457465
0.734890 0.850492 0.438025
0.745205 0.842679 0.416266
0.756130 0.833860 0.391791
0.767269 0.823606 0.363745
0.778683 0.811887 0.333715
0.789914 0.798459 0.300328
0.801083 0.783200 0.264134
0.811948 0.765957 0.224735
0.822232 0.746609 0.182589
0.831205 0.724636 0.140414
0.838743 0.701961 0.118868
0.868589 0.699306 0.115816
0.908995 0.708339 0.122530
0.944030 0.715389 0.126802
0.974456 0.720516 0.128908
0.998566 0.720607 0.121859
1.000000 0.723354 0.134676
1.000000 0.728603 0.171542
1.000000 0.733364 0.206302
1.000000 0.738003 0.239933
1.000000 0.742702 0.273014
1.000000 0.747433 0.305730
1.000000 0.752071 0.337896
0.689998 0.896422 0.556023
0.702937 0.896941 0.559442
0.714382 0.897185 0.561883
0.724636 0.897154 0.563073
0.732113 0.895567 0.559075
0.735988 0.891936 0.547509
0.740414 0.887633 0.533837
0.745663 0.882719 0.518700
0.752102 0.877073 0.501854
0.759365 0.870787 0.482643
0.767330 0.863615 0.461219
0.776242 0.855711 0.437537
0.785519 0.846708 0.409827
0.795224 0.836423 0.379461
0.805112 0.824765 0.346258
0.815305 0.811521 0.309850
0.825742 0.796780 0.271946
0.836362 0.780514 0.231266
0.846983 0.762722 0.188235
0.856718 0.743038 0.149325
0.865415 0.722683 0.128847
0.895567 0.722408 0.128511
0.931609 0.730068 0.135012
0.962371 0.735286 0.137697
0.988830 0.738430 0.137240
1.000000 0.739925 0.137911
1.000000 0.742245 0.169253
1.000000 0.746761 0.203861
1.000000 0.751217 0.237613
1.000000 0.755734 0.270909
1.000000 0.760464 0.304143
1.000000 0.765438 0.337377
0.704524 0.904845 0.572625
0.716152 0.905333 0.575921
0.726711 0.905608 0.578485
0.736690 0.905699 0.580346
0.747341 0.905608 0.581781
0.752071 0.903105 0.573083
0.757168 0.899840 0.561944
0.762997 0.896117 0.549218
0.769833 0.891844 0.534813
0.777462 0.887022 0.518914
0.785916 0.881498 0.501122
0.794888 0.875334 0.480964
0.804379 0.868223 0.457404
0.814145 0.860166 0.430884
0.824247 0.850950 0.400488
0.834531 0.840482 0.366613
0.845243 0.828702 0.330327
0.856321 0.815702 0.291508
0.867521 0.801389 0.250492
0.878843 0.785702 0.206668
0.888579 0.768002 0.170260
0.897246 0.749477 0.150332
0.925231 0.749905 0.150576
0.956329 0.755825 0.156405
0.983124 0.759762 0.158511
1.000000 0.761929 0.157229
1.000000 0.764187 0.186862
1.000000 0.765866 0.215427
1.000000 0.770474 0.249973
1.000000 0.774960 0.283787
1.000000 0.779568 0.317449
1.000000 0.784237 0.350805
0.726802 0.915465 0.599207
0.736355 0.915648 0.601373
0.745174 0.915709 0.603204
0.753475 0.915679 0.604395
0.762600 0.915496 0.605463
0.770413 0.914458 0.602502
0.774563 0.911711 0.591852
0.779538 0.908537 0.579889
0.785336 0.904906 0.566033
0.792233 0.900816 0.551049
0.799771 0.896239 0.534295
0.808316 0.891112 0.515770
0.817472 0.885222 0.495125
0.826963 0.878599 0.471290
0.836637 0.871000 0.444251
0.846738 0.862425 0.413367
0.857359 0.852811 0.378668
0.868467 0.842191 0.341985
0.880186 0.830716 0.303410
0.892332 0.818265 0.262760
0.904601 0.804715 0.218967
0.914794 0.788998 0.185946
0.924071 0.772915 0.167453
0.950103 0.774014 0.169467
0.977386 0.778531 0.174105
1.000000 0.781277 0.174929
1.000000 0.783658 0.203098
1.000000 0.785214 0.231601
1.000000 0.786191 0.257847
1.000000 0.790402 0.291478
1.000000 0.794827 0.325200
1.000000 0.799344 0.358495
0.743709 0.924285 0.620691
0.751705 0.924285 0.622217
0.759243 0.924285 0.623407
0.766476 0.924254 0.624567
0.775174 0.924193 0.626154
0.785031 0.924224 0.627955
0.791592 0.922850 0.622736
0.797726 0.920867 0.614405
0.804776 0.918700 0.605158
0.812802 0.916228 0.594629
0.821500 0.913481 0.583032
0.830808 0.910277 0.569238
0.840604 0.906554 0.553552
0.850614 0.902159 0.534722
0.860838 0.896941 0.512993
0.871092 0.890776 0.487831
0.881804 0.883726 0.458961
0.893004 0.876036 0.426856
0.904997 0.867704 0.391760
0.917662 0.858701 0.353918
0.930694 0.848966 0.314061
0.943847 0.838346 0.271336
0.954040 0.825284 0.241825
0.963256 0.811765 0.224582
0.984741 0.811978 0.225376
1.000000 0.813718 0.226810
1.000000 0.815183 0.253849
1.000000 0.816007 0.280308
1.000000 0.816312 0.305180
1.000000 0.816281 0.328618
1.000000 0.819242 0.359594
1.000000 0.823056 0.392096
0.773922 0.936156 0.660975
0.780179 0.936126 0.661982
0.786099 0.935973 0.662745
0.791775 0.935821 0.663081
0.798215 0.935576 0.663386
0.805875 0.935363 0.663935
0.813626 0.934905 0.662928
0.817624 0.932982 0.653681
0.822507 0.930846 0.643244
0.828214 0.928496 0.631739
0.834623 0.925811 0.618463
0.841947 0.922759 0.603662
0.849851 0.919310 0.586908
0.858457 0.915343 0.567834
