20 Preset/Dark Portrait/【3】LUT video cho PR-AE-FCPX/Tone  (7).cube
# Created by Adobe Lightroom plugin Export LUT (1.22.0)
# www.johnrellis.com/lightroom/exportlut.htm
# Preset: Milestone_01
# Color profile: C:\Program Files (x86)\Common Files\Adobe\Color\Profiles\VideoHD.icc
LUT_3D_SIZE 8
DOMAIN_MIN 0.000000 0.000000 0.000000
DOMAIN_MAX 0.903226 0.903226 0.903226
0.020050 0.013977 0.019104
0.080720 0.024201 0.030793
0.199100 0.035462 0.038697
0.348028 0.063233 0.056397
0.504936 0.115846 0.090364
0.668513 0.181979 0.138674
0.844907 0.283177 0.217533
0.980377 0.417517 0.329595
0.046113 0.084413 0.035187
0.118379 0.062409 0.028901
0.316197 0.069154 0.020294
0.441962 0.091829 0.034638
0.578912 0.135744 0.064027
0.728450 0.199863 0.118135
0.876951 0.293980 0.199771
0.983368 0.406867 0.302647
0.109194 0.245609 0.060883
0.187228 0.206821 0.051240
0.297124 0.189578 0.032654
0.632471 0.216983 0.000000
0.777218 0.228702 0.018128
0.881407 0.282383 0.095552
0.984527 0.376135 0.206180
1.000000 0.474525 0.320500
0.252171 0.475624 0.150240
0.323186 0.437507 0.131075
0.391302 0.381689 0.104433
0.573053 0.389593 0.060792
0.884947 0.419776 0.000000
1.000000 0.410559 0.023407
1.000000 0.458778 0.171420
1.000000 0.527245 0.300725
0.376593 0.619318 0.237400
0.428962 0.596735 0.219883
0.496834 0.560723 0.193454
0.562676 0.506584 0.162539
0.740749 0.514946 0.115175
0.967712 0.538445 0.032502
1.000000 0.526360 0.056489
1.000000 0.575952 0.246342
0.537652 0.749599 0.371008
0.583551 0.745968 0.367346
0.631312 0.724636 0.340093
0.690852 0.691493 0.300481
0.731228 0.629755 0.255070
0.895872 0.653162 0.221378
1.000000 0.672328 0.196109
1.000000 0.658717 0.217716
0.699825 0.844388 0.540124
0.720272 0.840696 0.532372
0.748165 0.829770 0.510460
0.788571 0.813565 0.478309
0.834287 0.788693 0.429084
0.871733 0.746181 0.385016
0.979187 0.756741 0.343114
1.000000 0.761532 0.353857
0.819272 0.905852 0.701717
0.827481 0.903929 0.695247
0.842741 0.900267 0.684413
0.867613 0.894926 0.669276
0.887724 0.877195 0.614466
0.927947 0.866300 0.580591
0.959991 0.842741 0.554681
1.000000 0.841886 0.530724
0.033417 0.027893 0.076570
0.129152 0.022187 0.053285
0.227909 0.053162 0.047242
0.397559 0.075166 0.042786
0.552850 0.126802 0.067872
0.703517 0.188968 0.115755
0.850370 0.276371 0.190738
0.959594 0.380560 0.285863
0.076692 0.126741 0.092866
0.168765 0.110811 0.081819
0.325353 0.119722 0.059998
0.496254 0.126772 0.028809
0.637201 0.159579 0.045167
0.769650 0.217197 0.099184
0.881071 0.289708 0.173281
0.974304 0.384802 0.267979
0.163119 0.267124 0.138674
0.224949 0.237522 0.127901
0.335637 0.234348 0.109255
0.612726 0.248447 0.038941
0.782437 0.237552 0.000610
0.874174 0.278477 0.063050
0.960662 0.347021 0.161868
1.000000 0.438911 0.273991
0.271061 0.446479 0.206332
0.326818 0.416663 0.191348
0.380682 0.369787 0.168795
0.534417 0.376440 0.141848
0.811185 0.395514 0.032624
0.984192 0.375830 0.000000
1.000000 0.419471 0.117922
1.000000 0.488563 0.250401
0.404028 0.612787 0.293675
0.445411 0.589685 0.275517
0.498573 0.551995 0.248966
0.543481 0.492561 0.218357
0.714748 0.507286 0.186007
0.938903 0.525475 0.058320
1.000000 0.511192 0.024598
1.000000 0.557977 0.215732
0.543847 0.738216 0.404608
0.574670 0.727810 0.391577
0.619867 0.707942 0.368750
0.676997 0.677790 0.336370
0.716304 0.621637 0.299138
0.884489 0.654749 0.283391
1.000000 0.665309 0.184970
1.000000 0.651698 0.203738
0.689479 0.834653 0.548516
0.703243 0.828305 0.534936
0.729763 0.816464 0.513573
0.771511 0.800870 0.486641
0.819852 0.778500 0.447547
0.855955 0.736385 0.407782
0.965545 0.749081 0.372839
1.000000 0.748287 0.325597
0.812619 0.901823 0.704829
0.821988 0.900389 0.700526
0.836576 0.896727 0.689845
0.861601 0.891447 0.676173
0.891478 0.882383 0.650599
0.926146 0.868772 0.610285
0.955077 0.842771 0.576593
1.000000 0.840574 0.527153
0.051453 0.064363 0.200870
0.182193 0.048219 0.169436
0.314519 0.059449 0.125948
0.403876 0.163943 0.136995
0.610193 0.172061 0.095338
0.787167 0.227909 0.120089
0.915587 0.318944 0.201053
0.999969 0.421668 0.302647
0.131380 0.193515 0.209567
0.223453 0.195926 0.193057
0.323705 0.203647 0.178531
0.489296 0.221347 0.158999
0.686763 0.237095 0.120699
0.847013 0.260166 0.093172
0.943725 0.335332 0.179599
1.000000 0.427222 0.285679
0.227848 0.348363 0.258366
0.294377 0.313695 0.241337
0.418708 0.317082 0.228305
0.645869 0.335241 0.204532
0.794125 0.337652 0.160678
0.926787 0.334051 0.085664
0.999054 0.384405 0.162478
1.000000 0.464485 0.279545
0.343633 0.504387 0.317479
0.399847 0.478523 0.304295
0.444160 0.430701 0.279210
0.607843 0.450843 0.268650
0.845548 0.472114 0.227787
0.992950 0.450782 0.135958
1.000000 0.457069 0.123293
1.000000 0.518273 0.264439
0.468971 0.635950 0.389319
0.503990 0.618463 0.374731
0.549432 0.586725 0.350347
0.585443 0.533349 0.320806
0.756374 0.561730 0.310277
0.946593 0.579675 0.252903
1.000000 0.541924 0.066438
1.000000 0.574395 0.223301
0.587213 0.748165 0.481880
0.612360 0.739590 0.471504
0.648096 0.719966 0.449165
0.693233 0.689784 0.415991
0.724880 0.637293 0.379248
0.883024 0.674250 0.379034
1.000000 0.689540 0.311986
1.000000 0.663447 0.220066
0.718257 0.842496 0.609339
0.730709 0.837339 0.598779
0.750637 0.825864 0.577356
0.783780 0.809232 0.549004
0.824308 0.786465 0.511742
0.857694 0.748989 0.478401
0.962737 0.768673 0.466499
1.000000 0.761929 0.353613
0.819059 0.903624 0.732662
0.825559 0.901274 0.726223
0.838285 0.898070 0.717128
0.862974 0.893889 0.707851
0.890410 0.885130 0.685512
0.923613 0.873289 0.653346
0.951476 0.849577 0.622705
1.000000 0.848142 0.575769
0.115846 0.153323 0.348638
0.244938 0.137545 0.327916
0.395117 0.116548 0.292027
0.528771 0.151064 0.234623
0.582757 0.293187 0.258610
0.775845 0.314092 0.231724
0.939635 0.334173 0.190097
1.000000 0.427375 0.290440
0.230625 0.289067 0.371801
0.326604 0.273411 0.356054
0.448157 0.266087 0.320989
0.493782 0.325414 0.304051
0.656580 0.347784 0.288762
0.817441 0.359197 0.254429
0.961212 0.370672 0.203189
1.000000 0.442573 0.280888
0.277562 0.418982 0.388922
0.394049 0.416114 0.389654
0.491646 0.407691 0.368475
0.610315 0.412024 0.348974
0.757046 0.431403 0.334325
0.891203 0.446998 0.306310
1.000000 0.457160 0.255039
1.000000 0.494148 0.291173
0.422583 0.572992 0.451209
0.475257 0.547631 0.436133
0.509148 0.497047 0.403326
0.665919 0.521202 0.404120
0.853910 0.540795 0.395880
0.945251 0.536339 0.354833
1.000000 0.525109 0.284672
1.000000 0.532372 0.266972
0.545892 0.678767 0.510460
0.572961 0.662501 0.496254
0.607111 0.630488 0.470344
0.634272 0.585138 0.443000
0.795254 0.625666 0.453986
0.949218 0.647089 0.437018
1.000000 0.625818 0.352544
1.000000 0.591028 0.235752
0.650660 0.775418 0.584771
0.675166 0.771969 0.581842
0.699702 0.754086 0.560571
0.734768 0.727230 0.532311
0.759182 0.682124 0.498939
0.892699 0.715969 0.507408
1.000000 0.730739 0.475288
1.000000 0.687404 0.302281
0.743893 0.851865 0.674891
0.756466 0.848264 0.668727
0.776028 0.841367 0.656458
0.805020 0.827665 0.634607
0.838376 0.806943 0.601526
0.865019 0.771878 0.566461
0.957671 0.790066 0.563592
1.000000 0.787869 0.491798
0.835630 0.910979 0.776272
0.841764 0.909300 0.772457
0.851286 0.905943 0.764431
0.868040 0.900755 0.752529
0.891020 0.891783 0.732509
0.920165 0.879911 0.704463
0.946563 0.858457 0.676722
1.000000 0.859922 0.648676
0.224826 0.272496 0.520684
0.337469 0.263279 0.510613
0.476295 0.234531 0.477821
0.658412 0.221775 0.448493
0.746426 0.265690 0.363073
0.771450 0.395422 0.372992
0.884581 0.458808 0.382238
1.000000 0.488075 0.357794
0.331060 0.388678 0.537377
0.413581 0.375860 0.526329
0.529625 0.348272 0.495308
0.664698 0.343664 0.452644
0.705501 0.393164 0.401831
0.768582 0.467903 0.417853
0.909575 0.493385 0.404395
1.000000 0.514214 0.373175
0.398322 0.500938 0.548516
0.481056 0.496223 0.539208
0.574304 0.475502 0.511894
0.606470 0.484718 0.469764
0.695094 0.500298 0.458656
0.817288 0.513085 0.442664
0.934447 0.533532 0.426551
1.000000 0.539879 0.380957
0.467170 0.614649 0.551293
0.543359 0.610376 0.555261
0.590814 0.578027 0.541863
0.729946 0.602564 0.548791
0.807340 0.600488 0.528771
0.890990 0.603388 0.507561
0.973144 0.604517 0.474556
1.000000 0.588251 0.400641
0.591455 0.712337 0.601740
0.629023 0.700282 0.599664
0.658473 0.675593 0.579950
0.673335 0.633082 0.551324
0.812558 0.669062 0.564446
0.939422 0.686732 0.563806
1.000000 0.675502 0.519036
1.000000 0.648951 0.427863
0.668849 0.778256 0.644160
0.683986 0.770932 0.636225
0.702235 0.755886 0.618860
0.728359 0.730037 0.592340
0.749630 0.689601 0.562219
0.887144 0.737514 0.595270
0.990875 0.759152 0.594873
1.000000 0.732967 0.504295
0.768185 0.857237 0.731716
0.773007 0.852811 0.723659
0.781949 0.845396 0.709682
0.805417 0.836271 0.694362
0.836606 0.817319 0.668360
0.858762 0.782956 0.632624
0.946258 0.802396 0.638972
1.000000 0.802457 0.593439
0.837034 0.911315 0.801114
0.839567 0.909880 0.796933
0.846799 0.906889 0.790066
0.865843 0.904173 0.785428
0.886839 0.896208 0.770809
0.912810 0.884215 0.747860
0.936889 0.862455 0.719234
0.991943 0.865782 0.704341
0.413886 0.445106 0.704463
0.489967 0.434150 0.696315
0.589776 0.399481 0.671565
0.728939 0.365576 0.636164
0.866789 0.367620 0.599969
0.907561 0.410010 0.507713
0.916411 0.516136 0.509392
0.952056 0.614527 0.554986
0.461433 0.503258 0.681880
0.515007 0.488533 0.671382
0.600458 0.460578 0.652247
0.722347 0.435706 0.621485
0.835355 0.445014 0.582513
0.871336 0.474098 0.513603
0.877531 0.573541 0.541070
0.959075 0.626398 0.560845
0.544793 0.604303 0.697414
0.587030 0.594232 0.687556
0.650690 0.570031 0.668513
0.743496 0.549340 0.638239
0.801572 0.549187 0.584192
0.815610 0.593530 0.573754
0.887785 0.630121 0.582177
0.974243 0.657771 0.583886
0.590021 0.695216 0.708675
0.636164 0.688563 0.702327
0.701961 0.681361 0.695277
0.757382 0.672877 0.668605
0.789700 0.679225 0.655238
0.861936 0.684962 0.645045
0.930266 0.695674 0.636622
0.994141 0.705867 0.622675
0.635065 0.761837 0.698085
0.673945 0.757565 0.698756
0.733883 0.749325 0.706905
0.750210 0.717678 0.684321
0.856992 0.743862 0.700710
0.903960 0.738430 0.681880
0.954528 0.737148 0.663233
1.000000 0.732204 0.630945
0.709224 0.815732 0.721706
0.741573 0.813382 0.730922
0.770382 0.803647 0.730617
0.789212 0.785428 0.713191
0.797238 0.750027 0.683742
0.898405 0.784634 0.709224
0.979217 0.800320 0.717586
1.000000 0.783108 0.668299
0.795926 0.873869 0.782101
0.816953 0.871824 0.790036
0.828244 0.867308 0.786282
0.841093 0.859831 0.776791
0.856657 0.844785 0.757656
0.870573 0.815824 0.726589
0.943114 0.833738 0.738094
1.000000 0.837736 0.722499
0.846830 0.917876 0.825742
0.857298 0.915831 0.828946
0.867613 0.912902 0.829282
0.875853 0.910307 0.823636
0.887419 0.905364 0.812741
0.909453 0.893553 0.795621
0.930571 0.873442 0.771603
0.980621 0.878599 0.768460
0.553002 0.562188 0.791226
0.600855 0.555688 0.788296
0.668849 0.535790 0.778775
0.768856 0.505791 0.763546
0.879088 0.486854 0.736263
0.968200 0.498604 0.706752
0.989410 0.531060 0.627100
0.993256 0.599817 0.610773
0.583459 0.604852 0.782773
0.621973 0.597681 0.779629
0.680018 0.578943 0.770321
0.767514 0.550256 0.754421
0.868101 0.534936 0.729061
0.944152 0.542168 0.692348
0.965606 0.561852 0.623346
0.965637 0.629328 0.621698
0.638056 0.675715 0.788846
0.667109 0.668849 0.784237
0.710323 0.651575 0.774868
0.781582 0.626123 0.759731
0.865904 0.613855 0.736965
0.919341 0.617029 0.693996
0.939544 0.636316 0.653223
0.939025 0.699428 0.671778
0.680842 0.745418 0.797116
0.708370 0.740078 0.793149
0.744259 0.730831 0.785824
0.798215 0.711727 0.773922
0.866087 0.703273 0.756588
0.892515 0.697169 0.711818
0.898589 0.726650 0.707820
0.940734 0.749752 0.713161
0.699794 0.802060 0.798184
0.721584 0.796902 0.794888
0.756100 0.788907 0.790097
0.804776 0.780423 0.785794
0.842985 0.765286 0.761990
0.858885 0.766049 0.746639
0.911620 0.773739 0.743160
0.960845 0.787198 0.744747
0.747555 0.848020 0.797971
0.764614 0.846311 0.797543
0.791287 0.843290 0.797055
0.828946 0.837186 0.799466
0.849821 0.816464 0.790463
0.913390 0.833280 0.802152
0.944457 0.829465 0.790494
0.979156 0.827298 0.778042
0.806485 0.886931 0.815274
0.817929 0.885405 0.816495
0.835142 0.882628 0.818235
0.865019 0.877745 0.825467
0.877958 0.867338 0.816342
0.886046 0.845884 0.798734
0.942107 0.862089 0.810147
0.993866 0.865476 0.807065
0.854276 0.923461 0.846250
0.861295 0.922820 0.847623
0.873899 0.922362 0.850919
0.893339 0.919982 0.856870
0.906584 0.915984 0.855406
0.917266 0.909026 0.845609
0.932952 0.893858 0.826841
0.971832 0.897063 0.828916
0.714870 0.698634 0.857633
0.738827 0.694118 0.856535
0.772091 0.679286 0.852232
0.828122 0.659480 0.847074
0.900298 0.635889 0.837369
0.968353 0.628656 0.819760
1.000000 0.641749 0.799222
1.000000 0.662654 0.746304
0.728786 0.723598 0.854154
0.748287 0.718318 0.852720
0.778744 0.706111 0.849149
0.828244 0.687160 0.843809
0.895079 0.665919 0.834775
0.959136 0.659449 0.818448
1.000000 0.668696 0.796353
1.000000 0.685206 0.749233
0.750759 0.760891 0.853819
0.766995 0.756893 0.851987
0.790677 0.746090 0.848325
0.833402 0.732509 0.844236
0.890318 0.712154 0.835325
0.948028 0.705501 0.820584
0.987243 0.712398 0.797940
1.000000 0.724453 0.761471
0.767514 0.799771 0.857908
0.786374 0.799710 0.856443
0.810697 0.796292 0.853117
0.841520 0.785306 0.848875
0.887358 0.769223 0.841611
0.938018 0.764370 0.830411
0.969451 0.767056 0.808469
0.984955 0.769772 0.780636
0.792111 0.845975 0.863890
0.804868 0.843839 0.863035
0.823880 0.839384 0.861173
0.850858 0.833707 0.857786
0.883177 0.819455 0.850248
0.927092 0.811490 0.839811
0.949859 0.806485 0.815457
0.958984 0.818814 0.807004
0.806027 0.882841 0.867430
0.815274 0.880461 0.866361
0.830289 0.876249 0.864408
0.853330 0.870420 0.861997
0.883635 0.863432 0.859495
0.918639 0.855070 0.852171
0.928771 0.851865 0.835325
0.949157 0.861021 0.835935
0.834348 0.909575 0.867399
0.841459 0.908415 0.867033
0.852628 0.906249 0.866209
0.869841 0.903410 0.865415
0.891875 0.899870 0.864866
0.917174 0.892180 0.865690
0.943847 0.892821 0.866026
0.965179 0.892393 0.861265
0.868345 0.933776 0.874754
0.873503 0.932982 0.875212
0.882231 0.931762 0.876188
0.895689 0.930388 0.878325
0.911986 0.928344 0.881041
0.931914 0.924743 0.885740
0.941772 0.915923 0.878660
0.967041 0.920653 0.884092
