20 Preset/Dark Portrait/【3】LUT video cho PR-AE-FCPX/Tone  (6).cube
# Created by Adobe Lightroom plugin Export LUT (1.22.0)
# www.johnrellis.com/lightroom/exportlut.htm
# Preset: Horizon_03
# Color profile: C:\Program Files (x86)\Common Files\Adobe\Color\Profiles\VideoHD.icc
LUT_3D_SIZE 5
DOMAIN_MIN 0.000000 0.000000 0.000000
DOMAIN_MAX 0.903226 0.903226 0.903226
0.053223 0.034180 0.035981
0.177127 0.032227 0.039887
0.426184 0.066285 0.063539
0.692622 0.193606 0.139437
0.907561 0.338537 0.254520
0.060151 0.079194 0.043854
0.251377 0.142061 0.058778
0.511864 0.220035 0.116640
0.750271 0.326848 0.207614
0.946838 0.452399 0.331212
0.101930 0.247135 0.093477
0.275639 0.297032 0.109743
0.618524 0.472602 0.231968
0.841062 0.573419 0.388251
0.978454 0.635645 0.483925
0.195163 0.495644 0.214359
0.337774 0.535149 0.229007
0.613733 0.657923 0.343053
0.881407 0.764920 0.524132
0.999023 0.826627 0.682582
0.333135 0.767300 0.394690
0.444068 0.787900 0.414679
0.642786 0.826596 0.478859
0.909178 0.913085 0.694789
1.000000 0.940581 0.825467
0.047333 0.061769 0.092897
0.188937 0.078767 0.143984
0.375097 0.098787 0.140749
0.611231 0.203525 0.204135
0.834958 0.330602 0.285435
0.088594 0.139040 0.140108
0.220066 0.175998 0.172824
0.457923 0.244114 0.220615
0.671504 0.324712 0.272099
0.877348 0.431708 0.350805
0.150546 0.279057 0.208591
0.261479 0.329290 0.228733
0.554314 0.463081 0.317235
0.771847 0.556298 0.425086
0.943328 0.635340 0.511589
0.223789 0.514916 0.319188
0.330816 0.553124 0.331334
0.570611 0.646784 0.400824
0.854459 0.771420 0.574609
0.984039 0.834714 0.711208
0.324773 0.765866 0.454170
0.430365 0.786709 0.471992
0.616419 0.827115 0.514397
0.895689 0.914580 0.719265
1.000000 0.948241 0.850462
0.058045 0.226505 0.312596
0.245640 0.267155 0.350134
0.452949 0.266941 0.388373
0.621851 0.298558 0.362676
0.733974 0.277653 0.311681
0.158846 0.305638 0.348394
0.292638 0.340124 0.377050
0.457282 0.347417 0.402838
0.600885 0.336828 0.358740
0.793729 0.395178 0.383154
0.222202 0.405188 0.384680
0.323674 0.426795 0.401160
0.476356 0.467170 0.430518
0.690852 0.544488 0.484352
0.883818 0.606409 0.529839
0.275273 0.534234 0.434974
0.346899 0.556847 0.448859
0.503166 0.627161 0.491798
0.804105 0.775692 0.642145
0.957977 0.839506 0.746822
0.240177 0.742824 0.516503
0.366796 0.767910 0.539727
0.566766 0.816434 0.588830
0.836362 0.895262 0.716487
0.992950 0.950561 0.868162
0.224186 0.481300 0.589471
0.361547 0.516686 0.612024
0.512535 0.543877 0.628016
0.663966 0.501366 0.620325
0.835050 0.569757 0.621424
0.289708 0.530205 0.600366
0.389593 0.551080 0.612299
0.546532 0.598474 0.639643
0.657465 0.539422 0.619928
0.818570 0.574701 0.607752
0.326513 0.586877 0.606500
0.407019 0.600763 0.615137
0.543359 0.634180 0.637507
0.657771 0.615686 0.632349
0.797696 0.575006 0.574426
0.373175 0.680690 0.639521
0.433539 0.686763 0.643549
0.549035 0.705135 0.657588
0.693263 0.729885 0.676692
0.898741 0.791714 0.732204
0.347601 0.789395 0.676051
0.405463 0.792203 0.676417
0.521965 0.807034 0.685023
0.739590 0.868040 0.745846
0.976104 0.957061 0.902342
0.508995 0.740993 0.829191
0.580652 0.761227 0.836973
0.700740 0.801022 0.854093
0.761501 0.791714 0.851499
0.859495 0.755093 0.842618
0.520958 0.756252 0.829282
0.585809 0.772854 0.836088
0.700832 0.808713 0.853208
0.775387 0.812772 0.856321
0.861662 0.773220 0.846983
0.519158 0.780758 0.831632
0.569757 0.789853 0.836606
0.686427 0.819547 0.851957
0.808316 0.855314 0.873686
0.868132 0.807218 0.857359
0.544518 0.830808 0.845701
0.587091 0.836545 0.849821
0.676814 0.852323 0.862272
0.816098 0.888029 0.891447
0.886564 0.866026 0.881743
0.572564 0.890990 0.865293
0.606683 0.896056 0.870115
0.686580 0.905913 0.880095
0.799435 0.920653 0.895933
0.915923 0.935729 0.912596
