20 Preset/Dark Portrait/【3】LUT video cho PR-AE-FCPX/Tone  (14).cube
# Created by Adobe Lightroom plugin Export LUT (1.22.0)
# www.johnrellis.com/lightroom/exportlut.htm
# Preset: Candy_01
# Color profile: C:\Program Files (x86)\Common Files\Adobe\Color\Profiles\VideoHD.icc
LUT_3D_SIZE 8
DOMAIN_MIN 0.000000 0.000000 0.000000
DOMAIN_MAX 0.903226 0.903226 0.903226
0.049653 0.032136 0.033814
0.053681 0.031861 0.033936
0.078676 0.030457 0.033936
0.137331 0.027375 0.033326
0.219303 0.022950 0.031861
0.322362 0.016785 0.029297
0.437232 0.009918 0.025849
0.565820 0.000458 0.022095
0.056367 0.040833 0.037873
0.087831 0.044709 0.037690
0.144747 0.047761 0.036683
0.219577 0.050660 0.033143
0.320195 0.057435 0.028168
0.418982 0.059480 0.025360
0.529107 0.063172 0.022065
0.665064 0.065553 0.017456
0.097261 0.087922 0.063172
0.130068 0.089815 0.061677
0.210727 0.108492 0.061952
0.344945 0.144717 0.072175
0.442573 0.150973 0.055238
0.555138 0.169162 0.040497
0.717556 0.215427 0.022797
0.854337 0.235080 0.017731
0.155673 0.178439 0.108064
0.196292 0.175814 0.109987
0.257389 0.183719 0.097475
0.409430 0.244724 0.119020
0.613092 0.349462 0.185489
0.739651 0.371435 0.175509
0.856504 0.387366 0.162509
0.964172 0.401831 0.155764
0.239597 0.301457 0.182071
0.284611 0.296147 0.191562
0.336980 0.306157 0.180758
0.423041 0.321691 0.163638
0.610376 0.424811 0.221561
0.791226 0.534417 0.329808
0.911101 0.579156 0.378729
0.997620 0.585870 0.384802
0.333959 0.454444 0.280858
0.383154 0.459663 0.296330
0.430793 0.462898 0.295201
0.499977 0.475074 0.278508
0.610712 0.504906 0.266331
0.790829 0.616541 0.384070
0.916564 0.719600 0.544457
0.995972 0.786435 0.648554
0.449592 0.630213 0.416602
0.488716 0.630457 0.427893
0.534874 0.627893 0.438117
0.585565 0.636439 0.423926
0.660365 0.644007 0.403052
0.780575 0.683040 0.428656
0.905791 0.770047 0.583032
0.977478 0.842496 0.717128
0.608484 0.784787 0.593927
0.633112 0.783963 0.601068
0.669368 0.783749 0.614099
0.707912 0.790036 0.618067
0.740230 0.782681 0.587274
0.812863 0.793362 0.579370
0.916960 0.838743 0.658198
0.980438 0.893980 0.782315
0.047456 0.037232 0.044739
0.072145 0.036347 0.044678
0.113039 0.034638 0.040894
0.184878 0.037751 0.041413
0.286564 0.042939 0.040436
0.403143 0.053254 0.035706
0.536553 0.076143 0.025666
0.675196 0.089235 0.016571
0.063355 0.065217 0.066621
0.105928 0.064057 0.064332
0.160525 0.067750 0.065553
0.240421 0.070466 0.061341
0.340642 0.076936 0.055116
0.452705 0.092805 0.047333
0.585626 0.120516 0.034882
0.745968 0.163851 0.014557
0.096681 0.121584 0.096376
0.149508 0.115908 0.098360
0.222843 0.130190 0.097993
0.335424 0.158755 0.115724
0.433326 0.164401 0.101747
0.549218 0.183169 0.089418
0.689357 0.216129 0.073274
0.838621 0.254643 0.054322
0.145144 0.206851 0.137850
0.206607 0.200198 0.144259
0.268467 0.207279 0.137789
0.398840 0.252384 0.157473
0.571649 0.341558 0.224063
0.679316 0.350103 0.206119
0.797299 0.367376 0.192691
0.915923 0.387793 0.184512
0.231022 0.328161 0.209903
0.286625 0.320592 0.217472
0.339971 0.320409 0.216220
0.418830 0.331548 0.197574
0.582361 0.414588 0.246647
0.758022 0.526146 0.352331
0.876860 0.568109 0.390600
0.969329 0.577905 0.395544
0.319005 0.465370 0.297337
0.368536 0.462623 0.306554
0.424720 0.461189 0.316838
0.490303 0.475746 0.302800
0.592493 0.498848 0.287755
0.774075 0.615198 0.405432
0.900145 0.719692 0.559167
0.981811 0.779477 0.647028
0.427680 0.627680 0.419806
0.466041 0.622980 0.425513
0.518120 0.618097 0.437964
0.571344 0.626703 0.432776
0.646601 0.638941 0.416999
0.761776 0.673274 0.433295
0.890257 0.760555 0.579309
0.966735 0.833768 0.709468
0.589776 0.781979 0.591211
0.618097 0.782223 0.599878
0.656550 0.781460 0.612238
0.700893 0.786313 0.623804
0.746792 0.793912 0.615198
0.811307 0.799557 0.600549
0.910643 0.837980 0.663294
0.977020 0.894285 0.786191
0.028992 0.066346 0.105653
0.072206 0.057649 0.103334
0.156771 0.062379 0.095613
0.212772 0.048188 0.074037
0.301457 0.047761 0.067414
0.416938 0.059937 0.066804
0.568139 0.091035 0.064729
0.736172 0.134981 0.051881
0.043610 0.111330 0.137423
0.098238 0.103120 0.132998
0.187747 0.101289 0.119692
0.254215 0.086183 0.100038
0.353521 0.094942 0.098665
0.473671 0.115602 0.099428
0.615320 0.147341 0.094972
0.769528 0.182132 0.075532
0.061433 0.179324 0.175204
0.138643 0.174502 0.166781
0.240604 0.167788 0.157626
0.341497 0.188418 0.171908
0.449104 0.200992 0.169589
0.565515 0.219394 0.164706
0.699397 0.245823 0.155673
0.838834 0.274937 0.141024
0.126375 0.268284 0.215213
0.205020 0.269963 0.212894
0.300786 0.261265 0.217014
0.420447 0.299962 0.231662
0.571710 0.377905 0.294224
0.679927 0.387823 0.283207
0.797940 0.405035 0.275792
0.912200 0.420386 0.268132
0.219547 0.382879 0.274998
0.281895 0.377630 0.272313
0.365179 0.368780 0.283360
0.441352 0.381537 0.271611
0.594476 0.455604 0.318364
0.756680 0.569329 0.433143
0.859861 0.593713 0.450324
0.952850 0.605859 0.455940
0.301457 0.507347 0.346288
0.356115 0.504875 0.349065
0.431861 0.498695 0.362249
0.497566 0.504814 0.359960
0.586786 0.516503 0.337621
0.760708 0.628016 0.450019
0.887968 0.737942 0.602869
0.969787 0.790738 0.674739
0.418097 0.659846 0.461311
0.463020 0.656031 0.466865
0.521660 0.649073 0.476478
0.581598 0.648310 0.484627
0.647547 0.658198 0.467628
0.752834 0.683650 0.472511
0.886229 0.776669 0.618341
0.964691 0.852903 0.747372
0.575708 0.794003 0.608453
0.604669 0.792142 0.614466
0.647974 0.790829 0.625971
0.704616 0.794430 0.649714
0.747005 0.801785 0.643488
0.809201 0.809506 0.632532
0.904814 0.843015 0.681819
0.974304 0.900511 0.802182
0.000000 0.140475 0.222629
0.008118 0.126894 0.223972
0.157107 0.096101 0.201389
0.283085 0.110170 0.183566
0.346654 0.086458 0.148928
0.408789 0.061463 0.113283
0.543359 0.088045 0.118379
0.700008 0.125368 0.116976
0.000000 0.193576 0.258976
0.032471 0.179843 0.254826
0.177584 0.145052 0.235691
0.317479 0.163363 0.212741
0.369604 0.121675 0.163790
0.459846 0.122774 0.150332
0.590570 0.149874 0.153262
0.739925 0.181643 0.148379
0.000000 0.261021 0.293095
0.085084 0.253025 0.286961
0.217838 0.234775 0.273716
0.347753 0.227451 0.242741
0.431281 0.213413 0.219913
0.548577 0.237888 0.226139
0.685725 0.267765 0.229984
0.819455 0.287144 0.217990
0.070466 0.363378 0.342199
0.170565 0.355169 0.331701
0.285740 0.339879 0.311833
0.416297 0.339208 0.307012
0.531182 0.380102 0.336339
0.641810 0.395758 0.334844
0.762051 0.413886 0.332128
0.881712 0.429877 0.325963
0.185306 0.452522 0.373449
0.249180 0.443549 0.361975
0.349248 0.442573 0.357153
0.459480 0.439216 0.366522
0.593500 0.497322 0.397986
0.740475 0.602838 0.503990
0.835630 0.614069 0.504784
0.929351 0.622950 0.504601
0.274296 0.568811 0.431983
0.334356 0.574731 0.434760
0.418128 0.568841 0.431830
0.522087 0.561456 0.449378
0.602533 0.573907 0.433265
0.753506 0.658747 0.519951
0.879149 0.765957 0.660060
0.955322 0.798306 0.699245
0.381933 0.695918 0.516930
0.433082 0.694423 0.519402
0.507439 0.691096 0.526635
0.594110 0.687251 0.545953
0.657038 0.692378 0.543053
0.739956 0.698726 0.522454
0.879271 0.793057 0.659937
0.960662 0.870024 0.783352
0.551354 0.818875 0.643397
0.585840 0.817777 0.648402
0.637232 0.815183 0.657923
0.699702 0.813565 0.674952
0.751369 0.815213 0.685023
0.805661 0.822354 0.673701
0.894469 0.847440 0.701991
0.971038 0.908751 0.823087
0.000000 0.257450 0.384436
0.000000 0.246311 0.387701
0.061250 0.206821 0.374395
0.306340 0.178744 0.326085
0.432807 0.198947 0.301884
0.490211 0.169039 0.252842
0.516747 0.093385 0.176638
0.649653 0.113161 0.174197
0.000000 0.309789 0.416938
0.000000 0.299016 0.415656
0.109255 0.268070 0.405554
0.330541 0.228428 0.351812
0.452491 0.246952 0.322759
0.503441 0.203311 0.266331
0.545129 0.138918 0.198062
0.692897 0.174807 0.207889
0.000000 0.371008 0.442329
0.002777 0.360510 0.435126
0.173526 0.337438 0.421241
0.351202 0.295109 0.382147
0.469673 0.309148 0.345861
0.510948 0.242374 0.276005
0.607874 0.237552 0.256718
0.746395 0.264378 0.259464
0.000000 0.450263 0.470192
0.103212 0.443091 0.462593
0.243168 0.430701 0.449928
0.385473 0.409216 0.428779
0.498390 0.385534 0.380896
0.582116 0.369848 0.355566
0.701778 0.390021 0.358251
0.824674 0.403235 0.351446
0.127199 0.543328 0.503777
0.210880 0.537804 0.495979
0.313512 0.526665 0.480629
0.430762 0.506767 0.455360
0.561944 0.512505 0.455634
0.681056 0.566094 0.501152
0.784176 0.579828 0.503136
0.889342 0.591394 0.502678
0.232547 0.615106 0.521752
0.282475 0.608637 0.512963
0.349248 0.594232 0.494697
0.459724 0.591424 0.487922
0.578790 0.588617 0.499489
0.722683 0.662989 0.559625
0.857145 0.770748 0.687251
0.931945 0.783230 0.696803
0.341558 0.720333 0.582605
0.382727 0.718349 0.579187
0.445502 0.715602 0.574365
0.544610 0.715938 0.578973
0.653071 0.712245 0.602289
0.725795 0.720699 0.587243
0.860014 0.796628 0.685603
0.950774 0.876555 0.804562
0.486427 0.828153 0.671778
0.513329 0.827451 0.670466
0.566217 0.827085 0.672541
0.656947 0.828122 0.689601
0.740261 0.826352 0.711849
0.795499 0.831357 0.713527
0.869871 0.841245 0.709163
0.962768 0.910216 0.833646
0.000000 0.428504 0.604883
0.000000 0.418067 0.604028
0.000000 0.388006 0.591699
0.269963 0.323186 0.543755
0.466682 0.300908 0.469978
0.586969 0.320531 0.439734
0.644373 0.290227 0.383581
0.672908 0.188083 0.289220
0.000000 0.448219 0.595789
0.000000 0.436835 0.591669
0.009613 0.414282 0.582544
0.282719 0.362921 0.549462
0.473640 0.334051 0.477882
0.590539 0.354070 0.448066
0.644373 0.313024 0.388403
0.674159 0.207370 0.291356
0.000000 0.510002 0.621241
0.000000 0.500084 0.615229
0.129519 0.481483 0.603601
0.314855 0.445350 0.583703
0.497047 0.401190 0.507988
0.608179 0.417029 0.474403
0.655451 0.354772 0.403296
0.684535 0.237400 0.296025
0.000000 0.578943 0.640894
0.075196 0.571618 0.633753
0.231205 0.561395 0.625055
0.382300 0.548516 0.614588
0.536156 0.507805 0.564752
0.638514 0.512108 0.522789
0.677546 0.413733 0.428260
0.765835 0.377569 0.383551
0.133761 0.642634 0.649439
0.211307 0.638849 0.644404
0.305058 0.631556 0.634943
0.415991 0.619409 0.620508
0.541558 0.596033 0.594720
0.638636 0.558770 0.534325
0.719722 0.534661 0.501579
0.832120 0.551873 0.505699
0.278416 0.710018 0.664698
0.326085 0.709529 0.662501
0.387366 0.703059 0.652796
0.470680 0.692012 0.636652
0.568780 0.669673 0.607721
0.697230 0.683101 0.618738
0.812619 0.740902 0.676936
0.899351 0.751797 0.682338
0.417853 0.793271 0.709316
0.444556 0.790860 0.705135
0.482551 0.783810 0.694911
0.535973 0.771115 0.677028
0.626276 0.764157 0.667506
0.729061 0.760433 0.678523
0.847623 0.814511 0.732845
0.946044 0.892332 0.839261
0.515831 0.859922 0.752224
0.525994 0.855589 0.745144
0.546532 0.848692 0.733883
0.611017 0.849607 0.734493
0.693477 0.849210 0.737667
0.792416 0.847166 0.761410
0.855039 0.854643 0.754513
0.954376 0.916258 0.853941
0.000000 0.552422 0.746273
0.000000 0.549248 0.746090
0.017853 0.538811 0.741299
0.283543 0.519890 0.731228
0.463386 0.463874 0.671229
0.600946 0.434272 0.597162
0.716365 0.457923 0.573297
0.769070 0.431800 0.516228
0.000000 0.575006 0.744808
0.000000 0.571557 0.743984
0.105379 0.562371 0.738857
0.307958 0.546471 0.730129
0.469520 0.490913 0.674922
0.603937 0.459571 0.601831
0.712886 0.478584 0.574853
0.761166 0.439368 0.512047
0.000000 0.621393 0.756680
0.043641 0.617548 0.753658
0.210880 0.609674 0.747250
0.359442 0.597467 0.737758
0.498970 0.556085 0.694881
0.620447 0.515831 0.624353
0.723201 0.532280 0.596857
0.769253 0.479103 0.529625
0.141238 0.679622 0.770626
0.208988 0.675227 0.766629
0.302068 0.669184 0.759884
0.418494 0.661677 0.750759
0.537346 0.643641 0.733516
0.645167 0.591913 0.659388
0.737087 0.597681 0.627039
0.778408 0.521019 0.546746
0.282322 0.733852 0.777371
0.318425 0.730098 0.773129
0.373297 0.723751 0.766690
0.451301 0.715694 0.758846
0.554803 0.702602 0.743771
0.660212 0.660670 0.692256
0.745357 0.655909 0.652644
0.785367 0.556786 0.556237
0.399542 0.790829 0.790005
0.424964 0.789425 0.787839
0.465644 0.786465 0.783474
0.524254 0.781125 0.776059
0.597375 0.771298 0.763333
0.689723 0.754360 0.742885
0.760494 0.715328 0.683711
0.826413 0.672541 0.634028
0.509575 0.845884 0.810178
0.527306 0.844907 0.808164
0.555169 0.842466 0.803891
0.596887 0.838010 0.796384
0.650263 0.829160 0.783169
0.716518 0.811765 0.759121
0.816831 0.817350 0.764431
0.910948 0.859831 0.813107
0.622004 0.904662 0.849424
0.632715 0.903288 0.846952
0.653162 0.901701 0.843992
0.678218 0.896696 0.835630
0.709102 0.887358 0.820920
0.764889 0.878416 0.807614
0.852934 0.878416 0.821408
0.943420 0.923186 0.877806
0.273289 0.715114 0.872801
0.332921 0.718105 0.872190
0.404944 0.718135 0.868193
0.500114 0.720943 0.863920
0.585199 0.702266 0.840970
0.661036 0.659388 0.794430
0.733425 0.608515 0.729427
0.831540 0.631006 0.715938
0.314244 0.730678 0.871733
0.363226 0.732296 0.870542
0.428687 0.732967 0.867430
0.514702 0.734371 0.863035
0.598688 0.722011 0.845914
0.667323 0.677180 0.798886
0.736172 0.625513 0.734035
0.830594 0.644404 0.718837
0.370489 0.756863 0.874266
0.409094 0.757534 0.872709
0.463539 0.757198 0.869352
0.542535 0.759823 0.865934
0.624475 0.756130 0.857511
0.680018 0.707973 0.809476
0.744656 0.657862 0.746761
0.833402 0.671138 0.729183
0.427527 0.790494 0.880400
0.461219 0.791775 0.879423
0.508141 0.791806 0.876493
0.574945 0.792813 0.872740
0.650294 0.791348 0.866331
0.706386 0.757259 0.829923
0.761685 0.706996 0.770687
0.841672 0.711788 0.748898
0.510826 0.831785 0.887419
0.528008 0.831174 0.886809
0.552941 0.828641 0.884733
0.598901 0.826291 0.881468
0.668452 0.824765 0.875090
0.740291 0.816556 0.862760
0.782162 0.762142 0.800534
0.851072 0.756527 0.771878
0.601648 0.874907 0.898711
0.611933 0.873808 0.897490
0.629419 0.871702 0.895415
0.658198 0.868742 0.892363
0.699214 0.864439 0.888182
0.763272 0.859922 0.880217
0.810880 0.825498 0.839963
0.864591 0.806912 0.801328
0.678798 0.910246 0.909483
0.686946 0.909606 0.908568
0.699825 0.908263 0.906676
0.721523 0.906401 0.904021
0.751095 0.903075 0.899718
0.789273 0.897215 0.892424
0.839353 0.885252 0.877775
0.875883 0.849638 0.826932
0.748135 0.939239 0.921477
0.753933 0.938811 0.920745
0.764065 0.938201 0.919463
0.781277 0.937438 0.917815
0.803281 0.935576 0.914366
0.830442 0.931304 0.907530
0.863096 0.921324 0.892821
0.921477 0.923400 0.895659
