20 Preset/Dark Portrait/【3】LUT video cho PR-AE-FCPX/Tone  (9).cube
# Created by Adobe Lightroom plugin Export LUT (1.22.0)
# www.johnrellis.com/lightroom/exportlut.htm
# Preset: Milestone_03
# Color profile: C:\Program Files (x86)\Common Files\Adobe\Color\Profiles\VideoHD.icc
LUT_3D_SIZE 8
DOMAIN_MIN 0.000000 0.000000 0.000000
DOMAIN_MAX 0.903226 0.903226 0.903226
0.033448 0.022370 0.037659
0.165438 0.020233 0.045380
0.272923 0.021454 0.050050
0.381415 0.025238 0.051728
0.484627 0.035615 0.053559
0.593194 0.052125 0.055818
0.704524 0.071046 0.059937
0.810513 0.087587 0.067964
0.112795 0.093172 0.115938
0.227024 0.108614 0.094850
0.323766 0.105959 0.079164
0.420966 0.109560 0.061189
0.516533 0.120638 0.051942
0.619806 0.131228 0.054353
0.715908 0.140230 0.059144
0.818296 0.149569 0.067994
0.196262 0.188052 0.169314
0.299870 0.198398 0.078370
0.384924 0.205386 0.140078
0.484749 0.210422 0.136263
0.578393 0.210178 0.114565
0.669398 0.215793 0.095399
0.770657 0.230289 0.077363
0.869322 0.238682 0.075959
0.279240 0.288243 0.222568
0.369268 0.316777 0.122286
0.464271 0.303685 0.113191
0.556725 0.327276 0.206668
0.647639 0.332006 0.211154
0.727230 0.322210 0.187930
0.815213 0.321752 0.166445
0.909270 0.327062 0.144442
0.351812 0.373083 0.278904
0.415961 0.408789 0.216403
0.524315 0.407782 0.028870
0.600977 0.402899 0.188571
0.679408 0.420813 0.260746
0.762905 0.428016 0.272190
0.848295 0.422644 0.253269
0.941466 0.423987 0.235935
0.430945 0.464118 0.346471
0.481209 0.507988 0.299443
0.565332 0.521416 0.214298
0.668605 0.507683 0.139193
0.740017 0.509697 0.263218
0.816342 0.530724 0.330480
0.898466 0.546044 0.355230
0.983856 0.542962 0.340948
0.523674 0.559716 0.440772
0.551232 0.595666 0.405524
0.618585 0.629267 0.342168
0.731258 0.639673 0.198978
0.817227 0.618921 0.235935
0.881041 0.626917 0.354376
0.944640 0.644831 0.420050
1.000000 0.658076 0.450843
0.638636 0.670497 0.565087
0.651698 0.701137 0.539605
0.699001 0.746395 0.491035
0.786404 0.773159 0.426703
0.901274 0.761868 0.232334
0.966888 0.747799 0.378119
1.000000 0.757565 0.490913
1.000000 0.766110 0.546471
0.058503 0.062318 0.123812
0.173709 0.062470 0.120974
0.289891 0.065888 0.106050
0.398413 0.079347 0.092988
0.500755 0.101442 0.085176
0.606409 0.124514 0.073945
0.705287 0.145724 0.058106
0.803769 0.148165 0.066499
0.137789 0.138064 0.174350
0.233402 0.145541 0.169558
0.328740 0.144747 0.155459
0.428107 0.144289 0.135256
0.527825 0.152865 0.118807
0.623468 0.164706 0.102205
0.715663 0.178744 0.082979
0.816129 0.192081 0.067720
0.218570 0.197147 0.223453
0.314458 0.217868 0.115297
0.385168 0.230411 0.199924
0.476753 0.231937 0.191928
0.567346 0.229068 0.171298
0.656062 0.231571 0.152102
0.749081 0.239261 0.132570
0.852140 0.252018 0.108980
0.285100 0.285252 0.259800
0.363165 0.322271 0.173037
0.457740 0.306737 0.151369
0.533837 0.328405 0.239933
0.617792 0.330816 0.239719
0.697810 0.323278 0.219455
0.786618 0.322911 0.199191
0.884489 0.328099 0.177707
0.358282 0.372778 0.307652
0.414954 0.413855 0.249790
0.522759 0.411444 0.050233
0.591516 0.403632 0.216495
0.662715 0.421942 0.284977
0.744350 0.429267 0.293706
0.831815 0.425788 0.275853
0.926207 0.426764 0.257969
0.432776 0.457465 0.368597
0.470924 0.498482 0.323796
0.553399 0.518212 0.244175
0.660090 0.506035 0.158267
0.730220 0.509819 0.282444
0.806607 0.534752 0.351232
0.887541 0.549401 0.372473
0.972900 0.545403 0.356359
0.521172 0.545586 0.456641
0.539147 0.579767 0.422919
0.602716 0.620569 0.360357
0.714443 0.634730 0.231724
0.806485 0.615686 0.246433
0.870207 0.624781 0.365362
0.932586 0.642512 0.429053
0.998718 0.654414 0.455787
0.637537 0.652338 0.579217
0.645045 0.685573 0.555871
0.683558 0.732967 0.510063
0.770809 0.768490 0.445563
0.897429 0.772457 0.282506
0.964935 0.753292 0.391913
1.000000 0.760159 0.500908
1.000000 0.769314 0.556695
0.076356 0.120180 0.210575
0.178042 0.109468 0.204562
0.297795 0.116701 0.190036
0.411109 0.117708 0.170596
0.519310 0.131868 0.156222
0.622034 0.151583 0.144381
0.721614 0.173373 0.132631
0.826871 0.192233 0.112428
0.159487 0.180697 0.240574
0.239506 0.183566 0.229801
0.332555 0.183658 0.221592
0.437476 0.184512 0.207187
0.538842 0.190097 0.191562
0.635340 0.201236 0.177798
0.730556 0.212894 0.161776
0.834195 0.222507 0.135653
0.206271 0.253910 0.269139
0.312352 0.261967 0.204959
0.387976 0.268559 0.265568
0.480842 0.267948 0.253391
0.575830 0.267857 0.237613
0.663813 0.268559 0.220493
0.756954 0.271031 0.200412
0.858549 0.275853 0.175326
0.318975 0.299718 0.314366
0.361669 0.348791 0.264012
0.470008 0.333532 0.209384
0.539208 0.361151 0.297307
0.621088 0.360967 0.291722
0.703304 0.354955 0.273777
0.794583 0.352850 0.254093
0.892760 0.353094 0.230686
0.382635 0.373663 0.358648
0.418189 0.427497 0.307744
0.527459 0.434730 0.148226
0.598230 0.424659 0.264530
0.666194 0.448249 0.333074
0.745327 0.453223 0.336309
0.832517 0.448371 0.318090
0.928161 0.446906 0.298619
0.451575 0.453071 0.412634
0.469795 0.495827 0.374121
0.546532 0.528801 0.300999
0.660365 0.517540 0.190249
0.726986 0.521172 0.317266
0.800015 0.548943 0.386481
0.882292 0.564233 0.404700
0.971527 0.562097 0.389776
0.541222 0.535119 0.497902
0.544549 0.573022 0.468330
0.595392 0.625696 0.409949
0.700465 0.644495 0.300847
0.804349 0.625879 0.272313
0.868162 0.636530 0.395178
0.932769 0.657984 0.460151
1.000000 0.671626 0.486122
0.652033 0.640620 0.605890
0.650111 0.663691 0.592096
0.669795 0.716152 0.550713
0.753567 0.770291 0.486519
0.880430 0.783108 0.354192
0.961181 0.762417 0.412543
1.000000 0.769741 0.523430
1.000000 0.779782 0.579644
0.095949 0.187778 0.296086
0.186007 0.183413 0.287877
0.312779 0.166171 0.273289
0.410529 0.177523 0.254124
0.518212 0.180758 0.237827
0.618585 0.189425 0.220981
0.715663 0.202731 0.206180
0.821256 0.216098 0.188663
0.178378 0.238743 0.316747
0.251377 0.239780 0.307683
0.345739 0.232181 0.291203
0.436133 0.232120 0.277531
0.539300 0.232944 0.262364
0.633021 0.236332 0.245609
0.727840 0.243046 0.229618
0.832181 0.249851 0.208621
0.223758 0.292943 0.334813
0.295628 0.294926 0.323095
0.382971 0.300084 0.316930
0.473426 0.300938 0.308598
0.571984 0.303624 0.297642
0.662806 0.305791 0.284276
0.761379 0.308782 0.268132
0.863127 0.304906 0.241428
0.276768 0.371923 0.359014
0.368078 0.348302 0.355077
0.467323 0.363073 0.270176
0.530266 0.391882 0.354314
0.610163 0.388678 0.342626
0.694820 0.384649 0.327886
0.788663 0.380621 0.308659
0.889891 0.375341 0.283543
0.402869 0.415717 0.391363
0.424079 0.415320 0.392950
0.510979 0.463935 0.288609
0.598962 0.450416 0.323522
0.663508 0.480720 0.391730
0.743648 0.482368 0.387152
0.832425 0.476570 0.368688
0.927855 0.469337 0.345220
0.483009 0.477638 0.451850
0.491493 0.486641 0.451179
0.537438 0.548028 0.388006
0.664637 0.544823 0.219760
0.730159 0.546868 0.368627
0.798276 0.575891 0.438087
0.879850 0.585412 0.446082
0.969635 0.581292 0.429236
0.553460 0.561822 0.515923
0.568688 0.551934 0.527276
0.578454 0.608423 0.486183
0.674220 0.658686 0.401556
0.802853 0.647333 0.305150
0.867277 0.655360 0.434668
0.930022 0.677516 0.500664
1.000000 0.689265 0.520653
0.649500 0.681331 0.611566
0.667750 0.672755 0.622034
0.675380 0.686488 0.618647
0.723079 0.763088 0.553918
0.846006 0.795163 0.453437
0.952972 0.776059 0.437629
1.000000 0.782589 0.552850
1.000000 0.794797 0.612177
0.132357 0.267552 0.383703
0.217868 0.271672 0.379248
0.299718 0.227451 0.355016
0.432898 0.239292 0.336675
0.513146 0.239261 0.312047
0.611383 0.240604 0.295293
0.710750 0.249393 0.281895
0.819455 0.259922 0.268070
0.209934 0.309941 0.397833
0.273442 0.311315 0.390723
0.341222 0.272251 0.366125
0.446815 0.283482 0.346166
0.526177 0.278538 0.326390
0.626764 0.282353 0.314122
0.724331 0.287205 0.300542
0.831296 0.292393 0.284794
0.262272 0.353552 0.409674
0.319402 0.352911 0.399268
0.384802 0.328405 0.376074
0.461769 0.334691 0.360113
0.555047 0.336553 0.351354
0.644282 0.336675 0.338933
0.741146 0.338201 0.325689
0.845609 0.336095 0.306340
0.305333 0.406104 0.421790
0.351965 0.404822 0.410925
0.436713 0.408453 0.381964
0.518090 0.416663 0.400458
0.596704 0.415991 0.392065
0.681453 0.413733 0.380163
0.775235 0.408576 0.363256
0.877501 0.396612 0.336980
0.344305 0.477638 0.442878
0.420203 0.464637 0.430365
0.475288 0.471199 0.419898
0.585077 0.473671 0.380011
0.644099 0.503349 0.442084
0.724941 0.498421 0.428748
0.816007 0.491218 0.410559
0.916197 0.479866 0.384588
0.452064 0.523430 0.466865
0.491218 0.512963 0.469337
0.515801 0.510216 0.472480
0.607172 0.562524 0.363989
0.704280 0.553643 0.405646
0.780636 0.593378 0.483436
0.867826 0.599329 0.483192
0.960235 0.591791 0.463386
0.529778 0.610498 0.532616
0.556146 0.600732 0.533501
0.589532 0.581872 0.546563
0.619989 0.644862 0.500114
0.780575 0.666651 0.303136
0.851926 0.666865 0.469093
0.916472 0.692958 0.541588
0.990417 0.698665 0.549920
0.596033 0.719600 0.617365
0.626093 0.713283 0.620386
0.664942 0.698146 0.628290
0.696223 0.707851 0.638880
0.785733 0.793301 0.553491
0.932891 0.790341 0.453681
0.991302 0.792569 0.580865
1.000000 0.806180 0.643030
0.207614 0.378912 0.496162
0.276005 0.381231 0.490974
0.340154 0.352239 0.464881
0.432105 0.279820 0.422492
0.550805 0.314336 0.403693
0.617182 0.306645 0.373114
0.703120 0.306432 0.354925
0.815061 0.317754 0.347204
0.258335 0.399268 0.493965
0.311070 0.398810 0.486488
0.371069 0.380285 0.465278
0.455207 0.315435 0.427588
0.552514 0.342565 0.406836
0.617029 0.332280 0.379583
0.712367 0.337072 0.368353
0.822751 0.345006 0.359747
0.314488 0.440345 0.506126
0.358312 0.438514 0.497566
0.424842 0.436500 0.481392
0.493355 0.374212 0.443366
0.561425 0.387518 0.419257
0.638087 0.383124 0.402930
0.733913 0.386908 0.393561
0.841978 0.389532 0.382544
0.358312 0.484016 0.517235
0.396521 0.480964 0.507530
0.454261 0.476661 0.491463
0.521050 0.458869 0.464210
0.590631 0.456336 0.452125
0.677913 0.457343 0.443854
0.770230 0.456458 0.432715
0.875059 0.451759 0.416938
0.391241 0.525261 0.521935
0.421057 0.521813 0.512505
0.457862 0.520775 0.501244
0.563775 0.516350 0.431189
0.629236 0.528496 0.491279
0.712886 0.527184 0.481971
0.803159 0.523461 0.469520
0.904570 0.513512 0.449256
0.379248 0.592035 0.549126
0.433326 0.586206 0.536706
0.512688 0.572473 0.520745
0.573571 0.572778 0.515679
0.694514 0.586847 0.469581
0.766476 0.623804 0.543786
0.855436 0.619257 0.530877
0.951446 0.606073 0.507103
0.470680 0.668574 0.592096
0.513268 0.664027 0.585962
0.576898 0.653742 0.580713
0.639826 0.632258 0.594507
0.710811 0.697505 0.522332
0.839078 0.692927 0.520409
0.907500 0.725643 0.606439
0.987884 0.724605 0.601892
0.539910 0.767666 0.670222
0.573022 0.762692 0.664851
0.626062 0.753719 0.659663
0.692287 0.739895 0.664668
0.729641 0.744320 0.669184
0.881315 0.819181 0.539605
0.975250 0.809659 0.620783
1.000000 0.826810 0.690791
0.294774 0.486336 0.602625
0.349523 0.490089 0.598627
0.425086 0.493599 0.587488
0.458198 0.419471 0.537133
0.567773 0.357153 0.498665
0.655299 0.393347 0.472480
0.716243 0.379034 0.438697
0.792599 0.370062 0.414954
0.331762 0.504540 0.603571
0.377508 0.506767 0.598779
0.443427 0.508141 0.587457
0.475288 0.443427 0.539544
0.579370 0.385901 0.503410
0.654414 0.413794 0.475410
0.714046 0.396643 0.442847
0.797513 0.391943 0.424353
0.373571 0.536797 0.614466
0.411017 0.536553 0.608118
0.467597 0.535058 0.595636
0.504234 0.487129 0.552483
0.592248 0.436774 0.512413
0.660670 0.448249 0.486397
0.720821 0.429450 0.456153
0.818357 0.434455 0.447395
0.409430 0.575647 0.628717
0.438911 0.573022 0.621393
0.488045 0.569238 0.608484
0.548974 0.555383 0.580835
0.607416 0.496651 0.529931
0.670802 0.492348 0.503929
0.751308 0.485237 0.486946
0.848722 0.487800 0.477852
0.439002 0.613519 0.637873
0.462715 0.610163 0.630640
0.500725 0.603876 0.618006
0.555474 0.593744 0.597223
0.614435 0.555566 0.550835
0.688716 0.548363 0.532311
0.784970 0.551598 0.525628
0.884855 0.553552 0.517449
0.464912 0.657649 0.650721
0.484749 0.654719 0.644190
0.516381 0.648585 0.631708
0.558770 0.638849 0.611414
0.637354 0.627039 0.586145
0.739406 0.644373 0.596368
0.832242 0.643488 0.587030
0.927855 0.637354 0.573083
0.466957 0.721035 0.682002
0.480262 0.720394 0.677699
0.500175 0.718441 0.668971
0.586481 0.706600 0.645380
0.690547 0.682521 0.644709
0.811093 0.719509 0.581598
0.884459 0.754849 0.672602
0.971496 0.741512 0.651240
0.464454 0.817105 0.757748
0.493263 0.814420 0.750942
0.557275 0.810910 0.740291
0.642847 0.802579 0.725307
0.741939 0.788235 0.721950
0.796384 0.813840 0.710323
0.950164 0.833463 0.667506
1.000000 0.856748 0.757198
0.430915 0.632532 0.748806
0.471229 0.636713 0.746151
0.529747 0.640742 0.738094
0.571252 0.609979 0.704982
0.591363 0.507073 0.632929
0.705715 0.469734 0.596216
0.787716 0.494545 0.570062
0.847654 0.473335 0.530388
0.449500 0.645106 0.750637
0.486152 0.648127 0.747402
0.541161 0.652003 0.740047
0.590173 0.632593 0.712856
0.601190 0.528923 0.639399
0.709560 0.490639 0.600977
0.788602 0.509514 0.574151
0.848203 0.486427 0.534661
0.470405 0.665858 0.757931
0.503593 0.667994 0.754269
0.554437 0.670344 0.746365
0.623835 0.674037 0.733059
0.618677 0.568292 0.654749
0.716152 0.523095 0.611200
0.792660 0.535302 0.584009
0.851255 0.508232 0.543175
0.485145 0.693874 0.771511
0.517144 0.696010 0.768338
0.565850 0.697871 0.760861
0.632959 0.700618 0.748013
0.648341 0.632685 0.686122
0.725399 0.568109 0.630488
0.797757 0.570092 0.599390
0.857877 0.539483 0.557427
0.520989 0.732998 0.787961
0.541466 0.732937 0.785275
0.574121 0.731655 0.779568
0.628656 0.730526 0.768643
0.703609 0.727138 0.744137
0.727657 0.615229 0.653956
0.800931 0.611902 0.619104
0.876280 0.592035 0.588251
0.557916 0.775570 0.805966
0.573968 0.774411 0.802457
0.600366 0.771878 0.795865
0.640528 0.767361 0.784512
0.693324 0.758419 0.765225
0.719539 0.684016 0.685817
0.805905 0.667689 0.649897
0.908598 0.673884 0.646021
0.592126 0.818479 0.824033
0.605066 0.817258 0.820523
0.626154 0.814511 0.813687
0.657740 0.808988 0.801511
0.697688 0.796780 0.779110
0.739925 0.771603 0.738796
0.843198 0.772671 0.731228
0.940856 0.774319 0.725856
0.620722 0.864317 0.847349
0.629816 0.864347 0.845457
0.644587 0.864286 0.841917
0.667201 0.864042 0.835966
0.694087 0.861326 0.824247
0.779721 0.849332 0.799039
0.886656 0.870909 0.783932
0.972229 0.894285 0.841947
