20 Preset/Dark Portrait/【3】LUT video cho PR-AE-FCPX/Tone  (14).cube
# Created by Adobe Lightroom plugin Export LUT (1.22.0)
# www.johnrellis.com/lightroom/exportlut.htm
# Preset: Candy_01
# Color profile: C:\Program Files (x86)\Common Files\Adobe\Color\Profiles\VideoHD.icc
LUT_3D_SIZE 5
DOMAIN_MIN 0.000000 0.000000 0.000000
DOMAIN_MAX 0.903226 0.903226 0.903226
0.049653 0.032136 0.033814
0.067933 0.031037 0.033906
0.175265 0.025269 0.032807
0.350103 0.015198 0.028412
0.565820 0.000458 0.022095
0.086458 0.072572 0.055665
0.174411 0.087373 0.054688
0.362463 0.117128 0.049866
0.561364 0.149691 0.027832
0.816953 0.191714 0.013642
0.194461 0.235050 0.141054
0.276616 0.237156 0.138338
0.518486 0.338109 0.169436
0.812070 0.474708 0.269718
0.984710 0.485725 0.260166
0.367681 0.508965 0.319127
0.446601 0.506218 0.333776
0.567987 0.528191 0.304601
0.825467 0.659480 0.433814
0.992248 0.815183 0.687953
0.608484 0.784787 0.593927
0.658961 0.783566 0.609949
0.712581 0.778286 0.591547
0.831296 0.793423 0.576623
0.980438 0.893980 0.782315
0.036652 0.054536 0.082155
0.129549 0.053559 0.077211
0.243351 0.043763 0.058961
0.443214 0.063081 0.056397
0.721187 0.128878 0.036011
0.068238 0.143160 0.140932
0.200565 0.135317 0.129305
0.361913 0.152255 0.131838
0.566735 0.183719 0.122591
0.821042 0.242313 0.097536
0.178317 0.305913 0.220218
0.304631 0.291051 0.225742
0.497078 0.355688 0.246921
0.752255 0.474678 0.336736
0.948150 0.510796 0.346593
0.346258 0.556481 0.374609
0.451789 0.550225 0.391272
0.572168 0.562402 0.381353
0.807095 0.675654 0.492866
0.975769 0.824918 0.716609
0.594324 0.798947 0.616388
0.650690 0.796658 0.630488
0.728908 0.800534 0.647028
0.832883 0.812406 0.626825
0.977234 0.904021 0.807248
0.000000 0.193545 0.297765
0.058167 0.150454 0.288243
0.359991 0.151888 0.242130
0.440558 0.076478 0.148165
0.677913 0.121126 0.148409
0.000000 0.296452 0.358312
0.145235 0.268650 0.342962
0.405158 0.252750 0.288518
0.525689 0.200687 0.219821
0.771176 0.252781 0.225406
0.092317 0.448829 0.418372
0.266697 0.432837 0.396979
0.488380 0.422705 0.377966
0.689815 0.483497 0.415747
0.889128 0.511437 0.415290
0.276951 0.622004 0.492592
0.383948 0.617853 0.483894
0.572717 0.610010 0.504936
0.776516 0.699092 0.573510
0.947295 0.818357 0.729488
0.505119 0.820157 0.647364
0.586206 0.818967 0.657130
0.715084 0.816526 0.688228
0.814115 0.825376 0.684901
0.965972 0.906920 0.823697
0.000000 0.443854 0.623804
0.000000 0.420722 0.620417
0.366247 0.331548 0.549279
0.615137 0.345556 0.466987
0.695888 0.239780 0.340215
0.000000 0.510369 0.640040
0.010681 0.489326 0.628260
0.393591 0.422644 0.578393
0.626764 0.416693 0.489265
0.700801 0.278874 0.346410
0.008515 0.615595 0.661097
0.212741 0.603326 0.648585
0.439612 0.574823 0.623041
0.648219 0.538659 0.538598
0.767208 0.425055 0.421393
0.345037 0.752895 0.708553
0.409094 0.744320 0.696529
0.537652 0.726741 0.670649
0.727504 0.718868 0.655787
0.897978 0.776272 0.711360
0.543084 0.872374 0.779171
0.568963 0.865934 0.768093
0.651301 0.858793 0.755825
0.809567 0.855711 0.778470
0.951202 0.916747 0.857694
0.273289 0.715114 0.872801
0.384131 0.717952 0.869200
0.549493 0.720607 0.859953
0.681880 0.649653 0.781155
0.831540 0.631006 0.715938
0.360357 0.751034 0.874357
0.440955 0.751858 0.870451
0.579553 0.753811 0.862669
0.696803 0.691218 0.794491
0.834043 0.666255 0.728206
0.464942 0.809751 0.882963
0.505913 0.806424 0.879942
0.616052 0.805325 0.871519
0.725246 0.765408 0.827543
0.845670 0.732845 0.759243
0.625940 0.885710 0.902495
0.647456 0.883665 0.900114
0.695888 0.878660 0.894591
0.784207 0.867338 0.880552
0.867674 0.818692 0.808438
0.748135 0.939239 0.921477
0.760891 0.938354 0.919799
0.791714 0.936736 0.916381
0.838102 0.929595 0.904906
0.921477 0.923400 0.895659
