20 Preset/Dark Portrait/【3】LUT video cho PR-AE-FCPX/Tone  (13).cube
# Created by Adobe Lightroom plugin Export LUT (1.22.0)
# www.johnrellis.com/lightroom/exportlut.htm
# Preset: Milestone_09
# Color profile: C:\Program Files (x86)\Common Files\Adobe\Color\Profiles\VideoHD.icc
LUT_3D_SIZE 5
DOMAIN_MIN 0.000000 0.000000 0.000000
DOMAIN_MAX 0.903226 0.903226 0.903226
0.007660 0.014466 0.012757
0.142763 0.018830 0.023713
0.464454 0.011566 0.056214
0.769863 0.128542 0.159579
0.989899 0.401892 0.378851
0.040467 0.132998 0.036957
0.397253 0.277409 0.042756
0.497505 0.132967 0.030121
0.798550 0.249241 0.140536
0.993591 0.458167 0.370214
0.161990 0.429053 0.152956
0.448829 0.573175 0.261357
0.858976 0.747890 0.468177
0.854765 0.472053 0.132906
0.990570 0.548302 0.339239
0.360449 0.690578 0.371923
0.541070 0.739773 0.468025
0.827939 0.854643 0.692042
0.947112 0.889769 0.769558
0.992370 0.790890 0.578546
0.649073 0.874998 0.666743
0.711421 0.876036 0.694453
0.839322 0.903899 0.784237
0.933684 0.935698 0.860777
0.968139 0.937926 0.873228
0.017975 0.022614 0.098543
0.183536 0.024506 0.080507
0.476417 0.069123 0.118837
0.750118 0.155550 0.140688
0.965606 0.370886 0.328099
0.051209 0.162539 0.150759
0.290745 0.179904 0.152224
0.531090 0.211765 0.154086
0.772305 0.269108 0.163516
0.971984 0.425605 0.322698
0.195438 0.438911 0.241398
0.441199 0.530266 0.341161
0.779995 0.660548 0.461158
0.799130 0.432471 0.188327
0.985718 0.542046 0.326116
0.377966 0.692531 0.429389
0.518456 0.709010 0.484993
0.824063 0.848753 0.724788
0.936980 0.882048 0.783688
0.991058 0.785946 0.575433
0.628840 0.874418 0.674556
0.699153 0.875425 0.702815
0.836698 0.903044 0.794614
0.934417 0.936797 0.871672
0.966949 0.939269 0.881651
0.057771 0.047608 0.392767
0.328435 0.091524 0.345098
0.570977 0.115236 0.343481
0.823758 0.259770 0.371435
0.952453 0.474800 0.473152
0.106294 0.221317 0.465766
0.410315 0.281346 0.422095
0.636194 0.338048 0.428748
0.795315 0.437171 0.450111
0.957153 0.524376 0.489235
0.145846 0.464210 0.442084
0.390417 0.493477 0.452705
0.633997 0.519463 0.470619
0.806912 0.544488 0.471809
0.966491 0.599878 0.497505
0.324804 0.673823 0.504051
0.488533 0.703639 0.545098
0.783444 0.815732 0.731716
0.913512 0.855985 0.783719
0.971618 0.718959 0.533806
0.531060 0.863828 0.678126
0.616999 0.870817 0.694575
0.772793 0.877714 0.759701
0.928313 0.933715 0.878141
0.964233 0.939574 0.892088
0.246464 0.175845 0.704982
0.471199 0.233371 0.686641
0.670771 0.365881 0.637385
0.858762 0.397559 0.636530
0.978912 0.539666 0.655329
0.308415 0.347784 0.727779
0.507286 0.388586 0.706722
0.687648 0.489326 0.662989
0.853269 0.519341 0.666682
0.957824 0.607294 0.677394
0.239719 0.538781 0.734218
0.460029 0.555535 0.731075
0.697169 0.622400 0.695033
0.833494 0.649561 0.698970
0.930449 0.711177 0.725551
0.235264 0.691310 0.682429
0.406561 0.702815 0.687892
0.652094 0.733028 0.708919
0.831022 0.757687 0.731930
0.941466 0.778927 0.739467
0.000000 0.840299 0.681239
0.315709 0.850340 0.703120
0.682216 0.871122 0.769650
0.899992 0.917754 0.869841
0.960235 0.938750 0.903655
0.492439 0.405371 0.877256
0.619806 0.450294 0.868498
0.781399 0.544182 0.848478
0.881163 0.611566 0.826627
0.969329 0.637140 0.812161
0.497139 0.498512 0.877134
0.618555 0.529442 0.868833
0.779080 0.602930 0.851408
0.873747 0.661402 0.829404
0.959045 0.684199 0.819547
0.386206 0.600641 0.883635
0.539849 0.619348 0.877012
0.752163 0.674861 0.860258
0.862364 0.736172 0.837064
0.947570 0.763668 0.839384
0.365545 0.758602 0.877012
0.484657 0.764736 0.878202
0.684932 0.787106 0.883848
0.873838 0.831601 0.872038
0.943999 0.856687 0.873960
0.251621 0.869535 0.860044
0.373327 0.869017 0.858885
0.577905 0.871550 0.859525
0.796933 0.881804 0.864775
0.935119 0.904143 0.885130
