20 Preset/Dark Portrait/【3】LUT video cho PR-AE-FCPX/Tone  (14).cube
# Created by Adobe Lightroom plugin Export LUT (1.22.0)
# www.johnrellis.com/lightroom/exportlut.htm
# Preset: Candy_01
# Color profile: C:\Program Files (x86)\Common Files\Adobe\Color\Profiles\VideoHD.icc
LUT_3D_SIZE 32
DOMAIN_MIN 0.0 0.0 0.0
DOMAIN_MAX 1.0 1.0 1.0
0.049653 0.032136 0.033814
0.049897 0.032105 0.033967
0.050721 0.032013 0.033967
0.051850 0.031891 0.033967
0.053681 0.031861 0.033936
0.056397 0.031708 0.033906
0.060883 0.031495 0.033997
0.067933 0.031037 0.033906
0.078676 0.030457 0.033936
0.091737 0.029755 0.033783
0.105318 0.029145 0.033722
0.120943 0.028260 0.033478
0.137331 0.027375 0.033326
0.155581 0.026429 0.033112
0.175265 0.025269 0.032807
0.196963 0.024475 0.032319
0.219303 0.022950 0.031861
0.243442 0.021515 0.031403
0.268864 0.020020 0.030610
0.295506 0.018524 0.029999
0.322362 0.016785 0.029297
0.350103 0.015198 0.028412
0.378485 0.013581 0.027649
0.407019 0.011627 0.026825
0.437232 0.009918 0.025849
0.466468 0.007752 0.025025
0.497444 0.005615 0.024079
0.529534 0.003357 0.023163
0.565820 0.000458 0.022095
0.611902 0.000000 0.020844
0.656550 0.000000 0.019501
0.702113 0.000000 0.017884
0.050050 0.032563 0.034211
0.051545 0.032715 0.034180
0.053468 0.032959 0.034089
0.056336 0.032959 0.034028
0.060212 0.032990 0.033967
0.065400 0.033051 0.033845
0.073793 0.032868 0.033875
0.084047 0.032715 0.033692
0.096010 0.032380 0.033661
0.109102 0.032105 0.033387
0.123781 0.031647 0.033265
0.139620 0.031128 0.033082
0.157534 0.030518 0.032807
0.176638 0.030060 0.032441
0.197177 0.029297 0.032136
0.219455 0.028443 0.031586
0.242985 0.027466 0.030915
0.267094 0.026490 0.030457
0.292363 0.025422 0.029694
0.318090 0.024140 0.028992
0.345281 0.023285 0.028229
0.372290 0.022309 0.027497
0.399634 0.020996 0.026703
0.428565 0.020020 0.025757
0.456580 0.018616 0.024964
0.486244 0.017273 0.024201
0.516350 0.015747 0.023285
0.547204 0.013733 0.022522
0.587121 0.011841 0.021332
0.630060 0.009430 0.019898
0.672297 0.006226 0.018494
0.715145 0.001953 0.017151
0.051179 0.033814 0.034821
0.053407 0.034058 0.034730
0.057404 0.034699 0.034730
0.063539 0.035279 0.034699
0.071168 0.035676 0.034333
0.079530 0.035676 0.034180
0.089784 0.035950 0.033936
0.101076 0.036133 0.033661
0.114168 0.036439 0.033326
0.128084 0.036347 0.033143
0.143435 0.036164 0.032929
0.160586 0.035950 0.032441
0.179141 0.035859 0.032197
0.198978 0.035370 0.031739
0.220706 0.034913 0.031281
0.243137 0.034516 0.030732
0.266758 0.034119 0.030060
0.291966 0.033570 0.029236
0.316960 0.032959 0.028656
0.343084 0.032380 0.027893
0.369757 0.031891 0.027161
0.396612 0.031586 0.026246
0.423194 0.030579 0.025666
0.451148 0.030152 0.024750
0.479286 0.029511 0.024079
0.508385 0.029175 0.023255
0.538018 0.028046 0.022400
0.570153 0.026642 0.021454
0.611139 0.025544 0.020203
0.652461 0.024537 0.018738
0.693874 0.022309 0.017273
0.736172 0.018891 0.015869
0.053254 0.036225 0.036042
0.056153 0.036530 0.036103
0.061250 0.037232 0.035737
0.070008 0.038605 0.035706
0.082155 0.039918 0.035615
0.094057 0.040406 0.035462
0.104372 0.040375 0.034913
0.116152 0.040375 0.034485
0.129732 0.040772 0.034089
0.144961 0.041077 0.033631
0.162020 0.041657 0.033051
0.181582 0.042451 0.032319
0.202335 0.043336 0.031647
0.223392 0.043427 0.030976
0.244633 0.043091 0.030457
0.267308 0.042939 0.029969
0.290532 0.042786 0.029175
0.315068 0.042847 0.028382
0.339391 0.042573 0.027680
0.364691 0.042512 0.026978
0.390082 0.042420 0.026307
0.417426 0.043153 0.025452
0.444251 0.043061 0.024781
0.472328 0.043091 0.024048
0.500725 0.043000 0.023316
0.530053 0.043030 0.022492
0.560510 0.042512 0.021485
0.596857 0.042664 0.020294
0.637476 0.043030 0.018830
0.676905 0.042145 0.017517
0.717006 0.040711 0.016083
0.755917 0.037232 0.014954
0.056367 0.040833 0.037873
0.061189 0.040925 0.038087
0.066651 0.041901 0.037690
0.074830 0.043030 0.037385
0.087831 0.044709 0.037690
0.102815 0.046448 0.038087
0.117708 0.047730 0.038209
0.130831 0.047730 0.037568
0.144747 0.047761 0.036683
0.160616 0.048096 0.036042
0.178408 0.048646 0.035065
0.198062 0.049470 0.034272
0.219577 0.050660 0.033143
0.243351 0.052308 0.032136
0.268650 0.054017 0.030762
0.294469 0.055940 0.029419
0.320195 0.057435 0.028168
0.344671 0.057771 0.027527
0.369482 0.058381 0.026734
0.393683 0.058656 0.026093
0.418982 0.059480 0.025360
0.445655 0.060670 0.024659
0.472511 0.061402 0.023926
0.499611 0.061769 0.023224
0.529107 0.063172 0.022065
0.557488 0.062715 0.021241
0.589014 0.063416 0.020142
0.627619 0.065187 0.018769
0.665064 0.065553 0.017456
0.704158 0.066438 0.015900
0.742123 0.065248 0.014832
0.779629 0.062562 0.013916
0.062531 0.048035 0.041688
0.068666 0.047974 0.042237
0.075013 0.048829 0.041657
0.082521 0.049439 0.041108
0.094301 0.051057 0.040650
0.109133 0.053529 0.041596
0.127718 0.056672 0.042908
0.146029 0.059266 0.043641
0.164157 0.060578 0.043244
0.180972 0.060822 0.041901
0.200076 0.061250 0.040528
0.220218 0.061799 0.039216
0.242679 0.063142 0.037659
0.266819 0.065003 0.036011
0.292088 0.066987 0.034363
0.318883 0.069795 0.032593
0.346197 0.072694 0.030793
0.374243 0.076387 0.028901
0.403662 0.081361 0.026795
0.430884 0.084779 0.025208
0.456153 0.086244 0.024384
0.481849 0.087495 0.023590
0.549004 0.102510 0.021057
0.576135 0.103609 0.020050
0.604028 0.104860 0.018799
0.631922 0.105318 0.018006
0.674586 0.110536 0.016236
0.717220 0.114534 0.014740
0.756802 0.116518 0.013825
0.794247 0.117678 0.013062
0.828641 0.116030 0.013092
0.861662 0.113100 0.013458
0.075074 0.060822 0.049378
0.083497 0.060182 0.050263
0.090272 0.061311 0.049500
0.097902 0.062135 0.048585
0.107668 0.062959 0.047456
0.124086 0.065858 0.046998
0.143801 0.070161 0.048737
0.167849 0.076173 0.050843
0.192935 0.081422 0.052522
0.220005 0.086397 0.052888
0.240604 0.086641 0.050416
0.262852 0.087495 0.048219
0.286046 0.088533 0.045869
0.310582 0.090242 0.043397
0.336065 0.092409 0.040894
0.362371 0.095491 0.038422
0.389502 0.098909 0.035859
0.416663 0.102449 0.033448
0.445502 0.107485 0.031037
0.475441 0.113252 0.028260
0.507408 0.120058 0.025391
0.542016 0.128267 0.022156
0.574090 0.133516 0.019898
0.604211 0.136202 0.018616
0.633600 0.138369 0.017456
0.671504 0.143130 0.015961
0.712764 0.148135 0.014527
0.750179 0.150790 0.013733
0.786160 0.153353 0.013031
0.818540 0.152529 0.013123
0.849821 0.150729 0.013855
0.880308 0.147890 0.014740
0.086458 0.072572 0.055665
0.094606 0.071382 0.057069
0.101137 0.072633 0.056123
0.108339 0.073762 0.055177
0.118227 0.074800 0.054170
0.130129 0.076112 0.052583
0.150881 0.080690 0.051881
0.174411 0.087373 0.054688
0.203037 0.095613 0.058045
0.232975 0.103273 0.060487
0.266575 0.111635 0.062593
0.290288 0.112886 0.059663
0.313481 0.113863 0.056397
0.337316 0.115145 0.053285
0.362463 0.117128 0.049866
0.387427 0.119081 0.046845
0.413397 0.121920 0.043641
0.440009 0.125704 0.040742
0.467414 0.129671 0.037781
0.496712 0.135348 0.034668
0.528038 0.141939 0.031312
0.561364 0.149691 0.027832
0.597009 0.158633 0.023743
0.634363 0.169131 0.019318
0.676478 0.179660 0.015717
0.715541 0.185275 0.014496
0.751614 0.188998 0.013794
0.784939 0.190616 0.013581
0.816953 0.191714 0.013642
0.846372 0.190311 0.014771
0.875151 0.187778 0.016297
0.903716 0.185183 0.018189
0.097261 0.087922 0.063172
0.106783 0.086549 0.064607
0.113436 0.087221 0.064363
0.120699 0.088533 0.063020
0.130068 0.089815 0.061677
0.141756 0.091096 0.060212
0.157473 0.093263 0.058015
0.182620 0.099641 0.057038
0.210727 0.108492 0.061952
0.243473 0.118990 0.066651
0.278019 0.129030 0.070619
0.315282 0.139864 0.073671
0.344945 0.144717 0.072175
0.368414 0.145235 0.067811
0.392248 0.146365 0.063508
0.416938 0.148165 0.059266
0.442573 0.150973 0.055238
0.467750 0.153445 0.051850
0.495796 0.158083 0.047822
0.524102 0.163027 0.044343
0.555138 0.169162 0.040497
0.589319 0.177584 0.036378
0.625208 0.186679 0.032288
0.671199 0.200992 0.027802
0.717556 0.215427 0.022797
0.761013 0.228672 0.017914
0.797910 0.236301 0.015351
0.827207 0.236728 0.015991
0.854337 0.235080 0.017731
0.880858 0.233066 0.019684
0.906615 0.230076 0.022370
0.931884 0.225986 0.025635
0.109743 0.105562 0.071687
0.119326 0.104097 0.073274
0.127138 0.104067 0.073548
0.134249 0.105348 0.072206
0.143435 0.106447 0.070527
0.154879 0.107820 0.068544
0.168856 0.109102 0.066316
0.189151 0.113130 0.063874
0.218326 0.121065 0.062257
0.249943 0.132235 0.069734
0.286564 0.145022 0.076844
0.324346 0.157870 0.082979
0.363775 0.170779 0.087434
0.400580 0.181033 0.089296
0.423987 0.181308 0.084138
0.448951 0.182925 0.078553
0.474586 0.185214 0.073640
0.500877 0.188113 0.068879
0.527611 0.191348 0.064027
0.556390 0.196445 0.059480
0.586816 0.202426 0.054871
0.624842 0.212619 0.051026
0.665187 0.224399 0.046693
0.705745 0.235904 0.042176
0.745296 0.246769 0.037995
0.783597 0.257420 0.033631
0.820554 0.267460 0.029419
0.856474 0.276951 0.024994
0.884947 0.278599 0.026001
0.909483 0.275212 0.029297
0.933867 0.271824 0.033600
0.957946 0.268040 0.038727
0.121157 0.123964 0.080873
0.131960 0.122560 0.082490
0.140505 0.121614 0.083680
0.147677 0.123049 0.082429
0.157046 0.124544 0.080537
0.168704 0.126284 0.078157
0.182834 0.128023 0.075624
0.199100 0.129641 0.072541
0.224399 0.136263 0.070222
0.258244 0.146181 0.069093
0.293462 0.159854 0.080262
0.332494 0.175204 0.089479
0.373053 0.190585 0.097658
0.414221 0.205997 0.105257
0.457496 0.222507 0.111696
0.482582 0.223453 0.105653
0.507897 0.225345 0.099886
0.533013 0.226810 0.094087
0.561730 0.231205 0.089082
0.593683 0.237430 0.084504
0.627771 0.245335 0.079896
0.664179 0.254765 0.075319
0.701198 0.264195 0.070893
0.738460 0.274174 0.066682
0.775082 0.283665 0.062501
0.809812 0.292027 0.058503
0.843626 0.300114 0.054902
0.877012 0.308049 0.051606
0.909361 0.315190 0.049256
0.941222 0.322332 0.048035
0.963409 0.317998 0.054200
0.985382 0.313451 0.061463
0.134646 0.146029 0.091493
0.146242 0.144472 0.093416
0.155886 0.143191 0.095277
0.163516 0.144167 0.094301
0.172915 0.145724 0.092439
0.184360 0.147616 0.090394
0.198703 0.149569 0.087587
0.215396 0.151858 0.084840
0.233677 0.153445 0.080018
0.265782 0.163516 0.078492
0.302434 0.175784 0.078889
0.340612 0.192264 0.094026
0.408484 0.230198 0.116213
0.453468 0.250340 0.129061
0.498360 0.269993 0.139254
0.551110 0.294926 0.151949
0.587427 0.304540 0.152102
0.618036 0.309026 0.147127
0.648768 0.313542 0.142153
0.680781 0.318822 0.137575
0.713252 0.324224 0.133608
0.746639 0.331182 0.129793
0.778592 0.336950 0.126680
0.811063 0.343694 0.123598
0.842039 0.349401 0.120638
0.871611 0.354437 0.117983
0.900725 0.359564 0.115053
0.928191 0.363622 0.112856
0.955505 0.368017 0.111238
0.982574 0.372686 0.110689
1.000000 0.377447 0.111727
1.000000 0.375647 0.117891
0.155673 0.178439 0.108064
0.168032 0.176822 0.110323
0.178683 0.175021 0.112215
0.187320 0.174563 0.112459
0.196292 0.175814 0.109987
0.207645 0.177340 0.107485
0.221683 0.179110 0.104494
0.238285 0.181216 0.100984
0.257389 0.183719 0.097475
0.279240 0.186679 0.092714
0.317754 0.201144 0.092744
0.362585 0.220096 0.098116
0.409430 0.244724 0.119020
0.459846 0.271702 0.137819
0.512810 0.299474 0.155581
0.562402 0.324468 0.170748
0.613092 0.349462 0.185489
0.654841 0.364721 0.191318
0.682033 0.365728 0.185275
0.710689 0.368383 0.180026
0.739651 0.371435 0.175509
0.769497 0.375708 0.171939
0.799100 0.379583 0.168124
0.827756 0.383276 0.165255
0.856504 0.387366 0.162509
0.884062 0.390814 0.160037
0.911406 0.394751 0.157809
0.938018 0.398199 0.156435
0.964172 0.401831 0.155764
0.990295 0.405982 0.156497
1.000000 0.410498 0.158267
1.000000 0.415534 0.161807
0.171542 0.202884 0.121645
0.184176 0.201144 0.123781
0.195193 0.199313 0.125673
0.204318 0.197635 0.127413
0.213657 0.199161 0.125185
0.225132 0.201297 0.122835
0.239078 0.204013 0.120333
0.255711 0.207034 0.117891
0.274907 0.210575 0.114656
0.297185 0.214481 0.111208
0.325231 0.222019 0.108370
0.368444 0.240696 0.110445
0.416144 0.262852 0.118593
0.463325 0.289586 0.142885
0.514580 0.318578 0.163729
0.566033 0.346929 0.183322
0.614435 0.372076 0.200412
0.663935 0.397131 0.216953
0.710323 0.419196 0.231846
0.736538 0.419562 0.226352
0.763699 0.421057 0.221714
0.790921 0.422797 0.217868
0.818509 0.425452 0.214603
0.845579 0.427710 0.211948
0.872709 0.430640 0.209384
0.898955 0.433387 0.207706
0.924254 0.435523 0.205905
0.949279 0.437629 0.204593
0.974151 0.440742 0.204593
0.998840 0.444007 0.206027
1.000000 0.448310 0.208835
1.000000 0.453468 0.213504
0.194461 0.235050 0.141054
0.207523 0.234012 0.143496
0.218662 0.232578 0.145815
0.228611 0.230991 0.147799
0.237797 0.231083 0.146883
0.248386 0.232456 0.144106
0.261082 0.234562 0.141299
0.276616 0.237156 0.138338
0.295018 0.240330 0.135073
0.315953 0.244572 0.131594
0.339513 0.248814 0.127260
0.373114 0.261265 0.126528
0.420417 0.283635 0.130434
0.469734 0.308965 0.142672
0.518486 0.338109 0.169436
0.568444 0.367468 0.193271
0.619318 0.396429 0.214511
0.666011 0.421363 0.233646
0.712612 0.446052 0.252842
0.758236 0.470375 0.273991
0.786587 0.473976 0.273716
0.812070 0.474708 0.269718
0.837125 0.474800 0.265843
0.862425 0.476173 0.263249
0.887022 0.476905 0.261051
0.911620 0.478096 0.259098
0.936126 0.480140 0.258457
0.960174 0.482246 0.258671
0.984710 0.485725 0.260166
1.000000 0.489418 0.263279
1.000000 0.494362 0.268772
1.000000 0.500847 0.276371
0.218112 0.269078 0.161959
0.231205 0.268132 0.164523
0.242496 0.266941 0.166751
0.252903 0.265660 0.169284
0.262974 0.264744 0.170443
0.273289 0.266545 0.167941
0.285771 0.268986 0.165011
0.300725 0.271885 0.162020
0.318486 0.275456 0.158938
0.338689 0.279698 0.155825
0.361089 0.284123 0.152285
0.384405 0.287480 0.146639
0.422889 0.304234 0.147951
0.470375 0.327489 0.151949
0.518547 0.353063 0.166812
0.565881 0.381903 0.195834
0.614130 0.410803 0.219669
0.663661 0.439918 0.243717
0.709041 0.465461 0.266361
0.753933 0.490761 0.289769
0.797543 0.515953 0.315160
0.830198 0.527672 0.325994
0.854429 0.528099 0.323308
0.878080 0.528099 0.321019
0.901427 0.528283 0.319219
0.924926 0.529076 0.318212
0.948089 0.530907 0.318425
0.970672 0.532280 0.319127
0.993225 0.534997 0.321355
1.000000 0.538048 0.325078
1.000000 0.542779 0.330602
1.000000 0.548363 0.337957
0.239597 0.301457 0.182071
0.252506 0.300298 0.184451
0.263645 0.299168 0.186862
0.274113 0.297551 0.188876
0.284611 0.296147 0.191562
0.294499 0.297551 0.189853
0.306523 0.299901 0.186862
0.320195 0.302800 0.184298
0.336980 0.306157 0.180758
0.355749 0.310185 0.177554
0.376837 0.314427 0.174197
0.400031 0.319097 0.169711
0.423041 0.321691 0.163638
0.466865 0.343847 0.167819
0.515862 0.368719 0.173190
0.563653 0.395483 0.192447
0.610376 0.424811 0.221561
0.658656 0.454444 0.249058
0.704891 0.482521 0.275792
0.749081 0.508934 0.302373
0.791226 0.534417 0.329808
0.831449 0.559747 0.358465
0.866545 0.579187 0.381231
0.889220 0.579583 0.379980
0.911101 0.579156 0.378729
0.933410 0.580102 0.378729
0.954955 0.581170 0.379522
0.976593 0.583124 0.381415
0.997620 0.585870 0.384802
1.000000 0.589227 0.389502
1.000000 0.594232 0.396277
1.000000 0.600183 0.404639
0.263523 0.337499 0.205081
0.275822 0.336919 0.207492
0.305577 0.361913 0.227451
0.316106 0.360601 0.229618
0.327794 0.358892 0.232212
0.338628 0.358770 0.232486
0.349310 0.360754 0.229496
0.363012 0.363104 0.226017
0.378546 0.366217 0.222324
0.396551 0.369940 0.218784
0.417151 0.373877 0.214633
0.439612 0.377996 0.210178
0.463142 0.381598 0.204410
0.489387 0.386023 0.198215
0.536889 0.411780 0.205051
0.586786 0.437415 0.212985
0.634058 0.464759 0.236606
0.678218 0.492866 0.269993
0.721096 0.519554 0.300816
0.762203 0.545190 0.331090
0.800870 0.569574 0.360693
0.838010 0.593957 0.391730
0.872465 0.617731 0.422614
0.904173 0.641444 0.455207
0.924407 0.641901 0.455726
0.943633 0.640620 0.453834
0.962493 0.639734 0.453010
0.981415 0.640162 0.453834
1.000000 0.642267 0.456916
1.000000 0.645869 0.462318
1.000000 0.651057 0.469825
1.000000 0.656977 0.478676
0.293736 0.385626 0.236057
0.306981 0.386633 0.239689
0.319707 0.387640 0.243381
0.331304 0.388128 0.246677
0.343450 0.387945 0.250156
0.355749 0.386999 0.253269
0.366003 0.388922 0.250340
0.377996 0.391089 0.246860
0.392737 0.393957 0.243503
0.409155 0.397375 0.239628
0.428412 0.401129 0.235813
0.449409 0.405249 0.231510
0.472023 0.409186 0.226474
0.495277 0.411749 0.219944
0.525628 0.420691 0.216678
0.573571 0.446998 0.225193
0.624475 0.473701 0.234257
0.670344 0.501091 0.262760
0.713313 0.529198 0.299168
0.753841 0.555901 0.333318
0.792691 0.581537 0.366796
0.829313 0.606714 0.399817
0.863890 0.631830 0.434333
0.895232 0.656123 0.468544
0.923827 0.679194 0.501366
0.945068 0.687282 0.513298
0.962707 0.686793 0.513054
0.980346 0.687343 0.514183
0.997711 0.689265 0.517357
1.000000 0.692195 0.522179
1.000000 0.696864 0.529290
1.000000 0.702480 0.537926
0.312718 0.417609 0.256474
0.325383 0.418738 0.260136
0.337469 0.419806 0.263798
0.349218 0.420508 0.267216
0.361303 0.420874 0.270817
0.374182 0.420142 0.274357
0.385107 0.421241 0.273777
0.396674 0.423713 0.270939
0.410193 0.426490 0.267582
0.426001 0.429816 0.263920
0.443702 0.433387 0.259983
0.463416 0.437171 0.256077
0.484901 0.440833 0.251133
0.507836 0.444404 0.245884
0.530510 0.445930 0.238407
0.566735 0.460822 0.239475
0.616205 0.488411 0.250034
0.665034 0.513787 0.261601
0.708675 0.540734 0.294652
0.748959 0.568109 0.334142
0.786954 0.594263 0.371099
0.822446 0.619196 0.406409
0.856107 0.644434 0.443336
0.887205 0.669093 0.479011
0.915465 0.692439 0.513420
0.941039 0.714687 0.546563
0.961913 0.728878 0.568048
0.978119 0.729427 0.569360
0.994202 0.731228 0.572564
1.000000 0.734646 0.578058
1.000000 0.739315 0.585504
1.000000 0.745022 0.594415
0.333959 0.454444 0.280858
0.347143 0.455940 0.284733
0.359564 0.457771 0.288762
0.371130 0.459052 0.292485
0.383154 0.459663 0.296330
0.395697 0.459083 0.299840
0.407874 0.458534 0.301915
0.418311 0.460578 0.298802
0.430793 0.462898 0.295201
0.445045 0.465522 0.291539
0.461524 0.468635 0.287449
0.479988 0.471931 0.283055
0.499977 0.475074 0.278508
0.521843 0.478676 0.273198
0.545129 0.482063 0.267704
0.567895 0.482979 0.259464
0.610712 0.504906 0.266331
0.660670 0.533288 0.281102
0.709743 0.559503 0.298131
0.752255 0.588159 0.339879
0.790829 0.616541 0.384070
0.826658 0.644099 0.426978
0.858732 0.669947 0.467689
0.888731 0.695003 0.506462
0.916564 0.719600 0.544457
0.941192 0.742458 0.579767
0.962951 0.763912 0.612848
0.981964 0.784054 0.644282
0.995972 0.786435 0.648554
1.000000 0.789914 0.654322
1.000000 0.794247 0.661646
1.000000 0.799100 0.669825
0.367681 0.508965 0.319127
0.379156 0.509270 0.321996
0.389960 0.509361 0.324834
0.400305 0.508843 0.327306
0.411139 0.507927 0.329992
0.423163 0.506645 0.332708
0.435798 0.505089 0.335882
0.446601 0.506218 0.333776
0.458076 0.508598 0.330877
0.471931 0.511559 0.327276
0.487739 0.514916 0.323827
0.505425 0.518517 0.320043
0.524712 0.521874 0.315557
0.545495 0.525078 0.310521
0.567987 0.528191 0.304601
0.591882 0.530968 0.298100
0.614069 0.530236 0.289555
0.661067 0.556817 0.304356
0.708278 0.582940 0.322545
0.754238 0.606958 0.342931
0.791867 0.633509 0.388434
0.825467 0.659480 0.433814
0.855955 0.684291 0.476631
0.883757 0.707118 0.515129
0.909453 0.729213 0.551354
0.934081 0.752163 0.587976
0.955993 0.773983 0.622583
0.975372 0.794949 0.655695
0.992248 0.815183 0.687953
1.000000 0.822660 0.700313
1.000000 0.826627 0.707210
1.000000 0.831144 0.715084
0.390784 0.547631 0.347082
0.402350 0.547784 0.349859
0.412238 0.547997 0.352758
0.422370 0.547662 0.355108
0.433417 0.546868 0.357794
0.445075 0.545830 0.360571
0.457740 0.544366 0.363745
0.469642 0.544396 0.365118
0.480507 0.546654 0.362036
0.493385 0.549462 0.358740
0.508049 0.552636 0.355474
0.524712 0.555871 0.352056
0.542748 0.559197 0.347845
0.562676 0.562310 0.343053
0.584131 0.565454 0.337835
0.607172 0.568505 0.332494
0.630854 0.570459 0.325994
0.655818 0.573205 0.321294
0.703670 0.601160 0.341955
0.749142 0.626307 0.364660
0.792416 0.649073 0.388525
0.826108 0.675349 0.439368
0.856229 0.700435 0.486519
0.883635 0.723751 0.528313
0.906065 0.741634 0.560937
0.928466 0.762051 0.595941
0.950347 0.784054 0.631922
0.969787 0.805203 0.666468
0.986572 0.825223 0.699153
1.000000 0.844327 0.730465
1.000000 0.855833 0.749691
1.000000 0.860502 0.757839
0.426459 0.598901 0.388983
0.437812 0.599420 0.392279
0.447517 0.599420 0.394812
0.456062 0.598779 0.396826
0.466194 0.597040 0.398413
0.476265 0.595117 0.400183
0.487739 0.592676 0.402380
0.499855 0.590356 0.404852
0.509087 0.590814 0.401282
0.519768 0.591882 0.396765
0.532036 0.593072 0.392309
0.546166 0.594842 0.388128
0.562310 0.596551 0.382818
0.579644 0.598322 0.377691
0.598688 0.599878 0.371710
0.619440 0.601648 0.365423
0.641993 0.603754 0.359289
0.664271 0.603906 0.352148
0.693599 0.611872 0.353918
0.739895 0.638880 0.378668
0.783810 0.663386 0.405219
0.823850 0.685298 0.433234
0.853544 0.710414 0.485969
0.880186 0.733089 0.530114
0.903960 0.753811 0.569390
0.925017 0.772549 0.603754
0.944244 0.790524 0.635737
0.963561 0.811063 0.670253
0.980407 0.830808 0.703456
0.994812 0.849577 0.734829
1.000000 0.867399 0.764920
1.000000 0.882292 0.790433
0.449592 0.630213 0.416602
0.460395 0.631006 0.420111
0.469581 0.631464 0.423011
0.478798 0.631159 0.425513
0.488716 0.630457 0.427893
0.499245 0.629480 0.430457
0.510948 0.628473 0.433631
0.523705 0.627466 0.437263
0.534874 0.627893 0.438117
0.545312 0.629816 0.435004
0.557122 0.631922 0.431769
0.570672 0.634211 0.428138
0.585565 0.636439 0.423926
0.602045 0.638575 0.419654
0.619806 0.640375 0.414466
0.639307 0.642176 0.408637
0.660365 0.644007 0.403052
0.683131 0.646174 0.396887
0.704372 0.645167 0.389776
0.737667 0.658076 0.400092
0.780575 0.683040 0.428656
0.820523 0.705501 0.458320
0.856077 0.725856 0.490089
0.882383 0.748928 0.540002
0.905791 0.770047 0.583032
0.926482 0.789242 0.620386
0.944793 0.806760 0.653285
0.960815 0.822873 0.682918
0.977478 0.842496 0.717128
0.991455 0.860868 0.748806
1.000000 0.878172 0.779019
1.000000 0.894072 0.806912
0.483864 0.668971 0.455756
0.493111 0.669306 0.458778
0.501884 0.669276 0.461067
0.510063 0.668818 0.463203
0.518425 0.668147 0.465400
0.528527 0.667079 0.467842
0.539330 0.665888 0.470314
0.550805 0.664820 0.473732
0.563043 0.663966 0.477119
0.572168 0.665553 0.474525
0.582605 0.667353 0.471199
0.594629 0.669551 0.468208
0.608118 0.671595 0.464515
0.622766 0.673579 0.460487
0.638880 0.675227 0.455360
0.656367 0.676753 0.450050
0.675441 0.678309 0.444526
0.696376 0.680140 0.438758
0.719142 0.682246 0.433356
0.739284 0.680598 0.426673
0.775753 0.698543 0.447181
0.816007 0.722164 0.479316
0.852476 0.743008 0.510430
0.884398 0.762631 0.544823
0.907469 0.784024 0.592370
0.927886 0.803525 0.633143
0.945647 0.821042 0.668208
0.961059 0.836759 0.698817
0.974304 0.850736 0.725429
0.987884 0.868254 0.756832
0.999054 0.885039 0.786923
1.000000 0.900420 0.814572
0.517845 0.704219 0.494301
0.525902 0.704097 0.496651
0.533623 0.704067 0.498726
0.541009 0.703792 0.500816
0.549706 0.703609 0.503532
0.559594 0.703670 0.506645
0.571130 0.704402 0.511315
0.584100 0.705440 0.516747
0.598138 0.707027 0.523339
0.610437 0.710170 0.526482
0.621942 0.714382 0.527123
0.634913 0.718593 0.527306
0.648646 0.722499 0.527062
0.663020 0.725948 0.525689
0.678431 0.728725 0.523186
0.694270 0.730678 0.519432
0.711299 0.732326 0.515099
0.729885 0.734096 0.510460
0.750362 0.736202 0.506371
0.771450 0.737575 0.502129
0.790402 0.735927 0.496742
0.827512 0.756954 0.527062
0.863005 0.777829 0.560754
0.894408 0.796262 0.592523
0.920043 0.813474 0.626825
0.938354 0.831540 0.668544
0.954192 0.847654 0.703609
0.967712 0.862089 0.733944
0.979217 0.874937 0.760159
0.988769 0.886320 0.782986
0.998077 0.900572 0.809964
1.000000 0.914580 0.836301
0.571344 0.752865 0.553063
0.578180 0.752865 0.555169
0.584863 0.752499 0.556970
0.590875 0.752071 0.558495
0.597864 0.751400 0.560082
0.606073 0.750759 0.562249
0.615290 0.750271 0.565118
0.625574 0.749935 0.568505
0.636774 0.749905 0.572686
0.647974 0.750301 0.576806
0.656489 0.752377 0.575280
0.666224 0.754574 0.573571
0.677058 0.756710 0.571740
0.688624 0.758663 0.569299
0.701350 0.760433 0.566430
