20 Preset/Dark Portrait/【3】LUT video cho PR-AE-FCPX/Tone  (4).cube
# Created by Adobe Lightroom plugin Export LUT (1.22.0)
# www.johnrellis.com/lightroom/exportlut.htm
# Preset: Horizon_01
# Color profile: C:\Program Files (x86)\Common Files\Adobe\Color\Profiles\VideoHD.icc
LUT_3D_SIZE 8
DOMAIN_MIN 0.000000 0.000000 0.000000
DOMAIN_MAX 0.903226 0.903226 0.903226
0.054688 0.033722 0.035554
0.198978 0.033753 0.033692
0.361791 0.038209 0.026642
0.512535 0.058320 0.019409
0.644404 0.096986 0.013672
0.780301 0.145296 0.008301
0.930724 0.198856 0.006531
1.000000 0.245426 0.015106
0.067750 0.082765 0.045472
0.208682 0.107118 0.043702
0.407691 0.141878 0.038148
0.549401 0.159365 0.033143
0.672480 0.182345 0.028870
0.797726 0.215427 0.028168
0.923369 0.251438 0.031464
1.000000 0.288334 0.042847
0.103731 0.192782 0.078553
0.228397 0.210056 0.072023
0.400366 0.248447 0.075532
0.619043 0.319524 0.098146
0.748867 0.331548 0.100374
0.863401 0.344518 0.104952
0.984955 0.367468 0.120272
1.000000 0.387091 0.137270
0.157382 0.325383 0.139223
0.261143 0.343023 0.129397
0.396857 0.359838 0.131746
0.595331 0.433997 0.163973
0.806821 0.514153 0.230472
0.939696 0.530694 0.264714
1.000000 0.514244 0.256626
1.000000 0.508629 0.256626
0.211154 0.453895 0.208927
0.293278 0.473396 0.205509
0.414160 0.498421 0.206760
0.562066 0.528801 0.221469
0.738216 0.583001 0.264958
0.905791 0.630396 0.332525
1.000000 0.661433 0.402838
1.000000 0.641962 0.394171
0.270024 0.601648 0.299321
0.338964 0.622583 0.302892
0.436622 0.643061 0.297856
0.569055 0.660639 0.308293
0.714351 0.681819 0.323186
0.876036 0.720119 0.386847
1.000000 0.749203 0.464759
1.000000 0.768032 0.532494
0.334752 0.747585 0.401251
0.388464 0.758663 0.401892
0.469001 0.771572 0.398077
0.585077 0.786160 0.401862
0.718074 0.796872 0.414496
0.862028 0.811154 0.434852
0.987121 0.823636 0.504936
1.000000 0.831266 0.572930
0.431037 0.885283 0.522728
0.471656 0.890410 0.522087
0.537652 0.899107 0.521843
0.635004 0.912047 0.524102
0.740352 0.905180 0.517113
0.874754 0.914397 0.541466
1.000000 0.917479 0.576501
1.000000 0.905699 0.643214
0.115297 0.075502 0.084016
0.178805 0.069337 0.125154
0.290684 0.059968 0.102174
0.427436 0.076600 0.101808
0.567041 0.114656 0.108125
0.706905 0.158419 0.112367
0.845243 0.203342 0.114199
0.992096 0.249119 0.119387
0.123659 0.117617 0.119753
0.202640 0.151980 0.149050
0.342535 0.162844 0.149172
0.482551 0.178012 0.147036
0.613153 0.200198 0.143832
0.737057 0.229068 0.142947
0.859007 0.259281 0.141146
0.994324 0.294987 0.144564
0.145876 0.212833 0.169680
0.231235 0.244053 0.181827
0.370459 0.267460 0.185550
0.565332 0.331914 0.223423
0.685878 0.338537 0.215549
0.795499 0.348669 0.209262
0.910674 0.365576 0.206851
1.000000 0.388983 0.212009
0.189609 0.328954 0.221378
0.262425 0.350835 0.223423
0.381659 0.376593 0.223728
0.546929 0.424201 0.249241
0.735073 0.496834 0.305852
0.862303 0.514397 0.322789
0.957244 0.504753 0.308904
1.000000 0.505241 0.303929
0.241642 0.463416 0.286320
0.303380 0.480171 0.286503
0.401282 0.504356 0.281804
0.536065 0.525994 0.292821
0.694331 0.570062 0.326116
0.862089 0.627924 0.391852
0.995056 0.665431 0.451850
1.000000 0.647486 0.436378
0.288945 0.593805 0.354864
0.341863 0.607446 0.355230
0.425727 0.628504 0.353735
0.548363 0.652003 0.361212
0.688350 0.675502 0.377996
0.849485 0.719844 0.437507
0.984680 0.755581 0.511803
1.000000 0.777890 0.572564
0.341466 0.731075 0.436805
0.384466 0.738125 0.433845
0.455787 0.751217 0.430793
0.564111 0.771481 0.433021
0.696529 0.787137 0.449165
0.837247 0.803342 0.468818
0.964202 0.819089 0.530541
1.000000 0.830014 0.592309
0.429450 0.873442 0.546777
0.469093 0.880217 0.548455
0.530968 0.889311 0.548608
0.624475 0.903929 0.552300
0.742611 0.912444 0.564965
0.868315 0.917571 0.580896
0.991669 0.919402 0.606043
1.000000 0.910002 0.668788
0.227481 0.178408 0.193271
0.274815 0.211521 0.224186
0.342077 0.169192 0.266728
0.456611 0.156954 0.233524
0.496620 0.114504 0.168734
0.648646 0.160678 0.183566
0.802579 0.216953 0.201266
0.968505 0.275181 0.221073
0.242222 0.214054 0.226963
0.295659 0.238346 0.245151
0.350195 0.240543 0.281102
0.427771 0.197330 0.225528
0.553765 0.213260 0.222446
0.684016 0.246647 0.229587
0.820768 0.285130 0.237766
0.974212 0.325048 0.246311
0.232670 0.262333 0.258122
0.285374 0.280583 0.274022
0.369512 0.326604 0.308568
0.517052 0.357488 0.322057
0.636988 0.364935 0.314214
0.748775 0.375616 0.307073
0.870909 0.392432 0.302556
1.000000 0.416236 0.304814
0.230900 0.354528 0.302098
0.298711 0.383337 0.323674
0.392493 0.430091 0.348974
0.532280 0.466896 0.362737
0.712337 0.544152 0.427710
0.824918 0.547967 0.424598
0.927489 0.541070 0.408148
1.000000 0.542107 0.398871
0.282261 0.483650 0.369970
0.335241 0.501915 0.380377
0.413581 0.532311 0.391852
0.531029 0.563317 0.399451
0.676997 0.600427 0.428016
0.841489 0.663355 0.494331
0.965820 0.693721 0.534752
1.000000 0.677546 0.514916
0.314611 0.601770 0.425483
0.365667 0.616175 0.434272
0.436286 0.638270 0.441474
0.537774 0.666285 0.443458
0.669551 0.687984 0.458900
0.823392 0.730434 0.508812
0.962860 0.777066 0.586572
1.000000 0.808011 0.648859
0.356207 0.739162 0.499580
0.405798 0.747372 0.505852
0.469093 0.759579 0.507317
0.561242 0.779507 0.507195
0.685389 0.796201 0.518486
0.822324 0.813962 0.539635
0.952422 0.836515 0.599847
1.000000 0.854826 0.663996
0.429236 0.872007 0.589471
0.480354 0.876188 0.598688
0.535790 0.885832 0.600427
0.624414 0.903197 0.608698
0.734463 0.915343 0.616510
0.858732 0.922789 0.635370
0.981384 0.927886 0.657893
1.000000 0.921080 0.715724
0.355047 0.313451 0.325811
0.401160 0.346471 0.345922
0.404089 0.352117 0.384100
0.488350 0.297063 0.414099
0.612787 0.299748 0.392340
0.593530 0.182437 0.260960
0.688502 0.168093 0.227726
0.882231 0.241062 0.262669
0.372168 0.349004 0.359472
0.408209 0.369238 0.372198
0.450843 0.401831 0.393713
0.496895 0.357641 0.431250
0.588434 0.325261 0.381567
0.574914 0.208408 0.255253
0.727108 0.250736 0.272709
0.903532 0.306493 0.297246
0.360510 0.371923 0.377264
0.398566 0.389593 0.390753
0.451789 0.419745 0.413642
0.500603 0.427253 0.447211
0.553185 0.351446 0.362737
0.664912 0.359228 0.353491
0.804654 0.387793 0.360571
0.960113 0.419379 0.369207
0.348211 0.432441 0.415503
0.383612 0.443610 0.424598
0.433631 0.464057 0.440955
0.515801 0.513939 0.477455
0.653193 0.556023 0.503197
0.751308 0.542199 0.479133
0.864866 0.539727 0.463355
0.993805 0.548150 0.457557
0.333898 0.515618 0.453803
0.369390 0.524407 0.459571
0.434546 0.548943 0.478157
0.528954 0.599756 0.510857
0.653346 0.633509 0.526421
0.817838 0.703090 0.595666
0.929137 0.714351 0.605524
1.000000 0.697536 0.580438
0.346044 0.620996 0.503288
0.392096 0.637781 0.516716
0.454963 0.657557 0.529992
0.545006 0.692866 0.550195
0.661646 0.722805 0.561303
0.802457 0.754604 0.595819
0.943389 0.807065 0.671870
1.000000 0.835355 0.719326
0.352270 0.742763 0.559533
0.402136 0.752255 0.568109
0.476387 0.768124 0.582422
0.569726 0.792691 0.599329
0.678157 0.816892 0.606134
0.808530 0.832822 0.625269
0.936126 0.854795 0.672175
1.000000 0.878447 0.734005
0.402289 0.879637 0.639643
0.459052 0.884337 0.649165
0.539971 0.891630 0.664393
0.628901 0.905364 0.678553
0.724819 0.920714 0.681971
0.844358 0.929564 0.697169
0.965423 0.937041 0.717952
1.000000 0.934813 0.771115
0.471962 0.460090 0.463844
0.504204 0.484718 0.478920
0.547662 0.523278 0.501976
0.525078 0.494942 0.540795
0.614405 0.436408 0.557183
0.740780 0.459083 0.550591
0.736995 0.310704 0.403601
0.767697 0.142153 0.265141
0.483375 0.486275 0.488563
0.513298 0.507530 0.502892
0.552667 0.537499 0.521233
0.550347 0.535821 0.548821
0.613703 0.474830 0.563378
0.721828 0.473304 0.540520
0.716976 0.317082 0.388983
0.796017 0.215549 0.295903
0.483070 0.509606 0.509850
0.509178 0.523430 0.519036
0.543450 0.542351 0.530877
0.588373 0.576501 0.552300
0.607599 0.518853 0.565911
0.682460 0.475715 0.510735
0.675929 0.311254 0.353552
0.843107 0.336919 0.361425
0.469123 0.535882 0.528588
0.494545 0.545953 0.536095
0.531518 0.562341 0.548638
0.580407 0.587854 0.568536
0.616602 0.591943 0.589776
0.642756 0.481849 0.477760
0.761410 0.476173 0.460304
0.918486 0.495216 0.463203
0.443610 0.576593 0.549218
0.467811 0.583398 0.554711
0.502861 0.594171 0.563317
0.550652 0.613275 0.578759
0.623804 0.654505 0.609064
0.766690 0.703639 0.647089
0.860624 0.677790 0.611841
0.979553 0.669032 0.592737
0.399390 0.629816 0.565240
0.423285 0.635096 0.568872
0.456458 0.641230 0.571313
0.518181 0.664057 0.586633
0.621851 0.714961 0.622766
0.760189 0.758572 0.654231
0.917388 0.825315 0.736446
1.000000 0.833707 0.746761
0.363775 0.739620 0.617609
0.397803 0.744289 0.620417
0.451881 0.753506 0.626246
0.540246 0.778134 0.646265
0.655421 0.813718 0.676356
0.776364 0.838834 0.690517
0.906371 0.861173 0.725154
1.000000 0.891417 0.785306
0.338537 0.867430 0.677943
0.380835 0.870359 0.679072
0.463020 0.877012 0.687800
0.588952 0.894987 0.716884
0.705257 0.914366 0.741390
0.816587 0.931640 0.751308
0.937530 0.939910 0.770840
1.000000 0.942901 0.814298
0.601373 0.629419 0.623194
0.626123 0.648005 0.635737
0.656153 0.669337 0.647730
0.667140 0.684352 0.671778
0.643458 0.631495 0.688167
0.729458 0.572381 0.691829
0.852110 0.610346 0.696742
0.899382 0.486824 0.583581
0.593408 0.627375 0.622034
0.613245 0.639734 0.629664
0.642969 0.659663 0.641688
0.676692 0.687953 0.661769
0.647303 0.647517 0.681575
0.721767 0.589654 0.687709
0.843534 0.625666 0.695369
0.882689 0.480507 0.565698
0.600214 0.651118 0.645563
0.618158 0.659907 0.650904
0.645441 0.674556 0.659663
0.680659 0.696254 0.672114
0.673213 0.688167 0.690547
0.722499 0.628351 0.695674
0.828153 0.636255 0.685176
0.867643 0.473579 0.541344
0.592615 0.669886 0.662684
0.610407 0.676448 0.666835
0.639796 0.689998 0.676539
0.684108 0.715846 0.696529
0.731014 0.747372 0.718471
0.735866 0.689754 0.719905
0.810178 0.643641 0.666987
0.855344 0.448432 0.493111
0.565423 0.682643 0.668269
0.584314 0.688624 0.672999
0.612940 0.698146 0.680598
0.652705 0.713069 0.692988
0.701259 0.733608 0.710018
0.731380 0.732021 0.723964
0.750454 0.595514 0.587060
0.903441 0.590021 0.571740
0.526879 0.709712 0.677943
0.546868 0.716091 0.683742
0.573480 0.721492 0.688228
0.611322 0.730587 0.695888
0.658503 0.743832 0.706874
0.740352 0.785092 0.741390
0.885344 0.834928 0.788663
0.979217 0.809232 0.752987
0.486366 0.783841 0.719265
0.507744 0.788540 0.723201
0.538293 0.793393 0.726375
0.580499 0.800229 0.729793
0.647456 0.816129 0.740475
0.761959 0.855863 0.774960
0.885496 0.881285 0.796292
0.995056 0.920897 0.860685
0.414466 0.878477 0.762020
0.433509 0.878630 0.759731
0.476661 0.881193 0.759579
0.556481 0.891783 0.768704
0.658747 0.906676 0.782895
0.792203 0.930877 0.814572
0.911254 0.947692 0.832395
1.000000 0.955322 0.867369
0.695613 0.739467 0.730282
0.714015 0.751827 0.739101
0.738888 0.768032 0.749844
0.773281 0.793027 0.767178
0.759304 0.787839 0.788998
0.745602 0.736324 0.798795
0.826444 0.689570 0.801511
0.929320 0.720302 0.802853
0.692226 0.740841 0.732601
0.709224 0.751522 0.740139
0.733181 0.766171 0.749905
0.766049 0.788510 0.765103
0.766720 0.793698 0.785061
0.746242 0.746273 0.794491
0.818936 0.696376 0.795895
0.920836 0.723842 0.797147
0.695827 0.754147 0.747158
0.710689 0.761837 0.752285
0.733303 0.773831 0.760159
0.765194 0.792996 0.773373
0.790036 0.811948 0.790646
0.761837 0.774685 0.801419
0.823423 0.725643 0.804746
0.925353 0.752926 0.809689
0.694423 0.769284 0.763333
0.707546 0.774228 0.766384
0.729824 0.783902 0.772915
0.763180 0.801114 0.785611
0.801175 0.823606 0.801816
0.792599 0.815244 0.816281
0.830838 0.763119 0.817624
0.928466 0.776791 0.816495
0.678248 0.779446 0.772122
0.690822 0.782742 0.774228
0.711360 0.788876 0.778500
0.743526 0.801297 0.788235
0.785245 0.820554 0.803372
0.828977 0.846952 0.823819
0.831388 0.795590 0.823636
0.916716 0.766903 0.790646
0.656214 0.799252 0.785824
0.670344 0.802792 0.788876
0.693141 0.808743 0.794064
0.726558 0.818326 0.802670
0.768887 0.831846 0.815061
0.820798 0.852873 0.834592
0.846006 0.847227 0.845274
0.894591 0.722408 0.719234
0.626642 0.834165 0.806760
0.641535 0.837095 0.809567
0.664302 0.841062 0.813352
0.697658 0.847593 0.819669
0.737850 0.855406 0.827146
0.784695 0.866026 0.837156
0.858183 0.894163 0.862486
0.972961 0.923339 0.893553
0.573388 0.898466 0.844938
0.590967 0.901183 0.847501
0.622278 0.907561 0.853849
0.660853 0.913512 0.858824
0.706111 0.920256 0.862882
0.769802 0.930999 0.868894
0.889342 0.955871 0.897734
0.985443 0.968566 0.920409
0.805051 0.847196 0.840330
0.817716 0.854612 0.845975
0.834287 0.863798 0.852262
0.859464 0.879667 0.864286
0.876066 0.893736 0.880766
0.860899 0.882872 0.898039
0.861875 0.846433 0.909483
0.932311 0.817288 0.915435
0.802213 0.847654 0.841733
0.814145 0.854215 0.846586
0.831449 0.863615 0.853300
0.856168 0.878508 0.864469
0.882078 0.896727 0.879850
0.867155 0.888914 0.898039
0.862974 0.853239 0.908324
0.930694 0.823331 0.914977
0.799588 0.851133 0.846921
0.811032 0.856779 0.850950
0.828031 0.865171 0.856840
0.854398 0.880369 0.868681
0.882872 0.898283 0.882322
0.879973 0.899962 0.899870
0.869535 0.868070 0.910613
0.932006 0.837369 0.918242
0.792966 0.856077 0.854215
0.805661 0.861875 0.858640
0.823819 0.869963 0.864469
0.850584 0.883513 0.874937
0.881376 0.900847 0.888548
0.900450 0.915496 0.905669
0.884977 0.892424 0.918456
0.937224 0.860014 0.926329
0.784970 0.865141 0.864683
0.795529 0.868864 0.867521
0.811460 0.873991 0.871214
0.837583 0.884398 0.879149
0.872251 0.900786 0.892210
0.908568 0.921813 0.909483
0.905486 0.918883 0.926665
0.940520 0.883177 0.932799
0.772732 0.879088 0.878050
0.782223 0.881102 0.879515
0.797848 0.884581 0.882139
0.823148 0.891844 0.888121
0.857603 0.904112 0.898711
0.903166 0.925628 0.917937
0.938567 0.947417 0.938842
0.947448 0.913909 0.943572
0.762387 0.905058 0.900145
0.772976 0.907042 0.902007
0.790219 0.910246 0.904997
0.817441 0.916381 0.910948
0.852384 0.925048 0.919432
0.890959 0.934997 0.929076
0.933532 0.949859 0.943297
0.952819 0.945129 0.953124
0.741421 0.938293 0.923552
0.751766 0.939422 0.924743
0.769406 0.941619 0.927092
0.796994 0.945769 0.931670
0.831754 0.951110 0.937652
0.872465 0.957702 0.945129
0.916228 0.965850 0.954345
0.967895 0.979889 0.969390
