20 Preset/Dark Portrait/【3】LUT video cho PR-AE-FCPX/Tone  (11).cube
# Created by Adobe Lightroom plugin Export LUT (1.22.0)
# www.johnrellis.com/lightroom/exportlut.htm
# Preset: Milestone_06
# Color profile: C:\Program Files (x86)\Common Files\Adobe\Color\Profiles\VideoHD.icc
LUT_3D_SIZE 5
DOMAIN_MIN 0.000000 0.000000 0.000000
DOMAIN_MAX 0.903226 0.903226 0.903226
0.013703 0.009705 0.012970
0.288518 0.000000 0.026642
0.646540 0.000000 0.050996
0.950744 0.035309 0.152590
1.000000 0.293126 0.305119
0.010040 0.271275 0.017243
0.297032 0.194583 0.004639
0.739498 0.211948 0.000000
0.984558 0.251255 0.115602
1.000000 0.393805 0.295201
0.267369 0.663935 0.190188
0.446967 0.578790 0.090761
0.682582 0.484413 0.000000
1.000000 0.518822 0.007477
1.000000 0.546075 0.253025
0.622065 0.865690 0.486488
0.693355 0.845426 0.437415
0.770626 0.765957 0.249393
0.918822 0.688624 0.104891
1.000000 0.720760 0.236515
0.785550 0.942962 0.678431
0.828214 0.941161 0.678035
0.864836 0.918303 0.555840
0.950530 0.880735 0.356451
1.000000 0.845396 0.336339
0.017792 0.049073 0.234073
0.368811 0.037873 0.206455
0.595789 0.153811 0.207736
0.903624 0.223758 0.235569
1.000000 0.309056 0.261448
0.116854 0.283665 0.234562
0.375647 0.291264 0.233860
0.686122 0.330724 0.254978
0.927031 0.357427 0.262028
1.000000 0.398322 0.259129
0.387396 0.627436 0.395453
0.504326 0.580255 0.347723
0.668421 0.506249 0.266361
0.963043 0.564752 0.303471
1.000000 0.572076 0.291356
0.674372 0.853086 0.609339
0.744015 0.845457 0.600000
0.780362 0.768917 0.449775
0.906920 0.707637 0.341192
1.000000 0.738827 0.346715
0.803708 0.938689 0.741970
0.842741 0.938384 0.748409
0.879759 0.924437 0.689204
0.943877 0.887449 0.519615
1.000000 0.855039 0.413367
0.158541 0.239231 0.532708
0.429847 0.246983 0.516045
0.763882 0.276890 0.494209
0.860868 0.395117 0.468299
1.000000 0.501396 0.520287
0.306218 0.423987 0.536553
0.497230 0.424781 0.521294
0.694179 0.443183 0.489815
0.851987 0.493019 0.501854
1.000000 0.563043 0.541741
0.403296 0.614649 0.542626
0.603021 0.642786 0.581231
0.735683 0.616815 0.546960
0.904540 0.634852 0.556756
1.000000 0.658228 0.561669
0.678614 0.829191 0.694606
0.759060 0.837491 0.714595
0.794308 0.787259 0.635523
0.895537 0.745510 0.565881
1.000000 0.781827 0.598199
0.790249 0.929961 0.787350
0.835630 0.931548 0.798459
0.893095 0.930877 0.803952
0.925261 0.893187 0.683619
1.000000 0.861997 0.588373
0.426612 0.469856 0.757870
0.569909 0.476570 0.752071
0.778103 0.476081 0.733242
0.961303 0.516136 0.708125
1.000000 0.603967 0.687526
0.508476 0.571679 0.745480
0.604944 0.565942 0.736294
0.775265 0.559503 0.721401
0.921477 0.582971 0.693629
0.979980 0.644800 0.691981
0.538293 0.675471 0.734340
0.628992 0.674464 0.728023
0.770840 0.669917 0.718135
0.860563 0.668879 0.686702
0.967712 0.718898 0.720150
0.618921 0.808560 0.753414
0.695277 0.808316 0.755673
0.842466 0.834836 0.794705
0.902098 0.807828 0.760616
0.989166 0.813657 0.761837
0.770016 0.922179 0.825650
0.817441 0.922545 0.834379
0.890379 0.927977 0.855406
0.926024 0.916289 0.832700
0.980041 0.881712 0.761196
0.690211 0.682521 0.876707
0.746548 0.682765 0.874235
0.845853 0.684382 0.869352
0.956786 0.688167 0.861418
1.000000 0.731319 0.845487
0.709102 0.724941 0.871397
0.755825 0.723079 0.869169
0.844083 0.723110 0.865415
0.946990 0.723934 0.858640
1.000000 0.760220 0.846677
0.706020 0.778897 0.869993
0.752438 0.779355 0.867674
0.836027 0.781277 0.863737
0.932128 0.782742 0.859861
0.994598 0.802335 0.847837
0.739437 0.858762 0.876066
0.774502 0.856931 0.874418
0.837400 0.854429 0.871733
0.914366 0.850340 0.867582
0.970825 0.854582 0.855619
0.756741 0.922820 0.878477
0.787533 0.920531 0.877440
0.845548 0.917967 0.877256
0.922545 0.922301 0.887938
0.966735 0.920958 0.887907
