20 Preset/Dark Portrait/【3】LUT video cho PR-AE-FCPX/Tone  (4).cube
# Created by Adobe Lightroom plugin Export LUT (1.22.0)
# www.johnrellis.com/lightroom/exportlut.htm
# Preset: Horizon_01
# Color profile: C:\Program Files (x86)\Common Files\Adobe\Color\Profiles\VideoHD.icc
LUT_3D_SIZE 32
DOMAIN_MIN 0.0 0.0 0.0
DOMAIN_MAX 1.0 1.0 1.0
0.054688 0.033722 0.035554
0.077058 0.033570 0.035615
0.122408 0.033661 0.035248
0.160006 0.033631 0.034516
0.198978 0.033753 0.033692
0.240085 0.034089 0.032197
0.280949 0.034791 0.030579
0.321386 0.036133 0.028626
0.361791 0.038209 0.026642
0.400977 0.041413 0.024781
0.439490 0.045655 0.022889
0.476631 0.051270 0.021149
0.512535 0.058320 0.019409
0.547631 0.067079 0.017792
0.580804 0.076265 0.016358
0.612940 0.086519 0.015076
0.644404 0.096986 0.013672
0.675532 0.107729 0.012451
0.705592 0.118227 0.011261
0.737057 0.129702 0.009949
0.780301 0.145296 0.008301
0.820890 0.159945 0.007141
0.859068 0.173587 0.006500
0.895811 0.186831 0.006043
0.930724 0.198856 0.006531
0.965057 0.210666 0.006958
0.999054 0.222263 0.008545
1.000000 0.233890 0.011139
1.000000 0.245426 0.015106
1.000000 0.257603 0.020172
1.000000 0.270176 0.028351
1.000000 0.283818 0.039338
0.056153 0.039338 0.036347
0.088289 0.043763 0.036072
0.136507 0.048188 0.035767
0.174685 0.049958 0.035004
0.214206 0.051209 0.033936
0.255070 0.052674 0.032349
0.294835 0.053895 0.030610
0.334844 0.056153 0.028626
0.374121 0.059205 0.026978
0.412207 0.063172 0.025818
0.449989 0.069154 0.024140
0.486275 0.075593 0.022766
0.521324 0.083894 0.021546
0.554864 0.091554 0.020417
0.587793 0.100679 0.019043
0.619379 0.109346 0.017914
0.650294 0.118471 0.016693
0.680842 0.128023 0.015198
0.710079 0.137392 0.014405
0.744656 0.148898 0.013245
0.784054 0.162509 0.012177
0.821592 0.175845 0.011322
0.857145 0.187991 0.010895
0.891173 0.199344 0.010986
0.924285 0.210422 0.011414
0.956939 0.221225 0.012299
0.989502 0.231815 0.013886
1.000000 0.242405 0.015961
1.000000 0.253361 0.019471
1.000000 0.264714 0.024323
1.000000 0.276524 0.031739
1.000000 0.289311 0.042084
0.057679 0.052003 0.037934
0.089631 0.055177 0.037171
0.131594 0.061616 0.037232
0.178744 0.068635 0.036774
0.226902 0.074189 0.036011
0.266880 0.076204 0.034638
0.306981 0.078340 0.032837
0.346441 0.081147 0.030945
0.385351 0.084718 0.029480
0.423713 0.089845 0.028016
0.460456 0.095430 0.027008
0.496132 0.101808 0.025849
0.530755 0.108370 0.024506
0.564202 0.115816 0.023194
0.596490 0.123659 0.021820
0.627649 0.131502 0.020661
0.657465 0.139132 0.019928
0.687251 0.147707 0.018647
0.715908 0.155917 0.017792
0.752956 0.167910 0.017212
0.789883 0.180209 0.016480
0.825101 0.191684 0.016449
0.859068 0.202792 0.016144
0.891905 0.213535 0.016388
0.923308 0.223301 0.017304
0.954467 0.233036 0.018280
0.986389 0.243015 0.019745
1.000000 0.252934 0.022004
1.000000 0.263371 0.025635
1.000000 0.274388 0.031006
1.000000 0.286046 0.038697
1.000000 0.298680 0.049256
0.061433 0.065949 0.040864
0.094026 0.070130 0.039979
0.126833 0.072755 0.039796
0.170321 0.082918 0.039918
0.223362 0.094087 0.039277
0.275914 0.102541 0.038239
0.320470 0.106813 0.036561
0.359564 0.109224 0.034546
0.398016 0.112459 0.032807
0.435431 0.116609 0.031708
0.471778 0.121340 0.030488
0.507073 0.127016 0.029267
0.540826 0.133028 0.028046
0.573297 0.139010 0.026856
0.604273 0.145327 0.025727
0.634852 0.152316 0.024414
0.663844 0.159121 0.023590
0.692256 0.166079 0.022614
0.721340 0.173922 0.021942
0.757046 0.184909 0.021363
0.790829 0.195499 0.021271
0.824063 0.205753 0.021454
0.856535 0.215763 0.021515
0.888853 0.225559 0.022156
0.920806 0.235447 0.022827
0.952941 0.245090 0.024231
0.985534 0.254765 0.026307
1.000000 0.264714 0.028962
1.000000 0.274968 0.033234
1.000000 0.285649 0.038972
1.000000 0.296818 0.046876
1.000000 0.308415 0.056947
0.067750 0.082765 0.045472
0.099153 0.088136 0.043946
0.130220 0.090761 0.043915
0.160616 0.094636 0.044099
0.208682 0.107118 0.043702
0.264561 0.119936 0.042725
0.317601 0.129915 0.041474
0.369390 0.139101 0.040070
0.407691 0.141878 0.038148
0.445197 0.145693 0.036774
0.481086 0.149874 0.035645
0.515801 0.154269 0.034394
0.549401 0.159365 0.033143
0.581750 0.164797 0.032044
0.612879 0.170352 0.031006
0.643061 0.176272 0.029938
0.672480 0.182345 0.028870
0.700496 0.188540 0.028229
0.732479 0.196963 0.027924
0.765805 0.206332 0.028077
0.797726 0.215427 0.028168
0.829343 0.224491 0.028534
0.860624 0.233463 0.029175
0.892058 0.242496 0.029938
0.923369 0.251438 0.031464
0.955016 0.260472 0.032929
0.987182 0.269749 0.035065
1.000000 0.278874 0.038453
1.000000 0.288334 0.042847
1.000000 0.298466 0.048615
1.000000 0.308904 0.056855
1.000000 0.319829 0.067384
0.075044 0.103914 0.051270
0.105989 0.110170 0.049134
0.136965 0.113130 0.048981
0.165927 0.115938 0.048798
0.200290 0.121614 0.048737
0.251713 0.135531 0.048280
0.309361 0.150423 0.047028
0.363531 0.162448 0.046509
0.419257 0.175479 0.045960
0.461524 0.181582 0.044923
0.497017 0.184634 0.043854
0.531640 0.188540 0.042298
0.564752 0.192416 0.040986
0.596765 0.196963 0.039887
0.627283 0.201144 0.038972
0.657191 0.205966 0.037964
0.685512 0.210819 0.037232
0.714321 0.216342 0.036744
0.748043 0.225162 0.037232
0.779751 0.233402 0.037690
0.810452 0.240970 0.038544
0.841032 0.248997 0.039521
0.932341 0.287114 0.056275
0.963867 0.295476 0.059846
0.994049 0.302983 0.063966
1.000000 0.310460 0.068147
1.000000 0.317754 0.073487
1.000000 0.325322 0.079957
1.000000 0.333196 0.087617
1.000000 0.341588 0.097017
1.000000 0.350561 0.107424
1.000000 0.359930 0.119600
0.085695 0.139010 0.060639
0.120211 0.145418 0.058015
0.153475 0.149752 0.056733
0.184146 0.152407 0.056489
0.217380 0.155398 0.056245
0.258183 0.162966 0.055634
0.313146 0.179049 0.055390
0.373663 0.196628 0.055268
0.428901 0.210971 0.056397
0.484932 0.226535 0.058625
0.535668 0.238621 0.059998
0.569238 0.240635 0.058808
0.601465 0.242557 0.057099
0.632136 0.244968 0.055543
0.660914 0.246830 0.054810
0.688411 0.249363 0.053559
0.715053 0.252079 0.052705
0.749264 0.259739 0.053925
0.783474 0.268009 0.055787
0.816281 0.275792 0.057893
0.849332 0.284123 0.060273
0.883330 0.292943 0.063508
0.917479 0.301823 0.067628
0.951354 0.310704 0.072297
0.983978 0.319066 0.077058
1.000000 0.326207 0.082460
1.000000 0.333227 0.087526
1.000000 0.339940 0.092988
1.000000 0.346990 0.099947
1.000000 0.354620 0.107759
1.000000 0.362676 0.117342
1.000000 0.371466 0.127962
0.094820 0.164981 0.068666
0.127504 0.170871 0.065949
0.159213 0.176059 0.063905
0.189700 0.178744 0.063569
0.222202 0.181674 0.063600
0.257359 0.185183 0.063020
0.300267 0.194491 0.062837
0.356237 0.212192 0.063752
0.415686 0.231388 0.065370
0.471168 0.247807 0.068299
0.525902 0.264073 0.072419
0.579828 0.280278 0.077607
0.615808 0.284031 0.077119
0.645106 0.284215 0.075502
0.673091 0.284459 0.073671
0.699641 0.285069 0.072084
0.730129 0.288914 0.072419
0.762631 0.294896 0.073732
0.792935 0.300053 0.075288
0.822354 0.304997 0.077150
0.852689 0.311040 0.079072
0.883940 0.317662 0.082399
0.915862 0.324926 0.086244
0.947723 0.332250 0.090486
0.978851 0.339025 0.094850
1.000000 0.345586 0.099428
1.000000 0.351507 0.104067
1.000000 0.357702 0.109285
1.000000 0.364172 0.115328
1.000000 0.371008 0.122499
1.000000 0.378698 0.131167
1.000000 0.386725 0.141085
0.103731 0.192782 0.078553
0.135836 0.198520 0.075685
0.166262 0.204074 0.072938
0.196292 0.207248 0.072206
0.228397 0.210056 0.072023
0.262699 0.213596 0.071809
0.298680 0.217746 0.071504
0.344488 0.229191 0.072328
0.400366 0.248447 0.075532
0.458564 0.268956 0.079683
0.513481 0.286595 0.085115
0.566888 0.303349 0.090730
0.619043 0.319524 0.098146
0.661341 0.328679 0.102174
0.688228 0.327062 0.100008
0.717525 0.327825 0.099397
0.748867 0.331548 0.100374
0.777920 0.334173 0.101534
0.806271 0.337011 0.101991
0.834287 0.340246 0.103334
0.863401 0.344518 0.104952
0.893645 0.349889 0.108431
0.924437 0.355840 0.112306
0.955230 0.361883 0.115999
0.984955 0.367468 0.120272
1.000000 0.372320 0.123995
1.000000 0.377111 0.127962
1.000000 0.381872 0.131868
1.000000 0.387091 0.137270
1.000000 0.392737 0.143191
1.000000 0.399207 0.150881
1.000000 0.406317 0.159731
0.114931 0.222354 0.090700
0.145296 0.227695 0.087770
0.174899 0.232700 0.085084
0.203006 0.236912 0.082765
0.234257 0.239261 0.082918
0.267948 0.242527 0.082856
0.303166 0.246189 0.083040
0.339483 0.250889 0.083131
0.386877 0.265049 0.085573
0.441993 0.285161 0.090059
0.499031 0.306035 0.096223
0.552941 0.324468 0.102998
0.604730 0.341131 0.110353
0.654444 0.356725 0.119081
0.705196 0.373846 0.130434
0.738918 0.377142 0.132601
0.768490 0.377905 0.132998
0.796597 0.378668 0.133333
0.823514 0.379278 0.133608
0.850095 0.380652 0.134279
0.876982 0.382452 0.135470
0.904326 0.385138 0.137118
0.931640 0.387884 0.139223
0.958984 0.391211 0.141085
0.985718 0.394324 0.143526
1.000000 0.397406 0.146212
1.000000 0.400702 0.148806
1.000000 0.404303 0.151980
1.000000 0.408820 0.156863
1.000000 0.413977 0.162631
1.000000 0.420020 0.169802
1.000000 0.426795 0.178897
0.125154 0.250126 0.102693
0.154910 0.255253 0.100465
0.182467 0.260136 0.097597
0.209201 0.265080 0.095186
0.239994 0.268589 0.094759
0.273075 0.272099 0.095125
0.307652 0.276127 0.095796
0.343694 0.281071 0.095949
0.380865 0.286625 0.096742
0.429786 0.303197 0.100862
0.484199 0.323857 0.106752
0.539178 0.344762 0.114229
0.592493 0.363500 0.122469
0.645808 0.383062 0.133974
0.697902 0.401740 0.147524
0.747890 0.418677 0.161044
0.786221 0.426276 0.168338
0.812436 0.424109 0.167544
0.837552 0.422339 0.166720
0.862608 0.421241 0.166354
0.887907 0.420935 0.166598
0.913878 0.421698 0.167056
0.939513 0.422553 0.168246
0.965148 0.423896 0.169772
0.990784 0.425574 0.170993
1.000000 0.427253 0.172793
1.000000 0.429267 0.174960
1.000000 0.431800 0.177829
1.000000 0.435218 0.181674
1.000000 0.439490 0.186954
1.000000 0.444526 0.193606
1.000000 0.450477 0.201724
0.138521 0.281346 0.117220
0.166415 0.286320 0.115328
0.192294 0.291142 0.112856
0.217990 0.295872 0.110445
0.247410 0.300664 0.108675
0.279637 0.304234 0.109133
0.313756 0.308202 0.109773
0.348974 0.313146 0.110842
0.385779 0.318761 0.111543
0.424048 0.326116 0.113191
0.473121 0.343664 0.118257
0.526604 0.364691 0.126772
0.615564 0.419654 0.155428
0.674708 0.444800 0.172488
0.728847 0.464790 0.188937
0.779782 0.482124 0.205814
0.826871 0.496742 0.222354
0.870054 0.509178 0.239628
0.893004 0.503380 0.236881
0.915557 0.498451 0.234989
0.938231 0.494301 0.233280
0.960967 0.491035 0.231846
0.983276 0.488106 0.230808
1.000000 0.485817 0.229862
1.000000 0.483986 0.229587
1.000000 0.482582 0.229068
1.000000 0.481575 0.229221
1.000000 0.481392 0.230045
1.000000 0.482033 0.232120
1.000000 0.483742 0.235203
1.000000 0.486610 0.240269
1.000000 0.490547 0.247013
0.157382 0.325383 0.139223
0.184573 0.329992 0.136965
0.209262 0.334203 0.134890
0.233524 0.338323 0.132296
0.261143 0.343023 0.129397
0.292546 0.346410 0.128908
0.325902 0.349798 0.129274
0.360784 0.354284 0.130282
0.396857 0.359838 0.131746
0.434699 0.366461 0.133211
0.477668 0.378759 0.137484
0.534325 0.404883 0.149020
0.595331 0.433997 0.163973
0.654383 0.460426 0.180880
0.710475 0.483040 0.198428
0.760403 0.500023 0.214420
0.806821 0.514153 0.230472
0.849668 0.525963 0.246799
0.889799 0.536553 0.262852
0.918273 0.536645 0.267704
0.939696 0.530694 0.264714
0.961273 0.525658 0.262364
0.982666 0.521202 0.259831
1.000000 0.517327 0.257939
1.000000 0.514244 0.256626
1.000000 0.511589 0.255467
1.000000 0.509636 0.254795
1.000000 0.508537 0.255131
1.000000 0.508629 0.256626
1.000000 0.509606 0.259556
1.000000 0.511803 0.264134
1.000000 0.515068 0.270207
0.170321 0.354711 0.154421
0.194766 0.359106 0.152438
0.217990 0.362890 0.150454
0.240269 0.366796 0.148287
0.266361 0.371130 0.145327
0.295811 0.375402 0.142794
0.327825 0.378576 0.143832
0.361700 0.382666 0.144717
0.397009 0.388434 0.146029
0.436957 0.398718 0.150057
0.478431 0.410224 0.154635
0.524132 0.425727 0.160952
0.578454 0.450019 0.173373
0.634394 0.474769 0.189364
0.689570 0.497597 0.205875
0.741238 0.516686 0.222202
0.787411 0.530724 0.238285
0.830411 0.542687 0.253819
0.871183 0.553552 0.270024
0.909606 0.563378 0.286595
0.943572 0.570092 0.300175
0.964446 0.563684 0.296605
0.985016 0.557824 0.293645
1.000000 0.552819 0.290898
1.000000 0.548516 0.288792
1.000000 0.544823 0.286931
1.000000 0.541711 0.285405
1.000000 0.539422 0.284947
1.000000 0.538262 0.285374
1.000000 0.538415 0.287541
1.000000 0.539574 0.291417
1.000000 0.542107 0.296941
0.183230 0.385107 0.170199
0.205997 0.389227 0.168856
0.227756 0.392950 0.167056
0.248753 0.396460 0.164797
0.272557 0.400366 0.162356
0.299901 0.405097 0.159243
0.332036 0.410590 0.160006
0.366949 0.417304 0.162661
0.403265 0.425025 0.165377
0.441352 0.433936 0.169070
0.481086 0.444282 0.173281
0.522698 0.455970 0.178012
0.568475 0.471778 0.185946
0.620569 0.493904 0.200320
0.674098 0.516289 0.216892
0.725399 0.535698 0.233341
0.773709 0.551873 0.249546
0.816434 0.563500 0.264958
0.857298 0.573999 0.280827
0.895750 0.583429 0.297124
0.932189 0.592218 0.313298
0.966217 0.600427 0.329900
0.989197 0.597131 0.331304
1.000000 0.590661 0.327550
1.000000 0.584833 0.324102
1.000000 0.579797 0.321111
1.000000 0.575952 0.319280
1.000000 0.573053 0.318547
1.000000 0.571435 0.318914
1.000000 0.571191 0.321386
1.000000 0.572381 0.325719
1.000000 0.574823 0.332006
0.195865 0.415961 0.187472
0.217685 0.420844 0.186343
0.238682 0.426490 0.186069
0.259800 0.431800 0.185367
0.283482 0.437690 0.184360
0.311009 0.444739 0.182620
0.341772 0.452033 0.182254
0.375921 0.458289 0.184817
0.411475 0.465492 0.187808
0.448402 0.473548 0.191318
0.486488 0.482216 0.195193
0.525475 0.491279 0.199374
0.565484 0.500755 0.203861
0.608545 0.513512 0.211704
0.657771 0.532433 0.225681
0.706935 0.550805 0.241337
0.754696 0.567010 0.257023
0.800595 0.581384 0.273381
0.842100 0.592370 0.289830
0.881651 0.602564 0.306401
0.919127 0.611810 0.323552
0.954162 0.620478 0.341070
0.986603 0.628290 0.358129
1.000000 0.631128 0.368505
1.000000 0.624292 0.364385
1.000000 0.618341 0.360662
1.000000 0.613428 0.357946
1.000000 0.609552 0.356512
1.000000 0.606653 0.355901
1.000000 0.605127 0.357275
1.000000 0.604761 0.360052
1.000000 0.605707 0.364782
0.211154 0.453895 0.208927
0.232181 0.458808 0.208591
0.251743 0.463722 0.207858
0.270939 0.468269 0.206668
0.293278 0.473396 0.205509
0.318914 0.479530 0.204166
0.347692 0.486732 0.202274
0.380194 0.492409 0.204196
0.414160 0.498421 0.206760
0.449653 0.505272 0.209903
0.486366 0.512657 0.213626
0.523827 0.520562 0.217380
0.562066 0.528801 0.221469
0.600977 0.537072 0.225742
0.643336 0.549004 0.234318
0.690883 0.566552 0.249088
0.738216 0.583001 0.264958
0.783871 0.597528 0.281071
0.827481 0.610315 0.298070
0.867704 0.620935 0.315251
0.905791 0.630396 0.332525
0.941527 0.639155 0.350256
0.974853 0.647059 0.367926
1.000000 0.654566 0.385748
1.000000 0.661433 0.402838
1.000000 0.656062 0.400763
1.000000 0.650324 0.397498
1.000000 0.645594 0.395209
1.000000 0.641962 0.394171
1.000000 0.639612 0.394812
1.000000 0.638361 0.396887
1.000000 0.638392 0.400916
0.226658 0.493202 0.232029
0.246250 0.498024 0.231571
0.277317 0.526329 0.246891
0.295872 0.530571 0.246159
0.317662 0.535485 0.245304
0.342229 0.540917 0.244266
0.369818 0.547265 0.242588
0.400824 0.553613 0.242313
0.434699 0.558831 0.245151
0.469886 0.564935 0.248631
0.506157 0.571557 0.252293
0.543420 0.578454 0.256107
0.581048 0.585229 0.259739
0.619074 0.591791 0.263737
0.657496 0.598077 0.266941
0.698451 0.607446 0.276005
0.744259 0.621942 0.291600
0.788205 0.634546 0.307836
0.829953 0.645197 0.324315
0.869291 0.654414 0.340826
0.906004 0.662196 0.357275
0.940703 0.669551 0.374701
0.972961 0.676326 0.391791
1.000000 0.682460 0.408392
1.000000 0.687770 0.423804
1.000000 0.692805 0.439338
1.000000 0.691524 0.444282
1.000000 0.684962 0.439826
1.000000 0.679835 0.437232
1.000000 0.676295 0.436622
1.000000 0.674189 0.437934
1.000000 0.673213 0.441108
0.246464 0.540032 0.261082
0.265629 0.545769 0.261814
0.284337 0.551354 0.262333
0.302434 0.556634 0.262882
0.323247 0.561975 0.262730
0.346471 0.567346 0.261723
0.372198 0.572930 0.260319
0.400793 0.579187 0.258427
0.432959 0.584039 0.260441
0.466529 0.589227 0.263127
0.501671 0.594995 0.266575
0.537469 0.601160 0.269993
0.573877 0.607172 0.273625
0.610834 0.613153 0.277104
0.647944 0.618891 0.280461
0.685695 0.624872 0.284398
0.726131 0.633753 0.294347
0.770748 0.647395 0.311040
0.813504 0.659297 0.328252
0.853849 0.669398 0.345922
0.891478 0.677943 0.363714
0.927184 0.685878 0.381506
0.960662 0.693050 0.399237
0.991547 0.699428 0.416297
1.000000 0.704982 0.432715
1.000000 0.709987 0.448371
1.000000 0.714717 0.463752
1.000000 0.718257 0.477180
1.000000 0.712245 0.473487
1.000000 0.707454 0.471534
1.000000 0.704128 0.471504
1.000000 0.702113 0.473335
0.257969 0.569543 0.279210
0.275517 0.574762 0.279942
0.293034 0.580041 0.280491
0.310124 0.585016 0.281193
0.329625 0.590265 0.281163
0.351751 0.595300 0.280613
0.376349 0.600793 0.279118
0.403418 0.606714 0.277714
0.433478 0.612390 0.277836
0.466285 0.616999 0.280461
0.500114 0.622034 0.283665
0.535088 0.627558 0.286839
0.570520 0.633021 0.290349
0.606500 0.638666 0.293706
0.643061 0.644129 0.297063
0.680079 0.649409 0.300511
0.717830 0.655299 0.305791
0.757504 0.663508 0.316899
0.800290 0.675624 0.334417
0.841093 0.686030 0.352056
0.879240 0.694850 0.370489
0.914916 0.702541 0.388739
0.948852 0.709621 0.406500
0.980529 0.716182 0.424292
1.000000 0.721675 0.440681
1.000000 0.726558 0.456733
1.000000 0.731044 0.472236
1.000000 0.735470 0.487739
1.000000 0.740261 0.503899
1.000000 0.738003 0.506950
1.000000 0.734096 0.506310
1.000000 0.731411 0.507622
0.270024 0.601648 0.299321
0.287327 0.607080 0.300298
0.303899 0.612451 0.301701
0.320256 0.617578 0.302403
0.338964 0.622583 0.302892
0.359838 0.627344 0.302342
0.383001 0.632105 0.301122
0.408759 0.637201 0.299474
0.436622 0.643061 0.297856
0.468025 0.647028 0.299413
0.500816 0.651301 0.302190
0.534569 0.655879 0.305150
0.569055 0.660639 0.308293
0.604211 0.665583 0.311742
0.640223 0.670710 0.315099
0.676722 0.676020 0.318944
0.714351 0.681819 0.323186
0.752987 0.688594 0.331212
0.793454 0.697688 0.345312
0.835966 0.709743 0.365789
0.876036 0.720119 0.386847
0.913298 0.729000 0.407416
0.947417 0.736355 0.427161
0.979065 0.742916 0.446082
1.000000 0.749203 0.464759
1.000000 0.754299 0.482033
1.000000 0.758938 0.498817
1.000000 0.763394 0.515618
1.000000 0.768032 0.532494
1.000000 0.772915 0.549859
1.000000 0.775296 0.562097
1.000000 0.771939 0.562829
0.290898 0.648249 0.331334
0.306157 0.652094 0.331609
0.321386 0.655726 0.331579
0.335912 0.658839 0.331426
0.352850 0.662135 0.330785
0.372290 0.665675 0.329442
0.394110 0.669612 0.328313
0.418585 0.674281 0.326757
0.445563 0.679652 0.325322
0.475471 0.684840 0.325689
0.508049 0.689021 0.328710
0.541497 0.693416 0.332006
0.575494 0.697810 0.335363
0.610285 0.702205 0.338903
0.645594 0.706600 0.342199
0.681392 0.711055 0.345830
0.717983 0.715663 0.349615
0.755276 0.720546 0.354101
0.792752 0.725887 0.363012
0.831235 0.732937 0.378332
0.870481 0.741909 0.398383
0.907012 0.749447 0.417914
0.940520 0.755520 0.436774
0.970764 0.760433 0.454627
0.998840 0.764920 0.471778
1.000000 0.770047 0.489784
1.000000 0.774624 0.506950
1.000000 0.779080 0.524224
1.000000 0.783627 0.541772
1.000000 0.788296 0.559564
1.000000 0.793210 0.577783
1.000000 0.798337 0.596246
0.302800 0.679377 0.351781
0.317693 0.682826 0.352087
0.331762 0.686030 0.352209
0.345647 0.688960 0.352056
0.362066 0.692073 0.351507
0.380468 0.695399 0.350591
0.401282 0.699062 0.349340
0.424628 0.703426 0.348028
0.450538 0.708431 0.346899
0.478553 0.714168 0.345861
0.510246 0.718135 0.348608
0.543023 0.722133 0.351843
0.576593 0.726162 0.355474
0.610803 0.730312 0.359136
0.645624 0.734524 0.362860
0.681086 0.738796 0.366949
0.717311 0.743252 0.371344
0.754025 0.747921 0.376043
0.791592 0.752682 0.381018
0.828244 0.757198 0.391913
0.865476 0.763455 0.408484
0.902678 0.770932 0.428992
0.936522 0.776974 0.448737
0.967376 0.781949 0.467597
0.992645 0.783108 0.481575
1.000000 0.786496 0.498543
1.000000 0.791135 0.516564
1.000000 0.795468 0.534447
1.000000 0.799710 0.552148
1.000000 0.804044 0.570153
1.000000 0.808743 0.588952
1.000000 0.813626 0.607904
0.324651 0.722133 0.383978
0.338872 0.725673 0.384771
0.352361 0.728542 0.384771
0.365240 0.730587 0.384283
0.379736 0.732509 0.383124
0.396674 0.734554 0.381292
0.415778 0.736843 0.379095
0.437140 0.739559 0.377020
0.461067 0.742855 0.374670
0.487037 0.746761 0.372564
0.515953 0.749874 0.372259
0.547173 0.752316 0.374426
0.579065 0.754910 0.376867
0.611749 0.757595 0.379400
0.645014 0.760220 0.381964
0.678859 0.763088 0.384802
0.713588 0.766293 0.388159
0.749264 0.769955 0.392309
0.785855 0.774319 0.397162
0.823636 0.779202 0.403449
0.859281 0.782956 0.416052
0.895354 0.788602 0.434180
0.929656 0.794369 0.454353
0.960479 0.798581 0.473213
0.987762 0.801480 0.490486
1.000000 0.803403 0.506554
1.000000 0.805203 0.522301
1.000000 0.808957 0.539727
1.000000 0.812680 0.557244
1.000000 0.816526 0.575097
1.000000 0.820706 0.593774
1.000000 0.825315 0.613153
0.334752 0.747585 0.401251
0.348394 0.750973 0.402106
0.361425 0.753933 0.402564
0.374151 0.756283 0.402594
0.388464 0.758663 0.401892
0.405097 0.761227 0.401160
0.424140 0.764218 0.400214
0.445472 0.767636 0.399207
0.469001 0.771572 0.398077
0.494575 0.775967 0.397070
0.522332 0.780606 0.396033
0.553277 0.783352 0.398840
0.585077 0.786160 0.401862
0.617487 0.788876 0.405005
0.650385 0.791501 0.408026
0.683894 0.794125 0.411078
0.718074 0.796872 0.414496
0.752956 0.799954 0.418280
0.788602 0.803433 0.422858
0.825223 0.807248 0.428321
0.862028 0.811154 0.434852
0.895079 0.812863 0.447669
0.928527 0.816953 0.466468
0.959503 0.820859 0.486458
0.987121 0.823636 0.504936
1.000000 0.825467 0.522301
1.000000 0.826780 0.538872
1.000000 0.827726 0.554528
1.000000 0.831266 0.572930
1.000000 0.834775 0.591455
1.000000 0.838437 0.610101
1.000000 0.842374 0.629328
0.352056 0.780789 0.426673
0.364660 0.783474 0.427070
0.376745 0.785672 0.427314
0.388800 0.787564 0.427008
0.402106 0.789517 0.426215
0.418006 0.791592 0.425391
0.435767 0.794003 0.424109
0.455940 0.796811 0.422919
0.478126 0.800107 0.421851
0.502708 0.803861 0.420874
0.529015 0.807919 0.419776
0.558251 0.811337 0.420844
0.589563 0.813809 0.423774
0.621210 0.816220 0.426856
0.653407 0.818387 0.429725
0.686183 0.820523 0.432624
0.719600 0.822782 0.435950
0.753628 0.825284 0.439734
0.788693 0.828305 0.444251
0.824491 0.831724 0.449683
0.861021 0.835447 0.455604
0.896513 0.838468 0.464179
0.927398 0.839109 0.477424
0.958434 0.842191 0.497475
0.986450 0.844663 0.517327
1.000000 0.846128 0.535790
1.000000 0.846921 0.553002
1.000000 0.847166 0.569024
1.000000 0.847135 0.583978
1.000000 0.849851 0.602411
1.000000 0.852873 0.621210
1.000000 0.856046 0.639948
0.368902 0.811276 0.450477
0.380560 0.813291 0.450629
0.392035 0.815213 0.450660
0.403296 0.816953 0.450660
0.416754 0.819150 0.450446
0.432441 0.821836 0.450568
0.450965 0.825589 0.451362
0.472114 0.829892 0.452674
0.495613 0.834958 0.454383
0.521355 0.840543 0.456489
0.548943 0.846464 0.458717
0.578485 0.852262 0.460975
0.610803 0.856138 0.466804
0.643366 0.859556 0.472175
0.676020 0.862455 0.477058
0.708522 0.864591 0.480934
0.741360 0.866514 0.484565
0.774685 0.868528 0.488838
0.808865 0.870878 0.493629
0.843595 0.873533 0.499184
0.878660 0.876402 0.505577
0.913695 0.879240 0.512139
0.945769 0.880095 0.521508
0.972656 0.878447 0.534356
0.998749 0.879026 0.554437
1.000000 0.878782 0.572839
1.000000 0.877989 0.589776
1.000000 0.876921 0.605646
1.000000 0.875669 0.620661
1.000000 0.874571 0.634821
1.000000 0.876005 0.652674
1.000000 0.878447 0.671870
0.406989 0.856046 0.494759
0.417578 0.857725 0.494820
0.427863 0.859068 0.494606
0.437964 0.860258 0.494026
0.449683 0.861540 0.493385
0.463478 0.863157 0.492531
0.479774 0.865232 0.492012
0.498177 0.867704 0.491768
0.518791 0.870665 0.491646
0.541283 0.874052 0.491554
0.565820 0.877623 0.491737
0.592218 0.881407 0.491920
0.621210 0.884184 0.494179
0.651820 0.886076 0.498054
