20 Preset/Dark Portrait/【3】LUT video cho PR-AE-FCPX/Tone  (7).cube
# Created by Adobe Lightroom plugin Export LUT (1.22.0)
# www.johnrellis.com/lightroom/exportlut.htm
# Preset: Milestone_01
# Color profile: C:\Program Files (x86)\Common Files\Adobe\Color\Profiles\VideoHD.icc
LUT_3D_SIZE 32
DOMAIN_MIN 0.0 0.0 0.0
DOMAIN_MAX 1.0 1.0 1.0
0.020050 0.013977 0.019104
0.032044 0.017029 0.023346
0.045441 0.019806 0.026856
0.060395 0.021973 0.028962
0.080720 0.024201 0.030793
0.106294 0.026551 0.032624
0.134707 0.029023 0.034455
0.165621 0.031952 0.036316
0.199100 0.035462 0.038697
0.234470 0.040162 0.041749
0.271153 0.046418 0.045777
0.309209 0.053986 0.050629
0.348028 0.063233 0.056397
0.387274 0.074372 0.063050
0.426368 0.087465 0.070985
0.465644 0.101228 0.080049
0.504936 0.115846 0.090364
0.544976 0.131167 0.101137
0.585626 0.147036 0.112764
0.627131 0.164187 0.125307
0.668513 0.181979 0.138674
0.708797 0.201236 0.153109
0.747402 0.221347 0.168856
0.794522 0.249180 0.190555
0.844907 0.283177 0.217533
0.887083 0.316197 0.244297
0.923095 0.349310 0.271489
0.953857 0.382910 0.299596
0.980377 0.417517 0.329595
1.000000 0.453895 0.362036
1.000000 0.492226 0.397589
1.000000 0.532311 0.436652
0.028626 0.025483 0.026093
0.039643 0.022889 0.024964
0.069184 0.023804 0.024720
0.088594 0.025635 0.026642
0.109987 0.027588 0.028290
0.134401 0.029816 0.030060
0.160891 0.032166 0.031830
0.189700 0.034852 0.033875
0.220798 0.038361 0.036225
0.254063 0.042939 0.039277
0.288731 0.049134 0.043153
0.325139 0.056641 0.047669
0.362676 0.065949 0.053254
0.400458 0.076783 0.059632
0.438758 0.089662 0.066926
0.477180 0.103334 0.075685
0.515709 0.117617 0.085847
0.554986 0.132753 0.096651
0.594598 0.148653 0.108186
0.634699 0.165194 0.120577
0.674891 0.182559 0.133791
0.713832 0.201236 0.148226
0.754879 0.223178 0.165377
0.804990 0.253361 0.189456
0.847807 0.283055 0.213779
0.884977 0.312383 0.238041
0.917449 0.342077 0.263249
0.946044 0.372656 0.289830
0.971496 0.404852 0.318364
0.994781 0.439643 0.349187
1.000000 0.476814 0.383093
1.000000 0.516075 0.420569
0.034638 0.040101 0.029694
0.046479 0.033783 0.028260
0.061616 0.032898 0.026978
0.100801 0.036439 0.025391
0.143984 0.035737 0.024231
0.167605 0.037110 0.025879
0.193515 0.039002 0.027619
0.221378 0.041413 0.029419
0.251591 0.044770 0.031678
0.283848 0.049378 0.034485
0.317815 0.055482 0.038087
0.353033 0.063081 0.042481
0.388891 0.072206 0.047730
0.425513 0.083467 0.053681
0.462226 0.095705 0.061067
0.499123 0.108797 0.069215
0.536278 0.122683 0.079164
0.574212 0.137301 0.090211
0.612482 0.152865 0.102205
0.651881 0.169314 0.114931
0.690089 0.186648 0.128328
0.727565 0.205173 0.143191
0.776761 0.232486 0.165103
0.820371 0.260014 0.187503
0.858274 0.286931 0.209934
0.891386 0.313909 0.232883
0.921355 0.341802 0.256992
0.948486 0.371221 0.282841
0.973175 0.402502 0.311040
0.995178 0.436316 0.342260
1.000000 0.472908 0.377050
1.000000 0.511925 0.415808
0.039887 0.059205 0.032380
0.055634 0.051026 0.031281
0.063539 0.042939 0.030335
0.088319 0.045899 0.028016
0.137301 0.052155 0.025055
0.192813 0.051240 0.022187
0.228794 0.050294 0.022705
0.255406 0.051881 0.024353
0.284642 0.054902 0.026551
0.315587 0.059144 0.029450
0.347814 0.064851 0.032715
0.381323 0.071931 0.036988
0.415778 0.081209 0.041840
0.450355 0.091402 0.047700
0.485023 0.102754 0.054536
0.520012 0.114931 0.062593
0.555169 0.127871 0.072053
0.590814 0.141665 0.083040
0.626917 0.156344 0.094942
0.663813 0.172152 0.107759
0.699947 0.188754 0.121309
0.745998 0.211948 0.139986
0.788968 0.236759 0.160464
0.828672 0.262364 0.181827
0.864561 0.288273 0.204044
0.897063 0.315251 0.227268
0.926757 0.343389 0.252079
0.953826 0.373175 0.278691
0.978149 0.404822 0.307500
0.999359 0.438239 0.338750
1.000000 0.473396 0.372747
1.000000 0.510033 0.409522
0.046113 0.084413 0.035187
0.064546 0.073823 0.034028
0.077394 0.064851 0.033082
0.083619 0.055879 0.032624
0.118379 0.062409 0.028901
0.172335 0.070863 0.024018
0.230900 0.071717 0.020478
0.288579 0.067597 0.018128
0.316197 0.069154 0.020294
0.345800 0.072450 0.023102
0.376654 0.077455 0.026215
0.408850 0.084077 0.030030
0.441962 0.091829 0.034638
0.475746 0.101198 0.040131
0.509697 0.111727 0.046906
0.544060 0.123262 0.054719
0.578912 0.135744 0.064027
0.614099 0.149355 0.074952
0.649378 0.163790 0.087465
0.684932 0.179110 0.101015
0.728450 0.199863 0.118135
0.769253 0.221683 0.136812
0.807584 0.244755 0.156649
0.843595 0.268986 0.177615
0.876951 0.293980 0.199771
0.907317 0.320104 0.223026
0.935332 0.347448 0.247715
0.960662 0.376349 0.274144
0.983368 0.406867 0.302647
1.000000 0.439246 0.333410
1.000000 0.473274 0.366888
1.000000 0.508873 0.403174
0.054810 0.115999 0.038758
0.076173 0.106355 0.037385
0.093050 0.096529 0.036347
0.104311 0.087037 0.035248
0.111879 0.075807 0.035309
0.154330 0.086458 0.029419
0.213199 0.097383 0.022217
0.276219 0.100252 0.017975
0.346349 0.096407 0.014038
0.388159 0.095430 0.014893
0.418006 0.098360 0.017975
0.449012 0.103059 0.021485
0.480720 0.109316 0.026093
0.513054 0.117311 0.031556
0.545892 0.126314 0.038148
0.579095 0.137026 0.046021
0.612696 0.148745 0.055390
0.646723 0.161715 0.066346
0.685145 0.177462 0.080323
0.725673 0.195987 0.097230
0.763516 0.215457 0.115084
0.799832 0.236454 0.134249
0.911376 0.314794 0.195743
0.940246 0.342504 0.222080
0.964721 0.369970 0.248417
0.985534 0.397284 0.275242
1.000000 0.424750 0.302647
1.000000 0.452888 0.331212
1.000000 0.481697 0.361120
1.000000 0.511620 0.393103
1.000000 0.542382 0.426886
1.000000 0.573571 0.462257
0.072663 0.170626 0.045167
0.100771 0.159854 0.043305
0.120882 0.149477 0.041810
0.135592 0.138827 0.040497
0.147738 0.126680 0.038758
0.158145 0.113466 0.039460
0.212497 0.127932 0.029877
0.280003 0.140047 0.018677
0.350683 0.144778 0.013336
0.428077 0.143130 0.007935
0.498177 0.136538 0.004822
0.528038 0.139010 0.008881
0.557702 0.143069 0.014252
0.587762 0.148928 0.020478
0.617884 0.156466 0.028077
0.647822 0.165438 0.036896
0.683711 0.178195 0.048035
0.724147 0.194919 0.062623
0.762417 0.212985 0.080842
0.799130 0.232670 0.101503
0.835691 0.254734 0.123812
0.872404 0.279911 0.148257
0.907225 0.307225 0.174716
0.938354 0.335729 0.202457
0.964721 0.364324 0.230503
0.986175 0.391791 0.258274
1.000000 0.418616 0.285893
1.000000 0.445472 0.314092
1.000000 0.473213 0.343572
1.000000 0.501854 0.374792
1.000000 0.531731 0.408026
1.000000 0.562402 0.443214
0.089693 0.206577 0.051575
0.115908 0.196811 0.049531
0.136507 0.186801 0.047456
0.152560 0.177005 0.045808
0.166903 0.165347 0.043854
0.176120 0.149447 0.042298
0.193362 0.141146 0.042542
0.253117 0.157534 0.031159
0.322728 0.170230 0.017700
0.396887 0.176974 0.009918
0.476509 0.177493 0.003449
0.560052 0.170108 0.000000
0.599878 0.168765 0.000031
0.628992 0.172671 0.006104
0.665797 0.181369 0.013367
0.700160 0.191073 0.022889
0.732418 0.202457 0.034791
0.763272 0.215091 0.049073
0.793179 0.229557 0.066285
0.823209 0.245762 0.087129
0.854154 0.264866 0.109468
0.885924 0.286992 0.133791
0.916503 0.311437 0.159701
0.944488 0.337255 0.186770
0.968963 0.363684 0.214572
0.989380 0.389685 0.242100
1.000000 0.415564 0.269963
1.000000 0.441688 0.298528
1.000000 0.468940 0.328374
1.000000 0.497139 0.359838
1.000000 0.526452 0.393225
1.000000 0.556786 0.428717
0.109194 0.245609 0.060883
0.134401 0.236454 0.058350
0.154726 0.227420 0.055909
0.171481 0.217868 0.053590
0.187228 0.206821 0.051240
0.201266 0.194705 0.048432
0.206790 0.174136 0.047364
0.234104 0.172702 0.046296
0.297124 0.189578 0.032654
0.372900 0.205386 0.016785
0.454627 0.215793 0.005463
0.541527 0.220096 0.000000
0.632471 0.216983 0.000000
0.699702 0.211490 0.000000
0.726864 0.215518 0.000000
0.752255 0.221012 0.005798
0.777218 0.228702 0.018128
0.802090 0.238376 0.032868
0.827207 0.250248 0.050355
0.853635 0.264775 0.070802
0.881407 0.282383 0.095552
0.910307 0.303532 0.121920
0.937926 0.326604 0.149294
0.962982 0.351171 0.177707
0.984527 0.376135 0.206180
1.000000 0.400366 0.234226
1.000000 0.424506 0.262242
1.000000 0.449012 0.290806
1.000000 0.474525 0.320500
1.000000 0.500908 0.351537
1.000000 0.528679 0.384527
1.000000 0.557549 0.419684
0.131624 0.287022 0.072816
0.155459 0.278416 0.069703
0.176669 0.271122 0.067475
0.194125 0.263432 0.065095
0.211398 0.254063 0.062318
0.228092 0.243107 0.059113
0.243351 0.230350 0.055543
0.249454 0.209628 0.055543
0.286137 0.213596 0.052308
0.356756 0.233463 0.035492
0.437140 0.249577 0.015351
0.521019 0.260014 0.000427
0.607507 0.264225 0.000000
0.694697 0.261601 0.000000
0.774166 0.250553 0.000000
0.799222 0.252811 0.000000
0.821439 0.258396 0.000000
0.843748 0.266392 0.014038
0.865934 0.276585 0.032105
0.888548 0.289220 0.053376
0.911681 0.304295 0.078920
0.934722 0.321874 0.107057
0.956451 0.341009 0.135012
0.976257 0.361486 0.162875
0.993957 0.382635 0.190616
1.000000 0.404181 0.218326
1.000000 0.426398 0.246372
1.000000 0.449683 0.275395
1.000000 0.474586 0.305760
1.000000 0.500847 0.338079
1.000000 0.528679 0.372290
1.000000 0.557580 0.408392
0.161013 0.338445 0.091127
0.184573 0.330968 0.087953
0.204715 0.323186 0.084840
0.222080 0.315435 0.081910
0.239597 0.305974 0.077821
0.257267 0.294987 0.073854
0.273930 0.282506 0.069642
0.289128 0.268956 0.064515
0.295537 0.247440 0.065858
0.338659 0.254398 0.059510
0.412879 0.274357 0.039368
0.494545 0.290074 0.015564
0.579736 0.300359 0.000000
0.664759 0.304997 0.000000
0.744778 0.302434 0.000000
0.818387 0.292851 0.000000
0.860319 0.288884 0.000000
0.878843 0.294224 0.000000
0.897642 0.301884 0.010040
0.916869 0.312016 0.031647
0.936584 0.324956 0.057160
0.956329 0.340398 0.087221
0.975006 0.357519 0.117983
0.992187 0.375982 0.147707
1.000000 0.395361 0.176852
1.000000 0.415259 0.205997
1.000000 0.436164 0.235111
1.000000 0.458228 0.264866
1.000000 0.481910 0.296086
1.000000 0.507103 0.328832
1.000000 0.533806 0.363531
1.000000 0.561822 0.400214
0.192538 0.389471 0.111391
0.214420 0.382208 0.107912
0.233951 0.374609 0.104860
0.251194 0.367010 0.101320
0.268650 0.357824 0.097627
0.286839 0.347204 0.092897
0.304143 0.335058 0.087587
0.320745 0.321782 0.082338
0.332799 0.304204 0.077180
0.343572 0.285954 0.078737
0.393652 0.296239 0.068849
0.471412 0.316899 0.045136
0.637568 0.387213 0.020844
0.722621 0.395270 0.000000
0.798642 0.397131 0.000000
0.868040 0.393408 0.000000
0.929229 0.384466 0.000000
0.977417 0.374029 0.000000
0.988281 0.378790 0.000000
0.999603 0.386419 0.025422
1.000000 0.396460 0.059480
1.000000 0.408515 0.097444
1.000000 0.421942 0.132570
1.000000 0.436744 0.165652
1.000000 0.452583 0.197024
1.000000 0.469245 0.227634
1.000000 0.486549 0.257664
1.000000 0.504936 0.287907
1.000000 0.524620 0.318730
1.000000 0.546044 0.351202
1.000000 0.568994 0.385229
1.000000 0.593652 0.421332
0.252171 0.475624 0.150240
0.273503 0.467353 0.146120
0.291295 0.458320 0.141207
0.306828 0.448981 0.136721
0.323186 0.437507 0.131075
0.340185 0.424506 0.125032
0.357214 0.410712 0.118379
0.374517 0.396460 0.111299
0.391302 0.381689 0.104433
0.400214 0.360113 0.100252
0.418708 0.346502 0.103426
0.483406 0.364263 0.090517
0.573053 0.389593 0.060792
0.664149 0.408240 0.025330
0.747341 0.418280 0.000000
0.820096 0.421973 0.000000
0.884947 0.419776 0.000000
0.941894 0.412726 0.000000
0.992035 0.402228 0.000000
1.000000 0.403113 0.000000
1.000000 0.410559 0.023407
1.000000 0.420417 0.060090
1.000000 0.431678 0.100465
1.000000 0.444617 0.137331
1.000000 0.458778 0.171420
1.000000 0.473945 0.204105
1.000000 0.490242 0.236118
1.000000 0.507988 0.268101
1.000000 0.527245 0.300725
1.000000 0.548272 0.334630
1.000000 0.570672 0.369940
1.000000 0.594873 0.407263
0.280552 0.513878 0.169223
0.299687 0.506035 0.164767
0.315862 0.497230 0.160159
0.330205 0.488136 0.155245
0.345190 0.476936 0.149630
0.360967 0.464210 0.142824
0.377508 0.450904 0.136141
0.394232 0.436744 0.128847
0.410895 0.422461 0.121584
0.427802 0.407843 0.114473
0.432593 0.383398 0.111940
0.456336 0.374487 0.115694
0.527245 0.395575 0.099916
0.614557 0.419532 0.069306
0.698543 0.435401 0.032868
0.774838 0.443641 0.001465
0.842527 0.447395 0.000000
0.902464 0.446204 0.000000
0.956329 0.441566 0.000000
1.000000 0.433600 0.000000
1.000000 0.429816 0.000000
1.000000 0.437598 0.024598
1.000000 0.447211 0.065156
1.000000 0.458564 0.108797
1.000000 0.471260 0.147433
1.000000 0.485176 0.183230
1.000000 0.500175 0.217533
1.000000 0.516594 0.251316
1.000000 0.534569 0.285283
1.000000 0.554467 0.320378
1.000000 0.576043 0.356817
1.000000 0.599298 0.395331
0.311833 0.551507 0.190249
0.328985 0.544915 0.185946
0.343847 0.537072 0.181094
0.356725 0.528283 0.175967
0.370275 0.517601 0.169833
0.384894 0.505364 0.162966
0.400610 0.492592 0.155917
0.417487 0.479469 0.148836
0.435035 0.466163 0.141573
0.453285 0.453254 0.134463
0.471534 0.440406 0.127718
0.474678 0.414435 0.126955
0.503899 0.409979 0.132113
0.581872 0.434791 0.113771
0.664454 0.456184 0.084321
0.740536 0.468849 0.045533
0.810697 0.475563 0.010681
0.871733 0.478889 0.003021
0.927123 0.478523 0.000000
0.975921 0.474800 0.000000
1.000000 0.468269 0.000000
1.000000 0.459785 0.000000
1.000000 0.466957 0.030426
1.000000 0.476112 0.075349
1.000000 0.486824 0.121035
1.000000 0.499153 0.161196
1.000000 0.513207 0.198886
1.000000 0.528923 0.235538
1.000000 0.546685 0.272679
1.000000 0.566522 0.310674
1.000000 0.588312 0.350103
1.000000 0.611810 0.391455
0.344823 0.587793 0.213840
0.361334 0.582788 0.210239
0.375525 0.576928 0.206241
0.388708 0.570306 0.201511
0.402777 0.562127 0.196078
0.418280 0.552636 0.189609
0.435340 0.542687 0.183352
0.453346 0.531884 0.176547
0.472328 0.520378 0.169406
0.490974 0.508537 0.162142
0.509117 0.495399 0.154452
0.524132 0.479683 0.146853
0.526879 0.453315 0.146181
0.552239 0.445930 0.149966
0.630121 0.469764 0.128481
0.703853 0.486091 0.099458
0.773312 0.496407 0.059358
0.838682 0.502739 0.022065
0.896391 0.507164 0.016083
0.947967 0.508385 0.012055
0.993378 0.506737 0.009705
1.000000 0.502403 0.008972
1.000000 0.495064 0.009186
1.000000 0.497749 0.041810
1.000000 0.507134 0.093080
1.000000 0.518090 0.139864
1.000000 0.530877 0.181888
1.000000 0.545342 0.221683
1.000000 0.561578 0.260868
1.000000 0.579614 0.300175
1.000000 0.599237 0.340246
1.000000 0.620447 0.381567
0.376593 0.619318 0.237400
0.390661 0.614557 0.233616
0.403510 0.609247 0.229343
0.415442 0.603449 0.224918
0.428962 0.596735 0.219883
0.444129 0.588952 0.214023
0.460700 0.580285 0.207370
0.478340 0.570855 0.200717
0.496834 0.560723 0.193454
0.515648 0.550042 0.186130
0.534234 0.538201 0.178164
0.552056 0.525414 0.169284
0.562676 0.506584 0.162539
0.569421 0.484016 0.162051
0.598566 0.479164 0.163668
0.671443 0.500053 0.143160
0.740749 0.514946 0.115175
0.806302 0.524804 0.076265
0.866697 0.530907 0.037995
0.920470 0.536248 0.034302
0.967712 0.538445 0.032502
1.000000 0.537743 0.032227
1.000000 0.534234 0.032868
1.000000 0.528222 0.034730
1.000000 0.526360 0.056489
1.000000 0.536034 0.112123
1.000000 0.547570 0.160098
1.000000 0.560815 0.204135
1.000000 0.575952 0.246342
1.000000 0.592798 0.288121
1.000000 0.611383 0.330419
1.000000 0.631495 0.373388
0.415717 0.654932 0.267643
0.428901 0.651392 0.264195
0.487953 0.683955 0.297551
0.498421 0.679042 0.292699
0.509941 0.672969 0.286748
0.522667 0.665705 0.279850
0.536889 0.657404 0.271763
0.552361 0.648493 0.263493
0.569085 0.638849 0.254887
0.586786 0.628748 0.245853
0.604608 0.617823 0.236179
0.622095 0.605676 0.225711
0.638056 0.591760 0.213901
0.642725 0.568414 0.204562
0.651362 0.547417 0.203006
0.681086 0.542840 0.201572
0.746517 0.559258 0.181003
0.807370 0.570367 0.153689
0.863493 0.576562 0.116670
0.914275 0.579644 0.078950
0.958679 0.582849 0.077211
0.997742 0.583612 0.077028
1.000000 0.581994 0.078370
1.000000 0.577691 0.080385
1.000000 0.570611 0.082307
1.000000 0.562737 0.088991
1.000000 0.571283 0.143008
1.000000 0.581903 0.190402
1.000000 0.594781 0.235142
1.000000 0.609979 0.279301
1.000000 0.627161 0.323644
1.000000 0.645838 0.368353
0.474342 0.702022 0.314580
0.488350 0.700954 0.313634
0.501732 0.699397 0.312016
0.514305 0.697292 0.310063
0.527123 0.693690 0.306401
0.539879 0.688045 0.300755
0.553246 0.681025 0.293400
0.567712 0.673091 0.285557
0.583490 0.664668 0.277043
0.600153 0.655665 0.268223
0.617548 0.645838 0.258854
0.634760 0.635218 0.248905
0.650965 0.623011 0.237766
0.666041 0.609277 0.225345
0.666560 0.583490 0.216495
0.678920 0.566644 0.216190
0.711971 0.565179 0.213657
0.774380 0.580957 0.194125
0.832639 0.592157 0.168460
0.885496 0.598810 0.134646
0.932738 0.602716 0.104921
0.973999 0.607111 0.106203
1.000000 0.608911 0.109041
1.000000 0.608026 0.112245
1.000000 0.604303 0.115206
1.000000 0.598322 0.118318
1.000000 0.590204 0.121218
1.000000 0.595636 0.164340
1.000000 0.606897 0.212955
1.000000 0.620356 0.259678
1.000000 0.635737 0.305669
1.000000 0.652857 0.351751
0.502770 0.724300 0.339025
0.514855 0.723445 0.338170
0.527184 0.722286 0.336889
0.538842 0.720638 0.335515
0.550927 0.717891 0.332341
0.563317 0.713497 0.327520
0.576287 0.707790 0.321019
0.589960 0.701228 0.313634
0.604974 0.693965 0.305547
0.620813 0.686152 0.297246
0.637171 0.677638 0.288060
0.653864 0.668147 0.278202
0.670008 0.657527 0.267277
0.685420 0.645716 0.255406
0.699916 0.632410 0.242191
0.697261 0.604944 0.233768
0.712764 0.591699 0.234867
0.748043 0.592554 0.230808
0.806455 0.607202 0.212253
0.860197 0.617548 0.188113
0.908782 0.623499 0.155673
0.951659 0.627771 0.134371
0.988647 0.632136 0.137636
1.000000 0.634119 0.141939
1.000000 0.633204 0.145876
1.000000 0.629755 0.149538
1.000000 0.624323 0.152987
1.000000 0.617090 0.156680
1.000000 0.618921 0.187259
1.000000 0.631037 0.237919
1.000000 0.645228 0.286809
1.000000 0.661219 0.335332
0.537652 0.749599 0.371008
0.549371 0.749538 0.370947
0.561242 0.749081 0.370703
0.572259 0.748135 0.369879
0.583551 0.745968 0.367346
0.594720 0.742245 0.362646
0.605982 0.737240 0.356054
0.618097 0.731228 0.348302
0.631312 0.724636 0.340093
0.645350 0.717433 0.331121
0.660304 0.709621 0.321935
0.675593 0.701106 0.311620
0.690852 0.691493 0.300481
0.706020 0.681086 0.288457
0.720821 0.669764 0.275883
0.733425 0.656123 0.263096
0.731228 0.629755 0.255070
0.751186 0.621485 0.259678
0.790005 0.626551 0.256901
0.845731 0.641993 0.241825
0.895872 0.653162 0.221378
0.940307 0.659998 0.193149
0.977722 0.665461 0.182681
1.000000 0.669978 0.189120
1.000000 0.672328 0.196109
1.000000 0.671778 0.202060
1.000000 0.669062 0.207309
1.000000 0.664576 0.212436
1.000000 0.658717 0.217716
1.000000 0.657282 0.237858
1.000000 0.670161 0.290410
1.000000 0.684565 0.341527
0.597223 0.786099 0.428626
0.605066 0.785183 0.426764
0.612848 0.783383 0.424140
0.620020 0.781216 0.421057
0.627619 0.778225 0.416205
0.635920 0.774441 0.410468
0.645228 0.769863 0.403235
0.655726 0.764889 0.395575
0.667659 0.759487 0.387701
0.680873 0.753811 0.379400
0.694972 0.747555 0.370489
0.709560 0.740688 0.360784
0.724025 0.732845 0.349859
0.738491 0.724056 0.337896
0.752651 0.714260 0.324773
0.766659 0.703548 0.310796
0.775967 0.688594 0.297734
0.776761 0.665736 0.289677
0.794797 0.657557 0.293950
0.831937 0.662867 0.289555
0.880339 0.675135 0.273686
0.923308 0.683162 0.252201
0.961089 0.687160 0.222568
0.992493 0.690852 0.219089
1.000000 0.693355 0.224125
1.000000 0.694881 0.230961
1.000000 0.694514 0.237613
1.000000 0.692470 0.244053
1.000000 0.689021 0.250889
1.000000 0.684169 0.257481
1.000000 0.679408 0.267765
1.000000 0.692409 0.321386
0.629755 0.805692 0.462501
0.636652 0.804776 0.460639
0.643153 0.803555 0.458473
0.649409 0.801755 0.455512
0.656367 0.799252 0.451484
0.663905 0.796109 0.446143
0.672297 0.792386 0.439796
0.681910 0.788266 0.432837
0.692744 0.783749 0.425360
0.704646 0.779049 0.417639
0.717525 0.773861 0.409125
0.731014 0.768063 0.399908
0.744717 0.761593 0.389319
0.758572 0.754391 0.378149
0.772519 0.746365 0.365759
0.786526 0.737667 0.352728
0.800626 0.728359 0.338872
0.808011 0.713161 0.326482
0.812345 0.694331 0.320104
0.829648 0.687404 0.325261
0.865629 0.693782 0.320775
0.908659 0.704616 0.305730
0.946319 0.711299 0.284581
0.979614 0.714321 0.256413
1.000000 0.714687 0.256474
1.000000 0.716182 0.261326
1.000000 0.717891 0.269444
1.000000 0.717800 0.277317
1.000000 0.716335 0.285100
1.000000 0.713588 0.293034
1.000000 0.709773 0.301030
1.000000 0.704829 0.309087
0.678126 0.831632 0.514611
0.684413 0.831174 0.513542
0.689601 0.830228 0.511437
0.694209 0.828458 0.508171
0.698848 0.825895 0.503197
0.704067 0.822660 0.496925
0.709926 0.818875 0.489448
0.716732 0.814694 0.481453
0.724666 0.810086 0.472663
0.733700 0.805203 0.463447
0.743404 0.799802 0.453529
0.754208 0.794125 0.443183
0.765438 0.787900 0.431647
0.777127 0.780972 0.419135
0.788846 0.773312 0.405280
0.801053 0.765072 0.390906
0.813657 0.756435 0.376074
0.826871 0.747494 0.361303
0.832364 0.731868 0.349401
0.839536 0.716762 0.345434
0.856352 0.711147 0.352087
0.890990 0.718379 0.347326
0.928985 0.727291 0.331456
0.962127 0.731868 0.308354
0.990692 0.733761 0.289097
1.000000 0.735561 0.292485
1.000000 0.735653 0.295872
1.000000 0.736873 0.304051
1.000000 0.736812 0.312383
1.000000 0.735866 0.321324
1.000000 0.734035 0.330816
1.000000 0.731441 0.340551
0.699825 0.844388 0.540124
0.705684 0.844114 0.539452
0.710750 0.843534 0.538231
0.715358 0.842435 0.535851
0.720272 0.840696 0.532372
0.725948 0.838437 0.527764
0.732448 0.835843 0.522667
0.739773 0.832975 0.516777
0.748165 0.829770 0.510460
0.757351 0.826383 0.503746
0.767178 0.822477 0.496101
0.777676 0.818296 0.487739
0.788571 0.813565 0.478309
0.799680 0.808255 0.467811
0.810971 0.802304 0.456123
0.822477 0.795743 0.442908
0.834287 0.788693 0.429084
0.846647 0.781369 0.414557
0.859464 0.773922 0.399908
0.863554 0.758572 0.387915
0.871733 0.746181 0.385016
0.886381 0.740688 0.391150
0.917357 0.747005 0.384161
0.949981 0.753750 0.367559
0.979187 0.756741 0.343114
1.000000 0.758907 0.335943
1.000000 0.760220 0.340215
1.000000 0.759823 0.343542
1.000000 0.761532 0.353857
1.000000 0.762142 0.364294
1.000000 0.761868 0.374945
1.000000 0.760800 0.385931
0.731197 0.860807 0.578302
0.735714 0.860319 0.577142
0.739528 0.859648 0.575280
0.743038 0.858701 0.572900
0.746975 0.857237 0.569421
0.751675 0.855253 0.564996
0.756924 0.853025 0.559716
0.763149 0.850462 0.554131
0.770199 0.847654 0.547784
0.778195 0.844694 0.541314
0.786893 0.841428 0.534203
0.796384 0.837980 0.526848
0.806332 0.834073 0.518303
0.816464 0.829740 0.509056
0.826780 0.824735 0.498085
0.837308 0.819211 0.486061
0.848234 0.813321 0.473121
0.859556 0.807126 0.459785
0.871672 0.800931 0.446479
0.884337 0.794797 0.432929
0.887541 0.780056 0.421759
0.896757 0.770504 0.421393
0.909941 0.765835 0.427985
0.938140 0.771725 0.420111
0.966979 0.776791 0.402289
0.993042 0.778561 0.377356
1.000000 0.781094 0.382696
1.000000 0.781674 0.386633
1.000000 0.780850 0.389563
1.000000 0.782315 0.400214
1.000000 0.783261 0.411688
1.000000 0.783444 0.423255
0.757412 0.874632 0.612634
0.760769 0.874022 0.610956
0.764065 0.873411 0.609339
0.767117 0.872740 0.607324
0.770871 0.871916 0.604913
0.775814 0.870756 0.602319
0.782193 0.869749 0.600305
0.789609 0.868711 0.598260
0.798062 0.867735 0.596399
0.807340 0.866728 0.594568
0.817227 0.865629 0.592584
0.827390 0.864256 0.589624
0.837644 0.862486 0.585718
0.847715 0.860197 0.580224
0.857664 0.857298 0.572961
0.867277 0.853605 0.563470
0.877073 0.849363 0.552575
0.887205 0.844907 0.541253
0.898009 0.840421 0.529808
0.909300 0.835904 0.518090
0.920317 0.830900 0.506523
0.923430 0.818265 0.496132
0.931914 0.810910 0.496498
0.942321 0.806394 0.501640
0.965362 0.810025 0.490394
0.988495 0.812070 0.470192
1.000000 0.812772 0.456336
1.000000 0.813321 0.459052
1.000000 0.812650 0.461097
1.000000 0.811032 0.462593
1.000000 0.811612 0.471626
1.000000 0.812345 0.482856
0.798306 0.894438 0.669612
0.800839 0.893980 0.668177
0.803067 0.893370 0.666346
0.805203 0.892699 0.664118
0.807553 0.891844 0.661433
0.810575 0.890806 0.658228
0.814572 0.889464 0.654627
0.819333 0.888060 0.650965
0.824887 0.886595 0.647028
0.831113 0.885039 0.642939
0.837888 0.883360 0.638483
0.845274 0.881468 0.633509
0.852995 0.879362 0.627802
0.860990 0.876890 0.620966
