20 Preset/Dark Portrait/【3】LUT video cho PR-AE-FCPX/Tone  (8).cube
# Created by Adobe Lightroom plugin Export LUT (1.22.0)
# www.johnrellis.com/lightroom/exportlut.htm
# Preset: Milestone_02
# Color profile: C:\Program Files (x86)\Common Files\Adobe\Color\Profiles\VideoHD.icc
LUT_3D_SIZE 8
DOMAIN_MIN 0.000000 0.000000 0.000000
DOMAIN_MAX 0.903226 0.903226 0.903226
0.053223 0.034180 0.035981
0.074128 0.034333 0.036042
0.145327 0.035004 0.035248
0.245304 0.037629 0.033722
0.359350 0.046693 0.033387
0.503380 0.071992 0.033570
0.641230 0.111635 0.032471
0.777523 0.156680 0.031739
0.053651 0.037110 0.036378
0.084291 0.043763 0.035981
0.159731 0.051209 0.036744
0.260288 0.060121 0.036805
0.373236 0.075227 0.037385
0.506065 0.104219 0.037324
0.635004 0.139315 0.036469
0.771511 0.182345 0.036561
0.054688 0.061616 0.037293
0.097078 0.071534 0.037659
0.183597 0.090120 0.038148
0.315526 0.123781 0.048890
0.438025 0.145846 0.047578
0.569451 0.177188 0.047456
0.713100 0.219120 0.049958
0.837491 0.255924 0.057435
0.059907 0.116854 0.041505
0.113893 0.131197 0.039612
0.202213 0.149569 0.040558
0.347356 0.193576 0.038270
0.532677 0.268315 0.072511
0.670527 0.306035 0.089082
0.784146 0.327703 0.094667
0.888212 0.349371 0.108919
0.057496 0.190097 0.042878
0.123232 0.206119 0.039368
0.224125 0.231510 0.038727
0.359655 0.273472 0.041077
0.524102 0.332067 0.040558
0.686488 0.397833 0.110231
0.828305 0.447639 0.170047
0.926909 0.460578 0.190768
0.046571 0.308659 0.042664
0.139101 0.334874 0.038087
0.257389 0.363653 0.032563
0.394293 0.397528 0.036530
0.544182 0.442054 0.044984
0.713161 0.499367 0.069459
0.855100 0.551659 0.205478
0.968383 0.604273 0.327703
0.001526 0.471778 0.036133
0.130373 0.491707 0.030396
0.269902 0.518914 0.018952
0.420386 0.549615 0.025483
0.573938 0.582940 0.045258
0.731838 0.618799 0.087068
0.869780 0.639918 0.173587
0.964569 0.668696 0.332128
0.000000 0.667597 0.030335
0.073518 0.680446 0.026703
0.265507 0.701686 0.023651
0.440528 0.728573 0.043671
0.594476 0.731167 0.075654
0.762783 0.760067 0.157321
0.904906 0.769650 0.253117
0.993347 0.765286 0.365759
0.052827 0.036744 0.041352
0.077302 0.037812 0.054047
0.141695 0.037385 0.052155
0.227054 0.038300 0.051820
0.337865 0.047059 0.055695
0.460121 0.063722 0.058839
0.583307 0.092897 0.059174
0.716365 0.132174 0.058686
0.054383 0.046967 0.049439
0.085054 0.055207 0.057893
0.152071 0.060365 0.061250
0.248783 0.066011 0.062196
0.362432 0.077790 0.063539
0.477638 0.097749 0.064790
0.594965 0.125216 0.064210
0.725887 0.162814 0.064271
0.061555 0.073426 0.061891
0.090242 0.088411 0.064210
0.180209 0.103151 0.065156
0.293278 0.126009 0.083650
0.410193 0.141726 0.082490
0.526604 0.163119 0.082216
0.650538 0.193057 0.083101
0.783200 0.231510 0.086763
0.056611 0.125612 0.072572
0.090974 0.142123 0.066773
0.190555 0.162844 0.066285
0.330510 0.194125 0.068910
0.476295 0.244785 0.119295
0.596979 0.269352 0.123476
0.715785 0.293645 0.122225
0.833310 0.321263 0.128664
0.033600 0.203403 0.078706
0.090089 0.221744 0.071778
0.205234 0.248356 0.068757
0.342901 0.277562 0.076875
0.493965 0.318547 0.080751
0.647120 0.381170 0.155856
0.788602 0.429755 0.198489
0.894530 0.445747 0.209781
0.000000 0.313909 0.082826
0.085389 0.331670 0.078981
0.219089 0.360540 0.072419
0.367712 0.394263 0.078614
0.521965 0.436805 0.095705
0.694087 0.494087 0.120577
0.834348 0.548669 0.244022
0.948943 0.602502 0.351629
0.000000 0.459266 0.084993
0.049378 0.472694 0.078431
0.219059 0.497444 0.069184
0.382605 0.533440 0.069947
0.545769 0.571466 0.094881
0.708278 0.609094 0.131838
0.847227 0.629389 0.196811
0.944091 0.659113 0.341558
0.000000 0.653529 0.086549
0.000000 0.668482 0.084993
0.206302 0.689693 0.082643
0.401862 0.721004 0.092927
0.582544 0.744198 0.144839
0.751797 0.765469 0.206332
0.895109 0.771939 0.284672
0.985962 0.768002 0.389258
0.049470 0.052003 0.071870
0.076753 0.060029 0.087953
0.156954 0.056764 0.122225
0.269474 0.058076 0.121706
0.341894 0.033967 0.088411
0.456306 0.050629 0.093324
0.580835 0.080781 0.099428
0.715023 0.121614 0.103426
0.059754 0.070008 0.086641
0.090761 0.079652 0.098573
0.157931 0.084077 0.124636
0.260410 0.077424 0.114778
0.361089 0.074250 0.104005
0.474708 0.095491 0.108705
0.595819 0.123812 0.112245
0.728176 0.158267 0.112581
0.063813 0.098817 0.102785
0.097932 0.110903 0.114382
0.170108 0.130373 0.132143
0.288457 0.143648 0.139040
0.408484 0.155398 0.140108
0.523186 0.171328 0.139254
0.644038 0.194888 0.138064
0.772580 0.226505 0.137942
0.063905 0.147707 0.124331
0.099367 0.164126 0.133639
0.169863 0.197421 0.141176
0.335210 0.230472 0.149111
0.476936 0.276707 0.201114
0.592767 0.287175 0.192569
0.714229 0.306249 0.187900
0.831266 0.328588 0.187381
0.050019 0.229435 0.153994
0.088441 0.248112 0.156161
0.170169 0.278538 0.148714
0.334508 0.315190 0.153933
0.499336 0.350896 0.164553
0.647486 0.410773 0.242008
0.776425 0.443153 0.263523
0.885008 0.456031 0.265995
0.000000 0.330236 0.173068
0.043336 0.349310 0.167727
0.163272 0.378363 0.154818
0.335088 0.416846 0.153445
0.505211 0.454017 0.171542
0.680262 0.503960 0.194949
0.821164 0.565057 0.317021
0.935637 0.617182 0.404761
0.000000 0.475776 0.187442
0.000000 0.492958 0.170596
0.136263 0.515984 0.160647
0.336187 0.554467 0.153719
0.521660 0.587945 0.175143
0.698390 0.626825 0.211673
0.845304 0.647852 0.270970
0.942107 0.686671 0.418830
0.000000 0.654231 0.182650
0.000000 0.667109 0.173037
0.070466 0.688502 0.173342
0.341802 0.724514 0.183261
0.547478 0.750790 0.216831
0.731716 0.773831 0.275090
0.886168 0.784329 0.346868
0.979278 0.781460 0.443336
0.048127 0.087953 0.130953
0.076081 0.098421 0.148287
0.129946 0.106813 0.180636
0.280797 0.095766 0.235111
0.433936 0.130037 0.245548
0.480262 0.073060 0.182528
0.533043 0.039612 0.134157
0.663416 0.073793 0.139864
0.057954 0.115694 0.153475
0.090028 0.124239 0.166201
0.156497 0.139345 0.188174
0.286809 0.133272 0.243748
0.423560 0.154971 0.239322
0.471260 0.094331 0.174350
0.558465 0.090974 0.152316
0.686763 0.122988 0.154513
0.059693 0.142275 0.167361
0.097749 0.154116 0.180758
0.170474 0.173617 0.202396
0.282353 0.187564 0.242222
0.412696 0.187228 0.229923
0.497200 0.159823 0.192142
0.622339 0.183780 0.194003
0.748592 0.205722 0.188357
0.059815 0.195682 0.197543
0.106233 0.208927 0.209567
0.185000 0.230198 0.228244
0.302434 0.263340 0.255680
0.432105 0.278477 0.260288
0.552819 0.283787 0.251499
0.677211 0.295201 0.242985
0.801389 0.312535 0.235660
0.062867 0.265812 0.229221
0.114473 0.279271 0.238468
0.192752 0.300908 0.251743
0.297887 0.347265 0.268070
0.481270 0.391180 0.277775
0.636255 0.452216 0.347478
0.754910 0.454963 0.333562
0.865354 0.458839 0.322545
0.025391 0.357275 0.261204
0.074891 0.379095 0.270817
0.160525 0.405798 0.275975
0.282597 0.451637 0.271885
0.481758 0.498207 0.280674
0.669337 0.537285 0.304356
0.807340 0.597864 0.415290
0.916106 0.630854 0.462196
0.000000 0.481941 0.286046
0.000000 0.501030 0.287449
0.047608 0.532158 0.284031
0.255955 0.577234 0.273411
0.477882 0.620417 0.280430
0.678126 0.654292 0.315221
0.834592 0.671138 0.361578
0.931090 0.716091 0.503990
0.000000 0.657160 0.309148
0.000000 0.673182 0.304814
0.000000 0.697292 0.293919
0.237705 0.729458 0.294408
0.484413 0.762661 0.307378
0.695369 0.783963 0.359777
0.869474 0.801541 0.428321
0.969451 0.800107 0.513085
0.037354 0.148562 0.216526
0.071687 0.160647 0.234836
0.146334 0.177859 0.259648
0.232273 0.182834 0.311711
0.418585 0.171054 0.367956
0.578119 0.227634 0.377295
0.635767 0.173465 0.311070
0.666590 0.072816 0.224399
0.049256 0.177615 0.239078
0.089509 0.188815 0.254643
0.162753 0.204623 0.275639
0.250980 0.217716 0.315984
0.418585 0.205539 0.371160
0.576471 0.261204 0.380133
0.628656 0.190097 0.304448
0.658656 0.083925 0.211856
0.056855 0.209232 0.257694
0.104128 0.219883 0.269963
0.174441 0.233890 0.286259
0.276555 0.258610 0.312902
0.408515 0.251011 0.365850
0.553979 0.287022 0.365087
0.608667 0.203922 0.284550
0.673152 0.142458 0.218479
0.060029 0.251225 0.278141
0.110872 0.262516 0.289494
0.187930 0.280827 0.307439
0.292485 0.308995 0.333104
0.411261 0.330694 0.373327
0.543023 0.322087 0.353368
0.617975 0.252445 0.280156
0.742794 0.260594 0.266209
0.060243 0.311315 0.306096
0.115145 0.322759 0.316014
0.193790 0.341222 0.331609
0.296757 0.369909 0.354772
0.424048 0.407568 0.383093
0.566857 0.423072 0.384497
0.696407 0.418921 0.364843
0.818570 0.417823 0.346166
0.031769 0.372930 0.324743
0.085206 0.383795 0.332097
0.163027 0.397803 0.339879
0.263340 0.423651 0.353643
0.393683 0.481514 0.375036
0.614679 0.548760 0.404059
0.772122 0.620905 0.504021
0.881621 0.617243 0.491493
0.000000 0.485176 0.366796
0.000000 0.493568 0.368322
0.042420 0.513451 0.372778
0.197360 0.557519 0.384527
0.384649 0.616205 0.392401
0.613947 0.660792 0.411475
0.798459 0.684169 0.451606
0.904784 0.730831 0.569512
0.000000 0.627588 0.393957
0.000000 0.638788 0.390814
0.000000 0.662257 0.390204
0.058656 0.707637 0.402655
0.383642 0.751461 0.415106
0.627161 0.786038 0.445258
0.827787 0.808347 0.503410
0.947570 0.809567 0.568109
0.016114 0.252598 0.350805
0.069703 0.264286 0.366278
0.159945 0.276799 0.382696
0.260838 0.297795 0.416449
0.368536 0.294133 0.468452
0.563043 0.284916 0.521050
0.720180 0.357580 0.525170
0.800443 0.340337 0.476997
0.034638 0.263401 0.349737
0.085145 0.271458 0.360418
0.165988 0.285008 0.377417
0.271611 0.309209 0.404211
0.366155 0.312566 0.458259
0.553826 0.306004 0.514458
0.711177 0.376989 0.520317
0.788388 0.341314 0.464118
0.048249 0.302037 0.375158
0.103487 0.309148 0.383978
0.182315 0.321630 0.398260
0.283360 0.341283 0.418036
0.381842 0.358648 0.462684
0.554131 0.352850 0.520165
0.711116 0.422248 0.527245
0.780301 0.351446 0.451637
0.048829 0.344091 0.396185
0.109163 0.351720 0.404181
0.191409 0.367285 0.420203
0.300511 0.397803 0.449317
0.427161 0.437629 0.482521
0.564111 0.435462 0.539544
0.719509 0.492561 0.546319
0.775326 0.358282 0.427710
0.039429 0.385901 0.408301
0.100404 0.395087 0.417060
0.183139 0.410193 0.431281
0.286290 0.433845 0.453132
0.413275 0.468238 0.481666
0.548547 0.498604 0.527306
0.687098 0.483131 0.498329
0.756466 0.352331 0.374487
0.009735 0.444160 0.428107
0.069886 0.456367 0.438666
0.161624 0.470741 0.450568
0.270878 0.494331 0.469703
0.400702 0.527642 0.495644
0.561395 0.580865 0.537499
0.713558 0.599390 0.542290
0.837369 0.580468 0.511009
0.000000 0.546593 0.476265
0.000000 0.558312 0.484474
0.062593 0.573663 0.494453
0.223819 0.596033 0.507988
0.378729 0.624323 0.523705
0.553429 0.678889 0.552605
0.760220 0.721218 0.579828
0.887480 0.774319 0.673854
0.000000 0.651942 0.504662
0.000000 0.656855 0.504692
0.000000 0.665431 0.504295
0.000000 0.691371 0.511528
0.280125 0.729946 0.522423
0.545159 0.780789 0.558831
0.768612 0.816403 0.598077
0.920714 0.829831 0.652003
0.002747 0.348882 0.467933
0.066712 0.360113 0.481666
0.165682 0.374365 0.498054
0.280003 0.399573 0.523400
0.378820 0.420203 0.564324
0.497810 0.419043 0.610956
0.679042 0.420233 0.653437
0.816678 0.495705 0.650019
0.017060 0.358526 0.467536
0.078004 0.368627 0.479713
0.169955 0.381994 0.494911
0.278202 0.404730 0.517723
0.381720 0.429450 0.553796
0.490425 0.428199 0.599756
0.667170 0.425696 0.642145
0.804257 0.496376 0.638178
0.023865 0.391455 0.488472
0.088014 0.398810 0.497017
0.177859 0.410529 0.509636
0.285466 0.431586 0.529961
0.401862 0.461677 0.556603
0.499763 0.467567 0.604395
0.672572 0.470161 0.652125
0.809751 0.541894 0.651850
0.014893 0.432929 0.511498
0.079194 0.437812 0.517144
0.174746 0.448341 0.528191
0.288609 0.470741 0.548852
0.414984 0.502953 0.572900
0.522911 0.529015 0.616419
0.680171 0.530297 0.665614
0.816312 0.594934 0.667109
0.000000 0.469245 0.521172
0.051850 0.472999 0.525292
0.148989 0.480293 0.533318
0.259251 0.497353 0.550530
0.394629 0.528008 0.575341
0.538628 0.574548 0.607385
0.673091 0.581140 0.662654
0.820676 0.648615 0.679652
0.000000 0.521477 0.539666
0.005432 0.528099 0.546197
0.120302 0.539330 0.556909
0.248753 0.558007 0.573999
0.386267 0.585168 0.597101
0.545495 0.630243 0.630884
0.684596 0.666560 0.677760
0.807919 0.645533 0.644312
0.000000 0.596368 0.571740
0.000000 0.604181 0.578424
0.068696 0.615595 0.588128
0.231998 0.634516 0.603815
0.383368 0.658900 0.623407
0.541161 0.692683 0.650721
0.699519 0.736233 0.688380
0.831876 0.738186 0.680415
0.000000 0.692897 0.613306
0.000000 0.700740 0.619074
0.000000 0.718044 0.632837
0.099550 0.732753 0.642695
0.325322 0.750393 0.654017
0.509697 0.772335 0.668849
0.705104 0.819730 0.707607
0.884520 0.853178 0.745571
0.050660 0.481361 0.619532
0.131197 0.491096 0.628809
0.221469 0.501884 0.637079
0.333043 0.526452 0.654475
0.449531 0.560876 0.675990
0.540063 0.584039 0.713405
0.646632 0.594812 0.751614
0.794430 0.612360 0.785489
0.052461 0.487739 0.618036
0.129030 0.496040 0.625849
0.219608 0.507927 0.635645
0.329320 0.530816 0.652003
0.451423 0.567254 0.672908
0.543206 0.593713 0.709712
0.645106 0.603815 0.748562
0.792111 0.620325 0.783810
0.043763 0.503685 0.623194
0.121340 0.510735 0.629603
0.213962 0.521416 0.638331
0.328038 0.546441 0.657008
0.450111 0.579919 0.676112
0.550683 0.611872 0.708156
0.649378 0.626123 0.749538
0.792203 0.639094 0.785092
0.000244 0.526024 0.631342
0.087312 0.534386 0.639124
0.195865 0.545556 0.648371
0.317082 0.568261 0.665217
0.447761 0.602441 0.685725
0.568963 0.644526 0.713161
0.662776 0.664698 0.757229
0.796384 0.670924 0.791226
0.000000 0.559197 0.642145
0.033051 0.564202 0.647669
0.142428 0.570214 0.654353
0.270085 0.586175 0.668391
0.420294 0.619165 0.689570
0.567926 0.667140 0.716915
0.675502 0.703487 0.760922
0.799924 0.706355 0.796719
0.000000 0.601556 0.655879
0.000000 0.604150 0.658808
0.094240 0.609033 0.663874
0.233494 0.621424 0.675715
0.377661 0.645716 0.696010
0.554284 0.697536 0.731167
0.700984 0.750851 0.766690
0.809079 0.756344 0.807584
0.000000 0.664607 0.683192
0.000000 0.668788 0.687129
0.053773 0.675532 0.693294
0.229404 0.689815 0.705959
0.387152 0.713008 0.725154
0.537560 0.740566 0.746334
0.693324 0.778683 0.773678
0.814664 0.807614 0.813352
0.000000 0.738827 0.714199
0.000000 0.743832 0.718654
0.002014 0.751858 0.725612
0.217258 0.764187 0.736019
0.380804 0.780941 0.750057
0.540276 0.802792 0.768734
0.699641 0.831235 0.795010
0.838621 0.865324 0.830045
