20 Preset/Dark Portrait/【3】LUT video cho PR-AE-FCPX/Tone  (8).cube
# Created by Adobe Lightroom plugin Export LUT (1.22.0)
# www.johnrellis.com/lightroom/exportlut.htm
# Preset: Milestone_02
# Color profile: C:\Program Files (x86)\Common Files\Adobe\Color\Profiles\VideoHD.icc
LUT_3D_SIZE 32
DOMAIN_MIN 0.0 0.0 0.0
DOMAIN_MAX 1.0 1.0 1.0
0.053223 0.034180 0.035981
0.053925 0.034272 0.036133
0.057374 0.034180 0.036072
0.063630 0.034119 0.036103
0.074128 0.034333 0.036042
0.089906 0.034455 0.035889
0.106874 0.034546 0.035645
0.125185 0.034821 0.035492
0.145327 0.035004 0.035248
0.167422 0.035462 0.034852
0.191653 0.036011 0.034607
0.217868 0.036561 0.034180
0.245304 0.037629 0.033722
0.273655 0.039063 0.033356
0.302068 0.040986 0.033265
0.330755 0.043671 0.033265
0.359350 0.046693 0.033387
0.388556 0.050477 0.033570
0.425269 0.056153 0.033600
0.465553 0.063478 0.033692
0.503380 0.071992 0.033570
0.539574 0.081270 0.033265
0.574273 0.091279 0.033204
0.608301 0.101595 0.032654
0.641230 0.111635 0.032471
0.673762 0.121950 0.031983
0.707454 0.132937 0.031739
0.742153 0.144472 0.031556
0.777523 0.156680 0.031739
0.813993 0.169406 0.032532
0.852232 0.183322 0.034455
0.891508 0.197604 0.037690
0.053101 0.034363 0.036133
0.054719 0.034638 0.036225
0.059083 0.035096 0.036225
0.066529 0.035676 0.036164
0.078401 0.036225 0.036011
0.094240 0.036622 0.035798
0.110292 0.037232 0.035523
0.128603 0.037598 0.035492
0.148745 0.038209 0.035187
0.170504 0.038972 0.035065
0.194827 0.039765 0.034607
0.221012 0.040864 0.034424
0.248264 0.042390 0.034058
0.276402 0.044251 0.033936
0.304540 0.046357 0.033997
0.333104 0.049470 0.034089
0.361669 0.052918 0.034302
0.390478 0.056794 0.034485
0.428931 0.063569 0.034546
0.466651 0.070954 0.034485
0.502556 0.079652 0.034363
0.536889 0.088502 0.034272
0.570214 0.097810 0.034058
0.602869 0.107454 0.033722
0.634730 0.117006 0.033387
0.666407 0.126772 0.033082
0.699153 0.137026 0.032929
0.733089 0.148287 0.032593
0.768185 0.160189 0.032563
0.804074 0.172488 0.033265
0.841581 0.185733 0.034974
0.880491 0.199741 0.037903
0.053071 0.034821 0.036072
0.055055 0.035401 0.036103
0.059937 0.036255 0.036225
0.068818 0.037446 0.036042
0.082643 0.038605 0.035920
0.097383 0.039368 0.035859
0.113954 0.040009 0.035706
0.132113 0.040833 0.035615
0.152316 0.041688 0.035401
0.174655 0.042908 0.035187
0.198947 0.044068 0.034974
0.225040 0.045441 0.034913
0.252476 0.047456 0.034607
0.280339 0.049592 0.034607
0.308690 0.052613 0.034821
0.336980 0.055879 0.035065
0.365240 0.059480 0.035248
0.394995 0.064149 0.035401
0.433631 0.071290 0.035370
0.469917 0.079042 0.035370
0.504540 0.087831 0.035309
0.538567 0.096834 0.035096
0.571008 0.105531 0.035004
0.603418 0.114870 0.034516
0.634150 0.124056 0.034302
0.665156 0.133486 0.033906
0.697444 0.143404 0.033814
0.731502 0.154635 0.033417
0.766262 0.166079 0.033783
0.802640 0.178592 0.034272
0.840146 0.191470 0.036347
0.879423 0.205753 0.039246
0.053498 0.035706 0.036255
0.055940 0.036378 0.036286
0.060212 0.037476 0.036194
0.069490 0.039277 0.036103
0.085023 0.041321 0.035981
0.101442 0.042756 0.036072
0.118044 0.043824 0.036042
0.136446 0.044862 0.035889
0.156924 0.046082 0.035950
0.179232 0.047364 0.035859
0.203647 0.048890 0.035737
0.229984 0.050874 0.035584
0.256962 0.053010 0.035554
0.284825 0.055848 0.035615
0.312566 0.058930 0.035828
0.340459 0.062684 0.035981
0.368261 0.066377 0.036194
0.399634 0.071717 0.036286
0.434821 0.078614 0.036347
0.468940 0.086366 0.036378
0.502037 0.094545 0.036286
0.534478 0.102480 0.036194
0.566888 0.111299 0.035889
0.599756 0.120851 0.035462
0.631739 0.130190 0.035218
0.664363 0.140169 0.034974
0.698268 0.150637 0.034668
0.733242 0.161624 0.034577
0.768765 0.173587 0.034974
0.804990 0.185702 0.035950
0.842069 0.198856 0.037720
0.879332 0.212070 0.041077
0.053651 0.037110 0.036378
0.056550 0.038361 0.036164
0.061524 0.039521 0.036225
0.069490 0.041291 0.036133
0.084291 0.043763 0.035981
0.101869 0.046174 0.036103
0.119814 0.047974 0.036530
0.139315 0.049744 0.036744
0.159731 0.051209 0.036744
0.182498 0.052979 0.036713
0.206943 0.055055 0.036683
0.233066 0.057496 0.036774
0.260288 0.060121 0.036805
0.288396 0.063569 0.036927
0.316289 0.066835 0.037263
0.344671 0.070954 0.037324
0.373236 0.075227 0.037385
0.406348 0.081697 0.037507
0.440986 0.089326 0.037446
0.474159 0.096742 0.037446
0.506065 0.104219 0.037324
0.538079 0.112062 0.037354
0.570397 0.121096 0.037079
0.602655 0.130098 0.036683
0.635004 0.139315 0.036469
0.667872 0.149294 0.036103
0.701717 0.159884 0.035981
0.736355 0.170565 0.036042
0.771511 0.182345 0.036561
0.807095 0.194156 0.037720
0.843412 0.206912 0.039582
0.880003 0.219821 0.043183
0.053712 0.039948 0.036316
0.057801 0.041688 0.036316
0.064057 0.043336 0.036286
0.071992 0.045106 0.036378
0.084810 0.047456 0.036103
0.102144 0.050233 0.036164
0.122255 0.053254 0.036713
0.142977 0.056031 0.037537
0.166476 0.059236 0.038453
0.189639 0.061738 0.038453
0.214694 0.064302 0.038636
0.241123 0.067262 0.038758
0.268894 0.070497 0.038666
0.296818 0.074098 0.038880
0.325353 0.078218 0.038697
0.353796 0.082643 0.039033
0.382879 0.087892 0.038849
0.418219 0.095094 0.039063
0.452125 0.102327 0.038972
0.484688 0.110018 0.038972
0.516930 0.117800 0.038758
0.548791 0.125704 0.038788
0.651087 0.162264 0.040223
0.684321 0.172274 0.040436
0.716579 0.181735 0.040711
0.748165 0.191440 0.041230
0.778714 0.200717 0.042359
0.809506 0.210727 0.043793
0.840330 0.220981 0.045960
0.871733 0.231510 0.049287
0.903441 0.242374 0.053864
0.935637 0.253849 0.060121
0.053925 0.046967 0.036622
0.060334 0.049714 0.036286
0.068910 0.051728 0.036316
0.078950 0.053437 0.036530
0.092500 0.055482 0.036622
0.109987 0.058595 0.036591
0.131228 0.062318 0.036500
0.155947 0.067048 0.038025
0.181216 0.071839 0.039918
0.210361 0.077729 0.041718
0.238773 0.082094 0.042084
0.266606 0.085969 0.041932
0.295018 0.089937 0.041718
0.323674 0.093935 0.041535
0.351965 0.098268 0.041627
0.380072 0.102419 0.041474
0.413703 0.109407 0.041444
0.451453 0.118502 0.041444
0.487160 0.126558 0.041657
0.522545 0.135653 0.041566
0.558526 0.145205 0.041505
0.595605 0.155612 0.041657
0.633387 0.167208 0.041871
0.670497 0.178073 0.042298
0.706935 0.189639 0.042725
0.740719 0.199954 0.043275
0.772427 0.209628 0.044404
0.803189 0.219272 0.045869
0.833860 0.228763 0.048402
0.864897 0.239109 0.051453
0.896544 0.249943 0.056031
0.928313 0.260807 0.062165
0.054078 0.053712 0.036805
0.061555 0.056336 0.036622
0.070497 0.058625 0.036622
0.081209 0.060426 0.036805
0.094392 0.062776 0.037171
0.110658 0.065217 0.037415
0.130709 0.069276 0.037324
0.155245 0.074128 0.037263
0.183139 0.080903 0.039582
0.211826 0.087434 0.041779
0.243412 0.094911 0.043885
0.275303 0.101381 0.045106
0.303838 0.105440 0.044648
0.331853 0.109468 0.044526
0.360174 0.113619 0.044251
0.387610 0.117586 0.044068
0.424109 0.125917 0.044068
0.458686 0.133822 0.044038
0.492226 0.141726 0.043977
0.524926 0.149569 0.044038
0.559014 0.158297 0.044038
0.594507 0.168002 0.044190
0.630762 0.178622 0.044373
0.667231 0.189883 0.044648
0.703029 0.200534 0.045258
0.737057 0.210941 0.045960
0.769009 0.220523 0.047181
0.800107 0.230045 0.049012
0.831357 0.239719 0.051484
0.862547 0.249851 0.055085
0.894102 0.260380 0.059815
0.925994 0.271427 0.066072
0.054688 0.061616 0.037293
0.062776 0.064485 0.037232
0.072572 0.067170 0.036988
0.083619 0.069245 0.037293
0.097078 0.071534 0.037659
0.113252 0.074434 0.038178
0.132021 0.078004 0.038636
0.155581 0.083528 0.038209
0.183597 0.090120 0.038148
0.214572 0.098268 0.041047
0.246525 0.106325 0.043427
0.280186 0.114931 0.046021
0.315526 0.123781 0.048890
0.343694 0.127871 0.048310
0.371496 0.131868 0.047791
0.403815 0.138277 0.047486
0.438025 0.145846 0.047578
0.470893 0.153201 0.047547
0.502953 0.160403 0.047364
0.535271 0.168093 0.047456
0.569451 0.177188 0.047456
0.605188 0.187106 0.047608
0.641474 0.197787 0.048127
0.677577 0.208530 0.048920
0.713100 0.219120 0.049958
0.746059 0.228794 0.050904
0.777127 0.237827 0.052613
0.807492 0.246921 0.054475
0.837491 0.255924 0.057435
0.867399 0.265019 0.061372
0.898100 0.275212 0.066285
0.928954 0.285496 0.073243
0.055909 0.071351 0.038178
0.064393 0.074495 0.037903
0.074311 0.077790 0.037751
0.086091 0.080018 0.037842
0.100160 0.082704 0.038178
0.116274 0.085512 0.038666
0.134829 0.089052 0.039277
0.156619 0.093660 0.039429
0.183505 0.100313 0.038849
0.214725 0.108125 0.038544
0.248142 0.117586 0.041810
0.282078 0.126650 0.045014
0.316777 0.136080 0.048157
0.353124 0.146273 0.051423
0.386206 0.153658 0.052461
0.421454 0.161593 0.052369
0.455390 0.169436 0.052277
0.487861 0.176669 0.052186
0.519829 0.184024 0.052033
0.551843 0.191623 0.052064
0.584527 0.199557 0.052186
0.617548 0.208469 0.052552
0.650874 0.217502 0.053040
0.684047 0.226871 0.053834
0.716884 0.236057 0.054536
0.748165 0.244755 0.055665
0.778470 0.253300 0.057465
0.808408 0.261662 0.059785
0.838804 0.271153 0.062989
0.869200 0.280003 0.067414
0.900053 0.289921 0.073365
0.931182 0.300298 0.081575
0.056733 0.082307 0.039246
0.066133 0.085603 0.038911
0.076722 0.089021 0.038544
0.088380 0.091920 0.038544
0.102937 0.094606 0.038941
0.119509 0.097841 0.039338
0.138582 0.101717 0.039826
0.159823 0.106264 0.040253
0.185153 0.112337 0.039887
0.216068 0.120180 0.038697
0.249790 0.129274 0.038422
0.284794 0.139528 0.042664
0.320195 0.149966 0.046540
0.355779 0.160098 0.050660
0.398657 0.174777 0.055177
0.439368 0.187716 0.058930
0.471748 0.194644 0.058564
0.503227 0.201450 0.058412
0.534112 0.208042 0.058289
0.565332 0.215091 0.058259
0.597284 0.223178 0.058137
0.629572 0.231479 0.058625
0.662196 0.239994 0.059388
0.694667 0.248386 0.060243
0.726680 0.257359 0.061372
0.757046 0.265171 0.062928
0.787076 0.273533 0.064912
0.816495 0.281498 0.067842
0.846220 0.290043 0.071717
0.875975 0.298802 0.076997
0.906371 0.308324 0.083925
0.936706 0.318242 0.092348
0.058320 0.095705 0.040162
0.068238 0.099092 0.039918
0.079042 0.102602 0.039643
0.091768 0.106264 0.038972
0.106447 0.109071 0.039490
0.123629 0.112581 0.039765
0.143374 0.116640 0.039979
0.165438 0.121492 0.040406
0.190127 0.127169 0.040803
0.219120 0.134524 0.039826
0.252567 0.143618 0.038453
0.288945 0.153811 0.038361
0.350286 0.181552 0.044617
0.398322 0.200443 0.051118
0.446540 0.219425 0.058534
0.493904 0.237980 0.066835
0.540124 0.256077 0.075898
0.574029 0.264073 0.077150
0.604913 0.270176 0.076844
0.635248 0.276097 0.077394
0.666194 0.282719 0.077913
0.696895 0.289158 0.078614
0.726162 0.295323 0.079957
0.754879 0.301518 0.081666
0.782223 0.307103 0.083925
0.808682 0.312627 0.086580
0.834501 0.317967 0.089326
0.859800 0.323430 0.092927
0.885405 0.329442 0.097505
0.911437 0.336034 0.103365
0.937957 0.343511 0.110506
0.964996 0.351843 0.119478
0.059907 0.116854 0.041505
0.071107 0.120607 0.040955
0.083864 0.124178 0.040589
0.097566 0.127871 0.039796
0.113893 0.131197 0.039612
0.132296 0.134676 0.039765
0.153201 0.138705 0.040009
0.176577 0.143496 0.040284
0.202213 0.149569 0.040558
0.230900 0.156374 0.040772
0.264744 0.166049 0.039307
0.302495 0.177310 0.037964
0.347356 0.193576 0.038270
0.396399 0.213840 0.046174
0.444739 0.233890 0.054475
0.489082 0.251377 0.063081
0.532677 0.268315 0.072511
0.575250 0.284886 0.083528
0.611017 0.295293 0.088960
0.640497 0.300298 0.088655
0.670527 0.306035 0.089082
0.700526 0.312078 0.089479
0.729305 0.317479 0.090517
0.757168 0.322545 0.092042
0.784146 0.327703 0.094667
0.810544 0.332738 0.096895
0.836332 0.337743 0.100191
0.862242 0.343359 0.103883
0.888212 0.349371 0.108919
0.914397 0.355779 0.115206
0.940795 0.362890 0.122866
0.967590 0.371099 0.132479
0.059876 0.132662 0.042054
0.071748 0.136507 0.041566
0.085847 0.140139 0.040772
0.099519 0.143618 0.040131
0.115938 0.147677 0.039277
0.134646 0.150912 0.039582
0.156222 0.154818 0.039734
0.179538 0.159640 0.039918
0.205112 0.165438 0.039826
0.233127 0.172000 0.040162
0.264042 0.179934 0.040345
0.302495 0.192813 0.038880
0.347723 0.209934 0.037598
0.394568 0.227878 0.038636
0.440528 0.247044 0.047578
0.485389 0.265446 0.057557
0.526940 0.281254 0.068269
0.568231 0.297246 0.079194
0.609400 0.313542 0.091707
0.649897 0.328832 0.102541
0.679408 0.333501 0.102571
0.708736 0.338720 0.103243
0.737209 0.343664 0.104372
0.764797 0.348241 0.106081
0.791867 0.353246 0.108492
0.818204 0.357885 0.111208
0.843595 0.362219 0.114504
0.869047 0.367071 0.118563
0.894408 0.372381 0.123873
0.920256 0.378485 0.130373
0.946197 0.385321 0.138308
0.972534 0.393042 0.148318
0.059571 0.150484 0.042420
0.072419 0.154360 0.041840
0.087007 0.157931 0.040986
0.101381 0.161563 0.040223
0.118044 0.165530 0.039307
0.137728 0.169070 0.039124
0.159335 0.172946 0.039246
0.183291 0.177829 0.039277
0.209384 0.183413 0.039429
0.237613 0.190097 0.039887
0.270420 0.200259 0.040040
0.308202 0.213535 0.040284
0.351080 0.229709 0.038819
0.396643 0.247257 0.037476
0.442542 0.264927 0.038880
0.486000 0.282750 0.050507
0.529107 0.300328 0.062867
0.568383 0.315282 0.075441
0.608545 0.330877 0.088655
0.649439 0.347082 0.102296
0.691035 0.363775 0.116854
0.721767 0.370397 0.120333
0.748775 0.373938 0.121767
0.775631 0.377661 0.123140
0.801968 0.381445 0.125307
0.827787 0.385443 0.128145
0.853330 0.389471 0.131807
0.878843 0.394263 0.136843
0.904540 0.399603 0.142824
0.930694 0.405737 0.150423
0.956909 0.412879 0.160006
0.983337 0.420935 0.171572
0.058961 0.169986 0.042573
0.072724 0.173953 0.041901
0.088319 0.177707 0.041077
0.103609 0.181582 0.040314
0.121401 0.185824 0.039368
0.141756 0.190768 0.038453
0.164492 0.194919 0.038514
0.189303 0.199893 0.038819
0.216312 0.205966 0.038819
0.247898 0.215976 0.039490
0.281865 0.226841 0.039887
0.317693 0.238499 0.040558
0.356268 0.251896 0.040375
0.397711 0.267033 0.038819
0.441199 0.282780 0.037201
0.484138 0.298436 0.039490
0.524987 0.314946 0.053437
0.566705 0.331792 0.068147
0.606134 0.347265 0.083131
0.647120 0.363684 0.098878
0.688746 0.380865 0.114199
0.729427 0.397528 0.131624
0.763577 0.408118 0.142428
0.790188 0.411261 0.144411
0.816098 0.414313 0.146792
0.841520 0.417517 0.150027
0.866697 0.421180 0.154147
0.891661 0.425208 0.159335
0.916533 0.429694 0.165469
0.941161 0.434791 0.173495
0.965881 0.441077 0.182925
0.990661 0.448066 0.194034
0.057496 0.190097 0.042878
0.072755 0.194064 0.041932
0.088960 0.198062 0.041077
0.104891 0.201602 0.040497
0.123232 0.206119 0.039368
0.144259 0.211398 0.038209
0.167666 0.216159 0.037995
0.194949 0.223331 0.038148
0.224125 0.231510 0.038727
0.255406 0.240909 0.038972
0.288701 0.250980 0.039460
0.323491 0.261875 0.039948
0.359655 0.273472 0.041077
0.398413 0.286778 0.040131
0.439765 0.301610 0.038788
0.482063 0.316686 0.037232
0.524102 0.332067 0.040558
0.564355 0.348150 0.057649
0.604852 0.364691 0.074250
0.645594 0.381109 0.092470
0.686488 0.397833 0.110231
0.726589 0.414282 0.128511
0.765682 0.430121 0.148226
0.802670 0.444892 0.167117
0.828305 0.447639 0.170047
0.853513 0.450355 0.173587
0.878202 0.453010 0.178103
0.902678 0.456519 0.183841
0.926909 0.460578 0.190768
0.951080 0.465400 0.198917
0.975036 0.471168 0.208865
0.998901 0.477668 0.220615
0.056519 0.213626 0.042939
0.073243 0.217685 0.042145
0.092836 0.233341 0.041688
0.110597 0.237217 0.040803
0.132418 0.244419 0.039734
0.156802 0.252934 0.038361
0.184360 0.261570 0.037171
0.214725 0.269657 0.037446
0.246464 0.278721 0.037751
0.279850 0.288945 0.038300
0.315068 0.299840 0.038849
0.351263 0.311162 0.039948
0.388617 0.322789 0.041138
0.426398 0.334783 0.042573
0.466224 0.347967 0.041718
0.507500 0.362127 0.040620
0.549310 0.376135 0.039979
0.590021 0.389563 0.045991
0.628504 0.403876 0.068574
0.667323 0.418616 0.091463
0.705074 0.432685 0.112917
0.742672 0.446876 0.134401
0.779385 0.460914 0.155703
0.814633 0.474739 0.177462
0.848386 0.487953 0.199710
0.873747 0.491890 0.208164
0.895903 0.492470 0.211490
0.918212 0.494057 0.216159
0.940734 0.496681 0.222568
0.963439 0.500603 0.231083
0.986236 0.505577 0.241611
1.000000 0.511681 0.253666
0.053986 0.246403 0.043366
0.073548 0.252995 0.042390
0.093416 0.259373 0.041779
0.113130 0.265873 0.040681
0.135439 0.272953 0.039429
0.160372 0.280644 0.038025
0.188022 0.289036 0.036164
0.217838 0.295964 0.036286
0.249577 0.303899 0.036591
0.282200 0.312657 0.037110
0.316350 0.322454 0.037690
0.351843 0.332891 0.038727
0.387884 0.343481 0.039979
0.424567 0.354620 0.041444
0.461677 0.365789 0.043122
0.501061 0.378668 0.041993
0.542412 0.392676 0.041352
0.583703 0.406226 0.041474
0.624933 0.420142 0.049195
0.663508 0.434882 0.075593
0.701198 0.448890 0.101717
0.738796 0.463050 0.126284
0.775723 0.477150 0.150271
0.811307 0.490822 0.174289
0.845029 0.504021 0.198062
0.876951 0.517113 0.222141
0.904295 0.525719 0.239841
0.925658 0.526024 0.244205
0.947265 0.527977 0.250523
0.968902 0.530816 0.258701
0.990509 0.534936 0.268772
1.000000 0.540642 0.280888
0.051545 0.276646 0.043183
0.071962 0.282719 0.042329
0.093416 0.289036 0.041321
0.114107 0.295140 0.040467
0.137575 0.301976 0.038849
0.163272 0.309300 0.037354
0.191501 0.317174 0.035218
0.221683 0.324773 0.034211
0.253269 0.332067 0.034791
0.286137 0.340154 0.035126
0.319829 0.349157 0.036194
0.354772 0.358923 0.037232
0.390417 0.369055 0.038239
0.426673 0.379706 0.039918
0.463569 0.390600 0.041718
0.501518 0.402167 0.043030
0.540887 0.414588 0.042634
0.581659 0.427893 0.043244
0.623072 0.441505 0.044251
0.663752 0.454749 0.054688
0.700649 0.467964 0.086641
0.736965 0.480934 0.116060
0.772976 0.494209 0.142947
0.808469 0.507530 0.169192
0.842039 0.520348 0.194553
0.873808 0.532799 0.220279
0.903746 0.545373 0.246464
0.931914 0.558526 0.273960
0.952789 0.559655 0.280186
0.973816 0.562127 0.288396
0.994720 0.566064 0.298833
1.000000 0.571405 0.311620
0.046571 0.308659 0.042664
0.068696 0.315129 0.041901
0.092226 0.321691 0.040711
0.114382 0.327916 0.039704
0.139101 0.334874 0.038087
0.166415 0.341863 0.036225
0.194827 0.349340 0.033967
0.225681 0.357061 0.031952
0.257389 0.363653 0.032563
0.290318 0.370947 0.033051
0.324315 0.379065 0.033875
0.358831 0.388128 0.034882
0.394293 0.397528 0.036530
0.430426 0.407630 0.038117
0.467445 0.418402 0.040375
0.504845 0.429603 0.042664
0.544182 0.442054 0.044984
0.585443 0.456092 0.045350
0.628901 0.471260 0.047639
0.672084 0.485756 0.052094
0.713161 0.499367 0.069459
0.750668 0.513024 0.108919
0.786313 0.525719 0.143191
0.821103 0.538445 0.174533
0.855100 0.551659 0.205478
0.886473 0.564111 0.234928
0.915618 0.576562 0.264561
0.942962 0.589715 0.294835
0.968383 0.604273 0.327703
0.989563 0.611322 0.345403
1.000000 0.614984 0.356451
1.000000 0.619989 0.369482
0.038880 0.355169 0.042267
0.063386 0.360693 0.041352
0.091463 0.365911 0.039979
0.115328 0.370825 0.038422
0.141482 0.376257 0.037110
0.169650 0.382269 0.035340
0.199710 0.389197 0.032715
0.231510 0.397101 0.030060
0.264744 0.404456 0.029603
0.298741 0.411994 0.030488
0.334386 0.420539 0.031373
0.369940 0.429694 0.032898
0.406317 0.439185 0.034699
0.442908 0.448981 0.036957
0.480171 0.458991 0.039612
0.517967 0.469551 0.042878
0.556451 0.480842 0.046693
0.596674 0.492927 0.048981
0.637629 0.505516 0.051850
0.678981 0.517662 0.057649
0.719203 0.528527 0.065766
0.756802 0.538537 0.089906
0.790341 0.548760 0.131136
0.821866 0.558434 0.166354
0.852720 0.568475 0.198367
0.884001 0.580224 0.230228
0.913237 0.592248 0.262181
0.940612 0.605097 0.294621
0.966155 0.619196 0.328496
0.989654 0.634730 0.363745
1.000000 0.647669 0.392798
1.000000 0.652216 0.405798
0.029816 0.389776 0.040864
0.057069 0.395026 0.039796
0.085878 0.400122 0.038117
0.111147 0.404822 0.037110
0.139803 0.410315 0.035004
0.168917 0.416083 0.033234
0.199680 0.422889 0.030884
0.232517 0.430640 0.027802
0.266423 0.438849 0.025910
0.301366 0.446113 0.026917
0.337438 0.454231 0.028107
0.373754 0.463020 0.029572
0.410224 0.472206 0.031922
0.447456 0.481880 0.034577
0.485267 0.492012 0.037842
0.523705 0.502770 0.041260
0.563012 0.514214 0.046174
0.603143 0.526116 0.051698
0.643397 0.537407 0.055879
0.683925 0.548394 0.063081
0.723934 0.558556 0.073335
0.762814 0.567559 0.086915
0.798428 0.575860 0.115175
0.829801 0.584802 0.159030
0.855497 0.589532 0.192111
0.883207 0.598108 0.225864
0.912474 0.609705 0.260105
0.939818 0.621912 0.294774
0.965240 0.635370 0.330297
0.988495 0.650263 0.366674
1.000000 0.667140 0.405615
1.000000 0.685908 0.445899
0.015930 0.439857 0.039643
0.045014 0.445594 0.038483
0.076905 0.450599 0.036805
0.107210 0.454627 0.035309
0.137850 0.458717 0.033448
0.169619 0.463325 0.031281
0.202487 0.468482 0.028595
0.235477 0.474464 0.025727
0.270146 0.481697 0.022339
0.305699 0.487404 0.022858
0.341466 0.493385 0.024598
0.377813 0.500389 0.026337
0.414557 0.507836 0.028321
0.451362 0.515923 0.031403
0.488350 0.524163 0.034516
0.525780 0.533135 0.038697
0.564141 0.542626 0.043397
0.603601 0.553033 0.049714
0.643977 0.564202 0.057221
0.683589 0.574243 0.064851
0.723690 0.584192 0.076631
0.762387 0.592889 0.091829
0.799191 0.599573 0.108675
0.831846 0.605493 0.139162
0.859586 0.611810 0.181979
0.885283 0.617731 0.218967
0.909545 0.624506 0.252720
0.936461 0.635401 0.288365
0.961547 0.647700 0.325139
0.984863 0.661585 0.362524
1.000000 0.677455 0.401740
1.000000 0.695491 0.443336
0.001526 0.471778 0.036133
0.033143 0.477485 0.034699
0.063905 0.482521 0.033783
0.097200 0.487068 0.032288
0.130373 0.491707 0.030396
0.164492 0.497230 0.027955
0.198337 0.503410 0.025544
0.233768 0.510582 0.022431
0.269902 0.518914 0.018952
0.307012 0.526787 0.017975
0.344610 0.533806 0.020050
0.382513 0.541527 0.022309
0.420386 0.549615 0.025483
0.458625 0.557641 0.029267
0.496742 0.565942 0.033692
0.535241 0.574212 0.038697
0.573938 0.582940 0.045258
0.613306 0.592218 0.052918
0.653620 0.602197 0.062898
0.693996 0.611749 0.074220
0.731838 0.618799 0.087068
0.769894 0.625696 0.103822
0.806027 0.631373 0.121828
0.839902 0.635737 0.141054
0.869780 0.639918 0.173587
0.895079 0.645136 0.217716
0.918486 0.650690 0.256748
0.939849 0.656916 0.292271
0.964569 0.668696 0.332128
0.987182 0.682033 0.372107
1.000000 0.697230 0.413001
1.000000 0.714443 0.455512
0.000000 0.515068 0.033204
0.014893 0.520195 0.031830
0.048493 0.524712 0.029969
0.083528 0.528710 0.028870
0.121035 0.533196 0.026795
0.157412 0.538018 0.024811
0.193973 0.543908 0.021607
0.230777 0.550469 0.018830
0.268009 0.558038 0.015259
0.306126 0.566339 0.012299
0.345190 0.572686 0.014557
0.384039 0.579858 0.018067
0.422889 0.587243 0.022034
0.461707 0.594720 0.026581
0.500145 0.602075 0.032380
0.538872 0.609491 0.038849
0.577905 0.617273 0.046296
0.617212 0.625452 0.055909
0.657588 0.634546 0.067079
0.698787 0.644404 0.080812
0.738491 0.652186 0.096193
0.775265 0.657252 0.113619
0.811368 0.662257 0.133608
0.845243 0.665827 0.154574
0.876555 0.668299 0.176242
0.903746 0.671107 0.211490
0.926421 0.675654 0.256626
0.946960 0.680720 0.296422
0.965667 0.686519 0.332555
0.987335 0.698451 0.374212
1.000000 0.712764 0.416968
1.000000 0.728847 0.460029
0.000000 0.557916 0.028412
0.000000 0.562219 0.026947
0.028595 0.566369 0.025696
0.064302 0.570306 0.024262
0.107027 0.575067 0.022705
0.147951 0.580987 0.020600
0.188296 0.588708 0.018402
0.228000 0.597620 0.016388
0.268742 0.607843 0.013977
0.309667 0.619196 0.012238
0.351965 0.629328 0.015625
0.394720 0.638849 0.021912
0.437171 0.648157 0.029572
0.478706 0.657069 0.038636
0.520500 0.665187 0.048341
0.560937 0.672358 0.059388
0.601648 0.679347 0.071778
0.642298 0.686488 0.086213
0.683619 0.694209 0.102296
0.725643 0.702358 0.119295
0.767819 0.710872 0.137728
0.804898 0.714290 0.157107
0.838346 0.715084 0.178103
0.870085 0.715938 0.201114
0.899413 0.715938 0.223697
0.926146 0.715541 0.246403
0.948516 0.716732 0.282902
0.966644 0.720363 0.327672
0.982971 0.725063 0.367712
0.997436 0.731044 0.404852
1.000000 0.743343 0.448188
1.000000 0.758572 0.492531
0.000000 0.624353 0.030213
0.000000 0.628107 0.029236
0.002991 0.631373 0.028382
0.043519 0.634455 0.027192
0.092866 0.637812 0.025269
0.139498 0.642023 0.024079
0.184756 0.647120 0.021973
0.227146 0.653101 0.020539
0.269474 0.660060 0.018463
0.311376 0.667842 0.016541
0.353399 0.675410 0.018128
0.396399 0.681819 0.025269
0.438697 0.688228 0.033814
0.480507 0.694606 0.043549
