20 Preset/Dark Portrait/【3】LUT video cho PR-AE-FCPX/Tone  (9).cube
# Created by Adobe Lightroom plugin Export LUT (1.22.0)
# www.johnrellis.com/lightroom/exportlut.htm
# Preset: Milestone_03
# Color profile: C:\Program Files (x86)\Common Files\Adobe\Color\Profiles\VideoHD.icc
LUT_3D_SIZE 32
DOMAIN_MIN 0.0 0.0 0.0
DOMAIN_MAX 1.0 1.0 1.0
0.033448 0.022370 0.037659
0.075959 0.019104 0.039490
0.112978 0.019379 0.041840
0.139376 0.019959 0.043946
0.165438 0.020233 0.045380
0.191928 0.020478 0.046845
0.218631 0.020691 0.048219
0.245426 0.021393 0.049409
0.272923 0.021454 0.050050
0.300298 0.022248 0.050965
0.327459 0.022766 0.051514
0.354620 0.023896 0.051698
0.381415 0.025238 0.051728
0.408179 0.027161 0.051911
0.434058 0.029572 0.052125
0.459602 0.032868 0.052766
0.484627 0.035615 0.053559
0.509789 0.039429 0.053925
0.534783 0.043153 0.054383
0.561303 0.046967 0.055055
0.593194 0.052125 0.055818
0.623682 0.057130 0.056428
0.652155 0.061982 0.057282
0.678828 0.066407 0.058412
0.704524 0.071046 0.059937
0.730098 0.075105 0.061311
0.756130 0.079377 0.063111
0.782803 0.083986 0.065309
0.810513 0.087587 0.067964
0.839689 0.091829 0.070771
0.870268 0.095644 0.074830
0.902556 0.100404 0.079286
0.058167 0.041627 0.065339
0.101991 0.045624 0.057252
0.135164 0.045106 0.054749
0.160769 0.044129 0.051301
0.185397 0.043519 0.049805
0.209995 0.043122 0.050568
0.234928 0.042908 0.051209
0.260838 0.042695 0.051698
0.286748 0.042969 0.052338
0.312963 0.043519 0.052338
0.339055 0.044099 0.052399
0.365423 0.045228 0.051942
0.391547 0.046876 0.051789
0.417182 0.048676 0.051850
0.442542 0.051087 0.052216
0.467445 0.053681 0.052644
0.492103 0.056580 0.053101
0.516747 0.059663 0.053742
0.541283 0.063142 0.054108
0.570581 0.067597 0.054841
0.600183 0.072572 0.055360
0.628504 0.077272 0.056184
0.655146 0.081819 0.057130
0.680598 0.086122 0.058076
0.705165 0.089784 0.059388
0.729946 0.093355 0.061036
0.755367 0.096651 0.062837
0.781338 0.100404 0.064851
0.808438 0.103731 0.067414
0.836973 0.106996 0.070436
0.867033 0.110719 0.074098
0.898680 0.114595 0.078706
0.077913 0.057893 0.086671
0.117891 0.065034 0.070893
0.150790 0.067109 0.073060
0.177584 0.067414 0.071382
0.201236 0.065980 0.067109
0.225315 0.065339 0.063111
0.249882 0.064881 0.059449
0.274937 0.065156 0.056062
0.300328 0.066163 0.053071
0.325536 0.066407 0.052827
0.350927 0.066926 0.052552
0.376532 0.067872 0.052125
0.401862 0.068940 0.051728
0.427008 0.070558 0.051667
0.451514 0.072786 0.051911
0.475868 0.075135 0.052216
0.500053 0.078035 0.052705
0.524285 0.080842 0.053101
0.550408 0.084260 0.053895
0.579553 0.088991 0.054261
0.607630 0.093080 0.055268
0.634577 0.097108 0.055940
0.660029 0.100954 0.056672
0.684413 0.103883 0.058167
0.708431 0.107149 0.059205
0.732479 0.109834 0.061036
0.757382 0.112703 0.062745
0.783169 0.115541 0.064881
0.810056 0.118441 0.067659
0.838499 0.121950 0.070558
0.868559 0.125185 0.074556
0.900328 0.128664 0.079530
0.095186 0.073915 0.102266
0.133028 0.084779 0.078462
0.163149 0.085328 0.081727
0.190127 0.087770 0.083833
0.217075 0.089235 0.083589
0.240177 0.087098 0.078279
0.263981 0.085634 0.073793
0.287877 0.085023 0.069093
0.312566 0.085359 0.065095
0.337346 0.086336 0.061189
0.362219 0.087465 0.057496
0.387396 0.089998 0.054108
0.412299 0.092317 0.051453
0.436439 0.093385 0.051148
0.460212 0.094820 0.051545
0.484016 0.096834 0.051881
0.507347 0.098512 0.052522
0.530816 0.100801 0.052796
0.558556 0.104311 0.053498
0.585443 0.107668 0.054017
0.611780 0.110872 0.054597
0.637446 0.114168 0.055451
0.662165 0.116945 0.056367
0.686366 0.119814 0.057679
0.710567 0.122530 0.059083
0.735256 0.125185 0.060761
0.760525 0.127535 0.062806
0.786709 0.130220 0.065309
0.814023 0.133364 0.067597
0.842313 0.136049 0.071260
0.871824 0.139284 0.074952
0.902525 0.142458 0.079805
0.112795 0.093172 0.115938
0.148013 0.105745 0.092073
0.177493 0.104097 0.086030
0.200748 0.105776 0.090913
0.227024 0.108614 0.094850
0.253910 0.110872 0.095827
0.276677 0.108461 0.090211
0.299962 0.107088 0.084901
0.323766 0.105959 0.079164
0.347997 0.106111 0.073945
0.372351 0.106538 0.069551
0.396674 0.107851 0.065217
0.420966 0.109560 0.061189
0.445045 0.112032 0.058228
0.469093 0.115053 0.055421
0.492958 0.118349 0.052918
0.516533 0.120638 0.051942
0.542809 0.123354 0.052430
0.569055 0.125887 0.053010
0.594873 0.128634 0.053437
0.619806 0.131228 0.054353
0.644312 0.133516 0.055116
0.668116 0.135866 0.056123
0.691890 0.138033 0.057557
0.715908 0.140230 0.059144
0.740414 0.142428 0.060883
0.765560 0.144656 0.063050
0.791470 0.147036 0.065583
0.818296 0.149569 0.067994
0.846189 0.151980 0.071534
0.875151 0.154574 0.075685
0.905425 0.157809 0.080598
0.132509 0.115114 0.129061
0.165164 0.127840 0.104891
0.195285 0.126436 0.087495
0.217380 0.125582 0.092561
0.239841 0.127565 0.100618
0.264927 0.130678 0.105379
0.291691 0.134035 0.108614
0.314427 0.131716 0.102663
0.337987 0.130007 0.096284
0.361547 0.129061 0.090303
0.385321 0.128573 0.084688
0.409155 0.128847 0.079347
0.432898 0.129641 0.074800
0.456580 0.131350 0.070649
0.479957 0.133394 0.067323
0.503532 0.135897 0.063935
0.530175 0.139834 0.061036
0.556481 0.144533 0.057679
0.582483 0.148867 0.054475
0.607599 0.152224 0.052857
0.631495 0.153902 0.053773
0.654963 0.155367 0.054871
0.711910 0.169375 0.058228
0.735958 0.171328 0.059846
0.759762 0.172732 0.061860
0.783658 0.174472 0.064302
0.807858 0.175662 0.067201
0.832670 0.177371 0.070100
0.858183 0.179232 0.073518
0.884794 0.181247 0.077394
0.912230 0.183200 0.082704
0.940520 0.185367 0.088197
0.157382 0.143008 0.145785
0.189792 0.156985 0.119326
0.221256 0.156832 0.088380
0.243534 0.153536 0.089662
0.264744 0.153140 0.099916
0.287083 0.155459 0.110872
0.311650 0.158694 0.118441
0.338445 0.162844 0.123812
0.361303 0.160586 0.117494
0.384558 0.158633 0.110964
0.408148 0.157168 0.104372
0.431312 0.156435 0.098878
0.454505 0.156497 0.093690
0.477668 0.157015 0.088624
0.502159 0.158877 0.084443
0.529290 0.161868 0.080232
0.555657 0.165133 0.076509
0.581506 0.168368 0.072511
0.607324 0.172305 0.068574
0.632563 0.176150 0.064546
0.657496 0.180148 0.061219
0.683101 0.184573 0.057862
0.708797 0.187747 0.057710
0.734371 0.189609 0.059632
0.759701 0.191409 0.061799
0.784360 0.192844 0.064332
0.808835 0.194522 0.066896
0.833310 0.195529 0.070283
0.858610 0.197086 0.073457
0.884642 0.198642 0.077974
0.911681 0.200473 0.083009
0.939635 0.202365 0.088441
0.177249 0.165682 0.157626
0.207340 0.180148 0.131319
0.236240 0.181369 0.103944
0.261631 0.177249 0.079103
0.281926 0.174594 0.090761
0.302403 0.174929 0.106783
0.324010 0.177737 0.120241
0.348333 0.181582 0.128756
0.374304 0.186099 0.135470
0.397467 0.184878 0.131289
0.420172 0.183078 0.124819
0.443091 0.181369 0.118624
0.466407 0.180758 0.113313
0.492164 0.182101 0.108553
0.517388 0.183383 0.104158
0.542107 0.184878 0.099245
0.566430 0.186587 0.094667
0.590509 0.188571 0.089967
0.614282 0.190890 0.085267
0.637751 0.193515 0.080659
0.661280 0.196078 0.076631
0.685847 0.200015 0.072480
0.711299 0.203983 0.068421
0.737240 0.208530 0.064027
0.762966 0.211978 0.061860
0.787320 0.213291 0.064576
0.811582 0.214298 0.067445
0.836118 0.215274 0.070802
0.861418 0.216495 0.074342
0.887327 0.217960 0.078706
0.914183 0.219669 0.083894
0.941924 0.221317 0.089662
0.196262 0.188052 0.169314
0.224643 0.203555 0.143404
0.250980 0.205112 0.117311
0.278691 0.203403 0.075471
0.299870 0.198398 0.078370
0.320256 0.196201 0.092714
0.339727 0.197696 0.114565
0.361517 0.200900 0.129397
0.384924 0.205386 0.140078
0.410407 0.210513 0.147982
0.435645 0.211734 0.146975
0.460304 0.210941 0.141634
0.484749 0.210422 0.136263
0.508629 0.209903 0.131197
0.532097 0.209873 0.125704
0.555383 0.209934 0.119936
0.578393 0.210178 0.114565
0.601129 0.210849 0.109651
0.623774 0.211948 0.104433
0.646265 0.213687 0.099977
0.669398 0.215793 0.095399
0.693904 0.218936 0.091402
0.719173 0.222385 0.087129
0.744900 0.226291 0.082429
0.770657 0.230289 0.077363
0.795895 0.234043 0.072389
0.820859 0.237369 0.068727
0.844694 0.237980 0.072084
0.869322 0.238682 0.075959
0.894469 0.239567 0.080873
0.920562 0.240818 0.086030
0.947601 0.242069 0.092134
0.215030 0.210361 0.180667
0.242496 0.227420 0.154269
0.266270 0.229038 0.129946
0.292576 0.229862 0.096193
0.318120 0.224002 0.056703
0.337163 0.219913 0.078828
0.356847 0.218326 0.100557
0.376562 0.220920 0.124056
0.399725 0.226261 0.141238
0.424811 0.232456 0.154208
0.451698 0.239292 0.164034
0.476570 0.241337 0.165042
0.499611 0.239658 0.159396
0.522972 0.238376 0.153445
0.545861 0.237186 0.147494
0.568688 0.236484 0.141848
0.591455 0.235843 0.136324
0.613672 0.235813 0.130922
0.635523 0.236271 0.125490
0.657130 0.236667 0.120974
0.679500 0.237858 0.116152
0.702571 0.239719 0.111666
0.726436 0.242222 0.106569
0.750576 0.244877 0.101869
0.774899 0.247807 0.096803
0.799283 0.250828 0.091432
0.823941 0.254063 0.086275
0.849210 0.257572 0.079652
0.874693 0.260227 0.077638
0.899962 0.261021 0.082887
0.926116 0.262119 0.088472
0.953185 0.263401 0.094606
0.232120 0.231144 0.191440
0.258732 0.249668 0.165133
0.279393 0.251652 0.143801
0.303899 0.253513 0.114351
0.333928 0.251835 0.060243
0.356725 0.246708 0.059205
0.377508 0.244480 0.081971
0.397375 0.245151 0.112123
0.417762 0.248936 0.138369
0.440070 0.254307 0.156405
0.464210 0.260380 0.170199
0.490242 0.266850 0.179873
0.514733 0.269535 0.181949
0.537072 0.267430 0.176150
0.559655 0.265690 0.169924
0.581750 0.263859 0.164034
0.603357 0.262547 0.158236
0.624353 0.261204 0.152804
0.645045 0.260410 0.147616
0.666255 0.260227 0.142184
0.688228 0.260563 0.137148
0.710933 0.261692 0.132357
0.734218 0.263310 0.127779
0.757961 0.265324 0.122652
0.781979 0.267674 0.117647
0.806058 0.270146 0.112367
0.830564 0.272892 0.106996
0.855589 0.275944 0.101411
0.881529 0.279545 0.095399
0.908202 0.283421 0.089235
0.934447 0.285130 0.091707
0.961028 0.286259 0.098177
0.252171 0.255711 0.203830
0.276432 0.273838 0.179355
0.298100 0.279210 0.158602
0.320500 0.280949 0.132692
0.349584 0.282628 0.089845
0.377844 0.276982 0.033845
0.397101 0.272709 0.067628
0.418006 0.270420 0.092317
0.436744 0.272587 0.129580
0.457252 0.277043 0.154299
0.479500 0.282444 0.172488
0.503624 0.288792 0.185916
0.555535 0.313664 0.206027
0.580285 0.317021 0.209751
0.601312 0.313481 0.203586
0.621637 0.309941 0.197452
0.641688 0.307042 0.190890
0.661433 0.304265 0.184909
0.681270 0.301976 0.178805
0.701625 0.300206 0.173465
0.722988 0.299596 0.167636
0.744686 0.299168 0.162539
0.766842 0.299443 0.156924
0.789334 0.299992 0.151461
0.811948 0.300877 0.145968
0.834806 0.302159 0.140383
0.857908 0.303471 0.134737
0.881498 0.305333 0.128786
0.905669 0.307530 0.122835
0.930755 0.310155 0.116884
0.956695 0.313420 0.110811
0.983307 0.316625 0.106874
0.279240 0.288243 0.222568
0.301671 0.305974 0.199344
0.323278 0.313939 0.178775
0.343328 0.315465 0.156863
0.369268 0.316777 0.122286
0.399573 0.314855 0.061494
0.423529 0.308324 0.048157
0.443580 0.304509 0.084138
0.464271 0.303685 0.113191
0.484138 0.307164 0.149966
0.506249 0.312779 0.174960
0.530663 0.319860 0.192691
0.556725 0.327276 0.206668
0.583093 0.334447 0.217014
0.607721 0.338933 0.223331
0.627863 0.335363 0.217472
0.647639 0.332006 0.211154
0.666712 0.328435 0.205234
0.686244 0.325689 0.199252
0.706355 0.323644 0.193515
0.727230 0.322210 0.187930
0.748684 0.321416 0.182712
0.770474 0.321050 0.177096
0.792660 0.321202 0.171847
0.815213 0.321752 0.166445
0.837888 0.322301 0.161257
0.861021 0.323400 0.155673
0.884764 0.324926 0.150240
0.909270 0.327062 0.144442
0.934478 0.329503 0.138766
0.960479 0.332494 0.133425
0.987427 0.335973 0.127504
0.297887 0.310155 0.236790
0.317205 0.326238 0.216373
0.338903 0.336950 0.196109
0.356207 0.338262 0.178073
0.378851 0.339452 0.150393
0.407813 0.340642 0.104921
0.437232 0.334783 0.031800
0.456855 0.329290 0.065003
0.477180 0.326390 0.098634
0.497200 0.326940 0.131960
0.517449 0.331090 0.165499
0.539940 0.337133 0.188449
0.563561 0.343725 0.205966
0.587701 0.350408 0.219364
0.611902 0.356542 0.229923
0.635187 0.361303 0.237186
0.654566 0.357702 0.231205
0.673579 0.353887 0.225284
0.693080 0.350958 0.219425
0.713100 0.348547 0.213840
0.733822 0.346654 0.208408
0.755123 0.345586 0.203098
0.776791 0.344976 0.197848
0.798917 0.344549 0.192782
0.821439 0.344732 0.187594
0.844114 0.344976 0.182528
0.867124 0.345739 0.177188
0.890745 0.346960 0.171939
0.914946 0.348425 0.166659
0.940002 0.350713 0.161379
0.965881 0.353155 0.156374
0.992737 0.356451 0.151217
0.316472 0.331853 0.250584
0.333257 0.346441 0.232883
0.354437 0.359991 0.212680
0.369726 0.361089 0.197604
0.389837 0.362280 0.174441
0.415076 0.363317 0.139895
0.445350 0.362097 0.078431
0.471565 0.355352 0.039796
0.490883 0.351263 0.084230
0.512261 0.349828 0.113069
0.532311 0.352270 0.150454
0.553216 0.357214 0.181552
0.575189 0.363043 0.204288
0.597681 0.369207 0.220645
0.620203 0.375067 0.234165
0.643030 0.380560 0.243809
0.665553 0.385473 0.251591
0.684169 0.381872 0.246738
0.703243 0.378424 0.240696
0.722805 0.375463 0.235264
0.743099 0.373236 0.229587
0.763851 0.371496 0.224430
0.785031 0.370245 0.219364
0.806851 0.369482 0.214023
0.829038 0.369146 0.208865
0.851530 0.369146 0.203891
0.874723 0.369604 0.198947
0.898436 0.370794 0.194034
0.923095 0.372290 0.189151
0.948577 0.374334 0.184634
0.974914 0.377081 0.180301
1.000000 0.380316 0.176181
0.334417 0.352728 0.265232
0.349798 0.367071 0.248631
0.368597 0.380011 0.230838
0.385138 0.384955 0.215885
0.403662 0.386542 0.196658
0.426978 0.388251 0.168765
0.456367 0.390265 0.124086
0.486976 0.386084 0.045533
0.509300 0.380743 0.060975
0.529900 0.378088 0.102815
0.551263 0.376867 0.129915
0.569512 0.379614 0.170718
0.588739 0.383551 0.198886
0.608209 0.387945 0.219730
0.628748 0.392950 0.235142
0.649775 0.397772 0.247288
0.671412 0.402716 0.256718
0.693538 0.407752 0.264652
0.712947 0.405737 0.261509
0.732570 0.402747 0.256321
0.752956 0.400549 0.251011
0.773953 0.398688 0.245914
0.795254 0.397406 0.240879
0.816983 0.396460 0.235904
0.839017 0.395727 0.231083
0.861479 0.395483 0.226413
0.884642 0.395850 0.221622
0.908263 0.396551 0.217014
0.932494 0.397742 0.212558
0.957488 0.399420 0.208164
0.983062 0.401617 0.203891
1.000000 0.404273 0.199893
0.351812 0.373083 0.278904
0.365270 0.386206 0.263951
0.382147 0.398596 0.247868
0.399512 0.406928 0.232181
0.415961 0.408789 0.216403
0.437018 0.410742 0.193912
0.463905 0.413092 0.159121
0.495003 0.413428 0.100587
0.524315 0.407782 0.028870
0.543694 0.403510 0.083314
0.563867 0.400916 0.120394
0.583520 0.400275 0.152041
0.600977 0.402899 0.188571
0.619562 0.406744 0.214450
0.638880 0.411139 0.233921
0.658808 0.415869 0.248875
0.679408 0.420813 0.260746
0.700679 0.425818 0.270176
0.722530 0.430915 0.278386
0.742794 0.430610 0.277287
0.762905 0.428016 0.272190
0.783566 0.426093 0.267491
0.804746 0.424475 0.262547
0.826322 0.423346 0.258000
0.848295 0.422644 0.253269
0.870817 0.422278 0.248661
0.893828 0.422431 0.244236
0.917388 0.422919 0.239994
0.941466 0.423987 0.235935
0.966278 0.425452 0.231876
0.991699 0.427344 0.228092
1.000000 0.429755 0.224552
0.370733 0.395300 0.294591
0.383337 0.408240 0.280552
0.410803 0.434363 0.273808
0.428748 0.445838 0.257755
0.444648 0.448280 0.243503
0.464240 0.450294 0.224063
0.488502 0.452399 0.195834
0.519005 0.454597 0.151675
0.549828 0.451026 0.074311
0.574365 0.444312 0.060273
0.593072 0.439857 0.112795
0.612787 0.437171 0.144869
0.630945 0.436896 0.179446
0.648066 0.439368 0.213077
0.665858 0.442664 0.237156
0.684108 0.446448 0.255924
0.703182 0.450538 0.269902
0.722438 0.454719 0.281529
0.742428 0.459022 0.290776
0.762997 0.463508 0.298833
0.782712 0.463691 0.299107
0.802365 0.460761 0.293950
0.822660 0.458503 0.288670
0.843229 0.456428 0.283879
0.864164 0.454749 0.278752
0.885344 0.453468 0.274022
0.907103 0.452613 0.269444
0.929625 0.452369 0.265049
0.953002 0.452766 0.260929
0.977234 0.453925 0.257298
1.000000 0.455634 0.253941
1.000000 0.457649 0.250645
0.395148 0.423438 0.313909
0.406958 0.436316 0.301793
0.421363 0.448798 0.288487
0.437598 0.460212 0.274876
0.455238 0.467384 0.260044
0.473304 0.469612 0.243473
0.494850 0.471778 0.221164
0.521996 0.474067 0.186923
0.553796 0.475227 0.132876
0.583642 0.468727 0.039429
0.603174 0.462898 0.087861
0.622248 0.459205 0.132692
0.641901 0.456764 0.160616
0.659022 0.457527 0.197757
0.675898 0.460243 0.228000
0.693446 0.463630 0.251316
0.711788 0.467811 0.268589
0.730739 0.472053 0.282963
0.750240 0.476753 0.295018
0.770352 0.481453 0.304967
0.790707 0.486427 0.313451
0.811398 0.488258 0.315648
0.831479 0.486000 0.311040
0.852049 0.484077 0.306218
0.872740 0.482338 0.301610
0.893828 0.480964 0.297124
0.915373 0.479957 0.292485
0.937469 0.479377 0.288243
0.960235 0.479500 0.284581
0.983948 0.480293 0.280980
1.000000 0.481575 0.277714
1.000000 0.483436 0.274937
0.412177 0.443153 0.328649
0.422583 0.455024 0.317571
0.435035 0.466346 0.305821
0.449775 0.477363 0.292851
0.467933 0.487984 0.277562
0.484291 0.490425 0.263767
0.504112 0.492927 0.244663
0.528222 0.495338 0.217929
0.558251 0.497871 0.177279
0.589258 0.495918 0.110780
0.616693 0.489265 0.052369
0.635065 0.484382 0.114931
0.654108 0.481178 0.151858
0.673823 0.479225 0.177005
0.690059 0.480995 0.216251
0.706966 0.483955 0.244785
0.724453 0.487617 0.266941
0.742428 0.491646 0.284337
0.761196 0.496162 0.298222
0.780331 0.500969 0.310582
0.800015 0.505791 0.320592
0.820096 0.510826 0.329259
0.840665 0.513848 0.333684
0.860990 0.512016 0.329198
0.881376 0.510185 0.324773
0.902037 0.508659 0.320531
0.923125 0.507378 0.316136
0.944793 0.506676 0.312047
0.967224 0.506615 0.308446
0.990539 0.507256 0.305211
1.000000 0.508507 0.302647
1.000000 0.510277 0.300359
0.430945 0.464118 0.346471
0.440650 0.475776 0.335790
0.451484 0.486275 0.325780
0.464454 0.496742 0.314061
0.481209 0.507988 0.299443
0.498329 0.513909 0.285191
0.516625 0.516350 0.268498
0.538506 0.518822 0.246189
0.565332 0.521416 0.214298
0.597162 0.524010 0.166506
0.627253 0.518517 0.083894
0.650172 0.512139 0.087221
0.668605 0.507683 0.139193
0.687617 0.504967 0.170657
0.706325 0.503746 0.199710
0.722713 0.506065 0.235416
0.740017 0.509697 0.263218
0.758053 0.514122 0.284642
0.776913 0.519219 0.302708
0.796384 0.524895 0.317479
0.816342 0.530724 0.330480
0.836515 0.536736 0.342168
0.856870 0.542504 0.351904
0.877714 0.547234 0.358740
0.898466 0.546044 0.355230
0.919280 0.544762 0.351263
0.940246 0.543664 0.347509
0.961761 0.542931 0.343938
0.983856 0.542962 0.340948
1.000000 0.543572 0.338170
1.000000 0.544640 0.336034
1.000000 0.546166 0.334142
0.457008 0.492226 0.370764
0.464668 0.502281 0.360784
0.473823 0.511925 0.350225
0.484260 0.520928 0.339483
0.498665 0.531334 0.325292
0.516808 0.541497 0.308721
0.533288 0.543816 0.294316
0.553552 0.546410 0.275181
0.577752 0.549340 0.249302
0.607233 0.552331 0.212589
0.639918 0.552697 0.154147
0.670741 0.546563 0.056458
0.689570 0.540826 0.122103
0.708278 0.537011 0.164370
0.727291 0.534386 0.192721
0.744930 0.534112 0.224521
0.761135 0.536553 0.258244
0.777951 0.540154 0.284489
0.795254 0.544366 0.306065
0.813169 0.549218 0.323461
0.831479 0.554253 0.338384
0.850126 0.559442 0.350958
0.868742 0.564599 0.362188
0.887236 0.569451 0.372076
0.906554 0.574426 0.380285
0.926818 0.573053 0.376776
0.947570 0.572137 0.373266
0.968688 0.571557 0.370214
0.990356 0.571527 0.367498
1.000000 0.572107 0.365179
1.000000 0.573053 0.363561
1.000000 0.574640 0.362249
0.476997 0.512810 0.391760
0.483619 0.522545 0.382361
0.491371 0.531670 0.372808
0.500603 0.540581 0.362341
0.513390 0.550835 0.349310
0.530144 0.562097 0.333257
0.547692 0.568078 0.318090
0.566186 0.570886 0.301518
0.588434 0.574029 0.279789
0.615290 0.577295 0.250248
0.647517 0.580682 0.207065
0.678920 0.578027 0.140200
0.706661 0.571527 0.089479
0.725002 0.566552 0.150057
0.743862 0.563165 0.186831
0.762997 0.560937 0.213169
0.779965 0.561730 0.248173
0.796109 0.564721 0.280308
0.812833 0.568597 0.306035
0.830045 0.573175 0.327123
0.847562 0.578180 0.344884
0.865293 0.583429 0.360510
0.883268 0.588617 0.373449
0.901183 0.593835 0.385412
0.916808 0.596674 0.393591
0.934997 0.601617 0.402594
0.955352 0.601312 0.400549
0.976043 0.600855 0.397742
0.997162 0.600885 0.395514
1.000000 0.601495 0.393744
1.000000 0.602686 0.392706
1.000000 0.604639 0.392493
0.504082 0.540276 0.419165
0.509758 0.549676 0.410956
0.516625 0.558648 0.401862
0.524193 0.567041 0.391943
0.534783 0.576471 0.379553
0.549218 0.587060 0.364080
0.567742 0.597833 0.345861
0.583978 0.600092 0.331243
0.603937 0.602686 0.311955
0.627832 0.605463 0.286687
0.656275 0.608240 0.252506
0.689418 0.610376 0.202426
0.719661 0.604486 0.125063
0.742672 0.597406 0.128237
0.760250 0.592340 0.176944
0.778256 0.588739 0.209384
0.796902 0.586297 0.233188
0.812406 0.587701 0.270939
0.828244 0.590875 0.301946
0.844785 0.595270 0.327520
0.861875 0.600183 0.348394
0.878874 0.605402 0.366552
0.895720 0.610437 0.382086
0.912505 0.615076 0.394812
0.928801 0.619196 0.405829
0.944976 0.622766 0.414801
0.961639 0.626642 0.422858
0.981476 0.627558 0.422919
1.000000 0.627405 0.420996
1.000000 0.627985 0.419562
1.000000 0.629358 0.419165
1.000000 0.631647 0.419501
0.523674 0.559716 0.440772
0.528832 0.569024 0.433356
0.534905 0.577722 0.425452
0.541833 0.586236 0.416571
0.551232 0.595666 0.405524
0.564080 0.606470 0.391638
0.581231 0.618311 0.374884
0.599756 0.625940 0.358434
0.618585 0.629267 0.342168
0.640803 0.632654 0.321477
0.667140 0.636255 0.293584
0.698451 0.639796 0.255253
0.731258 0.639673 0.198978
0.762722 0.632990 0.112062
0.781399 0.626825 0.163821
0.799130 0.622217 0.206271
0.817227 0.618921 0.235935
0.835142 0.617090 0.260960
0.850004 0.619196 0.298833
0.865354 0.622614 0.329107
0.881041 0.626917 0.354376
0.896910 0.631556 0.375372
0.912902 0.636255 0.392706
0.928862 0.640711 0.407599
0.944640 0.644831 0.420050
0.960266 0.648493 0.430457
0.975616 0.652003 0.439734
0.990845 0.655329 0.447822
1.000000 0.658076 0.450843
1.000000 0.658961 0.450263
1.000000 0.660456 0.450477
1.000000 0.662715 0.451606
0.548241 0.584375 0.466651
0.552544 0.593042 0.459724
0.557610 0.601373 0.452338
0.563561 0.609491 0.444373
0.571679 0.618463 0.434638
0.582879 0.628840 0.422187
0.597833 0.640345 0.406897
0.617487 0.652918 0.388373
0.634638 0.656611 0.374029
0.655116 0.660151 0.355871
0.679011 0.663783 0.332860
0.707362 0.667597 0.301915
0.740841 0.671229 0.258701
0.772122 0.668147 0.197391
0.800809 0.660883 0.141482
0.818143 0.654902 0.197726
0.835630 0.650568 0.235111
0.853330 0.647517 0.262974
0.870298 0.646662 0.290471
0.884764 0.649287 0.327581
0.899535 0.653040 0.357580
0.914641 0.657374 0.382177
0.929839 0.661830 0.402380
0.945098 0.666011 0.419318
0.960266 0.669978 0.433356
0.975128 0.673732 0.445624
0.989624 0.677241 0.456550
1.000000 0.680385 0.465827
1.000000 0.683436 0.474250
1.000000 0.687373 0.479652
1.000000 0.688960 0.480476
1.000000 0.691402 0.482307
0.573114 0.608637 0.493751
0.576501 0.616999 0.486824
0.580774 0.624994 0.480018
0.585748 0.632654 0.472938
0.593133 0.641932 0.463813
0.603296 0.652399 0.453223
0.617273 0.664515 0.440681
0.635554 0.677882 0.425574
0.656580 0.689174 0.410132
0.676844 0.694301 0.396796
0.700313 0.699702 0.379065
0.727626 0.705104 0.355016
0.759274 0.710323 0.322118
0.794736 0.714229 0.276341
0.826261 0.709285 0.211521
0.851072 0.702113 0.198978
0.868132 0.696712 0.245975
0.885130 0.692744 0.280095
0.902403 0.690181 0.306676
0.917815 0.690181 0.338140
0.931304 0.693172 0.373754
0.945068 0.696651 0.402045
0.958892 0.700099 0.424689
0.972686 0.703578 0.443610
0.986145 0.706844 0.459541
0.999268 0.709957 0.473426
1.000000 0.712856 0.485389
1.000000 0.715480 0.495735
1.000000 0.717952 0.504784
1.000000 0.720516 0.513054
1.000000 0.725429 0.521508
1.000000 0.727901 0.524315
0.609186 0.643580 0.532006
0.611963 0.651728 0.525566
0.615290 0.659174 0.519188
0.619348 0.666682 0.512108
0.625055 0.675074 0.503685
0.633417 0.684871 0.493355
0.644770 0.695888 0.481056
0.659937 0.707973 0.466651
0.679713 0.721096 0.449561
0.699245 0.728054 0.435584
0.719631 0.732265 0.420874
0.743496 0.736660 0.401862
0.771115 0.740993 0.375891
0.803037 0.745144 0.340276
