20 Preset/Dark Portrait/【3】LUT video cho PR-AE-FCPX/Tone  (1).cube
# Created by Adobe Lightroom plugin Export LUT (1.22.0)
# www.johnrellis.com/lightroom/exportlut.htm
# Preset: Candy_03
# Color profile: C:\Program Files (x86)\Common Files\Adobe\Color\Profiles\VideoHD.icc
LUT_3D_SIZE 32
DOMAIN_MIN 0.0 0.0 0.0
DOMAIN_MAX 1.0 1.0 1.0
0.051728 0.034516 0.035981
0.054597 0.034821 0.036194
0.069459 0.035492 0.036286
0.092805 0.036286 0.036530
0.117220 0.037324 0.036622
0.143221 0.038758 0.036866
0.171450 0.040620 0.037171
0.202884 0.043153 0.037812
0.237705 0.047028 0.038788
0.275547 0.052308 0.040497
0.315679 0.058991 0.042481
0.356542 0.067414 0.044862
0.398444 0.077821 0.047425
0.439490 0.089998 0.050477
0.480476 0.103548 0.053986
0.520623 0.117952 0.058076
0.565148 0.134890 0.063478
0.619715 0.157259 0.071626
0.668666 0.178775 0.081910
0.714137 0.199802 0.092897
0.756039 0.220493 0.104952
0.794339 0.240421 0.118349
0.828946 0.259281 0.132662
0.861631 0.278202 0.147616
0.891508 0.296391 0.163485
0.919921 0.314916 0.180362
0.947112 0.333898 0.198825
0.973236 0.353979 0.219150
0.998627 0.375128 0.241459
1.000000 0.398108 0.266484
1.000000 0.423285 0.294682
1.000000 0.451392 0.326482
0.052399 0.035370 0.036316
0.058991 0.037140 0.036744
0.082551 0.040620 0.037415
0.104707 0.042603 0.037934
0.127871 0.044526 0.038544
0.153567 0.046998 0.039246
0.181582 0.049897 0.040192
0.213199 0.053712 0.041230
0.247532 0.058320 0.042847
0.285222 0.064851 0.044678
0.324804 0.072633 0.046937
0.364996 0.082582 0.049592
0.405615 0.093446 0.052552
0.446387 0.105806 0.055970
0.486671 0.119203 0.059937
0.526146 0.132723 0.064454
0.574823 0.151308 0.071229
0.624781 0.172244 0.080171
0.670710 0.192325 0.090242
0.713680 0.211917 0.100740
0.753567 0.231357 0.112306
0.790066 0.249973 0.125002
0.823789 0.267887 0.138338
0.854887 0.285161 0.152682
0.884733 0.302922 0.167666
0.912383 0.320134 0.183902
0.939422 0.338415 0.201358
0.965515 0.357549 0.220554
0.990631 0.377813 0.242069
1.000000 0.399878 0.266209
1.000000 0.424048 0.293126
1.000000 0.451118 0.323766
0.053742 0.037873 0.037232
0.061097 0.040009 0.037598
0.083986 0.045594 0.038758
0.111055 0.050629 0.040650
0.137881 0.054658 0.042603
0.162875 0.057801 0.043824
0.191531 0.061463 0.044923
0.223178 0.065919 0.046174
0.257877 0.071565 0.047578
0.295445 0.079042 0.049683
0.334630 0.088228 0.052369
0.374640 0.098238 0.055299
0.415198 0.109377 0.058473
0.455360 0.121553 0.062348
0.494972 0.134524 0.066499
0.534417 0.148623 0.071595
0.585229 0.168673 0.079774
0.631708 0.187808 0.089387
0.675380 0.206882 0.098909
0.717128 0.225925 0.109499
0.754849 0.243565 0.121035
0.791012 0.261997 0.133516
0.823636 0.278813 0.146609
0.854368 0.295628 0.160403
0.882994 0.312200 0.174838
0.910460 0.329290 0.190433
0.936858 0.346471 0.207431
0.962615 0.364874 0.226352
0.987976 0.385046 0.247745
1.000000 0.407111 0.271733
1.000000 0.431128 0.298741
1.000000 0.458106 0.329503
0.056794 0.042176 0.038972
0.066407 0.045624 0.039582
0.083742 0.049500 0.040284
0.108858 0.055879 0.043183
0.140414 0.063539 0.046418
0.174411 0.071077 0.049592
0.203220 0.075349 0.050721
0.235111 0.080873 0.051759
0.269902 0.087465 0.053590
0.307622 0.095644 0.055787
0.346410 0.104707 0.058564
0.385809 0.114870 0.061769
0.425452 0.126070 0.065370
0.464729 0.137758 0.069459
0.503471 0.150484 0.074098
0.545830 0.165805 0.080415
0.592340 0.184024 0.088869
0.634730 0.201511 0.097688
0.675471 0.218845 0.106630
0.714382 0.236057 0.116518
0.751186 0.253086 0.127260
0.786069 0.270085 0.139101
0.819120 0.287083 0.152224
0.850431 0.303838 0.166140
0.880095 0.320562 0.180850
0.908446 0.337682 0.197116
0.936095 0.355749 0.214908
0.962615 0.374731 0.234562
0.988159 0.395117 0.256413
1.000000 0.416876 0.280369
1.000000 0.440375 0.306981
1.000000 0.465614 0.336095
0.061799 0.049042 0.042054
0.072694 0.052338 0.043122
0.086336 0.055055 0.043610
0.105074 0.059907 0.045563
0.133364 0.068482 0.049104
0.169924 0.079347 0.053223
0.210513 0.090944 0.057343
0.245853 0.098451 0.059419
0.280491 0.105409 0.061189
0.317784 0.113466 0.063691
0.356207 0.122805 0.066712
0.395239 0.132998 0.070008
0.434516 0.144106 0.074006
0.473335 0.156039 0.078767
0.512139 0.168643 0.084169
0.557488 0.185611 0.091707
0.601953 0.203128 0.099977
0.643153 0.219913 0.108797
0.682918 0.236576 0.117891
0.720150 0.252506 0.127596
0.755337 0.268528 0.138216
0.789181 0.284703 0.149935
0.821469 0.301061 0.162631
0.852323 0.317235 0.176486
0.882017 0.334020 0.191562
0.910094 0.350744 0.207767
0.937377 0.368566 0.225498
0.963378 0.387030 0.244999
0.988159 0.406439 0.266300
1.000000 0.427832 0.289891
1.000000 0.450385 0.315831
1.000000 0.475288 0.344610
0.070680 0.057923 0.047333
0.082094 0.061036 0.048737
0.094087 0.063996 0.049226
0.107546 0.066835 0.049653
0.130587 0.074311 0.052491
0.163943 0.086275 0.056916
0.207187 0.101045 0.062165
0.253666 0.116030 0.067994
0.299199 0.129244 0.072877
0.336004 0.137881 0.075776
0.374029 0.147158 0.078981
0.412696 0.157473 0.083101
0.451637 0.168887 0.087526
0.489662 0.180301 0.092561
0.531579 0.195071 0.099062
0.576501 0.212009 0.107057
0.618799 0.228672 0.115511
0.658717 0.244541 0.124453
0.697688 0.260746 0.133639
0.733425 0.276097 0.143709
0.767697 0.291508 0.154330
0.800259 0.306645 0.166232
0.893706 0.368536 0.221622
0.919646 0.384070 0.237583
0.943389 0.399054 0.253758
0.965820 0.414832 0.271000
0.986725 0.430976 0.289281
1.000000 0.447883 0.308904
1.000000 0.466407 0.330358
1.000000 0.486580 0.354131
1.000000 0.508019 0.379614
1.000000 0.531640 0.407446
0.086183 0.073823 0.056764
0.098421 0.077790 0.058503
0.110475 0.081300 0.058747
0.123049 0.084382 0.058961
0.140169 0.088258 0.059236
0.171756 0.100587 0.063752
0.214237 0.116823 0.070100
0.267308 0.137545 0.078431
0.322026 0.158236 0.088716
0.379309 0.180484 0.099886
0.417456 0.190036 0.103304
0.456062 0.200931 0.107668
0.493812 0.211887 0.112184
0.532067 0.223606 0.117342
0.581964 0.243565 0.127352
0.626246 0.260960 0.136934
0.668055 0.277348 0.146334
0.706783 0.292790 0.156008
0.743038 0.307988 0.166445
0.777798 0.323339 0.177981
0.811307 0.338842 0.191348
0.844785 0.355901 0.206668
0.876951 0.373571 0.223758
0.907012 0.391302 0.241825
0.934203 0.408728 0.260288
0.958282 0.424933 0.278416
0.980041 0.441199 0.296910
1.000000 0.457740 0.316136
1.000000 0.475563 0.337072
1.000000 0.494453 0.359838
1.000000 0.515190 0.384588
1.000000 0.537499 0.411292
0.098482 0.088319 0.064851
0.110933 0.092378 0.066835
0.121645 0.095613 0.067048
0.133455 0.098573 0.067109
0.148135 0.101778 0.067140
0.168948 0.107576 0.067994
0.206882 0.123568 0.074311
0.255070 0.143709 0.083436
0.312444 0.168154 0.094911
0.370886 0.192935 0.107668
0.432013 0.220371 0.122469
0.474952 0.234562 0.128664
0.511742 0.244755 0.133150
0.557549 0.261631 0.141482
0.600977 0.277989 0.150149
0.641230 0.292699 0.158053
0.678767 0.306096 0.166140
0.713680 0.318883 0.174563
0.746853 0.331609 0.183963
0.778775 0.344427 0.194430
0.810971 0.359045 0.206699
0.842832 0.374578 0.220981
0.873472 0.390631 0.236973
0.902251 0.406928 0.254185
0.929076 0.423255 0.272038
0.953155 0.439155 0.289891
0.975097 0.455085 0.308293
0.995300 0.471199 0.327581
1.000000 0.488777 0.348486
1.000000 0.507286 0.370855
1.000000 0.527428 0.395117
1.000000 0.549218 0.421576
0.112276 0.104921 0.074586
0.124880 0.109346 0.076875
0.135409 0.112581 0.077180
0.146639 0.115480 0.077180
0.160708 0.118624 0.077028
0.176974 0.122347 0.076844
0.204135 0.131746 0.079469
0.248325 0.151400 0.088685
0.301122 0.175387 0.100160
0.361059 0.203586 0.114534
0.421912 0.232364 0.129915
0.483986 0.262760 0.147158
0.542473 0.290043 0.162875
0.584771 0.305028 0.170657
0.624109 0.318364 0.177584
0.660517 0.330053 0.184298
0.694850 0.341009 0.191257
0.726864 0.351476 0.198947
0.758083 0.362646 0.207584
0.788846 0.374731 0.217868
0.819577 0.388006 0.230198
0.850187 0.402625 0.244846
0.879942 0.418128 0.260929
0.907958 0.433997 0.278050
0.933227 0.449165 0.295537
0.956054 0.464210 0.312932
0.976593 0.478737 0.330602
0.995789 0.493935 0.349065
1.000000 0.510063 0.368963
1.000000 0.527245 0.390021
1.000000 0.546227 0.413367
1.000000 0.566979 0.438911
0.127626 0.124544 0.086458
0.140261 0.128847 0.089052
0.151247 0.132174 0.089815
0.161746 0.135012 0.089631
0.174716 0.137850 0.089174
0.190402 0.141176 0.088838
0.209354 0.145205 0.088502
0.243351 0.159243 0.093904
0.291752 0.182376 0.105257
0.347326 0.209689 0.119265
0.408911 0.241184 0.135805
0.477333 0.278233 0.157168
0.546105 0.316014 0.179782
0.609827 0.350317 0.202335
0.646845 0.361517 0.208530
0.681575 0.371649 0.215030
0.714687 0.381872 0.222049
0.745571 0.391333 0.229953
0.775021 0.401038 0.238346
0.803372 0.411017 0.248234
0.831510 0.422065 0.259312
0.858976 0.434394 0.272343
0.885069 0.446571 0.286015
0.909880 0.459510 0.300847
0.932799 0.472602 0.316381
0.953857 0.485237 0.332097
0.973754 0.498878 0.349035
0.992493 0.513115 0.366705
1.000000 0.528740 0.386328
1.000000 0.545769 0.407630
1.000000 0.564477 0.431037
1.000000 0.585077 0.456855
0.143496 0.144564 0.098787
0.156130 0.149081 0.101472
0.167544 0.152743 0.102876
0.177768 0.155550 0.102785
0.190280 0.158663 0.102541
0.205661 0.162173 0.102388
0.223331 0.166049 0.101869
0.245518 0.171603 0.101961
0.286229 0.190951 0.110994
0.338079 0.217655 0.124575
0.400793 0.252415 0.143374
0.468421 0.291081 0.165133
0.536217 0.329931 0.188815
0.601190 0.367010 0.213260
0.665522 0.404028 0.240360
0.702144 0.416266 0.249577
0.732204 0.423865 0.255863
0.760678 0.431159 0.262577
0.787747 0.438697 0.270268
0.814481 0.447089 0.279118
0.840543 0.456519 0.289647
0.866270 0.467079 0.301610
0.890837 0.478126 0.314824
0.913848 0.489387 0.328771
0.935637 0.501396 0.343786
0.955596 0.513115 0.358862
0.974487 0.525597 0.374945
0.992340 0.538842 0.392035
1.000000 0.553704 0.411078
1.000000 0.569909 0.431952
1.000000 0.587793 0.454810
1.000000 0.607263 0.479652
0.162417 0.168765 0.113924
0.175265 0.173587 0.116823
0.187411 0.177676 0.119295
0.197360 0.180484 0.119142
0.209354 0.183474 0.118746
0.223972 0.187045 0.118379
0.241001 0.190890 0.117983
0.260441 0.194888 0.117525
0.285557 0.202243 0.118013
0.337682 0.231479 0.133272
0.395789 0.265171 0.151797
0.459724 0.303075 0.173404
0.577722 0.390143 0.228428
0.647608 0.433722 0.259434
0.709316 0.471412 0.291844
0.763912 0.505669 0.326329
0.799985 0.522393 0.345708
0.822904 0.524956 0.350469
0.844755 0.527977 0.356023
0.865995 0.532311 0.363134
0.886687 0.537652 0.371557
0.906859 0.544030 0.381140
0.925841 0.551019 0.391455
0.943969 0.558709 0.402777
0.960998 0.567163 0.414923
0.976928 0.575860 0.427558
0.991791 0.584985 0.440589
1.000000 0.595605 0.455238
1.000000 0.607080 0.471077
1.000000 0.620478 0.488869
1.000000 0.634974 0.508110
1.000000 0.651392 0.529564
0.191562 0.205631 0.137850
0.204807 0.210513 0.140993
0.217502 0.214908 0.143954
0.226932 0.217105 0.143404
0.238132 0.219394 0.142641
0.251530 0.222080 0.141604
0.267491 0.225315 0.140688
0.289677 0.232609 0.141848
0.314122 0.240055 0.143008
0.348699 0.255192 0.147921
0.407843 0.292149 0.168795
0.472663 0.333959 0.193179
0.542657 0.379431 0.221195
0.614008 0.426093 0.252873
0.680751 0.469062 0.286870
0.737026 0.504387 0.320500
0.786191 0.536004 0.354894
0.825040 0.559655 0.383886
0.845487 0.560967 0.388006
0.865751 0.563867 0.393652
0.885557 0.567681 0.400793
0.904753 0.572930 0.409430
0.923003 0.578637 0.418799
0.940612 0.585382 0.429236
0.957061 0.592828 0.440589
0.972564 0.600519 0.452338
0.987335 0.609400 0.465248
1.000000 0.619104 0.479255
1.000000 0.630121 0.494667
1.000000 0.642512 0.511650
1.000000 0.656306 0.530297
1.000000 0.671534 0.550713
0.212314 0.232364 0.155306
0.224918 0.237034 0.158541
0.237156 0.241367 0.161471
0.247135 0.244114 0.161990
0.258793 0.247898 0.162051
0.273503 0.252445 0.162173
0.290227 0.257359 0.162387
0.309178 0.262669 0.162234
0.330571 0.268193 0.162081
0.354803 0.274846 0.162295
0.394202 0.295018 0.171084
0.453895 0.333898 0.193576
0.518608 0.376806 0.219760
0.585473 0.421149 0.249058
0.652338 0.465126 0.281437
0.712184 0.503868 0.315740
0.762722 0.536187 0.349767
0.807034 0.565667 0.384527
0.846311 0.594018 0.420935
0.867765 0.598962 0.429694
0.886748 0.602045 0.436133
0.905058 0.606165 0.443915
0.922759 0.611200 0.452705
0.939422 0.616846 0.462470
0.955383 0.623407 0.472969
0.970367 0.630365 0.484047
0.984558 0.637964 0.495796
0.998016 0.646540 0.508537
1.000000 0.656214 0.522606
1.000000 0.667536 0.538537
1.000000 0.680140 0.555993
1.000000 0.694179 0.575280
0.236027 0.263615 0.176181
0.249607 0.270115 0.180514
0.262821 0.276005 0.184543
0.274327 0.280522 0.187015
0.284672 0.283268 0.186374
0.297093 0.286168 0.185458
0.311711 0.289586 0.184695
0.328771 0.293523 0.183658
0.348150 0.298070 0.183078
0.369940 0.303563 0.182467
0.395666 0.311315 0.182864
0.441993 0.338933 0.197147
0.503685 0.380987 0.222385
0.567590 0.424659 0.251041
0.632654 0.468299 0.282536
0.692866 0.507958 0.316442
0.746151 0.543084 0.351690
0.790982 0.572503 0.386114
0.830961 0.600549 0.421790
0.866178 0.627771 0.458900
0.890074 0.640497 0.478309
0.907225 0.643091 0.484413
0.923491 0.646265 0.491249
0.939300 0.650599 0.499367
0.954376 0.655512 0.508202
0.968841 0.661463 0.518059
0.982544 0.668208 0.529015
0.995666 0.676326 0.541344
1.000000 0.685481 0.555138
1.000000 0.696407 0.570886
1.000000 0.708705 0.588281
1.000000 0.722499 0.607568
0.263737 0.301610 0.201785
0.277012 0.307805 0.206058
0.289311 0.313420 0.209873
0.301762 0.318883 0.213718
0.311559 0.321386 0.212985
0.323247 0.324010 0.211887
0.337194 0.327459 0.211032
0.353429 0.331395 0.210086
0.371832 0.335821 0.209232
0.392340 0.340581 0.208286
0.414313 0.345434 0.207218
0.439918 0.352697 0.206516
0.491981 0.386908 0.226383
0.551354 0.427710 0.252934
0.612299 0.469123 0.281895
0.670497 0.507713 0.313420
0.724300 0.543267 0.347875
0.773129 0.576135 0.384436
0.814725 0.605005 0.420600
0.851682 0.632959 0.458534
0.884184 0.660060 0.496864
0.909972 0.680201 0.526635
0.925536 0.682887 0.532921
0.940642 0.686275 0.539910
0.954986 0.690364 0.547814
0.968658 0.695186 0.556542
0.981720 0.701076 0.566522
0.994141 0.707973 0.577600
1.000000 0.715938 0.589960
1.000000 0.725124 0.603784
1.000000 0.735500 0.619104
1.000000 0.747066 0.635798
0.289128 0.337224 0.225986
0.301183 0.342626 0.229679
0.312810 0.347906 0.233280
0.324163 0.352728 0.236759
0.334722 0.356146 0.237522
0.345525 0.358343 0.236118
0.358282 0.361181 0.235111
0.373053 0.364416 0.233524
0.389868 0.368170 0.232364
0.408698 0.372168 0.230869
0.429236 0.376287 0.229221
0.451026 0.380499 0.227451
0.477821 0.388556 0.227420
0.534752 0.428901 0.253056
0.593896 0.469947 0.281254
0.651423 0.509026 0.312139
0.705226 0.545068 0.345739
0.754543 0.578332 0.381720
0.798795 0.609186 0.419257
0.837369 0.637812 0.457862
0.871031 0.664942 0.496407
0.900816 0.690669 0.533837
0.926329 0.714900 0.569818
0.941253 0.718990 0.578088
0.954803 0.722347 0.585138
0.967834 0.726619 0.593164
0.980285 0.731533 0.602045
0.992096 0.737545 0.612207
1.000000 0.744594 0.623529
1.000000 0.752621 0.636103
1.000000 0.761929 0.650263
1.000000 0.772305 0.665736
0.315587 0.376623 0.252903
0.327489 0.382300 0.256809
0.359899 0.417792 0.281956
0.371466 0.423011 0.285649
0.383337 0.427619 0.288060
0.393439 0.429206 0.286290
0.405341 0.430854 0.284123
0.419318 0.433021 0.281773
0.435035 0.435523 0.279545
0.452827 0.438483 0.277470
0.472145 0.441413 0.274754
0.492744 0.444190 0.271946
0.514763 0.446906 0.268528
0.546807 0.459907 0.273289
0.604486 0.500938 0.302495
0.659297 0.538842 0.334569
0.710597 0.573297 0.368872
0.757321 0.604517 0.404486
0.799222 0.633265 0.441382
0.836179 0.660273 0.479194
0.868711 0.685267 0.515801
0.897459 0.709071 0.551629
0.922515 0.731594 0.586023
0.943969 0.752651 0.618524
0.958587 0.761196 0.633082
0.969940 0.762997 0.637964
0.980865 0.765866 0.644068
0.991485 0.769650 0.651331
1.000000 0.774960 0.660578
1.000000 0.781735 0.671626
1.000000 0.789700 0.684260
1.000000 0.798672 0.698085
0.349950 0.429236 0.289097
0.362615 0.436408 0.294408
0.374975 0.443549 0.299626
0.387152 0.450233 0.304570
0.400885 0.457160 0.309758
0.410681 0.459052 0.308415
0.421546 0.460456 0.306096
0.434211 0.462043 0.303716
0.448676 0.463874 0.301152
0.464912 0.466255 0.298436
0.482856 0.468635 0.295689
0.502281 0.470985 0.292668
0.522362 0.472816 0.288914
0.544518 0.475257 0.285344
0.582605 0.495308 0.296391
0.637812 0.534386 0.327550
0.689876 0.570306 0.361852
0.737942 0.603021 0.397467
0.781827 0.633356 0.435279
0.820645 0.661372 0.473976
0.854704 0.687098 0.511528
0.885252 0.711574 0.548516
0.911803 0.734524 0.583795
0.934691 0.755978 0.617273
0.953948 0.775814 0.648432
0.968872 0.789395 0.670497
0.979217 0.791409 0.675471
0.989136 0.794369 0.681666
0.998718 0.798581 0.689448
1.000000 0.804044 0.698909
1.000000 0.810605 0.709743
1.000000 0.818418 0.722225
0.370886 0.462379 0.312444
0.382757 0.469123 0.317571
0.394629 0.475868 0.322637
0.406409 0.482460 0.327550
0.419409 0.489326 0.332982
0.430884 0.493202 0.334203
0.441169 0.494606 0.331975
0.453010 0.495888 0.329381
0.466438 0.497688 0.326757
0.481666 0.499580 0.324102
0.498360 0.501549 0.320897
0.516686 0.503380 0.317632
0.535668 0.504875 0.313664
0.555749 0.505852 0.309148
0.578088 0.508232 0.305486
0.622004 0.535149 0.324956
0.674311 0.572015 0.358923
0.722927 0.605432 0.394690
0.767483 0.636133 0.432502
0.807340 0.664637 0.471412
0.842649 0.690669 0.509453
0.873686 0.714748 0.546166
0.901244 0.737667 0.581964
0.925353 0.759274 0.615991
0.945830 0.779171 0.647761
0.963104 0.797452 0.677058
0.977722 0.814511 0.704463
0.987091 0.816983 0.710018
0.996124 0.820340 0.716732
1.000000 0.824979 0.725124
1.000000 0.830900 0.735134
1.000000 0.837827 0.746609
0.394812 0.500359 0.339940
0.406653 0.507469 0.345312
0.418524 0.514702 0.350835
0.429999 0.521447 0.356176
0.442969 0.528283 0.361730
0.455695 0.533623 0.365454
0.465064 0.534539 0.362921
0.475746 0.535149 0.359899
0.487831 0.535943 0.356542
0.501610 0.536828 0.353216
0.517113 0.537926 0.349737
0.533776 0.539055 0.345769
0.551812 0.539757 0.341527
0.570703 0.540307 0.336919
0.590723 0.540703 0.331823
0.612879 0.542565 0.328466
0.662135 0.576410 0.358770
0.712337 0.612177 0.396399
0.758907 0.645167 0.436500
0.800626 0.675624 0.478340
0.837766 0.703426 0.519219
0.870268 0.728847 0.558495
0.898161 0.751736 0.594965
0.922393 0.773159 0.629694
0.943450 0.793484 0.662684
0.961120 0.811826 0.692775
0.975830 0.828580 0.720333
0.988067 0.844266 0.746120
0.996918 0.851164 0.758297
1.000000 0.855009 0.765621
1.000000 0.859861 0.774319
1.000000 0.865599 0.784298
0.432258 0.557275 0.383673
0.442634 0.562371 0.387945
0.452827 0.567163 0.392004
0.462562 0.571374 0.395727
0.473732 0.575891 0.399756
0.486427 0.580743 0.404273
0.495369 0.581384 0.402045
0.505028 0.581537 0.398810
0.516320 0.581994 0.395483
0.529412 0.582971 0.392340
0.544060 0.584009 0.388830
0.559899 0.584894 0.385077
0.576715 0.585382 0.380774
0.594720 0.585473 0.375860
0.613428 0.585168 0.370397
0.633417 0.584863 0.364996
0.656703 0.587945 0.364202
0.706905 0.623743 0.402411
0.752804 0.656214 0.442756
0.794095 0.685695 0.483864
0.830900 0.712398 0.523888
0.863218 0.736507 0.561913
0.891173 0.758267 0.597528
0.915007 0.777798 0.630152
0.935668 0.796231 0.661097
0.954345 0.814572 0.691646
0.970031 0.831601 0.720119
0.983093 0.847410 0.746517
0.993805 0.862364 0.771572
1.000000 0.872618 0.789151
1.000000 0.876738 0.796902
1.000000 0.881773 0.805905
0.457557 0.594232 0.414008
0.467597 0.598779 0.418128
0.477119 0.602930 0.422248
0.486427 0.606744 0.425910
0.497261 0.610864 0.430182
0.509392 0.615351 0.434516
0.519738 0.617670 0.435492
0.528649 0.617792 0.432197
0.538872 0.618158 0.428901
0.550774 0.618799 0.425574
0.564202 0.619593 0.422217
0.578882 0.620264 0.418463
0.594720 0.620600 0.414099
0.611566 0.620661 0.409186
0.629511 0.620447 0.404059
0.648463 0.619989 0.398260
0.668666 0.619867 0.393622
0.697414 0.629877 0.402289
0.744564 0.663600 0.444312
0.786770 0.693782 0.486793
0.824491 0.720851 0.527794
0.857694 0.745205 0.566644
0.886381 0.767117 0.603174
0.910887 0.786954 0.636927
0.930144 0.802029 0.663813
0.948119 0.818418 0.692164
0.964782 0.835508 0.721187
0.978576 0.851408 0.748257
0.989929 0.866300 0.773617
0.998993 0.880278 0.797513
1.000000 0.893034 0.819455
1.000000 0.897307 0.827420
0.496651 0.643336 0.460243
0.506554 0.647761 0.465003
0.515618 0.651270 0.468910
0.523857 0.653956 0.471901
0.533013 0.656611 0.475166
0.543450 0.659480 0.478370
0.554314 0.662013 0.480903
0.560693 0.660731 0.476356
0.568597 0.659480 0.471382
0.577905 0.658503 0.466560
0.588556 0.657465 0.461372
0.600793 0.656672 0.456184
0.614221 0.655726 0.450446
0.628809 0.654536 0.444343
0.644526 0.652979 0.437659
0.661311 0.651453 0.430732
0.679500 0.650050 0.424018
0.698848 0.649165 0.419379
0.732021 0.665309 0.438514
0.775906 0.696742 0.482460
0.815305 0.725002 0.525231
0.849760 0.749935 0.565545
0.879362 0.771908 0.602777
0.904479 0.791287 0.636530
0.925536 0.808316 0.666835
0.943420 0.823423 0.694026
0.958740 0.837522 0.719356
0.973297 0.853178 0.746487
0.985351 0.867948 0.772122
0.995148 0.881895 0.796445
1.000000 0.894987 0.819211
1.000000 0.906981 0.840177
0.520531 0.671839 0.488289
0.529961 0.675959 0.493050
0.538689 0.679469 0.497322
0.546929 0.682521 0.500877
0.556054 0.685542 0.504417
0.566400 0.688930 0.508568
0.578302 0.692897 0.513359
0.586511 0.693660 0.511955
0.594446 0.693599 0.508751
0.603510 0.693507 0.505150
0.613733 0.693385 0.501183
0.625299 0.693263 0.497047
0.637842 0.692897 0.492256
0.651514 0.692164 0.486793
0.666102 0.691066 0.480934
0.681788 0.689693 0.474342
0.698573 0.688319 0.467506
0.716762 0.687129 0.460792
0.735561 0.686030 0.457038
0.771817 0.707179 0.486946
0.811582 0.735225 0.530541
0.846525 0.760067 0.571649
0.876616 0.781888 0.609583
0.902251 0.801297 0.644373
0.923980 0.818509 0.675685
0.942260 0.833768 0.703822
0.957549 0.847532 0.729366
0.970336 0.859922 0.752438
0.982818 0.874662 0.778561
0.992737 0.888365 0.802976
1.000000 0.900847 0.825315
1.000000 0.912444 0.846067
0.553246 0.707881 0.526574
0.561639 0.711055 0.530480
0.569177 0.713802 0.533928
0.576593 0.716182 0.537041
0.584802 0.718685 0.540246
0.594293 0.721523 0.543847
0.604974 0.724727 0.548028
0.614496 0.726741 0.549615
0.621118 0.726314 0.546105
0.629114 0.726009 0.542504
0.638087 0.725734 0.538720
0.648341 0.725643 0.534813
0.659693 0.725246 0.530358
0.671992 0.724575 0.525322
0.685084 0.723507 0.519463
0.699306 0.722133 0.513146
0.714778 0.720668 0.506584
0.731472 0.719478 0.500145
0.749508 0.718471 0.494759
0.767941 0.717739 0.491890
0.806455 0.743130 0.531914
0.842527 0.768521 0.574792
0.873747 0.790738 0.614405
0.900206 0.810422 0.650599
0.922545 0.827817 0.683101
0.941161 0.843168 0.712276
0.956756 0.856779 0.738277
0.969512 0.868803 0.761440
0.979980 0.879576 0.782284
0.990021 0.892454 0.805783
0.997955 0.904692 0.828244
1.000000 0.915984 0.848966
0.584344 0.740017 0.562188
0.591699 0.742428 0.565515
0.598688 0.744747 0.568658
0.605463 0.746914 0.571557
0.613519 0.749569 0.575128
0.623194 0.752895 0.579644
0.634882 0.757259 0.585687
0.648005 0.762295 0.592676
0.656153 0.764034 0.592340
0.665522 0.766079 0.592096
0.675837 0.768154 0.591760
0.686976 0.770047 0.590875
0.698787 0.771633 0.589502
0.711055 0.772549 0.587030
0.723751 0.772854 0.583459
0.736690 0.772244 0.578454
0.750637 0.771267 0.572778
0.765713 0.770382 0.567163
0.782345 0.769741 0.561669
0.799710 0.769100 0.557916
0.819272 0.771023 0.560967
0.854643 0.795315 0.604852
0.884825 0.816403 0.644984
0.910094 0.834806 0.680842
0.931151 0.850736 0.712520
0.948425 0.864652 0.740475
0.962646 0.876890 0.765286
0.974029 0.887419 0.786801
0.983276 0.896818 0.806027
0.990631 0.905180 0.823209
0.997589 0.915770 0.843473
1.000000 0.926238 0.863432
0.634028 0.784634 0.617365
0.640345 0.786618 0.620233
0.646326 0.788327 0.622797
0.652033 0.789853 0.625116
0.658717 0.791501 0.627710
0.666590 0.793637 0.631006
0.675807 0.796262 0.635065
0.686305 0.799405 0.639887
0.694179 0.800809 0.640558
0.700557 0.801114 0.638392
0.707820 0.801389 0.635920
0.716091 0.801694 0.633295
0.725124 0.801938 0.630365
0.735012 0.801816 0.626856
0.745541 0.801450 0.622614
