20 Preset/Dark Portrait/【3】LUT video cho PR-AE-FCPX/Tone  (5).cube
# Created by Adobe Lightroom plugin Export LUT (1.22.0)
# www.johnrellis.com/lightroom/exportlut.htm
# Preset: Horizon_02
# Color profile: C:\Program Files (x86)\Common Files\Adobe\Color\Profiles\VideoHD.icc
LUT_3D_SIZE 8
DOMAIN_MIN 0.000000 0.000000 0.000000
DOMAIN_MAX 0.903226 0.903226 0.903226
0.040803 0.033875 0.045472
0.129427 0.031952 0.046540
0.253544 0.031891 0.045228
0.387579 0.040375 0.046418
0.518761 0.064363 0.051514
0.658015 0.105287 0.059541
0.784268 0.145571 0.074952
0.918181 0.187015 0.106569
0.063661 0.074830 0.078950
0.165408 0.103395 0.092836
0.325505 0.124819 0.075257
0.465126 0.145632 0.067262
0.604059 0.177646 0.062776
0.712581 0.198581 0.075502
0.820157 0.222629 0.097444
0.939269 0.252537 0.133425
0.131624 0.167239 0.152865
0.205692 0.187350 0.173098
0.358831 0.251255 0.201846
0.559442 0.305699 0.194064
0.677272 0.311589 0.177096
0.785275 0.323369 0.169223
0.902037 0.347631 0.176120
1.000000 0.366308 0.207004
0.231968 0.298192 0.260166
0.291417 0.316320 0.275181
0.396826 0.368231 0.329717
0.577874 0.462104 0.370672
0.749783 0.499794 0.361303
0.853880 0.494148 0.345556
0.944915 0.489998 0.335912
1.000000 0.497292 0.340978
0.321843 0.422980 0.361578
0.361730 0.433478 0.367468
0.451209 0.479591 0.413764
0.573297 0.554620 0.492531
0.724727 0.620722 0.514672
0.861967 0.641810 0.507286
0.963775 0.648554 0.513146
1.000000 0.645014 0.511711
0.421241 0.560693 0.474800
0.456886 0.574609 0.485328
0.524224 0.604944 0.516045
0.628168 0.662135 0.580346
0.747768 0.736904 0.668696
0.857939 0.767330 0.667567
0.959686 0.781399 0.668879
1.000000 0.793210 0.685817
0.541741 0.705928 0.603479
0.567681 0.714107 0.610529
0.610498 0.727260 0.623011
0.701595 0.770596 0.678737
0.796109 0.817166 0.740871
0.886687 0.867155 0.804196
0.954040 0.877897 0.798154
1.000000 0.880064 0.795163
0.693477 0.847898 0.746151
0.711574 0.852323 0.750912
0.741665 0.859800 0.759152
0.804440 0.881651 0.792416
0.868315 0.903380 0.831235
0.930144 0.931640 0.879179
0.971862 0.950866 0.909056
1.000000 0.949310 0.899840
0.059449 0.048798 0.068147
0.095888 0.043397 0.087465
0.201144 0.041962 0.076417
0.348913 0.060243 0.081880
0.499397 0.099977 0.090059
0.640314 0.144533 0.092744
0.778439 0.190249 0.092988
0.907012 0.223026 0.114992
0.076997 0.087953 0.117037
0.139925 0.111849 0.139712
0.262242 0.122530 0.134646
0.402777 0.142733 0.133974
0.543755 0.173037 0.134554
0.672450 0.205936 0.133608
0.798764 0.241520 0.134310
0.933165 0.280522 0.142794
0.133761 0.176089 0.186954
0.198459 0.195499 0.203037
0.322576 0.246433 0.239780
0.493141 0.286076 0.238621
0.615442 0.297368 0.225986
0.730129 0.313848 0.219242
0.848051 0.337346 0.219333
0.972473 0.367132 0.229221
0.227695 0.295659 0.281712
0.276036 0.308537 0.290105
0.370367 0.351904 0.334936
0.525628 0.431556 0.376989
0.689387 0.471138 0.373388
0.797116 0.471839 0.360235
0.897154 0.474311 0.351446
1.000000 0.487007 0.355413
0.321599 0.423743 0.380987
0.357671 0.432959 0.386145
0.432593 0.466285 0.417121
0.546197 0.533776 0.487434
0.692134 0.603235 0.518303
0.831449 0.630732 0.516442
0.936950 0.641047 0.522789
1.000000 0.640009 0.520470
0.416022 0.555383 0.484382
0.446540 0.564904 0.490913
0.502556 0.586542 0.509697
0.608148 0.646448 0.575067
0.727871 0.722438 0.661280
0.842557 0.762112 0.672511
0.946685 0.778927 0.675624
1.000000 0.792081 0.692012
0.530541 0.696468 0.603998
0.553399 0.702266 0.608423
0.592065 0.712917 0.617029
0.680110 0.754788 0.667506
0.780697 0.806577 0.733944
0.876188 0.861326 0.803037
0.945037 0.873014 0.796658
1.000000 0.876005 0.793454
0.681605 0.841489 0.744106
0.700862 0.846769 0.749691
0.731044 0.854429 0.757839
0.788602 0.873442 0.784237
0.866026 0.904143 0.834073
0.927794 0.931395 0.880491
0.969909 0.950927 0.911254
1.000000 0.949706 0.901976
0.113313 0.099306 0.139712
0.118257 0.102022 0.157015
0.205295 0.081361 0.171237
0.291081 0.048768 0.120760
0.437720 0.076204 0.128847
0.587457 0.125978 0.141634
0.738521 0.181674 0.155612
0.896025 0.236393 0.169558
0.137911 0.142611 0.190707
0.179568 0.157595 0.202487
0.234592 0.138064 0.197757
0.348669 0.130037 0.173922
0.487953 0.161135 0.182315
0.623957 0.200443 0.191836
0.762783 0.242802 0.200565
0.911162 0.284550 0.207675
0.152865 0.196506 0.235050
0.195163 0.212375 0.248081
0.300145 0.258915 0.289616
0.440955 0.280003 0.285283
0.567346 0.295323 0.279759
0.687831 0.315496 0.276799
0.812955 0.340398 0.276585
0.945739 0.370459 0.282322
0.218235 0.303929 0.313329
0.278813 0.328557 0.335393
0.359686 0.360418 0.362951
0.500786 0.437507 0.418341
0.658106 0.477943 0.423072
0.763363 0.477760 0.408392
0.871153 0.483680 0.400183
0.983459 0.497292 0.400855
0.319554 0.430335 0.408667
0.362646 0.448219 0.423560
0.417395 0.465003 0.433936
0.534691 0.535790 0.506462
0.673976 0.609216 0.550347
0.810056 0.639185 0.553429
0.914763 0.647700 0.554711
1.000000 0.648066 0.550408
0.414008 0.559289 0.506096
0.446723 0.571160 0.516106
0.492683 0.585779 0.526177
0.589624 0.637171 0.579065
0.707362 0.710506 0.659724
0.826047 0.761135 0.686702
0.934173 0.783261 0.694514
1.000000 0.799161 0.712001
0.529839 0.701167 0.622217
0.553277 0.707820 0.627649
0.590082 0.717769 0.635370
0.662501 0.747036 0.667170
0.768673 0.801999 0.735714
0.870665 0.862974 0.813809
0.940917 0.878080 0.810422
1.000000 0.884092 0.810605
0.673213 0.840452 0.751003
0.691127 0.844816 0.755306
0.721889 0.852750 0.763607
0.769497 0.866728 0.778744
0.854490 0.900053 0.831235
0.923400 0.930663 0.881773
0.968322 0.952972 0.917601
0.998474 0.952209 0.908537
0.198245 0.191073 0.252934
0.243839 0.216678 0.265843
0.203799 0.159609 0.266941
0.334691 0.146487 0.275334
0.397803 0.081910 0.196567
0.489876 0.082612 0.166995
0.652308 0.139010 0.187045
0.828244 0.201602 0.208011
0.235050 0.241001 0.304784
0.270787 0.253910 0.310399
0.262577 0.234073 0.307744
0.356634 0.203555 0.300389
0.404303 0.121889 0.202731
0.540764 0.162692 0.217136
0.689937 0.208347 0.231754
0.853513 0.258854 0.247257
0.250858 0.282902 0.341375
0.283482 0.290379 0.346044
0.326146 0.306004 0.357214
0.374578 0.252110 0.309667
0.492897 0.265263 0.304692
0.619989 0.291386 0.308812
0.758206 0.323705 0.315831
0.905180 0.355322 0.320439
0.259770 0.343664 0.381750
0.288365 0.349401 0.385077
0.341039 0.368719 0.397925
0.461982 0.434668 0.452857
0.595544 0.458991 0.450507
0.703182 0.459724 0.436194
0.820859 0.468269 0.427710
0.947875 0.484443 0.426581
0.300328 0.433356 0.435309
0.345312 0.450416 0.449836
0.415320 0.481666 0.476661
0.510063 0.529015 0.518944
0.646357 0.610651 0.581170
0.782620 0.645289 0.590356
0.884916 0.646967 0.582513
0.984741 0.645869 0.573175
0.399176 0.563012 0.529168
0.437507 0.578882 0.543481
0.493202 0.601007 0.563317
0.562951 0.627893 0.584710
0.690150 0.706569 0.668544
0.810819 0.766049 0.710445
0.921752 0.790433 0.719295
1.000000 0.801450 0.728969
0.500603 0.696681 0.629908
0.533562 0.706966 0.640955
0.583124 0.723629 0.658289
0.640772 0.742489 0.673945
0.750332 0.796475 0.737636
0.858915 0.859068 0.815183
0.934478 0.882994 0.825834
0.999390 0.890959 0.827420
0.646448 0.840665 0.755795
0.673457 0.846647 0.764614
0.712337 0.855955 0.777188
0.758663 0.868254 0.790036
0.831937 0.892546 0.823850
0.914061 0.928069 0.880858
0.965820 0.955474 0.925994
0.995941 0.955627 0.917296
0.313420 0.322332 0.395178
0.356970 0.347387 0.406378
0.350500 0.339178 0.410986
0.314977 0.218723 0.375250
0.466590 0.233829 0.388098
0.501854 0.139376 0.283055
0.531914 0.067933 0.191135
0.733913 0.136538 0.225528
0.345586 0.366064 0.434730
0.378546 0.380621 0.440284
0.417060 0.403998 0.449439
0.348211 0.282658 0.404303
0.477913 0.282719 0.405737
0.492622 0.161288 0.276707
0.584070 0.144350 0.236759
0.770871 0.203830 0.265293
0.365606 0.406500 0.469154
0.393317 0.414313 0.471901
0.425605 0.424781 0.474617
0.396826 0.370214 0.446906
0.472602 0.314183 0.402564
0.512230 0.223239 0.299840
0.653376 0.257816 0.311986
0.818570 0.300084 0.327855
0.371801 0.446998 0.497292
0.393622 0.448249 0.496529
0.422614 0.450538 0.496101
0.457343 0.456397 0.498238
0.517601 0.415259 0.454688
0.621637 0.410346 0.436561
0.744259 0.418219 0.427710
0.887816 0.435279 0.425055
0.362432 0.488624 0.515373
0.381933 0.490059 0.515221
0.407599 0.490761 0.512413
0.476417 0.520562 0.534417
0.600244 0.594537 0.596338
0.728634 0.617487 0.596307
0.831113 0.606897 0.575067
0.948699 0.607263 0.563806
0.366705 0.551202 0.542962
0.393774 0.557275 0.547204
0.446082 0.575006 0.562249
0.523796 0.609552 0.591821
0.632685 0.667262 0.644556
0.777646 0.755123 0.719631
0.899229 0.786526 0.734798
0.986389 0.786893 0.729824
0.460731 0.686488 0.639155
0.489174 0.693477 0.645716
0.535363 0.706508 0.658015
0.609857 0.734279 0.685145
0.694240 0.766140 0.714260
0.828855 0.841825 0.803586
0.920317 0.881621 0.835416
0.991821 0.891203 0.836851
0.583429 0.827543 0.749813
0.607568 0.831968 0.755062
0.653346 0.841123 0.767178
0.726986 0.860777 0.793484
0.792081 0.878813 0.812863
0.890593 0.917937 0.870420
0.959045 0.953887 0.928191
0.991669 0.956939 0.923491
0.454383 0.491463 0.556817
0.490913 0.513451 0.566186
0.537743 0.545983 0.579278
0.458503 0.460883 0.558343
0.441718 0.293248 0.487922
0.600824 0.337621 0.506218
0.624109 0.215579 0.384894
0.625238 0.046448 0.234867
0.472877 0.518456 0.578943
0.503044 0.533532 0.584771
0.541253 0.555779 0.592798
0.494789 0.504417 0.572503
0.453956 0.336950 0.500145
0.604700 0.378302 0.518273
0.611139 0.228519 0.375677
0.628840 0.074586 0.234531
0.499184 0.559228 0.612360
0.522087 0.567071 0.614618
0.552331 0.578851 0.617548
0.565240 0.579797 0.613001
0.480690 0.406348 0.529198
0.599634 0.410925 0.519829
0.597498 0.242313 0.360082
0.706294 0.196872 0.304601
0.509728 0.592920 0.637598
0.528588 0.595819 0.637537
0.555200 0.601465 0.638544
0.589380 0.613336 0.642969
0.537133 0.523735 0.589044
0.595483 0.440833 0.516136
0.639429 0.326268 0.399908
0.805692 0.359869 0.413733
0.501915 0.617182 0.649073
0.517052 0.617182 0.648035
0.537469 0.615900 0.645289
0.561883 0.613092 0.640864
0.585199 0.605249 0.631464
0.641657 0.556481 0.581140
0.749203 0.542168 0.556756
0.887083 0.545769 0.547692
0.478309 0.642542 0.653803
0.490059 0.641749 0.652216
0.507561 0.639612 0.648737
0.527886 0.633906 0.640192
0.595727 0.658412 0.657740
0.740352 0.746304 0.735775
0.861723 0.766903 0.739742
0.958282 0.751186 0.716426
0.490608 0.719814 0.697536
0.499580 0.717830 0.694209
0.509483 0.711086 0.684840
0.574334 0.729885 0.701289
0.665766 0.764492 0.733639
0.785183 0.820188 0.789914
0.907103 0.885527 0.853880
0.984741 0.898253 0.858701
0.541650 0.826047 0.766567
0.566461 0.829557 0.770413
0.606897 0.836240 0.777676
0.668605 0.849851 0.792569
0.749905 0.870512 0.816709
0.837064 0.895506 0.844846
0.945556 0.947478 0.922332
0.986694 0.960174 0.933837
0.596796 0.649683 0.695705
0.620203 0.665309 0.704189
0.662959 0.692744 0.716915
0.657649 0.688197 0.721492
0.565698 0.564019 0.678370
0.576287 0.399512 0.605493
0.725856 0.450629 0.619745
0.758480 0.311711 0.499062
0.593805 0.656001 0.702693
0.623896 0.673152 0.711360
0.660426 0.694270 0.720729
0.682521 0.708614 0.728389
0.582788 0.592523 0.682643
0.574792 0.425940 0.606134
0.717403 0.470253 0.619043
0.736568 0.310185 0.482246
0.616968 0.687587 0.728939
0.639704 0.697536 0.733181
0.669917 0.711421 0.738613
0.705776 0.731807 0.747127
0.629084 0.652399 0.707851
0.590875 0.481758 0.626398
0.727932 0.520653 0.639277
0.736233 0.325628 0.476967
0.634028 0.718441 0.754025
0.651209 0.723323 0.755520
0.676905 0.731502 0.758297
0.711299 0.746304 0.764920
0.711696 0.738186 0.756100
0.617426 0.557855 0.660487
0.724910 0.548943 0.641505
0.731991 0.327520 0.455146
0.632227 0.737240 0.765743
0.644739 0.738064 0.765042
0.663691 0.739773 0.764462
0.692683 0.746456 0.767208
0.723842 0.754482 0.769039
0.647913 0.646326 0.699397
0.703609 0.552636 0.619562
0.759365 0.382727 0.464942
0.626825 0.761746 0.778592
0.638849 0.762814 0.778958
0.656886 0.763851 0.779049
0.680751 0.764736 0.778653
0.705653 0.762783 0.775448
0.725795 0.753750 0.765133
0.757382 0.676539 0.691432
0.882231 0.664332 0.671351
0.618708 0.795956 0.794583
0.627649 0.795621 0.793881
0.639124 0.793179 0.790799
0.656306 0.790341 0.786770
0.672847 0.783291 0.777340
0.723629 0.792294 0.781338
0.872984 0.874388 0.860777
0.961883 0.878141 0.854032
0.636103 0.864622 0.837705
0.644068 0.864714 0.837064
0.658350 0.866178 0.837095
0.670069 0.863340 0.831083
0.701167 0.863767 0.827543
0.797513 0.889067 0.855161
0.909941 0.930358 0.905028
0.979675 0.963775 0.946349
0.732937 0.780240 0.807736
0.734249 0.782284 0.809781
0.770993 0.804166 0.821378
0.815183 0.834409 0.839384
0.760311 0.791409 0.829404
0.678645 0.661738 0.783841
0.716060 0.523705 0.727230
0.855009 0.578912 0.738399
0.719081 0.777340 0.809201
0.736568 0.787411 0.814878
0.771084 0.807095 0.825467
0.812039 0.833402 0.840726
0.779324 0.808194 0.835538
0.690974 0.686213 0.788815
0.713680 0.541985 0.727901
0.851743 0.594995 0.740780
0.716945 0.785580 0.818570
0.740505 0.797177 0.824674
0.771633 0.812894 0.832853
0.812741 0.837644 0.847776
0.814694 0.837766 0.850645
0.717708 0.728145 0.802670
0.717678 0.577447 0.737026
0.855314 0.628626 0.752682
0.717830 0.799405 0.831815
0.741573 0.809964 0.837766
0.772549 0.823575 0.844999
0.811856 0.843717 0.856992
0.850187 0.866819 0.870787
0.771939 0.793973 0.833738
0.732113 0.633112 0.759335
0.869230 0.681788 0.777615
0.725399 0.820279 0.847990
0.741543 0.825589 0.851102
0.764034 0.832364 0.854551
0.799222 0.846006 0.862516
0.841001 0.865843 0.874601
0.846830 0.865171 0.873838
0.746761 0.694484 0.784939
0.866148 0.704067 0.779843
0.732326 0.844572 0.864775
0.744137 0.846677 0.865843
0.762844 0.850187 0.867674
0.791745 0.857847 0.872648
0.829526 0.871122 0.882078
0.877867 0.895354 0.900023
0.805356 0.808957 0.844358
0.859251 0.718868 0.772915
0.755367 0.883238 0.891936
0.766842 0.885435 0.893645
0.782773 0.887541 0.895140
0.805600 0.890990 0.897704
0.832700 0.895232 0.900847
0.861448 0.899596 0.904021
0.883116 0.898100 0.900633
0.858518 0.755612 0.772854
0.753658 0.911345 0.906371
0.761135 0.911681 0.906523
0.773404 0.912352 0.906950
0.791623 0.913878 0.908019
0.810391 0.914122 0.907439
0.830350 0.912749 0.904692
0.845914 0.905394 0.893309
0.960357 0.958953 0.951904
