20 Preset/Dark Portrait/【3】LUT video cho PR-AE-FCPX/Tone  (15).cube
# Created by Adobe Lightroom plugin Export LUT (1.22.0)
# www.johnrellis.com/lightroom/exportlut.htm
# Preset: Candy_02
# Color profile: C:\Program Files (x86)\Common Files\Adobe\Color\Profiles\VideoHD.icc
LUT_3D_SIZE 32
DOMAIN_MIN 0.0 0.0 0.0
DOMAIN_MAX 1.0 1.0 1.0
0.053223 0.034180 0.035981
0.053468 0.034150 0.036164
0.055604 0.034058 0.036133
0.059602 0.033936 0.036072
0.066865 0.033906 0.036072
0.079774 0.033722 0.036011
0.095094 0.033845 0.035859
0.111940 0.033997 0.035615
0.130648 0.034150 0.035279
0.150851 0.034577 0.034974
0.173129 0.035187 0.034546
0.197421 0.036103 0.034058
0.223514 0.037354 0.033387
0.250858 0.039124 0.032654
0.279057 0.041688 0.031952
0.307988 0.044770 0.031189
0.336492 0.048005 0.030610
0.365118 0.051850 0.030121
0.399725 0.057465 0.029816
0.434943 0.064332 0.029236
0.468360 0.071962 0.028687
0.501152 0.080476 0.028016
0.533745 0.090120 0.027161
0.566155 0.099916 0.026032
0.598871 0.110231 0.024964
0.631556 0.120943 0.023560
0.664820 0.131930 0.022187
0.699947 0.144137 0.020691
0.736904 0.157168 0.018860
0.774441 0.170504 0.017456
0.813291 0.184451 0.016205
0.853086 0.199161 0.015717
0.053193 0.034180 0.036164
0.054108 0.034394 0.036103
0.056550 0.034577 0.036194
0.061646 0.034821 0.036072
0.070008 0.035126 0.036011
0.083803 0.035492 0.035859
0.098939 0.035889 0.035645
0.115908 0.036286 0.035370
0.134585 0.036866 0.035126
0.155062 0.037781 0.034730
0.177432 0.038788 0.034211
0.202121 0.040162 0.033814
0.228702 0.042145 0.032990
0.255833 0.043977 0.032380
0.283360 0.046632 0.031861
0.311498 0.049348 0.031495
0.339849 0.052674 0.031189
0.368200 0.056977 0.030823
0.403418 0.063508 0.030488
0.436866 0.070253 0.030060
0.468971 0.077607 0.029603
0.500999 0.086366 0.028840
0.532769 0.095521 0.027893
0.564324 0.104891 0.027008
0.596216 0.114839 0.025910
0.628473 0.125460 0.024506
0.661433 0.136294 0.023194
0.695888 0.147982 0.021515
0.732357 0.160616 0.019837
0.769375 0.173709 0.018372
0.807614 0.187350 0.017273
0.846983 0.201633 0.016815
0.053010 0.034516 0.036103
0.054414 0.034668 0.036225
0.057404 0.035279 0.036225
0.063447 0.036011 0.036194
0.073365 0.036774 0.036042
0.087373 0.037598 0.035645
0.102846 0.038361 0.035554
0.119905 0.039216 0.035187
0.138766 0.040162 0.034882
0.159609 0.041260 0.034607
0.182406 0.042725 0.034150
0.206973 0.044160 0.033722
0.232975 0.045991 0.033265
0.260258 0.048310 0.032715
0.287663 0.051057 0.032319
0.315557 0.054047 0.032044
0.343847 0.058228 0.031800
0.373816 0.062928 0.031708
0.407385 0.069459 0.031312
0.440223 0.076509 0.030854
0.471962 0.084596 0.030365
0.503410 0.092958 0.029572
0.534936 0.101930 0.028626
0.566186 0.111330 0.027710
0.597559 0.120851 0.026642
0.628901 0.130678 0.025422
0.661860 0.141787 0.023835
0.696437 0.153414 0.022248
0.732479 0.165713 0.020783
0.769894 0.178988 0.019135
0.807919 0.192203 0.018250
0.847715 0.207095 0.017823
0.052979 0.035004 0.036042
0.054780 0.035431 0.036103
0.057649 0.036194 0.036103
0.064179 0.037354 0.036133
0.076478 0.038972 0.035828
0.091432 0.040253 0.035676
0.106844 0.041291 0.035523
0.124086 0.042206 0.035309
0.143160 0.043366 0.035126
0.163973 0.044709 0.034791
0.187076 0.046204 0.034485
0.211612 0.048005 0.034150
0.237858 0.050294 0.033722
0.264714 0.052949 0.033295
0.291814 0.055787 0.033051
0.319615 0.059358 0.032868
0.347539 0.063691 0.032746
0.377844 0.068971 0.032532
0.409888 0.075349 0.032227
0.441108 0.082612 0.031739
0.471717 0.090272 0.031159
0.502525 0.098207 0.030457
0.533776 0.106905 0.029541
0.565637 0.116670 0.028443
0.597742 0.126345 0.027253
0.630121 0.136568 0.026123
0.663874 0.147616 0.024689
0.698939 0.159365 0.023102
0.735592 0.171878 0.021576
0.772885 0.185031 0.020356
0.810452 0.198337 0.019409
0.848814 0.212222 0.019165
0.053132 0.035920 0.036225
0.055268 0.036622 0.036255
0.058625 0.037507 0.036225
0.064637 0.038697 0.036103
0.076783 0.040955 0.035889
0.093416 0.043000 0.035920
0.109804 0.044648 0.035950
0.127565 0.045930 0.035828
0.146761 0.047333 0.035584
0.167605 0.048920 0.035370
0.190921 0.050752 0.035157
0.215640 0.052918 0.034913
0.241886 0.055573 0.034607
0.269139 0.058656 0.034241
0.296666 0.062196 0.034150
0.324498 0.066224 0.034028
0.352636 0.070710 0.033875
0.383978 0.076692 0.033631
0.415534 0.083803 0.033265
0.446296 0.091035 0.032685
0.476295 0.098390 0.032136
0.506889 0.106325 0.031373
0.537713 0.114961 0.030549
0.569390 0.124269 0.029480
0.601404 0.133730 0.028382
0.634272 0.144167 0.027070
0.667903 0.155062 0.025727
0.702907 0.166842 0.024201
0.739223 0.179294 0.022766
0.775967 0.192203 0.021393
0.813230 0.205356 0.020569
0.850736 0.218753 0.020783
0.053254 0.037781 0.036286
0.055940 0.038911 0.036255
0.060426 0.039979 0.036347
0.066590 0.041321 0.036347
0.078065 0.043793 0.036103
0.094148 0.046204 0.036103
0.112795 0.048798 0.036103
0.132021 0.051026 0.036439
0.152712 0.053040 0.036713
0.174258 0.055024 0.036561
0.197879 0.057465 0.036378
0.223148 0.060273 0.036164
0.249485 0.063386 0.035889
0.276677 0.066896 0.035767
0.304601 0.071107 0.035706
0.332555 0.075532 0.035492
0.361517 0.080934 0.035279
0.393378 0.087373 0.035065
0.424628 0.094270 0.034455
0.454871 0.101411 0.033967
0.485206 0.109041 0.033387
0.515709 0.117098 0.032471
0.590143 0.142336 0.031067
0.622309 0.152132 0.030091
0.654261 0.161990 0.028992
0.686641 0.172396 0.027893
0.720027 0.183658 0.026368
0.753140 0.194644 0.025391
0.786587 0.206027 0.024567
0.820493 0.217655 0.024537
0.854826 0.229770 0.024903
0.889677 0.242252 0.026429
0.052369 0.042451 0.036469
0.057313 0.044068 0.036469
0.063996 0.045838 0.036408
0.071962 0.047608 0.036500
0.083742 0.049470 0.036500
0.100099 0.052216 0.036255
0.119142 0.055146 0.036530
0.141665 0.058778 0.037201
0.163973 0.062348 0.038270
0.189487 0.066438 0.039246
0.214420 0.069551 0.039033
0.240848 0.073121 0.038758
0.268070 0.076692 0.038483
0.295628 0.081117 0.038331
0.323644 0.085756 0.037964
0.351415 0.090455 0.037598
0.383093 0.096803 0.037232
0.416449 0.104463 0.036652
0.448768 0.111940 0.036255
0.480842 0.119997 0.035554
0.512963 0.128237 0.034882
0.546838 0.137758 0.034058
0.581659 0.148165 0.032990
0.616571 0.158938 0.031800
0.650752 0.169558 0.030732
0.684688 0.180575 0.029603
0.718227 0.191501 0.028351
0.751492 0.202426 0.027283
0.784939 0.213901 0.026673
0.818112 0.224826 0.026703
0.852201 0.236667 0.027436
0.886748 0.249088 0.028962
0.051759 0.048310 0.036652
0.057923 0.050141 0.036591
0.065400 0.051789 0.036683
0.074311 0.053620 0.036896
0.086763 0.055543 0.036866
0.101564 0.057954 0.037018
0.120394 0.061219 0.036774
0.142184 0.064973 0.037446
0.167178 0.070069 0.039033
0.193027 0.075288 0.040467
0.221744 0.081727 0.041871
0.249241 0.086061 0.041718
0.276555 0.089998 0.041352
0.304082 0.094209 0.040803
0.331792 0.098726 0.040345
0.360082 0.103700 0.039979
0.392676 0.110597 0.039490
0.423896 0.117281 0.038941
0.454566 0.124392 0.038453
0.485084 0.131868 0.037690
0.516625 0.139834 0.036866
0.549371 0.148836 0.036103
0.583246 0.158755 0.035096
0.617548 0.169619 0.033997
0.651575 0.179965 0.032898
0.685237 0.190585 0.031769
0.719020 0.201389 0.030732
0.752560 0.212589 0.029755
0.785702 0.223453 0.029541
0.819303 0.235019 0.029511
0.853178 0.246525 0.030549
0.887480 0.258518 0.032441
0.050477 0.055665 0.036927
0.058137 0.057465 0.037018
0.067048 0.059297 0.037232
0.076539 0.061036 0.037446
0.089509 0.063050 0.037720
0.104341 0.065736 0.037964
0.122469 0.068910 0.038056
0.144411 0.073091 0.037690
0.168978 0.078401 0.038788
0.197208 0.085603 0.040833
0.226505 0.092439 0.042725
0.257450 0.099489 0.044312
0.287358 0.105562 0.044831
0.314977 0.109651 0.044312
0.342718 0.114168 0.043610
0.373236 0.120241 0.042939
0.404547 0.126711 0.042451
0.434791 0.133242 0.041810
0.464607 0.139803 0.041169
0.494789 0.146944 0.040497
0.526238 0.155184 0.039612
0.559411 0.164492 0.038544
0.593500 0.174502 0.037781
0.627375 0.184482 0.036713
0.661433 0.195285 0.035737
0.694972 0.205844 0.034546
0.727932 0.216159 0.033845
0.760555 0.226841 0.033234
0.792966 0.237369 0.032990
0.825559 0.248142 0.033631
0.858610 0.259312 0.034852
0.892027 0.270726 0.037476
0.049836 0.064363 0.037507
0.058656 0.066346 0.037690
0.068269 0.068238 0.038056
0.078767 0.070039 0.038239
0.092164 0.072267 0.038605
0.107576 0.075013 0.039002
0.125277 0.078187 0.039582
0.146548 0.082979 0.039338
0.171572 0.088380 0.038636
0.199374 0.095125 0.040192
0.230381 0.103365 0.042664
0.261967 0.111299 0.044770
0.294194 0.119387 0.046784
0.326848 0.127169 0.048463
0.355871 0.132387 0.047730
0.387579 0.138949 0.047028
0.418677 0.145602 0.046326
0.448859 0.151888 0.045716
0.478645 0.158633 0.044831
0.508598 0.165682 0.044007
0.539422 0.173648 0.043000
0.570977 0.181949 0.042084
0.603021 0.191073 0.041169
0.635248 0.200412 0.040040
0.667445 0.209964 0.039246
0.700099 0.220005 0.038270
0.732601 0.230289 0.037446
0.764767 0.240299 0.037049
0.797177 0.250675 0.037171
0.829984 0.261570 0.038025
0.863035 0.272679 0.040040
0.896513 0.284031 0.043122
0.049317 0.074464 0.038209
0.058839 0.076509 0.038544
0.069459 0.078462 0.038849
0.080720 0.080995 0.039429
0.094667 0.083467 0.039765
0.110536 0.086519 0.040101
0.128939 0.090028 0.040589
0.149630 0.094423 0.041108
0.174411 0.100252 0.040436
0.203464 0.106722 0.039185
0.233738 0.114595 0.041169
0.266300 0.123720 0.044221
0.299718 0.132662 0.047150
0.333196 0.141695 0.049989
0.371221 0.153262 0.052552
0.402808 0.159945 0.052247
0.432929 0.166323 0.051301
0.462593 0.172396 0.050263
0.491493 0.178470 0.049409
0.521172 0.185489 0.048402
0.551598 0.193088 0.047303
0.582727 0.201144 0.046418
0.614343 0.209995 0.045502
0.646113 0.219181 0.044556
0.677974 0.228153 0.043854
0.710475 0.238071 0.043030
0.742214 0.247654 0.042542
0.773892 0.257481 0.042512
0.805783 0.267277 0.043305
0.837797 0.277623 0.044678
0.870329 0.288273 0.046998
0.903471 0.299718 0.050965
0.048371 0.087221 0.039368
0.059052 0.089357 0.039796
0.070649 0.091676 0.040192
0.083009 0.093904 0.040589
0.097566 0.096620 0.040986
0.114229 0.099855 0.041230
0.133120 0.103639 0.041596
0.154726 0.108156 0.042023
0.179019 0.113527 0.042115
0.207767 0.120577 0.040864
0.239231 0.128145 0.039399
0.271580 0.137118 0.042329
0.321111 0.156313 0.047395
0.362646 0.170565 0.051759
0.403479 0.184451 0.056092
0.444221 0.198215 0.060609
0.479194 0.207889 0.061921
0.509697 0.214359 0.060517
0.538872 0.220188 0.059205
0.568597 0.226810 0.058076
0.598352 0.233646 0.057313
0.628534 0.241154 0.056092
0.658808 0.248936 0.055207
0.689387 0.256962 0.054292
0.719478 0.264927 0.053986
0.748959 0.272831 0.053559
0.778225 0.281041 0.053620
0.807004 0.288914 0.054414
0.835966 0.297002 0.056031
0.865537 0.306004 0.058198
0.895659 0.315435 0.062135
0.926207 0.325322 0.067445
0.046387 0.105104 0.040681
0.059358 0.107454 0.041016
0.071809 0.109712 0.041505
0.086397 0.111879 0.041657
0.102113 0.114809 0.042115
0.120241 0.118013 0.042267
0.140505 0.121889 0.042664
0.163180 0.126711 0.042878
0.188205 0.132113 0.043153
0.216556 0.138949 0.042725
0.249241 0.147402 0.041169
0.284154 0.156619 0.039582
0.322515 0.169253 0.044404
0.364263 0.184451 0.050080
0.405951 0.199344 0.055299
0.444770 0.212680 0.060487
0.483314 0.225803 0.065949
0.519127 0.237308 0.069795
0.548058 0.242985 0.068025
0.576928 0.248692 0.066743
0.606287 0.255100 0.065309
0.636164 0.262150 0.064393
0.666072 0.269413 0.063172
0.696010 0.276646 0.062531
0.725856 0.284367 0.062135
0.755093 0.291905 0.061982
0.783993 0.299474 0.062440
0.812894 0.307225 0.063722
0.842008 0.315312 0.065736
0.871397 0.323949 0.068818
0.901335 0.333165 0.073274
0.931518 0.342687 0.080079
0.044068 0.120516 0.041505
0.057008 0.123079 0.041779
0.071168 0.125338 0.042054
0.086488 0.127626 0.042298
0.103670 0.130526 0.042664
0.122225 0.133730 0.043061
0.143496 0.137758 0.043183
0.166415 0.142306 0.043519
0.192111 0.147707 0.043366
0.219516 0.154116 0.043915
0.250828 0.162020 0.043000
0.286748 0.172549 0.041413
0.326726 0.185061 0.040223
0.366064 0.198795 0.046296
0.406256 0.213596 0.052857
0.446296 0.228092 0.059480
0.483375 0.240818 0.065766
0.520378 0.253819 0.072023
0.558679 0.267796 0.078676
0.588037 0.273686 0.078187
0.617365 0.279942 0.076417
0.647028 0.286412 0.075013
0.677119 0.293523 0.074037
0.706966 0.300481 0.073579
0.736477 0.307683 0.073152
0.765408 0.314702 0.073304
0.793851 0.321752 0.074250
0.822232 0.328832 0.075929
0.850675 0.336309 0.078676
0.879637 0.344457 0.082826
0.908934 0.353155 0.088289
0.938720 0.362524 0.095613
0.040284 0.138033 0.041901
0.054749 0.140352 0.042298
0.069856 0.142794 0.042634
0.086030 0.145144 0.042817
0.104097 0.147799 0.043336
0.124239 0.151003 0.043610
0.146212 0.155032 0.043641
0.170260 0.159762 0.044007
0.196323 0.165133 0.044038
0.224216 0.171756 0.044221
0.255833 0.180209 0.044617
0.292241 0.191775 0.043793
0.331212 0.203922 0.042481
0.371649 0.216953 0.040772
0.410407 0.230777 0.048646
0.449500 0.245121 0.057008
0.488289 0.259495 0.064576
0.524437 0.272038 0.072511
0.561578 0.285588 0.080568
0.599451 0.299718 0.088899
0.632319 0.308934 0.091341
0.661555 0.314763 0.089815
0.690791 0.320806 0.088808
0.720058 0.327153 0.088075
0.748836 0.333379 0.087892
0.777096 0.339635 0.088441
0.805264 0.346136 0.090272
0.833616 0.353124 0.092378
0.862272 0.360662 0.095613
0.891234 0.368475 0.100862
0.920653 0.377142 0.107240
0.950103 0.386328 0.115694
0.034852 0.156924 0.042359
0.050965 0.159487 0.042634
0.067048 0.162051 0.043030
0.085206 0.164553 0.043275
0.104433 0.167575 0.043610
0.126284 0.171023 0.044068
0.149660 0.175265 0.044404
0.174929 0.180148 0.044404
0.201877 0.185672 0.044709
0.232578 0.194003 0.045167
0.264744 0.203006 0.045624
0.298833 0.212680 0.046357
0.336706 0.224796 0.044831
0.374914 0.236423 0.043366
0.414343 0.248722 0.041505
0.451179 0.261723 0.051423
0.488716 0.275456 0.061280
0.527337 0.290043 0.070771
0.563958 0.303319 0.080781
0.601740 0.317723 0.090211
0.640925 0.332921 0.100465
0.677699 0.345922 0.107454
0.706935 0.351598 0.106294
0.735622 0.357092 0.106142
0.763912 0.362646 0.106172
0.792020 0.368597 0.107088
0.819699 0.374304 0.108797
0.847410 0.380529 0.111757
0.875273 0.387213 0.115694
0.903227 0.394385 0.121096
0.931090 0.402014 0.127932
0.959167 0.410437 0.136507
0.028809 0.177066 0.042695
0.045319 0.179782 0.043000
0.063050 0.182284 0.043336
0.082734 0.184634 0.043519
0.103792 0.187655 0.044099
0.126772 0.191409 0.044556
0.151705 0.195682 0.045045
0.178744 0.201633 0.045411
0.207736 0.208652 0.045747
0.238499 0.216464 0.046113
0.271061 0.225040 0.046601
0.304601 0.234379 0.047364
0.340002 0.244907 0.047883
0.378149 0.256992 0.045838
0.416571 0.268559 0.044312
0.455360 0.280735 0.042359
0.491951 0.293858 0.055055
0.529198 0.307774 0.066804
0.567163 0.322362 0.078431
0.604791 0.336706 0.089845
0.643336 0.351873 0.101717
0.682887 0.367651 0.112917
0.721736 0.383093 0.125521
0.750179 0.388281 0.125948
0.777890 0.392889 0.126741
0.805539 0.397925 0.127962
0.832944 0.403357 0.130129
0.860288 0.409155 0.133547
0.887480 0.415045 0.138003
0.914794 0.421729 0.143832
0.941924 0.428809 0.151369
0.968963 0.436530 0.160555
0.020447 0.199924 0.042908
0.039063 0.202762 0.043397
0.058595 0.212284 0.044190
0.080812 0.215000 0.044312
0.105348 0.219272 0.045014
0.132082 0.224704 0.045899
0.160708 0.230625 0.046571
0.191165 0.237491 0.047120
0.222110 0.244999 0.047547
0.255131 0.253300 0.048096
0.289281 0.262364 0.048890
0.324468 0.272251 0.049531
0.360449 0.282567 0.050660
0.398230 0.294041 0.050599
0.436744 0.305913 0.049042
0.475257 0.317449 0.046845
0.514275 0.329107 0.046082
0.549981 0.341711 0.062440
0.585992 0.354711 0.077852
0.622736 0.368322 0.092958
0.659998 0.382391 0.106630
0.697536 0.396674 0.119905
0.734493 0.410864 0.134066
0.770565 0.424842 0.149264
0.799771 0.431434 0.154452
0.825315 0.434333 0.155367
0.850767 0.437934 0.157443
0.876402 0.442145 0.160403
0.902190 0.446693 0.164889
0.928191 0.452430 0.171145
0.954253 0.458839 0.179141
0.980285 0.466072 0.188998
0.009613 0.228916 0.043610
0.029969 0.233066 0.044099
0.052308 0.237064 0.044587
0.075044 0.241276 0.045106
0.103212 0.245914 0.045686
0.132357 0.250889 0.046326
0.162631 0.256229 0.047150
0.193484 0.262394 0.047852
0.225284 0.269291 0.048402
0.258061 0.276951 0.048920
0.292149 0.285618 0.049439
0.327031 0.294804 0.050599
0.362799 0.304814 0.051575
0.399145 0.315068 0.052888
0.436957 0.326726 0.052277
0.475349 0.338445 0.050416
0.514153 0.349920 0.048829
0.552758 0.361669 0.049439
0.588586 0.374426 0.068788
0.625086 0.387976 0.087434
0.662013 0.401862 0.103731
0.699092 0.415900 0.119600
0.735775 0.429908 0.135744
0.771817 0.443763 0.151919
0.806455 0.457069 0.169253
0.837339 0.466743 0.181155
0.862150 0.469215 0.183291
0.887022 0.472358 0.186282
0.911925 0.476509 0.190829
0.936797 0.481117 0.197055
0.961730 0.486488 0.205112
0.986664 0.493263 0.215305
0.000000 0.257328 0.043824
0.019654 0.261295 0.044343
0.043214 0.265324 0.044831
0.068452 0.269352 0.045411
0.099611 0.273655 0.045930
0.131044 0.278538 0.046571
0.162448 0.283879 0.047669
0.195285 0.289921 0.048463
0.227970 0.296391 0.049226
0.261723 0.303807 0.049714
0.296025 0.312078 0.050599
0.331304 0.320928 0.051545
0.367041 0.330510 0.052674
0.403357 0.340795 0.054170
0.440589 0.351507 0.055512
0.479469 0.363714 0.054780
0.518090 0.375372 0.052796
0.556664 0.386664 0.051484
0.594995 0.398169 0.054170
0.630976 0.410773 0.077546
0.666957 0.424018 0.098634
0.702358 0.436713 0.117922
0.738003 0.449866 0.135866
0.773495 0.463325 0.154391
0.807828 0.476234 0.172671
0.840909 0.488930 0.191897
0.872618 0.501335 0.210971
0.896574 0.503685 0.214054
0.920562 0.506645 0.218845
0.944732 0.510948 0.225406
0.968933 0.516014 0.233860
0.993011 0.522301 0.244633
0.000000 0.287785 0.043977
0.005707 0.292119 0.044343
0.031373 0.296422 0.044709
0.059693 0.300572 0.045197
0.093416 0.304967 0.045960
0.127749 0.309606 0.046967
0.162295 0.314702 0.047578
0.196933 0.320439 0.048859
0.231174 0.326818 0.049683
0.265263 0.333654 0.050599
0.300725 0.341405 0.051637
0.336065 0.349950 0.052552
0.372320 0.359258 0.053620
0.408942 0.369177 0.055329
0.446357 0.379919 0.057099
0.484443 0.391363 0.059052
0.524865 0.404761 0.058167
0.564202 0.416663 0.057191
0.604425 0.428931 0.057252
0.644587 0.441779 0.063691
0.681239 0.455055 0.092622
0.716976 0.467750 0.118013
0.751522 0.479988 0.140322
0.785672 0.492348 0.162081
0.820035 0.505455 0.184085
0.852842 0.518029 0.205722
0.884031 0.530449 0.228397
0.913664 0.543328 0.252079
0.938323 0.548699 0.262852
0.961303 0.552239 0.269963
0.984039 0.556847 0.279423
1.000000 0.562737 0.290715
0.000000 0.328405 0.043763
0.000000 0.332006 0.044343
0.015076 0.335546 0.044892
0.046052 0.338811 0.045533
0.083253 0.342504 0.046326
0.122927 0.346715 0.047211
0.161379 0.351446 0.048127
0.198825 0.357061 0.049317
0.235508 0.363500 0.050996
0.271794 0.370733 0.051820
0.308537 0.378790 0.053071
0.345251 0.387579 0.054353
0.382574 0.397009 0.055940
0.420233 0.407080 0.057954
0.458259 0.417548 0.060060
0.496712 0.428626 0.063020
0.536034 0.440467 0.065095
0.576593 0.452979 0.064851
0.616236 0.464271 0.065187
0.655787 0.474983 0.067018
0.693385 0.485115 0.078035
0.727169 0.495613 0.111086
0.759731 0.505760 0.138613
0.790921 0.515312 0.162936
0.821897 0.525414 0.185702
0.854185 0.537407 0.209598
0.885008 0.549462 0.233310
0.914366 0.561975 0.258793
0.942351 0.575280 0.285435
0.967193 0.585046 0.305150
0.988952 0.589166 0.314611
1.000000 0.594415 0.326085
0.000000 0.362737 0.043030
0.000000 0.366217 0.043427
0.000000 0.369665 0.044007
0.029877 0.372930 0.044617
0.069184 0.376684 0.045686
0.114839 0.380865 0.046662
0.156130 0.385534 0.047883
0.196292 0.391058 0.049439
0.235386 0.397711 0.051026
0.273381 0.405066 0.052369
0.311345 0.413062 0.053742
0.349401 0.421790 0.055390
0.387518 0.431159 0.057527
0.425879 0.441016 0.059510
0.464698 0.451484 0.062654
0.503990 0.462501 0.065888
0.543938 0.474403 0.069886
0.584955 0.487037 0.072297
0.626062 0.498939 0.073823
0.665431 0.508812 0.076448
0.703578 0.517571 0.081971
0.739498 0.525994 0.099031
0.771237 0.534936 0.134188
0.801877 0.543664 0.164401
0.828489 0.549493 0.188571
0.856840 0.558190 0.212619
0.887144 0.569787 0.239261
0.916167 0.581781 0.266026
0.943603 0.594629 0.294194
0.969421 0.608667 0.323919
0.993286 0.622919 0.353552
1.000000 0.628077 0.365423
0.000000 0.407965 0.042023
0.000000 0.411658 0.043030
0.000000 0.415198 0.043458
0.005982 0.418067 0.044495
0.050141 0.421027 0.045350
0.102907 0.424598 0.046326
0.150423 0.428443 0.047944
0.194125 0.433265 0.049165
0.235752 0.438758 0.051423
0.275639 0.445167 0.053742
0.314733 0.451789 0.055085
0.353460 0.459419 0.056886
0.392554 0.467689 0.058778
0.431128 0.476356 0.061738
0.469764 0.485725 0.064454
0.509270 0.495674 0.068116
0.549004 0.506584 0.072694
0.590051 0.518486 0.077699
0.631464 0.530327 0.081544
0.671412 0.540337 0.086213
0.709712 0.548455 0.092622
0.746517 0.555566 0.100618
0.780087 0.562066 0.122164
0.809445 0.568902 0.158907
0.837034 0.575463 0.189212
0.862974 0.581659 0.215793
0.887968 0.588495 0.241764
0.916106 0.599573 0.269596
0.942962 0.611627 0.299046
0.968383 0.624933 0.330022
0.992187 0.639704 0.362463
1.000000 0.656489 0.397314
0.000000 0.443427 0.039796
0.000000 0.447364 0.040620
0.000000 0.451026 0.041444
0.000000 0.454261 0.042451
0.026093 0.457679 0.043671
0.084108 0.461646 0.044862
0.139406 0.466255 0.046265
0.187045 0.471595 0.048646
0.231846 0.477943 0.051057
0.274998 0.485023 0.053681
0.316564 0.492561 0.056428
0.357671 0.500481 0.058625
0.398291 0.509178 0.061311
0.438392 0.518303 0.064851
0.478859 0.527947 0.068757
0.519280 0.537774 0.073274
0.560082 0.548150 0.078920
0.601404 0.558862 0.085634
0.643183 0.570214 0.094209
0.683467 0.579400 0.100740
0.721553 0.586145 0.108888
0.757595 0.591577 0.118013
0.792203 0.595941 0.128725
0.823209 0.600427 0.153719
0.850156 0.605798 0.191684
0.875273 0.611139 0.223758
0.898955 0.616754 0.252354
0.920928 0.622675 0.279637
0.947204 0.634302 0.311498
0.971832 0.647181 0.344152
0.994659 0.661616 0.378241
1.000000 0.678035 0.414801
0.000000 0.487434 0.037263
0.000000 0.490852 0.038453
0.000000 0.494057 0.039460
0.000000 0.497078 0.040650
0.000000 0.500328 0.041718
0.058015 0.504082 0.043244
0.122621 0.508354 0.045350
0.177310 0.513512 0.047639
0.225956 0.519524 0.050446
0.272160 0.526452 0.053834
0.316228 0.533837 0.057435
0.359289 0.541863 0.060029
0.401434 0.550317 0.063752
0.442878 0.558984 0.067964
0.484291 0.567681 0.072877
0.525475 0.576745 0.078950
0.566705 0.586084 0.086152
0.608270 0.595758 0.094514
0.650446 0.606134 0.103822
0.692622 0.616327 0.113924
0.731594 0.623194 0.124636
0.767788 0.627527 0.135439
0.802090 0.630732 0.147982
0.834501 0.633234 0.161074
0.862791 0.636103 0.190280
0.887175 0.640253 0.228611
0.909819 0.644800 0.261967
0.930724 0.649775 0.292485
0.950195 0.655207 0.320439
0.973602 0.666926 0.354314
0.995697 0.680781 0.390173
1.000000 0.696681 0.428199
0.000000 0.532128 0.034180
0.000000 0.535302 0.035615
0.000000 0.538415 0.036744
0.000000 0.541253 0.038178
0.000000 0.545006 0.039643
0.024231 0.549645 0.041596
0.098085 0.555474 0.044404
0.163760 0.562402 0.047456
0.218784 0.570336 0.051789
0.270176 0.579126 0.057404
0.318975 0.588678 0.064027
0.365911 0.598169 0.070161
0.411292 0.607660 0.076875
0.456214 0.617029 0.084138
0.500267 0.626062 0.092378
0.543175 0.634485 0.101045
0.586114 0.642969 0.110597
0.628779 0.651545 0.121035
0.672053 0.660700 0.132784
0.715633 0.670192 0.145632
0.757015 0.677394 0.159426
0.793484 0.680354 0.174136
0.826352 0.681086 0.188144
0.857176 0.680964 0.203128
0.885801 0.680415 0.218784
0.909972 0.681361 0.250004
0.930480 0.684291 0.288884
0.949401 0.688045 0.323339
0.966888 0.692561 0.354192
0.983001 0.697993 0.383398
1.000000 0.710231 0.419806
1.000000 0.725856 0.459815
0.000000 0.594629 0.034333
0.000000 0.597620 0.036194
0.000000 0.600153 0.037842
0.000000 0.602625 0.039857
0.000000 0.605432 0.041749
0.000000 0.608789 0.044465
0.066743 0.612940 0.048402
0.146670 0.617853 0.052308
0.210300 0.623529 0.057771
0.265049 0.629938 0.064485
0.317205 0.636835 0.072053
0.366155 0.644160 0.080598
0.412634 0.651362 0.088563
0.458473 0.658656 0.096895
0.502861 0.665980 0.106081
