20 Preset/Dark Portrait/【3】LUT video cho PR-AE-FCPX/Tone  (7).cube
# Created by Adobe Lightroom plugin Export LUT (1.22.0)
# www.johnrellis.com/lightroom/exportlut.htm
# Preset: Milestone_01
# Color profile: C:\Program Files (x86)\Common Files\Adobe\Color\Profiles\VideoHD.icc
LUT_3D_SIZE 5
DOMAIN_MIN 0.000000 0.000000 0.000000
DOMAIN_MAX 0.903226 0.903226 0.903226
0.020050 0.013977 0.019104
0.165621 0.031952 0.036316
0.426368 0.087465 0.070985
0.708797 0.201236 0.153109
0.980377 0.417517 0.329595
0.089693 0.206577 0.051575
0.253117 0.157534 0.031159
0.665797 0.181369 0.013367
0.885924 0.286992 0.133791
1.000000 0.468940 0.328374
0.311833 0.551507 0.190249
0.417487 0.479469 0.148836
0.664454 0.456184 0.084321
1.000000 0.459785 0.000000
1.000000 0.546685 0.272679
0.597223 0.786099 0.428626
0.655726 0.764889 0.395575
0.752651 0.714260 0.324773
0.923308 0.683162 0.252201
1.000000 0.689021 0.250889
0.819272 0.905852 0.701717
0.837858 0.901366 0.687434
0.870298 0.882109 0.628992
0.938994 0.863401 0.571038
1.000000 0.841886 0.530724
0.043244 0.048676 0.160555
0.259617 0.042969 0.100649
0.503655 0.135622 0.078248
0.792508 0.232212 0.131807
0.982147 0.399603 0.288273
0.181247 0.281163 0.207034
0.346349 0.257816 0.183230
0.686915 0.279393 0.127108
0.913970 0.305638 0.090547
1.000000 0.446662 0.280247
0.379706 0.554711 0.315007
0.459480 0.500084 0.281895
0.659083 0.480140 0.245151
1.000000 0.480812 0.066896
1.000000 0.548913 0.254093
0.640650 0.789425 0.521630
0.686336 0.771023 0.496529
0.762203 0.724666 0.436774
0.916045 0.705470 0.390143
1.000000 0.694820 0.257816
0.826932 0.907042 0.737270
0.842130 0.902831 0.725124
0.879698 0.891875 0.696803
0.936065 0.871580 0.640101
1.000000 0.851194 0.574365
0.165194 0.209049 0.431495
0.390570 0.175998 0.389105
0.648524 0.207034 0.300237
0.792477 0.378882 0.310491
1.000000 0.440528 0.290929
0.324956 0.429694 0.470527
0.499763 0.408637 0.437263
0.629725 0.438422 0.395789
0.869352 0.464668 0.359777
1.000000 0.486213 0.283604
0.508293 0.642695 0.526543
0.576654 0.599786 0.498238
0.744228 0.597101 0.484199
0.961669 0.613001 0.452338
1.000000 0.575219 0.294957
0.697139 0.804562 0.647456
0.718898 0.787778 0.623041
0.773953 0.748165 0.577508
0.908385 0.746365 0.565545
1.000000 0.728725 0.432013
0.829160 0.909483 0.783261
0.843656 0.905943 0.776150
0.874662 0.896849 0.757198
0.922454 0.876005 0.712642
0.997742 0.859983 0.669642
0.420081 0.450874 0.710353
0.561151 0.424659 0.692866
0.792050 0.378759 0.640864
0.926848 0.431403 0.530297
0.945739 0.612360 0.566552
0.531487 0.584070 0.707546
0.617548 0.556634 0.686610
0.794217 0.530358 0.647852
0.857847 0.565087 0.567346
0.950317 0.653132 0.593866
0.592889 0.723629 0.714260
0.676997 0.711421 0.704707
0.761837 0.694423 0.675502
0.870512 0.693599 0.649561
0.984649 0.719722 0.642359
0.744900 0.839811 0.755032
0.789487 0.830259 0.763180
0.820005 0.803159 0.738705
0.911009 0.805692 0.737514
1.000000 0.801755 0.703395
0.845182 0.919799 0.828763
0.869749 0.916655 0.837430
0.888457 0.911833 0.831998
0.916747 0.894530 0.804837
0.977813 0.881315 0.781430
0.714870 0.698634 0.857633
0.761654 0.683436 0.853391
0.862974 0.645411 0.843198
0.981598 0.632197 0.814664
1.000000 0.662654 0.746304
0.748318 0.753353 0.854307
0.781308 0.740261 0.850126
0.861021 0.709957 0.840879
0.963928 0.697353 0.816922
1.000000 0.716670 0.760006
0.776577 0.821530 0.859739
0.805905 0.815427 0.856626
0.860838 0.800229 0.848051
0.942412 0.786831 0.831174
0.972107 0.792966 0.791989
0.813626 0.893248 0.870176
0.832486 0.888579 0.868101
0.871214 0.878752 0.864042
0.919463 0.862119 0.848936
0.953307 0.868101 0.841520
0.868345 0.933776 0.874754
0.879576 0.932097 0.875853
0.903593 0.929473 0.879667
0.934569 0.923278 0.884550
0.967041 0.920653 0.884092
