20 Preset/Dark Portrait/【3】LUT video cho PR-AE-FCPX/Tone  (11).cube
# Created by Adobe Lightroom plugin Export LUT (1.22.0)
# www.johnrellis.com/lightroom/exportlut.htm
# Preset: Milestone_06
# Color profile: C:\Program Files (x86)\Common Files\Adobe\Color\Profiles\VideoHD.icc
LUT_3D_SIZE 8
DOMAIN_MIN 0.000000 0.000000 0.000000
DOMAIN_MAX 0.903226 0.903226 0.903226
0.013703 0.009705 0.012970
0.138766 0.009094 0.023896
0.340368 0.000000 0.028412
0.548333 0.000000 0.040375
0.736751 0.000000 0.066835
0.909087 0.000000 0.130495
1.000000 0.156985 0.215946
1.000000 0.293126 0.305119
0.021241 0.095644 0.020905
0.139071 0.076814 0.016419
0.386053 0.095552 0.006134
0.575982 0.066133 0.015351
0.748836 0.052583 0.038849
0.907988 0.106722 0.101900
1.000000 0.196353 0.182345
1.000000 0.304936 0.274357
0.014466 0.323583 0.019776
0.198581 0.267704 0.010773
0.343938 0.230014 0.000458
0.633082 0.263706 0.000000
0.833738 0.256443 0.000000
0.958282 0.270909 0.074220
1.000000 0.334844 0.186496
1.000000 0.408972 0.288273
0.149294 0.563165 0.103914
0.309545 0.529747 0.070375
0.421332 0.446265 0.017121
0.600732 0.421698 0.000000
0.859739 0.454871 0.000000
1.000000 0.461341 0.016022
1.000000 0.469825 0.158877
1.000000 0.503777 0.273594
0.368414 0.734005 0.267063
0.450446 0.712215 0.236637
0.529076 0.656489 0.161349
0.602838 0.567712 0.047028
0.747707 0.536187 0.011383
0.941894 0.561791 0.000000
1.000000 0.582818 0.084199
1.000000 0.597955 0.237125
0.562554 0.840116 0.430640
0.628504 0.839048 0.431281
0.667018 0.810269 0.363714
0.716426 0.758633 0.257237
0.758968 0.672633 0.103700
0.890349 0.660426 0.082307
1.000000 0.685176 0.099336
1.000000 0.703578 0.235660
0.704524 0.904845 0.572625
0.747341 0.905608 0.581781
0.769833 0.891844 0.534813
0.804379 0.868223 0.457404
0.845243 0.828702 0.330327
0.888579 0.768002 0.170260
0.983124 0.759762 0.158511
1.000000 0.770474 0.249973
0.785550 0.942962 0.678431
0.807370 0.942412 0.680598
0.832670 0.939513 0.668879
0.857939 0.930480 0.618647
0.885679 0.909514 0.510674
0.936278 0.887327 0.393103
0.989014 0.854856 0.254063
1.000000 0.845396 0.336339
0.021912 0.024659 0.111879
0.186679 0.013703 0.098848
0.311254 0.042054 0.093599
0.516838 0.050446 0.098787
0.714931 0.063233 0.102968
0.890562 0.091524 0.108461
1.000000 0.170535 0.173129
1.000000 0.272404 0.259983
0.043091 0.126802 0.107881
0.197024 0.133303 0.106661
0.361456 0.149905 0.110628
0.550072 0.161379 0.111330
0.742885 0.169467 0.110231
0.894072 0.177981 0.106935
1.000000 0.217655 0.153292
1.000000 0.298314 0.242374
0.128084 0.315251 0.162203
0.242191 0.283513 0.141970
0.368017 0.264714 0.116609
0.624933 0.309819 0.123476
0.785855 0.302098 0.119722
0.921111 0.301884 0.117372
1.000000 0.321752 0.143221
1.000000 0.385809 0.247501
0.246830 0.534081 0.247257
0.351720 0.511467 0.229191
0.416236 0.428809 0.164004
0.565240 0.411841 0.134951
0.793912 0.447425 0.141238
0.949462 0.452674 0.135348
1.000000 0.444709 0.123140
1.000000 0.474739 0.229496
0.425849 0.711910 0.372137
0.493996 0.697963 0.355688
0.540398 0.640467 0.284245
0.582910 0.548089 0.183627
0.720974 0.529290 0.157656
0.909087 0.563073 0.166873
1.000000 0.581231 0.151858
1.000000 0.585504 0.209812
0.580682 0.822507 0.492195
0.638605 0.822232 0.496101
0.668574 0.793698 0.439673
0.707057 0.743313 0.346777
0.739040 0.658534 0.217166
0.876066 0.660975 0.214908
1.000000 0.689631 0.230045
1.000000 0.695796 0.217960
0.703395 0.893919 0.603571
0.739803 0.893523 0.607782
0.766079 0.882109 0.575494
0.796170 0.858396 0.508171
0.833158 0.819577 0.400122
0.869505 0.755978 0.252964
0.966094 0.751308 0.244816
1.000000 0.758114 0.227787
0.785763 0.938354 0.700465
0.808316 0.938323 0.705104
0.837491 0.937133 0.704982
0.858671 0.928161 0.660883
0.890288 0.913024 0.585901
0.933013 0.889158 0.472724
0.981048 0.853819 0.330846
1.000000 0.844205 0.331945
0.022248 0.069978 0.286076
0.220645 0.068605 0.266606
0.436378 0.064546 0.251316
0.544793 0.153597 0.240055
0.707088 0.211246 0.262058
0.871763 0.254520 0.278935
1.000000 0.307195 0.297642
1.000000 0.355749 0.307744
0.116243 0.201389 0.272404
0.264897 0.205020 0.262364
0.387671 0.223056 0.251072
0.541619 0.253269 0.263218
0.726070 0.282231 0.276860
0.872343 0.314702 0.289647
0.995239 0.350195 0.300755
1.000000 0.380835 0.300603
0.149081 0.337682 0.280766
0.315373 0.356085 0.299809
0.449256 0.355077 0.289372
0.622095 0.376776 0.301671
0.771511 0.392309 0.309636
0.899413 0.408240 0.314702
1.000000 0.427558 0.317082
1.000000 0.447028 0.311406
0.315251 0.547906 0.375402
0.446662 0.564202 0.399054
0.474586 0.477241 0.319402
0.622400 0.481239 0.311223
0.814664 0.523308 0.344213
0.929564 0.527123 0.346349
1.000000 0.532219 0.342535
1.000000 0.536248 0.327733
0.496254 0.705898 0.485634
0.575341 0.714107 0.501122
0.595666 0.661707 0.433722
0.612543 0.573968 0.329870
0.749996 0.577478 0.327092
0.910796 0.615015 0.355047
1.000000 0.636500 0.362982
1.000000 0.629664 0.341131
0.619745 0.815610 0.574853
0.677180 0.820859 0.589044
0.705806 0.799374 0.552697
0.724971 0.748836 0.470497
0.737514 0.663294 0.342840
0.870787 0.678187 0.354528
0.991180 0.714870 0.390417
1.000000 0.727443 0.379492
0.732418 0.891936 0.672908
0.764614 0.892576 0.679377
0.797238 0.887846 0.670954
0.813596 0.864103 0.607507
0.838102 0.825071 0.511223
0.866331 0.763027 0.375402
0.962005 0.769192 0.385016
1.000000 0.783139 0.394324
0.796292 0.935668 0.741329
0.815396 0.935393 0.744106
0.845212 0.935515 0.749966
0.868223 0.929808 0.728389
0.891600 0.915343 0.666011
0.928527 0.893065 0.567651
0.973419 0.858976 0.440772
1.000000 0.851713 0.427222
0.097688 0.178103 0.451575
0.271855 0.185336 0.443030
0.450355 0.180789 0.421546
0.670680 0.201480 0.416999
0.752682 0.282383 0.395880
0.813169 0.352453 0.406683
0.944549 0.399176 0.428779
1.000000 0.453132 0.452949
0.217899 0.299931 0.449989
0.333532 0.300267 0.443244
0.488563 0.298802 0.433448
0.643122 0.324529 0.420203
0.714961 0.365789 0.411261
0.826841 0.399115 0.421332
0.948241 0.437690 0.439277
1.000000 0.480507 0.457465
0.252018 0.406500 0.451972
0.376043 0.416785 0.451820
0.510307 0.418219 0.440040
0.594415 0.428138 0.428870
0.736019 0.455818 0.444739
0.862669 0.486793 0.461707
0.972290 0.524224 0.483192
1.000000 0.547448 0.487190
0.321996 0.551080 0.476417
0.455634 0.564843 0.493751
0.532555 0.532036 0.465644
0.667689 0.550500 0.477119
0.784390 0.563165 0.486091
0.887358 0.574273 0.490822
0.978393 0.589685 0.495918
1.000000 0.604181 0.494759
0.517693 0.699794 0.564141
0.597894 0.711818 0.584131
0.651789 0.692653 0.567376
0.643091 0.606409 0.469429
0.780575 0.636713 0.494484
0.912230 0.676478 0.529839
0.990112 0.684718 0.531762
1.000000 0.683375 0.517815
0.654414 0.814755 0.653864
0.711116 0.824125 0.673701
0.763424 0.824552 0.679194
0.765530 0.778073 0.604791
0.759152 0.694209 0.487831
0.878111 0.716884 0.508904
0.978546 0.750729 0.544396
1.000000 0.765530 0.549401
0.740932 0.887114 0.724453
0.774044 0.889464 0.733913
0.819425 0.893126 0.747494
0.840452 0.879149 0.717891
0.852354 0.842618 0.634028
0.867948 0.780301 0.507073
0.954559 0.789181 0.519585
1.000000 0.806241 0.539055
0.807736 0.934874 0.784054
0.826749 0.935210 0.788205
0.853880 0.935546 0.793759
0.884977 0.935241 0.797147
0.896818 0.921477 0.751064
0.922942 0.899657 0.670069
0.963592 0.866239 0.550378
1.000000 0.862669 0.547448
0.227604 0.301884 0.604242
0.354345 0.312505 0.604364
0.504540 0.314611 0.593927
0.681392 0.313420 0.579553
0.836057 0.348150 0.561730
0.883604 0.409613 0.532799
0.928527 0.475502 0.542351
0.995850 0.542016 0.576837
0.327825 0.402197 0.606836
0.419013 0.405371 0.605066
0.539757 0.401434 0.594781
0.687221 0.397284 0.577539
0.806455 0.426062 0.557702
0.856687 0.467842 0.542016
0.908385 0.516228 0.555016
0.998749 0.566339 0.585351
0.377264 0.487770 0.602716
0.463813 0.493507 0.597284
0.560601 0.486885 0.585657
0.685908 0.487373 0.572778
0.754421 0.499916 0.548272
0.806455 0.520134 0.542962
0.912810 0.554864 0.565209
0.999939 0.591485 0.586877
0.415320 0.578393 0.598474
0.495003 0.582391 0.596765
0.597925 0.590600 0.597803
0.663600 0.585962 0.580224
0.750973 0.589166 0.577325
0.847074 0.602655 0.583581
0.936858 0.622309 0.594629
1.000000 0.641901 0.602747
0.483589 0.677729 0.609766
0.561944 0.687007 0.621271
0.671260 0.706600 0.648676
0.673457 0.642847 0.582818
0.799344 0.679683 0.613672
0.884825 0.688655 0.619471
0.956146 0.695186 0.620294
1.000000 0.703883 0.619593
0.602564 0.782437 0.666529
0.656245 0.786496 0.678309
0.727169 0.796445 0.697902
0.765194 0.780789 0.678889
0.745022 0.696559 0.571099
0.872526 0.738064 0.613428
0.964599 0.776211 0.656641
1.000000 0.781521 0.656489
0.727596 0.874113 0.752071
0.757412 0.874968 0.758633
0.797208 0.878996 0.767788
0.854002 0.888823 0.787411
0.857115 0.855283 0.727352
0.857694 0.788418 0.604608
0.940368 0.800107 0.620294
1.000000 0.818448 0.642329
0.785489 0.926940 0.798886
0.805173 0.927184 0.803281
0.834134 0.928649 0.808957
0.879210 0.932403 0.823819
0.904234 0.927886 0.814939
0.916777 0.905943 0.755398
0.947112 0.869261 0.644190
1.000000 0.867216 0.642969
0.419837 0.463996 0.752468
0.499153 0.469154 0.750271
0.597223 0.464851 0.738369
0.722530 0.463081 0.725551
0.848722 0.465278 0.707424
0.948363 0.496864 0.690700
0.974792 0.542626 0.663416
1.000000 0.604303 0.675349
0.454170 0.507652 0.729427
0.513512 0.506310 0.725216
0.599939 0.503014 0.717220
0.712367 0.499428 0.706325
0.833341 0.504265 0.694026
0.923491 0.531579 0.678614
0.954925 0.568200 0.659602
0.990875 0.622065 0.675685
0.513512 0.585382 0.733577
0.563287 0.584039 0.728664
0.633051 0.577905 0.720089
0.723995 0.567559 0.705592
0.831571 0.570916 0.695338
0.897673 0.589227 0.676753
0.933196 0.615686 0.668055
0.974273 0.658595 0.687800
0.540887 0.654017 0.733181
0.590204 0.653742 0.728878
0.661006 0.655482 0.725185
0.750881 0.657038 0.722560
0.842496 0.662074 0.715938
0.873869 0.663081 0.691615
0.912169 0.678187 0.691615
0.977691 0.710231 0.714717
0.552148 0.714656 0.722103
0.598474 0.714839 0.720729
0.664790 0.715999 0.719539
0.748013 0.719905 0.720699
0.791043 0.707942 0.701564
0.859373 0.711788 0.700282
0.925231 0.725002 0.708156
0.984894 0.742611 0.719966
0.583917 0.780636 0.721340
0.631983 0.784146 0.726345
0.704982 0.790921 0.737301
0.796872 0.807218 0.762539
0.785794 0.746944 0.695674
0.887816 0.787228 0.736416
0.946624 0.797848 0.746242
0.995422 0.800290 0.744472
0.711757 0.869200 0.782376
0.747005 0.871366 0.789090
0.794064 0.874357 0.798886
0.850675 0.882536 0.816068
0.885588 0.882811 0.817655
0.867704 0.820005 0.725124
0.937011 0.831846 0.738918
0.993866 0.851743 0.762570
0.774533 0.923369 0.820554
0.795834 0.922911 0.824002
0.828000 0.922820 0.830533
0.870024 0.925719 0.843046
0.906737 0.931487 0.853880
0.921324 0.918517 0.828916
0.934417 0.880156 0.744015
0.984070 0.879240 0.741634
0.545190 0.564843 0.821042
0.596124 0.568444 0.820523
0.665187 0.568109 0.816434
0.756252 0.568658 0.811124
0.853330 0.566766 0.802274
0.940398 0.576257 0.789578
0.999908 0.606317 0.775296
1.000000 0.641871 0.753292
0.563684 0.595453 0.811948
0.607416 0.597009 0.811307
0.669429 0.595270 0.807553
0.752377 0.592798 0.801907
0.844419 0.589197 0.793393
0.928649 0.596124 0.780972
0.986084 0.620356 0.766140
1.000000 0.648890 0.745113
0.600519 0.650416 0.812711
0.636255 0.649836 0.810575
0.688563 0.646052 0.806394
0.761074 0.642023 0.800717
0.843320 0.635981 0.792111
0.921782 0.643519 0.782193
0.971099 0.666011 0.769436
0.990204 0.690852 0.756893
0.623438 0.706233 0.814511
0.656916 0.705776 0.811734
0.706691 0.705013 0.807767
0.771145 0.702052 0.803555
0.844205 0.696681 0.796353
0.915770 0.704005 0.789517
0.952941 0.716579 0.775265
0.975921 0.734218 0.769772
0.629175 0.754940 0.808927
0.658412 0.753048 0.806332
0.702663 0.750576 0.802884
0.763699 0.750393 0.800870
0.831693 0.745418 0.795254
0.901701 0.749935 0.789883
0.927184 0.752560 0.773709
0.958831 0.773098 0.781460
0.643061 0.809201 0.808194
0.671962 0.808469 0.807431
0.715633 0.807431 0.806332
0.773129 0.807156 0.805600
0.836790 0.809293 0.806485
0.874937 0.801572 0.794827
0.920531 0.806638 0.795346
0.966888 0.819486 0.804257
0.683192 0.863554 0.814664
0.708705 0.862730 0.814633
0.745693 0.861234 0.814359
0.803861 0.863859 0.819699
0.871885 0.874632 0.835630
0.882475 0.847776 0.809049
0.938048 0.863401 0.822721
0.977783 0.866911 0.824857
0.748592 0.917388 0.840116
0.772122 0.917449 0.842679
0.809323 0.918761 0.848386
0.853056 0.920470 0.856138
0.898497 0.924346 0.868406
0.937377 0.933684 0.885588
0.932982 0.900786 0.831632
0.972076 0.897185 0.823270
0.690211 0.682521 0.876707
0.719326 0.684718 0.876310
0.758175 0.682429 0.873564
0.814817 0.683833 0.871092
0.877440 0.684382 0.867185
0.941070 0.686641 0.862486
0.992615 0.703853 0.854734
1.000000 0.731319 0.845487
0.697261 0.701015 0.872618
0.722927 0.701686 0.871977
0.760403 0.700404 0.869993
0.813382 0.700191 0.867552
0.873899 0.700740 0.864195
0.935882 0.702144 0.859922
0.986755 0.717311 0.852689
1.000000 0.743984 0.845335
0.709712 0.731472 0.870146
0.731838 0.730983 0.869291
0.765042 0.728695 0.867247
0.815610 0.730190 0.865934
0.871000 0.728817 0.862577
0.929595 0.728511 0.858457
0.979614 0.743069 0.852903
1.000000 0.763546 0.845670
0.705531 0.761166 0.870787
0.735775 0.765408 0.869810
0.773068 0.767880 0.867643
0.817350 0.767727 0.866209
0.868894 0.767117 0.863828
0.923919 0.767208 0.860838
0.972198 0.778592 0.856748
1.000000 0.790341 0.847715
0.712947 0.800717 0.870665
0.734951 0.801419 0.870268
0.766018 0.801114 0.868956
0.812284 0.803891 0.867460
0.861753 0.803494 0.865690
0.915282 0.804288 0.863645
0.962158 0.808682 0.858366
0.988251 0.817044 0.849454
0.730587 0.846006 0.873838
0.748836 0.845487 0.873228
0.776181 0.844388 0.872038
0.813046 0.843015 0.870451
0.856413 0.842710 0.869230
0.904479 0.841184 0.867185
0.952911 0.845121 0.864103
0.974823 0.848112 0.854704
0.743252 0.886839 0.876524
0.759121 0.885893 0.875914
0.783108 0.884184 0.874693
0.816983 0.882414 0.873442
0.856291 0.880583 0.872038
0.898405 0.879820 0.871244
0.937316 0.876768 0.866575
0.958801 0.876951 0.861936
0.756741 0.922820 0.878477
0.771237 0.921691 0.877928
0.794400 0.920134 0.877317
0.827268 0.918669 0.877226
0.864317 0.917266 0.877531
0.910430 0.920195 0.884306
0.945678 0.924346 0.893339
0.966735 0.920958 0.887907
