20 Preset/Dark Portrait/【3】LUT video cho PR-AE-FCPX/Tone  (8).cube
# Created by Adobe Lightroom plugin Export LUT (1.22.0)
# www.johnrellis.com/lightroom/exportlut.htm
# Preset: Milestone_02
# Color profile: C:\Program Files (x86)\Common Files\Adobe\Color\Profiles\VideoHD.icc
LUT_3D_SIZE 5
DOMAIN_MIN 0.000000 0.000000 0.000000
DOMAIN_MAX 0.903226 0.903226 0.903226
0.053223 0.034180 0.035981
0.125185 0.034821 0.035492
0.302068 0.040986 0.033265
0.539574 0.081270 0.033265
0.777523 0.156680 0.031739
0.054078 0.053712 0.036805
0.155245 0.074128 0.037263
0.360174 0.113619 0.044251
0.594507 0.168002 0.044190
0.831357 0.239719 0.051484
0.059571 0.150484 0.042420
0.183291 0.177829 0.039277
0.442542 0.264927 0.038880
0.721767 0.370397 0.120333
0.904540 0.399603 0.142824
0.038880 0.355169 0.042267
0.231510 0.397101 0.030060
0.480171 0.458991 0.039612
0.756802 0.538537 0.089906
0.966155 0.619196 0.328496
0.000000 0.667597 0.030335
0.221775 0.695216 0.023804
0.510948 0.717891 0.045075
0.804898 0.767544 0.179904
0.993347 0.765286 0.365759
0.049866 0.045869 0.060304
0.131044 0.050874 0.098665
0.280125 0.035920 0.075654
0.480781 0.060365 0.083558
0.706538 0.122408 0.089113
0.062745 0.081086 0.084993
0.143862 0.105684 0.108095
0.336492 0.122713 0.113832
0.538445 0.152743 0.114870
0.763760 0.208621 0.116915
0.055787 0.175448 0.121096
0.141115 0.215976 0.117647
0.410834 0.271519 0.128145
0.654841 0.351019 0.203372
0.869810 0.394079 0.213291
0.000000 0.378607 0.163485
0.142824 0.420050 0.144656
0.450446 0.485298 0.152651
0.739345 0.550256 0.196933
0.945800 0.642573 0.413275
0.000000 0.669703 0.161746
0.043183 0.696315 0.160861
0.467597 0.744472 0.181643
0.786282 0.782559 0.283268
0.985962 0.785885 0.446204
0.043671 0.115877 0.171176
0.121645 0.136843 0.204746
0.351141 0.130312 0.301701
0.546075 0.134524 0.260838
0.636988 0.041352 0.157565
0.057862 0.165316 0.205997
0.148287 0.188296 0.233982
0.349248 0.203891 0.305882
0.527977 0.172915 0.244816
0.701747 0.156924 0.197391
0.060273 0.249424 0.248569
0.166262 0.274968 0.270817
0.361517 0.330388 0.315557
0.590661 0.347509 0.309148
0.811826 0.362707 0.288731
0.013275 0.396460 0.307988
0.125551 0.421637 0.316655
0.335943 0.503197 0.328283
0.693446 0.580316 0.363867
0.903319 0.657893 0.503807
0.000000 0.632136 0.344701
0.000000 0.669642 0.344671
0.303136 0.735592 0.346715
0.711391 0.786831 0.408515
0.957122 0.800443 0.530938
0.013672 0.262425 0.363073
0.130587 0.284398 0.391882
0.302770 0.317906 0.454078
0.587427 0.308293 0.548425
0.811276 0.402380 0.532860
0.039124 0.303166 0.384955
0.150240 0.318730 0.403998
0.331762 0.362554 0.451118
0.576867 0.356390 0.543664
0.792691 0.408759 0.512200
0.035859 0.363775 0.408301
0.150240 0.378576 0.423560
0.331456 0.419318 0.462470
0.561883 0.451087 0.538689
0.771908 0.408118 0.463111
0.000000 0.489113 0.469917
0.116823 0.504051 0.482033
0.327337 0.546349 0.516350
0.595117 0.621118 0.575006
0.831907 0.613001 0.545495
0.000000 0.663874 0.533989
0.000000 0.678737 0.539422
0.174411 0.714168 0.551659
0.589960 0.792142 0.599847
0.911528 0.833524 0.671229
0.050660 0.481361 0.619532
0.196872 0.498116 0.634272
0.392950 0.543114 0.664393
0.560143 0.584314 0.723171
0.794430 0.612360 0.785489
0.051484 0.501427 0.624048
0.194247 0.516258 0.636957
0.390906 0.559503 0.666896
0.573297 0.613947 0.721218
0.793637 0.636805 0.786526
0.000000 0.539483 0.634333
0.126741 0.547387 0.643275
0.358831 0.585199 0.670924
0.591424 0.659846 0.718746
0.796902 0.685725 0.792538
0.000000 0.622827 0.668910
0.065919 0.630365 0.676387
0.314366 0.654200 0.697566
0.592462 0.721096 0.744503
0.809628 0.767453 0.808408
0.000000 0.738827 0.714199
0.000000 0.749660 0.723781
0.301579 0.772122 0.742733
0.580743 0.809293 0.774533
0.838621 0.865324 0.830045
