20 Preset/Dark Portrait/【3】LUT video cho PR-AE-FCPX/Tone  (15).cube
# Created by Adobe Lightroom plugin Export LUT (1.22.0)
# www.johnrellis.com/lightroom/exportlut.htm
# Preset: Candy_02
# Color profile: C:\Program Files (x86)\Common Files\Adobe\Color\Profiles\VideoHD.icc
LUT_3D_SIZE 8
DOMAIN_MIN 0.000000 0.000000 0.000000
DOMAIN_MAX 0.903226 0.903226 0.903226
0.053223 0.034180 0.035981
0.066865 0.033906 0.036072
0.130648 0.034150 0.035279
0.223514 0.037354 0.033387
0.336492 0.048005 0.030610
0.468360 0.071962 0.028687
0.598871 0.110231 0.024964
0.736904 0.157168 0.018860
0.053132 0.035920 0.036225
0.076783 0.040955 0.035889
0.146761 0.047333 0.035584
0.241886 0.055573 0.034607
0.352636 0.070710 0.033875
0.476295 0.098390 0.032136
0.601404 0.133730 0.028382
0.739223 0.179294 0.022766
0.050477 0.055665 0.036927
0.089509 0.063050 0.037720
0.168978 0.078401 0.038788
0.287358 0.105562 0.044831
0.404547 0.126711 0.042451
0.526238 0.155184 0.039612
0.661433 0.195285 0.035737
0.792966 0.237369 0.032990
0.046387 0.105104 0.040681
0.102113 0.114809 0.042115
0.188205 0.132113 0.043153
0.322515 0.169253 0.044404
0.483314 0.225803 0.065949
0.606287 0.255100 0.065309
0.725856 0.284367 0.062135
0.842008 0.315312 0.065736
0.028809 0.177066 0.042695
0.103792 0.187655 0.044099
0.207736 0.208652 0.045747
0.340002 0.244907 0.047883
0.491951 0.293858 0.055055
0.643336 0.351873 0.101717
0.777890 0.392889 0.126741
0.887480 0.415045 0.138003
0.000000 0.287785 0.043977
0.093416 0.304967 0.045960
0.231174 0.326818 0.049683
0.372320 0.359258 0.053620
0.524865 0.404761 0.058167
0.681239 0.455055 0.092622
0.820035 0.505455 0.184085
0.938323 0.548699 0.262852
0.000000 0.443427 0.039796
0.026093 0.457679 0.043671
0.231846 0.477943 0.051057
0.398291 0.509178 0.061311
0.560082 0.548150 0.078920
0.721553 0.586145 0.108888
0.850156 0.605798 0.191684
0.947204 0.634302 0.311498
0.000000 0.642512 0.034058
0.000000 0.652583 0.044800
0.196017 0.669734 0.066133
0.413855 0.695491 0.105684
0.586908 0.708705 0.135225
0.763485 0.740536 0.196872
0.901030 0.745357 0.272679
0.983703 0.744167 0.383215
0.051118 0.036316 0.040986
0.073457 0.036530 0.049073
0.132967 0.034882 0.046235
0.218204 0.038880 0.047669
0.326146 0.048524 0.050141
0.443000 0.066804 0.050660
0.563592 0.097322 0.048402
0.697902 0.139528 0.043549
0.047456 0.046632 0.049958
0.079072 0.051423 0.054383
0.144228 0.055543 0.056428
0.237583 0.061402 0.056641
0.347784 0.073823 0.056703
0.459937 0.094942 0.055665
0.577173 0.124331 0.052644
0.710231 0.165530 0.048005
0.043397 0.072999 0.059907
0.081758 0.080995 0.060182
0.170535 0.092531 0.063905
0.275608 0.111238 0.074586
0.388403 0.126680 0.071748
0.501030 0.148318 0.068879
0.623713 0.180056 0.065400
0.757778 0.221012 0.062318
0.032227 0.123049 0.070649
0.073091 0.132906 0.063783
0.182223 0.148501 0.067964
0.314214 0.175479 0.075166
0.449744 0.218296 0.109957
0.561791 0.236820 0.103182
0.681270 0.264317 0.097749
0.805692 0.298222 0.097047
0.000000 0.197604 0.081575
0.052308 0.209293 0.068727
0.191470 0.226780 0.075532
0.330785 0.254673 0.082460
0.474556 0.291630 0.096223
0.618830 0.346624 0.148226
0.751492 0.384283 0.162539
0.864805 0.406928 0.166842
0.000000 0.301793 0.091035
0.009430 0.314397 0.076478
0.194553 0.333684 0.085054
0.352789 0.364385 0.094759
0.510430 0.407050 0.106020
0.669184 0.456245 0.140749
0.805905 0.507652 0.225986
0.922271 0.546960 0.287144
0.000000 0.444556 0.091157
0.000000 0.455024 0.079469
0.172427 0.472999 0.089754
0.365759 0.504387 0.105867
0.538720 0.545251 0.124758
0.705196 0.584131 0.151858
0.834440 0.602350 0.221500
0.932219 0.632044 0.332097
0.000000 0.639338 0.077089
0.000000 0.650324 0.087587
0.093233 0.666651 0.109346
0.375036 0.692836 0.146700
0.572839 0.719722 0.187137
0.752377 0.746029 0.239841
0.893095 0.749935 0.305486
0.977234 0.749081 0.409216
0.036805 0.050782 0.075441
0.060151 0.053101 0.087617
0.150423 0.053559 0.108614
0.250462 0.050629 0.101472
0.330266 0.038911 0.078004
0.442603 0.057038 0.081270
0.563378 0.087587 0.083680
0.697932 0.130465 0.082887
0.034211 0.069398 0.092164
0.067659 0.073976 0.100069
0.154086 0.076112 0.114656
0.246891 0.067170 0.098909
0.349065 0.071901 0.093294
0.459571 0.093172 0.095338
0.579217 0.122835 0.095430
0.712093 0.160311 0.091737
0.024842 0.104067 0.111116
0.061646 0.111482 0.118196
0.159243 0.120516 0.125246
0.273564 0.127169 0.124849
0.388190 0.138033 0.123354
0.499977 0.155215 0.120577
0.619867 0.181033 0.116732
0.750912 0.216526 0.112306
0.003265 0.157382 0.131624
0.037446 0.168307 0.134310
0.149752 0.184421 0.131655
0.320012 0.206302 0.142092
0.444953 0.238743 0.174807
0.559319 0.251713 0.165194
0.680690 0.274174 0.157809
0.804013 0.302647 0.153170
0.000000 0.233738 0.154665
0.004700 0.245304 0.151400
0.133761 0.262089 0.139284
0.322759 0.288396 0.153414
0.479591 0.320226 0.169406
0.618799 0.373907 0.226505
0.742489 0.395544 0.223636
0.857847 0.414771 0.221469
0.000000 0.330388 0.174777
0.000000 0.342901 0.165652
0.095979 0.361120 0.147005
0.322911 0.388495 0.163546
0.497749 0.426978 0.178897
0.660151 0.470253 0.210056
0.796536 0.525475 0.295964
0.912078 0.559991 0.339452
0.000000 0.469123 0.194827
0.000000 0.480995 0.178378
0.000000 0.498085 0.155947
0.316686 0.525872 0.175570
0.515618 0.562768 0.196078
0.696223 0.602197 0.226017
0.831327 0.620661 0.289860
0.929442 0.656855 0.400824
0.000000 0.646204 0.204898
0.000000 0.657099 0.182467
0.000000 0.673915 0.171603
0.299626 0.700557 0.208286
0.536858 0.727352 0.250706
0.731533 0.754543 0.302190
0.884306 0.763119 0.364538
0.970184 0.762875 0.459541
0.003845 0.088441 0.145907
0.029267 0.092561 0.159243
0.102419 0.088472 0.181064
0.274754 0.088380 0.213779
0.405798 0.105592 0.208377
0.446967 0.051911 0.143587
0.534081 0.056947 0.123842
0.664607 0.096498 0.125887
0.000000 0.117617 0.168795
0.030091 0.120211 0.177859
0.118013 0.122194 0.191409
0.280430 0.121920 0.222751
0.399298 0.129610 0.205966
0.442847 0.069795 0.138979
0.555810 0.100130 0.139773
0.685145 0.135103 0.138888
0.000000 0.150851 0.186770
0.019898 0.156405 0.195468
0.121889 0.163699 0.207797
0.280034 0.169528 0.229252
0.393439 0.161349 0.202274
0.484169 0.150515 0.175265
0.606073 0.174502 0.173434
0.734951 0.201633 0.165591
0.000000 0.210513 0.218112
0.000000 0.218631 0.225498
0.108675 0.230045 0.235142
0.285313 0.245701 0.244999
0.415137 0.249210 0.237003
0.532677 0.255650 0.226810
0.655482 0.269749 0.216159
0.783444 0.292119 0.205875
0.000000 0.284306 0.246616
0.000000 0.293889 0.250645
0.064881 0.307744 0.252964
0.268315 0.328771 0.251926
0.469184 0.358312 0.263890
0.604089 0.400519 0.308537
0.726802 0.407507 0.291783
0.843473 0.418189 0.278904
0.000000 0.374487 0.271244
0.000000 0.388067 0.272313
0.000000 0.404730 0.267582
0.238224 0.430091 0.257847
0.473335 0.466560 0.279118
0.652918 0.502708 0.304417
0.785672 0.558190 0.388434
0.896788 0.573388 0.397711
0.000000 0.493904 0.293858
0.000000 0.507347 0.289525
0.000000 0.528313 0.278752
0.171908 0.557702 0.261814
0.469306 0.592370 0.291936
0.677485 0.630915 0.322606
0.821286 0.644923 0.374609
0.919493 0.686488 0.481880
0.000000 0.661219 0.318669
0.000000 0.673243 0.308110
0.000000 0.690547 0.290196
0.063416 0.713741 0.284276
0.469276 0.739010 0.331304
0.693812 0.764920 0.379950
0.867765 0.781552 0.442054
0.959899 0.781949 0.524102
0.000000 0.154360 0.244144
0.000000 0.158419 0.257664
0.049928 0.160464 0.274540
0.207095 0.152041 0.307713
0.415015 0.160250 0.341222
0.563684 0.211154 0.343755
0.600000 0.130739 0.258061
0.627405 0.038727 0.169070
0.000000 0.182956 0.265446
0.000000 0.186465 0.276555
0.056001 0.189029 0.290257
0.211795 0.182925 0.314641
0.416449 0.192477 0.346410
0.556451 0.233097 0.341833
0.595911 0.148196 0.254002
0.650874 0.086824 0.185458
0.000000 0.218051 0.285557
0.000000 0.222232 0.294133
0.054688 0.225742 0.304204
0.229618 0.232853 0.319402
0.411475 0.236393 0.349035
0.537713 0.255741 0.330755
0.583795 0.166659 0.241093
0.683772 0.159670 0.209842
0.000000 0.267735 0.309667
0.000000 0.273289 0.317082
0.035889 0.281804 0.327977
0.233371 0.294285 0.341100
0.412421 0.307439 0.362188
0.530083 0.290776 0.323644
0.615412 0.245212 0.265232
0.742519 0.257633 0.249332
0.000000 0.338018 0.341039
0.000000 0.345190 0.347234
0.000000 0.355993 0.355810
0.209049 0.371893 0.367071
0.410224 0.392248 0.376562
0.555261 0.389471 0.358740
0.684413 0.387579 0.336919
0.809720 0.392004 0.316289
0.000000 0.417792 0.367285
0.000000 0.425940 0.370947
0.000000 0.432898 0.370489
0.099367 0.447822 0.369055
0.370184 0.476265 0.368933
0.614801 0.524834 0.397253
0.753994 0.574212 0.461860
0.869444 0.569024 0.440467
0.000000 0.532006 0.402228
0.000000 0.536950 0.398383
0.000000 0.545281 0.389929
0.000000 0.571954 0.383703
0.339086 0.606104 0.383551
0.617762 0.643732 0.419989
0.793545 0.665187 0.461738
0.897826 0.709468 0.555261
0.000000 0.661372 0.420600
0.000000 0.668818 0.412360
0.000000 0.685023 0.400732
0.000000 0.715724 0.393133
0.308385 0.742519 0.407477
0.626825 0.770535 0.465095
0.833646 0.796689 0.519860
0.940215 0.796811 0.584863
0.000000 0.255100 0.384527
0.000000 0.258244 0.396033
0.000000 0.258457 0.407904
0.153017 0.259495 0.429572
0.352819 0.253147 0.461769
0.566247 0.272221 0.492653
0.715969 0.350408 0.494942
0.770596 0.271763 0.408759
0.000000 0.271366 0.388861
0.000000 0.272862 0.396796
0.000000 0.274693 0.408667
0.164706 0.279973 0.425727
0.348028 0.275975 0.458625
0.560662 0.295506 0.491035
0.710018 0.371496 0.494789
0.762356 0.278386 0.400946
0.000000 0.310185 0.413428
0.000000 0.311620 0.419684
0.000000 0.313909 0.428992
0.167758 0.318303 0.440436
0.350530 0.320317 0.466804
0.561273 0.340490 0.499092
0.708156 0.408698 0.500694
0.756283 0.290135 0.390448
0.000000 0.358068 0.436652
0.000000 0.360632 0.442145
0.000000 0.366278 0.452399
0.157046 0.379187 0.469886
0.373236 0.399207 0.487984
0.568994 0.411597 0.519280
0.703853 0.442786 0.499550
0.751217 0.296635 0.367224
0.000000 0.413489 0.456306
0.000000 0.418128 0.462135
0.000000 0.425116 0.470924
0.090333 0.435767 0.483497
0.347143 0.453407 0.497139
0.555871 0.476570 0.520592
0.680507 0.446723 0.465217
0.762570 0.350591 0.362646
0.000000 0.487770 0.483680
0.000000 0.495521 0.490517
0.000000 0.504173 0.497414
0.000000 0.518120 0.507500
0.299016 0.537926 0.519127
0.551629 0.571283 0.536248
0.705562 0.563684 0.512139
0.833402 0.547356 0.477760
0.000000 0.602899 0.534936
0.000000 0.610895 0.539300
0.000000 0.622034 0.543725
0.000000 0.635523 0.545403
0.164889 0.649836 0.539239
0.526818 0.672206 0.543542
0.763027 0.704677 0.576165
0.878538 0.741024 0.637781
0.000000 0.714412 0.560510
0.000000 0.717647 0.556481
0.000000 0.722957 0.548363
0.000000 0.733242 0.533593
0.000000 0.751644 0.516838
0.510948 0.777188 0.555566
0.775509 0.808316 0.612482
0.917327 0.820218 0.663691
0.000000 0.358923 0.524865
0.000000 0.362524 0.535637
0.000000 0.364691 0.546960
0.042695 0.371313 0.563073
0.299016 0.376013 0.587274
0.498329 0.386206 0.614801
0.698116 0.418769 0.638361
0.821592 0.502953 0.629297
0.000000 0.370642 0.525017
0.000000 0.373907 0.534508
0.000000 0.375921 0.544640
0.038575 0.381781 0.558984
0.297704 0.389929 0.579614
0.488502 0.396551 0.605524
0.686458 0.424445 0.628321
0.809964 0.503624 0.619471
0.000000 0.405341 0.546654
0.000000 0.406500 0.552209
0.000000 0.407752 0.559869
0.026062 0.413672 0.571801
0.308141 0.427100 0.585809
0.490730 0.435462 0.612604
0.690974 0.467872 0.639490
0.815244 0.546502 0.635248
0.000000 0.450477 0.570306
0.000000 0.450507 0.573785
0.000000 0.451881 0.579828
0.000000 0.459907 0.592218
0.306981 0.476814 0.604150
0.499916 0.496101 0.627649
0.696712 0.526452 0.654749
0.821927 0.597253 0.653559
0.000000 0.495613 0.582788
0.000000 0.495186 0.584619
0.000000 0.495003 0.588220
0.000000 0.499855 0.598047
0.251438 0.514916 0.610803
0.497871 0.549310 0.626184
0.689570 0.574090 0.656703
0.817380 0.616205 0.646448
0.000000 0.557519 0.604028
0.000000 0.560418 0.607965
0.000000 0.565087 0.614435
0.000000 0.573571 0.624170
0.178775 0.587732 0.636164
0.485389 0.620539 0.652888
0.696101 0.656031 0.677790
0.807706 0.615503 0.615229
0.000000 0.642390 0.637995
0.000000 0.647150 0.642237
0.000000 0.653803 0.647517
0.000000 0.665309 0.656184
0.048707 0.680720 0.665156
0.447425 0.704250 0.676875
0.697292 0.735286 0.693324
0.830716 0.715419 0.658717
0.000000 0.752163 0.683833
0.000000 0.757900 0.686976
0.000000 0.771725 0.696071
0.000000 0.785428 0.701289
0.000000 0.797940 0.700679
0.319921 0.804623 0.689631
0.691829 0.820279 0.707179
0.888212 0.847044 0.749996
0.000000 0.474220 0.678523
0.000000 0.477211 0.685176
0.000000 0.478889 0.689937
0.000000 0.489998 0.700862
0.302281 0.514305 0.712459
0.484108 0.536950 0.732876
0.652827 0.572351 0.756039
0.815732 0.618158 0.776516
0.000000 0.483131 0.677699
0.000000 0.485420 0.683131
0.000000 0.488228 0.689204
0.000000 0.498116 0.699245
0.299168 0.523705 0.710780
0.489326 0.552667 0.730343
0.649866 0.581811 0.753964
0.813016 0.626001 0.775479
0.000000 0.502220 0.683497
0.000000 0.503807 0.687709
0.000000 0.505974 0.692744
0.000000 0.518029 0.704921
0.287358 0.540978 0.714900
0.490700 0.573968 0.731106
0.650843 0.604730 0.756222
0.812222 0.644221 0.777493
0.000000 0.530144 0.693233
0.000000 0.532799 0.698665
0.000000 0.535607 0.704158
0.000000 0.546105 0.714534
0.260441 0.569329 0.725795
0.497658 0.610956 0.739315
0.658350 0.643977 0.765499
0.814817 0.674983 0.784634
0.000000 0.569696 0.705440
0.000000 0.570581 0.709102
0.000000 0.569848 0.712856
0.000000 0.574609 0.721248
0.162966 0.595117 0.732876
0.478889 0.640589 0.746609
0.662165 0.684047 0.772457
0.816556 0.709499 0.791501
0.000000 0.620081 0.720699
0.000000 0.619684 0.722042
0.000000 0.619165 0.724422
0.000000 0.622492 0.731197
0.000000 0.634424 0.743404
0.430396 0.679530 0.764309
0.673854 0.735683 0.782986
0.823270 0.756680 0.804959
0.000000 0.690150 0.747921
0.000000 0.691646 0.750271
0.000000 0.693996 0.753689
0.000000 0.700984 0.761318
0.000000 0.715267 0.772732
0.361273 0.738338 0.783841
0.647395 0.773709 0.794553
0.825803 0.804959 0.815396
0.000000 0.773373 0.778439
0.000000 0.776547 0.781277
0.000000 0.782925 0.786831
0.000000 0.791012 0.792599
0.000000 0.802945 0.799557
0.303716 0.820340 0.807401
0.629664 0.842679 0.818540
0.839750 0.866850 0.835050
