20 Preset/Dark Portrait/【3】LUT video cho PR-AE-FCPX/Tone  (13).cube
# Created by Adobe Lightroom plugin Export LUT (1.22.0)
# www.johnrellis.com/lightroom/exportlut.htm
# Preset: Milestone_09
# Color profile: C:\Program Files (x86)\Common Files\Adobe\Color\Profiles\VideoHD.icc
LUT_3D_SIZE 32
DOMAIN_MIN 0.0 0.0 0.0
DOMAIN_MAX 1.0 1.0 1.0
0.007660 0.014466 0.012757
0.015747 0.016175 0.014435
0.024811 0.017609 0.015961
0.035859 0.018524 0.017212
0.051759 0.019043 0.018585
0.075166 0.019501 0.020111
0.106569 0.019471 0.021698
0.142763 0.018830 0.023713
0.182925 0.017731 0.025971
0.226749 0.015869 0.028901
0.272984 0.013825 0.032380
0.320500 0.011658 0.036744
0.368719 0.010101 0.042084
0.416968 0.009918 0.048402
0.464454 0.011566 0.056214
0.510948 0.015534 0.065492
0.556725 0.022705 0.076722
0.602197 0.033326 0.090272
0.646479 0.048798 0.104860
0.688746 0.069764 0.120699
0.728420 0.096376 0.138308
0.769863 0.128542 0.159579
0.817288 0.169924 0.188296
0.857755 0.209720 0.217227
0.892271 0.248417 0.246952
0.921935 0.286290 0.277440
0.947845 0.324102 0.309056
0.970489 0.362310 0.342626
0.989899 0.401892 0.378851
1.000000 0.443336 0.418006
1.000000 0.485603 0.459266
1.000000 0.527703 0.501427
0.011627 0.022065 0.016083
0.022126 0.023560 0.015991
0.034089 0.022705 0.016052
0.046632 0.022980 0.016876
0.064454 0.023438 0.018036
0.089876 0.023682 0.019440
0.119844 0.023804 0.020783
0.154238 0.023407 0.022614
0.192386 0.022644 0.024811
0.233768 0.021637 0.027344
0.277470 0.020356 0.030488
0.323278 0.019348 0.034302
0.369604 0.018830 0.039094
0.416052 0.019501 0.044953
0.462379 0.021759 0.052155
0.508110 0.026673 0.061036
0.553216 0.034211 0.071351
0.597864 0.045350 0.084260
0.641718 0.060853 0.098451
0.683589 0.081941 0.114290
0.722927 0.106355 0.131350
0.770504 0.141146 0.155612
0.813596 0.177188 0.182010
0.851225 0.212619 0.208896
0.884276 0.247623 0.236423
0.913420 0.282261 0.264897
0.939422 0.317754 0.295354
0.962585 0.354070 0.327855
0.982940 0.391943 0.362799
1.000000 0.431830 0.401007
1.000000 0.473518 0.442023
1.000000 0.515587 0.484565
0.013825 0.030091 0.018280
0.025025 0.031952 0.018616
0.048249 0.036408 0.018341
0.065187 0.034058 0.017700
0.077424 0.029847 0.017548
0.101900 0.029450 0.018555
0.131411 0.029511 0.019867
0.164584 0.029328 0.021485
0.201389 0.028870 0.023499
0.241306 0.028504 0.025757
0.283787 0.027924 0.028840
0.327733 0.027710 0.032258
0.372778 0.027955 0.036530
0.418006 0.029328 0.042206
0.463081 0.032685 0.048859
0.507683 0.038178 0.056977
0.551843 0.046540 0.067109
0.595819 0.058350 0.078981
0.639216 0.074067 0.093294
0.681178 0.094789 0.108949
0.725948 0.121736 0.128664
0.771847 0.153933 0.152560
0.812406 0.186587 0.177554
0.848447 0.218875 0.202976
0.880278 0.251316 0.229557
0.908782 0.283879 0.257267
0.934844 0.317632 0.287053
0.958404 0.352911 0.319188
0.979400 0.390051 0.354253
0.997528 0.429541 0.392645
1.000000 0.471443 0.434516
1.000000 0.513848 0.477974
0.016114 0.039185 0.020508
0.028992 0.041962 0.021149
0.052125 0.048157 0.021118
0.092958 0.055787 0.020386
0.116426 0.050568 0.018982
0.127749 0.042054 0.018585
0.143496 0.037079 0.018830
0.175540 0.036927 0.020264
0.211368 0.036805 0.022034
0.249973 0.036774 0.024109
0.290898 0.036774 0.026947
0.333165 0.037171 0.030213
0.376349 0.038209 0.034272
0.420233 0.040467 0.039582
0.463569 0.044190 0.045686
0.506798 0.050202 0.053193
0.549798 0.058808 0.062623
0.592309 0.070619 0.073701
0.634791 0.086488 0.087556
0.677302 0.106172 0.103365
0.723964 0.132509 0.123751
0.766812 0.161166 0.145968
0.805783 0.191043 0.169528
0.841764 0.221561 0.194949
0.874388 0.253178 0.221530
0.904295 0.285679 0.249912
0.931579 0.319829 0.280613
0.956298 0.355352 0.313878
0.978088 0.392676 0.349798
0.996582 0.431739 0.388434
1.000000 0.472480 0.429908
1.000000 0.512932 0.471992
0.019196 0.050996 0.023102
0.033631 0.054536 0.023926
0.057710 0.063111 0.024353
0.096071 0.073213 0.024292
0.149538 0.085939 0.022522
0.174716 0.076387 0.019684
0.184543 0.061494 0.019165
0.189853 0.049134 0.018921
0.218143 0.046998 0.020233
0.255283 0.047425 0.022126
0.294438 0.047761 0.024506
0.335485 0.048890 0.027680
0.377478 0.050599 0.031403
0.420264 0.053742 0.036042
0.463294 0.058259 0.042023
0.506126 0.064973 0.049042
0.549310 0.074434 0.058015
0.592035 0.087251 0.068788
0.634333 0.102632 0.082307
0.682246 0.124331 0.100191
0.725734 0.148074 0.119753
0.766415 0.173861 0.141085
0.804288 0.201328 0.164431
0.839475 0.230106 0.189029
0.872129 0.260227 0.215671
0.902068 0.291936 0.244205
0.929686 0.324804 0.274876
0.954437 0.359472 0.308415
0.976349 0.395575 0.344060
0.994934 0.433448 0.382513
1.000000 0.473213 0.423774
1.000000 0.512932 0.466011
0.023896 0.068269 0.026368
0.040558 0.072633 0.027527
0.067109 0.085695 0.028260
0.106416 0.099458 0.028626
0.162814 0.119326 0.028351
0.218723 0.131472 0.025330
0.243931 0.117952 0.021149
0.254185 0.097322 0.019440
0.256840 0.075410 0.019348
0.266453 0.062501 0.019867
0.304540 0.063539 0.022004
0.344213 0.065248 0.024811
0.385168 0.067933 0.028412
0.426703 0.071778 0.032654
0.469123 0.077424 0.038331
0.511406 0.085603 0.045167
0.553918 0.095674 0.053834
0.596674 0.107973 0.064546
0.645045 0.126253 0.079530
0.689998 0.146273 0.097414
0.731868 0.168185 0.116670
0.771267 0.192447 0.138430
0.867857 0.276219 0.204440
0.899535 0.307225 0.234440
0.927153 0.338354 0.265629
0.951293 0.369604 0.297978
0.972045 0.401343 0.331334
0.989746 0.433967 0.366369
1.000000 0.467720 0.403235
1.000000 0.502403 0.441718
1.000000 0.536797 0.480385
1.000000 0.570520 0.518883
0.032197 0.104280 0.031891
0.055695 0.109712 0.033906
0.090700 0.127657 0.035370
0.133181 0.146304 0.036561
0.188693 0.169436 0.037324
0.271336 0.208164 0.037659
0.321996 0.211551 0.031952
0.345892 0.190433 0.024079
0.353857 0.161044 0.019654
0.353277 0.130007 0.019135
0.345464 0.099336 0.019501
0.374273 0.095216 0.021698
0.414435 0.098726 0.025452
0.455207 0.103578 0.030121
0.496071 0.109895 0.035981
0.536797 0.117952 0.043153
0.581872 0.129915 0.052613
0.631861 0.146822 0.066102
0.679286 0.166049 0.083192
0.723629 0.187472 0.103914
0.766232 0.211917 0.126864
0.807736 0.239506 0.153170
0.846891 0.269688 0.182132
0.882750 0.301701 0.213840
0.914275 0.333898 0.246586
0.940948 0.365270 0.279728
0.963531 0.396429 0.313603
0.982574 0.428138 0.348760
0.998566 0.460822 0.385473
1.000000 0.494636 0.423926
1.000000 0.528771 0.463294
1.000000 0.562524 0.502617
0.040467 0.132998 0.036957
0.066041 0.137484 0.039429
0.101717 0.156741 0.041718
0.141909 0.177249 0.043854
0.193515 0.201999 0.046082
0.258640 0.231540 0.048035
0.353704 0.282261 0.053071
0.397253 0.277409 0.042756
0.418738 0.251652 0.029999
0.426673 0.218235 0.022736
0.426856 0.183566 0.019471
0.417273 0.146487 0.019440
0.418341 0.122530 0.020508
0.457496 0.127077 0.024750
0.497505 0.132967 0.030121
0.544091 0.144045 0.037537
0.589746 0.156283 0.046845
0.634668 0.170260 0.058991
0.677638 0.186130 0.074159
0.718563 0.204166 0.093568
0.758877 0.225101 0.115755
0.798550 0.249241 0.140536
0.836576 0.276341 0.168338
0.872099 0.305119 0.198428
0.904082 0.335119 0.230533
0.931792 0.365057 0.263493
0.955749 0.395026 0.297429
0.976226 0.425971 0.332891
0.993591 0.458167 0.370214
1.000000 0.491646 0.409644
1.000000 0.525689 0.450019
1.000000 0.559594 0.490486
0.050538 0.165499 0.043580
0.078706 0.168154 0.046571
0.114382 0.189425 0.049775
0.152651 0.210758 0.053223
0.201205 0.236881 0.057404
0.261387 0.267765 0.062409
0.334691 0.303258 0.068238
0.441566 0.365667 0.085328
0.475441 0.350011 0.063447
0.495155 0.320653 0.042908
0.503075 0.284794 0.029999
0.503532 0.246799 0.021546
0.493477 0.204440 0.020569
0.480354 0.164767 0.019928
0.512474 0.164248 0.024323
0.554742 0.173220 0.031220
0.597101 0.183597 0.040070
0.638697 0.195529 0.051209
0.679377 0.209476 0.065888
0.719173 0.225803 0.084657
0.758785 0.245274 0.106996
0.798123 0.268070 0.132418
0.836027 0.293462 0.160708
0.871275 0.320928 0.191318
0.903014 0.349096 0.223484
0.930419 0.377111 0.256504
0.954131 0.405432 0.290562
0.974548 0.434638 0.326024
0.991882 0.465126 0.363256
1.000000 0.496834 0.402167
1.000000 0.529595 0.442603
1.000000 0.562493 0.483528
0.062898 0.201419 0.052155
0.092836 0.201480 0.055695
0.127321 0.223209 0.060395
0.163790 0.245396 0.065187
0.208835 0.271550 0.071595
0.265110 0.302678 0.079500
0.333318 0.338689 0.089662
0.412512 0.378698 0.101595
0.528313 0.449104 0.131624
0.553948 0.424842 0.100252
0.576379 0.397711 0.069886
0.587030 0.362432 0.048157
0.589532 0.323339 0.031128
0.579919 0.276982 0.025422
0.562860 0.229892 0.022400
0.563256 0.202701 0.023804
0.604852 0.212589 0.032502
0.645808 0.223972 0.043275
0.685328 0.236667 0.057527
0.723781 0.251652 0.075837
0.761410 0.268711 0.098817
0.798184 0.288487 0.123903
0.833371 0.310063 0.151095
0.866270 0.333349 0.180087
0.896391 0.357733 0.210513
0.923430 0.383093 0.242710
0.947631 0.409461 0.276219
0.968963 0.437385 0.311986
0.987457 0.467170 0.349737
1.000000 0.498604 0.389746
1.000000 0.531701 0.432197
1.000000 0.564721 0.474525
0.075257 0.235813 0.062104
0.106142 0.236545 0.066163
0.138430 0.254856 0.071901
0.173159 0.277440 0.078828
0.216678 0.304479 0.087922
0.270726 0.337469 0.099214
0.337316 0.377111 0.114015
0.415564 0.421424 0.131777
0.504967 0.468757 0.153170
0.619928 0.536950 0.197848
0.640650 0.509422 0.159884
0.656794 0.477180 0.121706
0.664088 0.439002 0.087617
0.664515 0.396765 0.055604
0.655848 0.349035 0.038758
0.638087 0.296941 0.029969
0.616022 0.246555 0.024750
0.648768 0.250675 0.033906
0.686732 0.261906 0.047333
0.723995 0.275181 0.065156
0.760708 0.290593 0.087984
0.796658 0.308354 0.113497
0.831083 0.328038 0.140627
0.863615 0.349432 0.170077
0.893675 0.372351 0.201236
0.920806 0.396063 0.233494
0.945159 0.421057 0.267460
0.966827 0.447639 0.303624
0.985657 0.476204 0.341924
1.000000 0.506676 0.382849
1.000000 0.538659 0.425696
1.000000 0.571008 0.469032
0.093080 0.278202 0.077211
0.123690 0.280461 0.082795
0.154940 0.295903 0.090455
0.190402 0.320775 0.100038
0.233555 0.350011 0.111879
0.286900 0.384588 0.126589
0.350530 0.423774 0.144503
0.424994 0.467079 0.165774
0.508598 0.512078 0.191318
0.599268 0.557763 0.222599
0.696468 0.611139 0.272984
0.712795 0.581964 0.229313
0.778500 0.603967 0.246128
0.783932 0.564233 0.198245
0.783108 0.518883 0.148898
0.775418 0.468879 0.107515
0.759060 0.412787 0.074617
0.738399 0.356176 0.050782
0.740658 0.329320 0.050629
0.774685 0.341161 0.073976
0.807950 0.355200 0.102327
0.839963 0.370947 0.131319
0.870024 0.388190 0.161959
0.897978 0.407141 0.193515
0.923522 0.427070 0.226047
0.946197 0.448280 0.260258
0.966247 0.470344 0.294987
0.983520 0.493874 0.331365
0.998138 0.519005 0.369482
1.000000 0.545953 0.409583
1.000000 0.573938 0.450538
1.000000 0.602655 0.492042
0.123690 0.347692 0.109224
0.155428 0.350256 0.115755
0.185794 0.361303 0.123842
0.221958 0.386725 0.135897
0.265751 0.416388 0.150576
0.318608 0.450477 0.168307
0.381476 0.488869 0.190127
0.453376 0.529534 0.216770
0.532464 0.570977 0.248966
0.616419 0.613062 0.287358
0.706874 0.660334 0.336675
0.781277 0.697993 0.391058
0.797055 0.672389 0.343816
0.810056 0.642390 0.295232
0.817716 0.607294 0.247684
0.818662 0.565454 0.196902
0.813840 0.518853 0.150546
0.800656 0.465553 0.112947
0.783810 0.411353 0.079683
0.764401 0.357549 0.055085
0.797513 0.369665 0.081941
0.829618 0.383856 0.112245
0.859953 0.399512 0.143343
0.888457 0.416724 0.175174
0.914702 0.435340 0.208286
0.938506 0.455146 0.242649
0.959686 0.476417 0.278538
0.978241 0.499367 0.315984
0.994110 0.524010 0.355169
1.000000 0.550622 0.396704
1.000000 0.578515 0.439765
1.000000 0.606989 0.482734
0.142397 0.389288 0.130617
0.172549 0.391333 0.136690
0.199771 0.395789 0.143435
0.234012 0.420050 0.155886
0.274998 0.447700 0.170901
0.325200 0.479683 0.189364
0.382940 0.514275 0.211429
0.449165 0.551171 0.238560
0.521508 0.588800 0.270787
0.598138 0.627100 0.308232
0.676692 0.665248 0.351232
0.760983 0.710689 0.408270
0.816220 0.734676 0.450721
0.829221 0.710506 0.403510
0.840269 0.681483 0.351629
0.847105 0.647669 0.300694
0.848875 0.607874 0.246677
0.846799 0.564935 0.196750
0.837675 0.516014 0.156771
0.825406 0.465339 0.120302
0.810452 0.413764 0.087251
0.822934 0.401099 0.095033
0.853758 0.415564 0.127352
0.882841 0.431769 0.160647
0.909758 0.449256 0.194614
0.934234 0.468238 0.230045
0.955993 0.488380 0.266484
0.975097 0.510185 0.304967
0.991485 0.533745 0.345129
1.000000 0.559350 0.387518
1.000000 0.586633 0.431922
1.000000 0.614527 0.476387
0.161990 0.429053 0.152956
0.190066 0.431220 0.158907
0.214633 0.432624 0.164462
0.246769 0.452491 0.176333
0.285649 0.478248 0.191684
0.332189 0.507164 0.210208
0.386786 0.539117 0.233280
0.448829 0.573175 0.261357
0.517021 0.608637 0.294560
0.589014 0.644892 0.333196
0.662531 0.680812 0.377234
0.733944 0.715358 0.424903
0.809171 0.757107 0.485328
0.848386 0.770596 0.514824
0.858976 0.747890 0.468177
0.868009 0.720424 0.416022
0.874907 0.688838 0.362249
0.877806 0.651820 0.305852
0.878965 0.613092 0.252873
0.873289 0.567651 0.209873
0.865232 0.520287 0.169497
0.854765 0.472053 0.132906
0.850492 0.435065 0.112367
0.879423 0.449836 0.146914
0.906462 0.466133 0.182315
0.931212 0.483864 0.218845
0.953704 0.503380 0.256840
0.973480 0.524773 0.296971
0.990570 0.548302 0.339239
1.000000 0.574090 0.384588
1.000000 0.601587 0.431617
1.000000 0.629725 0.478676
0.181582 0.467933 0.175967
0.209140 0.470832 0.182559
0.233036 0.472969 0.188357
0.261448 0.486305 0.198856
0.299931 0.511467 0.216037
0.346563 0.539910 0.237552
0.399573 0.570428 0.262943
0.460029 0.603174 0.293553
0.524956 0.636713 0.328893
0.592309 0.669947 0.368750
0.659571 0.701991 0.411597
0.724269 0.732174 0.455360
0.784237 0.759670 0.498543
0.843961 0.792599 0.554009
0.871061 0.797482 0.567895
0.879240 0.775631 0.520378
0.887144 0.750332 0.469184
0.894194 0.721859 0.417365
0.899351 0.689448 0.362890
0.903655 0.655329 0.309941
0.902129 0.615015 0.266392
0.898924 0.572778 0.224949
0.893309 0.528496 0.185733
0.886076 0.483284 0.149142
0.906432 0.487343 0.173190
0.931426 0.504356 0.211551
0.954009 0.523033 0.251286
0.973754 0.543511 0.292882
0.990661 0.565820 0.336400
1.000000 0.590082 0.382361
1.000000 0.615717 0.429755
1.000000 0.641871 0.476844
0.201175 0.503532 0.198978
0.226993 0.505913 0.205051
0.250126 0.507927 0.211124
0.273625 0.513573 0.218692
0.311345 0.537316 0.236606
0.355444 0.563653 0.258457
0.406806 0.592401 0.285039
0.463386 0.622583 0.315862
0.524163 0.653529 0.351049
0.587610 0.684413 0.390417
0.651301 0.714412 0.432258
0.712123 0.742397 0.474464
0.768704 0.767971 0.515770
0.819089 0.790646 0.555627
0.868070 0.818479 0.608667
0.887816 0.818814 0.612604
0.895323 0.799252 0.567926
0.902953 0.776699 0.519677
0.910216 0.751797 0.470893
0.916777 0.724239 0.421149
0.923064 0.694514 0.370245
0.924804 0.658717 0.326421
0.925139 0.620630 0.283665
0.923980 0.580774 0.243137
0.921599 0.539696 0.204593
0.930632 0.523949 0.202335
0.953491 0.541924 0.244053
0.973388 0.561669 0.287297
0.990387 0.583215 0.332799
1.000000 0.606653 0.380529
1.000000 0.631281 0.429297
1.000000 0.656489 0.477790
0.225681 0.542046 0.226780
0.250217 0.544701 0.233371
0.300237 0.578698 0.268345
0.321050 0.580346 0.274601
0.358221 0.599512 0.294163
0.403082 0.623407 0.319402
0.453040 0.648951 0.348608
0.508049 0.675715 0.382330
0.564904 0.702510 0.419318
0.622950 0.729244 0.458656
0.679622 0.754543 0.498512
0.733547 0.777920 0.538048
0.782376 0.798581 0.576165
0.825223 0.817014 0.611994
0.861753 0.833158 0.644617
0.896727 0.853452 0.687984
0.909728 0.849760 0.682033
0.915709 0.832120 0.640436
0.922393 0.812161 0.594476
0.929381 0.790188 0.547021
0.936156 0.766140 0.499031
0.942962 0.740322 0.451270
0.946929 0.709438 0.407843
0.950408 0.675654 0.363317
0.953063 0.639490 0.319158
0.954742 0.601740 0.277256
0.957610 0.568566 0.245670
0.976135 0.585962 0.289281
0.992096 0.605798 0.335821
1.000000 0.627680 0.384527
1.000000 0.651087 0.434607
1.000000 0.674830 0.483925
0.263218 0.590265 0.267613
0.288151 0.594324 0.275914
0.310765 0.598260 0.284245
0.332555 0.601740 0.292210
0.363775 0.614160 0.307836
0.407080 0.636988 0.333288
0.454383 0.660731 0.361975
0.505882 0.685451 0.394659
0.560113 0.710597 0.430488
0.614588 0.735348 0.467628
0.669032 0.759335 0.506035
0.720546 0.781460 0.544335
0.768185 0.801328 0.581598
0.810178 0.819028 0.616602
0.846464 0.834714 0.648859
0.877623 0.848692 0.678187
0.907683 0.866606 0.717952
0.918090 0.861814 0.708705
0.923888 0.846372 0.671992
0.930632 0.828977 0.631250
0.937713 0.809873 0.588251
0.945098 0.789670 0.545525
0.952270 0.767514 0.503136
0.957336 0.741451 0.464027
0.962432 0.712642 0.423224
0.967498 0.681239 0.381445
0.972534 0.648615 0.340398
0.977569 0.615259 0.302007
0.990784 0.621454 0.329229
1.000000 0.641840 0.378820
1.000000 0.663813 0.429877
1.000000 0.686305 0.479988
0.285283 0.617090 0.292027
0.307713 0.620844 0.300084
0.329564 0.624475 0.308293
0.349920 0.627832 0.316228
0.373480 0.632197 0.325994
0.415747 0.654017 0.351751
0.461738 0.676448 0.380804
0.510735 0.699519 0.412848
0.562188 0.722957 0.447395
0.613855 0.746029 0.483436
0.665126 0.768154 0.520256
0.714717 0.788907 0.557458
0.759823 0.807370 0.592889
0.800565 0.824186 0.627039
0.835874 0.839200 0.658717
0.866484 0.852628 0.687495
0.893706 0.865385 0.714382
0.918242 0.880003 0.748104
0.926513 0.874266 0.736355
0.931792 0.860563 0.704036
0.938079 0.845396 0.668055
0.945129 0.828641 0.629206
0.952544 0.811124 0.590509
0.959533 0.791806 0.553155
0.965240 0.769406 0.517205
0.971099 0.744778 0.480018
0.977508 0.718318 0.441932
0.984466 0.690669 0.404547
0.992309 0.662928 0.369207
1.000000 0.656733 0.373907
1.000000 0.677699 0.426459
1.000000 0.699367 0.478309
0.312444 0.647242 0.321996
0.334508 0.651118 0.330571
0.355352 0.654994 0.339391
0.375128 0.658473 0.347692
0.396612 0.661555 0.356481
0.431434 0.675624 0.376928
0.475105 0.696010 0.405188
0.521691 0.717037 0.436225
0.569665 0.738247 0.469032
0.617884 0.758968 0.502831
0.666041 0.779049 0.537804
0.712428 0.797757 0.572900
0.755489 0.814847 0.607080
0.794095 0.830411 0.639673
0.828122 0.844602 0.670192
0.858000 0.857481 0.698329
0.884276 0.869352 0.724300
0.908354 0.881437 0.749416
0.928710 0.893645 0.777981
0.935454 0.888121 0.766903
0.940459 0.876982 0.741390
0.946441 0.864561 0.712367
0.953277 0.850736 0.679805
0.960601 0.836362 0.647089
0.967285 0.820493 0.616815
0.973632 0.802548 0.586419
0.980529 0.783108 0.554803
0.988159 0.762844 0.523217
0.996796 0.742275 0.492958
1.000000 0.722408 0.465339
1.000000 0.709071 0.451942
1.000000 0.728573 0.503960
0.360449 0.690578 0.371923
0.379156 0.692836 0.379065
0.397131 0.694759 0.385870
0.413703 0.696345 0.392279
0.431891 0.697871 0.399298
0.456397 0.702907 0.411078
0.497475 0.721035 0.438300
0.541070 0.739773 0.468025
0.586236 0.758846 0.499550
0.632105 0.777737 0.532738
0.677638 0.795834 0.566888
0.720912 0.812650 0.600488
0.760708 0.827909 0.632929
0.796475 0.841917 0.663661
0.827939 0.854643 0.692042
0.855589 0.866300 0.717922
0.880003 0.876890 0.741238
0.901518 0.886595 0.761929
0.921935 0.896941 0.782315
0.938048 0.906065 0.804013
0.943084 0.900023 0.792111
0.947112 0.889769 0.769558
0.952209 0.878294 0.743465
0.958251 0.865568 0.713558
0.964996 0.852415 0.683162
0.970825 0.838224 0.657649
0.977203 0.823026 0.631434
0.984344 0.807034 0.604639
0.992370 0.790890 0.578546
1.000000 0.774868 0.553918
1.000000 0.759823 0.532128
1.000000 0.746792 0.514702
0.392157 0.717891 0.405615
0.409400 0.719875 0.412543
0.425513 0.721553 0.418830
0.440864 0.722957 0.424872
0.458137 0.724331 0.431647
0.476753 0.725704 0.439185
0.511406 0.738766 0.461311
0.552972 0.755856 0.490059
0.595697 0.773220 0.520256
0.639094 0.790188 0.552117
0.682094 0.806546 0.584680
0.723110 0.821866 0.616968
0.760861 0.835966 0.648035
0.794797 0.848997 0.677394
0.824887 0.860899 0.704524
0.851438 0.871855 0.729335
0.875029 0.881895 0.751705
0.895872 0.891051 0.771359
0.914397 0.899382 0.788632
0.932189 0.908568 0.806058
0.945220 0.915618 0.823453
0.949218 0.909697 0.811856
0.952758 0.900633 0.792660
0.957275 0.890562 0.770565
0.962341 0.878294 0.742336
0.968200 0.866423 0.716457
0.973693 0.854520 0.695827
0.979950 0.841886 0.674159
0.987060 0.829038 0.652552
0.995056 0.816495 0.632166
1.000000 0.804715 0.613886
1.000000 0.794583 0.599420
0.440955 0.754360 0.455879
0.457008 0.756313 0.462806
0.471382 0.757595 0.468696
0.484382 0.758358 0.473548
0.498543 0.758785 0.478676
0.514488 0.759091 0.484443
0.537224 0.763363 0.496132
0.574426 0.777340 0.521599
0.613519 0.791653 0.549126
0.652674 0.805692 0.577722
0.691402 0.819242 0.606775
0.728634 0.832334 0.635859
0.762966 0.844480 0.663874
0.794339 0.855894 0.690517
0.822202 0.866423 0.714931
0.847135 0.876158 0.737484
0.869627 0.885283 0.757961
0.889738 0.893767 0.776333
0.907805 0.901671 0.792844
0.923980 0.908965 0.807736
0.939757 0.917205 0.823026
0.950439 0.922667 0.837613
0.953765 0.916838 0.826139
0.956909 0.908507 0.808621
0.960845 0.899229 0.788602
0.965728 0.888884 0.765560
0.970428 0.877958 0.744198
0.975586 0.867674 0.726802
0.981537 0.857267 0.709346
0.988312 0.847044 0.692531
0.995941 0.837522 0.677516
1.000000 0.829099 0.664820
0.467933 0.775479 0.484993
0.482979 0.777249 0.491585
0.496590 0.778653 0.497536
0.509239 0.779629 0.502831
0.523125 0.780423 0.508385
0.538659 0.781216 0.514733
0.555779 0.782193 0.521996
0.588464 0.792721 0.544091
0.626581 0.806058 0.571618
0.664393 0.818997 0.599817
0.701411 0.831479 0.628290
0.736538 0.843351 0.656306
0.768978 0.854551 0.683162
0.798276 0.864958 0.708370
0.824460 0.874632 0.731380
0.847959 0.883543 0.752193
0.869047 0.891814 0.770932
0.887999 0.899474 0.787625
0.904936 0.906584 0.802579
0.920165 0.913115 0.816007
0.933684 0.919066 0.827970
0.946929 0.925780 0.840360
0.955230 0.929564 0.851835
0.958038 0.924041 0.840757
0.960906 0.916686 0.825406
0.964538 0.908629 0.808255
0.968933 0.899748 0.789425
0.972747 0.890349 0.773342
0.977539 0.882322 0.760708
0.983062 0.874327 0.748165
0.989288 0.866819 0.736629
0.996124 0.860227 0.727016
0.507347 0.801785 0.525628
0.520348 0.802914 0.531273
0.532189 0.803708 0.536217
0.543420 0.804318 0.540826
0.555718 0.804807 0.545708
0.569635 0.805234 0.551385
0.584924 0.805753 0.557763
0.606134 0.809140 0.569512
0.641352 0.820523 0.595026
0.676631 0.831724 0.621393
0.710780 0.842557 0.647700
0.743496 0.853117 0.673884
0.773770 0.863157 0.698939
0.801053 0.872496 0.722225
0.825589 0.881163 0.743465
0.847654 0.889250 0.762600
0.867674 0.896727 0.779751
0.885588 0.903746 0.795193
0.901854 0.910277 0.809171
0.916442 0.916320 0.821775
0.929473 0.921843 0.833219
0.941039 0.926787 0.843381
0.952209 0.932311 0.853819
0.958679 0.934844 0.863127
0.961212 0.929808 0.852781
0.963989 0.923369 0.839139
0.967407 0.916350 0.824216
0.970855 0.908690 0.810056
0.974426 0.900694 0.796658
0.978759 0.894102 0.786923
0.983673 0.888090 0.778286
0.989136 0.882841 0.771115
0.545495 0.824826 0.564477
0.556542 0.825437 0.569177
0.567132 0.826047 0.573693
0.577142 0.826474 0.577966
0.589075 0.827085 0.583215
0.602686 0.827939 0.589471
0.618677 0.829343 0.597528
0.636133 0.831052 0.606867
0.666285 0.839292 0.628748
0.701015 0.849943 0.655848
0.734127 0.860227 0.682582
0.764797 0.869993 0.708156
0.792508 0.879088 0.731868
0.817227 0.887419 0.753170
0.839414 0.895048 0.772030
0.858854 0.901854 0.788174
0.876341 0.908080 0.802548
0.892027 0.913848 0.815396
0.906249 0.919280 0.827237
0.919005 0.924254 0.837949
0.930419 0.928740 0.847654
0.940459 0.932769 0.856352
0.949279 0.936217 0.864042
0.957641 0.939940 0.871580
0.962005 0.940917 0.878050
0.964202 0.936461 0.868223
0.966827 0.931060 0.856291
0.969787 0.925231 0.844419
0.972747 0.919127 0.834012
0.976074 0.912810 0.823575
0.979919 0.907866 0.816678
0.984131 0.903960 0.811795
0.608301 0.855711 0.626276
0.617395 0.856046 0.630182
0.625971 0.856229 0.633722
0.634119 0.856260 0.637018
0.643366 0.856291 0.640650
0.653986 0.856413 0.645197
0.666072 0.856657 0.650599
0.679377 0.857115 0.656977
0.696040 0.858854 0.666468
0.724453 0.866514 0.688075
0.751675 0.874083 0.709407
0.777523 0.881590 0.730220
0.801297 0.888670 0.749599
0.823178 0.895445 0.767422
