20 Preset/Dark Portrait/【3】LUT video cho PR-AE-FCPX/Tone  (9).cube
# Created by Adobe Lightroom plugin Export LUT (1.22.0)
# www.johnrellis.com/lightroom/exportlut.htm
# Preset: Milestone_03
# Color profile: C:\Program Files (x86)\Common Files\Adobe\Color\Profiles\VideoHD.icc
LUT_3D_SIZE 5
DOMAIN_MIN 0.000000 0.000000 0.000000
DOMAIN_MAX 0.903226 0.903226 0.903226
0.033448 0.022370 0.037659
0.245426 0.021393 0.049409
0.434058 0.029572 0.052125
0.623682 0.057130 0.056428
0.810513 0.087587 0.067964
0.177249 0.165682 0.157626
0.348333 0.181582 0.128756
0.517388 0.183383 0.104158
0.685847 0.200015 0.072480
0.861418 0.216495 0.074342
0.316472 0.331853 0.250584
0.471565 0.355352 0.039796
0.620203 0.375067 0.234165
0.763851 0.371496 0.224430
0.923095 0.372290 0.189151
0.457008 0.492226 0.370764
0.553552 0.546410 0.275181
0.727291 0.534386 0.192721
0.850126 0.559442 0.350958
0.990356 0.571527 0.367498
0.638636 0.670497 0.565087
0.681819 0.733577 0.506249
0.837369 0.770504 0.351385
0.979858 0.749325 0.413092
1.000000 0.766110 0.546471
0.071473 0.102541 0.186191
0.266331 0.101717 0.172519
0.457984 0.110536 0.140261
0.639460 0.148348 0.122042
0.817441 0.183474 0.090059
0.192599 0.222171 0.244633
0.348333 0.235660 0.241306
0.515251 0.235477 0.216831
0.675380 0.239841 0.185763
0.850004 0.253574 0.145846
0.340032 0.327947 0.323949
0.477546 0.377691 0.101198
0.599481 0.392828 0.296971
0.741756 0.391730 0.284428
0.914183 0.395117 0.252750
0.475074 0.485145 0.427100
0.547021 0.557275 0.340612
0.725826 0.547295 0.238895
0.841093 0.577417 0.398718
0.982788 0.588617 0.407477
0.656184 0.643122 0.610132
0.668238 0.713741 0.558556
0.819852 0.783017 0.430243
0.978790 0.762631 0.440894
1.000000 0.781827 0.580133
0.108217 0.224918 0.338628
0.267521 0.191928 0.317723
0.463172 0.208927 0.284367
0.639765 0.216251 0.255222
0.820371 0.235843 0.228489
0.230686 0.308507 0.367987
0.356451 0.292546 0.342626
0.506157 0.301427 0.322637
0.669673 0.303471 0.298802
0.849821 0.306218 0.266819
0.310277 0.423011 0.398627
0.436774 0.427649 0.367620
0.586664 0.446296 0.396338
0.730800 0.438697 0.372442
0.903746 0.426429 0.333288
0.496040 0.523461 0.473793
0.522393 0.527703 0.470588
0.707118 0.572320 0.294957
0.825437 0.609430 0.473213
0.969909 0.609033 0.462470
0.620447 0.697475 0.605463
0.672450 0.678614 0.627039
0.751980 0.780575 0.548180
0.959838 0.776913 0.470130
1.000000 0.797513 0.623102
0.219455 0.394934 0.512322
0.343999 0.396521 0.497963
0.508965 0.297246 0.437934
0.637659 0.321141 0.386114
0.805600 0.327947 0.362402
0.307927 0.445380 0.522026
0.400275 0.443488 0.504173
0.530755 0.382361 0.447150
0.646571 0.375708 0.405158
0.825650 0.384375 0.389502
0.378363 0.514153 0.536156
0.445319 0.506615 0.516655
0.550134 0.483589 0.475135
0.699641 0.485847 0.462715
0.876310 0.484932 0.443793
0.400153 0.625177 0.581506
0.484932 0.612146 0.557122
0.626032 0.622797 0.524041
0.795987 0.654658 0.572229
0.954528 0.634424 0.536278
0.521843 0.779843 0.688869
0.597223 0.771511 0.678248
0.722988 0.746914 0.685237
0.911894 0.820615 0.524987
1.000000 0.831846 0.703334
0.430915 0.632532 0.748806
0.512718 0.639460 0.740536
0.575463 0.562432 0.671107
0.728725 0.483528 0.589746
0.847654 0.473335 0.530388
0.466468 0.660914 0.756497
0.537224 0.665156 0.747524
0.606867 0.612421 0.688960
0.737789 0.526177 0.603540
0.851316 0.502831 0.541558
0.500633 0.711574 0.778439
0.549218 0.710658 0.770840
0.666926 0.712276 0.745052
0.748531 0.598962 0.634607
0.861845 0.558709 0.566735
0.568963 0.787747 0.811917
0.601953 0.785061 0.803983
0.671046 0.775540 0.782132
0.752743 0.703578 0.690669
0.916258 0.696345 0.662806
0.620722 0.864317 0.847349
0.640040 0.864286 0.842924
0.680598 0.863218 0.831235
0.811429 0.844968 0.796841
0.972229 0.894285 0.841947
