20 Preset/Dark Portrait/【3】LUT video cho PR-AE-FCPX/Tone  (4).cube
# Created by Adobe Lightroom plugin Export LUT (1.22.0)
# www.johnrellis.com/lightroom/exportlut.htm
# Preset: Horizon_01
# Color profile: C:\Program Files (x86)\Common Files\Adobe\Color\Profiles\VideoHD.icc
LUT_3D_SIZE 5
DOMAIN_MIN 0.000000 0.000000 0.000000
DOMAIN_MAX 0.903226 0.903226 0.903226
0.054688 0.033722 0.035554
0.321386 0.036133 0.028626
0.580804 0.076265 0.016358
0.820890 0.159945 0.007141
1.000000 0.245426 0.015106
0.094820 0.164981 0.068666
0.356237 0.212192 0.063752
0.673091 0.284459 0.073671
0.883940 0.317662 0.082399
1.000000 0.364172 0.115328
0.183230 0.385107 0.170199
0.366949 0.417304 0.162661
0.674098 0.516289 0.216892
0.966217 0.600427 0.329900
1.000000 0.571435 0.318914
0.290898 0.648249 0.331334
0.418585 0.674281 0.326757
0.645594 0.706600 0.342199
0.907012 0.749447 0.417914
1.000000 0.783627 0.541772
0.431037 0.885283 0.522728
0.518029 0.896391 0.521569
0.676570 0.901213 0.507744
0.909331 0.916869 0.548882
1.000000 0.905699 0.643214
0.190463 0.143771 0.157382
0.298161 0.137881 0.226658
0.442390 0.097444 0.149752
0.696620 0.173312 0.170260
0.965393 0.264439 0.193179
0.203098 0.222293 0.220462
0.329534 0.280766 0.267155
0.568353 0.310185 0.269017
0.773648 0.337865 0.261234
1.000000 0.384436 0.265507
0.246403 0.410315 0.314366
0.367407 0.456855 0.333471
0.605371 0.517967 0.360632
0.884428 0.618280 0.457649
1.000000 0.608515 0.441505
0.332189 0.652857 0.442390
0.434333 0.680507 0.453285
0.625574 0.720729 0.463142
0.872374 0.765011 0.523857
1.000000 0.816403 0.640009
0.449866 0.881559 0.593347
0.530907 0.892729 0.598840
0.683406 0.915221 0.602136
0.897642 0.926665 0.633051
1.000000 0.922759 0.714626
0.415412 0.386847 0.395361
0.483009 0.441688 0.429145
0.557153 0.369207 0.490852
0.668116 0.276188 0.363348
0.827848 0.200656 0.267460
0.425452 0.434058 0.439246
0.489448 0.471015 0.464332
0.557671 0.459632 0.506889
0.617243 0.296391 0.331395
0.898344 0.360510 0.356512
0.394507 0.504387 0.481788
0.454688 0.521935 0.495796
0.568780 0.584436 0.542443
0.779141 0.615564 0.552300
0.987213 0.609216 0.525719
0.361608 0.654017 0.549004
0.436591 0.671992 0.561486
0.593194 0.732052 0.602472
0.820096 0.785153 0.644434
1.000000 0.856046 0.753567
0.347631 0.868009 0.646876
0.476936 0.879667 0.667506
0.661555 0.906371 0.704646
0.858549 0.929961 0.724025
1.000000 0.936522 0.787228
0.613275 0.644343 0.637507
0.658503 0.677546 0.659327
0.673915 0.695186 0.699092
0.748836 0.595331 0.714260
0.908202 0.557824 0.648280
0.614313 0.662348 0.656519
0.650507 0.682155 0.668544
0.708339 0.725399 0.700618
0.740475 0.633478 0.713283
0.883207 0.549798 0.619074
0.591943 0.683314 0.674922
0.627283 0.695857 0.683619
0.695369 0.727810 0.707424
0.738857 0.703914 0.725399
0.845243 0.499733 0.531701
0.555596 0.748226 0.716732
0.587732 0.752163 0.719722
0.653925 0.767330 0.732845
0.768856 0.813169 0.771542
0.973327 0.833860 0.782467
0.458747 0.884520 0.786740
0.501213 0.888518 0.787259
0.613458 0.903563 0.797177
0.818753 0.938201 0.837278
0.998474 0.957519 0.878630
0.805051 0.847196 0.840330
0.829313 0.860899 0.850187
0.873411 0.889158 0.871580
0.857206 0.875944 0.900969
0.932311 0.817288 0.915435
0.801816 0.851286 0.846586
0.825254 0.863066 0.854948
0.869963 0.889372 0.875029
0.871916 0.891966 0.903441
0.932830 0.835050 0.918608
0.788235 0.859159 0.858152
0.809415 0.866697 0.863249
0.857969 0.889189 0.880369
0.904082 0.918669 0.909209
0.938079 0.870085 0.928588
0.774472 0.887572 0.886168
0.795773 0.892180 0.889860
0.841550 0.904692 0.900572
0.912718 0.933349 0.926085
0.948302 0.920958 0.945434
0.741421 0.938293 0.923552
0.764126 0.940917 0.926329
0.813748 0.948363 0.934569
0.883421 0.959625 0.947295
0.967895 0.979889 0.969390
