20 Preset/Dark Portrait/【3】LUT video cho PR-AE-FCPX/Tone  (10).cube
# Created by Adobe Lightroom plugin Export LUT (1.22.0)
# www.johnrellis.com/lightroom/exportlut.htm
# Preset: Milestone_04
# Color profile: C:\Program Files (x86)\Common Files\Adobe\Color\Profiles\VideoHD.icc
LUT_3D_SIZE 32
DOMAIN_MIN 0.0 0.0 0.0
DOMAIN_MAX 1.0 1.0 1.0
0.020356 0.010956 0.014282
0.026795 0.012482 0.016632
0.038972 0.012940 0.018555
0.056580 0.012329 0.020020
0.083742 0.010498 0.021485
0.119173 0.007355 0.022736
0.159854 0.002258 0.024048
0.205631 0.000000 0.025818
0.256779 0.000000 0.028717
0.312047 0.000000 0.033234
0.370062 0.000000 0.038972
0.429847 0.000000 0.046418
0.490303 0.000000 0.055848
0.550286 0.000000 0.067720
0.608942 0.000000 0.082490
0.664698 0.000000 0.099397
0.715358 0.000000 0.117769
0.761288 0.000000 0.137514
0.804410 0.000000 0.158541
0.844572 0.000000 0.181094
0.881254 0.000000 0.204685
0.914916 0.000000 0.229862
0.945190 0.023163 0.256718
0.972076 0.083040 0.285405
0.995026 0.144259 0.315740
1.000000 0.207675 0.352605
1.000000 0.271489 0.393774
1.000000 0.330632 0.435157
1.000000 0.385107 0.475685
1.000000 0.436347 0.515404
1.000000 0.486641 0.555627
1.000000 0.536614 0.596582
0.023774 0.015473 0.018189
0.027649 0.014740 0.016938
0.040009 0.015808 0.018616
0.057649 0.016144 0.019806
0.084047 0.015198 0.021027
0.118868 0.012757 0.022156
0.158267 0.008698 0.023224
0.203494 0.002441 0.024781
0.253758 0.000000 0.027619
0.308141 0.000000 0.031769
0.365179 0.000000 0.037415
0.424445 0.000000 0.044434
0.484382 0.000000 0.053407
0.543816 0.000000 0.064637
0.602350 0.000000 0.078706
0.658442 0.000000 0.095735
0.709560 0.000000 0.113954
0.755795 0.000000 0.133639
0.799008 0.000000 0.154635
0.839292 0.000000 0.177066
0.876066 0.000000 0.200565
0.910002 0.001343 0.225589
0.940612 0.045655 0.252384
0.967712 0.102144 0.280919
0.991547 0.157107 0.311864
1.000000 0.217563 0.349859
1.000000 0.274144 0.388769
1.000000 0.328161 0.428504
1.000000 0.379004 0.467872
1.000000 0.427192 0.506828
1.000000 0.475135 0.546410
1.000000 0.524956 0.586969
0.025147 0.021485 0.021302
0.029297 0.020172 0.018555
0.036439 0.019226 0.018219
0.053376 0.021668 0.018982
0.082765 0.022278 0.020081
0.117617 0.021607 0.020996
0.157351 0.018952 0.022004
0.202335 0.014374 0.023529
0.252415 0.008148 0.025849
0.306737 0.001190 0.029877
0.363745 0.000000 0.035096
0.422522 0.000000 0.041810
0.482185 0.000000 0.050599
0.541527 0.000000 0.061402
0.599847 0.000000 0.075227
0.655329 0.000000 0.091951
0.706264 0.000000 0.110292
0.752468 0.000000 0.130159
0.795529 0.000000 0.151278
0.835935 0.000000 0.173892
0.872801 0.000000 0.197452
0.906920 0.033417 0.222843
0.937652 0.077394 0.249760
0.964904 0.127535 0.278416
0.990692 0.180789 0.312078
1.000000 0.233524 0.348516
1.000000 0.285130 0.386236
1.000000 0.335851 0.425177
1.000000 0.384497 0.464332
1.000000 0.431312 0.503380
1.000000 0.477974 0.543114
1.000000 0.525444 0.584009
0.024079 0.030304 0.024079
0.028321 0.027771 0.019898
0.037324 0.027100 0.018860
0.046937 0.025879 0.018708
0.073274 0.030610 0.018799
0.111818 0.032349 0.019654
0.157961 0.031312 0.020630
0.202731 0.028473 0.021759
0.252995 0.024231 0.023957
0.307164 0.019074 0.027741
0.363806 0.012482 0.032685
0.422126 0.004974 0.039216
0.481086 0.000000 0.047547
0.539666 0.000000 0.058198
0.596948 0.000000 0.071565
0.652094 0.000000 0.088197
0.702358 0.000000 0.106355
0.747982 0.000000 0.126101
0.790677 0.000000 0.147250
0.830747 0.005829 0.169589
0.867704 0.029969 0.193240
0.902037 0.063325 0.218601
0.933196 0.105501 0.245701
0.962005 0.150118 0.275700
0.988556 0.199557 0.310430
1.000000 0.248325 0.346624
1.000000 0.297063 0.384466
1.000000 0.345861 0.423804
1.000000 0.393286 0.463355
1.000000 0.438666 0.502403
1.000000 0.483284 0.541650
1.000000 0.528344 0.581567
0.021912 0.042878 0.027192
0.025238 0.039216 0.021271
0.034913 0.038025 0.019806
0.046082 0.038056 0.018647
0.060792 0.036255 0.018280
0.097505 0.043854 0.017945
0.141878 0.047272 0.018280
0.195834 0.047425 0.019409
0.250340 0.044953 0.021393
0.304265 0.042329 0.024720
0.360479 0.038117 0.029419
0.418524 0.032959 0.035645
0.477119 0.027375 0.043549
0.535668 0.021637 0.053895
0.593439 0.016449 0.066835
0.648524 0.013031 0.083436
0.699458 0.013306 0.102235
0.745266 0.018921 0.122408
0.788174 0.029267 0.143862
0.828214 0.046296 0.166598
0.865110 0.070253 0.190402
0.899443 0.102602 0.216129
0.930724 0.137362 0.243442
0.961395 0.179324 0.275975
0.987030 0.222812 0.310155
1.000000 0.266941 0.345922
1.000000 0.312230 0.383490
1.000000 0.358160 0.422614
1.000000 0.402869 0.461799
1.000000 0.446174 0.500542
1.000000 0.489021 0.539513
1.000000 0.532555 0.579248
0.017853 0.061280 0.030457
0.019471 0.056947 0.022766
0.030762 0.053040 0.021668
0.042115 0.054047 0.019562
0.058686 0.054902 0.017517
0.080415 0.052491 0.017121
0.126406 0.064332 0.015900
0.177646 0.070924 0.016052
0.238041 0.074037 0.017670
0.305699 0.073915 0.021149
0.362158 0.072511 0.025574
0.419928 0.070222 0.031434
0.478370 0.066987 0.039338
0.536767 0.063630 0.049378
0.594293 0.060700 0.062470
0.649287 0.059510 0.078859
0.699550 0.061616 0.098360
0.745357 0.068299 0.119356
0.788174 0.080079 0.141390
0.827848 0.097322 0.164523
0.864714 0.118257 0.188937
0.898894 0.143801 0.215152
0.955383 0.213413 0.270481
0.983581 0.255680 0.308354
1.000000 0.298405 0.346777
1.000000 0.341619 0.386175
1.000000 0.384192 0.425788
1.000000 0.425055 0.464485
1.000000 0.463996 0.501946
1.000000 0.502831 0.539452
1.000000 0.541741 0.577050
1.000000 0.580621 0.614496
0.008484 0.096925 0.036347
0.010224 0.090669 0.026123
0.022858 0.083803 0.023682
0.035492 0.082765 0.021515
0.052857 0.084962 0.018189
0.079408 0.087037 0.014832
0.110719 0.083497 0.014343
0.168399 0.101778 0.011994
0.228275 0.111910 0.012818
0.296574 0.119142 0.015320
0.370367 0.122469 0.020233
0.439490 0.122927 0.027161
0.498360 0.122316 0.035615
0.556268 0.121798 0.046540
0.612818 0.121248 0.060670
0.665217 0.122133 0.078126
0.713252 0.125154 0.099153
0.757595 0.131411 0.121431
0.799435 0.141543 0.144564
0.838468 0.155642 0.169009
0.875395 0.174533 0.195499
0.914336 0.204135 0.228305
0.948455 0.238132 0.263645
0.976959 0.275395 0.301061
0.999390 0.314549 0.339635
1.000000 0.353979 0.378820
1.000000 0.393439 0.418067
1.000000 0.431464 0.456458
1.000000 0.468391 0.493965
1.000000 0.504784 0.530938
1.000000 0.541985 0.568566
1.000000 0.579553 0.606134
0.000000 0.130129 0.042298
0.000671 0.123507 0.030884
0.011322 0.116609 0.026001
0.026184 0.110903 0.024445
0.042603 0.112734 0.020966
0.066682 0.115236 0.016754
0.101961 0.118379 0.011872
0.138674 0.114687 0.011109
0.203128 0.135988 0.008453
0.268925 0.149111 0.009522
0.340307 0.158511 0.012421
0.416297 0.164706 0.018280
0.493874 0.167361 0.027771
0.553582 0.168246 0.038758
0.609400 0.168978 0.052430
0.661402 0.169955 0.070039
0.708705 0.172488 0.091585
0.752529 0.177188 0.114443
0.793942 0.184970 0.138216
0.834775 0.198032 0.164309
0.874754 0.216739 0.193729
0.911315 0.240391 0.225467
0.943877 0.268376 0.259709
0.971374 0.300023 0.295903
0.993652 0.334112 0.333593
1.000000 0.369421 0.372076
1.000000 0.405615 0.411139
1.000000 0.441321 0.449744
1.000000 0.476204 0.487556
1.000000 0.510826 0.524743
1.000000 0.546563 0.562676
1.000000 0.582788 0.600641
0.000000 0.168704 0.051118
0.000000 0.161959 0.038117
0.000000 0.155123 0.030030
0.013123 0.147311 0.028107
0.030976 0.145449 0.024781
0.053895 0.147890 0.020050
0.087373 0.150668 0.014557
0.128725 0.153841 0.008515
0.170138 0.150210 0.007599
0.241276 0.174014 0.003845
0.311620 0.189303 0.005005
0.386084 0.200656 0.008911
0.462928 0.208865 0.016175
0.540246 0.213779 0.027985
0.608606 0.216129 0.043854
0.659541 0.217014 0.061585
0.706508 0.218906 0.083864
0.751553 0.223636 0.108644
0.795438 0.232151 0.135134
0.836484 0.243900 0.162814
0.874968 0.259678 0.192660
0.910521 0.280308 0.225040
0.942077 0.304906 0.259556
0.968902 0.332708 0.296025
0.990478 0.363073 0.333715
1.000000 0.394507 0.372015
1.000000 0.427100 0.410773
1.000000 0.459419 0.449012
1.000000 0.491432 0.486397
1.000000 0.523430 0.523339
1.000000 0.556756 0.560876
1.000000 0.590906 0.598688
0.000000 0.210971 0.063142
0.000000 0.203952 0.047456
0.000000 0.197116 0.035157
0.000000 0.189090 0.032776
0.016205 0.180667 0.030060
0.039155 0.182528 0.024872
0.070497 0.185061 0.018616
0.111849 0.188266 0.011597
0.158022 0.191196 0.004578
0.203708 0.187655 0.003265
0.280369 0.213382 0.000000
0.354131 0.230381 0.000061
0.429786 0.243015 0.004852
0.507225 0.252842 0.014008
0.584131 0.259800 0.028687
0.658534 0.265415 0.051820
0.710384 0.268925 0.076967
0.756161 0.273716 0.104799
0.798642 0.280491 0.132601
0.838254 0.290288 0.161410
0.875181 0.303075 0.191684
0.908843 0.319707 0.223850
0.938659 0.339544 0.257603
0.963958 0.362310 0.292821
0.984741 0.387640 0.329198
1.000000 0.414801 0.366613
1.000000 0.443885 0.405035
1.000000 0.473518 0.443427
1.000000 0.503655 0.481422
1.000000 0.534142 0.519005
1.000000 0.566094 0.557427
1.000000 0.599115 0.595972
0.000000 0.252995 0.077546
0.000000 0.246189 0.059876
0.000000 0.239597 0.044678
0.000000 0.231907 0.038636
0.000000 0.222812 0.035126
0.021057 0.219425 0.030488
0.051606 0.222110 0.023774
0.093202 0.225315 0.015869
0.140078 0.229191 0.006989
0.190341 0.231479 0.000000
0.240085 0.228000 0.000000
0.322179 0.256260 0.000000
0.400580 0.275853 0.000000
0.479103 0.290745 0.000427
0.558129 0.302556 0.012757
0.633295 0.310918 0.033021
0.700618 0.316258 0.062654
0.756680 0.320867 0.097932
0.797971 0.325963 0.127230
0.836637 0.333379 0.157351
0.872679 0.343969 0.188418
0.905486 0.357763 0.221195
0.934478 0.374670 0.255375
0.959380 0.394141 0.290745
0.979950 0.416205 0.327428
0.996246 0.440314 0.365087
1.000000 0.466438 0.403815
1.000000 0.493446 0.442298
1.000000 0.521050 0.480507
1.000000 0.549371 0.518242
1.000000 0.579309 0.556878
1.000000 0.610498 0.595727
0.000000 0.299565 0.096437
0.000000 0.292943 0.076417
0.000000 0.286107 0.058564
0.000000 0.279118 0.046784
0.000000 0.269963 0.042756
0.000000 0.259403 0.038209
0.029206 0.262577 0.030762
0.070497 0.266728 0.022126
0.121706 0.271489 0.011872
0.174136 0.277012 0.000153
0.229129 0.278904 0.000000
0.283726 0.276738 0.000000
0.399023 0.332250 0.000000
0.482795 0.353368 0.000000
0.564355 0.368719 0.000000
0.640009 0.378698 0.019806
0.707332 0.385565 0.053193
0.769223 0.392279 0.097292
0.824613 0.399634 0.142275
0.862333 0.406104 0.177401
0.894591 0.414954 0.211276
0.923247 0.426337 0.246036
0.947936 0.440131 0.281498
0.968597 0.456428 0.317937
0.985351 0.474830 0.355108
0.998535 0.495125 0.392950
1.000000 0.516381 0.430365
1.000000 0.538415 0.466896
1.000000 0.561059 0.502708
1.000000 0.585595 0.539208
1.000000 0.611719 0.576196
1.000000 0.639307 0.613428
0.000000 0.364630 0.125551
0.000000 0.358129 0.104738
0.000000 0.351537 0.084047
0.000000 0.344732 0.063264
0.000000 0.335180 0.056794
0.000000 0.324163 0.050843
0.002197 0.318669 0.042817
0.045808 0.322301 0.032349
0.102419 0.326726 0.020142
0.160220 0.332616 0.006012
0.219455 0.339422 0.000000
0.280583 0.341283 0.000000
0.342321 0.340429 0.000000
0.436652 0.372320 0.000000
0.523003 0.395514 0.000000
0.601099 0.409400 0.000000
0.671015 0.418036 0.025147
0.734737 0.424964 0.064271
0.792752 0.432258 0.112276
0.844755 0.440589 0.159701
0.885527 0.449195 0.202548
0.914275 0.458045 0.237949
0.939178 0.469001 0.273808
0.960357 0.482338 0.310643
0.977630 0.498054 0.348180
0.991424 0.515679 0.386419
1.000000 0.534691 0.424475
1.000000 0.554833 0.461860
1.000000 0.575921 0.498573
1.000000 0.598779 0.535729
1.000000 0.623346 0.573480
1.000000 0.649378 0.611353
0.000000 0.417548 0.151553
0.000000 0.410864 0.131106
0.000000 0.403784 0.110018
0.000000 0.396551 0.088411
0.000000 0.386999 0.072633
0.000000 0.375341 0.064820
0.000000 0.362524 0.056641
0.014862 0.363195 0.045502
0.069673 0.367010 0.032166
0.133150 0.371832 0.016938
0.193698 0.377569 0.000153
0.255863 0.384558 0.000000
0.318639 0.384192 0.000000
0.381170 0.382940 0.000000
0.474769 0.412757 0.000000
0.559503 0.435218 0.000000
0.632776 0.446601 0.000000
0.698604 0.454810 0.032837
0.759945 0.462928 0.078950
0.815244 0.471443 0.130617
0.864134 0.480842 0.180789
0.905760 0.491829 0.230869
0.931640 0.500725 0.268833
0.953094 0.511833 0.306584
0.970733 0.525139 0.345006
0.984863 0.540459 0.383978
0.996155 0.557153 0.422461
1.000000 0.574975 0.460243
1.000000 0.593866 0.497292
1.000000 0.614801 0.534874
1.000000 0.637507 0.573022
1.000000 0.661799 0.611383
0.000000 0.467536 0.178317
0.000000 0.461189 0.158450
0.000000 0.454353 0.137819
0.000000 0.446845 0.116243
0.000000 0.437720 0.093233
0.000000 0.426062 0.083833
0.000000 0.413275 0.073396
0.000000 0.404578 0.062287
0.034852 0.407996 0.047730
0.102480 0.412634 0.031769
0.167514 0.418372 0.013581
0.230564 0.425299 0.000000
0.295384 0.430671 0.000000
0.359686 0.430396 0.000000
0.423316 0.428595 0.000000
0.515312 0.455665 0.000000
0.597162 0.475837 0.000000
0.665309 0.485359 0.005066
0.729122 0.494118 0.046754
0.787137 0.502892 0.100557
0.838926 0.512078 0.154665
0.883543 0.521782 0.207095
0.920439 0.532616 0.259251
0.946288 0.543114 0.304601
0.964050 0.553857 0.343603
0.978393 0.566827 0.383276
0.989990 0.581506 0.422705
0.999207 0.597528 0.461280
1.000000 0.614862 0.499397
1.000000 0.634485 0.538323
1.000000 0.656062 0.577813
1.000000 0.679164 0.617121
0.000000 0.514672 0.207218
0.000000 0.509300 0.187991
0.000000 0.503746 0.168276
0.000000 0.497414 0.147402
0.000000 0.489876 0.122286
0.000000 0.479866 0.107912
0.000000 0.468452 0.097078
0.000000 0.455634 0.085725
0.000549 0.454841 0.070436
0.067842 0.459174 0.052979
0.141329 0.463905 0.032898
0.206455 0.469154 0.010620
0.270878 0.474403 0.000000
0.335363 0.475624 0.000000
0.399176 0.473121 0.000000
0.461616 0.469429 0.000000
0.549798 0.492500 0.000000
0.628962 0.511528 0.000000
0.695705 0.521843 0.015045
0.757382 0.531792 0.065858
0.812711 0.541558 0.126192
0.860777 0.551690 0.182650
0.901061 0.561761 0.237949
0.933623 0.572900 0.292851
0.958038 0.585168 0.346014
0.972412 0.595941 0.386664
0.984131 0.608423 0.426581
0.993469 0.622278 0.465492
1.000000 0.637476 0.503807
1.000000 0.654719 0.542779
1.000000 0.673762 0.581720
1.000000 0.694331 0.620569
0.000000 0.556451 0.236332
0.000000 0.551568 0.217838
0.000000 0.546563 0.198947
0.000000 0.541070 0.179110
0.000000 0.534722 0.155215
0.000000 0.526635 0.133639
0.000000 0.516442 0.122591
0.000000 0.505089 0.110475
0.000000 0.495399 0.096468
0.029755 0.499001 0.078676
0.108583 0.503136 0.057191
0.178927 0.507561 0.034058
0.244053 0.512108 0.008057
0.307836 0.516564 0.000000
0.373114 0.514946 0.000000
0.436255 0.511955 0.000000
0.498543 0.508141 0.000000
0.583825 0.528527 0.000000
0.661067 0.547448 0.000000
0.726009 0.558679 0.031464
0.784695 0.569085 0.092927
0.836423 0.579126 0.155581
0.880125 0.589105 0.214328
0.915801 0.599268 0.272007
0.943694 0.610407 0.329107
0.964691 0.623041 0.385626
0.977935 0.634363 0.430030
0.987549 0.646174 0.469398
0.994903 0.659571 0.508354
0.999939 0.674922 0.547692
1.000000 0.692134 0.587182
1.000000 0.710780 0.626093
0.000000 0.599084 0.270756
0.000000 0.595178 0.253483
0.000000 0.613672 0.255344
0.000000 0.609033 0.235996
0.000000 0.603204 0.212558
0.000000 0.596368 0.183627
0.000000 0.587091 0.170779
0.000000 0.576501 0.156832
0.000000 0.565179 0.141665
0.009766 0.561975 0.125216
0.092836 0.564965 0.105043
0.169009 0.568109 0.078828
0.235264 0.571008 0.047822
0.298741 0.573816 0.013825
0.363012 0.574212 0.000000
0.427008 0.570642 0.000000
0.489479 0.566217 0.000000
0.550622 0.561089 0.000000
0.632410 0.578424 0.000000
0.706905 0.596368 0.006928
0.766903 0.606256 0.068208
0.820066 0.615412 0.138064
0.865171 0.624170 0.200900
0.902068 0.632868 0.261295
0.931182 0.641566 0.320165
0.953277 0.651514 0.377874
0.970123 0.662196 0.432227
0.981903 0.672908 0.478767
0.989166 0.683925 0.517449
0.994171 0.697169 0.556756
0.997040 0.712398 0.596246
0.998138 0.728939 0.634913
0.000000 0.649378 0.315526
0.000000 0.647089 0.300237
0.000000 0.644800 0.284184
0.000000 0.642206 0.268040
0.000000 0.638087 0.247044
0.000000 0.632441 0.220645
0.000000 0.624811 0.200320
0.000000 0.615412 0.186313
0.000000 0.605066 0.171542
0.000000 0.594141 0.155001
0.058289 0.596857 0.137240
0.140658 0.599817 0.115145
0.209293 0.602533 0.087160
0.272496 0.605310 0.050813
0.334478 0.607660 0.012299
0.398962 0.605554 0.001892
0.462104 0.602197 0.000000
0.523278 0.598230 0.000000
0.583825 0.594079 0.000000
0.663233 0.610712 0.000000
0.735683 0.629023 0.029236
0.792782 0.639063 0.103120
0.841978 0.648188 0.173007
0.882628 0.656550 0.237552
0.914824 0.664759 0.299565
0.939544 0.673365 0.360174
0.958404 0.682643 0.417456
0.972808 0.692592 0.470619
0.983032 0.704005 0.521263
0.988342 0.715145 0.560510
0.991638 0.728206 0.599695
0.993164 0.742824 0.638178
0.000000 0.683833 0.349248
0.000000 0.681941 0.335149
0.000000 0.680079 0.320470
0.000000 0.677882 0.304875
0.000000 0.674769 0.285863
0.000000 0.670222 0.261326
0.000000 0.664363 0.234134
0.000000 0.656275 0.220798
0.000000 0.647242 0.206088
0.000000 0.637201 0.189853
0.033173 0.632227 0.172580
0.118624 0.634882 0.153201
0.189029 0.637476 0.129000
0.252415 0.640040 0.098116
0.313390 0.642390 0.057099
0.376226 0.642756 0.028565
0.439643 0.639918 0.023682
0.500877 0.636500 0.018219
0.560632 0.632990 0.012329
0.619623 0.629328 0.006500
0.695521 0.644282 0.016114
0.765225 0.662257 0.063264
0.817990 0.671260 0.142580
0.862303 0.679591 0.212650
0.897734 0.687098 0.278050
0.925200 0.694697 0.341619
0.946197 0.702632 0.401709
0.962280 0.711147 0.457465
0.974212 0.720851 0.510491
0.982177 0.732326 0.561883
0.986206 0.744228 0.604395
0.988067 0.757168 0.643061
0.000000 0.719509 0.388403
0.000000 0.718318 0.375250
0.000000 0.717250 0.362127
0.000000 0.715846 0.348363
0.000000 0.713375 0.330358
0.000000 0.709712 0.307683
0.000000 0.704952 0.280095
0.000000 0.698116 0.260624
0.000000 0.689967 0.245975
0.000000 0.681056 0.229160
0.021332 0.671229 0.211246
0.104189 0.671321 0.193149
0.175814 0.673426 0.171664
0.238682 0.675563 0.145296
0.298222 0.677852 0.111879
0.357275 0.679957 0.067475
0.422248 0.678126 0.063233
0.484474 0.676204 0.058930
0.545006 0.674220 0.054780
0.604303 0.672358 0.050660
0.662684 0.670375 0.046265
0.735805 0.684749 0.064851
0.801755 0.702235 0.123690
0.848203 0.709926 0.200259
0.886076 0.717311 0.272007
0.914946 0.724147 0.339879
0.936980 0.731014 0.403296
0.953948 0.738155 0.461646
0.966400 0.746456 0.517021
0.974762 0.756191 0.570275
0.979858 0.767300 0.620233
0.982177 0.779019 0.662959
0.000000 0.761929 0.443183
0.000000 0.760464 0.430488
0.000000 0.758694 0.416724
0.000000 0.756741 0.402441
0.000000 0.754116 0.384558
0.000000 0.750698 0.362768
0.000000 0.746700 0.336370
0.000000 0.741756 0.309911
0.000000 0.735042 0.295323
0.000000 0.727810 0.278965
0.042725 0.719661 0.261295
0.117189 0.713466 0.242649
0.182925 0.715328 0.223484
0.241917 0.717098 0.200076
0.298039 0.718776 0.171725
0.353491 0.720424 0.135531
0.415015 0.719173 0.122377
0.475868 0.717006 0.118868
0.534600 0.714626 0.114839
0.591730 0.712245 0.111116
0.647608 0.709651 0.106935
0.702205 0.707027 0.102754
0.768948 0.718135 0.123293
0.828916 0.732967 0.176272
0.868315 0.738033 0.249027
0.900328 0.744015 0.320836
0.924681 0.750088 0.388006
0.943511 0.756222 0.449622
0.957549 0.763180 0.507622
0.967254 0.771420 0.563195
0.973449 0.780941 0.615229
0.976867 0.791592 0.662623
0.078492 0.790982 0.484260
0.063783 0.789792 0.472389
0.048615 0.788510 0.460334
0.031952 0.787076 0.447486
0.011719 0.785061 0.431342
0.000000 0.782528 0.411353
0.000000 0.779477 0.387671
0.000000 0.776059 0.359686
0.000000 0.770993 0.341497
0.013581 0.765164 0.325994
0.077211 0.758602 0.308537
0.138186 0.751247 0.289555
0.193393 0.749416 0.270573
0.247532 0.751003 0.250004
0.299718 0.752560 0.224613
0.351507 0.753994 0.194553
0.409308 0.753628 0.177554
0.468757 0.751766 0.175479
0.526207 0.749722 0.173129
0.581781 0.747646 0.170871
0.635737 0.745449 0.168856
0.688655 0.743221 0.166690
0.739834 0.740841 0.164462
0.800748 0.749874 0.185763
0.852873 0.760952 0.231968
0.885893 0.764065 0.302861
0.912657 0.769284 0.374334
0.933257 0.774563 0.439399
0.948821 0.780240 0.499794
0.959777 0.787076 0.557580
0.966979 0.795285 0.611841
0.971191 0.804654 0.661250
0.198978 0.821897 0.534630
0.191135 0.821347 0.524743
0.181643 0.820432 0.513939
0.169680 0.819242 0.502190
0.154055 0.817502 0.487465
0.133516 0.815274 0.469062
0.104982 0.812619 0.446662
0.067750 0.809751 0.420722
0.052979 0.805936 0.395544
0.099428 0.800687 0.379858
0.142000 0.794797 0.362158
0.181491 0.788449 0.342901
0.218936 0.781582 0.321447
0.264042 0.782223 0.301183
0.308476 0.782773 0.277165
0.354314 0.783291 0.249119
0.406622 0.782620 0.231083
0.463416 0.780545 0.229099
0.518273 0.778653 0.227451
0.572107 0.776913 0.226902
0.624475 0.775113 0.226291
0.675166 0.773159 0.225681
0.724208 0.770809 0.224491
0.771176 0.768124 0.222416
0.825101 0.774594 0.242435
0.872923 0.785336 0.289891
0.899748 0.786648 0.357000
0.922301 0.790799 0.424964
0.939513 0.795377 0.487587
0.951934 0.800931 0.547692
0.960357 0.807828 0.604181
0.965637 0.815976 0.655909
0.265873 0.841428 0.570001
0.259922 0.841154 0.561425
0.252842 0.840757 0.552300
0.244114 0.840085 0.542077
0.232212 0.839109 0.529046
0.217960 0.837858 0.513298
0.201144 0.836454 0.494606
0.180545 0.834775 0.472450
0.155764 0.832975 0.446387
0.176455 0.829618 0.430793
0.206577 0.825467 0.415869
0.236454 0.820920 0.399115
0.266087 0.815793 0.380285
0.299260 0.812711 0.360754
0.337102 0.813199 0.339574
0.375708 0.813596 0.313909
0.422675 0.812772 0.298711
0.474800 0.810697 0.297063
0.525475 0.808713 0.295995
0.575250 0.806729 0.295354
0.623682 0.804807 0.295109
0.671046 0.802731 0.294896
0.716823 0.800504 0.294560
0.760861 0.798184 0.294102
0.803250 0.795682 0.293126
0.850370 0.800443 0.313573
0.891966 0.809934 0.359747
0.913359 0.809995 0.420813
0.931701 0.813748 0.486427
0.945006 0.818173 0.548882
0.954131 0.823819 0.607080
0.959991 0.830686 0.659998
0.344579 0.860960 0.612360
0.338415 0.860777 0.604425
0.332158 0.860441 0.596185
0.324468 0.859983 0.586969
0.314427 0.859373 0.575494
0.302617 0.858579 0.561578
0.287938 0.857664 0.544549
0.271550 0.856565 0.524712
0.252262 0.855406 0.501396
0.245457 0.853574 0.479927
0.265873 0.850492 0.466346
0.288579 0.847044 0.451453
0.312810 0.843137 0.434943
0.337346 0.838834 0.416388
0.367712 0.837980 0.397101
0.400519 0.838132 0.374456
0.443519 0.836881 0.364752
0.490333 0.834897 0.363500
0.536370 0.832975 0.362829
0.581933 0.831144 0.362951
0.626642 0.829374 0.363439
0.670283 0.827543 0.364324
0.712703 0.825650 0.365148
0.753719 0.823636 0.365789
0.793118 0.821500 0.366217
0.830716 0.819272 0.366278
0.871366 0.822965 0.385687
0.907042 0.831144 0.427436
0.923919 0.830350 0.483101
0.938018 0.833524 0.546593
0.947997 0.837980 0.606867
0.954559 0.843473 0.660792
0.415412 0.876921 0.651820
0.409583 0.876768 0.644648
0.403906 0.876616 0.637446
0.397803 0.876432 0.629908
0.390234 0.876219 0.620417
0.381720 0.876066 0.609155
0.372992 0.876005 0.596307
0.362860 0.876036 0.580957
0.352056 0.876158 0.563378
0.340185 0.876310 0.543023
0.353429 0.875151 0.531731
0.372198 0.873503 0.520989
0.391852 0.871489 0.508659
0.411963 0.869047 0.494118
0.433478 0.866697 0.477516
0.459388 0.866850 0.458961
0.498665 0.865141 0.458015
0.537560 0.863371 0.457435
0.576593 0.861631 0.457496
0.615351 0.859922 0.458106
0.653712 0.858213 0.459113
0.691188 0.856474 0.460273
0.727779 0.854612 0.461189
0.763210 0.852628 0.461952
0.797269 0.850553 0.462287
0.829801 0.848478 0.462440
0.860838 0.846433 0.462501
0.893767 0.849027 0.480415
0.922240 0.855467 0.518791
0.933837 0.854063 0.569238
0.943236 0.856352 0.625666
0.949828 0.860349 0.678004
0.507408 0.893645 0.701839
0.502861 0.893675 0.696284
0.497627 0.893645 0.690181
0.492012 0.893553 0.683742
0.485237 0.893462 0.675837
0.477119 0.893339 0.666133
0.468177 0.893278 0.654627
0.458045 0.893217 0.641108
0.446723 0.893278 0.625208
0.434363 0.893370 0.606836
0.428595 0.892973 0.589563
0.439246 0.891478 0.578515
0.451148 0.889769 0.565972
0.464454 0.887785 0.551904
