20 Preset/Dark Portrait/【3】LUT video cho PR-AE-FCPX/Tone  (10).cube
# Created by Adobe Lightroom plugin Export LUT (1.22.0)
# www.johnrellis.com/lightroom/exportlut.htm
# Preset: Milestone_04
# Color profile: C:\Program Files (x86)\Common Files\Adobe\Color\Profiles\VideoHD.icc
LUT_3D_SIZE 8
DOMAIN_MIN 0.000000 0.000000 0.000000
DOMAIN_MAX 0.903226 0.903226 0.903226
0.020356 0.010956 0.014282
0.083742 0.010498 0.021485
0.256779 0.000000 0.028717
0.490303 0.000000 0.055848
0.715358 0.000000 0.117769
0.881254 0.000000 0.204685
0.995026 0.144259 0.315740
1.000000 0.385107 0.475685
0.021912 0.042878 0.027192
0.060792 0.036255 0.018280
0.250340 0.044953 0.021393
0.477119 0.027375 0.043549
0.699458 0.013306 0.102235
0.865110 0.070253 0.190402
0.987030 0.222812 0.310155
1.000000 0.402869 0.461799
0.000000 0.168704 0.051118
0.030976 0.145449 0.024781
0.170138 0.150210 0.007599
0.462928 0.208865 0.016175
0.706508 0.218906 0.083864
0.874968 0.259678 0.192660
0.990478 0.363073 0.333715
1.000000 0.491432 0.486397
0.000000 0.364630 0.125551
0.000000 0.335180 0.056794
0.102419 0.326726 0.020142
0.342321 0.340429 0.000000
0.671015 0.418036 0.025147
0.885527 0.449195 0.202548
0.977630 0.498054 0.348180
1.000000 0.575921 0.498573
0.000000 0.556451 0.236332
0.000000 0.534722 0.155215
0.000000 0.495399 0.096468
0.244053 0.512108 0.008057
0.498543 0.508141 0.000000
0.784695 0.569085 0.092927
0.943694 0.610407 0.329107
0.994903 0.659571 0.508354
0.000000 0.719509 0.388403
0.000000 0.713375 0.330358
0.000000 0.689967 0.245975
0.175814 0.673426 0.171664
0.422248 0.678126 0.063233
0.662684 0.670375 0.046265
0.886076 0.717311 0.272007
0.966400 0.746456 0.517021
0.265873 0.841428 0.570001
0.232212 0.839109 0.529046
0.155764 0.832975 0.446387
0.266087 0.815793 0.380285
0.422675 0.812772 0.298711
0.623682 0.804807 0.295109
0.803250 0.795682 0.293126
0.931701 0.813748 0.486427
0.569268 0.904692 0.736019
0.551690 0.905028 0.715633
0.521752 0.905791 0.675898
0.514549 0.904784 0.623377
0.565393 0.893736 0.580163
0.683864 0.888884 0.587274
0.796262 0.883391 0.595209
0.892576 0.876860 0.596918
0.027924 0.016419 0.091005
0.085634 0.022004 0.047791
0.233951 0.018341 0.060121
0.476173 0.000000 0.064576
0.708064 0.000000 0.108278
0.868009 0.046967 0.193088
0.985931 0.202243 0.307195
1.000000 0.379065 0.452064
0.038849 0.054505 0.064912
0.095094 0.057343 0.056764
0.209934 0.076387 0.066651
0.457557 0.103670 0.077028
0.706020 0.103883 0.097871
0.863645 0.157626 0.187045
0.978485 0.262486 0.301823
1.000000 0.407233 0.444984
0.053529 0.184634 0.128634
0.097749 0.150729 0.085878
0.169955 0.135622 0.061494
0.434730 0.223453 0.075441
0.711971 0.254673 0.080659
0.866850 0.290501 0.184787
0.976196 0.366888 0.311467
1.000000 0.482429 0.462654
0.073610 0.359716 0.222110
0.081941 0.327337 0.158480
0.171084 0.297154 0.115969
0.322271 0.302708 0.063569
0.640314 0.405249 0.038758
0.862303 0.439307 0.177218
0.964263 0.485451 0.318395
1.000000 0.561578 0.472023
0.074647 0.549157 0.333288
0.047761 0.525017 0.266972
0.127077 0.480812 0.195193
0.288914 0.478706 0.144289
0.488746 0.486152 0.037598
0.774563 0.562493 0.081209
0.936950 0.605432 0.312963
0.992828 0.654719 0.495521
0.184298 0.708034 0.465583
0.149264 0.696162 0.412573
0.113649 0.674037 0.325322
0.265599 0.649531 0.266667
0.445594 0.659113 0.186679
0.665736 0.668391 0.043702
0.884550 0.715297 0.267948
0.965270 0.743801 0.508751
0.374731 0.831601 0.616785
0.343999 0.827054 0.578332
0.293187 0.819577 0.507317
0.332769 0.803372 0.437385
0.455604 0.799710 0.368933
0.620844 0.800046 0.282780
0.799069 0.789914 0.277440
0.929870 0.808286 0.471748
0.614832 0.899657 0.760433
0.601678 0.899931 0.744442
0.575525 0.900267 0.711330
0.553521 0.900267 0.659113
0.591485 0.894774 0.610224
0.688197 0.889982 0.593317
0.796445 0.883238 0.594598
0.893217 0.876585 0.595911
0.016083 0.035798 0.301152
0.191073 0.079042 0.204440
0.264103 0.090761 0.170993
0.483345 0.124727 0.220249
0.667170 0.144533 0.228916
0.874784 0.167056 0.240269
0.996765 0.282078 0.330602
1.000000 0.436255 0.475837
0.000000 0.088716 0.239628
0.174166 0.131624 0.195224
0.255955 0.157351 0.176364
0.410742 0.183688 0.201236
0.649683 0.229587 0.241093
0.857969 0.269474 0.263340
0.988006 0.333623 0.324346
1.000000 0.460975 0.470710
0.074556 0.232914 0.232395
0.191836 0.241062 0.222049
0.261082 0.222568 0.187900
0.430091 0.276493 0.228122
0.653376 0.338415 0.270390
0.850553 0.378241 0.290227
0.982452 0.416052 0.331701
1.000000 0.517082 0.480018
0.133455 0.429816 0.347173
0.244755 0.397284 0.310338
0.261784 0.336553 0.234104
0.361791 0.331762 0.204166
0.622950 0.440345 0.271611
0.842557 0.501274 0.322850
0.971435 0.522423 0.345251
1.000000 0.591882 0.495766
0.247562 0.581445 0.447486
0.307286 0.554467 0.415320
0.273350 0.514244 0.322698
0.360601 0.487404 0.279118
0.504936 0.488319 0.230625
0.765896 0.584985 0.279850
0.941588 0.624170 0.332280
0.992889 0.670497 0.514244
0.361761 0.720882 0.566949
0.373327 0.705928 0.534752
0.338903 0.682460 0.458869
0.367437 0.641962 0.382086
0.491554 0.648035 0.336522
0.666224 0.658625 0.257542
0.890745 0.723049 0.284947
0.966796 0.751339 0.526360
0.526635 0.833219 0.699672
0.505272 0.828855 0.671839
0.465888 0.820676 0.616876
0.440558 0.806088 0.537011
0.517937 0.793881 0.480873
0.649470 0.797208 0.410986
0.812131 0.797330 0.298985
0.934691 0.816190 0.501549
0.688808 0.896788 0.799008
0.676722 0.896361 0.786862
0.656947 0.896025 0.763851
0.630549 0.896880 0.722286
0.644465 0.891722 0.678767
0.700008 0.890959 0.619165
0.801053 0.885405 0.605890
0.896422 0.878843 0.607355
0.068116 0.138308 0.552728
0.306889 0.187106 0.510277
0.379004 0.264286 0.355077
0.502953 0.257511 0.373327
0.702358 0.324041 0.434272
0.829099 0.361578 0.443610
0.943084 0.418524 0.468696
1.000000 0.459724 0.483253
0.000000 0.168002 0.506188
0.273686 0.250431 0.457801
0.375128 0.304692 0.348577
0.490211 0.320775 0.378027
0.656580 0.367987 0.421851
0.786069 0.404303 0.440345
0.932616 0.461128 0.479927
1.000000 0.490059 0.486122
0.000000 0.316655 0.479591
0.098268 0.298772 0.443214
0.394110 0.359167 0.394842
0.477028 0.376532 0.380835
0.613275 0.412085 0.410132
0.782650 0.479988 0.469154
0.928252 0.537133 0.513725
1.000000 0.548730 0.505821
0.199985 0.482063 0.483253
0.308232 0.480751 0.466072
0.411658 0.472236 0.436957
0.464698 0.435920 0.381109
0.623896 0.502739 0.447608
0.780270 0.558343 0.495247
0.916442 0.601312 0.527153
1.000000 0.607813 0.513817
0.339788 0.645350 0.585504
0.399176 0.621973 0.554864
0.463600 0.586481 0.512261
0.454322 0.529900 0.425269
0.551415 0.530358 0.399756
0.757443 0.627802 0.491920
0.905943 0.685115 0.558648
0.994293 0.684688 0.538659
0.448432 0.760494 0.670069
0.490120 0.749020 0.655451
0.526696 0.722774 0.620386
0.487770 0.682948 0.526543
0.555718 0.663691 0.484260
0.679316 0.666896 0.444587
0.869413 0.742580 0.517296
0.969726 0.760128 0.553765
0.572961 0.847623 0.756130
0.601465 0.840635 0.748714
0.623255 0.829404 0.729549
0.580133 0.817777 0.664851
0.589136 0.796475 0.598047
0.684810 0.798123 0.557427
0.813138 0.798550 0.481422
0.939696 0.822843 0.533867
0.711391 0.903105 0.825559
0.732082 0.900114 0.824735
0.746578 0.896422 0.818601
0.724605 0.895201 0.792142
0.706752 0.891936 0.750759
0.739986 0.888334 0.712581
0.807553 0.887633 0.641047
0.900725 0.882048 0.623835
0.271397 0.307713 0.741634
0.423743 0.350927 0.720333
0.550103 0.410742 0.657282
0.577600 0.445655 0.552789
0.698299 0.463081 0.583307
0.833188 0.527092 0.631525
0.913695 0.561517 0.640894
0.970397 0.615534 0.666072
0.215732 0.352209 0.714992
0.411658 0.410163 0.692897
0.543969 0.455665 0.648402
0.567864 0.477119 0.544549
0.682216 0.502342 0.582330
0.807828 0.552422 0.624659
0.894743 0.587549 0.642390
0.956970 0.639368 0.672999
0.000000 0.366125 0.706477
0.167880 0.383795 0.678004
0.504448 0.487495 0.626673
0.560143 0.511772 0.539727
0.663539 0.542290 0.580255
0.768215 0.567010 0.602106
0.867491 0.607752 0.632929
0.949126 0.661311 0.674983
0.215427 0.552117 0.673884
0.313085 0.547326 0.651637
0.415717 0.539208 0.621668
0.587396 0.572168 0.579980
0.644465 0.573114 0.572412
0.748074 0.603357 0.599908
0.864652 0.658961 0.652308
0.948058 0.697078 0.684291
0.403723 0.667933 0.674556
0.460792 0.667506 0.665766
0.537285 0.662593 0.650263
0.594354 0.641840 0.613489
0.624018 0.608118 0.561913
0.764675 0.676081 0.635584
0.867338 0.716579 0.674739
0.945190 0.740291 0.693812
0.516808 0.785061 0.750973
0.544945 0.775235 0.737026
0.576440 0.755001 0.709255
0.614405 0.724300 0.668605
0.596796 0.673671 0.583673
0.698268 0.686397 0.575067
0.852842 0.765377 0.672389
0.935637 0.795132 0.717250
0.635401 0.858793 0.807279
0.650355 0.853605 0.800443
0.671504 0.844419 0.788174
0.702907 0.830137 0.769924
0.663661 0.808988 0.701564
0.710903 0.796567 0.662867
0.806699 0.796384 0.624598
0.919097 0.830686 0.676204
0.713405 0.907408 0.846708
0.726589 0.905333 0.844388
0.752743 0.901091 0.841093
0.790677 0.895476 0.838712
0.771267 0.892027 0.810697
0.772580 0.885435 0.777401
0.821012 0.884733 0.744228
0.899535 0.881865 0.661769
0.521355 0.526177 0.848234
0.595514 0.552117 0.840330
0.674647 0.577722 0.824949
0.728450 0.631983 0.769863
0.742092 0.619501 0.721218
0.825864 0.642969 0.742885
0.890990 0.695003 0.768154
0.934295 0.724941 0.779171
0.495460 0.549767 0.832609
0.573419 0.573480 0.823545
0.658106 0.600763 0.808164
0.716884 0.637446 0.760891
0.727871 0.630701 0.709804
0.812741 0.660670 0.738705
0.879179 0.705501 0.764645
0.926024 0.735531 0.779446
0.367681 0.550591 0.833951
0.511986 0.591516 0.819699
0.641230 0.637293 0.799863
0.712825 0.660334 0.763699
0.721370 0.657893 0.708370
0.802945 0.692256 0.742336
0.866209 0.724575 0.764462
0.916472 0.753719 0.783108
0.361273 0.638911 0.824765
0.405524 0.631525 0.817288
0.481971 0.620386 0.805325
0.703395 0.696681 0.773892
0.730587 0.702510 0.724636
0.801419 0.733577 0.756283
0.855894 0.747799 0.767330
0.909117 0.775906 0.789059
0.495827 0.734646 0.805509
0.533959 0.733394 0.798215
0.584222 0.730037 0.786038
0.640955 0.722621 0.768734
0.734127 0.730037 0.736385
0.776852 0.731533 0.734218
0.844053 0.757687 0.757992
0.908110 0.793149 0.790249
0.594202 0.796933 0.802731
0.624781 0.798276 0.800809
0.662593 0.797726 0.795682
0.710933 0.793912 0.786404
0.737087 0.774746 0.758206
0.760555 0.753933 0.724758
0.855436 0.806149 0.784512
0.912718 0.825864 0.802426
0.718227 0.871336 0.850217
0.728847 0.871550 0.848783
0.745907 0.866789 0.842374
0.766201 0.858671 0.831632
0.783322 0.844083 0.813260
0.761349 0.814511 0.761318
0.822507 0.816526 0.749386
0.906493 0.854124 0.800107
0.763729 0.910521 0.873838
0.772885 0.909056 0.871885
0.786709 0.906645 0.868620
0.806455 0.903441 0.864195
0.827787 0.898100 0.857237
0.816403 0.891234 0.830808
0.840696 0.886168 0.811795
0.892576 0.884215 0.783688
0.682612 0.681514 0.881773
0.718746 0.696742 0.878660
0.760647 0.711696 0.872831
0.804105 0.736233 0.858915
0.818173 0.771115 0.824979
0.834958 0.746975 0.813291
0.880034 0.764675 0.823392
0.913756 0.791867 0.833585
0.673304 0.694789 0.875364
0.710079 0.708705 0.872221
0.752529 0.722499 0.866270
0.795956 0.739773 0.854826
0.812741 0.768307 0.821530
0.824643 0.746456 0.805417
0.871214 0.764584 0.817380
0.906828 0.788479 0.827512
0.650446 0.712215 0.875944
0.706874 0.736629 0.869657
0.750393 0.748531 0.863249
0.793851 0.760708 0.854246
0.815000 0.777798 0.825803
0.822080 0.764370 0.806760
0.868681 0.786587 0.822904
0.903807 0.807065 0.833677
0.566369 0.720882 0.879850
0.620630 0.731136 0.875364
0.716274 0.760220 0.865324
0.788083 0.785275 0.854398
0.820768 0.794736 0.836179
0.825193 0.790280 0.814054
0.868467 0.810941 0.830777
0.901579 0.824216 0.839353
0.628107 0.784543 0.869505
0.645014 0.783108 0.866667
0.669062 0.779568 0.862303
0.701961 0.772610 0.857450
0.806363 0.802396 0.839933
0.820127 0.803128 0.813535
0.863584 0.823850 0.831815
0.898894 0.836362 0.841550
0.686580 0.831083 0.863920
0.703639 0.831601 0.861997
0.728084 0.831876 0.858579
0.758602 0.831571 0.853269
0.788724 0.828428 0.845365
0.832364 0.828763 0.829953
0.859831 0.834806 0.831754
0.899290 0.850431 0.844724
0.741115 0.867063 0.865629
0.755123 0.867918 0.864988
0.774716 0.868833 0.863584
0.799680 0.870115 0.861753
0.826200 0.869535 0.857969
0.840970 0.861021 0.846036
0.851530 0.847074 0.827298
0.906126 0.875059 0.855619
0.802731 0.907958 0.889525
0.812894 0.907958 0.889281
0.828275 0.908782 0.889372
0.840391 0.910063 0.888548
0.855741 0.907408 0.883970
0.869963 0.903044 0.877134
0.864775 0.892607 0.855772
0.897978 0.892424 0.847868
0.796963 0.796262 0.899229
0.810208 0.801144 0.898161
0.825589 0.803922 0.895659
0.847684 0.810422 0.892576
0.867613 0.826688 0.880369
0.872313 0.839628 0.864134
0.886229 0.826352 0.861021
0.911345 0.835355 0.865690
0.795529 0.803220 0.897002
0.807858 0.806912 0.895842
0.824125 0.810452 0.893614
0.845365 0.815824 0.890440
0.865873 0.828641 0.880156
0.870787 0.841917 0.863096
0.883055 0.828122 0.859281
0.908659 0.837552 0.864683
0.793271 0.814267 0.895811
0.807004 0.818601 0.894285
0.822599 0.821225 0.891966
0.845060 0.827573 0.889281
0.865110 0.834531 0.881559
0.870573 0.847715 0.863218
0.881163 0.835264 0.859464
0.906737 0.845212 0.865934
0.758267 0.811154 0.898802
0.786099 0.821775 0.896513
0.818784 0.834806 0.892576
0.843900 0.841825 0.889433
0.865171 0.845548 0.885435
0.876310 0.855802 0.870024
0.882872 0.849332 0.863523
0.907073 0.858885 0.870542
0.750240 0.830350 0.898466
0.763088 0.832517 0.897734
0.779232 0.833860 0.896300
0.825650 0.847349 0.891966
0.860655 0.857816 0.886656
0.879667 0.862852 0.877836
0.884794 0.863005 0.867796
0.908354 0.873503 0.876219
0.783871 0.863035 0.897795
0.792416 0.863859 0.897002
0.805478 0.864988 0.895659
0.824369 0.867063 0.893858
0.846464 0.869474 0.891875
0.881865 0.878141 0.886778
0.890684 0.879881 0.875303
0.909697 0.886564 0.881468
0.806119 0.886412 0.898100
0.813596 0.886992 0.897459
0.824704 0.887755 0.896300
0.840391 0.889036 0.894652
0.857816 0.890166 0.892332
0.874998 0.890562 0.889220
0.893156 0.888701 0.882567
0.908659 0.893309 0.882628
0.817716 0.903746 0.898650
0.824460 0.903990 0.898070
0.835172 0.904479 0.897215
0.850767 0.905547 0.896239
0.868284 0.907347 0.895628
0.885130 0.908843 0.894652
0.899382 0.908446 0.892058
0.907774 0.903380 0.884367
