20 Preset/Dark Portrait/【3】LUT video cho PR-AE-FCPX/Tone  (10).cube
# Created by Adobe Lightroom plugin Export LUT (1.22.0)
# www.johnrellis.com/lightroom/exportlut.htm
# Preset: Milestone_04
# Color profile: C:\Program Files (x86)\Common Files\Adobe\Color\Profiles\VideoHD.icc
LUT_3D_SIZE 5
DOMAIN_MIN 0.000000 0.000000 0.000000
DOMAIN_MAX 0.903226 0.903226 0.903226
0.020356 0.010956 0.014282
0.205631 0.000000 0.025818
0.608942 0.000000 0.082490
0.914916 0.000000 0.229862
1.000000 0.385107 0.475685
0.000000 0.130129 0.042298
0.138674 0.114687 0.011109
0.609400 0.168978 0.052430
0.911315 0.240391 0.225467
1.000000 0.476204 0.487556
0.000000 0.467536 0.178317
0.000000 0.404578 0.062287
0.423316 0.428595 0.000000
0.883543 0.521782 0.207095
1.000000 0.614862 0.499397
0.000000 0.761929 0.443183
0.000000 0.741756 0.309911
0.298039 0.718776 0.171725
0.702205 0.707027 0.102754
0.957549 0.763180 0.507622
0.569268 0.904692 0.736019
0.530510 0.905516 0.688380
0.508843 0.898283 0.577508
0.713191 0.887602 0.589685
0.892576 0.876860 0.596918
0.018952 0.025391 0.233860
0.206394 0.058473 0.127260
0.558556 0.088411 0.176120
0.912261 0.145571 0.226596
1.000000 0.413489 0.462287
0.060548 0.177218 0.179294
0.211643 0.172152 0.146090
0.545068 0.262028 0.205325
0.910552 0.314794 0.225467
1.000000 0.491524 0.472328
0.160769 0.489387 0.357977
0.215366 0.418158 0.248264
0.414252 0.392554 0.174777
0.865782 0.536828 0.239078
1.000000 0.630793 0.505241
0.394171 0.760800 0.595087
0.346166 0.739071 0.503593
0.428382 0.700374 0.382757
0.714351 0.708095 0.212772
0.958709 0.768460 0.520348
0.680049 0.899168 0.793973
0.653559 0.898833 0.764706
0.622248 0.896788 0.689540
0.724361 0.890990 0.608118
0.897398 0.880613 0.615839
0.163821 0.218418 0.658198
0.461830 0.314244 0.557305
0.613428 0.361059 0.485115
0.856565 0.455665 0.545251
0.997589 0.549798 0.587793
0.000000 0.286046 0.612757
0.420417 0.395544 0.531731
0.584375 0.456580 0.490272
0.795163 0.510033 0.532372
0.986114 0.605188 0.605097
0.302495 0.578058 0.581811
0.455573 0.572869 0.554803
0.546624 0.524865 0.473732
0.799130 0.630426 0.577630
0.975158 0.683680 0.616602
0.521233 0.799741 0.735470
0.569574 0.775509 0.702449
0.558679 0.715572 0.585016
0.717769 0.706416 0.523278
0.948241 0.784360 0.620966
0.700496 0.905119 0.833219
0.746578 0.898833 0.831083
0.745388 0.892668 0.799527
0.765530 0.885588 0.735653
0.901152 0.880980 0.618921
0.551110 0.554070 0.856199
0.670710 0.597253 0.841611
0.747372 0.680049 0.761318
0.841550 0.674220 0.765621
0.927092 0.740383 0.793668
0.478981 0.586389 0.844938
0.648676 0.646296 0.823972
0.745022 0.695216 0.763119
0.823301 0.708125 0.763485
0.913237 0.759548 0.794339
0.435859 0.691585 0.828214
0.503960 0.680232 0.814145
0.724025 0.717403 0.773739
0.800900 0.740688 0.758297
0.900237 0.786587 0.796262
0.644892 0.821317 0.824918
0.687373 0.820554 0.819303
0.756619 0.816312 0.807126
0.786954 0.781369 0.756283
0.908568 0.838285 0.816526
0.775204 0.911315 0.879698
0.794522 0.908904 0.876280
0.826444 0.903807 0.868833
0.830350 0.891905 0.838010
0.892515 0.885161 0.802121
0.796963 0.796262 0.899229
0.821012 0.802884 0.896361
0.859098 0.818143 0.887480
0.874998 0.836912 0.863493
0.911345 0.835355 0.865690
0.797818 0.814206 0.896086
0.820096 0.818814 0.893278
0.856657 0.827695 0.887816
0.873503 0.844602 0.863066
0.907988 0.844938 0.866636
0.733211 0.811826 0.899687
0.784756 0.825711 0.895354
0.849210 0.846769 0.886931
0.875303 0.858854 0.866545
0.906950 0.864958 0.872465
0.797024 0.872160 0.898619
0.813748 0.873838 0.897032
0.843259 0.876677 0.893797
0.885466 0.881559 0.886198
0.909667 0.888945 0.882292
0.817716 0.903746 0.898650
0.832029 0.904326 0.897429
0.859556 0.906493 0.895964
0.889555 0.908965 0.894194
0.907774 0.903380 0.884367
