20 Preset/Dark Portrait/【3】LUT video cho PR-AE-FCPX/Tone  (6).cube
# Created by Adobe Lightroom plugin Export LUT (1.22.0)
# www.johnrellis.com/lightroom/exportlut.htm
# Preset: Horizon_03
# Color profile: C:\Program Files (x86)\Common Files\Adobe\Color\Profiles\VideoHD.icc
LUT_3D_SIZE 8
DOMAIN_MIN 0.000000 0.000000 0.000000
DOMAIN_MAX 0.903226 0.903226 0.903226
0.053223 0.034180 0.035981
0.098390 0.031647 0.037018
0.209415 0.033631 0.041901
0.354314 0.049378 0.053956
0.494697 0.091707 0.076326
0.655360 0.171939 0.124910
0.789670 0.255009 0.184604
0.907561 0.338537 0.254520
0.052461 0.041627 0.037049
0.118318 0.058412 0.040528
0.243809 0.081544 0.051148
0.386999 0.113252 0.066072
0.521324 0.157534 0.094850
0.665187 0.225101 0.143008
0.786923 0.293462 0.199100
0.901518 0.368994 0.268254
0.065126 0.096651 0.048280
0.143832 0.123537 0.053040
0.298802 0.175875 0.068605
0.459724 0.230289 0.115236
0.598749 0.279210 0.156435
0.726497 0.335485 0.207675
0.850278 0.405432 0.275517
0.949584 0.471931 0.345190
0.087160 0.196658 0.074769
0.171237 0.218936 0.076448
0.316014 0.272221 0.104158
0.517876 0.368170 0.163821
0.689296 0.452796 0.261784
0.805814 0.500877 0.326574
0.896025 0.537896 0.377844
0.974029 0.583154 0.437995
0.121126 0.301091 0.117006
0.199435 0.320104 0.120607
0.327367 0.372320 0.145876
0.512932 0.470802 0.215640
0.696498 0.557214 0.297917
0.816739 0.605921 0.391760
0.916228 0.662074 0.485481
0.986145 0.696407 0.542962
0.176181 0.445716 0.187839
0.252079 0.473213 0.198795
0.354742 0.504326 0.209506
0.517754 0.581933 0.275120
0.703334 0.673304 0.375494
0.850095 0.729061 0.476844
0.936065 0.766079 0.576104
0.999725 0.811917 0.669062
0.235782 0.606195 0.275914
0.301488 0.622858 0.284550
0.392340 0.644312 0.295720
0.530938 0.693202 0.344610
0.702083 0.762753 0.446265
0.866361 0.829862 0.572198
0.954376 0.853086 0.657038
0.999786 0.871641 0.728206
0.333135 0.767300 0.394690
0.386633 0.776852 0.403632
0.467384 0.792844 0.419898
0.578454 0.817655 0.451148
0.726833 0.853086 0.537896
0.877867 0.902068 0.663722
0.978027 0.939544 0.783658
1.000000 0.940581 0.825467
0.050843 0.039368 0.049439
0.099947 0.044282 0.068269
0.199130 0.051698 0.075319
0.327733 0.072267 0.092317
0.466316 0.120790 0.123629
0.603449 0.183444 0.162478
0.729732 0.250034 0.204959
0.853147 0.324956 0.258640
0.061555 0.063081 0.065675
0.116701 0.080201 0.082429
0.227024 0.103609 0.100282
0.362402 0.134127 0.121126
0.497810 0.178347 0.150210
0.623926 0.231907 0.184695
0.740566 0.289799 0.224369
0.858915 0.359503 0.277348
0.085664 0.118776 0.096162
0.138399 0.145968 0.107240
0.279942 0.190951 0.131472
0.423468 0.235904 0.172915
0.553948 0.277501 0.201785
0.673121 0.324254 0.236454
0.788296 0.379919 0.280919
0.900114 0.445991 0.339147
0.104402 0.207706 0.133272
0.161746 0.231418 0.136019
0.287602 0.272343 0.153384
0.477150 0.356664 0.211673
0.621118 0.417578 0.278813
0.735470 0.460426 0.322850
0.835752 0.499672 0.363622
0.929778 0.550256 0.418677
0.139193 0.317021 0.178683
0.199771 0.339239 0.182071
0.305058 0.372137 0.190982
0.476570 0.453223 0.249454
0.653895 0.536034 0.321294
0.775967 0.586938 0.402075
0.882689 0.644434 0.483406
0.961151 0.679652 0.534783
0.180240 0.446906 0.235355
0.240879 0.466102 0.239841
0.335943 0.495552 0.249699
0.483955 0.559686 0.295323
0.668788 0.653437 0.390295
0.827176 0.722835 0.493416
0.917235 0.760525 0.583673
0.986267 0.805509 0.668452
0.223728 0.592798 0.304173
0.282200 0.604150 0.307897
0.368811 0.624689 0.316838
0.493446 0.664668 0.345617
0.670649 0.742641 0.446479
0.840055 0.814725 0.566888
0.937591 0.842985 0.651179
0.988067 0.861265 0.717494
0.314153 0.754788 0.410193
0.369055 0.766171 0.419898
0.448585 0.782345 0.434668
0.558221 0.807675 0.462135
0.719448 0.855192 0.556847
0.869444 0.901274 0.673579
0.971801 0.937865 0.784604
1.000000 0.940887 0.829313
0.046845 0.078981 0.120607
0.110292 0.097688 0.147555
0.228977 0.099550 0.178347
0.362707 0.125978 0.187778
0.443763 0.130129 0.173617
0.576959 0.191226 0.208804
0.708400 0.262272 0.251347
0.838041 0.339147 0.301488
0.076265 0.122652 0.147097
0.143313 0.140658 0.166079
0.236881 0.149935 0.189212
0.351324 0.161532 0.188632
0.473884 0.195224 0.206943
0.599390 0.249149 0.239536
0.722744 0.309880 0.277348
0.847105 0.376989 0.322637
0.100526 0.172671 0.172305
0.166049 0.189883 0.187655
0.259342 0.214939 0.208621
0.402045 0.261723 0.242741
0.532311 0.302464 0.269017
0.650965 0.346227 0.296391
0.766262 0.396887 0.330510
0.879606 0.456123 0.375738
0.140078 0.241001 0.204288
0.198001 0.262242 0.220035
0.285740 0.306554 0.244419
0.461952 0.389471 0.297368
0.606348 0.450782 0.357549
0.716152 0.484993 0.385260
0.820645 0.524010 0.418463
0.917693 0.569482 0.461372
0.187289 0.348699 0.259098
0.235172 0.369818 0.269810
0.309941 0.404211 0.281407
0.451514 0.466133 0.314000
0.640864 0.563287 0.397772
0.761227 0.611322 0.465614
0.864530 0.658869 0.525444
0.947814 0.691951 0.567102
0.213443 0.464240 0.307805
0.259709 0.483162 0.315038
0.332921 0.511772 0.322911
0.448920 0.551690 0.337560
0.634821 0.645258 0.428504
0.804593 0.727108 0.532891
0.901488 0.769100 0.617060
0.977478 0.817929 0.698939
0.243748 0.606439 0.371221
0.293187 0.619501 0.376318
0.367895 0.638788 0.383093
0.477058 0.669429 0.398413
0.643397 0.736141 0.474586
0.820066 0.813809 0.594629
0.931487 0.854734 0.687739
0.985443 0.876097 0.752163
0.305638 0.753811 0.452003
0.357977 0.763363 0.460090
0.435187 0.780087 0.473732
0.545464 0.808286 0.502281
0.689601 0.846525 0.563867
0.854124 0.899229 0.686122
0.964813 0.939269 0.796078
1.000000 0.945678 0.845670
0.043946 0.168154 0.241794
0.136995 0.189975 0.266270
0.238254 0.202335 0.288579
0.380255 0.202976 0.316289
0.524865 0.256779 0.335088
0.564843 0.227298 0.284215
0.634333 0.230259 0.267094
0.772976 0.303532 0.310491
0.106386 0.220279 0.271946
0.180575 0.235538 0.286931
0.280430 0.259068 0.307713
0.390204 0.252811 0.330449
0.513756 0.284977 0.333715
0.553552 0.248875 0.283146
0.662257 0.286961 0.299351
0.793698 0.352636 0.339147
0.136477 0.261082 0.285466
0.205875 0.276799 0.299016
0.298863 0.303807 0.321386
0.394812 0.316381 0.341070
0.501244 0.324041 0.334447
0.598657 0.340429 0.335485
0.724178 0.394415 0.368566
0.844511 0.447333 0.402350
0.179568 0.329473 0.317113
0.238926 0.343175 0.328038
0.319341 0.362829 0.343206
0.416236 0.391180 0.364385
0.549340 0.446479 0.403021
0.661372 0.476173 0.420874
0.773617 0.513634 0.445869
0.883360 0.558068 0.479805
0.228122 0.401343 0.346441
0.274937 0.411994 0.354803
0.341436 0.431769 0.369268
0.432990 0.482704 0.399756
0.598962 0.570825 0.462165
0.736538 0.633875 0.531273
0.838499 0.667659 0.565515
0.926879 0.694209 0.592920
0.255009 0.494423 0.387518
0.297734 0.515435 0.401801
0.359045 0.540154 0.415869
0.451118 0.581323 0.436713
0.597253 0.646479 0.482155
0.784878 0.743984 0.593866
0.885771 0.784146 0.663294
0.965087 0.825162 0.725002
0.253178 0.614252 0.435950
0.301610 0.628931 0.445716
0.375433 0.652583 0.460883
0.474281 0.687404 0.481331
0.601740 0.728939 0.508537
0.793301 0.813596 0.629175
0.920928 0.865537 0.726436
0.979309 0.887785 0.784268
0.287572 0.759976 0.508141
0.344121 0.770565 0.518242
0.426307 0.786740 0.534325
0.531518 0.811490 0.558648
0.650233 0.838987 0.585657
0.824735 0.892882 0.694636
0.951965 0.939117 0.808957
0.997498 0.951873 0.867124
0.091218 0.290166 0.385657
0.187289 0.310369 0.404028
0.302434 0.343420 0.430976
0.388739 0.339910 0.445869
0.517632 0.330449 0.456153
0.654444 0.396765 0.475959
0.694179 0.356634 0.416754
0.725582 0.291600 0.346777
0.161410 0.335882 0.407752
0.233219 0.354986 0.424933
0.327672 0.380835 0.445380
0.411658 0.386419 0.456336
0.519188 0.366217 0.462593
0.650843 0.425910 0.481331
0.686030 0.371588 0.414984
0.716976 0.297642 0.339391
0.202609 0.380438 0.424720
0.265202 0.395087 0.435981
0.342809 0.412940 0.448829
0.440803 0.441444 0.468086
0.513878 0.408789 0.464179
0.625513 0.439734 0.466102
0.665766 0.382422 0.402502
0.754879 0.379706 0.386938
0.233829 0.429267 0.439368
0.287114 0.441169 0.448463
0.360815 0.459480 0.461799
0.450721 0.484352 0.479072
0.528588 0.490852 0.487434
0.612848 0.475196 0.464698
0.696986 0.464912 0.444892
0.818906 0.503319 0.467506
0.265293 0.486030 0.457130
0.309545 0.494881 0.463813
0.372930 0.507744 0.473213
0.452308 0.525811 0.486519
0.537530 0.545129 0.499916
0.670588 0.604395 0.545495
0.777951 0.625544 0.558343
0.883604 0.653803 0.579828
0.276310 0.531121 0.462287
0.312596 0.537407 0.466896
0.363470 0.543481 0.470436
0.433997 0.557946 0.480049
0.534691 0.610986 0.515007
0.719692 0.716274 0.606287
0.854002 0.781003 0.689601
0.939849 0.808804 0.724117
0.282261 0.617731 0.498054
0.313848 0.625269 0.502312
0.364843 0.640253 0.511009
0.450446 0.673884 0.534112
0.567102 0.720363 0.567773
0.726711 0.784634 0.629908
0.894530 0.862699 0.747341
0.963745 0.886259 0.798337
0.241428 0.741329 0.548180
0.279850 0.748440 0.550683
0.358190 0.763851 0.562127
0.484871 0.796292 0.596063
0.614557 0.829862 0.631800
0.757076 0.868956 0.678950
0.923522 0.929473 0.806943
0.989166 0.952941 0.878325
0.211795 0.465370 0.572992
0.288487 0.484565 0.586511
0.381262 0.505882 0.597192
0.475380 0.526787 0.608881
0.536950 0.499397 0.602136
0.643153 0.475898 0.596277
0.764889 0.540734 0.612543
0.825345 0.523339 0.575067
0.244358 0.478462 0.564172
0.302831 0.490608 0.572290
0.384558 0.510704 0.584283
0.485267 0.542504 0.602167
0.537865 0.517967 0.596796
0.636408 0.492561 0.592401
0.757626 0.554314 0.610773
0.814420 0.523735 0.566003
0.291264 0.524804 0.584131
0.340307 0.533959 0.589563
0.410681 0.549187 0.598047
0.496590 0.570123 0.608453
0.559442 0.566094 0.608515
0.638727 0.532036 0.601038
0.758785 0.588861 0.621637
0.806271 0.531212 0.558373
0.320043 0.566552 0.595575
0.364569 0.574060 0.599847
0.430152 0.589441 0.609857
0.518273 0.617334 0.629358
0.608606 0.645289 0.646723
0.655207 0.600397 0.627710
0.761715 0.628626 0.633814
0.800473 0.537591 0.544121
0.333623 0.597894 0.593652
0.373053 0.605310 0.598871
0.430488 0.616754 0.607172
0.504234 0.633387 0.619287
0.588556 0.652918 0.632959
0.656397 0.651759 0.633753
0.730587 0.621332 0.598657
0.810788 0.582574 0.554223
0.344549 0.636439 0.596551
0.380224 0.644678 0.603357
0.428901 0.651881 0.608698
0.495460 0.662959 0.616968
0.572808 0.675380 0.625971
0.662806 0.696468 0.642908
0.802914 0.759762 0.700984
0.900328 0.771786 0.709102
0.352392 0.704829 0.625177
0.384985 0.710048 0.629541
0.431861 0.715114 0.633112
0.495583 0.721767 0.637629
0.570367 0.729091 0.641688
0.683040 0.775814 0.680018
0.859342 0.859281 0.773953
0.954345 0.899168 0.837491
0.320348 0.771939 0.644160
0.346349 0.771298 0.642054
0.387152 0.770199 0.638117
0.462409 0.788876 0.651606
0.566186 0.816464 0.673640
0.710597 0.857298 0.719142
0.875853 0.913420 0.800900
0.979583 0.957000 0.898772
0.334661 0.597406 0.702083
0.390143 0.613275 0.711147
0.463539 0.633631 0.720394
0.555718 0.664668 0.734981
0.611444 0.663539 0.733486
0.657862 0.633387 0.724544
0.746059 0.607050 0.715084
0.849821 0.660700 0.726070
0.351873 0.608331 0.698116
0.400092 0.621607 0.705776
0.467262 0.639429 0.714595
0.552361 0.666072 0.727474
0.616938 0.674769 0.730953
0.655787 0.642329 0.719326
0.737758 0.611048 0.707729
0.840604 0.661036 0.718318
0.383703 0.640009 0.709895
0.424567 0.649195 0.714778
0.484138 0.663203 0.721401
0.562554 0.685542 0.732479
0.641566 0.707881 0.742885
0.670375 0.676326 0.729610
0.744198 0.643275 0.718868
0.847745 0.692287 0.732998
0.409827 0.675288 0.721981
0.443366 0.680751 0.724666
0.497169 0.691768 0.730312
0.573053 0.711971 0.741604
0.654688 0.735378 0.754147
0.698451 0.726070 0.749935
0.753994 0.685115 0.734371
0.857847 0.729274 0.750759
0.418769 0.700984 0.721706
0.447272 0.704463 0.723354
0.491981 0.710872 0.727108
0.557519 0.724849 0.736904
0.640803 0.745418 0.749874
0.725338 0.769650 0.765194
0.755917 0.721859 0.741268
0.861662 0.755947 0.757412
0.428107 0.734493 0.726345
0.456336 0.739101 0.729946
0.500633 0.746517 0.735683
0.563226 0.758236 0.744808
0.638697 0.773373 0.756863
0.724941 0.794369 0.773953
0.781460 0.788907 0.771389
0.847532 0.751919 0.730068
0.442725 0.778103 0.739132
0.469368 0.782101 0.742641
0.509850 0.787411 0.747127
0.567712 0.795804 0.754269
0.635798 0.804807 0.761898
0.711055 0.815274 0.770932
0.789029 0.825376 0.779538
0.913939 0.871702 0.828031
0.425940 0.833188 0.761288
0.451911 0.835874 0.763638
0.499214 0.843290 0.771054
0.555169 0.848051 0.774929
0.619745 0.851743 0.776822
0.690822 0.854185 0.775906
0.816526 0.894957 0.818082
0.963867 0.958099 0.916472
0.508995 0.740993 0.829191
0.545892 0.752224 0.834226
0.594934 0.765347 0.838437
0.663783 0.788113 0.848264
0.730037 0.809018 0.857511
0.754543 0.796139 0.852232
0.789883 0.774289 0.847044
0.859495 0.755093 0.842618
0.512902 0.746090 0.826749
0.546929 0.755642 0.831052
0.595605 0.769039 0.836271
0.661738 0.789822 0.845457
0.734920 0.815335 0.857786
0.761624 0.805661 0.852720
0.791012 0.781552 0.846921
0.859068 0.761959 0.843168
0.519432 0.757595 0.828122
0.550774 0.765530 0.831632
0.596887 0.777096 0.836179
0.664027 0.798245 0.846921
0.734524 0.820951 0.858091
0.773800 0.821958 0.858396
0.798489 0.798611 0.851957
0.860685 0.775082 0.846250
0.517937 0.772183 0.831357
0.550896 0.780423 0.835691
0.597498 0.791348 0.840574
0.663020 0.809720 0.850126
0.735531 0.831815 0.862242
0.797726 0.849577 0.872709
0.815671 0.827665 0.865019
0.866423 0.796811 0.854459
0.525505 0.793271 0.834562
0.549554 0.798093 0.837827
0.585016 0.804196 0.841672
0.643763 0.817380 0.849912
0.722408 0.838437 0.862089
0.801602 0.863615 0.878355
0.836576 0.859953 0.879698
0.872221 0.821561 0.863005
0.532036 0.818082 0.838682
0.551629 0.820432 0.840177
0.583703 0.824521 0.842832
0.634821 0.833677 0.849760
0.703395 0.849119 0.862333
0.795346 0.876646 0.883848
0.872068 0.901518 0.903105
0.883726 0.856291 0.878141
0.549126 0.852903 0.850614
0.568658 0.855406 0.852689
0.599939 0.859403 0.855955
0.649378 0.867491 0.863157
0.714046 0.879698 0.874479
0.786740 0.894377 0.888273
0.862577 0.910857 0.903258
0.900023 0.900755 0.897063
0.572564 0.890990 0.865293
0.584588 0.892973 0.867033
0.615259 0.896971 0.871031
0.659510 0.902495 0.876555
0.715724 0.909545 0.883879
0.781827 0.918212 0.893217
0.852689 0.928130 0.904356
0.915923 0.935729 0.912596
