20 Preset/Dark Portrait/【3】LUT video cho PR-AE-FCPX/Tone  (1).cube
# Created by Adobe Lightroom plugin Export LUT (1.22.0)
# www.johnrellis.com/lightroom/exportlut.htm
# Preset: Candy_03
# Color profile: C:\Program Files (x86)\Common Files\Adobe\Color\Profiles\VideoHD.icc
LUT_3D_SIZE 5
DOMAIN_MIN 0.000000 0.000000 0.000000
DOMAIN_MAX 0.903226 0.903226 0.903226
0.051728 0.034516 0.035981
0.202884 0.043153 0.037812
0.480476 0.103548 0.053986
0.794339 0.240421 0.118349
0.998627 0.375128 0.241459
0.098482 0.088319 0.064851
0.255070 0.143709 0.083436
0.600977 0.277989 0.150149
0.842832 0.374578 0.220981
1.000000 0.488777 0.348486
0.236027 0.263615 0.176181
0.328771 0.293523 0.183658
0.632654 0.468299 0.282536
0.907225 0.643091 0.484413
1.000000 0.685481 0.555138
0.432258 0.557275 0.383673
0.505028 0.581537 0.398810
0.613428 0.585168 0.370397
0.863218 0.736507 0.561913
0.993805 0.862364 0.771572
0.666896 0.812741 0.653285
0.715877 0.826566 0.675776
0.755612 0.817288 0.644373
0.857633 0.820981 0.626947
0.983917 0.911376 0.822019
0.061280 0.051087 0.063661
0.164889 0.074586 0.113130
0.349371 0.073732 0.104799
0.641138 0.189914 0.168551
0.909026 0.339666 0.262119
0.119814 0.114839 0.117678
0.245884 0.181796 0.177279
0.478279 0.237827 0.207401
0.727260 0.331548 0.258274
0.944152 0.452796 0.351537
0.246921 0.289403 0.239322
0.353033 0.344549 0.281529
0.568078 0.448707 0.336950
0.835966 0.605829 0.483742
0.975463 0.675532 0.565332
0.433173 0.569177 0.435035
0.513756 0.603449 0.466621
0.614466 0.615930 0.451820
0.840391 0.741390 0.598230
0.982849 0.867796 0.789395
0.655909 0.810117 0.668544
0.704311 0.824063 0.689235
0.771145 0.837827 0.700191
0.856291 0.836301 0.671748
0.980896 0.918975 0.841215
0.117159 0.135439 0.178836
0.224033 0.187198 0.222751
0.424872 0.237369 0.331243
0.547814 0.163149 0.241855
0.779538 0.236393 0.259007
0.199863 0.213230 0.239506
0.295201 0.263462 0.280125
0.470283 0.337316 0.379339
0.568536 0.227878 0.259220
0.847318 0.374640 0.349218
0.282994 0.338659 0.331060
0.367346 0.386450 0.371771
0.544549 0.507713 0.469459
0.739773 0.549340 0.488869
0.920592 0.623713 0.548089
0.384283 0.555566 0.475166
0.467781 0.591028 0.506950
0.626642 0.672145 0.585229
0.805936 0.751369 0.653681
0.959991 0.853910 0.786496
0.559808 0.784024 0.651362
0.643366 0.805661 0.687098
0.761105 0.844022 0.744289
0.838560 0.848966 0.728481
0.970123 0.920104 0.853269
0.230106 0.305272 0.378637
0.335790 0.354406 0.409064
0.455604 0.432197 0.499672
0.671992 0.479347 0.586450
0.803525 0.419715 0.501335
0.299535 0.372168 0.422065
0.378241 0.407660 0.444190
0.500206 0.493599 0.519860
0.678004 0.535332 0.600641
0.785580 0.414679 0.477333
0.354040 0.456092 0.475349
0.418219 0.482460 0.493782
0.543328 0.557885 0.549798
0.692714 0.620264 0.629877
0.766842 0.390753 0.416724
0.436011 0.606104 0.580194
0.491310 0.624018 0.594842
0.601404 0.675563 0.640131
0.765621 0.771328 0.728389
0.911467 0.797208 0.747280
0.506767 0.781857 0.702205
0.560754 0.793393 0.713741
0.679347 0.825162 0.749599
0.844358 0.884092 0.826932
0.956603 0.927794 0.881437
0.385382 0.543450 0.630243
0.475135 0.579248 0.642634
0.606043 0.650904 0.674983
0.684840 0.686824 0.745480
0.848051 0.726528 0.795804
0.409857 0.569665 0.640375
0.488136 0.598627 0.650568
0.612207 0.663172 0.681605
0.695186 0.707912 0.746761
0.850736 0.747921 0.802213
0.421790 0.611231 0.662043
0.480415 0.625696 0.666743
0.605066 0.677302 0.691676
0.719051 0.746517 0.752590
0.865965 0.796353 0.825681
0.482185 0.700923 0.716274
0.528649 0.709468 0.720089
0.620783 0.735348 0.736080
0.762539 0.802609 0.788205
0.889158 0.857389 0.859556
0.568902 0.811795 0.789975
0.616449 0.822873 0.799924
0.699306 0.842405 0.817868
0.807858 0.875608 0.851194
0.929564 0.933410 0.914977
