20 Preset/Dark Portrait/【3】LUT video cho PR-AE-FCPX/Tone  (5).cube
# Created by Adobe Lightroom plugin Export LUT (1.22.0)
# www.johnrellis.com/lightroom/exportlut.htm
# Preset: Horizon_02
# Color profile: C:\Program Files (x86)\Common Files\Adobe\Color\Profiles\VideoHD.icc
LUT_3D_SIZE 32
DOMAIN_MIN 0.0 0.0 0.0
DOMAIN_MAX 1.0 1.0 1.0
0.040803 0.033875 0.045472
0.044984 0.033387 0.045472
0.071412 0.032441 0.045869
0.100618 0.032013 0.046296
0.129427 0.031952 0.046540
0.158511 0.031769 0.046540
0.189731 0.031617 0.046204
0.221317 0.031800 0.045655
0.253544 0.031891 0.045228
0.287297 0.032685 0.044831
0.320714 0.034272 0.044923
0.354345 0.036896 0.045502
0.387579 0.040375 0.046418
0.420356 0.045014 0.047517
0.452705 0.050538 0.048676
0.484718 0.056916 0.049866
0.518761 0.064363 0.051514
0.556329 0.074250 0.053254
0.591547 0.084749 0.055085
0.625605 0.095277 0.057008
0.658015 0.105287 0.059541
0.689723 0.115358 0.062806
0.721096 0.125551 0.066133
0.752621 0.135500 0.070283
0.784268 0.145571 0.074952
0.816098 0.155215 0.081147
0.849119 0.165652 0.088136
0.882994 0.176272 0.096681
0.918181 0.187015 0.106569
0.954711 0.198489 0.118257
0.992706 0.210697 0.132113
1.000000 0.223941 0.148501
0.040589 0.036347 0.047364
0.056336 0.040345 0.048890
0.092164 0.044129 0.049104
0.121859 0.046021 0.048798
0.152102 0.047608 0.048096
0.184115 0.048737 0.046906
0.215061 0.049348 0.046509
0.247044 0.050019 0.045899
0.279545 0.051514 0.045319
0.312627 0.053437 0.045289
0.345892 0.056458 0.045869
0.378912 0.060578 0.046784
0.411627 0.065339 0.047913
0.443549 0.071168 0.049073
0.474922 0.077485 0.050385
0.505913 0.084688 0.051484
0.541711 0.093477 0.053559
0.576501 0.102693 0.055360
0.609247 0.111543 0.057465
0.640772 0.120302 0.059907
0.671199 0.129244 0.062867
0.701442 0.138399 0.065858
0.730892 0.146853 0.069612
0.760800 0.155550 0.073823
0.790646 0.164309 0.079072
0.821073 0.172946 0.085634
0.852598 0.182498 0.092897
0.885100 0.191928 0.101167
0.918975 0.202121 0.111086
0.954131 0.212619 0.122835
0.990723 0.223789 0.136507
1.000000 0.236332 0.152499
0.044648 0.047730 0.055085
0.061769 0.050416 0.058503
0.094881 0.058625 0.061494
0.133455 0.064210 0.059663
0.165652 0.066285 0.057984
0.197177 0.067811 0.055909
0.231022 0.069673 0.053437
0.265782 0.072206 0.050782
0.300999 0.075685 0.048432
0.337346 0.080842 0.046723
0.370520 0.085206 0.047303
0.403052 0.089967 0.048310
0.434913 0.094911 0.049622
0.466041 0.100252 0.050904
0.496315 0.106020 0.052277
0.529381 0.113436 0.053773
0.563348 0.121340 0.055940
0.595941 0.129366 0.057801
0.626551 0.136812 0.060395
0.656580 0.144625 0.063203
0.685908 0.152590 0.066011
0.714382 0.160220 0.069703
0.742794 0.167758 0.073732
0.771267 0.175357 0.078767
0.799863 0.183017 0.084901
0.829160 0.191073 0.090944
0.859495 0.199557 0.098451
0.890898 0.208255 0.107118
0.923919 0.217746 0.117311
0.958221 0.227573 0.129244
0.994263 0.238621 0.143191
1.000000 0.250614 0.159335
0.053346 0.060212 0.066224
0.071229 0.063142 0.069123
0.092073 0.068086 0.076143
0.129000 0.078981 0.075837
0.173770 0.087984 0.072694
0.211093 0.091493 0.069154
0.244144 0.093233 0.065492
0.278141 0.095521 0.062348
0.312871 0.098634 0.059815
0.348852 0.103182 0.057557
0.384436 0.108827 0.056184
0.419806 0.115297 0.054932
0.454200 0.122042 0.053956
0.487861 0.129122 0.053040
0.517632 0.133944 0.054353
0.550988 0.140810 0.056550
0.582483 0.147707 0.058503
0.612329 0.154025 0.061036
0.641077 0.160555 0.063264
0.668971 0.166964 0.066377
0.696284 0.173220 0.069703
0.723720 0.179965 0.073701
0.751217 0.186740 0.078279
0.779538 0.193912 0.083680
0.807950 0.201083 0.089784
0.837003 0.208530 0.096803
0.867216 0.216434 0.104829
0.898680 0.224857 0.113985
0.931121 0.233738 0.124575
0.964782 0.243442 0.136812
0.999481 0.253880 0.150729
1.000000 0.264927 0.166690
0.063661 0.074830 0.078950
0.081727 0.078096 0.081575
0.101167 0.082399 0.087465
0.123873 0.090700 0.094789
0.165408 0.103395 0.092836
0.213413 0.113832 0.088777
0.254520 0.118990 0.083528
0.290806 0.121828 0.079042
0.325505 0.124819 0.075257
0.360815 0.128969 0.072633
0.395972 0.133822 0.070741
0.430884 0.139467 0.068849
0.465126 0.145632 0.067262
0.498726 0.152316 0.065736
0.534844 0.160433 0.064698
0.569879 0.169100 0.063966
0.604059 0.177646 0.062776
0.632868 0.183413 0.065217
0.659937 0.188052 0.068421
0.686610 0.193362 0.071656
0.712581 0.198581 0.075502
0.738766 0.204227 0.080110
0.765255 0.210025 0.085389
0.792294 0.216037 0.091157
0.820157 0.222629 0.097444
0.848478 0.229374 0.104860
0.877867 0.236759 0.113100
0.907988 0.244327 0.122621
0.939269 0.252537 0.133425
0.971557 0.261418 0.145968
1.000000 0.270970 0.159762
1.000000 0.281437 0.175753
0.076600 0.093660 0.094484
0.094636 0.096468 0.095949
0.113893 0.101045 0.101869
0.132235 0.105898 0.108064
0.161746 0.118135 0.115389
0.206638 0.131868 0.112703
0.257328 0.144320 0.108339
0.302159 0.151369 0.102419
0.343206 0.156893 0.098299
0.377935 0.160189 0.095308
0.412848 0.164675 0.092256
0.447242 0.169436 0.089998
0.480934 0.174838 0.087831
0.516747 0.181735 0.086152
0.552056 0.189181 0.084871
0.585962 0.196445 0.083345
0.618769 0.203769 0.082094
0.650172 0.210971 0.081086
0.680446 0.218265 0.080354
0.709560 0.225223 0.080018
0.734524 0.229252 0.084779
0.759670 0.233738 0.089754
0.824216 0.257053 0.108431
0.849790 0.261936 0.115480
0.875731 0.267247 0.122988
0.901823 0.272496 0.131472
0.928557 0.278264 0.140749
0.956115 0.284733 0.151034
0.984375 0.291539 0.162600
1.000000 0.299199 0.175784
1.000000 0.307836 0.190249
1.000000 0.317327 0.206607
0.095979 0.119478 0.115053
0.113619 0.122560 0.116335
0.133730 0.127504 0.121920
0.153048 0.132815 0.128664
0.174197 0.139620 0.136812
0.213077 0.156466 0.144228
0.261173 0.171664 0.140993
0.315099 0.186435 0.137209
0.363714 0.195895 0.131044
0.406928 0.203738 0.128176
0.443946 0.208133 0.124331
0.478096 0.211795 0.121370
0.516655 0.218997 0.119692
0.553185 0.225803 0.118074
0.587671 0.231846 0.116335
0.620172 0.237522 0.114351
0.651240 0.243168 0.112856
0.681025 0.248600 0.111574
0.710323 0.254246 0.110658
0.739498 0.260746 0.110292
0.768734 0.267369 0.110780
0.799374 0.275120 0.111940
0.827939 0.281041 0.116976
0.855100 0.286290 0.124880
0.881987 0.291386 0.133364
0.908080 0.296300 0.142489
0.934264 0.301488 0.152071
0.960754 0.306981 0.162264
0.987854 0.312963 0.173831
1.000000 0.319860 0.186679
1.000000 0.327520 0.200870
1.000000 0.336095 0.216922
0.113069 0.142397 0.132815
0.129793 0.145357 0.134401
0.148409 0.149874 0.138888
0.167788 0.155367 0.145693
0.189181 0.162325 0.153872
0.215244 0.172885 0.165866
0.257939 0.191592 0.171267
0.307805 0.208347 0.168551
0.361883 0.224643 0.166079
0.412177 0.236301 0.160586
0.459327 0.247074 0.159060
0.502647 0.255802 0.157321
0.538018 0.260349 0.154238
0.571588 0.264439 0.151278
0.603204 0.267918 0.148379
0.633387 0.271214 0.145357
0.662623 0.274784 0.142397
0.690852 0.278599 0.140108
0.718441 0.282597 0.138674
0.745937 0.287022 0.137606
0.774197 0.292363 0.137362
0.803403 0.298711 0.138125
0.833433 0.305699 0.139620
0.863706 0.313207 0.141878
0.891875 0.319127 0.147341
0.916991 0.323186 0.156466
0.942260 0.327489 0.165927
0.967620 0.332097 0.176455
0.993896 0.337377 0.187900
1.000000 0.343450 0.200687
1.000000 0.350500 0.215091
1.000000 0.358404 0.231022
0.131624 0.167239 0.152865
0.147677 0.170291 0.154208
0.165072 0.174380 0.157534
0.184085 0.180179 0.164706
0.205692 0.187350 0.173098
0.229374 0.195926 0.183230
0.260990 0.211673 0.200137
0.306340 0.231571 0.202213
0.358831 0.251255 0.201846
0.415442 0.271000 0.201968
0.468482 0.285649 0.198459
0.515618 0.296483 0.195560
0.559442 0.305699 0.194064
0.591699 0.307774 0.189761
0.621515 0.309087 0.185122
0.649683 0.310033 0.180850
0.677272 0.311589 0.177096
0.704158 0.313481 0.173983
0.730953 0.315984 0.171328
0.757504 0.319127 0.169863
0.785275 0.323369 0.169223
0.813962 0.328679 0.169894
0.843320 0.334722 0.171206
0.873075 0.341222 0.173251
0.902037 0.347631 0.176120
0.930480 0.353826 0.179049
0.956207 0.358526 0.185641
0.980133 0.362219 0.195865
1.000000 0.366308 0.207004
1.000000 0.371252 0.219547
1.000000 0.377264 0.233494
1.000000 0.384344 0.249027
0.152255 0.194339 0.174655
0.167636 0.197147 0.176059
0.182864 0.200381 0.178195
0.201572 0.206332 0.185245
0.222660 0.213626 0.193454
0.246036 0.222385 0.203708
0.273320 0.234379 0.217075
0.312078 0.257572 0.239780
0.360296 0.279210 0.240024
0.412299 0.299168 0.239719
0.466529 0.317937 0.238712
0.517784 0.332036 0.235203
0.564141 0.342168 0.231052
0.605310 0.349859 0.229252
0.639551 0.353185 0.225650
0.667445 0.352972 0.220584
0.694606 0.353185 0.216068
0.720790 0.353552 0.212589
0.746487 0.354314 0.209201
0.772457 0.356085 0.206943
0.798642 0.358587 0.205356
0.825467 0.361852 0.204715
0.852598 0.365881 0.204990
0.879820 0.370275 0.205905
0.907103 0.375189 0.207523
0.934020 0.380102 0.209812
0.961059 0.385351 0.212711
0.988251 0.391028 0.216587
1.000000 0.395148 0.226535
1.000000 0.399420 0.239078
1.000000 0.404852 0.253117
1.000000 0.411597 0.268833
0.173373 0.221500 0.197177
0.187778 0.224430 0.198734
0.202152 0.228000 0.200656
0.220462 0.234592 0.207370
0.242100 0.243198 0.216800
0.266423 0.253452 0.228092
0.293126 0.265415 0.241276
0.321691 0.279393 0.256382
0.364721 0.306401 0.278569
0.412543 0.327550 0.278172
0.462898 0.346929 0.277256
0.515038 0.364660 0.275944
0.564752 0.377996 0.272190
0.609796 0.387304 0.267765
0.648463 0.393683 0.265904
0.684779 0.398444 0.263676
0.710872 0.396918 0.258274
0.735866 0.395392 0.253483
0.760586 0.394659 0.249180
0.785336 0.394629 0.245853
0.810483 0.395422 0.243595
0.836362 0.397406 0.242039
0.862333 0.399847 0.241794
0.888518 0.402991 0.241978
0.914885 0.406806 0.243015
0.940734 0.410468 0.244755
0.966979 0.414771 0.247044
0.993286 0.419654 0.250614
1.000000 0.425208 0.255283
1.000000 0.430762 0.262974
1.000000 0.435462 0.276616
1.000000 0.441291 0.291936
0.198550 0.254307 0.223941
0.212833 0.257786 0.226078
0.226444 0.261173 0.228000
0.242100 0.266392 0.232914
0.263066 0.274876 0.242069
0.286534 0.285039 0.253147
0.312383 0.297063 0.265965
0.340307 0.310796 0.280674
0.371740 0.328191 0.298833
0.417365 0.357183 0.318425
0.464210 0.377813 0.317693
0.513512 0.396551 0.316930
0.593683 0.442695 0.339971
0.641016 0.454139 0.336339
0.684718 0.461250 0.330755
0.720607 0.464881 0.328405
0.754788 0.468177 0.326452
0.780362 0.465614 0.321233
0.802548 0.461097 0.314641
0.825193 0.458076 0.309422
0.848234 0.456092 0.305394
0.871611 0.455177 0.302434
0.895171 0.454963 0.300145
0.918791 0.455451 0.298863
0.942473 0.456519 0.298436
0.966033 0.458198 0.298863
0.989868 0.460334 0.299870
1.000000 0.463203 0.301946
1.000000 0.466804 0.305058
1.000000 0.471412 0.309941
1.000000 0.476875 0.316075
1.000000 0.481880 0.329442
0.231968 0.298192 0.260166
0.245335 0.301549 0.262150
0.258000 0.304479 0.263828
0.271183 0.307958 0.266239
0.291417 0.316320 0.275181
0.314000 0.326238 0.285893
0.339361 0.338079 0.298436
0.366857 0.352056 0.312993
0.396826 0.368231 0.329717
0.433692 0.392279 0.353826
0.480812 0.421698 0.369360
0.528496 0.443183 0.370153
0.577874 0.462104 0.370672
0.626734 0.478157 0.370672
0.673182 0.489937 0.368750
0.714626 0.496498 0.364111
0.749783 0.499794 0.361303
0.781704 0.502007 0.359686
0.809995 0.501793 0.356481
0.831601 0.497322 0.350378
0.853880 0.494148 0.345556
0.876432 0.491859 0.341741
0.899229 0.490486 0.338720
0.921996 0.489876 0.336919
0.944915 0.489998 0.335912
0.967956 0.490639 0.335515
0.991241 0.492042 0.336065
1.000000 0.494331 0.337865
1.000000 0.497292 0.340978
1.000000 0.501427 0.345342
1.000000 0.506371 0.351232
1.000000 0.512474 0.358679
0.255070 0.329503 0.285893
0.267430 0.332464 0.287602
0.278843 0.335027 0.288853
0.290379 0.337499 0.290257
0.307897 0.344305 0.297002
0.329473 0.353765 0.307134
0.353155 0.364935 0.318944
0.379370 0.378088 0.332677
0.407935 0.393408 0.348333
0.438544 0.411017 0.366278
0.479408 0.440223 0.394781
0.524529 0.466316 0.404608
0.569970 0.485817 0.405188
0.616114 0.502586 0.405371
0.661769 0.516289 0.404944
0.704952 0.526268 0.402960
0.743740 0.531365 0.398047
0.777890 0.534142 0.394720
0.808682 0.536248 0.393866
0.839017 0.538781 0.394049
0.860960 0.534844 0.388861
0.882994 0.531731 0.384466
0.904936 0.529259 0.381048
0.927245 0.527855 0.378546
0.949462 0.526970 0.376989
0.971893 0.526879 0.376196
0.994232 0.527184 0.376196
1.000000 0.528557 0.377386
1.000000 0.530816 0.379706
1.000000 0.534295 0.383764
1.000000 0.538628 0.389197
1.000000 0.544121 0.396338
0.277897 0.360784 0.311192
0.289128 0.363592 0.312993
0.299748 0.366003 0.314244
0.310246 0.368200 0.315251
0.324620 0.372625 0.319249
0.344854 0.381628 0.328679
0.367742 0.392584 0.339971
0.393103 0.405432 0.353277
0.420874 0.420508 0.368475
0.450904 0.437903 0.386145
0.482826 0.457404 0.405829
0.526818 0.491157 0.439338
0.569665 0.513420 0.443519
0.613031 0.531060 0.444068
0.656184 0.545495 0.443946
0.698054 0.556756 0.442817
0.738216 0.564874 0.440436
0.774075 0.568597 0.435615
0.807858 0.571099 0.432197
0.837278 0.573083 0.431830
0.866331 0.575463 0.432624
0.890593 0.574212 0.430488
0.911528 0.570550 0.426154
0.932738 0.567864 0.422950
0.954131 0.566033 0.420630
0.975677 0.565057 0.419165
0.997406 0.564843 0.418921
1.000000 0.565637 0.419837
1.000000 0.567620 0.422339
1.000000 0.570733 0.426368
1.000000 0.575097 0.432197
1.000000 0.580621 0.439765
0.300267 0.392248 0.336797
0.310887 0.395270 0.338628
0.321050 0.397925 0.340093
0.331304 0.400336 0.341497
0.343084 0.403235 0.343175
0.363287 0.412909 0.352880
0.385504 0.424201 0.364446
0.410773 0.437537 0.377844
0.438087 0.452644 0.393194
0.467170 0.469459 0.410254
0.497688 0.487678 0.428992
0.529412 0.507347 0.449592
0.573480 0.541375 0.482918
0.612482 0.558495 0.482124
0.652064 0.572595 0.481056
0.691157 0.583795 0.479377
0.729702 0.592676 0.477485
0.767391 0.599756 0.475563
0.801877 0.603510 0.472084
0.835721 0.606775 0.469245
0.864439 0.609277 0.470253
0.892576 0.612055 0.472236
0.918608 0.613672 0.473732
0.939178 0.610315 0.470008
0.959655 0.607782 0.467323
0.980316 0.606043 0.465583
1.000000 0.605127 0.464790
1.000000 0.605219 0.465339
1.000000 0.606287 0.467048
1.000000 0.608515 0.470436
1.000000 0.611841 0.475257
1.000000 0.616358 0.481666
0.321843 0.422980 0.361578
0.331731 0.425696 0.363134
0.341344 0.428229 0.364508
0.350713 0.430640 0.365881
0.361730 0.433478 0.367468
0.378851 0.441077 0.374548
0.400702 0.452277 0.385962
0.424903 0.465187 0.398932
0.451209 0.479591 0.413764
0.479133 0.495674 0.430426
0.508659 0.513085 0.448615
0.539239 0.531701 0.468269
0.573297 0.554620 0.492531
0.614588 0.584192 0.518883
0.651301 0.599023 0.517693
0.688228 0.611048 0.516320
0.724727 0.620722 0.514672
0.760739 0.628290 0.512932
0.795834 0.634333 0.511254
0.829252 0.638331 0.508995
0.861967 0.641810 0.507286
0.890288 0.644556 0.508659
0.917021 0.647333 0.511406
0.943145 0.650477 0.514916
0.963775 0.648554 0.513146
0.983551 0.646296 0.511040
1.000000 0.644923 0.510094
1.000000 0.644556 0.510277
1.000000 0.645014 0.511711
1.000000 0.646601 0.514397
1.000000 0.649378 0.518853
1.000000 0.653376 0.524834
0.345312 0.456947 0.388586
0.354955 0.459846 0.390326
0.376959 0.479774 0.406439
0.386145 0.482155 0.407813
0.396674 0.484932 0.409430
0.411139 0.490089 0.413703
0.432441 0.500908 0.424994
0.456245 0.513359 0.438148
0.481788 0.527184 0.452918
0.509148 0.542687 0.469337
0.537926 0.559319 0.487251
0.567529 0.576867 0.506218
0.597589 0.594842 0.525811
0.632776 0.619287 0.552544
0.670069 0.642786 0.571008
0.703029 0.653956 0.568566
0.736263 0.662776 0.565911
0.768887 0.669337 0.563195
0.800931 0.674372 0.560510
0.832456 0.678248 0.558099
0.863157 0.681178 0.555840
0.893492 0.683772 0.554284
0.920317 0.685969 0.555138
0.944762 0.688167 0.557763
0.968444 0.690394 0.560784
0.988922 0.690150 0.561364
1.000000 0.687465 0.559014
1.000000 0.685817 0.557946
1.000000 0.685328 0.558404
1.000000 0.686213 0.560601
1.000000 0.688441 0.564538
1.000000 0.691737 0.569909
0.374578 0.497841 0.421942
0.384253 0.501488 0.424537
0.393652 0.505119 0.427100
0.403113 0.508446 0.429480
0.413764 0.511986 0.431769
0.425605 0.515404 0.433967
0.445411 0.525200 0.444221
0.468299 0.537041 0.457008
0.492897 0.550378 0.471229
0.519158 0.564935 0.486915
0.546807 0.580743 0.504082
0.575525 0.597467 0.522240
0.604578 0.614679 0.541222
0.634028 0.632227 0.560754
0.670100 0.658045 0.589563
0.703914 0.676692 0.601526
0.735164 0.686519 0.599176
0.766110 0.694118 0.596979
0.797055 0.700191 0.594903
0.827390 0.705013 0.593133
0.857053 0.708736 0.591485
0.886473 0.712032 0.590509
0.915343 0.715023 0.590143
0.941680 0.717617 0.591272
0.964446 0.719875 0.594415
0.986419 0.722469 0.598138
1.000000 0.724666 0.601892
1.000000 0.722438 0.600275
1.000000 0.721492 0.600305
1.000000 0.721645 0.601770
1.000000 0.723079 0.604944
1.000000 0.725551 0.609461
0.396582 0.527886 0.446937
0.405524 0.531334 0.449531
0.414466 0.534783 0.452003
0.423346 0.538170 0.454444
0.433509 0.541588 0.456916
0.445014 0.545068 0.459297
0.461433 0.552209 0.466224
0.483345 0.563775 0.478645
0.507134 0.576532 0.492531
0.532525 0.590448 0.507622
0.559197 0.605402 0.524102
0.587091 0.621424 0.541650
0.615259 0.637720 0.559838
0.643885 0.654475 0.578759
0.672450 0.671351 0.598169
0.708949 0.697841 0.628779
0.739406 0.711879 0.634516
0.768276 0.720058 0.632258
0.797177 0.726680 0.630304
0.825895 0.731930 0.628565
0.854093 0.736080 0.627100
0.881682 0.739315 0.625757
0.909087 0.742458 0.625299
0.936095 0.745510 0.625727
0.961181 0.747951 0.626642
0.982208 0.750301 0.630182
1.000000 0.752895 0.634363
1.000000 0.755978 0.639460
1.000000 0.755856 0.640711
1.000000 0.755673 0.641840
1.000000 0.756741 0.644678
1.000000 0.758328 0.648219
0.421241 0.560693 0.474800
0.430060 0.564263 0.477577
0.438636 0.567895 0.480262
0.447181 0.571221 0.482826
0.456886 0.574609 0.485328
0.467597 0.578027 0.487739
0.480201 0.582147 0.490883
0.501366 0.593011 0.502831
0.524224 0.604944 0.516045
0.548333 0.617884 0.530449
0.574151 0.632013 0.546166
0.600793 0.646784 0.562860
0.628168 0.662135 0.580346
0.655848 0.677852 0.598505
0.683619 0.693843 0.617212
0.712276 0.711269 0.637812
0.747768 0.736904 0.668696
0.775418 0.747402 0.669429
0.803128 0.755276 0.668391
0.830686 0.761868 0.667872
0.857939 0.767330 0.667567
0.884398 0.771725 0.667384
0.909880 0.774960 0.667018
0.934905 0.778042 0.667353
0.959686 0.781399 0.668879
0.983154 0.784024 0.670161
1.000000 0.786618 0.674525
1.000000 0.789609 0.679622
1.000000 0.793210 0.685817
1.000000 0.795590 0.690547
1.000000 0.795712 0.692348
1.000000 0.796658 0.695308
0.454292 0.602747 0.511131
0.461921 0.605280 0.513146
0.469429 0.607782 0.515007
0.476570 0.609979 0.516533
0.484932 0.612451 0.518273
0.494606 0.615076 0.520195
0.505699 0.618067 0.522393
0.523674 0.626276 0.531060
0.545830 0.637690 0.544030
0.569635 0.650355 0.558282
0.594934 0.663844 0.573724
0.620905 0.677943 0.590082
0.647456 0.692409 0.606989
0.674342 0.707118 0.624628
0.701076 0.721950 0.642451
0.727535 0.736812 0.660670
0.756344 0.754696 0.682887
0.788327 0.776211 0.708492
0.812924 0.783841 0.706874
0.837736 0.790097 0.705501
0.862333 0.795010 0.704280
0.886351 0.798917 0.703182
0.909606 0.801694 0.702022
0.931823 0.803616 0.700801
0.953765 0.805417 0.700374
0.976135 0.808347 0.701961
0.997375 0.811063 0.703883
1.000000 0.813993 0.708492
1.000000 0.817411 0.714534
1.000000 0.820920 0.720974
1.000000 0.824521 0.727718
1.000000 0.825010 0.730129
0.480690 0.635554 0.539849
0.487922 0.637995 0.541741
0.494850 0.640253 0.543542
0.501579 0.642359 0.545068
0.509606 0.644648 0.546868
0.518761 0.647211 0.548730
0.529229 0.650080 0.550835
0.543145 0.655207 0.555749
0.564721 0.666133 0.568322
0.587701 0.677974 0.582147
0.612177 0.690700 0.597101
0.637446 0.703975 0.612879
0.663264 0.717556 0.629358
0.689387 0.731441 0.646357
0.715389 0.745388 0.663722
0.741176 0.759457 0.681392
0.766720 0.773617 0.699306
0.795560 0.791928 0.722744
0.823819 0.809171 0.741970
0.846372 0.815732 0.740658
0.868772 0.820920 0.739376
0.890898 0.825071 0.738247
0.912261 0.828183 0.737301
0.932952 0.830411 0.736233
0.951507 0.830167 0.733120
0.970733 0.831357 0.732418
0.990875 0.834379 0.734737
1.000000 0.837278 0.737575
1.000000 0.839963 0.741848
1.000000 0.843107 0.747768
1.000000 0.846738 0.754726
1.000000 0.850706 0.762356
0.515068 0.675624 0.575921
0.521935 0.678157 0.577996
0.528557 0.680171 0.579675
0.534569 0.681849 0.580926
0.541619 0.683467 0.582177
0.549645 0.685267 0.583490
0.558923 0.687373 0.584985
0.569360 0.689845 0.586786
0.588312 0.698146 0.596765
0.609979 0.708522 0.609461
0.632624 0.719478 0.623011
0.656519 0.731167 0.637598
0.680842 0.743191 0.652796
0.705501 0.755520 0.668544
0.729946 0.767910 0.684504
0.754330 0.780423 0.700771
0.778439 0.793149 0.717342
0.802274 0.806027 0.734188
0.830228 0.824063 0.758053
0.854826 0.837613 0.771664
0.875334 0.843259 0.770596
0.895476 0.847623 0.769528
0.914916 0.850797 0.768338
0.933623 0.852873 0.766812
0.951415 0.854002 0.765164
0.968353 0.854337 0.763302
0.984894 0.854520 0.761898
1.000000 0.856962 0.763943
1.000000 0.859281 0.766598
1.000000 0.861936 0.770901
1.000000 0.865202 0.777310
1.000000 0.868986 0.784787
0.541741 0.705928 0.603479
0.548425 0.708278 0.605615
0.554681 0.710475 0.607446
0.560815 0.712245 0.608972
0.567681 0.714107 0.610529
0.575738 0.716213 0.612268
0.585016 0.718715 0.614343
0.595483 0.721584 0.616724
0.610498 0.727260 0.623011
0.632013 0.737331 0.635798
0.654536 0.748013 0.649409
0.677760 0.759121 0.663783
0.701595 0.770596 0.678737
0.725582 0.782193 0.694026
0.749386 0.793820 0.709499
0.772885 0.805447 0.725063
0.796109 0.817166 0.740871
0.818631 0.828885 0.756649
0.840574 0.840635 0.772580
0.866453 0.857633 0.796078
0.886687 0.867155 0.804196
0.904326 0.871397 0.802792
0.921538 0.874540 0.801358
0.938140 0.876768 0.799954
0.954040 0.877897 0.798154
0.969207 0.878325 0.796231
0.983764 0.878141 0.794308
0.997620 0.877592 0.792447
1.000000 0.880064 0.795163
1.000000 0.882506 0.798611
1.000000 0.885161 0.803098
1.000000 0.888487 0.810056
0.574853 0.740780 0.636561
0.580987 0.742733 0.638300
0.586572 0.744442 0.639857
0.592218 0.745968 0.641199
0.598535 0.747585 0.642664
0.605921 0.749477 0.644282
0.614466 0.751583 0.646143
0.624201 0.754055 0.648280
0.635065 0.756954 0.650904
0.655146 0.765743 0.662409
0.676722 0.775448 0.675410
0.699214 0.785733 0.689204
0.722103 0.796231 0.703456
0.745022 0.806851 0.717952
0.767819 0.817441 0.732631
0.790249 0.828061 0.747280
0.812284 0.838682 0.762112
0.833646 0.849332 0.777035
0.854398 0.860044 0.792111
0.875090 0.871672 0.808652
0.897246 0.886259 0.829862
0.913512 0.892454 0.833310
0.928374 0.895476 0.831601
0.942901 0.897520 0.829862
0.956939 0.898772 0.828031
0.970428 0.899260 0.826078
0.983337 0.899229 0.824186
0.995666 0.898589 0.822110
1.000000 0.897642 0.820218
1.000000 0.899718 0.822995
1.000000 0.902068 0.826780
1.000000 0.904692 0.831510
0.608850 0.774105 0.669245
0.614252 0.775662 0.670741
0.619501 0.777249 0.672145
0.624659 0.778653 0.673518
0.630945 0.780423 0.675166
0.638422 0.782589 0.677241
0.647517 0.785458 0.680079
0.657771 0.788785 0.683406
0.669429 0.792721 0.687282
0.686275 0.799557 0.695796
0.708522 0.809659 0.709590
0.731380 0.820096 0.723995
0.754299 0.830472 0.738613
0.776974 0.840726 0.753140
0.799069 0.850736 0.767575
0.820188 0.860288 0.781582
0.840482 0.869657 0.795407
0.859770 0.878691 0.808988
0.878294 0.887785 0.822599
0.895750 0.896696 0.836149
0.913146 0.906767 0.851713
0.929778 0.917601 0.869108
0.941772 0.920623 0.868406
0.953429 0.922179 0.866178
0.964782 0.923003 0.863859
0.975708 0.923156 0.861570
0.986358 0.922850 0.859281
0.996582 0.922148 0.857023
1.000000 0.921080 0.854948
1.000000 0.919860 0.853025
1.000000 0.921294 0.855528
1.000000 0.923491 0.859709
0.655329 0.815702 0.712032
0.660182 0.817075 0.713436
0.664942 0.818265 0.714656
0.669551 0.819364 0.715755
0.674922 0.820615 0.716976
0.681392 0.822141 0.718532
0.688899 0.824033 0.720485
0.697536 0.826322 0.722805
0.707424 0.828977 0.725582
0.718196 0.831968 0.728725
0.738033 0.839933 0.740475
0.758450 0.848173 0.752834
0.778958 0.856474 0.765438
0.799344 0.864805 0.778225
