20 Preset/Dark Portrait/【3】LUT video cho PR-AE-FCPX/Tone  (15).cube
# Created by Adobe Lightroom plugin Export LUT (1.22.0)
# www.johnrellis.com/lightroom/exportlut.htm
# Preset: Candy_02
# Color profile: C:\Program Files (x86)\Common Files\Adobe\Color\Profiles\VideoHD.icc
LUT_3D_SIZE 5
DOMAIN_MIN 0.000000 0.000000 0.000000
DOMAIN_MAX 0.903226 0.903226 0.903226
0.053223 0.034180 0.035981
0.111940 0.033997 0.035615
0.279057 0.041688 0.031952
0.501152 0.080476 0.028016
0.736904 0.157168 0.018860
0.051759 0.048310 0.036652
0.142184 0.064973 0.037446
0.331792 0.098726 0.040345
0.549371 0.148836 0.036103
0.785702 0.223453 0.029541
0.040284 0.138033 0.041901
0.170260 0.159762 0.044007
0.410407 0.230777 0.048646
0.661555 0.314763 0.089815
0.862272 0.360662 0.095613
0.000000 0.328405 0.043763
0.198825 0.357061 0.049317
0.458259 0.417548 0.060060
0.727169 0.495613 0.111086
0.942351 0.575280 0.285435
0.000000 0.642512 0.034058
0.123720 0.664485 0.059205
0.496986 0.693843 0.110933
0.806973 0.748562 0.216007
0.983703 0.744167 0.383215
0.042145 0.045258 0.062440
0.125704 0.048127 0.087678
0.270481 0.037293 0.066407
0.467506 0.065766 0.071931
0.692195 0.131624 0.070130
0.034058 0.084291 0.090578
0.134829 0.097322 0.102052
0.320348 0.109957 0.101228
0.516625 0.141085 0.098360
0.742275 0.201938 0.092500
0.000000 0.180972 0.123018
0.115053 0.203708 0.110475
0.394476 0.247623 0.131868
0.618524 0.308812 0.174472
0.838560 0.358160 0.171847
0.000000 0.365972 0.163516
0.048737 0.393408 0.134340
0.433814 0.447089 0.161959
0.715511 0.512596 0.211795
0.925933 0.595911 0.364080
0.000000 0.654017 0.180453
0.000000 0.676173 0.155795
0.447669 0.716609 0.217685
0.786374 0.762478 0.306401
0.975402 0.764584 0.456580
0.000000 0.119081 0.192569
0.055482 0.123659 0.216922
0.345495 0.120607 0.276707
0.512169 0.101381 0.215000
0.647242 0.071595 0.148287
0.000000 0.172427 0.228550
0.059113 0.180331 0.247044
0.347478 0.187655 0.287480
0.502739 0.141451 0.206821
0.700710 0.165286 0.181827
0.000000 0.270512 0.276524
0.014527 0.285435 0.289220
0.346136 0.314427 0.307286
0.575128 0.317876 0.283970
0.797543 0.338231 0.258244
0.000000 0.427192 0.330510
0.000000 0.440620 0.324987
0.296452 0.486122 0.315923
0.683467 0.550744 0.363043
0.889616 0.607507 0.447944
0.000000 0.652857 0.363531
0.000000 0.680262 0.348577
0.195682 0.724788 0.339147
0.713954 0.771725 0.430335
0.949340 0.786130 0.547906
0.000000 0.271824 0.407263
0.000000 0.276585 0.428412
0.229587 0.277073 0.468421
0.597345 0.300084 0.525719
0.790341 0.339696 0.470466
0.000000 0.316381 0.431708
0.000000 0.318944 0.444953
0.248844 0.332341 0.474464
0.590814 0.350530 0.527886
0.776699 0.353124 0.456764
0.000000 0.390784 0.461463
0.000000 0.394873 0.470527
0.217624 0.411078 0.492958
0.577111 0.438788 0.532006
0.759762 0.357458 0.413367
0.000000 0.533196 0.527855
0.000000 0.541680 0.534722
0.076783 0.566583 0.552239
0.587671 0.614343 0.576013
0.830930 0.584833 0.517693
0.000000 0.728847 0.596216
0.000000 0.738216 0.592096
0.000000 0.755398 0.571984
0.561334 0.788907 0.596216
0.909972 0.825437 0.682826
0.000000 0.474220 0.678523
0.000000 0.477882 0.688258
0.167178 0.500450 0.706447
0.526238 0.544427 0.738582
0.815732 0.618158 0.776516
0.000000 0.498482 0.683986
0.000000 0.501457 0.692012
0.144411 0.523583 0.710201
0.529259 0.574029 0.738979
0.813931 0.641871 0.778531
0.000000 0.547112 0.697108
0.000000 0.545800 0.702266
0.000000 0.562707 0.718135
0.532586 0.630426 0.742794
0.814633 0.689570 0.786618
0.000000 0.641382 0.732845
0.000000 0.642145 0.736843
0.000000 0.650690 0.748806
0.492988 0.706966 0.775143
0.823453 0.767117 0.806790
0.000000 0.773373 0.778439
0.000000 0.780850 0.785092
0.000000 0.796567 0.796017
0.402197 0.825559 0.809842
0.839750 0.866850 0.835050
