20 Preset/Rover Style/【2】XMP cho Photoshop - Lightroom CC/Tone/Rover 03.xmp
<x:xmpmeta xmlns:x="adobe:ns:meta/" x:xmptk="Adobe XMP Core 5.6-c140 79.160451, 2017/05/06-01:08:21        ">
 <rdf:RDF xmlns:rdf="http://www.w3.org/1999/02/22-rdf-syntax-ns#">
  <rdf:Description rdf:about=""
    xmlns:crs="http://ns.adobe.com/camera-raw-settings/1.0/"
   crs:PresetType="Normal"
   crs:Cluster=""
   crs:UUID="A2EE285382150D57657E60D017E203B7"
   crs:SupportsAmount="False"
   crs:SupportsColor="True"
   crs:SupportsMonochrome="True"
   crs:SupportsHighDynamicRange="True"
   crs:SupportsNormalDynamicRange="True"
   crs:SupportsSceneReferred="True"
   crs:SupportsOutputReferred="True"
   crs:CameraModelRestriction=""
   crs:Copyright=""
   crs:ContactInfo=""
   crs:Version="12.0"
   crs:ProcessVersion="6.7"
   crs:Saturation="-55"
   crs:Sharpness="30"
   crs:LuminanceSmoothing="0"
   crs:ColorNoiseReduction="25"
   crs:VignetteAmount="0"
   crs:ShadowTint="0"
   crs:RedHue="+28"
   crs:RedSaturation="+48"
   crs:GreenHue="+53"
   crs:GreenSaturation="-12"
   crs:BlueHue="-13"
   crs:BlueSaturation="+8"
   crs:Vibrance="-2"
   crs:HueAdjustmentRed="-4"
   crs:HueAdjustmentOrange="-20"
   crs:HueAdjustmentYellow="+10"
   crs:HueAdjustmentGreen="-15"
   crs:HueAdjustmentAqua="+5"
   crs:HueAdjustmentBlue="+4"
   crs:HueAdjustmentPurple="0"
   crs:HueAdjustmentMagenta="-3"
   crs:SaturationAdjustmentRed="+20"
   crs:SaturationAdjustmentOrange="+20"
   crs:SaturationAdjustmentYellow="-45"
   crs:SaturationAdjustmentGreen="-68"
   crs:SaturationAdjustmentAqua="-34"
   crs:SaturationAdjustmentBlue="-24"
   crs:SaturationAdjustmentPurple="-22"
   crs:SaturationAdjustmentMagenta="-15"
   crs:LuminanceAdjustmentRed="-1"
   crs:LuminanceAdjustmentOrange="+2"
   crs:LuminanceAdjustmentYellow="0"
   crs:LuminanceAdjustmentGreen="-18"
   crs:LuminanceAdjustmentAqua="-23"
   crs:LuminanceAdjustmentBlue="-29"
   crs:LuminanceAdjustmentPurple="+1"
   crs:LuminanceAdjustmentMagenta="+1"
   crs:SplitToningShadowHue="235"
   crs:SplitToningShadowSaturation="8"
   crs:SplitToningHighlightHue="27"
   crs:SplitToningHighlightSaturation="4"
   crs:SplitToningBalance="0"
   crs:ParametricShadows="0"
   crs:ParametricDarks="0"
   crs:ParametricLights="0"
   crs:ParametricHighlights="0"
   crs:ParametricShadowSplit="25"
   crs:ParametricMidtoneSplit="50"
   crs:ParametricHighlightSplit="75"
   crs:SharpenRadius="+1.0"
   crs:SharpenDetail="25"
   crs:SharpenEdgeMasking="0"
   crs:PostCropVignetteAmount="0"
   crs:GrainAmount="26"
   crs:GrainSize="37"
   crs:GrainFrequency="45"
   crs:ColorNoiseReductionDetail="50"
   crs:ColorNoiseReductionSmoothness="50"
   crs:LensProfileEnable="0"
   crs:LensManualDistortionAmount="0"
   crs:PerspectiveVertical="0"
   crs:PerspectiveHorizontal="0"
   crs:PerspectiveRotate="0.0"
   crs:PerspectiveScale="100"
   crs:PerspectiveAspect="0"
   crs:PerspectiveUpright="0"
   crs:PerspectiveX="0.00"
   crs:PerspectiveY="0.00"
   crs:AutoLateralCA="0"
   crs:Contrast2012="-20"
   crs:Highlights2012="-54"
   crs:Shadows2012="+4"
   crs:Whites2012="-33"
   crs:Blacks2012="+39"
   crs:Clarity2012="+1"
   crs:DefringePurpleAmount="0"
   crs:DefringePurpleHueLo="30"
   crs:DefringePurpleHueHi="70"
   crs:DefringeGreenAmount="0"
   crs:DefringeGreenHueLo="40"
   crs:DefringeGreenHueHi="60"
   crs:Dehaze="0"
   crs:ConvertToGrayscale="False"
   crs:OverrideLookVignette="False"
   crs:ToneCurveName2012="Custom"
   crs:CameraProfile="Adobe Standard"
   crs:LensProfileSetup="LensDefaults"
   crs:HasSettings="True">
   <crs:Name>
    <rdf:Alt>
     <rdf:li xml:lang="x-default">Rover 03</rdf:li>
    </rdf:Alt>
   </crs:Name>
   <crs:ShortName>
    <rdf:Alt>
     <rdf:li xml:lang="x-default"/>
    </rdf:Alt>
   </crs:ShortName>
   <crs:SortName>
    <rdf:Alt>
     <rdf:li xml:lang="x-default"/>
    </rdf:Alt>
   </crs:SortName>
   <crs:Group>
    <rdf:Alt>
     <rdf:li xml:lang="x-default">Rover Style 1</rdf:li>
    </rdf:Alt>
   </crs:Group>
   <crs:Description>
    <rdf:Alt>
     <rdf:li xml:lang="x-default"/>
    </rdf:Alt>
   </crs:Description>
   <crs:ToneCurvePV2012>
    <rdf:Seq>
     <rdf:li>0, 0</rdf:li>
     <rdf:li>45, 39</rdf:li>
     <rdf:li>101, 93</rdf:li>
     <rdf:li>210, 198</rdf:li>
     <rdf:li>255, 228</rdf:li>
    </rdf:Seq>
   </crs:ToneCurvePV2012>
   <crs:ToneCurvePV2012Red>
    <rdf:Seq>
     <rdf:li>0, 0</rdf:li>
     <rdf:li>43, 13</rdf:li>
     <rdf:li>82, 56</rdf:li>
     <rdf:li>119, 122</rdf:li>
     <rdf:li>196, 207</rdf:li>
     <rdf:li>255, 255</rdf:li>
    </rdf:Seq>
   </crs:ToneCurvePV2012Red>
   <crs:ToneCurvePV2012Green>
    <rdf:Seq>
     <rdf:li>0, 0</rdf:li>
     <rdf:li>41, 15</rdf:li>
     <rdf:li>86, 67</rdf:li>
     <rdf:li>118, 126</rdf:li>
     <rdf:li>180, 196</rdf:li>
     <rdf:li>255, 255</rdf:li>
    </rdf:Seq>
   </crs:ToneCurvePV2012Green>
   <crs:ToneCurvePV2012Blue>
    <rdf:Seq>
     <rdf:li>0, 0</rdf:li>
     <rdf:li>44, 14</rdf:li>
     <rdf:li>86, 62</rdf:li>
     <rdf:li>123, 127</rdf:li>
     <rdf:li>181, 200</rdf:li>
     <rdf:li>255, 255</rdf:li>
    </rdf:Seq>
   </crs:ToneCurvePV2012Blue>
   <crs:Look
    crs:Name=""/>
  </rdf:Description>
 </rdf:RDF>
</x:xmpmeta>
