20 Preset/Travel Style/【3】LUT video cho PR-AE-FCPX/Green Moody - Lut (5).cube
# Created by Adobe Lightroom plugin Export LUT (1.24.0)
# www.johnrellis.com/lightroom/exportlut.htm
# Preset: 05自然风光-巴厘岛-素材江湖
# Color profile: E:\lut插件\exportlut.1.24\exportlut.lrplugin\color profiles\Rec709gamma2.4.icc
LUT_3D_SIZE 5
DOMAIN_MIN 0.000000 0.000000 0.000000
DOMAIN_MAX 0.903226 0.903226 0.903226
0.176059 0.153475 0.141238
0.243809 0.158083 0.143618
0.474372 0.153872 0.135378
0.850401 0.222690 0.000000
1.000000 0.393011 0.000000
0.169711 0.220035 0.146700
0.233707 0.213382 0.145205
0.509575 0.258213 0.109010
0.882353 0.370611 0.000000
1.000000 0.473548 0.000000
0.000000 0.538628 0.117098
0.000000 0.545403 0.126589
0.499611 0.525902 0.030426
0.890257 0.635492 0.000000
1.000000 0.656489 0.000000
0.000000 0.878721 0.510155
0.000000 0.879454 0.536065
0.544091 0.877653 0.599329
0.798520 0.823972 0.364996
1.000000 0.826596 0.360479
0.517662 0.986847 0.848051
0.553674 0.985718 0.852384
0.641444 0.978546 0.852934
0.770840 0.972198 0.847532
0.920592 0.958679 0.755673
0.190799 0.164614 0.190951
0.247135 0.162142 0.192264
0.411078 0.168063 0.181918
0.791318 0.207218 0.162722
1.000000 0.383581 0.000000
0.190372 0.215885 0.196292
0.246342 0.218906 0.195407
0.447486 0.238499 0.192599
0.818204 0.317693 0.155367
1.000000 0.450507 0.000000
0.000000 0.494636 0.262791
0.000000 0.503258 0.245518
0.462135 0.477760 0.220829
0.859007 0.607019 0.199893
1.000000 0.649195 0.222721
0.000000 0.865415 0.610681
0.000000 0.868315 0.627222
0.560601 0.873930 0.705898
0.785794 0.818967 0.504601
1.000000 0.827634 0.518273
0.546044 0.984344 0.867521
0.577691 0.983185 0.870848
0.684352 0.979614 0.886229
0.790860 0.973175 0.881926
0.921111 0.961608 0.809873
0.161105 0.185519 0.422736
0.237552 0.184146 0.441444
0.474800 0.153445 0.474769
0.789517 0.000000 0.473396
1.000000 0.263920 0.433112
0.168215 0.242130 0.421881
0.235447 0.242527 0.437629
0.475746 0.234348 0.484810
0.773465 0.211490 0.461891
1.000000 0.382330 0.481300
0.000000 0.458076 0.527153
0.000000 0.458930 0.523461
0.460151 0.487404 0.544610
0.778134 0.556390 0.592706
1.000000 0.638239 0.651331
0.000000 0.831876 0.769436
0.000000 0.826841 0.768643
0.548272 0.835355 0.809934
0.755215 0.809659 0.770016
0.969146 0.840177 0.806424
0.542962 0.977661 0.900420
0.608270 0.975494 0.910002
0.715846 0.973449 0.922057
0.825864 0.969360 0.933715
0.916320 0.957183 0.882872
0.000000 0.225406 0.834623
0.000000 0.222751 0.845365
0.487221 0.198093 0.873564
0.799374 0.159548 0.886046
1.000000 0.294194 0.860807
0.000000 0.282902 0.826383
0.000000 0.282139 0.833066
0.465095 0.277501 0.861631
0.782315 0.276524 0.876951
1.000000 0.373541 0.853758
0.000000 0.439216 0.780728
0.000000 0.439216 0.784298
0.380987 0.472541 0.831388
0.735866 0.519188 0.863432
0.960143 0.581109 0.852506
0.000000 0.759487 0.889738
0.000000 0.756435 0.886595
0.359686 0.757839 0.884276
0.724758 0.780789 0.893645
0.938964 0.826047 0.914092
0.297887 0.977966 0.937377
0.399512 0.976623 0.938628
0.635218 0.972839 0.946410
0.855314 0.966644 0.966766
0.925902 0.956786 0.951446
0.306615 0.364569 1.000000
0.377081 0.363622 1.000000
0.572717 0.371313 1.000000
0.795987 0.404639 1.000000
0.998260 0.465553 1.000000
0.268620 0.405432 1.000000
0.349828 0.405982 1.000000
0.554681 0.414679 1.000000
0.782528 0.448615 1.000000
0.988281 0.503990 1.000000
0.000000 0.543908 0.993439
0.222324 0.544335 0.992798
0.496712 0.554589 0.993713
0.745785 0.586847 0.995819
0.965545 0.641901 0.996490
0.000000 0.739467 0.990570
0.000000 0.733883 0.988983
0.359777 0.719265 0.984924
0.708827 0.756527 0.989502
0.950805 0.817014 0.993347
0.240940 0.943542 0.994537
0.323003 0.942962 0.994049
0.534997 0.944152 0.993011
0.743130 0.945037 0.990204
0.932982 0.949889 0.986847
