20 Preset/Travel Style/【3】LUT video cho PR-AE-FCPX/Green Moody - Lut (26).cube
# Created by Adobe Lightroom plugin Export LUT (1.24.0)
# www.johnrellis.com/lightroom/exportlut.htm
# Preset: 26自然风光-中式-素材江湖
# Color profile: E:\lut插件\exportlut.1.24\exportlut.lrplugin\color profiles\Rec709gamma2.4.icc
LUT_3D_SIZE 8
DOMAIN_MIN 0.000000 0.000000 0.000000
DOMAIN_MAX 0.903226 0.903226 0.903226
0.093294 0.112764 0.141970
0.107454 0.111360 0.141939
0.198032 0.098024 0.142489
0.320928 0.077943 0.139651
0.492042 0.000000 0.129549
0.696925 0.000000 0.111391
0.927703 0.000000 0.011139
1.000000 0.000000 0.000000
0.088106 0.128054 0.141939
0.113313 0.127810 0.141878
0.190372 0.128176 0.139712
0.306737 0.124605 0.136355
0.471595 0.108156 0.127596
0.672358 0.000000 0.109346
0.891936 0.000000 0.011231
1.000000 0.000000 0.000000
0.121462 0.202090 0.140963
0.145113 0.202914 0.140810
0.188388 0.189761 0.143252
0.302983 0.208957 0.133150
0.486549 0.237766 0.107820
0.710323 0.251377 0.014801
0.927276 0.272526 0.000000
1.000000 0.284062 0.000000
0.165896 0.345769 0.125032
0.192538 0.345495 0.124331
0.266911 0.343694 0.122713
0.331365 0.318029 0.133089
0.474220 0.337774 0.109926
0.750423 0.445747 0.000000
0.932921 0.473121 0.000000
1.000000 0.468299 0.000000
0.243565 0.557763 0.000000
0.271336 0.558099 0.000000
0.369238 0.566735 0.000000
0.453162 0.542351 0.000000
0.493935 0.471229 0.046174
0.592645 0.443397 0.043153
0.861357 0.568750 0.000000
1.000000 0.628870 0.000000
0.390234 0.758694 0.000000
0.421210 0.768582 0.000000
0.499825 0.771817 0.000000
0.598810 0.766049 0.000000
0.661860 0.726711 0.000000
0.691646 0.650782 0.000000
0.756344 0.588739 0.000000
0.982879 0.695033 0.000000
0.553857 0.897887 0.237186
0.567895 0.899138 0.242252
0.613672 0.898375 0.243259
0.694942 0.898314 0.252537
0.759792 0.881804 0.205112
0.826261 0.857511 0.120943
0.864225 0.802274 0.000000
0.901549 0.724208 0.034760
0.677363 0.974578 0.518700
0.683894 0.974365 0.519280
0.712001 0.973877 0.524956
0.764828 0.973266 0.539452
0.817472 0.963958 0.494484
0.878691 0.956359 0.471962
0.950835 0.946471 0.441932
0.998718 0.911254 0.400061
0.094942 0.114015 0.151095
0.108309 0.110750 0.152682
0.188968 0.102602 0.151827
0.299016 0.097475 0.152743
0.464363 0.000000 0.149081
0.661311 0.000000 0.137545
0.874296 0.000000 0.108553
1.000000 0.000000 0.003174
0.085725 0.126223 0.151003
0.111574 0.130129 0.152377
0.185611 0.131868 0.152407
0.299016 0.128267 0.151614
0.461646 0.103395 0.146609
0.658259 0.000000 0.133333
0.859037 0.000000 0.102113
1.000000 0.000000 0.000000
0.114168 0.199680 0.156374
0.137301 0.200809 0.156222
0.186923 0.192691 0.156527
0.303288 0.212650 0.146975
0.471229 0.227176 0.132326
0.673274 0.230777 0.105043
0.874052 0.233860 0.000000
1.000000 0.249912 0.000000
0.148898 0.330175 0.147341
0.176547 0.331060 0.146334
0.255650 0.333806 0.144198
0.311070 0.301793 0.150393
0.439185 0.316045 0.134035
0.691463 0.407721 0.000000
0.878630 0.429816 0.000000
1.000000 0.439582 0.000000
0.221927 0.543297 0.062837
0.250828 0.541833 0.056794
0.346410 0.546044 0.022889
0.430549 0.520409 0.044984
0.468727 0.449287 0.113466
0.569421 0.427771 0.104799
0.837827 0.550317 0.000000
1.000000 0.613153 0.000000
0.360601 0.740505 0.000000
0.383520 0.741939 0.000000
0.465064 0.746670 0.000000
0.574853 0.746883 0.000000
0.641749 0.710140 0.000000
0.677241 0.639155 0.000000
0.745022 0.580285 0.000000
0.972015 0.687007 0.000000
0.532494 0.886992 0.238285
0.542718 0.885496 0.233768
0.590112 0.884611 0.233707
0.675502 0.886473 0.246036
0.747280 0.873503 0.215305
0.813230 0.848081 0.137606
0.846769 0.788540 0.000000
0.881865 0.708125 0.012787
0.663813 0.970184 0.506523
0.672572 0.970703 0.512322
0.701076 0.970153 0.516991
0.755367 0.969787 0.532464
0.821378 0.966979 0.537926
0.878447 0.957549 0.499519
0.948058 0.945556 0.453254
0.995941 0.910063 0.406989
0.110353 0.118654 0.199100
0.127016 0.113527 0.202884
0.196231 0.100435 0.212558
0.320897 0.070649 0.217594
0.486641 0.000000 0.219608
0.692073 0.000000 0.212802
0.901305 0.000000 0.203616
1.000000 0.000000 0.191104
0.120424 0.136324 0.199832
0.133516 0.135561 0.202243
0.194858 0.129885 0.210605
0.316686 0.115846 0.213535
0.479622 0.000000 0.213230
0.682612 0.000000 0.205814
0.886198 0.000000 0.196994
1.000000 0.000000 0.182895
0.102358 0.198337 0.200229
0.122591 0.201541 0.201572
0.190036 0.214450 0.207919
0.322789 0.214969 0.207004
0.495796 0.210208 0.204044
0.701198 0.194430 0.196994
0.894255 0.180575 0.182498
1.000000 0.197024 0.164187
0.000000 0.339513 0.200687
0.089265 0.343969 0.209567
0.238407 0.354345 0.216831
0.329046 0.331487 0.212100
0.493355 0.361120 0.195895
0.722042 0.409888 0.161349
0.901488 0.422187 0.132998
1.000000 0.427955 0.106020
0.130129 0.543114 0.218936
0.181949 0.544427 0.218387
0.307805 0.552453 0.217716
0.439277 0.549157 0.212314
0.490669 0.479591 0.203677
0.614679 0.469093 0.182803
0.866453 0.576623 0.000000
1.000000 0.608026 0.000000
0.306706 0.738582 0.237125
0.334813 0.740810 0.238743
0.427344 0.744930 0.240696
0.564508 0.753506 0.245548
0.637324 0.717006 0.211521
0.677974 0.647089 0.190127
0.762966 0.601862 0.173739
0.981842 0.699458 0.098848
0.513420 0.889860 0.371099
0.524102 0.888731 0.368811
0.571618 0.886870 0.366033
0.657893 0.887205 0.372930
0.742061 0.877989 0.355291
0.810452 0.853635 0.298558
0.851804 0.798459 0.238102
0.901030 0.728847 0.213169
0.656916 0.969696 0.580652
0.662531 0.969177 0.578973
0.690791 0.968597 0.582483
0.747158 0.969268 0.602808
0.817929 0.967590 0.615595
0.873655 0.959319 0.581964
0.942382 0.948028 0.535210
0.992493 0.913695 0.479927
0.140780 0.113710 0.301518
0.156527 0.111727 0.308598
0.215763 0.101900 0.326116
0.331395 0.015015 0.350408
0.498054 0.000000 0.363012
0.706386 0.000000 0.379919
0.895415 0.000000 0.377173
1.000000 0.000000 0.361944
0.146914 0.139864 0.308324
0.161349 0.138491 0.312657
0.218235 0.130404 0.328893
0.335821 0.095003 0.353887
0.503960 0.000000 0.364324
0.708919 0.000000 0.376989
0.893797 0.000000 0.371862
1.000000 0.000000 0.356939
0.127535 0.195346 0.301854
0.148867 0.202396 0.306706
0.215885 0.214694 0.323766
0.334142 0.202945 0.349462
0.522667 0.181064 0.364691
0.728481 0.122988 0.372229
0.918791 0.000000 0.372534
1.000000 0.057923 0.361730
0.000000 0.329107 0.320897
0.004211 0.331670 0.322393
0.188602 0.345708 0.332738
0.331060 0.376623 0.355413
0.522637 0.378454 0.353979
0.721401 0.379767 0.352148
0.901549 0.387335 0.350256
1.000000 0.400519 0.348760
0.000000 0.540612 0.356085
0.000000 0.542290 0.355688
0.085512 0.556451 0.358038
0.407935 0.580560 0.398016
0.515373 0.531243 0.367864
0.693111 0.551354 0.351507
0.898802 0.610437 0.348608
1.000000 0.602838 0.346807
0.144137 0.749111 0.431495
0.220676 0.757290 0.441840
0.354589 0.759365 0.443977
0.520165 0.768338 0.455329
0.648890 0.755825 0.439002
0.693416 0.680690 0.374365
0.804959 0.654994 0.342199
0.995544 0.727047 0.365332
0.465034 0.890013 0.534356
0.480812 0.890776 0.537224
0.537682 0.891875 0.543664
0.630701 0.894011 0.556634
0.740719 0.894408 0.568597
0.806638 0.868956 0.498146
0.852171 0.812894 0.412238
0.919829 0.756008 0.365606
0.654566 0.971008 0.699184
0.660792 0.970825 0.699397
0.687098 0.970275 0.702052
0.737514 0.969696 0.710628
0.805966 0.968292 0.721279
0.865690 0.962097 0.701228
0.929961 0.951354 0.654353
0.983764 0.920317 0.596979
0.159152 0.107912 0.474556
0.176761 0.104829 0.482216
0.240726 0.086091 0.500877
0.351202 0.000000 0.540826
0.514427 0.000000 0.577173
0.709621 0.000000 0.590997
0.903532 0.000000 0.603174
1.000000 0.000000 0.585412
0.162356 0.136416 0.481575
0.179812 0.134371 0.489204
0.243198 0.121187 0.507286
0.352026 0.034943 0.541833
0.517601 0.000000 0.580041
0.713588 0.000000 0.592370
0.904204 0.000000 0.601099
1.000000 0.000000 0.582818
0.162478 0.221103 0.484016
0.179416 0.220279 0.488441
0.240604 0.215244 0.503624
0.349767 0.199832 0.539269
0.516716 0.153628 0.575341
0.709377 0.000000 0.578820
0.896757 0.000000 0.584466
1.000000 0.000000 0.566766
0.000000 0.308568 0.477058
0.035889 0.310185 0.479377
0.207950 0.325536 0.492805
0.346685 0.365454 0.536736
0.520531 0.360754 0.581506
0.725673 0.350713 0.582391
0.895018 0.348852 0.575219
1.000000 0.362860 0.561547
0.000000 0.495979 0.504936
0.000000 0.499702 0.508141
0.000000 0.512230 0.518853
0.310155 0.538079 0.541009
0.498116 0.576837 0.574273
0.701442 0.574945 0.568811
0.872831 0.578302 0.566522
1.000000 0.582910 0.564508
0.000000 0.697719 0.541833
0.000000 0.700252 0.543664
0.000000 0.705501 0.544793
0.301061 0.721828 0.553735
0.572473 0.745235 0.608179
0.675654 0.703029 0.564599
0.833982 0.716793 0.560204
0.989807 0.758572 0.597223
0.154849 0.880766 0.612299
0.215366 0.879881 0.614588
0.390234 0.878386 0.643275
0.548577 0.882322 0.680232
0.681971 0.888060 0.701350
0.781491 0.877012 0.679072
0.830869 0.820188 0.578882
0.923522 0.780636 0.527153
0.610437 0.964080 0.769345
0.616785 0.963897 0.769345
0.644739 0.963470 0.771450
0.706783 0.965240 0.787411
0.778164 0.965026 0.798306
0.855039 0.963256 0.804959
0.908812 0.951659 0.759152
0.963165 0.920714 0.690852
0.182559 0.052155 0.704829
0.204257 0.034089 0.710170
0.275608 0.000000 0.720851
0.387030 0.000000 0.746944
0.540917 0.000000 0.790799
0.724788 0.000000 0.814328
0.899474 0.000000 0.814145
1.000000 0.000000 0.797879
0.181064 0.117494 0.692409
0.201022 0.113619 0.695247
0.270146 0.090150 0.707942
0.379950 0.000000 0.735409
0.529015 0.000000 0.776486
0.713619 0.000000 0.802487
0.889921 0.000000 0.804135
1.000000 0.000000 0.790677
0.180423 0.222263 0.703853
0.200839 0.220798 0.706477
0.272465 0.214176 0.720211
0.380163 0.192660 0.739071
0.529870 0.133669 0.777035
0.717525 0.000000 0.804715
0.895323 0.000000 0.805509
1.000000 0.000000 0.787320
0.064179 0.335332 0.700587
0.140871 0.341131 0.702815
0.269078 0.369696 0.719570
0.386511 0.373419 0.752651
0.542504 0.368475 0.792233
0.730892 0.353857 0.820462
0.904204 0.352697 0.813626
1.000000 0.369207 0.787839
0.000000 0.470985 0.686397
0.000000 0.472480 0.687648
0.000000 0.479408 0.694911
0.316838 0.496925 0.711452
0.512840 0.559106 0.758358
0.697963 0.566888 0.798001
0.872831 0.570306 0.789059
0.995880 0.582544 0.770260
0.000000 0.671687 0.706996
0.000000 0.676722 0.712337
0.000000 0.683742 0.717922
0.267948 0.698451 0.730434
0.486915 0.722133 0.750576
0.674769 0.765743 0.790372
0.837949 0.768643 0.792935
0.959533 0.768399 0.792233
0.000000 0.860960 0.764065
0.000000 0.863066 0.766751
0.223087 0.865904 0.770382
0.416907 0.871916 0.779049
0.584558 0.881895 0.797757
0.758267 0.891752 0.836088
0.815824 0.849973 0.777493
0.931121 0.845426 0.770840
0.495888 0.962158 0.812772
0.502953 0.961730 0.812406
0.542596 0.961547 0.816312
0.626429 0.962158 0.833097
0.743008 0.960845 0.864317
0.829221 0.962036 0.876066
0.894102 0.956268 0.864775
0.939940 0.926848 0.804654
0.278965 0.000000 0.875151
0.296635 0.000000 0.879332
0.351629 0.000000 0.883909
0.445716 0.000000 0.896147
0.566247 0.000000 0.911711
0.706325 0.000000 0.930632
0.862089 0.000000 0.938079
1.000000 0.000000 0.933959
0.265904 0.081300 0.861357
0.284825 0.066804 0.866667
0.339971 0.000000 0.872190
0.431708 0.000000 0.882963
0.551568 0.000000 0.898924
0.690730 0.000000 0.917571
0.845212 0.000000 0.924285
0.997009 0.000000 0.918791
0.269535 0.216587 0.868040
0.284642 0.214511 0.869352
0.338140 0.204227 0.872831
0.430365 0.179629 0.882841
0.548669 0.114839 0.896788
0.690669 0.000000 0.917205
0.852628 0.000000 0.929870
1.000000 0.000000 0.927520
0.267460 0.368658 0.870542
0.280522 0.365972 0.870024
0.333837 0.360632 0.872618
0.429908 0.355474 0.884367
0.550713 0.341436 0.899351
0.695277 0.323339 0.921538
0.857877 0.311559 0.935515
1.000000 0.313512 0.927153
0.000000 0.441260 0.842130
0.000000 0.443214 0.840818
0.214603 0.461830 0.845304
0.392248 0.507317 0.860777
0.526024 0.519310 0.880430
0.669703 0.521965 0.904387
0.834440 0.529686 0.922057
0.987060 0.556085 0.915465
0.000000 0.625879 0.843351
0.000000 0.627192 0.844419
0.000000 0.631037 0.847318
0.278477 0.639643 0.853483
0.475624 0.656031 0.862119
0.669581 0.729213 0.894499
0.823575 0.752193 0.919921
0.953033 0.756619 0.908354
0.000000 0.817166 0.862913
0.000000 0.819394 0.864836
0.000000 0.822293 0.866667
0.339178 0.829618 0.871519
0.516381 0.839994 0.877989
0.674342 0.857420 0.889708
0.815213 0.885344 0.911040
0.924804 0.884001 0.910674
0.395697 0.948180 0.887358
0.411810 0.948486 0.888060
0.479042 0.950561 0.892424
0.565881 0.951965 0.896849
0.665583 0.953582 0.903227
0.770108 0.957488 0.914488
0.883604 0.962005 0.934630
0.920897 0.937804 0.902037
0.397803 0.050202 0.971435
0.408270 0.037537 0.972686
0.441016 0.000000 0.972778
0.506401 0.000000 0.977295
0.594293 0.000000 0.983032
0.697475 0.000000 0.989960
0.813535 0.000000 0.999329
0.951507 0.000000 1.000000
0.389532 0.115297 0.966369
0.400214 0.112367 0.967834
0.435096 0.073732 0.969177
0.499947 0.000000 0.973297
0.588251 0.000000 0.979339
0.692317 0.000000 0.986664
0.808072 0.000000 0.995697
0.945434 0.000000 0.997375
0.384253 0.227512 0.963287
0.393591 0.225803 0.963958
0.427649 0.213718 0.964874
0.498360 0.197696 0.972045
0.584588 0.144137 0.976989
0.687037 0.000000 0.983368
0.804410 0.000000 0.993133
0.943206 0.000000 0.995575
0.373449 0.358618 0.958343
0.384161 0.358953 0.959442
0.419837 0.353338 0.961120
0.487922 0.345922 0.966308
0.577325 0.329046 0.972869
0.682094 0.298283 0.980743
0.801175 0.249790 0.991119
0.941863 0.201511 0.994690
0.309789 0.471809 0.948638
0.329778 0.477302 0.949889
0.388403 0.490211 0.950805
0.466407 0.495705 0.955627
0.556176 0.487678 0.962280
0.662959 0.476112 0.971160
0.786069 0.466590 0.982940
0.930968 0.468727 0.989166
0.000000 0.561212 0.939055
0.000000 0.558221 0.937987
0.133639 0.551873 0.936004
0.349737 0.578302 0.938018
0.522576 0.633845 0.946014
0.656397 0.669154 0.960266
0.783749 0.694636 0.975219
0.920134 0.716884 0.983276
0.000000 0.763699 0.944274
0.000000 0.763424 0.944060
0.207553 0.763088 0.943481
0.361242 0.766781 0.944244
0.502953 0.775174 0.945708
0.644251 0.793240 0.948882
0.803403 0.852537 0.963531
0.915801 0.867674 0.974792
0.360937 0.916930 0.950835
0.370947 0.916838 0.950622
0.419959 0.917723 0.950713
0.507591 0.920928 0.951965
0.608576 0.925109 0.953368
0.713710 0.930632 0.955230
0.818784 0.939269 0.959228
0.920409 0.955322 0.969146
