20 Preset/Travel Style/【3】LUT video cho PR-AE-FCPX/Green Moody - Lut (11).cube
# Created by Adobe Lightroom plugin Export LUT (1.24.0)
# www.johnrellis.com/lightroom/exportlut.htm
# Preset: 11自然风光-绿色-素材江湖
# Color profile: E:\lut插件\exportlut.1.24\exportlut.lrplugin\color profiles\Rec709gamma2.4.icc
LUT_3D_SIZE 8
DOMAIN_MIN 0.000000 0.000000 0.000000
DOMAIN_MAX 0.903226 0.903226 0.903226
0.122255 0.140536 0.141054
0.132937 0.140627 0.140841
0.200687 0.146212 0.138369
0.310704 0.168002 0.136995
0.500542 0.210239 0.126009
0.722499 0.265263 0.088533
0.915343 0.323888 0.000000
1.000000 0.376593 0.000000
0.124178 0.148898 0.146731
0.130098 0.153750 0.144411
0.198459 0.163882 0.141207
0.309514 0.186679 0.140444
0.498512 0.230808 0.128908
0.719051 0.285557 0.091463
0.908507 0.340093 0.000000
1.000000 0.390112 0.000000
0.146700 0.190280 0.182620
0.155581 0.186740 0.186130
0.171664 0.213199 0.175753
0.315343 0.257908 0.158663
0.513664 0.306950 0.139376
0.731838 0.363012 0.101076
0.916381 0.410864 0.037415
1.000000 0.450507 0.109712
0.181765 0.264927 0.245243
0.191531 0.260227 0.247166
0.204013 0.264042 0.252781
0.268193 0.342779 0.232334
0.527337 0.443671 0.184604
0.746090 0.486824 0.154025
0.917845 0.518151 0.157015
1.000000 0.545464 0.211246
0.238315 0.376593 0.341527
0.248386 0.371313 0.342473
0.283055 0.350927 0.350622
0.281804 0.403601 0.353033
0.417334 0.521416 0.331151
0.719112 0.632074 0.288914
0.894865 0.656214 0.297765
1.000000 0.658869 0.343084
0.324956 0.504723 0.460700
0.333928 0.501854 0.462715
0.362829 0.482582 0.465736
0.393225 0.468421 0.476478
0.408881 0.574914 0.483589
0.584649 0.695888 0.482582
0.860349 0.789334 0.491157
0.978088 0.796414 0.533440
0.461067 0.653315 0.608911
0.466407 0.650233 0.609308
0.485573 0.635401 0.610040
0.519249 0.605341 0.615198
0.530663 0.648859 0.629755
0.589502 0.750973 0.648463
0.740902 0.834714 0.666468
0.929686 0.891569 0.697932
0.673945 0.818692 0.786069
0.676509 0.817258 0.786404
0.687709 0.811063 0.788449
0.709651 0.798520 0.794186
0.731868 0.778134 0.800290
0.745296 0.843107 0.814389
0.796017 0.895140 0.828305
0.874540 0.931334 0.838682
0.118013 0.140505 0.153140
0.137087 0.138430 0.157839
0.204562 0.138521 0.153964
0.312810 0.169406 0.161440
0.502953 0.204532 0.155550
0.721492 0.257206 0.134798
0.908354 0.314366 0.107820
1.000000 0.370520 0.115602
0.118685 0.155245 0.158175
0.136782 0.160006 0.160922
0.199344 0.169375 0.163210
0.314397 0.189059 0.164614
0.504509 0.227512 0.157382
0.721920 0.279088 0.136355
0.905638 0.332372 0.111299
1.000000 0.385107 0.122194
0.148684 0.205997 0.195560
0.158785 0.202121 0.196689
0.178622 0.220218 0.192325
0.321813 0.260502 0.179904
0.516686 0.306157 0.167453
0.729152 0.357977 0.146426
0.908598 0.403662 0.133120
1.000000 0.446143 0.162051
0.182406 0.281102 0.257298
0.193393 0.276432 0.258549
0.217868 0.269413 0.266911
0.272068 0.345708 0.247593
0.521447 0.437964 0.209262
0.737209 0.478218 0.189487
0.908446 0.512108 0.194461
1.000000 0.542168 0.240604
0.240818 0.392218 0.353918
0.251011 0.386603 0.354040
0.287053 0.365332 0.360327
0.291142 0.406073 0.364385
0.418891 0.521630 0.345129
0.715175 0.628992 0.310185
0.891142 0.653254 0.320439
1.000000 0.657679 0.363317
0.327764 0.515435 0.469520
0.335454 0.511315 0.469917
0.365118 0.492287 0.472206
0.401740 0.468574 0.483101
0.414435 0.575097 0.492012
0.586267 0.696315 0.494057
0.858396 0.788449 0.504723
0.975921 0.795682 0.544152
0.461707 0.658564 0.612634
0.465888 0.654505 0.611902
0.485206 0.639826 0.612268
0.519066 0.610010 0.616815
0.533959 0.646662 0.632319
0.590478 0.749325 0.651514
0.739986 0.833127 0.669459
0.928252 0.890105 0.701076
0.671321 0.819303 0.785397
0.674617 0.818326 0.786252
0.685573 0.811948 0.787991
0.707485 0.799405 0.793423
0.737362 0.779690 0.804074
0.748043 0.843351 0.816800
0.796689 0.894835 0.829679
0.874907 0.931243 0.840085
0.117983 0.145754 0.212467
0.133730 0.144015 0.217899
0.204135 0.138277 0.235966
0.327977 0.129732 0.255711
0.537499 0.000000 0.239506
0.751858 0.175265 0.234043
0.925048 0.287846 0.249363
1.000000 0.363622 0.271885
0.125887 0.170260 0.217563
0.138216 0.169070 0.222324
0.204990 0.162966 0.239780
0.334661 0.154452 0.253056
0.543847 0.081025 0.222171
0.747707 0.242710 0.245792
0.921721 0.311589 0.251926
1.000000 0.380407 0.276066
0.119173 0.227634 0.239536
0.138125 0.231388 0.242039
0.204044 0.247471 0.251957
0.348028 0.267521 0.256199
0.546075 0.302800 0.259709
0.751339 0.348425 0.262913
0.920409 0.397436 0.273411
1.000000 0.448249 0.303685
0.130190 0.351141 0.317693
0.172396 0.350683 0.320592
0.249180 0.331853 0.322118
0.305028 0.378027 0.320348
0.550530 0.452399 0.306249
0.754269 0.484596 0.308537
0.915709 0.519646 0.325933
1.000000 0.552819 0.364721
0.250278 0.465705 0.418219
0.263981 0.460151 0.416541
0.310002 0.437415 0.415045
0.345953 0.430854 0.425208
0.449989 0.548302 0.419135
0.727962 0.641291 0.406592
0.895262 0.659480 0.421546
1.000000 0.670283 0.461494
0.350134 0.573327 0.521263
0.358679 0.569146 0.520623
0.389075 0.550195 0.519036
0.435584 0.511437 0.523796
0.450263 0.589288 0.537560
0.605005 0.708186 0.548608
0.858244 0.793271 0.569238
0.972107 0.801205 0.603693
0.483406 0.695735 0.645869
0.487556 0.691981 0.644831
0.505303 0.677333 0.642878
0.537255 0.648096 0.643580
0.561608 0.650721 0.655360
0.609339 0.754208 0.677638
0.750851 0.837980 0.700130
0.930205 0.893126 0.734798
0.679408 0.833188 0.796384
0.681514 0.831601 0.796323
0.691676 0.825467 0.797299
0.713252 0.813870 0.801846
0.742611 0.792111 0.810361
0.756680 0.842496 0.824247
0.802457 0.895445 0.837919
0.878691 0.932280 0.848997
0.093660 0.157382 0.340429
0.122377 0.156161 0.347295
0.211917 0.146273 0.374090
0.353246 0.106142 0.410864
0.539269 0.000000 0.446082
0.765713 0.000000 0.454810
0.951659 0.000000 0.394079
1.000000 0.232944 0.399207
0.088289 0.183474 0.351507
0.118135 0.182101 0.357458
0.210239 0.172061 0.381048
0.357763 0.137026 0.417609
0.547753 0.000000 0.448890
0.771206 0.000000 0.447974
0.952758 0.000000 0.386084
1.000000 0.308324 0.418921
0.114961 0.268894 0.361975
0.132448 0.270512 0.369451
0.201694 0.266972 0.396399
0.366064 0.243137 0.433600
0.575616 0.222812 0.453834
0.788235 0.214267 0.424323
0.941985 0.343420 0.431342
1.000000 0.472724 0.485786
0.000000 0.388739 0.426886
0.000000 0.392340 0.429053
0.199466 0.407996 0.439490
0.369879 0.441291 0.459632
0.579309 0.467811 0.467659
0.764370 0.501061 0.480232
0.914580 0.539147 0.499641
1.000000 0.579767 0.529290
0.000000 0.576379 0.534997
0.000000 0.574670 0.534386
0.298894 0.567834 0.535973
0.431647 0.535668 0.535729
0.507500 0.592981 0.545525
0.745022 0.660578 0.551629
0.897185 0.674159 0.568109
1.000000 0.696407 0.598840
0.397467 0.676783 0.628534
0.416815 0.676448 0.631464
0.447822 0.659297 0.622370
0.493782 0.623224 0.611902
0.527062 0.617609 0.619440
0.642908 0.732265 0.639857
0.859983 0.803250 0.665003
0.966125 0.811185 0.690761
0.530205 0.759945 0.709834
0.534295 0.757443 0.708949
0.549859 0.745510 0.704616
0.577691 0.720058 0.699184
0.613886 0.674434 0.698878
0.645899 0.763058 0.722591
0.769650 0.846006 0.747585
0.932799 0.897673 0.783291
0.698787 0.859800 0.820127
0.700801 0.858518 0.819974
0.709560 0.852934 0.819608
0.727016 0.841428 0.820371
0.752499 0.821134 0.824308
0.772366 0.838956 0.836637
0.812009 0.895811 0.851560
0.885588 0.934356 0.864134
0.000000 0.171420 0.550134
0.000000 0.169253 0.556023
0.211368 0.154543 0.575860
0.378302 0.086702 0.612421
0.569360 0.000000 0.647242
0.762417 0.000000 0.662043
0.939666 0.000000 0.661341
1.000000 0.000000 0.612757
0.000000 0.201328 0.559258
0.000000 0.198734 0.564599
0.204623 0.185519 0.582788
0.376684 0.136843 0.616632
0.572229 0.000000 0.650752
0.766598 0.000000 0.663691
0.940978 0.000000 0.659266
1.000000 0.000000 0.611719
0.000000 0.305455 0.577050
0.000000 0.303899 0.581048
0.183169 0.294682 0.596796
0.368292 0.268742 0.627405
0.578637 0.214023 0.660121
0.775387 0.187930 0.665431
0.941039 0.214328 0.649653
1.000000 0.317327 0.612238
0.027375 0.446143 0.595148
0.139651 0.449958 0.596887
0.276829 0.467872 0.605280
0.389746 0.472084 0.639490
0.584588 0.444526 0.674495
0.780148 0.449226 0.671901
0.929870 0.483040 0.649134
1.000000 0.545678 0.644892
0.000000 0.596277 0.655055
0.000000 0.599084 0.656519
0.261906 0.609796 0.662226
0.434180 0.629816 0.672389
0.589075 0.659358 0.687831
0.752987 0.677485 0.693416
0.885985 0.699855 0.704463
0.983490 0.724239 0.720363
0.196658 0.764401 0.732204
0.247044 0.763149 0.731350
0.376806 0.756802 0.727626
0.522698 0.744320 0.724788
0.621942 0.710384 0.718959
0.691096 0.759792 0.735714
0.863493 0.812497 0.755581
0.962005 0.819120 0.770504
0.545312 0.829007 0.781491
0.554314 0.827390 0.781247
0.590417 0.821317 0.781430
0.639033 0.806332 0.778805
0.666682 0.770077 0.764614
0.693019 0.768185 0.770352
0.792721 0.855375 0.798917
0.933501 0.901274 0.828489
0.722316 0.892607 0.853544
0.723751 0.891386 0.852811
0.730404 0.886473 0.850462
0.745785 0.877134 0.848142
0.766476 0.859129 0.845853
0.794247 0.829618 0.849851
0.822080 0.893431 0.866728
0.892912 0.935882 0.881132
0.000000 0.200565 0.752529
0.000000 0.197726 0.755276
0.213169 0.183871 0.764736
0.389746 0.137819 0.782712
0.571313 0.000000 0.807523
0.760922 0.000000 0.824949
0.935210 0.000000 0.826749
1.000000 0.000000 0.802884
0.000000 0.233036 0.753689
0.000000 0.230716 0.755947
0.207767 0.217960 0.765072
0.386297 0.182406 0.782467
0.568048 0.000000 0.806455
0.759701 0.000000 0.824125
0.933776 0.000000 0.825559
1.000000 0.000000 0.801755
0.000000 0.349737 0.763455
0.000000 0.347601 0.765408
0.215274 0.339330 0.773678
0.385443 0.317815 0.788144
0.566217 0.270726 0.809995
0.762112 0.206699 0.827634
0.933532 0.225101 0.825834
1.000000 0.309697 0.801999
0.236057 0.519036 0.765652
0.257481 0.519921 0.767880
0.332616 0.523827 0.777920
0.434119 0.515373 0.793820
0.578729 0.492103 0.814206
0.764034 0.463661 0.832059
0.923278 0.482399 0.826261
1.000000 0.523247 0.805692
0.342809 0.642359 0.782010
0.362585 0.644953 0.782650
0.433326 0.656092 0.785092
0.537346 0.678004 0.789975
0.624598 0.686549 0.808957
0.757778 0.665492 0.829770
0.898375 0.672084 0.824063
0.993835 0.697414 0.808865
0.389197 0.762264 0.813230
0.407233 0.764065 0.814176
0.467567 0.769223 0.815885
0.559655 0.778897 0.819394
0.661921 0.792813 0.824643
0.764706 0.812894 0.834287
0.871183 0.824643 0.838560
0.954833 0.837644 0.845548
0.498329 0.890990 0.865904
0.511498 0.890349 0.865446
0.557458 0.886809 0.862821
0.632380 0.879362 0.858061
0.718868 0.866453 0.852720
0.774136 0.835325 0.842161
0.827787 0.872251 0.857450
0.939574 0.907652 0.876249
0.711360 0.928985 0.890562
0.715145 0.928252 0.890288
0.731777 0.925414 0.889708
0.762783 0.919646 0.889189
0.799588 0.908171 0.887694
0.817288 0.884031 0.878935
0.839933 0.888487 0.886351
0.904509 0.939422 0.904082
0.097475 0.275364 0.890501
0.158328 0.274357 0.891997
0.279881 0.265263 0.895415
0.417639 0.242191 0.902647
0.565789 0.184787 0.912535
0.726497 0.000000 0.924681
0.891386 0.000000 0.930999
1.000000 0.000000 0.930022
0.116640 0.305119 0.888060
0.169833 0.304387 0.889769
0.282872 0.295384 0.893278
0.416114 0.273991 0.900084
0.562921 0.225010 0.909819
0.722530 0.008728 0.921630
0.887144 0.000000 0.927764
1.000000 0.000000 0.926238
0.226627 0.420294 0.889769
0.248631 0.418494 0.890623
0.323766 0.410712 0.893553
0.435035 0.393957 0.899901
0.568597 0.362188 0.908934
0.722408 0.302403 0.920867
0.886748 0.267948 0.928252
1.000000 0.323491 0.925444
0.398962 0.587640 0.887633
0.406317 0.585687 0.888182
0.438483 0.579644 0.890745
0.504509 0.569146 0.897093
0.601038 0.548516 0.906035
0.730312 0.515251 0.918120
0.882506 0.496162 0.926299
1.000000 0.526238 0.920287
0.532891 0.715999 0.877195
0.537591 0.715785 0.877470
0.561273 0.717647 0.880491
0.606348 0.720882 0.887633
0.661250 0.713069 0.897185
0.745632 0.692439 0.908995
0.872313 0.673243 0.919036
0.987427 0.691646 0.913329
0.578332 0.791104 0.890074
0.586267 0.792416 0.890257
0.616449 0.797452 0.890745
0.668421 0.807126 0.891722
0.734646 0.821897 0.893187
0.789792 0.828122 0.904204
0.872068 0.815640 0.916564
0.962799 0.820218 0.912352
0.622492 0.870542 0.906279
0.629511 0.871397 0.906615
0.654261 0.873655 0.907073
0.698512 0.878355 0.908202
0.754971 0.884977 0.909850
0.817166 0.893858 0.912688
0.878569 0.905577 0.917815
0.946319 0.912840 0.920531
0.689998 0.961883 0.942809
0.695125 0.961547 0.942504
0.717128 0.960174 0.941497
0.752834 0.956878 0.938933
0.798245 0.951232 0.934752
0.847715 0.941680 0.929503
0.879911 0.917937 0.919890
0.921508 0.945922 0.932464
0.356695 0.419776 0.969207
0.368780 0.419165 0.969696
0.411170 0.411353 0.970794
0.486458 0.397253 0.973816
0.584405 0.368078 0.978210
0.700221 0.313207 0.983917
0.832334 0.193515 0.991119
0.971374 0.173159 0.992645
0.370092 0.442756 0.967498
0.381262 0.441932 0.968017
0.421363 0.434913 0.969390
0.492195 0.420172 0.972320
0.586908 0.392248 0.976806
0.700435 0.340948 0.982605
0.830991 0.236149 0.989746
0.969421 0.218479 0.991272
0.435370 0.533165 0.963653
0.442664 0.531914 0.964080
0.471077 0.525017 0.965362
0.528923 0.514214 0.968933
0.607294 0.489479 0.973327
0.707912 0.446998 0.979156
0.830503 0.375891 0.986725
0.965515 0.364050 0.988647
0.542779 0.660334 0.956512
0.547387 0.659785 0.956970
0.563531 0.654627 0.958434
0.598383 0.645258 0.961669
0.652796 0.627436 0.966430
0.729976 0.597528 0.972747
0.833738 0.549828 0.980774
0.958373 0.535119 0.983764
0.645838 0.769528 0.947936
0.649622 0.769924 0.948394
0.661372 0.768917 0.949706
0.683864 0.765805 0.952697
0.713710 0.753719 0.957366
0.763699 0.734127 0.963714
0.841978 0.704280 0.971923
0.949554 0.688960 0.976745
0.717891 0.841947 0.944152
0.720760 0.842344 0.943938
0.734035 0.844877 0.943389
0.755459 0.848234 0.944335
0.778714 0.847471 0.949279
0.812345 0.842924 0.956481
0.864195 0.830381 0.965026
0.946227 0.818723 0.971557
0.748348 0.890196 0.953155
0.751217 0.890593 0.953094
0.763119 0.892302 0.952972
0.786679 0.896269 0.953033
0.820066 0.902525 0.953368
0.860472 0.911498 0.954192
0.894377 0.914336 0.961364
0.947356 0.905089 0.968780
0.776913 0.941009 0.962768
0.779202 0.941192 0.962768
0.789425 0.942168 0.962860
0.809720 0.944427 0.963317
0.838285 0.947723 0.964019
0.873198 0.952056 0.965026
0.913237 0.957763 0.966796
0.953674 0.964996 0.969757
