20 Preset/Travel Style/【3】LUT video cho PR-AE-FCPX/Green Moody - Lut (16).cube
# Created by Adobe Lightroom plugin Export LUT (1.24.0)
# www.johnrellis.com/lightroom/exportlut.htm
# Preset: 16自然风光-动物-素材江湖
# Color profile: E:\lut插件\exportlut.1.24\exportlut.lrplugin\color profiles\Rec709gamma2.4.icc
LUT_3D_SIZE 8
DOMAIN_MIN 0.000000 0.000000 0.000000
DOMAIN_MAX 0.903226 0.903226 0.903226
0.111879 0.140902 0.173373
0.127474 0.140841 0.174228
0.205325 0.142947 0.175601
0.389563 0.140230 0.172274
0.646754 0.115663 0.159609
0.894469 0.000000 0.142092
1.000000 0.000000 0.168338
1.000000 0.145235 0.249241
0.112062 0.152071 0.177371
0.124117 0.154788 0.175937
0.199802 0.162234 0.176272
0.367407 0.175631 0.171725
0.612696 0.182071 0.158785
0.865446 0.167056 0.139651
1.000000 0.154635 0.157626
1.000000 0.191806 0.232547
0.104433 0.207309 0.191745
0.136568 0.203952 0.193698
0.197848 0.238560 0.182834
0.399939 0.300328 0.161807
0.649012 0.327428 0.140261
0.921508 0.352239 0.125399
1.000000 0.354711 0.199069
1.000000 0.362707 0.290379
0.000000 0.337469 0.220645
0.125399 0.331151 0.222202
0.236637 0.349737 0.222721
0.417090 0.466590 0.189609
0.749020 0.594903 0.115236
0.968170 0.573236 0.195193
1.000000 0.542840 0.280186
1.000000 0.526757 0.356817
0.000000 0.517449 0.285100
0.104036 0.512139 0.286687
0.304723 0.496437 0.295811
0.434241 0.568933 0.290013
0.632929 0.674983 0.256962
0.887724 0.764523 0.244785
1.000000 0.721736 0.339879
1.000000 0.681025 0.432136
0.015259 0.677485 0.364202
0.192386 0.684810 0.372351
0.360235 0.671595 0.377325
0.497688 0.680934 0.384375
0.627039 0.752316 0.386267
0.786648 0.823972 0.390967
0.964904 0.887785 0.435706
1.000000 0.850675 0.513268
0.333928 0.826780 0.470039
0.366674 0.826932 0.472908
0.457588 0.817685 0.474098
0.583551 0.801968 0.479225
0.671168 0.830747 0.487037
0.772885 0.874357 0.503929
0.881590 0.913298 0.525475
0.988342 0.949035 0.579309
0.628779 0.942473 0.637018
0.637568 0.941588 0.637476
0.676265 0.938933 0.642267
0.745144 0.934874 0.654292
0.782742 0.919982 0.631189
0.839750 0.943297 0.652033
0.899931 0.964691 0.672602
0.956634 0.979522 0.681514
0.110201 0.145022 0.183597
0.123507 0.141054 0.187716
0.185214 0.141268 0.192203
0.340887 0.120119 0.191501
0.585962 0.006256 0.188571
0.842100 0.000000 0.182956
1.000000 0.000000 0.202152
1.000000 0.000000 0.257877
0.113191 0.150118 0.187564
0.122927 0.154116 0.189487
0.189273 0.156344 0.191714
0.344427 0.156222 0.191470
0.583429 0.146609 0.186404
0.842588 0.109773 0.180667
1.000000 0.088014 0.197269
1.000000 0.149691 0.248356
0.083772 0.210330 0.210422
0.122225 0.207950 0.207187
0.190982 0.230716 0.202457
0.378698 0.276371 0.190982
0.611505 0.300603 0.179721
0.872557 0.321172 0.178958
1.000000 0.321660 0.216800
1.000000 0.333593 0.286778
0.000000 0.329168 0.234043
0.074403 0.324559 0.235660
0.225498 0.332952 0.241245
0.371710 0.421515 0.220157
0.661982 0.524773 0.181186
0.902312 0.522484 0.208804
1.000000 0.507012 0.264073
1.000000 0.498329 0.335546
0.000000 0.512047 0.299382
0.000000 0.504967 0.299596
0.282170 0.486397 0.305638
0.408087 0.538842 0.301244
0.593530 0.636164 0.272343
0.855406 0.731991 0.257176
1.000000 0.700496 0.337835
1.000000 0.664851 0.422187
0.000000 0.662593 0.367376
0.115084 0.659998 0.368902
0.325689 0.648310 0.374426
0.474647 0.653895 0.383368
0.607202 0.730953 0.387457
0.774899 0.811246 0.397345
0.958801 0.878538 0.438056
1.000000 0.841123 0.508782
0.283787 0.811460 0.460975
0.311711 0.807004 0.459083
0.416205 0.796811 0.459602
0.553124 0.782589 0.466468
0.654383 0.815152 0.479316
0.759823 0.862242 0.495979
0.870451 0.902251 0.512902
0.982483 0.940246 0.561364
0.591852 0.933410 0.618463
0.607721 0.934142 0.622889
0.648402 0.930938 0.626459
0.722621 0.926757 0.638483
0.797513 0.926238 0.651789
0.844053 0.944396 0.661769
0.898741 0.962951 0.673976
0.955840 0.978088 0.683284
0.076112 0.156680 0.234989
0.090455 0.150698 0.243015
0.187472 0.140017 0.265965
0.328038 0.120455 0.295995
0.575433 0.000000 0.327977
0.859648 0.000000 0.324590
1.000000 0.000000 0.352789
1.000000 0.085969 0.404181
0.105348 0.176181 0.237980
0.104280 0.170321 0.244602
0.186801 0.156252 0.266880
0.329747 0.142336 0.291905
0.571496 0.000000 0.311711
0.853910 0.000000 0.306188
1.000000 0.000000 0.344793
1.000000 0.153170 0.394781
0.109255 0.204501 0.270329
0.127230 0.210025 0.273350
0.196078 0.236698 0.286717
0.378943 0.233890 0.283787
0.625849 0.241428 0.297856
0.881590 0.256901 0.327062
1.000000 0.288701 0.366064
1.000000 0.342870 0.416205
0.000000 0.372290 0.376013
0.000000 0.374548 0.368170
0.206546 0.368109 0.329320
0.386023 0.432471 0.337621
0.684688 0.510002 0.344427
0.907836 0.509361 0.371740
1.000000 0.509483 0.411292
1.000000 0.519585 0.458473
0.000000 0.545769 0.403388
0.000000 0.542718 0.387976
0.227543 0.526879 0.381537
0.421302 0.543267 0.390723
0.610285 0.646632 0.392493
0.862058 0.724727 0.403845
1.000000 0.696834 0.457221
1.000000 0.680354 0.512779
0.000000 0.684260 0.426673
0.000000 0.682490 0.428260
0.280125 0.669642 0.430915
0.475563 0.645167 0.436408
0.606226 0.720089 0.448371
0.775143 0.803983 0.470283
0.961334 0.873991 0.515190
1.000000 0.843565 0.581537
0.262181 0.825772 0.506340
0.294255 0.821958 0.504479
0.402533 0.810361 0.502007
0.543755 0.793362 0.503990
0.659632 0.808621 0.515312
0.767727 0.859586 0.540459
0.880308 0.904112 0.572595
0.990326 0.944152 0.627008
0.588312 0.936187 0.640131
0.595209 0.934478 0.638666
0.635798 0.930999 0.641230
0.716762 0.928771 0.656367
0.800900 0.922118 0.668147
0.851225 0.943420 0.685420
0.905577 0.963256 0.701961
0.960235 0.978698 0.714229
0.000000 0.187350 0.361700
0.000000 0.176272 0.373510
0.131533 0.154330 0.401404
0.347631 0.094270 0.435920
0.533318 0.000000 0.464088
0.800504 0.000000 0.507836
1.000000 0.000000 0.516899
1.000000 0.011200 0.525994
0.000000 0.219120 0.372961
0.000000 0.209323 0.380591
0.125917 0.178836 0.406683
0.353765 0.127626 0.441657
0.541741 0.001587 0.466987
0.808591 0.000000 0.507774
1.000000 0.000000 0.514244
1.000000 0.172366 0.526848
0.139345 0.292576 0.372015
0.147433 0.295109 0.380163
0.164218 0.278386 0.409003
0.355200 0.237430 0.444373
0.579889 0.243870 0.481086
0.850950 0.217227 0.512871
1.000000 0.286229 0.531640
1.000000 0.396338 0.558221
0.133852 0.351965 0.457374
0.167941 0.356664 0.458350
0.267216 0.382086 0.467506
0.412146 0.438697 0.489448
0.658259 0.440192 0.491859
0.870481 0.460182 0.510369
1.000000 0.498177 0.540215
1.000000 0.547234 0.576379
0.000000 0.607202 0.597711
0.000000 0.603754 0.589532
0.249454 0.597253 0.560632
0.440558 0.581506 0.514122
0.639185 0.654932 0.533440
0.871305 0.708400 0.558618
1.000000 0.702632 0.595239
1.000000 0.710536 0.625971
0.275731 0.734737 0.600244
0.302129 0.740322 0.598596
0.325292 0.730343 0.563775
0.478157 0.709316 0.539727
0.640040 0.725826 0.550683
0.795132 0.806149 0.584070
0.959380 0.863035 0.632227
1.000000 0.850278 0.682246
0.356909 0.843748 0.604547
0.363684 0.843565 0.599786
0.401434 0.839353 0.582177
0.549279 0.825132 0.583337
0.686122 0.806973 0.584833
0.789303 0.859373 0.617182
0.893492 0.904509 0.654749
0.998749 0.946258 0.706569
0.602594 0.947295 0.691676
0.611139 0.946349 0.691646
0.647517 0.942840 0.692714
0.714382 0.937163 0.697688
0.796902 0.928252 0.704402
0.859831 0.940154 0.720668
0.913756 0.962280 0.742153
0.966918 0.979706 0.762051
0.000000 0.255406 0.526848
0.000000 0.244419 0.534844
0.000000 0.202152 0.552819
0.336858 0.139864 0.584100
0.580804 0.000000 0.612940
0.782101 0.000000 0.632044
0.958618 0.000000 0.636744
1.000000 0.155489 0.639582
0.000000 0.291234 0.533532
0.000000 0.282292 0.541222
0.000000 0.234318 0.558831
0.334844 0.179782 0.585351
0.587732 0.000000 0.617456
0.786069 0.000000 0.633326
0.960082 0.000000 0.637232
1.000000 0.221622 0.640467
0.090822 0.393164 0.537011
0.090028 0.387762 0.541283
0.108644 0.352422 0.556298
0.334203 0.301305 0.589227
0.591852 0.236820 0.618555
0.777371 0.234287 0.624842
0.956786 0.270878 0.634363
1.000000 0.356847 0.640314
0.301701 0.480629 0.553338
0.320836 0.484565 0.554070
0.387213 0.502007 0.562219
0.422065 0.486671 0.598383
0.615412 0.439460 0.629694
0.795193 0.452461 0.633997
0.967590 0.482643 0.647303
1.000000 0.543389 0.663233
0.336095 0.530449 0.619104
0.354772 0.535271 0.620447
0.419654 0.551843 0.623438
0.523522 0.585016 0.630304
0.646784 0.633417 0.641779
0.832334 0.640620 0.647700
0.967742 0.667536 0.668696
1.000000 0.702632 0.696590
0.257939 0.703578 0.715694
0.278386 0.709712 0.714931
0.343572 0.729061 0.708461
0.499428 0.735286 0.679286
0.621057 0.711788 0.625849
0.793362 0.785092 0.668421
0.950256 0.837186 0.718013
1.000000 0.842771 0.755398
0.473518 0.856229 0.741634
0.482704 0.853849 0.736782
0.528893 0.847349 0.720638
0.578973 0.841001 0.687190
0.663569 0.823911 0.655787
0.787778 0.838254 0.672786
0.895445 0.894194 0.719112
0.998047 0.934081 0.763088
0.644129 0.940459 0.770047
0.644434 0.939849 0.766171
0.648554 0.937926 0.751278
0.675929 0.939696 0.733669
0.761990 0.931121 0.734615
0.853117 0.924804 0.743557
0.911955 0.953033 0.771511
0.967071 0.974365 0.796567
0.000000 0.363561 0.686000
0.000000 0.354253 0.690578
0.000000 0.295995 0.700496
0.274449 0.257603 0.718471
0.575952 0.140444 0.755764
0.802335 0.000000 0.773587
0.963989 0.000000 0.771054
1.000000 0.217380 0.752529
0.000000 0.384436 0.675257
0.000000 0.374517 0.677852
0.000000 0.324834 0.689326
0.271550 0.283482 0.711482
0.563012 0.187411 0.744198
0.789792 0.000000 0.763149
0.952453 0.000000 0.762387
1.000000 0.241947 0.746914
0.157534 0.492805 0.686091
0.160464 0.486641 0.689052
0.187198 0.457527 0.702480
0.318975 0.395544 0.719142
0.566217 0.333623 0.745266
0.792569 0.260990 0.763760
0.951110 0.295171 0.762203
1.000000 0.385107 0.748836
0.453285 0.619135 0.691310
0.457649 0.617273 0.692653
0.486732 0.615137 0.704585
0.496315 0.581384 0.730648
0.611627 0.530541 0.757870
0.811398 0.485359 0.775418
0.950805 0.512535 0.770352
1.000000 0.567285 0.764584
0.516808 0.658778 0.700160
0.527306 0.660975 0.700160
0.569726 0.671382 0.701472
0.642847 0.692744 0.706538
0.667811 0.678462 0.736324
0.798947 0.639185 0.759884
0.923156 0.654658 0.759121
1.000000 0.693721 0.773098
0.542412 0.683223 0.745083
0.557366 0.689143 0.748013
0.591516 0.698207 0.748257
0.650721 0.716121 0.749874
0.725002 0.742123 0.753323
0.814054 0.784298 0.768429
0.939117 0.807095 0.789487
1.000000 0.831327 0.812314
0.589380 0.806882 0.848631
0.598932 0.812314 0.849332
0.619898 0.827665 0.846189
0.657618 0.854704 0.840208
0.728786 0.867643 0.814145
0.800076 0.846799 0.760281
0.907500 0.893706 0.800320
0.998871 0.927581 0.841978
0.650599 0.951476 0.881407
0.653956 0.950256 0.877928
0.677333 0.947570 0.867063
0.726101 0.944610 0.850095
0.770687 0.939330 0.818387
0.825650 0.930022 0.789609
0.910430 0.941711 0.810452
0.969757 0.970794 0.844938
0.000000 0.478462 0.808865
0.000000 0.470863 0.810422
0.000000 0.437934 0.819272
0.245029 0.395300 0.832609
0.501030 0.340856 0.847868
0.728084 0.208408 0.866606
0.915251 0.000000 0.875059
1.000000 0.195834 0.872068
0.000000 0.507683 0.812161
0.000000 0.500206 0.813321
0.000000 0.469154 0.821469
0.278202 0.423133 0.834379
0.510369 0.372534 0.850004
0.731807 0.259922 0.869230
0.918578 0.173678 0.878264
1.000000 0.263493 0.875151
0.334478 0.587823 0.808164
0.335149 0.582635 0.809842
0.341497 0.559869 0.817502
0.372107 0.507256 0.831296
0.538842 0.467353 0.847105
0.735012 0.387732 0.866239
0.915923 0.337407 0.874815
1.000000 0.386603 0.869444
0.556695 0.696681 0.800595
0.554162 0.692714 0.801450
0.552850 0.680140 0.808530
0.550439 0.646021 0.821286
0.601129 0.598566 0.839231
0.745693 0.544549 0.858274
0.911406 0.505760 0.868925
1.000000 0.541894 0.863462
0.683131 0.771328 0.792233
0.686488 0.772335 0.794400
0.696620 0.773404 0.801419
0.714107 0.770565 0.813931
0.713375 0.739467 0.832059
0.776547 0.698634 0.852903
0.911070 0.667262 0.867033
1.000000 0.686915 0.861723
0.709621 0.798337 0.822293
0.714137 0.799466 0.822232
0.732662 0.804562 0.822446
0.765469 0.813870 0.822812
0.810239 0.827481 0.824216
0.824430 0.815885 0.845365
0.908537 0.789761 0.864195
0.992462 0.803983 0.865873
0.723079 0.812772 0.857481
0.726528 0.813687 0.857267
0.743191 0.819059 0.857633
0.773342 0.829160 0.858396
0.815244 0.844755 0.860624
0.863706 0.865141 0.864958
0.914702 0.890318 0.873320
0.994110 0.910857 0.895048
0.752071 0.874052 0.942626
0.754208 0.876555 0.942229
0.761868 0.886168 0.939910
0.780056 0.906310 0.937255
0.805692 0.934569 0.933684
0.847959 0.952636 0.914885
0.902007 0.940215 0.866545
0.974578 0.970062 0.903044
0.501030 0.668177 0.925475
0.499763 0.663630 0.926207
0.500023 0.646357 0.930694
0.509758 0.609766 0.937957
0.587823 0.573907 0.946685
0.703365 0.511009 0.958495
0.859648 0.390204 0.972351
1.000000 0.371221 0.975738
0.534905 0.686458 0.925444
0.533043 0.681941 0.926146
0.531212 0.664881 0.930266
0.534203 0.628290 0.937804
0.604028 0.594049 0.946563
0.711452 0.533715 0.958434
0.861967 0.421210 0.972686
1.000000 0.404150 0.976440
0.622675 0.739162 0.921447
0.621759 0.736019 0.922301
0.619684 0.722744 0.926329
0.610895 0.688624 0.933227
0.652522 0.655818 0.942840
0.737942 0.607294 0.955077
0.867796 0.515618 0.969665
1.000000 0.496956 0.974151
0.726558 0.808713 0.915373
0.725429 0.806363 0.916014
0.723049 0.797452 0.919585
0.717342 0.775814 0.926360
0.721340 0.740230 0.936889
0.778103 0.705409 0.948669
0.878325 0.641932 0.963165
0.997864 0.618494 0.969238
0.805844 0.867185 0.909728
0.806241 0.866453 0.910307
0.810056 0.864469 0.913787
0.807889 0.853880 0.920104
0.802518 0.829740 0.930510
0.821530 0.798154 0.943481
0.892271 0.759121 0.957519
0.992401 0.734737 0.965301
0.852354 0.900633 0.910124
0.854612 0.901457 0.910399
0.863127 0.904234 0.910918
0.869261 0.905180 0.915496
0.873869 0.901183 0.924895
0.870665 0.878508 0.937377
0.904021 0.849149 0.951385
0.986358 0.828519 0.961578
0.853178 0.911681 0.933165
0.855100 0.912352 0.933288
0.862882 0.915129 0.933684
0.876860 0.919829 0.933898
0.897368 0.926787 0.934264
0.923003 0.935424 0.934661
0.930724 0.927092 0.949645
0.983612 0.910185 0.963897
0.858061 0.920439 0.959564
0.860014 0.921233 0.959777
0.866850 0.923827 0.959991
0.879118 0.928161 0.959838
0.897978 0.935424 0.960235
0.922667 0.945769 0.961578
0.951537 0.958953 0.964172
0.982788 0.975525 0.969879
