20 Preset/Travel Style/【3】LUT video cho PR-AE-FCPX/Green Moody - Lut (28).cube
# Created by Adobe Lightroom plugin Export LUT (1.24.0)
# www.johnrellis.com/lightroom/exportlut.htm
# Preset: 28自然风光-素材江湖
# Color profile: E:\lut插件\exportlut.1.24\exportlut.lrplugin\color profiles\Rec709gamma2.4.icc
LUT_3D_SIZE 32
DOMAIN_MIN 0.0 0.0 0.0
DOMAIN_MAX 1.0 1.0 1.0
0.171756 0.172671 0.145571
0.171756 0.172671 0.145571
0.171756 0.172671 0.145571
0.171756 0.172671 0.145571
0.175509 0.173404 0.146639
0.183505 0.174929 0.148531
0.198672 0.175113 0.150179
0.223362 0.174289 0.151614
0.254612 0.173648 0.152621
0.291661 0.173037 0.152926
0.333288 0.172488 0.152834
0.380072 0.172061 0.151949
0.432013 0.172610 0.150729
0.488594 0.175662 0.150118
0.549584 0.182040 0.150423
0.612970 0.191226 0.150942
0.677089 0.203098 0.152071
0.738216 0.217594 0.154910
0.793973 0.233707 0.160067
0.847562 0.252750 0.169345
0.900664 0.275944 0.184329
0.943755 0.298558 0.202640
0.978332 0.320653 0.223239
1.000000 0.342748 0.246525
1.000000 0.365270 0.272251
1.000000 0.388769 0.300298
1.000000 0.413794 0.331579
1.000000 0.441108 0.366308
1.000000 0.471046 0.405035
1.000000 0.503990 0.447486
1.000000 0.539910 0.493751
1.000000 0.578119 0.542626
0.171756 0.172671 0.145571
0.171756 0.172671 0.145571
0.171756 0.172671 0.145571
0.171756 0.172671 0.145571
0.175814 0.173373 0.146639
0.183505 0.174929 0.148531
0.198154 0.175174 0.150179
0.222232 0.174655 0.151583
0.252232 0.174472 0.152377
0.288273 0.173983 0.152926
0.329442 0.173373 0.152712
0.375647 0.173037 0.151888
0.426673 0.173587 0.150820
0.482368 0.176761 0.149935
0.542840 0.182895 0.150240
0.605890 0.191897 0.150759
0.670283 0.203311 0.151888
0.731777 0.217746 0.154177
0.788113 0.233707 0.159243
0.841947 0.252506 0.167971
0.894377 0.274479 0.182162
0.937438 0.295995 0.199466
0.972045 0.317327 0.219150
1.000000 0.338811 0.241337
1.000000 0.360693 0.266239
1.000000 0.383520 0.293492
1.000000 0.408270 0.324254
1.000000 0.435157 0.358526
1.000000 0.464881 0.396796
1.000000 0.497505 0.439155
1.000000 0.533410 0.485512
1.000000 0.571801 0.534630
0.171756 0.172671 0.145571
0.171756 0.172671 0.145571
0.171756 0.172671 0.145571
0.171756 0.172671 0.145571
0.176730 0.173587 0.146792
0.184482 0.174960 0.148714
0.198306 0.175845 0.150057
0.220005 0.176150 0.151400
0.248966 0.176577 0.152163
0.284489 0.176516 0.152468
0.324529 0.176547 0.152255
0.369818 0.176791 0.151461
0.419776 0.178042 0.150423
0.475074 0.181308 0.149660
0.534386 0.187900 0.149660
0.597467 0.196658 0.149935
0.661036 0.208438 0.151003
0.723964 0.221988 0.153140
0.781094 0.237400 0.157870
0.836301 0.255619 0.166476
0.888518 0.276860 0.180087
0.931548 0.298009 0.196750
0.967132 0.318059 0.216159
0.997162 0.338964 0.237827
1.000000 0.360266 0.262211
1.000000 0.382452 0.289250
1.000000 0.406561 0.319493
1.000000 0.432898 0.353521
1.000000 0.462226 0.391882
1.000000 0.494728 0.434119
1.000000 0.530205 0.480323
1.000000 0.568475 0.529656
0.171756 0.172671 0.145571
0.171756 0.172671 0.145571
0.171756 0.172671 0.145571
0.173037 0.173190 0.145876
0.177615 0.174655 0.147219
0.184756 0.176272 0.148684
0.197024 0.177798 0.149966
0.217105 0.179049 0.151034
0.244480 0.180270 0.151705
0.278508 0.181033 0.151980
0.317571 0.181888 0.151736
0.361608 0.183139 0.150912
0.410254 0.185428 0.149660
0.463874 0.189639 0.148806
0.522332 0.196445 0.148775
0.583490 0.205844 0.148836
0.646906 0.217258 0.149538
0.709865 0.230228 0.151369
0.768002 0.245090 0.155398
0.824949 0.262455 0.163363
0.876768 0.281559 0.175937
0.920348 0.300816 0.191592
0.956817 0.319951 0.210086
0.988647 0.339757 0.231418
1.000000 0.360418 0.256077
1.000000 0.382635 0.283482
1.000000 0.406653 0.314366
1.000000 0.432959 0.349310
1.000000 0.462196 0.388067
1.000000 0.494301 0.430671
1.000000 0.529229 0.476722
1.000000 0.566644 0.525353
0.171725 0.175998 0.146273
0.171725 0.175998 0.146273
0.172213 0.176120 0.146242
0.174563 0.176333 0.146365
0.179141 0.177127 0.146761
0.183902 0.178500 0.148959
0.194980 0.180331 0.149783
0.212528 0.182589 0.150759
0.237552 0.184756 0.151156
0.269261 0.186587 0.151217
0.306188 0.188724 0.150698
0.348241 0.191379 0.149844
0.395026 0.194949 0.148623
0.447456 0.200320 0.147585
0.503807 0.208072 0.147311
0.565026 0.217960 0.147250
0.628504 0.229709 0.147402
0.692805 0.242557 0.148989
0.753292 0.256504 0.152407
0.813199 0.273716 0.159854
0.865415 0.291356 0.171633
0.909697 0.308995 0.186923
0.947662 0.326726 0.205081
0.980926 0.345403 0.226383
1.000000 0.365087 0.250889
1.000000 0.386267 0.278752
1.000000 0.409339 0.309850
1.000000 0.434699 0.344579
1.000000 0.462959 0.383307
1.000000 0.494270 0.425818
1.000000 0.528405 0.471717
1.000000 0.565209 0.520470
0.172396 0.180789 0.146914
0.172702 0.180758 0.146914
0.173800 0.180789 0.146883
0.176028 0.181186 0.146761
0.180270 0.181674 0.146761
0.188876 0.183352 0.147097
0.198947 0.184909 0.148440
0.208286 0.185946 0.150271
0.230686 0.189151 0.150607
0.259373 0.192691 0.150484
0.294255 0.196353 0.149844
0.334417 0.200351 0.148714
0.379492 0.205325 0.147189
0.429908 0.212100 0.146151
0.484962 0.221073 0.145663
0.545495 0.231632 0.145235
0.609216 0.243870 0.145144
0.674434 0.257145 0.146181
0.737942 0.271794 0.148989
0.801175 0.288609 0.156039
0.854093 0.305180 0.167361
0.899840 0.321386 0.182315
0.971344 0.357397 0.220462
1.000000 0.376226 0.245762
1.000000 0.395850 0.273777
1.000000 0.417060 0.304356
1.000000 0.440162 0.337926
1.000000 0.465614 0.374701
1.000000 0.493782 0.415015
1.000000 0.524651 0.458289
1.000000 0.558129 0.504234
1.000000 0.592920 0.551141
0.173922 0.189273 0.146578
0.174228 0.189242 0.146578
0.175784 0.189395 0.146517
0.179049 0.189792 0.146334
0.184207 0.190738 0.146029
0.192355 0.192050 0.145754
0.208560 0.196780 0.144961
0.228794 0.199649 0.144747
0.236301 0.197391 0.147951
0.253117 0.199313 0.149447
0.286229 0.204501 0.148348
0.325383 0.210483 0.147066
0.369665 0.217411 0.145602
0.419471 0.226200 0.144320
0.474189 0.236454 0.143679
0.533562 0.248173 0.143008
0.597284 0.261387 0.142519
0.662165 0.275517 0.143008
0.732967 0.292515 0.145693
0.798367 0.310185 0.153201
0.855192 0.327153 0.165957
0.904265 0.344182 0.183688
0.947021 0.361608 0.205386
0.983703 0.380102 0.231083
1.000000 0.399420 0.260258
1.000000 0.419654 0.291600
1.000000 0.441352 0.325505
1.000000 0.465248 0.362280
1.000000 0.491951 0.402441
1.000000 0.521294 0.445533
1.000000 0.553582 0.491585
1.000000 0.587915 0.539330
0.176242 0.200961 0.144778
0.176425 0.201083 0.144747
0.178439 0.201297 0.144656
0.182467 0.202029 0.144381
0.188724 0.203311 0.143923
0.198123 0.205173 0.143221
0.211276 0.207675 0.142245
0.235660 0.215366 0.140169
0.260533 0.218784 0.138918
0.273350 0.215610 0.141421
0.280827 0.212436 0.145357
0.305638 0.216007 0.146273
0.347082 0.224247 0.144594
0.393683 0.234134 0.143252
0.445655 0.245365 0.142245
0.502617 0.258000 0.141207
0.564813 0.272099 0.140139
0.632441 0.288151 0.139742
0.705837 0.306584 0.141146
0.772641 0.323857 0.146731
0.830686 0.340215 0.157595
0.882017 0.355993 0.173892
0.927489 0.372229 0.194705
0.966918 0.389044 0.219730
1.000000 0.406744 0.248203
1.000000 0.425330 0.279606
1.000000 0.445350 0.313451
1.000000 0.467506 0.350378
1.000000 0.492653 0.390692
1.000000 0.520806 0.434150
1.000000 0.551965 0.480720
1.000000 0.585718 0.529381
0.180636 0.217899 0.140963
0.181125 0.217960 0.140932
0.183322 0.218509 0.140719
0.187655 0.219455 0.140597
0.195041 0.221103 0.139956
0.205661 0.223301 0.139040
0.220096 0.226383 0.137697
0.238743 0.230381 0.135836
0.270634 0.240848 0.131380
0.299016 0.244388 0.129091
0.318181 0.241672 0.130251
0.325811 0.235752 0.135775
0.332341 0.231357 0.142397
0.368170 0.239506 0.142855
0.417426 0.251652 0.141390
0.471901 0.265232 0.139986
0.533074 0.280919 0.138460
0.603601 0.299718 0.136965
0.675502 0.318700 0.136721
0.743740 0.336706 0.140475
0.804746 0.353216 0.149447
0.858396 0.368780 0.164034
0.906645 0.384253 0.183841
0.948913 0.400061 0.208133
0.985473 0.416358 0.236606
1.000000 0.433387 0.267826
1.000000 0.451881 0.301884
1.000000 0.472511 0.339025
1.000000 0.496101 0.379675
1.000000 0.522728 0.423713
1.000000 0.552667 0.470863
1.000000 0.585443 0.520317
0.184878 0.237217 0.137209
0.185306 0.237308 0.137179
0.188205 0.237827 0.136690
0.193271 0.239139 0.136172
0.201480 0.241245 0.135012
0.213687 0.244297 0.133150
0.229709 0.248539 0.130587
0.249882 0.253605 0.127657
0.275273 0.260441 0.123751
0.312261 0.272313 0.116609
0.343145 0.275639 0.113100
0.368109 0.274449 0.111818
0.376318 0.265629 0.120882
0.381964 0.258671 0.130983
0.387793 0.254459 0.140993
0.440894 0.269657 0.139345
0.503044 0.287938 0.136965
0.570977 0.307500 0.134798
0.641962 0.327764 0.133486
0.712276 0.347356 0.134768
0.775814 0.364996 0.141268
0.831968 0.380652 0.153841
0.882170 0.395422 0.172030
0.926879 0.410101 0.195071
0.965789 0.424933 0.221897
0.999420 0.440406 0.252598
1.000000 0.457435 0.286198
1.000000 0.476417 0.323644
1.000000 0.498604 0.364935
1.000000 0.524010 0.409979
1.000000 0.552911 0.458412
1.000000 0.585229 0.509636
0.189120 0.258183 0.132357
0.190005 0.258335 0.132296
0.192447 0.259098 0.131930
0.198215 0.260410 0.131014
0.207401 0.262943 0.129519
0.220035 0.266300 0.127230
0.237095 0.270848 0.124147
0.258183 0.276768 0.119722
0.284154 0.284550 0.113588
0.319799 0.297185 0.102785
0.362158 0.311162 0.087922
0.394842 0.314000 0.079316
0.421241 0.311833 0.077699
0.434363 0.303197 0.094057
0.442145 0.294499 0.110658
0.449195 0.288334 0.126101
0.469673 0.290349 0.136538
0.534234 0.310674 0.133730
0.603052 0.332158 0.131228
0.673945 0.353491 0.130129
0.741024 0.372992 0.133730
0.801236 0.390082 0.143618
0.854978 0.405768 0.159884
0.903593 0.420661 0.181979
0.946166 0.435340 0.208652
0.982818 0.450233 0.239017
1.000000 0.466224 0.273106
1.000000 0.483986 0.310948
1.000000 0.504570 0.352728
1.000000 0.528588 0.398566
1.000000 0.556146 0.448005
1.000000 0.587366 0.500389
0.194736 0.283513 0.124453
0.195315 0.283635 0.124392
0.198367 0.284367 0.123964
0.204562 0.285954 0.122744
0.214145 0.288457 0.120943
0.227512 0.291966 0.118379
0.245121 0.297063 0.114015
0.267369 0.303502 0.108492
0.294285 0.311559 0.100374
0.326207 0.321447 0.088197
0.370336 0.339330 0.035431
0.419135 0.356115 0.000000
0.479896 0.377874 0.000000
0.513878 0.377600 0.000000
0.538079 0.371588 0.000000
0.543664 0.357305 0.000000
0.547539 0.345708 0.082094
0.550286 0.336645 0.117525
0.589990 0.346654 0.127871
0.663508 0.371038 0.125612
0.733242 0.393103 0.128237
0.795743 0.411963 0.138613
0.851102 0.428473 0.156466
0.900755 0.443702 0.180270
0.943877 0.458106 0.208865
0.981109 0.472389 0.241154
1.000000 0.487404 0.276493
1.000000 0.503960 0.315190
1.000000 0.523095 0.357733
1.000000 0.545525 0.404181
1.000000 0.571618 0.454047
1.000000 0.601434 0.506828
0.202579 0.317540 0.110750
0.203616 0.317632 0.110658
0.206394 0.318334 0.110109
0.213535 0.319768 0.108248
0.224033 0.322240 0.105776
0.238590 0.325872 0.101778
0.257481 0.330785 0.096132
0.280644 0.337346 0.087282
0.308873 0.345922 0.061799
0.342443 0.356939 0.020203
0.384283 0.373175 0.000000
0.445808 0.402625 0.000000
0.506310 0.425391 0.000000
0.552911 0.433692 0.000000
0.588190 0.432807 0.000000
0.615625 0.426337 0.000000
0.617884 0.407355 0.000000
0.618036 0.391028 0.000000
0.618128 0.378271 0.064485
0.618372 0.368597 0.120027
0.682734 0.389837 0.122438
0.750881 0.412146 0.127230
0.812192 0.431495 0.140658
0.866819 0.448524 0.162142
0.915435 0.464088 0.189700
0.957610 0.478920 0.221775
0.993469 0.493874 0.257572
1.000000 0.509941 0.296910
1.000000 0.528161 0.340398
1.000000 0.549584 0.388128
1.000000 0.574548 0.439673
1.000000 0.603388 0.494331
0.211032 0.349126 0.093233
0.211978 0.349371 0.092927
0.215457 0.349828 0.091890
0.222568 0.351263 0.089723
0.233249 0.353735 0.085206
0.248264 0.357488 0.074952
0.268040 0.363470 0.053254
0.293278 0.372015 0.022614
0.323400 0.382574 0.000000
0.359319 0.395850 0.000000
0.401312 0.412085 0.000000
0.451270 0.432013 0.000000
0.523766 0.468116 0.000000
0.582940 0.486946 0.000000
0.625513 0.489845 0.000000
0.658900 0.486152 0.000000
0.682368 0.475868 0.000000
0.687922 0.456703 0.000000
0.686427 0.437110 0.000000
0.684596 0.421088 0.000000
0.683833 0.408820 0.074159
0.702998 0.408759 0.119478
0.770626 0.431952 0.127321
0.831357 0.451942 0.145449
0.885557 0.469520 0.171328
0.932952 0.485634 0.203006
0.973358 0.501152 0.239200
1.000000 0.517052 0.279271
1.000000 0.534600 0.323552
1.000000 0.555047 0.372442
1.000000 0.579004 0.425635
1.000000 0.606989 0.482338
0.223514 0.390326 0.028260
0.224186 0.390417 0.027924
0.228061 0.391180 0.023896
0.235447 0.392645 0.018402
0.247044 0.395422 0.005829
0.263371 0.399481 0.000000
0.283940 0.405341 0.000000
0.309331 0.413519 0.000000
0.340215 0.423957 0.000000
0.376532 0.437049 0.000000
0.418799 0.453285 0.000000
0.468025 0.472786 0.000000
0.523308 0.494667 0.000000
0.602838 0.533867 0.000000
0.655756 0.545037 0.000000
0.691707 0.541375 0.000000
0.719722 0.532769 0.000000
0.741024 0.520378 0.000000
0.750149 0.501884 0.000000
0.747921 0.480385 0.000000
0.746151 0.462623 0.000000
0.745907 0.449042 0.000000
0.747372 0.439124 0.101503
0.792691 0.452308 0.129671
0.852415 0.472786 0.152895
0.905333 0.491035 0.183566
0.951263 0.507866 0.220096
0.990295 0.524559 0.261326
1.000000 0.542229 0.307378
1.000000 0.562493 0.358404
1.000000 0.586297 0.414527
1.000000 0.614221 0.474708
0.237583 0.434089 0.000000
0.238712 0.434180 0.000000
0.242588 0.435248 0.000000
0.250797 0.436988 0.000000
0.262730 0.439857 0.000000
0.279759 0.444587 0.000000
0.301244 0.450904 0.000000
0.328161 0.459785 0.000000
0.359625 0.470497 0.000000
0.396765 0.483742 0.000000
0.438483 0.498909 0.000000
0.486213 0.516930 0.000000
0.539025 0.536553 0.000000
0.596704 0.557519 0.000000
0.674372 0.592767 0.000000
0.716457 0.593378 0.000000
0.746548 0.584466 0.000000
0.770626 0.572564 0.000000
0.790097 0.558801 0.000000
0.802426 0.541283 0.000000
0.801541 0.519585 0.000000
0.801328 0.501427 0.000000
0.802548 0.487465 0.000000
0.805325 0.477150 0.031098
0.817136 0.473945 0.135134
0.876463 0.495369 0.164553
0.928069 0.514397 0.201358
0.972107 0.532311 0.243717
1.000000 0.550500 0.291234
1.000000 0.570336 0.343847
1.000000 0.593225 0.401404
1.000000 0.620050 0.463172
0.252995 0.478370 0.000000
0.253880 0.478645 0.000000
0.258305 0.479683 0.000000
0.266392 0.481575 0.000000
0.278630 0.484627 0.000000
0.296208 0.489326 0.000000
0.317967 0.495552 0.000000
0.345098 0.504021 0.000000
0.376410 0.514214 0.000000
0.412970 0.526879 0.000000
0.454322 0.541283 0.000000
0.500511 0.557885 0.000000
0.551263 0.575982 0.000000
0.605829 0.594598 0.000000
0.662928 0.613062 0.000000
0.735103 0.642054 0.000000
0.769284 0.635279 0.000000
0.794797 0.622675 0.000000
0.816800 0.608972 0.000000
0.834409 0.593927 0.000000
0.849271 0.577295 0.000000
0.851194 0.556390 0.000000
0.852445 0.538506 0.000000
0.854704 0.524071 0.000000
0.858640 0.513634 0.000000
0.864469 0.507103 0.132815
0.902220 0.519158 0.181430
0.951904 0.539086 0.224826
0.993439 0.558404 0.274083
1.000000 0.578576 0.328710
1.000000 0.601312 0.388983
1.000000 0.627741 0.453498
0.270603 0.526055 0.000000
0.271977 0.526635 0.000000
0.283665 0.546654 0.000000
0.292454 0.548608 0.000000
0.305791 0.551904 0.000000
0.323705 0.556298 0.000000
0.347234 0.562554 0.000000
0.375463 0.570459 0.000000
0.407843 0.580285 0.000000
0.445045 0.591791 0.000000
0.486336 0.604791 0.000000
0.531395 0.618799 0.000000
0.579889 0.633387 0.000000
0.631098 0.648188 0.000000
0.684291 0.662623 0.000000
0.739956 0.677516 0.000000
0.802121 0.695918 0.000000
0.828428 0.682246 0.000000
0.849088 0.665431 0.000000
0.867704 0.648890 0.000000
0.883696 0.632136 0.000000
0.897765 0.614893 0.000000
0.903288 0.595056 0.000000
0.905150 0.576776 0.000000
0.907683 0.562005 0.000000
0.911528 0.551080 0.000000
0.917082 0.544427 0.137667
0.931029 0.545586 0.205936
0.977081 0.566094 0.256321
1.000000 0.586755 0.312871
1.000000 0.609491 0.375525
1.000000 0.635584 0.443030
0.291814 0.579828 0.000000
0.293706 0.581964 0.000000
0.298711 0.584802 0.000000
0.307683 0.588312 0.000000
0.321263 0.592432 0.000000
0.339300 0.597131 0.000000
0.361700 0.602686 0.000000
0.388952 0.609369 0.000000
0.419928 0.617792 0.000000
0.455177 0.627497 0.000000
0.494240 0.638544 0.000000
0.536828 0.650599 0.000000
0.582452 0.663172 0.000000
0.630274 0.675837 0.000000
0.680446 0.688655 0.000000
0.732418 0.701289 0.000000
0.786984 0.714748 0.000000
0.842985 0.727993 0.000000
0.865385 0.711299 0.000000
0.884489 0.693751 0.000000
0.902312 0.676814 0.000000
0.918700 0.660456 0.000000
0.932280 0.642725 0.000000
0.941161 0.624414 0.000000
0.943999 0.606470 0.000000
0.947601 0.592218 0.000000
0.952453 0.581994 0.000000
0.958892 0.576379 0.151492
0.967224 0.576165 0.231144
0.999634 0.593103 0.293126
1.000000 0.616236 0.358343
1.000000 0.642298 0.429236
0.309331 0.622644 0.000000
0.311742 0.624781 0.000000
0.316320 0.627527 0.000000
0.325200 0.630854 0.000000
0.338323 0.634699 0.000000
0.355627 0.638697 0.000000
0.377417 0.643641 0.000000
0.403449 0.649500 0.000000
0.433326 0.656489 0.000000
0.466896 0.664729 0.000000
0.503990 0.674098 0.000000
0.544396 0.684138 0.000000
0.587335 0.694789 0.000000
0.632715 0.705898 0.000000
0.680171 0.717098 0.000000
0.729519 0.728328 0.000000
0.780270 0.739284 0.000000
0.832425 0.750362 0.000000
0.882048 0.758267 0.000000
0.900755 0.738949 0.000000
0.918151 0.720607 0.000000
0.934783 0.703090 0.000000
0.950225 0.686091 0.000000
0.963470 0.668147 0.000000
0.974670 0.650721 0.000000
0.978576 0.633509 0.000000
0.983215 0.620050 0.000000
0.988983 0.611017 0.000000
0.996155 0.607141 0.177951
1.000000 0.609491 0.265202
1.000000 0.623255 0.340917
1.000000 0.649500 0.415442
0.328008 0.664912 0.000000
0.329198 0.666560 0.000000
0.334417 0.668971 0.000000
0.342748 0.671809 0.000000
0.354864 0.675044 0.000000
0.371984 0.678645 0.000000
0.392676 0.682704 0.000000
0.417517 0.687770 0.000000
0.446143 0.693751 0.000000
0.478096 0.700557 0.000000
0.513481 0.708461 0.000000
0.551720 0.717037 0.000000
0.592828 0.726284 0.000000
0.636225 0.735958 0.000000
0.681178 0.745693 0.000000
0.728023 0.755581 0.000000
0.776547 0.765469 0.000000
0.826261 0.775296 0.000000
0.875547 0.783749 0.000000
0.918730 0.786587 0.000000
0.936400 0.766781 0.000000
0.953094 0.748226 0.000000
0.968872 0.730373 0.000000
0.983551 0.712764 0.000000
0.997101 0.695186 0.000000
1.000000 0.678584 0.000000
1.000000 0.662715 0.000000
1.000000 0.650965 0.000000
1.000000 0.644221 0.084138
1.000000 0.643610 0.233371
1.000000 0.650690 0.329046
1.000000 0.667353 0.421302
0.351019 0.714351 0.000000
0.352209 0.715236 0.000000
0.355962 0.716152 0.000000
0.363561 0.717617 0.000000
0.375494 0.719600 0.000000
0.391028 0.721920 0.000000
0.410620 0.725063 0.000000
0.434241 0.729061 0.000000
0.461830 0.734035 0.000000
0.492805 0.739925 0.000000
0.526604 0.746670 0.000000
0.563500 0.754116 0.000000
0.602380 0.761837 0.000000
0.643427 0.769802 0.000000
0.686458 0.777951 0.000000
0.730983 0.786099 0.000000
0.776486 0.794156 0.000000
0.823362 0.801999 0.000000
0.870787 0.809628 0.000000
0.914946 0.813748 0.000000
0.950683 0.810758 0.000000
0.966339 0.790066 0.000000
0.981109 0.770474 0.000000
0.994995 0.751644 0.000000
1.000000 0.732906 0.000000
1.000000 0.715450 0.000000
1.000000 0.699275 0.000000
1.000000 0.684749 0.000000
1.000000 0.674678 0.000000
1.000000 0.670161 0.155276
1.000000 0.672847 0.284977
1.000000 0.684749 0.389837
0.369055 0.751919 0.000000
0.369879 0.752468 0.000000
0.374090 0.753475 0.000000
0.381384 0.754635 0.000000
0.392218 0.756283 0.000000
0.407080 0.758450 0.000000
0.426062 0.761166 0.000000
0.448524 0.764523 0.000000
0.474342 0.768673 0.000000
0.504143 0.773617 0.000000
0.536309 0.779232 0.000000
0.571191 0.785428 0.000000
0.608392 0.791867 0.000000
0.647547 0.798672 0.000000
0.688197 0.805539 0.000000
0.730282 0.812406 0.000000
0.774014 0.819242 0.000000
0.818173 0.825925 0.000000
0.863371 0.832303 0.000000
0.909026 0.838315 0.000000
0.948058 0.838437 0.000000
0.978332 0.831205 0.000000
0.992767 0.810452 0.000000
1.000000 0.790616 0.000000
1.000000 0.768460 0.000000
1.000000 0.749996 0.000000
1.000000 0.733059 0.000000
1.000000 0.717311 0.000000
1.000000 0.704128 0.000000
1.000000 0.695888 0.000000
1.000000 0.694270 0.215640
1.000000 0.701381 0.344549
0.390112 0.792264 0.000000
0.391272 0.793088 0.000000
0.394781 0.793851 0.000000
0.401617 0.794522 0.000000
0.411444 0.795315 0.000000
0.425147 0.796414 0.000000
0.442481 0.797940 0.000000
0.463233 0.799893 0.000000
0.487739 0.802609 0.000000
0.515099 0.806058 0.000000
0.545159 0.809903 0.000000
0.578241 0.814481 0.000000
0.612970 0.819333 0.000000
0.649683 0.824399 0.000000
0.687739 0.829465 0.000000
0.727352 0.834653 0.000000
0.768093 0.839933 0.000000
0.809903 0.845212 0.000000
0.852689 0.850523 0.000000
0.896056 0.855650 0.000000
0.940002 0.860472 0.000000
0.973907 0.856809 0.000000
0.999725 0.846616 0.000000
1.000000 0.825742 0.000000
1.000000 0.804715 0.000000
1.000000 0.784421 0.000000
1.000000 0.766140 0.000000
1.000000 0.749538 0.000000
1.000000 0.734340 0.000000
1.000000 0.722133 0.000000
1.000000 0.716213 0.000000
1.000000 0.718257 0.280369
0.405859 0.822538 0.000000
0.406897 0.823209 0.000000
0.410224 0.823941 0.000000
0.416663 0.824704 0.000000
0.426276 0.825620 0.000000
0.439277 0.826902 0.000000
0.455726 0.828519 0.000000
0.476478 0.830686 0.000000
0.499702 0.833341 0.000000
0.525811 0.836454 0.000000
0.554894 0.839933 0.000000
0.586114 0.843717 0.000000
0.619287 0.847623 0.000000
0.654170 0.851621 0.000000
0.690394 0.855650 0.000000
0.727840 0.859648 0.000000
0.766445 0.863645 0.000000
0.805905 0.867643 0.000000
0.846433 0.871672 0.000000
0.887510 0.875578 0.000000
0.929137 0.879210 0.000000
0.970794 0.882506 0.000000
0.999145 0.874784 0.000000
1.000000 0.861997 0.000000
1.000000 0.840391 0.000000
1.000000 0.819638 0.000000
1.000000 0.799954 0.000000
1.000000 0.782254 0.000000
1.000000 0.766445 0.000000
1.000000 0.752041 0.000000
1.000000 0.741207 0.000000
1.000000 0.738827 0.192844
0.423346 0.854215 0.000000
0.424292 0.854551 0.000000
0.427283 0.854917 0.000000
0.433051 0.855436 0.000000
0.441993 0.856077 0.000000
0.454108 0.856962 0.000000
0.469703 0.858183 0.000000
0.488716 0.859709 0.000000
0.510552 0.861662 0.000000
0.535363 0.863981 0.000000
0.562768 0.866575 0.000000
0.592279 0.869505 0.000000
0.623621 0.872557 0.000000
0.656703 0.875639 0.000000
0.691035 0.878660 0.000000
0.726741 0.881682 0.000000
0.763119 0.884642 0.000000
0.800900 0.887633 0.000000
0.839261 0.890623 0.000000
0.878355 0.893523 0.000000
0.917784 0.896239 0.000000
0.957458 0.898619 0.000000
0.995758 0.899443 0.000000
1.000000 0.888792 0.000000
1.000000 0.873503 0.000000
1.000000 0.852201 0.000000
1.000000 0.832029 0.000000
1.000000 0.812894 0.000000
1.000000 0.795743 0.000000
1.000000 0.780850 0.000000
1.000000 0.767605 0.000000
1.000000 0.758297 0.000000
0.438605 0.881712 0.000000
0.439460 0.881926 0.000000
0.442298 0.882322 0.000000
0.447791 0.882811 0.000000
0.456306 0.883482 0.000000
0.467750 0.884520 0.000000
0.483070 0.886046 0.000000
0.501579 0.887968 0.000000
0.522911 0.890288 0.000000
0.546929 0.892882 0.000000
0.573632 0.895689 0.000000
0.602319 0.898589 0.000000
0.632593 0.901427 0.000000
0.664515 0.904082 0.000000
0.697536 0.906523 0.000000
0.731472 0.908659 0.000000
0.766079 0.910674 0.000000
0.801785 0.912566 0.000000
0.838132 0.914427 0.000000
0.875242 0.916197 0.000000
0.912535 0.917754 0.000000
0.950317 0.919036 0.000000
0.987915 0.919860 0.000000
1.000000 0.917113 0.000000
1.000000 0.903990 0.000000
1.000000 0.887175 0.000000
1.000000 0.866514 0.000000
1.000000 0.847013 0.000000
1.000000 0.828794 0.000000
1.000000 0.812467 0.000000
1.000000 0.798947 0.000000
1.000000 0.787320 0.000000
0.458534 0.913268 0.000000
0.459266 0.913268 0.000000
0.461799 0.913359 0.000000
0.466438 0.913481 0.000000
0.474189 0.913787 0.000000
0.484871 0.914183 0.000000
0.498512 0.914855 0.000000
0.515038 0.915740 0.000000
0.534600 0.916838 0.000000
0.556756 0.918120 0.000000
0.581170 0.919554 0.000000
0.607538 0.921111 0.000000
0.635859 0.922698 0.000000
0.665553 0.924254 0.000000
