20 Preset/Travel Style/【3】LUT video cho PR-AE-FCPX/Green Moody - Lut (14).cube
# Created by Adobe Lightroom plugin Export LUT (1.24.0)
# www.johnrellis.com/lightroom/exportlut.htm
# Preset: 14自然风光-暗黑-素材江湖
# Color profile: E:\lut插件\exportlut.1.24\exportlut.lrplugin\color profiles\Rec709gamma2.4.icc
LUT_3D_SIZE 8
DOMAIN_MIN 0.000000 0.000000 0.000000
DOMAIN_MAX 0.903226 0.903226 0.903226
0.099092 0.144472 0.163333
0.107393 0.145968 0.165469
0.156558 0.151125 0.170962
0.265385 0.156100 0.171695
0.428138 0.159670 0.170321
0.623346 0.161227 0.173281
0.852018 0.164034 0.192782
1.000000 0.201724 0.246891
0.094240 0.154726 0.168887
0.105226 0.156069 0.168093
0.157748 0.163516 0.172030
0.261845 0.173342 0.172702
0.419715 0.184512 0.170809
0.613001 0.193698 0.173861
0.827451 0.202304 0.191226
0.997528 0.230198 0.242435
0.000000 0.199710 0.185855
0.018982 0.199496 0.178866
0.138521 0.215915 0.181369
0.293278 0.258366 0.177493
0.475013 0.282506 0.175296
0.688136 0.309453 0.186191
0.892546 0.331884 0.226780
1.000000 0.357000 0.293736
0.000000 0.291112 0.217441
0.000000 0.288762 0.207584
0.000000 0.301488 0.195132
0.248234 0.373571 0.207431
0.558465 0.482918 0.219608
0.799832 0.507073 0.262821
0.946380 0.507012 0.314916
1.000000 0.514916 0.378027
0.000000 0.415259 0.270359
0.000000 0.412634 0.260410
0.000000 0.403784 0.218082
0.000000 0.461799 0.237034
0.413947 0.555413 0.277867
0.752926 0.669734 0.325841
0.929625 0.677974 0.400458
1.000000 0.683253 0.495491
0.000000 0.536248 0.326757
0.000000 0.539696 0.320775
0.000000 0.529564 0.280522
0.000000 0.542596 0.258213
0.231571 0.630457 0.307286
0.598260 0.728786 0.388708
0.890776 0.825071 0.496559
1.000000 0.829618 0.588312
0.000000 0.681331 0.386755
0.000000 0.681056 0.380346
0.000000 0.671168 0.346044
0.000000 0.652399 0.270970
0.000000 0.712215 0.317296
0.452522 0.792294 0.407904
0.751217 0.854002 0.525872
0.948852 0.910948 0.665492
0.000000 0.864256 0.472358
0.000000 0.863523 0.466285
0.000000 0.861814 0.440284
0.000000 0.859739 0.378546
0.000000 0.846647 0.337835
0.325048 0.892454 0.452766
0.697292 0.924895 0.584436
0.883604 0.946471 0.703304
0.100282 0.148592 0.170748
0.106844 0.147005 0.173281
0.145602 0.152224 0.179568
0.232029 0.153384 0.184207
0.383490 0.149508 0.186007
0.575769 0.147341 0.192020
0.788266 0.144717 0.209567
0.970153 0.173709 0.250706
0.101015 0.152743 0.174075
0.106905 0.155856 0.175845
0.147524 0.162020 0.181979
0.239689 0.167819 0.185946
0.390875 0.172976 0.187015
0.583764 0.179385 0.193729
0.783200 0.185000 0.210330
0.961456 0.209293 0.250034
0.056458 0.198428 0.201511
0.068238 0.198734 0.195224
0.138979 0.211002 0.194064
0.277562 0.243900 0.195956
0.441688 0.264195 0.195377
0.639185 0.287755 0.207523
0.832303 0.306218 0.234440
0.993591 0.332677 0.288518
0.000000 0.285679 0.233951
0.000000 0.284367 0.225284
0.000000 0.291447 0.207065
0.230869 0.347021 0.220890
0.496834 0.435859 0.231998
0.733181 0.463966 0.263676
0.892454 0.472053 0.300603
1.000000 0.487098 0.359442
0.000000 0.413672 0.288151
0.000000 0.410193 0.278294
0.000000 0.400183 0.234714
0.000000 0.444312 0.247349
0.391913 0.528954 0.284642
0.719875 0.641138 0.327672
0.908904 0.658137 0.395697
1.000000 0.666163 0.482856
0.000000 0.529900 0.338262
0.000000 0.528038 0.330327
0.000000 0.519219 0.294591
0.000000 0.526696 0.265354
0.225498 0.613977 0.313451
0.589014 0.716793 0.393591
0.883391 0.816098 0.495308
0.995392 0.820829 0.582208
0.000000 0.670100 0.393774
0.000000 0.665980 0.385595
0.000000 0.655787 0.353613
0.000000 0.639094 0.278477
0.000000 0.697292 0.319829
0.441993 0.780240 0.406622
0.739712 0.843534 0.517510
0.942779 0.902922 0.651850
0.000000 0.852079 0.473365
0.000000 0.853452 0.469123
0.000000 0.850980 0.443305
0.000000 0.848539 0.383764
0.000000 0.853880 0.351965
0.335363 0.893217 0.460853
0.696590 0.922759 0.586114
0.883055 0.944976 0.704219
0.100557 0.157473 0.206882
0.107729 0.156649 0.211002
0.149050 0.155215 0.222568
0.238804 0.162020 0.244175
0.378546 0.142458 0.259068
0.553765 0.034272 0.259342
0.762356 0.000000 0.279850
0.957031 0.107301 0.322881
0.109010 0.169589 0.207767
0.112428 0.169223 0.211185
0.147372 0.167483 0.223331
0.236332 0.174136 0.243351
0.374395 0.156466 0.251957
0.550561 0.107454 0.251469
0.758297 0.109804 0.280369
0.951507 0.165835 0.322454
0.113344 0.195834 0.230747
0.122072 0.200412 0.233799
0.163760 0.226413 0.253269
0.267430 0.224521 0.249516
0.419013 0.233646 0.257053
0.610498 0.253422 0.278904
0.806149 0.275181 0.308843
0.975097 0.313512 0.354284
0.000000 0.312261 0.315221
0.000000 0.314702 0.313024
0.028687 0.313848 0.282383
0.255863 0.357244 0.293462
0.507408 0.426154 0.320989
0.713924 0.446448 0.347692
0.876921 0.462409 0.377691
1.000000 0.487434 0.423743
0.000000 0.440040 0.370031
0.000000 0.437690 0.361791
0.000000 0.429633 0.327520
0.000000 0.447456 0.307469
0.417273 0.535882 0.358862
0.723171 0.634699 0.407080
0.906706 0.654261 0.465797
1.000000 0.669215 0.529015
0.000000 0.551507 0.406165
0.000000 0.550317 0.400122
0.000000 0.541161 0.370153
0.000000 0.522301 0.311070
0.253269 0.604913 0.362158
0.599268 0.709712 0.443305
0.884276 0.811215 0.540124
0.990814 0.821592 0.624750
0.000000 0.689418 0.451972
0.000000 0.685878 0.444862
0.000000 0.674586 0.416388
0.000000 0.656184 0.353399
0.000000 0.687770 0.355138
0.460639 0.775814 0.443366
0.756832 0.844419 0.559075
0.949218 0.906554 0.688685
0.000000 0.855558 0.518395
0.000000 0.853819 0.512352
0.000000 0.851041 0.489174
0.000000 0.851072 0.441321
0.000000 0.844572 0.369940
0.352331 0.889769 0.482429
0.710780 0.921721 0.609735
0.890654 0.945251 0.724697
0.079805 0.169802 0.295933
0.099275 0.169772 0.302159
0.159243 0.167208 0.318486
0.255802 0.160769 0.339727
0.388647 0.169863 0.368902
0.573510 0.165591 0.407172
0.747219 0.111543 0.417792
0.914519 0.000000 0.421210
0.099825 0.190982 0.297704
0.111391 0.190433 0.301915
0.160403 0.186496 0.317967
0.256809 0.179294 0.341955
0.392370 0.192905 0.372381
0.574426 0.189792 0.406470
0.745144 0.147707 0.414527
0.912535 0.048127 0.416419
0.152010 0.245090 0.301488
0.156466 0.247807 0.307012
0.178408 0.250706 0.326085
0.262760 0.245274 0.352636
0.415595 0.275608 0.392309
0.592584 0.264347 0.408728
0.772366 0.242802 0.413886
0.936522 0.247410 0.423621
0.161440 0.308049 0.367437
0.175692 0.312566 0.369574
0.230991 0.337041 0.384436
0.342016 0.400641 0.427497
0.482643 0.382727 0.410712
0.643061 0.391272 0.419867
0.818540 0.415106 0.443702
0.968872 0.455665 0.480659
0.000000 0.496407 0.493690
0.000000 0.495125 0.489754
0.201541 0.495888 0.478737
0.263920 0.489479 0.435676
0.477546 0.554376 0.466957
0.736233 0.625696 0.510979
0.897276 0.646357 0.551812
0.994171 0.664485 0.584375
0.118593 0.612940 0.533837
0.133913 0.616205 0.532464
0.118257 0.605097 0.507103
0.103975 0.586755 0.456428
0.327398 0.612024 0.445197
0.639612 0.714534 0.527886
0.884123 0.802701 0.616632
0.985077 0.824002 0.688075
0.000000 0.723812 0.553368
0.000000 0.722835 0.548882
0.000000 0.715694 0.527184
0.000000 0.700313 0.479103
0.000000 0.679316 0.412024
0.499580 0.772732 0.504082
0.782712 0.844053 0.620508
0.956664 0.908904 0.734401
0.000000 0.869200 0.607355
0.000000 0.868406 0.602564
0.000000 0.865721 0.582422
0.000000 0.861540 0.539971
0.000000 0.853635 0.457343
0.361273 0.880949 0.512657
0.728939 0.917998 0.644251
0.902922 0.945830 0.758022
0.082063 0.204166 0.434455
0.114534 0.204746 0.439429
0.191165 0.202457 0.451942
0.300603 0.190097 0.476234
0.436194 0.174380 0.497932
0.591150 0.202640 0.519921
0.781491 0.263645 0.559289
0.932341 0.274693 0.569696
0.119142 0.233585 0.435340
0.138399 0.234104 0.440711
0.200290 0.230198 0.453162
0.300694 0.216434 0.475166
0.437659 0.202274 0.499092
0.593133 0.231052 0.521569
0.780179 0.285588 0.559136
0.930632 0.293706 0.568933
0.198001 0.312139 0.437903
0.204349 0.311742 0.441047
0.232975 0.307286 0.452003
0.309270 0.298131 0.475685
0.439094 0.287358 0.500237
0.589990 0.315709 0.521752
0.769619 0.350317 0.554345
0.919646 0.346746 0.561212
0.280735 0.389471 0.458564
0.290806 0.393652 0.459663
0.329686 0.412787 0.468879
0.372564 0.424292 0.499275
0.477760 0.418250 0.526848
0.626276 0.448737 0.549432
0.780941 0.440070 0.556268
0.923095 0.425238 0.552544
0.321904 0.466773 0.523156
0.333562 0.471046 0.525139
0.377630 0.487831 0.532280
0.457038 0.523827 0.549981
0.572076 0.585565 0.584985
0.691432 0.563256 0.567132
0.828641 0.568933 0.572778
0.953307 0.597711 0.597101
0.298436 0.630365 0.622400
0.309300 0.633112 0.622339
0.343481 0.641016 0.619104
0.428840 0.643610 0.604608
0.456916 0.628199 0.552544
0.677333 0.709102 0.608179
0.878782 0.782650 0.679805
0.976196 0.811337 0.733394
0.357336 0.764157 0.674769
0.363439 0.761837 0.670893
0.395514 0.755276 0.657801
0.405005 0.744717 0.625391
0.349523 0.721279 0.555718
0.518975 0.750454 0.556054
0.801114 0.835569 0.675135
0.956390 0.899809 0.768734
0.405188 0.869688 0.711666
0.398077 0.868772 0.707210
0.371832 0.865537 0.689235
0.338598 0.864958 0.658350
0.226383 0.857420 0.593561
0.277867 0.853300 0.525658
0.728878 0.904356 0.668177
0.908598 0.939879 0.783261
0.212741 0.282506 0.585840
0.229252 0.282841 0.589136
0.283391 0.279637 0.595575
0.375830 0.269718 0.611414
0.507713 0.246220 0.639826
0.654261 0.233524 0.655695
0.799313 0.283970 0.665736
0.949340 0.396674 0.694881
0.227115 0.305455 0.576471
0.239109 0.304601 0.578241
0.286534 0.300603 0.586114
0.372442 0.291386 0.603143
0.496803 0.267979 0.629206
0.642512 0.256291 0.646876
0.788785 0.301823 0.659113
0.942016 0.406348 0.690578
0.304601 0.393286 0.580774
0.311254 0.392218 0.582757
0.341161 0.389410 0.591699
0.399481 0.376654 0.603998
0.504997 0.358129 0.628016
0.645716 0.348791 0.647517
0.792447 0.389044 0.663539
0.937591 0.478279 0.696101
0.417456 0.498329 0.589258
0.420722 0.498360 0.590448
0.443000 0.504112 0.600671
0.480385 0.504387 0.621118
0.554223 0.494301 0.645380
0.675807 0.484443 0.665553
0.812161 0.520439 0.683436
0.935485 0.584741 0.712123
0.477302 0.557061 0.610407
0.484260 0.559869 0.610956
0.513359 0.572442 0.614221
0.568017 0.599725 0.623438
0.609125 0.611139 0.651881
0.695857 0.603052 0.675105
0.815915 0.632502 0.694514
0.926299 0.633234 0.698970
0.521080 0.625574 0.662501
0.531487 0.630549 0.665400
0.557702 0.639887 0.668208
0.605798 0.659236 0.675502
0.672816 0.690578 0.689967
0.765347 0.745174 0.724483
0.856687 0.736690 0.716976
0.948730 0.748806 0.728481
0.583215 0.777310 0.773922
0.589105 0.780026 0.774655
0.601648 0.785885 0.772580
0.624353 0.796994 0.768551
0.666957 0.799832 0.750637
0.658930 0.774289 0.681910
0.839292 0.841306 0.753017
0.961028 0.896971 0.824277
0.601587 0.892729 0.826047
0.602136 0.891447 0.823239
0.612329 0.888365 0.814298
0.636439 0.884031 0.798093
0.639368 0.874693 0.760494
0.563043 0.860746 0.675990
0.723537 0.885374 0.697200
0.919799 0.936126 0.821408
0.364080 0.389685 0.722774
0.374731 0.390967 0.725612
0.409613 0.388128 0.730678
0.475380 0.382086 0.742184
0.567742 0.365820 0.757412
0.686366 0.333043 0.775967
0.817685 0.337499 0.784054
0.937011 0.393347 0.784756
0.372930 0.406287 0.714748
0.383307 0.407538 0.717922
0.414710 0.404364 0.723354
0.474403 0.395880 0.733761
0.562615 0.378729 0.748898
0.677668 0.345617 0.766812
0.806912 0.345068 0.774441
0.925566 0.394110 0.775082
0.439551 0.484413 0.715023
0.444434 0.483467 0.716304
0.464088 0.478401 0.720607
0.508141 0.469734 0.730587
0.579309 0.452857 0.744625
0.683619 0.426429 0.763851
0.810880 0.427283 0.776364
0.928893 0.474525 0.782071
0.543206 0.588220 0.717067
0.542992 0.585779 0.716976
0.550530 0.580713 0.720546
0.576043 0.575067 0.731136
0.623316 0.562524 0.745510
0.706294 0.544823 0.765957
0.819577 0.543053 0.781033
0.926268 0.581964 0.788571
0.629450 0.664668 0.711055
0.629114 0.663569 0.710964
0.635401 0.664393 0.715450
0.653162 0.668299 0.727779
0.677180 0.663294 0.743038
0.729152 0.650904 0.762539
0.822293 0.644648 0.780026
0.922850 0.684657 0.797177
0.666835 0.709468 0.744930
0.671077 0.711330 0.745418
0.686854 0.718074 0.746670
0.715999 0.731533 0.749691
0.756405 0.752132 0.755093
0.786954 0.762722 0.779873
0.847990 0.759365 0.800931
0.927245 0.784726 0.817960
0.709926 0.768887 0.792111
0.714321 0.770901 0.793118
0.727047 0.775662 0.794217
0.751888 0.785855 0.797330
0.786252 0.800931 0.802548
0.829984 0.823514 0.813474
0.883055 0.857694 0.836362
0.945892 0.855863 0.834379
0.765866 0.875456 0.886381
0.767483 0.876524 0.886381
0.775204 0.881743 0.886931
0.784939 0.889403 0.885466
0.795560 0.899687 0.881468
0.812375 0.903624 0.864622
0.792020 0.881651 0.790768
0.935515 0.935332 0.869810
0.548211 0.541314 0.843351
0.553643 0.542107 0.844633
0.568078 0.536950 0.846494
0.603326 0.531945 0.853056
0.656306 0.520409 0.862242
0.728939 0.499458 0.873625
0.824063 0.468330 0.888060
0.930571 0.487984 0.891478
0.555230 0.551843 0.838987
0.560449 0.552453 0.840360
0.575311 0.548791 0.843076
0.607355 0.542382 0.849332
0.658045 0.530419 0.858640
0.728695 0.509545 0.870237
0.821530 0.476936 0.884245
0.926940 0.492683 0.887480
0.601678 0.605859 0.833860
0.604578 0.605371 0.834745
0.614313 0.600763 0.837156
0.642939 0.598260 0.845518
0.681697 0.585107 0.854093
0.740414 0.563439 0.865080
0.824735 0.534020 0.879789
0.924590 0.543694 0.884428
0.669764 0.680476 0.828000
0.672114 0.680629 0.829221
0.677821 0.677363 0.831998
0.693965 0.672938 0.838956
0.721523 0.663661 0.848539
0.766018 0.647547 0.860624
0.835355 0.624598 0.876036
0.924315 0.626062 0.883116
0.736110 0.748928 0.823270
0.738064 0.749660 0.824582
0.740993 0.748013 0.826932
0.749844 0.745754 0.833280
0.763729 0.738064 0.842374
0.792447 0.725917 0.854673
0.845975 0.709712 0.870970
0.923827 0.708797 0.882109
0.790921 0.800473 0.827726
0.791653 0.800381 0.826932
0.797055 0.802090 0.825162
0.803311 0.803861 0.829007
0.812314 0.804776 0.840085
0.831693 0.804440 0.856809
0.869627 0.799924 0.876402
0.931487 0.798459 0.891234
0.815854 0.836393 0.862974
0.817105 0.836790 0.862791
0.822843 0.838926 0.862272
0.835813 0.844755 0.862852
0.855344 0.854276 0.864347
0.881193 0.868864 0.868284
0.900175 0.876097 0.887877
0.940093 0.872099 0.903624
0.842741 0.879637 0.900908
0.843748 0.879973 0.900786
0.849180 0.882139 0.901122
0.860777 0.887419 0.902739
0.877501 0.895079 0.905058
0.898802 0.905516 0.908629
0.925139 0.920165 0.915435
0.956970 0.941802 0.929717
