20 Preset/Travel Style/【3】LUT video cho PR-AE-FCPX/Green Moody - Lut (25).cube
# Created by Adobe Lightroom plugin Export LUT (1.24.0)
# www.johnrellis.com/lightroom/exportlut.htm
# Preset: 25自然风光-烟雾-素材江湖
# Color profile: E:\lut插件\exportlut.1.24\exportlut.lrplugin\color profiles\Rec709gamma2.4.icc
LUT_3D_SIZE 5
DOMAIN_MIN 0.000000 0.000000 0.000000
DOMAIN_MAX 0.903226 0.903226 0.903226
0.111543 0.126162 0.134371
0.190890 0.118105 0.136629
0.456672 0.101228 0.123964
0.784024 0.000000 0.103578
1.000000 0.000000 0.064088
0.123873 0.188418 0.151308
0.178042 0.199557 0.151614
0.470344 0.247623 0.127749
0.811978 0.259220 0.062409
1.000000 0.271244 0.071351
0.163241 0.424079 0.226047
0.245701 0.406470 0.231693
0.470832 0.524071 0.267094
0.827573 0.610864 0.283543
1.000000 0.587610 0.313512
0.282658 0.699886 0.412909
0.342931 0.691341 0.415625
0.500084 0.713558 0.450294
0.746029 0.819089 0.560815
0.973053 0.863859 0.680323
0.618006 0.944549 0.764340
0.639033 0.943084 0.767514
0.693263 0.927886 0.758572
0.816434 0.951293 0.815122
0.936858 0.972381 0.862364
0.105440 0.135439 0.208957
0.185794 0.120668 0.220768
0.439368 0.000000 0.240574
0.743465 0.000000 0.214908
1.000000 0.000000 0.221927
0.105409 0.200229 0.221378
0.185672 0.213352 0.229679
0.457832 0.208682 0.227329
0.768673 0.194583 0.227512
1.000000 0.207980 0.237797
0.073823 0.449226 0.309636
0.232242 0.434577 0.312627
0.448737 0.504265 0.356023
0.797299 0.581811 0.383337
1.000000 0.578546 0.404242
0.265904 0.714687 0.474891
0.334600 0.706905 0.476478
0.495583 0.709010 0.499092
0.740505 0.817197 0.613977
0.965698 0.863005 0.719814
0.614099 0.945373 0.777584
0.634058 0.943511 0.779355
0.712245 0.938537 0.792721
0.825315 0.954803 0.834073
0.942229 0.975280 0.877287
0.000000 0.124025 0.592554
0.179049 0.108980 0.596612
0.464637 0.000000 0.603235
0.802670 0.000000 0.632441
1.000000 0.000000 0.576349
0.000000 0.264225 0.603601
0.171725 0.253635 0.603601
0.466621 0.203891 0.606867
0.791348 0.185885 0.620020
1.000000 0.000000 0.565362
0.000000 0.514916 0.621546
0.116915 0.521080 0.622614
0.467597 0.555016 0.637690
0.766964 0.531792 0.610346
1.000000 0.529808 0.603113
0.161990 0.781735 0.690364
0.284825 0.773861 0.684535
0.493874 0.741543 0.670619
0.734737 0.820035 0.764920
0.950317 0.858183 0.813291
0.588037 0.949004 0.820859
0.611963 0.947814 0.822812
0.693477 0.941924 0.829068
0.812619 0.946319 0.853880
0.939452 0.972045 0.898558
0.183566 0.192325 0.911467
0.295171 0.185367 0.911925
0.519249 0.110536 0.910063
0.780117 0.000000 0.904936
1.000000 0.169070 0.890837
0.247959 0.351965 0.909300
0.324193 0.343847 0.908476
0.520195 0.302281 0.905455
0.771359 0.219516 0.898955
1.000000 0.323461 0.885985
0.354040 0.616846 0.900511
0.395819 0.614893 0.897276
0.546227 0.615045 0.891722
0.741634 0.546807 0.881773
0.981201 0.611170 0.882689
0.402564 0.816556 0.894652
0.447547 0.816770 0.893309
0.592187 0.824491 0.892454
0.758968 0.838529 0.892393
0.945373 0.809689 0.871550
0.609430 0.969421 0.912963
0.629480 0.968322 0.912200
0.702632 0.964172 0.909575
0.802670 0.949432 0.902312
0.945617 0.972595 0.937774
0.473426 0.411109 1.000000
0.499886 0.404822 1.000000
0.601343 0.382116 1.000000
0.757443 0.300725 1.000000
0.965637 0.197787 1.000000
0.495949 0.493172 1.000000
0.518822 0.487251 1.000000
0.607568 0.462470 1.000000
0.753170 0.388983 1.000000
0.958129 0.311620 1.000000
0.606867 0.718776 0.990265
0.613397 0.710719 0.990021
0.657313 0.685786 0.990570
0.754482 0.623407 0.991730
0.941772 0.566796 0.994842
0.687343 0.857053 0.983673
0.699275 0.857786 0.982879
0.752834 0.866148 0.981872
0.815763 0.859434 0.982269
0.938689 0.828641 0.987121
0.725551 0.958312 0.983612
0.736446 0.958587 0.983368
0.787778 0.962402 0.983825
0.865934 0.967773 0.983856
0.955352 0.973022 0.982757
