20 Preset/Travel Style/【3】LUT video cho PR-AE-FCPX/Green Moody - Lut (8).cube
# Created by Adobe Lightroom plugin Export LUT (1.24.0)
# www.johnrellis.com/lightroom/exportlut.htm
# Preset: 08自然风光-环境人像-素材江湖
# Color profile: E:\lut插件\exportlut.1.24\exportlut.lrplugin\color profiles\Rec709gamma2.4.icc
LUT_3D_SIZE 8
DOMAIN_MIN 0.000000 0.000000 0.000000
DOMAIN_MAX 0.903226 0.903226 0.903226
0.167361 0.167086 0.168765
0.167361 0.167086 0.168765
0.200107 0.164767 0.170291
0.276951 0.151217 0.171298
0.412329 0.089998 0.169192
0.558526 0.000000 0.161685
0.703883 0.000000 0.148775
0.861387 0.000000 0.126436
0.167361 0.167086 0.168765
0.167361 0.167086 0.168765
0.206363 0.164187 0.170565
0.285130 0.153719 0.170871
0.416144 0.128542 0.166232
0.561578 0.085359 0.157259
0.706477 0.000000 0.143069
0.863188 0.000000 0.118502
0.169741 0.199405 0.176791
0.175998 0.199374 0.177523
0.198489 0.199557 0.177188
0.275273 0.211429 0.168704
0.408698 0.221073 0.154574
0.553857 0.222263 0.138705
0.696742 0.214908 0.118746
0.855131 0.195254 0.072847
0.182681 0.273106 0.186343
0.191653 0.274388 0.187106
0.224674 0.277256 0.187686
0.276005 0.276707 0.182071
0.380224 0.299168 0.164584
0.523491 0.321660 0.129854
0.676112 0.335790 0.070405
0.843565 0.343847 0.000000
0.208743 0.391211 0.213931
0.220676 0.393011 0.215305
0.265415 0.400122 0.221775
0.324285 0.400275 0.216312
0.395850 0.397192 0.203555
0.503044 0.412116 0.180270
0.656641 0.439887 0.105074
0.820798 0.459174 0.000000
0.265599 0.519402 0.270726
0.276036 0.520409 0.272190
0.318486 0.528313 0.280797
0.383246 0.537652 0.289403
0.450355 0.535241 0.276188
0.529320 0.531029 0.256870
0.637446 0.543053 0.237461
0.806760 0.580743 0.145724
0.352209 0.667231 0.355718
0.361395 0.668727 0.357824
0.398871 0.675929 0.367773
0.464851 0.689418 0.388006
0.529351 0.692775 0.385321
0.601190 0.690669 0.368322
0.685176 0.687434 0.344732
0.792416 0.696803 0.337865
0.488685 0.813993 0.488136
0.495521 0.814755 0.490455
0.523400 0.817746 0.500328
0.573754 0.823270 0.519829
0.636988 0.830777 0.543114
0.686976 0.830594 0.531090
0.751583 0.830137 0.514488
0.830228 0.829923 0.493874
0.167330 0.167239 0.169650
0.167239 0.167086 0.169314
0.206607 0.164126 0.170565
0.288151 0.151064 0.171054
0.418799 0.125917 0.166293
0.564172 0.074128 0.157321
0.709285 0.000000 0.143526
0.866361 0.000000 0.120272
0.166964 0.168307 0.170718
0.169070 0.168795 0.170443
0.209781 0.169162 0.171237
0.289860 0.165621 0.169711
0.419562 0.153902 0.163210
0.564141 0.132357 0.153323
0.709712 0.087068 0.138155
0.867094 0.000000 0.112154
0.175448 0.202579 0.182681
0.181460 0.202548 0.183352
0.202884 0.202884 0.182528
0.280888 0.216068 0.174197
0.413733 0.227054 0.160678
0.558984 0.229923 0.143069
0.703395 0.225040 0.119722
0.860472 0.210361 0.050629
0.185214 0.279545 0.196841
0.194980 0.280674 0.197818
0.230411 0.283940 0.199863
0.283116 0.283818 0.193545
0.390143 0.305364 0.175570
0.533013 0.324376 0.142031
0.686275 0.336614 0.099092
0.851530 0.343511 0.000000
0.212894 0.394446 0.227237
0.225162 0.396368 0.228885
0.270085 0.403998 0.236240
0.330053 0.405890 0.233036
0.402014 0.403052 0.220005
0.509697 0.417426 0.197116
0.662745 0.442756 0.130770
0.826902 0.460121 0.000000
0.270512 0.521904 0.283421
0.281437 0.523735 0.285466
0.323705 0.531640 0.294469
0.389624 0.542321 0.305547
0.455329 0.539605 0.292393
0.533074 0.534813 0.273136
0.641779 0.546960 0.253635
0.810361 0.583124 0.172274
0.356451 0.669184 0.366247
0.365972 0.671107 0.368780
0.403479 0.678431 0.378973
0.469276 0.691859 0.399207
0.534081 0.695827 0.398627
0.604791 0.693629 0.381811
0.688411 0.690639 0.358831
0.795438 0.700069 0.352728
0.492195 0.814969 0.495674
0.498817 0.815549 0.497780
0.526696 0.818601 0.507774
0.576928 0.824125 0.527459
0.638880 0.830533 0.549828
0.688808 0.830808 0.538750
0.752956 0.830777 0.523003
0.830900 0.830533 0.502495
0.163302 0.173800 0.209659
0.169955 0.172152 0.211276
0.217288 0.161654 0.219669
0.299016 0.154208 0.224704
0.430488 0.110506 0.228031
0.579248 0.000000 0.211063
0.722377 0.000000 0.195071
0.875975 0.000000 0.173922
0.170626 0.178927 0.210697
0.178073 0.178347 0.212589
0.217685 0.174838 0.218784
0.302251 0.165988 0.224338
0.434791 0.126894 0.222782
0.581353 0.000000 0.205844
0.723018 0.000000 0.193881
0.876616 0.000000 0.171756
0.174441 0.210788 0.211795
0.181888 0.212253 0.213291
0.220096 0.220127 0.221134
0.311681 0.217533 0.217411
0.437049 0.211704 0.211215
0.575250 0.202243 0.202152
0.717678 0.186130 0.187564
0.872374 0.155550 0.161379
0.184360 0.290257 0.233494
0.197543 0.293767 0.236667
0.244297 0.300328 0.245396
0.301305 0.301732 0.243015
0.413489 0.316899 0.225254
0.553857 0.324193 0.203311
0.704219 0.327031 0.179751
0.864103 0.324437 0.139406
0.224033 0.402716 0.272679
0.236240 0.404639 0.274846
0.282292 0.412573 0.284001
0.347967 0.420600 0.291722
0.415808 0.416846 0.278599
0.525322 0.430152 0.257206
0.675380 0.446571 0.210422
0.839506 0.457954 0.149081
0.284154 0.525170 0.325566
0.294591 0.527092 0.327764
0.336248 0.535485 0.337713
0.407691 0.552148 0.358129
0.470192 0.550896 0.348363
0.544060 0.545556 0.330053
0.653498 0.558068 0.309911
0.817685 0.587091 0.249485
0.364599 0.668482 0.398505
0.374060 0.670436 0.401129
0.411414 0.678340 0.411810
0.477302 0.692744 0.433143
0.547631 0.702205 0.443580
0.613886 0.699519 0.427314
0.693629 0.695552 0.405005
0.799649 0.704982 0.396612
0.496590 0.814023 0.516777
0.503777 0.814939 0.519402
0.532341 0.818143 0.529808
0.582849 0.823758 0.549615
0.651240 0.832212 0.581079
0.697322 0.832395 0.570367
0.757626 0.832212 0.554437
0.832456 0.831876 0.533928
0.170718 0.174136 0.294072
0.182925 0.173159 0.297642
0.236606 0.167605 0.314824
0.335668 0.148775 0.335760
0.451087 0.109255 0.341009
0.593683 0.000000 0.346258
0.740352 0.000000 0.338811
0.896880 0.000000 0.321508
0.172641 0.186191 0.292393
0.183963 0.185550 0.296086
0.234745 0.181003 0.312566
0.334325 0.164553 0.334234
0.452155 0.133181 0.339727
0.595117 0.000000 0.343725
0.741787 0.000000 0.335882
0.897887 0.000000 0.317906
0.175784 0.225071 0.283696
0.184939 0.226871 0.289158
0.229984 0.230869 0.309636
0.336126 0.228153 0.335454
0.459571 0.215640 0.337804
0.598993 0.184268 0.334112
0.743648 0.122927 0.322362
0.895567 0.000000 0.306126
0.174166 0.296056 0.295750
0.186557 0.299168 0.298802
0.239322 0.313054 0.312352
0.344976 0.345312 0.344610
0.466743 0.336980 0.333898
0.595605 0.330663 0.327184
0.735561 0.321447 0.317876
0.885344 0.305150 0.302281
0.210910 0.398352 0.323491
0.225895 0.402716 0.327459
0.285954 0.420813 0.345922
0.375982 0.443915 0.375097
0.445441 0.446082 0.373175
0.556817 0.453986 0.351446
0.702876 0.456031 0.322606
0.863676 0.458778 0.300999
0.294652 0.527520 0.383093
0.305180 0.529168 0.385321
0.348058 0.538689 0.396765
0.421241 0.557092 0.419715
0.497292 0.570855 0.433783
0.564294 0.565270 0.416968
0.675593 0.578027 0.395087
0.832090 0.593469 0.349035
0.367102 0.665248 0.444282
0.376776 0.667109 0.446784
0.415320 0.675410 0.458076
0.483436 0.691310 0.480903
0.571954 0.713375 0.515068
0.630518 0.710414 0.499825
0.704433 0.705837 0.478676
0.809873 0.715572 0.465492
0.493629 0.810575 0.546410
0.501335 0.811490 0.549157
0.532219 0.815152 0.560388
0.586908 0.821927 0.582361
0.657893 0.831571 0.615015
0.712886 0.835782 0.622858
0.766506 0.835416 0.607477
0.835538 0.834623 0.587091
0.179843 0.182925 0.395117
0.193576 0.182223 0.399145
0.248722 0.177310 0.417823
0.352758 0.158328 0.455329
0.489326 0.105501 0.485756
0.611902 0.000000 0.483345
0.753689 0.000000 0.487495
0.903777 0.000000 0.486488
0.179385 0.195682 0.393652
0.192874 0.194919 0.397467
0.246738 0.191348 0.415808
0.350683 0.177432 0.453468
0.488746 0.140230 0.484993
0.612268 0.075105 0.482826
0.754238 0.000000 0.486885
0.904143 0.000000 0.485451
0.176761 0.240024 0.388586
0.189639 0.240604 0.392676
0.241733 0.242893 0.410803
0.344457 0.244724 0.448035
0.488441 0.237095 0.484291
0.614771 0.221439 0.482612
0.757443 0.190890 0.485542
0.906523 0.106203 0.482185
0.186191 0.301610 0.373053
0.198428 0.303777 0.376165
0.246586 0.313970 0.389899
0.343114 0.343755 0.439277
0.489265 0.362127 0.484688
0.616693 0.358282 0.483284
0.761929 0.340764 0.482033
0.908476 0.314000 0.473518
0.197879 0.396490 0.394110
0.211826 0.399725 0.397253
0.265080 0.414130 0.411322
0.360876 0.445502 0.441840
0.499763 0.499672 0.495674
0.619409 0.488777 0.482124
0.756954 0.479225 0.472572
0.896086 0.467445 0.461402
0.243503 0.496712 0.414954
0.257328 0.500664 0.418677
0.311620 0.518151 0.435584
0.408972 0.553948 0.472541
0.527886 0.596887 0.523156
0.599542 0.599817 0.521202
0.712520 0.604669 0.493629
0.858244 0.598322 0.456367
0.322820 0.644495 0.477119
0.334936 0.648096 0.480720
0.384558 0.662806 0.496712
0.469184 0.685542 0.526024
0.573846 0.713497 0.568353
0.658167 0.729641 0.590570
0.722774 0.723445 0.568994
0.826963 0.731289 0.549493
0.460853 0.804318 0.573693
0.470893 0.805478 0.576867
0.509697 0.810147 0.589929
0.574578 0.818112 0.613886
0.656275 0.829892 0.649866
0.735988 0.842405 0.688533
0.780514 0.841672 0.673884
0.841794 0.840452 0.654566
0.194827 0.197269 0.495155
0.208530 0.196628 0.498970
0.261204 0.194247 0.516258
0.354955 0.185428 0.550347
0.493141 0.157809 0.603632
0.642969 0.090730 0.635157
0.769955 0.000000 0.631586
0.909941 0.000000 0.634974
0.195132 0.210269 0.495430
0.208652 0.210086 0.499428
0.260990 0.208652 0.516411
0.354528 0.203098 0.550469
0.493050 0.184634 0.603662
0.643793 0.144472 0.635889
0.771115 0.068574 0.632410
0.910643 0.000000 0.635492
0.191897 0.253605 0.487770
0.205325 0.254185 0.491859
0.256626 0.257084 0.508934
0.349706 0.262028 0.543816
0.487953 0.265812 0.597711
0.642390 0.258183 0.634119
0.771054 0.239414 0.631891
0.909514 0.222538 0.634821
0.195682 0.312200 0.463661
0.207553 0.315373 0.469551
0.257420 0.328710 0.494392
0.345006 0.345159 0.529961
0.479622 0.369512 0.585504
0.639948 0.385534 0.631403
0.770443 0.377600 0.631403
0.906798 0.370520 0.632990
0.202670 0.383246 0.457374
0.213870 0.385595 0.460090
0.258793 0.395453 0.471809
0.338750 0.416724 0.496407
0.474281 0.474281 0.570733
0.644465 0.516045 0.635615
0.775723 0.512291 0.635248
0.907469 0.501762 0.630182
0.217838 0.486763 0.482124
0.230228 0.489387 0.484688
0.277958 0.501762 0.496681
0.361456 0.527855 0.522087
0.483070 0.575158 0.568231
0.654383 0.653559 0.646632
0.772610 0.639338 0.629999
0.893217 0.628290 0.619715
0.192935 0.581201 0.486946
0.208988 0.584588 0.489876
0.268681 0.599725 0.503227
0.368994 0.632227 0.533196
0.515923 0.685573 0.590265
0.678584 0.743496 0.670832
0.748318 0.748013 0.672053
0.847593 0.747585 0.644129
0.314672 0.776852 0.579248
0.330388 0.778836 0.582116
0.390600 0.786587 0.594507
0.494423 0.800992 0.623072
0.621790 0.821073 0.672084
0.733974 0.841154 0.726436
0.800381 0.851316 0.747463
0.850553 0.848905 0.729946
0.225681 0.225254 0.623713
0.238895 0.225132 0.627039
0.289860 0.224735 0.641627
0.377508 0.222721 0.669917
0.498268 0.216892 0.711757
0.650629 0.205386 0.763821
0.793790 0.182742 0.783413
0.917479 0.142153 0.777188
0.224949 0.237461 0.622492
0.238376 0.237552 0.625696
0.289097 0.237766 0.640406
0.376562 0.237491 0.669001
0.497810 0.235447 0.711177
0.650690 0.231205 0.763668
0.794400 0.216892 0.783963
0.918029 0.187778 0.777859
0.217624 0.277409 0.612970
0.231052 0.278141 0.616480
0.282414 0.281285 0.631708
0.370947 0.287114 0.661433
0.493355 0.296300 0.705226
0.647730 0.310216 0.759365
0.792752 0.310948 0.782162
0.914885 0.295018 0.775906
0.199771 0.333379 0.592248
0.213870 0.335180 0.596216
0.266911 0.342290 0.612421
0.357549 0.356573 0.644526
0.483375 0.379248 0.692103
0.641077 0.411933 0.750301
0.790097 0.428351 0.779507
0.910216 0.419501 0.773678
0.173678 0.375921 0.535760
0.186587 0.378912 0.540826
0.236088 0.392004 0.562585
0.327916 0.420203 0.608209
0.460792 0.459846 0.667964
0.628473 0.511986 0.736385
0.788907 0.550439 0.778439
0.903899 0.547173 0.772000
0.144442 0.463874 0.545892
0.160189 0.465187 0.547631
0.213565 0.470863 0.555291
0.294957 0.483345 0.572045
0.405188 0.508019 0.603449
0.600641 0.600183 0.705898
0.787198 0.674983 0.777188
0.892638 0.676875 0.773129
0.000000 0.572625 0.565454
0.087434 0.574456 0.567315
0.183597 0.583062 0.575647
0.289708 0.602228 0.594324
0.419715 0.638361 0.629725
0.596704 0.699916 0.690822
0.791623 0.790311 0.783352
0.881865 0.779171 0.770626
0.000000 0.711391 0.586603
0.000000 0.713619 0.588403
0.000000 0.723110 0.596368
0.183200 0.743526 0.614954
0.425696 0.774990 0.651362
0.646754 0.815122 0.719631
0.812192 0.859007 0.804196
0.864469 0.862882 0.805447
0.298955 0.296208 0.797665
0.310338 0.296574 0.799191
0.355291 0.298253 0.806241
0.431525 0.301427 0.819303
0.531914 0.307408 0.838285
0.650599 0.318425 0.861753
0.782681 0.338842 0.887480
0.903624 0.339971 0.893889
0.297948 0.306645 0.796780
0.309545 0.306889 0.798337
0.354711 0.308721 0.805356
0.431159 0.312657 0.818570
0.531823 0.319738 0.837736
0.650752 0.332769 0.861326
0.782956 0.355413 0.887205
0.903593 0.358007 0.893889
0.288701 0.341100 0.791104
0.300725 0.341772 0.792782
0.347784 0.345006 0.800229
0.426429 0.351446 0.813840
0.529595 0.363287 0.833951
0.650172 0.382818 0.858457
0.782773 0.413001 0.884916
0.902281 0.419898 0.892607
0.253758 0.389990 0.777951
0.268528 0.391180 0.779873
0.322759 0.396674 0.788205
0.410163 0.407752 0.803677
0.520531 0.426459 0.825711
0.646601 0.455207 0.852171
0.781613 0.496864 0.880186
0.899596 0.511986 0.890135
0.140597 0.439643 0.748287
0.164736 0.440589 0.750942
0.240879 0.445563 0.762661
0.357244 0.461128 0.783200
0.490761 0.488838 0.810361
0.633814 0.529931 0.841642
0.778592 0.587274 0.873320
0.896361 0.615869 0.887297
0.000000 0.498390 0.707973
0.000000 0.497841 0.708644
0.000000 0.495460 0.711330
0.218936 0.501579 0.729305
0.397986 0.531914 0.772549
0.594903 0.593530 0.819242
0.768704 0.671260 0.861112
0.892515 0.719265 0.884154
0.000000 0.615869 0.723964
0.000000 0.615900 0.724483
0.000000 0.615900 0.726894
0.000000 0.615900 0.731807
0.293065 0.617365 0.741085
0.467872 0.625452 0.757809
0.734798 0.733974 0.833463
0.891173 0.810697 0.883696
0.000000 0.752560 0.741665
0.000000 0.753079 0.742184
0.000000 0.754910 0.743984
0.000000 0.758633 0.747677
0.229343 0.766476 0.755581
0.475593 0.782406 0.771878
0.705531 0.817502 0.808743
0.893523 0.892485 0.887541
