20 Preset/Travel Style/【3】LUT video cho PR-AE-FCPX/Green Moody - Lut (24).cube
# Created by Adobe Lightroom plugin Export LUT (1.24.0)
# www.johnrellis.com/lightroom/exportlut.htm
# Preset: 24自然风光-温暖-素材江湖
# Color profile: E:\lut插件\exportlut.1.24\exportlut.lrplugin\color profiles\Rec709gamma2.4.icc
LUT_3D_SIZE 5
DOMAIN_MIN 0.000000 0.000000 0.000000
DOMAIN_MAX 0.903226 0.903226 0.903226
0.137118 0.122805 0.116365
0.252811 0.124208 0.118013
0.539727 0.060517 0.095949
0.863005 0.175753 0.000000
1.000000 0.330968 0.000000
0.131106 0.216800 0.120485
0.240574 0.222751 0.109743
0.519188 0.246891 0.056031
0.860594 0.338476 0.000000
1.000000 0.421393 0.000000
0.000000 0.481453 0.000000
0.090394 0.479713 0.000000
0.545922 0.569146 0.000000
0.861112 0.610254 0.000000
1.000000 0.610407 0.000000
0.000000 0.770230 0.174350
0.000000 0.769223 0.160922
0.470008 0.769345 0.070008
0.798062 0.809140 0.000000
1.000000 0.803006 0.000000
0.000000 0.932494 0.509209
0.201999 0.931579 0.503105
0.456184 0.919463 0.435004
0.711727 0.925933 0.420478
0.935607 0.936675 0.366247
0.159457 0.137606 0.191928
0.247013 0.137209 0.189792
0.489815 0.121370 0.174838
0.823606 0.201450 0.142367
1.000000 0.342931 0.000000
0.161288 0.214878 0.194919
0.245945 0.218906 0.193088
0.484779 0.242649 0.187778
0.818479 0.319219 0.144930
1.000000 0.415290 0.000000
0.000000 0.466255 0.210269
0.134401 0.465095 0.198367
0.502403 0.517876 0.148074
0.810513 0.575402 0.184115
1.000000 0.609735 0.186709
0.000000 0.762600 0.333837
0.000000 0.762661 0.329778
0.463447 0.758846 0.301732
0.785885 0.801480 0.293553
0.995636 0.801205 0.311894
0.000000 0.929412 0.580163
0.240848 0.928252 0.574334
0.483314 0.925597 0.555657
0.714992 0.928222 0.537621
0.930816 0.939422 0.520867
0.093477 0.158907 0.438514
0.224613 0.161440 0.449561
0.482490 0.156222 0.463935
0.786099 0.133730 0.473213
0.994812 0.363653 0.488838
0.094514 0.226596 0.437995
0.221500 0.231083 0.446784
0.483619 0.251164 0.474586
0.777462 0.274632 0.479652
0.986084 0.443275 0.518578
0.000000 0.463233 0.508171
0.000000 0.464881 0.505547
0.465827 0.489815 0.518273
0.743893 0.555474 0.563256
0.955169 0.624018 0.601862
0.000000 0.751339 0.623407
0.000000 0.744320 0.612665
0.439796 0.739345 0.606317
0.741634 0.780056 0.637049
0.939971 0.799008 0.686824
0.000000 0.920470 0.705165
0.256901 0.918883 0.713283
0.496040 0.915862 0.716457
0.700404 0.915129 0.702083
0.909606 0.932799 0.722774
0.000000 0.197513 0.749233
0.007904 0.200107 0.757778
0.471321 0.213901 0.779751
0.744594 0.256138 0.786465
0.937896 0.346868 0.762417
0.000000 0.257542 0.744137
0.000000 0.261479 0.748989
0.457465 0.284489 0.769406
0.729000 0.330816 0.777707
0.927184 0.408331 0.761196
0.000000 0.412543 0.717037
0.000000 0.416358 0.722560
0.397223 0.459083 0.754116
0.699092 0.532128 0.777310
0.906462 0.590539 0.780850
0.000000 0.706538 0.790433
0.000000 0.704494 0.787625
0.351324 0.707576 0.786191
0.675715 0.728664 0.795712
0.893370 0.784054 0.831174
0.000000 0.920104 0.845090
0.141878 0.918883 0.843961
0.459236 0.915648 0.841398
0.701442 0.908354 0.844297
0.899290 0.927886 0.864439
0.209476 0.301549 0.939635
0.309545 0.307042 0.940215
0.527703 0.337652 0.942748
0.751156 0.430518 0.946715
0.933043 0.509972 0.942107
0.180819 0.349950 0.937224
0.293339 0.355749 0.937865
0.519127 0.386999 0.940429
0.744747 0.475593 0.944488
0.926909 0.546319 0.940795
0.000000 0.475990 0.929412
0.000000 0.484077 0.930053
0.463783 0.517601 0.932830
0.719631 0.592950 0.937896
0.909331 0.649287 0.937896
0.000000 0.673152 0.925780
0.000000 0.668879 0.924681
0.000000 0.648951 0.919860
0.649256 0.703731 0.928740
0.889647 0.772702 0.936797
0.000000 0.891722 0.943511
0.000000 0.891569 0.943114
0.391302 0.891386 0.941680
0.647456 0.892454 0.938903
0.876890 0.904662 0.940368
