20 Preset/Travel Style/【3】LUT video cho PR-AE-FCPX/Green Moody - Lut (7).cube
# Created by Adobe Lightroom plugin Export LUT (1.24.0)
# www.johnrellis.com/lightroom/exportlut.htm
# Preset: 07自然风光-环境人像-素材江湖
# Color profile: E:\lut插件\exportlut.1.24\exportlut.lrplugin\color profiles\Rec709gamma2.4.icc
LUT_3D_SIZE 5
DOMAIN_MIN 0.000000 0.000000 0.000000
DOMAIN_MAX 0.903226 0.903226 0.903226
0.167361 0.167086 0.168765
0.242618 0.175296 0.182925
0.422522 0.164370 0.179873
0.653193 0.155673 0.166964
0.894194 0.120394 0.147372
0.206973 0.223087 0.214145
0.234012 0.245243 0.201541
0.473671 0.269627 0.172793
0.700160 0.264317 0.158968
0.926299 0.250492 0.128969
0.301152 0.368536 0.326696
0.329076 0.370123 0.343328
0.450538 0.494606 0.293004
0.823545 0.558862 0.172854
1.000000 0.509758 0.148013
0.462409 0.577600 0.502068
0.484657 0.582269 0.516075
0.524559 0.645472 0.544884
0.723873 0.784787 0.514061
1.000000 0.793973 0.436316
0.718441 0.812894 0.744869
0.729915 0.814694 0.752407
0.773892 0.822538 0.782742
0.793027 0.876463 0.789029
0.888823 0.923888 0.768124
0.198703 0.198489 0.243503
0.243381 0.204349 0.244450
0.399969 0.202121 0.257908
0.605707 0.166964 0.244724
0.865141 0.100435 0.229160
0.209232 0.249363 0.245762
0.262638 0.262333 0.264042
0.427070 0.260319 0.260349
0.651575 0.255558 0.255009
0.898222 0.236271 0.235782
0.325963 0.391424 0.352056
0.351019 0.395300 0.367010
0.462257 0.493324 0.365637
0.797574 0.548852 0.319921
0.981598 0.510246 0.296147
0.476173 0.587762 0.514946
0.497597 0.593347 0.528679
0.554955 0.642451 0.571435
0.732357 0.782467 0.568017
0.987243 0.799802 0.528557
0.721065 0.815122 0.747768
0.732601 0.817197 0.755367
0.775174 0.824826 0.784543
0.800656 0.875120 0.798367
0.892485 0.923522 0.786007
0.243809 0.243168 0.398291
0.294621 0.255161 0.410163
0.445716 0.296330 0.443153
0.632624 0.348486 0.481025
0.836271 0.255894 0.455329
0.263066 0.295323 0.397070
0.307439 0.307164 0.409644
0.452003 0.350652 0.449226
0.633234 0.377508 0.480232
0.829587 0.285435 0.441413
0.280095 0.421180 0.404608
0.327245 0.435767 0.421302
0.519219 0.518273 0.515801
0.686488 0.493202 0.487861
0.897093 0.479133 0.473976
0.474495 0.601556 0.527276
0.513664 0.617395 0.553368
0.610651 0.654963 0.620447
0.754421 0.777218 0.683192
0.949676 0.809934 0.694118
0.718379 0.819791 0.750240
0.730953 0.822599 0.758450
0.777157 0.833555 0.789883
0.824460 0.870146 0.826017
0.904204 0.924163 0.834775
0.325536 0.323003 0.575494
0.365179 0.334966 0.587945
0.509880 0.388708 0.639338
0.703548 0.467231 0.694514
0.866331 0.544213 0.722560
0.336278 0.359380 0.569604
0.373297 0.371191 0.582605
0.513756 0.425208 0.636378
0.705684 0.507317 0.696651
0.863188 0.581353 0.728359
0.311376 0.414435 0.528130
0.354681 0.434577 0.549493
0.517266 0.515679 0.628687
0.719997 0.624811 0.711147
0.858824 0.682368 0.749538
0.340276 0.586297 0.556207
0.374670 0.597131 0.568200
0.512688 0.647822 0.624567
0.771176 0.769497 0.763668
0.890379 0.737484 0.729549
0.571710 0.798703 0.676600
0.603967 0.803830 0.692775
0.718837 0.825895 0.757778
0.838132 0.862913 0.840452
0.918029 0.926635 0.884642
0.503258 0.499214 0.827543
0.531487 0.510613 0.831266
0.634028 0.560204 0.845304
0.779538 0.658808 0.867308
0.889311 0.729397 0.881498
0.504479 0.518029 0.823484
0.533043 0.529381 0.827420
0.636652 0.579278 0.842496
0.781918 0.675990 0.865965
0.889372 0.744533 0.881712
0.466255 0.554528 0.805112
0.501915 0.567529 0.810544
0.625940 0.623285 0.830533
0.784115 0.720912 0.861204
0.891173 0.789700 0.884001
0.267613 0.614160 0.767514
0.307103 0.612055 0.769253
0.443610 0.608911 0.779477
0.751492 0.749660 0.845121
0.898405 0.848295 0.892088
0.213626 0.827115 0.772305
0.276005 0.827359 0.774136
0.445380 0.828733 0.783078
0.676387 0.841032 0.813474
0.920134 0.919097 0.915679
