20 Preset/Travel Style/【3】LUT video cho PR-AE-FCPX/Green Moody - Lut (7).cube
# Created by Adobe Lightroom plugin Export LUT (1.24.0)
# www.johnrellis.com/lightroom/exportlut.htm
# Preset: 07自然风光-环境人像-素材江湖
# Color profile: E:\lut插件\exportlut.1.24\exportlut.lrplugin\color profiles\Rec709gamma2.4.icc
LUT_3D_SIZE 32
DOMAIN_MIN 0.0 0.0 0.0
DOMAIN_MAX 1.0 1.0 1.0
0.167361 0.167086 0.168765
0.167361 0.167086 0.168765
0.167361 0.167086 0.168765
0.176303 0.167941 0.170413
0.195285 0.168917 0.173495
0.210666 0.171084 0.177035
0.225864 0.173526 0.180423
0.242618 0.175296 0.182925
0.261295 0.175906 0.184329
0.282506 0.175601 0.185214
0.306157 0.174777 0.185214
0.332280 0.173098 0.184787
0.360845 0.170565 0.183597
0.391028 0.167758 0.182010
0.422522 0.164370 0.179873
0.454810 0.161349 0.177707
0.487892 0.158724 0.175296
0.521202 0.157626 0.173587
0.554192 0.157076 0.172396
0.587335 0.156558 0.170871
0.620417 0.156161 0.168887
0.653193 0.155673 0.166964
0.685939 0.154482 0.164614
0.719631 0.152377 0.162051
0.754177 0.149325 0.159426
0.789609 0.144808 0.156313
0.825284 0.139223 0.152987
0.860227 0.131289 0.150118
0.894194 0.120394 0.147372
0.927214 0.106050 0.145205
0.959136 0.081392 0.143587
0.989868 0.013977 0.142916
0.167361 0.167086 0.168765
0.167361 0.167086 0.168765
0.167636 0.167056 0.168948
0.177340 0.168002 0.170565
0.196048 0.169131 0.173800
0.211215 0.171695 0.177127
0.226108 0.174319 0.180301
0.243015 0.176028 0.182803
0.261875 0.176944 0.184329
0.283177 0.176638 0.185061
0.307103 0.175540 0.185092
0.333349 0.173831 0.184665
0.362097 0.171176 0.183627
0.392493 0.168643 0.181827
0.423896 0.165255 0.179843
0.456123 0.162417 0.177493
0.489204 0.160098 0.175204
0.522423 0.159030 0.173465
0.555627 0.158450 0.172244
0.588891 0.157992 0.170535
0.621820 0.157595 0.168704
0.654597 0.156863 0.166629
0.687465 0.155856 0.164401
0.721187 0.154055 0.161776
0.755764 0.150729 0.159152
0.791196 0.146578 0.155795
0.826841 0.141024 0.152651
0.861692 0.133242 0.149752
0.895537 0.122927 0.147005
0.928374 0.108370 0.144900
0.960204 0.087251 0.143252
0.990814 0.021637 0.142672
0.167941 0.168917 0.169924
0.168124 0.169100 0.170077
0.168612 0.169192 0.170047
0.179995 0.171145 0.170779
0.196902 0.173831 0.173831
0.211856 0.176120 0.177188
0.227176 0.178439 0.180392
0.244266 0.179904 0.182742
0.263645 0.180331 0.184146
0.285283 0.180240 0.184665
0.309300 0.179263 0.184817
0.335821 0.177798 0.184360
0.364752 0.175601 0.183078
0.395331 0.172976 0.181277
0.427008 0.170169 0.179049
0.459480 0.167544 0.176761
0.492622 0.165713 0.174411
0.525719 0.164584 0.172641
0.558831 0.164462 0.171359
0.591974 0.163912 0.169802
0.624933 0.163760 0.167727
0.657771 0.163210 0.165560
0.690394 0.161959 0.163363
0.724025 0.160311 0.160678
0.758602 0.157534 0.157961
0.793881 0.153231 0.154818
0.829404 0.147768 0.151675
0.863981 0.140932 0.148745
0.897612 0.131136 0.145998
0.930327 0.118624 0.143832
0.961852 0.100191 0.142275
0.992248 0.057710 0.141939
0.173678 0.178042 0.176761
0.174228 0.177981 0.176944
0.175998 0.177432 0.177798
0.178744 0.181552 0.174838
0.197513 0.184085 0.174228
0.212894 0.185367 0.177340
0.228824 0.186526 0.180179
0.246586 0.187625 0.182406
0.266606 0.187869 0.183505
0.288823 0.187594 0.184024
0.313390 0.186923 0.184085
0.340795 0.185672 0.183230
0.369940 0.183993 0.182010
0.400824 0.182193 0.179904
0.432807 0.179599 0.177737
0.465400 0.177859 0.175113
0.498695 0.176516 0.172610
0.531884 0.176120 0.170871
0.565209 0.175967 0.169467
0.598322 0.175845 0.167788
0.631189 0.175296 0.165713
0.663661 0.174899 0.163851
0.696132 0.173922 0.161563
0.729213 0.171878 0.159335
0.763485 0.169223 0.156405
0.798764 0.166293 0.153017
0.833890 0.161929 0.149355
0.867948 0.155459 0.146242
0.901091 0.147219 0.143496
0.933349 0.136568 0.141604
0.964508 0.121584 0.140108
0.994598 0.102602 0.139986
0.183658 0.189548 0.187259
0.184115 0.189487 0.187564
0.185641 0.188846 0.188235
0.184543 0.191257 0.186526
0.191043 0.195010 0.182742
0.212589 0.198398 0.179171
0.231510 0.199527 0.180117
0.250706 0.199985 0.181582
0.271733 0.200107 0.182467
0.294987 0.199985 0.182925
0.320653 0.199557 0.182589
0.348547 0.198795 0.181582
0.378363 0.197879 0.180026
0.409766 0.196658 0.177859
0.441901 0.195407 0.175082
0.474800 0.194278 0.172274
0.508110 0.193576 0.169711
0.541100 0.193393 0.168032
0.573907 0.193118 0.166781
0.606378 0.192874 0.165255
0.638514 0.192142 0.164279
0.670436 0.190799 0.162783
0.702358 0.189700 0.160708
0.735348 0.187839 0.158633
0.769436 0.185763 0.155581
0.804623 0.183139 0.151522
0.839506 0.179751 0.147494
0.873716 0.175448 0.142916
0.906371 0.168948 0.140047
0.938048 0.159976 0.138003
0.968627 0.148440 0.136782
0.998138 0.134310 0.136843
0.191562 0.199771 0.195926
0.191775 0.199741 0.196048
0.192844 0.199344 0.196658
0.193668 0.199802 0.196872
0.193118 0.204196 0.193515
0.203555 0.209171 0.188510
0.230930 0.214908 0.183047
0.254307 0.217075 0.181369
0.277897 0.217746 0.181094
0.303227 0.218143 0.180697
0.330175 0.218204 0.180026
0.358984 0.218204 0.178805
0.389380 0.217960 0.176822
0.420600 0.217350 0.174807
0.452705 0.216678 0.172671
0.485145 0.215488 0.170138
0.517601 0.214847 0.168429
0.550256 0.214359 0.167086
0.582544 0.214054 0.166201
0.614771 0.213352 0.164889
0.646693 0.212680 0.163516
0.678462 0.211582 0.161929
0.705196 0.209476 0.160250
0.738033 0.207858 0.157748
0.771969 0.206332 0.154635
0.807004 0.204074 0.150546
0.841703 0.201480 0.146181
0.875914 0.198001 0.140780
0.909239 0.194430 0.135561
0.940459 0.187350 0.132967
0.970611 0.178164 0.132082
0.999664 0.166567 0.132448
0.198581 0.210513 0.204318
0.198795 0.210483 0.204440
0.200046 0.210086 0.205020
0.202182 0.209445 0.206271
0.200351 0.212650 0.204379
0.202457 0.218387 0.200320
0.216983 0.225162 0.194675
0.251591 0.234104 0.187442
0.278447 0.237430 0.184726
0.307286 0.239414 0.182467
0.336126 0.240452 0.181155
0.366064 0.241184 0.179538
0.396674 0.241154 0.177798
0.428321 0.240787 0.175540
0.460609 0.240482 0.173098
0.493294 0.239811 0.170596
0.526268 0.239261 0.168429
0.558923 0.238926 0.166995
0.591272 0.238376 0.165896
0.623407 0.237675 0.164370
0.655146 0.236912 0.162600
0.686366 0.235630 0.160708
0.717647 0.234409 0.158633
0.749996 0.232975 0.155886
0.783444 0.231113 0.152407
0.817502 0.229252 0.148470
0.851286 0.226932 0.143923
0.884672 0.224247 0.138430
0.917266 0.221286 0.132143
0.948821 0.217166 0.125856
0.977996 0.209598 0.124880
1.000000 0.200473 0.126070
0.206973 0.223087 0.214145
0.207248 0.222934 0.214298
0.208133 0.222690 0.214817
0.210391 0.222080 0.215885
0.211673 0.222751 0.216495
0.209262 0.228824 0.213138
0.214511 0.236271 0.208225
0.234012 0.245243 0.201541
0.274723 0.257542 0.192660
0.308904 0.263371 0.188113
0.342840 0.267124 0.183658
0.375006 0.268681 0.181064
0.408545 0.269841 0.178012
0.441016 0.269993 0.175326
0.473671 0.269627 0.172793
0.506645 0.269200 0.170108
0.539788 0.268650 0.167819
0.572778 0.268467 0.166201
0.605402 0.267735 0.164828
0.637537 0.266850 0.162875
0.668940 0.265690 0.161135
0.700160 0.264317 0.158968
0.731319 0.262943 0.156649
0.763333 0.261418 0.153658
0.796445 0.259861 0.149996
0.829679 0.258061 0.145846
0.862577 0.255955 0.140810
0.894835 0.253361 0.135164
0.926299 0.250492 0.128969
0.956970 0.247105 0.122042
0.986236 0.242771 0.115175
1.000000 0.234684 0.117128
0.216098 0.237491 0.225223
0.216281 0.237461 0.225345
0.217319 0.237247 0.225834
0.219455 0.236881 0.227024
0.223239 0.236118 0.228916
0.221073 0.240513 0.227268
0.220493 0.248417 0.223117
0.229526 0.258122 0.217319
0.254307 0.269474 0.209323
0.301091 0.284672 0.198337
0.344762 0.294224 0.191165
0.381140 0.298955 0.185458
0.417975 0.301854 0.179812
0.453162 0.303075 0.175753
0.489021 0.303777 0.171695
0.522393 0.303227 0.168887
0.555840 0.302708 0.166598
0.588739 0.302159 0.164950
0.621607 0.301274 0.162905
0.653651 0.299870 0.161196
0.685176 0.298711 0.158938
0.715938 0.296941 0.156832
0.747036 0.295140 0.154147
0.778866 0.293523 0.150851
0.811215 0.291997 0.146914
0.843290 0.289799 0.142519
0.875059 0.287572 0.137575
0.906096 0.285039 0.132052
0.936370 0.282170 0.125521
0.965789 0.278874 0.118196
0.994018 0.275059 0.110079
1.000000 0.269688 0.104799
0.226352 0.254063 0.237736
0.226719 0.254032 0.237949
0.227573 0.253910 0.238499
0.229892 0.253666 0.239689
0.233524 0.253056 0.241550
0.236118 0.253727 0.242985
0.232029 0.262089 0.239445
0.234043 0.272465 0.234440
0.248264 0.284642 0.227543
0.279118 0.298650 0.218021
0.329961 0.314733 0.205081
0.385351 0.330327 0.194430
0.424353 0.335790 0.186435
0.464790 0.339696 0.177646
0.501579 0.340978 0.172580
0.538567 0.341650 0.167666
0.574365 0.341802 0.164370
0.607538 0.340520 0.162417
0.640070 0.339178 0.160433
0.672114 0.337499 0.158297
0.703365 0.335576 0.156222
0.733944 0.333257 0.153841
0.765103 0.331304 0.150851
0.796597 0.329290 0.147555
0.827909 0.327092 0.143679
0.858793 0.324743 0.138979
0.889158 0.322087 0.134157
0.918853 0.319188 0.128450
0.947662 0.316045 0.122042
0.975555 0.312474 0.114626
1.000000 0.308476 0.106020
1.000000 0.304082 0.096040
0.237980 0.273228 0.252079
0.238132 0.273198 0.252171
0.239322 0.273075 0.252781
0.241428 0.272831 0.253971
0.245365 0.272404 0.255955
0.250187 0.271855 0.258915
0.248203 0.277501 0.257511
0.245365 0.288273 0.253208
0.251164 0.300877 0.247166
0.270542 0.315557 0.238956
0.307500 0.331975 0.227817
0.362890 0.349828 0.212894
0.429938 0.370764 0.197726
0.470710 0.376287 0.187625
0.512718 0.380529 0.177005
0.552422 0.382635 0.169009
0.589715 0.383062 0.164767
0.627161 0.383307 0.160006
0.661189 0.381811 0.157351
0.693141 0.379461 0.155001
0.723995 0.376501 0.152926
0.754299 0.373632 0.150576
0.784939 0.371099 0.147341
0.815244 0.368139 0.144167
0.845212 0.365301 0.140291
0.874693 0.362310 0.135866
0.903593 0.359167 0.131075
0.931792 0.355566 0.125551
0.959014 0.351781 0.119387
0.985382 0.347692 0.112215
1.000000 0.343267 0.103822
1.000000 0.338537 0.092775
0.250950 0.294316 0.268040
0.250828 0.294469 0.268009
0.252049 0.294347 0.268681
0.254459 0.294163 0.269932
0.257908 0.293950 0.271916
0.263340 0.293584 0.274846
0.268162 0.294255 0.277867
0.262394 0.305211 0.273899
0.262028 0.318090 0.268772
0.271794 0.333104 0.261814
0.296544 0.349981 0.252232
0.338964 0.368627 0.239322
0.396216 0.385779 0.221286
0.473610 0.411658 0.202213
0.515648 0.417395 0.190402
0.558282 0.421790 0.178897
0.600702 0.424750 0.167727
0.637964 0.424628 0.162448
0.674800 0.424079 0.157382
0.710903 0.422950 0.152285
0.742092 0.419654 0.149722
0.772000 0.415839 0.147524
0.801755 0.412268 0.144778
0.831083 0.408606 0.141543
0.859983 0.404913 0.137942
0.888243 0.401099 0.134096
0.915953 0.397253 0.129580
0.942870 0.393042 0.124727
0.968872 0.388647 0.118715
0.993927 0.383856 0.111574
1.000000 0.378943 0.103365
1.000000 0.373816 0.092531
0.264805 0.316472 0.284916
0.265080 0.316442 0.285100
0.266331 0.316533 0.285832
0.268742 0.316503 0.287053
0.272190 0.316503 0.289097
0.277592 0.316503 0.292149
0.284520 0.316289 0.296269
0.283452 0.322789 0.296025
0.279210 0.335760 0.291844
0.281834 0.350683 0.286046
0.295872 0.367651 0.278141
0.325536 0.386297 0.267491
0.372320 0.406775 0.252964
0.436072 0.428595 0.233494
0.522484 0.458961 0.210452
0.567895 0.465339 0.197574
0.610925 0.469306 0.184665
0.653407 0.471717 0.171267
0.692042 0.471443 0.161807
0.727779 0.469581 0.155947
0.762325 0.467018 0.150454
0.794858 0.463539 0.145907
0.823239 0.458473 0.144137
0.851102 0.453559 0.141543
0.878447 0.448493 0.138735
0.905119 0.443458 0.135439
0.931121 0.438453 0.131502
0.956146 0.433204 0.127291
0.980438 0.427680 0.121889
1.000000 0.422156 0.115358
1.000000 0.416419 0.107362
1.000000 0.410407 0.097780
0.282078 0.341711 0.305028
0.282353 0.341741 0.304997
0.283391 0.341772 0.305699
0.285771 0.341924 0.307164
0.289403 0.342138 0.309209
0.294774 0.342199 0.312261
0.301671 0.342229 0.316350
0.309270 0.342992 0.321050
0.302495 0.355901 0.317357
0.300359 0.370916 0.312840
0.306371 0.387793 0.306645
0.324834 0.406806 0.298100
0.359228 0.427466 0.286564
0.410346 0.449775 0.271336
0.477516 0.473426 0.250340
0.568139 0.506706 0.225254
0.621454 0.515770 0.210117
0.663935 0.518639 0.195651
0.705531 0.519738 0.180667
0.744778 0.518883 0.165805
0.777951 0.514916 0.160342
0.810056 0.510582 0.155062
0.841398 0.506096 0.149844
0.870085 0.500603 0.146609
0.895903 0.494148 0.144594
0.920928 0.487678 0.142214
0.945068 0.481270 0.139559
0.968536 0.474739 0.135622
0.991211 0.468208 0.131411
1.000000 0.461616 0.126101
1.000000 0.454963 0.118685
1.000000 0.448127 0.109224
0.301152 0.368536 0.326696
0.301396 0.368627 0.326879
0.302525 0.368750 0.327550
0.304753 0.368933 0.328954
0.308537 0.369268 0.331060
0.313634 0.369604 0.334112
0.320470 0.369909 0.338201
0.329076 0.370123 0.343328
0.329046 0.377447 0.344305
0.324468 0.392126 0.340856
0.324865 0.408972 0.335943
0.334752 0.427741 0.329473
0.357733 0.448402 0.320684
0.395727 0.470710 0.308965
0.450538 0.494606 0.293004
0.520562 0.519860 0.271427
0.614008 0.555200 0.244511
0.674739 0.566949 0.227817
0.715816 0.568292 0.212650
0.754635 0.567102 0.197330
0.791287 0.564019 0.181186
0.823545 0.558862 0.172854
0.853696 0.553094 0.168002
0.882750 0.547051 0.163577
0.910674 0.540764 0.158877
0.935058 0.533318 0.156710
0.957733 0.525475 0.154330
0.979583 0.517601 0.151797
1.000000 0.509758 0.148013
1.000000 0.502068 0.143130
1.000000 0.494301 0.136477
1.000000 0.486549 0.128359
0.321447 0.396429 0.349493
0.321752 0.396399 0.349676
0.322759 0.396490 0.350286
0.325078 0.396735 0.351690
0.328496 0.397040 0.353643
0.333562 0.397528 0.356603
0.340215 0.397986 0.360571
0.348272 0.398535 0.365606
0.358526 0.398993 0.371862
0.351415 0.413519 0.368750
0.348547 0.430030 0.365240
0.352087 0.448676 0.360357
0.365789 0.469154 0.353887
0.392615 0.491493 0.345037
0.434607 0.515435 0.333104
0.492012 0.540734 0.317113
0.564172 0.567254 0.295323
0.659266 0.603632 0.267094
0.725643 0.616938 0.251133
0.762814 0.615137 0.236515
0.798550 0.611719 0.221927
0.832761 0.606897 0.206332
0.864530 0.600824 0.193515
0.892241 0.593439 0.188998
0.918791 0.585901 0.184817
0.944152 0.578058 0.180789
0.968353 0.570306 0.176852
0.989044 0.561212 0.174380
1.000000 0.552117 0.171054
1.000000 0.543297 0.166567
1.000000 0.534478 0.160586
1.000000 0.525811 0.153170
0.342565 0.424811 0.373083
0.342901 0.424781 0.373144
0.343969 0.424933 0.373846
0.346075 0.425147 0.375067
0.349554 0.425574 0.377081
0.354376 0.426123 0.379858
0.360754 0.426764 0.383795
0.368719 0.427466 0.388708
0.378607 0.428351 0.394873
0.380407 0.435554 0.397101
0.375525 0.451850 0.394598
0.375097 0.469978 0.391058
0.381842 0.490181 0.386236
0.399237 0.512139 0.379614
0.429633 0.535698 0.370764
0.474617 0.560906 0.358953
0.533867 0.586969 0.342992
0.606836 0.613794 0.321813
0.697993 0.646784 0.294957
0.770138 0.662440 0.280430
0.804715 0.658747 0.266484
0.837858 0.653651 0.252598
0.869444 0.647395 0.238376
0.899474 0.639857 0.222934
0.925353 0.631128 0.216800
0.949493 0.622248 0.212924
0.972717 0.613306 0.208774
0.994842 0.604303 0.204379
1.000000 0.595026 0.200015
1.000000 0.585077 0.195560
1.000000 0.575189 0.189578
1.000000 0.565454 0.182040
0.364324 0.453285 0.396765
0.364599 0.453254 0.396948
0.364202 0.451728 0.396063
0.366217 0.452003 0.397314
0.369726 0.452461 0.399390
0.374212 0.453132 0.402075
0.380407 0.453864 0.405890
0.388312 0.454780 0.410590
0.397528 0.455818 0.416480
0.408637 0.456886 0.423590
0.402869 0.471748 0.421820
0.399878 0.489387 0.419440
0.402014 0.508965 0.416083
0.412055 0.530510 0.411383
0.432807 0.553643 0.405005
0.466346 0.578332 0.396551
0.513512 0.604242 0.384985
0.574060 0.630823 0.369757
0.645899 0.656672 0.350042
0.730495 0.684352 0.325658
0.808560 0.703334 0.314153
0.840604 0.698238 0.301335
0.871092 0.691737 0.288243
0.900084 0.684077 0.274937
0.927672 0.675380 0.260624
0.952911 0.665888 0.249454
0.975280 0.656062 0.244968
0.996735 0.646174 0.240085
1.000000 0.636347 0.235416
1.000000 0.626398 0.229557
1.000000 0.616052 0.223148
1.000000 0.605432 0.215000
0.386389 0.481636 0.420722
0.386542 0.481483 0.420752
0.387427 0.481483 0.421118
0.389227 0.481605 0.422187
0.392432 0.482063 0.424079
0.396796 0.482673 0.426703
0.402808 0.483619 0.430457
0.410224 0.484657 0.435035
0.419287 0.485908 0.440742
0.429969 0.487343 0.447547
0.433783 0.494697 0.451301
0.429358 0.511894 0.449897
0.428473 0.531182 0.447639
0.433356 0.552117 0.444587
0.446845 0.574853 0.440131
0.470863 0.599145 0.434028
0.506920 0.624475 0.425757
0.555535 0.650233 0.414984
0.615290 0.675074 0.401099
0.684230 0.698360 0.383276
0.761746 0.720851 0.361059
0.839963 0.740627 0.353185
0.872221 0.734890 0.341802
0.900053 0.727199 0.329473
0.926665 0.718532 0.316442
0.952117 0.708888 0.302251
0.976410 0.698543 0.286717
0.997192 0.687892 0.280919
1.000000 0.677241 0.275029
1.000000 0.666590 0.268589
1.000000 0.655970 0.261234
1.000000 0.645197 0.252232
0.410468 0.512352 0.446723
0.410773 0.512230 0.446693
0.411322 0.512200 0.447089
0.413153 0.512444 0.448127
0.416327 0.512840 0.449897
0.420600 0.513512 0.452522
0.426368 0.514580 0.456092
0.433631 0.515831 0.460731
0.442390 0.517266 0.466194
0.452796 0.518914 0.472999
0.464790 0.520775 0.480842
0.461006 0.535851 0.480751
0.458137 0.554650 0.479591
0.459663 0.575128 0.477668
0.467597 0.597345 0.474830
0.483955 0.620966 0.470710
0.510857 0.645563 0.465003
0.548699 0.670008 0.457588
0.597009 0.693660 0.448005
0.654414 0.716030 0.435584
0.719203 0.736507 0.420081
0.790188 0.754818 0.400122
0.864439 0.773404 0.394812
0.898558 0.767910 0.386236
0.924102 0.759487 0.373999
0.948638 0.750057 0.360876
0.972168 0.739864 0.346410
0.994812 0.728756 0.330236
1.000000 0.717433 0.318181
1.000000 0.706203 0.310765
1.000000 0.694972 0.302464
1.000000 0.683589 0.292546
0.436225 0.544701 0.474098
0.436194 0.544549 0.474037
0.436988 0.544549 0.474495
0.438666 0.544823 0.475502
0.441627 0.545281 0.477241
0.445777 0.546044 0.479805
0.451453 0.547204 0.483375
0.458412 0.548547 0.487800
0.467079 0.550134 0.493324
0.477058 0.551965 0.499825
0.488869 0.554101 0.507500
0.494972 0.561364 0.512840
0.490822 0.579675 0.512261
0.490028 0.599634 0.511376
0.494057 0.621180 0.509789
0.504936 0.643915 0.507286
0.524071 0.666987 0.503685
0.552544 0.689754 0.498787
0.590265 0.711849 0.492348
0.636591 0.732906 0.483925
0.690394 0.752438 0.473121
0.750301 0.769986 0.459419
0.815213 0.785336 0.441901
0.884703 0.802213 0.437476
0.919829 0.796872 0.431830
0.943297 0.788022 0.419196
0.965942 0.778256 0.405493
0.987915 0.767697 0.390295
1.000000 0.756313 0.373388
1.000000 0.744167 0.354162
1.000000 0.732509 0.344610
1.000000 0.720699 0.333745
0.462409 0.577600 0.502068
0.462562 0.577600 0.502098
0.463325 0.577752 0.502647
0.465187 0.578088 0.503746
0.468147 0.578729 0.505577
0.472267 0.579644 0.508171
0.477760 0.580835 0.511650
0.484657 0.582269 0.516075
0.492866 0.584009 0.521355
0.502770 0.585992 0.527855
0.514214 0.588190 0.535363
0.527306 0.590570 0.544091
0.525261 0.605524 0.545434
0.523156 0.624872 0.545403
0.524559 0.645472 0.544884
0.531456 0.666621 0.543786
0.544915 0.687953 0.541955
0.566003 0.709255 0.539239
0.594690 0.729915 0.535332
0.631159 0.749691 0.530022
0.674372 0.768063 0.523064
0.723873 0.784787 0.514061
0.778347 0.799710 0.502251
0.837430 0.812802 0.487129
0.902342 0.828489 0.482979
0.937530 0.823331 0.480323
0.959167 0.814450 0.467140
0.980255 0.804654 0.452613
1.000000 0.793973 0.436316
1.000000 0.782437 0.417762
1.000000 0.770016 0.396155
1.000000 0.757443 0.379065
0.491676 0.613245 0.532860
0.491676 0.613245 0.532860
0.492592 0.613397 0.533379
0.494301 0.613764 0.534508
0.497169 0.614405 0.536278
0.501305 0.615320 0.538811
0.506584 0.616480 0.542260
0.513237 0.618006 0.546532
0.521355 0.619776 0.551781
0.530999 0.621820 0.558068
0.542077 0.624048 0.565423
0.554528 0.626642 0.573877
0.562982 0.633356 0.580591
0.559655 0.651453 0.580865
0.559777 0.670314 0.581292
0.564019 0.689693 0.581323
0.573205 0.709377 0.580865
0.588190 0.728817 0.579767
0.609522 0.747829 0.577783
0.637171 0.766018 0.574823
0.670863 0.783047 0.570642
0.710262 0.798734 0.564813
0.754513 0.812985 0.557092
0.803433 0.825711 0.546807
0.856809 0.837156 0.534203
0.917082 0.851926 0.529442
0.951751 0.847044 0.529717
0.971740 0.838468 0.515862
0.991455 0.828916 0.500206
1.000000 0.818296 0.482277
1.000000 0.806699 0.461921
1.000000 0.793973 0.437507
0.522850 0.649317 0.564935
0.523003 0.649287 0.564965
0.523766 0.649439 0.565484
0.525566 0.649805 0.566613
0.528344 0.650477 0.568383
0.532433 0.651453 0.571008
0.537713 0.652674 0.574395
0.544305 0.654139 0.578698
0.552361 0.655909 0.583917
0.561822 0.657862 0.590173
0.572747 0.660090 0.597314
0.585199 0.662440 0.605646
0.598901 0.665095 0.615015
0.599542 0.678187 0.617762
0.598901 0.695369 0.618921
0.601221 0.713100 0.619776
0.607263 0.731014 0.620294
0.617700 0.748745 0.620356
0.633051 0.765896 0.619806
0.653407 0.782376 0.618463
0.678828 0.797940 0.616236
0.709194 0.812436 0.612848
0.744106 0.825895 0.607996
0.783291 0.838071 0.601495
0.826535 0.848905 0.592645
0.873564 0.858335 0.580926
0.928679 0.871916 0.575158
0.962860 0.868009 0.577844
0.981476 0.859922 0.563073
1.000000 0.850797 0.546319
1.000000 0.840543 0.526909
1.000000 0.829252 0.504540
0.559533 0.685542 0.600397
0.559594 0.685481 0.600397
0.560479 0.685603 0.600916
0.562005 0.685939 0.601923
0.564721 0.686488 0.603693
0.568719 0.687251 0.606134
0.573724 0.688228 0.609369
0.580072 0.689479 0.613428
0.587610 0.690944 0.618311
0.596338 0.692653 0.624018
0.606409 0.694575 0.630671
0.617670 0.696742 0.638239
0.630091 0.699092 0.646723
0.639826 0.704250 0.654139
0.637659 0.719844 0.654963
0.638605 0.735744 0.656336
0.642390 0.751797 0.657374
0.649439 0.767605 0.658076
0.660243 0.783078 0.658381
0.674952 0.797879 0.658106
0.693843 0.812009 0.657099
0.716701 0.825345 0.655238
0.743648 0.837766 0.652399
0.774350 0.849210 0.648219
0.808774 0.859556 0.642359
0.846738 0.868772 0.634485
0.888182 0.876829 0.623774
0.936522 0.887694 0.617182
0.970459 0.886168 0.618952
0.989105 0.878813 0.605859
1.000000 0.870390 0.588891
1.000000 0.860868 0.568566
0.598901 0.719966 0.636866
0.599023 0.719936 0.636927
0.599725 0.720027 0.637354
0.601221 0.720363 0.638392
0.603693 0.720851 0.639948
0.607111 0.721523 0.642176
0.611719 0.722438 0.645136
0.617426 0.723568 0.648798
0.624109 0.724849 0.653223
0.632044 0.726345 0.658412
0.641077 0.728023 0.664393
0.651087 0.729915 0.671107
0.662135 0.731991 0.678676
0.674128 0.734310 0.687007
0.676112 0.744442 0.690211
0.676081 0.758419 0.691615
0.678279 0.772488 0.692958
0.682795 0.786435 0.693996
0.690181 0.800137 0.694667
0.700618 0.813382 0.694972
0.714260 0.826078 0.694728
0.731136 0.838163 0.693874
0.751400 0.849516 0.692164
0.775082 0.860105 0.689509
0.801907 0.869841 0.685725
0.831846 0.878630 0.680262
0.865049 0.886503 0.672969
0.901549 0.893339 0.663081
0.943755 0.901946 0.655116
0.976410 0.902342 0.655207
0.995300 0.895720 0.644099
1.000000 0.888151 0.627008
0.639216 0.753201 0.673732
0.639368 0.753201 0.673823
0.640009 0.753292 0.674189
0.641321 0.753536 0.675074
0.643427 0.753933 0.676417
0.646418 0.754421 0.678340
0.650233 0.755093 0.680812
0.655085 0.755856 0.683894
0.660792 0.756771 0.687648
0.667536 0.757870 0.692012
0.675288 0.759152 0.697139
0.683864 0.760586 0.702876
0.693416 0.762203 0.709377
0.703792 0.764004 0.716518
0.712886 0.767300 0.723232
0.711299 0.779538 0.724025
0.712123 0.791775 0.725277
0.714748 0.804013 0.726314
0.719509 0.816037 0.727138
0.726619 0.827817 0.727626
0.736233 0.839139 0.727718
0.748501 0.850034 0.727260
0.763546 0.860349 0.726253
0.781430 0.870054 0.724483
0.802029 0.879057 0.721798
0.825528 0.887388 0.717891
0.851865 0.894896 0.712520
0.881132 0.901610 0.705348
0.913268 0.907439 0.695796
0.949981 0.914122 0.686580
0.981353 0.916136 0.684688
1.000000 0.910063 0.675257
0.678401 0.783505 0.709071
0.678523 0.783536 0.709163
0.679164 0.783658 0.709590
0.680293 0.783841 0.710323
0.682246 0.784146 0.711574
0.684840 0.784634 0.713283
0.688319 0.785183 0.715511
0.692561 0.785916 0.718257
0.697627 0.786770 0.721645
0.703487 0.787716 0.725551
0.710231 0.788846 0.730007
0.717678 0.790066 0.735042
0.725856 0.791440 0.740658
0.734707 0.792966 0.746761
