20 Preset/Travel Style/【3】LUT video cho PR-AE-FCPX/Green Moody - Lut (16).cube
# Created by Adobe Lightroom plugin Export LUT (1.24.0)
# www.johnrellis.com/lightroom/exportlut.htm
# Preset: 16自然风光-动物-素材江湖
# Color profile: E:\lut插件\exportlut.1.24\exportlut.lrplugin\color profiles\Rec709gamma2.4.icc
LUT_3D_SIZE 5
DOMAIN_MIN 0.000000 0.000000 0.000000
DOMAIN_MAX 0.903226 0.903226 0.903226
0.111879 0.140902 0.173373
0.177401 0.142611 0.175235
0.514885 0.132204 0.167147
0.959197 0.000000 0.139895
1.000000 0.145235 0.249241
0.108217 0.188296 0.187381
0.171298 0.208560 0.181643
0.521477 0.277012 0.156283
0.975647 0.307988 0.134157
1.000000 0.327276 0.285985
0.000000 0.435126 0.252079
0.245640 0.412238 0.258335
0.540459 0.585931 0.217685
0.968109 0.663447 0.239292
1.000000 0.602350 0.387610
0.168612 0.729610 0.396826
0.343603 0.719509 0.401068
0.576501 0.744106 0.413458
0.814633 0.850858 0.426246
1.000000 0.883787 0.527489
0.628779 0.942473 0.637018
0.663355 0.939727 0.640375
0.749996 0.914794 0.623255
0.855131 0.949218 0.657984
0.956634 0.979522 0.681514
0.096925 0.151980 0.214420
0.162203 0.141756 0.235874
0.442908 0.000000 0.276493
0.908751 0.000000 0.274235
1.000000 0.000000 0.353399
0.114199 0.183536 0.238682
0.166598 0.204776 0.249638
0.478584 0.204135 0.250217
0.920653 0.212558 0.285649
1.000000 0.292576 0.372107
0.000000 0.447944 0.342290
0.168643 0.431830 0.323125
0.488197 0.532830 0.323247
0.930053 0.615381 0.354620
1.000000 0.604578 0.466560
0.000000 0.739193 0.444648
0.302983 0.730404 0.448280
0.577691 0.732570 0.460517
0.814359 0.843565 0.486854
1.000000 0.879881 0.582147
0.619593 0.942779 0.651484
0.652644 0.939483 0.653193
0.772061 0.929412 0.667720
0.869657 0.953094 0.693294
0.963775 0.982452 0.720058
0.000000 0.216983 0.445624
0.000000 0.179477 0.469825
0.459571 0.000000 0.527428
0.830198 0.000000 0.571710
1.000000 0.113619 0.584649
0.000000 0.321874 0.458869
0.000000 0.289799 0.476722
0.468971 0.196902 0.533867
0.844266 0.170352 0.572137
1.000000 0.333196 0.594873
0.224887 0.440436 0.543053
0.306859 0.457588 0.546227
0.532494 0.538354 0.569146
0.890318 0.559197 0.586114
1.000000 0.634211 0.641871
0.319402 0.779141 0.673396
0.401862 0.768612 0.653132
0.565637 0.742092 0.591730
0.826017 0.827756 0.643641
1.000000 0.868223 0.716396
0.603204 0.940612 0.717678
0.614191 0.940459 0.707912
0.729213 0.931090 0.708553
0.866697 0.937102 0.731777
0.964660 0.975067 0.771878
0.000000 0.380865 0.707546
0.000000 0.340948 0.719661
0.410163 0.254673 0.758480
0.827420 0.000000 0.794400
1.000000 0.180026 0.775265
0.000000 0.473854 0.707362
0.000000 0.447028 0.718135
0.418799 0.357397 0.752987
0.817288 0.201114 0.784878
1.000000 0.325078 0.770779
0.525444 0.659174 0.698268
0.544427 0.662745 0.708797
0.576806 0.629084 0.744900
0.825559 0.556573 0.785733
1.000000 0.609827 0.778653
0.600610 0.723415 0.778653
0.622278 0.727626 0.776547
0.714107 0.756863 0.779385
0.841733 0.811856 0.794247
1.000000 0.847166 0.828092
0.644923 0.954986 0.913878
0.669612 0.953399 0.904601
0.758267 0.948394 0.871153
0.848508 0.934173 0.811551
0.970520 0.970031 0.858061
0.501030 0.668177 0.925475
0.500237 0.652491 0.929259
0.544274 0.594293 0.941863
0.738460 0.488075 0.961761
1.000000 0.371221 0.975738
0.596307 0.722713 0.922484
0.593561 0.709621 0.925933
0.605859 0.654017 0.939208
0.758480 0.564996 0.959411
1.000000 0.466011 0.974334
0.773190 0.841642 0.912352
0.771633 0.836210 0.915679
0.764096 0.804654 0.928557
0.819303 0.746944 0.950134
0.995331 0.679561 0.967376
0.850706 0.902281 0.914397
0.858335 0.904784 0.914855
0.882444 0.911742 0.916930
0.886229 0.890501 0.939696
0.985595 0.850980 0.961975
0.858061 0.920439 0.959564
0.864622 0.923003 0.959960
0.887663 0.931395 0.959899
0.929564 0.948791 0.962066
0.982788 0.975525 0.969879
