20 Preset/Travel Style/【3】LUT video cho PR-AE-FCPX/Green Moody - Lut (9).cube
# Created by Adobe Lightroom plugin Export LUT (1.24.0)
# www.johnrellis.com/lightroom/exportlut.htm
# Preset: 09自然风光-冒险-素材江湖
# Color profile: E:\lut插件\exportlut.1.24\exportlut.lrplugin\color profiles\Rec709gamma2.4.icc
LUT_3D_SIZE 5
DOMAIN_MIN 0.000000 0.000000 0.000000
DOMAIN_MAX 0.903226 0.903226 0.903226
0.139040 0.152895 0.168734
0.172457 0.152438 0.169284
0.396216 0.124788 0.167025
0.821866 0.000000 0.152132
1.000000 0.000000 0.168215
0.153475 0.182650 0.169284
0.178775 0.183139 0.169619
0.399603 0.196597 0.170047
0.832792 0.142397 0.155276
1.000000 0.137118 0.193668
0.228611 0.392615 0.137819
0.292363 0.386542 0.145296
0.422156 0.414374 0.133150
0.819791 0.501793 0.178897
1.000000 0.525170 0.330449
0.433387 0.726894 0.000000
0.493568 0.726040 0.000000
0.641749 0.730739 0.000000
0.787411 0.736049 0.000000
1.000000 0.748775 0.346441
0.688106 0.930632 0.267216
0.718349 0.929229 0.286107
0.816281 0.918578 0.331731
0.913848 0.923186 0.371160
1.000000 0.913207 0.412146
0.143252 0.159121 0.184726
0.154879 0.161105 0.185916
0.328069 0.151797 0.223026
0.769894 0.000000 0.227085
1.000000 0.000000 0.267155
0.131716 0.183963 0.201083
0.168643 0.185977 0.204074
0.376471 0.189151 0.218662
0.781521 0.116793 0.240818
1.000000 0.137667 0.289006
0.147616 0.385351 0.199924
0.244938 0.382513 0.206424
0.391577 0.393713 0.212314
0.793240 0.488838 0.299809
1.000000 0.537926 0.423041
0.377417 0.725093 0.155612
0.449744 0.725216 0.173312
0.627192 0.727291 0.213321
0.776761 0.733394 0.224338
1.000000 0.755459 0.455787
0.665309 0.931182 0.349248
0.697108 0.929564 0.363317
0.808286 0.924681 0.426581
0.910124 0.926116 0.463142
1.000000 0.917266 0.500908
0.156771 0.206607 0.320623
0.189487 0.211643 0.321538
0.268132 0.228397 0.323980
0.432502 0.361334 0.449409
0.973938 0.311376 0.598871
0.183291 0.264530 0.358740
0.206455 0.259831 0.355596
0.283513 0.266789 0.349279
0.509941 0.370306 0.483467
0.997253 0.348180 0.594934
0.000000 0.392889 0.423285
0.000000 0.394415 0.425147
0.330602 0.402380 0.436194
0.736934 0.471046 0.520867
1.000000 0.571801 0.632685
0.000000 0.727871 0.372168
0.000000 0.721706 0.413764
0.511345 0.719478 0.478828
0.733974 0.731014 0.515373
0.964080 0.795285 0.731441
0.536309 0.932494 0.540948
0.585260 0.931304 0.553307
0.733608 0.926207 0.599939
0.878111 0.922850 0.649866
0.973175 0.918212 0.675166
0.195102 0.366979 0.638483
0.247318 0.371130 0.638056
0.372930 0.379309 0.626947
0.501518 0.401740 0.618311
0.706935 0.599115 0.745815
0.228855 0.421637 0.663783
0.272099 0.421271 0.659754
0.386450 0.419928 0.643580
0.508476 0.433082 0.629053
0.710201 0.624109 0.755459
0.303136 0.567620 0.708186
0.338689 0.564172 0.704494
0.430518 0.550744 0.696712
0.531609 0.534874 0.664912
0.742641 0.724300 0.806699
0.000000 0.723079 0.761868
0.000000 0.721187 0.760678
0.224552 0.721248 0.763577
0.632074 0.721004 0.770352
0.933471 0.809873 0.856535
0.000000 0.946471 0.693568
0.000000 0.945892 0.695583
0.402319 0.939971 0.733303
0.808133 0.925139 0.820218
0.937835 0.924773 0.843412
0.505608 0.637690 0.883391
0.520867 0.636927 0.881651
0.585168 0.641230 0.878264
0.672419 0.640314 0.868315
0.766812 0.660822 0.862486
0.517540 0.657435 0.882170
0.532189 0.657038 0.880949
0.589075 0.657221 0.876860
0.669978 0.651301 0.866056
0.763180 0.668727 0.860472
0.601068 0.747799 0.892515
0.600000 0.740261 0.890532
0.626490 0.727565 0.885374
0.685023 0.710933 0.872740
0.773861 0.723568 0.870207
0.617365 0.822080 0.910735
0.634363 0.822507 0.909361
0.704311 0.831449 0.908751
0.752926 0.821897 0.907073
0.825071 0.826291 0.905180
0.232761 0.923980 0.933410
0.308873 0.922911 0.933135
0.511040 0.921996 0.934874
0.706508 0.918944 0.936431
0.881865 0.914763 0.937865
