20 Preset/Travel Style/【3】LUT video cho PR-AE-FCPX/Green Moody - Lut (10).cube
# Created by Adobe Lightroom plugin Export LUT (1.24.0)
# www.johnrellis.com/lightroom/exportlut.htm
# Preset: 10自然风光-雾-素材江湖
# Color profile: E:\lut插件\exportlut.1.24\exportlut.lrplugin\color profiles\Rec709gamma2.4.icc
LUT_3D_SIZE 5
DOMAIN_MIN 0.000000 0.000000 0.000000
DOMAIN_MAX 0.903226 0.903226 0.903226
0.131228 0.125887 0.109529
0.290532 0.119051 0.103151
0.833494 0.000000 0.000000
1.000000 0.311711 0.000000
1.000000 0.438087 0.000000
0.000000 0.334813 0.015930
0.287114 0.304601 0.000000
0.826444 0.414313 0.000000
1.000000 0.492439 0.000000
1.000000 0.531792 0.163424
0.441444 0.810483 0.452918
0.610986 0.793484 0.477394
0.771878 0.748562 0.184482
0.998047 0.742550 0.295537
1.000000 0.716762 0.438392
0.685756 0.944060 0.755184
0.735622 0.941558 0.768429
0.805997 0.929595 0.741604
0.901030 0.892454 0.552239
1.000000 0.858213 0.538964
0.805661 0.991821 0.864439
0.823636 0.990356 0.868772
0.872984 0.983215 0.873655
0.896880 0.980468 0.832578
0.974487 0.970275 0.726955
0.112795 0.126955 0.249424
0.288945 0.063172 0.253758
0.754635 0.000000 0.230716
1.000000 0.267247 0.262181
1.000000 0.445960 0.320226
0.089998 0.219150 0.270573
0.277836 0.283665 0.238865
0.760372 0.342992 0.257511
1.000000 0.467536 0.300511
1.000000 0.532036 0.364446
0.260136 0.774166 0.510552
0.554620 0.764492 0.550958
0.724269 0.707485 0.365270
0.964172 0.731685 0.470588
1.000000 0.725765 0.561364
0.686000 0.938506 0.779202
0.735531 0.937011 0.792020
0.816464 0.926604 0.783200
0.891569 0.887785 0.625177
1.000000 0.861601 0.623987
0.810788 0.991119 0.875822
0.827634 0.989685 0.879515
0.887816 0.984771 0.895689
0.906889 0.981506 0.859648
0.975158 0.972534 0.766384
0.266941 0.238682 0.758724
0.488960 0.175479 0.749325
0.788052 0.000000 0.708309
0.986969 0.122225 0.673976
1.000000 0.414679 0.618677
0.398047 0.520928 0.737362
0.489052 0.465980 0.727077
0.758907 0.319829 0.692012
0.958587 0.396155 0.656825
1.000000 0.520348 0.632441
0.346715 0.590143 0.717861
0.439612 0.604913 0.708980
0.674342 0.674189 0.651728
0.901549 0.725277 0.712856
1.000000 0.740078 0.733852
0.689906 0.909880 0.851164
0.705867 0.909178 0.839872
0.828031 0.914733 0.856779
0.871244 0.875456 0.761013
1.000000 0.876829 0.787747
0.810269 0.988312 0.903044
0.820035 0.988220 0.902251
0.882750 0.984283 0.916686
0.921263 0.979339 0.906645
0.968627 0.968627 0.826505
0.599756 0.551690 0.929656
0.648951 0.539452 0.928252
0.804440 0.462013 0.921172
0.977508 0.355413 0.901061
1.000000 0.461433 0.847623
0.647730 0.678920 0.919402
0.672938 0.665003 0.917693
0.783017 0.589868 0.908568
0.948089 0.481880 0.886687
1.000000 0.535454 0.843687
0.737697 0.822812 0.904295
0.750423 0.822141 0.901244
0.769192 0.775479 0.885863
0.870878 0.695369 0.851469
1.000000 0.703700 0.840818
0.649104 0.782254 0.888640
0.663233 0.784756 0.884520
0.717647 0.799130 0.873106
0.831235 0.838468 0.839384
0.986511 0.874815 0.880217
0.772763 0.983307 0.957794
0.795163 0.982483 0.955505
0.872953 0.980652 0.952117
0.941222 0.981079 0.955932
0.964630 0.966735 0.901183
0.748257 0.746639 0.992279
0.760403 0.741726 0.992218
0.812772 0.717037 0.992248
0.926177 0.640833 0.992157
1.000000 0.578363 0.988342
0.776822 0.791592 0.988098
0.785245 0.786435 0.988128
0.824369 0.761868 0.988342
0.920500 0.692927 0.988159
1.000000 0.629267 0.984833
0.849088 0.889433 0.980163
0.847745 0.883207 0.980407
0.860533 0.864591 0.980194
0.911376 0.812192 0.979248
1.000000 0.748196 0.976715
0.870726 0.927459 0.978241
0.878660 0.930816 0.977935
0.908904 0.944213 0.977478
0.919585 0.923522 0.975372
0.987518 0.867369 0.967010
0.797757 0.900267 0.980194
0.806699 0.903563 0.979706
0.841276 0.916808 0.978088
0.890684 0.935698 0.974243
0.954955 0.958434 0.959197
