20 Preset/Travel Style/【3】LUT video cho PR-AE-FCPX/Green Moody - Lut (1).cube
# Created by Adobe Lightroom plugin Export LUT (1.24.0)
# www.johnrellis.com/lightroom/exportlut.htm
# Preset: 01自然风光-复古-素材江湖
# Color profile: E:\lut插件\exportlut.1.24\exportlut.lrplugin\color profiles\Rec709gamma2.4.icc
LUT_3D_SIZE 8
DOMAIN_MIN 0.000000 0.000000 0.000000
DOMAIN_MAX 0.903226 0.903226 0.903226
0.211887 0.157412 0.160189
0.216800 0.157900 0.160739
0.313817 0.156100 0.159060
0.481209 0.154696 0.149752
0.667689 0.187503 0.138521
0.833951 0.245914 0.144533
0.962066 0.299565 0.180179
1.000000 0.355627 0.245335
0.213474 0.162600 0.161532
0.219059 0.164248 0.160769
0.323796 0.182712 0.156863
0.490303 0.197421 0.145876
0.674708 0.237491 0.138216
0.837888 0.286748 0.147463
0.964477 0.331273 0.187503
1.000000 0.379889 0.254032
0.219577 0.217624 0.168124
0.229679 0.216800 0.168521
0.288426 0.233463 0.157595
0.480201 0.308354 0.145052
0.688136 0.376104 0.144533
0.842588 0.409094 0.166262
0.964569 0.432959 0.216495
1.000000 0.461860 0.286564
0.240452 0.305608 0.192691
0.250919 0.300328 0.194919
0.290410 0.315587 0.186160
0.390326 0.347356 0.160586
0.603601 0.465126 0.141512
0.837705 0.564508 0.222232
0.964691 0.576043 0.287480
1.000000 0.584558 0.357641
0.257298 0.413031 0.228733
0.267826 0.408240 0.230533
0.300725 0.410864 0.228183
0.370459 0.439979 0.209781
0.491554 0.484810 0.167819
0.705135 0.608331 0.160311
0.916075 0.690333 0.316411
1.000000 0.721798 0.480171
0.259220 0.531121 0.276860
0.269841 0.526787 0.278111
0.305547 0.514855 0.281010
0.358831 0.541466 0.268467
0.451911 0.581842 0.243412
0.589563 0.632929 0.191501
0.799039 0.729519 0.222538
0.982849 0.791623 0.441901
0.219059 0.680446 0.348516
0.233524 0.677516 0.349371
0.282750 0.665309 0.352911
0.341741 0.673701 0.349584
0.426184 0.705898 0.336553
0.546197 0.744991 0.313787
0.705257 0.787228 0.274144
0.909545 0.843809 0.342809
0.251225 0.853880 0.512535
0.263706 0.852537 0.513420
0.307958 0.846738 0.517113
0.372656 0.838346 0.522911
0.449989 0.859068 0.520775
0.553826 0.881621 0.512535
0.686946 0.903899 0.496956
0.847776 0.921508 0.469490
0.213535 0.158328 0.165255
0.218631 0.157656 0.164645
0.304936 0.146395 0.168765
0.454200 0.159091 0.175357
0.643305 0.195132 0.182315
0.818326 0.255192 0.195346
0.952483 0.312902 0.228305
1.000000 0.370672 0.285893
0.212650 0.166049 0.165896
0.222629 0.166384 0.165927
0.307561 0.179416 0.173495
0.462806 0.196872 0.177493
0.650385 0.238682 0.183963
0.821561 0.292210 0.198886
0.954253 0.341894 0.234623
1.000000 0.393408 0.293370
0.231571 0.222324 0.181735
0.240848 0.218112 0.183474
0.290684 0.233097 0.174746
0.473182 0.305608 0.182650
0.670985 0.370459 0.195621
0.830259 0.410468 0.218265
0.956939 0.440131 0.260990
1.000000 0.472084 0.322881
0.250156 0.311284 0.205631
0.260105 0.306188 0.207645
0.296696 0.316686 0.201694
0.392309 0.347936 0.180148
0.604303 0.467140 0.184543
0.836057 0.569238 0.273838
0.958923 0.580682 0.325841
1.000000 0.592432 0.391058
0.265415 0.417456 0.240940
0.275547 0.412726 0.242405
0.307195 0.411749 0.241428
0.373877 0.441047 0.225498
0.493019 0.485695 0.190036
0.705989 0.610224 0.201877
0.914641 0.694057 0.353582
1.000000 0.727199 0.507256
0.265354 0.535515 0.287785
0.276310 0.531365 0.289006
0.311681 0.516045 0.292729
0.362799 0.542443 0.281437
0.453895 0.582666 0.258793
0.590143 0.633265 0.214054
0.799588 0.730892 0.254215
0.981048 0.794675 0.469306
0.225895 0.683680 0.358373
0.239567 0.681117 0.359503
0.287266 0.668879 0.362463
0.345739 0.674464 0.360143
0.428626 0.706355 0.348302
0.547539 0.745480 0.327703
0.706111 0.788022 0.293095
0.909972 0.845090 0.366491
0.259007 0.855741 0.520775
0.270512 0.854307 0.521355
0.313420 0.848569 0.524804
0.377173 0.838407 0.530816
0.451698 0.857939 0.527153
0.554833 0.881041 0.520226
0.687617 0.903746 0.506584
0.847898 0.921477 0.481056
0.226413 0.158663 0.250980
0.252811 0.155062 0.243992
0.301488 0.151156 0.222965
0.443885 0.140230 0.246738
0.599939 0.150484 0.248508
0.767086 0.252842 0.290105
0.913054 0.332586 0.331731
1.000000 0.402747 0.385595
0.231846 0.188449 0.234165
0.250797 0.183597 0.230076
0.303868 0.178256 0.223606
0.437201 0.178622 0.239994
0.595117 0.219181 0.260838
0.771054 0.290959 0.297490
0.915557 0.359014 0.338231
1.000000 0.423377 0.392767
0.239292 0.249912 0.228397
0.260990 0.248264 0.228519
0.315526 0.250584 0.229007
0.453193 0.295598 0.259342
0.619348 0.347326 0.288090
0.785397 0.402502 0.321538
0.921752 0.450019 0.363653
1.000000 0.496986 0.421149
0.273960 0.336950 0.249424
0.286168 0.331395 0.250980
0.317693 0.323003 0.251530
0.400244 0.351568 0.239384
0.604059 0.472023 0.295232
0.802701 0.561395 0.378943
0.928069 0.586755 0.424475
1.000000 0.612207 0.483772
0.291569 0.437446 0.285985
0.300908 0.432715 0.286717
0.330846 0.414862 0.288701
0.385779 0.443214 0.279423
0.495857 0.486061 0.259037
0.705165 0.614405 0.314122
0.904356 0.706966 0.470741
1.000000 0.741909 0.586908
0.287510 0.551629 0.329534
0.297398 0.547326 0.329778
0.331060 0.530205 0.331640
0.376989 0.543633 0.326818
0.460151 0.583459 0.312718
0.591608 0.633326 0.285527
0.799588 0.735195 0.353979
0.971954 0.805722 0.561639
0.247959 0.693874 0.395361
0.259983 0.691279 0.395850
0.303563 0.679500 0.397498
0.360540 0.672572 0.397589
0.436408 0.704921 0.390356
0.550317 0.744411 0.377417
0.706447 0.787137 0.355505
0.907866 0.847471 0.445686
0.281193 0.860502 0.548333
0.291752 0.859312 0.549126
0.330694 0.853605 0.551629
0.390173 0.841520 0.556023
0.461006 0.855467 0.555749
0.559655 0.879118 0.551659
0.689479 0.902464 0.542046
0.847654 0.920806 0.523033
0.259251 0.166751 0.443915
0.298833 0.163729 0.431586
0.388006 0.155276 0.388647
0.442939 0.157290 0.345129
0.609644 0.157076 0.396857
0.757290 0.203372 0.403265
0.881224 0.282933 0.410895
0.992737 0.423865 0.488624
0.268040 0.218906 0.409339
0.299107 0.214786 0.401190
0.377264 0.199557 0.370428
0.440375 0.191226 0.342504
0.601648 0.201419 0.388830
0.750210 0.241459 0.398810
0.872007 0.327825 0.420874
0.992706 0.445380 0.496773
0.286442 0.319524 0.380316
0.308293 0.318791 0.376898
0.363714 0.291661 0.352728
0.443641 0.282658 0.347295
0.582300 0.307439 0.369848
0.723415 0.364416 0.401251
0.867338 0.444190 0.459480
0.992035 0.519097 0.526726
0.268711 0.393317 0.349981
0.291997 0.390997 0.349004
0.366674 0.384741 0.352636
0.437629 0.391516 0.348363
0.606165 0.486458 0.428565
0.748165 0.538689 0.473365
0.878935 0.586969 0.526879
0.989899 0.632532 0.587121
0.332708 0.490913 0.380621
0.337621 0.486091 0.375525
0.367132 0.465034 0.367498
0.411353 0.459480 0.364385
0.509026 0.500359 0.357336
0.709377 0.634333 0.466072
0.887053 0.737026 0.626856
0.981903 0.756130 0.673548
0.316686 0.589746 0.405097
0.326024 0.585351 0.404334
0.359319 0.568170 0.402594
0.402258 0.549798 0.399481
0.472419 0.589166 0.395087
0.596948 0.638148 0.384833
0.800687 0.748623 0.498817
0.958282 0.827604 0.688441
0.280552 0.718013 0.464332
0.291051 0.715358 0.464240
0.329656 0.703395 0.462715
0.384771 0.679103 0.459846
0.450141 0.702876 0.458747
0.555657 0.743557 0.456550
0.707790 0.787594 0.450752
0.904723 0.854520 0.568994
0.313970 0.871244 0.598016
0.322881 0.869932 0.598230
0.356725 0.864256 0.599084
0.410834 0.852445 0.600671
0.475746 0.850431 0.602838
0.567285 0.875669 0.603357
0.692439 0.900450 0.600244
0.847654 0.919860 0.590356
0.302831 0.225254 0.693324
0.343999 0.223514 0.683619
0.451759 0.214817 0.646448
0.551843 0.191257 0.576898
0.600885 0.196811 0.519310
0.759731 0.227085 0.570977
0.881834 0.305821 0.571435
0.989685 0.408331 0.592493
0.315373 0.286473 0.667659
0.349676 0.282383 0.659236
0.445869 0.267399 0.626490
0.541833 0.236515 0.563592
0.596521 0.232364 0.515557
0.753536 0.261784 0.567315
0.876188 0.333471 0.569879
0.984802 0.429175 0.594690
0.335332 0.410895 0.619348
0.350286 0.398566 0.612696
0.426612 0.377966 0.585351
0.512108 0.337774 0.530053
0.585260 0.329747 0.509361
0.731594 0.363531 0.550072
0.854917 0.422950 0.566461
0.966155 0.501640 0.605676
0.322881 0.501762 0.573571
0.343694 0.500008 0.570031
0.410925 0.495155 0.557946
0.484321 0.452827 0.514275
0.576471 0.449928 0.512657
0.701015 0.484077 0.532464
0.819669 0.551354 0.584894
0.944518 0.624628 0.655512
0.272618 0.569024 0.514824
0.296544 0.567010 0.513390
0.375708 0.557427 0.508171
0.462959 0.537285 0.501640
0.548730 0.558587 0.504265
0.719905 0.680476 0.639948
0.842527 0.718013 0.684596
0.949676 0.752407 0.731777
0.364691 0.661036 0.545006
0.377966 0.658473 0.545373
0.405524 0.644129 0.533165
0.440223 0.607935 0.507164
0.494697 0.611292 0.503807
0.611627 0.658045 0.507103
0.809751 0.780301 0.664118
0.949798 0.860807 0.810575
0.352056 0.761868 0.584253
0.353857 0.759823 0.580468
0.365911 0.749935 0.566186
0.414405 0.726253 0.554925
0.470741 0.703487 0.545037
0.564324 0.746792 0.553643
0.712551 0.792416 0.562066
0.905303 0.869383 0.704067
0.351415 0.893126 0.669825
0.359319 0.891814 0.669673
0.388739 0.886198 0.668513
0.437293 0.874052 0.665644
0.495827 0.854307 0.662287
0.575769 0.871061 0.665797
0.696040 0.898589 0.670100
0.849119 0.919860 0.670466
0.364324 0.342199 0.865537
0.392950 0.341192 0.861509
0.483711 0.337041 0.845151
0.598077 0.316625 0.809415
0.698146 0.276158 0.752956
0.749844 0.278996 0.699245
0.879149 0.343664 0.720089
0.985290 0.438758 0.730373
0.378241 0.394385 0.856291
0.402808 0.392493 0.852567
0.485176 0.382361 0.837003
0.593194 0.355596 0.801968
0.691402 0.310521 0.746761
0.745968 0.308721 0.696986
0.874479 0.369482 0.719203
0.980926 0.459480 0.731289
0.400397 0.514519 0.826261
0.417975 0.510704 0.822812
0.480781 0.494484 0.807889
0.573205 0.459724 0.775631
0.664668 0.405921 0.722408
0.729213 0.400244 0.687709
0.854795 0.452247 0.715724
0.963043 0.528740 0.734279
0.429236 0.648768 0.805020
0.441779 0.643610 0.799924
0.484138 0.619471 0.777707
0.546044 0.575921 0.745754
0.625330 0.514336 0.691554
0.704524 0.515343 0.680293
0.823423 0.560662 0.709438
0.936156 0.618952 0.740444
0.376959 0.686427 0.749294
0.392706 0.685328 0.747311
0.448035 0.681209 0.739895
0.526055 0.675563 0.728359
0.590051 0.625544 0.681849
0.682246 0.629328 0.683192
0.796323 0.661555 0.709010
0.907866 0.712490 0.756222
0.286809 0.737087 0.688289
0.307744 0.735500 0.687251
0.379095 0.729213 0.683467
0.475807 0.715297 0.677119
0.553521 0.687221 0.662959
0.648768 0.713771 0.673976
0.832181 0.826688 0.811765
0.928099 0.850187 0.844358
0.401984 0.819425 0.717647
0.412116 0.817868 0.717342
0.450416 0.811490 0.716976
0.511803 0.797971 0.716670
0.526329 0.764187 0.677058
0.583886 0.757290 0.666255
0.724605 0.805570 0.684962
0.912657 0.895323 0.834653
0.516289 0.916808 0.797757
0.522179 0.915923 0.798062
0.530358 0.912261 0.792874
0.521263 0.904906 0.771023
0.535973 0.888823 0.746944
0.590112 0.863493 0.735042
0.701900 0.896239 0.747066
0.852720 0.920653 0.757565
0.464698 0.501854 0.962036
0.482551 0.505089 0.961730
0.539361 0.501061 0.955444
0.630060 0.490120 0.943450
0.736263 0.458320 0.921538
0.834043 0.414435 0.891295
0.887846 0.406439 0.848661
0.975494 0.480354 0.839078
0.467597 0.525078 0.952331
0.485054 0.528588 0.952483
0.537255 0.521721 0.946471
0.622156 0.503716 0.933501
0.723659 0.466133 0.909636
0.816739 0.415991 0.875700
0.866697 0.402289 0.829557
0.960235 0.467140 0.824277
0.514977 0.641382 0.941955
0.524224 0.639033 0.940703
0.559289 0.625483 0.934264
0.624598 0.599878 0.921477
0.709377 0.552056 0.896666
0.796872 0.496651 0.863828
0.855619 0.488685 0.829557
0.952728 0.551263 0.835294
0.573571 0.757259 0.929656
0.576898 0.753079 0.927733
0.588678 0.734218 0.921386
0.632288 0.710842 0.909819
0.694820 0.665126 0.885924
0.771328 0.609033 0.853819
0.836576 0.603388 0.831754
0.934234 0.644770 0.843717
0.574334 0.818784 0.916686
0.578485 0.816678 0.914580
0.606714 0.815946 0.910491
0.631312 0.790341 0.895201
0.666224 0.744198 0.869108
0.726253 0.681025 0.827420
0.802701 0.679835 0.818906
0.912749 0.725246 0.846891
0.481941 0.830655 0.877226
0.491432 0.830564 0.876921
0.526390 0.829007 0.874937
0.585443 0.826566 0.871946
0.656733 0.822873 0.867185
0.702541 0.777646 0.832639
0.792874 0.778103 0.832609
0.897673 0.810208 0.858091
0.383337 0.878416 0.841123
0.396460 0.878569 0.841703
0.434577 0.874876 0.839078
0.506462 0.868376 0.835752
0.594537 0.854765 0.829313
0.672694 0.830320 0.818357
0.767758 0.846464 0.826230
0.927855 0.923980 0.922972
0.526024 0.944366 0.864652
0.533471 0.943938 0.865171
0.566552 0.942901 0.868437
0.611688 0.937621 0.869718
0.664332 0.927001 0.868681
0.672572 0.907683 0.843381
0.714748 0.891997 0.825559
0.859770 0.922759 0.844602
0.558495 0.630365 0.997742
0.568170 0.632044 0.997467
0.598230 0.625360 0.994781
0.658289 0.619409 0.990692
0.738186 0.601587 0.983490
0.833799 0.562799 0.971649
0.927214 0.528771 0.959777
0.988861 0.516472 0.935973
0.562402 0.645319 0.993988
0.571771 0.646662 0.993835
0.601526 0.641413 0.991577
0.657588 0.631922 0.987335
0.734615 0.611536 0.980133
0.828244 0.570794 0.968017
0.919768 0.531579 0.955077
0.980102 0.515557 0.930022
0.596979 0.716121 0.986145
0.602869 0.715267 0.985809
0.623896 0.706813 0.983581
0.672999 0.700099 0.980835
0.735531 0.673243 0.973571
0.817319 0.626307 0.960967
0.905150 0.583368 0.948211
0.962615 0.565393 0.923217
0.644434 0.798367 0.977050
0.649134 0.797848 0.976898
0.661921 0.790341 0.975036
0.692287 0.777981 0.971801
0.738552 0.752926 0.965423
0.804929 0.709529 0.953887
0.885710 0.664546 0.941253
0.942992 0.649958 0.920378
0.685267 0.865537 0.971862
0.690028 0.865568 0.971679
0.699550 0.859892 0.969238
0.715572 0.847013 0.965148
0.741634 0.823545 0.958343
0.787961 0.783993 0.946532
0.860288 0.737087 0.932372
0.923888 0.736294 0.920653
0.681086 0.900359 0.965545
0.683955 0.899809 0.964996
0.701045 0.899626 0.963745
0.738766 0.902770 0.962951
0.768917 0.894102 0.958862
0.796078 0.869017 0.950072
0.850675 0.830045 0.935851
0.912016 0.828733 0.929412
0.661830 0.935576 0.960143
0.666224 0.935302 0.959960
0.684688 0.934234 0.959167
0.720882 0.933257 0.958404
0.768582 0.932006 0.957458
0.823117 0.931823 0.957122
0.838529 0.900542 0.939422
0.895628 0.885191 0.929900
0.566766 0.968078 0.937804
0.570855 0.967468 0.937438
0.592432 0.965576 0.936828
0.635554 0.962676 0.936614
0.687465 0.957488 0.935027
0.747311 0.949157 0.931975
0.810971 0.932921 0.926421
0.881926 0.934386 0.928801
