20 Preset/Travel Style/【3】LUT video cho PR-AE-FCPX/Green Moody - Lut (23).cube
# Created by Adobe Lightroom plugin Export LUT (1.24.0)
# www.johnrellis.com/lightroom/exportlut.htm
# Preset: 23自然风光-天空-素材江湖
# Color profile: E:\lut插件\exportlut.1.24\exportlut.lrplugin\color profiles\Rec709gamma2.4.icc
LUT_3D_SIZE 5
DOMAIN_MIN 0.000000 0.000000 0.000000
DOMAIN_MAX 0.903226 0.903226 0.903226
0.078523 0.125124 0.140078
0.168429 0.129244 0.141085
0.376043 0.158450 0.140841
0.710079 0.196292 0.117891
1.000000 0.238590 0.011688
0.000000 0.218601 0.147341
0.153933 0.212100 0.148653
0.325872 0.220371 0.146883
0.658350 0.274266 0.115450
0.984619 0.314366 0.000000
0.000000 0.560021 0.080171
0.000000 0.559411 0.080629
0.400977 0.470985 0.098665
0.516930 0.384588 0.100130
0.817044 0.428595 0.000000
0.000000 0.865354 0.200748
0.115602 0.864561 0.208011
0.510277 0.837827 0.152316
0.676631 0.714992 0.000000
0.769131 0.594873 0.000000
0.463691 0.991516 0.516625
0.503227 0.990539 0.520165
0.619379 0.984283 0.519127
0.745083 0.966613 0.396674
0.921263 0.926360 0.000000
0.046693 0.138369 0.207126
0.155215 0.127901 0.231662
0.414160 0.094240 0.248234
0.786282 0.000000 0.231754
1.000000 0.169192 0.212711
0.000000 0.210330 0.234928
0.144656 0.219852 0.243809
0.402899 0.227726 0.231632
0.733883 0.248936 0.215244
1.000000 0.278538 0.193576
0.000000 0.548608 0.251041
0.000000 0.550805 0.252140
0.405890 0.477729 0.209781
0.544427 0.388220 0.164492
0.866941 0.433448 0.079683
0.000000 0.862394 0.344152
0.097505 0.861997 0.348943
0.514946 0.843809 0.325841
0.684688 0.722347 0.053162
0.781796 0.595880 0.000000
0.499397 0.988983 0.568414
0.533043 0.987976 0.570611
0.650843 0.984527 0.584192
0.756527 0.968658 0.476417
0.924743 0.930053 0.000000
0.000000 0.173831 0.441321
0.124575 0.164431 0.466590
0.444831 0.000000 0.534691
0.821714 0.000000 0.572534
1.000000 0.000000 0.532555
0.000000 0.273259 0.464820
0.117464 0.262974 0.483619
0.459174 0.194675 0.547478
0.833402 0.094636 0.566003
1.000000 0.242435 0.535760
0.000000 0.529931 0.550774
0.000000 0.536522 0.556176
0.494759 0.562310 0.577295
0.797360 0.526390 0.534112
1.000000 0.502220 0.493843
0.000000 0.852354 0.603815
0.266361 0.848966 0.605676
0.567926 0.847074 0.615808
0.724910 0.758694 0.465553
0.837339 0.594202 0.209628
0.591852 0.979675 0.700771
0.616876 0.979187 0.703090
0.704005 0.976928 0.710842
0.793881 0.967163 0.665522
0.919188 0.926543 0.366644
0.000000 0.256168 0.731868
0.213199 0.246159 0.741756
0.482918 0.168673 0.778958
0.811612 0.000000 0.819272
1.000000 0.000000 0.797787
0.152621 0.363348 0.738674
0.249912 0.354894 0.747738
0.486519 0.303746 0.780911
0.810147 0.138125 0.817624
1.000000 0.265965 0.795834
0.469459 0.629084 0.742672
0.499855 0.637354 0.754788
0.587243 0.630579 0.787228
0.824674 0.587671 0.828519
1.000000 0.612787 0.801358
0.457191 0.819974 0.804776
0.504601 0.819944 0.804898
0.652399 0.824582 0.810056
0.822019 0.835752 0.821714
0.970245 0.792294 0.774411
0.646448 0.973480 0.827176
0.671290 0.972534 0.829679
0.756649 0.969696 0.840208
0.857816 0.967193 0.849546
0.921904 0.927977 0.666438
0.520226 0.560876 0.945769
0.541314 0.555749 0.948455
0.618402 0.520256 0.957122
0.771878 0.423102 0.973907
0.996033 0.336004 0.985718
0.595392 0.645075 0.944610
0.608057 0.639399 0.946899
0.662684 0.609339 0.955779
0.787808 0.531884 0.972747
0.993561 0.462989 0.984833
0.753475 0.809201 0.935515
0.759396 0.808133 0.938293
0.780209 0.795773 0.947204
0.841947 0.762112 0.963775
0.981537 0.710140 0.976684
0.836942 0.898070 0.935485
0.847379 0.901244 0.936492
0.876524 0.908782 0.938659
0.895079 0.900603 0.953552
0.973175 0.877226 0.968994
0.831449 0.970062 0.963684
0.840604 0.970672 0.964477
0.866941 0.970214 0.964111
0.916625 0.972076 0.966613
0.977020 0.977386 0.973175
