20 Preset/Travel Style/【3】LUT video cho PR-AE-FCPX/Green Moody - Lut (8).cube
# Created by Adobe Lightroom plugin Export LUT (1.24.0)
# www.johnrellis.com/lightroom/exportlut.htm
# Preset: 08自然风光-环境人像-素材江湖
# Color profile: E:\lut插件\exportlut.1.24\exportlut.lrplugin\color profiles\Rec709gamma2.4.icc
LUT_3D_SIZE 32
DOMAIN_MIN 0.0 0.0 0.0
DOMAIN_MAX 1.0 1.0 1.0
0.167361 0.167086 0.168765
0.167361 0.167086 0.168765
0.167361 0.167086 0.168765
0.167361 0.167086 0.168765
0.167361 0.167086 0.168765
0.167361 0.167086 0.168765
0.175143 0.166720 0.169223
0.188022 0.165743 0.169924
0.200107 0.164767 0.170291
0.213779 0.163149 0.170871
0.230442 0.160800 0.171206
0.251286 0.156954 0.171359
0.276951 0.151217 0.171298
0.306767 0.142458 0.171206
0.340032 0.129885 0.170871
0.375769 0.111513 0.170260
0.412329 0.089998 0.169192
0.448890 0.046052 0.167697
0.485664 0.000000 0.165957
0.522301 0.000000 0.163943
0.558526 0.000000 0.161685
0.594354 0.000000 0.159060
0.629908 0.000000 0.156039
0.666346 0.000000 0.152712
0.703883 0.000000 0.148775
0.742336 0.000000 0.144198
0.781765 0.000000 0.138979
0.822019 0.000000 0.132937
0.861387 0.000000 0.126436
0.899962 0.000000 0.119356
0.937652 0.000000 0.111543
0.973541 0.000000 0.102968
0.167361 0.167086 0.168765
0.167361 0.167086 0.168765
0.167361 0.167086 0.168765
0.167361 0.167086 0.168765
0.167361 0.167086 0.168765
0.167361 0.167086 0.168765
0.175448 0.166659 0.169192
0.188571 0.165682 0.169924
0.200565 0.164706 0.170474
0.214450 0.163058 0.170840
0.231235 0.160647 0.171206
0.252354 0.156741 0.171359
0.278050 0.150942 0.171298
0.308110 0.142000 0.171206
0.341405 0.129305 0.170840
0.377081 0.110719 0.170260
0.413428 0.090639 0.169070
0.449866 0.048920 0.167544
0.486824 0.000214 0.165743
0.523491 0.000000 0.163699
0.559808 0.000000 0.161440
0.595727 0.000000 0.158785
0.631342 0.000000 0.155947
0.667842 0.000000 0.152316
0.705409 0.000000 0.148409
0.743862 0.000000 0.143709
0.783352 0.000000 0.138460
0.823514 0.000000 0.132357
0.862821 0.000000 0.125795
0.901244 0.000000 0.118776
0.938842 0.000000 0.110842
0.974609 0.000000 0.102235
0.167361 0.167086 0.168765
0.167361 0.167086 0.168765
0.167361 0.167086 0.168765
0.167361 0.167086 0.168765
0.167361 0.167086 0.168765
0.167361 0.167086 0.168765
0.176883 0.166506 0.169375
0.189639 0.165530 0.169924
0.201541 0.164553 0.170474
0.215488 0.163058 0.170840
0.232364 0.160616 0.171176
0.253696 0.156619 0.171328
0.279576 0.150515 0.171267
0.309850 0.141421 0.171176
0.343267 0.128481 0.170840
0.378576 0.112612 0.170016
0.414343 0.097414 0.168612
0.450813 0.070924 0.166995
0.487495 0.023865 0.165164
0.524193 0.000000 0.163027
0.560418 0.000000 0.160708
0.596246 0.000000 0.157992
0.631861 0.000000 0.155154
0.668421 0.000000 0.151492
0.706020 0.000000 0.147463
0.744533 0.000000 0.142794
0.784054 0.000000 0.137362
0.824094 0.000000 0.131411
0.863401 0.000000 0.124819
0.901793 0.000000 0.117342
0.939330 0.000000 0.109255
0.975067 0.000000 0.100435
0.167361 0.167086 0.168765
0.167361 0.167086 0.168765
0.167361 0.167086 0.168765
0.167361 0.167086 0.168765
0.167361 0.167086 0.168765
0.168582 0.166964 0.168948
0.179324 0.166354 0.169528
0.191592 0.165438 0.170077
0.203403 0.164462 0.170443
0.217441 0.162722 0.170993
0.234531 0.160189 0.171176
0.256321 0.156039 0.171298
0.282475 0.149722 0.171267
0.312718 0.140658 0.171145
0.345403 0.131350 0.170443
0.379736 0.121370 0.169253
0.415412 0.110140 0.167666
0.451850 0.096864 0.165896
0.488655 0.075196 0.163912
0.525292 0.035920 0.161685
0.561578 0.000000 0.159274
0.597406 0.000000 0.156497
0.632898 0.000000 0.153506
0.669276 0.000000 0.149966
0.706691 0.000000 0.145663
0.744961 0.000000 0.140993
0.784298 0.000000 0.135256
0.824247 0.000000 0.129244
0.863371 0.000000 0.122438
0.901732 0.000000 0.114626
0.939391 0.000000 0.106325
0.975219 0.000000 0.097444
0.167361 0.167086 0.168765
0.167361 0.167086 0.168765
0.167361 0.167086 0.168765
0.167361 0.167086 0.168765
0.167361 0.167086 0.168765
0.172213 0.167056 0.169039
0.183597 0.166171 0.169619
0.194491 0.165408 0.170169
0.206363 0.164187 0.170565
0.220432 0.162783 0.170901
0.237858 0.160494 0.171206
0.259342 0.157687 0.171176
0.285130 0.153719 0.170871
0.314641 0.148775 0.170169
0.346746 0.142794 0.169223
0.380926 0.135927 0.167819
0.416144 0.128542 0.166232
0.452369 0.119692 0.164126
0.488777 0.110170 0.161990
0.525383 0.098817 0.159823
0.561578 0.085359 0.157259
0.597223 0.055116 0.154330
0.632715 0.015412 0.151064
0.669093 0.000000 0.147341
0.706477 0.000000 0.143069
0.744808 0.000000 0.138003
0.784115 0.000000 0.132387
0.824033 0.000000 0.125704
0.863188 0.000000 0.118502
0.901640 0.000000 0.110597
0.939361 0.000000 0.101717
0.975189 0.000000 0.091707
0.166506 0.173709 0.170352
0.166506 0.173709 0.170352
0.166415 0.173892 0.170321
0.166598 0.174044 0.170291
0.166964 0.174350 0.170413
0.172030 0.173953 0.170718
0.181094 0.174441 0.170321
0.193545 0.173404 0.169833
0.206394 0.171969 0.169711
0.220890 0.170565 0.170047
0.238590 0.169100 0.170230
0.260380 0.167330 0.169924
0.286076 0.165103 0.169406
0.315282 0.162387 0.168673
0.347021 0.159182 0.167300
0.380896 0.154818 0.165713
0.415961 0.150484 0.163882
0.451881 0.144991 0.161776
0.488167 0.139345 0.159426
0.524346 0.133028 0.156924
0.560418 0.126680 0.154147
0.595972 0.118959 0.151095
0.624018 0.109499 0.148714
0.660487 0.097597 0.144961
0.697841 0.078584 0.140291
0.736446 0.028840 0.135103
0.776028 0.000000 0.129152
0.816373 0.000000 0.122469
0.856077 0.000000 0.114443
0.895048 0.000000 0.106081
0.933318 0.000000 0.096284
0.969940 0.000000 0.083925
0.165591 0.181735 0.172000
0.165591 0.181735 0.172000
0.165408 0.181918 0.172152
0.165743 0.181888 0.172152
0.168948 0.181704 0.172610
0.173831 0.181338 0.173281
0.179660 0.181369 0.172793
0.187808 0.181552 0.172610
0.201175 0.181979 0.171206
0.217105 0.181399 0.170169
0.235538 0.180819 0.169558
0.258366 0.180209 0.168521
0.284398 0.179355 0.167666
0.313054 0.178439 0.166537
0.344640 0.177066 0.165133
0.378119 0.175418 0.163241
0.412940 0.173220 0.161013
0.448615 0.170382 0.158663
0.484413 0.167422 0.156130
0.520348 0.164248 0.153353
0.556023 0.160433 0.150454
0.590875 0.155734 0.147311
0.625757 0.150729 0.143893
0.661555 0.144625 0.139651
0.698512 0.136721 0.134951
0.736690 0.127321 0.129305
0.776303 0.114046 0.122866
0.816617 0.096407 0.115114
0.856321 0.049744 0.106508
0.895415 0.000000 0.096956
0.933745 0.000000 0.084352
0.970275 0.000000 0.057893
0.166049 0.189914 0.174350
0.166049 0.189914 0.174350
0.166873 0.189975 0.174502
0.169009 0.189792 0.174655
0.172396 0.189578 0.175296
0.176761 0.189425 0.175906
0.181888 0.189334 0.175814
0.188052 0.189425 0.175326
0.196109 0.189700 0.175265
0.211307 0.191867 0.173404
0.230777 0.193332 0.171237
0.254215 0.194705 0.169039
0.280919 0.195804 0.167330
0.311040 0.196780 0.165133
0.343969 0.197330 0.162600
0.378576 0.197360 0.159579
0.413062 0.197147 0.156985
0.448432 0.196475 0.154238
0.484321 0.195468 0.151522
0.519982 0.194064 0.148440
0.555383 0.192111 0.145266
0.590143 0.189487 0.141756
0.625116 0.186282 0.137758
0.660975 0.182712 0.133303
0.697963 0.178408 0.127993
0.736355 0.172671 0.121736
0.775967 0.165621 0.114382
0.816312 0.156863 0.105501
0.856016 0.145571 0.095430
0.895171 0.130343 0.080842
0.933471 0.109590 0.050965
0.970031 0.064607 0.021881
0.169741 0.199405 0.176791
0.170047 0.199405 0.176791
0.171115 0.199435 0.176944
0.172793 0.199405 0.177066
0.175998 0.199374 0.177523
0.180240 0.199222 0.178103
0.185122 0.199313 0.178164
0.191318 0.199496 0.177676
0.198489 0.199557 0.177188
0.207767 0.199893 0.176761
0.224735 0.203708 0.175174
0.248020 0.207889 0.172213
0.275273 0.211429 0.168704
0.305699 0.214359 0.165042
0.338293 0.217197 0.161929
0.372839 0.219364 0.158450
0.408698 0.221073 0.154574
0.445319 0.222202 0.150484
0.482460 0.222629 0.146395
0.518700 0.222629 0.142397
0.553857 0.222263 0.138705
0.588495 0.221073 0.134768
0.623560 0.219364 0.130220
0.659541 0.217563 0.125124
0.696742 0.214908 0.118746
0.735225 0.211551 0.111696
0.774929 0.207462 0.102541
0.815335 0.202152 0.092012
0.855131 0.195254 0.072847
0.894285 0.186374 0.040192
0.932708 0.175235 0.008057
0.969299 0.160830 0.000000
0.173342 0.211948 0.178439
0.173648 0.211948 0.178439
0.174380 0.212009 0.178561
0.176730 0.212039 0.178836
0.179751 0.212131 0.179263
0.184176 0.212375 0.179629
0.189578 0.212497 0.179812
0.195743 0.212802 0.179294
0.203433 0.213016 0.178927
0.212345 0.213199 0.178195
0.222843 0.213535 0.177523
0.242710 0.218784 0.175845
0.269230 0.225254 0.172030
0.299535 0.230961 0.167727
0.332311 0.235996 0.163027
0.366583 0.239689 0.157687
0.401984 0.243290 0.153353
0.438392 0.246098 0.148806
0.475288 0.248386 0.143984
0.512261 0.250034 0.138888
0.548974 0.250919 0.133333
0.585321 0.251072 0.127199
0.621698 0.250767 0.120577
0.658259 0.249973 0.114107
0.695674 0.248875 0.106630
0.734401 0.247196 0.097749
0.774228 0.245060 0.084688
0.814664 0.241825 0.056245
0.854459 0.237308 0.023163
0.893614 0.231479 0.000000
0.932006 0.223819 0.000000
0.968505 0.214084 0.000000
0.176944 0.228885 0.180331
0.177096 0.228977 0.180484
0.178439 0.228977 0.180453
0.180606 0.229160 0.180697
0.184176 0.229435 0.181064
0.188907 0.229709 0.181399
0.194858 0.230106 0.181521
0.201755 0.230259 0.181003
0.209964 0.230625 0.180423
0.219547 0.230808 0.179507
0.230442 0.230991 0.178531
0.242802 0.231174 0.177462
0.263676 0.236790 0.175998
0.293370 0.245274 0.170840
0.325994 0.252689 0.165438
0.360082 0.258976 0.159731
0.395239 0.264134 0.153597
0.431128 0.268162 0.146975
0.467659 0.272129 0.141543
0.504570 0.275303 0.135805
0.541497 0.277531 0.129549
0.577996 0.279057 0.122408
0.615259 0.280186 0.114321
0.653468 0.280766 0.104707
0.692714 0.280888 0.092653
0.732418 0.280705 0.069917
0.772457 0.279850 0.035706
0.812924 0.278264 0.001465
0.852842 0.275486 0.000000
0.892149 0.271366 0.000000
0.930632 0.265904 0.000000
0.967132 0.258671 0.000000
0.179629 0.250217 0.183200
0.179873 0.250187 0.183352
0.181338 0.250278 0.183474
0.183932 0.250492 0.183688
0.188052 0.250889 0.183841
0.193484 0.251469 0.184390
0.200656 0.252201 0.184848
0.208255 0.252476 0.184482
0.217380 0.252567 0.183597
0.227817 0.252811 0.182650
0.239353 0.252873 0.181521
0.252323 0.252964 0.180331
0.263737 0.250889 0.178775
0.285039 0.255680 0.177462
0.316594 0.265293 0.171298
0.350225 0.273716 0.164889
0.385168 0.280674 0.158083
0.420813 0.286595 0.151156
0.456703 0.291417 0.143679
0.492531 0.295171 0.136110
0.529137 0.299016 0.129030
0.565820 0.302037 0.120912
0.603510 0.304631 0.111604
0.642023 0.307042 0.099855
0.681514 0.308995 0.082979
0.722286 0.310430 0.042420
0.764248 0.311315 0.000000
0.806760 0.311162 0.000000
0.847745 0.309880 0.000000
0.887572 0.307469 0.000000
0.926574 0.303624 0.000000
0.963561 0.298283 0.000000
0.182681 0.273106 0.186343
0.182956 0.273106 0.186343
0.184390 0.273350 0.186557
0.187198 0.273808 0.186709
0.191653 0.274388 0.187106
0.198245 0.275242 0.187533
0.205997 0.276341 0.188327
0.214969 0.277134 0.188540
0.224674 0.277256 0.187686
0.235966 0.277256 0.186465
0.248173 0.277195 0.185031
0.261753 0.276921 0.183749
0.276005 0.276707 0.182071
0.291478 0.276524 0.180423
0.312413 0.280156 0.179477
0.345403 0.290227 0.172244
0.380224 0.299168 0.164584
0.416022 0.306767 0.156558
0.452064 0.312871 0.148226
0.487984 0.317906 0.139406
0.523491 0.321660 0.129854
0.559533 0.325109 0.120211
0.597528 0.328985 0.109316
0.636347 0.332555 0.096071
0.676112 0.335790 0.070405
0.717098 0.338659 0.021210
0.759121 0.341436 0.000000
0.801572 0.343511 0.000000
0.843565 0.343847 0.000000
0.884916 0.342657 0.000000
0.925139 0.340093 0.000000
0.962158 0.335790 0.000000
0.186343 0.300542 0.190494
0.186801 0.300603 0.190463
0.188479 0.300816 0.190677
0.191745 0.301335 0.190921
0.196323 0.302190 0.191348
0.203738 0.303197 0.191989
0.212589 0.304448 0.192782
0.223362 0.305974 0.193912
0.233921 0.306188 0.193149
0.245670 0.306035 0.191714
0.258671 0.305760 0.190341
0.272648 0.305486 0.188632
0.287755 0.305089 0.186709
0.303807 0.304631 0.184695
0.320684 0.304295 0.182345
0.342260 0.307256 0.181186
0.375097 0.316899 0.174289
0.410742 0.326085 0.165316
0.446998 0.333837 0.155825
0.483131 0.339940 0.145724
0.518914 0.344915 0.135134
0.554894 0.349004 0.123384
0.591272 0.352636 0.109468
0.629847 0.356786 0.093782
0.669917 0.361151 0.059113
0.711208 0.365270 0.005158
0.753567 0.369085 0.000000
0.796414 0.372412 0.000000
0.838499 0.374670 0.000000
0.879881 0.375891 0.000000
0.920562 0.374853 0.000000
0.959075 0.371710 0.000000
0.191562 0.329534 0.196201
0.192142 0.329656 0.196139
0.193851 0.329961 0.196323
0.197269 0.330541 0.196658
0.202884 0.331365 0.197299
0.210452 0.332555 0.197971
0.219974 0.334051 0.199161
0.231449 0.335851 0.200351
0.243778 0.336980 0.200992
0.255985 0.336767 0.199466
0.269322 0.336461 0.197910
0.283970 0.335973 0.195865
0.299565 0.335363 0.193759
0.316014 0.334844 0.191409
0.333257 0.334295 0.188754
0.351568 0.333745 0.185946
0.373358 0.335943 0.184482
0.405341 0.344701 0.178378
0.441382 0.353979 0.167758
0.477607 0.361608 0.156527
0.513909 0.367742 0.144533
0.550408 0.373114 0.131533
0.587579 0.377813 0.116091
0.625147 0.381964 0.097017
0.663478 0.385718 0.054108
0.704768 0.390814 0.000000
0.747555 0.395880 0.000000
0.790738 0.400183 0.000000
0.833127 0.403632 0.000000
0.874723 0.406012 0.000000
0.915373 0.407141 0.000000
0.954009 0.405829 0.000000
0.199191 0.360021 0.204044
0.199588 0.360082 0.204044
0.201785 0.360266 0.204196
0.205203 0.360937 0.204623
0.211002 0.361761 0.205325
0.218723 0.362951 0.206271
0.228733 0.364416 0.207492
0.240757 0.366339 0.209018
0.254795 0.368475 0.210910
0.267277 0.368627 0.209873
0.281071 0.368200 0.208042
0.295750 0.367773 0.205997
0.311620 0.367315 0.203708
0.328405 0.366674 0.201236
0.346014 0.366155 0.198154
0.364355 0.365515 0.195132
0.383490 0.364813 0.191775
0.405219 0.366125 0.189731
0.435798 0.373419 0.185000
0.472023 0.382574 0.172824
0.508568 0.390356 0.159854
0.545678 0.396948 0.145449
0.583276 0.402808 0.129305
0.621454 0.408057 0.109285
0.660212 0.412787 0.079438
0.699825 0.417212 0.001709
0.740749 0.421698 0.000000
0.784268 0.427222 0.000000
0.827237 0.431678 0.000000
0.869291 0.435126 0.000000
0.910460 0.437415 0.000000
0.949310 0.438087 0.000000
0.208743 0.391211 0.213931
0.209354 0.391241 0.213901
0.211185 0.391547 0.214176
0.215061 0.392096 0.214542
0.220676 0.393011 0.215305
0.228885 0.394171 0.216373
0.238895 0.395789 0.217777
0.251347 0.397772 0.219699
0.265415 0.400122 0.221775
0.279911 0.401831 0.223056
0.293706 0.401343 0.221134
0.308385 0.400793 0.218906
0.324285 0.400275 0.216312
0.340948 0.399542 0.213565
0.358526 0.398840 0.210391
0.376867 0.398108 0.207095
0.395850 0.397192 0.203555
0.415534 0.396338 0.199527
0.437079 0.396612 0.196780
0.466102 0.402594 0.194034
0.503044 0.412116 0.180270
0.540429 0.420325 0.165713
0.578607 0.427619 0.149172
0.617304 0.434028 0.129671
0.656641 0.439887 0.105074
0.696681 0.445258 0.049622
0.737758 0.450446 0.000000
0.778958 0.454871 0.000000
0.820798 0.459174 0.000000
0.863462 0.463691 0.000000
0.905150 0.466957 0.000000
0.944427 0.468574 0.000000
0.220249 0.422156 0.225437
0.220798 0.422187 0.225406
0.221439 0.419959 0.224704
0.225223 0.420478 0.225193
0.230991 0.421454 0.225925
0.238956 0.422705 0.227115
0.248936 0.424384 0.228672
0.261204 0.426368 0.230655
0.275212 0.428931 0.233005
0.291417 0.431708 0.235966
0.305333 0.431891 0.234958
0.319829 0.431373 0.232822
0.335210 0.430884 0.230320
0.351720 0.430274 0.227420
0.369177 0.429633 0.224369
0.387457 0.428992 0.221073
0.406531 0.428260 0.217288
0.426062 0.427466 0.213199
0.446296 0.426520 0.208988
0.467567 0.426337 0.205264
0.495979 0.431708 0.205295
0.533745 0.441993 0.190463
0.572290 0.450904 0.174441
0.611566 0.458930 0.156100
0.651667 0.466194 0.134310
0.692561 0.472938 0.105562
0.734371 0.479225 0.029328
0.776120 0.484657 0.000000
0.817288 0.488991 0.000000
0.858000 0.492287 0.000000
0.899535 0.496010 0.000000
0.939391 0.498573 0.000000
0.233341 0.452552 0.238315
0.233524 0.452338 0.238254
0.235019 0.452399 0.238437
0.238468 0.452766 0.238895
0.244205 0.453590 0.239719
0.252049 0.454719 0.240909
0.262242 0.456458 0.242557
0.274266 0.458564 0.244694
0.288304 0.461067 0.247288
0.304173 0.464057 0.250584
0.320439 0.466377 0.252750
0.334630 0.465888 0.250462
0.349950 0.465309 0.247837
0.365942 0.464790 0.244968
0.383124 0.464210 0.241917
0.401282 0.463508 0.238529
0.420020 0.462776 0.234684
0.439460 0.461952 0.230442
0.459541 0.460945 0.226108
0.479988 0.459876 0.221195
0.501244 0.459052 0.216281
0.529442 0.464118 0.218082
0.567437 0.474525 0.203677
0.607080 0.484230 0.186465
0.647578 0.493050 0.166873
0.689082 0.501152 0.143038
0.731289 0.508659 0.111452
0.773526 0.514946 0.030121
0.815030 0.520073 0.000000
0.856046 0.524163 0.000000
0.896208 0.527092 0.000000
0.934478 0.528374 0.000000
0.248539 0.485420 0.253666
0.248844 0.485237 0.253605
0.250553 0.485206 0.253696
0.253727 0.485603 0.254185
0.259342 0.486336 0.255039
0.266789 0.487617 0.256321
0.276921 0.489265 0.258122
0.288701 0.491493 0.260410
0.302586 0.494087 0.263279
0.318456 0.497139 0.266697
0.335851 0.500725 0.270634
0.350835 0.501335 0.270115
0.365606 0.500877 0.267613
0.381506 0.500237 0.264714
0.398352 0.499733 0.261540
0.415930 0.499092 0.258122
0.434546 0.498390 0.254276
0.453834 0.497627 0.250065
0.473701 0.496742 0.245548
0.494087 0.495705 0.240635
0.514916 0.494575 0.235294
0.536278 0.493233 0.229557
0.565057 0.498604 0.231357
0.602411 0.508568 0.219821
0.643305 0.519188 0.201999
0.685206 0.528893 0.181460
0.727901 0.537774 0.156771
0.770291 0.545159 0.125307
0.812070 0.551293 0.065766
0.853483 0.556207 0.000000
0.893706 0.559655 0.000000
0.931945 0.561364 0.000000
0.265599 0.519402 0.270726
0.265843 0.519249 0.270665
0.267613 0.519280 0.270726
0.270939 0.519646 0.271244
0.276036 0.520409 0.272190
0.283604 0.521691 0.273594
0.293095 0.523430 0.275395
0.304601 0.525658 0.277775
0.318486 0.528313 0.280797
0.333867 0.531395 0.284306
0.351324 0.534997 0.288457
0.369024 0.538109 0.291875
0.383246 0.537652 0.289403
0.398688 0.537102 0.286534
0.415045 0.536584 0.283452
0.432227 0.535973 0.280034
0.450355 0.535241 0.276188
0.469062 0.534386 0.271946
0.488594 0.533410 0.267308
0.508690 0.532311 0.262333
0.529320 0.531029 0.256870
0.550317 0.529717 0.251011
0.571923 0.528161 0.244511
0.600793 0.533257 0.245914
0.637446 0.543053 0.237461
0.679530 0.554467 0.219181
0.722347 0.564813 0.198550
0.764767 0.573541 0.174594
0.806760 0.580743 0.145724
0.848417 0.586694 0.105287
0.888640 0.590936 0.000000
0.926940 0.593286 0.000000
0.283543 0.553155 0.288426
0.284062 0.553094 0.288426
0.285405 0.553338 0.288731
0.288823 0.553887 0.289311
0.294102 0.554803 0.290379
0.301366 0.556176 0.291936
0.310735 0.557977 0.293919
0.321935 0.560235 0.296422
0.335393 0.562860 0.299474
0.350591 0.566003 0.303227
0.367590 0.569604 0.307500
0.386328 0.573632 0.312535
0.402014 0.574853 0.312566
0.416815 0.574456 0.309850
0.432654 0.573907 0.306798
0.449439 0.573388 0.303502
0.467109 0.572808 0.299687
0.485634 0.572137 0.295689
0.504845 0.571344 0.291203
0.524712 0.570428 0.286229
0.545251 0.569390 0.280888
0.566369 0.568292 0.275212
0.587915 0.567041 0.268864
0.610101 0.565667 0.262119
0.639460 0.570764 0.262821
0.675807 0.580499 0.258183
0.718532 0.592493 0.240238
0.761013 0.602594 0.220737
0.803128 0.611109 0.198825
0.844816 0.618189 0.173312
0.884825 0.623255 0.142123
0.923003 0.626337 0.098268
0.304662 0.589837 0.309026
0.304784 0.589837 0.309026
0.306401 0.590082 0.309209
0.309514 0.590600 0.309972
0.314427 0.591547 0.310979
0.321477 0.592859 0.312596
0.330541 0.594690 0.314611
0.341680 0.596887 0.317205
0.354498 0.599542 0.320470
0.369604 0.602655 0.324193
0.386145 0.606195 0.328649
0.404486 0.610285 0.333715
0.423377 0.614099 0.338231
0.437507 0.613703 0.335607
0.452827 0.613275 0.332647
0.469001 0.612818 0.329412
0.486213 0.612268 0.325658
0.504173 0.611658 0.321721
0.523003 0.610956 0.317205
0.542565 0.610132 0.312474
0.562768 0.609247 0.307195
0.583673 0.608209 0.301457
0.605097 0.607141 0.295323
0.627008 0.605951 0.288640
0.650599 0.605554 0.282109
0.680140 0.610437 0.282139
0.715297 0.619379 0.282048
0.757534 0.631128 0.265415
0.799649 0.641077 0.247654
0.841123 0.649256 0.228336
0.880797 0.655238 0.207645
0.918639 0.659113 0.184817
0.326513 0.627283 0.330602
0.326787 0.627192 0.330571
0.328344 0.627405 0.330877
0.331395 0.628016 0.331670
0.336370 0.629023 0.332799
0.343114 0.630488 0.334508
0.352026 0.632349 0.336706
0.362676 0.634699 0.339452
0.375494 0.637446 0.342901
0.390234 0.640620 0.346899
0.406409 0.644251 0.351507
0.424506 0.648280 0.356817
0.444129 0.652674 0.362890
0.460578 0.654414 0.363836
0.475227 0.654139 0.361089
0.490913 0.653864 0.357946
0.507561 0.653498 0.354498
0.525170 0.653010 0.350713
0.543359 0.652461 0.346471
0.562463 0.651637 0.341772
0.582238 0.650843 0.336645
0.602808 0.649958 0.330999
0.623987 0.649012 0.325109
0.645838 0.648066 0.318761
0.668421 0.647059 0.311833
0.691585 0.646021 0.304540
0.720485 0.650141 0.304143
0.754086 0.658106 0.309514
0.796048 0.669856 0.294621
0.837095 0.679347 0.279576
0.876219 0.686397 0.264408
0.913542 0.691463 0.249332
0.352209 0.667231 0.355718
0.352331 0.667170 0.355657
0.353796 0.667384 0.355932
0.356695 0.667842 0.356603
0.361395 0.668727 0.357824
0.367742 0.669947 0.359472
0.376226 0.671565 0.361730
0.386755 0.673548 0.364508
0.398871 0.675929 0.367773
0.412879 0.678645 0.371740
0.428656 0.681849 0.376440
0.446082 0.685420 0.381872
0.464851 0.689418 0.388006
0.484657 0.693416 0.394049
0.498543 0.693233 0.391455
0.513390 0.693019 0.388647
0.529351 0.692775 0.385321
0.546014 0.692439 0.381689
0.563653 0.691951 0.377722
0.581964 0.691402 0.373266
0.601190 0.690669 0.368322
0.621088 0.689937 0.363012
0.641718 0.689143 0.357366
0.663111 0.688319 0.351232
0.685176 0.687434 0.344732
0.707912 0.686580 0.337682
0.731319 0.685603 0.329961
0.759579 0.689052 0.329015
0.792416 0.696803 0.337865
0.831907 0.707240 0.328130
0.870359 0.715663 0.316960
0.907073 0.722042 0.306737
0.380255 0.705989 0.383093
0.380529 0.705989 0.383093
0.381903 0.706142 0.383368
0.384741 0.706661 0.384100
0.389197 0.707424 0.385351
0.395361 0.708522 0.387030
0.403235 0.709987 0.389288
0.413214 0.711788 0.392126
0.424872 0.713893 0.395544
0.438331 0.716365 0.399664
0.453407 0.719203 0.404395
0.470008 0.722408 0.409766
0.488045 0.725948 0.415961
0.507591 0.729854 0.422919
0.524071 0.731685 0.424994
0.538018 0.731563 0.422156
0.552880 0.731441 0.419257
0.568688 0.731228 0.415808
0.585412 0.730861 0.411963
0.602869 0.730465 0.407843
0.621180 0.729976 0.403296
0.640345 0.729427 0.398383
0.660243 0.728817 0.393011
0.680934 0.728206 0.387274
0.702449 0.727626 0.381231
0.724575 0.726955 0.374640
0.747524 0.726284 0.367651
0.771023 0.725521 0.360113
0.798459 0.728145 0.358282
0.829679 0.735134 0.370184
0.865019 0.743832 0.368597
0.900908 0.751644 0.362219
0.412268 0.744778 0.414160
0.412543 0.744778 0.414252
0.413855 0.744930 0.414466
0.416419 0.745296 0.415198
0.420508 0.745937 0.416388
0.426062 0.746792 0.417914
0.433539 0.747860 0.420081
0.442634 0.749172 0.422736
0.453285 0.750759 0.425818
0.465705 0.752590 0.429694
0.479652 0.754726 0.434119
0.495125 0.757168 0.439246
0.512078 0.759884 0.445197
0.530388 0.762936 0.451972
0.549706 0.766201 0.459297
0.562432 0.766110 0.456672
0.576074 0.765957 0.453986
0.590753 0.765774 0.450721
0.606256 0.765560 0.447242
0.622553 0.765286 0.443397
0.639643 0.764920 0.439216
0.657679 0.764553 0.434638
0.676539 0.764096 0.429755
0.696284 0.763699 0.424598
0.716732 0.763241 0.419013
0.738033 0.762783 0.412940
0.760067 0.762295 0.406561
0.782834 0.761746 0.399786
0.806210 0.761166 0.392340
0.832242 0.763088 0.390021
0.861601 0.769558 0.405402
0.893309 0.777554 0.412787
0.446662 0.780026 0.447456
0.446937 0.780056 0.447578
0.448188 0.780270 0.448005
0.450568 0.780575 0.448707
0.454566 0.781125 0.449989
0.459876 0.781857 0.451728
0.466835 0.782773 0.453986
0.475349 0.783963 0.456703
0.485573 0.785336 0.460182
0.497200 0.786893 0.464149
0.510399 0.788693 0.468879
0.524956 0.790677 0.474128
0.540948 0.792905 0.480232
0.557946 0.795346 0.486976
