20 Preset/Travel Style/【3】LUT video cho PR-AE-FCPX/Green Moody - Lut (6).cube
# Created by Adobe Lightroom plugin Export LUT (1.24.0)
# www.johnrellis.com/lightroom/exportlut.htm
# Preset: 06自然风光-黄蓝-素材江湖
# Color profile: E:\lut插件\exportlut.1.24\exportlut.lrplugin\color profiles\Rec709gamma2.4.icc
LUT_3D_SIZE 32
DOMAIN_MIN 0.0 0.0 0.0
DOMAIN_MAX 1.0 1.0 1.0
0.240146 0.187106 0.178805
0.240146 0.187106 0.178805
0.240146 0.187106 0.178805
0.240360 0.187076 0.178805
0.241032 0.187106 0.178805
0.242863 0.186984 0.178744
0.247898 0.186435 0.178683
0.259770 0.185458 0.178439
0.279698 0.183352 0.178042
0.308507 0.180026 0.177371
0.350103 0.174472 0.176211
0.403021 0.166506 0.174411
0.460090 0.156497 0.171664
0.515465 0.146639 0.168063
0.568109 0.137942 0.163638
0.618341 0.130648 0.158541
0.665797 0.126131 0.152499
0.711940 0.122438 0.145449
0.760708 0.118959 0.136446
0.829984 0.110201 0.121004
0.904234 0.093080 0.098299
0.969696 0.029541 0.049683
1.000000 0.000000 0.000000
1.000000 0.000000 0.000000
1.000000 0.000000 0.000000
1.000000 0.000000 0.000000
1.000000 0.000000 0.000000
1.000000 0.000000 0.000000
1.000000 0.000000 0.000000
1.000000 0.000000 0.000000
1.000000 0.000000 0.000000
1.000000 0.000000 0.000000
0.240146 0.187106 0.178805
0.240146 0.187106 0.178805
0.240146 0.187106 0.178805
0.240360 0.187076 0.178805
0.241032 0.187106 0.178805
0.242863 0.186984 0.178744
0.247532 0.186496 0.178683
0.258915 0.185611 0.178439
0.278141 0.183658 0.178073
0.305425 0.180758 0.177401
0.345403 0.175509 0.176303
0.397009 0.168093 0.174594
0.453651 0.158511 0.171908
0.508904 0.149111 0.168399
0.561608 0.140597 0.164065
0.611933 0.133883 0.159030
0.659846 0.128969 0.153109
0.705776 0.126040 0.146151
0.754055 0.122225 0.137484
0.820493 0.115389 0.122744
0.891539 0.101808 0.102083
0.955962 0.061158 0.063722
1.000000 0.000000 0.003388
1.000000 0.000000 0.000000
1.000000 0.000000 0.000000
1.000000 0.000000 0.000000
1.000000 0.000000 0.000000
1.000000 0.000000 0.000000
1.000000 0.000000 0.000000
1.000000 0.000000 0.000000
1.000000 0.000000 0.000000
1.000000 0.000000 0.000000
0.240085 0.187259 0.178805
0.240146 0.187106 0.178805
0.240085 0.187259 0.178805
0.240269 0.187228 0.178805
0.241215 0.187076 0.178775
0.242985 0.187106 0.178744
0.247959 0.186740 0.178622
0.259098 0.186038 0.178378
0.277775 0.184360 0.177981
0.304631 0.181735 0.177310
0.343542 0.177554 0.176272
0.394293 0.170840 0.174380
0.450080 0.162692 0.171664
0.504875 0.154635 0.168093
0.557183 0.147433 0.163790
0.607599 0.141970 0.158694
0.655390 0.138247 0.152712
0.701564 0.136019 0.145724
0.749416 0.133608 0.137057
0.815152 0.129213 0.122652
0.884581 0.119417 0.102205
0.948486 0.101106 0.064607
1.000000 0.053376 0.004486
1.000000 0.000000 0.000000
1.000000 0.000000 0.000000
1.000000 0.000000 0.000000
1.000000 0.000000 0.000000
1.000000 0.000000 0.000000
1.000000 0.000000 0.000000
1.000000 0.000000 0.000000
1.000000 0.000000 0.000000
1.000000 0.000000 0.000000
0.240269 0.187228 0.178805
0.240269 0.187228 0.178805
0.240269 0.187228 0.178805
0.240482 0.187198 0.178805
0.241093 0.187411 0.178744
0.243412 0.187350 0.178683
0.248905 0.187350 0.178531
0.260349 0.186893 0.178225
0.278843 0.185855 0.177890
0.305425 0.183749 0.177157
0.343938 0.180362 0.175875
0.393622 0.175509 0.173800
0.448280 0.169802 0.170840
0.502068 0.164034 0.167178
0.553582 0.159182 0.162722
0.602960 0.156130 0.157504
0.650202 0.154360 0.151431
0.695491 0.153353 0.144442
0.743557 0.152468 0.135805
0.805600 0.150484 0.121798
0.870603 0.145480 0.102998
0.932952 0.134981 0.068147
0.987640 0.119112 0.006836
1.000000 0.094697 0.000000
1.000000 0.028717 0.000000
1.000000 0.000000 0.000000
1.000000 0.000000 0.000000
1.000000 0.000000 0.000000
1.000000 0.000000 0.000000
1.000000 0.000000 0.000000
1.000000 0.000000 0.000000
1.000000 0.000000 0.000000
0.240604 0.187625 0.178897
0.240818 0.187594 0.178897
0.240696 0.187472 0.178927
0.241001 0.187564 0.178897
0.241184 0.187533 0.178897
0.242496 0.187778 0.178805
0.247868 0.188113 0.178592
0.261814 0.188449 0.178103
0.279789 0.188113 0.177523
0.305699 0.187076 0.176669
0.342931 0.185336 0.175204
0.391272 0.182773 0.172915
0.444556 0.180056 0.169680
0.497932 0.177249 0.165682
0.548821 0.175692 0.161044
0.598627 0.175174 0.155459
0.646143 0.175143 0.149020
0.692012 0.175784 0.141573
0.742824 0.176028 0.131685
0.802243 0.176577 0.117525
0.865171 0.174716 0.097871
0.926452 0.168826 0.053803
0.981353 0.158450 0.000000
1.000000 0.143801 0.000000
1.000000 0.125002 0.000000
1.000000 0.102876 0.000000
1.000000 0.057465 0.000000
1.000000 0.000000 0.000000
1.000000 0.000000 0.000000
1.000000 0.000000 0.000000
1.000000 0.000000 0.000000
1.000000 0.000000 0.000000
0.241611 0.188083 0.179110
0.241611 0.188083 0.179110
0.241672 0.187900 0.179141
0.241794 0.188052 0.179110
0.242100 0.188144 0.179110
0.242802 0.188174 0.179080
0.245823 0.188449 0.178958
0.256870 0.189609 0.178256
0.278782 0.190982 0.177279
0.309697 0.192172 0.175723
0.347265 0.192355 0.173922
0.394903 0.192691 0.171328
0.447120 0.193606 0.167544
0.499062 0.194705 0.163119
0.549645 0.196048 0.157717
0.598901 0.198123 0.151522
0.646357 0.200046 0.144442
0.692653 0.201816 0.136233
0.746761 0.204593 0.124819
0.805600 0.206790 0.108858
0.867765 0.207065 0.085237
0.928374 0.203983 0.021820
1.000000 0.195254 0.000000
1.000000 0.182589 0.000000
1.000000 0.169986 0.000000
1.000000 0.156435 0.000000
1.000000 0.143557 0.000000
1.000000 0.131563 0.000000
1.000000 0.123384 0.000000
1.000000 0.119295 0.000000
1.000000 0.123140 0.000000
1.000000 0.134127 0.071748
0.243717 0.189517 0.179324
0.243717 0.189517 0.179324
0.243778 0.189364 0.179355
0.243992 0.189334 0.179355
0.244663 0.189364 0.179324
0.245579 0.189670 0.179263
0.247288 0.189700 0.179049
0.253758 0.190707 0.178683
0.274205 0.193454 0.177584
0.307958 0.197574 0.175448
0.362249 0.204562 0.171450
0.418006 0.211124 0.166751
0.469215 0.216037 0.161990
0.519219 0.220615 0.156435
0.568017 0.225162 0.149813
0.615381 0.228885 0.142550
0.661158 0.231754 0.134676
0.714504 0.236545 0.123140
0.772610 0.241459 0.107088
0.837461 0.245853 0.079042
0.905516 0.247410 0.001190
0.969421 0.244999 0.000000
1.000000 0.238621 0.000000
1.000000 0.229709 0.000000
1.000000 0.218936 0.000000
1.000000 0.208164 0.000000
1.000000 0.197299 0.000000
1.000000 0.187778 0.000000
1.000000 0.180026 0.000000
1.000000 0.174716 0.000000
1.000000 0.174044 0.000000
1.000000 0.178256 0.052186
0.247562 0.192020 0.179660
0.247562 0.192020 0.179660
0.247654 0.191684 0.179873
0.247654 0.191257 0.179934
0.248386 0.191562 0.179873
0.249760 0.191928 0.179751
0.251987 0.192325 0.179324
0.254948 0.192691 0.179171
0.264378 0.194308 0.178622
0.291051 0.199130 0.176730
0.336034 0.207248 0.173220
0.399512 0.221042 0.166995
0.469368 0.237949 0.157656
0.518944 0.245579 0.151003
0.566430 0.251591 0.143771
0.612634 0.256687 0.135683
0.663935 0.263005 0.124971
0.714626 0.268620 0.112184
0.769436 0.274052 0.094240
0.831022 0.279545 0.041901
0.896239 0.282933 0.000000
0.959014 0.282933 0.000000
1.000000 0.279149 0.000000
1.000000 0.272160 0.000000
1.000000 0.263310 0.000000
1.000000 0.253696 0.000000
1.000000 0.244053 0.000000
1.000000 0.234928 0.000000
1.000000 0.227573 0.000000
1.000000 0.222171 0.000000
1.000000 0.219577 0.000000
1.000000 0.220737 0.050080
0.254337 0.196811 0.180179
0.254398 0.196658 0.180209
0.254337 0.196353 0.180423
0.254429 0.195621 0.180667
0.254978 0.195560 0.180667
0.256870 0.196109 0.180362
0.259373 0.196689 0.180209
0.262791 0.197391 0.179660
0.267308 0.197757 0.179294
0.278447 0.199741 0.178592
0.313603 0.208347 0.175753
0.369787 0.223301 0.170138
0.437995 0.243687 0.160830
0.506126 0.264256 0.148745
0.570977 0.282017 0.134493
0.620813 0.290379 0.123537
0.668605 0.296788 0.111513
0.716640 0.302220 0.096742
0.769772 0.308385 0.060334
0.829557 0.314763 0.000000
0.892851 0.319829 0.000000
0.953796 0.321386 0.000000
1.000000 0.318883 0.000000
1.000000 0.313329 0.000000
1.000000 0.305547 0.000000
1.000000 0.296544 0.000000
1.000000 0.287663 0.000000
1.000000 0.278874 0.000000
1.000000 0.271580 0.000000
1.000000 0.266087 0.000000
1.000000 0.262760 0.000000
1.000000 0.262242 0.068788
0.263828 0.203799 0.181369
0.263828 0.203799 0.181369
0.263890 0.203250 0.181613
0.263981 0.202518 0.181857
0.263951 0.201694 0.182315
0.265782 0.202243 0.182010
0.268406 0.203037 0.181491
0.272007 0.203922 0.181064
0.276799 0.204593 0.180453
0.283085 0.205539 0.179751
0.297093 0.208560 0.178897
0.340429 0.222293 0.174655
0.405554 0.245579 0.166293
0.477211 0.271946 0.153872
0.547356 0.296452 0.137697
0.615290 0.318181 0.116426
0.672053 0.331304 0.094270
0.720180 0.337652 0.062379
0.773617 0.345129 0.002045
0.832731 0.352667 0.000000
0.893462 0.358099 0.000000
0.950683 0.359594 0.000000
1.000000 0.357763 0.000000
1.000000 0.352636 0.000000
1.000000 0.345434 0.000000
1.000000 0.337011 0.000000
1.000000 0.328374 0.000000
1.000000 0.320043 0.000000
1.000000 0.312749 0.000000
1.000000 0.306950 0.000000
1.000000 0.303014 0.000000
1.000000 0.301549 0.088472
0.275029 0.213291 0.183383
0.275090 0.213138 0.183413
0.275273 0.212589 0.183658
0.275242 0.211826 0.184237
0.275029 0.210300 0.185122
0.276921 0.210758 0.184848
0.279698 0.211856 0.184237
0.283757 0.213230 0.183566
0.289036 0.214755 0.182803
0.296422 0.216617 0.181888
0.306432 0.219028 0.180728
0.325933 0.225162 0.179263
0.378607 0.247013 0.173251
0.447395 0.276585 0.162112
0.516533 0.304143 0.147463
0.584314 0.329229 0.128359
0.649897 0.351110 0.102449
0.717189 0.371130 0.027344
0.775723 0.382177 0.000000
0.833433 0.390204 0.000000
0.892210 0.395819 0.000000
0.947662 0.397986 0.000000
0.998138 0.396826 0.000000
1.000000 0.392279 0.000000
1.000000 0.385626 0.000000
1.000000 0.377600 0.000000
1.000000 0.369329 0.000000
1.000000 0.361181 0.000000
1.000000 0.353826 0.000000
1.000000 0.347997 0.000000
1.000000 0.343725 0.024048
1.000000 0.341344 0.109255
0.290593 0.227726 0.186252
0.290654 0.227604 0.186282
0.290715 0.227024 0.186679
0.290959 0.225925 0.187320
0.291051 0.224460 0.188327
0.292241 0.224033 0.188815
0.296239 0.226078 0.188174
0.301335 0.228733 0.187503
0.308141 0.231815 0.186526
0.316747 0.235294 0.185397
0.327703 0.239109 0.183871
0.340795 0.243076 0.182010
0.390448 0.271702 0.179782
0.449073 0.300847 0.171420
0.520226 0.334417 0.157137
0.590295 0.364599 0.138399
0.657893 0.390143 0.114015
0.729824 0.414588 0.051575
0.813352 0.440650 0.000000
0.897795 0.460914 0.000000
0.951598 0.462287 0.000000
0.997894 0.459632 0.000000
1.000000 0.454170 0.000000
1.000000 0.446723 0.000000
1.000000 0.438270 0.000000
1.000000 0.429114 0.000000
1.000000 0.420294 0.000000
1.000000 0.411780 0.000000
1.000000 0.404181 0.000519
1.000000 0.397833 0.096101
1.000000 0.393133 0.133608
1.000000 0.390356 0.165347
0.322789 0.262882 0.191592
0.322667 0.262608 0.191653
0.322667 0.261448 0.192020
0.322576 0.259464 0.192905
0.322179 0.256291 0.194278
0.321202 0.252445 0.196078
0.325200 0.254826 0.195041
0.330846 0.258152 0.193851
0.338537 0.262303 0.192386
0.348516 0.267613 0.190799
0.361242 0.274083 0.188754
0.377020 0.281102 0.186770
0.395331 0.287846 0.184268
0.421180 0.297887 0.181521
0.475349 0.325872 0.174746
0.545556 0.360784 0.161837
0.613306 0.391272 0.145327
0.679744 0.417456 0.123934
0.754757 0.444648 0.080537
0.839322 0.471656 0.000000
0.921538 0.491585 0.000000
0.985565 0.497688 0.000000
1.000000 0.492897 0.000000
1.000000 0.486061 0.000000
1.000000 0.477760 0.000000
1.000000 0.468788 0.000000
1.000000 0.459968 0.000000
1.000000 0.451392 0.000000
1.000000 0.443519 0.081270
1.000000 0.436988 0.125246
1.000000 0.431617 0.157198
1.000000 0.428046 0.186252
0.349615 0.294896 0.197482
0.349340 0.294347 0.197604
0.348882 0.292638 0.198032
0.348516 0.290135 0.198917
0.347936 0.286381 0.200351
0.346715 0.281437 0.202457
0.348333 0.280674 0.202548
0.353765 0.283726 0.201114
0.360876 0.287846 0.199466
0.370336 0.293248 0.197787
0.382116 0.299779 0.195926
0.396612 0.306920 0.193942
0.413123 0.314000 0.191623
0.431250 0.320134 0.189120
0.453956 0.327703 0.186526
0.501335 0.352178 0.182559
0.568994 0.387396 0.172427
0.633936 0.417548 0.160433
0.701747 0.445899 0.144076
0.780423 0.475959 0.113130
0.865293 0.503655 0.013794
0.944213 0.522423 0.000000
1.000000 0.530694 0.000000
1.000000 0.526207 0.000000
1.000000 0.518151 0.000000
1.000000 0.509270 0.000000
1.000000 0.500267 0.000000
1.000000 0.491341 0.088228
1.000000 0.483345 0.127352
1.000000 0.476326 0.158480
1.000000 0.470436 0.185397
1.000000 0.465919 0.211521
0.376410 0.327398 0.207584
0.376318 0.327001 0.207553
0.375891 0.325383 0.207980
0.375402 0.322606 0.208713
0.374640 0.318486 0.210147
0.373419 0.313359 0.212192
0.372686 0.308812 0.214298
0.377508 0.311650 0.212406
0.384192 0.315557 0.210819
0.392767 0.320684 0.209323
0.403540 0.326909 0.207736
0.416663 0.333837 0.206058
0.431250 0.340917 0.204288
0.447150 0.347112 0.202182
0.464118 0.351995 0.199405
0.483955 0.357061 0.196536
0.525414 0.378607 0.195499
0.590600 0.413855 0.189975
0.654536 0.444923 0.182925
0.725429 0.476265 0.171542
0.807828 0.509300 0.150362
0.892241 0.536889 0.121584
0.966430 0.553674 0.091157
1.000000 0.560204 0.040101
1.000000 0.559228 0.007813
1.000000 0.549371 0.044923
1.000000 0.540276 0.109560
1.000000 0.531518 0.142245
1.000000 0.523339 0.169986
1.000000 0.516320 0.196323
1.000000 0.510430 0.221683
1.000000 0.505974 0.246494
0.400885 0.357763 0.221805
0.400977 0.357671 0.222049
0.401007 0.356573 0.222599
0.400946 0.354437 0.223636
0.400824 0.351171 0.225193
0.400641 0.347112 0.227604
0.399847 0.341650 0.231388
0.403693 0.343328 0.230930
0.410071 0.347478 0.229679
0.417853 0.352270 0.228367
0.427100 0.357671 0.226932
0.437873 0.363165 0.225193
0.449775 0.368811 0.223301
0.462898 0.373877 0.220859
0.477119 0.378119 0.217838
0.492348 0.381353 0.214328
0.509911 0.384375 0.210697
0.545769 0.402808 0.212284
0.609003 0.438514 0.211612
0.673915 0.471626 0.209415
0.750118 0.507591 0.202518
0.836576 0.543420 0.189944
0.918853 0.570031 0.177615
0.987854 0.584710 0.171267
1.000000 0.589624 0.170535
1.000000 0.588220 0.173037
1.000000 0.580896 0.170138
1.000000 0.571801 0.191470
1.000000 0.563256 0.213169
1.000000 0.555566 0.234470
1.000000 0.548791 0.255528
1.000000 0.543389 0.276738
0.423804 0.387060 0.240726
0.423713 0.386847 0.240909
0.423896 0.385870 0.241245
0.424018 0.384131 0.242222
0.424231 0.381384 0.243992
0.424292 0.377844 0.246555
0.424292 0.373541 0.250065
0.425116 0.370886 0.252384
0.430823 0.374640 0.251286
0.437720 0.378912 0.250156
0.445838 0.383856 0.248905
0.455238 0.389136 0.247471
0.466041 0.394598 0.245853
0.477852 0.399817 0.243778
0.490700 0.404456 0.241093
0.504570 0.408270 0.237827
0.519371 0.411139 0.234043
0.535607 0.413123 0.230167
0.568841 0.430365 0.234257
0.628412 0.465003 0.238163
0.697261 0.502007 0.239780
0.779782 0.542626 0.236362
0.867002 0.578668 0.231022
0.944945 0.602625 0.228611
1.000000 0.614557 0.231357
1.000000 0.618128 0.237797
1.000000 0.616571 0.244938
1.000000 0.611749 0.251469
1.000000 0.602167 0.254490
1.000000 0.594171 0.273014
1.000000 0.587091 0.291508
1.000000 0.581201 0.310796
0.447242 0.418341 0.265629
0.447486 0.418463 0.266148
0.462287 0.437964 0.284733
0.462562 0.436316 0.285649
0.462715 0.433631 0.287388
0.462715 0.430121 0.289586
0.462593 0.425391 0.292576
0.461006 0.418830 0.296880
0.466072 0.422217 0.295872
0.472328 0.426368 0.294865
0.479652 0.430945 0.293675
0.488136 0.435920 0.292424
0.497536 0.440620 0.290410
0.507683 0.445014 0.287816
0.518669 0.448890 0.284581
0.530510 0.451942 0.280827
0.543145 0.454047 0.276219
0.556817 0.455329 0.271183
0.571801 0.455848 0.266453
0.602502 0.471046 0.271031
0.660334 0.505028 0.277714
0.738094 0.548486 0.281163
0.825925 0.590692 0.280797
0.908507 0.621820 0.281865
0.976440 0.639399 0.285771
1.000000 0.646784 0.292638
1.000000 0.647883 0.300328
1.000000 0.645228 0.307897
1.000000 0.640467 0.315435
1.000000 0.634089 0.321752
1.000000 0.624292 0.328038
1.000000 0.617853 0.345251
0.473976 0.455848 0.298985
0.475288 0.457588 0.300877
0.476753 0.458808 0.303197
0.478218 0.459236 0.305852
0.479469 0.458259 0.308629
0.480018 0.455512 0.311131
0.480201 0.451484 0.314000
0.479866 0.446326 0.317510
0.481086 0.444556 0.318944
0.486671 0.448157 0.317967
0.493172 0.452461 0.317021
0.500786 0.457130 0.315831
0.509117 0.461707 0.314153
0.518334 0.466163 0.312078
0.528527 0.470222 0.309483
0.539361 0.473945 0.306493
0.551171 0.476997 0.302953
0.564141 0.479683 0.299077
0.578332 0.481758 0.295323
0.593896 0.483345 0.291569
0.624506 0.498939 0.297063
0.682918 0.534325 0.305425
0.767300 0.582208 0.310338
0.855772 0.623713 0.313603
0.933013 0.651118 0.319066
0.994232 0.665675 0.327459
1.000000 0.671565 0.337560
1.000000 0.672419 0.348272
1.000000 0.670314 0.358434
1.000000 0.666316 0.367987
1.000000 0.661067 0.376501
1.000000 0.652827 0.379522
0.492561 0.483406 0.323949
0.493904 0.485176 0.325963
0.495460 0.486671 0.328374
0.496986 0.487343 0.330999
0.498268 0.486702 0.333776
0.499031 0.484382 0.336248
0.499397 0.480659 0.338811
0.499306 0.475990 0.341894
0.498299 0.470405 0.345434
0.503105 0.473640 0.344457
0.508995 0.477577 0.343420
0.515831 0.481849 0.342443
0.523430 0.486275 0.341131
0.531853 0.490700 0.339574
0.541100 0.495094 0.337469
0.551263 0.499031 0.334936
0.562219 0.502647 0.332128
0.574243 0.505882 0.329046
0.587549 0.508812 0.325719
0.602167 0.511620 0.322545
0.618433 0.514061 0.319463
0.650233 0.530632 0.324834
0.710445 0.567315 0.333227
0.799741 0.617456 0.340124
0.885252 0.655756 0.347265
0.956085 0.679133 0.357244
1.000000 0.690944 0.369329
1.000000 0.695827 0.382361
1.000000 0.696773 0.395666
1.000000 0.695247 0.408148
1.000000 0.692073 0.419745
1.000000 0.687678 0.429664
0.511742 0.513115 0.350866
0.512993 0.514855 0.352697
0.514336 0.516136 0.354925
0.515770 0.516777 0.357305
0.516930 0.516197 0.359869
0.517723 0.514031 0.362097
0.518273 0.510735 0.364508
0.518425 0.506462 0.367285
0.517967 0.500999 0.370916
0.520012 0.500359 0.371801
0.525414 0.503990 0.371069
0.531579 0.508110 0.370245
0.538567 0.512444 0.369085
0.546349 0.516838 0.367803
0.555016 0.521324 0.366339
0.564660 0.525872 0.364569
0.575525 0.530602 0.362890
0.587610 0.535515 0.361181
0.601373 0.540734 0.359625
0.616907 0.546197 0.358160
0.634577 0.551934 0.357000
0.654536 0.557702 0.355749
0.691463 0.577844 0.361456
0.756313 0.616846 0.371679
0.848783 0.666102 0.383734
0.927459 0.698238 0.397833
0.987427 0.715785 0.414282
1.000000 0.724636 0.431495
1.000000 0.728542 0.448859
1.000000 0.729519 0.465339
1.000000 0.728542 0.480446
1.000000 0.726345 0.494087
0.538842 0.557153 0.391394
0.539391 0.557855 0.392248
0.539910 0.557946 0.393194
0.540459 0.557153 0.394232
0.540978 0.555474 0.395453
0.541283 0.552728 0.396826
0.541650 0.549218 0.398596
0.541863 0.545006 0.400946
0.542016 0.540185 0.404059
0.541619 0.535241 0.407446
0.546593 0.538872 0.406928
0.552483 0.542931 0.406348
0.559045 0.547265 0.405463
0.566491 0.551843 0.404456
0.574823 0.556542 0.403021
0.584161 0.561395 0.401465
0.594598 0.566369 0.399664
0.606378 0.571740 0.397833
0.619715 0.577264 0.395880
0.634943 0.583215 0.393927
0.652125 0.589380 0.391913
0.671717 0.595850 0.389868
0.693385 0.601862 0.387671
0.731655 0.621027 0.391913
0.793576 0.655512 0.402411
0.881804 0.699519 0.417945
0.952239 0.726192 0.436378
1.000000 0.740749 0.456703
1.000000 0.748470 0.477272
1.000000 0.752285 0.497200
1.000000 0.753750 0.516045
1.000000 0.753384 0.532616
0.559960 0.592493 0.421729
0.560449 0.593194 0.422461
0.560998 0.593317 0.423346
0.561486 0.592645 0.424445
0.562066 0.591089 0.425696
0.562493 0.588495 0.427070
0.562829 0.585046 0.428840
0.563134 0.580987 0.431098
0.563378 0.576471 0.434150
0.562707 0.570550 0.438178
0.565667 0.571069 0.439155
0.571405 0.575372 0.438758
0.578058 0.580011 0.438056
0.585565 0.585077 0.437415
0.594141 0.590570 0.436408
0.603754 0.596368 0.435309
0.614862 0.602533 0.434028
0.627314 0.609186 0.432624
0.641596 0.616236 0.431098
0.657740 0.623774 0.429633
0.675929 0.631556 0.428046
0.696132 0.639307 0.426551
0.718502 0.646815 0.424872
0.742672 0.653620 0.423163
0.772366 0.661891 0.420356
0.828153 0.690059 0.431983
0.910460 0.728542 0.451789
0.972564 0.750790 0.474495
1.000000 0.763363 0.498421
1.000000 0.770748 0.522637
1.000000 0.774899 0.545647
1.000000 0.776791 0.565850
0.591241 0.644068 0.461158
0.592309 0.645533 0.462470
0.592828 0.645686 0.463355
0.592950 0.644312 0.463813
0.592737 0.641535 0.464149
0.592157 0.637568 0.464546
0.591608 0.632624 0.465126
0.590906 0.626978 0.466224
0.590143 0.620783 0.467964
0.589319 0.614191 0.470558
0.588006 0.607782 0.472877
0.593256 0.611292 0.471565
0.599481 0.615381 0.470130
0.606561 0.619837 0.468482
0.614527 0.624414 0.466560
0.623682 0.629603 0.464546
0.634333 0.635340 0.462501
0.646723 0.642054 0.460761
0.661219 0.649683 0.459388
0.677821 0.658228 0.458442
0.696681 0.667109 0.457618
0.717159 0.675776 0.456641
0.738918 0.683406 0.455268
0.761471 0.689601 0.453468
0.784634 0.694087 0.451240
0.819852 0.706477 0.455024
0.867002 0.726925 0.468055
0.938750 0.757656 0.492042
0.991455 0.775692 0.518639
1.000000 0.786282 0.545373
1.000000 0.793057 0.571557
1.000000 0.797757 0.596796
0.619471 0.687922 0.489662
0.620539 0.689479 0.490883
0.621363 0.690028 0.492012
0.621851 0.689174 0.492805
0.622065 0.687190 0.493721
0.622278 0.684352 0.494911
0.622461 0.680751 0.496529
0.622736 0.676326 0.498665
0.622919 0.671504 0.501549
0.622889 0.666011 0.505058
0.621485 0.658686 0.509300
0.625116 0.659480 0.510124
0.632136 0.664302 0.508995
0.639948 0.669337 0.507622
0.648585 0.674372 0.505791
0.658289 0.679744 0.503838
0.669368 0.685603 0.501793
0.682155 0.692256 0.500023
0.697047 0.699855 0.498726
0.714015 0.708156 0.497993
0.732815 0.716640 0.497658
0.753079 0.724849 0.497444
0.774319 0.732082 0.497292
0.796231 0.738064 0.496834
0.818509 0.742428 0.496284
0.840970 0.745235 0.495460
0.872129 0.753262 0.501122
0.912505 0.768551 0.518425
0.966735 0.789883 0.547539
1.000000 0.804501 0.579278
1.000000 0.814633 0.611109
1.000000 0.822324 0.641596
0.660883 0.746517 0.528161
0.661616 0.747250 0.528893
0.661982 0.747189 0.529534
0.662409 0.746181 0.530205
0.662593 0.744259 0.530938
0.662806 0.741390 0.531914
0.663050 0.737850 0.533379
0.663355 0.733639 0.535485
0.663630 0.728847 0.538140
0.663996 0.723537 0.541619
0.663783 0.717403 0.545708
0.662989 0.711360 0.549615
0.670405 0.716213 0.548852
0.678767 0.721187 0.547631
0.687739 0.726070 0.546044
0.697627 0.731075 0.544121
0.708797 0.736507 0.542382
0.721462 0.742367 0.540948
0.736019 0.749020 0.540124
0.752377 0.756222 0.540124
0.770199 0.763546 0.540673
0.789059 0.770291 0.541405
0.808377 0.776059 0.542107
0.828061 0.780697 0.542718
0.847410 0.783597 0.542718
0.866453 0.784848 0.542077
0.885557 0.784817 0.541436
0.910033 0.788144 0.546838
0.942351 0.799130 0.567315
0.983459 0.816190 0.601892
1.000000 0.830198 0.639338
1.000000 0.841001 0.674861
0.703975 0.799771 0.571160
0.704677 0.800320 0.571923
0.705318 0.800473 0.572808
0.706050 0.799985 0.573816
0.707118 0.799100 0.575280
0.708705 0.798062 0.577478
0.711269 0.797360 0.581292
0.714504 0.796506 0.586084
0.718318 0.795743 0.592187
0.722438 0.794827 0.599542
0.726589 0.793545 0.607904
0.728908 0.790402 0.616968
0.735500 0.793118 0.622065
0.745602 0.799191 0.624231
0.755917 0.804593 0.625483
0.766201 0.809049 0.625452
0.776913 0.813199 0.625147
0.788602 0.817411 0.625055
0.801602 0.821927 0.625879
0.815396 0.826444 0.627283
0.829770 0.830533 0.628931
0.844602 0.834073 0.630732
0.859342 0.836667 0.632166
0.874083 0.838376 0.633265
0.888731 0.839017 0.633692
0.903349 0.838682 0.633692
0.918029 0.837400 0.633539
0.932708 0.835264 0.633173
0.949981 0.835447 0.639399
0.971527 0.843656 0.664698
0.996704 0.857603 0.703426
1.000000 0.870451 0.740627
0.766720 0.864958 0.658686
0.766842 0.864927 0.658839
0.766995 0.864561 0.658991
0.767330 0.863828 0.659266
0.768002 0.862760 0.659876
0.769100 0.861387 0.661128
0.770565 0.859770 0.663203
0.772610 0.857969 0.666133
0.775021 0.856016 0.670161
0.777707 0.853819 0.675166
0.780514 0.851316 0.681147
0.782834 0.848386 0.687709
0.782742 0.843992 0.694301
0.790097 0.847135 0.694911
