20 Preset/Travel Style/【3】LUT video cho PR-AE-FCPX/Green Moody - Lut (6).cube
# Created by Adobe Lightroom plugin Export LUT (1.24.0)
# www.johnrellis.com/lightroom/exportlut.htm
# Preset: 06自然风光-黄蓝-素材江湖
# Color profile: E:\lut插件\exportlut.1.24\exportlut.lrplugin\color profiles\Rec709gamma2.4.icc
LUT_3D_SIZE 8
DOMAIN_MIN 0.000000 0.000000 0.000000
DOMAIN_MAX 0.903226 0.903226 0.903226
0.240146 0.187106 0.178805
0.241032 0.187106 0.178805
0.279698 0.183352 0.178042
0.460090 0.156497 0.171664
0.665797 0.126131 0.152499
0.904234 0.093080 0.098299
1.000000 0.000000 0.000000
1.000000 0.000000 0.000000
0.240604 0.187625 0.178897
0.241184 0.187533 0.178897
0.279789 0.188113 0.177523
0.444556 0.180056 0.169680
0.646143 0.175143 0.149020
0.865171 0.174716 0.097871
1.000000 0.125002 0.000000
1.000000 0.000000 0.000000
0.254337 0.196811 0.180179
0.254978 0.195560 0.180667
0.267308 0.197757 0.179294
0.437995 0.243687 0.160830
0.668605 0.296788 0.111513
0.892851 0.319829 0.000000
1.000000 0.305547 0.000000
1.000000 0.271580 0.000000
0.322789 0.262882 0.191592
0.322179 0.256291 0.194278
0.338537 0.262303 0.192386
0.395331 0.287846 0.184268
0.613306 0.391272 0.145327
0.921538 0.491585 0.000000
1.000000 0.477760 0.000000
1.000000 0.443519 0.081270
0.423804 0.387060 0.240726
0.424231 0.381384 0.243992
0.430823 0.374640 0.251286
0.466041 0.394598 0.245853
0.519371 0.411139 0.234043
0.697261 0.502007 0.239780
1.000000 0.614557 0.231357
1.000000 0.602167 0.254490
0.511742 0.513115 0.350866
0.516930 0.516197 0.359869
0.517967 0.500999 0.370916
0.538567 0.512444 0.369085
0.575525 0.530602 0.362890
0.634577 0.551934 0.357000
0.848783 0.666102 0.383734
1.000000 0.728542 0.448859
0.619471 0.687922 0.489662
0.622065 0.687190 0.493721
0.622919 0.671504 0.501549
0.632136 0.664302 0.508995
0.669368 0.685603 0.501793
0.732815 0.716640 0.497658
0.818509 0.742428 0.496284
0.966735 0.789883 0.547539
0.806668 0.900053 0.732540
0.808499 0.898833 0.734524
0.816312 0.894835 0.745388
0.826596 0.887541 0.768948
0.833524 0.877195 0.738705
0.871366 0.888304 0.749447
0.912963 0.894713 0.760586
0.953918 0.890562 0.760464
0.240238 0.187228 0.179110
0.241154 0.187076 0.179294
0.269139 0.182559 0.179843
0.415137 0.154849 0.175723
0.629114 0.096284 0.161746
0.838560 0.011170 0.129397
1.000000 0.000000 0.033722
1.000000 0.000000 0.000000
0.240208 0.187991 0.179324
0.241642 0.187900 0.179294
0.272984 0.186343 0.178836
0.419837 0.171511 0.173861
0.626581 0.153506 0.157290
0.829648 0.150179 0.122927
1.000000 0.102174 0.011078
1.000000 0.000000 0.000000
0.256352 0.199802 0.181735
0.257542 0.197757 0.182803
0.268864 0.199405 0.181552
0.431617 0.239048 0.166842
0.639399 0.277501 0.134737
0.840604 0.297551 0.073274
1.000000 0.291569 0.000000
1.000000 0.263249 0.000000
0.316228 0.259159 0.193362
0.316930 0.253605 0.195743
0.330449 0.256291 0.196109
0.374609 0.272496 0.188907
0.576837 0.363867 0.159487
0.855558 0.456397 0.000000
1.000000 0.459174 0.000000
1.000000 0.433478 0.102510
0.420600 0.387213 0.244968
0.420722 0.380774 0.247227
0.424140 0.368688 0.254551
0.454810 0.384131 0.246769
0.503288 0.396735 0.233890
0.675868 0.485054 0.242466
0.987091 0.603296 0.238560
1.000000 0.597375 0.264469
0.504845 0.506340 0.347204
0.506218 0.503288 0.350164
0.508598 0.489723 0.361334
0.528099 0.499763 0.363165
0.565545 0.519738 0.359594
0.625025 0.543694 0.358007
0.836179 0.657832 0.385473
1.000000 0.724453 0.447791
0.606012 0.671504 0.479469
0.605035 0.665309 0.479347
0.605829 0.649470 0.486427
0.614649 0.641993 0.496590
0.654353 0.669123 0.494423
0.716060 0.700832 0.490517
0.798215 0.725673 0.485573
0.955505 0.779080 0.530663
0.793790 0.891966 0.711147
0.797787 0.892363 0.717433
0.805631 0.887694 0.727535
0.817685 0.880583 0.751858
0.839841 0.885100 0.759640
0.872068 0.891020 0.758968
0.910765 0.893889 0.760616
0.952056 0.889677 0.759976
0.242985 0.187045 0.190463
0.248051 0.186160 0.191928
0.270542 0.182467 0.193912
0.407050 0.142641 0.217166
0.624872 0.000000 0.204257
0.841886 0.000000 0.182345
1.000000 0.000000 0.182437
1.000000 0.000000 0.217502
0.243137 0.190311 0.190311
0.247471 0.189273 0.191531
0.272160 0.185580 0.193637
0.410864 0.147829 0.207187
0.623774 0.000000 0.184756
0.827604 0.000000 0.180575
1.000000 0.000000 0.178073
1.000000 0.000000 0.212009
0.239658 0.220096 0.196963
0.249973 0.219516 0.195041
0.285435 0.214939 0.198001
0.446387 0.231907 0.194583
0.639826 0.250095 0.189334
0.841367 0.272160 0.186404
1.000000 0.280186 0.196902
1.000000 0.288365 0.242405
0.327916 0.310307 0.214420
0.337743 0.305119 0.219089
0.351781 0.288487 0.230228
0.396765 0.304784 0.225284
0.605859 0.399390 0.240024
0.860868 0.471595 0.246525
1.000000 0.477974 0.266392
1.000000 0.465553 0.308782
0.428992 0.420996 0.286473
0.431983 0.416114 0.289097
0.437690 0.397589 0.301518
0.464576 0.409735 0.301884
0.513695 0.425025 0.295842
0.696407 0.520745 0.326452
0.996246 0.627741 0.359503
1.000000 0.623072 0.399542
0.507958 0.529656 0.379980
0.510369 0.527153 0.382910
0.515099 0.513085 0.391547
0.527550 0.510216 0.397528
0.563104 0.529870 0.395544
0.622034 0.554894 0.397803
0.845945 0.676539 0.437812
1.000000 0.741299 0.517418
0.612909 0.700008 0.505394
0.612757 0.694209 0.505486
0.614221 0.675624 0.510002
0.615442 0.652064 0.521996
0.654078 0.677974 0.519646
0.718044 0.712215 0.519524
0.805631 0.741482 0.522606
0.962585 0.796933 0.584741
0.790555 0.899351 0.728267
0.791806 0.897337 0.728084
0.800473 0.892424 0.736782
0.817197 0.887327 0.764157
0.835874 0.887297 0.776425
0.869749 0.895781 0.781186
0.908202 0.900023 0.785580
0.948333 0.896696 0.786038
0.257542 0.184268 0.273075
0.272282 0.181765 0.279240
0.333379 0.167727 0.292454
0.406165 0.147189 0.293217
0.575036 0.000000 0.349859
0.787900 0.000000 0.370611
1.000000 0.000000 0.350011
1.000000 0.000000 0.358862
0.258488 0.196139 0.275792
0.272374 0.193820 0.279332
0.332647 0.180392 0.291875
0.406134 0.162020 0.291142
0.588739 0.009979 0.351843
0.792782 0.000000 0.360876
1.000000 0.000000 0.333562
1.000000 0.000000 0.365484
0.270329 0.252049 0.270695
0.282261 0.253483 0.271550
0.323278 0.242741 0.285863
0.422675 0.230137 0.299474
0.614801 0.207736 0.330510
0.830442 0.141604 0.308812
1.000000 0.249149 0.364202
1.000000 0.329870 0.415595
0.188022 0.388922 0.321843
0.218235 0.387518 0.318456
0.335424 0.375891 0.300786
0.425391 0.366033 0.324407
0.618585 0.428901 0.365454
0.818723 0.459998 0.387640
1.000000 0.483436 0.420264
1.000000 0.499092 0.462684
0.410529 0.497932 0.364935
0.424537 0.492164 0.370459
0.457160 0.470375 0.379370
0.478645 0.454536 0.392920
0.525841 0.472572 0.394690
0.744015 0.588891 0.452705
1.000000 0.670314 0.516136
1.000000 0.660426 0.548302
0.511955 0.590723 0.451362
0.519097 0.592920 0.458259
0.530510 0.575341 0.462135
0.537499 0.547448 0.473091
0.571984 0.569055 0.473487
0.630030 0.592309 0.474922
0.876463 0.719173 0.534630
1.000000 0.779294 0.644678
0.614527 0.750851 0.549615
0.618463 0.748592 0.552026
0.629786 0.734890 0.559197
0.640101 0.707759 0.573114
0.666560 0.711482 0.579034
0.729061 0.742000 0.580194
0.812009 0.765011 0.585809
0.963745 0.824460 0.673610
0.788968 0.917998 0.772427
0.791562 0.916777 0.773617
0.802182 0.912139 0.779843
0.819120 0.903899 0.794736
0.832242 0.894347 0.811429
0.864775 0.903014 0.815183
0.902800 0.908812 0.821195
0.942290 0.908507 0.826444
0.286687 0.189548 0.466102
0.308049 0.186496 0.471199
0.382605 0.168704 0.480720
0.501488 0.106111 0.500328
0.586389 0.014343 0.491646
0.720638 0.043763 0.520439
0.955077 0.000000 0.576806
1.000000 0.000000 0.572198
0.289647 0.218326 0.467567
0.309972 0.216190 0.472908
0.382361 0.200870 0.482277
0.498756 0.153719 0.498207
0.582635 0.132082 0.487617
0.718990 0.157015 0.520165
0.957702 0.000000 0.575189
1.000000 0.127352 0.570214
0.315953 0.327153 0.459419
0.322972 0.320714 0.462745
0.377813 0.311528 0.472175
0.483131 0.285588 0.488258
0.566308 0.272740 0.474067
0.712367 0.286259 0.512810
0.963165 0.252262 0.558038
1.000000 0.287358 0.554498
0.326757 0.422766 0.464210
0.341802 0.423529 0.463416
0.394781 0.430274 0.463233
0.460182 0.424384 0.478340
0.562493 0.418921 0.486519
0.762966 0.416205 0.512566
1.000000 0.400458 0.513573
1.000000 0.478767 0.565881
0.197910 0.560479 0.500847
0.227909 0.560601 0.500420
0.335119 0.555261 0.488380
0.472877 0.534600 0.484535
0.534661 0.526726 0.497871
0.781094 0.626734 0.567437
0.976898 0.652338 0.605615
1.000000 0.673487 0.655451
0.406867 0.655512 0.484474
0.425879 0.652735 0.491768
0.487251 0.636164 0.516167
0.535882 0.600458 0.523522
0.559686 0.585168 0.532982
0.625971 0.621912 0.548791
0.898863 0.765164 0.658656
1.000000 0.833066 0.786069
0.570794 0.815091 0.615137
0.576318 0.809995 0.613184
0.600031 0.792844 0.611048
0.637842 0.766598 0.620356
0.653834 0.723629 0.636103
0.716732 0.757351 0.642176
0.800076 0.781003 0.653376
0.956329 0.851804 0.761929
0.748623 0.930846 0.788479
0.752255 0.929503 0.788907
0.767819 0.924254 0.792538
0.800656 0.918364 0.812375
0.825315 0.905028 0.829557
0.850248 0.904784 0.840665
0.889952 0.912566 0.846433
0.930663 0.913512 0.851164
0.330236 0.264042 0.679255
0.350225 0.263279 0.683162
0.419379 0.254307 0.687892
0.531579 0.232853 0.708370
0.678248 0.162417 0.734066
0.751125 0.180148 0.704311
0.911772 0.203494 0.736812
1.000000 0.239445 0.751583
0.336675 0.298466 0.663752
0.353552 0.296605 0.665248
0.416724 0.287663 0.671931
0.521111 0.266514 0.688746
0.661891 0.210666 0.713008
0.733944 0.220493 0.685481
0.899290 0.236851 0.726253
1.000000 0.262974 0.746273
0.362249 0.411231 0.669764
0.374640 0.409094 0.670741
0.424628 0.401892 0.677913
0.512779 0.379797 0.683467
0.646174 0.343969 0.704768
0.714199 0.340826 0.671565
0.896574 0.352270 0.728237
1.000000 0.377203 0.747372
0.403082 0.534478 0.662562
0.410285 0.532219 0.662074
0.440223 0.527001 0.668788
0.504570 0.516594 0.691310
0.630762 0.493507 0.714504
0.723629 0.481727 0.697688
0.915740 0.489265 0.744472
1.000000 0.537224 0.759121
0.355718 0.603357 0.663630
0.368200 0.603418 0.662837
0.414984 0.604791 0.661311
0.487648 0.611200 0.661341
0.569482 0.600793 0.674434
0.704463 0.592370 0.684627
0.942473 0.617914 0.728603
1.000000 0.686458 0.770138
0.000000 0.760678 0.705043
0.000000 0.764157 0.707973
0.092653 0.761929 0.703029
0.369543 0.748623 0.676692
0.568688 0.713191 0.669764
0.661555 0.712764 0.690822
0.911986 0.837827 0.827604
0.996582 0.859617 0.865782
0.302434 0.896849 0.685359
0.330541 0.896757 0.688258
0.415106 0.890074 0.692714
0.579156 0.871977 0.737942
0.683009 0.836088 0.755581
0.719142 0.803952 0.755917
0.801083 0.828916 0.774044
0.954009 0.905150 0.880919
0.701778 0.957031 0.842618
0.707759 0.955657 0.843931
0.737606 0.951110 0.854093
0.774105 0.943938 0.860014
0.811948 0.930968 0.862303
0.838682 0.911772 0.874693
0.878264 0.921263 0.882780
0.920378 0.924926 0.888426
0.377020 0.378698 0.887419
0.395483 0.380407 0.891386
0.457252 0.373907 0.893828
0.561242 0.360449 0.902312
0.696712 0.326574 0.912078
0.853147 0.262760 0.919951
0.946746 0.253727 0.900175
1.000000 0.314244 0.865507
0.374853 0.394629 0.870451
0.392493 0.397040 0.875883
0.451423 0.390051 0.879393
0.550164 0.373541 0.886137
0.681941 0.339178 0.895903
0.833341 0.275303 0.902525
0.918822 0.261631 0.877623
1.000000 0.303807 0.850156
0.388495 0.489784 0.875578
0.402014 0.488228 0.876463
0.453132 0.479377 0.877470
0.544518 0.463600 0.883207
0.670008 0.432532 0.890257
0.824460 0.384619 0.899474
0.915099 0.375463 0.878630
1.000000 0.413489 0.860777
0.412940 0.621180 0.877470
0.417853 0.614588 0.876432
0.450111 0.598718 0.876646
0.532738 0.587396 0.883909
0.653346 0.562066 0.891661
0.817288 0.525841 0.904295
0.905547 0.513237 0.878477
1.000000 0.548882 0.867582
0.418677 0.720241 0.857603
0.427405 0.717403 0.853819
0.467506 0.716793 0.850370
0.521691 0.707973 0.859098
0.609308 0.683925 0.870542
0.770016 0.649928 0.884703
0.876158 0.636316 0.865537
0.985595 0.695583 0.875914
0.283574 0.799008 0.867308
0.306065 0.799741 0.867704
0.379950 0.801053 0.867704
0.490608 0.804532 0.867887
0.613886 0.811154 0.866514
0.722805 0.807553 0.879210
0.852811 0.804288 0.881224
0.969482 0.852171 0.909575
0.000000 0.932769 0.885679
0.000000 0.933349 0.886778
0.200198 0.931701 0.886412
0.406317 0.928161 0.886229
0.573999 0.919005 0.879515
0.731472 0.894774 0.871519
0.816434 0.885557 0.885954
0.959686 0.938537 0.943175
0.576654 0.981109 0.878416
0.587518 0.980529 0.879637
0.634455 0.978576 0.886381
0.694301 0.973724 0.893004
0.770413 0.964721 0.905333
0.846830 0.949401 0.920836
0.870481 0.932464 0.921080
0.914672 0.940276 0.927337
0.452827 0.497169 0.977173
0.464576 0.498146 0.978027
0.504234 0.489967 0.977874
0.580743 0.481666 0.980652
0.685542 0.462226 0.984131
0.817716 0.423926 0.988128
0.959380 0.380926 0.991089
1.000000 0.364935 0.983215
0.449439 0.506920 0.972839
0.461280 0.507958 0.973846
0.501762 0.501884 0.974578
0.576501 0.491707 0.977081
0.680507 0.471870 0.980743
0.812345 0.433783 0.985016
0.953460 0.386847 0.987640
1.000000 0.366339 0.978790
0.457069 0.570611 0.968261
0.466590 0.570031 0.968719
0.502495 0.562310 0.969177
0.576898 0.559442 0.973907
0.674495 0.537255 0.976806
0.801785 0.498878 0.980438
0.944396 0.456519 0.983917
1.000000 0.436683 0.974121
0.485054 0.677546 0.960693
0.493996 0.678218 0.961425
0.521660 0.671870 0.962432
0.581109 0.664729 0.965698
0.668025 0.647547 0.969848
0.786862 0.616388 0.974914
0.930022 0.579644 0.979767
1.000000 0.563409 0.968688
0.547173 0.790890 0.949004
0.555901 0.792508 0.949859
0.574823 0.788846 0.950622
0.612634 0.782162 0.954009
0.670985 0.766995 0.958099
0.766018 0.743374 0.963836
0.903319 0.716091 0.971099
0.986236 0.712184 0.960113
0.573266 0.858518 0.947539
0.577050 0.857725 0.946715
0.601953 0.858274 0.944701
0.658320 0.865476 0.943084
0.711940 0.867338 0.947509
0.779599 0.865660 0.957153
0.885710 0.862119 0.967224
0.952056 0.859556 0.961425
0.600977 0.927489 0.960479
0.608118 0.927489 0.960388
0.638178 0.927855 0.960021
0.695369 0.930053 0.960204
0.757748 0.931395 0.959564
0.822171 0.934081 0.958984
0.870420 0.929778 0.962188
0.932738 0.921324 0.960357
0.570550 0.988800 0.960204
0.576623 0.988342 0.960082
0.608423 0.986816 0.960204
0.668452 0.984344 0.961120
0.736538 0.980896 0.962066
0.804501 0.976318 0.962524
0.872099 0.966796 0.958221
0.919951 0.958801 0.962402
