20 Preset/Travel Style/【3】LUT video cho PR-AE-FCPX/Green Moody - Lut (21).cube
# Created by Adobe Lightroom plugin Export LUT (1.24.0)
# www.johnrellis.com/lightroom/exportlut.htm
# Preset: 21自然风光-日落-素材江湖
# Color profile: E:\lut插件\exportlut.1.24\exportlut.lrplugin\color profiles\Rec709gamma2.4.icc
LUT_3D_SIZE 32
DOMAIN_MIN 0.0 0.0 0.0
DOMAIN_MAX 1.0 1.0 1.0
0.106264 0.126650 0.134646
0.106264 0.126650 0.134646
0.106264 0.126650 0.134646
0.111910 0.126619 0.135286
0.137270 0.126131 0.137301
0.165011 0.124910 0.139651
0.196292 0.124514 0.141787
0.233738 0.124269 0.142763
0.277562 0.123354 0.143374
0.326513 0.121462 0.142885
0.378454 0.119417 0.141299
0.432136 0.116762 0.139498
0.486702 0.114107 0.137118
0.540795 0.112795 0.134066
0.593408 0.110323 0.131960
0.644526 0.107729 0.131044
0.694453 0.105989 0.130526
0.744320 0.106600 0.130800
0.803037 0.111055 0.130983
0.854246 0.119448 0.134463
0.898741 0.134401 0.140200
0.937560 0.150881 0.149264
0.970855 0.168490 0.160647
1.000000 0.187076 0.174685
1.000000 0.205692 0.191470
1.000000 0.225315 0.210361
1.000000 0.246036 0.232181
1.000000 0.267735 0.257023
1.000000 0.291630 0.284916
1.000000 0.318120 0.317144
1.000000 0.347295 0.354253
1.000000 0.379889 0.396918
0.106264 0.126650 0.134646
0.106264 0.126650 0.134646
0.106264 0.126650 0.134646
0.113039 0.126528 0.135286
0.138125 0.126009 0.137301
0.165011 0.124910 0.139651
0.195499 0.125765 0.141207
0.231998 0.126070 0.142611
0.275303 0.125490 0.142824
0.323339 0.124239 0.142336
0.374548 0.122133 0.141085
0.427649 0.120119 0.139315
0.482033 0.117708 0.137026
0.535912 0.116945 0.134005
0.588434 0.115053 0.131991
0.639551 0.112428 0.131197
0.689662 0.110597 0.130495
0.739620 0.111086 0.130587
0.796902 0.115297 0.131014
0.847227 0.122927 0.133669
0.891051 0.136049 0.139223
0.929686 0.150393 0.146883
0.963073 0.167086 0.157748
0.993286 0.184634 0.171145
1.000000 0.202243 0.186557
1.000000 0.221408 0.204562
1.000000 0.241337 0.225620
1.000000 0.262852 0.249577
1.000000 0.286229 0.276707
1.000000 0.312078 0.308629
1.000000 0.340856 0.345464
1.000000 0.373114 0.387243
0.106264 0.126650 0.134646
0.106264 0.126650 0.134646
0.106264 0.126650 0.134646
0.117617 0.126833 0.135653
0.140780 0.128817 0.137148
0.166415 0.130892 0.138888
0.196597 0.132479 0.140352
0.232944 0.133242 0.141512
0.275517 0.133822 0.141573
0.323003 0.133608 0.140993
0.373602 0.133059 0.139620
0.426337 0.132082 0.137545
0.480201 0.131746 0.135073
0.533532 0.131716 0.132021
0.585687 0.129702 0.131106
0.636683 0.128450 0.130007
0.686549 0.127565 0.129610
0.737850 0.128969 0.128847
0.793332 0.131868 0.129793
0.842985 0.138766 0.132174
0.886778 0.149233 0.137789
0.925292 0.162631 0.145541
0.958892 0.176120 0.156008
0.989258 0.191867 0.168978
1.000000 0.208286 0.184268
1.000000 0.225376 0.201785
1.000000 0.244358 0.222538
1.000000 0.264866 0.245853
1.000000 0.287510 0.273075
1.000000 0.312566 0.304570
1.000000 0.340368 0.340673
1.000000 0.372045 0.382483
0.099214 0.139406 0.135470
0.099611 0.139620 0.135439
0.106325 0.139559 0.136049
0.121492 0.140780 0.135653
0.143313 0.141451 0.135866
0.169467 0.143832 0.136812
0.200290 0.145663 0.138003
0.236362 0.147738 0.138949
0.278813 0.149966 0.138491
0.325597 0.151247 0.137911
0.375494 0.152071 0.136538
0.427375 0.153384 0.133852
0.480201 0.154757 0.131075
0.532860 0.154940 0.129549
0.584375 0.154299 0.128298
0.634394 0.154025 0.127504
0.683650 0.154299 0.126802
0.735348 0.155428 0.127047
0.787900 0.159182 0.126986
0.835477 0.164553 0.129824
0.878233 0.172122 0.133944
0.916503 0.181735 0.142061
0.950652 0.193057 0.152102
0.982086 0.206241 0.164401
1.000000 0.220584 0.179904
1.000000 0.236606 0.198428
1.000000 0.254368 0.219699
1.000000 0.273747 0.243778
1.000000 0.295262 0.271550
1.000000 0.319066 0.303044
1.000000 0.345525 0.338781
1.000000 0.375341 0.379553
0.100923 0.159030 0.137636
0.102510 0.159121 0.137850
0.110536 0.158572 0.138552
0.124239 0.159487 0.138186
0.144869 0.160525 0.136660
0.170474 0.160922 0.136233
0.202853 0.165194 0.135195
0.240482 0.169039 0.134218
0.282383 0.172213 0.133974
0.328191 0.175387 0.132998
0.376806 0.177981 0.130434
0.427710 0.180728 0.128084
0.479652 0.182986 0.126589
0.531823 0.183688 0.125978
0.582788 0.184634 0.125002
0.633143 0.185733 0.123568
0.682429 0.186770 0.123201
0.735653 0.189120 0.122744
0.786313 0.192325 0.123079
0.832883 0.196719 0.126040
0.874937 0.202640 0.131594
0.912840 0.210117 0.139193
0.947051 0.219455 0.149111
0.978851 0.229740 0.162417
1.000000 0.241978 0.177829
1.000000 0.255528 0.196384
1.000000 0.270939 0.218296
1.000000 0.288304 0.242741
1.000000 0.307866 0.270207
1.000000 0.329473 0.301183
1.000000 0.354101 0.336584
1.000000 0.381994 0.376715
0.106416 0.181033 0.139651
0.108705 0.180911 0.139864
0.115358 0.180362 0.140352
0.128450 0.180941 0.140261
0.147616 0.183932 0.138613
0.172915 0.185641 0.136233
0.205570 0.187106 0.134646
0.244663 0.193759 0.131319
0.289006 0.200992 0.127413
0.335454 0.206363 0.125185
0.383368 0.209842 0.123598
0.433631 0.213016 0.122927
0.484657 0.216098 0.121279
0.535790 0.218143 0.119905
0.586542 0.220127 0.118990
0.636255 0.221927 0.117525
0.688136 0.223880 0.116945
0.740230 0.226871 0.116793
0.789761 0.230625 0.117525
0.835172 0.234318 0.120546
0.876371 0.239261 0.126558
0.913817 0.245151 0.135378
0.987366 0.272679 0.164889
1.000000 0.282261 0.183261
1.000000 0.293370 0.204257
1.000000 0.305730 0.226200
1.000000 0.319768 0.250828
1.000000 0.335637 0.277562
1.000000 0.353826 0.307713
1.000000 0.374456 0.341161
1.000000 0.397803 0.378241
1.000000 0.424170 0.419013
0.112337 0.213169 0.140780
0.114168 0.212955 0.140810
0.121035 0.212345 0.141543
0.134981 0.212741 0.141665
0.155459 0.216068 0.139742
0.183322 0.220890 0.137331
0.215640 0.224338 0.134096
0.257359 0.227329 0.131441
0.303105 0.235752 0.127230
0.352483 0.243839 0.121584
0.403754 0.251926 0.115145
0.455268 0.256687 0.111910
0.505730 0.259770 0.110536
0.555749 0.261936 0.109133
0.605219 0.263676 0.107424
0.657191 0.266453 0.106325
0.711391 0.270298 0.104707
0.762722 0.273594 0.105226
0.810849 0.277012 0.108339
0.855436 0.281315 0.113893
0.897093 0.286229 0.123507
0.935668 0.292607 0.137087
0.970977 0.299962 0.153811
1.000000 0.308965 0.174289
1.000000 0.318761 0.195926
1.000000 0.329625 0.219913
1.000000 0.341131 0.245243
1.000000 0.354376 0.271672
1.000000 0.369879 0.301305
1.000000 0.387427 0.334081
1.000000 0.408087 0.370306
1.000000 0.431922 0.410407
0.115572 0.247501 0.142397
0.117708 0.247105 0.142489
0.125948 0.246464 0.142977
0.139925 0.245548 0.143893
0.161257 0.249210 0.142153
0.188632 0.254429 0.139132
0.222995 0.261051 0.135317
0.259983 0.264836 0.131838
0.307073 0.267979 0.128450
0.355413 0.277073 0.121645
0.406561 0.285649 0.114321
0.458595 0.293919 0.105653
0.510826 0.301061 0.095277
0.559808 0.303563 0.093568
0.612299 0.306920 0.091096
0.664027 0.310369 0.089937
0.714015 0.312932 0.089509
0.762203 0.315831 0.089479
0.808103 0.318395 0.094759
0.851194 0.321233 0.102510
0.891661 0.324681 0.114412
0.929564 0.329564 0.129061
0.964538 0.335210 0.147494
0.996826 0.341985 0.168734
1.000000 0.349645 0.191257
1.000000 0.357824 0.215671
1.000000 0.367224 0.240848
1.000000 0.377905 0.267857
1.000000 0.390845 0.297520
1.000000 0.406256 0.330358
1.000000 0.424201 0.366033
1.000000 0.445441 0.405798
0.120272 0.286564 0.142763
0.122683 0.286198 0.143069
0.130983 0.285252 0.143282
0.145815 0.283665 0.144900
0.167269 0.286687 0.143130
0.194614 0.291661 0.140536
0.228519 0.298314 0.136049
0.268559 0.306493 0.130434
0.309453 0.310704 0.125734
0.360754 0.312963 0.121675
0.410803 0.322362 0.113161
0.462440 0.331121 0.103090
0.516808 0.339971 0.090608
0.571160 0.348547 0.063172
0.623163 0.354864 0.034913
0.671473 0.356573 0.033112
0.718715 0.358251 0.033845
0.764797 0.359899 0.043000
0.808774 0.361456 0.059815
0.850248 0.363317 0.084596
0.889525 0.366064 0.100740
0.926299 0.369299 0.119997
0.960632 0.373236 0.140536
0.992493 0.378210 0.163546
1.000000 0.383764 0.188357
1.000000 0.389899 0.213230
1.000000 0.396918 0.238682
1.000000 0.405646 0.266392
1.000000 0.416327 0.295995
1.000000 0.429053 0.328588
1.000000 0.444770 0.364813
1.000000 0.463386 0.403967
0.125978 0.328557 0.142306
0.128176 0.328161 0.142428
0.136690 0.327184 0.142916
0.152010 0.325353 0.144747
0.173831 0.326452 0.143771
0.201053 0.331029 0.140993
0.234379 0.337163 0.136904
0.273167 0.345281 0.130739
0.317388 0.354742 0.122866
0.361944 0.359655 0.116640
0.417151 0.362860 0.111482
0.470893 0.372625 0.100587
0.523186 0.381353 0.085908
0.574914 0.388556 0.050874
0.626032 0.395270 0.014832
0.675593 0.401038 0.000000
0.723507 0.404791 0.000000
0.768978 0.405676 0.000000
0.811765 0.406836 0.000000
0.851926 0.407599 0.031312
0.889342 0.408820 0.081209
0.924010 0.410101 0.108949
0.956420 0.411841 0.132876
0.986755 0.414343 0.157870
1.000000 0.417487 0.182040
1.000000 0.421302 0.206790
1.000000 0.426642 0.233555
1.000000 0.433265 0.261753
1.000000 0.441932 0.291783
1.000000 0.452918 0.325597
1.000000 0.466316 0.361852
1.000000 0.483009 0.401740
0.132235 0.370336 0.142245
0.134310 0.370275 0.142458
0.143191 0.369268 0.142794
0.158816 0.367498 0.144259
0.180667 0.367254 0.144961
0.208164 0.372229 0.142275
0.241581 0.379309 0.137636
0.280339 0.388190 0.131716
0.324376 0.398718 0.123476
0.374578 0.410803 0.111177
0.421424 0.415503 0.103243
0.474647 0.415564 0.101045
0.529534 0.423285 0.085206
0.579614 0.430121 0.050782
0.629419 0.436194 0.012268
0.678096 0.441657 0.000000
0.726040 0.446876 0.000000
0.771939 0.451453 0.000000
0.813504 0.452186 0.000000
0.852049 0.451820 0.000000
0.888090 0.451331 0.026215
0.921691 0.451179 0.093263
0.953399 0.451575 0.123842
0.983246 0.452583 0.151217
1.000000 0.454108 0.178988
1.000000 0.456641 0.205478
1.000000 0.460151 0.232700
1.000000 0.464942 0.261387
1.000000 0.471565 0.292393
1.000000 0.480537 0.326207
1.000000 0.491981 0.362982
1.000000 0.506371 0.403143
0.141299 0.419135 0.142733
0.143404 0.419043 0.142733
0.152773 0.418158 0.143984
0.167819 0.416907 0.145510
0.189578 0.414679 0.147311
0.217166 0.419562 0.144656
0.250828 0.425910 0.140536
0.288762 0.433814 0.135012
0.331640 0.443336 0.126955
0.379339 0.454414 0.116213
0.431861 0.466773 0.100313
0.479530 0.470314 0.091554
0.565301 0.497505 0.094026
0.623743 0.503899 0.073182
0.673091 0.508537 0.029999
0.721126 0.512474 0.000000
0.766140 0.514946 0.000000
0.808255 0.516472 0.000000
0.847532 0.517327 0.000000
0.884031 0.517723 0.000000
0.916381 0.514488 0.027771
0.946349 0.511467 0.107424
0.974701 0.509117 0.142641
1.000000 0.507530 0.172732
1.000000 0.506737 0.201907
1.000000 0.506737 0.229892
1.000000 0.507927 0.257237
1.000000 0.510307 0.286107
1.000000 0.514488 0.316930
1.000000 0.520958 0.349798
1.000000 0.529961 0.385809
1.000000 0.542016 0.425666
0.155978 0.481819 0.149569
0.158389 0.481514 0.149935
0.167575 0.480079 0.150301
0.183047 0.477699 0.152163
0.204227 0.474037 0.154421
0.231937 0.475349 0.153079
0.264866 0.480293 0.149477
0.302525 0.487037 0.144747
0.344762 0.495796 0.137789
0.391760 0.506615 0.129061
0.444038 0.520012 0.117159
0.502037 0.535180 0.099977
0.553735 0.540520 0.094301
0.606897 0.538262 0.105013
0.667903 0.545953 0.096895
0.715785 0.550378 0.077394
0.760311 0.552697 0.044648
0.801144 0.553491 0.029541
0.839414 0.553521 0.018708
0.874998 0.552880 0.018128
0.908049 0.551751 0.030854
0.938567 0.549767 0.083619
0.966796 0.546288 0.130587
0.993622 0.543481 0.164981
1.000000 0.541344 0.195834
1.000000 0.540093 0.225162
1.000000 0.540032 0.254734
1.000000 0.541161 0.284184
1.000000 0.543938 0.315435
1.000000 0.548913 0.349371
1.000000 0.556207 0.386267
1.000000 0.566308 0.426429
0.170901 0.523796 0.159579
0.172244 0.523339 0.159670
0.180392 0.521569 0.160159
0.195132 0.518883 0.161318
0.214298 0.515404 0.163546
0.239170 0.513420 0.164340
0.270542 0.517601 0.160891
0.306310 0.523491 0.156405
0.346441 0.531304 0.151431
0.390784 0.541314 0.145663
0.439765 0.553491 0.137881
0.494331 0.567742 0.126528
0.553277 0.583276 0.111177
0.603265 0.587427 0.112490
0.652735 0.582849 0.125673
0.712581 0.588708 0.124025
0.755734 0.590387 0.117647
0.795621 0.590509 0.110689
0.833005 0.589929 0.109590
0.867887 0.588525 0.110597
0.900359 0.586725 0.115755
0.931273 0.584955 0.122835
0.960571 0.583307 0.132082
0.987884 0.580529 0.159854
1.000000 0.577478 0.192996
1.000000 0.575036 0.224216
1.000000 0.573602 0.254795
1.000000 0.573480 0.285191
1.000000 0.574914 0.317174
1.000000 0.578363 0.351598
1.000000 0.584070 0.388861
1.000000 0.592462 0.429511
0.186069 0.564446 0.173739
0.187778 0.564019 0.174014
0.194797 0.562493 0.173892
0.207553 0.559869 0.174746
0.225956 0.555993 0.176242
0.248295 0.551263 0.178592
0.277989 0.554772 0.175723
0.311711 0.559960 0.172793
0.349981 0.567224 0.168978
0.392035 0.576349 0.164950
0.438758 0.587518 0.159792
0.489693 0.600671 0.153964
0.545098 0.615045 0.146120
0.603204 0.629999 0.135927
0.651179 0.632288 0.139406
0.695979 0.624842 0.154208
0.752743 0.628138 0.158602
0.791653 0.627771 0.156008
0.828061 0.626490 0.155245
0.862058 0.624353 0.156588
0.894041 0.621820 0.159426
0.924590 0.619501 0.165499
0.953643 0.617182 0.173526
0.981445 0.615015 0.183505
1.000000 0.613062 0.194156
1.000000 0.609888 0.224979
1.000000 0.607538 0.255680
1.000000 0.606409 0.288334
1.000000 0.606989 0.322026
1.000000 0.609552 0.357855
1.000000 0.614343 0.397223
1.000000 0.621881 0.439673
0.203586 0.602380 0.190066
0.205264 0.602380 0.190646
0.211643 0.601221 0.190524
0.223362 0.599451 0.191440
0.240330 0.596460 0.192721
0.261357 0.592798 0.194797
0.288304 0.593835 0.194888
0.321141 0.599451 0.193057
0.357977 0.606561 0.190982
0.398444 0.615045 0.188388
0.442359 0.624842 0.185367
0.489998 0.635859 0.181704
0.540703 0.647761 0.177371
0.594202 0.660060 0.171481
0.649744 0.672358 0.164462
0.692897 0.671229 0.170932
0.732326 0.661036 0.186557
0.786679 0.662470 0.195712
0.822293 0.660822 0.195377
0.855802 0.658320 0.196262
0.887694 0.655818 0.200229
0.918242 0.653193 0.205203
0.947356 0.650660 0.212406
0.975250 0.648249 0.222263
1.000000 0.646021 0.232364
1.000000 0.644068 0.244602
1.000000 0.642206 0.262119
1.000000 0.640253 0.295384
1.000000 0.639551 0.329870
1.000000 0.640803 0.365942
1.000000 0.643977 0.404822
1.000000 0.649592 0.447120
0.222446 0.639460 0.208865
0.223636 0.639277 0.209079
0.229435 0.638361 0.209415
0.239933 0.636835 0.209873
0.255558 0.634363 0.211337
0.274846 0.631189 0.212955
0.298589 0.629236 0.214847
0.329900 0.634333 0.213565
0.364508 0.640772 0.212802
0.402564 0.648310 0.211643
0.444587 0.657191 0.210239
0.489174 0.667048 0.208438
0.536675 0.677577 0.206760
0.586572 0.688289 0.204105
0.638239 0.699001 0.201114
0.691341 0.709590 0.197391
0.730922 0.706691 0.205905
0.766110 0.694942 0.222049
0.818326 0.695033 0.236179
0.850950 0.692134 0.237675
0.882353 0.689204 0.240818
0.912535 0.686275 0.245884
0.941436 0.683467 0.252934
0.969207 0.680812 0.260899
0.995758 0.678279 0.270848
1.000000 0.676051 0.283055
1.000000 0.674311 0.296880
1.000000 0.672969 0.312139
1.000000 0.671931 0.339666
1.000000 0.672145 0.376257
1.000000 0.674159 0.415869
1.000000 0.678492 0.458198
0.245426 0.678279 0.232425
0.246769 0.678431 0.232853
0.265293 0.697078 0.247990
0.274388 0.695705 0.248692
0.288182 0.693538 0.249607
0.306065 0.690364 0.250126
0.327092 0.686488 0.251713
0.355505 0.689387 0.252110
0.388495 0.694697 0.252262
0.425269 0.701076 0.252720
0.464881 0.708309 0.253117
0.506981 0.716152 0.253788
0.551263 0.724178 0.253880
0.597559 0.732326 0.254520
0.644984 0.740322 0.254368
0.693507 0.748226 0.253971
0.742672 0.755795 0.253178
0.777829 0.750027 0.260838
0.807523 0.735714 0.275914
0.854002 0.732753 0.291173
0.884886 0.728145 0.294591
0.913634 0.724239 0.298558
0.941375 0.720424 0.303929
0.967926 0.716762 0.311467
0.993256 0.713100 0.319524
1.000000 0.709773 0.329290
1.000000 0.706874 0.340856
1.000000 0.704555 0.354040
1.000000 0.703273 0.370764
1.000000 0.702937 0.390631
1.000000 0.703792 0.427863
1.000000 0.706783 0.470314
0.274815 0.720485 0.264591
0.277104 0.722072 0.265934
0.283055 0.723171 0.267826
0.291875 0.723720 0.269902
0.305272 0.723079 0.271305
0.321416 0.720943 0.272892
0.340612 0.717800 0.274144
0.364935 0.717159 0.275059
0.395422 0.721553 0.275669
0.429389 0.726864 0.276280
0.466072 0.732998 0.278111
0.505394 0.739681 0.279576
0.546838 0.746578 0.280827
0.589685 0.753750 0.282200
0.634241 0.760891 0.283360
0.679805 0.768002 0.285252
0.726070 0.774960 0.286015
0.773190 0.781857 0.287724
0.805905 0.775601 0.298161
0.832883 0.761349 0.312627
0.876310 0.757931 0.330938
0.907530 0.753689 0.338354
0.935027 0.749813 0.343420
0.961334 0.746029 0.350164
0.986511 0.742336 0.358038
1.000000 0.738766 0.367285
1.000000 0.735653 0.378119
1.000000 0.733211 0.392065
1.000000 0.731624 0.408087
1.000000 0.731044 0.427466
1.000000 0.731624 0.450629
1.000000 0.733455 0.480507
0.298314 0.751553 0.291478
0.300877 0.753048 0.293614
0.306035 0.754330 0.295048
0.314488 0.755062 0.297581
0.326543 0.754665 0.299351
0.340948 0.753017 0.300633
0.358587 0.750301 0.301549
0.378546 0.747066 0.302586
0.406775 0.750668 0.303502
0.437934 0.755032 0.304845
0.472236 0.760098 0.306340
0.508873 0.765682 0.308446
0.547448 0.771603 0.310887
0.587671 0.777768 0.313268
0.629267 0.783963 0.315862
0.671656 0.790005 0.319005
0.715175 0.796048 0.321416
0.759243 0.801938 0.324285
0.804105 0.807767 0.327947
0.834073 0.800839 0.338750
0.858976 0.787015 0.353307
0.898375 0.782223 0.372992
0.929198 0.777798 0.383642
0.955230 0.774105 0.390021
0.980163 0.770291 0.397864
1.000000 0.766659 0.406897
1.000000 0.763455 0.417700
1.000000 0.760861 0.430579
1.000000 0.759152 0.446723
1.000000 0.758419 0.465980
1.000000 0.758907 0.489418
1.000000 0.760037 0.514702
0.324926 0.782864 0.322820
0.326940 0.784237 0.324712
0.331792 0.785275 0.326818
0.339239 0.785855 0.328496
0.349706 0.785580 0.330114
0.362982 0.784146 0.331182
0.378668 0.781979 0.332006
0.396765 0.779049 0.333013
0.420874 0.779599 0.334264
0.449622 0.783200 0.335607
0.481361 0.787411 0.338079
0.515435 0.792020 0.340826
0.551293 0.796902 0.343816
0.588830 0.801968 0.346685
0.627558 0.807187 0.350225
0.667475 0.812497 0.354040
0.708461 0.817990 0.358495
0.750301 0.823545 0.363775
0.793027 0.829160 0.369390
0.836515 0.834867 0.376349
0.864805 0.828153 0.390112
0.888670 0.815427 0.406378
0.924285 0.809689 0.427283
0.954559 0.805386 0.442817
0.979370 0.802152 0.452216
1.000000 0.798917 0.462837
1.000000 0.795956 0.474525
1.000000 0.793576 0.488899
1.000000 0.792050 0.506004
1.000000 0.791562 0.526757
1.000000 0.791714 0.549371
1.000000 0.792355 0.573602
0.363775 0.821805 0.371405
0.365118 0.822293 0.372107
0.368414 0.822354 0.372839
0.373907 0.821958 0.373297
0.382361 0.820981 0.373724
0.393378 0.819364 0.373968
0.406744 0.817319 0.374304
0.423255 0.814725 0.374273
0.442390 0.812711 0.375433
0.469245 0.815579 0.377569
0.498329 0.818936 0.380407
0.529900 0.822599 0.383398
0.562737 0.826413 0.386816
0.597559 0.830411 0.390570
0.633417 0.834501 0.394629
0.670253 0.838651 0.398810
0.708095 0.842832 0.403449
0.746822 0.847166 0.408545
0.786252 0.851438 0.414435
0.826535 0.855741 0.420356
0.867277 0.859953 0.427131
0.892363 0.852110 0.440040
0.913542 0.839109 0.454292
0.944610 0.831785 0.474403
0.973419 0.826871 0.491463
0.996887 0.823758 0.501946
1.000000 0.821042 0.514519
1.000000 0.818906 0.529290
1.000000 0.817563 0.546960
1.000000 0.816587 0.565972
1.000000 0.816220 0.587121
1.000000 0.816648 0.610895
0.395148 0.849943 0.412299
0.396216 0.850340 0.413001
0.399084 0.850431 0.413611
0.404273 0.850126 0.414252
0.411414 0.849363 0.414496
0.420996 0.848173 0.414740
0.433295 0.846464 0.414832
0.448035 0.844480 0.415442
0.464973 0.842222 0.415991
0.487709 0.842954 0.417975
0.514244 0.845579 0.420935
0.542992 0.848508 0.424414
0.573358 0.851591 0.428199
0.605341 0.854887 0.432197
0.638575 0.858274 0.436683
0.672877 0.861784 0.441413
0.708309 0.865354 0.446998
0.744350 0.868956 0.452522
0.781338 0.872557 0.458778
0.818967 0.876219 0.465522
0.857145 0.879789 0.472908
0.895903 0.883268 0.480720
0.918547 0.874998 0.493385
0.937896 0.862455 0.507408
0.962493 0.851469 0.518547
0.990051 0.846220 0.537957
1.000000 0.843809 0.550866
1.000000 0.841855 0.565881
1.000000 0.840055 0.581689
1.000000 0.838895 0.599908
1.000000 0.838560 0.621057
1.000000 0.839048 0.644617
0.435279 0.881163 0.466621
0.436744 0.881773 0.468238
0.439033 0.881926 0.469001
0.442878 0.881376 0.468879
0.448463 0.880308 0.468238
0.456153 0.878782 0.467170
0.465858 0.876829 0.466102
0.477943 0.874571 0.465126
0.492287 0.872068 0.464546
0.509758 0.870115 0.464393
0.532647 0.871458 0.466194
0.558068 0.873259 0.468177
0.585321 0.875242 0.471046
0.614008 0.877379 0.474220
0.643793 0.879515 0.477241
0.674891 0.881804 0.480873
0.707240 0.884306 0.485115
0.740719 0.887053 0.490028
0.775143 0.890043 0.496193
0.810483 0.893217 0.503441
0.846494 0.896452 0.511467
0.882963 0.899504 0.519371
0.919463 0.902220 0.527642
0.939696 0.893462 0.539300
0.957061 0.880858 0.551324
0.981079 0.872007 0.569512
1.000000 0.866056 0.589166
1.000000 0.863462 0.601526
1.000000 0.861418 0.616175
1.000000 0.860166 0.633661
1.000000 0.859709 0.653742
1.000000 0.860197 0.676905
0.466560 0.904173 0.511894
0.468055 0.904723 0.513390
0.470405 0.904906 0.514366
0.473884 0.904723 0.514824
0.479286 0.904082 0.514916
0.486488 0.903197 0.514824
0.495827 0.902098 0.515312
0.507500 0.900755 0.515587
0.521019 0.899290 0.516197
0.536461 0.897612 0.517479
0.556298 0.897948 0.519432
0.579309 0.899474 0.522362
0.603967 0.901030 0.525414
0.629908 0.902647 0.528649
0.657130 0.904265 0.531579
0.685451 0.905882 0.535241
0.714931 0.907683 0.538964
0.745510 0.909636 0.543664
0.777279 0.911925 0.549493
0.809873 0.914366 0.556512
0.843259 0.916899 0.564050
0.877073 0.919402 0.572198
0.911162 0.921721 0.580468
0.945129 0.923491 0.587701
0.962951 0.914275 0.597772
0.978302 0.902007 0.608423
0.999207 0.892638 0.624445
1.000000 0.886412 0.645502
1.000000 0.884581 0.660090
1.000000 0.883391 0.676967
1.000000 0.882994 0.696559
1.000000 0.883360 0.717952
0.506493 0.929442 0.570703
0.507591 0.929656 0.571710
0.509148 0.929656 0.572076
0.512200 0.929412 0.572290
0.516594 0.928923 0.572290
0.522850 0.928130 0.572259
0.530816 0.927214 0.572503
0.540764 0.926116 0.572869
0.552667 0.924865 0.573510
0.566461 0.923522 0.574945
0.582391 0.922362 0.576501
0.602716 0.923491 0.579095
0.624537 0.924681 0.582177
0.647822 0.925872 0.585229
0.672267 0.927031 0.588281
0.697902 0.928222 0.591363
0.724758 0.929503 0.595117
0.752590 0.930968 0.599451
0.781491 0.932494 0.604120
0.811124 0.934142 0.610040
0.841550 0.935851 0.616358
0.872465 0.937530 0.622827
0.903593 0.938994 0.629358
0.935058 0.940246 0.635584
0.966583 0.941253 0.641596
0.982177 0.931823 0.650050
0.995941 0.919982 0.658961
1.000000 0.910430 0.673060
1.000000 0.904295 0.693233
1.000000 0.902861 0.710292
1.000000 0.902464 0.728542
1.000000 0.902770 0.748562
0.547967 0.951934 0.631098
0.548760 0.952087 0.631891
0.550378 0.952178 0.632441
0.553155 0.952087 0.633112
0.557458 0.951873 0.633967
0.563531 0.951690 0.635401
0.572076 0.951598 0.637812
0.582544 0.951568 0.641230
0.595026 0.951537 0.645563
0.609003 0.951446 0.650324
0.624567 0.951324 0.655512
0.642634 0.952117 0.660761
0.662715 0.953582 0.665858
0.683742 0.954833 0.670344
0.705379 0.955901 0.674220
0.727657 0.956664 0.677119
0.750668 0.957366 0.679957
0.774807 0.958099 0.683253
0.800046 0.958953 0.687190
0.826169 0.959930 0.691737
0.852903 0.960967 0.696986
0.880308 0.961944 0.702144
0.907927 0.962707 0.707088
0.935821 0.963317 0.711788
0.963928 0.963653 0.715938
0.992309 0.963806 0.719875
1.000000 0.954437 0.726101
1.000000 0.943236 0.732448
1.000000 0.933837 0.743252
1.000000 0.927642 0.759792
1.000000 0.926238 0.776761
1.000000 0.926116 0.794064
0.610254 0.977813 0.714015
0.610529 0.977813 0.714076
0.611444 0.977691 0.714015
0.613184 0.977447 0.714107
0.616205 0.977111 0.714137
0.620539 0.976684 0.714412
0.626490 0.976226 0.715236
0.633936 0.975708 0.716457
0.643214 0.975158 0.718288
0.653956 0.974578 0.720577
0.666072 0.973907 0.723476
0.679591 0.973236 0.726680
0.695583 0.973846 0.729000
0.712612 0.974395 0.731258
