20 Preset/Travel Style/【3】LUT video cho PR-AE-FCPX/Green Moody - Lut (27).cube
# Created by Adobe Lightroom plugin Export LUT (1.24.0)
# www.johnrellis.com/lightroom/exportlut.htm
# Preset: 27自然风光-素材江湖
# Color profile: E:\lut插件\exportlut.1.24\exportlut.lrplugin\color profiles\Rec709gamma2.4.icc
LUT_3D_SIZE 8
DOMAIN_MIN 0.000000 0.000000 0.000000
DOMAIN_MAX 0.903226 0.903226 0.903226
0.167788 0.146731 0.134981
0.186587 0.149630 0.136873
0.237034 0.154116 0.139559
0.309453 0.155276 0.138277
0.409125 0.156252 0.134890
0.541436 0.160830 0.125917
0.717067 0.184817 0.094820
0.878477 0.248234 0.000000
0.170657 0.164553 0.137484
0.186740 0.164187 0.136843
0.235752 0.165957 0.137392
0.306676 0.167483 0.136141
0.404822 0.170687 0.132174
0.534600 0.178195 0.122469
0.702266 0.202487 0.090578
0.866911 0.261662 0.000000
0.171908 0.211490 0.141604
0.185916 0.211398 0.141268
0.232578 0.210849 0.139101
0.308446 0.215183 0.135134
0.410681 0.222934 0.126772
0.551690 0.242161 0.104433
0.727321 0.285435 0.000000
0.882597 0.342718 0.000000
0.147860 0.292760 0.140414
0.166262 0.292546 0.139620
0.225315 0.293492 0.136660
0.310002 0.298528 0.130953
0.431220 0.320439 0.113313
0.576074 0.347417 0.039918
0.738918 0.394018 0.000000
0.886229 0.449714 0.000000
0.000000 0.427802 0.115114
0.000000 0.427832 0.113741
0.165438 0.430426 0.107271
0.302495 0.437873 0.088960
0.428748 0.441596 0.033448
0.580224 0.474769 0.000000
0.738674 0.517571 0.000000
0.882414 0.558801 0.000000
0.000000 0.614740 0.000000
0.000000 0.620081 0.000000
0.000000 0.621363 0.000000
0.255711 0.624292 0.000000
0.449165 0.628473 0.000000
0.600855 0.631769 0.000000
0.758389 0.663111 0.000000
0.889616 0.681697 0.000000
0.000000 0.791867 0.000000
0.000000 0.792599 0.000000
0.000000 0.791348 0.000000
0.204471 0.790005 0.000000
0.460121 0.787533 0.000000
0.625971 0.787839 0.000000
0.763485 0.786557 0.000000
0.891691 0.795682 0.000000
0.000000 0.910613 0.289433
0.000000 0.910307 0.287663
0.000000 0.909453 0.282994
0.254002 0.908202 0.274998
0.466804 0.900908 0.224063
0.629114 0.899840 0.189212
0.766476 0.899107 0.094728
0.885618 0.894530 0.000000
0.176516 0.153780 0.149050
0.190707 0.151919 0.149355
0.231937 0.159335 0.148653
0.297581 0.165591 0.148623
0.395758 0.168429 0.143465
0.526329 0.173953 0.131960
0.692988 0.196506 0.097505
0.857633 0.251286 0.000000
0.175967 0.165743 0.150423
0.190127 0.166079 0.149783
0.231083 0.170840 0.150668
0.297581 0.175113 0.148959
0.395056 0.179416 0.143587
0.525536 0.187259 0.131228
0.686763 0.210636 0.096284
0.850858 0.265354 0.000000
0.180209 0.210117 0.154055
0.191989 0.210056 0.153567
0.232883 0.209659 0.152407
0.301732 0.214633 0.149783
0.399298 0.223026 0.142824
0.531975 0.238743 0.126741
0.696803 0.272740 0.065095
0.863066 0.337407 0.000000
0.157443 0.286992 0.153445
0.173587 0.286992 0.153079
0.227939 0.288304 0.150881
0.304295 0.290349 0.146792
0.411688 0.306523 0.136294
0.545586 0.329015 0.109133
0.707149 0.371862 0.000000
0.864591 0.431586 0.000000
0.000000 0.421271 0.136721
0.000000 0.420691 0.136080
0.171939 0.421637 0.131624
0.299382 0.425635 0.121126
0.417426 0.426734 0.106203
0.562982 0.458503 0.000000
0.722652 0.503166 0.000000
0.870451 0.547936 0.000000
0.000000 0.603784 0.000000
0.000000 0.604425 0.000000
0.000000 0.606378 0.000000
0.248325 0.611017 0.000000
0.440162 0.617029 0.000000
0.592737 0.623133 0.000000
0.750393 0.655390 0.000000
0.882872 0.675349 0.000000
0.000000 0.783932 0.000000
0.000000 0.782742 0.000000
0.000000 0.781399 0.000000
0.180392 0.781125 0.000000
0.452033 0.780972 0.000000
0.618982 0.781674 0.000000
0.755673 0.779568 0.000000
0.884337 0.789212 0.000000
0.000000 0.906828 0.301762
0.000000 0.907134 0.303380
0.000000 0.906188 0.298497
0.238804 0.905058 0.291966
0.469734 0.902983 0.274388
0.629114 0.900298 0.239048
0.764828 0.898253 0.170748
0.884092 0.893645 0.056214
0.191836 0.165805 0.184543
0.201114 0.165133 0.186282
0.244205 0.162539 0.187961
0.311101 0.167208 0.183291
0.387884 0.180423 0.182498
0.516503 0.186801 0.180270
0.685054 0.200351 0.165499
0.859373 0.254490 0.118135
0.198611 0.179080 0.182437
0.205631 0.178744 0.184054
0.242466 0.176333 0.187167
0.305241 0.180758 0.183688
0.386542 0.191226 0.183749
0.513848 0.199435 0.180880
0.679408 0.213748 0.164340
0.853727 0.267033 0.115236
0.194766 0.212985 0.190372
0.204898 0.213565 0.190188
0.245518 0.218967 0.192355
0.302617 0.221897 0.189425
0.395270 0.231174 0.187747
0.524681 0.244846 0.180880
0.689418 0.271275 0.159426
0.858366 0.327794 0.096895
0.167025 0.291722 0.197635
0.182406 0.291875 0.197208
0.235508 0.292882 0.195132
0.311498 0.294285 0.194003
0.412482 0.308629 0.189975
0.543236 0.330175 0.177523
0.706142 0.370062 0.144442
0.864958 0.426215 0.000000
0.000000 0.421180 0.202365
0.000000 0.420722 0.199771
0.175784 0.421546 0.195956
0.305028 0.425879 0.192233
0.422065 0.428656 0.185336
0.562768 0.456794 0.165438
0.719753 0.498054 0.107362
0.869383 0.542870 0.000000
0.000000 0.599695 0.187411
0.000000 0.600641 0.186801
0.000000 0.601984 0.183169
0.238773 0.605005 0.175235
0.434943 0.610040 0.158999
0.587518 0.616693 0.139834
0.745388 0.649622 0.074159
0.880980 0.671778 0.000000
0.000000 0.784176 0.233158
0.000000 0.783200 0.230777
0.000000 0.781125 0.223880
0.136446 0.779629 0.214084
0.443885 0.778714 0.197879
0.614984 0.780117 0.169650
0.755093 0.780117 0.144045
0.884886 0.790494 0.122683
0.000000 0.905760 0.407630
0.000000 0.905211 0.405280
0.000000 0.904204 0.401984
0.230716 0.903868 0.401984
0.464881 0.901823 0.391150
0.626184 0.900023 0.373053
0.761685 0.898344 0.338537
0.880949 0.894011 0.306523
0.207004 0.180667 0.245487
0.215518 0.180758 0.248356
0.252781 0.179660 0.257664
0.325628 0.175143 0.261326
0.432685 0.169589 0.264256
0.537255 0.171756 0.252934
0.663752 0.183963 0.247684
0.839780 0.218112 0.240482
0.215152 0.195193 0.244327
0.222110 0.195163 0.246525
0.254826 0.193576 0.255833
0.325353 0.188296 0.261875
0.430335 0.184756 0.264378
0.533867 0.187778 0.253178
0.664576 0.200870 0.249424
0.839872 0.236851 0.241123
0.226627 0.226230 0.236942
0.233280 0.228153 0.239109
0.258671 0.232639 0.251774
0.323064 0.230533 0.263859
0.420050 0.235325 0.263859
0.525872 0.243137 0.257786
0.685054 0.266178 0.261814
0.853300 0.308598 0.247349
0.194247 0.293400 0.273777
0.205997 0.293675 0.273320
0.249363 0.297154 0.274296
0.330510 0.313817 0.287022
0.414801 0.314763 0.276585
0.534936 0.329839 0.274083
0.694087 0.359258 0.266758
0.857023 0.408057 0.246281
0.000000 0.433631 0.316716
0.000000 0.432654 0.314305
0.156283 0.432136 0.307744
0.303227 0.435828 0.302098
0.431189 0.438025 0.301610
0.565423 0.458137 0.294987
0.717891 0.492378 0.279362
0.866606 0.533654 0.254734
0.000000 0.611292 0.361273
0.000000 0.614923 0.361181
0.000000 0.612512 0.345281
0.200900 0.612848 0.332158
0.433234 0.615503 0.329107
0.587488 0.618341 0.324102
0.741115 0.645899 0.319432
0.876310 0.666560 0.296086
0.000000 0.785641 0.419623
0.000000 0.785550 0.417121
0.000000 0.783688 0.406500
0.000000 0.782773 0.404181
0.427588 0.781216 0.399084
0.607782 0.780941 0.389899
0.749355 0.780056 0.382055
0.878355 0.789700 0.386267
0.000000 0.906065 0.553796
0.000000 0.905333 0.556664
0.000000 0.904234 0.555291
0.241611 0.902770 0.552880
0.463539 0.900725 0.547448
0.622278 0.898924 0.538781
0.754299 0.897642 0.521508
0.872526 0.894530 0.506004
0.217258 0.205020 0.355505
0.225620 0.205539 0.359777
0.261662 0.204837 0.373724
0.338506 0.197726 0.404852
0.445747 0.185122 0.410224
0.590570 0.157412 0.427070
0.725856 0.138338 0.416632
0.858305 0.152163 0.398566
0.224582 0.218540 0.354406
0.231907 0.218845 0.358801
0.264775 0.217868 0.372808
0.338293 0.211215 0.402930
0.444892 0.199039 0.410285
0.589410 0.176730 0.426917
0.723201 0.165164 0.415412
0.855955 0.179049 0.397314
0.238743 0.255436 0.347295
0.244358 0.256291 0.351873
0.270481 0.256748 0.365332
0.334020 0.254887 0.394293
0.439246 0.247013 0.408148
0.578973 0.238560 0.420600
0.708766 0.240818 0.407385
0.843290 0.254520 0.389441
0.234775 0.302159 0.351965
0.243626 0.303075 0.351385
0.278294 0.308080 0.350561
0.331518 0.325353 0.390936
0.438544 0.328985 0.423438
0.567346 0.333288 0.421241
0.693843 0.341405 0.406043
0.839384 0.381018 0.410163
0.000000 0.414374 0.430182
0.090517 0.415137 0.430426
0.193759 0.418097 0.431189
0.302525 0.427863 0.437812
0.437537 0.455848 0.463874
0.555108 0.453132 0.441047
0.700710 0.474281 0.434974
0.850614 0.509911 0.430579
0.000000 0.606958 0.524254
0.000000 0.606989 0.522759
0.000000 0.603632 0.512108
0.000000 0.600671 0.494301
0.393347 0.605219 0.486183
0.573236 0.612818 0.495125
0.723873 0.633906 0.496529
0.859709 0.653407 0.487373
0.000000 0.785733 0.593439
0.000000 0.784634 0.590143
0.000000 0.781949 0.578637
0.000000 0.779232 0.567773
0.380560 0.775723 0.567315
0.586175 0.774807 0.566155
0.731960 0.774350 0.563928
0.859648 0.782803 0.567590
0.000000 0.907225 0.638544
0.000000 0.906401 0.639368
0.000000 0.903288 0.644831
0.190005 0.899168 0.667475
0.460060 0.896269 0.674678
0.616602 0.894896 0.672969
0.744839 0.893614 0.665126
0.858854 0.891173 0.656611
0.189609 0.237766 0.536675
0.201724 0.237919 0.542046
0.250462 0.236759 0.557183
0.340490 0.230564 0.589441
0.478401 0.206363 0.635615
0.610254 0.181003 0.629786
0.762264 0.151247 0.644343
0.897948 0.183139 0.643763
0.199130 0.248203 0.526268
0.209964 0.248081 0.529717
0.253056 0.246830 0.544762
0.336370 0.241428 0.576043
0.470130 0.221164 0.624323
0.603082 0.198978 0.622339
0.755947 0.176150 0.638514
0.892454 0.204288 0.638727
0.211734 0.287602 0.522393
0.220615 0.287694 0.525566
0.258183 0.287816 0.540978
0.333593 0.285161 0.568170
0.461189 0.275853 0.616907
0.599847 0.261753 0.623468
0.753445 0.257023 0.639582
0.885039 0.287907 0.635828
0.230564 0.339605 0.496437
0.237522 0.341131 0.500816
0.266056 0.349340 0.524376
0.329564 0.358648 0.565484
0.450416 0.365057 0.618006
0.601099 0.362585 0.638483
0.754025 0.373571 0.649775
0.872709 0.404974 0.636530
0.143160 0.419013 0.538750
0.164858 0.419287 0.538109
0.232547 0.421149 0.536156
0.322301 0.428473 0.535485
0.424048 0.462654 0.598688
0.583764 0.479774 0.643977
0.728725 0.492042 0.640009
0.843534 0.510307 0.622950
0.000000 0.578027 0.639033
0.000000 0.579797 0.640711
0.000000 0.581140 0.640406
0.125460 0.585443 0.641779
0.379614 0.597101 0.649104
0.576593 0.632471 0.679103
0.707088 0.630518 0.660029
0.839322 0.647669 0.656886
0.000000 0.785519 0.738308
0.000000 0.786770 0.738857
0.000000 0.788693 0.737362
0.000000 0.788418 0.731472
0.318700 0.783352 0.720638
0.573388 0.777218 0.718379
0.723720 0.776883 0.720058
0.844450 0.783932 0.720638
0.000000 0.908812 0.765194
0.000000 0.908080 0.764065
0.000000 0.906157 0.761349
0.000000 0.903227 0.759060
0.409949 0.897185 0.763821
0.620111 0.891203 0.778439
0.744594 0.890623 0.777920
0.850492 0.889494 0.775296
0.151736 0.280583 0.725887
0.177066 0.281529 0.731167
0.252873 0.279728 0.739010
0.363195 0.274907 0.757504
0.499794 0.261082 0.782589
0.658595 0.231266 0.813260
0.778714 0.216953 0.802152
0.892180 0.243381 0.791470
0.152407 0.286351 0.709224
0.175357 0.287602 0.715663
0.246616 0.286015 0.724514
0.351415 0.280827 0.741695
0.484504 0.267643 0.767025
0.640284 0.238102 0.797574
0.758419 0.219730 0.784573
0.874144 0.233768 0.775021
0.154879 0.327367 0.710445
0.175387 0.327367 0.712673
0.243076 0.325750 0.719478
0.344793 0.323278 0.736385
0.473671 0.315557 0.760342
0.631189 0.301183 0.793881
0.761379 0.294774 0.791165
0.881865 0.324498 0.786740
0.146883 0.391943 0.702846
0.166079 0.391638 0.704250
0.230472 0.391699 0.711482
0.331243 0.395819 0.731502
0.460273 0.398627 0.758175
0.620874 0.405524 0.795712
0.761227 0.410376 0.800809
0.878141 0.441230 0.793973
0.139162 0.444495 0.657557
0.163760 0.441871 0.652949
0.214328 0.446326 0.662531
0.296971 0.461921 0.694179
0.420813 0.480934 0.733181
0.579095 0.501122 0.775326
0.735164 0.513542 0.791867
0.865049 0.553826 0.796262
0.000000 0.566827 0.725704
0.000000 0.566979 0.725612
0.000000 0.566155 0.723751
0.217411 0.565637 0.720302
0.390265 0.568261 0.713954
0.555993 0.620844 0.769497
0.727565 0.655177 0.807858
0.845335 0.671717 0.801633
0.000000 0.736416 0.802670
0.000000 0.737911 0.803830
0.000000 0.737881 0.803128
0.000000 0.739406 0.803037
0.342840 0.741634 0.802274
0.547845 0.750332 0.805631
0.720607 0.776699 0.823239
0.825406 0.776333 0.813504
0.000000 0.897917 0.857939
0.000000 0.898222 0.858183
0.000000 0.900114 0.859983
0.000000 0.900725 0.860166
0.413153 0.899931 0.859007
0.599512 0.894285 0.855100
0.746639 0.888884 0.857053
0.848997 0.888823 0.857389
0.267674 0.352300 0.856474
0.284215 0.353277 0.858366
0.334813 0.349554 0.859556
0.424262 0.348028 0.867399
0.534020 0.343572 0.878111
0.657557 0.335912 0.891569
0.792233 0.333227 0.907469
0.898100 0.341253 0.899840
0.255406 0.355169 0.849210
0.272374 0.356420 0.851377
0.326635 0.354376 0.854215
0.415412 0.351934 0.861662
0.525872 0.347539 0.872862
0.650355 0.340124 0.886961
0.785092 0.334600 0.902922
0.890929 0.338628 0.894652
0.240330 0.387274 0.842588
0.256107 0.387579 0.843748
0.310735 0.385290 0.846128
0.406439 0.389563 0.857847
0.515038 0.385962 0.867979
0.638331 0.380743 0.881407
0.776394 0.382849 0.899870
0.884001 0.387823 0.892454
0.201663 0.441291 0.832486
0.222110 0.442664 0.834318
0.283574 0.442664 0.837858
0.380377 0.446754 0.847593
0.494667 0.451026 0.860502
0.622217 0.456947 0.876616
0.762905 0.471778 0.897002
0.875944 0.478523 0.893187
0.072023 0.500572 0.811856
0.124636 0.502464 0.814389
0.211429 0.502586 0.819028
0.333104 0.513024 0.831418
0.454749 0.521202 0.845731
0.589166 0.534295 0.864775
0.737667 0.559411 0.889006
0.862608 0.576440 0.892729
0.000000 0.581201 0.811917
0.000000 0.578668 0.809689
0.000000 0.571740 0.803189
0.247837 0.565728 0.796201
0.393225 0.586419 0.821469
0.560021 0.627588 0.855314
0.721767 0.672724 0.888060
0.855955 0.701472 0.901274
0.000000 0.719753 0.864378
0.000000 0.719020 0.863737
0.000000 0.716487 0.861448
0.183047 0.714656 0.858793
0.388769 0.713252 0.854551
0.541131 0.716121 0.848722
0.700771 0.759854 0.877897
0.840482 0.789029 0.901244
0.000000 0.856016 0.905211
0.000000 0.855619 0.904814
0.000000 0.855314 0.904234
0.177249 0.856321 0.904173
0.416907 0.857298 0.903441
0.574762 0.858732 0.902129
0.711116 0.863340 0.902342
0.840177 0.879240 0.910643
