20 Preset/Travel Style/【3】LUT video cho PR-AE-FCPX/Green Moody - Lut (25).cube
# Created by Adobe Lightroom plugin Export LUT (1.24.0)
# www.johnrellis.com/lightroom/exportlut.htm
# Preset: 25自然风光-烟雾-素材江湖
# Color profile: E:\lut插件\exportlut.1.24\exportlut.lrplugin\color profiles\Rec709gamma2.4.icc
LUT_3D_SIZE 32
DOMAIN_MIN 0.0 0.0 0.0
DOMAIN_MAX 1.0 1.0 1.0
0.111543 0.126162 0.134371
0.111543 0.126162 0.134371
0.111543 0.126162 0.134371
0.111543 0.126162 0.134371
0.126589 0.125399 0.134707
0.147951 0.123384 0.135500
0.168399 0.121187 0.136233
0.190890 0.118105 0.136629
0.215640 0.117342 0.136599
0.245151 0.116396 0.135988
0.280034 0.114778 0.135164
0.319493 0.112856 0.133242
0.362921 0.109255 0.131197
0.409033 0.106020 0.127626
0.456672 0.101228 0.123964
0.503868 0.093019 0.122469
0.550439 0.080476 0.120729
0.596490 0.051240 0.118624
0.642023 0.017975 0.115999
0.687434 0.000000 0.113008
0.732357 0.000000 0.109255
0.784024 0.000000 0.103578
0.835996 0.000000 0.096529
0.882597 0.000000 0.089601
0.924590 0.000000 0.081270
0.962982 0.000000 0.071962
0.998230 0.000000 0.062440
1.000000 0.000000 0.061402
1.000000 0.000000 0.064088
1.000000 0.000000 0.077516
1.000000 0.006622 0.092348
1.000000 0.091432 0.110842
0.111543 0.126162 0.134371
0.111543 0.126162 0.134371
0.111543 0.126162 0.134371
0.111543 0.126162 0.134371
0.126986 0.125338 0.134951
0.147555 0.123445 0.135500
0.167758 0.121309 0.136233
0.189181 0.119631 0.136538
0.213748 0.118990 0.136721
0.242710 0.118044 0.135927
0.276829 0.116609 0.135134
0.315831 0.113954 0.133608
0.358434 0.111574 0.131289
0.404334 0.109102 0.127779
0.451362 0.104952 0.124483
0.498573 0.097902 0.122713
0.545373 0.087373 0.121187
0.591241 0.066377 0.119051
0.636927 0.032471 0.116579
0.682124 0.000000 0.113771
0.726741 0.000000 0.109468
0.777127 0.000000 0.104158
0.827512 0.000000 0.097993
0.872984 0.000000 0.091615
0.914580 0.000000 0.082918
0.953033 0.000000 0.071199
0.988830 0.000000 0.064057
1.000000 0.000000 0.057435
1.000000 0.000000 0.059449
1.000000 0.000000 0.068208
1.000000 0.000000 0.087617
1.000000 0.081880 0.103853
0.111543 0.126162 0.134371
0.111543 0.126162 0.134371
0.111543 0.126162 0.134371
0.112673 0.126070 0.134371
0.129549 0.125307 0.134920
0.148959 0.124056 0.135653
0.168093 0.124239 0.135866
0.188937 0.124117 0.136263
0.212955 0.124178 0.136141
0.242130 0.123537 0.135775
0.276158 0.122530 0.134737
0.314580 0.121523 0.132845
0.356909 0.119875 0.130465
0.402289 0.118105 0.127199
0.449012 0.114229 0.124819
0.496284 0.108949 0.122683
0.542809 0.101472 0.121096
0.588830 0.092226 0.119020
0.634333 0.076967 0.115816
0.679530 0.045747 0.112612
0.724361 0.011231 0.109071
0.774868 0.000000 0.103761
0.824094 0.000000 0.097292
0.869017 0.000000 0.091249
0.910155 0.000000 0.082429
0.948241 0.000000 0.070130
0.984070 0.000000 0.060456
1.000000 0.000000 0.054139
1.000000 0.000000 0.052399
1.000000 0.000000 0.063996
1.000000 0.035523 0.083742
1.000000 0.097963 0.100618
0.110628 0.129854 0.134890
0.110567 0.129854 0.135134
0.110719 0.130343 0.135073
0.115236 0.130922 0.135409
0.129122 0.133242 0.135378
0.148226 0.133608 0.135653
0.167880 0.133761 0.135409
0.189456 0.133730 0.135744
0.214298 0.133883 0.135103
0.243168 0.134279 0.134615
0.277256 0.134310 0.133394
0.315831 0.134218 0.131594
0.357794 0.134585 0.128969
0.402594 0.133822 0.125826
0.448402 0.131350 0.123934
0.494820 0.127718 0.122408
0.540734 0.122866 0.120485
0.585962 0.117098 0.118166
0.630884 0.110018 0.115602
0.675593 0.102571 0.112001
0.719875 0.092164 0.107912
0.769802 0.076020 0.102632
0.817380 0.044862 0.097139
0.861997 0.019623 0.090578
0.903746 0.006592 0.081910
0.943267 0.001007 0.065858
0.980529 0.003601 0.056703
1.000000 0.011292 0.051881
1.000000 0.042573 0.049744
1.000000 0.084627 0.058076
1.000000 0.104433 0.080171
1.000000 0.126131 0.099428
0.105776 0.143130 0.137453
0.106752 0.143282 0.137423
0.111849 0.142672 0.138155
0.119356 0.142245 0.138796
0.126741 0.144015 0.138186
0.142306 0.146975 0.137697
0.162661 0.147555 0.137606
0.185428 0.147738 0.136965
0.211276 0.148623 0.135988
0.241611 0.149630 0.134615
0.276799 0.150698 0.132235
0.316228 0.152468 0.129244
0.358160 0.153323 0.127230
0.402564 0.154025 0.125216
0.448096 0.153353 0.123598
0.494881 0.151675 0.121523
0.541070 0.148959 0.119631
0.586786 0.145480 0.117037
0.631647 0.141726 0.113588
0.676265 0.136873 0.110140
0.721431 0.132021 0.105989
0.770626 0.126650 0.100191
0.817105 0.122194 0.093538
0.861021 0.116457 0.087617
0.902678 0.112917 0.076692
0.942260 0.112642 0.060060
0.979431 0.113466 0.048829
1.000000 0.117159 0.042512
1.000000 0.124788 0.043183
1.000000 0.134066 0.054047
1.000000 0.145235 0.076692
1.000000 0.160250 0.097505
0.111788 0.155306 0.141329
0.113252 0.155398 0.141299
0.116457 0.154940 0.141787
0.123598 0.154360 0.142885
0.129854 0.155795 0.142550
0.139925 0.158022 0.141573
0.156741 0.162570 0.140719
0.180240 0.164981 0.139254
0.207767 0.166537 0.137881
0.239506 0.169192 0.135958
0.275700 0.172183 0.133883
0.315770 0.175174 0.131868
0.359197 0.177279 0.129519
0.405310 0.178988 0.126558
0.453132 0.179965 0.122988
0.500420 0.179568 0.120211
0.546777 0.178805 0.117830
0.592340 0.177493 0.114412
0.637232 0.175448 0.110842
0.681636 0.172885 0.106966
0.729397 0.171115 0.101595
0.777493 0.168704 0.095949
0.872648 0.176364 0.073640
0.916167 0.176089 0.059907
0.955535 0.177066 0.050477
0.991119 0.179202 0.045747
1.000000 0.181765 0.050599
1.000000 0.185763 0.060761
1.000000 0.191348 0.082155
1.000000 0.198703 0.096620
1.000000 0.208682 0.112154
1.000000 0.219425 0.131380
0.119326 0.171206 0.145327
0.119600 0.171359 0.145510
0.123262 0.170748 0.145968
0.130037 0.170047 0.147066
0.136263 0.171267 0.146975
0.145357 0.174105 0.146120
0.158511 0.177707 0.145418
0.179324 0.185580 0.144320
0.208743 0.191043 0.142580
0.244633 0.196017 0.140383
0.285679 0.200595 0.138582
0.329290 0.205417 0.135531
0.375006 0.209262 0.132326
0.422461 0.212497 0.128603
0.470558 0.214755 0.124056
0.518151 0.215763 0.119966
0.565087 0.216098 0.115023
0.611200 0.215305 0.110262
0.656397 0.214664 0.104982
0.703914 0.214298 0.099519
0.757717 0.215610 0.091890
0.809964 0.216495 0.080323
0.859129 0.217777 0.063569
0.905180 0.219577 0.048676
0.947265 0.221012 0.037690
0.984283 0.222873 0.036774
1.000000 0.224491 0.041535
1.000000 0.227207 0.053712
1.000000 0.231266 0.073732
1.000000 0.235874 0.092805
1.000000 0.242222 0.109255
1.000000 0.250767 0.128420
0.123873 0.188418 0.151308
0.125185 0.188022 0.151339
0.128267 0.187808 0.151766
0.134096 0.187106 0.152621
0.141817 0.186801 0.153353
0.150118 0.189944 0.153017
0.162051 0.194064 0.152224
0.178042 0.199557 0.151614
0.203525 0.210086 0.149966
0.238743 0.219760 0.147402
0.280186 0.227573 0.144320
0.325597 0.234043 0.140932
0.374426 0.238804 0.137270
0.422339 0.243839 0.132479
0.470344 0.247623 0.127749
0.517754 0.249943 0.123049
0.564446 0.251621 0.117525
0.610864 0.252445 0.111604
0.657954 0.253422 0.104585
0.710140 0.255650 0.095857
0.762051 0.257450 0.083711
0.811978 0.259220 0.062409
0.858854 0.261112 0.044373
0.903258 0.262791 0.032288
0.944244 0.264744 0.023926
0.980621 0.265965 0.024475
1.000000 0.267369 0.028748
1.000000 0.268864 0.043702
1.000000 0.271244 0.071351
1.000000 0.274723 0.093111
1.000000 0.279515 0.110384
1.000000 0.285863 0.129702
0.129061 0.209293 0.157992
0.130129 0.209079 0.158022
0.132723 0.208927 0.158206
0.139193 0.207858 0.158907
0.148257 0.206424 0.160159
0.156710 0.208713 0.160342
0.168002 0.213352 0.159548
0.183200 0.219516 0.159091
0.203769 0.227359 0.157778
0.234104 0.240818 0.155795
0.275578 0.255375 0.152316
0.321599 0.265232 0.148135
0.370947 0.273167 0.142763
0.422400 0.279210 0.137972
0.473335 0.283543 0.132723
0.520623 0.287175 0.127260
0.567590 0.289891 0.121035
0.615503 0.292576 0.114595
0.666041 0.295964 0.107393
0.716121 0.298650 0.098909
0.765957 0.301671 0.087648
0.814237 0.303777 0.066621
0.860594 0.305699 0.042573
0.904356 0.307561 0.022248
0.944457 0.308812 0.012238
0.979675 0.309545 0.016114
1.000000 0.310185 0.026978
1.000000 0.311040 0.046906
1.000000 0.312474 0.077516
1.000000 0.314946 0.097353
1.000000 0.318334 0.115846
1.000000 0.323186 0.135225
0.133150 0.234958 0.164736
0.133730 0.234806 0.164736
0.137392 0.234073 0.165042
0.144289 0.233097 0.165866
0.153750 0.231510 0.166964
0.164279 0.230777 0.168002
0.175204 0.235691 0.167269
0.189731 0.242344 0.166903
0.209415 0.250523 0.165896
0.234348 0.260899 0.164401
0.267552 0.275059 0.161959
0.315801 0.295293 0.157992
0.364996 0.306737 0.151980
0.416693 0.315709 0.145510
0.469368 0.322789 0.139986
0.521691 0.327276 0.134401
0.574975 0.332433 0.129000
0.625422 0.337591 0.121736
0.674861 0.341527 0.114443
0.723781 0.344793 0.106386
0.771633 0.347723 0.097688
0.816770 0.349554 0.089509
0.859953 0.351232 0.072938
0.900816 0.351934 0.057313
0.939055 0.352514 0.043366
0.973999 0.352087 0.035889
1.000000 0.351568 0.034607
1.000000 0.351537 0.048219
1.000000 0.352422 0.082002
1.000000 0.354253 0.101961
1.000000 0.356725 0.121981
1.000000 0.360510 0.143282
0.136690 0.262852 0.171786
0.137942 0.262791 0.171786
0.141512 0.262333 0.172213
0.148836 0.261295 0.172854
0.159396 0.259770 0.173892
0.171756 0.257725 0.175326
0.183566 0.260990 0.175692
0.198215 0.267979 0.175174
0.217288 0.276860 0.174838
0.241123 0.287602 0.173831
0.270481 0.300389 0.172244
0.306279 0.315496 0.169955
0.361639 0.342046 0.165194
0.413489 0.354437 0.158541
0.469093 0.365850 0.152010
0.524071 0.374395 0.146090
0.578424 0.380438 0.141543
0.632319 0.384558 0.136324
0.681453 0.388251 0.130617
0.728969 0.391577 0.123537
0.775051 0.394293 0.116762
0.818601 0.396155 0.110384
0.860502 0.397681 0.105287
0.900267 0.398352 0.101076
0.937499 0.398810 0.098909
0.971618 0.398047 0.099825
1.000000 0.397559 0.100526
1.000000 0.396612 0.105013
1.000000 0.395727 0.111849
1.000000 0.395789 0.120333
1.000000 0.397040 0.135531
1.000000 0.399908 0.155673
0.141115 0.295720 0.180056
0.142123 0.295598 0.179934
0.146609 0.295171 0.180453
0.153780 0.294377 0.181216
0.165042 0.292821 0.182406
0.178744 0.290684 0.183810
0.193668 0.289586 0.185519
0.208164 0.297124 0.185428
0.226932 0.306310 0.185458
0.250095 0.317449 0.184939
0.278630 0.330816 0.184390
0.314061 0.348028 0.183658
0.380560 0.392432 0.189303
0.447211 0.428931 0.189609
0.504723 0.442695 0.183627
0.561395 0.452827 0.179049
0.617365 0.460029 0.173770
0.672053 0.465126 0.170443
0.725795 0.468513 0.167971
0.776699 0.469642 0.167483
0.819364 0.470039 0.163363
0.859068 0.469673 0.161105
0.896666 0.468513 0.160037
0.931640 0.466957 0.160586
0.963989 0.464698 0.161990
0.993957 0.461830 0.164309
1.000000 0.458961 0.167361
1.000000 0.456001 0.171115
1.000000 0.453559 0.176730
1.000000 0.451789 0.183627
1.000000 0.450782 0.193210
1.000000 0.450965 0.204776
0.147280 0.340124 0.193118
0.148440 0.339879 0.193149
0.152407 0.339208 0.193301
0.161593 0.337591 0.193790
0.173831 0.335332 0.194705
0.188815 0.332616 0.196384
0.205783 0.329351 0.198245
0.222538 0.334417 0.199985
0.242435 0.345464 0.200809
0.267308 0.359319 0.201968
0.297887 0.376501 0.203464
0.335149 0.396796 0.206088
0.379034 0.420020 0.208713
0.429175 0.445533 0.211978
0.497230 0.485634 0.218631
0.553552 0.498054 0.213382
0.608453 0.506706 0.209018
0.661707 0.512566 0.204959
0.713924 0.516716 0.201389
0.763302 0.517967 0.200900
0.809628 0.517113 0.200687
0.851865 0.515435 0.202029
0.888731 0.513878 0.200870
0.923278 0.511803 0.200931
0.955383 0.509178 0.201846
0.985351 0.506126 0.204410
1.000000 0.502922 0.207523
1.000000 0.500053 0.211368
1.000000 0.497292 0.217105
1.000000 0.495613 0.225010
1.000000 0.494484 0.234257
1.000000 0.494270 0.246006
0.154116 0.381994 0.208011
0.154818 0.381537 0.208011
0.160098 0.380499 0.208255
0.169680 0.378912 0.208774
0.182132 0.376837 0.209751
0.198489 0.373754 0.210941
0.216129 0.370428 0.212894
0.235172 0.368414 0.215335
0.254002 0.378943 0.216709
0.277623 0.392065 0.219089
0.306218 0.408362 0.221927
0.340673 0.427710 0.225589
0.380835 0.449653 0.230381
0.426307 0.473396 0.235294
0.476539 0.498268 0.241123
0.542626 0.536858 0.251225
0.598138 0.550896 0.249271
0.650965 0.557916 0.244419
0.702327 0.563073 0.241489
0.750942 0.565057 0.238743
0.796536 0.564996 0.239475
0.840024 0.563745 0.241489
0.881041 0.561151 0.245182
0.916930 0.558221 0.247257
0.948669 0.555383 0.248356
0.978485 0.551934 0.250340
1.000000 0.548394 0.253422
1.000000 0.544976 0.256748
1.000000 0.542107 0.262791
1.000000 0.540002 0.269993
1.000000 0.538750 0.280003
1.000000 0.538476 0.292180
0.163241 0.424079 0.226047
0.163882 0.424018 0.226413
0.169162 0.422644 0.226200
0.178103 0.420722 0.226688
0.191135 0.417823 0.226993
0.207431 0.414313 0.228183
0.225711 0.410620 0.229679
0.245701 0.406470 0.231693
0.265263 0.411078 0.234379
0.287358 0.423713 0.237217
0.314397 0.439094 0.241306
0.346319 0.457435 0.246342
0.383398 0.477974 0.252323
0.424872 0.500389 0.259586
0.470832 0.524071 0.267094
0.520470 0.548150 0.274693
0.585138 0.584985 0.286259
0.640742 0.602014 0.289433
0.691463 0.607965 0.285344
0.739193 0.610773 0.282750
0.784268 0.611414 0.282506
0.827573 0.610864 0.283543
0.868254 0.608881 0.286381
0.906126 0.605585 0.291691
0.941192 0.601221 0.297734
0.971160 0.597314 0.300450
0.999054 0.593683 0.302892
1.000000 0.590387 0.307439
1.000000 0.587610 0.313512
1.000000 0.585748 0.322362
1.000000 0.584894 0.333440
1.000000 0.585138 0.347448
0.173159 0.462440 0.245792
0.174655 0.462379 0.245792
0.179080 0.461707 0.246281
0.188296 0.460212 0.246433
0.201236 0.457923 0.247196
0.217807 0.455055 0.248051
0.236515 0.452094 0.249821
0.256962 0.448585 0.252018
0.278325 0.445747 0.255222
0.299596 0.458015 0.258915
0.324895 0.472267 0.263554
0.354162 0.488594 0.269474
0.387549 0.506889 0.276097
0.424842 0.526543 0.283146
0.466041 0.547601 0.290806
0.510979 0.569635 0.299443
0.559808 0.592889 0.308171
0.622980 0.628016 0.321782
0.678767 0.648157 0.331426
0.726101 0.652399 0.328862
0.771542 0.654597 0.327947
0.815122 0.655238 0.329107
0.855863 0.654322 0.332464
0.893858 0.651881 0.337194
0.929076 0.648371 0.343359
0.961975 0.644068 0.351263
0.992218 0.639673 0.359319
1.000000 0.636103 0.363989
1.000000 0.632990 0.369604
1.000000 0.630854 0.377630
1.000000 0.629358 0.388312
1.000000 0.629084 0.401556
0.184390 0.498878 0.266667
0.185885 0.498604 0.266575
0.190585 0.497902 0.266636
0.199100 0.496773 0.267185
0.211582 0.494636 0.267704
0.227543 0.492134 0.268650
0.246006 0.489265 0.270329
0.266423 0.485878 0.272374
0.287541 0.482033 0.274846
0.308751 0.486336 0.278691
0.332647 0.499825 0.284154
0.359716 0.515221 0.290593
0.390845 0.532525 0.297734
0.425544 0.551202 0.306035
0.463813 0.571252 0.315007
0.505486 0.592248 0.324346
0.550439 0.614191 0.334447
0.599420 0.637476 0.345617
0.659876 0.669795 0.361242
0.714961 0.692500 0.378607
0.759945 0.695918 0.377356
0.803128 0.697475 0.377966
0.843534 0.697261 0.380682
0.881376 0.695460 0.385534
0.916625 0.692592 0.391089
0.949310 0.689082 0.399176
0.980102 0.685084 0.407813
1.000000 0.680903 0.418280
1.000000 0.677333 0.428107
1.000000 0.674952 0.435706
1.000000 0.673396 0.446204
1.000000 0.672938 0.459052
0.198856 0.536889 0.291142
0.200076 0.536919 0.291264
0.214389 0.557641 0.306737
0.222507 0.556420 0.307012
0.234775 0.554498 0.307622
0.250340 0.551720 0.308110
0.268528 0.548394 0.308995
0.289036 0.544274 0.310338
0.310216 0.540124 0.312383
0.332403 0.535668 0.315068
0.355474 0.548913 0.321569
0.381994 0.563836 0.329320
0.411688 0.580102 0.337591
0.444556 0.597589 0.346838
0.480659 0.616083 0.356542
0.519707 0.635370 0.367041
0.561486 0.655238 0.377935
0.605859 0.675227 0.389380
0.652277 0.695338 0.402350
0.706508 0.721187 0.418860
0.760433 0.745388 0.442664
0.801114 0.746181 0.442237
0.839353 0.745144 0.443336
0.875212 0.742702 0.446143
0.908568 0.738888 0.450019
0.939849 0.734554 0.454780
0.969238 0.729732 0.461097
0.997101 0.725032 0.469154
1.000000 0.720851 0.479835
1.000000 0.717342 0.492439
1.000000 0.715267 0.504143
1.000000 0.714534 0.516045
0.218326 0.580713 0.321965
0.220310 0.582635 0.323705
0.225376 0.584161 0.325231
0.233860 0.585016 0.327123
0.245823 0.584771 0.328679
0.260685 0.582666 0.329168
0.278111 0.579797 0.330388
0.297063 0.575891 0.331243
0.317754 0.571649 0.332738
0.338994 0.566949 0.334844
0.361151 0.570520 0.339239
0.385809 0.584558 0.347082
0.413367 0.599847 0.355901
0.444129 0.616449 0.365087
0.477790 0.634119 0.375311
0.514458 0.652857 0.386084
0.553674 0.671809 0.397833
0.595209 0.691188 0.410437
0.638972 0.710689 0.424506
0.684382 0.730282 0.440009
0.734676 0.752895 0.458412
0.788876 0.780087 0.490303
0.826627 0.779965 0.491676
0.861936 0.778347 0.493996
0.894896 0.775357 0.497047
0.925933 0.771481 0.501183
0.955077 0.767269 0.507012
0.982757 0.762997 0.514855
1.000000 0.759152 0.524498
1.000000 0.755947 0.536858
1.000000 0.753689 0.551720
1.000000 0.752316 0.569055
0.234531 0.613947 0.345892
0.236362 0.616083 0.347875
0.241306 0.617700 0.349432
0.248997 0.618921 0.351720
0.259892 0.618860 0.353307
0.273960 0.617273 0.354345
0.290410 0.614343 0.354650
0.308507 0.610895 0.355688
0.328252 0.606683 0.356817
0.348943 0.602075 0.358312
0.370397 0.596796 0.359930
0.393408 0.609339 0.367590
0.419654 0.624018 0.376410
0.448676 0.639857 0.386023
0.480659 0.656886 0.396857
0.514916 0.674403 0.408057
0.551568 0.692195 0.420478
0.590326 0.710262 0.433539
0.630976 0.728359 0.447913
0.673457 0.746670 0.463569
0.716732 0.764675 0.480507
0.762203 0.783291 0.500008
0.814023 0.808896 0.534142
0.849638 0.810788 0.541650
0.882078 0.808591 0.544579
0.912596 0.805356 0.548547
0.941497 0.801694 0.553368
0.968933 0.797879 0.560235
0.994995 0.794522 0.569818
1.000000 0.791745 0.581628
1.000000 0.789822 0.596094
1.000000 0.788724 0.613092
0.252598 0.649958 0.372503
0.254612 0.651820 0.374029
0.259312 0.653315 0.375769
0.266606 0.654322 0.377600
0.276707 0.654353 0.379248
0.289464 0.652857 0.380072
0.304601 0.650355 0.380591
0.322087 0.646967 0.381140
0.341222 0.643122 0.382208
0.361059 0.638697 0.383368
0.381720 0.633875 0.384802
0.403754 0.636469 0.389380
0.428534 0.650355 0.398352
0.456184 0.665400 0.408453
0.486091 0.681178 0.419409
0.518578 0.697688 0.431373
0.553643 0.714900 0.444923
0.590814 0.732509 0.459327
0.629908 0.750454 0.475502
0.670588 0.768521 0.493202
0.712245 0.786160 0.512932
0.754116 0.802914 0.533898
0.795377 0.818448 0.555474
0.843809 0.841611 0.592828
0.876799 0.845609 0.608209
0.906554 0.843473 0.612787
0.934539 0.840696 0.618585
0.961120 0.837736 0.626276
0.986389 0.835142 0.635889
1.000000 0.832975 0.647913
1.000000 0.831632 0.662348
1.000000 0.831113 0.679316
0.282658 0.699886 0.412909
0.284215 0.700710 0.413977
0.287144 0.700923 0.414649
0.293370 0.700465 0.415045
0.301854 0.699275 0.415442
0.313390 0.697139 0.415381
0.326818 0.694545 0.415534
0.342931 0.691341 0.415625
0.360998 0.687739 0.416236
0.380591 0.683833 0.417273
0.401007 0.679500 0.418677
0.421912 0.674434 0.419928
0.445472 0.685634 0.428626
0.471656 0.699306 0.439094
0.500084 0.713558 0.450294
0.530755 0.728389 0.462409
0.563195 0.743526 0.475807
0.597650 0.759030 0.490425
0.633600 0.774624 0.506035
0.670649 0.790005 0.522942
0.708064 0.804807 0.541436
0.746029 0.819089 0.560815
0.783597 0.832486 0.581323
0.820523 0.844999 0.602289
0.864286 0.864530 0.637049
0.894591 0.869780 0.657771
0.921996 0.867979 0.663691
0.948150 0.865843 0.671107
0.973053 0.863859 0.680323
0.996582 0.862303 0.691585
1.000000 0.861234 0.704860
1.000000 0.860868 0.720089
0.308476 0.736782 0.445075
0.309758 0.737423 0.445930
0.312535 0.737728 0.446601
0.318059 0.737362 0.447211
0.325902 0.736324 0.447272
0.336004 0.734676 0.447333
0.348852 0.732387 0.447578
0.363775 0.729549 0.447517
0.380591 0.726619 0.448157
0.399298 0.723171 0.449165
0.418952 0.719356 0.450324
0.439246 0.715114 0.451637
0.461036 0.716670 0.456001
0.486030 0.729091 0.466560
0.513054 0.742153 0.478218
0.541833 0.755642 0.490852
0.572747 0.769558 0.504723
0.605066 0.783536 0.519493
0.638514 0.797330 0.535729
0.672877 0.810910 0.553002
0.707637 0.824094 0.571496
0.742794 0.836790 0.591180
0.777676 0.848875 0.611353
0.812070 0.860197 0.632288
0.841367 0.866697 0.643946
0.881498 0.883696 0.676692
0.909758 0.890410 0.702388
0.935454 0.889128 0.709163
0.959991 0.887816 0.717739
0.983429 0.886748 0.727932
1.000000 0.886229 0.740444
1.000000 0.886351 0.754513
0.345922 0.780941 0.489296
0.347662 0.781949 0.490547
0.350347 0.782162 0.491218
0.354345 0.781430 0.491096
0.360449 0.779751 0.490272
0.368597 0.777371 0.489204
0.378759 0.774472 0.488045
0.391333 0.770993 0.486854
0.406104 0.767178 0.486030
0.422339 0.763363 0.485695
0.440070 0.758907 0.485176
0.459083 0.754360 0.485481
0.478431 0.749325 0.485725
0.500999 0.757290 0.494057
0.525292 0.767819 0.504204
0.551598 0.778927 0.515618
0.579553 0.790372 0.528222
0.609277 0.802213 0.542229
0.640253 0.814328 0.557977
0.672419 0.826596 0.575250
0.705074 0.838651 0.593744
0.737942 0.850126 0.613123
0.770291 0.860868 0.632563
0.801907 0.870787 0.651911
0.832761 0.879850 0.671046
0.862699 0.888212 0.689815
0.899382 0.902678 0.717983
0.925261 0.910002 0.745266
0.949126 0.909056 0.752041
0.972076 0.908354 0.760678
0.993957 0.908110 0.771359
1.000000 0.908507 0.784085
0.377050 0.812497 0.524193
0.378882 0.813382 0.525444
0.381445 0.813809 0.526513
0.385473 0.813443 0.526818
0.391150 0.812528 0.526604
0.398840 0.811215 0.526513
0.408728 0.809506 0.526207
0.421180 0.807431 0.526177
0.435126 0.805234 0.526360
0.450904 0.802731 0.526970
0.468238 0.799771 0.527520
0.486397 0.796536 0.528496
0.505303 0.792660 0.529076
0.525383 0.792599 0.532738
0.548089 0.801328 0.542962
0.572320 0.810300 0.554070
0.597955 0.819547 0.566308
0.624872 0.829160 0.579736
0.653254 0.839200 0.594934
0.682612 0.849393 0.611536
0.712612 0.859556 0.629511
0.742794 0.869383 0.648249
0.772671 0.878691 0.667201
0.802090 0.887449 0.686183
0.830655 0.895506 0.704311
0.858488 0.903044 0.721767
0.885618 0.910063 0.738491
0.918059 0.921782 0.762234
0.943236 0.930449 0.789853
0.965393 0.930297 0.797299
0.986542 0.930449 0.806424
1.000000 0.930541 0.816068
0.421515 0.847959 0.572107
0.422675 0.848386 0.573053
0.424414 0.848417 0.573358
0.427741 0.848020 0.573358
0.432441 0.847196 0.573205
0.438849 0.846006 0.572778
0.447364 0.844511 0.572412
0.457649 0.842771 0.572320
0.469947 0.840848 0.572381
0.484047 0.838773 0.572961
0.499672 0.836362 0.573510
0.516564 0.833738 0.574273
0.534173 0.830838 0.575219
0.552453 0.827329 0.576074
0.572961 0.832181 0.584100
0.594934 0.839322 0.594629
0.618189 0.846738 0.606226
0.642725 0.854520 0.619074
0.668635 0.862699 0.633326
0.695399 0.871122 0.649317
0.722835 0.879576 0.666133
0.750393 0.887785 0.683680
0.777707 0.895567 0.700923
0.804532 0.902953 0.717556
0.830747 0.909789 0.733547
0.856291 0.916228 0.748562
0.881285 0.922271 0.763272
0.905638 0.928008 0.776974
0.934356 0.937407 0.796353
0.959014 0.946136 0.820890
0.979217 0.947143 0.829953
0.998444 0.947356 0.838010
0.469001 0.878813 0.622126
0.469886 0.879149 0.622858
0.471809 0.879240 0.623346
0.474800 0.879088 0.623804
0.479347 0.878843 0.624506
0.485847 0.878508 0.625299
0.495155 0.878447 0.627466
0.506279 0.878447 0.630213
0.519646 0.878538 0.633722
0.534752 0.878660 0.637934
0.551263 0.878721 0.642512
0.568872 0.878447 0.647120
0.587091 0.877806 0.651545
0.605432 0.876616 0.655512
0.624170 0.876982 0.660914
0.644129 0.882414 0.671778
0.664698 0.887816 0.682795
0.686305 0.893400 0.694514
0.708919 0.899290 0.707210
0.732174 0.905394 0.720638
0.755917 0.911559 0.734524
0.779721 0.917601 0.748287
0.803281 0.923308 0.761501
0.826444 0.928740 0.774197
0.849058 0.933867 0.786069
0.871214 0.938689 0.797299
0.892851 0.943267 0.808194
0.914000 0.947539 0.818296
0.934356 0.951446 0.827481
0.957794 0.957855 0.840208
0.979767 0.964996 0.858122
0.997070 0.966613 0.867796
0.550134 0.917845 0.703853
0.550439 0.917845 0.703853
0.551232 0.917662 0.703883
0.553033 0.917327 0.703700
0.555932 0.916808 0.703456
0.560235 0.916228 0.703578
0.566125 0.915526 0.703914
0.573693 0.914824 0.704738
0.583062 0.914122 0.706020
0.593988 0.913359 0.707912
0.606409 0.912535 0.710140
0.619928 0.911620 0.712673
0.634546 0.910521 0.715450
0.649714 0.909239 0.718227
