20 Preset/Travel Style/【3】LUT video cho PR-AE-FCPX/Green Moody - Lut (30).cube
# Created by Adobe Lightroom plugin Export LUT (1.24.0)
# www.johnrellis.com/lightroom/exportlut.htm
# Preset: 30自然风光-素材江湖
# Color profile: E:\lut插件\exportlut.1.24\exportlut.lrplugin\color profiles\Rec709gamma2.4.icc
LUT_3D_SIZE 5
DOMAIN_MIN 0.000000 0.000000 0.000000
DOMAIN_MAX 0.903226 0.903226 0.903226
0.174472 0.146487 0.133364
0.205417 0.148043 0.134829
0.400641 0.141054 0.135103
0.732906 0.144106 0.147463
1.000000 0.303258 0.246250
0.203708 0.187594 0.130404
0.222477 0.180575 0.133700
0.427771 0.226383 0.130220
0.762264 0.285466 0.149874
1.000000 0.401587 0.271550
0.350134 0.438056 0.000000
0.414069 0.434455 0.000000
0.470985 0.411170 0.106783
0.777340 0.551324 0.190036
1.000000 0.640070 0.386938
0.580468 0.765286 0.000000
0.628382 0.764309 0.000000
0.734035 0.757565 0.000000
0.775296 0.717464 0.192813
0.940490 0.778805 0.485817
0.784634 0.939544 0.318425
0.808743 0.938323 0.320806
0.894804 0.929168 0.303258
0.951202 0.926085 0.432898
0.970947 0.902892 0.594812
0.186343 0.151339 0.156466
0.217441 0.148226 0.158328
0.401617 0.121675 0.171542
0.693996 0.149020 0.233127
0.981415 0.303685 0.331579
0.182589 0.188083 0.169986
0.222965 0.192294 0.175051
0.406592 0.217197 0.197574
0.721950 0.271733 0.246220
0.985260 0.394995 0.353521
0.284276 0.430640 0.162264
0.362127 0.429847 0.160006
0.454047 0.405646 0.199252
0.766842 0.556115 0.307164
0.984527 0.644068 0.480385
0.537255 0.764462 0.128542
0.590356 0.764157 0.130434
0.724880 0.758450 0.166171
0.767788 0.719966 0.304204
0.932830 0.788785 0.568597
0.763668 0.940032 0.420691
0.788235 0.938689 0.421668
0.881376 0.934081 0.431189
0.945708 0.929198 0.518853
0.966369 0.907622 0.652399
0.250980 0.179568 0.333684
0.303685 0.177707 0.341283
0.446998 0.155062 0.345586
0.790249 0.000000 0.360052
0.990417 0.231357 0.468727
0.248173 0.253056 0.362585
0.299077 0.249729 0.366186
0.450355 0.232120 0.369055
0.773068 0.156771 0.390906
0.973114 0.361730 0.518456
0.111452 0.431495 0.428382
0.217685 0.435126 0.433417
0.426001 0.450446 0.455726
0.711421 0.531548 0.546075
0.930144 0.643275 0.673274
0.020020 0.768643 0.461646
0.334630 0.763272 0.496284
0.619715 0.760433 0.527214
0.733547 0.736141 0.575952
0.911620 0.828397 0.778683
0.668513 0.940673 0.658381
0.697353 0.939940 0.660456
0.800992 0.936217 0.666529
0.913848 0.929961 0.693874
0.942351 0.911589 0.765316
0.356573 0.290867 0.698817
0.411292 0.289952 0.703639
0.585779 0.277287 0.720424
0.768582 0.244144 0.707759
1.000000 0.204105 0.689754
0.347265 0.365393 0.714900
0.401343 0.363470 0.718074
0.574304 0.350652 0.729335
0.758999 0.324651 0.714839
0.995422 0.319371 0.702815
0.295018 0.566705 0.740536
0.349615 0.565209 0.747311
0.520592 0.559075 0.763394
0.727901 0.545220 0.759396
0.972412 0.577234 0.765408
0.000000 0.753719 0.801968
0.144747 0.753017 0.801907
0.438087 0.755917 0.807645
0.669642 0.762051 0.818997
0.886625 0.826139 0.878843
0.382147 0.949950 0.812467
0.431708 0.949432 0.813138
0.616999 0.945800 0.835233
0.839536 0.937682 0.864164
0.917266 0.922911 0.882322
0.610101 0.582574 0.949157
0.635950 0.583093 0.949371
0.730617 0.583612 0.950317
0.876921 0.580468 0.952270
0.982055 0.570703 0.932555
0.612085 0.629633 0.948577
0.635981 0.629297 0.948791
0.725124 0.627222 0.949828
0.866789 0.621180 0.951873
0.973571 0.609827 0.934295
0.616663 0.748318 0.948058
0.635340 0.747311 0.948302
0.708156 0.743038 0.949432
0.833494 0.733211 0.951690
0.947295 0.719326 0.940856
0.625757 0.850675 0.949004
0.642542 0.852079 0.949065
0.702693 0.856565 0.949828
0.796414 0.846647 0.955444
0.920104 0.836271 0.952575
0.583429 0.941436 0.961700
0.602228 0.941344 0.961913
0.671687 0.941100 0.962829
0.779141 0.941253 0.964813
0.903563 0.941741 0.967712
