20 Preset/Travel Style/【3】LUT video cho PR-AE-FCPX/Green Moody - Lut (13).cube
# Created by Adobe Lightroom plugin Export LUT (1.24.0)
# www.johnrellis.com/lightroom/exportlut.htm
# Preset: 13自然风光-暗黑冰岛-素材江湖
# Color profile: E:\lut插件\exportlut.1.24\exportlut.lrplugin\color profiles\Rec709gamma2.4.icc
LUT_3D_SIZE 5
DOMAIN_MIN 0.000000 0.000000 0.000000
DOMAIN_MAX 0.903226 0.903226 0.903226
0.170077 0.212589 0.214298
0.168002 0.212650 0.214328
0.222080 0.213779 0.212345
0.625635 0.257115 0.193393
1.000000 0.395911 0.286503
0.170413 0.211795 0.214420
0.169986 0.212345 0.214359
0.201450 0.221805 0.218692
0.616663 0.315068 0.227787
0.979706 0.479713 0.378851
0.000000 0.432349 0.154543
0.000000 0.441901 0.149874
0.369268 0.518517 0.094301
0.648035 0.555291 0.443671
0.838621 0.738155 0.712093
0.000000 0.862730 0.000000
0.000000 0.859525 0.000000
0.300664 0.863157 0.104616
0.693355 0.886564 0.406622
0.923186 0.891325 0.762325
0.139895 0.991241 0.546746
0.315312 0.988678 0.562829
0.598169 0.979858 0.641810
0.740383 0.972137 0.699641
0.855406 0.964446 0.761013
0.170199 0.212497 0.213443
0.170016 0.212589 0.214450
0.281559 0.200259 0.214450
0.785397 0.205417 0.207004
1.000000 0.402441 0.351629
0.166720 0.213199 0.215671
0.171817 0.214420 0.216190
0.308721 0.232273 0.224460
0.758450 0.322301 0.254643
1.000000 0.509575 0.449744
0.000000 0.485939 0.223026
0.000000 0.489662 0.174624
0.421302 0.567254 0.202121
0.652186 0.601007 0.568109
0.873686 0.753475 0.725673
0.000000 0.870939 0.161593
0.000000 0.866728 0.198581
0.369421 0.862913 0.328191
0.729305 0.886717 0.540063
0.919341 0.891386 0.797299
0.328557 0.988464 0.609827
0.414038 0.986114 0.623041
0.610956 0.977142 0.667781
0.757443 0.969574 0.727840
0.864317 0.962707 0.784787
0.000000 0.225345 0.409033
0.000000 0.211185 0.425788
0.347112 0.166049 0.454627
0.672633 0.300816 0.428412
1.000000 0.408179 0.527886
0.000000 0.276585 0.415381
0.000000 0.255039 0.437415
0.370184 0.190463 0.477150
0.744503 0.345556 0.464454
1.000000 0.480079 0.558526
0.000000 0.467506 0.522148
0.000000 0.477333 0.526055
0.502159 0.515953 0.523766
0.814023 0.625696 0.617334
0.968688 0.745541 0.732143
0.000000 0.873991 0.676387
0.270054 0.871305 0.683619
0.560418 0.863462 0.657740
0.812924 0.884459 0.762692
0.904997 0.894408 0.874174
0.601099 0.979034 0.779110
0.614405 0.978363 0.775357
0.701564 0.972961 0.784970
0.822385 0.964569 0.824063
0.897856 0.959625 0.864073
0.000000 0.371435 0.834958
0.000000 0.335454 0.838682
0.000000 0.250797 0.855955
0.686519 0.000000 0.862486
0.961730 0.634211 0.797971
0.000000 0.490547 0.834592
0.000000 0.463294 0.840574
0.141146 0.362829 0.860044
0.702510 0.234531 0.868162
0.951415 0.691676 0.810727
0.644678 0.733822 0.824155
0.655329 0.737575 0.830503
0.649042 0.710780 0.849607
0.774502 0.636378 0.863676
0.920165 0.816678 0.846891
0.529046 0.821164 0.867308
0.579797 0.826871 0.868132
0.710323 0.841642 0.867063
0.845487 0.856840 0.860502
0.944457 0.895598 0.893523
0.633753 0.978759 0.900511
0.673976 0.976379 0.900877
0.788022 0.968170 0.903868
0.870054 0.961517 0.903410
0.927459 0.956847 0.928588
0.670649 0.764279 0.965240
0.663935 0.755825 0.966949
0.640040 0.717739 0.973510
0.606897 0.609552 0.987182
0.853239 0.590936 0.987152
0.722225 0.800839 0.961913
0.716274 0.793668 0.963470
0.693568 0.760708 0.969818
0.667872 0.676997 0.982238
0.864652 0.650599 0.983551
0.832090 0.882475 0.953246
0.829404 0.879362 0.954467
0.815488 0.862089 0.959533
0.797910 0.820005 0.969207
0.894835 0.785672 0.973480
0.875120 0.921080 0.951019
0.881102 0.923247 0.950835
0.899351 0.929992 0.950683
0.897276 0.922667 0.957580
0.925536 0.900664 0.963317
0.826566 0.941070 0.959289
0.836240 0.942260 0.959045
0.868986 0.946349 0.958251
0.914275 0.952544 0.957275
0.941772 0.957000 0.957214
