20 Preset/Travel Style/【3】LUT video cho PR-AE-FCPX/Green Moody - Lut (27).cube
# Created by Adobe Lightroom plugin Export LUT (1.24.0)
# www.johnrellis.com/lightroom/exportlut.htm
# Preset: 27自然风光-素材江湖
# Color profile: E:\lut插件\exportlut.1.24\exportlut.lrplugin\color profiles\Rec709gamma2.4.icc
LUT_3D_SIZE 5
DOMAIN_MIN 0.000000 0.000000 0.000000
DOMAIN_MAX 0.903226 0.903226 0.903226
0.167788 0.146731 0.134981
0.222599 0.153597 0.139284
0.355749 0.155154 0.136843
0.582696 0.163241 0.121218
0.878477 0.248234 0.000000
0.172366 0.197665 0.140658
0.219272 0.196689 0.138979
0.356420 0.202945 0.131441
0.593652 0.231296 0.097444
0.884520 0.321996 0.000000
0.089174 0.352911 0.133150
0.186069 0.352972 0.130098
0.365759 0.365332 0.112398
0.616602 0.416938 0.000000
0.882506 0.501823 0.000000
0.000000 0.669581 0.000000
0.000000 0.670588 0.000000
0.361761 0.673793 0.000000
0.645930 0.676692 0.000000
0.889952 0.710536 0.000000
0.000000 0.910613 0.289433
0.000000 0.909697 0.284581
0.366094 0.901854 0.235538
0.665217 0.899809 0.176425
0.885618 0.894530 0.000000
0.187991 0.162722 0.173617
0.228611 0.159457 0.175845
0.337011 0.174746 0.171389
0.553216 0.186007 0.163241
0.855100 0.255039 0.076448
0.190738 0.198856 0.177798
0.229160 0.202487 0.178561
0.340795 0.211063 0.175509
0.559625 0.231632 0.161196
0.858366 0.311925 0.016907
0.122713 0.346777 0.184207
0.196719 0.346349 0.180911
0.357153 0.350469 0.174624
0.589258 0.395575 0.139925
0.871977 0.488930 0.000000
0.000000 0.662776 0.154849
0.000000 0.664454 0.150668
0.354650 0.667567 0.123323
0.639826 0.670100 0.000000
0.885496 0.705531 0.000000
0.000000 0.908904 0.388739
0.000000 0.907836 0.384710
0.371466 0.904967 0.371649
0.664973 0.901457 0.336339
0.884642 0.896391 0.274022
0.214298 0.192081 0.293309
0.245853 0.192264 0.304173
0.380468 0.181308 0.324529
0.597711 0.160525 0.324285
0.832853 0.194156 0.307317
0.232883 0.231907 0.287480
0.255222 0.232303 0.298253
0.377844 0.225162 0.325536
0.584070 0.223026 0.320958
0.839048 0.266758 0.314946
0.167697 0.347814 0.341527
0.220127 0.349950 0.341161
0.380865 0.378241 0.364355
0.579095 0.390112 0.345434
0.854643 0.456855 0.333196
0.000000 0.661189 0.465766
0.000000 0.656886 0.451270
0.291661 0.656184 0.424964
0.623865 0.660975 0.423926
0.867124 0.690303 0.407507
0.000000 0.905028 0.590845
0.000000 0.902800 0.600366
0.359106 0.898589 0.611749
0.651209 0.895659 0.602930
0.864469 0.891630 0.579461
0.176364 0.245426 0.579828
0.227207 0.244877 0.594324
0.401587 0.230808 0.646632
0.649989 0.180911 0.675288
0.901396 0.187594 0.690639
0.194217 0.282414 0.567773
0.234928 0.282109 0.580407
0.392828 0.275120 0.633661
0.640864 0.245212 0.669215
0.890105 0.265599 0.682612
0.224308 0.367864 0.513207
0.252201 0.372656 0.522515
0.362524 0.398596 0.597650
0.610010 0.404395 0.655909
0.859312 0.454597 0.669612
0.000000 0.624414 0.690944
0.000000 0.623835 0.689052
0.243870 0.631037 0.691371
0.614130 0.673304 0.722927
0.832578 0.679164 0.700343
0.000000 0.909026 0.793454
0.000000 0.907622 0.791775
0.237186 0.902251 0.788663
0.657557 0.891447 0.802365
0.849699 0.889342 0.798856
0.267674 0.352300 0.856474
0.318303 0.350378 0.858732
0.477546 0.346441 0.872648
0.690974 0.334630 0.895811
0.898100 0.341253 0.899840
0.248295 0.378668 0.846036
0.301549 0.377844 0.849241
0.461799 0.375494 0.863676
0.676875 0.369146 0.888365
0.888792 0.379553 0.895323
0.160189 0.471534 0.824979
0.234165 0.472236 0.827787
0.411261 0.477180 0.843320
0.635828 0.489479 0.871946
0.868528 0.522301 0.891752
0.000000 0.620447 0.830198
0.000000 0.615167 0.825559
0.320592 0.604150 0.812375
0.593561 0.660212 0.860014
0.851896 0.724392 0.901213
0.000000 0.856016 0.905211
0.000000 0.855314 0.904326
0.320195 0.856931 0.903990
0.610437 0.859464 0.901976
0.840177 0.879240 0.910643
