20 Preset/Travel Style/【3】LUT video cho PR-AE-FCPX/Green Moody - Lut (28).cube
# Created by Adobe Lightroom plugin Export LUT (1.24.0)
# www.johnrellis.com/lightroom/exportlut.htm
# Preset: 28自然风光-素材江湖
# Color profile: E:\lut插件\exportlut.1.24\exportlut.lrplugin\color profiles\Rec709gamma2.4.icc
LUT_3D_SIZE 5
DOMAIN_MIN 0.000000 0.000000 0.000000
DOMAIN_MAX 0.903226 0.903226 0.903226
0.171756 0.172671 0.145571
0.223362 0.174289 0.151614
0.549584 0.182040 0.150423
0.943755 0.298558 0.202640
1.000000 0.471046 0.405035
0.176242 0.200961 0.144778
0.235660 0.215366 0.140169
0.445655 0.245365 0.142245
0.882017 0.355993 0.173892
1.000000 0.492653 0.390692
0.223514 0.390326 0.028260
0.309331 0.413519 0.000000
0.655756 0.545037 0.000000
0.745907 0.449042 0.000000
1.000000 0.542229 0.307378
0.351019 0.714351 0.000000
0.434241 0.729061 0.000000
0.686458 0.777951 0.000000
0.966339 0.790066 0.000000
1.000000 0.674678 0.000000
0.471351 0.936065 0.000000
0.524285 0.937987 0.000000
0.690150 0.939086 0.000000
0.920897 0.944091 0.000000
1.000000 0.883818 0.000000
0.181064 0.178500 0.191745
0.207980 0.180148 0.189517
0.483986 0.223941 0.221439
0.876371 0.340368 0.254582
1.000000 0.459266 0.358892
0.173312 0.204196 0.184817
0.214359 0.216007 0.187930
0.419989 0.265293 0.212406
0.830564 0.374640 0.240543
1.000000 0.478431 0.344366
0.165042 0.370611 0.185550
0.251072 0.375830 0.171328
0.551232 0.470253 0.101442
0.677272 0.424048 0.186221
1.000000 0.539025 0.287510
0.281407 0.697871 0.000000
0.377569 0.704189 0.000000
0.647944 0.759030 0.000000
0.945495 0.782620 0.000000
1.000000 0.678523 0.000000
0.447974 0.931792 0.000000
0.502861 0.932830 0.000000
0.680110 0.940337 0.000000
0.913634 0.945464 0.000000
1.000000 0.887755 0.000000
0.138125 0.190433 0.395850
0.219883 0.218173 0.392798
0.402869 0.248722 0.435798
0.799771 0.362493 0.529107
0.992615 0.747066 0.781613
0.138979 0.228367 0.378882
0.225223 0.250462 0.372503
0.403388 0.301732 0.427680
0.803830 0.466468 0.563836
0.986969 0.744259 0.770291
0.133974 0.380102 0.404669
0.226963 0.386816 0.403876
0.462379 0.475868 0.468635
0.754177 0.602258 0.585657
0.966094 0.712978 0.693629
0.141238 0.686091 0.518151
0.281682 0.686580 0.512291
0.521508 0.703792 0.482185
0.855375 0.775967 0.566491
0.955474 0.701869 0.531914
0.463478 0.915343 0.579370
0.502403 0.916503 0.572076
0.641627 0.920195 0.537774
0.868650 0.935698 0.567712
1.000000 0.906096 0.533135
0.000000 0.251011 0.705837
0.131044 0.279271 0.708217
0.422736 0.376440 0.726711
0.671534 0.450355 0.783230
0.932097 0.573114 0.782681
0.000000 0.286748 0.690578
0.150729 0.310185 0.691829
0.430488 0.413153 0.711666
0.668574 0.488624 0.772152
0.924468 0.603693 0.782254
0.000000 0.413519 0.693599
0.008698 0.418067 0.687068
0.422431 0.477150 0.679225
0.684504 0.614618 0.761624
0.923735 0.760922 0.835203
0.000000 0.637751 0.732296
0.231388 0.640894 0.728786
0.479957 0.667323 0.729397
0.741970 0.764614 0.787564
0.923217 0.861082 0.872282
0.446723 0.910307 0.824277
0.497536 0.909422 0.823362
0.649500 0.908507 0.823453
0.805661 0.914855 0.816220
0.971160 0.935088 0.868376
0.319493 0.480903 0.958404
0.393286 0.511284 0.956237
0.594476 0.625269 0.947723
0.745968 0.705409 0.946044
0.875822 0.763577 0.952697
0.339757 0.504479 0.956115
0.408118 0.532677 0.954070
0.598718 0.637415 0.946105
0.753384 0.722072 0.944060
0.878447 0.776974 0.951568
0.301488 0.556817 0.956664
0.392432 0.580835 0.953246
0.594629 0.665736 0.942901
0.774594 0.771420 0.938445
0.888182 0.819089 0.949004
0.402136 0.707515 0.956420
0.446204 0.713924 0.954833
0.578759 0.738094 0.948333
0.760800 0.798489 0.934874
0.904723 0.875090 0.947906
0.531914 0.870756 0.957153
0.562921 0.873838 0.956176
0.666041 0.885557 0.952331
0.796841 0.903502 0.945739
0.927276 0.937041 0.949889
