20 Preset/Travel Style/【3】LUT video cho PR-AE-FCPX/Green Moody - Lut (10).cube
# Created by Adobe Lightroom plugin Export LUT (1.24.0)
# www.johnrellis.com/lightroom/exportlut.htm
# Preset: 10自然风光-雾-素材江湖
# Color profile: E:\lut插件\exportlut.1.24\exportlut.lrplugin\color profiles\Rec709gamma2.4.icc
LUT_3D_SIZE 32
DOMAIN_MIN 0.0 0.0 0.0
DOMAIN_MAX 1.0 1.0 1.0
0.131228 0.125887 0.109529
0.131685 0.125826 0.109529
0.131960 0.126070 0.109468
0.133547 0.126131 0.109438
0.141451 0.126436 0.109499
0.170718 0.127047 0.108461
0.222812 0.125399 0.106325
0.290532 0.119051 0.103151
0.370703 0.103120 0.097688
0.458747 0.043549 0.088869
0.546563 0.000000 0.064179
0.631830 0.000000 0.023713
0.709895 0.000000 0.000000
0.777157 0.000000 0.000000
0.833494 0.000000 0.000000
0.880247 0.000000 0.000000
0.918730 0.012818 0.000000
0.951202 0.136599 0.000000
0.979553 0.186313 0.000000
1.000000 0.225559 0.000000
1.000000 0.275334 0.000000
1.000000 0.311711 0.000000
1.000000 0.339605 0.000000
1.000000 0.362280 0.000000
1.000000 0.381140 0.000000
1.000000 0.397131 0.000000
1.000000 0.411749 0.000000
1.000000 0.425025 0.000000
1.000000 0.438087 0.000000
1.000000 0.450813 0.000000
1.000000 0.463386 0.109590
1.000000 0.475990 0.159213
0.131075 0.126162 0.109468
0.131502 0.126131 0.109468
0.131807 0.126345 0.109438
0.133394 0.126406 0.109377
0.140902 0.126772 0.109438
0.168948 0.127871 0.108370
0.218723 0.127169 0.106264
0.283787 0.121889 0.103212
0.361181 0.109499 0.097902
0.446601 0.073610 0.089601
0.533257 0.000000 0.067506
0.618189 0.000000 0.028565
0.696742 0.000000 0.000000
0.765377 0.000000 0.000000
0.823026 0.000000 0.000000
0.871489 0.000000 0.000000
0.911345 0.002869 0.000000
0.944701 0.132601 0.000000
0.973816 0.182864 0.000000
0.999878 0.222568 0.000000
1.000000 0.270481 0.000000
1.000000 0.305669 0.000000
1.000000 0.332921 0.000000
1.000000 0.355383 0.000000
1.000000 0.373968 0.000000
1.000000 0.390051 0.000000
1.000000 0.404913 0.000000
1.000000 0.418799 0.000000
1.000000 0.431861 0.000000
1.000000 0.444800 0.000000
1.000000 0.457588 0.052308
1.000000 0.470466 0.135195
0.131136 0.126680 0.109712
0.130953 0.126955 0.109682
0.131868 0.126864 0.109682
0.133730 0.127169 0.109560
0.140963 0.128878 0.109102
0.169741 0.132296 0.107546
0.218387 0.133791 0.105409
0.282078 0.131411 0.101930
0.357763 0.122683 0.096010
0.442054 0.103548 0.086549
0.528038 0.038422 0.060792
0.611902 0.000000 0.020294
0.689937 0.000000 0.000000
0.758450 0.000000 0.000000
0.816281 0.000000 0.000000
0.865354 0.000000 0.000000
0.905791 0.097383 0.000000
0.940032 0.155276 0.000000
0.969482 0.197726 0.000000
0.996735 0.234989 0.000000
1.000000 0.279454 0.000000
1.000000 0.312291 0.000000
1.000000 0.338048 0.000000
1.000000 0.358709 0.000000
1.000000 0.376471 0.000000
1.000000 0.391791 0.000000
1.000000 0.405951 0.000000
1.000000 0.419440 0.000000
1.000000 0.432166 0.000000
1.000000 0.445167 0.000000
1.000000 0.457618 0.010712
1.000000 0.470100 0.122225
0.130800 0.129305 0.109590
0.130800 0.129305 0.109590
0.131899 0.129427 0.109865
0.133516 0.130251 0.109377
0.141787 0.133516 0.108583
0.172702 0.141726 0.106294
0.222324 0.147311 0.102754
0.285863 0.149172 0.098116
0.361303 0.146029 0.091066
0.444251 0.136294 0.075227
0.528405 0.117311 0.041413
0.610376 0.091066 0.000000
0.686915 0.032136 0.000000
0.753872 0.011200 0.000000
0.810910 0.058106 0.000000
0.858946 0.118898 0.000000
0.899229 0.157321 0.000000
0.933043 0.193545 0.000000
0.962432 0.226200 0.000000
0.991943 0.260441 0.000000
1.000000 0.296178 0.000000
1.000000 0.324224 0.000000
1.000000 0.346838 0.000000
1.000000 0.366827 0.000000
1.000000 0.384070 0.000000
1.000000 0.399115 0.000000
1.000000 0.413367 0.000000
1.000000 0.426673 0.000000
1.000000 0.439277 0.000000
1.000000 0.451301 0.000000
1.000000 0.462898 0.012970
1.000000 0.474128 0.120180
0.126284 0.142611 0.108583
0.127047 0.142763 0.108522
0.131380 0.141909 0.108919
0.135409 0.143252 0.108217
0.143526 0.145052 0.106935
0.167300 0.153902 0.104219
0.216770 0.166079 0.099092
0.287114 0.175113 0.091310
0.360906 0.177676 0.078584
0.441901 0.175723 0.049104
0.524102 0.169619 0.012329
0.604364 0.161410 0.000000
0.679927 0.155459 0.000000
0.746914 0.157931 0.000000
0.803861 0.171237 0.000000
0.852903 0.193637 0.000000
0.893828 0.218814 0.000000
0.928344 0.244724 0.000000
0.958068 0.270237 0.000000
0.990204 0.299748 0.000000
1.000000 0.328038 0.000000
1.000000 0.351141 0.000000
1.000000 0.369940 0.000000
1.000000 0.386694 0.000000
1.000000 0.402106 0.000000
1.000000 0.415259 0.000000
1.000000 0.427741 0.000000
1.000000 0.439338 0.000000
1.000000 0.450538 0.000000
1.000000 0.461280 0.000000
1.000000 0.471534 0.014313
1.000000 0.481727 0.121248
0.105562 0.180667 0.102327
0.108339 0.180667 0.102266
0.119661 0.179812 0.102998
0.133883 0.179477 0.102724
0.149172 0.180209 0.100587
0.170474 0.179660 0.098482
0.206363 0.186770 0.093935
0.273106 0.202914 0.080293
0.360204 0.216892 0.042451
0.452552 0.224521 0.000000
0.533196 0.225376 0.000000
0.611841 0.225315 0.000000
0.685237 0.227512 0.000000
0.749783 0.234531 0.000000
0.805325 0.248020 0.000000
0.853056 0.265568 0.000000
0.893065 0.285191 0.000000
0.927001 0.304662 0.000000
0.958007 0.325597 0.000000
0.991547 0.351507 0.000000
1.000000 0.372625 0.000000
1.000000 0.390143 0.000000
1.000000 0.446815 0.000000
1.000000 0.457954 0.000000
1.000000 0.467536 0.000000
1.000000 0.475776 0.000000
1.000000 0.483680 0.000000
1.000000 0.490913 0.104952
1.000000 0.498360 0.146822
1.000000 0.505455 0.178927
1.000000 0.512718 0.207858
1.000000 0.519768 0.234562
0.000000 0.260014 0.072847
0.000000 0.259617 0.074220
0.004700 0.258854 0.078767
0.122133 0.256382 0.084382
0.153750 0.254398 0.074678
0.190249 0.250858 0.059632
0.227970 0.244968 0.050752
0.276036 0.245304 0.032990
0.366522 0.268009 0.000000
0.470436 0.288060 0.000000
0.576379 0.305333 0.000000
0.661982 0.315923 0.000000
0.727871 0.323064 0.000000
0.784329 0.333410 0.000000
0.832547 0.345220 0.000000
0.873106 0.357671 0.000000
0.907927 0.370336 0.000000
0.938323 0.382208 0.000000
0.975067 0.404791 0.000000
1.000000 0.424445 0.000000
1.000000 0.440772 0.000000
1.000000 0.454994 0.000000
1.000000 0.467445 0.000000
1.000000 0.478584 0.000000
1.000000 0.487984 0.000000
1.000000 0.495491 0.000000
1.000000 0.501579 0.007324
1.000000 0.507073 0.108949
1.000000 0.512749 0.148836
1.000000 0.517998 0.178378
1.000000 0.523583 0.205600
1.000000 0.529351 0.230289
0.000000 0.334813 0.015930
0.000000 0.334234 0.017670
0.000000 0.333898 0.024598
0.047547 0.331304 0.045930
0.152132 0.327916 0.037354
0.197513 0.322606 0.007965
0.242924 0.314855 0.000000
0.287114 0.304601 0.000000
0.335210 0.298253 0.000000
0.430823 0.323400 0.000000
0.534600 0.347570 0.000000
0.635279 0.370703 0.000000
0.723781 0.394415 0.000000
0.780148 0.405310 0.000000
0.826444 0.414313 0.000000
0.865873 0.423133 0.000000
0.900084 0.430884 0.000000
0.938018 0.448157 0.000000
0.971435 0.461921 0.000000
1.000000 0.473274 0.000000
1.000000 0.483131 0.000000
1.000000 0.492439 0.000000
1.000000 0.501061 0.000000
1.000000 0.508843 0.000000
1.000000 0.515343 0.000000
1.000000 0.520195 0.000000
1.000000 0.524346 0.083833
1.000000 0.527764 0.129274
1.000000 0.531792 0.163424
1.000000 0.535515 0.190463
1.000000 0.539574 0.214572
1.000000 0.543755 0.237613
0.000000 0.417517 0.000000
0.000000 0.417060 0.000000
0.000000 0.416297 0.000000
0.000000 0.414527 0.000000
0.161685 0.410956 0.026184
0.212619 0.404395 0.000000
0.261967 0.395697 0.000000
0.309819 0.384680 0.000000
0.355657 0.371374 0.000000
0.403937 0.360601 0.000000
0.494972 0.382635 0.000000
0.595239 0.410620 0.000000
0.686519 0.437263 0.000000
0.762783 0.463325 0.000000
0.823819 0.484565 0.000000
0.863767 0.491646 0.000000
0.903899 0.503471 0.000000
0.937896 0.511528 0.000000
0.968566 0.517998 0.000000
0.996612 0.523186 0.000000
1.000000 0.528283 0.000000
1.000000 0.533379 0.000000
1.000000 0.537957 0.000000
1.000000 0.542596 0.000000
1.000000 0.546349 0.000000
1.000000 0.548730 0.085603
1.000000 0.550744 0.131136
1.000000 0.552544 0.163210
1.000000 0.554528 0.188296
1.000000 0.556725 0.210880
1.000000 0.559197 0.232517
1.000000 0.561822 0.252659
0.000000 0.500114 0.000000
0.000000 0.499184 0.000000
0.000000 0.497932 0.000000
0.000000 0.496162 0.000000
0.174929 0.492378 0.058473
0.241398 0.485847 0.014923
0.287755 0.476326 0.000000
0.334752 0.465248 0.000000
0.380499 0.451881 0.000000
0.424598 0.436103 0.000000
0.469368 0.421180 0.000000
0.550134 0.437629 0.000000
0.643091 0.467262 0.000000
0.725277 0.496651 0.000000
0.800534 0.530175 0.000000
0.860777 0.554681 0.000000
0.905180 0.567376 0.000000
0.937407 0.569726 0.000000
0.966705 0.571435 0.000000
0.993591 0.572717 0.000000
1.000000 0.573510 0.000000
1.000000 0.573968 0.000000
1.000000 0.574609 0.000000
1.000000 0.575158 0.000000
1.000000 0.575525 0.081025
1.000000 0.575555 0.129732
1.000000 0.575799 0.160525
1.000000 0.576013 0.184573
1.000000 0.576776 0.208194
1.000000 0.577935 0.229740
1.000000 0.579278 0.249790
1.000000 0.580987 0.270085
0.000000 0.569940 0.020844
0.000000 0.569574 0.030213
0.000000 0.569329 0.046632
0.000000 0.567926 0.088258
0.194583 0.565728 0.114778
0.291264 0.562036 0.123568
0.329717 0.554070 0.072175
0.371496 0.544579 0.000000
0.414008 0.533410 0.000000
0.457038 0.519127 0.000000
0.497139 0.502129 0.000000
0.544121 0.491493 0.000000
0.616938 0.504997 0.000000
0.703639 0.538933 0.000000
0.777523 0.568688 0.000000
0.837613 0.591241 0.000000
0.887785 0.606958 0.000000
0.931456 0.618006 0.000000
0.963043 0.619348 0.000000
0.988556 0.617121 0.000000
1.000000 0.614801 0.000000
1.000000 0.612696 0.000000
1.000000 0.611078 0.068574
1.000000 0.609430 0.127291
1.000000 0.607782 0.161044
1.000000 0.606256 0.185550
1.000000 0.604761 0.205234
1.000000 0.603479 0.224186
1.000000 0.602686 0.242924
1.000000 0.602472 0.261387
1.000000 0.602472 0.278325
1.000000 0.602869 0.295445
0.000000 0.638056 0.143923
0.000000 0.638117 0.144930
0.000000 0.637415 0.150973
0.105715 0.636530 0.161868
0.255894 0.634730 0.178561
0.355535 0.632166 0.200259
0.394354 0.626825 0.180972
0.429023 0.620630 0.143252
0.470588 0.615564 0.086641
0.512627 0.608270 0.000000
0.553826 0.598535 0.000000
0.591943 0.585199 0.000000
0.684688 0.621454 0.000000
0.734371 0.623377 0.000000
0.802274 0.648310 0.000000
0.857572 0.664881 0.000000
0.904936 0.675441 0.000000
0.946654 0.681849 0.000000
0.983032 0.685389 0.166079
1.000000 0.687190 0.235538
1.000000 0.681025 0.249912
1.000000 0.674952 0.262699
1.000000 0.669215 0.275700
1.000000 0.663935 0.288182
1.000000 0.659083 0.298283
1.000000 0.654200 0.307561
1.000000 0.649744 0.316472
1.000000 0.645533 0.323583
1.000000 0.641810 0.331243
1.000000 0.638819 0.339452
1.000000 0.636378 0.349096
1.000000 0.634668 0.359869
0.231632 0.728634 0.279942
0.239750 0.728359 0.280919
0.272679 0.727321 0.283726
0.327764 0.725673 0.290959
0.392645 0.723507 0.302495
0.461158 0.721126 0.319585
0.510826 0.717922 0.323522
0.534447 0.712795 0.296452
0.562493 0.707271 0.264408
0.594141 0.701350 0.224125
0.628382 0.695064 0.169619
0.663294 0.687404 0.044587
0.696559 0.677150 0.000000
0.725795 0.662989 0.000000
0.763394 0.658045 0.000000
0.823331 0.678584 0.000000
0.872984 0.691493 0.000000
0.916106 0.699306 0.000000
0.954253 0.703761 0.142061
0.987549 0.705898 0.216007
1.000000 0.706538 0.271244
1.000000 0.704982 0.311437
1.000000 0.698146 0.319432
1.000000 0.691890 0.328008
1.000000 0.685939 0.334813
1.000000 0.680232 0.341772
1.000000 0.674983 0.347997
1.000000 0.670130 0.354376
1.000000 0.665766 0.360815
1.000000 0.662074 0.368139
1.000000 0.658869 0.376806
1.000000 0.656275 0.385870
0.367315 0.776272 0.375036
0.369085 0.775753 0.374853
0.386755 0.774044 0.375616
0.415991 0.771969 0.379736
0.457557 0.769039 0.386847
0.507073 0.765652 0.397833
0.559350 0.762570 0.414008
0.578241 0.757839 0.393317
0.598718 0.752560 0.365332
0.623346 0.747250 0.333288
0.651209 0.741878 0.296391
0.681056 0.735683 0.251347
0.711147 0.727749 0.187839
0.739528 0.716976 0.023987
0.764157 0.702266 0.000000
0.788388 0.687831 0.000000
0.840726 0.703548 0.000000
0.885710 0.713527 0.000000
0.925780 0.719814 0.110262
0.961303 0.723079 0.197238
0.992340 0.724575 0.257206
1.000000 0.724971 0.308049
1.000000 0.724514 0.350896
1.000000 0.720760 0.374670
1.000000 0.714107 0.379736
1.000000 0.707668 0.384070
1.000000 0.701534 0.387976
1.000000 0.695857 0.391699
1.000000 0.690791 0.396643
1.000000 0.686336 0.402502
1.000000 0.682368 0.409094
1.000000 0.678981 0.416419
0.441444 0.810483 0.452918
0.443793 0.810147 0.453071
0.454536 0.808743 0.453437
0.473396 0.806577 0.455177
0.503258 0.803525 0.459358
0.539788 0.800107 0.466682
0.581353 0.797055 0.478828
0.610986 0.793484 0.477394
0.626337 0.788998 0.453925
0.645502 0.784573 0.427680
0.668360 0.779965 0.396796
0.693782 0.775113 0.362799
0.720455 0.768643 0.319982
0.746914 0.760128 0.264103
0.771878 0.748562 0.184482
0.793668 0.733181 0.000000
0.812924 0.716396 0.000000
0.856229 0.725307 0.000000
0.898131 0.733669 0.033356
0.935454 0.738613 0.179171
0.968658 0.741299 0.242832
0.998047 0.742550 0.295537
1.000000 0.742519 0.340764
1.000000 0.741848 0.381842
1.000000 0.740627 0.418616
1.000000 0.734920 0.428412
1.000000 0.728267 0.430396
1.000000 0.722164 0.434180
1.000000 0.716762 0.438392
1.000000 0.711940 0.443732
1.000000 0.707881 0.450752
1.000000 0.704372 0.458961
0.490303 0.836606 0.513909
0.492226 0.836637 0.514519
0.500877 0.835966 0.515740
0.516381 0.834745 0.518730
0.539513 0.833036 0.523125
0.569543 0.831052 0.531121
0.603876 0.829404 0.542473
0.641688 0.828153 0.557610
0.653925 0.824979 0.540673
0.668605 0.821317 0.519707
0.685969 0.816831 0.494575
0.705715 0.811429 0.463935
0.727443 0.804593 0.425788
0.750118 0.796017 0.379828
0.772915 0.785306 0.322545
0.794827 0.772091 0.248661
0.815091 0.756771 0.133974
0.832792 0.739956 0.000000
0.868833 0.743069 0.000000
0.908354 0.750607 0.148714
0.944152 0.755489 0.223453
0.976135 0.758328 0.282322
1.000000 0.759548 0.330755
1.000000 0.759609 0.374548
1.000000 0.758938 0.413550
1.000000 0.757809 0.448859
1.000000 0.756161 0.478401
1.000000 0.749508 0.480354
1.000000 0.743404 0.482918
1.000000 0.737789 0.485847
1.000000 0.732631 0.489967
1.000000 0.728115 0.495003
0.527367 0.858610 0.564233
0.529320 0.858488 0.564416
0.535973 0.858000 0.565637
0.547753 0.857206 0.568322
0.566644 0.856016 0.572656
0.590784 0.854643 0.579400
0.619654 0.853330 0.588830
0.651820 0.852171 0.601007
0.673182 0.850278 0.600946
0.683864 0.847105 0.583795
0.697200 0.843320 0.563348
0.712978 0.838804 0.538659
0.731014 0.833188 0.508598
0.750881 0.826078 0.471626
0.771969 0.817350 0.426642
0.793637 0.806485 0.371038
0.814817 0.793668 0.302861
0.835050 0.779171 0.214847
0.852506 0.763058 0.091463
0.882444 0.761196 0.110384
0.920226 0.768246 0.204318
0.954223 0.772793 0.266117
0.984375 0.775357 0.319158
1.000000 0.776364 0.365393
1.000000 0.776272 0.406775
1.000000 0.775570 0.444800
1.000000 0.774502 0.478706
1.000000 0.773220 0.508507
1.000000 0.770047 0.526604
1.000000 0.763973 0.528801
1.000000 0.758236 0.530816
1.000000 0.753017 0.534020
0.564721 0.880125 0.613886
0.566827 0.880308 0.614893
0.605707 0.898222 0.660151
0.614374 0.897642 0.662104
0.627588 0.896757 0.665339
0.644800 0.895567 0.669703
0.666499 0.894224 0.675624
0.691585 0.892851 0.683589
0.718593 0.891691 0.693263
0.724971 0.889006 0.680720
0.733120 0.885893 0.665492
0.743313 0.882048 0.647242
0.755367 0.877012 0.623285
0.769711 0.870603 0.593835
0.786221 0.862638 0.557763
0.804807 0.852995 0.513512
0.824765 0.841337 0.459205
0.845365 0.828122 0.393378
0.865354 0.813230 0.316869
0.882444 0.796201 0.235477
0.906340 0.788785 0.219059
0.940581 0.793851 0.279637
0.971130 0.796689 0.331518
0.997864 0.797665 0.376471
1.000000 0.797147 0.416327
1.000000 0.795773 0.451423
1.000000 0.793881 0.482918
1.000000 0.791745 0.510948
1.000000 0.789914 0.537774
1.000000 0.788235 0.561700
1.000000 0.783536 0.570123
1.000000 0.777584 0.570886
0.607172 0.903319 0.667964
0.611078 0.904753 0.671687
0.617945 0.906035 0.676204
0.627649 0.906981 0.681086
0.640864 0.907317 0.686366
0.656611 0.906737 0.690974
0.675410 0.905730 0.696193
0.696712 0.904479 0.702480
0.721279 0.903227 0.710506
0.735927 0.901366 0.708705
0.742031 0.898711 0.696498
0.749752 0.895537 0.681880
0.759060 0.891417 0.663203
0.770169 0.886412 0.640131
0.783566 0.880125 0.611566
0.799252 0.872557 0.576776
0.816983 0.863676 0.535637
0.836606 0.853391 0.485695
0.857267 0.841825 0.427314
0.878202 0.828916 0.357397
0.896452 0.813748 0.285710
0.917388 0.803861 0.255314
0.950072 0.808652 0.311620
0.978943 0.811124 0.360357
1.000000 0.811643 0.402106
1.000000 0.810849 0.439582
1.000000 0.809323 0.473426
1.000000 0.807340 0.503502
1.000000 0.805417 0.531182
1.000000 0.803616 0.556909
1.000000 0.801877 0.580011
1.000000 0.800168 0.600702
0.628473 0.915343 0.693568
0.632227 0.916655 0.697078
0.638148 0.917967 0.701045
0.646998 0.918853 0.705684
0.658076 0.919280 0.710170
0.671656 0.918883 0.714260
0.687922 0.918029 0.718532
0.706813 0.916869 0.723781
0.728237 0.915679 0.730190
0.750546 0.914397 0.736873
0.754849 0.912200 0.726680
0.760494 0.909483 0.714504
0.767544 0.906249 0.699977
0.776181 0.902281 0.682429
0.786557 0.897429 0.660670
0.799039 0.891569 0.633783
0.813748 0.884550 0.601465
0.830777 0.876463 0.562493
0.849821 0.867155 0.517144
0.870451 0.856870 0.463508
0.891539 0.845335 0.400061
0.910796 0.831724 0.333623
0.928923 0.819120 0.289220
0.959838 0.823362 0.342077
0.986847 0.825193 0.387610
1.000000 0.825315 0.427619
1.000000 0.824277 0.463142
1.000000 0.822599 0.494728
1.000000 0.820737 0.524163
1.000000 0.818845 0.551141
1.000000 0.816983 0.576013
1.000000 0.815030 0.597864
0.649928 0.927153 0.718105
0.652705 0.928252 0.720790
0.658137 0.929198 0.724147
0.665522 0.929961 0.727871
0.675135 0.930205 0.731472
0.686793 0.929870 0.734829
0.700832 0.929137 0.738643
0.717220 0.928130 0.742916
0.736294 0.927062 0.748379
0.757137 0.925872 0.754757
0.768551 0.924376 0.752956
0.772763 0.922210 0.743252
0.778042 0.919585 0.731289
0.784604 0.916411 0.717311
0.792691 0.912688 0.700313
0.802609 0.908263 0.680232
0.814817 0.903288 0.656733
0.829374 0.897581 0.628595
0.846372 0.891264 0.595789
0.865751 0.884184 0.557336
0.887083 0.876249 0.512596
0.909575 0.867369 0.459449
0.930755 0.856077 0.400916
0.947814 0.842222 0.350530
0.976318 0.845548 0.400092
1.000000 0.846769 0.444251
1.000000 0.846433 0.481880
1.000000 0.845182 0.516320
1.000000 0.843534 0.547021
1.000000 0.841611 0.574578
1.000000 0.839567 0.599481
1.000000 0.837369 0.620996
0.685756 0.944060 0.755184
0.687190 0.944396 0.756313
0.690150 0.944518 0.757534
0.694820 0.944457 0.758938
0.701625 0.944060 0.760586
0.710628 0.943389 0.762539
0.721767 0.942535 0.765103
0.735622 0.941558 0.768429
0.751766 0.940551 0.772885
0.770169 0.939544 0.778439
0.788724 0.938476 0.783810
0.791653 0.936889 0.775784
0.795407 0.934874 0.766354
0.800076 0.932494 0.754910
0.805997 0.929595 0.741604
0.813352 0.926146 0.725948
0.822446 0.922179 0.707515
0.833585 0.917601 0.686000
0.846921 0.912413 0.660670
0.862699 0.906554 0.630365
0.880797 0.899931 0.594293
0.901030 0.892454 0.552239
0.922820 0.883909 0.501793
0.943908 0.873259 0.444923
0.960662 0.859586 0.395880
0.985473 0.859281 0.426703
1.000000 0.860044 0.468788
1.000000 0.859495 0.505730
1.000000 0.858213 0.538964
1.000000 0.856352 0.568292
1.000000 0.854154 0.594354
1.000000 0.851652 0.617151
0.704616 0.953033 0.773892
0.705715 0.953307 0.774655
0.708248 0.953429 0.775723
0.712642 0.953338 0.777066
0.718410 0.953033 0.778500
0.726223 0.952483 0.780362
0.736141 0.951751 0.782620
0.748104 0.950896 0.785611
0.762295 0.950011 0.789395
0.778592 0.949096 0.794278
0.796170 0.948119 0.799710
0.805478 0.946960 0.798428
0.808286 0.945464 0.790555
0.811948 0.943694 0.781369
0.816495 0.941588 0.770504
0.822293 0.939086 0.758114
0.829557 0.936187 0.743832
0.838437 0.932830 0.727138
0.849241 0.929015 0.707942
0.862119 0.924651 0.685451
0.877226 0.919768 0.659174
0.894804 0.914153 0.627344
0.914427 0.907836 0.589807
0.935973 0.900572 0.544762
0.954223 0.886992 0.476143
0.970794 0.873869 0.430457
0.993225 0.871092 0.445777
1.000000 0.871519 0.486488
1.000000 0.870817 0.522667
1.000000 0.869322 0.554589
1.000000 0.867338 0.583490
1.000000 0.864988 0.608576
0.730953 0.963775 0.798550
0.732662 0.964111 0.799771
0.734737 0.964202 0.800595
0.737575 0.963928 0.801175
0.741573 0.963378 0.801602
0.747311 0.962554 0.802213
0.754421 0.961578 0.803098
0.763668 0.960418 0.804501
0.774929 0.959228 0.806699
0.788174 0.957977 0.809781
0.802792 0.956664 0.813474
0.817990 0.955383 0.817411
0.819425 0.953948 0.809934
0.821469 0.952239 0.801175
0.824247 0.950225 0.791104
0.828061 0.947906 0.779477
0.833280 0.945281 0.766506
0.840146 0.942473 0.752193
0.848905 0.939483 0.736446
0.859739 0.936217 0.718654
0.872618 0.932586 0.698329
0.887449 0.928435 0.674189
0.904326 0.923400 0.644892
0.923156 0.917449 0.608881
0.943938 0.910369 0.564111
0.965637 0.901854 0.511467
0.981842 0.889128 0.467659
1.000000 0.883726 0.468086
1.000000 0.883330 0.505730
1.000000 0.882017 0.539147
1.000000 0.880186 0.569848
1.000000 0.878111 0.597711
0.742489 0.969390 0.809445
0.743954 0.969665 0.810513
0.746059 0.969787 0.811429
0.749020 0.969635 0.812284
0.752987 0.969329 0.813138
0.758541 0.968811 0.814267
0.765805 0.968231 0.815885
0.774899 0.967498 0.818051
0.785641 0.966705 0.820737
0.797940 0.965850 0.824125
0.811490 0.964904 0.827878
0.826017 0.963867 0.832242
0.833646 0.962799 0.830961
0.835172 0.961578 0.823819
0.837095 0.960082 0.815427
0.839811 0.958343 0.805875
0.843595 0.956329 0.794827
0.848661 0.954192 0.782834
0.855467 0.951904 0.769650
0.864042 0.949432 0.755215
0.874449 0.946715 0.738979
0.886687 0.943664 0.720424
0.900816 0.940063 0.698604
0.916930 0.935821 0.672480
0.935180 0.930816 0.640620
0.955596 0.924956 0.601099
0.977996 0.918242 0.553460
0.994354 0.906584 0.514519
1.000000 0.899657 0.504662
1.000000 0.898711 0.540612
1.000000 0.897032 0.572839
1.000000 0.894804 0.601129
0.759396 0.976135 0.824735
0.760281 0.976257 0.825315
0.761715 0.976226 0.825742
0.764004 0.976074 0.826291
0.767453 0.975738 0.826932
0.772122 0.975250 0.827817
0.778347 0.974670 0.829038
0.786130 0.973999 0.830808
0.795407 0.973236 0.833066
0.806149 0.972381 0.835843
0.818143 0.971466 0.839078
0.831235 0.970489 0.842802
0.844755 0.969421 0.846769
0.845853 0.968536 0.840787
0.847227 0.967437 0.833738
0.849180 0.966125 0.825498
0.852018 0.964599 0.816312
0.855924 0.962982 0.806088
0.861173 0.961242 0.794919
0.868009 0.959442 0.782712
0.876463 0.957427 0.769375
0.886503 0.955169 0.754238
0.898161 0.952453 0.736629
0.911681 0.949248 0.716091
0.927153 0.945434 0.691218
0.944701 0.940978 0.661585
0.964569 0.935912 0.625605
0.986755 0.930205 0.581781
1.000000 0.919890 0.545556
1.000000 0.912200 0.527672
1.000000 0.910857 0.562066
1.000000 0.908843 0.592432
0.771481 0.981262 0.835538
0.772152 0.981323 0.835966
0.773495 0.981353 0.836454
0.775753 0.981231 0.837125
0.779171 0.981048 0.838071
0.784024 0.980774 0.839506
0.790860 0.980560 0.841764
0.799191 0.980285 0.844602
0.809049 0.980011 0.848112
0.820127 0.979675 0.852049
0.832212 0.979248 0.856443
0.844846 0.978759 0.861021
0.857939 0.978119 0.865690
0.865537 0.977600 0.866239
0.867185 0.977142 0.861479
0.868894 0.976471 0.855589
0.871031 0.975616 0.848783
0.873869 0.974640 0.840879
0.877806 0.973632 0.832456
0.882811 0.972534 0.823056
0.889189 0.971283 0.812711
0.896818 0.969879 0.800992
0.905852 0.968170 0.787442
0.916503 0.966186 0.771908
0.928954 0.963775 0.753841
0.943389 0.960937 0.732662
0.960052 0.957671 0.708309
0.979095 0.953918 0.679103
1.000000 0.949737 0.644282
1.000000 0.940978 0.614527
1.000000 0.932738 0.591272
1.000000 0.930083 0.620356
0.796017 0.988128 0.856077
0.796170 0.988128 0.856107
0.796933 0.988037 0.856199
0.798337 0.987884 0.856443
0.800839 0.987610 0.856870
0.804440 0.987274 0.857603
0.809232 0.986877 0.858762
0.815213 0.986358 0.860197
0.822568 0.985809 0.862119
0.831052 0.985199 0.864469
0.840513 0.984497 0.867216
0.850797 0.983734 0.870237
0.861753 0.982879 0.873564
0.873106 0.981964 0.876951
