20 Preset/Travel Style/【3】LUT video cho PR-AE-FCPX/Green Moody - Lut (23).cube
# Created by Adobe Lightroom plugin Export LUT (1.24.0)
# www.johnrellis.com/lightroom/exportlut.htm
# Preset: 23自然风光-天空-素材江湖
# Color profile: E:\lut插件\exportlut.1.24\exportlut.lrplugin\color profiles\Rec709gamma2.4.icc
LUT_3D_SIZE 8
DOMAIN_MIN 0.000000 0.000000 0.000000
DOMAIN_MAX 0.903226 0.903226 0.903226
0.078523 0.125124 0.140078
0.110842 0.124147 0.140536
0.189029 0.131930 0.140902
0.298528 0.148043 0.141634
0.464363 0.169802 0.137514
0.656092 0.190677 0.124422
0.860990 0.213443 0.091646
1.000000 0.238590 0.011688
0.044678 0.153048 0.139437
0.105715 0.153384 0.139895
0.177401 0.154269 0.142000
0.280339 0.169009 0.143526
0.437995 0.192294 0.140169
0.628016 0.215030 0.125734
0.829191 0.236790 0.093538
0.991577 0.259129 0.000000
0.000000 0.247868 0.150393
0.034516 0.249088 0.151095
0.174655 0.236698 0.151308
0.260838 0.229770 0.149599
0.385992 0.246616 0.143923
0.582238 0.282292 0.123568
0.792630 0.312169 0.071321
0.969207 0.333318 0.000000
0.000000 0.432990 0.133181
0.000000 0.432837 0.133516
0.181704 0.425544 0.133608
0.315068 0.387549 0.134676
0.396185 0.348882 0.130739
0.486549 0.333288 0.123049
0.676295 0.369268 0.052186
0.889097 0.407752 0.000000
0.000000 0.668360 0.000000
0.000000 0.667994 0.000000
0.155215 0.670497 0.000000
0.386328 0.627955 0.000000
0.479774 0.543481 0.000000
0.505699 0.451026 0.035187
0.595239 0.429541 0.000000
0.723995 0.432837 0.000000
0.000000 0.830655 0.142184
0.000000 0.834226 0.151522
0.184482 0.833463 0.161318
0.425147 0.820279 0.139498
0.563195 0.768399 0.000000
0.638239 0.682246 0.000000
0.633448 0.563348 0.000000
0.758724 0.560052 0.000000
0.104463 0.931853 0.334203
0.185275 0.932006 0.336797
0.326116 0.930266 0.340337
0.477577 0.927459 0.350011
0.592035 0.906767 0.278538
0.701808 0.869657 0.088106
0.785122 0.807431 0.000000
0.800717 0.704189 0.000000
0.463691 0.991516 0.516625
0.474311 0.991241 0.517388
0.517266 0.990204 0.521843
0.590936 0.988434 0.531975
0.654322 0.981170 0.504265
0.723690 0.970153 0.423774
0.816587 0.953094 0.282383
0.921263 0.926360 0.000000
0.066255 0.130556 0.160342
0.105776 0.122560 0.168368
0.186862 0.129244 0.167697
0.304906 0.145388 0.172885
0.475227 0.158267 0.168093
0.664271 0.173159 0.156619
0.852232 0.192386 0.137514
1.000000 0.218997 0.114656
0.047242 0.150393 0.168521
0.099763 0.153902 0.171908
0.180331 0.159670 0.172610
0.294194 0.170474 0.172213
0.458717 0.186831 0.167208
0.648798 0.204440 0.154665
0.831662 0.221561 0.134798
0.985840 0.243381 0.108492
0.000000 0.244358 0.180728
0.005707 0.245640 0.181430
0.173800 0.238407 0.177371
0.266941 0.231601 0.170291
0.403754 0.249821 0.163180
0.593164 0.278538 0.148043
0.784787 0.300877 0.122011
0.958923 0.320531 0.073823
0.000000 0.421149 0.172641
0.000000 0.422095 0.172763
0.167056 0.421637 0.170871
0.306615 0.380072 0.162814
0.390509 0.342657 0.151461
0.479652 0.326146 0.141756
0.670985 0.362493 0.105745
0.878080 0.397498 0.000000
0.000000 0.661189 0.131197
0.000000 0.660060 0.130892
0.105470 0.660334 0.132021
0.373999 0.619928 0.110201
0.471107 0.535698 0.094209
0.504265 0.448402 0.095613
0.592248 0.425208 0.040558
0.725246 0.430457 0.000000
0.000000 0.823270 0.194675
0.000000 0.823362 0.196506
0.141634 0.823178 0.203586
0.414649 0.813718 0.194064
0.555657 0.763363 0.052461
0.634791 0.679316 0.000000
0.633082 0.562005 0.000000
0.752316 0.553796 0.000000
0.000000 0.927153 0.349035
0.150668 0.926207 0.347478
0.310613 0.924407 0.350469
0.468574 0.922240 0.360815
0.587884 0.903593 0.301610
0.696712 0.866056 0.148013
0.777615 0.800961 0.000000
0.789029 0.694301 0.000000
0.457130 0.989166 0.519524
0.470771 0.989166 0.522576
0.513390 0.988128 0.526116
0.587762 0.986419 0.536217
0.666133 0.982300 0.530419
0.727260 0.970703 0.445838
0.815793 0.952575 0.303044
0.920012 0.925322 0.000000
0.032593 0.141695 0.229282
0.081544 0.138888 0.236912
0.178805 0.130129 0.261387
0.317113 0.123293 0.283421
0.532738 0.000000 0.288945
0.772641 0.000000 0.263066
0.936614 0.000000 0.269230
1.000000 0.147494 0.260166
0.058961 0.169650 0.235416
0.088655 0.167758 0.242161
0.178195 0.158541 0.264958
0.321050 0.151522 0.280980
0.534936 0.039673 0.274510
0.762753 0.049989 0.272221
0.917754 0.133913 0.260502
1.000000 0.189731 0.250828
0.000000 0.238773 0.265873
0.000000 0.241459 0.268864
0.169863 0.251560 0.278111
0.330694 0.252018 0.268589
0.515099 0.258824 0.259403
0.706844 0.269718 0.250187
0.872679 0.280491 0.238956
1.000000 0.296605 0.228611
0.000000 0.429236 0.294102
0.000000 0.432624 0.290623
0.061982 0.440864 0.290806
0.331273 0.408453 0.261326
0.443397 0.364080 0.226108
0.579919 0.358953 0.208896
0.767086 0.380377 0.194217
0.941344 0.398199 0.175113
0.000000 0.662409 0.301549
0.000000 0.662562 0.302098
0.000000 0.664271 0.304784
0.376013 0.645777 0.288823
0.500114 0.563531 0.226474
0.550347 0.472755 0.175845
0.632074 0.434913 0.143771
0.798611 0.451667 0.045899
0.000000 0.822293 0.347814
0.000000 0.822660 0.349187
0.082124 0.822019 0.352728
0.419806 0.821073 0.359747
0.559319 0.773465 0.284215
0.647852 0.691310 0.172244
0.661036 0.576593 0.000000
0.774380 0.557580 0.000000
0.203494 0.926482 0.450141
0.240085 0.925689 0.449622
0.348821 0.923552 0.449928
0.487587 0.920806 0.455329
0.601923 0.906950 0.419257
0.700557 0.871183 0.304021
0.785519 0.808408 0.000000
0.809659 0.705592 0.000000
0.498817 0.986847 0.576684
0.506615 0.986450 0.576471
0.543694 0.985412 0.579431
0.613031 0.984222 0.590082
0.693019 0.981323 0.597314
0.740444 0.971099 0.519860
0.818448 0.954070 0.389685
0.921111 0.926909 0.000000
0.000000 0.160952 0.353887
0.000000 0.159335 0.363561
0.168887 0.147402 0.393835
0.333165 0.101839 0.433753
0.528832 0.000000 0.463630
0.770382 0.000000 0.483772
0.959899 0.000000 0.459815
1.000000 0.000000 0.431586
0.000000 0.190799 0.366857
0.000000 0.188846 0.373907
0.168063 0.176181 0.401465
0.338872 0.137026 0.440284
0.538140 0.000000 0.466316
0.776822 0.000000 0.480293
0.960540 0.000000 0.455146
1.000000 0.000000 0.432776
0.059876 0.277867 0.373846
0.089723 0.280064 0.382849
0.162570 0.274968 0.412177
0.345586 0.246189 0.450813
0.576074 0.230808 0.475471
0.802365 0.204746 0.470253
0.973816 0.232853 0.453834
1.000000 0.356970 0.475990
0.000000 0.419715 0.451942
0.000000 0.421851 0.453742
0.101076 0.432441 0.462928
0.365576 0.451759 0.479469
0.580041 0.437018 0.457557
0.752193 0.426337 0.437079
0.898894 0.420386 0.418769
1.000000 0.419104 0.401678
0.000000 0.667689 0.498634
0.000000 0.667048 0.497475
0.000000 0.667994 0.496193
0.389227 0.672328 0.501244
0.550134 0.610193 0.432105
0.632136 0.512779 0.341924
0.738888 0.467903 0.289799
0.918608 0.483528 0.274907
0.000000 0.824949 0.524681
0.000000 0.827543 0.528893
0.216800 0.825925 0.529595
0.450690 0.824796 0.533684
0.596582 0.801694 0.499275
0.680934 0.721157 0.378698
0.718135 0.605524 0.235813
0.816190 0.560235 0.128756
0.345037 0.922820 0.580285
0.366003 0.922759 0.581323
0.437079 0.921813 0.583612
0.542992 0.919982 0.588586
0.657099 0.915648 0.589563
0.718990 0.882750 0.484688
0.797543 0.820127 0.311101
0.838712 0.717586 0.000000
0.574456 0.983581 0.666835
0.581140 0.983337 0.667079
0.608484 0.982483 0.668818
0.659602 0.981018 0.673304
0.727474 0.978668 0.679866
0.770504 0.971313 0.633082
0.826017 0.955871 0.514641
0.923003 0.929442 0.297551
0.000000 0.189670 0.531121
0.000000 0.187839 0.537804
0.177890 0.173983 0.558434
0.360327 0.113222 0.595636
0.564660 0.000000 0.629938
0.773251 0.000000 0.647761
0.951751 0.000000 0.645197
1.000000 0.000000 0.618402
0.000000 0.221622 0.540093
0.000000 0.219242 0.546532
0.178683 0.205356 0.565209
0.360510 0.155581 0.598901
0.571069 0.000000 0.634943
0.778561 0.000000 0.649470
0.953002 0.000000 0.643977
1.000000 0.000000 0.618067
0.000000 0.326879 0.553552
0.000000 0.324498 0.557855
0.183078 0.312657 0.573877
0.360449 0.282933 0.608972
0.583032 0.222599 0.643702
0.784512 0.199069 0.647700
0.950683 0.217624 0.637476
1.000000 0.295384 0.616052
0.190036 0.463447 0.572412
0.225620 0.467445 0.573754
0.323033 0.485542 0.583215
0.404089 0.484321 0.621363
0.600855 0.449897 0.656336
0.795865 0.453956 0.652979
0.944366 0.473274 0.639338
1.000000 0.509789 0.630854
0.000000 0.632685 0.638392
0.000000 0.634363 0.639734
0.230747 0.639521 0.644007
0.442573 0.648920 0.652033
0.614130 0.660731 0.662104
0.766232 0.634791 0.634699
0.895323 0.610010 0.606561
1.000000 0.588098 0.579370
0.000000 0.812100 0.655146
0.000000 0.811948 0.655909
0.223819 0.810452 0.657649
0.465492 0.810666 0.665339
0.632929 0.807431 0.668574
0.719051 0.752438 0.587121
0.782223 0.636255 0.448127
0.880064 0.561028 0.342351
0.416175 0.916197 0.688045
0.431434 0.915435 0.688289
0.493660 0.913268 0.691737
0.587518 0.911772 0.698604
0.688197 0.910246 0.703761
0.755550 0.892943 0.660182
0.809506 0.830961 0.499977
0.866148 0.720455 0.253666
0.620264 0.976715 0.741451
0.625299 0.976501 0.741451
0.646998 0.975769 0.742000
0.695186 0.975372 0.748623
0.753079 0.973754 0.753384
0.813046 0.970642 0.749844
0.839475 0.955779 0.648249
0.919554 0.927092 0.448554
0.000000 0.241459 0.700893
0.000000 0.239078 0.704463
0.232853 0.225376 0.714717
0.391089 0.184421 0.735317
0.579522 0.000000 0.770840
0.777523 0.000000 0.792325
0.952789 0.000000 0.793271
1.000000 0.000000 0.767971
0.000000 0.270573 0.698421
0.031373 0.267979 0.700893
0.232181 0.254734 0.711513
0.389075 0.220188 0.734066
0.574121 0.096010 0.766995
0.773159 0.000000 0.788632
0.948272 0.000000 0.789517
1.000000 0.000000 0.765377
0.153231 0.385748 0.711299
0.181918 0.383612 0.714076
0.274266 0.374701 0.725643
0.404883 0.347936 0.743679
0.578546 0.291142 0.771603
0.778470 0.219333 0.792203
0.948852 0.240787 0.789700
1.000000 0.323156 0.765560
0.360754 0.549950 0.718166
0.370153 0.550378 0.720668
0.412543 0.553399 0.733333
0.481025 0.541527 0.753841
0.606683 0.510063 0.779629
0.788998 0.473426 0.799771
0.942382 0.492500 0.792050
1.000000 0.531029 0.771572
0.428870 0.658473 0.734798
0.444770 0.660548 0.735225
0.504997 0.669825 0.737392
0.599268 0.690700 0.741909
0.653437 0.689174 0.769009
0.782834 0.662104 0.792752
0.916716 0.668849 0.785885
1.000000 0.685420 0.773800
0.376501 0.787778 0.774411
0.400458 0.789425 0.775998
0.469093 0.790951 0.777493
0.570703 0.794064 0.780850
0.680629 0.798947 0.785885
0.791043 0.808957 0.795743
0.887907 0.786221 0.771145
0.978485 0.759762 0.742458
0.451514 0.914183 0.789944
0.470008 0.914244 0.791104
0.527184 0.912810 0.792721
0.616938 0.910246 0.796597
0.719234 0.907164 0.803433
0.811307 0.905455 0.809232
0.842893 0.857053 0.710658
0.911955 0.735805 0.507561
0.642878 0.974029 0.809812
0.648249 0.973602 0.809964
0.674311 0.972381 0.812558
0.723384 0.970703 0.819394
0.780056 0.968811 0.826261
0.837308 0.967651 0.829953
0.872648 0.958709 0.791867
0.920653 0.927459 0.620661
0.236088 0.336706 0.834684
0.254063 0.332921 0.834501
0.329198 0.324773 0.841581
0.439826 0.299596 0.852964
0.576715 0.242222 0.868711
0.737575 0.000000 0.888060
0.906188 0.000000 0.898650
1.000000 0.000000 0.898131
0.276310 0.379248 0.843931
0.289220 0.374243 0.843198
0.353277 0.365209 0.849393
0.456214 0.342657 0.860838
0.588739 0.293400 0.876677
0.747494 0.172854 0.896513
0.915953 0.000000 0.907530
1.000000 0.220096 0.906371
0.350835 0.478004 0.840391
0.361334 0.476204 0.841733
0.407355 0.470283 0.848631
0.487770 0.452369 0.859831
0.603967 0.418647 0.876371
0.749905 0.349248 0.894987
0.910643 0.307683 0.903105
1.000000 0.361730 0.896971
0.487098 0.618738 0.834348
0.492164 0.617700 0.835904
0.516655 0.615290 0.842893
0.559472 0.601801 0.852689
0.638331 0.579370 0.868376
0.753658 0.533043 0.885710
0.900603 0.501335 0.895048
1.000000 0.535088 0.888060
0.635798 0.744045 0.831205
0.642878 0.747097 0.834134
0.660426 0.751858 0.841428
0.685573 0.753170 0.852018
0.717983 0.741482 0.866178
0.785641 0.717159 0.883543
0.900511 0.692439 0.895628
1.000000 0.699275 0.883940
0.662531 0.815305 0.857572
0.668330 0.815824 0.857450
0.693416 0.818997 0.857725
0.736507 0.825162 0.858000
0.791653 0.836484 0.859007
0.818906 0.831815 0.873716
0.893767 0.813443 0.888396
0.978637 0.820859 0.884428
0.637751 0.893309 0.878569
0.641779 0.892699 0.877958
0.669032 0.893370 0.878904
0.714809 0.894347 0.880186
0.775937 0.897246 0.883635
0.840543 0.901366 0.888365
0.901396 0.906371 0.894011
0.960571 0.887022 0.871672
0.676600 0.974212 0.888090
0.681117 0.973816 0.887968
0.694453 0.971435 0.885649
0.735348 0.969512 0.887083
0.792844 0.967987 0.891539
0.853056 0.966491 0.896696
0.909545 0.965759 0.900816
0.933135 0.936248 0.809537
0.520226 0.560876 0.945769
0.523430 0.557488 0.945922
0.549096 0.553857 0.949401
0.589532 0.535149 0.953918
0.654414 0.502098 0.961273
0.745327 0.444770 0.971252
0.862272 0.330144 0.982574
0.996033 0.336004 0.985718
0.550225 0.593011 0.947234
0.552148 0.589166 0.947326
0.572259 0.583276 0.950134
0.608911 0.566186 0.954925
0.667811 0.534691 0.962219
0.752987 0.481300 0.972168
0.865934 0.380621 0.984039
0.997040 0.390631 0.987457
0.618921 0.670344 0.943999
0.621088 0.668452 0.944488
0.635584 0.664210 0.947448
0.654749 0.643763 0.950805
0.701411 0.620264 0.958709
0.772305 0.580346 0.969299
0.870726 0.503349 0.981292
0.993011 0.504784 0.985016
0.709529 0.766110 0.938354
0.709743 0.764248 0.938598
0.716945 0.760616 0.941222
0.729274 0.749538 0.945373
0.755917 0.731807 0.952361
0.803494 0.703334 0.962158
0.878782 0.650874 0.973877
0.984680 0.640772 0.978820
0.790311 0.844511 0.933593
0.790494 0.843656 0.933745
0.796994 0.844022 0.936614
0.803555 0.838987 0.940917
0.817716 0.829862 0.947906
0.845823 0.813993 0.957183
0.896117 0.784054 0.968017
0.978271 0.768032 0.973938
0.841886 0.894377 0.934081
0.845274 0.895720 0.934661
0.856535 0.899657 0.935821
0.865568 0.901549 0.939361
0.872526 0.899077 0.945434
0.881315 0.887968 0.952087
0.909361 0.868894 0.960601
0.972534 0.855100 0.968261
0.840024 0.925750 0.948913
0.842710 0.926268 0.949187
0.853178 0.928252 0.950103
0.870146 0.930724 0.950713
0.893675 0.934569 0.951537
0.920592 0.939849 0.951965
0.934813 0.937499 0.961181
0.974670 0.928191 0.970550
0.831449 0.970062 0.963684
0.834409 0.970397 0.964080
0.843320 0.970703 0.964508
0.857084 0.970306 0.964141
0.879332 0.970520 0.964538
0.908659 0.971710 0.966125
0.941833 0.973632 0.968597
0.977020 0.977386 0.973175
