20 Preset/Travel Style/【3】LUT video cho PR-AE-FCPX/Green Moody - Lut (7).cube
# Created by Adobe Lightroom plugin Export LUT (1.24.0)
# www.johnrellis.com/lightroom/exportlut.htm
# Preset: 07自然风光-环境人像-素材江湖
# Color profile: E:\lut插件\exportlut.1.24\exportlut.lrplugin\color profiles\Rec709gamma2.4.icc
LUT_3D_SIZE 8
DOMAIN_MIN 0.000000 0.000000 0.000000
DOMAIN_MAX 0.903226 0.903226 0.903226
0.167361 0.167086 0.168765
0.195285 0.168917 0.173495
0.261295 0.175906 0.184329
0.360845 0.170565 0.183597
0.487892 0.158724 0.175296
0.620417 0.156161 0.168887
0.754177 0.149325 0.159426
0.894194 0.120394 0.147372
0.183658 0.189548 0.187259
0.191043 0.195010 0.182742
0.271733 0.200107 0.182467
0.378363 0.197879 0.180026
0.508110 0.193576 0.169711
0.638514 0.192142 0.164279
0.769436 0.185763 0.155581
0.906371 0.168948 0.140047
0.216098 0.237491 0.225223
0.223239 0.236118 0.228916
0.254307 0.269474 0.209323
0.417975 0.301854 0.179812
0.555840 0.302708 0.166598
0.685176 0.298711 0.158938
0.811215 0.291997 0.146914
0.936370 0.282170 0.125521
0.264805 0.316472 0.284916
0.272190 0.316503 0.289097
0.279210 0.335760 0.291844
0.372320 0.406775 0.252964
0.610925 0.469306 0.184665
0.762325 0.467018 0.150454
0.878447 0.448493 0.138735
0.980438 0.427680 0.121889
0.342565 0.424811 0.373083
0.349554 0.425574 0.377081
0.378607 0.428351 0.394873
0.381842 0.490181 0.386236
0.533867 0.586969 0.342992
0.804715 0.658747 0.266484
0.925353 0.631128 0.216800
1.000000 0.595026 0.200015
0.436225 0.544701 0.474098
0.441627 0.545281 0.477241
0.467079 0.550134 0.493324
0.490822 0.579675 0.512261
0.524071 0.666987 0.503685
0.690394 0.752438 0.473121
0.919829 0.796872 0.431830
1.000000 0.756313 0.373388
0.559533 0.685542 0.600397
0.564721 0.686488 0.603693
0.587610 0.690944 0.618311
0.630091 0.699092 0.646723
0.642390 0.751797 0.657374
0.693843 0.812009 0.657099
0.808774 0.859556 0.642359
0.970459 0.886168 0.618952
0.718441 0.812894 0.744869
0.721462 0.813382 0.746883
0.734096 0.815335 0.755154
0.757351 0.818997 0.770871
0.779690 0.833249 0.788357
0.787411 0.868162 0.789456
0.821378 0.899596 0.785000
0.888823 0.923888 0.768124
0.181613 0.181552 0.198581
0.196170 0.182528 0.197513
0.256596 0.187594 0.204654
0.351415 0.185275 0.205478
0.476936 0.174655 0.200168
0.610101 0.165377 0.195041
0.745510 0.151522 0.186465
0.891844 0.122774 0.169863
0.183932 0.199619 0.199344
0.201053 0.200717 0.202609
0.263035 0.205692 0.207126
0.362768 0.205661 0.207095
0.489693 0.199557 0.200992
0.622950 0.193881 0.195254
0.758022 0.183902 0.186038
0.901457 0.166201 0.168826
0.226566 0.248447 0.236362
0.232761 0.247715 0.239628
0.260624 0.271458 0.231235
0.405310 0.296788 0.213565
0.540337 0.297856 0.203738
0.672267 0.294957 0.196048
0.802884 0.288945 0.184482
0.931731 0.278935 0.165805
0.274723 0.325811 0.294926
0.281926 0.325933 0.298955
0.296361 0.338384 0.307591
0.377539 0.407782 0.278538
0.605615 0.466865 0.230503
0.756649 0.464851 0.204196
0.873259 0.447364 0.193179
0.977173 0.427405 0.178042
0.349523 0.430365 0.379614
0.356420 0.431434 0.383734
0.384741 0.435035 0.401160
0.393866 0.491249 0.400183
0.538170 0.587701 0.366003
0.800809 0.657588 0.307622
0.921263 0.631678 0.267124
1.000000 0.596857 0.250614
0.441444 0.548913 0.479042
0.447395 0.550134 0.482734
0.472511 0.555352 0.498665
0.501823 0.580499 0.520989
0.532708 0.667414 0.515770
0.693385 0.752346 0.491249
0.916594 0.797024 0.460517
1.000000 0.758602 0.406744
0.563684 0.688289 0.604089
0.569238 0.689540 0.607691
0.591882 0.694240 0.622248
0.633845 0.702541 0.650385
0.649378 0.751949 0.663661
0.699275 0.812161 0.665492
0.811643 0.859861 0.654688
0.968627 0.886992 0.638483
0.720272 0.814237 0.746639
0.723201 0.814633 0.748501
0.735744 0.816678 0.756771
0.758846 0.820371 0.772427
0.781735 0.832273 0.789792
0.789609 0.867735 0.791867
0.823484 0.899535 0.788663
0.890043 0.923888 0.773587
0.203494 0.203342 0.261204
0.217411 0.205020 0.262272
0.263920 0.212833 0.264714
0.341161 0.226963 0.278782
0.457313 0.205936 0.280369
0.562921 0.177646 0.266545
0.692409 0.152255 0.260197
0.850126 0.091951 0.251286
0.210513 0.221134 0.261692
0.223545 0.223117 0.263310
0.266789 0.230961 0.267613
0.346685 0.239261 0.281895
0.459083 0.218906 0.278599
0.568597 0.196658 0.266606
0.705348 0.180880 0.263462
0.860899 0.144808 0.253788
0.217380 0.270054 0.264958
0.230991 0.272984 0.268833
0.291539 0.291234 0.292638
0.378607 0.286625 0.286412
0.492683 0.285466 0.285008
0.619623 0.283970 0.283085
0.754055 0.278294 0.277256
0.897490 0.266728 0.265507
0.287327 0.347967 0.314763
0.301793 0.352117 0.323827
0.333989 0.357366 0.342748
0.391821 0.409064 0.343633
0.576989 0.449683 0.330327
0.711727 0.445624 0.320256
0.835233 0.436011 0.310857
0.950683 0.423102 0.298161
0.370031 0.448615 0.400519
0.376318 0.450019 0.404181
0.402655 0.455543 0.420539
0.431220 0.489235 0.440558
0.545861 0.582513 0.430701
0.778347 0.646082 0.410803
0.899229 0.628351 0.388373
0.991730 0.600244 0.373480
0.456764 0.560510 0.493629
0.462287 0.562005 0.497139
0.486366 0.568566 0.512688
0.534478 0.580713 0.545586
0.559045 0.664240 0.553124
0.702113 0.749416 0.548791
0.902312 0.795254 0.546288
0.990600 0.765164 0.505913
0.572412 0.693355 0.612055
0.577844 0.694759 0.615625
0.600031 0.700191 0.630121
0.641108 0.709987 0.657984
0.670344 0.748440 0.682155
0.714931 0.809812 0.690761
0.818570 0.858427 0.690974
0.959991 0.887541 0.692897
0.722499 0.816403 0.749294
0.725673 0.817014 0.751400
0.738308 0.819333 0.759762
0.761227 0.823362 0.775265
0.792782 0.829740 0.797696
0.798367 0.866331 0.801358
0.830594 0.898833 0.801480
0.894102 0.923705 0.792477
0.226200 0.225711 0.349310
0.240543 0.228397 0.351751
0.296117 0.240970 0.362982
0.376287 0.259861 0.375402
0.470649 0.280674 0.390936
0.590478 0.280613 0.406348
0.698268 0.239384 0.390784
0.812589 0.155886 0.363836
0.234958 0.245182 0.347814
0.248020 0.247868 0.350530
0.299474 0.259556 0.362219
0.377234 0.277409 0.376318
0.471565 0.297673 0.393927
0.590234 0.291142 0.405585
0.696712 0.250889 0.388403
0.810513 0.171389 0.358923
0.239658 0.285985 0.344640
0.254643 0.291173 0.350195
0.310857 0.310613 0.369146
0.390387 0.334783 0.389166
0.482795 0.355444 0.409552
0.589746 0.325078 0.398749
0.688930 0.286473 0.373358
0.821805 0.240787 0.352819
0.254551 0.368139 0.355291
0.268132 0.371862 0.359686
0.324376 0.389410 0.380316
0.437720 0.437140 0.436439
0.530541 0.423072 0.419745
0.638209 0.417487 0.413886
0.763821 0.412726 0.409033
0.896330 0.405341 0.401709
0.348058 0.457130 0.399969
0.360662 0.461677 0.407752
0.413397 0.481697 0.441535
0.479988 0.504997 0.486213
0.563439 0.582208 0.509514
0.746029 0.626703 0.510979
0.860044 0.616083 0.500755
0.954192 0.598138 0.489357
0.475135 0.576867 0.514122
0.480140 0.578515 0.517266
0.503563 0.587213 0.532555
0.550134 0.603540 0.564446
0.597803 0.656397 0.601160
0.714778 0.744991 0.621180
0.880735 0.790860 0.639612
0.964172 0.773800 0.619562
0.580468 0.699641 0.621454
0.585657 0.701106 0.624781
0.607507 0.707454 0.639033
0.648096 0.719478 0.666773
0.701381 0.738705 0.706142
0.736080 0.805020 0.724392
0.828397 0.856809 0.738247
0.948028 0.887846 0.753872
0.721462 0.818601 0.750637
0.724727 0.819303 0.752773
0.737972 0.822110 0.761501
0.762142 0.827359 0.777920
0.795071 0.834867 0.801328
0.812222 0.862913 0.815763
0.841367 0.897612 0.820951
0.900389 0.923674 0.819852
0.264256 0.263188 0.447089
0.277501 0.266392 0.450233
0.328801 0.280400 0.464424
0.418280 0.309880 0.492073
0.518090 0.338537 0.513451
0.612543 0.357916 0.523278
0.738827 0.406775 0.560235
0.854795 0.357824 0.548272
0.272313 0.280400 0.445563
0.284306 0.283268 0.448646
0.332647 0.296300 0.462959
0.419806 0.324895 0.491310
0.518791 0.353216 0.514244
0.613184 0.372381 0.525292
0.738491 0.413947 0.560052
0.853605 0.364599 0.546441
0.285222 0.324132 0.443854
0.296544 0.327276 0.447272
0.342138 0.341222 0.462135
0.426154 0.371649 0.492042
0.525383 0.405035 0.520623
0.619104 0.425544 0.536126
0.737972 0.438849 0.557671
0.849577 0.387091 0.537011
0.278202 0.374243 0.433845
0.289738 0.376715 0.437354
0.336950 0.388525 0.453132
0.439612 0.438880 0.501396
0.546593 0.485481 0.541283
0.636957 0.508415 0.561181
0.736904 0.467720 0.542138
0.840787 0.406836 0.503044
0.306249 0.471321 0.451270
0.317784 0.474891 0.455238
0.365240 0.490822 0.473152
0.457221 0.527367 0.513909
0.599695 0.598505 0.594324
0.686671 0.579217 0.571954
0.786893 0.563836 0.556939
0.897368 0.553399 0.546990
0.397101 0.556237 0.476539
0.407660 0.560479 0.482856
0.452583 0.579278 0.510857
0.541222 0.618585 0.570245
0.637903 0.660914 0.639948
0.729366 0.743221 0.684596
0.859525 0.779019 0.701564
0.938048 0.769314 0.692103
0.540520 0.691646 0.602411
0.550164 0.694667 0.608331
0.590112 0.707210 0.633600
0.645380 0.726345 0.670466
0.706142 0.748440 0.713863
0.757198 0.796597 0.754910
0.838682 0.856260 0.781338
0.938384 0.886778 0.801053
0.709316 0.819028 0.746181
0.713130 0.819974 0.748623
0.728664 0.823789 0.758602
0.756069 0.830503 0.776730
0.793027 0.840360 0.802609
0.829404 0.855497 0.830716
0.853208 0.895811 0.842252
0.907988 0.924590 0.849271
0.310765 0.308721 0.545586
0.321965 0.311772 0.548821
0.366552 0.325566 0.563256
0.447211 0.353826 0.591363
0.560723 0.401984 0.634272
0.666224 0.436805 0.657893
0.756558 0.453651 0.662959
0.864683 0.530968 0.699641
0.316869 0.322179 0.545190
0.327337 0.325292 0.548577
0.370489 0.338476 0.563012
0.449775 0.366247 0.591363
0.562463 0.414191 0.634668
0.667536 0.449256 0.659113
0.757321 0.466133 0.664912
0.864073 0.542138 0.701869
0.325963 0.358312 0.539055
0.336004 0.361547 0.542626
0.376959 0.375067 0.557549
0.454170 0.404364 0.587549
0.565270 0.453895 0.632959
0.670222 0.492714 0.661860
0.758480 0.510948 0.670893
0.860502 0.581964 0.709133
0.317845 0.394354 0.520470
0.330022 0.399664 0.526146
0.380163 0.423621 0.550256
0.458167 0.456733 0.582849
0.570214 0.511009 0.632166
0.678584 0.560479 0.670100
0.762966 0.582971 0.684443
0.857725 0.623987 0.713558
0.310887 0.461463 0.517296
0.320409 0.463874 0.520348
0.360235 0.474159 0.533532
0.434913 0.496834 0.562280
0.577234 0.576074 0.637934
0.700618 0.645502 0.692164
0.777005 0.668116 0.710201
0.860868 0.624506 0.686885
0.341588 0.564508 0.536797
0.350896 0.567346 0.539940
0.390051 0.580499 0.554467
0.465156 0.608942 0.585870
0.586511 0.660060 0.643061
0.741695 0.740047 0.734249
0.809018 0.720058 0.711727
0.891020 0.702510 0.694545
0.396277 0.643763 0.529320
0.405890 0.647181 0.534417
0.447669 0.662074 0.557031
0.533257 0.692103 0.606317
0.661982 0.739010 0.688869
0.770016 0.786740 0.768856
0.846220 0.854276 0.816129
0.928679 0.879240 0.831327
0.615259 0.804990 0.696864
0.623194 0.806363 0.701106
0.654688 0.811948 0.718502
0.711208 0.823239 0.751797
0.776577 0.840452 0.794522
0.828733 0.857908 0.832425
0.864897 0.891020 0.861631
0.916014 0.926146 0.877867
0.377386 0.373663 0.675624
0.386969 0.376715 0.678279
0.426581 0.389960 0.689601
0.498451 0.417578 0.711055
0.597528 0.464149 0.741451
0.712276 0.535546 0.776516
0.798367 0.573877 0.788724
0.869169 0.585016 0.787289
0.379828 0.382910 0.673884
0.389410 0.385870 0.676570
0.428168 0.398871 0.688075
0.499611 0.426246 0.709957
0.598627 0.472877 0.740749
0.713130 0.544427 0.776303
0.798642 0.583398 0.789090
0.868620 0.594690 0.788205
0.381689 0.410193 0.665461
0.391119 0.413214 0.668421
0.429694 0.426642 0.680781
0.501061 0.454841 0.704067
0.600458 0.502678 0.736782
0.715084 0.575250 0.774228
0.798672 0.615839 0.789242
0.865507 0.627771 0.790219
0.371374 0.444190 0.648524
0.381109 0.447669 0.652064
0.421302 0.462501 0.666041
0.495766 0.493385 0.692409
0.599847 0.545129 0.729305
0.717617 0.621027 0.770840
0.800381 0.665522 0.791287
0.863127 0.679622 0.796231
0.311803 0.453651 0.597498
0.322881 0.457984 0.602441
0.369146 0.477363 0.623590
0.461494 0.520836 0.666773
0.586175 0.584253 0.716030
0.717678 0.666529 0.767025
0.806577 0.721126 0.797848
0.865293 0.737911 0.807645
0.293065 0.550164 0.608179
0.302098 0.551446 0.610101
0.338842 0.556909 0.618616
0.406653 0.568841 0.637018
0.511284 0.593256 0.670375
0.704463 0.702907 0.757229
0.818906 0.779171 0.810727
0.873442 0.797086 0.825101
0.294987 0.657710 0.618189
0.305425 0.659480 0.620264
0.346624 0.667506 0.629603
0.424872 0.684932 0.650233
0.545434 0.715969 0.688075
0.699092 0.767208 0.750271
0.844694 0.843168 0.838010
0.895323 0.827543 0.820493
0.336706 0.767208 0.594629
0.350744 0.768826 0.598657
0.406744 0.775784 0.616571
0.508049 0.789761 0.655390
0.639277 0.811795 0.717891
0.774777 0.844419 0.798306
0.869871 0.881804 0.868376
0.923583 0.927977 0.903532
0.503258 0.499214 0.827543
0.510674 0.502159 0.828458
0.541650 0.515007 0.832609
0.597864 0.541161 0.840269
0.674006 0.583795 0.851072
0.758816 0.642573 0.863890
0.837552 0.708949 0.877989
0.889311 0.729397 0.881498
0.504326 0.505089 0.826566
0.511803 0.507988 0.827543
0.542748 0.520745 0.831724
0.598932 0.546777 0.839506
0.675166 0.589410 0.850492
0.759701 0.647791 0.863523
0.838041 0.713405 0.877897
0.889403 0.733822 0.881621
0.503685 0.523613 0.821988
0.511406 0.526513 0.823087
0.542992 0.539452 0.827573
0.600122 0.565789 0.835874
0.677638 0.608881 0.847684
0.762081 0.665980 0.861753
0.839506 0.729183 0.877165
0.889494 0.749722 0.881895
0.488411 0.546349 0.812619
0.497047 0.549493 0.813840
0.531762 0.563256 0.819089
0.594263 0.591272 0.828794
0.676570 0.635737 0.842313
0.763638 0.692226 0.858488
0.841276 0.753017 0.876158
0.890196 0.775051 0.882841
0.420508 0.555535 0.792935
0.431586 0.558953 0.794705
0.477546 0.574456 0.802304
0.559411 0.607568 0.815610
0.658839 0.656489 0.833066
0.758297 0.716640 0.853483
0.842039 0.778439 0.875212
0.892515 0.805356 0.885557
0.282872 0.584375 0.765438
0.293004 0.583734 0.765927
0.331853 0.580896 0.767910
0.424109 0.593408 0.780453
0.580499 0.650263 0.809689
0.731563 0.729702 0.841825
0.838315 0.801633 0.872435
0.896788 0.839231 0.890288
0.208469 0.708858 0.775296
0.224887 0.708614 0.775723
0.282383 0.707637 0.777523
0.370855 0.706111 0.781430
0.482460 0.706050 0.788907
0.613764 0.713588 0.802853
0.815213 0.813809 0.860472
0.904662 0.876432 0.898894
0.213626 0.827115 0.772305
0.232059 0.827237 0.772824
0.295598 0.827420 0.774807
0.390051 0.827970 0.779263
0.505486 0.830198 0.788388
0.639948 0.837461 0.806455
0.788693 0.860716 0.844419
0.920134 0.919097 0.915679
