20 Preset/Travel Style/【3】LUT video cho PR-AE-FCPX/Green Moody - Lut (18).cube
# Created by Adobe Lightroom plugin Export LUT (1.24.0)
# www.johnrellis.com/lightroom/exportlut.htm
# Preset: 18自然风光-极光-素材江湖
# Color profile: E:\lut插件\exportlut.1.24\exportlut.lrplugin\color profiles\Rec709gamma2.4.icc
LUT_3D_SIZE 32
DOMAIN_MIN 0.0 0.0 0.0
DOMAIN_MAX 1.0 1.0 1.0
0.070985 0.159457 0.172610
0.070985 0.159457 0.172610
0.070985 0.159457 0.172610
0.084352 0.159701 0.172854
0.101350 0.159762 0.173922
0.118288 0.160861 0.174624
0.139559 0.162264 0.175357
0.165957 0.163973 0.175570
0.199008 0.165835 0.175174
0.239231 0.168490 0.174075
0.284611 0.172366 0.172335
0.335363 0.175753 0.170108
0.390051 0.179049 0.167056
0.447242 0.182528 0.163149
0.505638 0.185702 0.158755
0.563195 0.189120 0.153658
0.619745 0.192111 0.148135
0.675074 0.195010 0.141634
0.729702 0.197147 0.134554
0.783322 0.199863 0.126497
0.833127 0.202609 0.119112
0.895262 0.207828 0.109529
0.953704 0.215610 0.104311
0.998322 0.224704 0.107576
1.000000 0.235477 0.117403
1.000000 0.246860 0.132143
1.000000 0.260502 0.149691
1.000000 0.275944 0.170260
1.000000 0.293675 0.194278
1.000000 0.315099 0.222538
1.000000 0.340764 0.256840
1.000000 0.372442 0.297734
0.070985 0.159457 0.172610
0.070985 0.159457 0.172610
0.070985 0.159457 0.172610
0.085603 0.159640 0.172854
0.101106 0.159976 0.173892
0.116884 0.161349 0.174594
0.137362 0.162661 0.175357
0.162387 0.164370 0.175601
0.193545 0.166445 0.175204
0.231144 0.169589 0.174197
0.275120 0.172946 0.172610
0.324346 0.175906 0.170809
0.377417 0.179110 0.167819
0.433051 0.183566 0.164096
0.490761 0.186984 0.159579
0.548669 0.189761 0.155032
0.605707 0.193179 0.149477
0.661372 0.196139 0.143282
0.715908 0.198917 0.136233
0.769833 0.200565 0.128847
0.819821 0.204044 0.120577
0.881682 0.208103 0.111116
0.938476 0.215213 0.104677
0.982391 0.223606 0.104921
1.000000 0.232364 0.110933
1.000000 0.242222 0.122957
1.000000 0.253849 0.138186
1.000000 0.268070 0.156374
1.000000 0.284428 0.178653
1.000000 0.304082 0.205905
1.000000 0.328130 0.238285
1.000000 0.358099 0.277409
0.068574 0.160067 0.172702
0.068574 0.160067 0.172702
0.071839 0.160189 0.172671
0.086458 0.161135 0.173190
0.099641 0.162661 0.173922
0.115480 0.164218 0.174594
0.134615 0.165621 0.175204
0.158450 0.167666 0.175235
0.188266 0.170138 0.174838
0.224613 0.173434 0.174014
0.267063 0.176944 0.172519
0.314733 0.180789 0.170535
0.366735 0.184756 0.167788
0.421576 0.188907 0.164248
0.478248 0.192355 0.160006
0.535210 0.196872 0.155245
0.592035 0.200473 0.149660
0.648798 0.202914 0.143648
0.703822 0.205692 0.136751
0.758053 0.208255 0.129091
0.809751 0.210910 0.121157
0.873503 0.216342 0.110597
0.929442 0.222477 0.103609
0.973205 0.229191 0.102937
1.000000 0.236881 0.108064
1.000000 0.246616 0.116487
1.000000 0.256443 0.131380
1.000000 0.269169 0.148623
1.000000 0.284001 0.170535
1.000000 0.302800 0.196292
1.000000 0.325353 0.227787
1.000000 0.353216 0.265690
0.056703 0.165408 0.174289
0.058991 0.165377 0.174136
0.064729 0.165652 0.173404
0.084077 0.166293 0.173587
0.099123 0.168276 0.174075
0.113436 0.169528 0.174441
0.131777 0.171328 0.174990
0.154971 0.173739 0.174838
0.183139 0.176699 0.174411
0.218235 0.180179 0.173770
0.259342 0.184482 0.172396
0.305333 0.189151 0.170230
0.355016 0.194003 0.167300
0.408270 0.198886 0.163851
0.463020 0.203586 0.159487
0.518486 0.208133 0.154818
0.574548 0.211582 0.149599
0.629603 0.215183 0.143832
0.683558 0.219028 0.136751
0.737453 0.221775 0.129244
0.789487 0.224521 0.121096
0.855924 0.229740 0.109895
0.910765 0.235142 0.101839
0.955413 0.241093 0.099275
0.992889 0.248447 0.101656
1.000000 0.256199 0.110170
1.000000 0.266270 0.123598
1.000000 0.277440 0.142397
1.000000 0.292210 0.164218
1.000000 0.309209 0.191226
1.000000 0.329961 0.221775
1.000000 0.354925 0.257237
0.044007 0.172946 0.174868
0.044190 0.173129 0.174350
0.057404 0.173068 0.174319
0.077363 0.173922 0.174655
0.094728 0.175143 0.174868
0.115785 0.178927 0.174502
0.130892 0.179843 0.174685
0.147829 0.180758 0.174838
0.174411 0.184237 0.174380
0.206943 0.188418 0.173526
0.245426 0.193423 0.172152
0.289250 0.198947 0.170169
0.336919 0.204929 0.167300
0.389105 0.210788 0.163485
0.443000 0.216403 0.159365
0.498970 0.222324 0.154177
0.555718 0.227787 0.148592
0.612177 0.232120 0.142641
0.667536 0.236301 0.135348
0.722194 0.239567 0.127657
0.779171 0.243809 0.118288
0.845609 0.250004 0.106050
0.898802 0.256077 0.096468
0.944091 0.261021 0.093172
0.982696 0.266972 0.095491
1.000000 0.274022 0.103304
1.000000 0.282383 0.117006
1.000000 0.292515 0.135103
1.000000 0.304875 0.157290
1.000000 0.320287 0.182712
1.000000 0.338354 0.213260
1.000000 0.360815 0.247715
0.021057 0.182742 0.175601
0.026307 0.182834 0.175570
0.039216 0.182773 0.175692
0.064851 0.183139 0.175906
0.088655 0.185306 0.175845
0.108339 0.188510 0.175875
0.137758 0.196109 0.174685
0.157443 0.196475 0.174319
0.175174 0.196597 0.173983
0.199161 0.198764 0.173251
0.235813 0.204868 0.171572
0.278294 0.211704 0.169223
0.324895 0.218967 0.166140
0.375219 0.226444 0.162295
0.428840 0.233707 0.157412
0.484840 0.240787 0.152102
0.542138 0.247318 0.146151
0.599573 0.253117 0.139345
0.656275 0.257847 0.131960
0.710933 0.262791 0.123140
0.777768 0.269688 0.110506
0.841276 0.276829 0.097108
0.977356 0.307103 0.077424
1.000000 0.315435 0.098482
1.000000 0.324407 0.120058
1.000000 0.333959 0.144594
1.000000 0.344610 0.170413
1.000000 0.357275 0.196536
1.000000 0.371954 0.226047
1.000000 0.389746 0.257847
1.000000 0.410803 0.292729
1.000000 0.434821 0.332006
0.000000 0.201907 0.176791
0.000000 0.201877 0.176791
0.000000 0.201724 0.176944
0.029603 0.201328 0.177066
0.068544 0.204196 0.176974
0.103151 0.209751 0.176486
0.135805 0.217594 0.175204
0.185550 0.234714 0.170596
0.212863 0.234714 0.169436
0.233188 0.231693 0.168948
0.251835 0.229435 0.168460
0.288243 0.234653 0.165957
0.336614 0.243717 0.161929
0.388373 0.252720 0.156832
0.442237 0.261204 0.151095
0.498116 0.268894 0.144930
0.554162 0.276463 0.137972
0.610834 0.282628 0.130190
0.667292 0.288640 0.121492
0.731960 0.297093 0.107790
0.811460 0.309300 0.086427
0.879179 0.319646 0.049714
0.936400 0.328801 0.035279
0.984619 0.337621 0.054536
1.000000 0.346227 0.094118
1.000000 0.354620 0.121614
1.000000 0.362890 0.148714
1.000000 0.372656 0.175021
1.000000 0.384070 0.203006
1.000000 0.397772 0.232609
1.000000 0.414710 0.265843
1.000000 0.434791 0.302556
0.000000 0.219577 0.177401
0.000000 0.219516 0.177401
0.000000 0.219272 0.177554
0.000000 0.218723 0.177676
0.029786 0.219455 0.177707
0.085084 0.225925 0.177005
0.121553 0.234958 0.175540
0.163638 0.247227 0.172824
0.222812 0.268864 0.165225
0.262699 0.274876 0.161074
0.283421 0.268864 0.160983
0.301152 0.262943 0.161044
0.316197 0.257633 0.160983
0.363073 0.266697 0.156222
0.415290 0.276371 0.150149
0.468971 0.285588 0.143435
0.524651 0.294499 0.135988
0.580743 0.302617 0.127657
0.640986 0.311620 0.116518
0.717250 0.325292 0.097658
0.789700 0.337346 0.061738
0.854612 0.348241 0.016571
0.911376 0.357671 0.000000
0.960174 0.366125 0.000000
1.000000 0.373266 0.041260
1.000000 0.380011 0.095766
1.000000 0.386969 0.124453
1.000000 0.393988 0.152773
1.000000 0.403052 0.181949
1.000000 0.413886 0.212436
1.000000 0.427680 0.245365
1.000000 0.444678 0.280888
0.000000 0.241154 0.177707
0.000000 0.241245 0.177707
0.000000 0.240726 0.177737
0.000000 0.240116 0.178042
0.000000 0.239078 0.178378
0.032380 0.244083 0.177615
0.101503 0.254063 0.176150
0.146365 0.266941 0.173220
0.197421 0.283696 0.167941
0.264775 0.308904 0.156130
0.322728 0.325109 0.144045
0.342840 0.315312 0.145724
0.359228 0.305638 0.147341
0.372351 0.296178 0.148623
0.390814 0.291051 0.148867
0.443366 0.301793 0.141268
0.498299 0.312200 0.133028
0.559136 0.324071 0.122530
0.629847 0.339239 0.105592
0.699367 0.353002 0.081697
0.767575 0.365911 0.024994
0.830716 0.377569 0.000000
0.887602 0.387396 0.000000
0.937102 0.395911 0.000000
0.979461 0.403143 0.000000
1.000000 0.408911 0.027344
1.000000 0.414221 0.097230
1.000000 0.420142 0.130159
1.000000 0.427192 0.161501
1.000000 0.435859 0.192782
1.000000 0.447028 0.226749
1.000000 0.461006 0.262608
0.000000 0.266331 0.177401
0.000000 0.265965 0.177462
0.000000 0.265446 0.177676
0.000000 0.264469 0.177737
0.000000 0.262699 0.178073
0.000000 0.263157 0.178012
0.048127 0.272831 0.176577
0.123629 0.285985 0.173831
0.175143 0.302586 0.169253
0.234928 0.323369 0.160372
0.307530 0.350835 0.143099
0.382879 0.378973 0.116243
0.403449 0.366003 0.120516
0.418830 0.352422 0.125246
0.431220 0.339788 0.129305
0.439979 0.327520 0.133303
0.479347 0.332311 0.127718
0.546258 0.349340 0.112367
0.612848 0.365240 0.092866
0.679072 0.379767 0.044556
0.743465 0.393347 0.000000
0.803983 0.404852 0.000000
0.857969 0.414771 0.000000
0.906523 0.422339 0.000000
0.948425 0.428840 0.000000
0.985229 0.433631 0.000000
1.000000 0.438544 0.000000
1.000000 0.443519 0.084871
1.000000 0.449500 0.126802
1.000000 0.457069 0.163088
1.000000 0.466499 0.199954
1.000000 0.478645 0.238804
0.000000 0.290166 0.177005
0.000000 0.289921 0.176883
0.000000 0.289525 0.176913
0.000000 0.288609 0.177157
0.000000 0.287175 0.177432
0.000000 0.285374 0.178042
0.000000 0.292607 0.176974
0.090028 0.306218 0.174502
0.150240 0.323369 0.169894
0.211337 0.344976 0.162020
0.277958 0.370550 0.148165
0.355718 0.400732 0.121736
0.447211 0.442145 0.016236
0.473884 0.429755 0.031891
0.497902 0.418280 0.050355
0.516503 0.405737 0.069551
0.528771 0.390906 0.089082
0.536828 0.376471 0.097780
0.585168 0.385046 0.079622
0.648341 0.400458 0.015991
0.710597 0.414984 0.000000
0.771237 0.428412 0.000000
0.826505 0.440192 0.000000
0.876829 0.449348 0.000000
0.921386 0.456611 0.000000
0.960296 0.462287 0.000000
0.994812 0.467079 0.000000
1.000000 0.471809 0.000000
1.000000 0.476967 0.086152
1.000000 0.483436 0.135042
1.000000 0.491432 0.176730
1.000000 0.501488 0.217929
0.000000 0.318791 0.175509
0.000000 0.318578 0.175570
0.000000 0.318120 0.175601
0.000000 0.317296 0.176028
0.000000 0.316045 0.176272
0.000000 0.314153 0.176791
0.000000 0.314366 0.176944
0.000000 0.328862 0.174502
0.119234 0.346990 0.170291
0.186069 0.369329 0.163149
0.253605 0.396155 0.150698
0.333959 0.434699 0.125795
0.485634 0.552331 0.000000
0.609888 0.633478 0.000000
0.651667 0.618311 0.000000
0.670192 0.585260 0.000000
0.681239 0.551720 0.000000
0.686275 0.519524 0.000000
0.685786 0.488594 0.000000
0.682185 0.460548 0.000000
0.745602 0.478431 0.000000
0.803616 0.492897 0.000000
0.855497 0.503838 0.000000
0.901457 0.511925 0.000000
0.941894 0.517479 0.000000
0.977386 0.521050 0.000000
1.000000 0.523644 0.000000
1.000000 0.525750 0.000000
1.000000 0.528191 0.103456
1.000000 0.532219 0.152377
1.000000 0.537774 0.195285
1.000000 0.545953 0.237430
0.000000 0.364141 0.173281
0.000000 0.363836 0.173373
0.000000 0.362921 0.173587
0.000000 0.361089 0.174044
0.000000 0.358312 0.174350
0.000000 0.355047 0.175051
0.000000 0.351629 0.175845
0.000000 0.364050 0.174289
0.036591 0.388403 0.169802
0.165011 0.419532 0.162234
0.247288 0.459419 0.149386
0.334508 0.509270 0.124269
0.431617 0.569329 0.017884
0.539483 0.636316 0.000000
0.670802 0.722957 0.000000
0.716670 0.708186 0.000000
0.731472 0.668452 0.000000
0.739345 0.627985 0.000000
0.742275 0.588708 0.000000
0.740780 0.551812 0.000000
0.735622 0.517205 0.000000
0.747341 0.499855 0.000000
0.803555 0.514855 0.000000
0.854063 0.526543 0.000000
0.899199 0.534813 0.000000
0.939239 0.540795 0.000000
0.974487 0.545068 0.000000
1.000000 0.548333 0.000000
1.000000 0.551537 0.000000
1.000000 0.555596 0.087617
1.000000 0.560540 0.150729
1.000000 0.567254 0.202182
0.000000 0.406043 0.171664
0.000000 0.405829 0.171756
0.000000 0.404211 0.171786
0.000000 0.402258 0.172030
0.000000 0.399786 0.172702
0.000000 0.396582 0.173312
0.000000 0.393317 0.174166
0.000000 0.392828 0.174899
0.000000 0.416297 0.171237
0.111635 0.446479 0.165560
0.207614 0.484718 0.156466
0.293584 0.532464 0.140322
0.383185 0.589136 0.108522
0.480201 0.651240 0.000000
0.584955 0.710170 0.000000
0.705776 0.774990 0.000000
0.764553 0.773342 0.000000
0.775692 0.732082 0.000000
0.782895 0.691096 0.000000
0.786221 0.650935 0.000000
0.786557 0.612696 0.000000
0.783932 0.576440 0.000000
0.779019 0.543145 0.000000
0.806882 0.538262 0.000000
0.856596 0.550774 0.000000
0.901183 0.559838 0.000000
0.941009 0.566400 0.000000
0.976837 0.571252 0.000000
1.000000 0.575525 0.000000
1.000000 0.579797 0.000000
1.000000 0.584619 0.081941
1.000000 0.590814 0.159060
0.000000 0.447974 0.170199
0.000000 0.447639 0.170504
0.000000 0.445808 0.170565
0.000000 0.443122 0.170932
0.000000 0.439246 0.171359
0.000000 0.434699 0.172274
0.000000 0.430030 0.173037
0.000000 0.425391 0.174136
0.000000 0.438331 0.172702
0.000000 0.467842 0.168917
0.153414 0.504967 0.162875
0.246006 0.550622 0.153628
0.332738 0.604273 0.137392
0.423346 0.662379 0.109590
0.520714 0.717861 0.018677
0.620447 0.763485 0.000000
0.731380 0.810788 0.000000
0.798398 0.816434 0.000000
0.813230 0.783688 0.000000
0.819577 0.745022 0.000000
0.823819 0.706691 0.000000
0.826139 0.669764 0.000000
0.826078 0.634089 0.000000
0.824063 0.600336 0.000000
0.820005 0.568719 0.000000
0.859831 0.574517 0.000000
0.904601 0.584833 0.000000
0.945678 0.592737 0.000000
0.983124 0.599481 0.000000
1.000000 0.605737 0.000000
1.000000 0.612207 0.000000
1.000000 0.619379 0.113191
0.000000 0.482307 0.169863
0.000000 0.482246 0.169863
0.000000 0.481209 0.169955
0.000000 0.479164 0.170260
0.000000 0.475868 0.170565
0.000000 0.472419 0.171633
0.000000 0.468482 0.172274
0.000000 0.464302 0.173159
0.000000 0.462715 0.174258
0.000000 0.492378 0.171969
0.000000 0.528496 0.169009
0.190311 0.571344 0.163729
0.280308 0.619532 0.156588
0.368383 0.670954 0.146273
0.458473 0.720089 0.136507
0.551415 0.762875 0.127016
0.645838 0.798306 0.115877
0.748043 0.834379 0.083070
0.821622 0.845945 0.000000
0.842710 0.821500 0.000000
0.850156 0.788327 0.000000
0.856229 0.754543 0.000000
0.860746 0.721065 0.000000
0.863676 0.688258 0.000000
0.864805 0.656123 0.000000
0.864561 0.625605 0.000000
0.868437 0.601495 0.000000
0.914275 0.613306 0.000000
0.955840 0.622614 0.000000
0.993866 0.630243 0.000000
1.000000 0.637049 0.000000
1.000000 0.643763 0.000000
0.000000 0.513146 0.169375
0.000000 0.512871 0.169497
0.000000 0.511864 0.169253
0.000000 0.510033 0.169375
0.000000 0.507530 0.170108
0.000000 0.504021 0.170840
0.000000 0.500328 0.171725
0.000000 0.496101 0.172854
0.000000 0.491157 0.173983
0.000000 0.505150 0.173800
0.000000 0.539940 0.172274
0.096681 0.580987 0.169863
0.219425 0.627100 0.168063
0.311284 0.676051 0.165927
0.400977 0.723049 0.169375
0.490608 0.764523 0.178714
0.580896 0.799527 0.191989
0.671077 0.828183 0.208713
0.765560 0.856413 0.223697
0.843320 0.872068 0.209720
0.871916 0.855100 0.113497
0.880003 0.826200 0.000000
0.886900 0.796719 0.000000
0.892699 0.766934 0.000000
0.897429 0.737179 0.000000
0.901213 0.707973 0.000000
0.904143 0.679713 0.000000
0.906828 0.653223 0.000000
0.925902 0.642603 0.000000
0.968414 0.653132 0.000000
1.000000 0.661891 0.000000
1.000000 0.669490 0.000000
0.000000 0.547448 0.169284
0.000000 0.547906 0.169131
0.000000 0.586206 0.171542
0.000000 0.584222 0.171389
0.000000 0.581231 0.172000
0.000000 0.577081 0.172305
0.000000 0.571954 0.173068
0.000000 0.566033 0.173800
0.000000 0.559808 0.174777
0.000000 0.553918 0.175814
0.000000 0.592493 0.177707
0.000000 0.636255 0.182254
0.129885 0.682521 0.190921
0.264622 0.727626 0.206332
0.366461 0.767758 0.229618
0.460548 0.802121 0.258549
0.550225 0.830228 0.290745
0.635584 0.853025 0.322240
0.717220 0.871672 0.352941
0.799771 0.889982 0.383581
0.875273 0.905394 0.402655
0.909911 0.893950 0.332860
0.917998 0.868101 0.269963
0.924773 0.841367 0.200229
0.930053 0.813962 0.102510
0.934417 0.786282 0.000000
0.938231 0.758480 0.000000
0.942077 0.731533 0.000000
0.946899 0.706630 0.000000
0.953185 0.684382 0.000000
0.983276 0.684230 0.000000
1.000000 0.693263 0.000000
0.000000 0.593133 0.169375
0.000000 0.596735 0.169833
0.000000 0.599756 0.170077
0.000000 0.601648 0.170321
0.000000 0.601678 0.171054
0.000000 0.599023 0.171481
0.000000 0.594293 0.171664
0.000000 0.588678 0.172457
0.000000 0.582330 0.173190
0.000000 0.574975 0.173648
0.000000 0.589685 0.175357
0.000000 0.630518 0.179812
0.000000 0.674617 0.187778
0.177859 0.718135 0.202945
0.297276 0.758267 0.225986
0.396094 0.793668 0.256413
0.486824 0.823514 0.291173
0.572747 0.848356 0.329747
0.654627 0.869139 0.369268
0.732326 0.886351 0.408545
0.808804 0.902129 0.448829
0.884642 0.920745 0.499916
0.923095 0.912779 0.435523
0.935088 0.891386 0.374578
0.943114 0.867613 0.310246
0.949981 0.843107 0.241611
0.956115 0.818540 0.161868
0.962036 0.794064 0.000000
0.968627 0.770809 0.000000
0.976532 0.749386 0.000000
0.986297 0.730312 0.000000
0.998596 0.714351 0.000000
0.000000 0.618280 0.167453
0.000000 0.621912 0.167727
0.000000 0.625391 0.168032
0.000000 0.627741 0.168704
0.000000 0.628077 0.169223
0.000000 0.625788 0.169345
0.000000 0.621698 0.169650
0.000000 0.616083 0.170199
0.000000 0.609827 0.170840
0.000000 0.602655 0.171237
0.000000 0.594751 0.171572
0.000000 0.632288 0.175967
0.000000 0.674128 0.184543
0.000000 0.716457 0.200504
0.222385 0.756283 0.224521
0.334569 0.791440 0.256504
0.430152 0.821683 0.294469
0.517754 0.847166 0.335912
0.599786 0.868528 0.380713
0.676814 0.886442 0.426337
0.749111 0.901274 0.472511
0.818296 0.914305 0.520104
0.888182 0.931304 0.580743
0.929534 0.927611 0.537743
0.948150 0.911559 0.475135
0.957824 0.890410 0.411597
0.966522 0.868803 0.347662
0.974792 0.846983 0.282383
0.983307 0.826078 0.215824
0.992523 0.806058 0.135378
1.000000 0.787686 0.000000
1.000000 0.771237 0.000000
0.000000 0.646448 0.165072
0.000000 0.649805 0.165072
0.000000 0.652949 0.165621
0.000000 0.654994 0.166110
0.000000 0.655390 0.166262
0.000000 0.653132 0.166110
0.000000 0.649287 0.166629
0.000000 0.644129 0.166934
0.000000 0.638117 0.166659
0.000000 0.631373 0.166934
0.000000 0.623682 0.167147
0.000000 0.636042 0.169894
0.000000 0.676539 0.178744
0.000000 0.717403 0.194858
0.097261 0.756466 0.220035
0.268681 0.791928 0.254551
0.375219 0.823026 0.296178
0.468696 0.849760 0.345006
0.554284 0.872587 0.398291
0.633417 0.891905 0.456092
0.706905 0.908141 0.516747
0.774411 0.921538 0.578698
0.835233 0.932372 0.639521
0.895995 0.946807 0.710597
0.936217 0.947021 0.698024
0.960998 0.936584 0.642176
0.973693 0.919371 0.583459
0.986084 0.901671 0.523278
0.998260 0.884062 0.465797
1.000000 0.866819 0.410163
1.000000 0.850492 0.356634
1.000000 0.835142 0.304723
0.000000 0.700252 0.163821
0.000000 0.701625 0.163912
0.000000 0.702144 0.164187
0.000000 0.701534 0.163760
0.000000 0.699611 0.164065
0.000000 0.696193 0.163607
0.000000 0.691554 0.162936
0.000000 0.686275 0.162112
0.000000 0.680568 0.162051
0.000000 0.673976 0.161349
0.000000 0.666773 0.160952
0.000000 0.658442 0.160555
0.000000 0.694087 0.171756
0.000000 0.733516 0.192203
0.000000 0.770535 0.222934
0.192264 0.803861 0.261906
0.325963 0.832914 0.308232
0.427008 0.857877 0.360296
0.514366 0.878996 0.415717
0.593591 0.896880 0.474952
0.665370 0.911864 0.535119
0.731136 0.924407 0.597040
0.790768 0.934752 0.656672
0.844633 0.943236 0.712551
0.898680 0.954925 0.773495
0.936950 0.957458 0.779080
0.964019 0.950805 0.734981
0.977295 0.936309 0.685969
0.990997 0.921416 0.634516
1.000000 0.906493 0.582635
1.000000 0.891875 0.531640
1.000000 0.877653 0.482490
0.000000 0.730312 0.159609
0.000000 0.731502 0.160037
0.000000 0.732113 0.160372
0.000000 0.731533 0.159915
0.000000 0.730007 0.159579
0.000000 0.727138 0.159091
0.000000 0.723171 0.158022
0.000000 0.718532 0.156680
0.000000 0.713222 0.155337
0.000000 0.707362 0.154269
0.000000 0.700954 0.152956
0.000000 0.693416 0.151461
0.000000 0.703426 0.156405
0.000000 0.741665 0.179568
0.000000 0.777462 0.213596
0.000000 0.809964 0.255619
0.262028 0.838499 0.305486
0.378698 0.862913 0.360784
0.472541 0.883757 0.420264
0.554925 0.901366 0.483680
0.628382 0.916228 0.548577
0.694759 0.928649 0.614160
0.754421 0.938903 0.677852
0.808164 0.947448 0.736934
0.851530 0.951019 0.760525
0.900969 0.960876 0.812772
0.938537 0.965606 0.832853
0.966308 0.961852 0.800534
0.978454 0.949828 0.765438
0.991852 0.937407 0.726375
1.000000 0.924956 0.684779
1.000000 0.912749 0.642847
0.000000 0.775082 0.163058
0.000000 0.777218 0.164157
0.000000 0.777554 0.163973
0.000000 0.776303 0.163638
0.000000 0.773251 0.161410
0.000000 0.768978 0.159030
0.000000 0.763577 0.156313
0.000000 0.757229 0.153323
0.000000 0.750423 0.150088
0.000000 0.743252 0.146883
0.000000 0.735256 0.144076
0.000000 0.726802 0.139956
0.000000 0.717433 0.136507
0.000000 0.746365 0.159121
0.000000 0.779049 0.193729
0.000000 0.809140 0.235477
0.151247 0.836240 0.283330
0.311772 0.860105 0.337163
0.416785 0.881163 0.396307
0.504936 0.899504 0.460578
0.582696 0.915099 0.527672
0.651698 0.928008 0.595636
0.713161 0.938476 0.660639
0.767971 0.946929 0.720119
0.817258 0.953887 0.770413
0.861753 0.959655 0.811978
0.906554 0.967651 0.852781
0.942748 0.973449 0.877775
0.966461 0.970275 0.854520
0.980285 0.961730 0.829282
0.992126 0.951385 0.802213
1.000000 0.941100 0.773098
0.000000 0.797726 0.157900
0.000000 0.799619 0.159762
0.000000 0.800504 0.160281
0.000000 0.799893 0.159396
0.000000 0.798276 0.158419
0.000000 0.795682 0.155856
0.000000 0.792508 0.153201
0.000000 0.788724 0.149935
0.000000 0.784451 0.145876
0.000000 0.779812 0.141878
0.000000 0.774105 0.136538
0.000000 0.767849 0.131380
0.000000 0.760189 0.124605
0.000000 0.765347 0.134646
0.000000 0.795743 0.178378
0.000000 0.823423 0.227054
0.000000 0.848112 0.279942
0.251408 0.869993 0.336950
0.375097 0.889494 0.399237
0.469978 0.906615 0.465766
0.550805 0.921233 0.535210
0.621546 0.933471 0.605554
0.684474 0.943542 0.673915
0.740597 0.951812 0.735988
0.790829 0.958679 0.788083
0.836027 0.964416 0.830045
0.876799 0.969329 0.863584
0.917052 0.975738 0.894499
0.951934 0.982147 0.919951
0.970764 0.979858 0.906493
0.984527 0.974548 0.892119
0.994049 0.966583 0.877317
0.000000 0.832090 0.165072
0.000000 0.833005 0.166445
0.000000 0.833127 0.166354
0.000000 0.832395 0.165530
0.000000 0.830716 0.162966
0.000000 0.828336 0.159701
0.000000 0.825406 0.155856
0.000000 0.821805 0.150881
0.000000 0.818051 0.146304
0.000000 0.813779 0.139925
0.000000 0.808957 0.133089
0.000000 0.803494 0.124086
0.000000 0.797269 0.114809
0.000000 0.789700 0.102205
0.000000 0.810422 0.151186
0.000000 0.835721 0.208988
0.000000 0.858274 0.267033
0.154849 0.878569 0.327428
0.324865 0.896788 0.391791
0.430671 0.912779 0.459846
0.516289 0.926513 0.530999
0.589776 0.938048 0.602899
0.654627 0.947539 0.672389
0.712215 0.955322 0.735775
0.763546 0.961791 0.788449
0.809537 0.967254 0.830716
0.851102 0.971923 0.864622
0.888670 0.975952 0.891417
0.925109 0.981079 0.915801
0.957427 0.986786 0.937163
0.975067 0.986114 0.932677
0.989136 0.983185 0.924010
0.000000 0.860472 0.173190
0.000000 0.861204 0.174166
0.000000 0.861540 0.174472
0.000000 0.861265 0.173709
0.000000 0.860746 0.172396
0.000000 0.860166 0.170596
0.000000 0.860258 0.170199
0.000000 0.860533 0.169558
0.000000 0.861051 0.168704
0.000000 0.861662 0.167300
0.000000 0.862028 0.164981
0.000000 0.861814 0.161074
0.000000 0.860624 0.153964
0.000000 0.858122 0.144625
0.000000 0.861601 0.160647
0.000000 0.881224 0.237919
0.000000 0.898100 0.308232
0.129671 0.913207 0.378515
0.326787 0.926635 0.450996
0.436072 0.938354 0.525933
0.521996 0.948425 0.601648
0.595300 0.956786 0.675563
0.659174 0.963592 0.742336
0.715541 0.969268 0.797330
0.765408 0.974029 0.840391
0.809873 0.978027 0.873686
0.849790 0.981445 0.899535
0.885283 0.984436 0.919799
0.916625 0.986999 0.936095
0.945678 0.990143 0.950500
0.970916 0.993805 0.963348
0.984802 0.993988 0.963653
0.000000 0.913695 0.240818
0.000000 0.913664 0.240482
0.000000 0.913268 0.239536
0.000000 0.912505 0.237858
0.000000 0.911376 0.234806
0.000000 0.910002 0.231205
0.000000 0.908537 0.227359
0.000000 0.907012 0.222629
0.000000 0.905516 0.218082
0.000000 0.903868 0.212284
0.000000 0.902098 0.206882
0.000000 0.900084 0.198947
0.000000 0.897642 0.189914
0.000000 0.894469 0.177462
