20 Preset/Travel Style/【3】LUT video cho PR-AE-FCPX/Green Moody - Lut (11).cube
# Created by Adobe Lightroom plugin Export LUT (1.24.0)
# www.johnrellis.com/lightroom/exportlut.htm
# Preset: 11自然风光-绿色-素材江湖
# Color profile: E:\lut插件\exportlut.1.24\exportlut.lrplugin\color profiles\Rec709gamma2.4.icc
LUT_3D_SIZE 32
DOMAIN_MIN 0.0 0.0 0.0
DOMAIN_MAX 1.0 1.0 1.0
0.122255 0.140536 0.141054
0.122255 0.140536 0.141054
0.122255 0.140536 0.141054
0.122255 0.140536 0.141054
0.132937 0.140627 0.140841
0.149264 0.140841 0.140505
0.164981 0.142184 0.139956
0.182010 0.144106 0.139254
0.200687 0.146212 0.138369
0.221958 0.149691 0.137087
0.246403 0.154788 0.136934
0.275853 0.160616 0.137148
0.310704 0.168002 0.136995
0.351354 0.176699 0.135714
0.397253 0.186435 0.133577
0.447303 0.197787 0.130526
0.500542 0.210239 0.126009
0.556207 0.223484 0.120027
0.612421 0.237095 0.111879
0.668513 0.250950 0.101900
0.722499 0.265263 0.088533
0.775631 0.280308 0.056428
0.825864 0.295048 0.019501
0.872648 0.309575 0.000000
0.915343 0.323888 0.000000
0.954162 0.337682 0.000000
0.989929 0.350896 0.000000
1.000000 0.363928 0.000000
1.000000 0.376593 0.000000
1.000000 0.389319 0.007202
1.000000 0.402136 0.078706
1.000000 0.415045 0.119997
0.122255 0.140536 0.141054
0.122255 0.140536 0.141054
0.122255 0.140536 0.141054
0.122255 0.140536 0.141054
0.133791 0.140536 0.140841
0.149355 0.141268 0.140444
0.165072 0.142611 0.139895
0.181552 0.144625 0.139193
0.200168 0.146944 0.138277
0.221347 0.150210 0.137270
0.245884 0.155306 0.137118
0.275029 0.161349 0.137301
0.309575 0.168460 0.137209
0.350195 0.177218 0.135927
0.395972 0.186984 0.133822
0.445624 0.198367 0.130800
0.499214 0.210483 0.126650
0.554406 0.223606 0.120577
0.610864 0.237736 0.111940
0.666773 0.251713 0.101991
0.720668 0.265995 0.088716
0.773465 0.280461 0.058442
0.823270 0.295018 0.021454
0.869963 0.309453 0.000000
0.912566 0.323461 0.000000
0.951507 0.337163 0.000000
0.987518 0.350561 0.000000
1.000000 0.363714 0.000000
1.000000 0.376501 0.000000
1.000000 0.389136 0.001465
1.000000 0.401648 0.073854
1.000000 0.414496 0.117189
0.122255 0.140536 0.141054
0.122255 0.140536 0.141054
0.122255 0.140536 0.141054
0.122255 0.140536 0.141054
0.134890 0.142031 0.140627
0.149386 0.143709 0.140108
0.164645 0.145296 0.139528
0.181460 0.147219 0.138827
0.200107 0.149508 0.137881
0.221164 0.153292 0.137514
0.245487 0.158267 0.137819
0.274540 0.164218 0.138033
0.309148 0.171695 0.137819
0.349645 0.180117 0.136599
0.395453 0.190005 0.134676
0.445197 0.201419 0.131380
0.498604 0.213626 0.127169
0.553948 0.226841 0.120760
0.610193 0.240513 0.112886
0.666102 0.254582 0.102571
0.719753 0.269078 0.089662
0.772702 0.283635 0.059236
0.822171 0.297978 0.021515
0.868833 0.311925 0.000000
0.911223 0.325994 0.000000
0.950164 0.339452 0.000000
0.986206 0.352605 0.000000
1.000000 0.365698 0.000000
1.000000 0.378424 0.000000
1.000000 0.390875 0.001556
1.000000 0.403418 0.078157
1.000000 0.416236 0.117678
0.121401 0.141512 0.141390
0.121492 0.141512 0.141146
0.121889 0.141024 0.140993
0.123384 0.143343 0.140658
0.134920 0.146822 0.139956
0.149813 0.148440 0.139437
0.165011 0.149935 0.138857
0.180972 0.152285 0.138277
0.199405 0.155276 0.138430
0.220432 0.159243 0.139162
0.245335 0.164065 0.139437
0.274601 0.170230 0.139284
0.309392 0.177615 0.138796
0.349920 0.186252 0.137423
0.395392 0.196536 0.135409
0.444923 0.208164 0.131960
0.497993 0.220493 0.127657
0.552972 0.233433 0.121798
0.609094 0.247318 0.113191
0.664851 0.261418 0.102724
0.718471 0.275303 0.089998
0.771084 0.289372 0.062898
0.820005 0.303502 0.026795
0.866514 0.317327 0.000000
0.909178 0.331212 0.000000
0.948638 0.344457 0.000000
0.984924 0.357733 0.000000
1.000000 0.370336 0.000000
1.000000 0.383032 0.000000
1.000000 0.395148 0.014282
1.000000 0.407416 0.085603
1.000000 0.419959 0.121706
0.124178 0.148898 0.146731
0.124666 0.148836 0.146731
0.126772 0.148013 0.147677
0.126436 0.149722 0.147219
0.130098 0.153750 0.144411
0.146059 0.157626 0.141512
0.161807 0.159365 0.141115
0.179599 0.160769 0.140658
0.198459 0.163882 0.141207
0.219760 0.167910 0.141390
0.244846 0.172732 0.141360
0.274662 0.178866 0.140902
0.309514 0.186679 0.140444
0.349950 0.195804 0.139162
0.395636 0.206424 0.137118
0.445380 0.218112 0.133730
0.498512 0.230808 0.128908
0.553613 0.244114 0.122164
0.609461 0.257664 0.114046
0.664790 0.271519 0.103944
0.719051 0.285557 0.091463
0.770840 0.299535 0.065400
0.819577 0.312840 0.031098
0.865873 0.326482 0.000000
0.908507 0.340093 0.000000
0.947936 0.352789 0.000000
0.984314 0.365606 0.000000
1.000000 0.377935 0.000000
1.000000 0.390112 0.000000
1.000000 0.401953 0.029999
1.000000 0.413825 0.094209
1.000000 0.426123 0.126711
0.129335 0.157076 0.154055
0.129732 0.157015 0.154238
0.131167 0.156497 0.154910
0.133730 0.155825 0.156130
0.132082 0.159915 0.153811
0.138064 0.165042 0.150484
0.157565 0.170199 0.146517
0.175357 0.173098 0.145602
0.195987 0.175784 0.145022
0.219394 0.178866 0.144564
0.245151 0.184268 0.144350
0.275578 0.190829 0.144350
0.310857 0.199008 0.143435
0.351843 0.208774 0.141787
0.397742 0.219852 0.139437
0.447517 0.231785 0.135531
0.500694 0.244633 0.130617
0.555596 0.258213 0.123537
0.611536 0.272038 0.115206
0.666712 0.285740 0.104799
0.721035 0.299657 0.092287
0.772396 0.313359 0.067781
0.835294 0.331518 0.023865
0.880827 0.344823 0.000000
0.922271 0.357366 0.000000
0.960266 0.369970 0.000000
0.995178 0.381903 0.000000
1.000000 0.393500 0.000000
1.000000 0.404883 0.024598
1.000000 0.416083 0.086397
1.000000 0.427436 0.116976
1.000000 0.438941 0.148196
0.134524 0.166964 0.162631
0.135103 0.166720 0.162661
0.136263 0.166415 0.163424
0.139681 0.165011 0.164675
0.139040 0.166873 0.164431
0.138674 0.172030 0.161837
0.147677 0.178347 0.158236
0.170932 0.186221 0.153262
0.192844 0.190677 0.151705
0.217746 0.195224 0.150515
0.246555 0.200168 0.149325
0.279423 0.206760 0.148409
0.316075 0.215885 0.147005
0.358068 0.226261 0.144900
0.404456 0.237858 0.141817
0.454658 0.250370 0.137514
0.507713 0.263432 0.132357
0.562310 0.277226 0.124941
0.617823 0.290990 0.116426
0.673762 0.305211 0.105806
0.729183 0.319371 0.092592
0.781216 0.333013 0.069276
0.830655 0.346563 0.034150
0.876921 0.359533 0.005737
0.919127 0.372015 0.000000
0.957671 0.383917 0.000000
0.992737 0.395331 0.000000
1.000000 0.406409 0.006622
1.000000 0.417304 0.051026
1.000000 0.427741 0.098451
1.000000 0.438544 0.127199
1.000000 0.449744 0.157259
0.140261 0.177584 0.171969
0.140414 0.177432 0.172000
0.142184 0.176944 0.172396
0.145266 0.175814 0.173526
0.148775 0.174441 0.175692
0.145449 0.179385 0.173709
0.146944 0.185946 0.170474
0.158236 0.194186 0.166293
0.185092 0.204105 0.160616
0.213169 0.211673 0.157992
0.242893 0.218692 0.155917
0.277531 0.226047 0.154086
0.317540 0.234287 0.151522
0.360754 0.244999 0.148806
0.407385 0.257084 0.145510
0.457160 0.270176 0.140780
0.510002 0.283757 0.135073
0.564324 0.297673 0.127779
0.619989 0.311803 0.119509
0.676173 0.326085 0.108370
0.730037 0.339849 0.095460
0.780972 0.352850 0.080446
0.829709 0.365698 0.047913
0.875364 0.378149 0.021607
0.917357 0.389960 0.008698
0.955718 0.401190 0.004486
0.990570 0.412207 0.014069
1.000000 0.422400 0.042542
1.000000 0.432410 0.089967
1.000000 0.442451 0.114900
1.000000 0.452613 0.141695
1.000000 0.463325 0.169772
0.146700 0.190280 0.182620
0.147158 0.190097 0.182803
0.148562 0.189517 0.183169
0.151247 0.188388 0.184237
0.155581 0.186740 0.186130
0.155917 0.188052 0.186709
0.153262 0.194675 0.183932
0.156863 0.203006 0.180362
0.171664 0.213199 0.175753
0.201846 0.224735 0.169314
0.239506 0.237461 0.164797
0.274632 0.247501 0.162051
0.315343 0.257908 0.158663
0.361059 0.268742 0.154757
0.411200 0.279606 0.150271
0.461158 0.292973 0.145327
0.513664 0.306950 0.139376
0.568566 0.321447 0.131838
0.624414 0.336065 0.122225
0.679255 0.349920 0.112306
0.731838 0.363012 0.101076
0.781796 0.375647 0.088869
0.829831 0.387976 0.067353
0.874876 0.399664 0.045777
0.916381 0.410864 0.037415
0.954284 0.421393 0.039277
0.988952 0.431556 0.056550
1.000000 0.441016 0.089082
1.000000 0.450507 0.109712
1.000000 0.459968 0.132631
1.000000 0.469398 0.158724
1.000000 0.479469 0.185672
0.153719 0.205112 0.195193
0.154330 0.204807 0.195224
0.155489 0.204166 0.195438
0.158480 0.203220 0.196536
0.162478 0.201205 0.198062
0.168399 0.198672 0.200687
0.164187 0.204562 0.198978
0.162844 0.213107 0.196017
0.169253 0.223728 0.192050
0.188754 0.236515 0.186679
0.223880 0.251469 0.179202
0.271580 0.269047 0.172396
0.312779 0.282200 0.168063
0.358526 0.295262 0.163241
0.409247 0.308354 0.157687
0.463081 0.320592 0.151308
0.519646 0.333318 0.144167
0.574548 0.347997 0.136538
0.629389 0.362585 0.127657
0.683131 0.376165 0.118379
0.734279 0.389044 0.108858
0.782986 0.400671 0.099031
0.829801 0.412207 0.089296
0.873777 0.423224 0.079255
0.914336 0.433478 0.077790
0.951690 0.443336 0.082338
0.986206 0.452644 0.095827
1.000000 0.461707 0.110475
1.000000 0.470497 0.129885
1.000000 0.479316 0.152560
1.000000 0.488197 0.177127
1.000000 0.497749 0.203952
0.162051 0.221866 0.209262
0.162295 0.221622 0.209293
0.163912 0.221012 0.209751
0.166720 0.219913 0.210513
0.170993 0.218082 0.212009
0.176730 0.215305 0.214237
0.178988 0.215824 0.215885
0.174105 0.224521 0.213352
0.174350 0.235386 0.210147
0.184634 0.248844 0.205447
0.208927 0.264652 0.199252
0.251408 0.283757 0.190402
0.310735 0.307103 0.180056
0.357305 0.322972 0.174014
0.408606 0.338537 0.167666
0.462989 0.353307 0.160769
0.519890 0.366735 0.152987
0.577813 0.379004 0.144381
0.633845 0.391028 0.135378
0.686458 0.404395 0.127321
0.736446 0.416480 0.118685
0.784085 0.427802 0.111299
0.830228 0.438636 0.105196
0.873381 0.448981 0.101900
0.913390 0.458717 0.104005
0.950408 0.467872 0.109590
0.984436 0.476661 0.119753
1.000000 0.484810 0.134981
1.000000 0.492897 0.153536
1.000000 0.501030 0.174807
1.000000 0.509361 0.199039
1.000000 0.518334 0.225284
0.171237 0.241337 0.225589
0.171359 0.241245 0.225620
0.172824 0.240696 0.226169
0.175845 0.239384 0.226658
0.180331 0.237278 0.227848
0.186191 0.234440 0.230014
0.193454 0.231052 0.233433
0.190341 0.237217 0.232639
0.186404 0.248569 0.229892
0.188846 0.262425 0.226261
0.203525 0.279057 0.221042
0.234745 0.299138 0.213870
0.289525 0.327916 0.204868
0.361883 0.358068 0.191226
0.417304 0.377173 0.182895
0.473182 0.394141 0.174685
0.530358 0.409308 0.166293
0.588525 0.422614 0.157626
0.645655 0.433936 0.148775
0.700465 0.442756 0.139864
0.750515 0.452613 0.133455
0.796963 0.463050 0.129091
0.841245 0.472969 0.126436
0.882506 0.482094 0.127352
0.920653 0.490639 0.131075
0.956085 0.498573 0.139895
0.988434 0.506126 0.151431
1.000000 0.513085 0.166964
1.000000 0.520226 0.184726
1.000000 0.527184 0.205325
1.000000 0.534691 0.228977
1.000000 0.543023 0.254734
0.181765 0.264927 0.245243
0.182193 0.264714 0.245396
0.183780 0.264134 0.245548
0.186923 0.262760 0.246250
0.191531 0.260227 0.247166
0.197818 0.257267 0.249058
0.205539 0.253605 0.252110
0.210758 0.252079 0.255039
0.204013 0.264042 0.252781
0.201541 0.278904 0.250156
0.208011 0.296513 0.246098
0.228702 0.317906 0.240238
0.268193 0.342779 0.232334
0.326940 0.370825 0.220523
0.406592 0.405219 0.204532
0.470222 0.426825 0.193851
0.527337 0.443671 0.184604
0.584314 0.458076 0.176059
0.640742 0.470253 0.168093
0.694606 0.479713 0.160281
0.746090 0.486824 0.154025
0.795529 0.492775 0.148928
0.839536 0.501579 0.148775
0.880156 0.510246 0.150546
0.917845 0.518151 0.157015
0.953002 0.525628 0.165438
0.985046 0.532647 0.177859
1.000000 0.539117 0.193423
1.000000 0.545464 0.211246
1.000000 0.552117 0.231296
1.000000 0.559014 0.254398
1.000000 0.566766 0.280491
0.193820 0.290440 0.266697
0.193790 0.290440 0.266819
0.195590 0.289586 0.267002
0.198947 0.288029 0.267399
0.203464 0.285679 0.268315
0.209964 0.282200 0.269871
0.217807 0.278080 0.272343
0.226963 0.273014 0.276219
0.225315 0.278965 0.276768
0.219150 0.294072 0.274601
0.219028 0.312108 0.271580
0.229923 0.333501 0.267399
0.256901 0.358312 0.261265
0.302495 0.386145 0.252445
0.366674 0.416754 0.239750
0.452613 0.453925 0.220951
0.523278 0.477424 0.209476
0.579797 0.493202 0.200076
0.635279 0.506188 0.192294
0.688533 0.516320 0.185763
0.739681 0.524285 0.181033
0.788907 0.530877 0.177493
0.835477 0.535760 0.176516
0.878416 0.540002 0.178134
0.915496 0.547509 0.184695
0.950225 0.554345 0.194156
0.981811 0.560632 0.207004
1.000000 0.566491 0.222049
1.000000 0.572290 0.240299
1.000000 0.578363 0.260441
1.000000 0.584771 0.282994
1.000000 0.591943 0.308659
0.207034 0.318151 0.290318
0.207370 0.318059 0.290318
0.208865 0.316960 0.290227
0.212161 0.315343 0.290684
0.216770 0.313054 0.291447
0.223453 0.309178 0.292515
0.231693 0.304631 0.294682
0.240848 0.299138 0.297765
0.249546 0.294530 0.301732
0.241703 0.309606 0.300481
0.237156 0.327794 0.298650
0.240177 0.349126 0.295842
0.255863 0.373602 0.291508
0.288457 0.401007 0.284947
0.339483 0.431312 0.275822
0.407874 0.463630 0.262669
0.495369 0.500145 0.243595
0.575067 0.527581 0.230838
0.629725 0.541711 0.222629
0.682612 0.552667 0.216587
0.733089 0.561425 0.212406
0.782071 0.568688 0.210422
0.828183 0.574151 0.210239
0.871366 0.577813 0.212528
0.911284 0.580438 0.216678
0.947326 0.583795 0.225437
0.978393 0.589563 0.237797
1.000000 0.594995 0.253880
1.000000 0.600305 0.271794
1.000000 0.605921 0.292302
1.000000 0.611933 0.315435
1.000000 0.618921 0.341588
0.221836 0.346929 0.315129
0.222263 0.346685 0.315160
0.223758 0.345708 0.315221
0.227085 0.344213 0.315557
0.232029 0.341772 0.316381
0.238590 0.338201 0.317418
0.246616 0.333776 0.319219
0.256382 0.328069 0.322118
0.267002 0.321233 0.326085
0.267948 0.326085 0.328161
0.260807 0.344213 0.327337
0.258305 0.365209 0.325231
0.265049 0.388983 0.322271
0.285130 0.415595 0.317906
0.323033 0.445014 0.311376
0.377844 0.476448 0.302312
0.449622 0.509728 0.289189
0.534936 0.543816 0.271489
0.623285 0.575372 0.258946
0.675349 0.587396 0.252934
0.726101 0.597375 0.248234
0.775082 0.605432 0.246159
0.820798 0.611597 0.247532
0.863493 0.616022 0.250797
0.903349 0.618921 0.255894
0.940307 0.620661 0.263554
0.973938 0.621332 0.273625
1.000000 0.624323 0.288151
1.000000 0.629053 0.306188
1.000000 0.634150 0.326360
1.000000 0.639673 0.349432
1.000000 0.646143 0.375189
0.238315 0.376593 0.341527
0.238865 0.376043 0.341344
0.240330 0.375433 0.341619
0.243565 0.373724 0.341894
0.248386 0.371313 0.342473
0.255100 0.367926 0.343481
0.262730 0.363409 0.344915
0.272465 0.357519 0.347173
0.283055 0.350927 0.350622
0.294133 0.343023 0.355108
0.286992 0.359716 0.355230
0.281285 0.380163 0.354437
0.281804 0.403601 0.353033
0.292302 0.429572 0.350103
0.317510 0.458381 0.346044
0.359045 0.489082 0.340093
0.417334 0.521416 0.331151
0.490181 0.554925 0.319768
0.574121 0.586938 0.303777
0.666835 0.620386 0.293278
0.719112 0.632074 0.288914
0.767605 0.641138 0.286564
0.813077 0.647974 0.287785
0.855314 0.652766 0.291630
0.894865 0.656214 0.297765
0.931518 0.658259 0.305760
0.964813 0.659174 0.316564
0.994995 0.659236 0.328771
1.000000 0.658869 0.343084
1.000000 0.662867 0.363134
1.000000 0.668055 0.385992
1.000000 0.674098 0.411566
0.257115 0.406989 0.369238
0.257725 0.406928 0.369451
0.261814 0.411109 0.373877
0.265080 0.409277 0.374060
0.269810 0.407019 0.374640
0.275975 0.403143 0.375219
0.284062 0.398596 0.376410
0.293095 0.392828 0.378119
0.303532 0.385657 0.380804
0.314855 0.377630 0.384527
0.318334 0.379400 0.387427
0.311009 0.399908 0.387701
0.307683 0.422797 0.387213
0.311528 0.448432 0.386084
0.326635 0.476295 0.383978
0.356054 0.506218 0.380255
0.401343 0.537713 0.374701
0.461524 0.569940 0.366857
0.534539 0.602258 0.356664
0.616938 0.633051 0.343481
0.708186 0.666224 0.335912
0.762966 0.677882 0.334752
0.807248 0.684932 0.335149
0.848905 0.689998 0.337835
0.887541 0.693385 0.344213
0.923064 0.695460 0.352667
0.955566 0.696132 0.362554
0.985138 0.696223 0.374365
1.000000 0.696010 0.388922
1.000000 0.695735 0.405402
1.000000 0.696468 0.424506
1.000000 0.702113 0.449805
0.278538 0.439979 0.399664
0.279088 0.440162 0.400214
0.280888 0.439948 0.400580
0.283818 0.438911 0.401129
0.288579 0.436652 0.401740
0.294713 0.433539 0.402655
0.302159 0.428870 0.403418
0.311162 0.422950 0.404639
0.320958 0.416388 0.406958
0.331975 0.408270 0.409918
0.343511 0.398840 0.413886
0.338659 0.414130 0.415473
0.333165 0.436561 0.416205
0.332341 0.461280 0.416480
0.339879 0.488594 0.415778
0.359075 0.517662 0.414130
0.391943 0.548302 0.411566
0.439948 0.579980 0.407202
0.501030 0.611841 0.401495
0.572992 0.643153 0.393988
0.653742 0.673335 0.383917
0.742977 0.705959 0.378759
0.798550 0.717189 0.381750
0.839536 0.722988 0.384558
0.877806 0.727047 0.389776
0.912963 0.729305 0.397436
0.944854 0.730465 0.407935
0.973968 0.730739 0.420722
1.000000 0.730770 0.434730
1.000000 0.730770 0.451423
1.000000 0.731228 0.469947
1.000000 0.732326 0.490913
0.300420 0.471443 0.429175
0.301213 0.471687 0.429725
0.302617 0.471504 0.430213
0.305791 0.470863 0.431037
0.310216 0.468574 0.431373
0.315923 0.465339 0.431983
0.322911 0.460792 0.432624
0.331456 0.455482 0.433753
0.340856 0.448859 0.435401
0.351476 0.440864 0.437812
0.362524 0.431739 0.441108
0.368780 0.429877 0.444495
0.362188 0.451759 0.446052
0.358831 0.475990 0.447425
0.361303 0.502678 0.448310
0.372412 0.530907 0.448432
0.395483 0.560967 0.447730
0.431617 0.591730 0.445960
0.480873 0.622675 0.443519
0.541588 0.653498 0.439673
0.611749 0.683497 0.434455
0.689052 0.711849 0.427802
0.774624 0.743038 0.425818
0.830381 0.753658 0.433021
0.867948 0.758389 0.438178
0.902464 0.761135 0.445014
0.933898 0.762600 0.454566
0.962615 0.763210 0.466865
0.988708 0.763607 0.481483
1.000000 0.763943 0.497719
1.000000 0.764645 0.516503
1.000000 0.765927 0.536858
0.324956 0.504723 0.460700
0.325689 0.504845 0.461067
0.327062 0.504631 0.461646
0.329870 0.503960 0.462257
0.333928 0.501854 0.462715
0.339361 0.498665 0.463050
0.345983 0.494423 0.463539
0.353765 0.489357 0.464576
0.362829 0.482582 0.465736
0.372839 0.474830 0.467414
0.383551 0.466102 0.470100
0.394934 0.455970 0.473793
0.393225 0.468421 0.476478
0.388281 0.492164 0.478614
0.387793 0.518059 0.480873
0.393774 0.545800 0.482460
0.408881 0.574914 0.483589
0.435554 0.605066 0.484291
0.474311 0.635554 0.484352
0.524376 0.665919 0.484138
0.584649 0.695888 0.482582
0.652033 0.723964 0.480751
0.724086 0.749508 0.477638
0.805722 0.779263 0.478798
0.860349 0.789334 0.491157
0.893980 0.792660 0.498146
0.924559 0.794675 0.507652
0.952697 0.795651 0.518639
0.978088 0.796414 0.533440
1.000000 0.797055 0.549493
1.000000 0.798093 0.567803
1.000000 0.799649 0.587579
0.354894 0.542229 0.496986
0.355322 0.542382 0.497200
0.356725 0.541802 0.497353
0.359014 0.540307 0.497322
0.362524 0.538140 0.497505
0.367315 0.535027 0.497688
0.373327 0.531060 0.498054
0.380591 0.525841 0.498573
0.388891 0.519432 0.499367
0.398352 0.512291 0.500969
0.408728 0.503807 0.503136
0.419837 0.493965 0.505943
0.428046 0.487922 0.509300
0.422675 0.511192 0.512413
0.419867 0.536522 0.515404
0.422309 0.563470 0.518212
0.431952 0.591547 0.520653
0.450660 0.620630 0.522972
0.479744 0.649928 0.524620
0.519677 0.679469 0.526116
0.569024 0.708125 0.527062
0.626123 0.735134 0.527672
0.688533 0.759945 0.527428
0.754726 0.782437 0.526543
0.828214 0.807858 0.530266
0.883635 0.818997 0.545434
0.913695 0.821653 0.554772
0.941131 0.823301 0.565576
0.966308 0.824369 0.578393
0.989044 0.825376 0.593622
1.000000 0.826688 0.611139
1.000000 0.828458 0.630274
0.385992 0.577783 0.532036
0.386297 0.577844 0.532250
0.387549 0.577447 0.532464
0.389593 0.576196 0.532555
0.392828 0.574090 0.532555
0.397040 0.571283 0.532708
0.402655 0.567437 0.532860
0.409308 0.562646 0.533318
0.417090 0.556847 0.534020
0.426032 0.549798 0.535180
0.435584 0.541680 0.536919
0.445869 0.532341 0.539147
0.456916 0.521508 0.542138
0.457801 0.530877 0.545678
0.454261 0.555535 0.549340
0.454627 0.581476 0.553185
0.460304 0.608820 0.556786
0.473182 0.636805 0.560388
0.494728 0.665248 0.563653
0.525719 0.693904 0.566674
0.565545 0.721462 0.569482
0.612970 0.747463 0.571923
0.666377 0.771542 0.574212
0.723873 0.793606 0.576165
0.782376 0.812100 0.575097
0.847501 0.833005 0.579919
0.900511 0.845090 0.596826
0.930114 0.847654 0.609247
0.954681 0.849271 0.621271
0.977081 0.850706 0.635309
0.997284 0.852262 0.651575
1.000000 0.854490 0.670344
0.422919 0.616510 0.571160
0.423651 0.616541 0.571435
0.424506 0.616236 0.571649
0.426215 0.614984 0.571527
0.428840 0.612940 0.571405
0.432441 0.609918 0.571130
0.436957 0.606195 0.571038
0.442725 0.601495 0.571069
0.449348 0.595758 0.571313
0.457282 0.588891 0.571832
0.465919 0.581079 0.572808
0.475410 0.572107 0.574487
0.485420 0.561852 0.576745
0.495003 0.552087 0.579583
0.490791 0.575555 0.583642
0.489296 0.600458 0.587549
0.492073 0.626429 0.591730
0.500572 0.653315 0.595941
0.516320 0.680720 0.600000
0.539666 0.708003 0.603998
0.571374 0.734493 0.608118
0.610101 0.759335 0.611963
0.654597 0.782498 0.615625
0.703426 0.803738 0.618769
0.755184 0.822751 0.621515
0.808408 0.839353 0.623957
0.865568 0.856352 0.629725
0.915526 0.869017 0.647272
0.944182 0.871519 0.662074
0.965911 0.873442 0.675471
0.985779 0.875364 0.690242
1.000000 0.877653 0.706783
0.461067 0.653315 0.608911
0.461372 0.653285 0.609094
0.462531 0.652857 0.609247
0.464057 0.652003 0.609339
0.466407 0.650233 0.609308
0.469642 0.647852 0.609400
0.474006 0.644617 0.609491
0.479469 0.640467 0.609705
0.485573 0.635401 0.610040
0.492927 0.629541 0.610681
0.500999 0.622644 0.611810
0.509880 0.614649 0.613214
0.519249 0.605341 0.615198
0.529168 0.594659 0.617639
0.532189 0.600214 0.621149
0.529747 0.624079 0.625391
0.530663 0.648859 0.629755
0.536034 0.674586 0.634302
0.547265 0.700679 0.638941
0.564843 0.726284 0.643610
0.589502 0.750973 0.648463
0.620386 0.774472 0.653162
0.656733 0.796445 0.657832
0.697230 0.816678 0.662226
0.740902 0.834714 0.666468
0.786526 0.850675 0.670375
0.833463 0.864652 0.673945
0.882689 0.878477 0.680018
0.929686 0.891569 0.697932
0.956786 0.894255 0.714351
0.976043 0.896605 0.728206
0.993530 0.898924 0.742489
0.504448 0.693446 0.649989
0.504906 0.693538 0.650233
0.505547 0.692927 0.650141
0.506859 0.692195 0.650355
0.509056 0.690578 0.650263
0.511803 0.688350 0.650233
0.515557 0.685481 0.650324
0.520287 0.681697 0.650446
0.525841 0.677058 0.650752
0.532372 0.671839 0.651331
0.539879 0.665614 0.652247
0.547997 0.658259 0.653468
0.556573 0.650172 0.655268
0.566064 0.640620 0.657465
0.575494 0.629969 0.660182
0.573419 0.650660 0.664332
0.573144 0.674342 0.668849
0.576532 0.698634 0.673457
0.584405 0.722713 0.678340
0.597681 0.746456 0.683314
0.616571 0.769284 0.688624
0.640833 0.791104 0.693874
0.669612 0.811582 0.698787
0.702449 0.830350 0.703700
0.738186 0.847105 0.708248
0.776150 0.862119 0.712459
0.815610 0.875364 0.716518
0.856229 0.886992 0.720150
0.899229 0.898711 0.726406
0.942290 0.911437 0.742885
0.967590 0.914153 0.759854
0.984649 0.916777 0.773129
0.553429 0.733547 0.692500
0.553582 0.733547 0.692531
0.554314 0.733486 0.692805
0.555505 0.732479 0.692775
0.557427 0.731380 0.692988
0.560113 0.729793 0.693294
0.563745 0.727779 0.693904
0.568536 0.725032 0.694575
0.574121 0.721767 0.695521
0.580560 0.717922 0.696803
0.587976 0.713313 0.698360
0.595911 0.707820 0.700252
0.604578 0.701442 0.702480
0.613672 0.693751 0.704952
0.623194 0.684932 0.707942
0.628016 0.687434 0.711543
0.627253 0.709255 0.715908
0.629267 0.731136 0.720394
0.634974 0.752773 0.725093
0.644587 0.774136 0.729915
0.658350 0.794705 0.734737
0.676478 0.814389 0.739590
0.698299 0.832486 0.744350
0.723568 0.849088 0.748989
0.751522 0.864073 0.753445
0.781674 0.877562 0.757656
0.813565 0.889616 0.761593
0.846647 0.900206 0.765103
0.880674 0.909514 0.768215
0.916716 0.918944 0.773526
0.955138 0.930877 0.788174
0.978363 0.933684 0.804837
0.614466 0.777829 0.741176
0.614679 0.777707 0.741115
0.615045 0.777432 0.741176
0.615869 0.776791 0.741176
0.617426 0.775723 0.741299
0.619471 0.774258 0.741421
0.622156 0.772335 0.741665
0.625757 0.770016 0.742123
0.630060 0.767147 0.742763
0.635218 0.763638 0.743557
0.641108 0.759731 0.744717
0.647639 0.755154 0.746212
0.654932 0.749722 0.747890
0.662715 0.743526 0.750027
