20 Preset/Travel Style/【3】LUT video cho PR-AE-FCPX/Green Moody - Lut (20).cube
# Created by Adobe Lightroom plugin Export LUT (1.24.0)
# www.johnrellis.com/lightroom/exportlut.htm
# Preset: 20自然风光-瀑布-素材江湖
# Color profile: E:\lut插件\exportlut.1.24\exportlut.lrplugin\color profiles\Rec709gamma2.4.icc
LUT_3D_SIZE 32
DOMAIN_MIN 0.0 0.0 0.0
DOMAIN_MAX 1.0 1.0 1.0
0.157382 0.149844 0.145571
0.157382 0.149844 0.145571
0.158419 0.149722 0.145541
0.160616 0.149660 0.145724
0.163943 0.149630 0.145876
0.169589 0.149538 0.145968
0.177981 0.149386 0.145998
0.190036 0.148836 0.145968
0.207462 0.147982 0.145785
0.230564 0.146426 0.145632
0.259129 0.144076 0.145449
0.292912 0.140017 0.144808
0.331518 0.134035 0.144015
0.375006 0.124819 0.143008
0.423163 0.110628 0.141390
0.475563 0.085664 0.139345
0.532433 0.000000 0.137148
0.593103 0.000000 0.133822
0.657313 0.000000 0.129580
0.721401 0.000000 0.124971
0.782528 0.000000 0.119539
0.848936 0.000000 0.112856
0.910185 0.000000 0.107149
0.960113 0.000000 0.103578
1.000000 0.000000 0.103334
1.000000 0.000000 0.106172
1.000000 0.000000 0.111818
1.000000 0.000000 0.120119
1.000000 0.000000 0.130983
1.000000 0.000000 0.144259
1.000000 0.000000 0.159640
1.000000 0.000000 0.177432
0.157259 0.150057 0.145541
0.157626 0.150027 0.145541
0.158602 0.149905 0.145724
0.160494 0.149874 0.145693
0.163821 0.149874 0.145846
0.169467 0.149752 0.145937
0.177584 0.149660 0.145968
0.189425 0.149142 0.145937
0.206210 0.148409 0.145754
0.228824 0.147005 0.145846
0.256718 0.144686 0.145480
0.289860 0.140993 0.144839
0.327977 0.135470 0.144045
0.370916 0.126925 0.143069
0.418372 0.113466 0.141543
0.470283 0.090852 0.139590
0.526818 0.009033 0.137209
0.587060 0.000000 0.134218
0.651057 0.000000 0.130068
0.715053 0.000000 0.125368
0.776089 0.000000 0.120089
0.841764 0.000000 0.113588
0.902098 0.000000 0.107698
0.951904 0.000000 0.104311
0.993378 0.000000 0.103395
1.000000 0.000000 0.105074
1.000000 0.000000 0.110292
1.000000 0.000000 0.117586
1.000000 0.000000 0.127749
1.000000 0.000000 0.140352
1.000000 0.000000 0.155520
1.000000 0.000000 0.172885
0.158053 0.150790 0.145846
0.158053 0.150790 0.145846
0.158724 0.150698 0.145846
0.160311 0.150729 0.145815
0.163638 0.150729 0.145937
0.168856 0.150851 0.146029
0.177127 0.150546 0.146059
0.188815 0.150484 0.145998
0.205142 0.149844 0.146029
0.227481 0.148745 0.145846
0.255222 0.146548 0.145510
0.288060 0.143526 0.144808
0.325750 0.138186 0.144076
0.368048 0.130617 0.143069
0.415106 0.118898 0.141726
0.466712 0.099306 0.139773
0.522789 0.037629 0.137392
0.583062 0.000000 0.134157
0.646723 0.000000 0.130251
0.710780 0.000000 0.125460
0.772183 0.000000 0.120119
0.838621 0.000000 0.113954
0.898222 0.000000 0.108034
0.947784 0.000000 0.104433
0.989227 0.000000 0.103212
1.000000 0.000000 0.104768
1.000000 0.000000 0.109377
1.000000 0.000000 0.116854
1.000000 0.000000 0.126558
1.000000 0.000000 0.139284
1.000000 0.000000 0.154025
1.000000 0.000000 0.171328
0.158938 0.152529 0.145785
0.159304 0.152468 0.145785
0.159792 0.152621 0.145968
0.161013 0.152682 0.145937
0.163790 0.152529 0.146120
0.168765 0.152499 0.146426
0.176822 0.152621 0.146426
0.188174 0.152804 0.146334
0.204654 0.152590 0.146304
0.226993 0.151736 0.145876
0.254276 0.150362 0.145449
0.286748 0.147799 0.144747
0.323827 0.143832 0.144106
0.365850 0.137453 0.142824
0.412238 0.127474 0.141482
0.462837 0.112215 0.139681
0.518090 0.084016 0.137270
0.576989 0.000000 0.134218
0.639887 0.000000 0.130343
0.703548 0.000000 0.125490
0.764767 0.000000 0.120089
0.831632 0.000000 0.113741
0.890196 0.000000 0.108400
0.940185 0.000000 0.104372
0.982879 0.000000 0.102846
1.000000 0.000000 0.104555
1.000000 0.000000 0.109590
1.000000 0.000000 0.117006
1.000000 0.000000 0.127169
1.000000 0.000000 0.139986
1.000000 0.000000 0.154971
1.000000 0.000000 0.171786
0.160433 0.155703 0.145937
0.160769 0.155673 0.145937
0.162112 0.155520 0.145937
0.163729 0.155917 0.145846
0.165499 0.155886 0.145998
0.169314 0.155795 0.146151
0.176761 0.155795 0.146609
0.187381 0.155886 0.146761
0.203586 0.156130 0.146456
0.225315 0.156222 0.146151
0.252079 0.155886 0.145602
0.284062 0.154482 0.145022
0.320714 0.151827 0.144259
0.362371 0.146944 0.142916
0.408270 0.139803 0.141634
0.459144 0.128420 0.139651
0.514336 0.110628 0.137240
0.573754 0.071656 0.133974
0.636652 0.000000 0.130037
0.700221 0.000000 0.125093
0.763424 0.000000 0.119783
0.829618 0.000000 0.113283
0.887083 0.000000 0.107729
0.936889 0.000000 0.104158
0.979797 0.000000 0.103273
1.000000 0.000000 0.105013
1.000000 0.000000 0.110292
1.000000 0.000000 0.118135
1.000000 0.000000 0.128664
1.000000 0.000000 0.141604
1.000000 0.000000 0.156588
1.000000 0.000000 0.173617
0.162997 0.160616 0.145998
0.163333 0.160555 0.145998
0.164645 0.160403 0.145998
0.166720 0.160342 0.146181
0.169284 0.160983 0.145998
0.172427 0.160983 0.145937
0.178073 0.161196 0.145968
0.189151 0.161563 0.146273
0.204013 0.162142 0.146609
0.224949 0.162570 0.146487
0.251957 0.163088 0.146029
0.283787 0.162936 0.145235
0.320562 0.161807 0.144289
0.362005 0.158938 0.143130
0.408209 0.154299 0.141604
0.458991 0.146517 0.139559
0.514488 0.135103 0.136721
0.574243 0.117220 0.133425
0.637385 0.087037 0.129366
0.700832 0.000000 0.124086
0.768154 0.000000 0.118227
0.832578 0.000000 0.111940
0.933593 0.000000 0.104219
0.978943 0.000000 0.105043
1.000000 0.000000 0.109010
1.000000 0.000000 0.116060
1.000000 0.000000 0.126040
1.000000 0.000000 0.137514
1.000000 0.000000 0.151553
1.000000 0.026246 0.166567
1.000000 0.118196 0.183200
1.000000 0.157900 0.200931
0.167422 0.169009 0.145632
0.167727 0.168978 0.145632
0.169284 0.168795 0.145632
0.172213 0.168643 0.145785
0.175265 0.169162 0.145632
0.179965 0.170321 0.145541
0.184939 0.170748 0.145541
0.193576 0.171695 0.145357
0.210666 0.173037 0.145480
0.232456 0.174136 0.145815
0.259373 0.174746 0.145937
0.292638 0.175509 0.145510
0.330846 0.176059 0.144350
0.373480 0.175143 0.142916
0.420752 0.172946 0.140780
0.472236 0.168704 0.138766
0.528252 0.161990 0.135653
0.588342 0.151888 0.131899
0.651728 0.138064 0.127138
0.719509 0.119234 0.121157
0.792905 0.093080 0.114290
0.859281 0.035737 0.108064
0.916655 0.000000 0.104921
0.965576 0.000000 0.105043
1.000000 0.000000 0.109590
1.000000 0.011170 0.117830
1.000000 0.063020 0.128206
1.000000 0.104372 0.140017
1.000000 0.131044 0.153658
1.000000 0.155154 0.169009
1.000000 0.179507 0.185367
1.000000 0.203830 0.203128
0.172732 0.179995 0.145113
0.173037 0.179965 0.145113
0.174838 0.179751 0.145113
0.178195 0.179538 0.145266
0.182559 0.179690 0.145357
0.187381 0.181064 0.145174
0.194095 0.183108 0.144594
0.201114 0.183780 0.144686
0.212161 0.185275 0.144289
0.234379 0.188296 0.144198
0.261418 0.190280 0.144228
0.293156 0.191470 0.144656
0.329625 0.191897 0.144930
0.371771 0.193332 0.143740
0.418524 0.193851 0.141665
0.469368 0.193118 0.139376
0.524865 0.190921 0.136141
0.584405 0.187442 0.131899
0.649409 0.182467 0.126864
0.722255 0.177218 0.120119
0.790890 0.170901 0.113741
0.854398 0.165743 0.108644
0.910155 0.163302 0.105531
0.958343 0.163485 0.107485
0.999359 0.167239 0.113100
1.000000 0.173556 0.121675
1.000000 0.181857 0.132235
1.000000 0.191470 0.144594
1.000000 0.203983 0.159060
1.000000 0.217777 0.174594
1.000000 0.233127 0.191409
1.000000 0.249760 0.209140
0.179995 0.195285 0.143893
0.180545 0.195224 0.143893
0.182132 0.195224 0.143862
0.185855 0.194980 0.144015
0.191501 0.194644 0.144137
0.197086 0.196017 0.143923
0.204196 0.198337 0.143435
0.213870 0.201328 0.142916
0.223148 0.202487 0.142763
0.235935 0.203616 0.142489
0.263737 0.209354 0.141787
0.295598 0.212375 0.141726
0.331884 0.214817 0.141909
0.372778 0.216373 0.142763
0.418555 0.217380 0.143038
0.469184 0.220005 0.140444
0.524468 0.221775 0.136812
0.586206 0.223545 0.132479
0.656672 0.226078 0.126558
0.725429 0.227207 0.120363
0.790860 0.228489 0.114351
0.851591 0.229374 0.109895
0.905852 0.230869 0.108339
0.953002 0.233951 0.111177
0.993500 0.238010 0.118013
1.000000 0.242283 0.127687
1.000000 0.247745 0.139467
1.000000 0.254368 0.152834
1.000000 0.262547 0.167666
1.000000 0.272007 0.183566
1.000000 0.282933 0.200870
1.000000 0.295445 0.218845
0.188907 0.215274 0.141817
0.189425 0.215213 0.141817
0.191287 0.215030 0.141817
0.195193 0.214908 0.141939
0.201266 0.214420 0.142123
0.208621 0.214633 0.142031
0.215915 0.217227 0.141390
0.225620 0.220615 0.140841
0.237919 0.224887 0.139712
0.249485 0.226261 0.139559
0.263432 0.226719 0.139498
0.296391 0.235660 0.137850
0.332433 0.240177 0.137575
0.373297 0.244022 0.137942
0.418921 0.247807 0.138552
0.469337 0.250492 0.139681
0.529931 0.256504 0.138857
0.595697 0.263798 0.133761
0.663508 0.270603 0.127932
0.729519 0.276066 0.121736
0.791806 0.280522 0.116793
0.849058 0.283909 0.113497
0.900267 0.287083 0.113375
0.945312 0.290257 0.117128
0.984466 0.293614 0.124208
1.000000 0.296818 0.134249
1.000000 0.300999 0.146822
1.000000 0.306065 0.160769
1.000000 0.312261 0.176486
1.000000 0.319921 0.193301
1.000000 0.328557 0.211398
1.000000 0.338750 0.230625
0.198550 0.238560 0.138521
0.199039 0.238529 0.138521
0.201144 0.238437 0.138491
0.205203 0.238407 0.138582
0.211826 0.238102 0.138918
0.220768 0.237858 0.139132
0.229160 0.240116 0.138613
0.239139 0.244144 0.137453
0.251621 0.249058 0.136110
0.267216 0.255161 0.134310
0.281041 0.256687 0.134066
0.295903 0.256168 0.134859
0.334264 0.269444 0.130892
0.375463 0.275731 0.130556
0.424537 0.283848 0.130129
0.478737 0.291905 0.130434
0.537987 0.299504 0.131899
0.601801 0.306615 0.134859
0.666804 0.315068 0.131960
0.730068 0.322972 0.126131
0.790066 0.329351 0.122194
0.845396 0.334539 0.120027
0.895384 0.338994 0.121309
0.939635 0.342657 0.126589
0.978424 0.346197 0.135439
1.000000 0.349432 0.146700
1.000000 0.352850 0.159884
1.000000 0.356725 0.174563
1.000000 0.361547 0.191012
1.000000 0.367559 0.208835
1.000000 0.374609 0.227390
1.000000 0.382727 0.246799
0.209293 0.267582 0.133059
0.209751 0.267552 0.133028
0.211917 0.267460 0.133242
0.216495 0.267460 0.133303
0.223575 0.267308 0.133577
0.232853 0.267308 0.133700
0.244144 0.267948 0.133700
0.254276 0.272404 0.132357
0.267155 0.277897 0.130587
0.282811 0.284550 0.128328
0.301762 0.292576 0.125277
0.319738 0.296605 0.124361
0.357122 0.315312 0.119905
0.406867 0.337346 0.110018
0.461219 0.349248 0.108003
0.520165 0.361120 0.107454
0.583429 0.372595 0.108583
0.648615 0.382574 0.113191
0.712184 0.390112 0.122896
0.773068 0.395666 0.137392
0.828519 0.402411 0.137087
0.877684 0.406989 0.140352
0.921355 0.410437 0.147189
0.959991 0.413001 0.156649
0.994049 0.415015 0.168734
1.000000 0.416510 0.181888
1.000000 0.418128 0.196262
1.000000 0.419959 0.211093
1.000000 0.422492 0.227207
1.000000 0.426062 0.244205
1.000000 0.430732 0.262425
1.000000 0.436683 0.281895
0.223056 0.307805 0.123354
0.223545 0.307683 0.123384
0.226047 0.307500 0.123354
0.230991 0.307073 0.123598
0.238529 0.306554 0.124056
0.248814 0.306004 0.124605
0.261540 0.305882 0.124819
0.274693 0.310491 0.123445
0.289189 0.318303 0.120211
0.307134 0.327977 0.116182
0.329381 0.340063 0.110292
0.356359 0.354589 0.101961
0.379980 0.361395 0.099886
0.406592 0.366735 0.099672
0.460243 0.393042 0.073976
0.518883 0.406653 0.065431
0.580804 0.419409 0.063325
0.643061 0.429999 0.076783
0.704005 0.438178 0.094484
0.762356 0.444068 0.114107
0.816739 0.447852 0.136812
0.865843 0.450721 0.157473
0.909331 0.454414 0.164614
0.948058 0.457191 0.174655
0.982544 0.458991 0.186709
1.000000 0.460365 0.200320
1.000000 0.461830 0.215091
1.000000 0.463355 0.230777
1.000000 0.465400 0.247562
1.000000 0.468513 0.265476
1.000000 0.472389 0.284184
1.000000 0.477333 0.304265
0.236881 0.351080 0.108034
0.237400 0.350927 0.108095
0.240146 0.350469 0.108583
0.245274 0.350195 0.108797
0.253361 0.349828 0.109224
0.264652 0.349615 0.109590
0.278752 0.349584 0.110262
0.294835 0.350988 0.110353
0.309026 0.358404 0.106172
0.326818 0.368078 0.100404
0.348547 0.380163 0.092409
0.374884 0.394842 0.073793
0.405890 0.411505 0.036286
0.431617 0.418494 0.030671
0.460243 0.423774 0.031922
0.513970 0.448798 0.000000
0.575952 0.465675 0.000000
0.636469 0.476570 0.000000
0.695918 0.485176 0.000000
0.752926 0.491279 0.062257
0.806210 0.495399 0.110201
0.855222 0.497780 0.143557
0.899107 0.499092 0.176516
0.938170 0.500969 0.198123
0.972686 0.502983 0.210727
1.000000 0.504295 0.224704
1.000000 0.505394 0.239933
1.000000 0.506493 0.255833
1.000000 0.508232 0.273259
1.000000 0.510643 0.291783
1.000000 0.513878 0.310979
1.000000 0.518151 0.331487
0.251530 0.399023 0.078798
0.252384 0.398871 0.078950
0.255161 0.398260 0.079622
0.260533 0.397467 0.081025
0.269017 0.396551 0.082856
0.280430 0.395666 0.084779
0.295109 0.395178 0.086763
0.312749 0.395300 0.088167
0.329259 0.400488 0.082246
0.346838 0.410101 0.064118
0.368414 0.422187 0.036408
0.394293 0.436805 0.002106
0.424506 0.453590 0.000000
0.457893 0.470863 0.000000
0.485603 0.477821 0.000000
0.515465 0.482643 0.000000
0.567895 0.504814 0.000000
0.630152 0.523064 0.000000
0.688350 0.531640 0.000000
0.744289 0.537682 0.000000
0.796841 0.541680 0.039887
0.845304 0.544060 0.117617
0.888975 0.545098 0.159609
0.928161 0.545403 0.197696
0.962921 0.545586 0.234562
0.993835 0.546746 0.253849
1.000000 0.547814 0.269413
1.000000 0.549126 0.286534
1.000000 0.550744 0.304814
1.000000 0.553368 0.324743
1.000000 0.556756 0.346014
1.000000 0.561028 0.368322
0.266941 0.446509 0.000000
0.267674 0.446662 0.000000
0.270665 0.446326 0.000000
0.276371 0.446082 0.000000
0.285496 0.445533 0.000000
0.297795 0.445319 0.000000
0.313146 0.445472 0.000000
0.332006 0.446235 0.001343
0.352728 0.448310 0.002045
0.370642 0.458045 0.000000
0.391760 0.469581 0.000000
0.416663 0.482979 0.000000
0.445289 0.498054 0.000000
0.477333 0.514366 0.000000
0.511345 0.529747 0.000000
0.538994 0.534997 0.000000
0.569146 0.538659 0.000000
0.617151 0.555505 0.000000
0.678614 0.574884 0.000000
0.734310 0.581262 0.000000
0.786984 0.585748 0.000000
0.835599 0.588281 0.066285
0.879484 0.589349 0.138643
0.918853 0.589471 0.185458
0.953979 0.589258 0.227176
0.985229 0.589288 0.267704
1.000000 0.590265 0.306279
1.000000 0.591485 0.323949
1.000000 0.592859 0.342687
1.000000 0.594812 0.362676
1.000000 0.597406 0.383520
1.000000 0.600824 0.405646
0.283452 0.494759 0.000000
0.284031 0.494697 0.000000
0.287480 0.494545 0.000000
0.292973 0.494362 0.000000
0.302373 0.494118 0.000000
0.314977 0.494026 0.000000
0.330816 0.494240 0.000000
0.349920 0.494911 0.000000
0.371923 0.496010 0.000000
0.392309 0.502220 0.000000
0.413275 0.513359 0.000000
0.437629 0.526238 0.000000
0.465492 0.540734 0.000000
0.496620 0.556146 0.000000
0.530755 0.572198 0.000000
0.564843 0.585748 0.000000
0.592401 0.589746 0.000000
0.622156 0.592493 0.000000
0.665888 0.604547 0.000000
0.725948 0.624659 0.000000
0.778256 0.628870 0.000000
0.826535 0.631250 0.000000
0.870268 0.632044 0.112123
0.909819 0.631678 0.171359
0.945159 0.630854 0.219425
0.976593 0.630243 0.264012
1.000000 0.630243 0.307256
1.000000 0.631281 0.349889
1.000000 0.633448 0.385595
1.000000 0.635309 0.406073
1.000000 0.637629 0.427375
1.000000 0.640620 0.449683
0.303685 0.546624 0.000000
0.304723 0.546990 0.000000
0.318456 0.570764 0.000000
0.324895 0.570611 0.000000
0.334844 0.570397 0.000000
0.348089 0.570153 0.000000
0.365118 0.569970 0.000000
0.385290 0.570062 0.000000
0.408453 0.570764 0.000000
0.434119 0.572351 0.000000
0.455390 0.582696 0.000000
0.479774 0.594263 0.000000
0.506889 0.606500 0.000000
0.536645 0.619379 0.000000
0.568841 0.632502 0.000000
0.603174 0.645960 0.000000
0.635431 0.655451 0.000000
0.661402 0.656703 0.000000
0.688838 0.656703 0.000000
0.726070 0.662501 0.000000
0.781033 0.680354 0.000000
0.827115 0.680659 0.000000
0.868956 0.679622 0.095552
0.906676 0.677638 0.169192
0.940490 0.674922 0.221775
0.970733 0.672389 0.268101
0.997772 0.670283 0.311742
1.000000 0.669398 0.355077
1.000000 0.670253 0.399359
1.000000 0.673030 0.444251
1.000000 0.676051 0.475257
1.000000 0.678553 0.496925
0.330938 0.604669 0.000000
0.332769 0.606775 0.000000
0.337285 0.608972 0.000000
0.344182 0.610956 0.000000
0.354742 0.612360 0.000000
0.367926 0.612665 0.000000
0.384588 0.612726 0.000000
0.403998 0.612604 0.000000
0.426490 0.612940 0.000000
0.451667 0.613581 0.000000
0.475471 0.618982 0.000000
0.498451 0.629297 0.000000
0.523949 0.640223 0.000000
0.551965 0.651759 0.000000
0.582330 0.663813 0.000000
0.614954 0.676143 0.000000
0.649378 0.688716 0.000000
0.680812 0.697047 0.000000
0.706477 0.698177 0.000000
0.733150 0.698024 0.000000
0.765438 0.700435 0.000000
0.817258 0.718471 0.000000
0.859159 0.717037 0.002045
0.897063 0.714595 0.153384
0.930938 0.711391 0.213535
0.961425 0.708034 0.263645
0.988678 0.705104 0.310033
1.000000 0.703090 0.355444
1.000000 0.702541 0.400763
1.000000 0.703822 0.446754
1.000000 0.707210 0.493660
1.000000 0.712428 0.540032
0.355627 0.648707 0.000000
0.357733 0.650904 0.000000
0.362066 0.653101 0.000000
0.369146 0.655085 0.000000
0.379126 0.656519 0.000000
0.392126 0.657008 0.000000
0.408148 0.657008 0.000000
0.426978 0.656947 0.000000
0.448615 0.657008 0.000000
0.473060 0.657252 0.000000
0.499855 0.657893 0.000000
0.521599 0.666835 0.000000
0.545678 0.676570 0.000000
0.572229 0.686946 0.000000
0.600916 0.697810 0.000000
0.631586 0.708827 0.000000
0.663966 0.719966 0.000000
0.697719 0.731228 0.000000
0.726986 0.737301 0.000000
0.750942 0.737423 0.000000
0.775540 0.736294 0.000000
0.802579 0.735378 0.000000
0.849424 0.750210 0.000000
0.887968 0.749660 0.137606
0.922026 0.745907 0.206821
0.952636 0.741939 0.261357
0.980041 0.738155 0.309606
1.000000 0.735195 0.356573
1.000000 0.733577 0.403479
1.000000 0.733425 0.450324
1.000000 0.735195 0.497902
1.000000 0.738582 0.544457
0.384314 0.692622 0.000000
0.386236 0.694453 0.000000
0.390509 0.696315 0.000000
0.397131 0.698054 0.000000
0.406683 0.699245 0.000000
0.419013 0.699580 0.000000
0.434150 0.699702 0.000000
0.452155 0.699550 0.000000
0.473274 0.699580 0.000000
0.496651 0.699672 0.000000
0.522606 0.700038 0.000000
0.546899 0.704158 0.000000
0.569818 0.712642 0.000000
0.594659 0.721614 0.000000
0.621485 0.730922 0.000000
0.650202 0.740627 0.000000
0.680751 0.750698 0.000000
0.712886 0.760952 0.000000
0.746304 0.771420 0.000000
0.773953 0.776364 0.000000
0.797024 0.776394 0.000000
0.820340 0.775296 0.000000
0.843626 0.772763 0.044984
0.885222 0.783993 0.156130
0.920165 0.784329 0.223575
0.950408 0.779965 0.280919
0.977356 0.775723 0.332311
1.000000 0.772183 0.381567
1.000000 0.769802 0.430396
1.000000 0.768826 0.478920
1.000000 0.769375 0.526757
1.000000 0.771267 0.572625
0.425208 0.745357 0.000000
0.426459 0.745998 0.000000
0.429419 0.746456 0.000000
0.434882 0.746731 0.000000
0.443122 0.746731 0.000000
0.454078 0.746334 0.000000
0.467964 0.745876 0.000000
0.484962 0.745571 0.000000
0.504845 0.745327 0.000000
0.527489 0.745357 0.000000
0.552453 0.745541 0.000000
0.579370 0.745693 0.000000
0.600763 0.752346 0.000000
0.623743 0.759640 0.000000
0.648402 0.767178 0.000000
0.674800 0.774929 0.000000
0.702449 0.782834 0.000000
0.731472 0.790921 0.000000
0.761410 0.799069 0.000000
0.792264 0.807309 0.000000
0.815946 0.809537 0.000000
0.835874 0.807889 0.000000
0.855924 0.805203 0.112245
0.875914 0.801389 0.171267
0.910765 0.808316 0.226505
0.942412 0.809262 0.281224
0.969543 0.804593 0.335180
0.993805 0.800381 0.386328
1.000000 0.797147 0.436042
1.000000 0.795071 0.485115
1.000000 0.794308 0.532860
1.000000 0.794705 0.578332
0.458778 0.782040 0.000000
0.459754 0.782559 0.000000
0.462745 0.782956 0.000000
0.467811 0.783108 0.000000
0.475349 0.783108 0.000000
0.485359 0.782834 0.000000
0.498634 0.782437 0.000000
0.514305 0.782101 0.000000
0.532921 0.781857 0.000000
0.554223 0.781704 0.000000
0.577722 0.781643 0.000000
0.603235 0.781643 0.000000
0.627100 0.784024 0.000000
0.648341 0.790066 0.000000
0.671168 0.796353 0.000000
0.695369 0.802792 0.000000
0.720912 0.809506 0.000000
0.747402 0.816281 0.000000
0.774960 0.823117 0.000000
0.803220 0.830045 0.000000
0.832212 0.836942 0.000000
0.852995 0.837583 0.094972
0.870817 0.835264 0.161898
0.888609 0.832090 0.208591
0.902556 0.824704 0.235447
0.932097 0.828672 0.283024
0.961151 0.830625 0.333806
0.985718 0.825864 0.386542
1.000000 0.821897 0.437140
1.000000 0.818906 0.487007
1.000000 0.817136 0.535576
1.000000 0.816373 0.581018
0.498756 0.819516 0.000000
0.500084 0.820249 0.000000
0.502617 0.820523 0.000000
0.506920 0.820279 0.000000
0.513115 0.819730 0.000000
0.521691 0.818845 0.000000
0.532738 0.817746 0.000000
0.546441 0.816617 0.000000
0.562890 0.815518 0.000000
0.581872 0.814572 0.000000
0.602899 0.813626 0.000000
0.626368 0.812833 0.000000
0.651087 0.812009 0.000000
0.670588 0.815854 0.000000
0.690517 0.820340 0.000000
0.711879 0.825132 0.000000
0.734493 0.830228 0.000000
0.758419 0.835660 0.000000
0.783597 0.841367 0.000000
0.809720 0.847379 0.000000
0.836606 0.853483 0.090852
0.863828 0.859403 0.142611
0.881804 0.858640 0.189853
0.897398 0.855558 0.230289
0.912810 0.851499 0.266209
0.927977 0.846647 0.299748
0.952575 0.848173 0.342107
0.978637 0.850645 0.389380
1.000000 0.845701 0.439673
1.000000 0.841733 0.489204
1.000000 0.838804 0.536980
1.000000 0.836942 0.582666
0.529381 0.845365 0.000000
0.530541 0.845945 0.000000
0.533043 0.846311 0.000000
0.537072 0.846311 0.000000
0.543175 0.846036 0.000000
0.551446 0.845670 0.000000
0.562127 0.845182 0.000000
0.575708 0.844663 0.000000
0.591424 0.844205 0.000000
0.609522 0.843748 0.000000
0.629633 0.843168 0.000000
0.651545 0.842588 0.000000
0.674952 0.841855 0.000000
0.696651 0.842679 0.000000
0.714687 0.846250 0.000000
0.733913 0.850004 0.000000
0.754330 0.853971 0.000000
0.775784 0.858244 0.000000
0.798489 0.862852 0.097383
0.822202 0.867674 0.140810
0.846586 0.872648 0.176181
0.871427 0.877562 0.208133
0.896422 0.882322 0.238285
0.911620 0.880339 0.273136
0.925292 0.876890 0.306493
0.938811 0.872709 0.338567
0.952209 0.867948 0.369818
0.972473 0.867857 0.410315
0.995636 0.871031 0.456489
1.000000 0.866270 0.505516
1.000000 0.862394 0.552270
1.000000 0.859495 0.596674
0.563775 0.871946 0.000000
0.564660 0.872190 0.000000
0.566552 0.872251 0.000000
0.570092 0.872160 0.000000
0.575494 0.871824 0.000000
0.583032 0.871397 0.000000
0.592615 0.870909 0.000000
0.604730 0.870298 0.000000
0.618921 0.869718 0.000000
0.635370 0.869139 0.000000
0.653986 0.868437 0.000000
0.674159 0.867796 0.000000
0.695888 0.867033 0.000000
0.718776 0.866148 0.000000
0.736202 0.868406 0.000000
0.753536 0.871366 0.082612
0.771878 0.874540 0.120363
0.791348 0.877958 0.149081
0.811978 0.881651 0.176486
0.833402 0.885588 0.203586
0.855619 0.889677 0.230777
0.878233 0.893706 0.257450
0.901091 0.897642 0.283879
0.924041 0.901366 0.310033
0.936400 0.898314 0.340398
0.948241 0.894408 0.370062
0.959991 0.890043 0.399725
0.971527 0.885222 0.429236
0.988159 0.883818 0.466804
1.000000 0.886442 0.511589
1.000000 0.882994 0.557794
1.000000 0.879210 0.602045
0.594903 0.894316 0.000000
0.595575 0.894530 0.000000
0.597284 0.894652 0.000000
0.600763 0.894591 0.000000
0.605798 0.894530 0.000000
0.613123 0.894469 0.000000
0.622919 0.894621 0.000000
0.635004 0.894804 0.000000
0.649378 0.895079 0.000000
0.665705 0.895415 0.068544
0.684016 0.895720 0.113161
0.703761 0.895842 0.139925
0.724788 0.895842 0.163485
0.746792 0.895537 0.184421
0.767147 0.895964 0.203281
0.782834 0.898405 0.220523
0.799283 0.900877 0.237888
0.816709 0.903471 0.256077
0.834989 0.906279 0.275578
0.854063 0.909270 0.296727
0.873716 0.912322 0.319066
0.893858 0.915373 0.342199
0.914092 0.918334 0.365545
0.934478 0.921141 0.389258
0.954314 0.923552 0.413184
0.964050 0.919738 0.440101
0.973632 0.915557 0.467292
0.983124 0.911040 0.494514
0.992554 0.906279 0.521660
1.000000 0.903838 0.554528
1.000000 0.905516 0.594965
1.000000 0.902892 0.634607
0.634516 0.920653 0.161440
0.634882 0.920653 0.161593
0.636225 0.920562 0.162112
0.638758 0.920378 0.163394
0.643183 0.920073 0.165805
0.649226 0.919738 0.169284
0.657221 0.919371 0.174655
0.667353 0.918975 0.181186
0.679377 0.918608 0.190005
0.693233 0.918181 0.199954
0.708888 0.917723 0.211643
0.726131 0.917205 0.223636
0.744839 0.916594 0.237125
0.764553 0.915831 0.250614
