20 Preset/Travel Style/【3】LUT video cho PR-AE-FCPX/Green Moody - Lut (11).cube
# Created by Adobe Lightroom plugin Export LUT (1.24.0)
# www.johnrellis.com/lightroom/exportlut.htm
# Preset: 11自然风光-绿色-素材江湖
# Color profile: E:\lut插件\exportlut.1.24\exportlut.lrplugin\color profiles\Rec709gamma2.4.icc
LUT_3D_SIZE 5
DOMAIN_MIN 0.000000 0.000000 0.000000
DOMAIN_MAX 0.903226 0.903226 0.903226
0.122255 0.140536 0.141054
0.182010 0.144106 0.139254
0.397253 0.186435 0.133577
0.775631 0.280308 0.056428
1.000000 0.376593 0.000000
0.140261 0.177584 0.171969
0.158236 0.194186 0.166293
0.407385 0.257084 0.145510
0.780972 0.352850 0.080446
1.000000 0.432410 0.089967
0.207034 0.318151 0.290318
0.240848 0.299138 0.297765
0.339483 0.431312 0.275822
0.782071 0.568688 0.210422
1.000000 0.600305 0.271794
0.354894 0.542229 0.496986
0.380591 0.525841 0.498573
0.419867 0.536522 0.515404
0.626123 0.735134 0.527672
0.966308 0.824369 0.578393
0.673945 0.818692 0.786069
0.683864 0.813169 0.787686
0.717952 0.783536 0.793790
0.754788 0.857572 0.818143
0.874540 0.931334 0.838682
0.118288 0.144137 0.193332
0.182345 0.137087 0.210025
0.422492 0.106783 0.210178
0.787869 0.244144 0.209537
1.000000 0.363714 0.229129
0.124453 0.203677 0.212192
0.180362 0.217868 0.220768
0.429938 0.256443 0.225376
0.789731 0.335729 0.221836
1.000000 0.426246 0.253758
0.208072 0.385229 0.345251
0.256687 0.363928 0.344060
0.361975 0.451087 0.339910
0.785672 0.566766 0.316136
1.000000 0.608240 0.377569
0.375494 0.589258 0.538506
0.401465 0.573602 0.537774
0.457801 0.547051 0.550072
0.640131 0.743160 0.572564
0.962646 0.827726 0.624567
0.680262 0.830625 0.795102
0.689509 0.825223 0.796078
0.727138 0.801022 0.804288
0.763912 0.858610 0.826780
0.879026 0.932921 0.848051
0.000000 0.163943 0.439979
0.181674 0.154818 0.463233
0.459083 0.000000 0.530510
0.812039 0.000000 0.571618
1.000000 0.000000 0.484932
0.000000 0.256840 0.465949
0.157229 0.249332 0.483742
0.469856 0.188235 0.545861
0.823789 0.079316 0.558679
1.000000 0.272984 0.490150
0.000000 0.493477 0.545190
0.139803 0.505547 0.552697
0.480690 0.556146 0.581964
0.797147 0.599817 0.598627
1.000000 0.655390 0.634394
0.408179 0.741299 0.691768
0.469368 0.734707 0.693477
0.569238 0.684108 0.679744
0.695369 0.773892 0.708797
0.953674 0.839506 0.749142
0.707057 0.874296 0.833646
0.714748 0.869902 0.832792
0.744442 0.848875 0.831510
0.785000 0.850492 0.846098
0.888151 0.934508 0.871244
0.000000 0.212467 0.791409
0.172427 0.202152 0.799130
0.478553 0.108125 0.825559
0.798184 0.000000 0.856046
1.000000 0.000000 0.836179
0.000000 0.326116 0.797726
0.179019 0.318273 0.803830
0.475410 0.272953 0.827573
0.797879 0.121248 0.856809
1.000000 0.251011 0.834226
0.359289 0.603998 0.793271
0.402197 0.607904 0.799527
0.537652 0.606836 0.824247
0.788235 0.564355 0.853086
1.000000 0.604822 0.836210
0.460761 0.795773 0.842741
0.504326 0.799100 0.843534
0.638849 0.813779 0.848356
0.798398 0.840604 0.859586
0.950408 0.858701 0.867155
0.707179 0.937713 0.902098
0.723262 0.935607 0.901457
0.780941 0.925902 0.899504
0.832639 0.892180 0.889036
0.908171 0.940673 0.910643
0.356695 0.419776 0.969207
0.397253 0.413703 0.970336
0.533013 0.385046 0.975891
0.731838 0.293217 0.985626
0.971374 0.173159 0.992645
0.415259 0.506065 0.965148
0.444953 0.500450 0.966461
0.555138 0.473884 0.972107
0.734981 0.400061 0.982238
0.967315 0.327855 0.989929
0.602716 0.722530 0.952209
0.611597 0.718166 0.953338
0.657527 0.701259 0.958892
0.763607 0.658412 0.969512
0.953643 0.613245 0.980255
0.727901 0.855009 0.946868
0.739498 0.857053 0.946471
0.786404 0.867460 0.945861
0.834318 0.862333 0.957061
0.946075 0.843595 0.970581
0.776913 0.941009 0.962768
0.785946 0.941833 0.962799
0.823178 0.945953 0.963653
0.882841 0.953368 0.965393
0.953674 0.964996 0.969757
