20 Preset/Travel Style/【3】LUT video cho PR-AE-FCPX/Green Moody - Lut (18).cube
# Created by Adobe Lightroom plugin Export LUT (1.24.0)
# www.johnrellis.com/lightroom/exportlut.htm
# Preset: 18自然风光-极光-素材江湖
# Color profile: E:\lut插件\exportlut.1.24\exportlut.lrplugin\color profiles\Rec709gamma2.4.icc
LUT_3D_SIZE 8
DOMAIN_MIN 0.000000 0.000000 0.000000
DOMAIN_MAX 0.903226 0.903226 0.903226
0.070985 0.159457 0.172610
0.101350 0.159762 0.173922
0.199008 0.165835 0.175174
0.390051 0.179049 0.167056
0.619745 0.192111 0.148135
0.833127 0.202609 0.119112
1.000000 0.235477 0.117403
1.000000 0.293675 0.194278
0.044007 0.172946 0.174868
0.094728 0.175143 0.174868
0.174411 0.184237 0.174380
0.336919 0.204929 0.167300
0.555718 0.227787 0.148592
0.779171 0.243809 0.118288
0.982696 0.266972 0.095491
1.000000 0.304875 0.157290
0.000000 0.241154 0.177707
0.000000 0.239078 0.178378
0.197421 0.283696 0.167941
0.359228 0.305638 0.147341
0.498299 0.312200 0.133028
0.767575 0.365911 0.024994
0.979461 0.403143 0.000000
1.000000 0.427192 0.161501
0.000000 0.364141 0.173281
0.000000 0.358312 0.174350
0.036591 0.388403 0.169802
0.431617 0.569329 0.017884
0.731472 0.668452 0.000000
0.735622 0.517205 0.000000
0.899199 0.534813 0.000000
1.000000 0.551537 0.000000
0.000000 0.513146 0.169375
0.000000 0.507530 0.170108
0.000000 0.491157 0.173983
0.219425 0.627100 0.168063
0.580896 0.799527 0.191989
0.871916 0.855100 0.113497
0.897429 0.737179 0.000000
0.925902 0.642603 0.000000
0.000000 0.646448 0.165072
0.000000 0.655390 0.166262
0.000000 0.638117 0.166659
0.000000 0.676539 0.178744
0.375219 0.823026 0.296178
0.706905 0.908141 0.516747
0.936217 0.947021 0.698024
0.998260 0.884062 0.465797
0.000000 0.797726 0.157900
0.000000 0.798276 0.158419
0.000000 0.784451 0.145876
0.000000 0.760189 0.124605
0.000000 0.848112 0.279942
0.550805 0.921233 0.535210
0.790829 0.958679 0.788083
0.951934 0.982147 0.919951
0.000000 0.943084 0.282750
0.000000 0.941894 0.279026
0.000000 0.938811 0.267247
0.000000 0.934508 0.246403
0.000000 0.914519 0.242466
0.443885 0.959808 0.559838
0.718379 0.981903 0.823423
0.879911 0.991424 0.928923
0.061555 0.160800 0.182223
0.097047 0.160433 0.182742
0.175051 0.162417 0.187594
0.349920 0.147097 0.183139
0.572107 0.143740 0.170657
0.788388 0.148928 0.153658
0.978241 0.180331 0.150546
1.000000 0.242863 0.191989
0.075410 0.168826 0.183932
0.097658 0.173159 0.184665
0.176822 0.177707 0.185885
0.332708 0.185092 0.180179
0.545892 0.196750 0.166262
0.769436 0.209323 0.147036
0.948821 0.228763 0.138064
1.000000 0.266697 0.169589
0.000000 0.236576 0.202731
0.000000 0.236881 0.191196
0.185245 0.266300 0.186618
0.325109 0.277348 0.167391
0.486915 0.294774 0.149813
0.728237 0.333684 0.116487
0.922362 0.358709 0.098726
1.000000 0.385565 0.156252
0.000000 0.349462 0.205905
0.000000 0.347051 0.189548
0.033906 0.362799 0.190066
0.379919 0.489418 0.148623
0.630396 0.551354 0.000000
0.639551 0.439643 0.000000
0.836118 0.480140 0.000000
0.994293 0.508934 0.000000
0.000000 0.506004 0.209659
0.000000 0.499580 0.191226
0.000000 0.480415 0.192508
0.215030 0.579492 0.194736
0.543633 0.747799 0.179934
0.829496 0.817319 0.000000
0.860502 0.697108 0.000000
0.900359 0.614649 0.000000
0.000000 0.628443 0.202213
0.000000 0.626062 0.188540
0.000000 0.611658 0.188754
0.000000 0.636988 0.196902
0.355138 0.795987 0.288090
0.691768 0.896269 0.496529
0.929686 0.938781 0.656947
0.987671 0.871031 0.416938
0.000000 0.774502 0.185031
0.000000 0.768154 0.171786
0.000000 0.753201 0.163821
0.000000 0.731044 0.151553
0.000000 0.825864 0.267521
0.529900 0.908995 0.504784
0.774868 0.950225 0.747921
0.943664 0.976410 0.895415
0.000000 0.925750 0.259129
0.000000 0.927611 0.262608
0.000000 0.923522 0.248966
0.000000 0.918914 0.228855
0.000000 0.924590 0.281254
0.448249 0.960693 0.576989
0.714961 0.980255 0.822171
0.878111 0.990478 0.928252
0.041138 0.161563 0.237888
0.099916 0.161685 0.239780
0.181033 0.164340 0.243107
0.321111 0.161440 0.270024
0.584558 0.000000 0.301549
0.870939 0.000000 0.287449
1.000000 0.000000 0.321691
1.000000 0.251987 0.383215
0.020417 0.176059 0.239200
0.094453 0.176791 0.240482
0.180911 0.181094 0.244572
0.324956 0.178836 0.268406
0.581933 0.000000 0.281834
0.858946 0.000000 0.266606
1.000000 0.000000 0.296056
1.000000 0.256626 0.351293
0.007263 0.224887 0.260044
0.088716 0.230594 0.261936
0.205447 0.262089 0.271214
0.384527 0.241581 0.239292
0.598291 0.248783 0.229129
0.820401 0.274601 0.241123
0.974487 0.314153 0.271244
1.000000 0.373327 0.330022
0.000000 0.385931 0.347509
0.000000 0.389349 0.341222
0.000000 0.388708 0.276310
0.393774 0.487282 0.286137
0.605798 0.489143 0.194430
0.713313 0.447059 0.169741
0.899901 0.481086 0.198428
1.000000 0.508995 0.267582
0.000000 0.538933 0.373816
0.000000 0.535515 0.356420
0.000000 0.523583 0.282872
0.231571 0.566766 0.303136
0.556268 0.749783 0.369024
0.813779 0.790860 0.290105
0.842283 0.656001 0.086580
0.934630 0.618555 0.000000
0.000000 0.655146 0.361273
0.000000 0.654108 0.346563
0.000000 0.641810 0.279576
0.000000 0.611139 0.270909
0.354131 0.772732 0.376196
0.683955 0.885618 0.585901
0.917571 0.930205 0.712459
0.975647 0.858671 0.475776
0.000000 0.796628 0.364385
0.000000 0.791714 0.344762
0.000000 0.777157 0.270756
0.000000 0.751614 0.251804
0.000000 0.808316 0.324437
0.530724 0.903227 0.571038
0.782864 0.950134 0.814237
0.947570 0.977020 0.922820
0.000000 0.928161 0.413581
0.000000 0.926055 0.393683
0.000000 0.923125 0.329808
0.000000 0.921965 0.320287
0.000000 0.913268 0.293828
0.444129 0.957794 0.610559
0.723751 0.979431 0.849485
0.886748 0.990417 0.940429
0.000000 0.157382 0.378546
0.019623 0.156191 0.385565
0.202090 0.154543 0.388373
0.331548 0.154849 0.398047
0.494667 0.149660 0.433539
0.746334 0.102235 0.516594
0.963012 0.119326 0.562646
1.000000 0.310124 0.614343
0.000000 0.174838 0.390204
0.000000 0.174655 0.392096
0.198978 0.175570 0.395636
0.338079 0.181796 0.407507
0.501884 0.185611 0.440314
0.756863 0.161593 0.523003
0.963836 0.178225 0.560998
1.000000 0.334081 0.614099
0.000000 0.253117 0.401862
0.000000 0.251408 0.403143
0.173953 0.254551 0.407599
0.342504 0.272831 0.417426
0.534325 0.303685 0.478126
0.813748 0.304173 0.557031
0.996399 0.374945 0.612085
1.000000 0.491463 0.674434
0.000000 0.357946 0.475288
0.000000 0.362463 0.475685
0.197635 0.389044 0.486946
0.405615 0.458930 0.520592
0.634638 0.422339 0.457832
0.814450 0.433600 0.456580
0.949767 0.476204 0.494423
1.000000 0.538445 0.561089
0.000000 0.612238 0.664424
0.000000 0.608362 0.651331
0.000000 0.603204 0.609766
0.250004 0.591302 0.496742
0.563470 0.736233 0.602258
0.769039 0.711727 0.463691
0.840177 0.600885 0.323339
0.980835 0.632715 0.408240
0.000000 0.732357 0.663203
0.000000 0.739834 0.661982
0.000000 0.725185 0.595544
0.000000 0.702358 0.470069
0.374701 0.758175 0.536126
0.687739 0.879393 0.754696
0.889250 0.909758 0.793668
0.953826 0.825834 0.528527
0.000000 0.827726 0.622309
0.000000 0.827176 0.611200
0.000000 0.820706 0.554955
0.000000 0.806516 0.436957
0.000000 0.783200 0.410803
0.538476 0.896147 0.685359
0.795590 0.947814 0.881376
0.949981 0.974182 0.941772
0.000000 0.941588 0.656794
0.000000 0.940856 0.644831
0.000000 0.938567 0.592340
0.000000 0.935424 0.484108
0.000000 0.922210 0.436927
0.415778 0.949584 0.645258
0.732570 0.976471 0.880491
0.901335 0.990234 0.956634
0.000000 0.146517 0.606134
0.000000 0.144350 0.613275
0.112764 0.138582 0.615961
0.328801 0.133944 0.626551
0.497414 0.147707 0.646143
0.676387 0.177584 0.688197
0.834379 0.257816 0.721279
0.998688 0.383093 0.790188
0.000000 0.168856 0.616968
0.000000 0.168490 0.625025
0.059358 0.166720 0.628016
0.328008 0.170260 0.630945
0.502861 0.190494 0.656733
0.678859 0.220310 0.693538
0.837278 0.290959 0.728176
0.997040 0.409522 0.794858
0.000000 0.255375 0.631495
0.000000 0.256687 0.633112
0.000000 0.261448 0.632990
0.326696 0.279179 0.648859
0.506157 0.304784 0.666102
0.665675 0.329076 0.686397
0.839017 0.387304 0.742550
0.988067 0.481422 0.799557
0.000000 0.393317 0.680903
0.000000 0.397253 0.681056
0.000000 0.415839 0.688167
0.337316 0.437873 0.701564
0.524437 0.469154 0.712978
0.675044 0.498390 0.735256
0.861601 0.554162 0.796506
0.983917 0.630426 0.840848
0.000000 0.514824 0.738186
0.000000 0.520470 0.740291
0.109255 0.541161 0.744533
0.357305 0.586542 0.755123
0.532494 0.658045 0.773373
0.734585 0.630945 0.726589
0.874723 0.646326 0.731563
0.971832 0.686152 0.771115
0.000000 0.727443 0.843076
0.000000 0.732265 0.842679
0.000000 0.743374 0.833829
0.000000 0.737240 0.789548
0.346838 0.713344 0.666194
0.660395 0.842649 0.830259
0.832792 0.839902 0.768032
0.916472 0.725643 0.500755
0.000000 0.853025 0.855589
0.000000 0.850034 0.849088
0.000000 0.842130 0.826200
0.000000 0.833127 0.767391
0.000000 0.812650 0.617914
0.493538 0.857664 0.728359
0.790738 0.934997 0.911070
0.935027 0.957305 0.936461
0.000000 0.931792 0.846616
0.000000 0.930846 0.839780
0.000000 0.927733 0.808804
0.000000 0.929961 0.753048
0.000000 0.924498 0.609735
0.240818 0.917327 0.599756
0.710536 0.964569 0.888060
0.902708 0.985809 0.963684
0.000000 0.131502 0.862425
0.000000 0.129519 0.865293
0.000000 0.124758 0.862242
0.247807 0.125917 0.863859
0.482795 0.164309 0.884550
0.662562 0.218143 0.891386
0.817929 0.282444 0.895750
0.932647 0.403998 0.898375
0.000000 0.163058 0.843992
0.000000 0.162448 0.843931
0.000000 0.161227 0.843748
0.238621 0.168002 0.851987
0.469917 0.197910 0.866453
0.647700 0.242008 0.875669
0.803586 0.297063 0.883207
0.922240 0.407416 0.889860
0.000000 0.273106 0.868681
0.000000 0.274388 0.869230
0.000000 0.281926 0.873442
0.245609 0.292088 0.869383
0.478462 0.320378 0.874083
0.650996 0.359228 0.880613
0.800107 0.407691 0.888731
0.911040 0.498421 0.896757
0.000000 0.435096 0.895445
0.000000 0.434699 0.893187
0.000000 0.443397 0.893156
0.305486 0.471626 0.902556
0.516930 0.506737 0.905730
0.668177 0.543114 0.905943
0.795926 0.585595 0.909972
0.899077 0.654017 0.921721
0.000000 0.550774 0.891569
0.000000 0.554437 0.891081
0.000000 0.572107 0.890929
0.254246 0.611719 0.893462
0.497047 0.644068 0.895171
0.641901 0.673487 0.895903
0.760800 0.698848 0.903136
0.903136 0.758114 0.934539
0.000000 0.666224 0.902190
0.000000 0.674891 0.905638
0.189731 0.687678 0.904723
0.363836 0.713863 0.904326
0.509300 0.751766 0.904753
0.656550 0.807523 0.916289
0.813657 0.811124 0.914916
0.921172 0.828519 0.926207
0.000000 0.847379 0.958740
0.000000 0.851469 0.959228
0.098817 0.860136 0.957122
0.270665 0.875669 0.952972
0.441382 0.872068 0.931914
0.499001 0.847654 0.854765
0.804410 0.925963 0.949493
0.906889 0.923064 0.932250
0.000000 0.945708 0.959808
0.000000 0.944182 0.957794
0.000000 0.940795 0.951385
0.147707 0.936919 0.939086
0.267582 0.929015 0.903899
0.159823 0.919158 0.783322
0.664454 0.944457 0.892668
0.911223 0.981628 0.974517
0.000000 0.135866 0.973663
0.000000 0.135805 0.973785
0.000000 0.138796 0.974975
0.188968 0.152163 0.976562
0.443000 0.184146 0.976715
0.621515 0.242557 0.976318
0.774685 0.309117 0.975860
0.907927 0.381506 0.974945
0.000000 0.175051 0.975891
0.000000 0.175418 0.975769
0.000000 0.180209 0.976471
0.193393 0.193637 0.977325
0.447395 0.223911 0.977661
0.625544 0.278325 0.977447
0.777340 0.341833 0.976989
0.908537 0.411719 0.976013
0.000000 0.284306 0.976043
0.000000 0.285649 0.976043
0.000000 0.292607 0.976440
0.215732 0.307286 0.976623
0.458778 0.335607 0.976715
0.630976 0.382452 0.975952
0.774197 0.434485 0.974731
0.897398 0.492714 0.973236
0.000000 0.430488 0.975372
0.000000 0.430610 0.974701
0.000000 0.438666 0.974823
0.270665 0.454871 0.974395
0.479225 0.482979 0.973816
0.635706 0.525322 0.972320
0.765194 0.569421 0.970703
0.878386 0.616144 0.970001
0.000000 0.588983 0.974243
0.000000 0.591394 0.974304
0.000000 0.600305 0.973907
0.312016 0.618952 0.972534
0.498177 0.645533 0.971099
0.640955 0.679011 0.969329
0.757626 0.709041 0.968048
0.861906 0.735195 0.968536
0.000000 0.705379 0.974884
0.000000 0.708156 0.974609
0.223056 0.720180 0.973571
0.368811 0.742519 0.971618
0.501366 0.774380 0.969116
0.648737 0.796231 0.967498
0.759915 0.813840 0.966918
0.858183 0.829282 0.969818
0.363043 0.803708 0.975189
0.374182 0.805142 0.974945
0.420935 0.812467 0.974334
0.496132 0.825956 0.973236
0.588861 0.845518 0.972015
0.689113 0.869444 0.971160
0.791257 0.896696 0.971710
0.905943 0.904784 0.974304
0.494972 0.910124 0.993225
0.498878 0.911376 0.993011
0.512139 0.916381 0.991974
0.542138 0.926909 0.990173
0.581720 0.942260 0.987366
0.640742 0.944060 0.977173
0.629908 0.926970 0.931090
0.924468 0.977356 0.985779
0.000000 0.198459 1.000000
0.000000 0.200778 1.000000
0.000000 0.210941 1.000000
0.292699 0.232425 1.000000
0.481910 0.270726 1.000000
0.640711 0.330968 1.000000
0.780331 0.413275 1.000000
0.898985 0.496254 1.000000
0.000000 0.233158 1.000000
0.000000 0.235019 1.000000
0.000000 0.244511 1.000000
0.302739 0.264988 1.000000
0.487678 0.301061 1.000000
0.644434 0.358831 1.000000
0.781979 0.438514 1.000000
0.898619 0.519127 1.000000
0.000000 0.338048 1.000000
0.000000 0.339879 1.000000
0.000000 0.349096 1.000000
0.338689 0.366949 1.000000
0.507927 0.400366 1.000000
0.655055 0.452338 1.000000
0.783322 0.522789 1.000000
0.893065 0.590692 1.000000
0.000000 0.485298 1.000000
0.000000 0.487251 1.000000
0.247745 0.496223 1.000000
0.399054 0.514153 1.000000
0.538201 0.544732 1.000000
0.667353 0.588922 1.000000
0.782742 0.643336 1.000000
0.883940 0.687373 1.000000
0.212436 0.643275 1.000000
0.242924 0.645319 1.000000
0.338293 0.656336 1.000000
0.450477 0.672053 1.000000
0.567071 0.694270 1.000000
0.680812 0.722377 1.000000
0.785519 0.753170 1.000000
0.879057 0.776944 1.000000
0.323339 0.771237 1.000000
0.338140 0.773770 1.000000
0.390600 0.783261 1.000000
0.483192 0.794308 1.000000
0.592279 0.806455 1.000000
0.697475 0.820340 1.000000
0.794888 0.835660 1.000000
0.881254 0.849241 0.999512
0.497047 0.846311 1.000000
0.504387 0.847654 1.000000
0.533074 0.853086 1.000000
0.582727 0.862760 1.000000
0.648859 0.876555 1.000000
0.724086 0.893187 0.999207
0.816800 0.902861 0.997498
0.897246 0.911406 0.996429
0.633295 0.905760 1.000000
0.637964 0.906615 1.000000
0.655848 0.909697 1.000000
0.687892 0.915190 1.000000
0.734371 0.923674 0.999512
0.791897 0.934905 0.997925
0.856474 0.948455 0.996246
0.925811 0.964752 0.994842
