20 Preset/Travel Style/【3】LUT video cho PR-AE-FCPX/Green Moody - Lut (5).cube
# Created by Adobe Lightroom plugin Export LUT (1.24.0)
# www.johnrellis.com/lightroom/exportlut.htm
# Preset: 05自然风光-巴厘岛-素材江湖
# Color profile: E:\lut插件\exportlut.1.24\exportlut.lrplugin\color profiles\Rec709gamma2.4.icc
LUT_3D_SIZE 8
DOMAIN_MIN 0.000000 0.000000 0.000000
DOMAIN_MAX 0.903226 0.903226 0.903226
0.176059 0.153475 0.141238
0.196841 0.155367 0.142397
0.264897 0.158450 0.143557
0.386938 0.156374 0.139834
0.577264 0.153079 0.125978
0.795224 0.196231 0.048951
0.983032 0.309392 0.000000
1.000000 0.393011 0.000000
0.176516 0.172335 0.143526
0.193851 0.171023 0.143038
0.264378 0.175723 0.140169
0.380560 0.178927 0.135866
0.563348 0.187930 0.119692
0.776211 0.229740 0.019959
0.956390 0.321508 0.000000
1.000000 0.398657 0.000000
0.163180 0.242283 0.147585
0.185092 0.242618 0.148440
0.251347 0.233310 0.145449
0.398169 0.263706 0.126894
0.622889 0.311772 0.028077
0.839353 0.384466 0.000000
0.997070 0.457160 0.000000
1.000000 0.493935 0.000000
0.000000 0.407477 0.138888
0.000000 0.407324 0.139864
0.226902 0.412116 0.142367
0.387854 0.395880 0.123323
0.644831 0.488685 0.000000
0.893400 0.582025 0.000000
1.000000 0.598810 0.000000
1.000000 0.604120 0.000000
0.000000 0.669642 0.140780
0.000000 0.670649 0.146304
0.000000 0.682124 0.177005
0.419257 0.679652 0.173953
0.597803 0.628046 0.000000
0.788449 0.653376 0.000000
0.969604 0.703670 0.000000
1.000000 0.714229 0.000000
0.000000 0.841306 0.399573
0.000000 0.848997 0.428473
0.000000 0.850401 0.459327
0.434058 0.853758 0.520439
0.621424 0.830076 0.437476
0.768795 0.794125 0.292760
0.912139 0.791318 0.233219
1.000000 0.807584 0.313817
0.000000 0.937285 0.694362
0.189700 0.937957 0.701747
0.346380 0.936522 0.713222
0.503044 0.935119 0.738766
0.631006 0.929900 0.748745
0.740536 0.913390 0.675441
0.861692 0.892302 0.560082
0.978943 0.878691 0.477333
0.517662 0.986847 0.848051
0.526970 0.986511 0.848966
0.566644 0.985351 0.854307
0.633326 0.983429 0.865263
0.684504 0.977173 0.861173
0.753994 0.973388 0.854429
0.827939 0.967620 0.819425
0.920592 0.958679 0.755673
0.182376 0.158206 0.157015
0.199527 0.157046 0.156741
0.250828 0.162356 0.154116
0.354498 0.168154 0.152834
0.534936 0.170932 0.140444
0.755642 0.205936 0.094362
0.939361 0.303563 0.000000
1.000000 0.380041 0.000000
0.181399 0.173068 0.157595
0.198611 0.173251 0.156924
0.253269 0.177920 0.156771
0.359655 0.183963 0.152743
0.538445 0.193881 0.138705
0.757931 0.235050 0.084993
0.928313 0.319036 0.000000
1.000000 0.390631 0.000000
0.181796 0.235203 0.166140
0.195254 0.235904 0.164218
0.251774 0.230716 0.161807
0.386023 0.257786 0.151186
0.582269 0.291661 0.121614
0.794583 0.352026 0.000000
0.950011 0.419471 0.000000
1.000000 0.477302 0.000000
0.000000 0.377234 0.168215
0.073701 0.379126 0.166567
0.232975 0.391455 0.172793
0.365270 0.365789 0.155764
0.580713 0.432776 0.093599
0.836393 0.532464 0.000000
0.968139 0.559686 0.000000
1.000000 0.579400 0.000000
0.000000 0.647791 0.186984
0.000000 0.646784 0.189792
0.000000 0.654047 0.209598
0.393988 0.647669 0.208042
0.560632 0.589197 0.119570
0.755673 0.623499 0.000000
0.948821 0.685328 0.000000
1.000000 0.702052 0.000000
0.000000 0.823697 0.396612
0.000000 0.824735 0.404913
0.000000 0.827878 0.436408
0.408484 0.834897 0.502129
0.604730 0.814694 0.438788
0.755123 0.781827 0.312322
0.900450 0.781247 0.258610
1.000000 0.800320 0.330632
0.000000 0.927733 0.679225
0.000000 0.926390 0.677913
0.290745 0.924926 0.689479
0.476967 0.924987 0.720790
0.620874 0.922942 0.744381
0.731594 0.905760 0.670497
0.851072 0.881682 0.546166
0.968536 0.867430 0.455055
0.494148 0.983795 0.840726
0.510155 0.983917 0.844114
0.551263 0.982757 0.849271
0.622187 0.981079 0.861082
0.700191 0.978302 0.874357
0.760189 0.973632 0.864256
0.827848 0.966827 0.825467
0.919036 0.957610 0.762325
0.193179 0.167086 0.209720
0.208194 0.166415 0.211612
0.269841 0.163821 0.211215
0.372351 0.159792 0.205020
0.497749 0.163027 0.197635
0.737728 0.178042 0.196567
0.935760 0.282902 0.179355
1.000000 0.388434 0.150057
0.197726 0.183230 0.207401
0.210941 0.183169 0.208621
0.267338 0.181399 0.209964
0.361944 0.180301 0.203311
0.499611 0.185641 0.200015
0.734279 0.211002 0.197299
0.924956 0.300237 0.174777
1.000000 0.397375 0.140566
0.190066 0.236484 0.216983
0.206302 0.236942 0.216373
0.268315 0.241550 0.216648
0.374426 0.252354 0.216403
0.558312 0.277623 0.215946
0.780362 0.332067 0.204227
0.943206 0.405402 0.181827
1.000000 0.470771 0.157656
0.037263 0.375769 0.252384
0.128481 0.377996 0.253025
0.247288 0.388739 0.252293
0.383551 0.380316 0.243107
0.618097 0.458686 0.243320
0.836790 0.530358 0.247440
0.965576 0.559777 0.238590
1.000000 0.583276 0.226017
0.000000 0.628931 0.366674
0.000000 0.628992 0.364874
0.000000 0.641444 0.348150
0.406653 0.660060 0.395422
0.576043 0.604028 0.299626
0.772244 0.639612 0.283604
0.950530 0.695003 0.350317
1.000000 0.706661 0.370520
0.000000 0.808408 0.554498
0.000000 0.811307 0.548363
0.000000 0.816190 0.551446
0.415351 0.822995 0.605463
0.599695 0.810361 0.583429
0.743526 0.777218 0.466865
0.892638 0.783017 0.442542
1.000000 0.807065 0.530907
0.226841 0.924102 0.754147
0.236149 0.923644 0.748684
0.361089 0.921660 0.755367
0.509514 0.921202 0.776974
0.645869 0.922148 0.807980
0.736751 0.906401 0.753994
0.846342 0.885557 0.662989
0.963134 0.875486 0.602655
0.530632 0.981659 0.864622
0.537255 0.981140 0.864561
0.574884 0.980041 0.868925
0.646052 0.979126 0.881651
0.718593 0.976623 0.893126
0.778531 0.973053 0.891539
0.835843 0.967132 0.860655
0.917845 0.958618 0.809018
0.190188 0.177554 0.323674
0.206607 0.177798 0.330724
0.274937 0.175540 0.344121
0.391821 0.164340 0.348943
0.563928 0.110262 0.359716
0.726070 0.000000 0.333776
0.865934 0.147189 0.312078
1.000000 0.324712 0.352178
0.195499 0.196231 0.328252
0.211307 0.196384 0.331975
0.276341 0.194705 0.345434
0.394446 0.185031 0.354223
0.566766 0.147402 0.362921
0.722805 0.116976 0.332158
0.869413 0.197848 0.320104
1.000000 0.349065 0.359045
0.198856 0.245701 0.316289
0.212894 0.247013 0.319524
0.269657 0.251804 0.338140
0.388830 0.252354 0.355749
0.558679 0.250248 0.360662
0.721614 0.255253 0.338506
0.911589 0.364355 0.392828
1.000000 0.459388 0.426825
0.000000 0.369970 0.391333
0.092714 0.369574 0.389288
0.232486 0.373175 0.388403
0.392309 0.391424 0.402136
0.575921 0.420203 0.415839
0.766384 0.471687 0.443275
0.919158 0.529931 0.475593
1.000000 0.577783 0.499886
0.000000 0.615442 0.541772
0.000000 0.614710 0.538933
0.000000 0.620111 0.540703
0.383978 0.639948 0.569329
0.576928 0.616205 0.533288
0.779599 0.668635 0.584955
0.928466 0.716182 0.659510
1.000000 0.718502 0.647547
0.000000 0.806882 0.696193
0.000000 0.812833 0.709438
0.132082 0.810056 0.718624
0.446937 0.817380 0.740536
0.628534 0.823514 0.774411
0.733944 0.783597 0.679286
0.878691 0.796994 0.684169
0.992004 0.824430 0.749386
0.314122 0.917266 0.822660
0.357153 0.917235 0.827085
0.478370 0.915618 0.842252
0.566155 0.919707 0.848142
0.686244 0.922362 0.870939
0.760403 0.911986 0.852415
0.841611 0.889342 0.788479
0.950500 0.883665 0.756741
0.613275 0.978668 0.907256
0.626520 0.977996 0.909422
0.640223 0.978088 0.907561
0.684535 0.977295 0.911131
0.749203 0.974975 0.919890
0.809171 0.972229 0.925994
0.850584 0.967193 0.903655
0.919280 0.960327 0.867643
0.000000 0.194339 0.547662
0.075685 0.194278 0.557305
0.226505 0.190829 0.577020
0.391272 0.172183 0.620264
0.576745 0.123476 0.636408
0.768276 0.000000 0.648554
0.901549 0.000000 0.602930
1.000000 0.229862 0.567193
0.000000 0.213077 0.552605
0.071778 0.213260 0.562768
0.225834 0.210483 0.582757
0.391302 0.196353 0.623682
0.577234 0.161135 0.638849
0.767880 0.035492 0.649165
0.898650 0.131960 0.601770
1.000000 0.261143 0.567620
0.000000 0.269902 0.546166
0.004120 0.270085 0.554406
0.211307 0.272160 0.575463
0.377996 0.272465 0.616175
0.565301 0.261418 0.631281
0.748806 0.242893 0.630701
0.878233 0.275608 0.586908
0.989685 0.345403 0.558312
0.000000 0.367071 0.558495
0.000000 0.366369 0.556420
0.179629 0.366308 0.552819
0.347417 0.390661 0.612787
0.559289 0.409430 0.654353
0.729305 0.417365 0.634119
0.853605 0.439094 0.598596
0.976745 0.526024 0.643366
0.000000 0.557092 0.670680
0.000000 0.558129 0.671229
0.000000 0.560113 0.670283
0.278752 0.567285 0.672755
0.534905 0.586908 0.686519
0.711330 0.616632 0.705135
0.860197 0.657954 0.735073
0.975189 0.692683 0.755947
0.000000 0.754421 0.756588
0.000000 0.755245 0.757443
0.000000 0.753475 0.755612
0.273136 0.756893 0.763668
0.567102 0.772488 0.797360
0.704707 0.763394 0.785946
0.862486 0.805142 0.827634
0.971252 0.837186 0.864866
0.000000 0.906249 0.853574
0.000000 0.905028 0.853086
0.282506 0.902556 0.855863
0.519982 0.901854 0.873350
0.674372 0.907134 0.894255
0.777523 0.910002 0.907439
0.833188 0.883116 0.859831
0.936553 0.883879 0.848508
0.453529 0.979583 0.900175
0.477302 0.978668 0.902068
0.561242 0.975372 0.910369
0.689998 0.972107 0.929717
0.758267 0.971252 0.936706
0.827481 0.969635 0.946532
0.864134 0.965118 0.935485
0.918303 0.957366 0.906249
0.000000 0.220523 0.808194
0.000000 0.220279 0.814176
0.116976 0.215854 0.823636
0.393011 0.201999 0.844602
0.605097 0.171267 0.868589
0.771481 0.139895 0.862943
0.916228 0.176761 0.851347
1.000000 0.303929 0.827726
0.000000 0.235996 0.791684
0.000000 0.235416 0.793851
0.083619 0.231632 0.803372
0.371649 0.221042 0.823636
0.585748 0.198306 0.852567
0.756619 0.176242 0.850919
0.904936 0.203311 0.842100
1.000000 0.313359 0.819913
0.000000 0.301213 0.800504
0.000000 0.301061 0.801755
0.000000 0.301732 0.810941
0.355840 0.298375 0.821439
0.573907 0.300969 0.849760
0.751064 0.303380 0.852659
0.897765 0.335454 0.843839
1.000000 0.412512 0.822354
0.000000 0.401099 0.781582
0.000000 0.400946 0.782712
0.000000 0.406317 0.797391
0.324254 0.427131 0.828611
0.563561 0.459876 0.859953
0.748318 0.483040 0.868315
0.887388 0.511009 0.857877
0.983215 0.551202 0.836820
0.000000 0.539300 0.798398
0.000000 0.538262 0.797116
0.000000 0.535393 0.793240
0.217563 0.534112 0.788449
0.499641 0.576989 0.828580
0.706752 0.613184 0.855833
0.843778 0.623865 0.842405
0.946502 0.640162 0.825284
0.000000 0.718837 0.854704
0.000000 0.721920 0.857237
0.000000 0.721370 0.855711
0.158541 0.722072 0.854063
0.480690 0.726253 0.853635
0.690028 0.749691 0.867796
0.837003 0.783169 0.886992
0.946593 0.809110 0.898894
0.000000 0.889799 0.907927
0.000000 0.890959 0.909026
0.000000 0.890623 0.908812
0.400061 0.890562 0.910735
0.612116 0.892943 0.918517
0.776699 0.901823 0.935668
0.841154 0.886046 0.921233
0.941680 0.902342 0.930327
0.327977 0.979065 0.928466
0.348638 0.978241 0.928252
0.438544 0.976318 0.929686
0.572351 0.974182 0.935088
0.720912 0.969116 0.946685
0.833066 0.966522 0.960266
0.889067 0.965148 0.964660
0.923674 0.956695 0.943450
0.000000 0.263615 0.935332
0.000000 0.264591 0.937957
0.225681 0.261753 0.940124
0.425299 0.257786 0.946624
0.600671 0.254582 0.954406
0.769833 0.269657 0.964080
0.901976 0.287266 0.957305
1.000000 0.355169 0.940063
0.000000 0.273930 0.925383
0.000000 0.275486 0.928740
0.194644 0.273106 0.931609
0.404639 0.267979 0.937102
0.583185 0.264073 0.945373
0.752834 0.273533 0.955200
0.884733 0.281834 0.947326
0.988525 0.336950 0.929808
0.000000 0.337163 0.927672
0.000000 0.337224 0.928374
0.143160 0.336156 0.929778
0.387671 0.337041 0.934874
0.569635 0.342016 0.941955
0.743069 0.366766 0.953033
0.882444 0.390234 0.950011
0.988342 0.446113 0.936614
0.000000 0.438697 0.925505
0.000000 0.436439 0.924834
0.000000 0.436866 0.925902
0.350347 0.448127 0.932403
0.550805 0.467384 0.940368
0.730892 0.508843 0.952667
0.873411 0.534386 0.952636
0.976837 0.568566 0.940124
0.000000 0.538048 0.902068
0.000000 0.533349 0.898863
0.000000 0.532341 0.900298
0.202701 0.544030 0.910765
0.490791 0.572045 0.924346
0.690150 0.612879 0.939635
0.844358 0.640314 0.944549
0.959564 0.674189 0.940307
0.000000 0.692042 0.924407
0.000000 0.691890 0.924285
0.000000 0.689570 0.922759
0.000000 0.685084 0.919554
0.414740 0.677424 0.912688
0.659663 0.723537 0.933074
0.835050 0.765560 0.948669
0.941466 0.775479 0.941588
0.000000 0.846586 0.950500
0.000000 0.847684 0.950988
0.000000 0.847135 0.950256
0.291539 0.847288 0.949279
0.505425 0.846738 0.947082
0.672694 0.849454 0.945525
0.823728 0.864286 0.949554
0.933959 0.889250 0.958099
0.143099 0.970825 0.964660
0.208896 0.970764 0.964721
0.360418 0.971099 0.965332
0.501946 0.969604 0.965148
0.641596 0.966918 0.965270
0.782345 0.964477 0.969146
0.900481 0.964080 0.978912
0.934386 0.957885 0.971923
0.306615 0.364569 1.000000
0.330632 0.366613 1.000000
0.399084 0.363317 1.000000
0.510704 0.367559 1.000000
0.635492 0.375891 1.000000
0.763546 0.395270 1.000000
0.890471 0.439338 1.000000
0.998260 0.465553 1.000000
0.283818 0.369482 1.000000
0.310613 0.371588 1.000000
0.386694 0.370733 1.000000
0.499641 0.373327 1.000000
0.626520 0.381323 1.000000
0.756374 0.400397 1.000000
0.883818 0.440131 1.000000
0.991974 0.462043 1.000000
0.251438 0.418738 1.000000
0.278904 0.419532 1.000000
0.361242 0.418128 1.000000
0.488808 0.430274 1.000000
0.615595 0.437781 1.000000
0.744900 0.454841 1.000000
0.874662 0.494728 1.000000
0.983612 0.512016 1.000000
0.156649 0.499977 0.996033
0.207919 0.502129 0.996490
0.319188 0.503502 0.996551
0.457465 0.512596 0.997864
0.595819 0.525841 0.999054
0.731106 0.547143 1.000000
0.862852 0.586145 1.000000
0.973266 0.601007 0.998505
0.000000 0.588281 0.989319
0.000000 0.589868 0.989960
0.149752 0.587457 0.989990
0.388251 0.597559 0.991058
0.551995 0.609552 0.992157
0.701991 0.631037 0.993835
0.842954 0.669154 0.996521
0.959716 0.690242 0.995239
0.000000 0.698360 0.986481
0.000000 0.695460 0.985657
0.000000 0.687068 0.983337
0.186496 0.676997 0.980987
0.464485 0.687678 0.984436
0.673976 0.725124 0.989563
0.834653 0.769680 0.994079
0.954376 0.797116 0.994415
0.000000 0.832639 0.993530
0.000000 0.832029 0.993317
0.088441 0.829953 0.992462
0.344030 0.828428 0.991485
0.503929 0.826413 0.989929
0.646967 0.824399 0.987945
0.812772 0.847929 0.989136
0.939940 0.874479 0.989899
0.240940 0.943542 0.994537
0.263127 0.943206 0.994354
0.349462 0.942992 0.993927
0.472175 0.943725 0.993439
0.595727 0.944335 0.992401
0.714137 0.944793 0.990723
0.827756 0.945800 0.988495
0.932982 0.949889 0.986847
