20 Preset/Travel Style/【3】LUT video cho PR-AE-FCPX/Green Moody - Lut (6).cube
# Created by Adobe Lightroom plugin Export LUT (1.24.0)
# www.johnrellis.com/lightroom/exportlut.htm
# Preset: 06自然风光-黄蓝-素材江湖
# Color profile: E:\lut插件\exportlut.1.24\exportlut.lrplugin\color profiles\Rec709gamma2.4.icc
LUT_3D_SIZE 5
DOMAIN_MIN 0.000000 0.000000 0.000000
DOMAIN_MAX 0.903226 0.903226 0.903226
0.240146 0.187106 0.178805
0.259770 0.185458 0.178439
0.568109 0.137942 0.163638
0.969696 0.029541 0.049683
1.000000 0.000000 0.000000
0.247562 0.192020 0.179660
0.254948 0.192691 0.179171
0.566430 0.251591 0.143771
0.959014 0.282933 0.000000
1.000000 0.227573 0.000000
0.376410 0.327398 0.207584
0.377508 0.311650 0.212406
0.464118 0.351995 0.199405
0.892241 0.536889 0.121584
1.000000 0.523339 0.169986
0.538842 0.557153 0.391394
0.541863 0.545006 0.400946
0.574823 0.556542 0.403021
0.671717 0.595850 0.389868
1.000000 0.748470 0.477272
0.806668 0.900053 0.732540
0.813718 0.896086 0.741482
0.817685 0.871672 0.735805
0.881743 0.890776 0.753079
0.953918 0.890562 0.760464
0.241520 0.187198 0.183719
0.255131 0.185122 0.186099
0.518608 0.000000 0.191104
0.888975 0.000000 0.159884
1.000000 0.000000 0.162875
0.239414 0.204318 0.188083
0.265995 0.201328 0.188815
0.534936 0.209049 0.178439
0.892363 0.232517 0.149599
1.000000 0.228153 0.182498
0.377234 0.349248 0.230014
0.383246 0.327886 0.241703
0.449989 0.350408 0.232700
0.863340 0.531060 0.251743
1.000000 0.542840 0.320958
0.538689 0.573175 0.415686
0.544030 0.561913 0.424872
0.572259 0.564111 0.432410
0.667018 0.602899 0.422736
1.000000 0.758450 0.525658
0.801541 0.904295 0.742641
0.808927 0.899840 0.749538
0.828305 0.887083 0.780209
0.883696 0.900359 0.786770
0.951904 0.901152 0.795163
0.270756 0.183719 0.367529
0.338170 0.169741 0.380407
0.499245 0.101381 0.390204
0.807950 0.000000 0.464546
1.000000 0.000000 0.461433
0.281071 0.261997 0.364813
0.330846 0.246830 0.374121
0.497230 0.212711 0.385443
0.820371 0.179294 0.449104
1.000000 0.201968 0.448707
0.188174 0.474311 0.410132
0.303807 0.468482 0.397467
0.483650 0.446845 0.411261
0.854368 0.552941 0.486336
1.000000 0.587274 0.557702
0.519158 0.662409 0.508629
0.536461 0.640406 0.508202
0.565209 0.593988 0.525109
0.666712 0.645472 0.532341
1.000000 0.809293 0.705867
0.767178 0.920592 0.770443
0.781277 0.917113 0.778378
0.818296 0.901488 0.805234
0.864561 0.903166 0.822599
0.935210 0.907561 0.830961
0.338079 0.285039 0.723415
0.403723 0.280766 0.732967
0.600641 0.237888 0.762722
0.791348 0.192233 0.751247
1.000000 0.270909 0.778073
0.359167 0.394049 0.713649
0.408942 0.387304 0.719295
0.582971 0.352026 0.744320
0.762203 0.314244 0.725399
1.000000 0.341314 0.773617
0.400885 0.575616 0.682094
0.434302 0.575097 0.676387
0.528679 0.551415 0.700801
0.722133 0.514946 0.699001
1.000000 0.585687 0.778286
0.000000 0.824155 0.768368
0.000000 0.819272 0.761868
0.434974 0.799039 0.726986
0.700954 0.763882 0.747280
0.983032 0.882933 0.889403
0.665675 0.964599 0.842985
0.700221 0.960967 0.853910
0.794217 0.947539 0.881071
0.846036 0.916686 0.890501
0.918334 0.928435 0.898161
0.452827 0.497169 0.977173
0.490852 0.492012 0.977691
0.630030 0.474128 0.982422
0.856016 0.410925 0.989502
1.000000 0.364935 0.983215
0.456489 0.553002 0.970489
0.491768 0.548333 0.971496
0.622766 0.528496 0.976287
0.843900 0.468727 0.983795
1.000000 0.423346 0.977203
0.525902 0.744869 0.954955
0.533623 0.731838 0.955871
0.618921 0.709895 0.960388
0.804654 0.656825 0.969085
1.000000 0.630518 0.963714
0.591394 0.879362 0.952605
0.614282 0.879789 0.951232
0.710811 0.890074 0.949004
0.807889 0.887266 0.958801
0.945647 0.876799 0.960540
0.570550 0.988800 0.960204
0.597528 0.987304 0.960113
0.702632 0.982757 0.961669
0.821347 0.974945 0.962341
0.919951 0.958801 0.962402
