20 Preset/Travel Style/【3】LUT video cho PR-AE-FCPX/Green Moody - Lut (9).cube
# Created by Adobe Lightroom plugin Export LUT (1.24.0)
# www.johnrellis.com/lightroom/exportlut.htm
# Preset: 09自然风光-冒险-素材江湖
# Color profile: E:\lut插件\exportlut.1.24\exportlut.lrplugin\color profiles\Rec709gamma2.4.icc
LUT_3D_SIZE 8
DOMAIN_MIN 0.000000 0.000000 0.000000
DOMAIN_MAX 0.903226 0.903226 0.903226
0.139040 0.152895 0.168734
0.146273 0.152956 0.168795
0.189334 0.151858 0.169162
0.308293 0.142061 0.168551
0.502007 0.067628 0.164706
0.754421 0.000000 0.155154
0.983612 0.000000 0.148318
1.000000 0.000000 0.168215
0.142061 0.158877 0.169223
0.147127 0.158755 0.169345
0.185763 0.159792 0.170230
0.299718 0.156893 0.169009
0.487037 0.124269 0.165377
0.736568 0.000000 0.156435
0.961456 0.000000 0.149386
1.000000 0.000000 0.167697
0.160250 0.197665 0.168887
0.172183 0.196597 0.169528
0.198184 0.198856 0.169100
0.305821 0.213077 0.170291
0.507317 0.221347 0.169711
0.770138 0.212680 0.160128
0.983917 0.201358 0.166476
1.000000 0.215976 0.201846
0.200198 0.307897 0.157076
0.217044 0.306249 0.158145
0.265110 0.310033 0.158633
0.332067 0.325383 0.154513
0.515038 0.369848 0.153689
0.807065 0.424109 0.192599
0.985077 0.433906 0.230137
1.000000 0.436042 0.275883
0.264378 0.482399 0.100313
0.284337 0.481239 0.104097
0.355993 0.480598 0.116243
0.431739 0.497444 0.101656
0.518608 0.505882 0.090547
0.697993 0.540795 0.102052
0.935454 0.589929 0.239200
1.000000 0.611994 0.406958
0.386145 0.674037 0.000000
0.409369 0.680262 0.000000
0.476539 0.679072 0.000000
0.565911 0.681941 0.000000
0.651057 0.694697 0.000000
0.739467 0.696834 0.000000
0.867979 0.704952 0.118898
1.000000 0.726009 0.369146
0.547875 0.830198 0.000000
0.561822 0.830747 0.000000
0.610010 0.828244 0.000000
0.692836 0.824643 0.105837
0.758419 0.826352 0.121096
0.833890 0.832975 0.133181
0.899138 0.825711 0.180514
0.970947 0.811551 0.254490
0.688106 0.930632 0.267216
0.696223 0.930175 0.271763
0.729305 0.928832 0.293523
0.788663 0.926726 0.336553
0.845457 0.918822 0.347570
0.899016 0.922148 0.365301
0.960479 0.925841 0.387549
1.000000 0.913207 0.412146
0.140810 0.154788 0.172671
0.143130 0.155123 0.172793
0.174014 0.154910 0.177493
0.290532 0.139956 0.177218
0.471656 0.079469 0.177920
0.717250 0.000000 0.176059
0.944305 0.000000 0.176791
1.000000 0.000000 0.194095
0.138552 0.159182 0.175265
0.145174 0.159487 0.175784
0.184665 0.159701 0.177066
0.291386 0.154330 0.178317
0.471382 0.120607 0.178988
0.716274 0.000000 0.177066
0.934874 0.000000 0.177890
1.000000 0.000000 0.194400
0.149111 0.197635 0.176455
0.162905 0.197055 0.177310
0.194369 0.198062 0.177829
0.300572 0.210513 0.184329
0.487373 0.217014 0.187625
0.733913 0.204166 0.186374
0.946288 0.181796 0.192660
1.000000 0.198337 0.221500
0.183139 0.300664 0.169680
0.201511 0.299779 0.170718
0.255528 0.301854 0.173373
0.313939 0.309667 0.171969
0.476631 0.344121 0.180667
0.756588 0.395819 0.219944
0.949126 0.409705 0.240726
1.000000 0.419776 0.282200
0.244877 0.474708 0.133211
0.265751 0.472541 0.136110
0.338231 0.469551 0.146242
0.413245 0.479927 0.142031
0.493843 0.484688 0.137819
0.673823 0.522576 0.151247
0.919493 0.578332 0.262730
1.000000 0.603876 0.411444
0.362158 0.662104 0.000000
0.381170 0.662196 0.000000
0.450416 0.661921 0.000000
0.546319 0.666133 0.059052
0.633631 0.681422 0.000000
0.726894 0.687892 0.031769
0.859586 0.698665 0.167422
1.000000 0.722316 0.386206
0.527306 0.822141 0.000000
0.538476 0.820523 0.000000
0.588190 0.817838 0.000000
0.674525 0.815457 0.133974
0.747280 0.819364 0.156435
0.823880 0.826505 0.164981
0.888853 0.818601 0.198245
0.962707 0.805081 0.263981
0.675257 0.926665 0.270359
0.684779 0.926970 0.278691
0.718502 0.925475 0.298528
0.779232 0.923522 0.340368
0.847288 0.921630 0.383429
0.898070 0.922942 0.391547
0.957824 0.925139 0.405005
1.000000 0.912627 0.427985
0.144289 0.161685 0.193057
0.148379 0.162203 0.193393
0.162966 0.164828 0.194797
0.202548 0.187411 0.218845
0.412146 0.149386 0.255497
0.699855 0.000000 0.256748
0.942229 0.000000 0.270542
1.000000 0.000000 0.303838
0.148470 0.170352 0.200076
0.151888 0.169863 0.200107
0.167575 0.172183 0.200748
0.222690 0.189242 0.226474
0.427893 0.149844 0.250706
0.704860 0.000000 0.248173
0.933196 0.000000 0.270420
1.000000 0.000000 0.303380
0.122408 0.200565 0.218509
0.134157 0.201328 0.219425
0.183383 0.203525 0.222782
0.297276 0.210544 0.233707
0.480568 0.212100 0.249393
0.726955 0.192538 0.268498
0.940795 0.179477 0.292851
1.000000 0.227970 0.330907
0.000000 0.313115 0.205966
0.093996 0.312932 0.216495
0.226810 0.311345 0.230381
0.308263 0.317632 0.235599
0.494881 0.360327 0.273594
0.754391 0.403784 0.319463
0.945220 0.423804 0.350317
1.000000 0.446540 0.396307
0.137881 0.479164 0.215824
0.181918 0.478645 0.217716
0.291783 0.477913 0.226749
0.403326 0.484932 0.236698
0.493599 0.494331 0.237491
0.688411 0.536492 0.277409
0.919799 0.595361 0.402930
1.000000 0.626307 0.511833
0.290379 0.663935 0.193515
0.316686 0.664607 0.196841
0.403113 0.663844 0.209323
0.527001 0.662898 0.234836
0.617975 0.677180 0.233494
0.715602 0.685634 0.244999
0.858762 0.702876 0.313390
1.000000 0.736934 0.510246
0.487068 0.826658 0.224155
0.500572 0.825284 0.226291
0.555840 0.821744 0.239170
0.649073 0.818021 0.269780
0.736965 0.818997 0.293187
0.816068 0.827176 0.303624
0.885405 0.822477 0.329931
0.963531 0.812863 0.393805
0.650233 0.928313 0.359838
0.658595 0.927550 0.361639
0.694667 0.925963 0.377478
0.760586 0.924773 0.417090
0.839200 0.921355 0.463691
0.891112 0.923705 0.475624
0.950927 0.926390 0.490333
0.996735 0.915038 0.510491
0.150698 0.183047 0.261418
0.158694 0.184604 0.263005
0.186313 0.188937 0.263493
0.223728 0.197848 0.266361
0.284550 0.243015 0.305577
0.498573 0.269108 0.403052
0.824125 0.162325 0.466957
1.000000 0.000000 0.480110
0.157748 0.198734 0.275273
0.165682 0.199435 0.275425
0.192660 0.201999 0.274083
0.229862 0.209049 0.275120
0.290837 0.255650 0.315465
0.519280 0.271519 0.409613
0.835325 0.169802 0.463874
1.000000 0.000000 0.472938
0.170413 0.242893 0.298711
0.179416 0.244388 0.300633
0.206302 0.243900 0.302434
0.244572 0.246952 0.299351
0.313390 0.305577 0.353918
0.613611 0.283635 0.428901
0.901396 0.222629 0.457069
1.000000 0.260288 0.477607
0.000000 0.315435 0.339971
0.000000 0.315740 0.340276
0.137697 0.318120 0.343511
0.272587 0.323217 0.350469
0.467994 0.350195 0.383642
0.705776 0.377508 0.423835
0.913695 0.415961 0.474220
1.000000 0.472358 0.533623
0.000000 0.490364 0.320562
0.000000 0.490730 0.317815
0.000000 0.493538 0.320806
0.344701 0.493782 0.370520
0.475044 0.504143 0.383642
0.703639 0.564965 0.468116
0.903929 0.631556 0.587274
1.000000 0.659510 0.639399
0.000000 0.679103 0.350103
0.000000 0.683925 0.356817
0.255650 0.681453 0.365759
0.456825 0.680354 0.387518
0.600946 0.685969 0.407477
0.702388 0.692897 0.418524
0.857176 0.720424 0.509941
0.984222 0.771420 0.685725
0.365362 0.832334 0.387030
0.389593 0.832334 0.390600
0.473152 0.830838 0.403052
0.594507 0.828031 0.428290
0.721614 0.824155 0.463722
0.801144 0.831205 0.473762
0.872374 0.827634 0.493935
0.955505 0.825162 0.570306
0.598535 0.933989 0.494606
0.609064 0.933501 0.497292
0.651057 0.931670 0.509789
0.723171 0.928801 0.536706
0.810819 0.924468 0.574975
0.876677 0.924468 0.596857
0.936400 0.927764 0.610681
0.984009 0.919402 0.630121
0.163149 0.239902 0.395270
0.174594 0.242008 0.396948
0.213016 0.246586 0.395727
0.265873 0.253300 0.392615
0.321294 0.267674 0.395117
0.399878 0.327428 0.441413
0.550011 0.455299 0.567864
0.886564 0.457343 0.682856
0.172305 0.258915 0.409796
0.183047 0.260624 0.411200
0.220188 0.263157 0.408698
0.271244 0.266423 0.401709
0.326299 0.278874 0.402869
0.405615 0.339666 0.450294
0.569329 0.458473 0.577203
0.893858 0.462470 0.684810
0.198306 0.319951 0.445563
0.203494 0.317449 0.445136
0.234134 0.312627 0.440192
0.286381 0.311986 0.431220
0.339666 0.318547 0.425971
0.419806 0.381933 0.476570
0.638575 0.465644 0.603693
0.919585 0.475715 0.684108
0.151186 0.385077 0.481361
0.177218 0.387579 0.481880
0.251713 0.399268 0.485878
0.310369 0.395178 0.485206
0.367864 0.394232 0.474098
0.461769 0.471687 0.543206
0.765438 0.494423 0.640620
0.972839 0.518242 0.680781
0.000000 0.483375 0.520165
0.000000 0.484382 0.521141
0.000000 0.486488 0.523613
0.194491 0.489906 0.528344
0.402411 0.492226 0.533501
0.650324 0.540093 0.589532
0.857816 0.595300 0.652796
0.983703 0.652583 0.712734
0.000000 0.655421 0.491798
0.000000 0.656764 0.490639
0.000000 0.658198 0.482368
0.000000 0.663722 0.471412
0.495460 0.664210 0.545953
0.650446 0.682216 0.576654
0.839322 0.743862 0.698482
0.959411 0.806119 0.809079
0.000000 0.837949 0.458534
0.000000 0.836301 0.467475
0.000000 0.831449 0.509514
0.428565 0.827604 0.560204
0.632715 0.823789 0.595117
0.761990 0.825559 0.622736
0.841642 0.826535 0.640070
0.937469 0.838163 0.725734
0.448890 0.934539 0.598779
0.466285 0.933928 0.600610
0.531762 0.931731 0.610224
0.639368 0.930205 0.639124
0.751247 0.925719 0.670924
0.852140 0.921843 0.706233
0.912718 0.925780 0.717494
0.963378 0.920317 0.731807
0.182467 0.341619 0.595697
0.198489 0.343236 0.596460
0.250034 0.345678 0.591852
0.320287 0.350317 0.585229
0.393896 0.356329 0.576043
0.465461 0.375219 0.577356
0.558221 0.444862 0.619989
0.713039 0.613184 0.745602
0.191806 0.353826 0.596338
0.205966 0.354223 0.595422
0.253941 0.355871 0.591516
0.321172 0.359075 0.584741
0.391272 0.361944 0.572839
0.462043 0.379858 0.574212
0.555383 0.449653 0.618647
0.709926 0.615259 0.744320
0.220859 0.415808 0.634119
0.233982 0.415412 0.632807
0.278996 0.415259 0.628626
0.341375 0.410590 0.614710
0.409461 0.408209 0.599695
0.479072 0.421668 0.597711
0.575525 0.497139 0.646845
0.721187 0.651789 0.764034
0.279942 0.516808 0.675105
0.291600 0.516289 0.674220
0.336736 0.518425 0.675288
0.384009 0.508049 0.671656
0.452125 0.501366 0.656916
0.517174 0.504906 0.647303
0.617731 0.587182 0.702449
0.766537 0.706081 0.802518
0.082277 0.575128 0.696742
0.150820 0.576593 0.696986
0.279484 0.584070 0.698939
0.417304 0.603662 0.703761
0.481910 0.591852 0.696040
0.539757 0.582849 0.679072
0.650629 0.668910 0.747066
0.868681 0.715511 0.820615
0.000000 0.673426 0.714534
0.000000 0.675837 0.717006
0.000000 0.675959 0.717678
0.000000 0.676356 0.719387
0.372381 0.675929 0.721706
0.585473 0.679744 0.729915
0.811765 0.742092 0.793942
0.942168 0.789609 0.839445
0.000000 0.829282 0.691157
0.000000 0.830686 0.691585
0.000000 0.831998 0.688380
0.000000 0.834043 0.685206
0.333745 0.836179 0.690913
0.697261 0.827115 0.757992
0.809079 0.832181 0.778531
0.931029 0.870512 0.858518
0.000000 0.948028 0.640070
0.000000 0.947448 0.639490
0.000000 0.945739 0.644160
0.362768 0.938872 0.699184
0.645258 0.929229 0.763210
0.793210 0.923827 0.792203
0.887083 0.924712 0.813321
0.942657 0.923766 0.824002
0.305913 0.482429 0.781521
0.320836 0.486519 0.784085
0.358618 0.487129 0.780484
0.422126 0.491371 0.776669
0.493294 0.493294 0.767880
0.562493 0.492409 0.753384
0.633753 0.514763 0.752651
0.702968 0.573663 0.768154
0.299016 0.480812 0.770565
0.314427 0.485634 0.774197
0.351659 0.486122 0.771145
0.410529 0.486488 0.764706
0.478981 0.485695 0.754055
0.544121 0.480537 0.736110
0.611353 0.497810 0.732052
0.679896 0.553216 0.747158
0.351385 0.541680 0.793393
0.359655 0.541436 0.792691
0.386969 0.537713 0.787442
0.437140 0.534417 0.780179
0.495979 0.527245 0.766781
0.558892 0.520562 0.750759
0.632044 0.542596 0.753658
0.709529 0.609277 0.779049
0.450416 0.640711 0.820859
0.449500 0.636286 0.818906
0.452552 0.622827 0.814023
0.490700 0.617517 0.809140
0.539666 0.607965 0.797818
0.597742 0.600275 0.785550
0.664302 0.615167 0.785794
0.737331 0.679500 0.811093
0.476387 0.701472 0.828519
0.476875 0.698146 0.826078
0.496407 0.694728 0.823575
0.539696 0.694820 0.823606
0.569299 0.678065 0.816312
0.616052 0.663783 0.802090
0.672969 0.666438 0.796414
0.762356 0.745876 0.838712
0.322026 0.736446 0.839933
0.341955 0.737728 0.840482
0.409552 0.741634 0.841520
0.511986 0.750607 0.843778
0.623804 0.766690 0.846372
0.675685 0.761288 0.844083
0.718410 0.754849 0.834775
0.802823 0.818143 0.874876
0.000000 0.827085 0.854276
0.000000 0.828367 0.855497
0.000000 0.827665 0.855711
0.154940 0.827176 0.856931
0.437690 0.824399 0.857237
0.612421 0.821592 0.858305
0.754910 0.820859 0.861479
0.918578 0.869596 0.904509
0.000000 0.937041 0.824430
0.000000 0.937163 0.824460
0.000000 0.938689 0.826322
0.000000 0.937743 0.826322
0.326390 0.934539 0.828428
0.621149 0.931884 0.838712
0.844327 0.924285 0.880858
0.923064 0.927184 0.893462
0.505608 0.637690 0.883391
0.512840 0.640009 0.884001
0.526299 0.636561 0.880980
0.562615 0.639796 0.879545
0.608392 0.641291 0.875944
0.658686 0.639948 0.869780
0.712917 0.640040 0.862882
0.766812 0.660822 0.862486
0.498787 0.635615 0.879454
0.506401 0.638087 0.880247
0.523033 0.637079 0.878416
0.556970 0.638209 0.876219
0.602411 0.638972 0.872557
0.652583 0.636957 0.866178
0.704799 0.633417 0.857664
0.758114 0.651453 0.856138
0.521599 0.664118 0.882017
0.526024 0.664546 0.881926
0.538598 0.661585 0.879576
0.577295 0.668421 0.880583
0.614374 0.664149 0.875395
0.657099 0.656519 0.867369
0.706966 0.651606 0.859129
0.759365 0.667567 0.857847
0.566064 0.714351 0.888426
0.569085 0.714382 0.888853
0.577783 0.710903 0.887327
0.604303 0.711025 0.885985
0.638087 0.707942 0.882353
0.676844 0.701198 0.875975
0.721401 0.694636 0.868498
0.770779 0.706813 0.867430
0.615442 0.770291 0.895079
0.620722 0.771633 0.895781
0.630671 0.770077 0.894865
0.641169 0.762844 0.894041
0.660792 0.753445 0.889982
0.692988 0.744717 0.883482
0.733150 0.736934 0.876463
0.782864 0.748318 0.877073
0.622095 0.810086 0.903685
0.624811 0.809445 0.902800
0.642298 0.810178 0.900938
0.667903 0.810544 0.900420
0.700710 0.810636 0.901579
0.732296 0.806729 0.902373
0.773892 0.806027 0.900175
0.817838 0.813077 0.900633
0.534264 0.848234 0.919921
0.540764 0.848112 0.919707
0.568902 0.848264 0.919219
0.625605 0.851499 0.919829
0.699275 0.858213 0.921294
0.781888 0.872313 0.924865
0.822751 0.872648 0.926329
0.848936 0.865721 0.919493
0.232761 0.923980 0.933410
0.252842 0.923522 0.933196
0.334081 0.922728 0.933227
0.451362 0.922362 0.934264
0.568322 0.921233 0.935271
0.679377 0.919371 0.936126
0.784726 0.917571 0.937316
0.881865 0.914763 0.937865
