20 Preset/Travel Style/【3】LUT video cho PR-AE-FCPX/Green Moody - Lut (30).cube
# Created by Adobe Lightroom plugin Export LUT (1.24.0)
# www.johnrellis.com/lightroom/exportlut.htm
# Preset: 30自然风光-素材江湖
# Color profile: E:\lut插件\exportlut.1.24\exportlut.lrplugin\color profiles\Rec709gamma2.4.icc
LUT_3D_SIZE 32
DOMAIN_MIN 0.0 0.0 0.0
DOMAIN_MAX 1.0 1.0 1.0
0.174472 0.146487 0.133364
0.174716 0.146426 0.133608
0.175784 0.146487 0.133577
0.177584 0.146670 0.133761
0.181094 0.146975 0.134096
0.186496 0.147402 0.134340
0.194400 0.147616 0.134798
0.205417 0.148043 0.134829
0.220798 0.148104 0.135225
0.240940 0.148074 0.135378
0.265843 0.147616 0.135500
0.294377 0.146914 0.135256
0.326757 0.145480 0.135378
0.362280 0.143740 0.135256
0.400641 0.141054 0.135103
0.441413 0.138552 0.135195
0.484840 0.135378 0.135744
0.530327 0.133089 0.136416
0.577905 0.131014 0.137942
0.627253 0.131472 0.139925
0.677546 0.135317 0.142702
0.732906 0.144106 0.147463
0.787167 0.158999 0.154513
0.836088 0.177981 0.163577
0.879698 0.199680 0.174990
0.918273 0.223362 0.188846
0.952575 0.248875 0.205142
0.983368 0.275425 0.224125
1.000000 0.303258 0.246250
1.000000 0.332647 0.271794
1.000000 0.363134 0.301091
1.000000 0.395514 0.334844
0.174624 0.146670 0.133577
0.174899 0.146639 0.133577
0.175692 0.146731 0.133547
0.177768 0.146853 0.133700
0.181277 0.147158 0.134066
0.186404 0.147646 0.134310
0.194064 0.147890 0.134768
0.205051 0.148318 0.135042
0.220066 0.148440 0.135195
0.239933 0.148531 0.135348
0.264347 0.147982 0.135500
0.292790 0.147402 0.135286
0.324529 0.146242 0.135164
0.359960 0.144472 0.135073
0.397833 0.142428 0.135164
0.438392 0.139803 0.135317
0.481544 0.137087 0.135653
0.526848 0.134554 0.136446
0.574334 0.132967 0.137758
0.623529 0.133211 0.139834
0.673335 0.136690 0.142367
0.727932 0.144747 0.147005
0.781064 0.158755 0.153719
0.829252 0.176852 0.162264
0.872740 0.197452 0.172915
0.911650 0.220432 0.186099
0.946563 0.245060 0.201938
0.978027 0.271336 0.220279
1.000000 0.298802 0.241917
1.000000 0.327977 0.266789
1.000000 0.358526 0.295750
1.000000 0.390753 0.329015
0.175418 0.147829 0.133639
0.175692 0.147799 0.133639
0.176120 0.147524 0.133669
0.177798 0.147921 0.133791
0.181582 0.148196 0.134127
0.186954 0.148623 0.134401
0.194461 0.149294 0.134524
0.205417 0.149722 0.134829
0.220279 0.150057 0.135195
0.240238 0.150332 0.135286
0.264530 0.150240 0.135134
0.292638 0.149752 0.135164
0.324315 0.149081 0.134981
0.359289 0.147768 0.134890
0.397040 0.146059 0.134920
0.437476 0.143862 0.135073
0.480446 0.141695 0.135592
0.525750 0.139834 0.136324
0.572930 0.139132 0.137606
0.621912 0.139925 0.139681
0.671901 0.144015 0.142519
0.726802 0.152621 0.146975
0.778927 0.165560 0.153323
0.826596 0.182773 0.161837
0.869871 0.202457 0.172274
0.908568 0.224277 0.184909
0.943572 0.247898 0.200534
0.975311 0.273381 0.218753
1.000000 0.300328 0.239933
1.000000 0.329076 0.264897
1.000000 0.359014 0.293614
1.000000 0.390814 0.326390
0.177035 0.150118 0.133455
0.177615 0.150027 0.133455
0.178439 0.149905 0.133700
0.179080 0.149599 0.133974
0.181704 0.150027 0.134310
0.187350 0.151034 0.134493
0.195468 0.151797 0.134585
0.206668 0.152560 0.134798
0.221927 0.153231 0.135103
0.241917 0.153811 0.135134
0.266148 0.154299 0.134890
0.294133 0.154604 0.134768
0.325689 0.154513 0.134768
0.360296 0.153964 0.134524
0.397681 0.153048 0.134493
0.437629 0.151827 0.134798
0.480049 0.150942 0.135195
0.524620 0.150362 0.135866
0.571313 0.150820 0.137301
0.619776 0.152651 0.139315
0.669215 0.157168 0.141939
0.723995 0.165743 0.146578
0.774807 0.178286 0.152865
0.822080 0.194003 0.160983
0.865812 0.212711 0.171237
0.905486 0.233555 0.184390
0.941405 0.256870 0.200198
0.973754 0.281590 0.218662
1.000000 0.307836 0.240299
1.000000 0.335729 0.265293
1.000000 0.364569 0.293858
1.000000 0.395056 0.326116
0.180392 0.154086 0.133455
0.180697 0.154055 0.133455
0.182559 0.153994 0.133394
0.183627 0.153841 0.133639
0.184115 0.153140 0.134249
0.187228 0.153262 0.134859
0.195590 0.155184 0.134768
0.208377 0.157412 0.134676
0.224002 0.158724 0.134829
0.244053 0.159976 0.134737
0.268254 0.161135 0.134585
0.296056 0.162173 0.134340
0.327367 0.162997 0.134157
0.362036 0.163485 0.133974
0.399176 0.163760 0.134218
0.439368 0.163912 0.134249
0.481880 0.164401 0.134890
0.526574 0.165713 0.135439
0.573266 0.167391 0.136843
0.621515 0.170901 0.139010
0.672084 0.176791 0.141939
0.726009 0.186221 0.146700
0.775540 0.198428 0.152712
0.822232 0.213046 0.161135
0.865599 0.230594 0.171939
0.905119 0.250309 0.184878
0.940856 0.271824 0.200900
0.972961 0.295079 0.219669
1.000000 0.319982 0.241276
1.000000 0.346288 0.266331
1.000000 0.373754 0.294774
1.000000 0.403052 0.326818
0.185183 0.160586 0.133181
0.185458 0.160555 0.133181
0.187259 0.160494 0.133150
0.189792 0.160311 0.133333
0.191440 0.159884 0.133608
0.191836 0.158297 0.134340
0.195438 0.158511 0.135164
0.207401 0.161563 0.134951
0.225620 0.165499 0.134554
0.248447 0.169497 0.134035
0.272953 0.171572 0.133883
0.301183 0.173434 0.133639
0.332647 0.175479 0.133394
0.367224 0.177218 0.133150
0.404791 0.178866 0.133272
0.444800 0.180728 0.133608
0.487587 0.182956 0.134005
0.532525 0.185794 0.135042
0.579217 0.189395 0.136629
0.627466 0.194339 0.138735
0.680659 0.202487 0.142214
0.732906 0.212955 0.146944
0.817075 0.240696 0.160403
0.862333 0.257725 0.172213
0.902281 0.276188 0.186465
0.937713 0.295872 0.202914
0.968933 0.316686 0.222202
0.996826 0.338628 0.243442
1.000000 0.362036 0.267948
1.000000 0.386389 0.294896
1.000000 0.412299 0.324987
1.000000 0.439216 0.358312
0.193362 0.172213 0.131991
0.193881 0.172152 0.131991
0.195804 0.172061 0.132204
0.200412 0.172122 0.132021
0.202701 0.171420 0.132570
0.204807 0.170596 0.133150
0.205264 0.167880 0.134371
0.208682 0.167178 0.135622
0.226841 0.172610 0.134859
0.251652 0.179110 0.134188
0.282444 0.186862 0.132937
0.314824 0.191928 0.132082
0.347417 0.195010 0.132052
0.382635 0.198062 0.131991
0.420691 0.201358 0.131899
0.461067 0.204685 0.132326
0.503929 0.208438 0.132967
0.548821 0.213230 0.134127
0.595636 0.218692 0.135988
0.647181 0.226749 0.138766
0.704646 0.238315 0.143099
0.758511 0.251438 0.149752
0.808835 0.266270 0.158938
0.855619 0.283055 0.171115
0.897337 0.300725 0.185946
0.933471 0.319341 0.203372
0.964996 0.338140 0.222721
0.992889 0.358038 0.244083
1.000000 0.379248 0.268376
1.000000 0.401343 0.295079
1.000000 0.425116 0.324804
1.000000 0.450446 0.357702
0.203708 0.187594 0.130404
0.203952 0.187564 0.130373
0.206607 0.187533 0.130312
0.211460 0.187350 0.130159
0.217075 0.186893 0.130282
0.219638 0.186069 0.130892
0.221836 0.184482 0.131899
0.222477 0.180575 0.133700
0.225925 0.178897 0.135622
0.247593 0.186069 0.134890
0.277134 0.195254 0.133791
0.312444 0.205417 0.132235
0.353460 0.216831 0.130282
0.389929 0.221988 0.130068
0.427771 0.226383 0.130220
0.467811 0.231327 0.130709
0.510460 0.236393 0.131746
0.555016 0.242618 0.132906
0.602869 0.250095 0.135042
0.657832 0.261082 0.137850
0.711391 0.272679 0.142947
0.762264 0.285466 0.149874
0.810513 0.299504 0.159487
0.855436 0.314885 0.172457
0.895995 0.331060 0.187900
0.931426 0.347601 0.205570
0.962463 0.364782 0.225254
0.990112 0.382330 0.247013
1.000000 0.401587 0.271550
1.000000 0.421820 0.298497
1.000000 0.443549 0.328283
1.000000 0.466835 0.361120
0.217105 0.208042 0.127108
0.217685 0.208103 0.127077
0.220340 0.208042 0.126986
0.225284 0.207950 0.127077
0.233310 0.207858 0.126741
0.237736 0.206851 0.127596
0.241306 0.205539 0.128573
0.243809 0.202853 0.130159
0.244480 0.198306 0.132753
0.247898 0.195041 0.135317
0.271855 0.203799 0.134981
0.305699 0.215457 0.133761
0.345006 0.228367 0.131930
0.389715 0.242893 0.129824
0.437659 0.257176 0.128145
0.477790 0.263310 0.128817
0.520256 0.269841 0.129854
0.566430 0.277928 0.131319
0.617975 0.288640 0.133577
0.670161 0.299809 0.137179
0.720668 0.311650 0.142672
0.768765 0.323919 0.150851
0.814817 0.336980 0.161349
0.857877 0.351232 0.175204
0.896910 0.365759 0.191562
0.931151 0.380377 0.210147
0.961456 0.395514 0.230442
0.988525 0.411444 0.252934
1.000000 0.428565 0.277897
1.000000 0.446754 0.304967
1.000000 0.466407 0.335058
1.000000 0.487678 0.367864
0.232700 0.233646 0.122194
0.233310 0.233585 0.122194
0.235996 0.233371 0.122133
0.241184 0.233341 0.122164
0.249454 0.233005 0.121859
0.258457 0.232425 0.121859
0.262242 0.231022 0.123201
0.266728 0.229465 0.124819
0.269444 0.225681 0.127413
0.270665 0.219852 0.131106
0.273167 0.214878 0.134798
0.297917 0.224308 0.135256
0.335149 0.238590 0.133791
0.378119 0.254551 0.131991
0.426795 0.272496 0.130037
0.480385 0.292363 0.127718
0.535576 0.310430 0.127047
0.584466 0.321080 0.128786
0.634546 0.332341 0.131807
0.684169 0.343572 0.136324
0.731533 0.354620 0.143191
0.776333 0.365393 0.152590
0.819089 0.376928 0.164187
0.859220 0.388739 0.178561
0.895720 0.401038 0.195224
0.928679 0.413489 0.213870
0.958221 0.426825 0.235019
0.985046 0.440925 0.257969
1.000000 0.456306 0.283696
1.000000 0.472938 0.311772
1.000000 0.490883 0.342229
1.000000 0.510521 0.375952
0.249943 0.262272 0.115328
0.250584 0.262272 0.115267
0.253269 0.262303 0.115114
0.258701 0.262181 0.114839
0.267399 0.261936 0.114687
0.278996 0.261906 0.113954
0.285771 0.260929 0.115114
0.290623 0.259342 0.116976
0.296300 0.257877 0.119203
0.298863 0.252659 0.123568
0.300511 0.245945 0.128756
0.301946 0.239109 0.134096
0.326574 0.248417 0.135927
0.367742 0.265904 0.134585
0.416815 0.286900 0.132937
0.471504 0.310063 0.130953
0.531640 0.335637 0.129183
0.596185 0.363439 0.126955
0.649622 0.379706 0.129488
0.696498 0.389990 0.135531
0.741238 0.399756 0.144259
0.783719 0.409461 0.155367
0.824582 0.419715 0.168551
0.862730 0.430091 0.184390
0.897734 0.440742 0.202579
0.929320 0.451637 0.222629
0.957855 0.463111 0.244480
0.983856 0.475380 0.268498
1.000000 0.488746 0.294713
1.000000 0.503471 0.323461
1.000000 0.519554 0.354559
1.000000 0.537133 0.388220
0.269657 0.296239 0.104097
0.270390 0.296239 0.104067
0.273198 0.296300 0.103822
0.278660 0.296208 0.103426
0.287388 0.296269 0.103059
0.299382 0.296117 0.102449
0.312139 0.295903 0.102144
0.317510 0.294499 0.104616
0.323430 0.292912 0.107668
0.330114 0.291203 0.111208
0.332311 0.284337 0.118074
0.335729 0.278019 0.125063
0.350317 0.281285 0.132692
0.375097 0.291020 0.137850
0.425666 0.315679 0.136751
0.482155 0.342657 0.135683
0.543908 0.371618 0.134524
0.609796 0.402441 0.134035
0.675990 0.433387 0.136721
0.738735 0.462684 0.145083
0.780240 0.470466 0.158541
0.818662 0.477485 0.173922
0.854582 0.484657 0.191348
0.887785 0.492073 0.210300
0.917998 0.499672 0.230961
0.945464 0.507408 0.252537
0.970275 0.515801 0.275853
0.993011 0.524956 0.300053
1.000000 0.535119 0.326207
1.000000 0.546777 0.354528
1.000000 0.559930 0.385199
1.000000 0.574884 0.418463
0.295140 0.340887 0.078401
0.295720 0.340826 0.078370
0.298528 0.340581 0.078279
0.304112 0.340185 0.077729
0.312779 0.339788 0.076112
0.324865 0.339330 0.074647
0.340307 0.339086 0.071351
0.350774 0.339086 0.075776
0.358190 0.338750 0.083223
0.366796 0.338537 0.089601
0.375860 0.337987 0.096162
0.380529 0.332128 0.107698
0.385412 0.325505 0.119478
0.389868 0.318273 0.131563
0.410193 0.324681 0.140261
0.464027 0.352575 0.139773
0.522942 0.382300 0.139101
0.585901 0.413336 0.139437
0.650752 0.444831 0.141909
0.712917 0.474495 0.149783
0.770932 0.501823 0.163821
0.819974 0.522332 0.182956
0.854307 0.527672 0.201755
0.886259 0.533318 0.221805
0.915557 0.539178 0.243046
0.942321 0.545342 0.265843
0.966796 0.552239 0.289403
0.989227 0.559869 0.314580
1.000000 0.568505 0.341466
1.000000 0.578637 0.370397
1.000000 0.590082 0.401221
1.000000 0.603235 0.434791
0.321660 0.387732 0.001465
0.322118 0.387579 0.001740
0.325048 0.387091 0.002136
0.330541 0.386816 0.001160
0.339422 0.386572 0.000153
0.352026 0.386236 0.000000
0.367681 0.386175 0.000000
0.384924 0.386236 0.000000
0.391913 0.385138 0.003967
0.400214 0.384497 0.019318
0.409644 0.384253 0.037415
0.418372 0.382330 0.067048
0.423316 0.375372 0.096040
0.427893 0.367559 0.113710
0.431647 0.358740 0.129976
0.449409 0.362310 0.141634
0.501061 0.389746 0.143465
0.561364 0.421363 0.144411
0.625055 0.453986 0.147311
0.687160 0.484749 0.154055
0.745937 0.513298 0.167544
0.800656 0.539849 0.187503
0.849485 0.563928 0.213077
0.886351 0.576715 0.238834
0.914519 0.581018 0.261143
0.940490 0.585504 0.284154
0.964202 0.590692 0.308690
0.986084 0.596582 0.334112
1.000000 0.603723 0.361364
1.000000 0.612085 0.390661
1.000000 0.621820 0.421729
1.000000 0.633234 0.455177
0.350134 0.438056 0.000000
0.350774 0.437903 0.000000
0.353491 0.437385 0.000000
0.358801 0.436683 0.000000
0.367437 0.435767 0.000000
0.379370 0.434943 0.000000
0.394873 0.434485 0.000000
0.414069 0.434455 0.000000
0.426368 0.433661 0.000000
0.434485 0.432746 0.000000
0.443915 0.432227 0.000000
0.454383 0.432074 0.000000
0.462348 0.428382 0.011749
0.466987 0.420417 0.076234
0.470985 0.411170 0.106783
0.473915 0.400641 0.128298
0.489387 0.401556 0.143679
0.537316 0.427192 0.148836
0.599207 0.460853 0.151705
0.661372 0.493324 0.158480
0.720943 0.523308 0.171145
0.777340 0.551324 0.190036
0.828305 0.576684 0.215640
0.873075 0.599298 0.246525
0.911589 0.619623 0.281163
0.938445 0.626001 0.307713
0.961578 0.629725 0.332464
0.982940 0.634302 0.358862
1.000000 0.640070 0.386938
1.000000 0.647272 0.416999
1.000000 0.655848 0.449226
1.000000 0.666072 0.483619
0.379065 0.487556 0.000000
0.379706 0.487678 0.000000
0.382574 0.487373 0.000000
0.388128 0.487068 0.000000
0.396765 0.486549 0.000000
0.408881 0.486213 0.000000
0.424475 0.486244 0.000000
0.443854 0.486671 0.000000
0.464851 0.487221 0.000000
0.472816 0.486183 0.000000
0.481575 0.485054 0.000000
0.491188 0.483772 0.000000
0.501305 0.482338 0.000000
0.507164 0.475654 0.000000
0.510369 0.465492 0.033783
0.512932 0.454200 0.099062
0.515160 0.442359 0.126802
0.528191 0.440620 0.146151
0.571832 0.463691 0.155764
0.633997 0.498207 0.161898
0.694850 0.530632 0.174014
0.753292 0.560784 0.192477
0.806699 0.588098 0.217624
0.854002 0.612238 0.248753
0.894774 0.633539 0.284123
0.929839 0.652766 0.323125
0.959380 0.669490 0.363439
0.980011 0.672724 0.389990
0.999054 0.676844 0.417823
1.000000 0.682246 0.447364
1.000000 0.688930 0.478553
1.000000 0.697108 0.511742
0.408820 0.536950 0.000000
0.409522 0.536828 0.000000
0.412329 0.536675 0.000000
0.417639 0.536461 0.000000
0.426062 0.536217 0.000000
0.438056 0.535943 0.000000
0.453223 0.535943 0.000000
0.472175 0.536217 0.000000
0.494209 0.536858 0.000000
0.508812 0.536461 0.000000
0.517418 0.535180 0.000000
0.526787 0.533776 0.000000
0.536645 0.532189 0.000000
0.546563 0.530022 0.000000
0.550988 0.521355 0.000000
0.553674 0.510307 0.000000
0.555932 0.498390 0.091310
0.558038 0.486122 0.126223
0.568963 0.481971 0.150179
0.607416 0.501366 0.165011
0.669093 0.536248 0.176272
0.728756 0.568566 0.194095
0.784421 0.597894 0.218967
0.834226 0.623713 0.250034
0.877348 0.646265 0.286107
0.914336 0.666255 0.326085
0.946075 0.684413 0.368811
0.973144 0.701076 0.413275
0.994812 0.712825 0.453193
1.000000 0.716793 0.482368
1.000000 0.721981 0.512840
1.000000 0.728450 0.544579
0.441505 0.587579 0.000000
0.442420 0.587884 0.000000
0.457557 0.606256 0.000000
0.462867 0.605982 0.000000
0.471382 0.605737 0.000000
0.482979 0.605280 0.000000
0.498238 0.604822 0.000000
0.516625 0.604578 0.000000
0.538201 0.604669 0.000000
0.561852 0.604822 0.000000
0.570123 0.603265 0.000000
0.579004 0.601526 0.000000
0.588190 0.599115 0.000000
0.597436 0.596155 0.000000
0.606592 0.592523 0.000000
0.608515 0.580957 0.000000
0.609888 0.568078 0.000000
0.611048 0.554711 0.090089
0.612146 0.541039 0.132143
0.619745 0.533501 0.160830
0.651545 0.547784 0.182071
0.711666 0.581720 0.200259
0.768246 0.612329 0.225467
0.818967 0.638972 0.257176
0.863005 0.661738 0.293553
0.900816 0.681544 0.333257
0.933318 0.699153 0.375433
0.961242 0.715297 0.419928
0.985046 0.730678 0.466377
1.000000 0.745510 0.513481
1.000000 0.753536 0.549340
1.000000 0.758175 0.578332
0.478035 0.640406 0.000000
0.479835 0.641962 0.000000
0.483619 0.643610 0.000000
0.489631 0.644953 0.000000
0.498573 0.645869 0.000000
0.509819 0.645930 0.000000
0.524102 0.645686 0.000000
0.541344 0.645197 0.000000
0.561608 0.645014 0.000000
0.584833 0.644984 0.000000
0.600824 0.644160 0.000000
0.609247 0.642512 0.000000
0.618067 0.640284 0.000000
0.627192 0.637781 0.000000
0.636439 0.634699 0.000000
0.644404 0.629969 0.000000
0.646418 0.618769 0.000000
0.648402 0.606806 0.000000
0.650324 0.594476 0.099001
0.652369 0.581964 0.141878
0.658503 0.573114 0.172976
0.684993 0.583856 0.199161
0.743679 0.617212 0.223819
0.796994 0.646204 0.255070
0.843534 0.670741 0.291478
0.883604 0.691737 0.331975
0.917998 0.710048 0.375189
0.947631 0.726589 0.420966
0.972961 0.741939 0.468086
0.994507 0.756680 0.516411
1.000000 0.770779 0.563714
1.000000 0.784176 0.608240
0.508690 0.681331 0.000000
0.510552 0.682918 0.000000
0.514244 0.684504 0.000000
0.520104 0.685939 0.000000
0.528466 0.686824 0.000000
0.539025 0.686976 0.000000
0.552544 0.686702 0.000000
0.568688 0.686275 0.000000
0.587701 0.685847 0.000000
0.609461 0.685512 0.000000
0.633783 0.685328 0.000000
0.641718 0.683711 0.000000
0.650111 0.681880 0.000000
0.659022 0.679713 0.000000
0.668177 0.677211 0.000000
0.677424 0.674220 0.000000
0.684169 0.668513 0.000000
0.686366 0.657801 0.000000
0.688563 0.646601 0.009369
0.690974 0.635126 0.117952
0.693446 0.623377 0.158755
0.697627 0.613092 0.191073
0.723384 0.623377 0.220584
0.774289 0.651545 0.252018
0.823575 0.678248 0.288701
0.866117 0.700801 0.329961
0.902525 0.720058 0.373907
0.933928 0.737118 0.420661
0.960723 0.752773 0.469276
0.983612 0.767453 0.518791
1.000000 0.781399 0.567010
1.000000 0.794522 0.612451
0.540856 0.721035 0.000000
0.542443 0.722377 0.000000
0.545953 0.723659 0.000000
0.551324 0.724788 0.000000
0.558892 0.725490 0.000000
0.568902 0.725521 0.000000
0.581292 0.725338 0.000000
0.596460 0.724849 0.000000
0.614435 0.724422 0.000000
0.634638 0.723964 0.000000
0.657618 0.723598 0.000000
0.674006 0.722744 0.000000
0.682155 0.721096 0.000000
0.690639 0.719203 0.000000
0.699641 0.717189 0.000000
0.708919 0.714961 0.000000
0.718685 0.712703 0.000000
0.724880 0.706905 0.000000
0.728115 0.697749 0.000000
0.731655 0.688350 0.100069
0.735409 0.678828 0.151949
0.739132 0.669001 0.189975
0.742733 0.658869 0.221592
0.767239 0.668299 0.255711
0.809598 0.691096 0.294194
0.854276 0.715389 0.338445
0.892332 0.735775 0.385657
0.924865 0.753475 0.435248
0.952514 0.769314 0.486610
0.975982 0.784024 0.537987
0.996002 0.797604 0.586816
1.000000 0.810300 0.632380
0.580468 0.765286 0.000000
0.581476 0.765743 0.000000
0.583703 0.766049 0.000000
0.587976 0.766110 0.000000
0.594537 0.765927 0.000000
0.603174 0.765469 0.000000
0.614435 0.764889 0.000000
0.628382 0.764309 0.000000
0.644862 0.763729 0.000000
0.664088 0.763241 0.000000
0.685512 0.762783 0.000000
0.709010 0.762234 0.000000
0.717372 0.760922 0.000000
0.725429 0.759396 0.000000
0.734035 0.757565 0.000000
0.742855 0.755581 0.000000
0.752102 0.753445 0.000000
0.761501 0.751339 0.000000
0.766232 0.744717 0.000000
0.769131 0.735927 0.098604
0.772152 0.726864 0.153353
0.775296 0.717464 0.192813
0.778317 0.707729 0.225711
0.781216 0.697688 0.255161
0.801419 0.703944 0.290715
0.835660 0.721492 0.332189
0.876341 0.743557 0.381018
0.911040 0.762325 0.432715
0.940490 0.778805 0.485817
0.965393 0.793698 0.538689
0.986603 0.807340 0.588922
1.000000 0.819913 0.635584
0.612360 0.797269 0.000000
0.613001 0.797635 0.000000
0.615229 0.797848 0.000000
0.619135 0.797910 0.000000
0.625025 0.797787 0.000000
0.633021 0.797391 0.000000
0.643519 0.796872 0.000000
0.656336 0.796262 0.000000
0.671534 0.795712 0.000000
0.689357 0.795163 0.000000
0.709163 0.794583 0.000000
0.730892 0.794003 0.000000
0.747311 0.793088 0.000000
0.755062 0.791867 0.000000
0.763241 0.790524 0.000000
0.771878 0.788998 0.000000
0.780850 0.787442 0.000000
0.790127 0.785794 0.000000
0.799557 0.784146 0.000000
0.803189 0.777310 0.119631
0.806180 0.769436 0.169406
0.809232 0.761288 0.207156
0.812284 0.752895 0.240055
0.815335 0.744167 0.270207
0.814359 0.731319 0.291783
0.831022 0.735134 0.327825
0.858762 0.748714 0.371710
0.895995 0.768887 0.424964
0.927520 0.786221 0.479835
0.954223 0.801694 0.534905
0.976959 0.815763 0.587518
0.996368 0.828550 0.635950
0.647272 0.829404 0.000000
0.648341 0.829923 0.000000
0.650202 0.830076 0.000000
0.653590 0.829862 0.000000
0.658412 0.829282 0.000000
0.665309 0.828489 0.000000
0.674067 0.827481 0.000000
0.685145 0.826383 0.000000
0.698573 0.825284 0.000000
0.714260 0.824186 0.000000
0.731930 0.823026 0.000000
0.751736 0.821958 0.000000
0.773007 0.820829 0.000000
0.781277 0.819394 0.000000
0.788388 0.817807 0.000000
0.795987 0.816098 0.000000
0.804013 0.814420 0.000000
0.812619 0.812833 0.000000
0.821653 0.811398 0.086732
0.830777 0.809873 0.141115
0.833768 0.803220 0.185916
0.836728 0.796139 0.222324
0.839506 0.788632 0.254246
0.842069 0.780697 0.283207
0.844297 0.772244 0.310399
0.846281 0.763516 0.336614
0.859556 0.765225 0.372412
0.881163 0.775235 0.416999
0.914733 0.793362 0.473243
0.943114 0.809293 0.530053
0.967315 0.823606 0.584222
0.987976 0.836606 0.634852
0.674586 0.852995 0.000000
0.675532 0.853422 0.000000
0.677363 0.853635 0.000000
0.680476 0.853544 0.000000
0.685206 0.853269 0.000000
0.691737 0.852842 0.000000
0.700221 0.852323 0.000000
0.710964 0.851713 0.000000
0.723690 0.851102 0.000000
0.738460 0.850401 0.000000
0.755032 0.849607 0.000000
0.773342 0.848783 0.000000
0.793210 0.847745 0.000000
0.808682 0.846586 0.000000
0.815457 0.845243 0.000000
0.822538 0.843778 0.000000
0.830076 0.842313 0.023560
0.838102 0.840879 0.117525
0.846647 0.839628 0.157595
0.855589 0.838529 0.190829
0.863218 0.836362 0.222110
0.865934 0.830167 0.254582
0.868559 0.823697 0.284611
0.871061 0.816892 0.312749
0.873350 0.809751 0.339910
0.875425 0.802335 0.366217
0.877348 0.794827 0.391943
0.887816 0.795346 0.428138
0.904509 0.803189 0.474434
0.934325 0.819669 0.533776
0.959594 0.834165 0.589929
0.981262 0.847318 0.642054
0.703792 0.876921 0.000000
0.704372 0.877134 0.000000
0.705806 0.877134 0.000000
0.708553 0.877012 0.000000
0.712734 0.876707 0.000000
0.718624 0.876249 0.000000
0.726284 0.875731 0.000000
0.735897 0.875090 0.000000
0.747311 0.874418 0.000000
0.760708 0.873716 0.000000
0.775937 0.872892 0.000000
0.792874 0.872038 0.000000
0.811215 0.871092 0.000000
0.830961 0.869963 0.000000
0.839322 0.868803 0.050172
0.846006 0.867552 0.117800
0.853117 0.866270 0.152560
0.860624 0.865049 0.181979
0.868681 0.863920 0.209293
0.877104 0.862974 0.236057
0.885801 0.862181 0.261967
0.891997 0.859373 0.289097
0.894285 0.853574 0.316838
0.896452 0.847501 0.343847
0.898466 0.841154 0.370001
0.900237 0.834562 0.395422
0.901915 0.827909 0.420874
0.903380 0.821164 0.446113
0.911315 0.820706 0.481636
0.926268 0.828305 0.530480
0.951019 0.842374 0.588128
0.974029 0.855955 0.643000
0.729854 0.897704 0.149691
0.730282 0.897856 0.151247
0.731685 0.897887 0.151736
0.734218 0.897856 0.152590
0.738247 0.897734 0.153536
0.743893 0.897612 0.154940
0.751522 0.897581 0.158358
0.761044 0.897581 0.162814
0.772366 0.897612 0.167971
0.785489 0.897642 0.174136
0.800320 0.897673 0.180850
0.816648 0.897490 0.186709
0.834379 0.897154 0.192813
0.853208 0.896544 0.198032
0.868589 0.895811 0.207919
0.875090 0.894957 0.228489
0.881834 0.894011 0.248569
0.888914 0.893065 0.268711
0.896452 0.892180 0.289830
0.904265 0.891386 0.311864
0.912383 0.890684 0.334295
0.920562 0.889952 0.357031
0.924956 0.886595 0.381262
0.926665 0.881224 0.406348
0.928191 0.875608 0.430854
0.929534 0.869871 0.455207
0.930694 0.864073 0.479927
0.931701 0.858244 0.504417
0.932708 0.852598 0.528862
0.938201 0.851499 0.562127
0.951263 0.858946 0.610803
0.970733 0.870542 0.663630
0.760861 0.921508 0.254734
0.761135 0.921508 0.254704
0.762203 0.921416 0.254704
0.764279 0.921233 0.254368
0.767727 0.920958 0.254063
0.772549 0.920623 0.254093
0.778927 0.920256 0.254490
0.786984 0.919860 0.254795
0.796750 0.919402 0.256199
0.808072 0.918914 0.257664
0.820981 0.918364 0.260075
0.835386 0.917754 0.262333
0.851286 0.917021 0.264927
0.868376 0.916136 0.267430
