20 Preset/Travel Style/【3】LUT video cho PR-AE-FCPX/Green Moody - Lut (8).cube
# Created by Adobe Lightroom plugin Export LUT (1.24.0)
# www.johnrellis.com/lightroom/exportlut.htm
# Preset: 08自然风光-环境人像-素材江湖
# Color profile: E:\lut插件\exportlut.1.24\exportlut.lrplugin\color profiles\Rec709gamma2.4.icc
LUT_3D_SIZE 5
DOMAIN_MIN 0.000000 0.000000 0.000000
DOMAIN_MAX 0.903226 0.903226 0.903226
0.167361 0.167086 0.168765
0.188022 0.165743 0.169924
0.340032 0.129885 0.170871
0.594354 0.000000 0.159060
0.861387 0.000000 0.126436
0.166049 0.189914 0.174350
0.188052 0.189425 0.175326
0.343969 0.197330 0.162600
0.590143 0.189487 0.141756
0.856016 0.145571 0.095430
0.191562 0.329534 0.196201
0.231449 0.335851 0.200351
0.333257 0.334295 0.188754
0.550408 0.373114 0.131533
0.833127 0.403632 0.000000
0.283543 0.553155 0.288426
0.321935 0.560235 0.296422
0.432654 0.573907 0.306798
0.566369 0.568292 0.275212
0.803128 0.611109 0.198825
0.488685 0.813993 0.488136
0.514244 0.816770 0.497047
0.608637 0.828611 0.536889
0.701686 0.830503 0.527306
0.830228 0.829923 0.493874
0.165530 0.172152 0.198093
0.198428 0.164858 0.202640
0.357946 0.139315 0.207950
0.610254 0.000000 0.186221
0.872770 0.000000 0.151431
0.172580 0.197116 0.198611
0.201999 0.201846 0.203281
0.363958 0.197452 0.197726
0.606012 0.178347 0.180636
0.869413 0.125582 0.138674
0.200351 0.342443 0.238712
0.243900 0.348760 0.245853
0.351293 0.352056 0.241062
0.569268 0.379400 0.191409
0.847929 0.396246 0.093416
0.296574 0.555993 0.327794
0.334112 0.563348 0.336370
0.448402 0.583337 0.357519
0.575586 0.577234 0.327886
0.810056 0.616388 0.263920
0.493782 0.813443 0.508568
0.519860 0.816403 0.517876
0.612726 0.827298 0.555871
0.707759 0.831357 0.555566
0.831113 0.830625 0.522026
0.174411 0.178103 0.344427
0.224643 0.173922 0.360693
0.411414 0.129183 0.409888
0.636835 0.000000 0.414679
0.900328 0.000000 0.407172
0.172580 0.219760 0.340154
0.218845 0.220188 0.355901
0.410651 0.206760 0.408453
0.639857 0.160006 0.410834
0.902129 0.000000 0.399359
0.182986 0.347082 0.345830
0.233494 0.359991 0.358404
0.422705 0.422889 0.420630
0.639948 0.407477 0.402533
0.891234 0.387274 0.382635
0.294652 0.548882 0.414771
0.342809 0.564111 0.431281
0.483925 0.604822 0.480629
0.612116 0.612909 0.478920
0.837461 0.632685 0.425452
0.485267 0.808804 0.562493
0.515831 0.812314 0.573022
0.620905 0.825834 0.615381
0.734676 0.838956 0.651606
0.838773 0.837644 0.620233
0.200870 0.202823 0.525231
0.250187 0.201175 0.539788
0.420356 0.186343 0.601678
0.683986 0.103792 0.675105
0.912963 0.000000 0.671748
0.198398 0.245396 0.519188
0.246830 0.246921 0.534020
0.416419 0.250675 0.596674
0.683558 0.237186 0.674556
0.912474 0.202335 0.671748
0.197757 0.340185 0.469337
0.239994 0.353948 0.491005
0.405280 0.405158 0.572992
0.683101 0.460792 0.673579
0.907439 0.453101 0.670710
0.209842 0.507164 0.501946
0.255039 0.517510 0.511986
0.407446 0.565209 0.558526
0.692256 0.691310 0.683986
0.890379 0.669703 0.660853
0.242252 0.765194 0.581048
0.310979 0.772641 0.590509
0.519066 0.801694 0.640986
0.752926 0.844480 0.745266
0.853391 0.851713 0.748836
0.298955 0.296208 0.797665
0.340795 0.297704 0.803952
0.479194 0.303838 0.828092
0.682521 0.322484 0.868040
0.903624 0.339971 0.893889
0.292424 0.330358 0.792966
0.335607 0.332769 0.799466
0.476814 0.343969 0.824674
0.682612 0.372992 0.865812
0.902556 0.400397 0.892851
0.209506 0.414099 0.766842
0.273716 0.420203 0.775357
0.448829 0.446693 0.806882
0.676967 0.504784 0.855344
0.898131 0.563531 0.888823
0.000000 0.525505 0.710994
0.000000 0.523919 0.713344
0.259434 0.519829 0.727047
0.627008 0.625727 0.821866
0.891966 0.743679 0.883818
0.000000 0.752560 0.741665
0.000000 0.754330 0.743374
0.000000 0.761868 0.750912
0.532280 0.788663 0.778408
0.893523 0.892485 0.887541
