20 Preset/Travel Style/【3】LUT video cho PR-AE-FCPX/Green Moody - Lut (3).cube
# Created by Adobe Lightroom plugin Export LUT (1.24.0)
# www.johnrellis.com/lightroom/exportlut.htm
# Preset: 03自然风光-山脉-素材江湖
# Color profile: E:\lut插件\exportlut.1.24\exportlut.lrplugin\color profiles\Rec709gamma2.4.icc
LUT_3D_SIZE 8
DOMAIN_MIN 0.000000 0.000000 0.000000
DOMAIN_MAX 0.903226 0.903226 0.903226
0.141421 0.119539 0.090486
0.144442 0.119387 0.090394
0.262486 0.104494 0.084657
0.530541 0.000000 0.034974
0.848386 0.000000 0.000000
1.000000 0.000000 0.000000
1.000000 0.000000 0.000000
1.000000 0.132082 0.000000
0.142550 0.121645 0.090852
0.145174 0.122377 0.090181
0.251225 0.129427 0.078859
0.504753 0.000000 0.019562
0.816495 0.000000 0.000000
1.000000 0.002014 0.000000
1.000000 0.174899 0.000000
1.000000 0.206729 0.000000
0.173465 0.164034 0.090883
0.185580 0.165774 0.090150
0.250340 0.184421 0.045350
0.495888 0.215213 0.000000
0.820127 0.285039 0.000000
1.000000 0.383490 0.000000
1.000000 0.394476 0.000000
1.000000 0.377600 0.000000
0.295872 0.290806 0.127749
0.310674 0.290074 0.131472
0.362646 0.307317 0.089509
0.482429 0.334447 0.000000
0.784604 0.472114 0.000000
1.000000 0.582269 0.000000
1.000000 0.566766 0.000000
1.000000 0.533135 0.000000
0.420569 0.419348 0.199130
0.431434 0.419837 0.202792
0.471839 0.430915 0.196811
0.555779 0.472297 0.091249
0.682856 0.517418 0.000000
0.900114 0.632837 0.000000
1.000000 0.667262 0.000000
1.000000 0.652918 0.000000
0.561242 0.575586 0.279637
0.577783 0.585748 0.288457
0.613458 0.593042 0.305394
0.671046 0.626093 0.250645
0.753536 0.666651 0.051789
0.853239 0.695949 0.000000
1.000000 0.728939 0.000000
1.000000 0.726101 0.000000
0.714412 0.748592 0.427131
0.721828 0.751247 0.434546
0.744839 0.754147 0.452338
0.783291 0.764462 0.449958
0.837522 0.783047 0.369177
0.907012 0.796750 0.238804
0.981415 0.792905 0.000000
1.000000 0.782315 0.000000
0.833677 0.887205 0.698512
0.837491 0.887297 0.700984
0.853971 0.888396 0.713527
0.883574 0.890959 0.739071
0.905852 0.885985 0.684321
0.950469 0.890288 0.631617
1.000000 0.882841 0.528313
1.000000 0.856260 0.291814
0.141726 0.119722 0.092958
0.144411 0.119326 0.093355
0.241978 0.096223 0.095857
0.485512 0.000000 0.069551
0.799649 0.000000 0.000000
1.000000 0.000000 0.000000
1.000000 0.000000 0.000000
1.000000 0.092409 0.000000
0.141787 0.122499 0.093233
0.145296 0.124178 0.093172
0.247837 0.120150 0.088930
0.486885 0.000000 0.050965
0.793118 0.000000 0.000000
1.000000 0.000000 0.000000
1.000000 0.119326 0.000000
1.000000 0.188602 0.000000
0.173983 0.174136 0.101076
0.189853 0.174044 0.104005
0.251591 0.187015 0.066194
0.486763 0.210269 0.000000
0.787015 0.246921 0.000000
1.000000 0.350530 0.000000
1.000000 0.374609 0.000000
1.000000 0.368719 0.000000
0.283146 0.285832 0.138857
0.297917 0.285679 0.142458
0.349462 0.300877 0.117067
0.452247 0.316655 0.000000
0.731167 0.416754 0.000000
0.969207 0.553155 0.000000
1.000000 0.551476 0.000000
1.000000 0.525841 0.000000
0.413367 0.418189 0.208652
0.423285 0.417548 0.211490
0.461585 0.424048 0.211093
0.536767 0.457923 0.128176
0.656855 0.493050 0.000000
0.879637 0.615015 0.000000
1.000000 0.661067 0.000000
1.000000 0.649500 0.000000
0.546563 0.564843 0.281376
0.556207 0.567010 0.285344
0.593194 0.575586 0.301762
0.652796 0.609339 0.258091
0.738766 0.653742 0.118288
0.842985 0.688441 0.000000
1.000000 0.725368 0.000000
1.000000 0.724392 0.000000
0.699245 0.735897 0.414435
0.703334 0.734768 0.415869
0.726528 0.737606 0.432532
0.767361 0.749722 0.438270
0.825650 0.773800 0.366796
0.896666 0.789731 0.241276
0.971191 0.786435 0.000000
1.000000 0.778164 0.000000
0.823331 0.880217 0.681331
0.828672 0.881590 0.687373
0.845335 0.882597 0.699763
0.876829 0.885985 0.726741
0.907622 0.891020 0.705135
0.949371 0.892241 0.645747
1.000000 0.882628 0.535363
1.000000 0.856016 0.305180
0.143465 0.119051 0.160861
0.163638 0.115541 0.164889
0.242069 0.095247 0.168124
0.476753 0.000000 0.190799
0.798337 0.000000 0.181277
1.000000 0.000000 0.166842
1.000000 0.000000 0.153567
1.000000 0.209140 0.144106
0.135775 0.135439 0.160525
0.156619 0.130404 0.163668
0.246128 0.112917 0.164920
0.481056 0.000000 0.178439
0.793881 0.000000 0.165988
1.000000 0.000000 0.154513
1.000000 0.145083 0.131807
1.000000 0.251835 0.120577
0.142184 0.194980 0.155856
0.164645 0.207065 0.159365
0.270726 0.224857 0.159152
0.501396 0.238254 0.168643
0.804623 0.259892 0.152865
1.000000 0.344854 0.095430
1.000000 0.382452 0.053956
1.000000 0.393896 0.082307
0.278630 0.327733 0.200748
0.301152 0.329992 0.207156
0.365820 0.336980 0.217624
0.470527 0.354925 0.152316
0.762753 0.468849 0.067292
0.977905 0.564630 0.000000
1.000000 0.560754 0.053773
1.000000 0.540337 0.114900
0.410651 0.446113 0.259953
0.423194 0.447333 0.263554
0.472450 0.454047 0.280552
0.551354 0.490303 0.233799
0.674678 0.529015 0.055024
0.894804 0.636713 0.000000
1.000000 0.671321 0.000000
1.000000 0.657588 0.211551
0.542443 0.584833 0.323461
0.553155 0.587854 0.328038
0.591882 0.595636 0.344366
0.652247 0.621241 0.330236
0.736355 0.662562 0.241642
0.841062 0.694240 0.000000
1.000000 0.730587 0.000000
1.000000 0.731411 0.173831
0.691890 0.748043 0.457313
0.696834 0.747524 0.459327
0.719966 0.748928 0.474189
0.762051 0.756130 0.501457
0.820005 0.779110 0.437049
0.893645 0.795499 0.334813
0.972442 0.792813 0.124849
1.000000 0.784268 0.000000
0.812253 0.882597 0.695247
0.815824 0.882139 0.696284
0.833219 0.883024 0.708064
0.867582 0.888029 0.738338
0.900664 0.892607 0.731930
0.942687 0.896300 0.684932
0.996063 0.888060 0.594049
1.000000 0.860533 0.397436
0.114290 0.117128 0.345617
0.166873 0.109957 0.351812
0.317388 0.000000 0.358556
0.467506 0.000000 0.347417
0.716274 0.000000 0.404181
0.996490 0.000000 0.477577
1.000000 0.000000 0.422858
1.000000 0.291783 0.432929
0.130922 0.160922 0.350011
0.178805 0.156435 0.352331
0.321874 0.118166 0.358221
0.465614 0.000000 0.342504
0.734463 0.000000 0.411414
0.999084 0.000000 0.464302
1.000000 0.000000 0.408087
1.000000 0.330480 0.432746
0.189151 0.289281 0.329412
0.219669 0.295354 0.333654
0.313298 0.271763 0.339239
0.473121 0.242588 0.340673
0.777737 0.194461 0.399908
1.000000 0.223209 0.392309
1.000000 0.405158 0.436591
1.000000 0.464179 0.460822
0.195529 0.336309 0.290349
0.216068 0.344518 0.295506
0.323674 0.385412 0.315190
0.484962 0.417609 0.324987
0.773281 0.501640 0.366033
0.965881 0.550835 0.390600
1.000000 0.567956 0.427924
1.000000 0.570489 0.455482
0.359350 0.502617 0.339666
0.386236 0.506645 0.349432
0.463447 0.515435 0.370916
0.567346 0.545617 0.388098
0.693568 0.582177 0.313878
0.914000 0.671260 0.352483
1.000000 0.700710 0.483101
1.000000 0.685023 0.512718
0.528649 0.633936 0.409552
0.546014 0.641810 0.420050
0.591211 0.647669 0.438392
0.663508 0.663264 0.480385
0.745724 0.699397 0.413184
0.847135 0.717220 0.310124
1.000000 0.746151 0.334356
1.000000 0.756252 0.506126
0.663874 0.764340 0.521355
0.671962 0.766079 0.526940
0.702205 0.771084 0.547692
0.754543 0.781003 0.587854
0.813809 0.798306 0.571649
0.886625 0.811490 0.493019
0.968048 0.803647 0.361975
1.000000 0.794644 0.321019
0.792660 0.891112 0.727077
0.797147 0.891173 0.729458
0.816159 0.891875 0.740169
0.850797 0.894224 0.762722
0.889403 0.897185 0.781460
0.929900 0.902922 0.744350
0.981994 0.897337 0.678187
1.000000 0.870726 0.538018
0.111666 0.142977 0.632563
0.213077 0.133059 0.637201
0.403632 0.000000 0.640620
0.618097 0.000000 0.647700
0.737301 0.000000 0.625177
0.924010 0.000000 0.680598
1.000000 0.000000 0.682887
1.000000 0.162112 0.644770
0.161013 0.209415 0.634882
0.236332 0.203250 0.640406
0.411719 0.158541 0.643000
0.615747 0.000000 0.644678
0.732540 0.000000 0.619501
0.923369 0.000000 0.677943
1.000000 0.000000 0.678218
1.000000 0.262699 0.644373
0.190555 0.371954 0.621210
0.222965 0.356878 0.623407
0.389899 0.334234 0.626093
0.592248 0.272526 0.627802
0.714076 0.225895 0.597620
0.913939 0.155825 0.653651
1.000000 0.282017 0.654566
1.000000 0.467597 0.651698
0.246311 0.484779 0.555138
0.273320 0.490669 0.560296
0.372229 0.516777 0.583673
0.526604 0.485298 0.592676
0.714076 0.453315 0.593164
0.926848 0.508202 0.632959
1.000000 0.604639 0.669154
1.000000 0.670741 0.717067
0.241672 0.468482 0.429419
0.256718 0.474067 0.434333
0.325841 0.516442 0.464851
0.504540 0.600916 0.526970
0.684871 0.634943 0.539330
0.888396 0.710109 0.641871
1.000000 0.726955 0.687556
1.000000 0.736263 0.718715
0.341833 0.636194 0.446571
0.362646 0.643580 0.452094
0.485939 0.666316 0.508354
0.605310 0.681239 0.555474
0.708278 0.711971 0.580926
0.824704 0.735653 0.526513
0.980377 0.780087 0.633539
1.000000 0.817472 0.751064
0.583520 0.776547 0.582452
0.592798 0.776089 0.584161
0.630915 0.777859 0.596246
0.700832 0.788693 0.634455
0.782650 0.804501 0.689631
0.857328 0.823606 0.638514
0.944762 0.815640 0.552239
1.000000 0.815579 0.589624
0.725490 0.887449 0.723568
0.731563 0.887480 0.725978
0.756985 0.888212 0.737453
0.807218 0.894102 0.769253
0.862547 0.898741 0.803220
0.908080 0.905913 0.799252
0.960021 0.905150 0.751308
1.000000 0.881193 0.654475
0.387396 0.220005 0.870451
0.430823 0.210758 0.871641
0.557641 0.160433 0.869749
0.716518 0.000000 0.872435
0.870481 0.000000 0.873198
0.947173 0.000000 0.847990
1.000000 0.000000 0.825071
1.000000 0.091585 0.795407
0.376074 0.276463 0.860014
0.416907 0.268528 0.859831
0.543969 0.232822 0.859464
0.701839 0.131411 0.860624
0.856992 0.000000 0.861082
0.932891 0.000000 0.835142
1.000000 0.000000 0.818326
1.000000 0.186160 0.791012
0.341802 0.447333 0.859495
0.384375 0.441444 0.859007
0.515831 0.419318 0.859037
0.673732 0.365087 0.853666
0.836515 0.275090 0.852445
0.911742 0.253880 0.819120
1.000000 0.284886 0.810056
1.000000 0.420966 0.788296
0.396124 0.667506 0.841123
0.416114 0.662287 0.839719
0.493965 0.643519 0.838529
0.621881 0.610864 0.843626
0.789700 0.555718 0.843656
0.890959 0.529931 0.815488
1.000000 0.559411 0.804990
1.000000 0.656306 0.811124
0.353399 0.679042 0.753750
0.378058 0.682338 0.756008
0.465949 0.697810 0.766751
0.592279 0.731258 0.789517
0.701686 0.714839 0.795590
0.837858 0.693660 0.785428
0.965545 0.750423 0.817472
1.000000 0.803616 0.851896
0.195773 0.610498 0.588251
0.216556 0.616205 0.593774
0.287053 0.629236 0.605371
0.449775 0.691279 0.656092
0.666896 0.767483 0.735531
0.808133 0.794522 0.754391
0.943511 0.852628 0.841825
1.000000 0.864622 0.865507
0.331853 0.762844 0.619623
0.357122 0.767819 0.624903
0.443030 0.782620 0.640955
0.584527 0.810880 0.690181
0.732418 0.832364 0.761166
0.828153 0.851255 0.788876
0.913603 0.851072 0.749416
1.000000 0.878782 0.823239
0.597559 0.890990 0.729732
0.609644 0.890898 0.734371
0.662318 0.893187 0.759335
0.730465 0.897307 0.786282
0.805936 0.901732 0.814817
0.882139 0.909545 0.855100
0.933501 0.917418 0.832700
0.994690 0.902098 0.779355
0.513390 0.354253 0.960601
0.536217 0.354253 0.961700
0.609094 0.337743 0.961089
0.717922 0.305119 0.961395
0.841428 0.230991 0.960998
0.972839 0.000000 0.959106
1.000000 0.000000 0.943359
1.000000 0.184970 0.893248
0.501030 0.383429 0.953246
0.524773 0.384588 0.954803
0.597955 0.368017 0.954528
0.706874 0.331853 0.954070
0.831296 0.260319 0.953368
0.961761 0.000000 0.950439
1.000000 0.000000 0.932097
1.000000 0.162203 0.884489
0.500114 0.546014 0.948608
0.517418 0.542596 0.948638
0.580072 0.525200 0.947906
0.682399 0.493721 0.947692
0.806577 0.436255 0.946624
0.944915 0.352667 0.945220
1.000000 0.340673 0.926574
1.000000 0.405646 0.885283
0.582086 0.734585 0.936522
0.584161 0.728786 0.936034
0.604028 0.710842 0.935576
0.670283 0.691920 0.936278
0.770199 0.653254 0.936187
0.908904 0.597955 0.937041
0.986969 0.580499 0.914122
1.000000 0.604425 0.884886
0.609369 0.810788 0.917052
0.615656 0.811185 0.916411
0.650263 0.816983 0.917021
0.691585 0.807126 0.916899
0.746670 0.779904 0.917144
0.860472 0.736568 0.917174
0.942443 0.717006 0.897276
1.000000 0.738430 0.888609
0.506035 0.792966 0.863920
0.519463 0.795468 0.865415
0.567742 0.804715 0.870603
0.648524 0.824338 0.881163
0.746944 0.854307 0.896910
0.820432 0.850858 0.904662
0.909087 0.837400 0.897734
0.985840 0.872007 0.915740
0.000000 0.739528 0.738460
0.097139 0.742184 0.741115
0.237705 0.747768 0.746029
0.370520 0.759884 0.756710
0.544823 0.801755 0.790982
0.772244 0.869474 0.856138
0.887663 0.893492 0.881712
0.975769 0.927398 0.927672
0.241215 0.863096 0.759670
0.276524 0.864927 0.761227
0.391730 0.874205 0.770565
0.528161 0.886229 0.785367
0.676600 0.902190 0.818357
0.826688 0.917449 0.877104
0.907530 0.929015 0.901946
0.964050 0.927916 0.881346
0.579767 0.513268 0.996551
0.591028 0.514427 0.996796
0.630701 0.499947 0.996429
0.701900 0.483589 0.996948
0.795102 0.448432 0.997620
0.909697 0.379614 0.998444
1.000000 0.301518 0.998383
1.000000 0.283207 0.990143
0.576013 0.534661 0.993317
0.587274 0.535515 0.993622
0.626825 0.524498 0.993652
0.696651 0.505028 0.994141
0.789456 0.469154 0.994965
0.904143 0.401831 0.995972
1.000000 0.319493 0.995697
1.000000 0.292912 0.986786
0.590570 0.641596 0.985657
0.598474 0.640223 0.985840
0.628290 0.628199 0.985901
0.690700 0.619593 0.987457
0.773434 0.583795 0.988373
0.884123 0.521386 0.989563
1.000000 0.453773 0.990265
1.000000 0.429175 0.980499
0.647211 0.761929 0.975067
0.652949 0.761685 0.975311
0.669184 0.754452 0.975586
0.707820 0.743252 0.976684
0.768917 0.720119 0.978119
0.859892 0.679194 0.979980
0.975921 0.627497 0.981781
1.000000 0.604242 0.970947
0.706294 0.847105 0.965148
0.712001 0.847837 0.965454
0.724910 0.844968 0.965393
0.747524 0.837278 0.966339
0.782437 0.820371 0.967376
0.845457 0.792081 0.969085
0.946990 0.753384 0.971801
1.000000 0.740719 0.960571
0.707820 0.877897 0.954101
0.711391 0.878355 0.953979
0.731289 0.882658 0.954376
0.773831 0.894438 0.956909
0.809476 0.893919 0.959411
0.850675 0.883452 0.962860
0.925597 0.866789 0.966827
0.980682 0.857572 0.958740
0.649500 0.881529 0.936065
0.655604 0.882475 0.936309
0.681971 0.887083 0.937774
0.732601 0.897673 0.941772
0.794186 0.911803 0.947387
0.862333 0.930999 0.956481
0.905028 0.928588 0.960723
0.957275 0.914488 0.954589
0.242344 0.856168 0.872862
0.256413 0.856107 0.872618
0.314733 0.857694 0.873167
0.410254 0.863096 0.876432
0.514488 0.870665 0.880247
0.625818 0.880491 0.884733
0.838010 0.925383 0.920409
0.943206 0.951751 0.949371
