20 Preset/Travel Style/【3】LUT video cho PR-AE-FCPX/Green Moody - Lut (4).cube
# Created by Adobe Lightroom plugin Export LUT (1.24.0)
# www.johnrellis.com/lightroom/exportlut.htm
# Preset: 04自然风光-冷调-素材江湖
# Color profile: E:\lut插件\exportlut.1.24\exportlut.lrplugin\color profiles\Rec709gamma2.4.icc
LUT_3D_SIZE 32
DOMAIN_MIN 0.0 0.0 0.0
DOMAIN_MAX 1.0 1.0 1.0
0.187961 0.186221 0.171572
0.188510 0.186160 0.171572
0.189334 0.186374 0.171695
0.191653 0.186557 0.171786
0.196201 0.186923 0.171786
0.203922 0.187320 0.171878
0.216159 0.187991 0.171817
0.233494 0.189090 0.171481
0.257237 0.190341 0.170871
0.287846 0.192081 0.169619
0.324895 0.194614 0.167880
0.367010 0.197971 0.165591
0.413001 0.201755 0.162264
0.460365 0.206699 0.158145
0.507561 0.211948 0.153140
0.552544 0.217777 0.148013
0.594446 0.223911 0.142245
0.633814 0.230045 0.136324
0.672328 0.236393 0.129702
0.711238 0.243259 0.122103
0.751431 0.250919 0.113191
0.792905 0.258976 0.102480
0.830625 0.266728 0.091127
0.865965 0.274479 0.073426
0.899077 0.281956 0.048127
0.930053 0.289281 0.027832
0.959106 0.296574 0.013519
0.986633 0.303929 0.004822
1.000000 0.311406 0.004852
1.000000 0.319127 0.014588
1.000000 0.327153 0.035767
1.000000 0.335698 0.074983
0.187991 0.186526 0.171695
0.188357 0.186313 0.171725
0.189517 0.186496 0.171664
0.191806 0.186679 0.171756
0.195956 0.187259 0.171908
0.203738 0.187655 0.171847
0.215549 0.188357 0.171756
0.232761 0.189517 0.171450
0.255711 0.190921 0.170840
0.285557 0.192691 0.169619
0.322332 0.195071 0.167941
0.364233 0.198428 0.165652
0.409674 0.202365 0.162387
0.456733 0.207279 0.158328
0.503868 0.212589 0.153384
0.548974 0.218509 0.148257
0.591272 0.224582 0.142519
0.630732 0.230777 0.136629
0.669306 0.237186 0.130037
0.708064 0.243809 0.122621
0.748165 0.251194 0.113649
0.788968 0.259129 0.103029
0.826108 0.266758 0.092592
0.861234 0.274357 0.075990
0.894438 0.281590 0.050233
0.925505 0.289006 0.028840
0.954864 0.296330 0.013184
0.982757 0.303471 0.003449
1.000000 0.310857 0.002289
1.000000 0.318578 0.009339
1.000000 0.326482 0.030457
1.000000 0.334997 0.063752
0.188083 0.187564 0.171695
0.188266 0.187716 0.171664
0.189181 0.187289 0.172061
0.191592 0.187778 0.171939
0.195834 0.188327 0.171756
0.203281 0.188907 0.171817
0.214328 0.190036 0.171542
0.230930 0.191135 0.171237
0.253056 0.192691 0.170657
0.281926 0.194980 0.169558
0.317540 0.197848 0.167880
0.358770 0.201358 0.165469
0.403845 0.205570 0.162203
0.450629 0.210727 0.158145
0.497871 0.216159 0.153445
0.543236 0.222263 0.148074
0.585809 0.228336 0.142519
0.625849 0.234348 0.136416
0.664393 0.240574 0.129885
0.703090 0.247288 0.122499
0.743801 0.254520 0.113466
0.784207 0.262333 0.103029
0.821530 0.269718 0.092317
0.856840 0.276982 0.076844
0.890013 0.284337 0.049836
0.921416 0.291264 0.026764
0.951171 0.298375 0.011048
0.979309 0.305547 0.000000
1.000000 0.312718 0.000000
1.000000 0.320317 0.003143
1.000000 0.328008 0.022065
1.000000 0.336278 0.054353
0.188388 0.190219 0.171786
0.188571 0.190372 0.171786
0.189639 0.190249 0.171756
0.191348 0.189425 0.172885
0.193698 0.190188 0.173220
0.202731 0.191531 0.171603
0.212772 0.192599 0.171359
0.227756 0.194217 0.171023
0.248508 0.196292 0.170382
0.275853 0.198917 0.169314
0.310399 0.202274 0.167636
0.350256 0.206546 0.165011
0.394110 0.211551 0.161898
0.440589 0.217044 0.157870
0.487617 0.222904 0.153140
0.533104 0.229160 0.147799
0.576257 0.235264 0.142000
0.616388 0.241245 0.136141
0.655177 0.247257 0.129702
0.693812 0.253696 0.122194
0.734615 0.260899 0.113191
0.774777 0.268070 0.102876
0.812131 0.275273 0.091920
0.848020 0.282383 0.074495
0.882261 0.289494 0.046876
0.914916 0.296483 0.023285
0.945769 0.303471 0.005310
0.975006 0.310430 0.000000
1.000000 0.317357 0.000000
1.000000 0.324743 0.000000
1.000000 0.332006 0.010895
1.000000 0.339940 0.041352
0.188205 0.195499 0.171817
0.188388 0.195621 0.171786
0.189578 0.195773 0.171572
0.192416 0.194858 0.172335
0.194522 0.193149 0.174105
0.196139 0.193057 0.175601
0.210941 0.196841 0.171908
0.223667 0.198184 0.170657
0.241855 0.200381 0.170077
0.266850 0.203891 0.168978
0.298650 0.207919 0.167330
0.336858 0.213046 0.164858
0.379400 0.218936 0.161563
0.425299 0.225193 0.157504
0.471931 0.231754 0.152773
0.518486 0.238499 0.147494
0.562737 0.244968 0.141543
0.603876 0.251225 0.135500
0.643244 0.257145 0.128756
0.682155 0.263218 0.121340
0.723690 0.270237 0.112184
0.763760 0.277287 0.101869
0.801633 0.284184 0.090425
0.838468 0.290959 0.070192
0.873686 0.297856 0.040711
0.907286 0.304540 0.015412
0.939055 0.311284 0.000000
0.969024 0.317906 0.000000
0.997284 0.324529 0.000000
1.000000 0.331334 0.000000
1.000000 0.338384 0.000000
1.000000 0.345861 0.021363
0.187625 0.203891 0.171298
0.187808 0.203983 0.171267
0.189395 0.204227 0.171176
0.192508 0.204318 0.171115
0.197147 0.201755 0.172824
0.199954 0.198611 0.175296
0.198886 0.196231 0.179507
0.217624 0.202762 0.173678
0.240787 0.207675 0.169711
0.256596 0.208682 0.168643
0.285496 0.213718 0.166964
0.321477 0.219760 0.164675
0.362280 0.226566 0.161379
0.406867 0.234073 0.157259
0.453407 0.241672 0.152590
0.500267 0.249180 0.146761
0.545769 0.256413 0.140749
0.588281 0.262974 0.134218
0.628534 0.268956 0.127565
0.668666 0.275303 0.119753
0.709987 0.282261 0.110597
0.750790 0.289220 0.099611
0.810452 0.301579 0.071778
0.848386 0.308324 0.041779
0.883879 0.314916 0.014252
0.917357 0.321263 0.000000
0.948608 0.327428 0.000000
0.977874 0.333471 0.000000
1.000000 0.339666 0.000000
1.000000 0.345861 0.000000
1.000000 0.352544 0.000000
1.000000 0.359258 0.032074
0.186313 0.217899 0.170138
0.186587 0.217868 0.170138
0.188388 0.218204 0.169863
0.192081 0.218601 0.169528
0.198337 0.216861 0.170413
0.204715 0.212650 0.173129
0.208499 0.207889 0.176883
0.206790 0.203250 0.182864
0.226596 0.211185 0.177188
0.260044 0.220584 0.169284
0.283665 0.224033 0.166049
0.306767 0.226596 0.164157
0.345983 0.234684 0.160891
0.389410 0.243381 0.156619
0.435340 0.252201 0.151553
0.482338 0.260960 0.145632
0.528527 0.269078 0.139254
0.572045 0.276341 0.132326
0.613764 0.282994 0.125093
0.656550 0.290135 0.116121
0.699702 0.297520 0.105776
0.743221 0.305058 0.093355
0.785397 0.312383 0.071839
0.826108 0.319799 0.035096
0.864927 0.326696 0.003693
0.900908 0.333074 0.000000
0.934295 0.339055 0.000000
0.965148 0.344854 0.000000
0.994079 0.350652 0.000000
1.000000 0.356359 0.000000
1.000000 0.362280 0.000000
1.000000 0.368597 0.000000
0.183688 0.235447 0.168215
0.184237 0.235416 0.168185
0.186526 0.235782 0.167880
0.190677 0.236210 0.167514
0.197818 0.236271 0.167330
0.207065 0.232059 0.169802
0.215122 0.226108 0.173556
0.219730 0.219791 0.179110
0.217777 0.213138 0.186954
0.234928 0.220523 0.184024
0.273991 0.233494 0.171725
0.314031 0.243931 0.162448
0.332738 0.243778 0.160403
0.361730 0.248081 0.157259
0.406226 0.258274 0.152193
0.452430 0.268315 0.146517
0.499397 0.277836 0.139498
0.544701 0.286687 0.132021
0.589563 0.294896 0.123842
0.632197 0.302220 0.114961
0.674525 0.309575 0.105013
0.717952 0.317082 0.092073
0.761166 0.324926 0.065064
0.803433 0.332403 0.026307
0.843961 0.339574 0.000000
0.882078 0.346166 0.000000
0.917418 0.352239 0.000000
0.950408 0.357885 0.000000
0.981170 0.363317 0.000000
1.000000 0.368719 0.000000
1.000000 0.374151 0.000000
1.000000 0.380011 0.000000
0.180087 0.258244 0.165072
0.180850 0.258274 0.165042
0.183383 0.258396 0.164767
0.188266 0.258946 0.164340
0.196719 0.259281 0.163882
0.207645 0.257420 0.164614
0.219486 0.251255 0.168673
0.229282 0.244053 0.174197
0.235080 0.236210 0.181735
0.233768 0.227909 0.192203
0.245090 0.232395 0.195071
0.290074 0.248997 0.176913
0.336706 0.262974 0.161898
0.366918 0.267277 0.154635
0.384009 0.265293 0.152407
0.419165 0.272129 0.147829
0.466499 0.283665 0.140810
0.514519 0.294713 0.132601
0.560388 0.304265 0.123781
0.603906 0.312566 0.114290
0.646052 0.320378 0.104097
0.688991 0.328283 0.090883
0.733455 0.336614 0.059937
0.777340 0.344762 0.018158
0.819913 0.352453 0.000000
0.860319 0.359442 0.000000
0.898100 0.366003 0.000000
0.933410 0.371832 0.000000
0.966369 0.377356 0.000000
0.997101 0.382635 0.000000
1.000000 0.387793 0.000000
1.000000 0.393103 0.000000
0.174472 0.286320 0.159945
0.175265 0.286381 0.159915
0.178256 0.286381 0.159854
0.184543 0.286656 0.159426
0.193698 0.287022 0.158694
0.206119 0.286351 0.158175
0.221653 0.281987 0.161349
0.235874 0.274784 0.167208
0.247593 0.266361 0.174899
0.254673 0.257053 0.185214
0.254215 0.247196 0.198856
0.256474 0.246494 0.211856
0.306889 0.266758 0.186679
0.356603 0.282383 0.165194
0.402350 0.294133 0.147738
0.419532 0.290959 0.144625
0.434546 0.287602 0.142306
0.477699 0.297948 0.134768
0.525383 0.309789 0.125124
0.570672 0.319921 0.114992
0.613886 0.328893 0.104097
0.656641 0.337072 0.090944
0.700557 0.345983 0.058991
0.745724 0.354833 0.013886
0.789761 0.363317 0.000000
0.832364 0.371099 0.000000
0.872923 0.378393 0.000000
0.911254 0.384955 0.000000
0.947173 0.390997 0.000000
0.980682 0.396521 0.000000
1.000000 0.401740 0.000000
1.000000 0.406989 0.000000
0.166751 0.317144 0.153170
0.167575 0.317205 0.153140
0.171328 0.317235 0.152834
0.178225 0.317479 0.152377
0.189029 0.317784 0.151583
0.203464 0.317845 0.150515
0.220798 0.316503 0.151125
0.239689 0.309728 0.157168
0.256382 0.301884 0.165225
0.270054 0.292638 0.175998
0.278599 0.282414 0.189731
0.279850 0.271580 0.207126
0.273564 0.265385 0.231937
0.326360 0.287877 0.202396
0.379675 0.305333 0.172976
0.426581 0.317144 0.147951
0.456733 0.319585 0.134249
0.469703 0.313909 0.131685
0.483253 0.309331 0.129397
0.530877 0.322240 0.118715
0.576410 0.333196 0.106630
0.619867 0.342901 0.093111
0.663813 0.352392 0.064515
0.710109 0.362554 0.015290
0.756680 0.372442 0.000000
0.801907 0.381720 0.000000
0.845426 0.390173 0.000000
0.887083 0.397894 0.000000
0.926238 0.404669 0.000000
0.962737 0.410864 0.000000
0.996735 0.416571 0.000000
1.000000 0.421790 0.000000
0.155398 0.351232 0.143648
0.156741 0.351263 0.143404
0.161105 0.351263 0.143282
0.169711 0.351385 0.142580
0.182437 0.351537 0.141726
0.198367 0.351873 0.140169
0.217472 0.350713 0.139651
0.239658 0.347509 0.143496
0.261448 0.340215 0.152438
0.280888 0.332433 0.163790
0.296818 0.323278 0.178042
0.307561 0.312993 0.195926
0.318151 0.309056 0.221836
0.311742 0.300206 0.253330
0.356451 0.319921 0.230991
0.413214 0.337774 0.189242
0.461036 0.348547 0.152529
0.500664 0.354406 0.121157
0.514366 0.347387 0.114687
0.523583 0.339117 0.112642
0.542351 0.337072 0.108095
0.588769 0.349340 0.092653
0.634638 0.360632 0.057923
0.681697 0.372076 0.005188
0.730404 0.383612 0.000000
0.778408 0.394476 0.000000
0.824552 0.404395 0.000000
0.868650 0.413214 0.000000
0.910216 0.420996 0.000000
0.949004 0.427832 0.000000
0.985107 0.433783 0.000000
1.000000 0.439338 0.000000
0.139132 0.391333 0.129305
0.140352 0.391272 0.129305
0.145876 0.391302 0.128908
0.156893 0.391150 0.127962
0.172152 0.391119 0.126741
0.191348 0.391028 0.125124
0.213352 0.390600 0.123476
0.237888 0.389593 0.123049
0.264530 0.384039 0.133577
0.289281 0.377142 0.146883
0.311650 0.369451 0.162936
0.330358 0.360693 0.182742
0.343694 0.350652 0.206760
0.348913 0.339727 0.235203
0.342596 0.329198 0.269566
0.374609 0.344060 0.263005
0.432837 0.362097 0.213352
0.480751 0.371893 0.167788
0.519554 0.376440 0.126955
0.544640 0.374121 0.099336
0.552483 0.364294 0.095918
0.559686 0.355261 0.094697
0.586419 0.357519 0.083040
0.633967 0.370581 0.030732
0.683345 0.383734 0.000000
0.734554 0.397131 0.000000
0.784665 0.409552 0.000000
0.833219 0.420844 0.000000
0.879606 0.430915 0.000000
0.922942 0.439673 0.000000
0.963195 0.447181 0.000000
1.000000 0.453681 0.000000
0.118105 0.428168 0.112306
0.120058 0.428016 0.112062
0.127626 0.427680 0.111543
0.141726 0.427283 0.110903
0.159823 0.426795 0.109529
0.181918 0.426215 0.107271
0.206119 0.425666 0.104677
0.232151 0.423743 0.103731
0.261234 0.421485 0.109041
0.289525 0.415625 0.125490
0.315923 0.409003 0.143740
0.339818 0.401465 0.165164
0.359869 0.392676 0.190066
0.374395 0.382788 0.218845
0.380499 0.371710 0.250736
0.374151 0.359045 0.286564
0.391363 0.368261 0.299504
0.450507 0.386542 0.244572
0.498665 0.395361 0.191379
0.537224 0.398383 0.141482
0.568750 0.398566 0.092348
0.581201 0.390051 0.061585
0.588586 0.380255 0.052766
0.595911 0.371618 0.047883
0.633356 0.379797 0.002350
0.685695 0.395148 0.000000
0.739712 0.410620 0.000000
0.792782 0.424964 0.000000
0.844175 0.437934 0.000000
0.892821 0.449409 0.000000
0.937957 0.459144 0.000000
0.979858 0.467353 0.000000
0.091096 0.461830 0.090730
0.093324 0.461799 0.090730
0.104158 0.461402 0.090181
0.121950 0.460853 0.089143
0.144869 0.460029 0.087037
0.169955 0.459144 0.082979
0.197147 0.458289 0.076051
0.224796 0.457008 0.068025
0.253910 0.454841 0.065095
0.285649 0.451423 0.095430
0.315496 0.445869 0.119203
0.343420 0.439490 0.144015
0.368353 0.432074 0.171206
0.389075 0.423621 0.200961
0.404242 0.413794 0.233341
0.411048 0.402716 0.267918
0.404761 0.388922 0.304143
0.407355 0.392096 0.338842
0.466835 0.410956 0.280735
0.514946 0.418982 0.222934
0.554040 0.421027 0.165743
0.586755 0.420630 0.106569
0.611078 0.417151 0.004334
0.618860 0.406744 0.000000
0.626947 0.397528 0.000000
0.635645 0.389776 0.000000
0.688319 0.406134 0.000000
0.746273 0.424323 0.000000
0.803342 0.441199 0.000000
0.858305 0.456367 0.000000
0.909972 0.469429 0.000000
0.957549 0.480476 0.000000
0.022309 0.492012 0.040803
0.026276 0.491981 0.040772
0.062776 0.491737 0.038819
0.099611 0.491402 0.035462
0.127230 0.490761 0.030274
0.156863 0.490120 0.022034
0.186221 0.489448 0.011841
0.216068 0.488716 0.000000
0.246403 0.486610 0.000000
0.278599 0.485298 0.006256
0.311650 0.480446 0.081361
0.342351 0.474800 0.118074
0.370581 0.468391 0.149172
0.395727 0.460700 0.181338
0.416541 0.452033 0.214847
0.431556 0.442298 0.249516
0.439185 0.431525 0.285832
0.435065 0.418799 0.322637
0.428748 0.416938 0.368780
0.481270 0.434272 0.319402
0.529839 0.442603 0.259403
0.570703 0.444709 0.197848
0.605676 0.444251 0.131930
0.636561 0.442969 0.000000
0.652125 0.435615 0.000000
0.661769 0.426429 0.000000
0.672663 0.419165 0.000000
0.693599 0.417975 0.000000
0.756313 0.439338 0.000000
0.817594 0.458961 0.000000
0.876097 0.476265 0.000000
0.930114 0.490791 0.000000
0.000000 0.519768 0.000000
0.000000 0.519677 0.000000
0.000000 0.519524 0.000000
0.047517 0.519188 0.000000
0.107210 0.518669 0.000000
0.141665 0.518029 0.000000
0.174166 0.517266 0.000000
0.206058 0.516472 0.000000
0.237491 0.515068 0.000000
0.268315 0.512352 0.000000
0.303746 0.510399 0.000000
0.336797 0.505638 0.075807
0.367590 0.500175 0.123201
0.396216 0.493721 0.159762
0.421149 0.486336 0.195315
0.442084 0.478065 0.231144
0.457374 0.468849 0.267582
0.465766 0.459022 0.305028
0.464057 0.448127 0.342596
0.457160 0.443915 0.387823
0.495460 0.457893 0.360357
0.545068 0.467231 0.299657
0.588098 0.470161 0.236210
0.626154 0.470039 0.166293
0.660365 0.469306 0.045777
0.689265 0.467597 0.000000
0.701076 0.458839 0.000000
0.714595 0.452064 0.000000
0.730892 0.447578 0.000000
0.770077 0.456123 0.000000
0.836576 0.479072 0.000000
0.898741 0.498634 0.000000
0.000000 0.547143 0.000000
0.000000 0.547204 0.000000
0.000000 0.554528 0.000000
0.000000 0.554162 0.000000
0.065217 0.553643 0.000000
0.122652 0.552911 0.000000
0.161685 0.551995 0.000000
0.196445 0.550896 0.000000
0.229709 0.549767 0.000000
0.262699 0.547143 0.000000
0.296574 0.545983 0.000000
0.332677 0.541772 0.000000
0.366400 0.536675 0.084810
0.397772 0.530724 0.136416
0.426093 0.523949 0.177615
0.450965 0.516411 0.215946
0.471412 0.507897 0.254002
0.486488 0.498817 0.291508
0.494850 0.489357 0.329778
0.494484 0.479225 0.367559
0.487861 0.473884 0.411292
0.513054 0.484993 0.405737
0.563897 0.495735 0.345708
0.609552 0.500008 0.280461
0.651118 0.500694 0.208072
0.688563 0.499977 0.114870
0.722683 0.499153 0.000000
0.744289 0.494240 0.000000
0.760616 0.488258 0.000000
0.780545 0.484993 0.000000
0.805203 0.484871 0.000000
0.861479 0.502312 0.000000
0.000000 0.576654 0.000000
0.000000 0.577356 0.000000
0.000000 0.577905 0.000000
0.000000 0.578302 0.000000
0.000000 0.578332 0.000000
0.101961 0.577783 0.000000
0.146700 0.576959 0.000000
0.184451 0.575830 0.000000
0.219089 0.574670 0.000000
0.252659 0.572717 0.000000
0.285466 0.569543 0.000000
0.321782 0.568292 0.000000
0.357763 0.563775 0.000000
0.390967 0.558709 0.100404
0.421942 0.552789 0.152132
0.449928 0.546197 0.194644
0.474250 0.538872 0.234226
0.494484 0.530968 0.273106
0.509636 0.522606 0.311894
0.518578 0.513970 0.350439
0.519493 0.505089 0.388556
0.513970 0.499611 0.430610
0.528130 0.508415 0.445594
0.580499 0.521965 0.388983
0.629267 0.528740 0.325261
0.674037 0.530907 0.253330
0.714687 0.530755 0.166018
0.752590 0.530175 0.000000
0.787533 0.530510 0.000000
0.807492 0.525841 0.000000
0.831693 0.524224 0.000000
0.860899 0.525933 0.000000
0.000000 0.603662 0.000000
0.000000 0.604334 0.000000
0.000000 0.605035 0.000000
0.000000 0.605493 0.000000
0.000000 0.605585 0.000000
0.048005 0.605127 0.000000
0.128054 0.604334 0.000000
0.171023 0.603235 0.000000
0.208286 0.602014 0.000000
0.243076 0.600580 0.000000
0.276799 0.597681 0.000000
0.310735 0.595819 0.000000
0.348638 0.592920 0.000000
0.384161 0.588434 0.000000
0.417334 0.583307 0.117800
0.447791 0.577447 0.169650
0.475471 0.570855 0.213565
0.499611 0.563775 0.254520
0.519524 0.556207 0.294408
0.534630 0.548302 0.333654
0.543633 0.540276 0.372290
0.545556 0.532067 0.410163
0.541009 0.526146 0.450324
0.545037 0.532891 0.484840
0.599603 0.549676 0.431525
0.650782 0.559167 0.371405
0.698116 0.563134 0.302312
0.742336 0.564111 0.219272
0.784268 0.564385 0.083345
0.824796 0.565576 0.000000
0.856474 0.565545 0.000000
0.884520 0.565454 0.000000
0.000000 0.632136 0.000000
0.000000 0.632837 0.000000
0.000000 0.633356 0.000000
0.000000 0.633783 0.000000
0.000000 0.633875 0.000000
0.000000 0.633417 0.000000
0.103151 0.632715 0.000000
0.154818 0.631678 0.000000
0.195956 0.630518 0.000000
0.232456 0.629175 0.000000
0.267735 0.627100 0.000000
0.301335 0.623774 0.000000
0.338415 0.622919 0.000000
0.376501 0.619043 0.000000
0.411749 0.614710 0.019287
0.445075 0.609735 0.136904
0.475746 0.604334 0.189212
0.503471 0.598413 0.234409
0.527886 0.592065 0.276829
0.548302 0.585504 0.317967
0.563958 0.578576 0.358526
0.573938 0.571466 0.397498
0.576959 0.564019 0.434821
0.573663 0.558251 0.473945
0.574182 0.564538 0.520195
0.626093 0.583246 0.477241
0.679133 0.595575 0.422004
0.729274 0.602350 0.358801
0.777371 0.605493 0.282475
0.823941 0.606958 0.179263
0.869200 0.608331 0.000000
0.913176 0.611017 0.000000
0.000000 0.665919 0.000000
0.000000 0.666194 0.000000
0.000000 0.666285 0.000000
0.000000 0.666163 0.000000
0.000000 0.665827 0.000000
0.000000 0.665126 0.000000
0.040650 0.664302 0.000000
0.136294 0.663264 0.000000
0.182315 0.662165 0.000000
0.222110 0.660945 0.000000
0.258610 0.659480 0.000000
0.294163 0.656519 0.000000
0.328466 0.653895 0.000000
0.368444 0.652522 0.000000
0.406592 0.648707 0.000000
0.442237 0.644404 0.082918
0.475502 0.639612 0.160037
0.506310 0.634394 0.212497
0.533959 0.628656 0.258732
0.558312 0.622644 0.301915
0.578546 0.616297 0.343359
0.594110 0.609644 0.383276
0.604242 0.602655 0.421118
0.608057 0.595483 0.457313
0.605402 0.589105 0.495430
0.607385 0.595789 0.544121
0.649561 0.613855 0.521050
0.704646 0.628870 0.468482
0.756893 0.638575 0.411841
0.807492 0.644465 0.345312
0.857176 0.647486 0.259403
0.906096 0.649226 0.107118
0.000000 0.695766 0.000000
0.000000 0.696010 0.000000
0.000000 0.696132 0.000000
0.000000 0.696010 0.000000
0.000000 0.695705 0.000000
0.000000 0.695186 0.000000
0.000000 0.694392 0.000000
0.111543 0.693507 0.000000
0.166842 0.692470 0.000000
0.210788 0.691341 0.000000
0.248936 0.690059 0.000000
0.285435 0.688014 0.000000
0.320439 0.684901 0.000000
0.358099 0.684443 0.000000
0.398779 0.681300 0.000000
0.436988 0.677729 0.000000
0.472877 0.673701 0.117311
0.506310 0.669306 0.185580
0.537163 0.664454 0.237736
0.564965 0.659297 0.284672
0.589441 0.653834 0.328435
0.609888 0.648066 0.369909
0.625696 0.642145 0.408972
0.636591 0.635889 0.446143
0.638941 0.626703 0.480079
0.637476 0.620661 0.518090
0.640345 0.627649 0.570001
0.672724 0.645289 0.568750
0.730282 0.662776 0.517601
0.784665 0.675166 0.465034
0.837064 0.683833 0.408301
0.888762 0.689540 0.339574
0.000000 0.729000 0.000000
0.000000 0.729397 0.000000
0.000000 0.729519 0.000000
0.000000 0.729213 0.000000
0.000000 0.728664 0.000000
0.000000 0.727810 0.000000
0.000000 0.726772 0.000000
0.063325 0.725551 0.000000
0.149569 0.724178 0.000000
0.197269 0.722835 0.000000
0.238193 0.721279 0.000000
0.275853 0.719661 0.000000
0.312383 0.716640 0.000000
0.346899 0.713252 0.000000
0.388464 0.712764 0.000000
0.428962 0.709316 0.000000
0.466987 0.705562 0.000000
0.502617 0.701595 0.147768
0.536065 0.697444 0.211582
0.566918 0.693080 0.263554
0.594873 0.688502 0.310826
0.619348 0.683589 0.354437
0.639704 0.678309 0.394995
0.655604 0.672694 0.433112
0.666682 0.666651 0.469917
0.672084 0.660243 0.506584
0.672358 0.655543 0.546654
0.675074 0.661616 0.599237
0.697658 0.678523 0.619348
0.756283 0.698817 0.573663
0.812222 0.713588 0.525536
0.865568 0.724147 0.474952
0.000000 0.758328 0.000000
0.000000 0.758694 0.000000
0.000000 0.758877 0.000000
0.000000 0.758755 0.000000
0.000000 0.758419 0.000000
0.000000 0.757961 0.000000
0.000000 0.757351 0.000000
0.000000 0.756558 0.000000
0.127504 0.755795 0.000000
0.183322 0.754849 0.000000
0.227420 0.753811 0.000000
0.266941 0.752590 0.000000
0.304631 0.750607 0.000000
0.340826 0.747646 0.000000
0.378393 0.746670 0.000000
0.421454 0.744137 0.000000
0.462135 0.740841 0.000000
0.500237 0.737331 0.089784
0.536339 0.733669 0.183139
0.569940 0.729885 0.243931
0.600946 0.725856 0.295720
0.628687 0.721706 0.342321
0.652979 0.717250 0.385016
0.673396 0.712551 0.424720
0.689723 0.707515 0.462989
0.701442 0.702205 0.501061
0.707668 0.696742 0.539971
0.710079 0.693782 0.581659
0.713222 0.699733 0.634516
0.726772 0.715999 0.674739
0.784146 0.738521 0.637354
0.838895 0.755550 0.598779
0.000000 0.790158 0.000000
0.000000 0.790341 0.000000
0.000000 0.790341 0.000000
0.000000 0.790219 0.000000
0.000000 0.789883 0.000000
0.000000 0.789395 0.000000
0.000000 0.788876 0.000000
0.000000 0.788205 0.000000
0.101534 0.787503 0.000000
0.168154 0.786709 0.000000
0.216526 0.785794 0.000000
0.257939 0.784787 0.000000
0.295964 0.783658 0.000000
0.333684 0.781277 0.000000
0.369329 0.778470 0.000000
0.411566 0.778164 0.000000
0.454902 0.775265 0.000000
0.495857 0.772152 0.000000
0.534417 0.768917 0.145418
0.570733 0.765621 0.221622
0.604425 0.762173 0.279911
0.635126 0.758541 0.330297
0.662654 0.754635 0.375555
0.686641 0.750576 0.417121
0.707057 0.746273 0.457008
0.723476 0.741665 0.496468
0.735470 0.736934 0.536919
0.742061 0.732174 0.576837
0.745327 0.730007 0.618158
0.748836 0.735714 0.669520
0.755520 0.750393 0.721340
0.808347 0.774960 0.698146
0.000000 0.821012 0.000000
0.000000 0.821164 0.000000
0.000000 0.821225 0.000000
0.000000 0.821195 0.000000
0.000000 0.821103 0.000000
0.000000 0.821042 0.000000
0.000000 0.821073 0.000000
0.000000 0.821195 0.000000
0.065553 0.821347 0.000000
0.157473 0.821530 0.000000
0.209110 0.821683 0.000000
0.252506 0.821683 0.000000
0.291936 0.821500 0.000000
0.330266 0.820584 0.000000
0.367712 0.818845 0.000000
0.405676 0.817807 0.000000
0.451270 0.816464 0.000000
0.495674 0.813779 0.000000
0.537377 0.810971 0.107851
0.576623 0.808072 0.209262
0.613062 0.805051 0.275364
0.646693 0.801846 0.329961
0.677058 0.798459 0.377661
0.704189 0.794888 0.421668
0.728084 0.791043 0.463783
0.748226 0.786770 0.505852
0.764340 0.782345 0.547967
0.775753 0.777920 0.588556
0.782101 0.773526 0.627070
0.785458 0.771756 0.666285
0.789731 0.777798 0.714565
0.798245 0.792813 0.763363
0.000000 0.857328 0.000000
0.000000 0.857359 0.000000
0.000000 0.857267 0.000000
0.000000 0.857115 0.000000
0.000000 0.856901 0.000000
0.000000 0.856687 0.000000
0.000000 0.856443 0.000000
0.000000 0.856229 0.000000
0.047669 0.856046 0.000000
0.152255 0.855802 0.000000
0.204562 0.855558 0.000000
0.247623 0.855314 0.000000
0.287388 0.854978 0.000000
0.324437 0.854520 0.000000
