20 Preset/Travel Style/【3】LUT video cho PR-AE-FCPX/Green Moody - Lut (10).cube
# Created by Adobe Lightroom plugin Export LUT (1.24.0)
# www.johnrellis.com/lightroom/exportlut.htm
# Preset: 10自然风光-雾-素材江湖
# Color profile: E:\lut插件\exportlut.1.24\exportlut.lrplugin\color profiles\Rec709gamma2.4.icc
LUT_3D_SIZE 8
DOMAIN_MIN 0.000000 0.000000 0.000000
DOMAIN_MAX 0.903226 0.903226 0.903226
0.131228 0.125887 0.109529
0.141451 0.126436 0.109499
0.370703 0.103120 0.097688
0.709895 0.000000 0.000000
0.918730 0.012818 0.000000
1.000000 0.275334 0.000000
1.000000 0.381140 0.000000
1.000000 0.438087 0.000000
0.126284 0.142611 0.108583
0.143526 0.145052 0.106935
0.360906 0.177676 0.078584
0.679927 0.155459 0.000000
0.893828 0.218814 0.000000
1.000000 0.328038 0.000000
1.000000 0.402106 0.000000
1.000000 0.450538 0.000000
0.000000 0.417517 0.000000
0.161685 0.410956 0.026184
0.355657 0.371374 0.000000
0.686519 0.437263 0.000000
0.903899 0.503471 0.000000
1.000000 0.528283 0.000000
1.000000 0.546349 0.000000
1.000000 0.554528 0.188296
0.231632 0.728634 0.279942
0.392645 0.723507 0.302495
0.562493 0.707271 0.264408
0.696559 0.677150 0.000000
0.872984 0.691493 0.000000
1.000000 0.706538 0.271244
1.000000 0.685939 0.334813
1.000000 0.665766 0.360815
0.527367 0.858610 0.564233
0.566644 0.856016 0.572656
0.673182 0.850278 0.600946
0.731014 0.833188 0.508598
0.814817 0.793668 0.302861
0.920226 0.768246 0.204318
1.000000 0.776272 0.406775
1.000000 0.770047 0.526604
0.649928 0.927153 0.718105
0.675135 0.930205 0.731472
0.736294 0.927062 0.748379
0.778042 0.919585 0.731289
0.814817 0.903288 0.656733
0.887083 0.876249 0.512596
0.976318 0.845548 0.400092
1.000000 0.843534 0.547021
0.742489 0.969390 0.809445
0.752987 0.969329 0.813138
0.785641 0.966705 0.820737
0.833646 0.962799 0.830961
0.843595 0.956329 0.794827
0.874449 0.946715 0.738979
0.935180 0.930816 0.640620
1.000000 0.899657 0.504662
0.805661 0.991821 0.864439
0.810300 0.991394 0.865415
0.830350 0.989837 0.870634
0.865934 0.987091 0.881102
0.876493 0.982605 0.864775
0.891081 0.980987 0.840452
0.920867 0.977722 0.800198
0.974487 0.970275 0.726955
0.131228 0.126619 0.120607
0.144656 0.124819 0.123323
0.321141 0.039277 0.126467
0.623407 0.000000 0.109651
0.871275 0.000000 0.022217
1.000000 0.235355 0.000000
1.000000 0.353063 0.000000
1.000000 0.421210 0.110964
0.127321 0.133700 0.126741
0.144808 0.145388 0.123445
0.329076 0.152743 0.121828
0.633631 0.113558 0.101320
0.867521 0.180484 0.000000
0.998566 0.307988 0.000000
1.000000 0.384863 0.000000
1.000000 0.437873 0.088746
0.000000 0.382422 0.143709
0.128939 0.380529 0.163058
0.340764 0.352361 0.103944
0.664240 0.416602 0.000000
0.874662 0.473091 0.000000
0.991547 0.503929 0.000000
1.000000 0.522545 0.131106
1.000000 0.539178 0.211887
0.000000 0.688655 0.294163
0.298100 0.685115 0.313237
0.524376 0.672206 0.306737
0.640070 0.626246 0.080476
0.826017 0.647578 0.000000
0.978393 0.678126 0.272068
1.000000 0.662989 0.313115
1.000000 0.650294 0.345434
0.505577 0.846464 0.568017
0.544671 0.842771 0.573144
0.663966 0.835416 0.606012
0.713954 0.813291 0.508080
0.790524 0.769467 0.306279
0.898375 0.750301 0.228702
1.000000 0.765347 0.414038
1.000000 0.761959 0.522698
0.633661 0.918059 0.710475
0.651789 0.917510 0.715450
0.716640 0.915007 0.733883
0.767575 0.908904 0.724514
0.805447 0.893187 0.653132
0.877928 0.867765 0.519524
0.967102 0.838315 0.414496
1.000000 0.838560 0.551293
0.728817 0.964508 0.801755
0.735409 0.963287 0.801846
0.769741 0.960540 0.809415
0.825376 0.957183 0.824399
0.838102 0.951598 0.791470
0.868589 0.941344 0.735103
0.927520 0.922881 0.630426
1.000000 0.890349 0.489418
0.797024 0.990265 0.859892
0.803738 0.990112 0.862425
0.824002 0.988525 0.867399
0.860990 0.985870 0.878386
0.883513 0.983612 0.874907
0.894102 0.981292 0.847868
0.920745 0.977111 0.804318
0.973388 0.969390 0.731044
0.048646 0.128939 0.334478
0.175143 0.115053 0.335973
0.367681 0.000000 0.322606
0.644648 0.000000 0.335180
0.862577 0.000000 0.290776
0.990570 0.205997 0.319066
1.000000 0.389715 0.363256
1.000000 0.468330 0.397620
0.098116 0.202609 0.321355
0.171878 0.186038 0.319951
0.354864 0.131563 0.307439
0.627588 0.000000 0.309697
0.845701 0.000000 0.266972
0.979675 0.293858 0.322667
1.000000 0.414313 0.355657
1.000000 0.480079 0.389258
0.029297 0.266148 0.340154
0.145571 0.281407 0.340429
0.344762 0.346685 0.296208
0.642420 0.390814 0.322911
0.854795 0.455695 0.351141
0.972107 0.509026 0.380224
1.000000 0.542565 0.409857
1.000000 0.565209 0.438392
0.000000 0.665888 0.521996
0.203403 0.670924 0.499947
0.540795 0.674372 0.512078
0.640223 0.628565 0.381567
0.831754 0.667048 0.423590
0.960510 0.690242 0.510063
1.000000 0.681361 0.522698
1.000000 0.673426 0.532341
0.458717 0.834134 0.631647
0.506371 0.832578 0.637629
0.644312 0.829007 0.669612
0.720516 0.814908 0.639246
0.785397 0.773678 0.492409
0.895842 0.760708 0.463172
1.000000 0.780087 0.587732
1.000000 0.777768 0.638422
0.630457 0.912230 0.743160
0.649104 0.912291 0.747951
0.711696 0.910124 0.763058
0.781491 0.905180 0.772183
0.806821 0.888670 0.713344
0.867216 0.862821 0.606653
0.956695 0.839963 0.542962
1.000000 0.848356 0.653925
0.739712 0.964263 0.826474
0.746304 0.963256 0.826902
0.776699 0.960357 0.832059
0.831998 0.956817 0.846433
0.849485 0.950988 0.823972
0.873686 0.941375 0.775479
0.926207 0.925017 0.692439
1.000000 0.896971 0.593439
0.803647 0.989899 0.873533
0.807401 0.989380 0.873838
0.826902 0.987854 0.878325
0.864622 0.985748 0.889952
0.893736 0.983062 0.892485
0.902525 0.981170 0.869841
0.925048 0.977478 0.831449
0.972656 0.970123 0.764797
0.000000 0.175967 0.648035
0.233799 0.160037 0.651301
0.481422 0.000000 0.630945
0.675959 0.000000 0.600885
0.847471 0.000000 0.597070
0.976135 0.000000 0.570672
1.000000 0.275486 0.529320
1.000000 0.442664 0.544060
0.175875 0.291844 0.648524
0.272435 0.277989 0.646021
0.481880 0.195834 0.627008
0.674647 0.000000 0.599390
0.850187 0.000000 0.602228
0.969390 0.180789 0.565301
1.000000 0.330755 0.527123
1.000000 0.483589 0.559319
0.316930 0.502770 0.616968
0.355718 0.501732 0.611353
0.443732 0.435798 0.590051
0.618402 0.360082 0.555077
0.828336 0.382666 0.578820
0.944518 0.444221 0.558740
1.000000 0.547814 0.595087
1.000000 0.593469 0.618585
0.217838 0.502098 0.632563
0.269200 0.508080 0.628565
0.405768 0.541344 0.615625
0.603510 0.599542 0.563287
0.796201 0.650355 0.616938
0.908171 0.667994 0.635584
0.996826 0.682490 0.654566
1.000000 0.691005 0.667536
0.461067 0.807523 0.764797
0.499001 0.804837 0.757504
0.599329 0.804349 0.734859
0.736263 0.812528 0.753262
0.770382 0.770291 0.654078
0.887449 0.781247 0.677760
0.986236 0.809171 0.745571
1.000000 0.796811 0.741299
0.659480 0.903685 0.810513
0.674495 0.907805 0.813993
0.700954 0.908629 0.805661
0.796048 0.907958 0.829923
0.825742 0.894194 0.800290
0.860746 0.863066 0.716793
0.946075 0.850950 0.695399
1.000000 0.867002 0.765713
0.745663 0.961761 0.856748
0.750515 0.962097 0.856504
0.781857 0.961089 0.862577
0.837125 0.959045 0.876432
0.875639 0.954803 0.876646
0.886534 0.944488 0.835752
0.924315 0.926421 0.763973
0.992737 0.903746 0.705928
0.815030 0.990600 0.896208
0.819333 0.990204 0.896941
0.837308 0.988800 0.900603
0.869932 0.986419 0.908354
0.909728 0.983185 0.918791
0.915801 0.981170 0.901122
0.931731 0.977752 0.869230
0.971984 0.971344 0.813809
0.410315 0.326421 0.829465
0.459846 0.321996 0.830198
0.593378 0.272770 0.821683
0.752071 0.037812 0.805081
0.870268 0.000000 0.790219
0.956603 0.140658 0.760647
1.000000 0.307103 0.730404
1.000000 0.426490 0.700618
0.447425 0.428260 0.826200
0.486122 0.423102 0.827329
0.597498 0.376471 0.819913
0.743923 0.250462 0.801114
0.864012 0.164340 0.788083
0.950195 0.254276 0.758724
1.000000 0.360082 0.728389
1.000000 0.456336 0.700954
0.521202 0.615869 0.807095
0.524743 0.602350 0.806638
0.586694 0.569268 0.800839
0.707729 0.490150 0.787320
0.822293 0.419440 0.764584
0.914916 0.438270 0.740780
0.998779 0.490303 0.715755
1.000000 0.537072 0.697505
0.566522 0.694087 0.797757
0.581872 0.697719 0.795407
0.635584 0.712673 0.787564
0.667201 0.667903 0.764309
0.761746 0.611170 0.734615
0.873106 0.618830 0.726345
0.962982 0.635096 0.716457
1.000000 0.662165 0.723018
0.467597 0.660548 0.780911
0.484688 0.664118 0.779995
0.539879 0.675410 0.773831
0.623896 0.724025 0.764797
0.727504 0.731411 0.721340
0.857237 0.768765 0.765133
0.947814 0.775906 0.774228
1.000000 0.779355 0.780087
0.544854 0.866728 0.856687
0.564935 0.866453 0.853544
0.629725 0.862852 0.839353
0.716823 0.865141 0.822934
0.813016 0.872221 0.835142
0.836728 0.842222 0.770962
0.934356 0.856626 0.792691
1.000000 0.882292 0.845090
0.752773 0.947143 0.896635
0.756191 0.946593 0.894804
0.767758 0.947082 0.888182
0.799649 0.950713 0.882994
0.874235 0.951049 0.900999
0.890898 0.941222 0.877409
0.914855 0.919036 0.812161
0.981201 0.903532 0.782864
0.816556 0.986236 0.918456
0.818387 0.986145 0.917662
0.827176 0.985870 0.915221
0.854002 0.986053 0.917418
0.900389 0.983154 0.928588
0.927794 0.980407 0.928893
0.935943 0.976379 0.900969
0.967803 0.968536 0.849729
0.585504 0.530297 0.921630
0.602655 0.527947 0.921630
0.660060 0.504509 0.917082
0.757382 0.458045 0.912291
0.878843 0.354986 0.903777
0.966522 0.332341 0.890257
1.000000 0.398199 0.851438
1.000000 0.468910 0.831418
0.590784 0.570428 0.911864
0.603815 0.565118 0.911009
0.654871 0.541466 0.907591
0.746395 0.495796 0.903471
0.864439 0.391760 0.893309
0.952972 0.364813 0.880705
1.000000 0.419074 0.844572
1.000000 0.480903 0.826261
0.654597 0.703151 0.908171
0.659907 0.699031 0.907378
0.685939 0.682765 0.905089
0.737850 0.635828 0.895720
0.835264 0.553124 0.883360
0.925231 0.514336 0.870756
0.988403 0.538018 0.841123
1.000000 0.570642 0.825193
0.724269 0.802853 0.903471
0.725246 0.799191 0.901518
0.734279 0.787259 0.896452
0.756374 0.762234 0.892576
0.812863 0.709224 0.878843
0.885527 0.667781 0.858946
0.962341 0.671077 0.845365
1.000000 0.680476 0.831998
0.696345 0.794369 0.884611
0.702022 0.796048 0.883574
0.725368 0.803555 0.879881
0.763699 0.816739 0.873716
0.776028 0.782559 0.852201
0.835599 0.741421 0.828275
0.927611 0.741421 0.825406
1.000000 0.745266 0.820310
0.616419 0.757137 0.866453
0.626215 0.761166 0.867674
0.647852 0.766445 0.864042
0.682429 0.775113 0.856901
0.733669 0.815091 0.849516
0.813016 0.820127 0.820249
0.927398 0.860410 0.863981
0.993988 0.862943 0.868559
0.654688 0.922454 0.934173
0.664485 0.925902 0.934905
0.692470 0.935760 0.934813
0.759548 0.937621 0.924681
0.838499 0.938933 0.914855
0.907256 0.945006 0.923735
0.910613 0.916289 0.865843
0.979034 0.919371 0.874601
0.795712 0.983307 0.949310
0.799557 0.982849 0.948455
0.820249 0.981781 0.946685
0.860105 0.980896 0.946319
0.882628 0.982238 0.940002
0.931670 0.980804 0.949371
0.944610 0.976715 0.935821
0.965118 0.967071 0.891173
0.670100 0.653681 0.963836
0.677516 0.652552 0.963867
0.705531 0.643030 0.963043
0.758328 0.619867 0.961547
0.837003 0.568200 0.958068
0.945434 0.465248 0.951659
1.000000 0.464881 0.943755
1.000000 0.501640 0.906188
0.681178 0.679744 0.960967
0.687648 0.678279 0.961028
0.711666 0.667750 0.960266
0.758663 0.643183 0.958495
0.832883 0.592798 0.955016
0.938537 0.493843 0.948394
1.000000 0.486671 0.940429
1.000000 0.516350 0.903624
0.721920 0.752926 0.955840
0.725246 0.750759 0.955627
0.739376 0.740841 0.954681
0.770932 0.719203 0.952697
0.827329 0.677638 0.948791
0.919249 0.598322 0.941955
0.995300 0.580041 0.935241
1.000000 0.595300 0.903227
0.780148 0.832517 0.950347
0.778347 0.828519 0.949859
0.781033 0.818387 0.948882
0.796201 0.800900 0.946715
0.829557 0.767819 0.942321
0.897307 0.709163 0.934417
0.969787 0.682277 0.927703
1.000000 0.683742 0.902983
0.813748 0.881987 0.946441
0.816983 0.883146 0.946044
0.823850 0.881712 0.944823
0.829099 0.870024 0.941894
0.836301 0.842222 0.936370
0.875425 0.793057 0.926085
0.936553 0.759152 0.913512
1.000000 0.758846 0.903105
0.780423 0.865110 0.941009
0.784085 0.866514 0.940795
0.798337 0.872038 0.939849
0.823331 0.881834 0.938048
0.855375 0.894438 0.935027
0.862272 0.868467 0.921508
0.908080 0.829282 0.902617
0.982208 0.829282 0.900664
0.713008 0.836698 0.935363
0.716854 0.838102 0.935210
0.730373 0.842557 0.933928
0.754818 0.850645 0.931334
0.785367 0.860136 0.926146
0.826535 0.886961 0.919554
0.888151 0.894530 0.895903
0.974121 0.923125 0.926757
0.714473 0.938811 0.972930
0.719905 0.940948 0.972839
0.742611 0.949798 0.972595
0.782040 0.964538 0.972137
0.839231 0.977661 0.969482
0.912078 0.976898 0.962554
0.960266 0.979889 0.968566
0.963775 0.966339 0.931151
0.748257 0.746639 0.992279
0.751705 0.745754 0.992309
0.765011 0.739773 0.992187
0.792782 0.727291 0.992218
0.837522 0.702846 0.992248
0.904845 0.657343 0.992187
0.999634 0.578393 0.991852
1.000000 0.578363 0.988342
0.756069 0.759762 0.990814
0.759274 0.758755 0.990875
0.771420 0.752865 0.990845
0.796780 0.739925 0.990875
0.838834 0.715633 0.990936
0.903410 0.671412 0.990814
0.996277 0.594018 0.990417
1.000000 0.590967 0.986938
0.785275 0.804410 0.986877
0.787259 0.803250 0.986908
0.795468 0.797238 0.986908
0.814542 0.785580 0.987213
0.847013 0.762509 0.987243
0.900877 0.722225 0.987030
0.985840 0.653285 0.986450
1.000000 0.643671 0.983581
0.825101 0.860746 0.982269
0.826200 0.859770 0.982300
0.830381 0.854765 0.982330
0.840818 0.844358 0.982422
0.861265 0.824918 0.982422
0.900145 0.790677 0.982177
0.971527 0.730556 0.981415
1.000000 0.714260 0.979217
0.861906 0.908812 0.978729
0.863127 0.908507 0.978790
0.867033 0.906371 0.978820
0.870817 0.898528 0.978973
0.879118 0.883330 0.978576
0.901213 0.856107 0.977752
0.954253 0.806332 0.976257
1.000000 0.783200 0.974395
0.874174 0.928527 0.977752
0.876097 0.929351 0.977661
0.884794 0.933043 0.977356
0.901244 0.940398 0.977142
0.906950 0.934203 0.977081
0.912016 0.916136 0.975952
0.940459 0.880247 0.973144
0.994202 0.852293 0.969207
0.851591 0.920073 0.978882
0.853758 0.920928 0.978759
0.863035 0.924743 0.978393
0.880644 0.932128 0.977844
0.904784 0.942565 0.977295
0.932372 0.955016 0.977081
0.938140 0.941650 0.972503
0.969207 0.908812 0.961242
0.797757 0.900267 0.980194
0.800076 0.901091 0.980041
0.810117 0.904814 0.979553
0.829038 0.912078 0.978698
0.854765 0.922026 0.977264
0.883543 0.933043 0.975036
0.910460 0.941924 0.969970
0.954955 0.958434 0.959197
