20 Preset/Travel Style/【3】LUT video cho PR-AE-FCPX/Green Moody - Lut (26).cube
# Created by Adobe Lightroom plugin Export LUT (1.24.0)
# www.johnrellis.com/lightroom/exportlut.htm
# Preset: 26自然风光-中式-素材江湖
# Color profile: E:\lut插件\exportlut.1.24\exportlut.lrplugin\color profiles\Rec709gamma2.4.icc
LUT_3D_SIZE 5
DOMAIN_MIN 0.000000 0.000000 0.000000
DOMAIN_MAX 0.903226 0.903226 0.903226
0.093294 0.112764 0.141970
0.174350 0.101839 0.142397
0.402075 0.027741 0.135897
0.761440 0.000000 0.101625
1.000000 0.000000 0.000000
0.113191 0.179690 0.140291
0.167483 0.170657 0.141817
0.398596 0.202609 0.122469
0.771786 0.208194 0.011994
1.000000 0.236027 0.000000
0.200961 0.453407 0.074434
0.294682 0.452705 0.053437
0.415351 0.396887 0.110994
0.741604 0.478187 0.000000
1.000000 0.549126 0.000000
0.447944 0.810849 0.000000
0.514305 0.813077 0.000000
0.665980 0.797604 0.000000
0.738918 0.693629 0.000000
0.963531 0.704555 0.000000
0.677363 0.974578 0.518700
0.702541 0.973999 0.522820
0.786404 0.966217 0.497261
0.895995 0.954284 0.466468
0.998718 0.911254 0.400061
0.103304 0.118105 0.182193
0.171145 0.100740 0.192538
0.387518 0.017884 0.194675
0.729702 0.000000 0.181979
1.000000 0.000000 0.151949
0.102419 0.175967 0.183505
0.165316 0.187594 0.188449
0.393774 0.184207 0.185428
0.737697 0.138552 0.169162
1.000000 0.133913 0.126589
0.122560 0.432837 0.189517
0.247166 0.437446 0.187228
0.396551 0.388006 0.183352
0.731197 0.473091 0.065248
1.000000 0.530205 0.000000
0.405921 0.805051 0.242222
0.480232 0.808774 0.247654
0.659083 0.802121 0.238773
0.735622 0.696498 0.156161
0.966003 0.710384 0.050172
0.669825 0.973236 0.582055
0.694148 0.972534 0.584222
0.788235 0.970733 0.602472
0.894530 0.958587 0.562524
0.998566 0.917937 0.486702
0.151827 0.112856 0.380774
0.208865 0.103243 0.399451
0.418341 0.000000 0.455848
0.765194 0.000000 0.488472
1.000000 0.000000 0.471870
0.157290 0.194949 0.388952
0.210544 0.190433 0.402808
0.422431 0.147982 0.457191
0.766537 0.000000 0.476722
1.000000 0.000000 0.464851
0.000000 0.407782 0.405280
0.097993 0.418830 0.413916
0.409430 0.473243 0.457740
0.759640 0.476387 0.454505
1.000000 0.494759 0.456123
0.000000 0.786435 0.480934
0.210269 0.784268 0.510185
0.578912 0.800809 0.561578
0.729152 0.725917 0.471962
0.975280 0.746059 0.458045
0.628229 0.966308 0.727047
0.656153 0.966491 0.732631
0.753048 0.966247 0.749783
0.870481 0.958618 0.736202
0.972198 0.917601 0.629725
0.194400 0.026032 0.741451
0.263310 0.000000 0.754665
0.461280 0.000000 0.798703
0.757259 0.000000 0.846159
1.000000 0.000000 0.832151
0.192386 0.187472 0.740505
0.258824 0.178836 0.749996
0.454078 0.109987 0.790463
0.749477 0.000000 0.837217
1.000000 0.000000 0.822751
0.000000 0.362951 0.704128
0.155062 0.383246 0.713222
0.427344 0.431586 0.762905
0.724239 0.416388 0.815763
1.000000 0.442542 0.807034
0.000000 0.718898 0.759823
0.000000 0.721462 0.760983
0.390539 0.745388 0.780789
0.712490 0.801389 0.828519
0.946197 0.797421 0.824399
0.481636 0.959869 0.833097
0.522698 0.960113 0.836942
0.659785 0.962371 0.856931
0.846525 0.963073 0.895811
0.934325 0.929076 0.831266
0.397803 0.050202 0.971435
0.429725 0.000000 0.972442
0.548241 0.000000 0.980163
0.725551 0.000000 0.992218
0.951507 0.000000 1.000000
0.388464 0.199649 0.965332
0.421088 0.189181 0.966949
0.539666 0.126955 0.974762
0.718074 0.000000 0.987366
0.946624 0.000000 0.997833
0.365270 0.430610 0.954528
0.395819 0.424445 0.955077
0.515587 0.409003 0.962341
0.696895 0.370794 0.975830
0.936553 0.341802 0.991699
0.000000 0.624811 0.943999
0.128420 0.620661 0.942565
0.427100 0.635065 0.942992
0.689082 0.717678 0.960174
0.917632 0.761898 0.980835
0.360937 0.916930 0.950835
0.403540 0.917296 0.950591
0.557671 0.923033 0.952728
0.740352 0.932464 0.955962
0.920409 0.955322 0.969146
