20 Preset/Travel Style/【3】LUT video cho PR-AE-FCPX/Green Moody - Lut (27).cube
# Created by Adobe Lightroom plugin Export LUT (1.24.0)
# www.johnrellis.com/lightroom/exportlut.htm
# Preset: 27自然风光-素材江湖
# Color profile: E:\lut插件\exportlut.1.24\exportlut.lrplugin\color profiles\Rec709gamma2.4.icc
LUT_3D_SIZE 32
DOMAIN_MIN 0.0 0.0 0.0
DOMAIN_MAX 1.0 1.0 1.0
0.167788 0.146731 0.134981
0.168582 0.146822 0.135195
0.171115 0.147311 0.135531
0.177279 0.148135 0.135958
0.186587 0.149630 0.136873
0.197360 0.151217 0.137728
0.209323 0.152590 0.138766
0.222599 0.153597 0.139284
0.237034 0.154116 0.139559
0.252842 0.154696 0.139467
0.270115 0.155215 0.139284
0.288975 0.155306 0.138979
0.309453 0.155276 0.138277
0.331731 0.155062 0.137606
0.355749 0.155154 0.136843
0.381476 0.155520 0.135958
0.409125 0.156252 0.134890
0.438911 0.157198 0.133516
0.470863 0.157778 0.131655
0.505089 0.158999 0.129274
0.541436 0.160830 0.125917
0.582696 0.163241 0.121218
0.628077 0.168093 0.114626
0.673274 0.174990 0.105867
0.717067 0.184817 0.094820
0.759548 0.197238 0.072938
0.800717 0.212406 0.030274
0.840482 0.229740 0.000000
0.878477 0.248234 0.000000
0.914855 0.267887 0.000000
0.949432 0.288060 0.000000
0.982177 0.308232 0.000000
0.167605 0.147616 0.135103
0.168246 0.147524 0.135103
0.171420 0.147921 0.135439
0.177279 0.148745 0.135866
0.186374 0.150088 0.136812
0.197177 0.151644 0.137667
0.209018 0.152865 0.138735
0.222110 0.153872 0.139254
0.236301 0.154665 0.139498
0.251835 0.155306 0.139437
0.269108 0.155642 0.139254
0.287755 0.155825 0.138979
0.308263 0.155612 0.138308
0.330114 0.155795 0.137606
0.354101 0.155734 0.136873
0.379706 0.156008 0.136049
0.407263 0.156863 0.134951
0.436744 0.157809 0.133394
0.468635 0.158572 0.131533
0.502556 0.159640 0.129213
0.538537 0.161288 0.125978
0.579034 0.163851 0.121462
0.623041 0.168276 0.115328
0.667323 0.174685 0.106813
0.710597 0.183902 0.096437
0.752743 0.195773 0.078798
0.794003 0.210575 0.036378
0.834134 0.227207 0.000000
0.872648 0.245701 0.000000
0.909575 0.265202 0.000000
0.944732 0.285405 0.000000
0.978027 0.305669 0.000000
0.168215 0.150240 0.135409
0.168978 0.150332 0.135622
0.171695 0.150179 0.135317
0.177584 0.151003 0.135500
0.186679 0.152285 0.136477
0.197269 0.153658 0.137331
0.208865 0.154879 0.138399
0.221866 0.155703 0.138735
0.235874 0.156527 0.139223
0.251621 0.157137 0.139162
0.268559 0.157534 0.138979
0.287144 0.157748 0.138460
0.307561 0.157595 0.138033
0.329534 0.157534 0.137118
0.353216 0.157809 0.136355
0.378637 0.158358 0.135500
0.406195 0.159243 0.134646
0.435737 0.160006 0.133120
0.467414 0.160891 0.131258
0.501305 0.162234 0.128908
0.537316 0.164279 0.125338
0.577722 0.167056 0.120699
0.620874 0.171176 0.114809
0.664729 0.177707 0.106630
0.707607 0.186740 0.095644
0.749416 0.198184 0.078523
0.790616 0.212467 0.036652
0.830869 0.229007 0.000000
0.869657 0.246952 0.000000
0.906828 0.266453 0.000000
0.942138 0.286473 0.000000
0.975586 0.306523 0.000000
0.169039 0.156313 0.136324
0.170016 0.156191 0.136080
0.172549 0.156283 0.135988
0.178042 0.156313 0.135836
0.186984 0.157015 0.136172
0.197513 0.157931 0.136873
0.209079 0.158755 0.137758
0.222049 0.159579 0.138094
0.235874 0.160372 0.138369
0.251469 0.160800 0.138552
0.268437 0.161196 0.138399
0.287022 0.161410 0.137850
0.307286 0.161471 0.137148
0.329107 0.161685 0.136446
0.352605 0.162020 0.135470
0.377905 0.162631 0.134798
0.405127 0.163790 0.133700
0.434241 0.164950 0.132143
0.465644 0.166171 0.130220
0.499123 0.167575 0.127901
0.534722 0.169680 0.124605
0.574670 0.172793 0.119966
0.616663 0.177188 0.113893
0.660060 0.183536 0.105470
0.703273 0.192203 0.094728
0.745907 0.203983 0.073610
0.788022 0.218265 0.030091
0.829038 0.234745 0.000000
0.868223 0.252750 0.000000
0.905547 0.271824 0.000000
0.940826 0.291234 0.000000
0.973877 0.310674 0.000000
0.170657 0.164553 0.137484
0.171267 0.164492 0.137484
0.173800 0.164553 0.137392
0.178988 0.164645 0.136995
0.186740 0.164187 0.136843
0.197116 0.164736 0.136904
0.208499 0.165194 0.137148
0.221530 0.165591 0.137087
0.235752 0.165957 0.137392
0.251133 0.166598 0.137331
0.268009 0.166812 0.137179
0.286442 0.167239 0.136629
0.306676 0.167483 0.136141
0.328527 0.167849 0.135134
0.351995 0.168551 0.134310
0.377447 0.169619 0.133303
0.404822 0.170687 0.132174
0.434119 0.172244 0.130739
0.465522 0.173587 0.128511
0.498939 0.175753 0.125948
0.534600 0.178195 0.122469
0.574578 0.181888 0.117556
0.615991 0.186496 0.111238
0.659052 0.193393 0.102296
0.702266 0.202487 0.090578
0.744991 0.213993 0.061677
0.786984 0.228031 0.018738
0.827848 0.244175 0.000000
0.866911 0.261662 0.000000
0.904051 0.280247 0.000000
0.939178 0.299107 0.000000
0.972107 0.317845 0.000000
0.171603 0.173861 0.138369
0.172061 0.173983 0.138552
0.174685 0.173861 0.138277
0.179324 0.173831 0.138155
0.186679 0.173800 0.137697
0.195987 0.173281 0.137514
0.207858 0.173800 0.137484
0.220890 0.173861 0.137484
0.235050 0.174228 0.137087
0.250950 0.174594 0.136568
0.268284 0.175051 0.135897
0.287114 0.175509 0.135042
0.307347 0.176089 0.134218
0.329412 0.176699 0.133364
0.353124 0.177737 0.132174
0.378515 0.178866 0.131380
0.406165 0.180545 0.130037
0.435828 0.182254 0.128176
0.467353 0.184298 0.125948
0.500999 0.186770 0.123140
0.537469 0.190158 0.119081
0.577386 0.194308 0.113680
0.647913 0.206882 0.099397
0.693019 0.216709 0.085145
0.736385 0.228550 0.048341
0.778317 0.242252 0.002686
0.818509 0.257694 0.000000
0.856626 0.273991 0.000000
0.892760 0.291112 0.000000
0.926909 0.308476 0.000000
0.959014 0.325719 0.000000
0.989075 0.342596 0.000000
0.172396 0.185489 0.139559
0.172580 0.185611 0.139528
0.175051 0.185672 0.139437
0.179843 0.185489 0.139132
0.187106 0.185458 0.138918
0.196414 0.185428 0.138399
0.207370 0.184817 0.138186
0.221469 0.185641 0.137972
0.236027 0.185763 0.137606
0.252384 0.185977 0.137301
0.270207 0.186435 0.136355
0.289769 0.186984 0.135439
0.310643 0.187930 0.134218
0.333532 0.188663 0.132540
0.358007 0.190066 0.130861
0.384375 0.191592 0.129061
0.412726 0.193729 0.126864
0.442695 0.196109 0.124361
0.474769 0.198795 0.121675
0.509148 0.202060 0.118196
0.549889 0.206760 0.112825
0.593378 0.213107 0.105318
0.639002 0.221195 0.094789
0.685267 0.231571 0.073701
0.730282 0.243809 0.029725
0.773068 0.257725 0.000000
0.813626 0.272801 0.000000
0.851804 0.288396 0.000000
0.887877 0.304814 0.000000
0.921965 0.321019 0.000000
0.954162 0.337316 0.000000
0.984375 0.353582 0.000000
0.172366 0.197665 0.140658
0.172976 0.197604 0.140658
0.175174 0.197665 0.140352
0.179904 0.197513 0.140261
0.186648 0.197543 0.140078
0.195712 0.197543 0.139559
0.206668 0.197574 0.138979
0.219272 0.196689 0.138979
0.234867 0.198093 0.138521
0.250980 0.198337 0.138003
0.268864 0.198917 0.137240
0.288121 0.199496 0.136110
0.309270 0.200473 0.134615
0.331945 0.201511 0.133120
0.356420 0.202945 0.131441
0.382696 0.204929 0.129519
0.410956 0.207218 0.126986
0.441352 0.210239 0.123690
0.474098 0.213382 0.120089
0.510796 0.217990 0.114473
0.551049 0.224063 0.106874
0.593652 0.231296 0.097444
0.638178 0.239902 0.083680
0.683375 0.250553 0.045991
0.727687 0.263035 0.001648
0.770138 0.276707 0.000000
0.810391 0.291417 0.000000
0.848447 0.306401 0.000000
0.884520 0.321996 0.000000
0.918578 0.337560 0.000000
0.950744 0.353033 0.000000
0.981079 0.368231 0.000000
0.171908 0.211490 0.141604
0.172488 0.211429 0.141604
0.174685 0.211490 0.141543
0.179049 0.211490 0.141421
0.185916 0.211398 0.141268
0.195010 0.211398 0.140749
0.205814 0.211460 0.139925
0.218418 0.211551 0.139467
0.232578 0.210849 0.139101
0.249882 0.212467 0.138674
0.267796 0.213138 0.137911
0.287297 0.214023 0.136904
0.308446 0.215183 0.135134
0.331212 0.216342 0.133577
0.355779 0.218021 0.131563
0.382147 0.220310 0.129458
0.410681 0.222934 0.126772
0.441138 0.226108 0.123323
0.474983 0.230320 0.118807
0.512108 0.235660 0.112917
0.551690 0.242161 0.104433
0.593713 0.250095 0.092836
0.638331 0.260136 0.063264
0.683589 0.272618 0.011688
0.727321 0.285435 0.000000
0.769070 0.298894 0.000000
0.809018 0.313207 0.000000
0.846738 0.327916 0.000000
0.882597 0.342718 0.000000
0.916472 0.357427 0.000000
0.948455 0.371984 0.000000
0.978729 0.386084 0.000000
0.170504 0.227359 0.142184
0.171115 0.227329 0.142184
0.172824 0.227329 0.142153
0.177554 0.227298 0.142031
0.184268 0.227207 0.141634
0.193545 0.227115 0.141390
0.204318 0.227268 0.140780
0.217319 0.227359 0.140078
0.231724 0.227390 0.139528
0.247105 0.226688 0.139101
0.266239 0.228763 0.138094
0.285893 0.230137 0.136934
0.307317 0.231357 0.135592
0.330388 0.232975 0.133608
0.355322 0.235080 0.131380
0.382086 0.237613 0.128878
0.410834 0.240665 0.125917
0.443091 0.244755 0.121767
0.477638 0.249912 0.116487
0.514458 0.255680 0.109651
0.553246 0.262638 0.100679
0.594141 0.270848 0.087373
0.637201 0.280827 0.048676
0.680751 0.292912 0.000000
0.723751 0.306493 0.000000
0.765713 0.321508 0.000000
0.805112 0.335546 0.000000
0.842802 0.349828 0.000000
0.878843 0.364172 0.000000
0.912993 0.378485 0.000000
0.945312 0.392279 0.000000
0.975891 0.405646 0.000000
0.167269 0.244816 0.142397
0.167575 0.244785 0.142397
0.169833 0.244846 0.142336
0.174380 0.244846 0.142214
0.181277 0.244999 0.142000
0.190433 0.245029 0.141482
0.202304 0.245182 0.141054
0.215305 0.245487 0.140322
0.230320 0.245792 0.139437
0.246738 0.245884 0.138735
0.264042 0.245304 0.138094
0.284855 0.247745 0.136507
0.306981 0.250004 0.135012
0.330205 0.251926 0.133089
0.355718 0.254307 0.130648
0.383215 0.257603 0.127657
0.413306 0.261570 0.124056
0.445502 0.266087 0.119417
0.479591 0.271305 0.113771
0.515923 0.277592 0.105745
0.554314 0.284825 0.095308
0.594720 0.293431 0.074922
0.637201 0.303990 0.026886
0.680232 0.316106 0.000000
0.722866 0.329778 0.000000
0.764309 0.344793 0.000000
0.804501 0.360723 0.000000
0.842222 0.375738 0.000000
0.877836 0.389227 0.000000
0.911711 0.402747 0.000000
0.943847 0.415564 0.000000
0.974212 0.427832 0.000000
0.160616 0.265507 0.141817
0.161166 0.265568 0.141787
0.163546 0.265599 0.141695
0.168643 0.265599 0.141573
0.175845 0.265721 0.141360
0.185733 0.265904 0.140780
0.198062 0.266239 0.140322
0.212589 0.266575 0.139712
0.228336 0.267002 0.138766
0.245609 0.267674 0.137575
0.263981 0.267887 0.136660
0.283177 0.267399 0.135836
0.310643 0.274510 0.133333
0.338506 0.280156 0.130495
0.367010 0.284428 0.127260
0.397528 0.289189 0.123171
0.429999 0.294285 0.118105
0.464240 0.299840 0.111666
0.500389 0.306126 0.103304
0.538293 0.313298 0.091859
0.578149 0.321752 0.063691
0.619257 0.331670 0.017700
0.661036 0.343023 0.000000
0.702632 0.355535 0.000000
0.743252 0.369116 0.000000
0.782773 0.383368 0.000000
0.820310 0.397833 0.000000
0.856016 0.412268 0.000000
0.889647 0.425605 0.000000
0.921172 0.436561 0.000000
0.951202 0.447150 0.000000
0.980011 0.457343 0.000000
0.147860 0.292760 0.140414
0.148531 0.292821 0.140139
0.151461 0.292699 0.140139
0.157565 0.292576 0.140047
0.166262 0.292546 0.139620
0.177646 0.292515 0.139345
0.191623 0.292668 0.138643
0.207889 0.293004 0.137758
0.225315 0.293492 0.136660
0.244083 0.294408 0.135286
0.264469 0.295689 0.133547
0.286778 0.297337 0.132143
0.310002 0.298528 0.130953
0.335088 0.300999 0.128908
0.368139 0.310338 0.123964
0.398810 0.315190 0.119356
0.431220 0.320439 0.113313
0.464912 0.325933 0.106172
0.500389 0.332341 0.096223
0.537377 0.339361 0.080598
0.576074 0.347417 0.039918
0.616266 0.356939 0.000000
0.657374 0.368292 0.000000
0.698482 0.380774 0.000000
0.738918 0.394018 0.000000
0.778317 0.408026 0.000000
0.816037 0.422187 0.000000
0.851926 0.436164 0.000000
0.886229 0.449714 0.000000
0.918608 0.462257 0.000000
0.948669 0.471901 0.000000
0.977508 0.481056 0.000000
0.129335 0.319707 0.137606
0.129946 0.319615 0.137636
0.133944 0.319493 0.137392
0.141146 0.319371 0.137301
0.151736 0.319188 0.137148
0.165774 0.319188 0.136599
0.181186 0.319615 0.135744
0.199222 0.320348 0.134829
0.219394 0.321386 0.133608
0.240177 0.323003 0.131991
0.262425 0.325078 0.130159
0.286473 0.327581 0.127565
0.311315 0.329290 0.125368
0.336950 0.330449 0.123629
0.362432 0.331426 0.121523
0.399268 0.343389 0.113619
0.431800 0.348669 0.106966
0.465461 0.354253 0.097871
0.500877 0.360571 0.084901
0.537591 0.367803 0.049836
0.575921 0.376013 0.006439
0.615900 0.385779 0.000000
0.656245 0.396643 0.000000
0.696773 0.408759 0.000000
0.736904 0.421942 0.000000
0.776120 0.435584 0.000000
0.813718 0.449012 0.000000
0.849516 0.462104 0.000000
0.883696 0.474952 0.000000
0.916350 0.487129 0.000000
0.946929 0.497841 0.000000
0.975708 0.506096 0.000000
0.089174 0.352911 0.133150
0.090639 0.352880 0.133150
0.097383 0.352697 0.132937
0.109163 0.352483 0.132906
0.125277 0.352270 0.132509
0.143801 0.352239 0.131899
0.164218 0.352453 0.131258
0.186069 0.352972 0.130098
0.209293 0.353948 0.128481
0.233219 0.355474 0.126589
0.257755 0.357519 0.124178
0.283604 0.360204 0.121309
0.310979 0.362951 0.117647
0.338262 0.364446 0.114992
0.365759 0.365332 0.112398
0.392798 0.365698 0.109804
0.432319 0.379187 0.097353
0.466468 0.385046 0.084657
0.501884 0.391455 0.052613
0.538720 0.398627 0.011292
0.577020 0.407050 0.000000
0.616602 0.416938 0.000000
0.656672 0.427741 0.000000
0.696590 0.439368 0.000000
0.735958 0.451575 0.000000
0.774624 0.464393 0.000000
0.812131 0.477363 0.000000
0.848081 0.489815 0.000000
0.882506 0.501823 0.000000
0.915343 0.513329 0.000000
0.946593 0.524224 0.000000
0.976013 0.533196 0.000000
0.000000 0.389105 0.126162
0.000000 0.389197 0.126101
0.000000 0.389075 0.125795
0.000000 0.389075 0.125612
0.037720 0.389044 0.125063
0.101472 0.389197 0.124544
0.133761 0.389654 0.123354
0.163363 0.390539 0.122011
0.192660 0.391669 0.120211
0.221592 0.393256 0.117861
0.250187 0.395087 0.114992
0.278935 0.397131 0.111208
0.308141 0.399542 0.106600
0.338048 0.401709 0.101106
0.367193 0.402014 0.097871
0.395850 0.401923 0.094484
0.424170 0.401801 0.090181
0.465888 0.416419 0.049653
0.502037 0.423377 0.010742
0.539208 0.430823 0.000000
0.578058 0.439796 0.000000
0.617884 0.449775 0.000000
0.657862 0.460700 0.000000
0.697688 0.472267 0.000000
0.737026 0.484199 0.000000
0.775540 0.496132 0.000000
0.812528 0.507744 0.000000
0.848234 0.519127 0.000000
0.882353 0.530053 0.000000
0.914702 0.540276 0.000000
0.945464 0.549859 0.000000
0.974823 0.558984 0.000000
0.000000 0.427802 0.115114
0.000000 0.427771 0.115114
0.000000 0.427771 0.114717
0.000000 0.427802 0.114443
0.000000 0.427832 0.113741
0.000000 0.428016 0.113069
0.036988 0.428473 0.111910
0.123476 0.429267 0.109590
0.165438 0.430426 0.107271
0.202335 0.431861 0.104341
0.237613 0.433478 0.100649
0.269993 0.435615 0.095552
0.302495 0.437873 0.088960
0.335088 0.440040 0.077485
0.367163 0.441962 0.057710
0.398444 0.441840 0.045899
0.428748 0.441596 0.033448
0.458564 0.441352 0.019989
0.502312 0.456886 0.000000
0.540978 0.465827 0.000000
0.580224 0.474769 0.000000
0.619928 0.484688 0.000000
0.659724 0.495277 0.000000
0.699519 0.506310 0.000000
0.738674 0.517571 0.000000
0.776761 0.528649 0.000000
0.813596 0.539361 0.000000
0.848783 0.549401 0.000000
0.882414 0.558801 0.000000
0.914488 0.568048 0.000000
0.945068 0.576623 0.000000
0.974273 0.584588 0.000000
0.000000 0.470985 0.096864
0.000000 0.471229 0.096559
0.000000 0.485908 0.088472
0.000000 0.485878 0.087587
0.000000 0.485939 0.086397
0.000000 0.486152 0.083772
0.000000 0.486366 0.079805
0.000000 0.486915 0.073487
0.099214 0.487892 0.064759
0.168215 0.489204 0.052369
0.217655 0.490761 0.037873
0.260746 0.492500 0.021271
0.299565 0.494179 0.001556
0.337224 0.495735 0.000000
0.373480 0.496986 0.000000
0.408759 0.497536 0.000000
0.441932 0.496223 0.000000
0.473884 0.494911 0.000000
0.504784 0.493721 0.000000
0.550103 0.509087 0.000000
0.590631 0.519188 0.000000
0.629847 0.527825 0.000000
0.668971 0.536980 0.000000
0.707546 0.546441 0.000000
0.745327 0.555596 0.000000
0.781857 0.564569 0.000000
0.817014 0.572992 0.000000
0.850858 0.581201 0.000000
0.883421 0.589044 0.000000
0.914641 0.596399 0.000000
0.944701 0.603510 0.000000
0.973602 0.610498 0.000000
0.000000 0.522240 0.031617
0.000000 0.523735 0.028809
0.000000 0.525322 0.024140
0.000000 0.526818 0.020356
0.000000 0.527947 0.016144
0.000000 0.528466 0.010193
0.000000 0.528832 0.004028
0.000000 0.529168 0.000000
0.000000 0.529900 0.000000
0.107393 0.530999 0.000000
0.185794 0.532341 0.000000
0.240421 0.533867 0.000000
0.286778 0.535271 0.000000
0.328527 0.536767 0.000000
0.368536 0.538079 0.000000
0.406989 0.539239 0.000000
0.443641 0.539513 0.000000
0.478401 0.538598 0.000000
0.511772 0.537835 0.000000
0.544091 0.537438 0.000000
0.589807 0.552239 0.000000
0.631952 0.563928 0.000000
0.670985 0.572320 0.000000
0.709468 0.580896 0.000000
0.746761 0.589136 0.000000
0.782803 0.596796 0.000000
0.817380 0.604120 0.000000
0.850736 0.611109 0.000000
0.882841 0.617762 0.000000
0.913695 0.624140 0.000000
0.943420 0.630152 0.000000
0.972015 0.635889 0.000000
0.000000 0.567895 0.000000
0.000000 0.569543 0.000000
0.000000 0.571191 0.000000
0.000000 0.572778 0.000000
0.000000 0.573938 0.000000
0.000000 0.574517 0.000000
0.000000 0.574914 0.000000
0.000000 0.575189 0.000000
0.000000 0.575677 0.000000
0.000000 0.576379 0.000000
0.136355 0.577386 0.000000
0.214939 0.578485 0.000000
0.272313 0.579675 0.000000
0.320378 0.580865 0.000000
0.364630 0.582055 0.000000
0.406287 0.583124 0.000000
0.446296 0.584100 0.000000
0.483925 0.584070 0.000000
0.519371 0.583276 0.000000
0.553552 0.582879 0.000000
0.586297 0.582666 0.000000
0.631189 0.596094 0.000000
0.673793 0.608270 0.000000
0.712032 0.615839 0.000000
0.748836 0.622889 0.000000
0.784268 0.629419 0.000000
0.818296 0.635523 0.000000
0.851072 0.641291 0.000000
0.882628 0.646784 0.000000
0.913115 0.652033 0.000000
0.942473 0.657099 0.000000
0.970855 0.661891 0.000000
0.000000 0.614740 0.000000
0.000000 0.616114 0.000000
0.000000 0.617578 0.000000
0.000000 0.618982 0.000000
0.000000 0.620081 0.000000
0.000000 0.620478 0.000000
0.000000 0.620844 0.000000
0.000000 0.621027 0.000000
0.000000 0.621363 0.000000
0.000000 0.621820 0.000000
0.000000 0.622583 0.000000
0.183230 0.623438 0.000000
0.255711 0.624292 0.000000
0.312413 0.625147 0.000000
0.361120 0.626154 0.000000
0.406317 0.627192 0.000000
0.449165 0.628473 0.000000
0.490211 0.629969 0.000000
0.528679 0.630549 0.000000
0.565423 0.631006 0.000000
0.600855 0.631769 0.000000
0.634913 0.632746 0.000000
0.679133 0.644953 0.000000
0.721706 0.656947 0.000000
0.758389 0.663111 0.000000
0.793484 0.668391 0.000000
0.826871 0.673213 0.000000
0.858885 0.677577 0.000000
0.889616 0.681697 0.000000
0.919310 0.685603 0.000000
0.947997 0.689296 0.000000
0.975677 0.692805 0.000000
0.000000 0.669581 0.000000
0.000000 0.670130 0.000000
0.000000 0.670527 0.000000
0.000000 0.670771 0.000000
0.000000 0.670863 0.000000
0.000000 0.670710 0.000000
0.000000 0.670588 0.000000
0.000000 0.670588 0.000000
0.000000 0.670710 0.000000
0.000000 0.671077 0.000000
0.000000 0.671565 0.000000
0.146426 0.672145 0.000000
0.241276 0.672724 0.000000
0.307683 0.673243 0.000000
0.361761 0.673793 0.000000
0.410315 0.674342 0.000000
0.455055 0.675013 0.000000
0.497566 0.675898 0.000000
0.537865 0.676844 0.000000
0.575677 0.676783 0.000000
0.611414 0.676600 0.000000
0.645930 0.676692 0.000000
0.679011 0.676814 0.000000
0.719905 0.685573 0.000000
0.760739 0.696284 0.000000
0.795163 0.700435 0.000000
0.828122 0.704158 0.000000
0.859648 0.707454 0.000000
0.889952 0.710536 0.000000
0.919188 0.713466 0.000000
0.947356 0.716213 0.000000
0.974792 0.718807 0.000000
0.000000 0.713130 0.000000
0.000000 0.713588 0.000000
0.000000 0.713954 0.000000
0.000000 0.714168 0.000000
0.000000 0.714260 0.000000
0.000000 0.714137 0.000000
0.000000 0.714015 0.000000
0.000000 0.713863 0.000000
0.000000 0.713924 0.000000
0.000000 0.714076 0.000000
0.000000 0.714290 0.000000
0.094057 0.714656 0.000000
0.226017 0.714931 0.000000
0.300694 0.715236 0.000000
0.360693 0.715541 0.000000
0.411566 0.715999 0.000000
0.458350 0.716457 0.000000
0.501946 0.717067 0.000000
0.543389 0.717800 0.000000
0.583001 0.718776 0.000000
0.619989 0.718532 0.000000
0.655421 0.718349 0.000000
0.689387 0.718349 0.000000
0.721981 0.718471 0.000000
0.755612 0.720546 0.000000
0.795438 0.730556 0.000000
0.828092 0.733516 0.000000
0.859159 0.735897 0.000000
0.889036 0.738125 0.000000
0.917998 0.740108 0.000000
0.946136 0.742184 0.000000
0.973480 0.744198 0.000000
0.000000 0.757839 0.000000
0.000000 0.758480 0.000000
0.000000 0.758724 0.000000
0.000000 0.758602 0.000000
0.000000 0.758114 0.000000
0.000000 0.757443 0.000000
0.000000 0.756588 0.000000
0.000000 0.755734 0.000000
0.000000 0.754940 0.000000
0.000000 0.754330 0.000000
0.000000 0.753689 0.000000
0.000000 0.753292 0.000000
0.211398 0.752865 0.000000
0.293248 0.752438 0.000000
0.356512 0.751858 0.000000
0.409766 0.751461 0.000000
0.457221 0.751247 0.000000
0.501366 0.751308 0.000000
0.543389 0.751705 0.000000
0.583673 0.752407 0.000000
0.622248 0.753231 0.000000
0.658320 0.752956 0.000000
0.692805 0.752621 0.000000
0.725582 0.752163 0.000000
0.757046 0.751522 0.000000
0.790982 0.754360 0.000000
0.828794 0.762692 0.000000
0.859586 0.764614 0.000000
0.888823 0.765652 0.000000
0.917174 0.766751 0.000000
0.944915 0.767941 0.000000
0.972045 0.769314 0.000000
0.000000 0.791867 0.000000
0.000000 0.792416 0.000000
0.000000 0.792752 0.000000
0.000000 0.792782 0.000000
0.000000 0.792599 0.000000
0.000000 0.792294 0.000000
0.000000 0.792020 0.000000
0.000000 0.791623 0.000000
0.000000 0.791348 0.000000
0.000000 0.791073 0.000000
0.000000 0.790738 0.000000
0.000000 0.790402 0.000000
0.204471 0.790005 0.000000
0.291020 0.789456 0.000000
0.356359 0.788754 0.000000
0.411902 0.788052 0.000000
0.460121 0.787533 0.000000
0.504509 0.787228 0.000000
0.546807 0.787198 0.000000
0.587121 0.787442 0.000000
0.625971 0.787839 0.000000
0.663081 0.788174 0.000000
0.698024 0.787686 0.000000
0.731472 0.787137 0.000000
0.763485 0.786557 0.000000
0.794278 0.785946 0.000000
0.826017 0.787137 0.000000
0.862181 0.794308 0.000000
0.891691 0.795682 0.000000
0.919554 0.795773 0.000000
0.946715 0.796109 0.000000
0.973480 0.796628 0.000000
0.000000 0.825681 0.000000
0.000000 0.825925 0.000000
0.000000 0.825986 0.000000
0.000000 0.825925 0.000000
0.000000 0.825681 0.000000
0.000000 0.825315 0.000000
0.000000 0.824918 0.000000
0.000000 0.824460 0.000000
0.000000 0.824002 0.000000
0.000000 0.823575 0.000000
0.000000 0.823087 0.000000
0.000000 0.822660 0.000000
0.199832 0.822141 0.000000
0.288945 0.821530 0.000000
0.355138 0.820737 0.000000
0.411353 0.819913 0.000000
0.461036 0.819150 0.000000
0.505638 0.818601 0.000000
0.547936 0.818296 0.000000
0.588220 0.818265 0.000000
0.626795 0.818387 0.000000
0.663996 0.818601 0.000000
0.699519 0.818448 0.000000
0.733181 0.817685 0.000000
0.765530 0.816922 0.000000
0.796506 0.816129 0.000000
0.826535 0.815396 0.000000
0.856138 0.815213 0.000000
0.891112 0.821469 0.000000
0.919615 0.822568 0.000000
0.946563 0.822232 0.000000
0.972930 0.821927 0.000000
0.000000 0.854734 0.122194
0.000000 0.854917 0.123415
0.000000 0.855009 0.123507
0.000000 0.855009 0.122988
0.000000 0.854978 0.121706
0.000000 0.854978 0.120516
0.000000 0.855131 0.120272
0.000000 0.855344 0.119448
0.000000 0.855680 0.118837
0.000000 0.856016 0.118532
0.000000 0.856382 0.117433
0.000000 0.856626 0.114260
0.218723 0.856748 0.109499
0.302159 0.856626 0.101991
0.366339 0.856260 0.089204
0.421332 0.855589 0.047730
0.470588 0.854856 0.000000
0.515221 0.854185 0.000000
0.556756 0.853727 0.000000
0.596338 0.853422 0.000000
0.634394 0.853269 0.000000
0.671260 0.853147 0.000000
0.706630 0.852995 0.000000
0.740536 0.852415 0.000000
0.772885 0.851408 0.000000
0.804074 0.850462 0.000000
0.834195 0.849546 0.000000
0.863493 0.848692 0.000000
0.892088 0.847990 0.000000
0.924926 0.852689 0.000000
0.951690 0.852811 0.000000
0.976684 0.850980 0.000000
0.000000 0.886412 0.221408
0.000000 0.886442 0.221378
0.000000 0.886351 0.220981
0.000000 0.886168 0.220188
0.000000 0.885954 0.218814
0.000000 0.885649 0.217350
0.000000 0.885374 0.215671
0.000000 0.885069 0.213474
0.000000 0.884794 0.211368
0.000000 0.884459 0.208804
0.000000 0.884123 0.206271
0.088106 0.883787 0.202945
0.231754 0.883360 0.198825
0.308537 0.882841 0.193637
