20 Preset/Travel Style/【3】LUT video cho PR-AE-FCPX/Green Moody - Lut (24).cube
# Created by Adobe Lightroom plugin Export LUT (1.24.0)
# www.johnrellis.com/lightroom/exportlut.htm
# Preset: 24自然风光-温暖-素材江湖
# Color profile: E:\lut插件\exportlut.1.24\exportlut.lrplugin\color profiles\Rec709gamma2.4.icc
LUT_3D_SIZE 32
DOMAIN_MIN 0.0 0.0 0.0
DOMAIN_MAX 1.0 1.0 1.0
0.137118 0.122805 0.116365
0.139223 0.123049 0.116579
0.145724 0.123262 0.116701
0.158450 0.123781 0.117159
0.176699 0.124666 0.117617
0.199069 0.125277 0.118135
0.224796 0.125093 0.118196
0.252811 0.124208 0.118013
0.283604 0.122103 0.117006
0.317662 0.119051 0.115846
0.355261 0.114290 0.114107
0.396887 0.107088 0.110994
0.441993 0.097902 0.107332
0.490120 0.084688 0.102174
0.539727 0.060517 0.095949
0.589929 0.040528 0.086549
0.640162 0.036133 0.060945
0.689509 0.056703 0.025452
0.736568 0.092195 0.000000
0.780056 0.117769 0.000000
0.819516 0.144686 0.000000
0.863005 0.175753 0.000000
0.906249 0.208835 0.000000
0.941741 0.236667 0.000000
0.971527 0.260288 0.000000
0.997223 0.280888 0.000000
1.000000 0.299229 0.000000
1.000000 0.315709 0.000000
1.000000 0.330968 0.000000
1.000000 0.345739 0.000000
1.000000 0.359808 0.000000
1.000000 0.373449 0.000000
0.136995 0.124453 0.116426
0.138796 0.123934 0.116457
0.145174 0.124422 0.116518
0.157961 0.124941 0.116976
0.175998 0.125856 0.117464
0.198062 0.126284 0.118013
0.222904 0.126345 0.118105
0.250370 0.125490 0.117983
0.280308 0.123842 0.117281
0.313298 0.121218 0.116182
0.350134 0.117037 0.114229
0.390997 0.110140 0.111269
0.435279 0.101686 0.107820
0.482673 0.091371 0.102846
0.531762 0.075807 0.096559
0.581811 0.056916 0.088411
0.632227 0.050080 0.065339
0.681636 0.066468 0.029938
0.729274 0.094728 0.000000
0.773098 0.118471 0.000000
0.812711 0.143709 0.000000
0.855802 0.173190 0.000000
0.897856 0.204440 0.000000
0.932769 0.231449 0.000000
0.962432 0.254307 0.000000
0.988373 0.274784 0.000000
1.000000 0.293126 0.000000
1.000000 0.309911 0.000000
1.000000 0.325566 0.000000
1.000000 0.340673 0.000000
1.000000 0.355047 0.000000
1.000000 0.368994 0.000000
0.137514 0.129580 0.116823
0.139010 0.129671 0.116762
0.145144 0.129397 0.116365
0.158114 0.130373 0.116121
0.174685 0.131228 0.117250
0.196445 0.131716 0.117830
0.220981 0.131685 0.117952
0.247959 0.131319 0.117525
0.277684 0.129702 0.116854
0.310277 0.127565 0.115755
0.346654 0.124117 0.113802
0.386969 0.118685 0.111147
0.430549 0.112428 0.107332
0.477455 0.104402 0.102419
0.526177 0.097047 0.096101
0.575952 0.091279 0.087404
0.626154 0.090578 0.063172
0.675990 0.096010 0.028107
0.723903 0.110140 0.000000
0.768124 0.130495 0.000000
0.808316 0.153597 0.000000
0.852293 0.181674 0.000000
0.893492 0.209812 0.000000
0.928008 0.235508 0.000000
0.957458 0.257267 0.000000
0.983337 0.276463 0.000000
1.000000 0.294316 0.000000
1.000000 0.310704 0.000000
1.000000 0.326146 0.000000
1.000000 0.341161 0.000000
1.000000 0.355352 0.000000
1.000000 0.369146 0.000000
0.138216 0.140291 0.117403
0.139712 0.140352 0.117372
0.145602 0.140352 0.117220
0.158145 0.140383 0.116243
0.176730 0.140902 0.115541
0.195804 0.141299 0.116854
0.219059 0.141543 0.117556
0.245609 0.141390 0.117128
0.275242 0.140536 0.116396
0.307744 0.139010 0.114931
0.343755 0.136477 0.112978
0.383520 0.133028 0.109834
0.426673 0.128786 0.105898
0.472724 0.124331 0.100710
0.520653 0.119966 0.094362
0.569451 0.118318 0.083375
0.618830 0.119295 0.058259
0.667720 0.124849 0.022522
0.715328 0.136019 0.000000
0.759579 0.151766 0.000000
0.799893 0.170352 0.000000
0.844511 0.195315 0.000000
0.884611 0.220371 0.000000
0.919249 0.243412 0.000000
0.949798 0.264286 0.000000
0.977234 0.283391 0.000000
1.000000 0.301335 0.000000
1.000000 0.317418 0.000000
1.000000 0.332799 0.000000
1.000000 0.347234 0.000000
1.000000 0.360693 0.000000
1.000000 0.373449 0.000000
0.139071 0.154391 0.118563
0.140475 0.154421 0.118807
0.146517 0.154238 0.118379
0.156924 0.154482 0.117494
0.173770 0.154635 0.115999
0.196902 0.155459 0.114656
0.220829 0.154940 0.114015
0.241093 0.155032 0.116243
0.270176 0.155001 0.115145
0.302373 0.154360 0.113619
0.337865 0.153262 0.111177
0.377111 0.151705 0.108156
0.419776 0.150118 0.103914
0.465553 0.148501 0.098329
0.513268 0.147829 0.090791
0.562676 0.148501 0.076814
0.612696 0.151583 0.045716
0.662287 0.157290 0.008576
0.710445 0.167178 0.000000
0.754971 0.180850 0.000000
0.795499 0.197024 0.000000
0.841550 0.219699 0.000000
0.880552 0.241184 0.000000
0.914977 0.261845 0.000000
0.945708 0.280858 0.000000
0.973571 0.298283 0.000000
0.999145 0.314549 0.000000
1.000000 0.329503 0.000000
1.000000 0.343542 0.000000
1.000000 0.356878 0.000000
1.000000 0.369329 0.000000
1.000000 0.381231 0.000000
0.139376 0.170779 0.119722
0.140383 0.170840 0.119966
0.145663 0.170748 0.119570
0.156008 0.170626 0.119020
0.171237 0.171298 0.117525
0.191714 0.172091 0.115389
0.219272 0.174289 0.113069
0.246799 0.173495 0.111757
0.272129 0.173037 0.112459
0.298680 0.173587 0.113252
0.334905 0.173983 0.109438
0.374609 0.174716 0.104799
0.417365 0.175204 0.099458
0.463264 0.176333 0.092744
0.511498 0.178317 0.081209
0.561028 0.181308 0.056001
0.611475 0.186313 0.022126
0.661494 0.193240 0.000000
0.709804 0.203433 0.000000
0.754208 0.215702 0.000000
0.798459 0.232151 0.000000
0.842985 0.252140 0.000000
0.927001 0.304936 0.000000
0.959930 0.324041 0.000000
0.987915 0.340368 0.000000
1.000000 0.354253 0.000000
1.000000 0.366613 0.000000
1.000000 0.377539 0.000000
1.000000 0.387945 0.000000
1.000000 0.397314 0.000000
1.000000 0.406500 0.000000
1.000000 0.414923 0.000000
0.136049 0.194980 0.120119
0.136873 0.194919 0.120119
0.143313 0.194919 0.119966
0.154635 0.194766 0.119142
0.170169 0.195010 0.118318
0.191043 0.196506 0.115969
0.217380 0.198215 0.113130
0.252079 0.203067 0.108400
0.284489 0.202548 0.106600
0.318822 0.202762 0.104677
0.348638 0.203067 0.106416
0.386389 0.205509 0.103761
0.431647 0.208347 0.095552
0.479347 0.211826 0.083619
0.528527 0.216342 0.054353
0.578271 0.221836 0.017243
0.628473 0.229160 0.000000
0.677577 0.238193 0.000000
0.724422 0.249119 0.000000
0.768124 0.261601 0.000000
0.820401 0.282658 0.000000
0.867216 0.304204 0.000000
0.908171 0.324773 0.000000
0.944274 0.343481 0.000000
0.975494 0.359625 0.000000
1.000000 0.373053 0.000000
1.000000 0.384039 0.000000
1.000000 0.393561 0.000000
1.000000 0.402502 0.000000
1.000000 0.410468 0.000000
1.000000 0.418250 0.000000
1.000000 0.425910 0.000000
0.131106 0.216800 0.120485
0.132418 0.216739 0.120485
0.138949 0.216587 0.120089
0.149935 0.216526 0.119539
0.166354 0.216464 0.118502
0.186130 0.217533 0.116915
0.210636 0.219913 0.113893
0.240574 0.222751 0.109743
0.280186 0.230533 0.102632
0.315953 0.231479 0.100160
0.355261 0.233402 0.095735
0.390967 0.234684 0.094759
0.425940 0.236759 0.094850
0.470527 0.241306 0.085664
0.519188 0.246891 0.056031
0.568444 0.253422 0.014771
0.618524 0.260990 0.000000
0.667964 0.270848 0.000000
0.715663 0.282322 0.000000
0.766690 0.299321 0.000000
0.816434 0.319493 0.000000
0.860594 0.338476 0.000000
0.900053 0.355749 0.000000
0.935363 0.371679 0.000000
0.966461 0.385534 0.000000
0.993256 0.396796 0.000000
1.000000 0.406104 0.000000
1.000000 0.413947 0.000000
1.000000 0.421393 0.000000
1.000000 0.428229 0.000000
1.000000 0.434791 0.000000
1.000000 0.441138 0.000000
0.123262 0.241428 0.120089
0.125032 0.241459 0.120027
0.131167 0.241398 0.119631
0.143008 0.241337 0.119081
0.160128 0.241184 0.118379
0.181064 0.241032 0.116884
0.204349 0.243687 0.114015
0.233127 0.247318 0.109865
0.266636 0.251713 0.104128
0.311406 0.262425 0.092256
0.352300 0.265965 0.086305
0.394995 0.269657 0.073518
0.438483 0.273228 0.052857
0.475288 0.275517 0.054231
0.513146 0.279789 0.052766
0.562249 0.287236 0.008545
0.612177 0.295659 0.000000
0.661555 0.305486 0.000000
0.714473 0.320378 0.000000
0.766506 0.338109 0.000000
0.813138 0.355413 0.000000
0.855253 0.372168 0.000000
0.893706 0.388403 0.000000
0.928466 0.403540 0.000000
0.959228 0.415320 0.000000
0.986023 0.424353 0.000000
1.000000 0.431861 0.000000
1.000000 0.438178 0.000000
1.000000 0.444160 0.000000
1.000000 0.449561 0.000000
1.000000 0.454841 0.000000
1.000000 0.459998 0.000000
0.107759 0.269596 0.118441
0.110231 0.269444 0.118471
0.117189 0.269291 0.118135
0.130953 0.269139 0.117617
0.150454 0.268711 0.116701
0.172427 0.268528 0.115511
0.197330 0.269352 0.113313
0.225132 0.273411 0.108431
0.257603 0.278294 0.102113
0.295323 0.284184 0.093202
0.344366 0.297398 0.061891
0.389960 0.303868 0.038148
0.435492 0.309087 0.013581
0.482948 0.314916 0.000000
0.524590 0.319188 0.000000
0.563836 0.323980 0.000000
0.606439 0.331731 0.000000
0.663325 0.346990 0.000000
0.717739 0.363806 0.000000
0.766629 0.379309 0.000000
0.810391 0.393805 0.000000
0.849668 0.407080 0.000000
0.885588 0.419684 0.000000
0.918456 0.431250 0.000000
0.948089 0.441566 0.000000
0.974945 0.450202 0.000000
0.999054 0.456275 0.000000
1.000000 0.461494 0.000000
1.000000 0.466407 0.000000
1.000000 0.471168 0.000000
1.000000 0.475715 0.000000
1.000000 0.480049 0.000000
0.069642 0.298711 0.115236
0.076905 0.298711 0.115175
0.091157 0.298741 0.115023
0.109834 0.298772 0.114412
0.133181 0.298894 0.113252
0.159213 0.298955 0.111849
0.187503 0.299046 0.109804
0.216617 0.302525 0.105135
0.248997 0.308324 0.097963
0.286503 0.315007 0.087098
0.328496 0.322911 0.055879
0.381872 0.338567 0.000000
0.433448 0.349035 0.000000
0.481514 0.355383 0.000000
0.530907 0.362799 0.000000
0.581079 0.371893 0.000000
0.626856 0.381781 0.000000
0.671260 0.393133 0.000000
0.716732 0.406043 0.000000
0.762875 0.419348 0.000000
0.804807 0.431189 0.000000
0.842832 0.442329 0.000000
0.878141 0.452857 0.000000
0.910704 0.462379 0.000000
0.940429 0.470863 0.000000
0.967407 0.478065 0.000000
0.992157 0.484382 0.000000
1.000000 0.489021 0.000000
1.000000 0.492714 0.000000
1.000000 0.496315 0.000000
1.000000 0.499641 0.000000
1.000000 0.502953 0.000000
0.000000 0.334112 0.108919
0.000000 0.334051 0.108583
0.000000 0.334203 0.108309
0.028626 0.334356 0.107546
0.099275 0.334508 0.106538
0.136080 0.334844 0.104829
0.170748 0.335424 0.102144
0.205081 0.336400 0.098756
0.239811 0.342718 0.089296
0.277989 0.350256 0.066590
0.320531 0.359014 0.025422
0.367529 0.368872 0.000000
0.448524 0.410590 0.000000
0.518090 0.434852 0.000000
0.578973 0.449958 0.000000
0.637903 0.464698 0.000000
0.691737 0.477211 0.000000
0.733577 0.484199 0.000000
0.769650 0.490120 0.000000
0.802670 0.496376 0.000000
0.838590 0.503685 0.000000
0.873014 0.510307 0.000000
0.904570 0.516045 0.000000
0.933623 0.520989 0.000000
0.959930 0.525048 0.000000
0.983978 0.528008 0.000000
1.000000 0.530297 0.000000
1.000000 0.532036 0.000000
1.000000 0.533227 0.000000
1.000000 0.533715 0.000000
1.000000 0.534478 0.000000
1.000000 0.535607 0.000000
0.000000 0.386572 0.093782
0.000000 0.386481 0.093843
0.000000 0.386145 0.093111
0.000000 0.385504 0.092378
0.000000 0.384863 0.090913
0.068360 0.384222 0.089113
0.140810 0.383886 0.085023
0.187228 0.384100 0.077424
0.228916 0.387701 0.056001
0.271305 0.396490 0.017578
0.317601 0.407721 0.000000
0.373022 0.426642 0.000000
0.434943 0.447791 0.000000
0.504845 0.472908 0.000000
0.582879 0.504784 0.000000
0.639216 0.515984 0.000000
0.689845 0.524376 0.000000
0.735073 0.530419 0.000000
0.774014 0.533959 0.000000
0.804227 0.534905 0.000000
0.832242 0.536828 0.000000
0.858610 0.539849 0.000000
0.890196 0.544274 0.000000
0.919615 0.548119 0.000000
0.946624 0.551171 0.000000
0.971557 0.553521 0.000000
0.994507 0.555291 0.000000
1.000000 0.556634 0.000000
1.000000 0.557641 0.000000
1.000000 0.558526 0.000000
1.000000 0.558618 0.000000
1.000000 0.558984 0.000000
0.000000 0.426917 0.067048
0.000000 0.426673 0.066468
0.000000 0.425940 0.064576
0.000000 0.425299 0.062898
0.000000 0.424475 0.058625
0.000000 0.423713 0.053040
0.073610 0.424445 0.041932
0.156100 0.426917 0.027161
0.210300 0.430213 0.007935
0.258640 0.440955 0.000000
0.309636 0.455665 0.000000
0.365759 0.473060 0.000000
0.427222 0.492317 0.000000
0.492317 0.512596 0.000000
0.559380 0.532586 0.000000
0.637293 0.564141 0.000000
0.685756 0.568841 0.000000
0.729366 0.571801 0.000000
0.769223 0.573999 0.000000
0.805570 0.575250 0.000000
0.833707 0.574090 0.000000
0.859312 0.573938 0.000000
0.883543 0.574945 0.000000
0.908202 0.577234 0.000000
0.935760 0.579614 0.000000
0.961303 0.581231 0.000000
0.984955 0.582269 0.000000
1.000000 0.582879 0.000000
1.000000 0.583337 0.000000
1.000000 0.583795 0.000000
1.000000 0.583795 0.000000
1.000000 0.583581 0.000000
0.000000 0.481453 0.000000
0.000000 0.481300 0.000000
0.000000 0.480690 0.000000
0.000000 0.479988 0.000000
0.000000 0.479133 0.000000
0.000000 0.478523 0.000000
0.000000 0.478706 0.000000
0.090394 0.479713 0.000000
0.180819 0.481788 0.000000
0.241184 0.486641 0.000000
0.296971 0.500114 0.000000
0.355200 0.516167 0.000000
0.416907 0.533532 0.000000
0.480812 0.551568 0.000000
0.545922 0.569146 0.000000
0.609125 0.585077 0.000000
0.681727 0.612421 0.000000
0.724361 0.612909 0.000000
0.763210 0.612787 0.000000
0.798795 0.612085 0.000000
0.831876 0.611475 0.000000
0.861112 0.610254 0.000000
0.884794 0.608484 0.000000
0.907286 0.607874 0.000000
0.928527 0.608179 0.000000
0.951354 0.609125 0.000000
0.975799 0.609766 0.000000
0.998901 0.610163 0.000000
1.000000 0.610407 0.000000
1.000000 0.610712 0.000000
1.000000 0.610742 0.000000
1.000000 0.610529 0.000000
0.000000 0.533471 0.000000
0.000000 0.533715 0.000000
0.000000 0.533349 0.000000
0.000000 0.533013 0.000000
0.000000 0.532555 0.000000
0.000000 0.532403 0.000000
0.000000 0.532891 0.000000
0.000000 0.534234 0.000000
0.132906 0.536278 0.000000
0.219059 0.538903 0.000000
0.283848 0.546777 0.000000
0.345251 0.559777 0.000000
0.406744 0.573571 0.000000
0.468452 0.587274 0.000000
0.529625 0.600641 0.000000
0.589563 0.613214 0.000000
0.647883 0.625635 0.000000
0.715511 0.649256 0.000000
0.755428 0.648737 0.000000
0.791012 0.646906 0.000000
0.824582 0.645502 0.000000
0.856229 0.644312 0.000000
0.885954 0.643244 0.000000
0.909300 0.640864 0.000000
0.930602 0.639277 0.000000
0.950744 0.638514 0.000000
0.969879 0.638636 0.000000
0.992065 0.638788 0.000000
1.000000 0.638392 0.000000
1.000000 0.637873 0.000000
1.000000 0.637049 0.000000
1.000000 0.635920 0.000000
0.000000 0.579675 0.000000
0.000000 0.579614 0.000000
0.000000 0.579461 0.000000
0.000000 0.579187 0.000000
0.000000 0.578820 0.000000
0.000000 0.578668 0.000000
0.000000 0.578912 0.000000
0.000000 0.579706 0.000000
0.000000 0.580987 0.000000
0.188113 0.582666 0.000000
0.265934 0.584649 0.000000
0.330663 0.595117 0.000000
0.393256 0.606836 0.000000
0.454658 0.618463 0.000000
0.514183 0.629908 0.000000
0.572259 0.640864 0.000000
0.628412 0.651453 0.000000
0.683497 0.662104 0.000000
0.746639 0.682521 0.000000
0.785428 0.682521 0.000000
0.818875 0.679866 0.000000
0.850431 0.677699 0.000000
0.880156 0.675746 0.000000
0.908263 0.673732 0.000000
0.932769 0.671229 0.000000
0.952911 0.668666 0.000000
0.972137 0.667109 0.000000
0.990478 0.666285 0.000000
1.000000 0.666316 0.000000
1.000000 0.665400 0.000000
1.000000 0.664118 0.000000
1.000000 0.662470 0.000000
0.000000 0.624475 0.000000
0.000000 0.624872 0.000000
0.000000 0.653132 0.000000
0.000000 0.652827 0.000000
0.000000 0.652430 0.000000
0.000000 0.651911 0.000000
0.000000 0.651362 0.000000
0.000000 0.651148 0.000000
0.000000 0.651362 0.000000
0.180117 0.651972 0.000000
0.270634 0.652705 0.000000
0.340642 0.655726 0.000000
0.404578 0.664332 0.000000
0.465309 0.672816 0.000000
0.522850 0.680873 0.000000
0.578058 0.688655 0.000000
0.631281 0.695949 0.000000
0.682795 0.703120 0.000000
0.732998 0.710414 0.000000
0.790066 0.725978 0.000000
0.826322 0.725063 0.000000
0.856046 0.720272 0.000000
0.884123 0.715938 0.000000
0.910582 0.711788 0.000000
0.935302 0.707454 0.000000
0.958770 0.703182 0.000000
0.976898 0.698604 0.000000
0.994079 0.695094 0.000000
1.000000 0.692866 0.000000
1.000000 0.691615 0.000000
1.000000 0.690852 0.000000
1.000000 0.688624 0.000000
0.000000 0.671870 0.000000
0.000000 0.674281 0.000000
0.000000 0.676783 0.000000
0.000000 0.678889 0.000000
0.000000 0.680262 0.000000
0.000000 0.680415 0.000000
0.000000 0.680049 0.000000
0.000000 0.679500 0.000000
0.000000 0.679225 0.000000
0.141878 0.679164 0.000000
0.248936 0.679347 0.000000
0.321935 0.679530 0.000000
0.385718 0.684382 0.000000
0.445319 0.691890 0.000000
0.502098 0.699214 0.000000
0.556481 0.706416 0.000000
0.608667 0.713497 0.000000
0.659602 0.720607 0.000000
0.709438 0.727901 0.000000
0.758114 0.735409 0.000000
0.812924 0.750149 0.000000
0.849851 0.751186 0.000000
0.878019 0.746059 0.000000
0.904479 0.741207 0.000000
0.929168 0.736294 0.000000
0.952575 0.731319 0.000000
0.974914 0.726497 0.000000
0.994598 0.721706 0.000000
1.000000 0.717830 0.000000
1.000000 0.715084 0.000000
1.000000 0.713252 0.000000
1.000000 0.712062 0.000000
0.000000 0.701350 0.000000
0.000000 0.703761 0.000000
0.000000 0.706203 0.001373
0.000000 0.708339 0.008972
0.000000 0.709682 0.008850
0.000000 0.709926 0.000000
0.000000 0.709590 0.000000
0.000000 0.708888 0.000000
0.000000 0.708400 0.000000
0.100923 0.707942 0.000000
0.231357 0.707698 0.000000
0.308537 0.707485 0.000000
0.371649 0.707240 0.000000
0.430945 0.713893 0.000000
0.486702 0.720577 0.000000
0.540063 0.727108 0.000000
0.591394 0.733577 0.000000
0.641077 0.740017 0.000000
0.689662 0.746639 0.000000
0.737240 0.753536 0.000000
0.783627 0.760525 0.000000
0.836118 0.774105 0.000000
0.872587 0.776059 0.000000
0.898985 0.770413 0.000000
0.923644 0.764767 0.000000
0.946990 0.759182 0.000000
0.969238 0.753811 0.000000
0.990845 0.748592 0.000000
1.000000 0.743740 0.000000
1.000000 0.739467 0.000000
1.000000 0.736172 0.000000
1.000000 0.733455 0.000000
0.000000 0.730343 0.094728
0.000000 0.732448 0.100557
0.000000 0.734432 0.104829
0.000000 0.736172 0.108309
0.000000 0.737331 0.108553
0.000000 0.737453 0.105592
0.000000 0.737118 0.099428
0.000000 0.736507 0.089662
0.000000 0.735927 0.069703
0.008453 0.735409 0.034058
0.216739 0.734981 0.000000
0.297307 0.734524 0.000000
0.361456 0.733974 0.000000
0.418830 0.735958 0.000000
0.473732 0.741939 0.000000
0.526421 0.748104 0.000000
0.577325 0.754696 0.000000
0.626978 0.761440 0.000000
0.675624 0.768551 0.000000
0.723323 0.776028 0.000000
0.770169 0.783688 0.000000
0.815946 0.791318 0.000000
0.866361 0.804166 0.000000
0.902220 0.806760 0.000000
0.927123 0.800839 0.000000
0.950408 0.794797 0.000000
0.972564 0.788876 0.000000
0.993988 0.783108 0.000000
1.000000 0.777615 0.000000
1.000000 0.772183 0.000000
1.000000 0.767025 0.000000
1.000000 0.762539 0.000000
0.000000 0.770230 0.174350
0.000000 0.771023 0.175967
0.000000 0.771511 0.176913
0.000000 0.771664 0.176394
0.000000 0.771450 0.174350
0.000000 0.770779 0.171328
0.000000 0.769986 0.166659
0.000000 0.769223 0.160922
0.000000 0.768521 0.154604
0.033661 0.768002 0.147646
0.219730 0.767544 0.139834
0.298894 0.767056 0.129458
0.361547 0.766415 0.115480
0.416968 0.765560 0.096376
0.470008 0.769345 0.070008
0.521141 0.774594 0.022492
0.570245 0.779934 0.000000
0.618097 0.785489 0.000000
0.664576 0.791196 0.000000
0.710109 0.797116 0.000000
0.754513 0.803098 0.000000
0.798062 0.809140 0.000000
0.840452 0.815030 0.000000
0.886809 0.825193 0.000000
0.921599 0.827909 0.000000
0.944762 0.821317 0.000000
0.966979 0.814969 0.000000
0.988403 0.808896 0.000000
1.000000 0.803006 0.000000
1.000000 0.797208 0.000000
1.000000 0.791257 0.000000
1.000000 0.784939 0.000000
0.000000 0.795438 0.216739
0.000000 0.796017 0.218204
0.000000 0.796506 0.218784
0.000000 0.796628 0.218753
0.000000 0.796506 0.217563
0.000000 0.796017 0.215000
0.000000 0.795315 0.211093
0.000000 0.794614 0.206729
0.000000 0.794003 0.201877
0.039399 0.793454 0.196963
0.217380 0.792935 0.191104
0.295079 0.792508 0.184176
0.357549 0.791867 0.175265
0.412177 0.791196 0.165194
0.462562 0.791226 0.153445
0.512535 0.796017 0.148623
0.560876 0.800992 0.142214
0.607416 0.806119 0.133242
0.652827 0.811368 0.122133
0.697230 0.816739 0.106508
0.740475 0.822202 0.083284
0.782834 0.827665 0.009552
0.824125 0.833036 0.000000
0.864378 0.838285 0.000000
0.902251 0.841611 0.000000
0.937224 0.845304 0.000000
0.959899 0.838956 0.000000
0.981353 0.832517 0.000000
1.000000 0.826383 0.000000
1.000000 0.820310 0.000000
1.000000 0.814237 0.000000
1.000000 0.807858 0.000000
0.000000 0.825589 0.275395
0.000000 0.826505 0.278050
0.000000 0.826841 0.278874
0.000000 0.826535 0.277379
0.000000 0.825711 0.274418
0.000000 0.824491 0.270085
0.000000 0.822995 0.264561
0.000000 0.821378 0.258427
0.000000 0.819821 0.251743
0.091432 0.818418 0.244907
0.218997 0.816953 0.237217
0.293217 0.815732 0.229343
0.352758 0.814450 0.220523
0.405463 0.813046 0.209903
0.453223 0.811429 0.197330
0.499947 0.812497 0.188052
0.546410 0.816281 0.182589
0.591577 0.820493 0.176974
0.635828 0.825132 0.171847
0.679347 0.830228 0.167056
0.721950 0.835447 0.160220
0.763302 0.840574 0.151339
0.803433 0.845365 0.136080
0.842344 0.849729 0.109499
0.880125 0.853635 0.016266
0.919127 0.859159 0.000000
0.953002 0.862516 0.000000
0.975311 0.856504 0.000000
0.995819 0.849577 0.000000
1.000000 0.842985 0.000000
1.000000 0.836454 0.000000
1.000000 0.829862 0.000000
0.000000 0.844511 0.307530
0.000000 0.845335 0.309911
0.000000 0.845762 0.311223
0.000000 0.845762 0.310796
0.000000 0.845396 0.309239
0.000000 0.844846 0.306584
0.000000 0.844205 0.303807
0.000000 0.843503 0.299931
0.000000 0.842832 0.295995
0.127047 0.842191 0.291814
0.230930 0.841398 0.286748
0.299535 0.840604 0.281254
0.356359 0.839597 0.274235
0.406867 0.838407 0.265721
0.453437 0.836942 0.255283
0.497108 0.835325 0.243595
0.541558 0.837949 0.239689
0.585046 0.841367 0.236881
0.627771 0.845243 0.234745
0.669673 0.849546 0.233158
0.710811 0.854032 0.231632
0.750881 0.858549 0.228672
0.789975 0.862882 0.223697
0.827939 0.866941 0.215091
0.864927 0.870695 0.201877
0.901030 0.874113 0.182193
0.937560 0.878294 0.154238
0.970581 0.881468 0.137636
0.992920 0.876066 0.120638
1.000000 0.868772 0.048646
1.000000 0.861631 0.000000
1.000000 0.854429 0.000000
0.000000 0.867277 0.353826
0.000000 0.867643 0.355322
0.000000 0.867735 0.355474
0.000000 0.867613 0.354589
0.000000 0.867216 0.352758
0.000000 0.866636 0.350378
0.000000 0.865965 0.347082
0.000000 0.865202 0.343328
0.000000 0.864439 0.339513
0.155093 0.863737 0.335363
0.241489 0.862943 0.330358
0.304570 0.862150 0.325048
0.358190 0.861295 0.318914
0.406653 0.860197 0.311162
0.451545 0.858824 0.302190
0.493904 0.857328 0.291203
0.535119 0.856901 0.282322
0.577356 0.859800 0.280735
0.618738 0.863066 0.280125
0.659358 0.866758 0.279973
0.699092 0.870603 0.280064
0.737911 0.874510 0.279088
0.775692 0.878202 0.276066
0.812558 0.881682 0.270726
0.848356 0.884886 0.261875
0.883391 0.887755 0.248203
0.917723 0.890471 0.230442
0.951904 0.893248 0.205997
0.984375 0.896269 0.188174
1.000000 0.891234 0.163851
1.000000 0.883696 0.110231
1.000000 0.876188 0.000000
0.000000 0.886687 0.392706
0.000000 0.886961 0.393805
0.000000 0.887144 0.394324
0.000000 0.887144 0.394079
0.000000 0.887114 0.393530
0.000000 0.887144 0.393011
0.000000 0.887510 0.393683
0.000000 0.887968 0.394690
0.104616 0.888609 0.396033
0.211795 0.889372 0.397528
0.279393 0.890135 0.398901
0.334447 0.890745 0.399237
0.383764 0.891112 0.398505
0.428748 0.891112 0.395880
0.470802 0.890684 0.390845
0.510399 0.889738 0.383307
0.548333 0.888640 0.374243
0.587182 0.889708 0.371038
0.626093 0.892302 0.372442
0.664332 0.895109 0.374487
0.701717 0.898100 0.376287
0.738338 0.901061 0.377081
0.773983 0.903838 0.376379
0.808774 0.906401 0.373510
0.842710 0.908690 0.367895
0.876036 0.910765 0.358984
0.908782 0.912627 0.347631
0.941070 0.914336 0.332525
0.973083 0.915892 0.312596
1.000000 0.917510 0.296605
1.000000 0.911864 0.270268
1.000000 0.903502 0.225895
0.000000 0.914397 0.468238
0.000000 0.914397 0.468208
0.000000 0.914275 0.467597
0.000000 0.914031 0.466468
0.000000 0.913695 0.464881
0.000000 0.913329 0.462898
0.000000 0.912963 0.460914
0.123384 0.912627 0.458625
0.200229 0.912322 0.456428
0.256840 0.912047 0.454139
0.306096 0.911742 0.451698
0.351293 0.911437 0.448676
0.393652 0.911040 0.445075
0.433875 0.910491 0.440253
