20 Preset/Travel Style/【3】LUT video cho PR-AE-FCPX/Green Moody - Lut (26).cube
# Created by Adobe Lightroom plugin Export LUT (1.24.0)
# www.johnrellis.com/lightroom/exportlut.htm
# Preset: 26自然风光-中式-素材江湖
# Color profile: E:\lut插件\exportlut.1.24\exportlut.lrplugin\color profiles\Rec709gamma2.4.icc
LUT_3D_SIZE 32
DOMAIN_MIN 0.0 0.0 0.0
DOMAIN_MAX 1.0 1.0 1.0
0.093294 0.112764 0.141970
0.093294 0.112764 0.141970
0.093294 0.112764 0.141970
0.093294 0.112764 0.141970
0.107454 0.111360 0.141939
0.129885 0.109194 0.142245
0.152163 0.105867 0.142123
0.174350 0.101839 0.142397
0.198032 0.098024 0.142489
0.223331 0.096071 0.142031
0.251987 0.093477 0.141512
0.284855 0.088380 0.140536
0.320928 0.077943 0.139651
0.360235 0.055360 0.138033
0.402075 0.027741 0.135897
0.446113 0.000000 0.133059
0.492042 0.000000 0.129549
0.540215 0.000000 0.126162
0.590478 0.000000 0.122591
0.643183 0.000000 0.117922
0.696925 0.000000 0.111391
0.761440 0.000000 0.101625
0.825162 0.000000 0.087892
0.879850 0.000000 0.053223
0.927703 0.000000 0.011139
0.969696 0.000000 0.000000
1.000000 0.000000 0.000000
1.000000 0.000000 0.000000
1.000000 0.000000 0.000000
1.000000 0.000000 0.000000
1.000000 0.000000 0.000000
1.000000 0.000000 0.000000
0.093294 0.112764 0.141970
0.093294 0.112764 0.141970
0.093294 0.112764 0.141970
0.093294 0.112764 0.141970
0.107454 0.111360 0.141939
0.129427 0.109285 0.142245
0.151431 0.105989 0.142123
0.173251 0.101717 0.142428
0.195529 0.099886 0.142184
0.220188 0.097963 0.141970
0.248539 0.095369 0.141299
0.280461 0.090791 0.140597
0.315862 0.082826 0.139498
0.354772 0.064332 0.137972
0.396002 0.038880 0.136110
0.439673 0.008392 0.133333
0.485481 0.000000 0.129915
0.533104 0.000000 0.126497
0.583337 0.000000 0.122927
0.635309 0.000000 0.118441
0.688350 0.000000 0.112520
0.751095 0.000000 0.103304
0.812833 0.000000 0.090303
0.866514 0.000000 0.063142
0.913878 0.000000 0.022766
0.956298 0.000000 0.000000
0.994934 0.000000 0.000000
1.000000 0.000000 0.000000
1.000000 0.000000 0.000000
1.000000 0.000000 0.000000
1.000000 0.000000 0.000000
1.000000 0.000000 0.000000
0.093294 0.112764 0.141970
0.093294 0.112764 0.141970
0.093294 0.112764 0.141970
0.093294 0.112764 0.141970
0.110048 0.111391 0.142123
0.131197 0.109010 0.142245
0.151766 0.106935 0.142031
0.171969 0.106172 0.142092
0.194095 0.104891 0.141817
0.218479 0.103639 0.141573
0.246525 0.101442 0.140871
0.278141 0.097566 0.140169
0.312932 0.092988 0.139071
0.351141 0.085298 0.137514
0.392035 0.066194 0.135439
0.435340 0.038148 0.132906
0.480629 0.009033 0.129213
0.528374 0.000000 0.126406
0.578241 0.000000 0.122896
0.630243 0.000000 0.118410
0.683406 0.000000 0.112337
0.746456 0.000000 0.102937
0.806973 0.000000 0.090150
0.859983 0.000000 0.062654
0.906920 0.000000 0.024598
0.949310 0.000000 0.000000
0.988128 0.000000 0.000000
1.000000 0.000000 0.000000
1.000000 0.000000 0.000000
1.000000 0.000000 0.000000
1.000000 0.000000 0.000000
1.000000 0.000000 0.000000
0.092531 0.115236 0.141939
0.092531 0.115236 0.141939
0.093019 0.115480 0.141909
0.096773 0.116365 0.142000
0.112001 0.117556 0.141451
0.131380 0.117311 0.141421
0.150729 0.116518 0.141329
0.170809 0.115908 0.141146
0.192874 0.114809 0.140871
0.217441 0.113710 0.140658
0.245121 0.112001 0.139956
0.276310 0.109895 0.139193
0.310796 0.106661 0.138033
0.348455 0.102388 0.136385
0.388556 0.095918 0.134279
0.430762 0.088045 0.131685
0.475288 0.066957 0.128573
0.521843 0.026978 0.125826
0.570703 0.000000 0.122377
0.621637 0.000000 0.117708
0.673945 0.000000 0.112093
0.736385 0.000000 0.102480
0.794949 0.000000 0.090455
0.848020 0.000000 0.062531
0.896361 0.000000 0.021302
0.941009 0.000000 0.000000
0.982116 0.000000 0.000000
1.000000 0.000000 0.000000
1.000000 0.000000 0.000000
1.000000 0.000000 0.000000
1.000000 0.000000 0.000000
1.000000 0.000000 0.000000
0.088106 0.128054 0.141939
0.088563 0.128267 0.141909
0.091279 0.128359 0.141878
0.101869 0.128573 0.141726
0.113313 0.127810 0.141878
0.126650 0.126680 0.141817
0.147677 0.129305 0.140200
0.168215 0.129091 0.139742
0.190372 0.128176 0.139712
0.214389 0.127687 0.139223
0.241917 0.126711 0.138491
0.272740 0.125490 0.137667
0.306737 0.124605 0.136355
0.343999 0.122225 0.134646
0.384009 0.119722 0.132265
0.426551 0.115724 0.129702
0.471595 0.108156 0.127596
0.518456 0.097139 0.124666
0.567376 0.075166 0.120699
0.618433 0.022004 0.115694
0.672358 0.000000 0.109346
0.733791 0.000000 0.099123
0.790799 0.000000 0.084901
0.843565 0.000000 0.051514
0.891936 0.000000 0.011231
0.937102 0.000000 0.000000
0.978485 0.000000 0.000000
1.000000 0.000000 0.000000
1.000000 0.000000 0.000000
1.000000 0.000000 0.000000
1.000000 0.000000 0.000000
1.000000 0.000000 0.000000
0.091310 0.142214 0.141909
0.092531 0.142367 0.141878
0.097597 0.142489 0.141817
0.106966 0.142489 0.141695
0.118959 0.142184 0.141573
0.129030 0.139864 0.141939
0.140566 0.136507 0.142397
0.162905 0.140200 0.140291
0.188296 0.144228 0.137881
0.213565 0.144991 0.136934
0.241459 0.144961 0.136294
0.272374 0.145266 0.135012
0.306584 0.145571 0.133516
0.343969 0.145602 0.131441
0.384253 0.144381 0.129854
0.427100 0.141848 0.127901
0.472328 0.138155 0.125429
0.519707 0.132662 0.122011
0.568963 0.124666 0.117525
0.619959 0.113832 0.112184
0.678096 0.099214 0.103883
0.738064 0.077272 0.091585
0.863737 0.071931 0.003754
0.915007 0.074067 0.000000
0.959503 0.084565 0.000000
0.998535 0.094270 0.000000
1.000000 0.103761 0.000000
1.000000 0.113558 0.000000
1.000000 0.124208 0.000000
1.000000 0.134127 0.000000
1.000000 0.145296 0.000000
1.000000 0.155001 0.000000
0.102449 0.161471 0.141146
0.103731 0.161410 0.141146
0.108064 0.161501 0.141085
0.117678 0.161593 0.140932
0.128786 0.161318 0.140780
0.140139 0.159915 0.141054
0.149264 0.155917 0.141726
0.158450 0.148959 0.143221
0.183932 0.155001 0.140322
0.214145 0.161532 0.136873
0.249210 0.169192 0.132570
0.284672 0.172641 0.130526
0.320989 0.173709 0.129549
0.359808 0.174166 0.128054
0.401007 0.174441 0.126101
0.444343 0.173404 0.123568
0.489662 0.171969 0.120363
0.537224 0.169497 0.115694
0.586938 0.166476 0.110079
0.643549 0.162264 0.101930
0.711391 0.159030 0.087037
0.777615 0.155825 0.045136
0.838712 0.156161 0.000000
0.894255 0.159609 0.000000
0.943664 0.165377 0.000000
0.985687 0.170535 0.000000
1.000000 0.175174 0.000000
1.000000 0.179904 0.000000
1.000000 0.185306 0.000000
1.000000 0.189700 0.000000
1.000000 0.195285 0.000000
1.000000 0.201144 0.000000
0.113191 0.179690 0.140291
0.113710 0.179660 0.140291
0.118593 0.179690 0.140200
0.126040 0.179995 0.140017
0.137240 0.179812 0.140078
0.147494 0.178500 0.140352
0.159121 0.176608 0.140688
0.167483 0.170657 0.141817
0.175113 0.162936 0.143801
0.201755 0.169100 0.141787
0.235508 0.178103 0.137972
0.274632 0.188083 0.133333
0.319036 0.199069 0.127230
0.357916 0.201175 0.125032
0.398596 0.202609 0.122469
0.441260 0.203464 0.119478
0.486305 0.203952 0.115389
0.533410 0.204135 0.110231
0.584741 0.203830 0.103243
0.646052 0.205509 0.090974
0.709133 0.206058 0.060212
0.771786 0.208194 0.011994
0.830655 0.211368 0.000000
0.884855 0.216342 0.000000
0.933806 0.221836 0.000000
0.975860 0.226474 0.000000
1.000000 0.230655 0.000000
1.000000 0.232944 0.000000
1.000000 0.236027 0.000000
1.000000 0.239078 0.000000
1.000000 0.242283 0.000000
1.000000 0.245518 0.000000
0.121462 0.202090 0.140963
0.122408 0.202029 0.140963
0.126375 0.202060 0.140902
0.134005 0.202274 0.140932
0.145113 0.202914 0.140810
0.156802 0.201633 0.140841
0.168368 0.199405 0.141054
0.180850 0.196963 0.141512
0.188388 0.189761 0.143252
0.195071 0.179782 0.145632
0.222843 0.185641 0.143618
0.260349 0.196933 0.139284
0.302983 0.208957 0.133150
0.350225 0.221988 0.125673
0.399237 0.233280 0.117067
0.441840 0.235538 0.112978
0.486549 0.237766 0.107820
0.535607 0.240177 0.100710
0.591913 0.244358 0.088899
0.650080 0.247654 0.059388
0.710323 0.251377 0.014801
0.769924 0.255528 0.000000
0.826627 0.260624 0.000000
0.879240 0.266453 0.000000
0.927276 0.272526 0.000000
0.969024 0.276463 0.000000
1.000000 0.279484 0.000000
1.000000 0.281956 0.000000
1.000000 0.284062 0.000000
1.000000 0.285710 0.000000
1.000000 0.287266 0.000000
1.000000 0.288945 0.000000
0.130373 0.228672 0.140871
0.131258 0.228611 0.140871
0.134859 0.228641 0.140810
0.142580 0.228916 0.140597
0.153841 0.229160 0.140291
0.168002 0.228977 0.140017
0.179324 0.226474 0.140597
0.192081 0.223484 0.141024
0.205234 0.220188 0.141451
0.212192 0.210910 0.143923
0.217380 0.198459 0.146700
0.244846 0.203098 0.145113
0.285100 0.215976 0.139803
0.330388 0.230167 0.132479
0.381262 0.245426 0.122835
0.435645 0.262089 0.109010
0.492164 0.275273 0.093843
0.544915 0.281132 0.078218
0.599847 0.286412 0.042420
0.656367 0.291478 0.000275
0.713710 0.296544 0.000000
0.769253 0.301030 0.000000
0.821561 0.306340 0.000000
0.870512 0.311315 0.000000
0.915831 0.316411 0.000000
0.956695 0.320256 0.000000
0.993835 0.322881 0.000000
1.000000 0.325414 0.000000
1.000000 0.326970 0.000000
1.000000 0.328435 0.000000
1.000000 0.329107 0.000000
1.000000 0.330144 0.000000
0.139406 0.257694 0.139315
0.140261 0.257664 0.139071
0.144259 0.257939 0.139132
0.151919 0.258213 0.138888
0.163943 0.258793 0.138643
0.178897 0.259709 0.138186
0.193118 0.258122 0.138033
0.206302 0.255009 0.138613
0.219883 0.251713 0.139406
0.234012 0.247562 0.140139
0.240452 0.235782 0.143252
0.243717 0.220706 0.146975
0.269535 0.222416 0.146120
0.313268 0.237644 0.139315
0.364782 0.255619 0.129946
0.420661 0.274968 0.116487
0.482124 0.296117 0.095583
0.547814 0.318914 0.028016
0.604334 0.329076 0.000000
0.658900 0.334813 0.000000
0.714229 0.340307 0.000000
0.767422 0.345800 0.000000
0.818082 0.351476 0.000000
0.865904 0.356878 0.000000
0.910643 0.361883 0.000000
0.950988 0.365515 0.000000
0.987945 0.368322 0.000000
1.000000 0.370123 0.000000
1.000000 0.371069 0.000000
1.000000 0.371710 0.000000
1.000000 0.371771 0.000000
1.000000 0.371862 0.000000
0.149111 0.293187 0.135317
0.150515 0.293187 0.135012
0.155001 0.293309 0.134859
0.162997 0.293919 0.134676
0.175051 0.294652 0.134279
0.190982 0.295689 0.133639
0.209628 0.296635 0.133089
0.223453 0.293187 0.133730
0.238193 0.289220 0.134463
0.253056 0.284672 0.135592
0.267857 0.279576 0.136538
0.274754 0.266484 0.140780
0.298741 0.265873 0.144686
0.324041 0.263005 0.145449
0.379614 0.285252 0.133974
0.440253 0.309178 0.117525
0.505913 0.334234 0.089876
0.575982 0.360601 0.000000
0.649256 0.388006 0.000000
0.722072 0.415290 0.000000
0.773373 0.420386 0.000000
0.820951 0.424598 0.000000
0.865843 0.428290 0.000000
0.907836 0.431556 0.000000
0.946044 0.433204 0.000000
0.980926 0.433234 0.000000
1.000000 0.432288 0.000000
1.000000 0.430426 0.000000
1.000000 0.428351 0.000000
1.000000 0.425757 0.000000
1.000000 0.423407 0.000000
1.000000 0.421241 0.000000
0.165896 0.345769 0.125032
0.166873 0.345739 0.125032
0.171206 0.345556 0.125002
0.179660 0.345434 0.124788
0.192538 0.345495 0.124331
0.209903 0.345800 0.123476
0.230625 0.346929 0.122194
0.249760 0.346410 0.121828
0.266911 0.343694 0.122713
0.285222 0.340673 0.123873
0.304479 0.337438 0.124422
0.323857 0.333806 0.125551
0.331365 0.318029 0.133089
0.336400 0.298100 0.141146
0.354040 0.287694 0.144930
0.411963 0.312291 0.131014
0.474220 0.337774 0.109926
0.540063 0.363897 0.060487
0.609827 0.390814 0.000000
0.681422 0.418372 0.000000
0.750423 0.445747 0.000000
0.808347 0.465064 0.000000
0.852476 0.468635 0.000000
0.894377 0.471565 0.000000
0.932921 0.473121 0.000000
0.968536 0.473274 0.000000
1.000000 0.472450 0.000000
1.000000 0.470680 0.000000
1.000000 0.468299 0.000000
1.000000 0.465736 0.000000
1.000000 0.462898 0.000000
1.000000 0.459998 0.000000
0.181613 0.397620 0.109102
0.182559 0.397375 0.109255
0.187594 0.396857 0.109163
0.196811 0.396704 0.108919
0.210086 0.396704 0.107942
0.228092 0.397253 0.106508
0.249851 0.398596 0.104707
0.274235 0.400305 0.102480
0.291539 0.395789 0.104433
0.310033 0.391669 0.106050
0.329381 0.387457 0.107820
0.349279 0.383154 0.109682
0.368597 0.377691 0.111574
0.373571 0.357427 0.124025
0.375860 0.333562 0.135103
0.388739 0.317479 0.141299
0.441596 0.337804 0.127413
0.504204 0.364294 0.101961
0.571069 0.391669 0.019959
0.641016 0.419532 0.000000
0.711696 0.448066 0.000000
0.777615 0.475624 0.000000
0.837430 0.501457 0.000000
0.885069 0.513268 0.000000
0.923705 0.514763 0.000000
0.959533 0.514672 0.000000
0.992523 0.513512 0.000000
1.000000 0.511254 0.000000
1.000000 0.508598 0.000000
1.000000 0.505394 0.000000
1.000000 0.502251 0.000000
1.000000 0.498878 0.000000
0.200961 0.453407 0.074434
0.201785 0.453193 0.075013
0.206546 0.452461 0.074556
0.214908 0.451667 0.075776
0.228885 0.450690 0.073213
0.246616 0.450019 0.071962
0.268467 0.450813 0.064363
0.294682 0.452705 0.053437
0.316442 0.450813 0.052644
0.335271 0.445869 0.062440
0.355077 0.440925 0.068910
0.375555 0.435981 0.076539
0.395544 0.429908 0.083742
0.413123 0.421363 0.090608
0.415351 0.396887 0.110994
0.414832 0.369085 0.126711
0.423468 0.348363 0.135622
0.469856 0.362799 0.123445
0.533898 0.390936 0.092073
0.602075 0.419532 0.000000
0.672358 0.448859 0.000000
0.741604 0.478187 0.000000
0.804898 0.505913 0.000000
0.862577 0.531487 0.000000
0.913787 0.553094 0.000000
0.951354 0.555535 0.000000
0.984833 0.554192 0.000000
1.000000 0.551995 0.000000
1.000000 0.549126 0.000000
1.000000 0.546014 0.000000
1.000000 0.542596 0.000000
1.000000 0.539025 0.000000
0.221347 0.506096 0.000000
0.222232 0.506371 0.000000
0.226719 0.506126 0.000000
0.235813 0.506096 0.000000
0.249821 0.505913 0.000000
0.267979 0.506432 0.000000
0.290776 0.508110 0.000000
0.317815 0.510979 0.000000
0.347723 0.514611 0.000000
0.366827 0.509117 0.000000
0.386389 0.502892 0.000000
0.406073 0.495460 0.000000
0.425025 0.487129 0.000000
0.442176 0.476570 0.002472
0.455421 0.462440 0.030335
0.454078 0.433722 0.093263
0.450874 0.402502 0.116518
0.456123 0.378119 0.129000
0.495521 0.385931 0.119417
0.561578 0.415839 0.077333
0.631647 0.446723 0.000000
0.703975 0.478676 0.000000
0.771420 0.508965 0.000000
0.832853 0.537163 0.000000
0.888487 0.561913 0.000000
0.937713 0.582025 0.000000
0.979889 0.595727 0.000000
1.000000 0.593103 0.000000
1.000000 0.589624 0.000000
1.000000 0.585565 0.000000
1.000000 0.581201 0.000000
1.000000 0.576684 0.000000
0.243565 0.557763 0.000000
0.244358 0.557794 0.000000
0.248783 0.557702 0.000000
0.258213 0.557733 0.000000
0.271336 0.558099 0.000000
0.289525 0.558862 0.000000
0.312108 0.560449 0.000000
0.338964 0.563165 0.000000
0.369238 0.566735 0.000000
0.394842 0.565637 0.000000
0.414374 0.558801 0.000000
0.433936 0.551385 0.000000
0.453162 0.542351 0.000000
0.470863 0.531792 0.000000
0.486763 0.519280 0.000000
0.497292 0.502098 0.000000
0.493935 0.471229 0.046174
0.489479 0.438544 0.101503
0.491524 0.410895 0.119478
0.523583 0.411139 0.114717
0.592645 0.443397 0.043153
0.665156 0.476844 0.000000
0.736263 0.509911 0.000000
0.801572 0.540764 0.000000
0.861357 0.568750 0.000000
0.914336 0.591852 0.000000
0.961242 0.610101 0.000000
1.000000 0.623987 0.000000
1.000000 0.628870 0.000000
1.000000 0.624384 0.000000
1.000000 0.619379 0.000000
1.000000 0.614221 0.000000
0.273075 0.613489 0.000000
0.274479 0.614038 0.000000
0.302983 0.651301 0.000000
0.311925 0.651453 0.000000
0.325902 0.651789 0.000000
0.343694 0.652125 0.000000
0.367163 0.652918 0.000000
0.394537 0.654505 0.000000
0.425574 0.657099 0.000000
0.460426 0.660395 0.000000
0.479652 0.653040 0.000000
0.498909 0.644556 0.000000
0.517113 0.633783 0.000000
0.533806 0.621149 0.000000
0.548333 0.606073 0.000000
0.560540 0.589044 0.000000
0.565728 0.565942 0.000000
0.557916 0.530144 0.000000
0.549157 0.492653 0.051972
0.545800 0.459144 0.102632
0.569238 0.449653 0.104189
0.641657 0.484779 0.000000
0.714382 0.519738 0.000000
0.781216 0.552148 0.000000
0.842039 0.581079 0.000000
0.896147 0.605158 0.000000
0.944244 0.624170 0.000000
0.986938 0.638788 0.000000
1.000000 0.649836 0.000000
1.000000 0.657771 0.000000
1.000000 0.656062 0.000000
1.000000 0.650233 0.000000
0.316075 0.677302 0.000000
0.319921 0.680598 0.000000
0.326635 0.684077 0.000000
0.337224 0.687312 0.000000
0.352270 0.689815 0.000000
0.369604 0.691066 0.000000
0.391669 0.691951 0.000000
0.416602 0.692988 0.000000
0.445655 0.694728 0.000000
0.478309 0.697139 0.000000
0.504906 0.695308 0.000000
0.523186 0.687648 0.000000
0.541070 0.678035 0.000000
0.557946 0.667079 0.000000
0.573632 0.654047 0.000000
0.587274 0.639124 0.000000
0.598932 0.622492 0.000000
0.603082 0.599237 0.000000
0.595911 0.564416 0.000000
0.587793 0.527855 0.000000
0.582849 0.493050 0.081819
0.598962 0.475776 0.096132
0.673701 0.513634 0.000000
0.744961 0.549340 0.000000
0.809171 0.581476 0.000000
0.867735 0.609308 0.000000
0.919463 0.631495 0.000000
0.965728 0.648859 0.000000
1.000000 0.662074 0.000000
1.000000 0.671778 0.000000
1.000000 0.678614 0.000000
1.000000 0.683162 0.000000
0.351110 0.718410 0.000000
0.355230 0.721523 0.000000
0.361913 0.724880 0.000000
0.371893 0.728023 0.000000
0.385351 0.730404 0.000000
0.402106 0.731716 0.000000
0.422034 0.732418 0.000000
0.445106 0.733211 0.000000
0.471809 0.734401 0.000000
0.502007 0.736019 0.000000
0.534630 0.738308 0.000000
0.552758 0.731746 0.000000
0.569787 0.723507 0.000000
0.586664 0.713985 0.000000
0.602747 0.702907 0.000000
0.617456 0.690181 0.000000
0.630518 0.675776 0.000000
0.642084 0.659815 0.000000
0.645289 0.636500 0.000000
0.638911 0.603082 0.000000
0.631403 0.567315 0.000000
0.624353 0.530571 0.018463
0.640589 0.512993 0.053437
0.706783 0.543664 0.000000
0.775296 0.579370 0.000000
0.838010 0.611139 0.000000
0.893767 0.637049 0.000000
0.943664 0.657496 0.000000
0.987854 0.673304 0.000000
1.000000 0.685023 0.000000
1.000000 0.693416 0.000000
1.000000 0.699123 0.000000
0.390234 0.758694 0.000000
0.393835 0.761257 0.000000
0.400092 0.764034 0.000000
0.409186 0.766659 0.000000
0.421210 0.768582 0.000000
0.436164 0.769619 0.000000
0.454170 0.770291 0.000000
0.475380 0.770871 0.000000
0.499825 0.771817 0.000000
0.527062 0.773007 0.000000
0.557366 0.774655 0.000000
0.582361 0.773037 0.000000
0.598810 0.766049 0.000000
0.615076 0.757839 0.000000
0.631128 0.748501 0.000000
0.646754 0.738033 0.000000
0.661860 0.726711 0.000000
0.676204 0.714412 0.000000
0.689601 0.701350 0.000000
0.694667 0.680537 0.000000
0.691646 0.650782 0.000000
0.687770 0.618158 0.000000
0.681941 0.582269 0.000000
0.700191 0.565637 0.000000
0.756344 0.588739 0.000000
0.823758 0.625086 0.000000
0.883513 0.654627 0.000000
0.936400 0.677455 0.000000
0.982879 0.695033 0.000000
1.000000 0.707759 0.000000
1.000000 0.716732 0.000000
1.000000 0.722835 0.000000
0.447944 0.810849 0.000000
0.449775 0.811765 0.000000
0.453223 0.812497 0.000000
0.459449 0.812985 0.000000
0.468574 0.813199 0.000000
0.480476 0.813077 0.000000
0.495583 0.812985 0.000000
0.514305 0.813077 0.000000
0.535790 0.813565 0.000000
0.560815 0.814511 0.000000
0.587793 0.815732 0.000000
0.617029 0.817105 0.000000
0.633997 0.812039 0.000000
0.649866 0.805478 0.000000
0.665980 0.797604 0.000000
0.681758 0.788907 0.000000
0.697017 0.779232 0.000000
0.711849 0.768521 0.000000
0.725704 0.756802 0.000000
0.738827 0.744137 0.000000
0.742245 0.722774 0.000000
0.738918 0.693629 0.000000
0.734524 0.661524 0.000000
0.728695 0.625971 0.000000
0.744320 0.607416 0.000000
0.790066 0.621118 0.000000
0.855375 0.656031 0.000000
0.913024 0.683558 0.000000
0.963531 0.704555 0.000000
1.000000 0.719905 0.000000
1.000000 0.730892 0.000000
1.000000 0.738399 0.000000
0.485267 0.842496 0.050385
0.486427 0.843168 0.063416
0.489845 0.843748 0.066773
0.495552 0.844205 0.072328
0.503075 0.844419 0.078553
0.513725 0.844358 0.074189
0.527001 0.844297 0.076875
0.543603 0.844388 0.071473
0.562493 0.844724 0.079347
0.584924 0.845304 0.084901
0.609247 0.846159 0.092073
0.635706 0.847135 0.098329
0.658900 0.845914 0.094484
0.674525 0.840696 0.053346
0.690517 0.834623 0.000000
0.706661 0.827848 0.000000
0.722866 0.820371 0.000000
0.738766 0.812100 0.000000
0.754482 0.802914 0.000000
0.769558 0.793057 0.000000
0.783902 0.782284 0.000000
0.787808 0.762295 0.000000
0.785855 0.735531 0.000000
0.783139 0.706081 0.000000
0.769467 0.664485 0.000000
0.783474 0.645563 0.000000
0.821744 0.651362 0.000000
0.884672 0.684291 0.000000
0.940063 0.709773 0.000000
0.987976 0.728786 0.000000
1.000000 0.742611 0.000000
1.000000 0.752407 0.000000
0.527886 0.877104 0.186252
0.529747 0.878019 0.189914
0.532250 0.878477 0.191714
0.536614 0.878325 0.190341
0.542382 0.877745 0.189456
0.550408 0.876890 0.186709
0.560845 0.875883 0.183261
0.573877 0.874876 0.180850
0.589929 0.874052 0.177981
0.608453 0.873503 0.177340
0.629297 0.873075 0.177035
0.652674 0.872984 0.177737
0.677760 0.872923 0.179629
0.693599 0.868620 0.167269
0.707942 0.862913 0.149172
0.722896 0.856596 0.126864
0.738338 0.849699 0.096193
0.754116 0.842588 0.023346
0.770321 0.835142 0.000000
0.786831 0.827420 0.000000
0.803006 0.819181 0.000000
0.818509 0.810147 0.000000
0.822080 0.790829 0.000000
0.820737 0.765805 0.000000
0.818082 0.737484 0.000000
0.814084 0.705867 0.000000
0.826474 0.686305 0.000000
0.856809 0.683955 0.000000
0.916442 0.713741 0.000000
0.968261 0.736324 0.000000
1.000000 0.753017 0.000000
1.000000 0.765164 0.000000
0.553857 0.897887 0.237186
0.555474 0.898680 0.240146
0.558282 0.899168 0.241703
0.562005 0.899260 0.242771
0.567895 0.899138 0.242252
0.575525 0.898924 0.242283
0.585595 0.898650 0.242496
0.598383 0.898466 0.243076
0.613672 0.898375 0.243259
0.631128 0.898344 0.245487
0.650690 0.898344 0.246952
0.671839 0.898405 0.250217
0.694942 0.898314 0.252537
0.715816 0.896880 0.250156
0.729854 0.892393 0.236973
0.744442 0.887388 0.222324
0.759792 0.881804 0.205112
0.775540 0.876066 0.187808
0.792050 0.870085 0.167910
0.809110 0.863920 0.145785
0.826261 0.857511 0.120943
0.843442 0.850523 0.077699
0.859892 0.842893 0.000000
0.863828 0.824826 0.000000
0.864225 0.802274 0.000000
0.863951 0.777310 0.000000
0.862974 0.749722 0.000000
0.875517 0.731197 0.000000
0.901549 0.724208 0.034760
0.956756 0.750057 0.075257
1.000000 0.768978 0.121706
1.000000 0.782254 0.160250
0.584833 0.920439 0.301915
0.585779 0.920775 0.303777
0.587549 0.920897 0.304234
0.590784 0.920867 0.304540
0.595636 0.920653 0.304448
0.602441 0.920348 0.303532
0.611231 0.920012 0.303441
0.622431 0.919646 0.303105
0.635584 0.919341 0.304143
0.651148 0.919158 0.304875
0.668452 0.918944 0.307103
0.687922 0.918791 0.309331
0.708827 0.918578 0.311803
0.731197 0.918242 0.314061
0.746670 0.915251 0.305486
0.760800 0.911223 0.292393
0.775631 0.906859 0.279240
0.791165 0.902251 0.264530
0.807736 0.897490 0.249699
0.824918 0.892729 0.235477
0.842588 0.887724 0.219303
0.860441 0.882383 0.201999
0.878080 0.876402 0.181277
0.895476 0.869749 0.154788
0.899321 0.852537 0.140932
0.900969 0.832151 0.127626
0.902464 0.809812 0.116487
0.903593 0.785092 0.107088
0.915770 0.767483 0.118044
0.942748 0.761898 0.152346
0.988434 0.779263 0.185061
1.000000 0.794888 0.221958
0.610681 0.938262 0.357671
0.611414 0.938506 0.359197
0.613123 0.938689 0.360204
0.616236 0.938750 0.360906
0.620905 0.938781 0.361791
0.627558 0.938933 0.363500
0.636744 0.939361 0.367224
0.648157 0.939879 0.371923
0.661707 0.940581 0.377539
0.677180 0.941375 0.384894
0.694636 0.942199 0.392554
0.713405 0.942870 0.400336
0.733425 0.943389 0.407904
0.754513 0.943603 0.414405
0.774075 0.942962 0.416663
0.787778 0.940307 0.407843
0.802121 0.937316 0.397345
0.817350 0.934051 0.386511
0.833616 0.930694 0.374914
0.850584 0.927306 0.364691
0.868406 0.923705 0.353368
0.886687 0.919921 0.341405
0.905241 0.915679 0.327642
0.923888 0.911070 0.312444
0.942626 0.905913 0.294591
0.947204 0.890318 0.283024
0.951171 0.873014 0.272129
0.955291 0.853910 0.260777
0.959289 0.833127 0.249424
0.970733 0.816434 0.252720
0.995758 0.811276 0.285618
1.000000 0.820706 0.327672
0.650446 0.960723 0.454994
0.650752 0.960723 0.455116
0.651911 0.960662 0.454749
0.653956 0.960510 0.454383
0.657588 0.960296 0.454353
0.662745 0.960082 0.454047
0.669612 0.959899 0.454597
0.678370 0.959686 0.455726
0.688960 0.959564 0.457374
0.701381 0.959442 0.460182
0.715450 0.959319 0.463325
0.731075 0.959197 0.467231
0.748257 0.958984 0.470954
0.766415 0.958648 0.474952
