20 Preset/Travel Style/【3】LUT video cho PR-AE-FCPX/Green Moody - Lut (4).cube
# Created by Adobe Lightroom plugin Export LUT (1.24.0)
# www.johnrellis.com/lightroom/exportlut.htm
# Preset: 04自然风光-冷调-素材江湖
# Color profile: E:\lut插件\exportlut.1.24\exportlut.lrplugin\color profiles\Rec709gamma2.4.icc
LUT_3D_SIZE 8
DOMAIN_MIN 0.000000 0.000000 0.000000
DOMAIN_MAX 0.903226 0.903226 0.903226
0.187961 0.186221 0.171572
0.196201 0.186923 0.171786
0.257237 0.190341 0.170871
0.413001 0.201755 0.162264
0.594446 0.223911 0.142245
0.751431 0.250919 0.113191
0.899077 0.281956 0.048127
1.000000 0.311406 0.004852
0.188205 0.195499 0.171817
0.194522 0.193149 0.174105
0.241855 0.200381 0.170077
0.379400 0.218936 0.161563
0.562737 0.244968 0.141543
0.723690 0.270237 0.112184
0.873686 0.297856 0.040711
0.997284 0.324529 0.000000
0.180087 0.258244 0.165072
0.196719 0.259281 0.163882
0.235080 0.236210 0.181735
0.336706 0.262974 0.161898
0.466499 0.283665 0.140810
0.646052 0.320378 0.104097
0.819913 0.352453 0.000000
0.966369 0.377356 0.000000
0.139132 0.391333 0.129305
0.172152 0.391119 0.126741
0.264530 0.384039 0.133577
0.343694 0.350652 0.206760
0.432837 0.362097 0.213352
0.552483 0.364294 0.095918
0.683345 0.383734 0.000000
0.879606 0.430915 0.000000
0.000000 0.519768 0.000000
0.107210 0.518669 0.000000
0.237491 0.515068 0.000000
0.367590 0.500175 0.123201
0.457374 0.468849 0.267582
0.495460 0.457893 0.360357
0.660365 0.469306 0.045777
0.730892 0.447578 0.000000
0.000000 0.632136 0.000000
0.000000 0.633875 0.000000
0.195956 0.630518 0.000000
0.338415 0.622919 0.000000
0.475746 0.604334 0.189212
0.563958 0.578576 0.358526
0.574182 0.564538 0.520195
0.777371 0.605493 0.282475
0.000000 0.758328 0.000000
0.000000 0.758419 0.000000
0.127504 0.755795 0.000000
0.304631 0.750607 0.000000
0.462135 0.740841 0.000000
0.600946 0.725856 0.295720
0.689723 0.707515 0.462989
0.713222 0.699733 0.634516
0.000000 0.889250 0.000000
0.000000 0.889128 0.000000
0.075349 0.888945 0.000000
0.286473 0.888731 0.000000
0.429328 0.879667 0.000000
0.611383 0.871916 0.245426
0.748318 0.859770 0.470161
0.829862 0.844694 0.647242
0.190799 0.187350 0.178408
0.199283 0.186160 0.179507
0.258396 0.182895 0.179355
0.417823 0.191135 0.177890
0.597345 0.211704 0.164401
0.751980 0.242130 0.147433
0.891173 0.275761 0.130922
1.000000 0.309789 0.131014
0.190677 0.194186 0.178531
0.197177 0.196262 0.179690
0.252171 0.200931 0.179294
0.393896 0.214115 0.173739
0.573907 0.237186 0.159609
0.730465 0.263859 0.142031
0.872770 0.292790 0.123110
0.993133 0.322759 0.118532
0.177371 0.257816 0.177707
0.193179 0.259251 0.175875
0.241245 0.243107 0.192203
0.347539 0.265995 0.167636
0.482399 0.285161 0.147890
0.651667 0.316716 0.124178
0.814939 0.345922 0.090089
0.960388 0.372595 0.037415
0.125277 0.388495 0.151308
0.162051 0.388312 0.148440
0.258549 0.384527 0.147311
0.342535 0.349706 0.219089
0.431037 0.359716 0.217380
0.541588 0.355016 0.112520
0.681880 0.379492 0.021424
0.874174 0.424872 0.000000
0.000000 0.519066 0.097536
0.088991 0.517693 0.091829
0.231022 0.513878 0.039185
0.364324 0.498116 0.145235
0.454841 0.466224 0.277409
0.495918 0.457130 0.358953
0.656092 0.464393 0.084535
0.720363 0.439002 0.000000
0.000000 0.629114 0.000000
0.000000 0.628534 0.000000
0.191318 0.625574 0.000000
0.332250 0.619165 0.000000
0.473091 0.601404 0.205081
0.562737 0.577386 0.366003
0.572900 0.564233 0.523064
0.774166 0.601282 0.281041
0.000000 0.753933 0.000000
0.000000 0.752682 0.000000
0.123476 0.749874 0.000000
0.300084 0.745602 0.000000
0.457618 0.737179 0.000000
0.597467 0.722316 0.302342
0.685359 0.703029 0.463722
0.708064 0.695003 0.631891
0.000000 0.885435 0.000000
0.000000 0.885924 0.000000
0.067475 0.885588 0.000000
0.283818 0.885466 0.000000
0.429480 0.882292 0.000000
0.611231 0.873014 0.257664
0.747555 0.859251 0.473854
0.829282 0.844053 0.649012
0.205234 0.188937 0.228428
0.220737 0.186069 0.232700
0.274083 0.178164 0.234684
0.378241 0.158236 0.237064
0.617243 0.088624 0.246128
0.799435 0.286687 0.318914
0.925292 0.326513 0.318822
1.000000 0.369604 0.331334
0.201694 0.206149 0.226688
0.214023 0.203525 0.230594
0.273381 0.191379 0.235630
0.396429 0.173922 0.237797
0.622492 0.187594 0.255009
0.783932 0.294865 0.300237
0.910521 0.332464 0.302922
1.000000 0.372717 0.316930
0.200687 0.256748 0.232853
0.213230 0.260563 0.235966
0.266484 0.275608 0.242527
0.398718 0.277531 0.228458
0.565698 0.303990 0.232731
0.717464 0.333501 0.240299
0.862181 0.365759 0.251133
0.984680 0.398627 0.271244
0.119539 0.402167 0.247410
0.151247 0.405158 0.244541
0.250065 0.405829 0.228550
0.371160 0.380255 0.280491
0.476417 0.384863 0.245243
0.571405 0.356756 0.151766
0.744869 0.397406 0.151461
0.914275 0.436103 0.165866
0.000000 0.529076 0.234470
0.096529 0.528313 0.230472
0.228000 0.525414 0.213718
0.366949 0.514977 0.221012
0.473640 0.485939 0.336187
0.525322 0.480354 0.379706
0.668727 0.464057 0.135531
0.756527 0.447150 0.000000
0.000000 0.636408 0.222141
0.000000 0.636011 0.218357
0.202213 0.632990 0.200168
0.329900 0.625574 0.163363
0.478096 0.609796 0.268956
0.572259 0.587396 0.405982
0.594141 0.581415 0.533318
0.784726 0.602655 0.290837
0.000000 0.758755 0.211154
0.000000 0.757687 0.205600
0.152316 0.754482 0.180850
0.303014 0.749691 0.118318
0.452186 0.741115 0.149935
0.600702 0.727016 0.344915
0.692042 0.710231 0.492042
0.716396 0.706600 0.656489
0.000000 0.885710 0.240452
0.000000 0.885313 0.234257
0.139742 0.884855 0.209049
0.294499 0.885557 0.145205
0.428229 0.883146 0.000000
0.607477 0.875090 0.296605
0.749050 0.861540 0.496986
0.831693 0.846494 0.664973
0.250736 0.186526 0.368383
0.272099 0.181979 0.371954
0.349645 0.159152 0.379339
0.435737 0.126802 0.366796
0.520806 0.055329 0.339788
0.717525 0.000000 0.358892
0.913939 0.239689 0.409827
1.000000 0.462898 0.522942
0.243137 0.218814 0.368994
0.262943 0.213779 0.371466
0.340887 0.188357 0.378851
0.437720 0.150301 0.369604
0.526177 0.102968 0.339818
0.728084 0.109743 0.364813
0.915282 0.296422 0.423926
1.000000 0.504326 0.547906
0.260868 0.319036 0.364233
0.277501 0.322637 0.366339
0.318273 0.308202 0.377325
0.434485 0.256168 0.376928
0.563043 0.240696 0.355077
0.762509 0.351324 0.417975
0.907195 0.501152 0.524376
1.000000 0.522942 0.528313
0.243046 0.407507 0.375158
0.261295 0.409522 0.377142
0.325597 0.419409 0.386572
0.416297 0.436561 0.393286
0.542168 0.414557 0.354223
0.684230 0.442115 0.374548
0.831785 0.475105 0.397620
0.958801 0.507012 0.424292
0.239017 0.542535 0.400427
0.256107 0.542870 0.399969
0.314977 0.546197 0.398352
0.391394 0.543969 0.373877
0.507103 0.521447 0.430030
0.576928 0.512963 0.410773
0.667445 0.442786 0.210452
0.850462 0.487312 0.222416
0.225986 0.656245 0.400793
0.240574 0.657527 0.399573
0.288426 0.654017 0.385931
0.368322 0.647944 0.358770
0.491737 0.634150 0.367315
0.595483 0.612268 0.473030
0.637995 0.612146 0.544884
0.806210 0.598474 0.294804
0.141939 0.767269 0.384222
0.167147 0.767056 0.381445
0.240421 0.765103 0.368353
0.336706 0.761013 0.340246
0.446296 0.751827 0.293278
0.606409 0.738857 0.410529
0.703365 0.722133 0.541924
0.727657 0.723934 0.695308
0.114717 0.888823 0.395850
0.144533 0.888670 0.392615
0.224125 0.888151 0.378515
0.324163 0.887510 0.348791
0.434180 0.886046 0.292027
0.594476 0.879179 0.349737
0.750027 0.865171 0.534600
0.836149 0.850950 0.692561
0.316777 0.202152 0.530541
0.335058 0.197330 0.532036
0.401343 0.170901 0.533562
0.509880 0.036774 0.534386
0.596857 0.000000 0.510491
0.650446 0.000000 0.453529
0.785245 0.000000 0.447974
0.984070 0.221805 0.510002
0.316197 0.249485 0.530632
0.333288 0.244114 0.532250
0.396429 0.216953 0.533989
0.504417 0.137972 0.534112
0.596887 0.000000 0.511803
0.652338 0.000000 0.453895
0.794797 0.000000 0.453346
0.985229 0.274388 0.518761
0.339178 0.379187 0.528313
0.352880 0.378759 0.528923
0.390234 0.354528 0.530816
0.482673 0.297826 0.532555
0.590356 0.231815 0.514244
0.653956 0.194369 0.454231
0.824918 0.256321 0.483101
0.986908 0.416999 0.555566
0.380957 0.478401 0.525170
0.392157 0.480323 0.526024
0.433478 0.489082 0.530388
0.475563 0.479347 0.535882
0.570092 0.419928 0.523583
0.680018 0.402777 0.493782
0.864927 0.509758 0.571801
0.968017 0.640803 0.673335
0.363287 0.549157 0.522332
0.374121 0.550378 0.523613
0.413672 0.554986 0.528496
0.476112 0.564416 0.537926
0.547051 0.574151 0.535637
0.647425 0.534386 0.477302
0.800046 0.565881 0.506035
0.931609 0.599908 0.540795
0.343938 0.662135 0.538903
0.352331 0.662715 0.538811
0.383856 0.663386 0.536400
0.436774 0.666163 0.528923
0.503838 0.660365 0.496132
0.623621 0.643122 0.554498
0.691005 0.634760 0.544091
0.805112 0.553857 0.296086
0.309789 0.776974 0.542260
0.316899 0.776455 0.540276
0.346929 0.775570 0.532555
0.391943 0.772763 0.508965
0.468757 0.765469 0.469856
0.600763 0.751705 0.479408
0.715328 0.734798 0.602564
0.755703 0.741939 0.700801
0.292454 0.886320 0.546777
0.297673 0.886137 0.543725
0.320928 0.885649 0.531273
0.374395 0.886656 0.509209
0.450324 0.885679 0.466560
0.557702 0.881773 0.407630
0.743923 0.867521 0.574304
0.837613 0.852445 0.720821
0.398474 0.265721 0.684230
0.411719 0.260868 0.684810
0.461250 0.237034 0.683894
0.548669 0.169406 0.682490
0.660151 0.000000 0.671443
0.739132 0.000000 0.642634
0.778378 0.000000 0.574334
0.883330 0.000000 0.549706
0.401801 0.309606 0.679744
0.413245 0.304509 0.679713
0.458900 0.280827 0.679561
0.542473 0.222049 0.678370
0.653651 0.000000 0.667933
0.734524 0.000000 0.639704
0.775814 0.000000 0.572442
0.880980 0.000000 0.547265
0.431067 0.436896 0.680781
0.438025 0.432380 0.680690
0.469703 0.412696 0.680781
0.534905 0.365911 0.677577
0.641932 0.274205 0.671199
0.729458 0.210422 0.642451
0.778256 0.176089 0.576959
0.885924 0.000000 0.548516
0.481422 0.560754 0.683986
0.484291 0.558221 0.683742
0.499336 0.548882 0.684291
0.542016 0.526116 0.684443
0.622980 0.465278 0.679072
0.720638 0.400702 0.653590
0.783566 0.351934 0.590204
0.929503 0.377081 0.603174
0.489540 0.624079 0.675288
0.496925 0.625147 0.675776
0.526665 0.629877 0.678218
0.577325 0.639734 0.683772
0.616236 0.628687 0.684565
0.696254 0.556909 0.661433
0.801724 0.522759 0.622309
0.942351 0.653925 0.713100
0.458076 0.684413 0.664210
0.466621 0.685817 0.665766
0.495247 0.687648 0.667994
0.544182 0.691432 0.672511
0.606897 0.697292 0.679194
0.672602 0.702327 0.674006
0.770993 0.651423 0.602350
0.909056 0.694392 0.654566
0.467689 0.787350 0.686030
0.473457 0.787961 0.686580
0.493080 0.788418 0.685847
0.528344 0.789273 0.683192
0.575952 0.789944 0.673945
0.621057 0.780301 0.626490
0.742397 0.762722 0.688899
0.809873 0.756924 0.679316
0.473884 0.886412 0.700496
0.476478 0.886137 0.699214
0.490272 0.885985 0.695308
0.517906 0.886625 0.687129
0.543389 0.886534 0.659388
0.591272 0.884611 0.606104
0.731685 0.874540 0.628412
0.843656 0.858427 0.762203
0.490272 0.364019 0.809873
0.499458 0.361273 0.810971
0.532311 0.341741 0.810452
0.595850 0.295567 0.810330
0.688533 0.183291 0.807675
0.797452 0.000000 0.791043
0.875853 0.000000 0.768948
0.900023 0.000000 0.692103
0.491920 0.392096 0.803586
0.500725 0.389654 0.805081
0.531365 0.370672 0.804929
0.590814 0.326055 0.804074
0.680781 0.228305 0.801053
0.787991 0.000000 0.783841
0.865202 0.000000 0.760220
0.889586 0.000000 0.683528
0.516625 0.492103 0.804410
0.521996 0.488441 0.804440
0.544488 0.471626 0.803525
0.593133 0.435828 0.802426
0.672023 0.366094 0.798764
0.778714 0.241642 0.785153
0.863127 0.157534 0.764279
0.896727 0.123262 0.692439
0.569818 0.618982 0.806027
0.574456 0.618006 0.805234
0.583642 0.604334 0.803891
0.609125 0.574578 0.803708
0.664637 0.518547 0.800809
0.764645 0.428992 0.792721
0.855802 0.365301 0.770901
0.899351 0.320531 0.701106
0.628901 0.711971 0.802090
0.632044 0.711849 0.801328
0.645350 0.712642 0.801419
0.649836 0.697322 0.802274
0.672267 0.665858 0.799161
0.734524 0.590173 0.792294
0.834043 0.509667 0.770443
0.899382 0.450477 0.705928
0.612177 0.749294 0.795560
0.616968 0.750149 0.796109
0.635340 0.752865 0.797757
0.668727 0.758358 0.801297
0.713588 0.766812 0.806699
0.743526 0.755673 0.807401
0.808835 0.680629 0.783841
0.900328 0.624872 0.732998
0.579797 0.802121 0.790158
0.585443 0.802884 0.791073
0.603510 0.803433 0.792081
0.637507 0.805112 0.794583
0.682399 0.807065 0.797665
0.735195 0.810330 0.802182
0.784848 0.810025 0.794339
0.879301 0.769528 0.739742
0.613367 0.884916 0.811276
0.616327 0.885191 0.811521
0.629847 0.886931 0.813199
0.650507 0.888334 0.813352
0.677790 0.889586 0.810575
0.709743 0.890715 0.800351
0.738674 0.886046 0.751553
0.856077 0.870603 0.816922
0.580224 0.469795 0.898283
0.585595 0.467475 0.898833
0.604913 0.451362 0.898497
0.646845 0.419226 0.899870
0.713039 0.353491 0.901061
0.806729 0.193942 0.901244
0.917876 0.000000 0.889769
0.998260 0.000000 0.878050
0.581964 0.486854 0.895171
0.587213 0.484413 0.895811
0.606134 0.469520 0.896086
0.645991 0.437659 0.897185
0.710384 0.375463 0.898375
0.802609 0.235660 0.898558
0.912810 0.000000 0.886625
0.992981 0.000000 0.874113
0.602289 0.559442 0.891569
0.605615 0.556573 0.891844
0.619013 0.541375 0.891997
0.653010 0.514427 0.894804
0.708156 0.459541 0.895567
0.793393 0.358434 0.895109
0.903136 0.191745 0.885008
0.986450 0.000000 0.872587
0.646601 0.664820 0.887022
0.648676 0.662776 0.887480
0.655177 0.650935 0.887938
0.673671 0.627070 0.889738
0.711086 0.581506 0.891508
0.780789 0.499947 0.892576
0.887907 0.381933 0.885832
0.977630 0.307408 0.873533
0.690944 0.750820 0.884428
0.692256 0.750057 0.885008
0.696559 0.744869 0.885283
0.714137 0.738521 0.885832
0.727687 0.704952 0.886809
0.769070 0.643824 0.887633
0.862516 0.537285 0.885618
0.962646 0.460151 0.873808
0.728969 0.810666 0.883146
0.730739 0.810636 0.882902
0.740078 0.811826 0.882902
0.760616 0.816617 0.884733
0.766537 0.805509 0.887846
0.785153 0.780056 0.889921
0.839994 0.712520 0.891020
0.941039 0.633265 0.880522
0.724025 0.848661 0.886931
0.726375 0.848814 0.886992
0.736324 0.849790 0.887572
0.757107 0.852873 0.889708
0.787778 0.858335 0.893614
0.827390 0.867643 0.900298
0.848234 0.855619 0.901518
0.905180 0.782162 0.882719
0.699977 0.894408 0.887327
0.701991 0.894316 0.887297
0.711818 0.894560 0.887755
0.732082 0.895720 0.889403
0.761776 0.897642 0.892058
0.799313 0.899596 0.895048
0.843137 0.902190 0.898802
0.883299 0.900084 0.892699
