20 Preset/Travel Style/【3】LUT video cho PR-AE-FCPX/Green Moody - Lut (21).cube
# Created by Adobe Lightroom plugin Export LUT (1.24.0)
# www.johnrellis.com/lightroom/exportlut.htm
# Preset: 21自然风光-日落-素材江湖
# Color profile: E:\lut插件\exportlut.1.24\exportlut.lrplugin\color profiles\Rec709gamma2.4.icc
LUT_3D_SIZE 5
DOMAIN_MIN 0.000000 0.000000 0.000000
DOMAIN_MAX 0.903226 0.903226 0.903226
0.106264 0.126650 0.134646
0.233738 0.124269 0.142763
0.593408 0.110323 0.131960
0.937560 0.150881 0.149264
1.000000 0.291630 0.284916
0.115572 0.247501 0.142397
0.259983 0.264836 0.131838
0.612299 0.306920 0.091096
0.929564 0.329564 0.129061
1.000000 0.390845 0.297520
0.186069 0.564446 0.173739
0.311711 0.559960 0.172793
0.651179 0.632288 0.139406
0.924590 0.619501 0.165499
1.000000 0.606989 0.322026
0.363775 0.821805 0.371405
0.423255 0.814725 0.374273
0.633417 0.834501 0.394629
0.892363 0.852110 0.440040
1.000000 0.817563 0.546960
0.661158 0.995575 0.771450
0.682460 0.994385 0.775570
0.747158 0.987121 0.769039
0.886381 0.990692 0.789883
1.000000 0.979553 0.807767
0.070161 0.134737 0.222721
0.229282 0.121706 0.238376
0.576349 0.095399 0.249332
0.896574 0.195956 0.294194
1.000000 0.323491 0.388312
0.000000 0.274937 0.243198
0.261936 0.275090 0.246799
0.601190 0.306065 0.254765
0.898253 0.335912 0.291051
1.000000 0.403845 0.394232
0.178347 0.571862 0.295628
0.305394 0.557733 0.297185
0.623621 0.613611 0.306340
0.899779 0.611963 0.316228
1.000000 0.615137 0.431495
0.364782 0.824063 0.445502
0.423896 0.817716 0.446784
0.626856 0.832425 0.467659
0.882109 0.850462 0.517052
1.000000 0.821683 0.606653
0.660731 0.995056 0.785641
0.680964 0.993683 0.788388
0.760830 0.991241 0.801816
0.890288 0.992798 0.814878
1.000000 0.981964 0.831449
0.000000 0.139864 0.617914
0.188205 0.120333 0.623377
0.615717 0.000000 0.643549
0.913298 0.214908 0.624445
1.000000 0.443427 0.664820
0.000000 0.339239 0.628382
0.222995 0.328740 0.630396
0.632258 0.319097 0.647700
0.884825 0.391974 0.624537
1.000000 0.510826 0.678218
0.000000 0.672847 0.644648
0.252628 0.664454 0.640192
0.621576 0.658289 0.657527
0.863981 0.648463 0.645228
1.000000 0.660792 0.693690
0.381689 0.846403 0.669795
0.430762 0.836606 0.660609
0.600000 0.826383 0.659388
0.851286 0.852354 0.722408
1.000000 0.837522 0.760037
0.646296 0.993225 0.828397
0.668360 0.992340 0.830747
0.746914 0.988128 0.839078
0.877684 0.989197 0.852110
1.000000 0.980468 0.867918
0.000000 0.227970 0.914519
0.193423 0.223789 0.915068
0.598077 0.168795 0.913664
0.922057 0.234226 0.904326
1.000000 0.467964 0.865202
0.000000 0.417700 0.909789
0.278935 0.411566 0.909178
0.603388 0.376959 0.907073
0.906371 0.409735 0.895933
1.000000 0.550317 0.865965
0.352667 0.710109 0.894469
0.444923 0.713710 0.891752
0.624781 0.704952 0.889036
0.850217 0.701350 0.879301
0.989349 0.734829 0.879698
0.473976 0.895811 0.881346
0.522789 0.891234 0.880308
0.663233 0.876555 0.880430
0.836057 0.872068 0.890929
0.994537 0.860685 0.890349
0.685054 0.997070 0.908782
0.709468 0.995392 0.912230
0.755123 0.992950 0.909575
0.858213 0.987427 0.908202
1.000000 0.981994 0.922972
0.310246 0.397162 1.000000
0.388373 0.393378 1.000000
0.599542 0.377325 1.000000
0.848997 0.306218 1.000000
1.000000 0.433722 0.994263
0.372869 0.508873 1.000000
0.431128 0.504540 1.000000
0.608667 0.485451 1.000000
0.840940 0.424231 1.000000
1.000000 0.516594 0.988922
0.547143 0.752163 0.985046
0.579614 0.753933 0.983856
0.662684 0.734737 0.984100
0.823758 0.687709 0.984985
1.000000 0.730892 0.979156
0.639246 0.898314 0.979004
0.662104 0.897704 0.978424
0.751827 0.900511 0.977966
0.857877 0.897734 0.980316
0.995270 0.892760 0.977447
0.695430 1.000000 0.970245
0.711727 1.000000 0.970397
0.782101 0.999420 0.972198
0.876860 0.991547 0.974334
0.987152 0.983124 0.979767
