20 Preset/Travel Style/【3】LUT video cho PR-AE-FCPX/Green Moody - Lut (13).cube
# Created by Adobe Lightroom plugin Export LUT (1.24.0)
# www.johnrellis.com/lightroom/exportlut.htm
# Preset: 13自然风光-暗黑冰岛-素材江湖
# Color profile: E:\lut插件\exportlut.1.24\exportlut.lrplugin\color profiles\Rec709gamma2.4.icc
LUT_3D_SIZE 32
DOMAIN_MIN 0.0 0.0 0.0
DOMAIN_MAX 1.0 1.0 1.0
0.170077 0.212589 0.214298
0.170077 0.212589 0.214298
0.170077 0.212589 0.214298
0.170077 0.212589 0.214298
0.170077 0.212589 0.214298
0.170077 0.212589 0.214298
0.169131 0.212680 0.214298
0.168002 0.212650 0.214328
0.167697 0.212680 0.214328
0.168307 0.212619 0.214328
0.170871 0.212650 0.214298
0.176150 0.212711 0.214206
0.185977 0.212741 0.213809
0.200717 0.213077 0.213260
0.222080 0.213779 0.212345
0.252110 0.215183 0.211337
0.292241 0.217899 0.209842
0.345159 0.221866 0.207797
0.406836 0.227665 0.205203
0.475990 0.235355 0.201877
0.550103 0.245151 0.197818
0.625635 0.257115 0.193393
0.698665 0.270420 0.189761
0.767727 0.285710 0.188266
0.832273 0.302800 0.190951
0.887633 0.321416 0.201083
0.934478 0.343084 0.220493
0.974395 0.367498 0.249393
1.000000 0.395911 0.286503
1.000000 0.429084 0.331304
1.000000 0.467170 0.382452
1.000000 0.510369 0.439216
0.170077 0.212589 0.214298
0.170077 0.212589 0.214298
0.170077 0.212589 0.214298
0.170077 0.212589 0.214298
0.170077 0.212589 0.214298
0.170077 0.212589 0.214298
0.169131 0.212680 0.214298
0.168002 0.212650 0.214328
0.167697 0.212680 0.214328
0.168612 0.212589 0.214328
0.171481 0.212619 0.214298
0.177493 0.212741 0.214176
0.187930 0.212802 0.213748
0.203616 0.213169 0.213169
0.226444 0.213993 0.212222
0.257786 0.215610 0.211154
0.300175 0.218631 0.209476
0.354894 0.222934 0.207370
0.418891 0.229160 0.204746
0.490028 0.237308 0.201144
0.565759 0.247898 0.196994
0.641993 0.260136 0.192569
0.714504 0.274144 0.189395
0.782803 0.290043 0.188724
0.845151 0.307530 0.192905
0.898436 0.326970 0.205356
0.943725 0.348974 0.227115
0.981872 0.374426 0.258030
1.000000 0.403754 0.296788
1.000000 0.437659 0.342687
1.000000 0.476570 0.394995
1.000000 0.520592 0.452308
0.170077 0.212589 0.214298
0.170077 0.212589 0.214298
0.170077 0.212589 0.214298
0.170077 0.212589 0.214298
0.170077 0.212589 0.214298
0.170077 0.212589 0.214298
0.169131 0.212680 0.214298
0.168002 0.212650 0.214328
0.167697 0.212680 0.214328
0.168612 0.212589 0.214328
0.171389 0.212741 0.214267
0.177829 0.212711 0.214054
0.188418 0.212894 0.213596
0.204715 0.213291 0.212894
0.228367 0.214389 0.212009
0.261112 0.216373 0.210941
0.305516 0.219760 0.209293
0.361608 0.224643 0.207218
0.426429 0.231388 0.204501
0.498085 0.240208 0.201083
0.574182 0.251469 0.197024
0.650111 0.264195 0.192905
0.721736 0.278508 0.190341
0.789975 0.294835 0.190402
0.851286 0.312810 0.196109
0.903471 0.332677 0.210117
0.947784 0.355230 0.233707
0.985016 0.381292 0.265934
1.000000 0.411200 0.305943
1.000000 0.446021 0.352972
1.000000 0.485603 0.405921
1.000000 0.529870 0.463416
0.170077 0.212589 0.214298
0.170077 0.212589 0.214298
0.170077 0.212589 0.214298
0.170077 0.212589 0.214298
0.170077 0.212589 0.214298
0.170077 0.212589 0.214298
0.169436 0.212650 0.214298
0.168307 0.212619 0.214328
0.167788 0.212528 0.214359
0.168429 0.212467 0.214359
0.171023 0.212528 0.214176
0.177157 0.212650 0.213809
0.187991 0.212955 0.213230
0.204532 0.213718 0.212589
0.228885 0.215213 0.211887
0.263127 0.217807 0.210697
0.311284 0.221836 0.209293
0.369726 0.227878 0.207187
0.437964 0.235996 0.204471
0.512596 0.246372 0.201175
0.590875 0.258793 0.197391
0.666285 0.272740 0.194156
0.735958 0.287877 0.192721
0.801511 0.304540 0.194583
0.858946 0.322576 0.202640
0.908293 0.342535 0.218906
0.950225 0.365270 0.243900
0.985901 0.390845 0.276463
1.000000 0.421118 0.316899
1.000000 0.456001 0.364324
1.000000 0.496254 0.418036
1.000000 0.541466 0.476692
0.170077 0.212589 0.214298
0.170077 0.212589 0.214298
0.170077 0.212589 0.214298
0.170077 0.212589 0.214298
0.170077 0.212589 0.214298
0.169741 0.212619 0.214298
0.169741 0.212619 0.214298
0.169100 0.212436 0.214206
0.168124 0.212253 0.214115
0.168307 0.212131 0.213901
0.170932 0.212161 0.213718
0.176547 0.212589 0.213321
0.186923 0.213199 0.212955
0.203616 0.214450 0.212497
0.228946 0.216464 0.211826
0.265385 0.219791 0.211002
0.313664 0.224949 0.209812
0.372961 0.232151 0.208103
0.440803 0.241672 0.205783
0.516350 0.253391 0.203067
0.595300 0.267338 0.199924
0.670741 0.282475 0.197696
0.739651 0.298558 0.197910
0.804227 0.315984 0.201755
0.860594 0.334691 0.212161
0.908690 0.355138 0.230625
0.949981 0.378058 0.257115
0.984863 0.404730 0.291417
1.000000 0.435584 0.333257
1.000000 0.471534 0.382025
1.000000 0.512627 0.436805
1.000000 0.557641 0.494789
0.170504 0.212039 0.214389
0.170504 0.212039 0.214389
0.170199 0.212070 0.214389
0.170199 0.212070 0.214389
0.169894 0.212100 0.214389
0.169680 0.211978 0.214389
0.168856 0.211917 0.214420
0.168490 0.212100 0.214267
0.168826 0.211948 0.213657
0.168734 0.211856 0.213413
0.169863 0.211887 0.213382
0.174258 0.212406 0.213260
0.183719 0.213352 0.212985
0.199893 0.215183 0.212711
0.224796 0.218051 0.212467
0.260197 0.222324 0.212070
0.308110 0.228672 0.211368
0.366735 0.237278 0.210422
0.434699 0.248234 0.208988
0.509636 0.261570 0.207126
0.588312 0.277043 0.205112
0.664332 0.293492 0.204349
0.652644 0.287236 0.202274
0.725246 0.304479 0.203067
0.793332 0.323308 0.208072
0.853330 0.343755 0.220066
0.904234 0.365942 0.240543
0.947417 0.390631 0.269627
0.983520 0.419287 0.306981
1.000000 0.452125 0.351659
1.000000 0.490669 0.403967
1.000000 0.534966 0.462623
0.170535 0.211673 0.214420
0.170535 0.211673 0.214420
0.170535 0.211673 0.214420
0.170230 0.211673 0.214420
0.169924 0.211704 0.214420
0.169711 0.211612 0.214450
0.169406 0.211643 0.214450
0.169100 0.211643 0.214450
0.168460 0.211856 0.214176
0.168673 0.211856 0.213535
0.169039 0.211826 0.213413
0.170657 0.212192 0.213596
0.176150 0.213230 0.213748
0.188144 0.215183 0.213809
0.207706 0.218173 0.214084
0.237736 0.222812 0.214450
0.280308 0.229587 0.214511
0.334569 0.238743 0.214420
0.398383 0.250309 0.214054
0.468482 0.263798 0.213474
0.542138 0.279026 0.212802
0.614008 0.294713 0.212345
0.681270 0.310704 0.213565
0.744900 0.327764 0.217655
0.805570 0.346624 0.226383
0.860380 0.367315 0.242649
0.908415 0.390295 0.266697
0.949462 0.416938 0.299535
0.983734 0.447333 0.339910
1.000000 0.482307 0.387762
1.000000 0.522728 0.442145
1.000000 0.566918 0.499886
0.170413 0.211795 0.214420
0.170413 0.211795 0.214420
0.170413 0.211795 0.214420
0.170413 0.211795 0.214420
0.170108 0.211826 0.214420
0.169986 0.211948 0.214389
0.169894 0.212100 0.214389
0.169986 0.212345 0.214359
0.170443 0.213199 0.214237
0.171298 0.213535 0.213413
0.172427 0.213321 0.213169
0.173251 0.213352 0.213901
0.172457 0.214847 0.216495
0.182528 0.217563 0.217594
0.201450 0.221805 0.218692
0.231510 0.228061 0.219913
0.274510 0.236820 0.221164
0.329900 0.248447 0.222538
0.395758 0.262791 0.223728
0.467933 0.279271 0.224796
0.543847 0.296880 0.225803
0.616663 0.315068 0.227787
0.684413 0.333135 0.231937
0.748104 0.352026 0.239689
0.808255 0.372595 0.252415
0.861662 0.394720 0.272313
0.907866 0.419593 0.300298
0.947387 0.447517 0.335851
0.979706 0.479713 0.378851
1.000000 0.516411 0.428504
1.000000 0.556695 0.482094
1.000000 0.599176 0.536767
0.168826 0.214481 0.214084
0.168826 0.214481 0.214084
0.168826 0.214481 0.214084
0.169131 0.214450 0.214084
0.169436 0.214420 0.214084
0.169436 0.214817 0.214023
0.169650 0.215274 0.213809
0.170260 0.216007 0.213596
0.171572 0.216892 0.213321
0.174411 0.218631 0.212894
0.180545 0.220706 0.212009
0.184115 0.219883 0.212589
0.185763 0.219669 0.215122
0.186313 0.221500 0.220554
0.188876 0.226932 0.228122
0.217319 0.234897 0.230930
0.259770 0.245792 0.233951
0.316106 0.260105 0.237125
0.382818 0.277165 0.240543
0.456825 0.296513 0.244022
0.533349 0.317205 0.247929
0.608667 0.337987 0.252415
0.678157 0.358526 0.259617
0.743160 0.379858 0.270603
0.803738 0.402319 0.286656
0.856474 0.426307 0.310002
0.901732 0.452857 0.340673
0.939879 0.482643 0.378637
0.970825 0.516045 0.423072
0.994873 0.553246 0.472480
1.000000 0.592126 0.523308
1.000000 0.632074 0.574182
0.163363 0.221897 0.212863
0.163363 0.221897 0.212863
0.163577 0.222019 0.212833
0.164553 0.221927 0.212833
0.165774 0.221988 0.212680
0.166751 0.222263 0.212497
0.168032 0.223484 0.212314
0.169986 0.225010 0.211795
0.172946 0.226871 0.211337
0.177615 0.229191 0.210910
0.184665 0.232822 0.210117
0.201266 0.239872 0.208835
0.212100 0.238834 0.211276
0.216190 0.236637 0.217502
0.218326 0.238163 0.227909
0.216587 0.244877 0.243412
0.235019 0.257847 0.256352
0.290562 0.274327 0.261662
0.357610 0.293950 0.267460
0.432380 0.316014 0.273594
0.512505 0.340246 0.280461
0.592828 0.364721 0.288212
0.667109 0.389593 0.299351
0.736263 0.414588 0.314366
0.798245 0.440620 0.334966
0.850645 0.467414 0.362127
0.894347 0.496223 0.395819
0.930388 0.527489 0.435340
0.959380 0.561059 0.478950
0.982086 0.596063 0.524254
0.999573 0.631464 0.569543
1.000000 0.667689 0.615045
0.149477 0.238682 0.209934
0.149722 0.238773 0.209934
0.150820 0.238712 0.209934
0.152560 0.238712 0.209781
0.155612 0.238651 0.209751
0.159823 0.238590 0.209689
0.163394 0.239994 0.209293
0.166934 0.242435 0.208835
0.172335 0.245731 0.208194
0.180270 0.249516 0.207401
0.190890 0.254368 0.206363
0.204807 0.260410 0.205112
0.239628 0.279576 0.202121
0.263462 0.279057 0.207431
0.270878 0.272679 0.219547
0.276097 0.271733 0.237095
0.276188 0.277684 0.261784
0.269169 0.293339 0.293889
0.320592 0.316014 0.308965
0.399451 0.341405 0.317723
0.484230 0.368597 0.326604
0.567987 0.396521 0.336950
0.646357 0.424445 0.350378
0.717708 0.452338 0.367803
0.781399 0.480842 0.390570
0.833860 0.509758 0.419409
0.877073 0.540154 0.454047
0.912932 0.571374 0.491951
0.941833 0.603418 0.531731
0.965087 0.635767 0.572229
0.982818 0.668544 0.613184
0.996246 0.700923 0.653193
0.117647 0.267521 0.204837
0.118166 0.267521 0.204837
0.120882 0.267338 0.204837
0.125551 0.267247 0.204807
0.132631 0.267033 0.204776
0.141909 0.266819 0.204715
0.152163 0.267063 0.204532
0.158877 0.271031 0.203677
0.168215 0.275792 0.202670
0.180240 0.281804 0.201358
0.196078 0.288914 0.199893
0.216159 0.297856 0.197818
0.217838 0.278996 0.201785
0.260044 0.306310 0.196323
0.291539 0.306401 0.202487
0.306432 0.301183 0.216281
0.314519 0.297581 0.237034
0.318700 0.300847 0.264897
0.316075 0.313146 0.300328
0.308507 0.335668 0.340124
0.390356 0.362951 0.350530
0.477699 0.392706 0.361700
0.566369 0.424964 0.375952
0.648035 0.457435 0.394354
0.721981 0.490486 0.417578
0.785214 0.523674 0.446601
0.836393 0.556909 0.480964
0.878264 0.590204 0.518486
0.912383 0.623255 0.557427
0.939391 0.655879 0.596796
0.960510 0.688197 0.636225
0.977173 0.718776 0.673213
0.028626 0.294865 0.199313
0.031189 0.295018 0.199252
0.042664 0.295659 0.199100
0.063386 0.296300 0.198886
0.090181 0.297429 0.198672
0.108644 0.298497 0.198276
0.129366 0.298955 0.198123
0.143740 0.302892 0.197269
0.157107 0.309209 0.195773
0.173861 0.315801 0.194064
0.193790 0.322911 0.192203
0.216831 0.330388 0.190280
0.242618 0.339117 0.188052
0.272496 0.349859 0.185092
0.336034 0.395056 0.169894
0.382696 0.391150 0.185367
0.408942 0.384344 0.211765
0.419409 0.374487 0.249027
0.424598 0.372717 0.292821
0.424018 0.381811 0.341497
0.415259 0.402686 0.393256
0.434577 0.434974 0.435370
0.531609 0.470954 0.451484
0.619013 0.506615 0.470893
0.696040 0.541497 0.493965
0.760678 0.574975 0.520745
0.812711 0.606989 0.550713
0.855344 0.637842 0.582483
0.890105 0.667933 0.615625
0.918242 0.697078 0.648829
0.941222 0.724636 0.680690
0.959838 0.750698 0.711116
0.000000 0.355962 0.183841
0.000000 0.356603 0.183627
0.000000 0.357427 0.183322
0.000000 0.358801 0.182895
0.000000 0.360510 0.182284
0.000000 0.362158 0.181735
0.000000 0.363165 0.181491
0.095430 0.364355 0.181094
0.128359 0.372229 0.178500
0.159548 0.380774 0.175509
0.192081 0.389532 0.172457
0.225650 0.398718 0.168948
0.261265 0.409308 0.164797
0.299565 0.422370 0.159365
0.342626 0.438300 0.152255
0.421027 0.491646 0.118227
0.488319 0.497383 0.148562
0.529931 0.491768 0.201450
0.540093 0.473335 0.265232
0.544823 0.464302 0.326970
0.543145 0.467262 0.388708
0.535546 0.484169 0.451209
0.523369 0.514336 0.512810
0.571893 0.551171 0.547814
0.656458 0.586633 0.567102
0.726558 0.619837 0.589319
0.782254 0.650660 0.614343
0.827451 0.679774 0.641138
0.865019 0.706874 0.667842
0.896025 0.732113 0.694087
0.921355 0.755978 0.719844
0.941985 0.778714 0.745083
0.000000 0.432349 0.154543
0.000000 0.432593 0.154391
0.000000 0.433936 0.153933
0.000000 0.435676 0.152926
0.000000 0.437964 0.151888
0.000000 0.440284 0.150576
0.000000 0.441749 0.149966
0.000000 0.441901 0.149874
0.000000 0.447181 0.147158
0.118257 0.456916 0.141512
0.176913 0.466621 0.135500
0.225834 0.477058 0.128847
0.272709 0.488655 0.120302
0.319951 0.502220 0.109194
0.369268 0.518517 0.094301
0.422400 0.537774 0.056641
0.501396 0.585077 0.000000
0.580652 0.599786 0.092256
0.632685 0.593164 0.201480
0.646998 0.571649 0.291814
0.650080 0.556481 0.370092
0.648035 0.555291 0.443671
0.641749 0.568566 0.512932
0.632349 0.592706 0.574548
0.622705 0.624720 0.629877
0.685908 0.658259 0.653101
0.747494 0.687587 0.672053
0.797543 0.714046 0.691890
0.838621 0.738155 0.712093
0.872465 0.760311 0.732357
0.900267 0.781064 0.752712
0.923064 0.800748 0.773098
0.000000 0.521416 0.083619
0.000000 0.521294 0.083772
0.000000 0.521630 0.083131
0.000000 0.522545 0.080995
0.000000 0.523430 0.079011
0.000000 0.524132 0.077852
0.000000 0.523949 0.078920
0.000000 0.523033 0.081392
0.000000 0.521691 0.086275
0.000000 0.530907 0.059724
0.133516 0.541161 0.024262
0.210452 0.552483 0.000000
0.270726 0.565515 0.000000
0.327276 0.579736 0.000000
0.383185 0.595666 0.000000
0.439857 0.613092 0.000000
0.497627 0.631647 0.000000
0.570916 0.668116 0.000000
0.651637 0.686702 0.057435
0.708858 0.677180 0.233066
0.731899 0.659480 0.335790
0.733700 0.641077 0.426520
0.731014 0.636744 0.505211
0.724514 0.644587 0.572412
0.716335 0.662745 0.630762
0.708156 0.687037 0.680568
0.709682 0.714290 0.719783
0.765560 0.739864 0.734554
0.811154 0.762905 0.750301
0.848539 0.783932 0.766781
0.879545 0.803494 0.783719
0.904936 0.821927 0.801114
0.000000 0.607507 0.000000
0.000000 0.607324 0.000000
0.000000 0.607568 0.000000
0.000000 0.607904 0.000000
0.000000 0.608240 0.000000
0.000000 0.608087 0.000000
0.000000 0.607507 0.000000
0.000000 0.606409 0.000000
0.000000 0.604608 0.000000
0.000000 0.607965 0.000000
0.000000 0.616907 0.000000
0.173770 0.626673 0.000000
0.255650 0.637690 0.000000
0.322179 0.649744 0.000000
0.383154 0.663081 0.000000
0.442145 0.677333 0.000000
0.499855 0.691554 0.000000
0.556634 0.705623 0.000000
0.621180 0.729641 0.000000
0.697200 0.749966 0.147890
0.758480 0.740322 0.290776
0.790951 0.729274 0.396399
0.792569 0.710323 0.489143
0.789578 0.703639 0.564385
0.783749 0.708217 0.627436
0.776883 0.720943 0.679652
0.771084 0.738918 0.722744
0.766659 0.760006 0.759487
0.783078 0.782498 0.784543
0.824369 0.802945 0.797543
0.858457 0.821500 0.811124
0.886473 0.838743 0.825345
0.000000 0.678401 0.000000
0.000000 0.677943 0.000000
0.000000 0.647059 0.000000
0.000000 0.647211 0.000000
0.000000 0.647486 0.000000
0.000000 0.647669 0.000000
0.000000 0.647578 0.000000
0.000000 0.646998 0.000000
0.000000 0.645777 0.000000
0.000000 0.643854 0.000000
0.000000 0.652094 0.000000
0.080232 0.661219 0.000000
0.213565 0.671870 0.000000
0.291630 0.683314 0.000000
0.357366 0.695644 0.000000
0.418524 0.708797 0.000000
0.477821 0.722164 0.000000
0.534966 0.735409 0.000000
0.590661 0.748348 0.000000
0.650477 0.766781 0.048219
0.721462 0.791440 0.208957
0.786343 0.782956 0.344854
0.826261 0.777737 0.448737
0.830686 0.760769 0.538354
0.829099 0.753872 0.611292
0.825437 0.756771 0.670039
0.821439 0.766537 0.717372
0.817777 0.781033 0.756832
0.815091 0.798398 0.790433
0.813840 0.817380 0.819516
0.837675 0.836118 0.835996
0.868711 0.852903 0.847715
0.000000 0.730434 0.000000
0.000000 0.728145 0.000000
0.000000 0.725612 0.000000
0.000000 0.723384 0.000000
0.000000 0.721706 0.000000
0.000000 0.720790 0.000000
0.000000 0.720333 0.000000
0.000000 0.719753 0.000000
0.000000 0.718593 0.000000
0.000000 0.717067 0.000000
0.000000 0.719142 0.000000
0.000000 0.726070 0.000000
0.168032 0.733883 0.000000
0.269383 0.742306 0.000000
0.344182 0.751369 0.000000
0.409400 0.760952 0.000000
0.469429 0.770657 0.000000
0.526787 0.780301 0.000000
0.581811 0.789670 0.009064
0.634424 0.798459 0.147189
0.687953 0.810239 0.214847
0.749538 0.834470 0.301457
0.814603 0.825986 0.424720
0.854215 0.820920 0.519921
0.865049 0.809873 0.599481
0.864103 0.802060 0.663447
0.861814 0.802457 0.713649
0.858824 0.808896 0.755062
0.856016 0.819638 0.789639
0.853971 0.833219 0.819364
0.853300 0.848631 0.845243
0.854398 0.864988 0.867979
0.000000 0.786465 0.000000
0.000000 0.784512 0.000000
0.000000 0.782315 0.000000
0.000000 0.780392 0.000000
0.000000 0.778683 0.000000
0.000000 0.777676 0.000000
0.000000 0.777096 0.000000
0.000000 0.776455 0.000000
0.000000 0.775448 0.000000
0.000000 0.774075 0.000000
0.000000 0.772244 0.000000
0.000000 0.777188 0.000000
0.086213 0.783078 0.000000
0.241581 0.789364 0.000000
0.326421 0.796109 0.000000
0.395819 0.803250 0.000000
0.458350 0.810544 0.000000
0.516320 0.817868 0.067109
0.571038 0.824949 0.160006
0.623041 0.831540 0.216861
0.672358 0.837766 0.267063
0.720333 0.844633 0.318395
0.775875 0.863951 0.397223
0.835630 0.859861 0.498604
0.874235 0.855131 0.583612
0.890715 0.848997 0.651759
0.890715 0.840513 0.706264
0.889220 0.839139 0.750027
0.887053 0.843290 0.786435
0.884916 0.851255 0.817227
0.883543 0.862089 0.843748
0.883268 0.874693 0.866941
0.000000 0.832303 0.000000
0.000000 0.830900 0.000000
0.000000 0.829191 0.000000
0.000000 0.827665 0.000000
0.000000 0.826322 0.000000
0.000000 0.825437 0.000000
0.000000 0.824826 0.000000
0.000000 0.824033 0.000000
0.000000 0.822965 0.000000
0.000000 0.821561 0.000000
0.000000 0.819852 0.000000
0.000000 0.820493 0.000000
0.000000 0.824857 0.000000
0.217166 0.829435 0.000000
0.311803 0.834348 0.000000
0.385077 0.839353 0.000000
0.448615 0.844236 0.124758
0.506279 0.848966 0.182040
0.559930 0.853422 0.228855
0.610315 0.857542 0.271641
0.657679 0.861357 0.313542
0.702632 0.864897 0.355352
0.744564 0.868345 0.396094
0.794369 0.883268 0.464210
0.847471 0.882506 0.547631
0.885374 0.877684 0.623896
0.906981 0.875364 0.682399
0.907439 0.865995 0.731350
0.906401 0.863157 0.771298
0.904784 0.865476 0.804807
0.903258 0.871611 0.833371
0.902251 0.880583 0.858213
0.000000 0.862730 0.000000
0.000000 0.862181 0.000000
0.000000 0.861692 0.000000
0.000000 0.861234 0.000000
0.000000 0.860899 0.000000
0.000000 0.860563 0.000000
0.000000 0.860227 0.000000
0.000000 0.859525 0.000000
0.000000 0.858549 0.000000
0.000000 0.857115 0.000000
0.000000 0.855375 0.000000
0.000000 0.853330 0.000000
0.000000 0.856138 0.000000
0.197238 0.859556 0.000000
0.300664 0.863157 0.104616
0.376165 0.866880 0.162356
0.440345 0.870603 0.207919
0.498604 0.874205 0.249363
0.552117 0.877623 0.289555
0.602472 0.880827 0.329381
0.649287 0.883787 0.367956
0.693355 0.886564 0.406622
0.734218 0.889189 0.443793
0.772244 0.891814 0.480293
0.815488 0.902617 0.537255
0.860960 0.904265 0.605219
0.897093 0.899840 0.669459
0.918669 0.897734 0.719844
0.923186 0.891325 0.762325
0.922667 0.887846 0.798093
0.921660 0.889067 0.828305
0.920562 0.893858 0.854368
0.000000 0.896208 0.000000
0.000000 0.895811 0.000000
0.000000 0.895445 0.000000
0.000000 0.894957 0.000000
0.000000 0.894560 0.000000
0.000000 0.894194 0.000000
0.000000 0.893614 0.000000
0.000000 0.892882 0.000000
0.000000 0.891844 0.000000
0.000000 0.890440 0.000000
0.000000 0.888701 0.000000
0.000000 0.886748 0.100069
0.000000 0.886259 0.146090
0.212467 0.888426 0.183139
0.309667 0.890715 0.218418
0.382483 0.893065 0.252079
0.445045 0.895354 0.285801
0.501213 0.897520 0.319768
0.552880 0.899565 0.353429
0.600916 0.901518 0.387335
0.645655 0.903288 0.420752
0.687404 0.904936 0.453468
0.726009 0.906554 0.485267
0.762051 0.908080 0.516655
0.798764 0.911528 0.557488
0.835111 0.918791 0.602930
0.872190 0.921843 0.653864
0.906371 0.917693 0.708644
0.927245 0.915709 0.752682
0.935302 0.912169 0.790005
0.935149 0.908263 0.822080
0.934417 0.908598 0.849332
0.000000 0.920500 0.000000
0.000000 0.919951 0.000000
0.000000 0.919646 0.000000
0.000000 0.919493 0.000000
0.000000 0.919463 0.000000
0.000000 0.919432 0.027497
0.000000 0.919310 0.097536
0.000000 0.919036 0.130861
0.000000 0.918395 0.157992
0.000000 0.917479 0.184665
0.000000 0.916320 0.209445
0.000000 0.914794 0.233616
0.118959 0.912963 0.258946
0.264897 0.914061 0.285222
0.345617 0.915648 0.313390
0.411505 0.917174 0.342046
0.469215 0.918608 0.370977
0.521141 0.919829 0.399756
0.568475 0.920836 0.427863
0.612177 0.921630 0.455177
0.652918 0.922332 0.482460
0.690944 0.923003 0.509117
0.726772 0.923705 0.536584
0.760433 0.924498 0.564202
0.791592 0.925322 0.591363
0.820310 0.926238 0.617609
0.850675 0.931060 0.652399
0.880522 0.934905 0.691157
0.912963 0.931212 0.739895
0.933135 0.929412 0.779751
0.943999 0.928313 0.813077
0.944060 0.924285 0.842344
0.000000 0.945006 0.225986
0.000000 0.944610 0.223423
0.000000 0.944274 0.223148
0.000000 0.943938 0.225711
0.000000 0.943664 0.231907
0.000000 0.943236 0.239811
0.000000 0.942657 0.249149
0.000000 0.941802 0.261479
0.000000 0.940764 0.273899
0.000000 0.939422 0.288670
0.000000 0.937926 0.304997
0.000000 0.936187 0.322972
0.206058 0.934264 0.341894
0.322057 0.933165 0.363317
0.386481 0.933928 0.386297
0.442542 0.934691 0.410010
0.493385 0.935393 0.434516
0.539696 0.935912 0.458686
0.582452 0.936278 0.482368
0.622065 0.936431 0.505486
0.659113 0.936492 0.528557
0.693904 0.936492 0.551354
0.726741 0.936492 0.574578
0.757382 0.936553 0.597040
0.785885 0.936706 0.619165
0.812406 0.936889 0.640650
0.836667 0.937133 0.660883
0.862211 0.940063 0.687861
0.885496 0.944121 0.716304
0.916747 0.940642 0.761288
0.936431 0.938903 0.798184
0.948211 0.938598 0.829038
0.000000 0.962249 0.327153
0.000000 0.962066 0.326482
0.000000 0.961883 0.327062
0.000000 0.961669 0.329229
0.000000 0.961334 0.333745
0.000000 0.960876 0.340246
0.000000 0.960296 0.347631
0.000000 0.959503 0.357305
0.000000 0.958465 0.368048
0.000000 0.957214 0.379736
0.000000 0.955749 0.392981
0.167941 0.954040 0.407111
0.300633 0.952178 0.423133
0.386297 0.950164 0.440253
0.440040 0.949889 0.458961
0.485389 0.950011 0.478187
0.528130 0.950042 0.498482
0.567651 0.949981 0.518151
0.604700 0.949767 0.537896
0.639551 0.949401 0.557305
0.672328 0.948943 0.576501
0.703120 0.948486 0.595331
0.732143 0.948058 0.613764
0.759548 0.947662 0.632166
0.785245 0.947356 0.650202
0.809293 0.947051 0.667811
0.831601 0.946777 0.684840
0.852262 0.946502 0.701137
0.873350 0.947967 0.721492
0.893004 0.950805 0.744320
0.919921 0.948486 0.781765
0.938842 0.946715 0.815732
0.000000 0.975982 0.419959
0.000000 0.975891 0.419409
0.000000 0.975708 0.419532
0.000000 0.975463 0.421332
0.000000 0.975036 0.423896
0.000000 0.974456 0.427070
0.000000 0.973571 0.430579
0.000000 0.972473 0.435187
0.000000 0.971099 0.439765
0.000000 0.969543 0.445686
0.151919 0.967712 0.452949
0.269352 0.965759 0.461189
0.347784 0.963653 0.471504
0.413489 0.961456 0.483833
0.466804 0.959716 0.497810
0.505180 0.959380 0.513420
0.542199 0.959045 0.530205
0.577508 0.958648 0.547051
0.610986 0.958099 0.564080
0.642573 0.957458 0.580804
0.672328 0.956786 0.597070
0.700679 0.956085 0.613153
0.727718 0.955444 0.629358
0.753323 0.954803 0.645350
0.777676 0.954223 0.661402
0.800412 0.953674 0.676814
0.821805 0.953094 0.692012
0.841703 0.952575 0.706600
0.860105 0.951995 0.720394
0.878599 0.952575 0.736965
0.896391 0.954650 0.756802
0.920104 0.953124 0.789090
0.000000 0.984192 0.473884
0.000000 0.984161 0.474189
0.000000 0.984039 0.475257
0.000000 0.983856 0.477119
0.000000 0.983520 0.480354
0.000000 0.983062 0.484596
0.000000 0.982422 0.489601
0.000000 0.981598 0.495125
0.149477 0.980591 0.501854
0.247471 0.979400 0.509209
0.317479 0.977966 0.518120
0.375250 0.976410 0.527428
0.428016 0.974670 0.538018
0.477363 0.972778 0.550225
