20 Preset/Travel Style/【3】LUT video cho PR-AE-FCPX/Green Moody - Lut (3).cube
# Created by Adobe Lightroom plugin Export LUT (1.24.0)
# www.johnrellis.com/lightroom/exportlut.htm
# Preset: 03自然风光-山脉-素材江湖
# Color profile: E:\lut插件\exportlut.1.24\exportlut.lrplugin\color profiles\Rec709gamma2.4.icc
LUT_3D_SIZE 5
DOMAIN_MIN 0.000000 0.000000 0.000000
DOMAIN_MAX 0.903226 0.903226 0.903226
0.141421 0.119539 0.090486
0.209476 0.113924 0.088228
0.690913 0.000000 0.000000
1.000000 0.000000 0.000000
1.000000 0.132082 0.000000
0.157595 0.144106 0.091371
0.208682 0.160891 0.070985
0.663111 0.177554 0.000000
1.000000 0.339452 0.000000
1.000000 0.335973 0.000000
0.361120 0.356939 0.163241
0.399115 0.358984 0.157076
0.587304 0.421942 0.000000
0.999207 0.624994 0.000000
1.000000 0.596368 0.000000
0.610529 0.630671 0.313054
0.641291 0.637568 0.328832
0.738582 0.684504 0.248081
0.890166 0.726589 0.000000
1.000000 0.741054 0.000000
0.833677 0.887205 0.698512
0.848447 0.887968 0.709163
0.887755 0.882048 0.702296
0.963226 0.890013 0.613336
1.000000 0.856260 0.291814
0.143404 0.119631 0.127535
0.198062 0.109407 0.135897
0.629297 0.000000 0.136110
1.000000 0.000000 0.024018
1.000000 0.163149 0.000000
0.137819 0.165560 0.129976
0.222477 0.186404 0.130434
0.640314 0.163821 0.121828
1.000000 0.290257 0.000000
1.000000 0.344945 0.000000
0.347326 0.372015 0.210513
0.396429 0.374243 0.224826
0.560632 0.416083 0.047852
0.980407 0.617639 0.000000
1.000000 0.601892 0.000000
0.601434 0.640955 0.349157
0.634791 0.649042 0.366766
0.734920 0.690974 0.322667
0.886168 0.729091 0.000000
1.000000 0.744839 0.000000
0.822690 0.887877 0.706966
0.837705 0.888243 0.716457
0.888640 0.891600 0.748043
0.958770 0.897276 0.666316
1.000000 0.862516 0.397375
0.063935 0.126497 0.474678
0.296849 0.074098 0.482460
0.594690 0.000000 0.470436
1.000000 0.000000 0.601892
1.000000 0.217868 0.540612
0.191653 0.295109 0.467292
0.311131 0.268681 0.470527
0.589807 0.186252 0.459693
1.000000 0.000000 0.568078
1.000000 0.462165 0.572473
0.224216 0.399969 0.356115
0.296757 0.434363 0.378027
0.593011 0.525231 0.420081
0.962860 0.639612 0.535637
1.000000 0.659571 0.609705
0.528099 0.684718 0.476326
0.572869 0.686061 0.489906
0.707301 0.715541 0.559716
0.873167 0.749996 0.424384
1.000000 0.781521 0.595453
0.761593 0.886656 0.719417
0.782925 0.888396 0.732235
0.853849 0.894072 0.777035
0.930541 0.903136 0.754269
1.000000 0.872923 0.584039
0.420752 0.241581 0.895079
0.538109 0.212039 0.896483
0.789029 0.000000 0.897154
0.975860 0.000000 0.874296
1.000000 0.000000 0.820249
0.392767 0.410773 0.886503
0.507469 0.390784 0.886137
0.763302 0.299046 0.885527
0.951141 0.177584 0.855192
1.000000 0.317235 0.812284
0.425910 0.710231 0.840208
0.495918 0.716915 0.842191
0.656397 0.662348 0.840269
0.878477 0.588281 0.810300
1.000000 0.698360 0.829038
0.169070 0.649714 0.633234
0.251255 0.657465 0.639704
0.534874 0.741176 0.710689
0.830228 0.823362 0.793027
0.999695 0.881712 0.882750
0.530144 0.888518 0.720790
0.574731 0.892546 0.733577
0.750729 0.903105 0.811917
0.889281 0.914672 0.871916
0.986542 0.908507 0.808133
0.579767 0.513268 0.996551
0.617395 0.504173 0.996460
0.746151 0.469581 0.997345
0.941955 0.356390 0.998810
1.000000 0.283207 0.990143
0.585382 0.613336 0.988373
0.616571 0.605035 0.988617
0.731197 0.569879 0.989990
0.923095 0.469032 0.992370
1.000000 0.403265 0.983368
0.689906 0.815000 0.969543
0.692927 0.805051 0.969879
0.742733 0.780545 0.971069
0.873594 0.718105 0.973785
1.000000 0.671870 0.965087
0.706172 0.882567 0.952056
0.724636 0.886320 0.952544
0.800595 0.906615 0.957671
0.867460 0.897917 0.962829
0.974029 0.873075 0.957275
0.242344 0.856168 0.872862
0.296452 0.856992 0.872831
0.462135 0.866819 0.878477
0.661585 0.886076 0.888121
0.943206 0.951751 0.949371
