20 Preset/Travel Style/【3】LUT video cho PR-AE-FCPX/Green Moody - Lut (21).cube
# Created by Adobe Lightroom plugin Export LUT (1.24.0)
# www.johnrellis.com/lightroom/exportlut.htm
# Preset: 21自然风光-日落-素材江湖
# Color profile: E:\lut插件\exportlut.1.24\exportlut.lrplugin\color profiles\Rec709gamma2.4.icc
LUT_3D_SIZE 8
DOMAIN_MIN 0.000000 0.000000 0.000000
DOMAIN_MAX 0.903226 0.903226 0.903226
0.106264 0.126650 0.134646
0.137270 0.126131 0.137301
0.277562 0.123354 0.143374
0.486702 0.114107 0.137118
0.694453 0.105989 0.130526
0.898741 0.134401 0.140200
1.000000 0.205692 0.191470
1.000000 0.291630 0.284916
0.100923 0.159030 0.137636
0.144869 0.160525 0.136660
0.282383 0.172213 0.133974
0.479652 0.182986 0.126589
0.682429 0.186770 0.123201
0.874937 0.202640 0.131594
1.000000 0.241978 0.177829
1.000000 0.307866 0.270207
0.120272 0.286564 0.142763
0.167269 0.286687 0.143130
0.309453 0.310704 0.125734
0.516808 0.339971 0.090608
0.718715 0.358251 0.033845
0.889525 0.366064 0.100740
1.000000 0.383764 0.188357
1.000000 0.416327 0.295995
0.155978 0.481819 0.149569
0.204227 0.474037 0.154421
0.344762 0.495796 0.137789
0.553735 0.540520 0.094301
0.760311 0.552697 0.044648
0.908049 0.551751 0.030854
1.000000 0.541344 0.195834
1.000000 0.543938 0.315435
0.222446 0.639460 0.208865
0.255558 0.634363 0.211337
0.364508 0.640772 0.212802
0.536675 0.677577 0.206760
0.730922 0.706691 0.205905
0.882353 0.689204 0.240818
0.995758 0.678279 0.270848
1.000000 0.671931 0.339666
0.324926 0.782864 0.322820
0.349706 0.785580 0.330114
0.420874 0.779599 0.334264
0.551293 0.796902 0.343816
0.708461 0.817990 0.358495
0.864805 0.828153 0.390112
0.979370 0.802152 0.452216
1.000000 0.792050 0.506004
0.466560 0.904173 0.511894
0.479286 0.904082 0.514916
0.521019 0.899290 0.516197
0.603967 0.901030 0.525414
0.714931 0.907683 0.538964
0.843259 0.916899 0.564050
0.962951 0.914275 0.597772
1.000000 0.884581 0.660090
0.661158 0.995575 0.771450
0.666590 0.995209 0.772213
0.690578 0.994018 0.777523
0.735927 0.992645 0.788632
0.782589 0.988037 0.773648
0.864256 0.990204 0.786191
0.954894 0.990997 0.799039
1.000000 0.979553 0.807767
0.100954 0.129397 0.155184
0.138979 0.123995 0.157778
0.264866 0.126986 0.163394
0.463661 0.131350 0.168124
0.672328 0.126131 0.171603
0.861997 0.148074 0.184970
0.996765 0.206668 0.222538
1.000000 0.285161 0.297887
0.091341 0.161959 0.158755
0.142153 0.161593 0.160433
0.274846 0.175631 0.163699
0.470619 0.186252 0.164126
0.674800 0.192996 0.166751
0.856962 0.208713 0.179721
0.988434 0.244785 0.215885
1.000000 0.304936 0.288853
0.123781 0.289860 0.171908
0.169223 0.287419 0.174105
0.305333 0.308080 0.164706
0.507103 0.335943 0.146212
0.695766 0.348119 0.141512
0.864317 0.357183 0.164157
0.993317 0.372320 0.217136
1.000000 0.405493 0.304875
0.152956 0.467872 0.185763
0.199771 0.462043 0.188937
0.333043 0.480842 0.182040
0.524620 0.514305 0.164523
0.719905 0.524437 0.151888
0.873960 0.529747 0.139528
0.991302 0.523613 0.215793
1.000000 0.530205 0.316808
0.219699 0.636133 0.240696
0.252567 0.630182 0.241276
0.357153 0.631159 0.242344
0.522850 0.663569 0.237552
0.711452 0.690150 0.238102
0.865232 0.677119 0.264408
0.982208 0.669551 0.288182
1.000000 0.664759 0.349310
0.316350 0.775021 0.336187
0.336553 0.772915 0.337255
0.407141 0.765591 0.340826
0.538628 0.785367 0.352270
0.697597 0.809262 0.369574
0.856443 0.822507 0.404761
0.971862 0.798184 0.462928
1.000000 0.788113 0.509483
0.453254 0.896880 0.507042
0.462562 0.894743 0.504814
0.505241 0.889494 0.505272
0.590295 0.891722 0.516167
0.705928 0.901366 0.535729
0.835569 0.911498 0.561425
0.955108 0.908537 0.592340
1.000000 0.879088 0.650965
0.646723 0.991699 0.760922
0.654902 0.991974 0.764309
0.678798 0.990631 0.768887
0.725277 0.989075 0.780575
0.789303 0.990509 0.787808
0.865446 0.990784 0.793423
0.953399 0.990356 0.800900
1.000000 0.978973 0.809476
0.031769 0.134737 0.264317
0.131655 0.126772 0.270146
0.276921 0.116976 0.284337
0.499794 0.033814 0.303807
0.685786 0.111635 0.302861
0.866789 0.194369 0.333471
0.995850 0.270939 0.373175
1.000000 0.349371 0.436500
0.079103 0.176699 0.267247
0.137819 0.174533 0.270970
0.293767 0.168154 0.287633
0.490272 0.171115 0.291478
0.683253 0.197147 0.302983
0.859220 0.243748 0.330266
0.988464 0.295079 0.365332
1.000000 0.361975 0.428138
0.000000 0.329168 0.289097
0.118776 0.328893 0.288121
0.315129 0.328466 0.295262
0.516899 0.348638 0.295903
0.706355 0.361883 0.310399
0.867796 0.377752 0.331914
0.989654 0.401312 0.370184
1.000000 0.440620 0.435889
0.116609 0.507530 0.317845
0.194766 0.503349 0.321050
0.337316 0.502190 0.324865
0.532616 0.531975 0.334478
0.727657 0.543236 0.333410
0.875944 0.544732 0.335210
0.988922 0.543114 0.381201
1.000000 0.555291 0.451575
0.222599 0.657374 0.361028
0.257603 0.652949 0.360937
0.358618 0.641474 0.362097
0.526177 0.675593 0.372625
0.714260 0.702174 0.392248
0.861692 0.689174 0.409613
0.975677 0.680873 0.420722
1.000000 0.677668 0.472419
0.321355 0.783658 0.427466
0.341955 0.781918 0.428016
0.409430 0.771908 0.427344
0.533379 0.784482 0.438300
0.690059 0.808255 0.459266
0.846342 0.821897 0.498543
0.961517 0.802579 0.547967
1.000000 0.796170 0.588312
0.458412 0.901396 0.567926
0.467872 0.899504 0.565911
0.507866 0.893614 0.562982
0.586053 0.891112 0.568109
0.700740 0.900481 0.587610
0.830472 0.911803 0.617121
0.949706 0.910948 0.654231
1.000000 0.886809 0.710231
0.649104 0.992126 0.780575
0.653437 0.991424 0.780117
0.676783 0.989960 0.783536
0.725399 0.989014 0.796384
0.788510 0.989807 0.804166
0.865721 0.991058 0.812528
0.952636 0.991058 0.820981
1.000000 0.980133 0.829404
0.000000 0.134554 0.491890
0.000000 0.130739 0.497627
0.277928 0.103212 0.504784
0.501244 0.000000 0.521111
0.734798 0.000000 0.536553
0.872160 0.186740 0.520378
0.970397 0.316472 0.538506
1.000000 0.409979 0.588098
0.000000 0.192081 0.500359
0.000000 0.189883 0.502495
0.286412 0.172976 0.508965
0.514580 0.149386 0.526818
0.732265 0.169314 0.534112
0.864866 0.257084 0.521294
0.967041 0.347631 0.540673
1.000000 0.426734 0.588922
0.000000 0.358953 0.509117
0.021027 0.362524 0.509880
0.302708 0.360754 0.517723
0.527245 0.364630 0.527550
0.700893 0.388373 0.527337
0.853391 0.416480 0.537591
0.972900 0.459449 0.567987
1.000000 0.503288 0.609949
0.000000 0.572229 0.536889
0.000000 0.569055 0.533959
0.328649 0.555505 0.536889
0.531090 0.561273 0.548852
0.714443 0.565942 0.534691
0.851926 0.564935 0.544213
0.964202 0.571313 0.568048
1.000000 0.590967 0.612818
0.189151 0.711116 0.549218
0.243503 0.705592 0.546807
0.370916 0.686763 0.542077
0.526024 0.695979 0.553033
0.709377 0.720821 0.585443
0.849760 0.711574 0.591089
0.961212 0.703426 0.591089
1.000000 0.702113 0.633356
0.342962 0.810575 0.580255
0.366400 0.811734 0.584253
0.429267 0.800961 0.577722
0.534600 0.795773 0.578393
0.687739 0.818662 0.604364
0.834958 0.829068 0.642359
0.945922 0.815579 0.675593
1.000000 0.811948 0.701228
0.465980 0.908263 0.663355
0.477180 0.907652 0.663905
0.518090 0.903655 0.662989
0.586267 0.895933 0.661585
0.698024 0.904112 0.681117
0.824430 0.914916 0.709102
0.938720 0.914031 0.741085
1.000000 0.896544 0.781949
0.661555 0.995514 0.819883
0.666560 0.995117 0.820096
0.688136 0.993652 0.821927
0.729854 0.991302 0.827176
0.789059 0.989960 0.833829
0.864530 0.991241 0.840970
0.950256 0.991730 0.849577
1.000000 0.982055 0.859434
0.000000 0.150973 0.730922
0.000000 0.147860 0.733913
0.235691 0.125582 0.735622
0.490852 0.000000 0.739223
0.725307 0.000000 0.750240
0.907439 0.152529 0.740261
0.988220 0.322972 0.709804
1.000000 0.450660 0.726955
0.000000 0.221836 0.735348
0.000000 0.220523 0.738216
0.250095 0.207187 0.739742
0.497810 0.160433 0.741665
0.728786 0.162875 0.750851
0.900938 0.247776 0.737819
0.981872 0.364172 0.711269
1.000000 0.475502 0.731106
0.000000 0.413275 0.740963
0.000000 0.411841 0.742061
0.289433 0.401404 0.742275
0.509514 0.375433 0.741238
0.726680 0.388769 0.745022
0.865263 0.425360 0.722438
0.952728 0.481422 0.715053
1.000000 0.552880 0.743374
0.000000 0.591974 0.745510
0.000000 0.593072 0.745418
0.339849 0.600275 0.746822
0.527703 0.598627 0.749142
0.697566 0.600977 0.739132
0.815640 0.604242 0.728756
0.924804 0.615137 0.734585
1.000000 0.638483 0.757443
0.000000 0.759091 0.736812
0.086244 0.757626 0.736324
0.358312 0.749935 0.735103
0.527276 0.723201 0.729274
0.694911 0.738674 0.750973
0.819364 0.728023 0.736263
0.925811 0.718929 0.739467
1.000000 0.723232 0.762570
0.365393 0.833738 0.732876
0.382971 0.831632 0.731655
0.440284 0.820188 0.722316
0.523369 0.799466 0.705715
0.659297 0.811551 0.721492
0.810605 0.830411 0.765133
0.922911 0.825925 0.780331
1.000000 0.823575 0.790982
0.488197 0.915312 0.770809
0.493446 0.913756 0.768276
0.519860 0.908873 0.760952
0.580560 0.901488 0.754391
0.674434 0.897368 0.756924
0.805570 0.910979 0.783597
0.921111 0.912688 0.811337
1.000000 0.901366 0.835294
0.641657 0.994049 0.847135
0.646418 0.993561 0.846952
0.667506 0.991852 0.847074
0.715938 0.990906 0.853452
0.774411 0.987335 0.858122
0.852567 0.988556 0.865812
0.940826 0.989746 0.874296
1.000000 0.981048 0.883665
0.000000 0.211704 0.894896
0.000000 0.210513 0.895567
0.257359 0.201938 0.894194
0.501274 0.171878 0.895781
0.711147 0.110262 0.893919
0.895781 0.202670 0.886870
1.000000 0.346166 0.862211
1.000000 0.475898 0.844816
0.000000 0.275639 0.889403
0.000000 0.274449 0.889220
0.268254 0.266300 0.888823
0.496651 0.242588 0.888273
0.703609 0.208743 0.886717
0.887083 0.266056 0.880980
1.000000 0.380438 0.858640
1.000000 0.493599 0.842985
0.000000 0.464363 0.891203
0.156832 0.462043 0.890745
0.339483 0.454170 0.890074
0.516777 0.431342 0.885863
0.707393 0.411627 0.883604
0.876860 0.447303 0.876219
0.978607 0.515496 0.858183
1.000000 0.585077 0.850950
0.328496 0.656001 0.886992
0.354742 0.655634 0.886046
0.446601 0.657374 0.884703
0.564385 0.648524 0.885832
0.717250 0.631281 0.884520
0.856321 0.652674 0.877195
0.936889 0.672816 0.864195
1.000000 0.701564 0.867613
0.322515 0.776028 0.876555
0.355596 0.776272 0.876310
0.461097 0.777829 0.875944
0.592798 0.781918 0.876463
0.709865 0.779477 0.875700
0.800290 0.769162 0.864317
0.892119 0.763943 0.861479
0.983703 0.772000 0.870665
0.411322 0.871794 0.857755
0.435798 0.871794 0.858915
0.504173 0.866850 0.858457
0.599115 0.857542 0.858579
0.676753 0.833219 0.849088
0.810513 0.850950 0.871397
0.908721 0.843229 0.866178
0.999054 0.840787 0.874723
0.552392 0.933165 0.864897
0.562890 0.933013 0.865995
0.594934 0.929900 0.867124
0.646571 0.922118 0.867155
0.692958 0.909697 0.854887
0.793759 0.912169 0.859464
0.911742 0.918853 0.882231
0.999817 0.914580 0.892851
0.689387 0.995209 0.902281
0.690242 0.994720 0.901335
0.699367 0.993652 0.899107
0.722835 0.992554 0.896391
0.764736 0.989654 0.893034
0.836118 0.985809 0.895781
0.930541 0.988678 0.905303
1.000000 0.981689 0.914794
0.000000 0.302525 0.969055
0.161288 0.305150 0.970031
0.338262 0.301518 0.969116
0.514092 0.291508 0.968688
0.687617 0.259525 0.967224
0.859373 0.260563 0.964233
1.000000 0.344732 0.953185
1.000000 0.468238 0.924895
0.023560 0.343664 0.962524
0.182376 0.346380 0.963867
0.341009 0.341741 0.963348
0.507530 0.328130 0.962219
0.677455 0.295995 0.960388
0.846006 0.288365 0.956603
0.986999 0.353887 0.944793
1.000000 0.461036 0.917266
0.288243 0.506004 0.960174
0.316045 0.504570 0.960113
0.404242 0.496590 0.958953
0.534600 0.482307 0.957794
0.682338 0.453712 0.955474
0.842435 0.446052 0.952636
0.976623 0.498756 0.942565
1.000000 0.582727 0.923339
0.462440 0.692744 0.953368
0.474434 0.691707 0.952605
0.515770 0.685176 0.951141
0.594049 0.674006 0.950958
0.700221 0.649500 0.949584
0.838010 0.639582 0.948333
0.952728 0.671901 0.939635
1.000000 0.710201 0.928649
0.520500 0.796262 0.943664
0.529595 0.795041 0.942535
0.578820 0.797482 0.940856
0.647639 0.800076 0.940063
0.713924 0.785733 0.938842
0.818723 0.767819 0.937438
0.921416 0.781704 0.932921
0.992432 0.798459 0.930632
0.521935 0.878721 0.936950
0.535302 0.878874 0.937102
0.582269 0.878691 0.937224
0.656825 0.878386 0.937682
0.742824 0.877958 0.938323
0.825620 0.874388 0.939117
0.898863 0.868681 0.933623
0.972473 0.869261 0.935546
0.591730 0.950652 0.929320
0.602075 0.950591 0.929839
0.633845 0.948302 0.930022
0.688502 0.944121 0.930602
0.752865 0.936706 0.930571
0.807370 0.919341 0.925017
0.908812 0.927276 0.936797
0.991363 0.921080 0.934417
0.692317 0.998657 0.933989
0.697719 0.998505 0.934386
0.722225 0.998535 0.936889
0.756954 0.996796 0.939117
0.803433 0.993164 0.941894
0.843168 0.989075 0.938079
0.916655 0.987366 0.938018
1.000000 0.983154 0.947875
0.310246 0.397162 1.000000
0.336248 0.398871 1.000000
0.412634 0.391577 1.000000
0.532555 0.384771 1.000000
0.668299 0.365118 1.000000
0.811582 0.321599 1.000000
0.959838 0.351659 1.000000
1.000000 0.433722 0.994263
0.319097 0.424689 1.000000
0.343969 0.426093 1.000000
0.418463 0.420630 1.000000
0.532647 0.411475 1.000000
0.665431 0.391363 1.000000
0.807004 0.349767 1.000000
0.953613 0.370245 1.000000
1.000000 0.443061 0.991211
0.391608 0.541192 0.999084
0.406897 0.540642 0.999145
0.460426 0.533257 0.998688
0.560296 0.530785 0.999817
0.673579 0.508690 0.999359
0.802823 0.469398 0.998688
0.944640 0.480232 0.996704
1.000000 0.537499 0.986633
0.504509 0.693477 0.989197
0.514458 0.693629 0.989410
0.545251 0.687922 0.989349
0.607843 0.680598 0.989929
0.693629 0.663935 0.990448
0.801907 0.634302 0.991028
0.931609 0.634577 0.990295
1.000000 0.672908 0.981689
0.582055 0.800351 0.981079
0.590875 0.801511 0.981292
0.613855 0.799527 0.980804
0.667109 0.801663 0.980316
0.720516 0.787991 0.980804
0.801114 0.766476 0.981750
0.915740 0.759182 0.982971
1.000000 0.788846 0.978607
0.618585 0.875608 0.977569
0.623651 0.874937 0.977203
0.649683 0.874327 0.976318
0.702541 0.876707 0.975799
0.765560 0.879850 0.976287
0.828702 0.876158 0.979004
0.920287 0.870878 0.982605
0.999420 0.876951 0.978058
0.664240 0.953338 0.979370
0.669734 0.952941 0.979278
0.692226 0.951598 0.978973
0.735592 0.949798 0.978851
0.792996 0.947448 0.978790
0.858518 0.945617 0.979156
0.915190 0.938018 0.978820
0.983307 0.934508 0.976196
0.695430 1.000000 0.970245
0.699153 1.000000 0.970214
0.718532 1.000000 0.970550
0.757839 1.000000 0.971588
0.807736 0.997528 0.972717
0.862547 0.992889 0.973968
0.920409 0.985962 0.975463
0.987152 0.983124 0.979767
