20 Preset/Travel Style/【3】LUT video cho PR-AE-FCPX/Green Moody - Lut (5).cube
# Created by Adobe Lightroom plugin Export LUT (1.24.0)
# www.johnrellis.com/lightroom/exportlut.htm
# Preset: 05自然风光-巴厘岛-素材江湖
# Color profile: E:\lut插件\exportlut.1.24\exportlut.lrplugin\color profiles\Rec709gamma2.4.icc
LUT_3D_SIZE 32
DOMAIN_MIN 0.0 0.0 0.0
DOMAIN_MAX 1.0 1.0 1.0
0.176059 0.153475 0.141238
0.177127 0.153536 0.141207
0.180117 0.153933 0.141299
0.186740 0.154330 0.141939
0.196841 0.155367 0.142397
0.209934 0.156344 0.142947
0.225437 0.157443 0.143557
0.243809 0.158083 0.143618
0.264897 0.158450 0.143557
0.289403 0.158389 0.143252
0.317510 0.158419 0.142336
0.349950 0.157626 0.141512
0.386938 0.156374 0.139834
0.428595 0.155276 0.137972
0.474372 0.153872 0.135378
0.523919 0.152956 0.131350
0.577264 0.153079 0.125978
0.633692 0.156191 0.117861
0.690150 0.163577 0.106783
0.744503 0.177096 0.091157
0.795224 0.196231 0.048951
0.850401 0.222690 0.000000
0.903838 0.254276 0.000000
0.947234 0.283513 0.000000
0.983032 0.309392 0.000000
1.000000 0.332586 0.000000
1.000000 0.353948 0.000000
1.000000 0.373846 0.000000
1.000000 0.393011 0.000000
1.000000 0.411933 0.000000
1.000000 0.431006 0.000000
1.000000 0.450721 0.000000
0.176181 0.154269 0.141329
0.176761 0.154177 0.141329
0.180087 0.154513 0.141207
0.186465 0.154971 0.141848
0.196658 0.155795 0.142336
0.209476 0.157015 0.142855
0.224338 0.157839 0.143313
0.242252 0.158602 0.143618
0.262821 0.159121 0.143526
0.286564 0.159304 0.143038
0.313970 0.159060 0.142458
0.345373 0.158419 0.141451
0.381415 0.157382 0.140108
0.422278 0.156588 0.138125
0.467140 0.155337 0.135470
0.516045 0.154635 0.131899
0.568841 0.154849 0.126497
0.624628 0.157443 0.119112
0.681514 0.164157 0.108248
0.735897 0.176883 0.093568
0.786496 0.194430 0.056886
0.840940 0.219394 0.000000
0.892973 0.249149 0.000000
0.935760 0.276890 0.000000
0.971557 0.301762 0.000000
1.000000 0.324834 0.000000
1.000000 0.346288 0.000000
1.000000 0.366400 0.000000
1.000000 0.385779 0.000000
1.000000 0.405005 0.000000
1.000000 0.424414 0.000000
1.000000 0.444312 0.000000
0.176303 0.156985 0.141817
0.177066 0.157076 0.141787
0.179568 0.156924 0.141756
0.186191 0.157748 0.141421
0.196933 0.158480 0.141909
0.209445 0.159701 0.142428
0.224338 0.160525 0.142885
0.241978 0.161135 0.143008
0.262394 0.161685 0.143160
0.285954 0.162112 0.142611
0.313054 0.161990 0.141817
0.344060 0.161715 0.141024
0.379553 0.161135 0.139437
0.419654 0.160647 0.137453
0.464088 0.160006 0.135012
0.512444 0.159854 0.131197
0.564782 0.160861 0.125765
0.620417 0.163638 0.118379
0.677089 0.170352 0.107485
0.731716 0.182803 0.092561
0.782742 0.200168 0.053559
0.837858 0.224735 0.000000
0.888518 0.252415 0.000000
0.930694 0.279118 0.000000
0.966155 0.303258 0.000000
0.996918 0.324987 0.000000
1.000000 0.345769 0.000000
1.000000 0.365667 0.000000
1.000000 0.385016 0.000000
1.000000 0.404150 0.000000
1.000000 0.423255 0.000000
1.000000 0.442756 0.000000
0.176242 0.163394 0.142367
0.177096 0.163272 0.142367
0.179843 0.163119 0.142550
0.185611 0.163088 0.142153
0.195926 0.164034 0.141939
0.210056 0.165011 0.141543
0.225437 0.165866 0.141970
0.243076 0.166598 0.142061
0.263676 0.167269 0.141939
0.287236 0.167605 0.141634
0.314214 0.167849 0.140749
0.345251 0.167880 0.139651
0.380377 0.167971 0.138186
0.419959 0.168368 0.135836
0.463386 0.168582 0.133272
0.510765 0.169711 0.129305
0.561913 0.171664 0.123751
0.615930 0.175479 0.115999
0.671534 0.182712 0.104829
0.725185 0.194461 0.089235
0.775448 0.210422 0.046174
0.830533 0.233555 0.000000
0.879484 0.259159 0.000000
0.921660 0.283909 0.000000
0.958312 0.307347 0.000000
0.990875 0.329625 0.000000
1.000000 0.350866 0.000000
1.000000 0.370733 0.000000
1.000000 0.389868 0.000000
1.000000 0.408545 0.000000
1.000000 0.426734 0.000000
1.000000 0.445106 0.000000
0.176516 0.172335 0.143526
0.177340 0.172244 0.143740
0.180117 0.172091 0.143679
0.185763 0.171725 0.143587
0.193851 0.171023 0.143038
0.206455 0.172030 0.142458
0.222995 0.173587 0.141604
0.243839 0.175113 0.140505
0.264378 0.175723 0.140169
0.287907 0.176394 0.139773
0.314702 0.176944 0.139071
0.345647 0.177676 0.137575
0.380560 0.178927 0.135866
0.420081 0.179934 0.133577
0.463874 0.181918 0.130282
0.511803 0.184207 0.125765
0.563348 0.187930 0.119692
0.617823 0.193301 0.110811
0.673182 0.201633 0.098085
0.726406 0.213779 0.074403
0.776211 0.229740 0.019959
0.831540 0.252903 0.000000
0.878538 0.276188 0.000000
0.919890 0.299321 0.000000
0.956390 0.321508 0.000000
0.989044 0.342321 0.000000
1.000000 0.361913 0.000000
1.000000 0.380621 0.000000
1.000000 0.398657 0.000000
1.000000 0.415900 0.000000
1.000000 0.432959 0.000000
1.000000 0.450263 0.000000
0.176211 0.183261 0.144625
0.176913 0.183352 0.144808
0.179660 0.183200 0.144991
0.185000 0.182895 0.145113
0.193118 0.182284 0.144778
0.203616 0.181125 0.143801
0.218479 0.182071 0.143130
0.238315 0.184695 0.141634
0.262943 0.187259 0.140047
0.291539 0.189425 0.138125
0.319707 0.191043 0.136110
0.351843 0.192813 0.133944
0.387732 0.194736 0.131838
0.428046 0.197513 0.128817
0.472786 0.200992 0.124636
0.521172 0.204898 0.119295
0.573602 0.210452 0.111269
0.628443 0.218112 0.099702
0.683436 0.228489 0.080323
0.735256 0.241581 0.030335
0.787839 0.259556 0.000000
0.840482 0.281712 0.000000
0.944884 0.344244 0.000000
0.982330 0.367071 0.000000
1.000000 0.386542 0.000000
1.000000 0.403601 0.000000
1.000000 0.419013 0.000000
1.000000 0.433051 0.000000
1.000000 0.446906 0.000000
1.000000 0.460456 0.000000
1.000000 0.474189 0.000000
1.000000 0.488228 0.000000
0.173709 0.201877 0.145754
0.174319 0.201816 0.145724
0.177584 0.201785 0.145876
0.183719 0.201572 0.146181
0.192752 0.201053 0.146273
0.205020 0.199313 0.145632
0.218906 0.197330 0.144717
0.237125 0.198062 0.143435
0.262882 0.202579 0.141329
0.294377 0.207340 0.138643
0.332921 0.212711 0.134890
0.373938 0.217411 0.130495
0.413947 0.220981 0.126497
0.457832 0.225528 0.121523
0.505303 0.231235 0.114076
0.555871 0.237827 0.104433
0.609644 0.246830 0.089876
0.663935 0.257816 0.049317
0.716030 0.270359 0.000000
0.766262 0.285496 0.000000
0.826780 0.310369 0.000000
0.880949 0.336004 0.000000
0.928008 0.360845 0.000000
0.968780 0.383368 0.000000
1.000000 0.402930 0.000000
1.000000 0.419409 0.000000
1.000000 0.433265 0.000000
1.000000 0.445624 0.000000
1.000000 0.457801 0.000000
1.000000 0.469429 0.000000
1.000000 0.481483 0.000000
1.000000 0.494118 0.000000
0.169711 0.220035 0.146700
0.170321 0.219974 0.146670
0.173892 0.220066 0.146792
0.180179 0.219883 0.147097
0.190066 0.219852 0.147494
0.202701 0.218631 0.147189
0.217594 0.216312 0.146181
0.233707 0.213382 0.145205
0.253544 0.213504 0.143923
0.283055 0.220066 0.141176
0.319249 0.227451 0.137362
0.363165 0.235569 0.132143
0.414679 0.245060 0.124269
0.462440 0.251713 0.117281
0.509575 0.258213 0.109010
0.559716 0.265843 0.097536
0.612757 0.275700 0.073182
0.666804 0.287938 0.014923
0.718959 0.302251 0.000000
0.776059 0.322759 0.000000
0.832547 0.347265 0.000000
0.882353 0.370611 0.000000
0.926268 0.391516 0.000000
0.965026 0.410834 0.000000
0.998596 0.427558 0.000000
1.000000 0.441230 0.000000
1.000000 0.452888 0.000000
1.000000 0.463264 0.000000
1.000000 0.473548 0.000000
1.000000 0.483650 0.000000
1.000000 0.494057 0.000000
1.000000 0.504997 0.000000
0.163180 0.242283 0.147585
0.163699 0.242344 0.147555
0.167147 0.242435 0.147677
0.174502 0.242435 0.147921
0.185092 0.242618 0.148440
0.198398 0.242802 0.148867
0.215244 0.240116 0.147799
0.233097 0.236973 0.146731
0.251347 0.233310 0.145449
0.273899 0.233249 0.143587
0.306920 0.241550 0.139956
0.348547 0.252079 0.134676
0.398169 0.263706 0.126894
0.455482 0.277012 0.115999
0.519707 0.292271 0.098848
0.570092 0.300999 0.080018
0.622889 0.311772 0.028077
0.675319 0.324071 0.000000
0.731380 0.341680 0.000000
0.787991 0.362890 0.000000
0.839353 0.384466 0.000000
0.885618 0.405188 0.000000
0.927489 0.425025 0.000000
0.964874 0.443275 0.000000
0.997070 0.457160 0.000000
1.000000 0.467964 0.000000
1.000000 0.477272 0.000000
1.000000 0.485695 0.000000
1.000000 0.493935 0.000000
1.000000 0.502098 0.000000
1.000000 0.510704 0.000000
1.000000 0.519921 0.000000
0.150607 0.269718 0.147921
0.151827 0.269566 0.147921
0.155795 0.269535 0.148074
0.163973 0.269627 0.148501
0.176120 0.269718 0.148806
0.191348 0.270085 0.149142
0.209659 0.269169 0.149508
0.230289 0.265476 0.148074
0.251164 0.261357 0.146578
0.271763 0.256718 0.145144
0.296757 0.256260 0.142245
0.332372 0.265599 0.137972
0.379034 0.279484 0.130312
0.433967 0.295048 0.119265
0.496925 0.313054 0.102327
0.566430 0.333410 0.055238
0.635706 0.354253 0.000000
0.694209 0.371496 0.000000
0.750515 0.390539 0.000000
0.802182 0.409247 0.000000
0.848447 0.426673 0.000000
0.889677 0.442390 0.000000
0.927153 0.457435 0.000000
0.961028 0.470924 0.000000
0.991333 0.483070 0.000000
1.000000 0.493599 0.000000
1.000000 0.500725 0.000000
1.000000 0.507347 0.000000
1.000000 0.514061 0.000000
1.000000 0.521080 0.000000
1.000000 0.528344 0.000000
1.000000 0.536339 0.000000
0.128542 0.300206 0.147494
0.129671 0.300237 0.147677
0.134951 0.300450 0.147738
0.145144 0.300847 0.147829
0.159915 0.301518 0.148348
0.178286 0.302525 0.148806
0.199435 0.303929 0.149630
0.224094 0.301640 0.148623
0.248936 0.297215 0.146761
0.273564 0.291997 0.144961
0.297002 0.286290 0.142947
0.324041 0.285008 0.139559
0.363043 0.295354 0.133700
0.415747 0.313390 0.122713
0.476905 0.333745 0.105562
0.547601 0.358282 0.057343
0.627802 0.388586 0.000000
0.704738 0.419257 0.000000
0.765988 0.441932 0.000000
0.812833 0.456550 0.000000
0.855070 0.469520 0.000000
0.893370 0.481575 0.000000
0.928740 0.493080 0.000000
0.961028 0.503471 0.000000
0.990234 0.512932 0.000000
1.000000 0.521233 0.000000
1.000000 0.528954 0.000000
1.000000 0.534630 0.000000
1.000000 0.539361 0.000000
1.000000 0.544518 0.000000
1.000000 0.550042 0.000000
1.000000 0.556268 0.000000
0.042084 0.340398 0.145480
0.045930 0.340581 0.145388
0.075715 0.340917 0.145357
0.099611 0.341619 0.145724
0.124422 0.342718 0.145968
0.151125 0.344274 0.146517
0.179843 0.346471 0.147250
0.209720 0.348852 0.148104
0.242466 0.343633 0.146059
0.273106 0.337957 0.143526
0.301762 0.331426 0.141176
0.328496 0.324224 0.138155
0.377630 0.340887 0.129763
0.430976 0.359442 0.117037
0.505852 0.393317 0.082887
0.589532 0.430396 0.000000
0.672206 0.466621 0.000000
0.747860 0.498848 0.000000
0.814420 0.525322 0.000000
0.871702 0.545983 0.000000
0.910582 0.554589 0.000000
0.941833 0.559228 0.000000
0.970397 0.563409 0.000000
0.996551 0.567315 0.000000
1.000000 0.570672 0.000000
1.000000 0.573449 0.000000
1.000000 0.576104 0.000000
1.000000 0.578576 0.000000
1.000000 0.580713 0.000000
1.000000 0.582025 0.000000
1.000000 0.584283 0.000000
1.000000 0.587671 0.000000
0.000000 0.407477 0.138888
0.000000 0.407385 0.138918
0.000000 0.407202 0.138888
0.000000 0.407111 0.139315
0.000000 0.407324 0.139864
0.014893 0.408057 0.140597
0.128756 0.409796 0.141878
0.180209 0.412726 0.142824
0.226902 0.412116 0.142367
0.270207 0.405676 0.138888
0.309453 0.399756 0.134646
0.349432 0.398413 0.129458
0.387854 0.395880 0.123323
0.425452 0.393317 0.115633
0.484596 0.414282 0.092897
0.564508 0.452186 0.000000
0.644831 0.488685 0.000000
0.718776 0.520043 0.000000
0.785489 0.546105 0.000000
0.843320 0.566339 0.000000
0.893400 0.582025 0.000000
0.937102 0.594171 0.000000
0.964721 0.595758 0.000000
0.990204 0.597406 0.000000
1.000000 0.598810 0.000000
1.000000 0.600000 0.000000
1.000000 0.601282 0.000000
1.000000 0.602564 0.000000
1.000000 0.604120 0.000000
1.000000 0.605768 0.000000
1.000000 0.606653 0.000000
1.000000 0.608545 0.000000
0.000000 0.462287 0.130556
0.000000 0.461952 0.130800
0.000000 0.461341 0.131044
0.000000 0.461158 0.131594
0.000000 0.461219 0.132235
0.000000 0.461952 0.133089
0.000000 0.465126 0.134005
0.112245 0.471290 0.135439
0.189456 0.479286 0.137240
0.252842 0.478370 0.133089
0.306950 0.475410 0.126619
0.356268 0.472236 0.118685
0.401770 0.467842 0.109377
0.442695 0.461311 0.099489
0.478004 0.451545 0.089631
0.535363 0.467811 0.010376
0.614099 0.505241 0.000000
0.687800 0.537285 0.000000
0.755673 0.564477 0.000000
0.815305 0.585657 0.000000
0.867460 0.602136 0.000000
0.913512 0.615137 0.000000
0.953826 0.624994 0.000000
0.987182 0.630823 0.000000
1.000000 0.630335 0.000000
1.000000 0.629816 0.000000
1.000000 0.629358 0.000000
1.000000 0.629084 0.000000
1.000000 0.629328 0.000000
1.000000 0.629969 0.000000
1.000000 0.630640 0.000000
1.000000 0.631098 0.000000
0.000000 0.538628 0.117098
0.000000 0.538537 0.117128
0.000000 0.537987 0.117769
0.000000 0.537621 0.118502
0.000000 0.537560 0.119722
0.000000 0.538354 0.121675
0.000000 0.540948 0.124056
0.000000 0.545403 0.126589
0.109651 0.552178 0.130709
0.219303 0.558648 0.133944
0.295293 0.554223 0.124086
0.357519 0.550011 0.112398
0.411688 0.544396 0.098543
0.458900 0.536828 0.075013
0.499611 0.525902 0.030426
0.532647 0.511223 0.000000
0.582727 0.518334 0.000000
0.656947 0.552270 0.000000
0.725887 0.580926 0.000000
0.787533 0.603632 0.000000
0.841978 0.621454 0.000000
0.890257 0.635492 0.000000
0.932677 0.646174 0.000000
0.970123 0.654108 0.000000
1.000000 0.659663 0.000000
1.000000 0.660700 0.000000
1.000000 0.658839 0.000000
1.000000 0.657374 0.000000
1.000000 0.656489 0.000000
1.000000 0.656245 0.000000
1.000000 0.656458 0.000000
1.000000 0.656641 0.000000
0.000000 0.609979 0.116152
0.000000 0.610315 0.116243
0.000000 0.610285 0.116854
0.000000 0.610529 0.118502
0.000000 0.611048 0.120302
0.000000 0.612482 0.123751
0.000000 0.615442 0.128725
0.000000 0.620050 0.134859
0.000000 0.626154 0.143801
0.180056 0.633600 0.155062
0.283757 0.633814 0.153902
0.358282 0.626734 0.138552
0.418860 0.618341 0.119631
0.470069 0.607752 0.095613
0.513695 0.594965 0.035462
0.550256 0.579583 0.000000
0.580652 0.562341 0.000000
0.624659 0.563470 0.000000
0.692317 0.591638 0.000000
0.756924 0.617273 0.000000
0.814847 0.637903 0.000000
0.866361 0.654108 0.000000
0.911650 0.666468 0.000000
0.951537 0.675685 0.000000
0.986572 0.682216 0.000000
1.000000 0.686580 0.000000
1.000000 0.689235 0.000000
1.000000 0.687617 0.000000
1.000000 0.685176 0.000000
1.000000 0.683284 0.000000
1.000000 0.681758 0.000000
1.000000 0.680598 0.000000
0.000000 0.669642 0.140780
0.000000 0.669642 0.140963
0.000000 0.669703 0.141970
0.000000 0.670008 0.143496
0.000000 0.670649 0.146304
0.000000 0.671931 0.150820
0.000000 0.674220 0.157504
0.000000 0.677638 0.165896
0.000000 0.682124 0.177005
0.125277 0.687495 0.190066
0.267216 0.693629 0.206668
0.352178 0.687709 0.192935
0.419257 0.679652 0.173953
0.475257 0.669764 0.150515
0.522942 0.657923 0.121218
0.563531 0.643977 0.073030
0.597803 0.628046 0.000000
0.627100 0.610895 0.000000
0.668971 0.610163 0.000000
0.727779 0.630335 0.000000
0.788449 0.653376 0.000000
0.842588 0.671626 0.000000
0.890349 0.685634 0.000000
0.932494 0.696132 0.000000
0.969604 0.703670 0.000000
1.000000 0.708888 0.000000
1.000000 0.712245 0.000000
1.000000 0.713893 0.000000
1.000000 0.714229 0.000000
1.000000 0.711025 0.000000
1.000000 0.708156 0.000000
1.000000 0.705653 0.000000
0.000000 0.724971 0.191989
0.000000 0.725521 0.192905
0.000000 0.760800 0.244541
0.000000 0.760952 0.246921
0.000000 0.761257 0.250370
0.000000 0.761654 0.255100
0.000000 0.762478 0.261967
0.000000 0.763882 0.271641
0.000000 0.766232 0.284154
0.172793 0.769192 0.300267
0.300969 0.772671 0.318883
0.385931 0.773068 0.327947
0.451423 0.764675 0.304723
0.507652 0.754543 0.277501
0.556237 0.742641 0.246281
0.598779 0.728847 0.210178
0.635401 0.712947 0.167819
0.666896 0.695735 0.112642
0.693904 0.677333 0.000000
0.731411 0.672663 0.000000
0.778988 0.682643 0.000000
0.832853 0.700435 0.000000
0.880430 0.713924 0.000000
0.922271 0.723720 0.000000
0.958862 0.730251 0.000000
0.991241 0.734463 0.000000
1.000000 0.736843 0.000000
1.000000 0.737850 0.000000
1.000000 0.737881 0.000000
1.000000 0.736965 0.000000
1.000000 0.734646 0.000000
1.000000 0.730739 0.000000
0.000000 0.780453 0.273289
0.000000 0.783322 0.278965
0.000000 0.786374 0.285863
0.000000 0.789181 0.293187
0.000000 0.791379 0.300725
0.000000 0.792447 0.307134
0.000000 0.793118 0.314061
0.000000 0.793851 0.322545
0.000000 0.795163 0.333928
0.145327 0.796963 0.348272
0.285405 0.799283 0.365820
0.372778 0.801785 0.385657
0.439857 0.797543 0.377020
0.496132 0.789120 0.351141
0.546380 0.779110 0.321386
0.591241 0.767788 0.288029
0.631098 0.755062 0.251041
0.666835 0.741146 0.209842
0.698756 0.726375 0.161959
0.727047 0.710933 0.096345
0.764614 0.707210 0.000000
0.806516 0.712642 0.000000
0.856962 0.728573 0.000000
0.901213 0.740169 0.000000
0.939757 0.748104 0.048249
0.973816 0.753353 0.096742
1.000000 0.756497 0.114717
1.000000 0.758114 0.127565
1.000000 0.758633 0.134585
1.000000 0.758145 0.136599
1.000000 0.756649 0.133944
1.000000 0.753994 0.120180
0.000000 0.811978 0.332799
0.000000 0.814633 0.339208
0.000000 0.817472 0.346838
0.000000 0.820035 0.355200
0.000000 0.821958 0.363348
0.000000 0.822843 0.369970
0.000000 0.823331 0.376532
0.000000 0.823697 0.384802
0.000000 0.824338 0.395483
0.147768 0.825315 0.408515
0.282292 0.826719 0.424140
0.367315 0.828305 0.442603
0.435737 0.829557 0.460731
0.490181 0.822538 0.436011
0.539696 0.814389 0.407965
0.585046 0.805051 0.376074
0.626642 0.794522 0.340826
0.664668 0.783017 0.302495
0.699580 0.770596 0.261234
0.731350 0.757717 0.216098
0.760037 0.744167 0.163394
0.797421 0.740963 0.098207
0.833188 0.741695 0.084535
0.879973 0.755428 0.120668
0.920562 0.764950 0.147402
0.956329 0.771359 0.168856
0.988067 0.775387 0.184817
1.000000 0.777737 0.197726
1.000000 0.778866 0.208774
1.000000 0.778836 0.215396
1.000000 0.777737 0.219242
1.000000 0.775387 0.216709
0.000000 0.841306 0.399573
0.000000 0.843412 0.405798
0.000000 0.845579 0.413123
0.000000 0.847532 0.421057
0.000000 0.848997 0.428473
0.000000 0.849607 0.434974
0.000000 0.849912 0.441444
0.000000 0.850034 0.449165
0.000000 0.850401 0.459327
0.172244 0.850919 0.471290
0.288731 0.851804 0.485939
0.368597 0.852781 0.502739
0.434058 0.853758 0.520439
0.488563 0.851865 0.522148
0.535088 0.845335 0.497047
0.579248 0.837949 0.468299
0.621424 0.830076 0.437476
0.661463 0.821561 0.403998
0.699275 0.812711 0.369085
0.735134 0.803616 0.332006
0.768795 0.794125 0.292760
0.800076 0.784207 0.249607
0.837339 0.781704 0.207858
0.869718 0.779934 0.202365
0.912139 0.791318 0.233219
0.949035 0.798825 0.259037
0.981353 0.803586 0.280339
1.000000 0.806332 0.298192
1.000000 0.807584 0.313817
1.000000 0.807462 0.325841
1.000000 0.806149 0.333989
1.000000 0.803464 0.337621
0.000000 0.878721 0.510155
0.000000 0.879423 0.513024
0.000000 0.879911 0.515923
0.000000 0.880217 0.518975
0.000000 0.880247 0.522087
0.000000 0.879942 0.525536
0.000000 0.879637 0.530053
0.000000 0.879454 0.536065
0.079500 0.879454 0.544427
0.241367 0.879759 0.555200
0.325292 0.880186 0.567895
0.392370 0.880766 0.581903
0.449958 0.881315 0.596582
0.502098 0.881804 0.612238
0.544091 0.877653 0.599329
0.583307 0.871611 0.575158
0.621790 0.864927 0.547997
0.659541 0.857694 0.517418
0.696284 0.849943 0.483375
0.731960 0.841703 0.446326
0.766018 0.833066 0.407019
0.798520 0.823972 0.364996
0.828946 0.814237 0.319371
0.863005 0.809506 0.276799
0.892210 0.805234 0.262943
0.930846 0.814359 0.292332
0.964813 0.820554 0.318364
0.994965 0.824460 0.341009
1.000000 0.826596 0.360479
1.000000 0.827115 0.376318
1.000000 0.826230 0.388281
1.000000 0.823911 0.395666
0.000000 0.900023 0.576135
0.000000 0.900511 0.578271
0.000000 0.900938 0.580682
0.000000 0.901152 0.583398
0.000000 0.901183 0.586297
0.000000 0.900999 0.589380
0.000000 0.900694 0.593194
0.000000 0.900450 0.598566
0.200717 0.900359 0.605615
0.286687 0.900450 0.614710
0.352972 0.900633 0.625116
0.410468 0.900969 0.636957
0.462409 0.901244 0.649378
0.510155 0.901549 0.662867
0.553124 0.901183 0.672023
0.587030 0.896513 0.653559
0.621485 0.891325 0.632410
0.655940 0.885710 0.608545
0.690608 0.879606 0.581628
0.725002 0.873106 0.551629
0.758968 0.866239 0.518517
0.792233 0.858946 0.481544
0.824460 0.851255 0.440894
0.855314 0.843046 0.396674
0.882475 0.831724 0.332341
0.910826 0.827054 0.313848
0.946166 0.834226 0.341985
0.977905 0.839536 0.369238
1.000000 0.842771 0.392798
1.000000 0.844297 0.413062
1.000000 0.844327 0.430304
1.000000 0.842802 0.442542
0.000000 0.923705 0.654566
0.000000 0.924376 0.657618
0.000000 0.924681 0.659541
0.000000 0.924468 0.660334
0.000000 0.923949 0.660456
0.000000 0.923125 0.660639
0.158083 0.922118 0.661097
0.226444 0.921111 0.662562
0.284154 0.920195 0.665522
0.336584 0.919432 0.670069
0.385168 0.918730 0.675837
0.431891 0.918242 0.683375
0.475990 0.917784 0.691920
0.517632 0.917357 0.701045
0.556817 0.916808 0.710384
0.589532 0.914244 0.705989
0.618555 0.909514 0.686732
0.648981 0.904601 0.666072
0.680690 0.899565 0.643824
0.713191 0.894408 0.620081
0.745907 0.889036 0.593866
0.778408 0.883207 0.564202
0.810330 0.876707 0.529717
0.841398 0.869474 0.489662
0.871427 0.861387 0.443397
0.902281 0.855039 0.397467
0.931151 0.851316 0.377569
0.961639 0.854643 0.398138
0.990753 0.858549 0.423621
1.000000 0.860746 0.446509
1.000000 0.861387 0.466468
1.000000 0.860533 0.483009
0.000000 0.937285 0.694362
0.078584 0.937835 0.696986
0.120363 0.938170 0.699031
0.154513 0.938170 0.700435
0.189700 0.937957 0.701747
0.226658 0.937621 0.703334
0.265537 0.937255 0.705715
0.305974 0.936858 0.708919
0.346380 0.936522 0.713222
0.387121 0.936217 0.718654
0.426673 0.935851 0.724727
0.465583 0.935515 0.731685
0.503044 0.935119 0.738766
0.539117 0.934600 0.746151
0.573602 0.933989 0.753506
0.606806 0.933349 0.761105
0.631006 0.929900 0.748745
0.655909 0.925933 0.732570
0.682765 0.921843 0.715114
0.711086 0.917723 0.696193
0.740536 0.913390 0.675441
0.770565 0.908812 0.652186
0.800931 0.903838 0.625727
0.831388 0.898344 0.595178
0.861692 0.892302 0.560082
0.891691 0.885771 0.519951
0.922301 0.880034 0.477119
0.952117 0.877928 0.460426
0.978943 0.878691 0.477333
1.000000 0.881285 0.503288
1.000000 0.882170 0.525444
1.000000 0.881437 0.543664
0.270329 0.952453 0.741604
0.274998 0.952667 0.742824
0.281407 0.952758 0.743679
0.291600 0.952667 0.744442
0.305730 0.952422 0.745235
0.324071 0.952026 0.746273
0.346105 0.951598 0.747738
0.371893 0.951141 0.749966
0.400244 0.950652 0.753048
0.430762 0.950225 0.757015
0.462287 0.949767 0.761593
0.494453 0.949310 0.766934
0.526299 0.948852 0.772732
0.557610 0.948272 0.778500
0.588006 0.947539 0.784360
0.617639 0.946807 0.790280
0.644099 0.945464 0.791928
0.664393 0.942321 0.779232
0.686824 0.939086 0.765621
0.711147 0.935851 0.751125
0.736934 0.932433 0.735195
0.763729 0.928832 0.717189
0.791379 0.924834 0.696162
0.819730 0.920439 0.671901
0.848539 0.915618 0.643885
0.877745 0.910338 0.611658
0.907073 0.904814 0.575616
0.936736 0.899290 0.535821
0.967254 0.898466 0.521691
0.991577 0.897490 0.535027
1.000000 0.899077 0.560113
1.000000 0.898833 0.581140
0.352789 0.964263 0.775235
0.355505 0.964416 0.776089
0.360113 0.964538 0.776974
0.367681 0.964477 0.777920
0.378729 0.964446 0.779294
0.393683 0.964416 0.781399
0.414008 0.964538 0.784970
0.437690 0.964691 0.789456
0.463935 0.964935 0.794888
0.491981 0.965209 0.801083
0.520989 0.965454 0.807736
0.549645 0.965637 0.814359
0.577905 0.965637 0.820890
0.605127 0.965454 0.826993
0.631189 0.965026 0.832486
0.656001 0.964355 0.837308
0.680049 0.963622 0.842069
0.698268 0.962036 0.838499
0.714748 0.959930 0.829587
0.733120 0.957733 0.819913
0.753140 0.955413 0.809384
0.774594 0.952972 0.797360
0.797238 0.950195 0.783413
0.821103 0.947173 0.767330
0.846128 0.943816 0.748501
0.872282 0.940185 0.726619
0.899535 0.936339 0.701839
0.927642 0.932280 0.673793
0.956634 0.928130 0.642695
0.986297 0.927916 0.632959
1.000000 0.924681 0.642969
1.000000 0.923400 0.662135
0.465309 0.978851 0.824582
0.465827 0.978820 0.824643
0.467597 0.978729 0.824735
0.470832 0.978607 0.824857
0.476448 0.978363 0.825223
0.484382 0.978088 0.825864
0.495216 0.977752 0.827054
0.508537 0.977447 0.828641
0.524559 0.977081 0.830930
0.542626 0.976684 0.833677
0.562280 0.976287 0.836881
0.583062 0.975860 0.840421
0.604700 0.975341 0.844205
0.626215 0.974731 0.847959
