20 Preset/Travel Style/【3】LUT video cho PR-AE-FCPX/Green Moody - Lut (20).cube
# Created by Adobe Lightroom plugin Export LUT (1.24.0)
# www.johnrellis.com/lightroom/exportlut.htm
# Preset: 20自然风光-瀑布-素材江湖
# Color profile: E:\lut插件\exportlut.1.24\exportlut.lrplugin\color profiles\Rec709gamma2.4.icc
LUT_3D_SIZE 5
DOMAIN_MIN 0.000000 0.000000 0.000000
DOMAIN_MAX 0.903226 0.903226 0.903226
0.157382 0.149844 0.145571
0.190036 0.148836 0.145968
0.423163 0.110628 0.141390
0.848936 0.000000 0.112856
1.000000 0.000000 0.130983
0.172732 0.179995 0.145113
0.201114 0.183780 0.144686
0.418524 0.193851 0.141665
0.854398 0.165743 0.108644
1.000000 0.203983 0.159060
0.251530 0.399023 0.078798
0.312749 0.395300 0.088167
0.485603 0.477821 0.000000
0.845304 0.544060 0.117617
1.000000 0.550744 0.304814
0.425208 0.745357 0.000000
0.484962 0.745571 0.000000
0.648402 0.767178 0.000000
0.835874 0.807889 0.000000
1.000000 0.797147 0.436042
0.663478 0.939513 0.241581
0.693690 0.938323 0.258549
0.793240 0.928374 0.289464
0.905821 0.940734 0.415747
1.000000 0.940307 0.568475
0.163668 0.156252 0.160189
0.174533 0.157961 0.161440
0.352789 0.145693 0.198489
0.808988 0.000000 0.205234
1.000000 0.000000 0.253666
0.158877 0.180728 0.174472
0.190463 0.183566 0.178134
0.400549 0.187442 0.192630
0.812680 0.144076 0.216190
1.000000 0.224125 0.275669
0.188022 0.390417 0.166354
0.269993 0.389837 0.170535
0.443854 0.442298 0.179385
0.808408 0.522301 0.274083
1.000000 0.568872 0.415747
0.372290 0.742641 0.000000
0.443000 0.743862 0.019867
0.629419 0.759121 0.145876
0.821378 0.804288 0.276005
0.999023 0.804562 0.553674
0.640894 0.939757 0.341039
0.672297 0.938323 0.352667
0.784329 0.933898 0.407446
0.899596 0.942535 0.515282
0.995697 0.943694 0.655390
0.197421 0.207370 0.287816
0.223117 0.211765 0.289525
0.293645 0.226841 0.293828
0.454627 0.371099 0.429877
0.974701 0.384161 0.626581
0.226719 0.266728 0.325444
0.243412 0.261784 0.322972
0.310399 0.267613 0.319921
0.532708 0.386023 0.473640
0.994690 0.428107 0.629847
0.000000 0.395972 0.393042
0.105715 0.399115 0.396765
0.356756 0.413703 0.414893
0.748531 0.508232 0.530083
0.997436 0.627802 0.678523
0.000000 0.740261 0.359838
0.000000 0.735744 0.403723
0.503441 0.739162 0.469154
0.756680 0.793729 0.598566
0.945922 0.830991 0.796292
0.514672 0.939269 0.565087
0.560632 0.938445 0.575891
0.704067 0.934325 0.616297
0.859617 0.936767 0.697780
0.964050 0.945403 0.803342
0.240085 0.378485 0.629419
0.278874 0.382330 0.629694
0.388251 0.392004 0.625544
0.512200 0.415625 0.623651
0.688441 0.623835 0.772732
0.262577 0.436927 0.662531
0.297154 0.437537 0.660426
0.398871 0.436957 0.648249
0.516320 0.448920 0.636591
0.691157 0.651942 0.786404
0.328374 0.599725 0.733120
0.362249 0.601984 0.735348
0.442023 0.590143 0.729885
0.547112 0.580377 0.707332
0.718929 0.754330 0.845975
0.000000 0.733639 0.781979
0.000000 0.732479 0.781247
0.239872 0.735683 0.787259
0.604089 0.742214 0.800168
0.911894 0.837705 0.898314
0.000000 0.949004 0.732143
0.000000 0.948150 0.735470
0.391485 0.943633 0.775174
0.774838 0.933288 0.853056
0.934722 0.949828 0.912688
0.551324 0.719692 0.930602
0.564508 0.720455 0.930053
0.612665 0.722225 0.927581
0.686183 0.721462 0.922148
0.770932 0.738125 0.919097
0.576684 0.746670 0.933349
0.587488 0.746609 0.932769
0.628473 0.745876 0.930327
0.694209 0.742000 0.924956
0.774289 0.753780 0.921691
0.656001 0.821469 0.942596
0.658015 0.818357 0.942382
0.677821 0.811276 0.940520
0.723598 0.802365 0.935271
0.789151 0.802060 0.930999
0.675441 0.873838 0.953368
0.691371 0.876158 0.953552
0.745632 0.884825 0.954437
0.776242 0.875700 0.953063
0.821714 0.865690 0.946471
0.434241 0.940093 0.961852
0.467323 0.939818 0.962005
0.577142 0.938811 0.962707
0.725124 0.937652 0.964324
0.879942 0.937041 0.967071
