20 Preset/Travel Style/【3】LUT video cho PR-AE-FCPX/Green Moody - Lut (18).cube
# Created by Adobe Lightroom plugin Export LUT (1.24.0)
# www.johnrellis.com/lightroom/exportlut.htm
# Preset: 18自然风光-极光-素材江湖
# Color profile: E:\lut插件\exportlut.1.24\exportlut.lrplugin\color profiles\Rec709gamma2.4.icc
LUT_3D_SIZE 5
DOMAIN_MIN 0.000000 0.000000 0.000000
DOMAIN_MAX 0.903226 0.903226 0.903226
0.070985 0.159457 0.172610
0.165957 0.163973 0.175570
0.505638 0.185702 0.158755
0.895262 0.207828 0.109529
1.000000 0.293675 0.194278
0.000000 0.219577 0.177401
0.163638 0.247227 0.172824
0.415290 0.276371 0.150149
0.854612 0.348241 0.016571
1.000000 0.403052 0.181949
0.000000 0.447974 0.170199
0.000000 0.425391 0.174136
0.520714 0.717861 0.018677
0.826139 0.669764 0.000000
0.983124 0.599481 0.000000
0.000000 0.700252 0.163821
0.000000 0.686275 0.162112
0.000000 0.770535 0.222934
0.731136 0.924407 0.597040
0.990997 0.921416 0.634516
0.000000 0.943084 0.282750
0.000000 0.939635 0.270268
0.000000 0.897917 0.132753
0.529168 0.967285 0.638483
0.879911 0.991424 0.928923
0.050446 0.162081 0.213931
0.150973 0.163943 0.218875
0.454017 0.096101 0.255100
0.893828 0.000000 0.232639
1.000000 0.215702 0.302770
0.054475 0.204013 0.229831
0.166293 0.228550 0.236790
0.464210 0.218540 0.204440
0.850187 0.253910 0.206424
1.000000 0.340490 0.282933
0.000000 0.451820 0.312840
0.000000 0.440558 0.245182
0.471260 0.616419 0.255314
0.744289 0.562310 0.000000
0.988983 0.578668 0.150423
0.000000 0.714534 0.330175
0.000000 0.705653 0.264012
0.000000 0.743008 0.299779
0.723720 0.915770 0.662898
0.977935 0.910826 0.658076
0.000000 0.941375 0.401770
0.000000 0.938476 0.344244
0.000000 0.925200 0.295995
0.547723 0.969940 0.700679
0.894224 0.992737 0.945373
0.000000 0.152407 0.485145
0.140871 0.148440 0.491341
0.415137 0.146883 0.512871
0.733364 0.189181 0.599268
1.000000 0.355474 0.714687
0.000000 0.224460 0.505608
0.000000 0.227939 0.506401
0.424292 0.256107 0.530266
0.755673 0.304845 0.626673
1.000000 0.463020 0.743008
0.000000 0.433478 0.607416
0.024903 0.451362 0.610651
0.474342 0.557702 0.652216
0.817288 0.532372 0.588434
1.000000 0.617609 0.675654
0.000000 0.780392 0.779416
0.000000 0.767544 0.746090
0.000000 0.736721 0.560662
0.709468 0.889891 0.829984
0.933959 0.848753 0.650568
0.000000 0.930877 0.742763
0.000000 0.930480 0.710414
0.000000 0.924956 0.528649
0.473854 0.944823 0.704402
0.896635 0.986877 0.956909
0.000000 0.129732 0.882841
0.000000 0.125063 0.886778
0.354925 0.139406 0.899931
0.681209 0.227329 0.909850
0.917845 0.377417 0.912413
0.000000 0.235050 0.885985
0.000000 0.239445 0.888609
0.352209 0.264683 0.895048
0.668757 0.325658 0.898283
0.902770 0.446693 0.908629
0.000000 0.488594 0.901823
0.000000 0.494942 0.902861
0.380835 0.528740 0.904845
0.667720 0.593011 0.909422
0.868528 0.670039 0.922606
0.000000 0.711177 0.931518
0.208682 0.717128 0.928466
0.454780 0.759701 0.927276
0.686976 0.831235 0.933562
0.910277 0.841978 0.936736
0.000000 0.949676 0.974670
0.000000 0.947784 0.971069
0.366857 0.941314 0.954040
0.357000 0.923583 0.835630
0.913756 0.980468 0.977264
0.000000 0.198459 1.000000
0.000000 0.207401 1.000000
0.393530 0.249088 1.000000
0.677485 0.349401 1.000000
0.898985 0.496254 1.000000
0.000000 0.306493 1.000000
0.000000 0.314305 1.000000
0.418311 0.351171 1.000000
0.686275 0.439124 1.000000
0.894499 0.567041 1.000000
0.146639 0.567163 1.000000
0.272160 0.575525 1.000000
0.491646 0.609125 1.000000
0.704005 0.672633 1.000000
0.880858 0.734493 1.000000
0.368597 0.790280 1.000000
0.410559 0.797940 1.000000
0.541344 0.822538 1.000000
0.728389 0.843900 1.000000
0.884276 0.866056 0.998627
0.633295 0.905760 1.000000
0.650111 0.908690 1.000000
0.709407 0.919005 1.000000
0.807492 0.938048 0.997498
0.925811 0.964752 0.994842
