20 Preset/Travel Style/【3】LUT video cho PR-AE-FCPX/Green Moody - Lut (9).cube
# Created by Adobe Lightroom plugin Export LUT (1.24.0)
# www.johnrellis.com/lightroom/exportlut.htm
# Preset: 09自然风光-冒险-素材江湖
# Color profile: E:\lut插件\exportlut.1.24\exportlut.lrplugin\color profiles\Rec709gamma2.4.icc
LUT_3D_SIZE 32
DOMAIN_MIN 0.0 0.0 0.0
DOMAIN_MAX 1.0 1.0 1.0
0.139040 0.152895 0.168734
0.139437 0.152865 0.168734
0.140108 0.152987 0.168734
0.142306 0.152987 0.168856
0.146273 0.152956 0.168795
0.151858 0.152743 0.169100
0.160555 0.152743 0.169131
0.172457 0.152438 0.169284
0.189334 0.151858 0.169162
0.211521 0.151003 0.169253
0.238987 0.149264 0.169192
0.271153 0.146578 0.168887
0.308293 0.142061 0.168551
0.350072 0.135317 0.167880
0.396216 0.124788 0.167025
0.446784 0.107729 0.166079
0.502007 0.067628 0.164706
0.561517 0.000000 0.163180
0.624994 0.000000 0.160739
0.690761 0.000000 0.158083
0.754421 0.000000 0.155154
0.821866 0.000000 0.152132
0.885557 0.000000 0.149386
0.938964 0.000000 0.147890
0.983612 0.000000 0.148318
1.000000 0.000000 0.150393
1.000000 0.000000 0.154665
1.000000 0.000000 0.160433
1.000000 0.000000 0.168215
1.000000 0.000000 0.178103
1.000000 0.000000 0.189853
1.000000 0.000000 0.204166
0.139284 0.153079 0.168734
0.139284 0.153079 0.168734
0.140444 0.152956 0.168887
0.142550 0.153140 0.168856
0.146242 0.152956 0.168978
0.151583 0.153201 0.169039
0.160098 0.153017 0.169100
0.171756 0.152743 0.169253
0.188144 0.152224 0.169345
0.209903 0.151308 0.169253
0.236698 0.149752 0.169192
0.268650 0.147036 0.168948
0.305089 0.142885 0.168612
0.346044 0.136751 0.167941
0.391699 0.126741 0.167147
0.441749 0.111086 0.166201
0.496681 0.080323 0.164889
0.555657 0.000000 0.163210
0.618891 0.000000 0.161074
0.684382 0.000000 0.158328
0.747829 0.000000 0.155489
0.814267 0.000000 0.152560
0.876707 0.000000 0.149722
0.929931 0.000000 0.148043
0.974975 0.000000 0.148135
1.000000 0.000000 0.149630
1.000000 0.000000 0.153201
1.000000 0.000000 0.158633
1.000000 0.000000 0.165866
1.000000 0.000000 0.175235
1.000000 0.000000 0.186801
1.000000 0.000000 0.200595
0.139467 0.153872 0.168795
0.139864 0.153841 0.168795
0.140658 0.153750 0.168795
0.142061 0.153811 0.168948
0.145449 0.154055 0.169223
0.151308 0.154025 0.169314
0.159396 0.154086 0.169345
0.171115 0.153811 0.169497
0.187503 0.153536 0.169375
0.208804 0.152895 0.169467
0.235477 0.151644 0.169375
0.266941 0.149355 0.168917
0.302983 0.145510 0.168582
0.343694 0.139803 0.167941
0.388922 0.130770 0.167300
0.438727 0.116701 0.166354
0.493111 0.092653 0.165011
0.552026 0.003052 0.163363
0.614954 0.000000 0.161166
0.680476 0.000000 0.158389
0.744167 0.000000 0.155764
0.811002 0.000000 0.152529
0.872618 0.000000 0.149844
0.925597 0.000000 0.148501
0.970642 0.000000 0.148318
1.000000 0.000000 0.149538
1.000000 0.000000 0.153109
1.000000 0.000000 0.158175
1.000000 0.000000 0.165225
1.000000 0.000000 0.174472
1.000000 0.000000 0.185946
1.000000 0.000000 0.199466
0.140810 0.155489 0.169131
0.140810 0.155489 0.169131
0.141878 0.155581 0.169100
0.142916 0.155673 0.169070
0.145815 0.155581 0.169223
0.151217 0.155581 0.169650
0.159121 0.155886 0.169833
0.170962 0.156008 0.169955
0.186740 0.156008 0.169802
0.208469 0.155734 0.169650
0.234958 0.154757 0.169375
0.266026 0.153048 0.169039
0.301854 0.150271 0.168826
0.342107 0.145510 0.168124
0.386816 0.137850 0.167422
0.435676 0.125978 0.166506
0.489357 0.106813 0.165133
0.547112 0.054994 0.163638
0.609155 0.000000 0.161471
0.673915 0.000000 0.158846
0.737301 0.000000 0.156191
0.803799 0.000000 0.152987
0.864225 0.000000 0.150454
0.917632 0.000000 0.148898
0.964111 0.000000 0.148287
1.000000 0.000000 0.150027
1.000000 0.000000 0.153445
1.000000 0.000000 0.158846
1.000000 0.000000 0.166049
1.000000 0.000000 0.175479
1.000000 0.000000 0.186801
1.000000 0.000000 0.200076
0.142061 0.158877 0.169223
0.142458 0.158816 0.169223
0.143954 0.158663 0.169406
0.145235 0.158938 0.169345
0.147127 0.158755 0.169345
0.151400 0.158480 0.169467
0.158724 0.158999 0.169986
0.169894 0.159213 0.170443
0.185763 0.159792 0.170230
0.207248 0.159976 0.170047
0.233280 0.159731 0.169863
0.264225 0.158938 0.169467
0.299718 0.156893 0.169009
0.339849 0.153567 0.168368
0.384039 0.147951 0.167758
0.433326 0.138705 0.166690
0.487037 0.124269 0.165377
0.545281 0.099947 0.163699
0.607263 0.017731 0.161501
0.671992 0.000000 0.158877
0.736568 0.000000 0.156435
0.802182 0.000000 0.153292
0.861570 0.000000 0.150881
0.914824 0.000000 0.149325
0.961456 0.000000 0.149386
1.000000 0.000000 0.150912
1.000000 0.000000 0.154604
1.000000 0.000000 0.160098
1.000000 0.000000 0.167697
1.000000 0.000000 0.177066
1.000000 0.000000 0.188571
1.000000 0.000000 0.201999
0.144381 0.163485 0.169467
0.144778 0.163455 0.169467
0.145846 0.163363 0.169650
0.148318 0.163302 0.169802
0.150515 0.163638 0.169711
0.153384 0.163333 0.169711
0.158755 0.163485 0.169772
0.169741 0.164065 0.170016
0.185794 0.164950 0.170626
0.207553 0.165805 0.170687
0.233646 0.166812 0.170352
0.265049 0.166873 0.169986
0.300542 0.166354 0.169528
0.340520 0.164187 0.168948
0.385382 0.160494 0.168124
0.434699 0.153841 0.167025
0.489021 0.143282 0.165621
0.547601 0.127382 0.163973
0.610071 0.100893 0.161807
0.674678 0.011566 0.159182
0.741726 0.000000 0.156344
0.806027 0.000000 0.153445
0.914031 0.000000 0.150607
0.962829 0.000000 0.151766
1.000000 0.000000 0.154940
1.000000 0.000000 0.159670
1.000000 0.000000 0.166964
1.000000 0.000000 0.175235
1.000000 0.000000 0.185550
1.000000 0.000000 0.197238
1.000000 0.000000 0.210330
1.000000 0.000000 0.224979
0.148775 0.171756 0.169345
0.148775 0.171756 0.169345
0.150546 0.171603 0.169528
0.153384 0.171328 0.169680
0.156710 0.171695 0.169772
0.160372 0.172335 0.169619
0.164675 0.171908 0.169589
0.171511 0.172000 0.169802
0.188510 0.174044 0.170016
0.211521 0.176059 0.170565
0.240665 0.177829 0.171054
0.274754 0.179202 0.170901
0.311986 0.179873 0.170291
0.353643 0.179232 0.169528
0.399603 0.177035 0.168521
0.449928 0.172976 0.167483
0.504997 0.166140 0.165896
0.564111 0.155825 0.164034
0.627375 0.140078 0.161501
0.695583 0.116854 0.158724
0.768368 0.069245 0.155734
0.836057 0.000000 0.153323
0.897002 0.000000 0.152255
0.949676 0.000000 0.153414
0.993957 0.000000 0.156863
1.000000 0.000000 0.162325
1.000000 0.000000 0.169619
1.000000 0.000000 0.178012
1.000000 0.000000 0.188174
1.000000 0.000000 0.199893
1.000000 0.046967 0.213016
1.000000 0.118196 0.227665
0.153475 0.182650 0.169284
0.153628 0.182467 0.169314
0.155550 0.182467 0.169467
0.159060 0.181979 0.169650
0.163363 0.181857 0.169924
0.167697 0.182559 0.169741
0.173342 0.183536 0.169497
0.178775 0.183139 0.169619
0.187106 0.182956 0.169802
0.208804 0.186770 0.169772
0.237095 0.190097 0.170169
0.271336 0.192996 0.170809
0.311894 0.194858 0.171786
0.353826 0.196353 0.171054
0.399603 0.196597 0.170047
0.449531 0.195560 0.168795
0.504295 0.192508 0.167208
0.563256 0.187594 0.165225
0.627558 0.179904 0.162905
0.699092 0.169711 0.159854
0.767788 0.156863 0.157412
0.832792 0.142397 0.155276
0.892058 0.128176 0.154910
0.943816 0.116823 0.156649
0.987884 0.110292 0.160739
1.000000 0.109468 0.166629
1.000000 0.114382 0.173861
1.000000 0.123568 0.182773
1.000000 0.137118 0.193668
1.000000 0.153353 0.205600
1.000000 0.171359 0.218936
1.000000 0.190585 0.233494
0.160250 0.197665 0.168887
0.160586 0.197635 0.168887
0.162570 0.197452 0.168856
0.166354 0.197116 0.169223
0.172183 0.196597 0.169528
0.177310 0.197086 0.169528
0.183200 0.198184 0.169223
0.191104 0.199619 0.168795
0.198184 0.198856 0.169100
0.207218 0.197940 0.169223
0.233066 0.203555 0.169100
0.266545 0.208713 0.169345
0.305821 0.213077 0.170291
0.351385 0.216739 0.171389
0.402258 0.219364 0.172732
0.452491 0.220920 0.171176
0.507317 0.221347 0.169711
0.567834 0.220829 0.167544
0.635920 0.219821 0.164797
0.704219 0.216617 0.162356
0.770138 0.212680 0.160128
0.832578 0.208042 0.158999
0.890105 0.204196 0.158999
0.940581 0.201816 0.161685
0.983917 0.201358 0.166476
1.000000 0.201999 0.173098
1.000000 0.204654 0.181094
1.000000 0.209110 0.190707
1.000000 0.215976 0.201846
1.000000 0.224735 0.214115
1.000000 0.235386 0.228000
1.000000 0.247807 0.242832
0.168276 0.217258 0.167636
0.168917 0.217227 0.167636
0.170840 0.216953 0.167849
0.175296 0.216556 0.168002
0.181338 0.215915 0.168521
0.188632 0.215610 0.168765
0.194888 0.216770 0.168399
0.202914 0.218204 0.168124
0.212772 0.220096 0.167666
0.221012 0.218936 0.167849
0.230503 0.216678 0.168521
0.259648 0.224002 0.167880
0.297704 0.230900 0.167971
0.341833 0.237491 0.168887
0.392889 0.243626 0.170382
0.450813 0.248875 0.172671
0.514702 0.254307 0.173709
0.578393 0.258396 0.171511
0.645197 0.261418 0.169100
0.711208 0.263005 0.166751
0.774380 0.263401 0.165164
0.833341 0.262760 0.164492
0.887358 0.262516 0.165255
0.935271 0.262150 0.168276
0.976867 0.262608 0.173404
1.000000 0.263401 0.180117
1.000000 0.265568 0.188724
1.000000 0.268894 0.198764
1.000000 0.273716 0.210666
1.000000 0.280247 0.223850
1.000000 0.287968 0.238132
1.000000 0.297429 0.253696
0.177310 0.240116 0.165866
0.177615 0.240085 0.165866
0.180087 0.240024 0.165835
0.184482 0.239689 0.166171
0.191470 0.239322 0.166445
0.200473 0.238773 0.167086
0.208316 0.239567 0.166873
0.216861 0.241123 0.166659
0.226902 0.243290 0.165866
0.239139 0.245792 0.165438
0.248600 0.244083 0.165866
0.258091 0.240299 0.166781
0.289891 0.249241 0.165591
0.333013 0.258640 0.165621
0.384924 0.268772 0.166537
0.443946 0.278904 0.168124
0.510338 0.288548 0.171176
0.583642 0.297490 0.175814
0.652033 0.304173 0.175692
0.715785 0.308476 0.173617
0.776547 0.311345 0.172641
0.833555 0.313451 0.172549
0.885985 0.315251 0.174166
0.932647 0.316533 0.178073
0.973449 0.317815 0.183993
1.000000 0.319310 0.191714
1.000000 0.321141 0.201083
1.000000 0.323796 0.211917
1.000000 0.327306 0.224399
1.000000 0.332250 0.238132
1.000000 0.338323 0.253147
1.000000 0.345617 0.269108
0.187259 0.268528 0.162570
0.187808 0.268498 0.162570
0.190280 0.268406 0.162905
0.195071 0.268162 0.163027
0.202548 0.267948 0.163455
0.212528 0.267521 0.164218
0.223667 0.267399 0.164675
0.232364 0.269291 0.164065
0.243015 0.271489 0.163485
0.255619 0.274266 0.162448
0.270146 0.277440 0.161563
0.281895 0.275914 0.162264
0.308415 0.285039 0.161959
0.345647 0.296849 0.159548
0.401831 0.311955 0.159091
0.465705 0.327306 0.160403
0.536889 0.342382 0.163180
0.614069 0.356909 0.167880
0.691920 0.369207 0.176242
0.766384 0.378820 0.189548
0.823117 0.382910 0.190524
0.873747 0.385199 0.193057
0.918944 0.386694 0.197818
0.958862 0.387640 0.204501
0.993896 0.388128 0.212772
1.000000 0.388251 0.222232
1.000000 0.388708 0.232578
1.000000 0.389410 0.243992
1.000000 0.390997 0.256229
1.000000 0.393500 0.269871
1.000000 0.397284 0.284642
1.000000 0.402533 0.300633
0.200198 0.307897 0.157076
0.200931 0.307866 0.157076
0.203403 0.307622 0.157290
0.208957 0.306889 0.157595
0.217044 0.306249 0.158145
0.228000 0.305394 0.158877
0.241459 0.304631 0.160006
0.253239 0.306615 0.159701
0.265110 0.310033 0.158633
0.279637 0.314336 0.157473
0.296727 0.319860 0.155673
0.316899 0.326390 0.153353
0.332067 0.325383 0.154513
0.348455 0.322484 0.156466
0.384894 0.333837 0.152834
0.446571 0.351965 0.152560
0.515038 0.369848 0.153689
0.588952 0.387121 0.156924
0.664973 0.402380 0.163577
0.738338 0.414527 0.175479
0.807065 0.424109 0.192599
0.865904 0.430335 0.209842
0.910399 0.432166 0.214847
0.950042 0.433326 0.221775
0.985077 0.433906 0.230137
1.000000 0.434119 0.240146
1.000000 0.434455 0.250919
1.000000 0.434943 0.262882
1.000000 0.436042 0.275883
1.000000 0.438209 0.290074
1.000000 0.441199 0.305272
1.000000 0.445380 0.321782
0.213565 0.348363 0.149020
0.214176 0.348211 0.149081
0.217197 0.347509 0.149477
0.222751 0.346990 0.149966
0.231205 0.346319 0.150790
0.243259 0.345525 0.151736
0.257816 0.344793 0.152895
0.273655 0.344945 0.153780
0.285496 0.347814 0.152834
0.299962 0.351873 0.151186
0.316991 0.357275 0.149294
0.337133 0.363775 0.146517
0.359808 0.370886 0.143435
0.375799 0.368719 0.145602
0.392706 0.364691 0.148440
0.428321 0.373754 0.144686
0.491279 0.393347 0.143221
0.562768 0.413092 0.144320
0.637720 0.431495 0.149355
0.710903 0.446448 0.159640
0.780301 0.458564 0.176028
0.844236 0.468208 0.198276
0.899901 0.475380 0.225559
0.943542 0.478920 0.244144
0.978241 0.479622 0.253208
1.000000 0.479774 0.263432
1.000000 0.479866 0.274846
1.000000 0.479988 0.286839
1.000000 0.480812 0.300389
1.000000 0.482338 0.315129
1.000000 0.484749 0.330602
1.000000 0.488258 0.347539
0.228611 0.392615 0.137819
0.229374 0.392462 0.137850
0.232425 0.391730 0.138643
0.238071 0.390845 0.139162
0.247105 0.389593 0.140169
0.259129 0.388251 0.141787
0.274388 0.387213 0.143404
0.292363 0.386542 0.145296
0.307378 0.388312 0.144839
0.321874 0.392187 0.142977
0.339055 0.397375 0.140749
0.359045 0.403906 0.137514
0.381720 0.411017 0.133883
0.405554 0.417517 0.129824
0.422156 0.414374 0.133150
0.439216 0.408942 0.137362
0.473487 0.415656 0.133974
0.536645 0.436042 0.130129
0.610376 0.457160 0.132113
0.683406 0.475044 0.141024
0.753811 0.489754 0.156680
0.819791 0.501793 0.178897
0.877897 0.510735 0.207309
0.927886 0.517449 0.239780
0.970306 0.522942 0.275303
1.000000 0.524102 0.291417
1.000000 0.524163 0.303014
1.000000 0.524407 0.316197
1.000000 0.525170 0.330449
1.000000 0.526909 0.346258
1.000000 0.529442 0.363317
1.000000 0.532982 0.381598
0.245335 0.437018 0.122835
0.246067 0.437110 0.122713
0.249180 0.436744 0.123384
0.255436 0.436255 0.123995
0.265049 0.435431 0.125216
0.277928 0.434730 0.127138
0.293858 0.434302 0.129091
0.313176 0.434302 0.131441
0.333928 0.434974 0.133516
0.348730 0.438849 0.131106
0.365698 0.443397 0.128389
0.385016 0.448646 0.124910
0.406561 0.454444 0.120058
0.429877 0.460334 0.114931
0.453101 0.464546 0.110903
0.468940 0.459358 0.116487
0.485908 0.452827 0.122560
0.518181 0.457008 0.119997
0.580133 0.477577 0.112795
0.653590 0.498512 0.118593
0.725765 0.516594 0.133333
0.794369 0.531731 0.156191
0.855528 0.543084 0.186038
0.908385 0.551354 0.220951
0.953277 0.557671 0.258579
0.991424 0.563134 0.298650
1.000000 0.568566 0.338384
1.000000 0.568750 0.351843
1.000000 0.569177 0.366369
1.000000 0.570306 0.382055
1.000000 0.572076 0.398688
1.000000 0.574823 0.416571
0.264378 0.482399 0.100313
0.265171 0.482277 0.100404
0.268467 0.482094 0.101106
0.274632 0.481758 0.102113
0.284337 0.481239 0.104097
0.297490 0.480659 0.106416
0.314061 0.480354 0.109346
0.333654 0.480385 0.112398
0.355993 0.480598 0.116243
0.374762 0.482856 0.116365
0.391516 0.487068 0.112398
0.410529 0.492012 0.107942
0.431739 0.497444 0.101656
0.454688 0.502983 0.094789
0.479286 0.508659 0.084504
0.502556 0.511589 0.074769
0.518608 0.505882 0.090547
0.536126 0.499184 0.100465
0.566491 0.500877 0.100313
0.624689 0.519677 0.088685
0.697993 0.540795 0.102052
0.768521 0.558740 0.127138
0.832425 0.572625 0.160128
0.888090 0.582635 0.198367
0.935454 0.589929 0.239200
0.975708 0.595819 0.281956
1.000000 0.601251 0.325902
1.000000 0.607111 0.371008
1.000000 0.611994 0.406958
1.000000 0.613001 0.422797
1.000000 0.614496 0.439643
1.000000 0.616785 0.457313
0.288823 0.531548 0.031647
0.290013 0.531853 0.032319
0.306126 0.554742 0.000000
0.312871 0.554406 0.000000
0.323156 0.553918 0.000397
0.336889 0.553277 0.009216
0.354314 0.552575 0.021149
0.374731 0.552087 0.037263
0.398230 0.551965 0.055604
0.423804 0.552270 0.075990
0.440986 0.556023 0.060975
0.460060 0.560143 0.043885
0.480842 0.564263 0.023987
0.503197 0.568261 0.002960
0.526513 0.572137 0.000000
0.551263 0.575921 0.000000
0.572808 0.575738 0.000000
0.587610 0.567956 0.000000
0.603540 0.559167 0.030640
0.629389 0.556237 0.047089
0.682490 0.572137 0.010895
0.753506 0.591699 0.086061
0.818082 0.606683 0.132021
0.874235 0.617365 0.177554
0.921965 0.624475 0.222660
0.962737 0.629541 0.267857
0.997528 0.633722 0.313054
1.000000 0.638087 0.359197
1.000000 0.643702 0.406683
1.000000 0.650965 0.454810
1.000000 0.655268 0.484077
1.000000 0.657160 0.501152
0.322087 0.587701 0.000000
0.324315 0.589746 0.000000
0.329015 0.591791 0.000000
0.336431 0.593530 0.000000
0.347326 0.594659 0.000000
0.360998 0.594720 0.000000
0.377966 0.594293 0.000000
0.397742 0.593652 0.000000
0.420508 0.593317 0.000000
0.445869 0.593072 0.000000
0.467353 0.594812 0.000000
0.485573 0.598322 0.000000
0.505241 0.601801 0.000000
0.526421 0.605554 0.000000
0.549035 0.609155 0.000000
0.572900 0.612787 0.000000
0.597742 0.616419 0.000000
0.619135 0.615930 0.000000
0.634668 0.608820 0.000000
0.651423 0.600946 0.000000
0.674769 0.596216 0.000000
0.723964 0.611109 0.000000
0.791867 0.629267 0.069856
0.851164 0.642237 0.141024
0.901671 0.650935 0.193515
0.944884 0.656764 0.243320
0.981720 0.661128 0.291722
1.000000 0.665003 0.340612
1.000000 0.669551 0.389807
1.000000 0.675441 0.439826
1.000000 0.683223 0.490364
1.000000 0.693111 0.540459
0.351873 0.630732 0.000000
0.354528 0.632837 0.000000
0.359106 0.634943 0.000000
0.366522 0.636805 0.000000
0.376989 0.637995 0.000000
0.390143 0.638178 0.000000
0.406500 0.637781 0.000000
0.425544 0.637201 0.000000
0.447333 0.636713 0.000000
0.471870 0.636286 0.000000
0.498604 0.636072 0.000000
0.515770 0.638972 0.000000
0.534417 0.642084 0.000000
0.554681 0.645319 0.000000
0.576379 0.648676 0.000000
0.599145 0.652003 0.000000
0.623133 0.655329 0.000000
0.648249 0.658961 0.000000
0.668666 0.657710 0.000000
0.684260 0.650965 0.000000
0.700923 0.643336 0.000000
0.721035 0.636561 0.000000
0.767819 0.649928 0.000000
0.827207 0.664729 0.080446
0.880735 0.675319 0.157107
0.926543 0.682246 0.215030
0.965637 0.687037 0.267765
0.999176 0.690761 0.319615
1.000000 0.694667 0.371374
1.000000 0.699336 0.423468
1.000000 0.705623 0.475990
1.000000 0.713619 0.527916
0.386145 0.674037 0.000000
0.388128 0.675868 0.000000
0.392737 0.677638 0.000000
0.399573 0.679255 0.000000
0.409369 0.680262 0.000000
0.421942 0.680354 0.000000
0.437232 0.680140 0.000000
0.455360 0.679530 0.000000
0.476539 0.679072 0.000000
0.499977 0.678584 0.000000
0.525872 0.678279 0.000000
0.548089 0.679286 0.000000
0.565911 0.681941 0.000000
0.584985 0.684779 0.000000
0.605585 0.687831 0.000000
0.627527 0.691066 0.000000
0.651057 0.694697 0.000000
0.675898 0.698665 0.000000
0.702083 0.703090 0.000000
0.722835 0.702296 0.000000
0.739467 0.696834 0.000000
0.756954 0.690486 0.000000
0.774990 0.682856 0.000000
0.817472 0.693660 0.000000
0.867979 0.704952 0.118898
0.915801 0.713222 0.194003
0.956481 0.718593 0.255436
0.991150 0.722469 0.312871
1.000000 0.726009 0.369146
1.000000 0.730037 0.424811
1.000000 0.735164 0.480018
1.000000 0.741878 0.534386
0.433387 0.726894 0.000000
0.434699 0.727626 0.000000
0.437720 0.728054 0.000000
0.443244 0.728206 0.000000
0.451453 0.728054 0.000000
0.462562 0.727413 0.000000
0.476478 0.726741 0.000000
0.493568 0.726040 0.000000
0.513451 0.725429 0.000000
0.536217 0.724971 0.000000
0.560967 0.724575 0.000000
0.587793 0.724147 0.000000
0.604761 0.726192 0.000000
0.622614 0.728450 0.000000
0.641749 0.730739 0.000000
0.662135 0.733181 0.000000
0.683619 0.735775 0.000000
0.706355 0.738643 0.000000
0.730007 0.741665 0.000000
0.754910 0.745052 0.000000
0.772763 0.742519 0.000000
0.787411 0.736049 0.000000
0.802487 0.728603 0.000000
0.818082 0.720089 0.024445
0.853513 0.726223 0.074434
0.896208 0.734493 0.146639
0.939666 0.741024 0.221988
0.976776 0.745388 0.286137
1.000000 0.748775 0.346441
1.000000 0.752071 0.405249
1.000000 0.756130 0.462989
1.000000 0.761410 0.519860
0.471138 0.764462 0.000000
0.472206 0.765011 0.000000
0.475135 0.765377 0.000000
0.480323 0.765469 0.000000
0.487770 0.765377 0.000000
0.498024 0.764889 0.000000
0.511131 0.764309 0.000000
0.527001 0.763638 0.000000
0.545495 0.763058 0.000000
0.566918 0.762509 0.000000
0.590295 0.762051 0.000000
0.615686 0.761532 0.000000
0.637568 0.761868 0.000000
0.654139 0.763790 0.000000
0.671962 0.765805 0.000000
0.691035 0.767910 0.000000
0.711238 0.770169 0.000000
0.732387 0.772549 0.000000
0.754513 0.775143 0.000000
0.777462 0.777981 0.000000
0.801205 0.780972 0.000000
0.817166 0.777554 0.000000
0.830625 0.771145 0.000000
0.844541 0.763790 0.083070
0.853758 0.751125 0.105165
0.883818 0.754025 0.128115
0.920806 0.760342 0.174594
0.960693 0.765560 0.250462
0.994629 0.769162 0.316564
1.000000 0.772244 0.379370
1.000000 0.775631 0.440986
1.000000 0.779934 0.501030
0.514916 0.803250 0.000000
0.516411 0.803983 0.000000
0.518975 0.804257 0.000000
0.523186 0.803952 0.000000
0.529351 0.803281 0.000000
0.537926 0.802213 0.000000
0.548852 0.800931 0.000000
0.562554 0.799557 0.000000
0.578973 0.798123 0.000000
0.597864 0.796841 0.000000
0.618769 0.795499 0.000000
0.641901 0.794308 0.000000
0.666377 0.793057 0.000000
0.682002 0.793729 0.000000
0.697505 0.794614 0.000000
0.714199 0.795682 0.000000
0.732113 0.796963 0.000000
0.751247 0.798611 0.000000
0.771542 0.800687 0.000000
0.792905 0.803159 0.000000
0.815152 0.805844 0.000000
0.837827 0.808591 0.000000
0.851743 0.804288 0.069062
0.863737 0.797513 0.110872
0.875853 0.789700 0.135409
0.888273 0.780850 0.155947
0.913451 0.780880 0.175540
0.945006 0.785245 0.208164
0.981109 0.789120 0.282902
1.000000 0.791989 0.350713
1.000000 0.794766 0.415778
1.000000 0.798215 0.479713
0.547875 0.830198 0.000000
0.549126 0.830808 0.000000
0.551690 0.831144 0.000000
0.555688 0.831083 0.000000
0.561822 0.830747 0.000000
0.570062 0.830228 0.000000
0.580804 0.829648 0.000000
0.594324 0.828885 0.000000
0.610010 0.828244 0.000000
0.628016 0.827512 0.000000
0.648035 0.826658 0.000000
0.669734 0.825742 0.057679
0.692836 0.824643 0.105837
0.712886 0.824155 0.122713
0.727077 0.824796 0.121767
0.742214 0.825498 0.121218
0.758419 0.826352 0.121096
0.775692 0.827481 0.121675
0.794156 0.829007 0.124361
0.813596 0.830900 0.127993
0.833890 0.832975 0.133181
0.854765 0.835203 0.138735
0.876036 0.837430 0.144594
0.888090 0.832425 0.162692
0.899138 0.825711 0.180514
0.910460 0.818235 0.196780
0.922148 0.809934 0.212345
0.943481 0.808194 0.231113
0.970947 0.811551 0.254490
1.000000 0.814481 0.329992
1.000000 0.816922 0.400214
1.000000 0.818997 0.465644
0.584466 0.858030 0.000000
0.585260 0.858305 0.000000
0.587121 0.858366 0.000000
0.590753 0.858213 0.000000
0.596124 0.857847 0.000000
0.603632 0.857298 0.000000
0.613367 0.856626 0.000000
0.625330 0.855894 0.007050
0.639551 0.855131 0.055451
0.655940 0.854337 0.096468
0.674311 0.853422 0.117861
0.694362 0.852506 0.138460
0.715724 0.851499 0.157412
0.738247 0.850278 0.176089
0.752621 0.850492 0.179355
0.766445 0.850980 0.179019
0.781125 0.851591 0.179812
0.796902 0.852415 0.180758
0.813748 0.853574 0.183291
0.831601 0.855039 0.187198
0.850156 0.856748 0.191989
0.869413 0.858549 0.197238
0.889006 0.860288 0.202579
0.908873 0.862028 0.207858
0.919036 0.856260 0.221775
0.929076 0.849546 0.234745
0.939483 0.842222 0.248051
0.950195 0.834226 0.261265
0.968475 0.831113 0.279271
0.993866 0.834104 0.304173
1.000000 0.835813 0.370336
1.000000 0.837156 0.439643
0.617029 0.881743 0.100435
0.617670 0.881956 0.102937
0.619471 0.882048 0.105715
0.622919 0.881987 0.110079
0.628016 0.881865 0.116396
0.635279 0.881773 0.124514
0.645106 0.881834 0.136110
0.657191 0.881926 0.149599
0.671534 0.882139 0.164248
0.687800 0.882322 0.180240
0.705989 0.882506 0.197055
0.725551 0.882506 0.213809
0.746273 0.882322 0.230869
0.767819 0.881834 0.247745
0.786770 0.881590 0.259861
0.799588 0.882170 0.261814
0.812955 0.882780 0.263737
0.827329 0.883452 0.265843
0.842527 0.884367 0.269108
0.858640 0.885435 0.273198
0.875486 0.886717 0.278050
0.892912 0.888060 0.283360
0.910674 0.889342 0.288731
0.928801 0.890623 0.294163
0.946685 0.891508 0.299718
0.955444 0.885466 0.310063
0.964446 0.878874 0.321172
0.973724 0.871733 0.332006
0.983093 0.863798 0.342199
0.997498 0.859007 0.357092
1.000000 0.860441 0.380285
1.000000 0.861295 0.437781
0.657954 0.909911 0.207767
0.658228 0.909911 0.207980
0.659632 0.909789 0.208774
0.662257 0.909575 0.209934
0.666621 0.909239 0.212314
0.672755 0.908843 0.215824
0.680720 0.908415 0.220920
0.690791 0.907927 0.227237
0.702754 0.907469 0.235233
0.716579 0.906920 0.244755
0.732082 0.906371 0.255924
0.749081 0.905730 0.267979
0.767422 0.904997 0.281041
0.786709 0.904143 0.294621
