20 Preset/Travel Style/【3】LUT video cho PR-AE-FCPX/Green Moody - Lut (16).cube
# Created by Adobe Lightroom plugin Export LUT (1.24.0)
# www.johnrellis.com/lightroom/exportlut.htm
# Preset: 16自然风光-动物-素材江湖
# Color profile: E:\lut插件\exportlut.1.24\exportlut.lrplugin\color profiles\Rec709gamma2.4.icc
LUT_3D_SIZE 32
DOMAIN_MIN 0.0 0.0 0.0
DOMAIN_MAX 1.0 1.0 1.0
0.111879 0.140902 0.173373
0.111879 0.140902 0.173373
0.112978 0.140810 0.173373
0.118441 0.140566 0.173678
0.127474 0.140841 0.174228
0.139651 0.141573 0.174655
0.155886 0.142061 0.175204
0.177401 0.142611 0.175235
0.205325 0.142947 0.175601
0.240787 0.143038 0.175479
0.283604 0.143038 0.175174
0.333684 0.142275 0.173922
0.389563 0.140230 0.172274
0.450599 0.137270 0.169955
0.514885 0.132204 0.167147
0.580835 0.124941 0.163699
0.646754 0.115663 0.159609
0.712184 0.102785 0.155093
0.776761 0.079255 0.150240
0.838529 0.023499 0.145571
0.894469 0.000000 0.142092
0.959197 0.000000 0.139895
1.000000 0.000000 0.144778
1.000000 0.000000 0.154147
1.000000 0.000000 0.168338
1.000000 0.000000 0.185428
1.000000 0.055177 0.205295
1.000000 0.111452 0.225956
1.000000 0.145235 0.249241
1.000000 0.178836 0.274754
1.000000 0.212680 0.303166
1.000000 0.248783 0.334447
0.111879 0.140902 0.173373
0.111879 0.140902 0.173373
0.113527 0.140780 0.173373
0.118746 0.140749 0.173648
0.127138 0.141329 0.174166
0.138888 0.142092 0.174777
0.154635 0.142672 0.174990
0.175540 0.143099 0.175235
0.201877 0.143801 0.175601
0.235904 0.144350 0.175479
0.277409 0.143954 0.175326
0.325841 0.143313 0.174197
0.380407 0.141939 0.172641
0.440131 0.139559 0.170504
0.503655 0.135775 0.167636
0.568933 0.129458 0.164248
0.635248 0.121889 0.160220
0.700649 0.110353 0.155947
0.765255 0.092592 0.151156
0.827817 0.051453 0.146120
0.884062 0.005249 0.142306
0.948241 0.000000 0.140078
1.000000 0.000000 0.142916
1.000000 0.000000 0.150881
1.000000 0.000000 0.162905
1.000000 0.000000 0.177859
1.000000 0.028687 0.196170
1.000000 0.099672 0.215946
1.000000 0.134279 0.238071
1.000000 0.166598 0.263432
1.000000 0.200320 0.291417
1.000000 0.236118 0.322545
0.111086 0.142092 0.173922
0.111543 0.142275 0.173739
0.113100 0.142367 0.173556
0.118318 0.143038 0.173770
0.127016 0.143771 0.174258
0.138857 0.144533 0.174685
0.154208 0.145144 0.175082
0.174746 0.145846 0.175479
0.200443 0.146853 0.175662
0.233829 0.147829 0.175845
0.274693 0.148348 0.175113
0.322148 0.148867 0.174105
0.375433 0.148409 0.172610
0.434028 0.147250 0.170321
0.496590 0.144564 0.167697
0.561486 0.141817 0.164126
0.627283 0.135073 0.160342
0.693019 0.126131 0.155886
0.757687 0.115084 0.150759
0.820737 0.099458 0.145968
0.877928 0.075380 0.142367
0.943755 0.026947 0.139681
1.000000 0.000000 0.141939
1.000000 0.000000 0.149691
1.000000 0.000000 0.160922
1.000000 0.025910 0.174960
1.000000 0.081086 0.191897
1.000000 0.112581 0.211398
1.000000 0.139986 0.233677
1.000000 0.169741 0.257969
1.000000 0.200900 0.285863
1.000000 0.234592 0.316472
0.111849 0.145907 0.174868
0.112398 0.145876 0.174868
0.114626 0.146120 0.174990
0.117342 0.147433 0.174166
0.126772 0.149142 0.174380
0.138857 0.149416 0.175021
0.154665 0.150362 0.175357
0.174807 0.151675 0.175662
0.200778 0.153017 0.175967
0.233585 0.155001 0.175723
0.273747 0.156680 0.175051
0.320348 0.158633 0.173922
0.372747 0.160403 0.172030
0.430030 0.160739 0.170047
0.490944 0.160586 0.166995
0.554131 0.159518 0.163699
0.618494 0.156008 0.159976
0.682612 0.151614 0.155367
0.746365 0.144167 0.150668
0.808713 0.135897 0.145754
0.866148 0.126436 0.141238
0.933532 0.113985 0.138918
0.988769 0.104860 0.140414
1.000000 0.100160 0.146944
1.000000 0.101106 0.157870
1.000000 0.109377 0.172122
1.000000 0.123995 0.190066
1.000000 0.141512 0.209903
1.000000 0.162325 0.232578
1.000000 0.186587 0.257359
1.000000 0.212833 0.284672
1.000000 0.242191 0.313817
0.112062 0.152071 0.177371
0.112642 0.152010 0.177371
0.116396 0.151522 0.177737
0.118868 0.152743 0.177249
0.124117 0.154788 0.175937
0.136599 0.158572 0.175509
0.152804 0.159243 0.176028
0.174044 0.159976 0.176425
0.199802 0.162234 0.176272
0.231998 0.165316 0.175723
0.270939 0.168429 0.175082
0.316381 0.171878 0.173617
0.367407 0.175631 0.171725
0.423804 0.178470 0.169314
0.484291 0.180789 0.166354
0.547692 0.182071 0.162814
0.612696 0.182071 0.158785
0.677790 0.180484 0.153964
0.741787 0.177157 0.148653
0.804227 0.171969 0.143984
0.865446 0.167056 0.139651
0.931762 0.162081 0.137057
0.985046 0.157656 0.138857
1.000000 0.155184 0.145876
1.000000 0.154635 0.157626
1.000000 0.159487 0.171786
1.000000 0.165866 0.189609
1.000000 0.176638 0.210269
1.000000 0.191806 0.232547
1.000000 0.210239 0.256657
1.000000 0.231449 0.283360
1.000000 0.256352 0.312261
0.112001 0.159609 0.179965
0.112856 0.159731 0.180117
0.116701 0.159274 0.180270
0.120912 0.159701 0.180514
0.125154 0.162051 0.179385
0.133211 0.165652 0.177707
0.150271 0.172091 0.176638
0.172793 0.174685 0.176577
0.200473 0.176913 0.176364
0.235142 0.180056 0.175845
0.274327 0.185153 0.174655
0.319341 0.190524 0.173342
0.370275 0.196262 0.171023
0.426459 0.201480 0.168093
0.487007 0.206210 0.164736
0.550500 0.210330 0.160464
0.615595 0.212375 0.156069
0.680598 0.213107 0.151278
0.744930 0.212985 0.145754
0.807034 0.211215 0.140200
0.875792 0.210056 0.135439
0.938140 0.207767 0.134737
1.000000 0.221408 0.155398
1.000000 0.223453 0.175448
1.000000 0.228275 0.197055
1.000000 0.235325 0.219364
1.000000 0.244175 0.242588
1.000000 0.255528 0.265751
1.000000 0.269841 0.290898
1.000000 0.287083 0.316381
1.000000 0.307225 0.342535
1.000000 0.329900 0.369909
0.110658 0.173648 0.183719
0.111696 0.173587 0.183871
0.116335 0.173281 0.184329
0.124147 0.172244 0.184848
0.129885 0.174716 0.183993
0.137850 0.179416 0.182345
0.151217 0.186069 0.180117
0.174014 0.196902 0.177462
0.210452 0.205295 0.176120
0.250523 0.210849 0.174868
0.297429 0.216648 0.173098
0.348486 0.223697 0.170535
0.402594 0.231205 0.167361
0.460578 0.238193 0.163668
0.521660 0.244480 0.159365
0.584405 0.249302 0.154543
0.647944 0.253147 0.149203
0.711086 0.255039 0.143954
0.774319 0.256535 0.138186
0.842557 0.258000 0.132601
0.917937 0.260746 0.130465
0.980468 0.262364 0.135317
1.000000 0.263005 0.149599
1.000000 0.265629 0.168978
1.000000 0.268742 0.192416
1.000000 0.273075 0.215946
1.000000 0.278416 0.239200
1.000000 0.285954 0.262455
1.000000 0.296056 0.285679
1.000000 0.308202 0.310155
1.000000 0.323674 0.335882
1.000000 0.342535 0.362737
0.108217 0.188296 0.187381
0.109346 0.188235 0.187381
0.115084 0.187625 0.187716
0.123751 0.186770 0.188357
0.133669 0.186862 0.188693
0.140597 0.191928 0.186984
0.152743 0.199100 0.184695
0.171298 0.208560 0.181643
0.199649 0.222995 0.178042
0.245792 0.238590 0.174533
0.292546 0.246921 0.172061
0.345220 0.254795 0.168978
0.404028 0.261204 0.165438
0.461921 0.269505 0.161013
0.521477 0.277012 0.156283
0.582544 0.283513 0.150973
0.644862 0.288396 0.145510
0.707301 0.292790 0.139223
0.773587 0.296178 0.133608
0.851011 0.303105 0.126589
0.918029 0.305821 0.127199
0.975647 0.307988 0.134157
1.000000 0.308812 0.148836
1.000000 0.309514 0.170565
1.000000 0.311162 0.193637
1.000000 0.313146 0.217350
1.000000 0.316320 0.239658
1.000000 0.320409 0.262119
1.000000 0.327276 0.285985
1.000000 0.336370 0.309789
1.000000 0.348455 0.335027
1.000000 0.363775 0.361151
0.104433 0.207309 0.191745
0.105623 0.207248 0.191745
0.111147 0.206729 0.191928
0.121981 0.205631 0.192721
0.136568 0.203952 0.193698
0.145632 0.207767 0.192569
0.156893 0.215213 0.190372
0.173861 0.225254 0.187198
0.197848 0.238560 0.182834
0.231418 0.255802 0.178042
0.288579 0.279637 0.171023
0.341375 0.290562 0.166903
0.399939 0.300328 0.161807
0.463020 0.308019 0.157137
0.527855 0.313756 0.152438
0.587976 0.321324 0.146273
0.649012 0.327428 0.140261
0.716091 0.334417 0.133150
0.792355 0.343816 0.124819
0.860777 0.349340 0.121492
0.921508 0.352239 0.125399
0.974487 0.353887 0.135622
1.000000 0.354223 0.153292
1.000000 0.354528 0.174807
1.000000 0.354711 0.199069
1.000000 0.355016 0.222293
1.000000 0.356054 0.244968
1.000000 0.358312 0.267521
1.000000 0.362707 0.290379
1.000000 0.369299 0.314366
1.000000 0.378424 0.338567
1.000000 0.390570 0.364233
0.094972 0.231479 0.196658
0.097505 0.231144 0.196689
0.105226 0.230411 0.197055
0.118868 0.229160 0.197574
0.136385 0.226993 0.198581
0.152071 0.226749 0.198856
0.162448 0.234165 0.196902
0.177951 0.244236 0.193668
0.199954 0.257176 0.189487
0.229526 0.273442 0.183810
0.267185 0.292271 0.176883
0.333684 0.324437 0.165805
0.391577 0.337133 0.159579
0.454261 0.348058 0.153140
0.521172 0.357275 0.146609
0.589654 0.363500 0.140230
0.667933 0.374517 0.131716
0.741573 0.385565 0.123262
0.810391 0.393469 0.118288
0.872404 0.397803 0.119295
0.926970 0.399908 0.126772
0.974060 0.400061 0.140169
1.000000 0.398932 0.158724
1.000000 0.397040 0.180240
1.000000 0.395422 0.201907
1.000000 0.393896 0.223514
1.000000 0.393317 0.245792
1.000000 0.393683 0.268223
1.000000 0.396185 0.291844
1.000000 0.401160 0.315892
1.000000 0.408301 0.340764
1.000000 0.418616 0.367163
0.079683 0.257267 0.202029
0.085695 0.256992 0.201938
0.095857 0.256443 0.202243
0.112337 0.255406 0.203128
0.134096 0.253391 0.204105
0.156374 0.250828 0.205264
0.170413 0.256046 0.204227
0.185061 0.266392 0.201297
0.205478 0.279454 0.197330
0.233005 0.295720 0.191867
0.268315 0.315190 0.183932
0.309972 0.335546 0.175357
0.383215 0.373663 0.158694
0.451118 0.391608 0.148226
0.526390 0.409277 0.138155
0.603815 0.423407 0.127901
0.681575 0.433112 0.119966
0.757931 0.438788 0.114870
0.822293 0.443183 0.114473
0.878447 0.446143 0.120607
0.928557 0.446815 0.131838
0.972320 0.445594 0.148501
1.000000 0.443671 0.168063
1.000000 0.440986 0.190127
1.000000 0.438270 0.211887
1.000000 0.435828 0.234348
1.000000 0.433936 0.255680
1.000000 0.433204 0.278111
1.000000 0.434028 0.301274
1.000000 0.437293 0.325017
1.000000 0.442817 0.349737
1.000000 0.450874 0.375067
0.033600 0.288853 0.208652
0.040253 0.288731 0.208682
0.071290 0.288212 0.209110
0.103853 0.286961 0.209476
0.129946 0.285252 0.210788
0.156283 0.282994 0.212253
0.180362 0.282231 0.213321
0.195071 0.292882 0.210758
0.214908 0.306188 0.206729
0.240940 0.322545 0.201663
0.273960 0.341833 0.194614
0.320043 0.369451 0.184146
0.419318 0.440620 0.168368
0.514031 0.492775 0.139742
0.607538 0.520897 0.116365
0.687434 0.534508 0.107820
0.763394 0.542138 0.107851
0.831907 0.543267 0.120211
0.892882 0.539239 0.140749
0.945739 0.530510 0.166262
0.984497 0.525933 0.186313
1.000000 0.520470 0.207523
1.000000 0.514794 0.229343
1.000000 0.509148 0.251041
1.000000 0.504112 0.271427
1.000000 0.499397 0.291295
1.000000 0.495399 0.310765
1.000000 0.492683 0.329046
1.000000 0.491554 0.348516
1.000000 0.492592 0.368475
1.000000 0.496040 0.389380
1.000000 0.502556 0.411994
0.000000 0.337469 0.220645
0.000000 0.337194 0.220676
0.003235 0.336034 0.220890
0.082643 0.334203 0.221530
0.125399 0.331151 0.222202
0.160067 0.327581 0.223514
0.191836 0.323796 0.225742
0.214023 0.332403 0.225498
0.236637 0.349737 0.222721
0.266545 0.371344 0.218631
0.305699 0.397955 0.212772
0.355657 0.429908 0.204044
0.417090 0.466590 0.189609
0.486702 0.504601 0.170291
0.577508 0.556390 0.142519
0.677119 0.586999 0.114717
0.749020 0.594903 0.115236
0.813809 0.595941 0.127443
0.872221 0.592279 0.147127
0.923430 0.584314 0.170199
0.968170 0.573236 0.195193
1.000000 0.562158 0.219883
1.000000 0.555352 0.240726
1.000000 0.548943 0.260838
1.000000 0.542840 0.280186
1.000000 0.537163 0.299779
1.000000 0.532586 0.318578
1.000000 0.528923 0.337835
1.000000 0.526757 0.356817
1.000000 0.526940 0.376989
1.000000 0.529198 0.398322
1.000000 0.533989 0.420325
0.000000 0.385657 0.234958
0.000000 0.385077 0.234867
0.000000 0.383551 0.234958
0.032471 0.381811 0.235660
0.118074 0.378973 0.236545
0.161532 0.375677 0.238102
0.200351 0.371984 0.240269
0.233799 0.370703 0.242283
0.254948 0.386267 0.239933
0.282628 0.406165 0.236728
0.318395 0.430671 0.232517
0.363775 0.460182 0.225650
0.418280 0.493629 0.215640
0.481300 0.529259 0.201083
0.550927 0.565667 0.179934
0.634791 0.610803 0.157198
0.731960 0.643397 0.129763
0.794827 0.645075 0.138888
0.852018 0.642084 0.157992
0.902556 0.635187 0.178653
0.947387 0.624903 0.203555
0.987457 0.613123 0.229160
1.000000 0.600183 0.253941
1.000000 0.590173 0.276402
1.000000 0.583429 0.295384
1.000000 0.576959 0.314488
1.000000 0.571405 0.332494
1.000000 0.566766 0.350805
1.000000 0.563897 0.370123
1.000000 0.562799 0.389532
1.000000 0.563958 0.410315
1.000000 0.567559 0.432074
0.000000 0.435126 0.252079
0.000000 0.434791 0.252171
0.000000 0.433051 0.252262
0.000000 0.430426 0.252415
0.110872 0.426459 0.252811
0.162600 0.421942 0.253849
0.206027 0.417121 0.255802
0.245640 0.412238 0.258335
0.272587 0.420111 0.258061
0.298405 0.438544 0.255680
0.331456 0.461494 0.252567
0.372503 0.488777 0.248417
0.421546 0.519310 0.242100
0.477607 0.552026 0.232364
0.540459 0.585931 0.217685
0.607263 0.619318 0.195438
0.682002 0.656794 0.180606
0.774472 0.690791 0.158877
0.832609 0.690150 0.172122
0.882872 0.683711 0.192538
0.927642 0.674342 0.215946
0.968109 0.663447 0.239292
1.000000 0.651026 0.264378
1.000000 0.638056 0.288792
1.000000 0.624811 0.312230
1.000000 0.616693 0.331670
1.000000 0.610559 0.349371
1.000000 0.605615 0.368017
1.000000 0.602350 0.387610
1.000000 0.601251 0.408179
1.000000 0.602533 0.429938
1.000000 0.606470 0.453132
0.000000 0.477852 0.268467
0.000000 0.477943 0.268620
0.000000 0.476936 0.268925
0.000000 0.474800 0.269352
0.107149 0.471839 0.270207
0.166384 0.468147 0.271366
0.213138 0.464515 0.273594
0.256321 0.460365 0.276249
0.295109 0.457893 0.279606
0.319554 0.475746 0.277928
0.349645 0.496498 0.275731
0.386084 0.520104 0.272160
0.428687 0.546349 0.267308
0.476997 0.574121 0.260166
0.530846 0.603326 0.249912
0.589197 0.632746 0.234989
0.650599 0.661463 0.216068
0.717556 0.692836 0.207645
0.801022 0.725307 0.195224
0.860960 0.727840 0.206699
0.906950 0.720302 0.228763
0.948669 0.710475 0.252567
0.985840 0.699336 0.276738
1.000000 0.687129 0.301427
1.000000 0.674647 0.325811
1.000000 0.662318 0.349401
1.000000 0.651179 0.372473
1.000000 0.645808 0.390631
1.000000 0.641840 0.408850
1.000000 0.639826 0.428656
1.000000 0.639612 0.448463
1.000000 0.641779 0.469825
0.000000 0.517449 0.285100
0.000000 0.517174 0.285161
0.000000 0.516228 0.285527
0.000000 0.514549 0.285924
0.104036 0.512139 0.286687
0.167453 0.508873 0.288090
0.218173 0.505028 0.289677
0.262791 0.500969 0.292363
0.304723 0.496437 0.295811
0.335271 0.503807 0.296849
0.362890 0.523003 0.295537
0.395789 0.544732 0.293278
0.434241 0.568933 0.290013
0.477821 0.594629 0.285679
0.526207 0.621790 0.278355
0.578088 0.648615 0.269139
0.632929 0.674983 0.256962
0.690517 0.700862 0.241917
0.751034 0.727626 0.239200
0.825162 0.758175 0.235904
0.887724 0.764523 0.244785
0.929747 0.755673 0.267948
0.967712 0.745266 0.291569
1.000000 0.733761 0.315831
1.000000 0.721736 0.339879
1.000000 0.709865 0.363897
1.000000 0.698634 0.387182
1.000000 0.688197 0.410773
1.000000 0.681025 0.432136
1.000000 0.678431 0.451118
1.000000 0.677607 0.470466
1.000000 0.679072 0.491035
0.000000 0.559442 0.304631
0.000000 0.559747 0.304967
0.000000 0.593896 0.323369
0.033967 0.592340 0.323888
0.144991 0.589685 0.324529
0.199924 0.586145 0.325261
0.250126 0.581689 0.326879
0.296574 0.576623 0.328679
0.340429 0.571344 0.331518
0.382055 0.566644 0.334966
0.408637 0.585016 0.334600
0.440009 0.605676 0.333989
0.475532 0.627558 0.332250
0.514611 0.650080 0.329442
0.556481 0.672572 0.325170
0.601190 0.694636 0.319677
0.648127 0.715938 0.311955
0.696925 0.736721 0.302373
0.746975 0.756588 0.291997
0.798245 0.775998 0.293889
0.859892 0.802029 0.298192
0.922393 0.809964 0.305669
0.958587 0.798245 0.326818
0.991180 0.785641 0.347875
1.000000 0.772427 0.368505
1.000000 0.759243 0.388952
1.000000 0.746639 0.409003
1.000000 0.735103 0.429053
1.000000 0.725338 0.450507
1.000000 0.717678 0.472724
1.000000 0.714687 0.493111
1.000000 0.715084 0.512352
0.000000 0.610681 0.330205
0.000000 0.613764 0.331945
0.000000 0.616480 0.334173
0.073457 0.618280 0.336309
0.153292 0.618250 0.338079
0.205753 0.616052 0.339696
0.254429 0.612146 0.340826
0.299443 0.607263 0.342504
0.342870 0.602045 0.344884
0.384466 0.596216 0.347326
0.417182 0.602136 0.349279
0.445289 0.620874 0.348974
0.476844 0.640742 0.348119
0.511620 0.661280 0.346807
0.549676 0.682185 0.344488
0.590265 0.702998 0.341161
0.632837 0.723476 0.336919
0.677790 0.743740 0.331518
0.724392 0.763424 0.325628
0.771847 0.782254 0.319097
0.818845 0.799344 0.323827
0.873564 0.825559 0.334417
0.938903 0.837675 0.341314
0.972198 0.825711 0.361700
1.000000 0.812924 0.381689
1.000000 0.799893 0.401373
1.000000 0.787289 0.420630
1.000000 0.775601 0.441077
1.000000 0.765530 0.461738
1.000000 0.757321 0.483284
1.000000 0.751431 0.506493
1.000000 0.747799 0.529778
0.000000 0.643458 0.346258
0.000000 0.646662 0.348333
0.009155 0.649409 0.350408
0.114290 0.651575 0.352941
0.170932 0.651789 0.354772
0.218296 0.650050 0.356298
0.263676 0.646632 0.357427
0.307927 0.642145 0.358862
0.350469 0.637049 0.360540
0.391638 0.631403 0.362860
0.431434 0.625238 0.365667
0.457038 0.641840 0.366247
0.485573 0.659785 0.366430
0.517021 0.678584 0.366125
0.551446 0.697902 0.365301
0.587976 0.717098 0.363867
0.626917 0.736385 0.361395
0.667353 0.755093 0.358770
0.709407 0.773404 0.355566
0.752743 0.791073 0.352544
0.796506 0.807980 0.348852
0.839231 0.822446 0.355810
0.889586 0.846372 0.369696
0.949859 0.860136 0.378210
0.984009 0.851194 0.395880
1.000000 0.838407 0.415076
1.000000 0.825864 0.433875
1.000000 0.814115 0.453101
1.000000 0.803769 0.473640
1.000000 0.795163 0.495338
1.000000 0.788510 0.517906
1.000000 0.784054 0.541436
0.015259 0.677485 0.364202
0.053834 0.680262 0.366094
0.109285 0.682826 0.368200
0.150790 0.684474 0.370459
0.192386 0.684810 0.372351
0.234775 0.683131 0.373449
0.276921 0.680232 0.374578
0.318395 0.676234 0.375738
0.360235 0.671595 0.377325
0.400519 0.666377 0.379278
0.440040 0.660792 0.381842
0.471839 0.664576 0.383764
0.497688 0.680934 0.384375
0.526268 0.698024 0.384894
0.557397 0.715633 0.385351
0.590906 0.733761 0.385901
0.627039 0.752316 0.386267
0.665034 0.770748 0.386328
0.704433 0.788907 0.387488
0.745052 0.806729 0.389044
0.786648 0.823972 0.390967
0.828153 0.840208 0.393561
0.867247 0.853086 0.403937
0.912871 0.874327 0.422492
0.964904 0.887785 0.435706
1.000000 0.883757 0.452338
1.000000 0.871794 0.471992
1.000000 0.860533 0.492256
1.000000 0.850675 0.513268
1.000000 0.842344 0.535302
1.000000 0.835996 0.558160
1.000000 0.831571 0.581720
0.168612 0.729610 0.396826
0.174441 0.730648 0.397528
0.187076 0.731075 0.398505
0.210025 0.730587 0.399084
0.238682 0.729122 0.399603
0.270634 0.726650 0.399939
0.306584 0.723384 0.400305
0.343603 0.719509 0.401068
0.381964 0.715328 0.402289
0.421515 0.710780 0.404181
0.460426 0.705684 0.406317
0.498543 0.700069 0.408972
0.522667 0.713222 0.410376
0.548699 0.728450 0.411902
0.576501 0.744106 0.413458
0.606561 0.760037 0.414832
0.638270 0.775875 0.416052
0.671473 0.791592 0.417609
0.706020 0.807004 0.419471
0.741695 0.822202 0.421363
0.777920 0.836820 0.423743
0.814633 0.850858 0.426246
0.851164 0.863951 0.428779
0.886046 0.874418 0.437659
0.926116 0.891600 0.456001
0.971130 0.904509 0.470832
1.000000 0.904906 0.486091
1.000000 0.893828 0.506310
1.000000 0.883787 0.527489
1.000000 0.875090 0.549401
1.000000 0.868009 0.572015
1.000000 0.862516 0.594873
0.220279 0.761929 0.417975
0.223392 0.762814 0.418769
0.233249 0.763241 0.419562
0.250858 0.762844 0.420325
0.273472 0.761715 0.420722
0.300420 0.759579 0.421088
0.331823 0.756771 0.421454
0.365270 0.753475 0.422065
0.400519 0.749813 0.423224
0.437720 0.745754 0.424842
0.475105 0.741299 0.426734
0.512047 0.736416 0.429175
0.542870 0.738613 0.431342
0.566369 0.752377 0.433570
0.591913 0.766506 0.436042
0.618952 0.780758 0.438331
0.647852 0.795132 0.441138
0.677913 0.809354 0.444038
0.709224 0.823453 0.447181
0.741512 0.837308 0.450782
0.774411 0.850675 0.454597
0.807675 0.863523 0.458839
0.840970 0.875669 0.463172
0.873960 0.886961 0.467079
0.900389 0.891112 0.463996
0.936217 0.905486 0.483009
0.975494 0.918456 0.500664
1.000000 0.923003 0.515343
1.000000 0.912871 0.536645
1.000000 0.903807 0.558770
1.000000 0.896239 0.581659
1.000000 0.890166 0.604852
0.292729 0.802762 0.450324
0.296971 0.804135 0.451850
0.304143 0.804471 0.452522
0.314702 0.803464 0.452399
0.329900 0.801389 0.451820
0.348577 0.798489 0.450935
0.371221 0.794797 0.449836
0.398169 0.790463 0.448920
0.428138 0.785824 0.448432
0.459876 0.780941 0.448432
0.492805 0.775601 0.448737
0.526757 0.770169 0.449836
0.560998 0.764096 0.451026
0.582513 0.773037 0.452766
0.603723 0.784115 0.454139
0.626764 0.795590 0.455787
0.651637 0.807523 0.457832
0.678340 0.819913 0.460456
0.706691 0.832700 0.463783
0.736538 0.845701 0.468360
0.767178 0.858488 0.473335
0.797848 0.870603 0.478279
0.828275 0.881804 0.482673
0.858244 0.892027 0.486580
0.887663 0.901244 0.489448
0.916014 0.908812 0.496040
0.947631 0.920409 0.514733
0.980621 0.932586 0.533989
1.000000 0.939971 0.547662
1.000000 0.930724 0.568292
1.000000 0.922393 0.590295
1.000000 0.915496 0.613214
0.333928 0.826780 0.470039
0.337896 0.827970 0.471382
0.344305 0.828519 0.472480
0.353704 0.828092 0.472847
0.366674 0.826932 0.472908
0.384131 0.825193 0.472938
0.404761 0.823117 0.473030
0.430060 0.820462 0.473396
0.457588 0.817685 0.474098
0.487343 0.814603 0.475196
0.518853 0.810819 0.476265
0.551019 0.806790 0.477821
0.583551 0.801968 0.479225
0.610590 0.801907 0.480781
0.629511 0.811246 0.482704
0.649622 0.820829 0.484749
0.671168 0.830747 0.487037
0.694362 0.841123 0.489937
0.719326 0.852079 0.493660
0.745632 0.863218 0.498512
0.772885 0.874357 0.503929
0.800351 0.885069 0.509819
0.827817 0.895201 0.515587
0.854948 0.904631 0.520745
0.881590 0.913298 0.525475
0.907958 0.921202 0.529564
0.933562 0.927977 0.537011
0.961181 0.937377 0.556939
0.988342 0.949035 0.579309
1.000000 0.955718 0.594202
1.000000 0.950744 0.614069
1.000000 0.943328 0.636378
0.396002 0.857084 0.500786
0.398474 0.857664 0.501762
0.402594 0.857633 0.502129
0.409247 0.857145 0.502281
0.419165 0.856046 0.502190
0.432624 0.854398 0.501915
0.449348 0.852445 0.501823
0.469429 0.850095 0.501793
0.492836 0.847501 0.502159
0.518547 0.844724 0.502983
0.546380 0.841489 0.504021
0.575647 0.838041 0.505394
0.605524 0.834073 0.506828
0.635767 0.829465 0.508171
0.654414 0.835142 0.510155
0.671809 0.843137 0.512169
0.690578 0.851438 0.514763
0.710903 0.860227 0.517754
0.732845 0.869535 0.521660
0.756161 0.879149 0.526818
0.780240 0.888853 0.532464
0.804685 0.898222 0.538537
0.829099 0.907103 0.544457
0.853239 0.915435 0.549889
0.876982 0.923095 0.554559
0.900420 0.930175 0.558740
0.923735 0.936797 0.562371
0.946563 0.942596 0.568322
0.970825 0.950103 0.587945
0.995300 0.960754 0.611414
1.000000 0.967529 0.629236
1.000000 0.966125 0.649531
0.452918 0.882292 0.530755
0.454994 0.882689 0.531456
0.458808 0.882872 0.532280
0.464637 0.882658 0.532647
0.473701 0.882200 0.533288
0.486366 0.881743 0.534478
0.503868 0.881529 0.536767
0.524712 0.881437 0.539849
0.548852 0.881376 0.543725
0.575280 0.881346 0.548333
0.603601 0.881163 0.553582
0.632593 0.880522 0.558740
0.661769 0.879454 0.563745
0.690517 0.877531 0.568078
0.714595 0.877867 0.572015
0.729458 0.884367 0.575372
0.744686 0.890776 0.578668
0.760952 0.897429 0.582238
0.778500 0.904509 0.586664
0.797086 0.911803 0.591821
0.816281 0.919158 0.597559
0.835782 0.926360 0.603388
0.855100 0.933135 0.608850
0.874327 0.939513 0.613733
0.893309 0.945403 0.618097
0.912108 0.950896 0.621759
0.930816 0.955993 0.625360
0.949493 0.960754 0.628717
0.968078 0.965118 0.633631
0.987304 0.970184 0.652613
1.000000 0.978546 0.676112
1.000000 0.984100 0.694850
0.561944 0.919860 0.593561
0.562402 0.919860 0.593683
0.563989 0.919585 0.593500
0.566888 0.919097 0.593347
0.572137 0.918303 0.593072
0.579461 0.917388 0.593133
0.589624 0.916320 0.593469
0.602533 0.915190 0.594324
0.618250 0.914000 0.595727
0.636316 0.912657 0.597711
0.656153 0.911254 0.600061
0.677760 0.909667 0.602838
0.700404 0.907774 0.605798
0.723568 0.905547 0.608606
