20 Preset/Travel Style/【3】LUT video cho PR-AE-FCPX/Green Moody - Lut (20).cube
# Created by Adobe Lightroom plugin Export LUT (1.24.0)
# www.johnrellis.com/lightroom/exportlut.htm
# Preset: 20自然风光-瀑布-素材江湖
# Color profile: E:\lut插件\exportlut.1.24\exportlut.lrplugin\color profiles\Rec709gamma2.4.icc
LUT_3D_SIZE 8
DOMAIN_MIN 0.000000 0.000000 0.000000
DOMAIN_MAX 0.903226 0.903226 0.903226
0.157382 0.149844 0.145571
0.163943 0.149630 0.145876
0.207462 0.147982 0.145785
0.331518 0.134035 0.144015
0.532433 0.000000 0.137148
0.782528 0.000000 0.119539
1.000000 0.000000 0.103334
1.000000 0.000000 0.130983
0.160433 0.155703 0.145937
0.165499 0.155886 0.145998
0.203586 0.156130 0.146456
0.320714 0.151827 0.144259
0.514336 0.110628 0.137240
0.763424 0.000000 0.119783
0.979797 0.000000 0.103273
1.000000 0.000000 0.128664
0.179995 0.195285 0.143893
0.191501 0.194644 0.144137
0.223148 0.202487 0.142763
0.331884 0.214817 0.141909
0.524468 0.221775 0.136812
0.790860 0.228489 0.114351
0.993500 0.238010 0.118013
1.000000 0.262547 0.167666
0.223056 0.307805 0.123354
0.238529 0.306554 0.124056
0.289189 0.318303 0.120211
0.379980 0.361395 0.099886
0.580804 0.419409 0.063325
0.816739 0.447852 0.136812
0.982544 0.458991 0.186709
1.000000 0.465400 0.247562
0.283452 0.494759 0.000000
0.302373 0.494118 0.000000
0.371923 0.496010 0.000000
0.465492 0.540734 0.000000
0.592401 0.589746 0.000000
0.778256 0.628870 0.000000
0.945159 0.630854 0.219425
1.000000 0.633448 0.385595
0.384314 0.692622 0.000000
0.406683 0.699245 0.000000
0.473274 0.699580 0.000000
0.569818 0.712642 0.000000
0.680751 0.750698 0.000000
0.797024 0.776394 0.000000
0.920165 0.784329 0.223575
1.000000 0.769802 0.430396
0.529381 0.845365 0.000000
0.543175 0.846036 0.000000
0.591424 0.844205 0.000000
0.674952 0.841855 0.000000
0.754330 0.853971 0.000000
0.846586 0.872648 0.176181
0.925292 0.876890 0.306493
0.995636 0.871031 0.456489
0.663478 0.939513 0.241581
0.671534 0.939147 0.245426
0.704646 0.937987 0.265446
0.764828 0.936065 0.305272
0.825772 0.930114 0.319738
0.888823 0.938506 0.394263
0.957549 0.946685 0.481483
1.000000 0.940307 0.568475
0.159518 0.151736 0.149294
0.161440 0.152102 0.149416
0.192660 0.151064 0.153964
0.313787 0.131807 0.153109
0.502342 0.006287 0.151980
0.748867 0.000000 0.145846
0.966857 0.000000 0.144045
1.000000 0.000000 0.165438
0.158328 0.156008 0.151431
0.164065 0.156466 0.152071
0.203128 0.156008 0.153170
0.313207 0.148775 0.153750
0.499825 0.105135 0.152316
0.747524 0.000000 0.146029
0.956878 0.000000 0.143923
1.000000 0.000000 0.164492
0.170779 0.195163 0.151614
0.183444 0.194766 0.152010
0.218021 0.200046 0.152407
0.322484 0.210086 0.157321
0.506462 0.217288 0.157290
0.758480 0.218479 0.150240
0.960052 0.220157 0.155642
1.000000 0.250095 0.192782
0.208194 0.299992 0.138491
0.224521 0.299535 0.139010
0.278874 0.307683 0.139315
0.357366 0.339147 0.133089
0.533227 0.382788 0.137270
0.766415 0.415229 0.175998
0.949645 0.435523 0.201541
1.000000 0.450690 0.255772
0.266575 0.486336 0.001801
0.285679 0.484718 0.008881
0.355474 0.483986 0.028809
0.445197 0.518486 0.000000
0.564477 0.563439 0.000000
0.752773 0.607721 0.022248
0.928893 0.618708 0.244816
1.000000 0.626276 0.391852
0.362707 0.680201 0.000000
0.381018 0.680781 0.000000
0.449317 0.682033 0.000000
0.550256 0.695155 0.000000
0.663630 0.737240 0.000000
0.785153 0.768399 0.000000
0.911315 0.778836 0.256870
1.000000 0.766598 0.446784
0.509667 0.837491 0.000000
0.520897 0.836057 0.000000
0.570489 0.834104 0.000000
0.657252 0.832944 0.000000
0.743130 0.847074 0.035554
0.836851 0.866941 0.200381
0.915984 0.871366 0.315312
0.988403 0.866270 0.458839
0.650538 0.935698 0.245060
0.660060 0.936004 0.253727
0.693690 0.934752 0.271550
0.755123 0.933013 0.310216
0.827146 0.932433 0.361242
0.887358 0.938994 0.423072
0.954406 0.946044 0.499611
1.000000 0.940032 0.584375
0.165713 0.159030 0.167910
0.169406 0.159518 0.168307
0.183291 0.161837 0.169833
0.223850 0.185031 0.192233
0.439979 0.142733 0.231632
0.740810 0.000000 0.237766
0.968811 0.000000 0.256535
1.000000 0.000000 0.297581
0.170962 0.167727 0.174350
0.174228 0.167361 0.174502
0.188388 0.169253 0.175296
0.244480 0.186923 0.199832
0.456703 0.143435 0.226963
0.746731 0.000000 0.228672
0.958984 0.000000 0.255344
1.000000 0.000000 0.295872
0.156435 0.197238 0.190097
0.165743 0.198245 0.191165
0.206760 0.201663 0.195468
0.319799 0.209842 0.206882
0.508995 0.215152 0.223972
0.758877 0.211582 0.245945
0.957549 0.232364 0.276280
1.000000 0.294224 0.324224
0.094453 0.311589 0.178195
0.151461 0.312505 0.188174
0.252628 0.314000 0.199954
0.346044 0.340154 0.211398
0.531823 0.385443 0.248722
0.765377 0.425940 0.290715
0.946960 0.456123 0.332006
1.000000 0.486213 0.392279
0.183993 0.489540 0.177127
0.216556 0.489509 0.178531
0.312718 0.491096 0.184848
0.428412 0.513695 0.194583
0.555718 0.565606 0.209934
0.748501 0.609857 0.278050
0.918425 0.631006 0.401160
1.000000 0.652827 0.513085
0.296361 0.680934 0.125216
0.320958 0.681971 0.129152
0.404089 0.682795 0.142580
0.525902 0.684901 0.168551
0.642267 0.727687 0.196719
0.768643 0.763699 0.271244
0.898070 0.779843 0.412116
0.997986 0.780667 0.580377
0.471077 0.841276 0.176089
0.484443 0.840085 0.177462
0.538964 0.837308 0.189548
0.631708 0.834928 0.220401
0.729122 0.844022 0.270817
0.825132 0.865843 0.346777
0.906432 0.874235 0.451118
0.977173 0.873167 0.589288
0.625849 0.936919 0.353216
0.634028 0.936187 0.354223
0.669642 0.934844 0.367529
0.735592 0.933898 0.404150
0.816617 0.931060 0.447852
0.878019 0.938842 0.512993
0.944488 0.946654 0.587060
0.991089 0.942229 0.664485
0.182315 0.182040 0.231327
0.188937 0.183566 0.232883
0.212528 0.187289 0.234165
0.247715 0.195529 0.237675
0.308324 0.242222 0.275212
0.526268 0.277623 0.385473
0.850370 0.210849 0.469459
1.000000 0.220493 0.497841
0.191562 0.198398 0.244450
0.197635 0.199100 0.244724
0.219974 0.200870 0.244205
0.254307 0.207065 0.245945
0.314885 0.255314 0.284886
0.548333 0.281712 0.394263
0.861021 0.221347 0.467201
1.000000 0.238926 0.492500
0.208835 0.243137 0.266239
0.216129 0.244694 0.268376
0.237308 0.244327 0.271031
0.270573 0.246281 0.268894
0.340124 0.309697 0.326024
0.645502 0.302739 0.421454
0.920623 0.289982 0.467445
1.000000 0.364904 0.508659
0.093721 0.314458 0.305913
0.122225 0.315251 0.306920
0.199680 0.319890 0.312108
0.302342 0.328954 0.322850
0.495766 0.365545 0.364446
0.728817 0.407752 0.416876
0.918883 0.464729 0.485084
1.000000 0.532525 0.565209
0.000000 0.499550 0.293462
0.000000 0.499611 0.290867
0.000000 0.503288 0.294926
0.364965 0.509148 0.343053
0.518547 0.557824 0.385626
0.725063 0.613397 0.485298
0.888670 0.659968 0.598962
0.995300 0.693355 0.670008
0.000000 0.693629 0.329107
0.000000 0.698939 0.336065
0.269718 0.697993 0.343481
0.455695 0.700130 0.362890
0.610315 0.723354 0.401556
0.740291 0.763394 0.479255
0.870603 0.788510 0.617975
0.966308 0.806729 0.745846
0.356420 0.845304 0.380133
0.379431 0.845487 0.383581
0.459266 0.844755 0.395117
0.576532 0.843442 0.418524
0.703975 0.842466 0.454841
0.801083 0.865415 0.531060
0.882597 0.877562 0.624994
0.954711 0.882597 0.740627
0.574945 0.941405 0.511437
0.584985 0.941009 0.513573
0.625299 0.939483 0.523766
0.695674 0.937072 0.546563
0.784329 0.933379 0.580102
0.858793 0.937804 0.635462
0.925811 0.946868 0.703700
0.974578 0.946014 0.769497
0.213809 0.242771 0.361944
0.221988 0.244816 0.363897
0.250950 0.248753 0.363561
0.295323 0.254185 0.362005
0.347143 0.268376 0.367163
0.424079 0.334539 0.420722
0.559472 0.473579 0.566186
0.879332 0.506676 0.715450
0.222904 0.262455 0.376959
0.230777 0.264012 0.378668
0.258335 0.265995 0.376898
0.300603 0.267857 0.371344
0.352758 0.280735 0.376471
0.429450 0.347814 0.430701
0.577996 0.478370 0.578302
0.886015 0.513268 0.718624
0.247807 0.325078 0.414649
0.251560 0.322393 0.414313
0.273289 0.317205 0.409949
0.316686 0.317174 0.404730
0.366918 0.324193 0.403479
0.441840 0.393194 0.460670
0.645319 0.492256 0.614618
0.910369 0.532341 0.722255
0.224460 0.394446 0.457862
0.240116 0.397559 0.459052
0.293400 0.411170 0.465888
0.340002 0.407813 0.467659
0.391699 0.405524 0.457374
0.475532 0.489082 0.537530
0.766781 0.536309 0.668635
0.959014 0.586572 0.731075
0.000000 0.490150 0.499763
0.000000 0.491493 0.501335
0.000000 0.495186 0.505852
0.250706 0.501823 0.514519
0.416999 0.509331 0.525322
0.654841 0.572381 0.603967
0.846372 0.640375 0.689967
0.963134 0.702541 0.765225
0.000000 0.671717 0.482673
0.000000 0.672786 0.481666
0.000000 0.674464 0.474830
0.000000 0.682216 0.470008
0.490913 0.684871 0.544366
0.669154 0.739559 0.634455
0.827451 0.789242 0.764279
0.935210 0.824796 0.844572
0.000000 0.847257 0.469856
0.000000 0.845853 0.479164
0.000000 0.842252 0.523552
0.416632 0.840604 0.575799
0.609613 0.839475 0.609094
0.749203 0.852659 0.668025
0.844175 0.874144 0.753292
0.930541 0.886931 0.836484
0.432441 0.940246 0.631830
0.448188 0.939757 0.633295
0.508354 0.938018 0.640864
0.609613 0.937163 0.667292
0.719722 0.933867 0.695979
0.825742 0.931975 0.734676
0.899351 0.943664 0.792844
0.955413 0.947021 0.842191
0.236179 0.351171 0.579828
0.247013 0.352758 0.580896
0.285161 0.354711 0.576593
0.343023 0.358343 0.570886
0.412360 0.366339 0.569726
0.481666 0.386633 0.575708
0.564385 0.462501 0.626398
0.693416 0.638117 0.772702
0.242710 0.363714 0.580804
0.252232 0.364019 0.579980
0.288243 0.365209 0.576471
0.344640 0.368841 0.572961
0.410437 0.372503 0.566766
0.478401 0.391547 0.572259
0.561334 0.467628 0.624903
0.690333 0.640162 0.771359
0.260990 0.430549 0.628779
0.270542 0.430365 0.627955
0.306554 0.430915 0.625696
0.361059 0.426307 0.613245
0.424537 0.422889 0.599695
0.491218 0.436316 0.600000
0.575463 0.517937 0.658228
0.697719 0.676722 0.793606
0.304540 0.538506 0.683742
0.314153 0.538109 0.683070
0.351934 0.541283 0.685634
0.392645 0.530999 0.682734
0.455207 0.522332 0.667659
0.518517 0.524651 0.658412
0.605859 0.610498 0.723873
0.739101 0.731716 0.836790
0.176516 0.594507 0.708400
0.208042 0.596307 0.709102
0.301915 0.605310 0.712734
0.418250 0.626947 0.721279
0.475044 0.615564 0.714229
0.531487 0.604669 0.696132
0.628443 0.692805 0.775265
0.844938 0.751705 0.863127
0.000000 0.684199 0.727199
0.000000 0.686854 0.730434
0.000000 0.687953 0.732082
0.000000 0.690303 0.736110
0.371649 0.693233 0.741665
0.563989 0.701900 0.755337
0.787839 0.772915 0.835691
0.920378 0.820737 0.884123
0.000000 0.843107 0.717098
0.000000 0.844266 0.717922
0.000000 0.844816 0.715663
0.000000 0.845701 0.714229
0.332982 0.846708 0.723476
0.664973 0.842710 0.789639
0.804593 0.871550 0.851133
0.917357 0.897978 0.908721
0.000000 0.949584 0.681636
0.000000 0.948943 0.681300
0.000000 0.947539 0.686397
0.354955 0.942565 0.740230
0.612665 0.935637 0.800290
0.759396 0.932067 0.825010
0.869017 0.939086 0.862211
0.938598 0.949310 0.900847
0.309819 0.507988 0.802884
0.319554 0.508873 0.802853
0.356146 0.511894 0.801938
0.414801 0.516045 0.799344
0.483162 0.517754 0.792355
0.553399 0.516594 0.780789
0.625177 0.542351 0.784512
0.690700 0.607141 0.804929
0.322301 0.524804 0.808530
0.331029 0.525383 0.808255
0.365179 0.527153 0.806882
0.420356 0.529107 0.803311
0.486946 0.529717 0.796231
0.555901 0.527367 0.784604
0.626917 0.551476 0.787808
0.692500 0.616358 0.808835
0.360723 0.579522 0.825589
0.367895 0.579400 0.825101
0.395605 0.579126 0.823148
0.442878 0.577783 0.818784
0.502190 0.574792 0.811246
0.566094 0.568536 0.799252
0.633845 0.586847 0.800381
0.699886 0.652064 0.823880
0.439033 0.668818 0.848936
0.439979 0.666072 0.848020
0.448432 0.657923 0.846616
0.481819 0.652491 0.842435
0.530175 0.645930 0.834928
0.584833 0.635309 0.823087
0.646296 0.644648 0.820951
0.714015 0.710475 0.848661
0.484535 0.738918 0.866361
0.490089 0.739193 0.866545
0.511498 0.740200 0.867216
0.546868 0.740841 0.867887
0.571618 0.726741 0.862608
0.612818 0.713039 0.851225
0.664271 0.711910 0.845151
0.738186 0.775845 0.878233
0.377234 0.773373 0.880766
0.391211 0.774289 0.881010
0.443275 0.778103 0.882017
0.524407 0.786007 0.884031
0.617853 0.800565 0.887205
0.654383 0.790768 0.882139
0.690700 0.779965 0.871427
0.775875 0.839841 0.909819
0.000000 0.841581 0.887022
0.000000 0.841581 0.887205
0.000000 0.841550 0.887877
0.243961 0.841550 0.889189
0.448798 0.841520 0.891264
0.600122 0.841703 0.894133
0.727108 0.842191 0.897581
0.900877 0.890593 0.938170
0.000000 0.945983 0.863737
0.000000 0.945892 0.863615
0.000000 0.945434 0.863127
0.000000 0.943969 0.863371
0.325322 0.941009 0.866880
0.599207 0.938384 0.877134
0.816098 0.933623 0.911803
0.923339 0.951110 0.943084
0.551324 0.719692 0.930602
0.554803 0.719936 0.930480
0.569299 0.720699 0.929870
0.595575 0.721828 0.928557
0.631861 0.722438 0.926390
0.674769 0.721889 0.923156
0.721218 0.718990 0.918456
0.770932 0.738125 0.919097
0.558862 0.727657 0.931365
0.562127 0.727779 0.931212
0.575647 0.728298 0.930602
0.600732 0.728817 0.929290
0.635554 0.728908 0.927153
0.677241 0.727779 0.923919
0.722621 0.724331 0.919219
0.771786 0.742458 0.919799
0.584710 0.755093 0.934295
0.587304 0.755032 0.934142
0.598535 0.754788 0.933532
0.619715 0.754177 0.932280
0.649928 0.752773 0.930144
0.687037 0.749935 0.926970
0.728511 0.744656 0.922271
0.775570 0.759121 0.922606
0.626337 0.796201 0.939513
0.627100 0.795315 0.939483
0.633997 0.793668 0.938994
0.650263 0.792050 0.937774
0.674250 0.789242 0.935698
0.704707 0.784573 0.932555
0.740078 0.777371 0.927947
0.783444 0.786313 0.927703
0.673182 0.840146 0.945342
0.675471 0.840269 0.945403
0.684749 0.840726 0.945678
0.691066 0.835630 0.945373
0.705074 0.829801 0.943633
0.728847 0.823972 0.940551
0.757534 0.815427 0.935943
0.796323 0.819028 0.934783
0.687892 0.870359 0.951537
0.691981 0.871061 0.951598
0.708675 0.874083 0.951812
0.728115 0.875731 0.952300
0.748592 0.874968 0.952819
0.761532 0.866484 0.950988
0.783383 0.857542 0.946349
0.815702 0.856016 0.943908
0.619379 0.890806 0.958221
0.624475 0.891081 0.958282
0.645533 0.892302 0.958495
0.684077 0.894957 0.958984
0.736812 0.899870 0.959838
0.798306 0.908843 0.961273
0.821561 0.903227 0.959625
0.843442 0.895781 0.954925
0.434241 0.940093 0.961852
0.443305 0.940002 0.961883
0.478950 0.939727 0.962066
0.539757 0.939178 0.962432
0.617395 0.938445 0.963043
0.703029 0.937774 0.964019
0.791684 0.937377 0.965423
0.879942 0.937041 0.967071
