20 Preset/Travel Style/【3】LUT video cho PR-AE-FCPX/Green Moody - Lut (13).cube
# Created by Adobe Lightroom plugin Export LUT (1.24.0)
# www.johnrellis.com/lightroom/exportlut.htm
# Preset: 13自然风光-暗黑冰岛-素材江湖
# Color profile: E:\lut插件\exportlut.1.24\exportlut.lrplugin\color profiles\Rec709gamma2.4.icc
LUT_3D_SIZE 8
DOMAIN_MIN 0.000000 0.000000 0.000000
DOMAIN_MAX 0.903226 0.903226 0.903226
0.170077 0.212589 0.214298
0.170077 0.212589 0.214298
0.167697 0.212680 0.214328
0.185977 0.212741 0.213809
0.292241 0.217899 0.209842
0.550103 0.245151 0.197818
0.832273 0.302800 0.190951
1.000000 0.395911 0.286503
0.170077 0.212589 0.214298
0.170077 0.212589 0.214298
0.168124 0.212253 0.214115
0.186923 0.213199 0.212955
0.313664 0.224949 0.209812
0.595300 0.267338 0.199924
0.860594 0.334691 0.212161
1.000000 0.435584 0.333257
0.168826 0.214481 0.214084
0.169436 0.214420 0.214084
0.171572 0.216892 0.213321
0.185763 0.219669 0.215122
0.259770 0.245792 0.233951
0.533349 0.317205 0.247929
0.803738 0.402319 0.286656
0.970825 0.516045 0.423072
0.028626 0.294865 0.199313
0.090181 0.297429 0.198672
0.157107 0.309209 0.195773
0.242618 0.339117 0.188052
0.408942 0.384344 0.211765
0.415259 0.402686 0.393256
0.696040 0.541497 0.493965
0.890105 0.667933 0.615625
0.000000 0.607507 0.000000
0.000000 0.608240 0.000000
0.000000 0.604608 0.000000
0.255650 0.637690 0.000000
0.499855 0.691554 0.000000
0.758480 0.740322 0.290776
0.783749 0.708217 0.627436
0.783078 0.782498 0.784543
0.000000 0.832303 0.000000
0.000000 0.826322 0.000000
0.000000 0.822965 0.000000
0.000000 0.824857 0.000000
0.448615 0.844236 0.124758
0.657679 0.861357 0.313542
0.847471 0.882506 0.547631
0.906401 0.863157 0.771298
0.000000 0.945006 0.225986
0.000000 0.943664 0.231907
0.000000 0.940764 0.273899
0.206058 0.934264 0.341894
0.493385 0.935393 0.434516
0.659113 0.936492 0.528557
0.785885 0.936706 0.619165
0.885496 0.944121 0.716304
0.139895 0.991241 0.546746
0.209689 0.990570 0.551385
0.352331 0.987732 0.568261
0.499641 0.982300 0.597894
0.646204 0.977325 0.659236
0.722347 0.973236 0.691646
0.793088 0.968780 0.725612
0.855406 0.964446 0.761013
0.170077 0.212589 0.214298
0.170077 0.212589 0.214298
0.167880 0.212772 0.214328
0.212863 0.211398 0.212741
0.368292 0.217197 0.208438
0.655085 0.248661 0.196780
0.895171 0.311986 0.211124
1.000000 0.420417 0.334234
0.170077 0.212589 0.214298
0.169619 0.212528 0.214206
0.169650 0.212009 0.213626
0.208560 0.213535 0.212650
0.368078 0.226780 0.210178
0.660395 0.270146 0.203342
0.901152 0.341863 0.234562
1.000000 0.458625 0.376318
0.164034 0.217472 0.213352
0.165255 0.217411 0.212711
0.172763 0.219516 0.212284
0.190463 0.224033 0.222202
0.314611 0.263096 0.242649
0.612085 0.342779 0.263951
0.860777 0.434150 0.328649
0.990906 0.552300 0.476844
0.000000 0.327794 0.193912
0.000000 0.328740 0.193759
0.149325 0.333928 0.193454
0.272618 0.380652 0.183871
0.474311 0.432136 0.246586
0.461677 0.464729 0.466682
0.754757 0.595392 0.550378
0.909667 0.702388 0.657588
0.000000 0.626886 0.000000
0.000000 0.629206 0.000000
0.000000 0.628809 0.000000
0.264439 0.663355 0.000000
0.525750 0.717769 0.000000
0.780545 0.757595 0.379309
0.792508 0.728725 0.666926
0.804868 0.798550 0.798154
0.000000 0.844175 0.000000
0.000000 0.842985 0.000000
0.000000 0.838682 0.000000
0.084535 0.836332 0.000000
0.471290 0.852689 0.238712
0.674647 0.866484 0.383673
0.856107 0.885893 0.593561
0.907927 0.868528 0.787900
0.000000 0.949432 0.308782
0.000000 0.949218 0.321508
0.000000 0.946166 0.355779
0.296330 0.938964 0.409522
0.527428 0.937621 0.484413
0.680751 0.938231 0.570489
0.799496 0.938811 0.654200
0.892332 0.945495 0.742336
0.287388 0.990875 0.583032
0.309819 0.990173 0.584070
0.409033 0.987457 0.599695
0.531395 0.982238 0.625513
0.646509 0.976196 0.661677
0.727504 0.972503 0.699825
0.799222 0.968353 0.736873
0.859342 0.964141 0.770932
0.169192 0.212497 0.215335
0.169406 0.212589 0.216098
0.172549 0.212253 0.218326
0.192020 0.211154 0.217044
0.385107 0.182834 0.218235
0.724056 0.135042 0.214237
0.932891 0.233005 0.234592
1.000000 0.378820 0.345892
0.167422 0.212100 0.216312
0.167330 0.211826 0.217197
0.173312 0.211246 0.220035
0.208438 0.211917 0.219883
0.427863 0.185550 0.220768
0.750912 0.178256 0.217960
0.938170 0.278996 0.256535
1.000000 0.421271 0.382544
0.161318 0.217533 0.221561
0.162997 0.217899 0.221866
0.179049 0.220829 0.222812
0.248234 0.231907 0.229923
0.437873 0.262089 0.243259
0.707210 0.323339 0.270756
0.904997 0.410315 0.343023
1.000000 0.538476 0.487770
0.000000 0.340276 0.265232
0.000000 0.339239 0.256870
0.045167 0.339147 0.221378
0.283268 0.373144 0.235142
0.433173 0.400092 0.347173
0.570947 0.490242 0.467262
0.808682 0.594751 0.545403
0.933745 0.695338 0.654047
0.000000 0.644434 0.250187
0.000000 0.645624 0.217838
0.000000 0.643488 0.164431
0.265110 0.654047 0.208560
0.545006 0.708583 0.296330
0.783322 0.744656 0.519371
0.769955 0.734951 0.713222
0.837858 0.805203 0.796719
0.000000 0.851347 0.224460
0.000000 0.849851 0.224491
0.000000 0.845396 0.257664
0.233249 0.836240 0.316289
0.529839 0.851865 0.420996
0.714321 0.866270 0.533318
0.870390 0.883940 0.683772
0.901305 0.869474 0.815396
0.000000 0.946807 0.441901
0.000000 0.946410 0.450111
0.000000 0.943664 0.476753
0.392889 0.937194 0.518090
0.590417 0.933715 0.578882
0.719051 0.934936 0.647059
0.819211 0.936156 0.710292
0.902678 0.942870 0.783627
0.395605 0.987884 0.640467
0.417609 0.987335 0.644678
0.484840 0.984833 0.657069
0.575311 0.979950 0.673945
0.681636 0.973541 0.704494
0.751736 0.970062 0.735836
0.815976 0.966308 0.768215
0.870298 0.962585 0.798947
0.120027 0.215244 0.291691
0.122866 0.212680 0.291875
0.145602 0.209201 0.310460
0.244511 0.198154 0.320897
0.370855 0.199893 0.302037
0.659205 0.168948 0.335546
0.945830 0.000000 0.345495
1.000000 0.338506 0.434394
0.125643 0.219394 0.289036
0.124392 0.217075 0.292546
0.141909 0.210880 0.310124
0.244724 0.199649 0.320714
0.377234 0.210178 0.303502
0.682765 0.174350 0.340032
0.952453 0.129335 0.357122
1.000000 0.369055 0.447120
0.160494 0.251469 0.295659
0.161715 0.253117 0.302373
0.157717 0.244755 0.326513
0.270787 0.222202 0.346319
0.413184 0.280613 0.326177
0.754299 0.209110 0.341222
0.956298 0.300664 0.382788
1.000000 0.466377 0.488106
0.000000 0.323491 0.354955
0.000000 0.326513 0.357427
0.120912 0.336584 0.361975
0.331518 0.358068 0.363622
0.561303 0.415747 0.408972
0.768795 0.492409 0.472724
0.902770 0.580987 0.556817
0.982574 0.679652 0.658076
0.000000 0.657130 0.524926
0.000000 0.658412 0.518334
0.000000 0.655818 0.485878
0.252384 0.645991 0.413001
0.595300 0.688777 0.508904
0.738094 0.703883 0.656306
0.768185 0.749264 0.746548
0.889677 0.809720 0.793149
0.000000 0.839872 0.575982
0.000000 0.836606 0.562646
0.000000 0.837705 0.532769
0.315435 0.833036 0.516320
0.604120 0.835966 0.583856
0.762295 0.859281 0.676356
0.882261 0.877653 0.771908
0.887907 0.871519 0.851469
0.216770 0.938598 0.639673
0.235843 0.938293 0.636164
0.312383 0.937469 0.624994
0.492317 0.931975 0.640894
0.656580 0.924651 0.676387
0.764370 0.929046 0.731899
0.847929 0.933318 0.783322
0.917235 0.940185 0.838773
0.503929 0.982635 0.717037
0.510735 0.982452 0.716762
0.549676 0.980804 0.721157
0.626703 0.976593 0.736660
0.716548 0.970794 0.759854
0.786862 0.966583 0.787076
0.841520 0.963378 0.814054
0.886656 0.960296 0.838804
0.000000 0.248264 0.564538
0.000000 0.238895 0.563104
0.000000 0.215305 0.580987
0.113832 0.187045 0.607202
0.473457 0.028229 0.610346
0.708705 0.085176 0.560845
0.824430 0.458442 0.572290
1.000000 0.534081 0.636591
0.000000 0.264591 0.559716
0.000000 0.255100 0.557244
0.000000 0.225681 0.575280
0.100893 0.195621 0.608240
0.477119 0.077272 0.614008
0.714168 0.153384 0.562524
0.832914 0.470771 0.580377
1.000000 0.545129 0.641962
0.000000 0.353796 0.569268
0.000000 0.346715 0.572564
0.000000 0.313268 0.592645
0.108766 0.259922 0.624964
0.504021 0.185794 0.636652
0.742061 0.328954 0.581170
0.867552 0.525597 0.615961
1.000000 0.593133 0.667262
0.214450 0.468238 0.591638
0.259312 0.474250 0.592798
0.376013 0.497444 0.597498
0.377966 0.470802 0.632532
0.553948 0.403235 0.650324
0.730800 0.552056 0.615625
0.910033 0.595819 0.652827
1.000000 0.660945 0.698726
0.000000 0.604181 0.669673
0.000000 0.605798 0.669276
0.000000 0.615167 0.669551
0.444404 0.633021 0.668025
0.647639 0.656397 0.663996
0.788815 0.702785 0.702907
0.890990 0.750820 0.745388
0.958892 0.800931 0.792691
0.000000 0.862181 0.771572
0.000000 0.861112 0.769039
0.000000 0.857450 0.761379
0.519005 0.846921 0.750118
0.679896 0.839567 0.731991
0.810788 0.859190 0.786831
0.873686 0.865782 0.841703
0.877775 0.883452 0.884001
0.448585 0.937591 0.785580
0.476753 0.937102 0.787320
0.565240 0.934234 0.792264
0.637232 0.930816 0.784329
0.709957 0.927092 0.777401
0.811521 0.926604 0.811643
0.879728 0.933928 0.853025
0.930510 0.939849 0.890135
0.667445 0.975280 0.829282
0.671229 0.975158 0.828702
0.685359 0.974578 0.825895
0.702571 0.973205 0.816464
0.758633 0.969207 0.823667
0.826322 0.963775 0.842283
0.871702 0.961089 0.864561
0.906950 0.958679 0.884398
0.000000 0.322637 0.779812
0.000000 0.312596 0.779873
0.000000 0.274266 0.790799
0.000000 0.239017 0.803403
0.256107 0.161196 0.821439
0.648859 0.000000 0.820066
0.918608 0.244785 0.779873
0.940764 0.645441 0.764126
0.000000 0.362432 0.793820
0.000000 0.354284 0.795956
0.000000 0.312871 0.804440
0.000000 0.270909 0.816037
0.264652 0.189120 0.830961
0.657465 0.000000 0.827573
0.922057 0.311254 0.784726
0.939483 0.667048 0.772976
0.000000 0.471962 0.786557
0.000000 0.465980 0.789120
0.000000 0.434638 0.797726
0.000000 0.381964 0.815763
0.312688 0.303502 0.831754
0.670832 0.235874 0.829465
0.910521 0.459297 0.781857
0.927520 0.714992 0.787625
0.485847 0.628260 0.779751
0.494362 0.631098 0.782986
0.517571 0.634913 0.791897
0.470161 0.584314 0.802090
0.476204 0.512505 0.818753
0.700984 0.469917 0.821592
0.881987 0.624537 0.778744
0.920409 0.766903 0.807492
0.559808 0.713313 0.805692
0.574334 0.716915 0.805783
0.626032 0.730068 0.805509
0.699794 0.752438 0.803922
0.698665 0.736049 0.819730
0.767361 0.694728 0.827237
0.865080 0.774075 0.809567
0.957794 0.805173 0.832761
0.454658 0.791623 0.841978
0.469001 0.791379 0.840574
0.537957 0.797482 0.840452
0.633112 0.807401 0.839872
0.731197 0.819638 0.838743
0.816251 0.826627 0.831144
0.891630 0.850462 0.850553
0.945464 0.876829 0.873930
0.279881 0.942870 0.895079
0.318700 0.941833 0.893156
0.449744 0.939208 0.887846
0.600946 0.934691 0.879210
0.743771 0.927153 0.871244
0.830533 0.922667 0.864256
0.901244 0.932677 0.899260
0.929229 0.934600 0.922210
0.650996 0.977447 0.885405
0.663233 0.976837 0.886229
0.703975 0.974334 0.888396
0.764309 0.969909 0.891997
0.819120 0.965667 0.893889
0.853513 0.962951 0.891325
0.897551 0.959228 0.906035
0.923919 0.957092 0.921111
0.192660 0.535515 0.916258
0.177096 0.529015 0.916930
0.109468 0.503044 0.921019
0.109590 0.458595 0.927428
0.247959 0.388312 0.936614
0.413123 0.263493 0.947173
0.766659 0.266850 0.941955
1.000000 0.541772 0.917601
0.313725 0.569146 0.915862
0.304448 0.562799 0.916472
0.272831 0.538170 0.920500
0.254826 0.494484 0.927489
0.306065 0.425116 0.936919
0.430121 0.302770 0.948180
0.772641 0.317723 0.943023
1.000000 0.572290 0.919310
0.509056 0.660670 0.909117
0.504967 0.656519 0.910063
0.488777 0.638727 0.914122
0.457679 0.598169 0.921752
0.460090 0.542718 0.931701
0.503075 0.436744 0.944244
0.787991 0.449165 0.938964
0.991669 0.640070 0.912444
0.678157 0.767086 0.900603
0.677241 0.765652 0.901793
0.669032 0.756191 0.905272
0.649470 0.731807 0.911772
0.632685 0.692287 0.921447
0.638666 0.625788 0.933379
0.817227 0.614984 0.931121
0.971008 0.733608 0.904936
0.769924 0.832609 0.895171
0.771511 0.833371 0.896208
0.776303 0.835050 0.899687
0.783566 0.835569 0.905638
0.768063 0.813870 0.913878
0.760098 0.775906 0.924102
0.852293 0.752804 0.925750
0.950988 0.822202 0.903136
0.756161 0.856443 0.911406
0.760616 0.857542 0.911315
0.778744 0.862150 0.910948
0.809964 0.870756 0.910369
0.849241 0.883665 0.909697
0.849180 0.874937 0.917418
0.881407 0.850401 0.921416
0.933837 0.893675 0.912230
0.693507 0.893034 0.926848
0.698817 0.893523 0.926665
0.722164 0.896269 0.926452
0.762264 0.901335 0.926055
0.812680 0.908415 0.925811
0.863767 0.916136 0.925444
0.907530 0.921294 0.922820
0.942016 0.933593 0.933074
0.615991 0.976013 0.954833
0.624720 0.976440 0.954711
0.658686 0.977264 0.953429
0.726131 0.973327 0.947417
0.803311 0.968322 0.940978
0.875334 0.962524 0.937835
0.914580 0.958953 0.936706
0.936004 0.956512 0.946105
0.670649 0.764279 0.965240
0.668421 0.761807 0.965637
0.661372 0.752529 0.967590
0.646540 0.731624 0.971191
0.632532 0.698909 0.976471
0.612970 0.635065 0.984558
0.595911 0.494911 0.996429
0.853239 0.590936 0.987152
0.688045 0.776394 0.964416
0.685786 0.773922 0.964813
0.678370 0.764645 0.966644
0.663569 0.744472 0.970275
0.650324 0.713863 0.975402
0.632166 0.654658 0.983276
0.614038 0.524376 0.995087
0.857237 0.611719 0.986206
0.737331 0.811887 0.960876
0.735866 0.810147 0.961242
0.730098 0.802853 0.962982
0.714961 0.784390 0.966308
0.703365 0.759518 0.971221
0.689937 0.714351 0.978363
0.674281 0.616846 0.989227
0.868650 0.669795 0.982391
0.801236 0.859403 0.955810
0.800107 0.858122 0.956115
0.795895 0.853147 0.957549
0.786343 0.841276 0.960449
0.772854 0.820829 0.965026
0.762966 0.790463 0.971099
0.753323 0.729183 0.980041
0.885344 0.746456 0.976532
0.852964 0.898741 0.951141
0.853208 0.898619 0.951354
0.855131 0.898680 0.952483
0.851133 0.893400 0.954803
0.841032 0.880613 0.958709
0.830686 0.860288 0.963989
0.824796 0.825010 0.970916
0.904112 0.822202 0.970367
0.878782 0.920073 0.949401
0.880400 0.920714 0.949401
0.886687 0.923186 0.949218
0.891295 0.924865 0.950591
0.894041 0.924865 0.953582
0.887022 0.914916 0.957702
0.880644 0.895659 0.962951
0.921263 0.886076 0.964538
0.861295 0.927184 0.956023
0.863035 0.927611 0.955962
0.870115 0.929412 0.955688
0.883299 0.932738 0.955138
0.901213 0.937591 0.954345
0.920134 0.943694 0.953460
0.923125 0.942290 0.956847
0.936980 0.935393 0.959167
0.826566 0.941070 0.959289
0.829282 0.941405 0.959228
0.839536 0.942657 0.958984
0.857511 0.944854 0.958526
0.881773 0.947997 0.957946
0.908049 0.951659 0.957397
0.930755 0.955077 0.957092
0.941772 0.957000 0.957214
