20 Preset/Travel Style/【3】LUT video cho PR-AE-FCPX/Green Moody - Lut (24).cube
# Created by Adobe Lightroom plugin Export LUT (1.24.0)
# www.johnrellis.com/lightroom/exportlut.htm
# Preset: 24自然风光-温暖-素材江湖
# Color profile: E:\lut插件\exportlut.1.24\exportlut.lrplugin\color profiles\Rec709gamma2.4.icc
LUT_3D_SIZE 8
DOMAIN_MIN 0.000000 0.000000 0.000000
DOMAIN_MAX 0.903226 0.903226 0.903226
0.137118 0.122805 0.116365
0.176699 0.124666 0.117617
0.283604 0.122103 0.117006
0.441993 0.097902 0.107332
0.640162 0.036133 0.060945
0.819516 0.144686 0.000000
0.971527 0.260288 0.000000
1.000000 0.330968 0.000000
0.139071 0.154391 0.118563
0.173770 0.154635 0.115999
0.270176 0.155001 0.115145
0.419776 0.150118 0.103914
0.612696 0.151583 0.045716
0.795499 0.197024 0.000000
0.945708 0.280858 0.000000
1.000000 0.343542 0.000000
0.123262 0.241428 0.120089
0.160128 0.241184 0.118379
0.266636 0.251713 0.104128
0.438483 0.273228 0.052857
0.612177 0.295659 0.000000
0.813138 0.355413 0.000000
0.959228 0.415320 0.000000
1.000000 0.444160 0.000000
0.000000 0.386572 0.093782
0.000000 0.384863 0.090913
0.228916 0.387701 0.056001
0.434943 0.447791 0.000000
0.689845 0.524376 0.000000
0.832242 0.536828 0.000000
0.946624 0.551171 0.000000
1.000000 0.557641 0.000000
0.000000 0.579675 0.000000
0.000000 0.578820 0.000000
0.000000 0.580987 0.000000
0.393256 0.606836 0.000000
0.628412 0.651453 0.000000
0.818875 0.679866 0.000000
0.932769 0.671229 0.000000
1.000000 0.666316 0.000000
0.000000 0.730343 0.094728
0.000000 0.737331 0.108553
0.000000 0.735927 0.069703
0.361456 0.733974 0.000000
0.577325 0.754696 0.000000
0.770169 0.783688 0.000000
0.927123 0.800839 0.000000
1.000000 0.777615 0.000000
0.000000 0.844511 0.307530
0.000000 0.845396 0.309239
0.000000 0.842832 0.295995
0.356359 0.839597 0.274235
0.541558 0.837949 0.239689
0.710811 0.854032 0.231632
0.864927 0.870695 0.201877
0.992920 0.876066 0.120638
0.000000 0.932494 0.509209
0.000000 0.932158 0.507042
0.248081 0.931395 0.501396
0.408362 0.930571 0.492378
0.531273 0.918517 0.422644
0.676661 0.923491 0.418128
0.811673 0.932067 0.416449
0.935607 0.936675 0.366247
0.147890 0.129427 0.143343
0.178988 0.128939 0.141756
0.268284 0.130343 0.135866
0.402869 0.133974 0.131472
0.596918 0.126619 0.106355
0.784787 0.173159 0.000000
0.933562 0.265019 0.000000
1.000000 0.326513 0.000000
0.147768 0.155428 0.143404
0.177951 0.155398 0.141787
0.261295 0.161074 0.140597
0.398596 0.164218 0.132479
0.589441 0.170016 0.105653
0.780209 0.213138 0.000000
0.920867 0.285649 0.000000
1.000000 0.341650 0.000000
0.146334 0.235782 0.146670
0.172976 0.235813 0.144778
0.262821 0.243809 0.135286
0.410132 0.261723 0.128573
0.584619 0.285405 0.099458
0.780697 0.336156 0.000000
0.920439 0.388006 0.000000
1.000000 0.431647 0.000000
0.000000 0.367498 0.134188
0.035248 0.367285 0.131991
0.231907 0.369726 0.122621
0.408179 0.414038 0.012940
0.631800 0.471107 0.000000
0.777584 0.492714 0.000000
0.905882 0.517815 0.000000
1.000000 0.536797 0.000000
0.000000 0.566369 0.090150
0.000000 0.563897 0.082307
0.012482 0.562432 0.021546
0.374365 0.579309 0.000000
0.597528 0.620142 0.000000
0.790402 0.654108 0.000000
0.910307 0.653529 0.000000
0.992096 0.654292 0.000000
0.000000 0.715084 0.151553
0.000000 0.715297 0.149172
0.000000 0.715023 0.134676
0.342596 0.715694 0.097719
0.560845 0.738521 0.000000
0.757748 0.772671 0.000000
0.915923 0.791836 0.000000
1.000000 0.770657 0.000000
0.000000 0.832609 0.312963
0.000000 0.830594 0.306126
0.000000 0.827817 0.292943
0.334081 0.826078 0.276402
0.528832 0.827237 0.253696
0.699947 0.844633 0.249027
0.853727 0.860929 0.217014
0.982818 0.867430 0.149386
0.000000 0.925536 0.503380
0.000000 0.926299 0.506249
0.218967 0.925353 0.499702
0.394507 0.924712 0.491768
0.540276 0.922576 0.470436
0.677577 0.924132 0.452552
0.809201 0.930632 0.441444
0.932860 0.935454 0.397620
0.161471 0.140352 0.216098
0.187625 0.140414 0.216953
0.275059 0.140749 0.212650
0.408423 0.129274 0.206088
0.591760 0.105898 0.196872
0.789700 0.176974 0.191409
0.935149 0.281254 0.165499
1.000000 0.355383 0.047150
0.167636 0.164065 0.213138
0.191318 0.165194 0.213443
0.272343 0.168093 0.211246
0.400397 0.162325 0.205173
0.580224 0.163699 0.199649
0.778805 0.218601 0.193515
0.922698 0.299596 0.162325
1.000000 0.367254 0.033539
0.158694 0.240635 0.220127
0.184787 0.241398 0.219272
0.273259 0.247105 0.218723
0.401160 0.260990 0.218601
0.588556 0.290745 0.218387
0.781094 0.342992 0.208133
0.917998 0.398291 0.179995
1.000000 0.442542 0.101472
0.000000 0.376928 0.236667
0.105562 0.377661 0.235203
0.244938 0.382544 0.227695
0.416114 0.415869 0.214237
0.625116 0.467353 0.233921
0.773342 0.500267 0.258610
0.905760 0.531090 0.242252
1.000000 0.551080 0.193698
0.000000 0.565942 0.268315
0.000000 0.564965 0.263096
0.083558 0.565148 0.252262
0.378759 0.574395 0.240665
0.600031 0.621180 0.214176
0.782803 0.650599 0.238102
0.893950 0.655055 0.294652
0.983948 0.663142 0.327367
0.000000 0.710872 0.318791
0.000000 0.711666 0.318822
0.000000 0.710811 0.312261
0.341131 0.709682 0.299413
0.549706 0.726955 0.292699
0.744991 0.764034 0.299321
0.900786 0.786191 0.341436
0.992706 0.773251 0.347692
0.000000 0.833249 0.446509
0.000000 0.831632 0.441657
0.000000 0.827878 0.428626
0.339391 0.824643 0.413550
0.523949 0.821683 0.392706
0.693935 0.841855 0.409949
0.848264 0.862242 0.422065
0.974701 0.870451 0.426490
0.000000 0.923674 0.583795
0.000000 0.922850 0.580285
0.250553 0.921843 0.574975
0.409155 0.922759 0.574701
0.544274 0.920775 0.558923
0.677211 0.922789 0.549950
0.805997 0.930541 0.553643
0.926085 0.936034 0.534264
0.145449 0.150912 0.346197
0.175174 0.151827 0.351598
0.272984 0.154543 0.358679
0.406348 0.151980 0.357153
0.566766 0.118624 0.354711
0.767422 0.085939 0.361761
0.906035 0.238926 0.362737
1.000000 0.358343 0.371191
0.153597 0.175143 0.349950
0.181827 0.176425 0.352422
0.275486 0.180301 0.359777
0.408240 0.180697 0.361700
0.572747 0.160220 0.362432
0.766354 0.158145 0.364538
0.901640 0.275761 0.369635
1.000000 0.378912 0.377020
0.139010 0.237552 0.340642
0.167300 0.238743 0.342870
0.263615 0.247532 0.354711
0.402045 0.262638 0.363622
0.580133 0.273198 0.378851
0.769802 0.309087 0.388067
0.903807 0.413275 0.431586
1.000000 0.470741 0.430091
0.000000 0.383642 0.398016
0.000000 0.383703 0.396490
0.224277 0.388373 0.396124
0.404761 0.406744 0.406836
0.576196 0.438514 0.424384
0.741115 0.484718 0.449744
0.876005 0.531548 0.472175
0.984375 0.566064 0.474067
0.000000 0.582177 0.480140
0.000000 0.579797 0.475563
0.000000 0.576501 0.464729
0.372900 0.578393 0.454292
0.584314 0.613916 0.463600
0.750851 0.644770 0.520928
0.855680 0.665126 0.568750
0.960845 0.679622 0.565972
0.000000 0.721553 0.531334
0.000000 0.726497 0.538048
0.000000 0.721798 0.527947
0.352239 0.718959 0.520012
0.542992 0.723781 0.515679
0.727871 0.760372 0.542138
0.871855 0.783322 0.595727
0.959075 0.782040 0.621729
0.000000 0.832975 0.595544
0.000000 0.832853 0.597253
0.124483 0.830320 0.600641
0.371221 0.828977 0.595666
0.532097 0.826352 0.583520
0.687160 0.840055 0.595575
0.834592 0.861631 0.617578
0.953307 0.871519 0.640528
0.221805 0.925017 0.691554
0.259861 0.924285 0.693324
0.336919 0.923217 0.690028
0.443885 0.922087 0.684627
0.558373 0.920012 0.673823
0.676905 0.919310 0.662348
0.802182 0.929168 0.677089
0.917174 0.936950 0.681300
0.000000 0.168002 0.537011
0.000000 0.168826 0.542931
0.229007 0.170443 0.553338
0.397742 0.172641 0.576410
0.570123 0.166995 0.587884
0.728573 0.152438 0.582330
0.870787 0.219303 0.575158
0.984771 0.340246 0.576715
0.000000 0.190158 0.540032
0.000000 0.191440 0.546410
0.231418 0.193912 0.557000
0.399542 0.199863 0.580224
0.569970 0.199863 0.589715
0.726772 0.193545 0.583307
0.868681 0.253941 0.577569
0.981598 0.364416 0.581018
0.000000 0.253391 0.537591
0.000000 0.254551 0.543114
0.217014 0.262333 0.555932
0.391760 0.279545 0.578729
0.558099 0.292546 0.584161
0.707179 0.294926 0.572534
0.854398 0.352758 0.580499
0.966094 0.437201 0.590784
0.000000 0.363745 0.549035
0.000000 0.363012 0.547845
0.131106 0.361486 0.546563
0.361028 0.390906 0.579858
0.548394 0.425849 0.599298
0.700618 0.444526 0.596521
0.839963 0.499367 0.614618
0.946014 0.566278 0.644556
0.000000 0.543603 0.612665
0.000000 0.544610 0.613001
0.000000 0.546929 0.612116
0.314580 0.553826 0.613489
0.528344 0.570123 0.621668
0.680598 0.601556 0.643214
0.816831 0.640406 0.670436
0.929259 0.671901 0.686854
0.000000 0.703670 0.664729
0.000000 0.703304 0.663813
0.000000 0.698390 0.656001
0.302831 0.694484 0.647669
0.499458 0.690455 0.638758
0.685786 0.731197 0.672480
0.829404 0.765072 0.725063
0.914611 0.780392 0.754330
0.000000 0.827726 0.708461
0.000000 0.826047 0.705959
0.000000 0.822080 0.699794
0.336675 0.819242 0.699886
0.518456 0.816251 0.700404
0.661921 0.821225 0.700130
0.812955 0.849790 0.728511
0.927184 0.862333 0.753048
0.000000 0.921080 0.733822
0.000000 0.920195 0.734554
0.188235 0.917082 0.738766
0.434089 0.915557 0.756527
0.558526 0.913451 0.756466
0.669429 0.911864 0.747585
0.792325 0.921386 0.759670
0.906157 0.932158 0.772732
0.000000 0.192844 0.726192
0.000000 0.193973 0.730800
0.174929 0.196445 0.738674
0.390387 0.202823 0.754696
0.577203 0.226322 0.772152
0.722499 0.240177 0.765042
0.844724 0.274998 0.749569
0.953063 0.362036 0.741878
0.000000 0.210910 0.715633
0.000000 0.211429 0.717342
0.167788 0.213809 0.724361
0.377173 0.220615 0.738674
0.563165 0.243748 0.758663
0.710811 0.258000 0.754788
0.835019 0.289097 0.741482
0.946319 0.370611 0.736446
0.000000 0.277043 0.723659
0.000000 0.278080 0.724514
0.146273 0.284031 0.730617
0.368658 0.294804 0.736965
0.554559 0.326757 0.755642
0.703273 0.348119 0.755154
0.826322 0.375830 0.743618
0.938018 0.447364 0.743893
0.000000 0.371679 0.711360
0.000000 0.372351 0.712184
0.000000 0.381018 0.722194
0.342565 0.407965 0.743038
0.545800 0.453529 0.763943
0.697078 0.485298 0.767880
0.815640 0.506126 0.757382
0.928008 0.564752 0.766262
0.000000 0.509941 0.719387
0.000000 0.509361 0.718624
0.000000 0.507591 0.716640
0.220737 0.505760 0.715236
0.489143 0.547021 0.741238
0.663203 0.589746 0.757351
0.790799 0.607691 0.756405
0.909850 0.654597 0.774258
0.000000 0.672847 0.757382
0.000000 0.675471 0.759640
0.000000 0.675624 0.758389
0.227390 0.677241 0.757259
0.464393 0.682094 0.757259
0.648249 0.701839 0.769436
0.789792 0.739345 0.796262
0.901946 0.769802 0.815091
0.000000 0.826505 0.812161
0.000000 0.827695 0.813443
0.109682 0.827756 0.813382
0.363409 0.825772 0.810727
0.516716 0.820737 0.803769
0.653346 0.814969 0.797299
0.800107 0.842039 0.818051
0.910063 0.861295 0.843809
0.000000 0.920500 0.824063
0.000000 0.919493 0.822751
0.120333 0.917449 0.820401
0.359594 0.915587 0.818936
0.527733 0.911162 0.819364
0.669154 0.907012 0.824643
0.782650 0.911894 0.827268
0.900237 0.928740 0.848600
0.000000 0.225559 0.840146
0.000000 0.226261 0.840970
0.197482 0.229435 0.843870
0.389807 0.238346 0.850217
0.556970 0.262333 0.858610
0.711879 0.321996 0.869596
0.830259 0.345800 0.862455
0.924041 0.392981 0.845640
0.000000 0.242344 0.838529
0.000000 0.243412 0.839384
0.193240 0.246860 0.842405
0.386297 0.255985 0.848295
0.554253 0.281163 0.857115
0.708949 0.340063 0.868223
0.827420 0.363043 0.861387
0.921294 0.407263 0.844907
0.000000 0.298589 0.834836
0.000000 0.299809 0.835599
0.159945 0.305486 0.838682
0.373938 0.318791 0.844816
0.545129 0.348119 0.853880
0.700099 0.407202 0.865415
0.819211 0.430549 0.860349
0.913512 0.467292 0.845762
0.000000 0.382238 0.827909
0.000000 0.382483 0.828214
0.000000 0.390021 0.831815
0.333227 0.408515 0.838529
0.522515 0.443183 0.848295
0.682979 0.502525 0.860746
0.804379 0.527886 0.858946
0.900969 0.552026 0.847623
0.000000 0.481788 0.811856
0.000000 0.480110 0.811154
0.000000 0.483925 0.815366
0.185183 0.498634 0.825925
0.472084 0.537163 0.839170
0.656367 0.592432 0.853971
0.787167 0.622675 0.857939
0.888823 0.638727 0.850797
0.000000 0.643091 0.836118
0.000000 0.642603 0.835813
0.000000 0.640223 0.834379
0.000000 0.635065 0.831449
0.360601 0.627375 0.826505
0.611139 0.671443 0.845365
0.772183 0.716243 0.860227
0.881254 0.733211 0.860075
0.000000 0.787137 0.862760
0.000000 0.787198 0.862730
0.000000 0.787259 0.862181
0.204898 0.787747 0.861326
0.441657 0.789364 0.860349
0.610681 0.794278 0.860655
0.762417 0.808072 0.866636
0.884611 0.841123 0.887083
0.000000 0.913329 0.894102
0.000000 0.913268 0.894102
0.230900 0.913237 0.894133
0.404852 0.913207 0.894408
0.549950 0.912963 0.894591
0.664332 0.909606 0.890288
0.777371 0.905638 0.887724
0.898070 0.925536 0.906279
0.209476 0.301549 0.939635
0.241032 0.303136 0.939849
0.337560 0.309300 0.940429
0.462226 0.324559 0.941833
0.593225 0.355932 0.943786
0.720668 0.411963 0.946105
0.836973 0.490120 0.947906
0.933043 0.509972 0.942107
0.203372 0.315648 0.938781
0.236393 0.317113 0.938994
0.334203 0.323369 0.939666
0.459693 0.338537 0.941039
0.591150 0.369543 0.943053
0.718746 0.424811 0.945373
0.835203 0.501488 0.947326
0.931151 0.519615 0.941588
0.162600 0.365209 0.936370
0.204654 0.366705 0.936553
0.315740 0.373419 0.937224
0.447974 0.389837 0.938811
0.582574 0.420874 0.940734
0.711635 0.473274 0.943084
0.829374 0.545678 0.945678
0.924804 0.557946 0.940307
0.000000 0.438178 0.932158
0.000000 0.440009 0.932372
0.249241 0.447669 0.933104
0.413428 0.465034 0.934600
0.561578 0.496162 0.936736
0.697780 0.544457 0.939391
0.818814 0.606500 0.942840
0.914885 0.617151 0.938689
0.000000 0.519310 0.925475
0.000000 0.519860 0.925841
0.000000 0.522728 0.927062
0.315343 0.541619 0.928862
0.515099 0.571099 0.931365
0.672023 0.613458 0.934874
0.803738 0.667964 0.939544
0.903655 0.683192 0.937316
0.000000 0.636164 0.923186
0.000000 0.634730 0.922850
0.000000 0.628443 0.921538
0.000000 0.616175 0.919188
0.381018 0.632685 0.923644
0.620966 0.676844 0.929107
0.782376 0.729610 0.935851
0.892393 0.754696 0.936858
0.000000 0.775021 0.933043
0.000000 0.774594 0.932830
0.000000 0.772763 0.931945
0.000000 0.768948 0.930144
0.333562 0.761990 0.926940
0.516045 0.749325 0.921477
0.738643 0.785794 0.928832
0.882292 0.827695 0.937316
0.000000 0.891722 0.943511
0.000000 0.891661 0.943389
0.000000 0.891539 0.942992
0.302586 0.891417 0.942229
0.470069 0.891478 0.941009
0.613458 0.892119 0.939330
0.746700 0.894560 0.937804
0.876890 0.904662 0.940368
