20 Preset/Travel Style/【3】LUT video cho PR-AE-FCPX/Green Moody - Lut (14).cube
# Created by Adobe Lightroom plugin Export LUT (1.24.0)
# www.johnrellis.com/lightroom/exportlut.htm
# Preset: 14自然风光-暗黑-素材江湖
# Color profile: E:\lut插件\exportlut.1.24\exportlut.lrplugin\color profiles\Rec709gamma2.4.icc
LUT_3D_SIZE 5
DOMAIN_MIN 0.000000 0.000000 0.000000
DOMAIN_MAX 0.903226 0.903226 0.903226
0.099092 0.144472 0.163333
0.139467 0.149935 0.170138
0.341863 0.157717 0.170748
0.682521 0.161318 0.175601
1.000000 0.201724 0.246891
0.044648 0.185336 0.180575
0.126589 0.195193 0.177646
0.373480 0.240848 0.173709
0.730312 0.280735 0.186435
1.000000 0.325902 0.284184
0.000000 0.356115 0.244175
0.000000 0.345312 0.204135
0.332158 0.470405 0.239780
0.825040 0.593957 0.307347
1.000000 0.596307 0.429450
0.000000 0.576562 0.344579
0.000000 0.568048 0.311803
0.000000 0.606592 0.284245
0.640742 0.765652 0.421149
0.990387 0.856748 0.606592
0.000000 0.864256 0.472358
0.000000 0.862211 0.449409
0.000000 0.833707 0.313237
0.452644 0.902129 0.484840
0.883604 0.946471 0.703304
0.101350 0.155337 0.192996
0.133669 0.152895 0.204471
0.296391 0.151705 0.228855
0.601770 0.067536 0.236423
0.953735 0.129580 0.298009
0.109682 0.180117 0.210056
0.140536 0.198825 0.223392
0.323064 0.205753 0.226871
0.647395 0.231235 0.255436
0.974517 0.283146 0.324743
0.000000 0.365942 0.317205
0.000000 0.358892 0.283574
0.317632 0.437873 0.297520
0.779843 0.552056 0.365515
1.000000 0.585870 0.464851
0.000000 0.591547 0.405005
0.000000 0.584009 0.378088
0.000000 0.596277 0.326787
0.648188 0.757961 0.462531
0.984985 0.852506 0.635615
0.000000 0.864256 0.512169
0.000000 0.861570 0.491005
0.000000 0.853910 0.381079
0.482856 0.904570 0.515068
0.894621 0.949218 0.729244
0.050538 0.182071 0.362005
0.147524 0.181155 0.376745
0.338293 0.163821 0.417823
0.633875 0.210330 0.479835
0.922454 0.181338 0.498939
0.148531 0.258732 0.365606
0.175692 0.255222 0.377874
0.340551 0.240818 0.421729
0.631067 0.284764 0.478370
0.923033 0.263188 0.494209
0.228611 0.384100 0.446662
0.276066 0.401190 0.454627
0.456306 0.494331 0.509178
0.701228 0.476265 0.495216
0.961517 0.528099 0.540215
0.229252 0.666621 0.597040
0.290684 0.659113 0.583917
0.294377 0.630701 0.505760
0.694636 0.747646 0.585748
0.972564 0.839872 0.716823
0.000000 0.864775 0.651209
0.000000 0.863584 0.635676
0.000000 0.855741 0.560327
0.467201 0.878325 0.549767
0.902586 0.940856 0.764889
0.240085 0.300420 0.612787
0.289403 0.299443 0.621393
0.449714 0.282902 0.651209
0.692653 0.249393 0.684016
0.941436 0.387091 0.712093
0.305425 0.383490 0.607996
0.334234 0.380011 0.614832
0.457313 0.361700 0.642725
0.682979 0.332952 0.675410
0.931365 0.445655 0.709895
0.474159 0.543420 0.604974
0.484993 0.546471 0.611627
0.537591 0.550774 0.642054
0.694209 0.530205 0.677607
0.920867 0.622858 0.727749
0.579614 0.669245 0.700771
0.596674 0.674098 0.700923
0.671778 0.705257 0.712764
0.800015 0.776455 0.754238
0.944732 0.773709 0.751980
0.635615 0.899107 0.852537
0.646601 0.897368 0.846281
0.688014 0.890440 0.818967
0.632746 0.866789 0.706142
0.923186 0.935485 0.832364
0.548211 0.541314 0.843351
0.562615 0.538170 0.845640
0.627649 0.527276 0.857450
0.750790 0.493141 0.877073
0.930571 0.487984 0.891478
0.588891 0.590661 0.836088
0.599939 0.587854 0.838834
0.650233 0.575158 0.850614
0.756802 0.541619 0.870665
0.926787 0.532189 0.886900
0.706233 0.718166 0.825742
0.707881 0.714473 0.827512
0.727138 0.703700 0.838346
0.787289 0.677852 0.858244
0.923095 0.665248 0.881468
0.800473 0.811765 0.838743
0.805325 0.813321 0.837461
0.827085 0.823087 0.838315
0.848814 0.821714 0.862699
0.933043 0.817472 0.893431
0.842741 0.879637 0.900908
0.847257 0.881315 0.900969
0.868650 0.891020 0.903868
0.904967 0.908721 0.909941
0.956970 0.941802 0.929717
