20 Preset/Travel Style/【3】LUT video cho PR-AE-FCPX/Green Moody - Lut (1).cube
# Created by Adobe Lightroom plugin Export LUT (1.24.0)
# www.johnrellis.com/lightroom/exportlut.htm
# Preset: 01自然风光-复古-素材江湖
# Color profile: E:\lut插件\exportlut.1.24\exportlut.lrplugin\color profiles\Rec709gamma2.4.icc
LUT_3D_SIZE 32
DOMAIN_MIN 0.0 0.0 0.0
DOMAIN_MAX 1.0 1.0 1.0
0.211887 0.157412 0.160189
0.212131 0.157382 0.160189
0.212284 0.157565 0.160159
0.213443 0.157748 0.160311
0.216800 0.157900 0.160739
0.227146 0.158145 0.160769
0.250645 0.157656 0.160616
0.280125 0.156985 0.160128
0.313817 0.156100 0.159060
0.351446 0.154665 0.157748
0.392340 0.154086 0.155734
0.436225 0.153994 0.152956
0.481209 0.154696 0.149752
0.527001 0.157931 0.146242
0.573816 0.164553 0.142794
0.620752 0.174289 0.140108
0.667689 0.187503 0.138521
0.713191 0.201938 0.138430
0.757198 0.216800 0.138338
0.796963 0.231052 0.140810
0.833951 0.245914 0.144533
0.868101 0.259403 0.150851
0.900237 0.272740 0.158785
0.931670 0.286442 0.168185
0.962066 0.299565 0.180179
0.991363 0.313207 0.193729
1.000000 0.327153 0.209232
1.000000 0.341405 0.226780
1.000000 0.355627 0.245335
1.000000 0.370794 0.265293
1.000000 0.386084 0.286870
1.000000 0.402350 0.309545
0.212131 0.157382 0.160189
0.212131 0.157382 0.160189
0.212497 0.157504 0.160159
0.213321 0.157931 0.160464
0.216922 0.158083 0.160739
0.227573 0.158450 0.160922
0.251347 0.158083 0.160525
0.280980 0.157534 0.160006
0.314549 0.157046 0.159091
0.352148 0.156405 0.157473
0.393286 0.155276 0.155703
0.437293 0.155062 0.152926
0.482277 0.156283 0.149630
0.528069 0.159976 0.146242
0.575036 0.166842 0.142916
0.621790 0.176608 0.139986
0.668391 0.189578 0.138674
0.714260 0.204074 0.137942
0.758175 0.219120 0.138216
0.797787 0.233310 0.140688
0.834562 0.247379 0.145083
0.868956 0.260807 0.150668
0.901030 0.274205 0.159152
0.932433 0.287907 0.168856
0.962951 0.301183 0.180209
0.991913 0.314733 0.194522
1.000000 0.328466 0.210361
1.000000 0.342473 0.227115
1.000000 0.356970 0.245914
1.000000 0.371862 0.265934
1.000000 0.387182 0.287694
1.000000 0.403204 0.310033
0.212070 0.157961 0.160311
0.212314 0.157931 0.160311
0.212528 0.157900 0.160311
0.213840 0.158236 0.160403
0.217533 0.159121 0.160769
0.228977 0.159915 0.160678
0.253056 0.160952 0.160464
0.282567 0.160952 0.159854
0.316014 0.161196 0.158633
0.353826 0.160983 0.157137
0.394995 0.161135 0.154971
0.439246 0.161654 0.152010
0.483894 0.163394 0.148836
0.529778 0.167941 0.145418
0.576013 0.174685 0.142519
0.623438 0.185428 0.139376
0.669642 0.198184 0.138674
0.715572 0.212406 0.138033
0.759060 0.226413 0.138216
0.798703 0.240513 0.140719
0.835325 0.254368 0.145266
0.869596 0.267704 0.151369
0.901732 0.280461 0.159274
0.932982 0.293309 0.169802
0.963409 0.306279 0.181735
0.992340 0.319341 0.195834
1.000000 0.332921 0.211337
1.000000 0.346746 0.228611
1.000000 0.360845 0.247715
1.000000 0.375494 0.267826
1.000000 0.390631 0.288975
1.000000 0.406470 0.311559
0.212589 0.159030 0.160922
0.212802 0.158968 0.160922
0.213169 0.159121 0.160891
0.214084 0.159518 0.160616
0.218448 0.160861 0.160678
0.231937 0.163455 0.160678
0.256291 0.166506 0.160128
0.285435 0.168276 0.159091
0.318883 0.169619 0.158053
0.357000 0.170748 0.156283
0.398138 0.171939 0.153933
0.441810 0.173831 0.150912
0.486519 0.177188 0.147555
0.532006 0.182742 0.144045
0.578912 0.190524 0.141085
0.625574 0.201572 0.139040
0.672084 0.214115 0.138216
0.717556 0.228153 0.137728
0.760739 0.241215 0.138827
0.800259 0.254887 0.141329
0.836942 0.267430 0.145876
0.870817 0.279850 0.152438
0.902678 0.291722 0.161501
0.933837 0.303716 0.171939
0.964141 0.316289 0.183780
0.992920 0.328771 0.198123
1.000000 0.342046 0.213535
1.000000 0.354864 0.231418
1.000000 0.368231 0.249699
1.000000 0.382544 0.269993
1.000000 0.397040 0.291325
1.000000 0.412329 0.314244
0.213474 0.162600 0.161532
0.213474 0.162600 0.161532
0.213931 0.162509 0.161532
0.215549 0.163180 0.161196
0.219059 0.164248 0.160769
0.231968 0.169192 0.160220
0.257603 0.175418 0.159335
0.290257 0.179934 0.158389
0.323796 0.182712 0.156863
0.361700 0.185946 0.154879
0.402838 0.188754 0.152316
0.446235 0.192630 0.149020
0.490303 0.197421 0.145876
0.535882 0.204562 0.142397
0.581872 0.213352 0.140536
0.628504 0.225010 0.138827
0.674708 0.237491 0.138216
0.720241 0.250614 0.137636
0.762356 0.262882 0.138918
0.801663 0.274876 0.142214
0.837888 0.286748 0.147463
0.871641 0.297673 0.154879
0.903441 0.308446 0.164004
0.934630 0.319677 0.174533
0.964477 0.331273 0.187503
0.993286 0.343053 0.201175
1.000000 0.354803 0.217685
1.000000 0.367102 0.234775
1.000000 0.379889 0.254032
1.000000 0.393133 0.273838
1.000000 0.407080 0.295293
1.000000 0.421729 0.317937
0.213840 0.170901 0.162234
0.214084 0.170871 0.162234
0.215183 0.170169 0.162478
0.217227 0.171237 0.162081
0.221653 0.173281 0.161257
0.231174 0.176120 0.160159
0.253666 0.184329 0.158419
0.284855 0.192264 0.157107
0.324743 0.199893 0.155489
0.367224 0.206394 0.153445
0.407935 0.211307 0.150484
0.450874 0.216922 0.147219
0.494820 0.223606 0.143740
0.539574 0.231876 0.141451
0.585565 0.242435 0.140475
0.631708 0.253605 0.139040
0.677546 0.265812 0.138643
0.722225 0.278172 0.138521
0.764004 0.289799 0.140352
0.802884 0.300542 0.143801
0.838895 0.311131 0.149844
0.872313 0.320989 0.157931
0.900328 0.328771 0.165591
0.931304 0.338750 0.177157
0.961456 0.349157 0.189792
0.990265 0.359564 0.204532
1.000000 0.370764 0.220859
1.000000 0.381781 0.238010
1.000000 0.393622 0.257206
1.000000 0.406073 0.277531
1.000000 0.418921 0.298863
1.000000 0.432654 0.321080
0.214328 0.184360 0.162753
0.214542 0.184329 0.162936
0.216068 0.183627 0.163180
0.218662 0.183749 0.163088
0.223606 0.186130 0.162203
0.232700 0.189059 0.160861
0.247837 0.192508 0.158968
0.275914 0.202121 0.156466
0.311711 0.212558 0.154604
0.356603 0.223972 0.152499
0.408789 0.236698 0.149783
0.454047 0.245487 0.146700
0.497139 0.253452 0.144106
0.541894 0.263188 0.142275
0.587884 0.274479 0.140658
0.633753 0.286198 0.139773
0.679225 0.298070 0.139315
0.722957 0.309575 0.140139
0.764096 0.320165 0.142519
0.802762 0.330388 0.146670
0.838529 0.339544 0.152682
0.871397 0.347814 0.161257
0.902617 0.356146 0.171908
0.933257 0.364752 0.183413
0.962921 0.373754 0.196323
0.991241 0.383032 0.211337
1.000000 0.392493 0.227878
1.000000 0.402777 0.245945
1.000000 0.413306 0.264897
1.000000 0.424323 0.285405
1.000000 0.436194 0.306859
1.000000 0.449226 0.329656
0.215915 0.200443 0.164767
0.216190 0.200290 0.164797
0.218082 0.199344 0.165072
0.220859 0.198550 0.165499
0.225895 0.200839 0.164401
0.234348 0.203799 0.162844
0.247593 0.207584 0.160555
0.267002 0.211734 0.158022
0.299779 0.222965 0.154147
0.340429 0.237308 0.151919
0.389776 0.253330 0.149264
0.445045 0.270909 0.147005
0.503685 0.289250 0.145296
0.548150 0.300511 0.143313
0.593866 0.312291 0.141848
0.638880 0.324102 0.141329
0.683558 0.335454 0.141207
0.726955 0.346654 0.141817
0.767544 0.356268 0.146151
0.805539 0.364874 0.151217
0.840574 0.372625 0.158358
0.873075 0.379797 0.168093
0.904265 0.386786 0.178988
0.934508 0.394141 0.191440
0.963836 0.401923 0.205417
0.991913 0.409674 0.220706
1.000000 0.418219 0.237064
1.000000 0.426734 0.255344
1.000000 0.436255 0.274754
1.000000 0.446082 0.295201
1.000000 0.456733 0.316686
1.000000 0.468482 0.339239
0.219577 0.217624 0.168124
0.220035 0.217441 0.168338
0.221683 0.216617 0.168612
0.224796 0.215000 0.169741
0.229679 0.216800 0.168521
0.237064 0.219821 0.166812
0.248753 0.223667 0.164370
0.265507 0.228336 0.161440
0.288426 0.233463 0.157595
0.325017 0.246494 0.151858
0.370245 0.265263 0.149264
0.422461 0.286076 0.147189
0.480201 0.308354 0.145052
0.541650 0.332219 0.144869
0.599603 0.352728 0.145022
0.644129 0.364691 0.144167
0.688136 0.376104 0.144533
0.730800 0.386267 0.146822
0.770871 0.394842 0.151492
0.808011 0.402319 0.157992
0.842588 0.409094 0.166262
0.874662 0.414740 0.177096
0.905669 0.420478 0.188693
0.935637 0.426764 0.201694
0.964569 0.432959 0.216495
0.992309 0.439490 0.231998
1.000000 0.446632 0.248905
1.000000 0.453925 0.266819
1.000000 0.461860 0.286564
1.000000 0.470466 0.306462
1.000000 0.479957 0.328191
1.000000 0.490608 0.350988
0.224735 0.236515 0.173556
0.225071 0.236362 0.173404
0.226871 0.235508 0.174044
0.230320 0.233799 0.174655
0.234775 0.234409 0.174380
0.241367 0.237522 0.172671
0.251682 0.241428 0.170291
0.266514 0.246281 0.167239
0.286534 0.252079 0.163210
0.312566 0.258518 0.158053
0.352300 0.273777 0.150118
0.400458 0.296208 0.147768
0.454688 0.321141 0.145541
0.513542 0.347417 0.144686
0.576593 0.375158 0.144808
0.641444 0.402655 0.147219
0.693446 0.419532 0.150332
0.735164 0.428748 0.153567
0.773892 0.436133 0.160464
0.810391 0.442481 0.167727
0.844266 0.447700 0.178012
0.876219 0.452125 0.189212
0.907012 0.456886 0.201419
0.936858 0.461646 0.215610
0.965515 0.466743 0.230289
0.992950 0.471870 0.245975
1.000000 0.477699 0.263554
1.000000 0.483619 0.281682
1.000000 0.490303 0.300603
1.000000 0.497749 0.321172
1.000000 0.505821 0.342473
1.000000 0.515129 0.365301
0.230106 0.257877 0.179080
0.230533 0.257725 0.179263
0.232090 0.256779 0.179599
0.235477 0.255161 0.180514
0.240208 0.254185 0.180758
0.246403 0.257298 0.179049
0.255589 0.261357 0.176852
0.269017 0.266270 0.174044
0.286687 0.272129 0.169986
0.309728 0.278660 0.165042
0.338048 0.286351 0.158694
0.379828 0.303471 0.149233
0.430060 0.328832 0.145663
0.485542 0.357214 0.144259
0.545983 0.387579 0.143069
0.609277 0.418158 0.144564
0.674067 0.446998 0.151217
0.737087 0.471931 0.164431
0.777218 0.479713 0.172824
0.812955 0.484474 0.181888
0.846159 0.488350 0.193027
0.877684 0.491524 0.204746
0.908263 0.494942 0.217502
0.937835 0.498390 0.231388
0.966094 0.502312 0.246555
0.992920 0.506310 0.262699
1.000000 0.510643 0.280186
1.000000 0.515312 0.298405
1.000000 0.520592 0.317418
1.000000 0.526574 0.337591
1.000000 0.533623 0.359350
1.000000 0.541894 0.382116
0.235172 0.281498 0.185306
0.235599 0.281193 0.185367
0.237522 0.280247 0.185855
0.240635 0.278569 0.186618
0.245701 0.275700 0.187778
0.251469 0.278752 0.186435
0.260014 0.282780 0.184115
0.272007 0.287572 0.181216
0.288151 0.293309 0.177646
0.308782 0.300114 0.173037
0.334264 0.307805 0.167025
0.364477 0.316381 0.159640
0.405890 0.333349 0.148379
0.455879 0.359777 0.144503
0.512627 0.391608 0.142214
0.573388 0.424750 0.142275
0.637140 0.457191 0.145724
0.700710 0.486427 0.155337
0.760830 0.509819 0.176028
0.812161 0.525414 0.198917
0.845182 0.528161 0.209659
0.876585 0.530297 0.221347
0.907012 0.532677 0.234775
0.936431 0.535210 0.248722
0.964355 0.537926 0.264500
0.990997 0.540642 0.280186
1.000000 0.543816 0.297673
1.000000 0.547265 0.316136
1.000000 0.551476 0.335363
1.000000 0.556420 0.355596
1.000000 0.562341 0.377264
1.000000 0.569604 0.399969
0.240452 0.305608 0.192691
0.240726 0.305486 0.192721
0.242527 0.304570 0.192905
0.245945 0.302831 0.193698
0.250919 0.300328 0.194919
0.256748 0.301152 0.194400
0.264897 0.304936 0.192447
0.275853 0.309941 0.189609
0.290410 0.315587 0.186160
0.308873 0.322118 0.181796
0.331640 0.329686 0.176150
0.358984 0.337957 0.169345
0.390326 0.347356 0.160586
0.433936 0.367041 0.147524
0.483833 0.394354 0.142123
0.541924 0.429694 0.140108
0.603601 0.465126 0.141512
0.666712 0.498299 0.148959
0.728115 0.526116 0.165896
0.785000 0.547753 0.191531
0.837705 0.564508 0.222232
0.878294 0.572412 0.244877
0.908354 0.573541 0.258152
0.937133 0.574792 0.272679
0.964691 0.576043 0.287480
0.990600 0.577508 0.303502
1.000000 0.579431 0.320500
1.000000 0.581689 0.338842
1.000000 0.584558 0.357641
1.000000 0.588434 0.378210
1.000000 0.593286 0.399573
1.000000 0.599481 0.422614
0.245426 0.331945 0.200656
0.245945 0.331792 0.200717
0.247654 0.330968 0.201022
0.251133 0.329259 0.201663
0.255955 0.326909 0.202853
0.262181 0.325292 0.203403
0.269749 0.328923 0.201511
0.279942 0.333654 0.198917
0.293126 0.339208 0.195621
0.309972 0.345708 0.191287
0.330510 0.353063 0.186130
0.355322 0.361242 0.179751
0.384070 0.370306 0.171725
0.416510 0.380407 0.162081
0.459876 0.400244 0.147189
0.510765 0.429358 0.138430
0.569970 0.467567 0.137423
0.631739 0.504204 0.141421
0.693629 0.536706 0.155062
0.752255 0.562371 0.178775
0.806699 0.582391 0.209476
0.858274 0.598688 0.244114
0.905760 0.612146 0.280186
0.937530 0.614557 0.298772
0.964324 0.614740 0.314061
0.989502 0.614862 0.329839
1.000000 0.615656 0.346777
1.000000 0.616693 0.364721
1.000000 0.618769 0.383856
1.000000 0.621485 0.404059
1.000000 0.625299 0.424964
1.000000 0.630396 0.447578
0.249851 0.358831 0.209171
0.250340 0.358679 0.209201
0.251896 0.357763 0.209415
0.255375 0.356268 0.210147
0.260533 0.353704 0.211246
0.266911 0.350256 0.212558
0.274235 0.353185 0.211307
0.283574 0.357671 0.208591
0.295720 0.363134 0.205661
0.311254 0.369207 0.201907
0.329931 0.376318 0.196902
0.352575 0.384375 0.191073
0.378698 0.393286 0.183841
0.408423 0.403235 0.175051
0.442145 0.414282 0.163455
0.485328 0.434363 0.146822
0.536400 0.464332 0.134218
0.596277 0.504295 0.135470
0.657862 0.541314 0.144503
0.717830 0.571832 0.165316
0.774044 0.595819 0.194888
0.827634 0.615137 0.228794
0.878050 0.631037 0.267002
0.924010 0.643854 0.305852
0.963165 0.653193 0.344274
0.987579 0.652613 0.359869
1.000000 0.652216 0.376226
1.000000 0.652338 0.394568
1.000000 0.653132 0.412757
1.000000 0.654871 0.432349
1.000000 0.657649 0.452888
1.000000 0.661830 0.475196
0.253910 0.385626 0.218448
0.254215 0.385595 0.218692
0.256046 0.384771 0.219028
0.259342 0.383276 0.219516
0.264408 0.380804 0.220493
0.271275 0.377356 0.221775
0.278477 0.377234 0.221500
0.286900 0.381567 0.219425
0.298222 0.386603 0.216434
0.312383 0.392706 0.213077
0.329625 0.399634 0.208652
0.350286 0.407507 0.203220
0.374121 0.416449 0.196414
0.401709 0.426368 0.188296
0.432685 0.437232 0.178012
0.467048 0.449256 0.165499
0.510216 0.469245 0.146456
0.561212 0.498970 0.130373
0.621454 0.539849 0.135164
0.682033 0.575769 0.151034
0.740322 0.604669 0.178317
0.795895 0.627771 0.212924
0.848508 0.646509 0.250675
0.897307 0.661494 0.290959
0.941192 0.673487 0.332952
0.978943 0.683680 0.376867
1.000000 0.688533 0.409949
1.000000 0.687709 0.426917
1.000000 0.687617 0.444800
1.000000 0.688472 0.463966
1.000000 0.690364 0.484169
1.000000 0.693538 0.505638
0.257298 0.413031 0.228733
0.257633 0.412879 0.228885
0.259678 0.412055 0.229221
0.262699 0.410742 0.229557
0.267826 0.408240 0.230533
0.274571 0.404974 0.231815
0.282109 0.401648 0.233036
0.290288 0.405768 0.230808
0.300725 0.410864 0.228183
0.313817 0.416693 0.224887
0.329625 0.423407 0.220829
0.348302 0.431189 0.215854
0.370459 0.439979 0.209781
0.395850 0.449683 0.202335
0.424414 0.460395 0.193423
0.456397 0.472236 0.181796
0.491554 0.484810 0.167819
0.534020 0.503838 0.147616
0.584985 0.532677 0.127504
0.645258 0.573785 0.137331
0.705135 0.608331 0.160311
0.762539 0.636103 0.194217
0.817380 0.658412 0.232273
0.869200 0.676234 0.272892
0.916075 0.690333 0.316411
0.957183 0.701564 0.362158
0.991943 0.711177 0.408911
1.000000 0.720180 0.455695
1.000000 0.721798 0.480171
1.000000 0.721767 0.498390
1.000000 0.722805 0.517449
1.000000 0.725246 0.538506
0.260075 0.440650 0.239567
0.260441 0.440467 0.239719
0.261906 0.438544 0.239445
0.265019 0.436988 0.239872
0.270115 0.434668 0.240696
0.276768 0.431434 0.241855
0.284794 0.427222 0.243259
0.292973 0.428962 0.242222
0.302495 0.433814 0.239719
0.314580 0.439521 0.236698
0.328923 0.446143 0.233188
0.346380 0.453742 0.228489
0.366583 0.462226 0.223117
0.389990 0.471839 0.216312
0.416388 0.482185 0.208377
0.446082 0.493751 0.198520
0.478828 0.506035 0.186435
0.514641 0.519219 0.171481
0.556603 0.537346 0.150118
0.607263 0.564874 0.124880
0.668086 0.605829 0.142061
0.727199 0.639155 0.171603
0.784207 0.665919 0.209995
0.838590 0.687373 0.252384
0.888853 0.704250 0.297337
0.933654 0.717372 0.344427
0.972015 0.727840 0.392401
1.000000 0.736965 0.441352
1.000000 0.745968 0.490486
1.000000 0.754391 0.534905
1.000000 0.754818 0.553765
1.000000 0.756435 0.573358
0.261631 0.468452 0.250950
0.262119 0.468238 0.250889
0.263554 0.467384 0.251041
0.266819 0.465949 0.251438
0.272007 0.463630 0.252262
0.278660 0.460334 0.253178
0.286748 0.456245 0.254459
0.295567 0.454414 0.254826
0.304356 0.459205 0.252598
0.315435 0.464881 0.249790
0.328954 0.471412 0.246433
0.345098 0.478737 0.242252
0.364019 0.487068 0.237522
0.385504 0.496345 0.231601
0.410376 0.506645 0.224460
0.437903 0.517754 0.216007
0.468482 0.529839 0.205447
0.502190 0.542657 0.192660
0.538872 0.556329 0.176028
0.580804 0.573175 0.154391
0.633356 0.601770 0.128511
0.692073 0.638300 0.149203
0.750729 0.670130 0.186923
0.807279 0.695674 0.229709
0.860563 0.715908 0.275853
0.909056 0.731472 0.323857
0.950958 0.743435 0.374182
0.986267 0.753079 0.425666
1.000000 0.761898 0.476936
1.000000 0.770779 0.526696
1.000000 0.780453 0.575250
1.000000 0.786709 0.609461
0.261295 0.499031 0.263462
0.261936 0.498634 0.263493
0.263493 0.497902 0.263523
0.266880 0.496498 0.263920
0.272007 0.494209 0.264561
0.278782 0.491188 0.265599
0.287266 0.487037 0.266728
0.296880 0.482155 0.268223
0.305577 0.486183 0.266300
0.315892 0.491676 0.263920
0.328771 0.497993 0.260746
0.343664 0.505180 0.257176
0.361578 0.513390 0.252689
0.381872 0.522393 0.247288
0.404913 0.532464 0.240909
0.430823 0.543389 0.233249
0.459876 0.555077 0.223972
0.491524 0.567559 0.212955
0.526238 0.580804 0.199405
0.564019 0.594537 0.182589
0.605676 0.609918 0.160830
0.659419 0.638209 0.135653
0.716091 0.669886 0.160037
0.774746 0.700343 0.204562
0.830900 0.724575 0.251621
0.882811 0.743343 0.301762
0.928679 0.757412 0.353735
0.967559 0.768215 0.407446
0.999634 0.777279 0.460792
1.000000 0.785916 0.513634
1.000000 0.795132 0.565698
1.000000 0.804837 0.614069
0.259220 0.531121 0.276860
0.259464 0.530968 0.276890
0.261204 0.530114 0.276890
0.264683 0.528862 0.277531
0.269841 0.526787 0.278111
0.276982 0.523796 0.278691
0.285618 0.520134 0.280003
0.295872 0.515282 0.281346
0.305547 0.514855 0.281010
0.315404 0.520195 0.278813
0.327398 0.526482 0.276005
0.341833 0.533501 0.272862
0.358831 0.541466 0.268467
0.378149 0.550286 0.263767
0.399817 0.559991 0.258183
0.424475 0.570550 0.251469
0.451911 0.581842 0.243412
0.482124 0.593835 0.233646
0.514977 0.606531 0.222141
0.550835 0.619654 0.208011
0.589563 0.632929 0.191501
0.631037 0.646143 0.170291
0.685756 0.673426 0.147066
0.740566 0.700618 0.174014
0.799039 0.729519 0.222538
0.854429 0.752163 0.274968
0.904143 0.769100 0.329473
0.947112 0.781735 0.385473
0.982849 0.791623 0.441901
1.000000 0.800351 0.497993
1.000000 0.809201 0.552941
1.000000 0.818265 0.604791
0.253941 0.564874 0.291173
0.254429 0.564752 0.291386
0.256168 0.563989 0.291356
0.259770 0.562799 0.291691
0.265232 0.560876 0.292271
0.272923 0.558190 0.293278
0.282078 0.554681 0.294133
0.292485 0.550134 0.295415
0.303960 0.545190 0.296696
0.313878 0.550378 0.294743
0.325475 0.556481 0.292149
0.339330 0.563256 0.289189
0.355291 0.571008 0.285466
0.373693 0.579644 0.281193
0.394690 0.588983 0.276005
0.418463 0.599176 0.270085
0.444617 0.610101 0.263218
0.473487 0.621729 0.254795
0.504967 0.633692 0.245304
0.539269 0.645930 0.233585
0.576013 0.658412 0.220371
0.615564 0.671107 0.203952
0.658076 0.683589 0.183719
0.713680 0.708980 0.164553
0.766781 0.731746 0.190982
0.825315 0.758999 0.245884
0.879149 0.779629 0.302770
0.926268 0.794766 0.362463
0.965942 0.805997 0.422248
0.998535 0.815305 0.482643
1.000000 0.823789 0.540581
1.000000 0.831266 0.592737
0.245365 0.601556 0.307530
0.245731 0.601526 0.307530
0.247776 0.600885 0.307744
0.251804 0.599573 0.307897
0.257725 0.597833 0.308629
0.265568 0.595422 0.309331
0.275456 0.592004 0.310185
0.286992 0.587701 0.311406
0.299229 0.582696 0.312840
0.310704 0.583307 0.312352
0.322087 0.589014 0.310002
0.335576 0.595727 0.307164
0.351232 0.603082 0.303990
0.369299 0.611444 0.300206
0.389746 0.620447 0.295628
0.412482 0.630091 0.290440
0.437964 0.640406 0.284489
0.465461 0.651118 0.277379
0.495918 0.662165 0.269535
0.528771 0.673640 0.260349
0.564050 0.685389 0.249363
0.602197 0.697200 0.236179
0.642908 0.709010 0.221195
0.686458 0.720699 0.202762
0.743465 0.744839 0.187778
0.795377 0.763424 0.212253
0.853178 0.788510 0.273625
0.904845 0.806882 0.337102
0.948760 0.820127 0.401160
0.984405 0.829770 0.464179
1.000000 0.837369 0.523583
1.000000 0.844419 0.579248
0.232853 0.639979 0.325719
0.233188 0.639857 0.325780
0.235538 0.639216 0.325750
0.239475 0.638270 0.326238
0.246433 0.636561 0.326543
0.254887 0.634485 0.327337
0.265660 0.631495 0.328435
0.277989 0.627710 0.329503
0.291661 0.623011 0.330877
0.305760 0.618677 0.331914
0.317174 0.624262 0.329992
0.330663 0.630732 0.327581
0.346380 0.637781 0.324895
0.364294 0.645533 0.321538
0.384314 0.653956 0.317876
0.406714 0.662898 0.313664
0.431678 0.672480 0.308537
0.458564 0.682521 0.302953
0.488167 0.692836 0.296117
0.519951 0.703548 0.288457
0.554284 0.714473 0.279606
0.591058 0.725460 0.269718
0.630426 0.736629 0.257786
0.672602 0.747799 0.244083
0.717617 0.758846 0.227512
0.776150 0.781247 0.215885
0.826322 0.795438 0.239506
0.882811 0.817990 0.308385
0.930236 0.832883 0.375158
0.969116 0.843076 0.440833
1.000000 0.850919 0.504082
1.000000 0.857755 0.563592
0.219059 0.680446 0.348516
0.219974 0.680232 0.348455
0.221836 0.679774 0.348577
0.226963 0.678828 0.349004
0.233524 0.677516 0.349371
0.242893 0.675441 0.349981
0.254734 0.672847 0.350896
0.268040 0.669368 0.351720
0.282750 0.665309 0.352911
0.298436 0.660273 0.354284
0.312169 0.661402 0.353887
0.326055 0.667201 0.351995
0.341741 0.673701 0.349584
0.359533 0.680934 0.346868
0.379583 0.688685 0.343877
0.401862 0.697017 0.340459
0.426184 0.705898 0.336553
0.452735 0.715175 0.331884
0.481758 0.724880 0.326543
0.512749 0.734829 0.320500
0.546197 0.744991 0.313787
0.582116 0.755459 0.305760
0.620294 0.766018 0.296666
0.661372 0.776669 0.286198
0.705257 0.787228 0.274144
0.752010 0.797604 0.260472
0.811460 0.817533 0.251621
0.857572 0.825864 0.270939
0.909545 0.843809 0.342809
0.952605 0.855741 0.413336
0.987366 0.864225 0.480842
1.000000 0.871061 0.543999
0.207523 0.721736 0.376654
0.208255 0.721584 0.376715
0.210636 0.721279 0.376806
0.215427 0.720485 0.377020
0.223392 0.719234 0.377356
0.233371 0.717617 0.378027
0.245609 0.715328 0.378790
0.259800 0.712459 0.379858
0.275181 0.708949 0.381048
0.291875 0.704829 0.382391
0.308598 0.700862 0.383520
0.322789 0.706203 0.381994
0.338811 0.712245 0.380346
0.356725 0.718898 0.378241
0.376837 0.726040 0.376196
0.399054 0.733883 0.373510
0.423285 0.742092 0.370581
0.449592 0.750759 0.367041
0.478187 0.759792 0.363226
0.508690 0.769192 0.358648
0.541650 0.778866 0.353765
0.576867 0.788785 0.348028
0.613977 0.798215 0.340734
0.653437 0.807309 0.332219
0.695033 0.816220 0.322362
0.739132 0.824796 0.310613
0.785763 0.832914 0.297581
0.844297 0.849302 0.292058
0.888243 0.854032 0.305760
0.935729 0.868315 0.382025
0.974121 0.877836 0.454810
1.000000 0.884916 0.523095
0.204227 0.765408 0.413275
0.204807 0.765255 0.413214
0.206821 0.765011 0.413275
0.212131 0.764401 0.413642
0.220005 0.763363 0.414038
0.230014 0.762020 0.414679
0.243046 0.759945 0.415229
0.257298 0.757534 0.416205
0.273350 0.754452 0.417182
0.290318 0.750912 0.418585
0.308202 0.746731 0.420081
0.324254 0.747524 0.420142
0.340337 0.753017 0.418738
0.358526 0.758999 0.417426
0.378393 0.765591 0.416022
0.400519 0.772854 0.414343
0.424537 0.780392 0.412360
0.450080 0.787930 0.409400
0.477729 0.795682 0.405859
0.507378 0.803708 0.401923
0.538964 0.811795 0.397314
0.572595 0.820035 0.392035
0.608301 0.828244 0.386114
0.646296 0.836332 0.379187
0.686366 0.844205 0.371527
0.728664 0.851774 0.362188
0.773098 0.858885 0.352209
0.819699 0.865385 0.340368
0.876066 0.878080 0.337682
0.918090 0.880949 0.351171
0.960113 0.890929 0.423957
0.993805 0.898619 0.497719
0.216526 0.810636 0.459174
0.217136 0.810575 0.459174
0.219730 0.810330 0.459419
0.224216 0.809812 0.459754
0.231998 0.808927 0.460151
0.241459 0.807797 0.460700
0.253483 0.806241 0.461555
0.267430 0.804135 0.462348
0.282750 0.801663 0.463508
0.299535 0.798611 0.464698
0.316686 0.795163 0.466163
0.334783 0.791257 0.467964
0.350469 0.795895 0.466743
0.367864 0.800961 0.465522
