20 Preset/Travel Style/【3】LUT video cho PR-AE-FCPX/Green Moody - Lut (30).cube
# Created by Adobe Lightroom plugin Export LUT (1.24.0)
# www.johnrellis.com/lightroom/exportlut.htm
# Preset: 30自然风光-素材江湖
# Color profile: E:\lut插件\exportlut.1.24\exportlut.lrplugin\color profiles\Rec709gamma2.4.icc
LUT_3D_SIZE 8
DOMAIN_MIN 0.000000 0.000000 0.000000
DOMAIN_MAX 0.903226 0.903226 0.903226
0.174472 0.146487 0.133364
0.181094 0.146975 0.134096
0.220798 0.148104 0.135225
0.326757 0.145480 0.135378
0.484840 0.135378 0.135744
0.677546 0.135317 0.142702
0.879698 0.199680 0.174990
1.000000 0.303258 0.246250
0.180392 0.154086 0.133455
0.184115 0.153140 0.134249
0.224002 0.158724 0.134829
0.327367 0.162997 0.134157
0.481880 0.164401 0.134890
0.672084 0.176791 0.141939
0.865599 0.230594 0.171939
1.000000 0.319982 0.241276
0.217105 0.208042 0.127108
0.233310 0.207858 0.126741
0.244480 0.198306 0.132753
0.345006 0.228367 0.131930
0.520256 0.269841 0.129854
0.720668 0.311650 0.142672
0.896910 0.365759 0.191562
1.000000 0.428565 0.277897
0.295140 0.340887 0.078401
0.312779 0.339788 0.076112
0.358190 0.338750 0.083223
0.385412 0.325505 0.119478
0.522942 0.382300 0.139101
0.770932 0.501823 0.163821
0.915557 0.539178 0.243046
1.000000 0.568505 0.341466
0.408820 0.536950 0.000000
0.426062 0.536217 0.000000
0.494209 0.536858 0.000000
0.536645 0.532189 0.000000
0.555932 0.498390 0.091310
0.669093 0.536248 0.176272
0.877348 0.646265 0.286107
0.994812 0.712825 0.453193
0.540856 0.721035 0.000000
0.558892 0.725490 0.000000
0.614435 0.724422 0.000000
0.682155 0.721096 0.000000
0.718685 0.712703 0.000000
0.735409 0.678828 0.151949
0.809598 0.691096 0.294194
0.952514 0.769314 0.486610
0.674586 0.852995 0.000000
0.685206 0.853269 0.000000
0.723690 0.851102 0.000000
0.793210 0.847745 0.000000
0.830076 0.842313 0.023560
0.863218 0.836362 0.222110
0.873350 0.809751 0.339910
0.904509 0.803189 0.474434
0.784634 0.939544 0.318425
0.790982 0.939178 0.318730
0.817655 0.937957 0.322118
0.867948 0.935821 0.331426
0.915862 0.927886 0.328466
0.943755 0.926390 0.410346
0.967498 0.921263 0.502983
0.970947 0.902892 0.594812
0.177829 0.148196 0.138766
0.183658 0.147524 0.138705
0.222629 0.145449 0.140261
0.315618 0.143679 0.147433
0.465675 0.138064 0.155215
0.652522 0.141543 0.169558
0.847074 0.193149 0.200656
0.989776 0.291203 0.262211
0.177127 0.154360 0.140383
0.184207 0.155123 0.141207
0.223972 0.157717 0.143557
0.322301 0.160616 0.147616
0.471534 0.164858 0.155337
0.659052 0.179324 0.170108
0.843687 0.226444 0.199924
0.984436 0.311589 0.260441
0.202823 0.207767 0.138857
0.220432 0.207706 0.138460
0.244511 0.200595 0.143679
0.346105 0.231724 0.149447
0.505516 0.263615 0.157687
0.695521 0.301183 0.175357
0.866300 0.348516 0.214359
0.994049 0.414191 0.289250
0.276097 0.333471 0.113008
0.294713 0.333165 0.112184
0.350530 0.333501 0.113466
0.372869 0.316289 0.141695
0.501091 0.367224 0.164126
0.740505 0.481147 0.194003
0.887663 0.515465 0.253910
0.993591 0.552483 0.343816
0.390784 0.529961 0.000000
0.407813 0.528405 0.000000
0.475593 0.527001 0.000000
0.522698 0.519493 0.000000
0.539879 0.484535 0.133547
0.655604 0.526116 0.199252
0.866361 0.639002 0.304326
0.985626 0.705196 0.459815
0.522210 0.712337 0.000000
0.536736 0.712398 0.000000
0.593347 0.712093 0.000000
0.669184 0.710750 0.000000
0.707362 0.703883 0.000000
0.727169 0.673152 0.185763
0.803983 0.687922 0.311772
0.947082 0.767239 0.498207
0.659632 0.847410 0.000000
0.668330 0.846189 0.000000
0.707485 0.843900 0.000000
0.779141 0.841398 0.000000
0.822416 0.837644 0.125521
0.856199 0.831998 0.241184
0.865232 0.804074 0.346502
0.897856 0.797818 0.473579
0.774685 0.936645 0.329351
0.781918 0.936797 0.333074
0.808865 0.935485 0.335546
0.859709 0.933471 0.344732
0.916472 0.930266 0.368261
0.942412 0.927214 0.435798
0.965148 0.921019 0.516655
0.968566 0.902617 0.604242
0.191897 0.152682 0.169192
0.202213 0.151766 0.170626
0.239536 0.147768 0.172122
0.357549 0.115145 0.174136
0.487312 0.102754 0.193942
0.651270 0.119631 0.238315
0.837797 0.199374 0.296239
0.981994 0.314733 0.367010
0.191440 0.164401 0.175174
0.202487 0.163638 0.176364
0.242588 0.159731 0.177249
0.352026 0.140322 0.178561
0.479469 0.144625 0.202152
0.644709 0.175051 0.250004
0.834775 0.230564 0.295811
0.978149 0.333349 0.365759
0.184115 0.209689 0.189425
0.196170 0.211032 0.191073
0.245060 0.215579 0.196963
0.345342 0.231815 0.211643
0.495369 0.257206 0.235508
0.683131 0.294865 0.270115
0.854917 0.349798 0.318547
0.982055 0.427802 0.393591
0.178500 0.344182 0.181521
0.220768 0.345037 0.192905
0.321996 0.346441 0.199985
0.376654 0.334722 0.217746
0.530053 0.403571 0.262882
0.734615 0.481697 0.317174
0.878508 0.520684 0.374487
0.982055 0.568139 0.456916
0.321447 0.533318 0.186923
0.344518 0.533074 0.186374
0.427588 0.533562 0.184360
0.520104 0.531884 0.195071
0.544701 0.502617 0.242008
0.674464 0.555596 0.309941
0.868070 0.664057 0.438666
0.970214 0.715877 0.563653
0.469886 0.714107 0.174289
0.486885 0.714565 0.174716
0.550378 0.713802 0.173800
0.655879 0.712612 0.172915
0.697902 0.705501 0.226108
0.720333 0.677699 0.302129
0.805570 0.702235 0.411719
0.939391 0.783230 0.598230
0.627222 0.851041 0.271458
0.636957 0.850004 0.269718
0.678157 0.847135 0.266636
0.752865 0.843717 0.267918
0.814206 0.839445 0.297124
0.849821 0.835264 0.360113
0.860319 0.810269 0.442329
0.897185 0.810208 0.559564
0.752071 0.937926 0.439155
0.758328 0.937316 0.437873
0.785885 0.935943 0.439582
0.838834 0.934661 0.450904
0.907927 0.931060 0.460853
0.934447 0.928679 0.518364
0.958648 0.923735 0.584894
0.962219 0.905852 0.657465
0.226505 0.164584 0.260441
0.240909 0.164096 0.263676
0.295598 0.159701 0.270817
0.366613 0.148836 0.269383
0.512200 0.032868 0.275242
0.715023 0.000000 0.296513
0.858030 0.000000 0.351354
0.972503 0.268772 0.440314
0.229129 0.185489 0.271824
0.242924 0.185092 0.273442
0.296880 0.180545 0.278996
0.370001 0.169528 0.277073
0.518669 0.106874 0.281529
0.711910 0.000000 0.305913
0.852934 0.147250 0.362097
0.967102 0.301823 0.453040
0.225681 0.251347 0.284916
0.237278 0.250828 0.288853
0.287114 0.247562 0.298405
0.369696 0.239078 0.298161
0.545006 0.214755 0.306249
0.699947 0.249851 0.352605
0.844694 0.320958 0.425360
0.955230 0.435309 0.524681
0.172580 0.344305 0.328008
0.192660 0.345281 0.329229
0.260227 0.350469 0.336217
0.362310 0.360327 0.349737
0.512444 0.396033 0.387396
0.684230 0.442084 0.436103
0.840299 0.502129 0.501427
0.951904 0.574609 0.584100
0.000000 0.545068 0.331487
0.000000 0.544945 0.328038
0.237186 0.546166 0.340978
0.464454 0.548241 0.376165
0.538445 0.529992 0.400916
0.696986 0.609888 0.499184
0.853971 0.696590 0.620569
0.943511 0.726436 0.683314
0.327611 0.725734 0.405615
0.357458 0.729244 0.410986
0.448035 0.727230 0.409766
0.581476 0.726009 0.411872
0.685481 0.721065 0.426612
0.710140 0.695277 0.469917
0.806821 0.735561 0.581689
0.926787 0.812894 0.736843
0.549035 0.855467 0.478340
0.562066 0.855406 0.479438
0.612207 0.854124 0.481025
0.697505 0.851621 0.484535
0.799283 0.847379 0.490242
0.834104 0.842100 0.529473
0.845975 0.819821 0.582574
0.891936 0.828702 0.679988
0.708827 0.942016 0.599023
0.715724 0.941650 0.598932
0.744350 0.940307 0.599512
0.797910 0.938048 0.602747
0.871916 0.934417 0.606897
0.918700 0.931151 0.635340
0.946349 0.928038 0.682399
0.951354 0.911589 0.736110
0.277897 0.202152 0.424231
0.293187 0.202426 0.427832
0.349828 0.199680 0.434394
0.446601 0.187228 0.447303
0.536370 0.166110 0.440620
0.691768 0.000000 0.449714
0.917571 0.000000 0.450263
1.000000 0.172793 0.506889
0.279698 0.227756 0.435737
0.294865 0.227543 0.439033
0.350805 0.223789 0.444709
0.446235 0.210910 0.454078
0.538903 0.192081 0.448707
0.695796 0.102815 0.456947
0.913878 0.000000 0.458808
1.000000 0.228214 0.517754
0.265843 0.300694 0.461524
0.280949 0.300206 0.462806
0.338231 0.296391 0.466133
0.437995 0.288334 0.477058
0.538018 0.275120 0.471260
0.700832 0.239017 0.476967
0.891966 0.233707 0.492073
0.983398 0.363104 0.558312
0.236942 0.404822 0.487709
0.253666 0.406958 0.489113
0.312840 0.415625 0.497566
0.408667 0.410712 0.518059
0.529900 0.401556 0.517327
0.718807 0.396490 0.526787
0.849546 0.450843 0.573022
0.940368 0.533898 0.647608
0.000000 0.528038 0.544121
0.000000 0.529290 0.545892
0.200168 0.533165 0.551263
0.350744 0.539971 0.561273
0.493141 0.547784 0.573846
0.656733 0.593164 0.625025
0.802976 0.646876 0.685115
0.910063 0.702388 0.746670
0.000000 0.715358 0.559899
0.000000 0.715877 0.559075
0.000000 0.715785 0.552667
0.331060 0.718044 0.553918
0.594751 0.714595 0.600000
0.673274 0.704158 0.630915
0.802152 0.774350 0.745388
0.916014 0.839139 0.837461
0.284611 0.860044 0.597192
0.322332 0.858732 0.603021
0.442359 0.854856 0.630915
0.579919 0.851926 0.657679
0.711208 0.849149 0.662654
0.801053 0.844083 0.676204
0.819608 0.825772 0.707515
0.884581 0.847990 0.787472
0.624018 0.941741 0.724056
0.631891 0.941344 0.723781
0.664393 0.940002 0.723598
0.727687 0.939269 0.730617
0.808743 0.936339 0.734218
0.894865 0.932403 0.741421
0.925902 0.929625 0.769680
0.935241 0.914672 0.802640
0.339818 0.271977 0.652552
0.355871 0.271977 0.654780
0.414008 0.269108 0.657465
0.511376 0.260410 0.665248
0.642023 0.241794 0.683803
0.730800 0.222782 0.664729
0.847440 0.172854 0.646143
1.000000 0.149020 0.648371
0.336675 0.292454 0.650782
0.351781 0.291783 0.651545
0.408942 0.288548 0.654932
0.506065 0.280705 0.664485
0.633845 0.262181 0.679316
0.723964 0.245121 0.661494
0.842985 0.205051 0.645380
1.000000 0.192264 0.648432
0.323278 0.372015 0.677668
0.339239 0.371344 0.678523
0.399969 0.369360 0.682826
0.497627 0.360510 0.685847
0.624994 0.346319 0.695430
0.720333 0.334417 0.679072
0.845701 0.318517 0.668208
1.000000 0.333349 0.669581
0.287999 0.492683 0.703578
0.303471 0.491096 0.704768
0.366308 0.490578 0.713344
0.473548 0.489631 0.722225
0.605524 0.481361 0.730312
0.712551 0.472328 0.717891
0.847471 0.477058 0.716121
0.992035 0.512413 0.722988
0.224063 0.594141 0.720638
0.248020 0.595392 0.721187
0.327794 0.601495 0.724178
0.435645 0.616083 0.730739
0.548699 0.609308 0.745815
0.674159 0.600275 0.742763
0.834714 0.615412 0.753811
0.930968 0.665553 0.786374
0.000000 0.710903 0.756802
0.000000 0.712886 0.759182
0.152255 0.713924 0.761013
0.347814 0.716060 0.764920
0.495644 0.718929 0.770413
0.634607 0.726192 0.781582
0.781399 0.770504 0.826078
0.890196 0.808347 0.862089
0.000000 0.860258 0.783993
0.000000 0.860838 0.784665
0.147036 0.860472 0.783230
0.374975 0.859800 0.781064
0.536950 0.859129 0.779202
0.739895 0.852567 0.811978
0.796262 0.840024 0.824094
0.895354 0.882963 0.886809
0.391058 0.950866 0.774960
0.402350 0.950439 0.774258
0.469551 0.948669 0.781888
0.599939 0.944518 0.811917
0.725948 0.939605 0.838132
0.830411 0.936309 0.840818
0.903807 0.932860 0.850126
0.920562 0.920989 0.867613
0.442359 0.383215 0.841581
0.454994 0.383459 0.842191
0.504173 0.383398 0.844205
0.588403 0.381445 0.847898
0.696590 0.374151 0.852110
0.819791 0.360204 0.857420
0.880461 0.355718 0.830777
0.948028 0.341985 0.795315
0.442481 0.404456 0.843748
0.454780 0.404456 0.844236
0.503014 0.403540 0.846006
0.585901 0.400519 0.848966
0.693721 0.393194 0.853117
0.816648 0.379980 0.858274
0.878202 0.375402 0.832425
0.946777 0.363622 0.798428
0.436500 0.475746 0.850278
0.448463 0.475380 0.850553
0.495186 0.473945 0.851804
0.576257 0.470405 0.854124
0.681971 0.463935 0.857603
0.803464 0.452918 0.862211
0.868772 0.448615 0.839750
0.941253 0.444251 0.811948
0.425940 0.582635 0.858976
0.436469 0.581567 0.858762
0.480354 0.580102 0.859678
0.556939 0.577020 0.861570
0.658259 0.571191 0.864500
0.776272 0.561730 0.868437
0.849424 0.557000 0.852140
0.930297 0.560601 0.835203
0.422858 0.692134 0.859525
0.432563 0.691768 0.860288
0.470466 0.690211 0.863493
0.533928 0.685847 0.869657
0.626917 0.682124 0.872862
0.737789 0.673426 0.876249
0.823392 0.667628 0.867399
0.919066 0.679377 0.863279
0.397681 0.763699 0.875242
0.409430 0.764279 0.875395
0.454017 0.766659 0.876097
0.525933 0.771450 0.877379
0.612085 0.780209 0.879210
0.699428 0.774685 0.886473
0.796292 0.768826 0.884855
0.915282 0.785092 0.891966
0.317906 0.849149 0.891661
0.333715 0.849210 0.891844
0.391119 0.849302 0.892546
0.478462 0.849546 0.893950
0.578058 0.850065 0.896147
0.678370 0.850980 0.899046
0.773831 0.851957 0.902281
0.890196 0.882170 0.926177
0.369696 0.946929 0.902068
0.383978 0.946777 0.902007
0.437232 0.946349 0.901671
0.520409 0.945617 0.901091
0.617212 0.944823 0.900267
0.716793 0.944396 0.899413
0.864469 0.939086 0.916075
0.910002 0.930358 0.923095
0.610101 0.582574 0.949157
0.616938 0.582849 0.949218
0.645228 0.583307 0.949462
0.696986 0.583673 0.949950
0.768399 0.583215 0.950744
0.853849 0.581262 0.951904
0.949706 0.576776 0.953460
0.982055 0.570703 0.932555
0.610834 0.596429 0.948943
0.617609 0.596490 0.949004
0.645167 0.596643 0.949279
0.696010 0.596399 0.949767
0.766445 0.595300 0.950622
0.851194 0.592828 0.951781
0.946593 0.587732 0.953338
0.979797 0.581506 0.932982
0.612482 0.644373 0.948394
0.618647 0.644221 0.948455
0.644190 0.643641 0.948730
0.691920 0.642420 0.949310
0.758846 0.640040 0.950164
0.840787 0.635981 0.951385
0.934325 0.629419 0.953002
0.970611 0.622736 0.934905
0.614801 0.712947 0.947936
0.620294 0.712703 0.947997
0.642756 0.711727 0.948272
0.685237 0.709773 0.948882
0.746334 0.706325 0.949828
0.823148 0.700893 0.951141
0.913298 0.692744 0.952850
0.955596 0.685725 0.938506
0.616846 0.780514 0.947387
0.621241 0.780148 0.947662
0.639033 0.778561 0.948791
0.677943 0.778042 0.949523
0.731746 0.774136 0.950500
0.802121 0.768185 0.951873
0.887968 0.759609 0.953643
0.938933 0.753323 0.943664
0.628077 0.841337 0.947082
0.632471 0.841764 0.947082
0.650721 0.843687 0.947082
0.680323 0.842527 0.948669
0.720821 0.836942 0.952178
0.782620 0.832517 0.954192
0.861631 0.825406 0.955962
0.923491 0.820188 0.950591
0.614405 0.883391 0.954742
0.619013 0.883543 0.954742
0.638056 0.884184 0.954864
0.673243 0.885618 0.955169
0.721859 0.888182 0.955627
0.779385 0.892912 0.956237
0.839963 0.888121 0.960021
0.911955 0.883177 0.959014
0.583429 0.941436 0.961700
0.588464 0.941405 0.961761
0.608942 0.941314 0.961975
0.646937 0.941161 0.962463
0.699489 0.941070 0.963256
0.762295 0.941192 0.964446
0.831540 0.941619 0.966094
0.903563 0.941741 0.967712
