20 Preset/Travel Style/【3】LUT video cho PR-AE-FCPX/Green Moody - Lut (4).cube
# Created by Adobe Lightroom plugin Export LUT (1.24.0)
# www.johnrellis.com/lightroom/exportlut.htm
# Preset: 04自然风光-冷调-素材江湖
# Color profile: E:\lut插件\exportlut.1.24\exportlut.lrplugin\color profiles\Rec709gamma2.4.icc
LUT_3D_SIZE 5
DOMAIN_MIN 0.000000 0.000000 0.000000
DOMAIN_MAX 0.903226 0.903226 0.903226
0.187961 0.186221 0.171572
0.233494 0.189090 0.171481
0.507561 0.211948 0.153140
0.792905 0.258976 0.102480
1.000000 0.311406 0.004852
0.183688 0.235447 0.168215
0.219730 0.219791 0.179110
0.406226 0.258274 0.152193
0.717952 0.317082 0.092073
0.981170 0.363317 0.000000
0.091096 0.461830 0.090730
0.224796 0.457008 0.068025
0.404242 0.413794 0.233341
0.586755 0.420630 0.106569
0.803342 0.441199 0.000000
0.000000 0.665919 0.000000
0.136294 0.663264 0.000000
0.406592 0.648707 0.000000
0.594110 0.609644 0.383276
0.756893 0.638575 0.411841
0.000000 0.889250 0.000000
0.000000 0.888975 0.000000
0.354345 0.881590 0.000000
0.650080 0.869261 0.313634
0.829862 0.844694 0.647242
0.199283 0.188846 0.207645
0.246128 0.181949 0.213413
0.522301 0.122713 0.219089
0.820951 0.263890 0.254002
1.000000 0.340551 0.269627
0.197543 0.232151 0.211185
0.239475 0.244846 0.217685
0.482033 0.267277 0.207584
0.758358 0.317235 0.209110
0.988922 0.374273 0.230869
0.000000 0.466804 0.203220
0.204654 0.464210 0.188266
0.415503 0.425971 0.284916
0.594293 0.416632 0.145235
0.838590 0.446815 0.000000
0.000000 0.670069 0.178775
0.146365 0.667872 0.158572
0.402106 0.654444 0.141238
0.600641 0.616571 0.416266
0.765103 0.640864 0.415473
0.000000 0.888670 0.206485
0.032990 0.888182 0.179263
0.359808 0.886961 0.000000
0.650690 0.873289 0.346960
0.834073 0.848814 0.665400
0.283146 0.189395 0.453712
0.354101 0.168490 0.458259
0.521935 0.005219 0.442512
0.692958 0.000000 0.393286
1.000000 0.345373 0.499611
0.283024 0.318639 0.452216
0.334752 0.299107 0.456184
0.521294 0.202152 0.448341
0.732174 0.210025 0.417975
1.000000 0.478126 0.554345
0.299596 0.482094 0.451514
0.352026 0.487160 0.457069
0.484535 0.507134 0.467720
0.701839 0.498756 0.437018
0.944945 0.554925 0.485054
0.278264 0.691005 0.474311
0.315648 0.690089 0.467659
0.431128 0.680049 0.424170
0.631678 0.650080 0.522362
0.802182 0.635798 0.405127
0.191623 0.886381 0.464820
0.241520 0.886412 0.454200
0.385412 0.885435 0.404547
0.626337 0.876158 0.416815
0.835111 0.849973 0.702937
0.418494 0.285374 0.715816
0.461402 0.266575 0.716426
0.609979 0.128298 0.713039
0.771511 0.000000 0.672694
0.885740 0.000000 0.584070
0.441474 0.414740 0.712490
0.471046 0.397009 0.712337
0.596765 0.304906 0.709102
0.763821 0.135439 0.671382
0.884062 0.000000 0.581628
0.523980 0.615808 0.708492
0.546746 0.619532 0.708705
0.584619 0.579278 0.706477
0.733028 0.458656 0.673732
0.913970 0.415198 0.620600
0.489784 0.718410 0.700496
0.512505 0.718868 0.701320
0.593591 0.724514 0.708400
0.702174 0.731197 0.706294
0.901335 0.713558 0.677058
0.511864 0.886412 0.732601
0.524193 0.886656 0.730709
0.570275 0.887999 0.719326
0.629938 0.885740 0.644953
0.845975 0.860716 0.774533
0.580224 0.469795 0.898283
0.598138 0.456519 0.898436
0.676844 0.392309 0.900633
0.834989 0.032776 0.901213
0.998260 0.000000 0.878050
0.595880 0.537621 0.893187
0.609796 0.525017 0.893736
0.676020 0.466438 0.895964
0.824033 0.280034 0.896544
0.990387 0.000000 0.874723
0.673030 0.714412 0.885588
0.678523 0.708095 0.885252
0.699092 0.665156 0.886839
0.792599 0.542870 0.887877
0.970306 0.382696 0.872709
0.731167 0.821378 0.885496
0.739620 0.822324 0.885618
0.777035 0.830411 0.889128
0.800595 0.799130 0.892058
0.933440 0.674128 0.881865
0.699977 0.894408 0.887327
0.708400 0.894438 0.887541
0.745663 0.896849 0.890867
0.809873 0.900206 0.895964
0.883299 0.900084 0.892699
