20 Preset/Travel Style/【3】LUT video cho PR-AE-FCPX/Green Moody - Lut (3).cube
# Created by Adobe Lightroom plugin Export LUT (1.24.0)
# www.johnrellis.com/lightroom/exportlut.htm
# Preset: 03自然风光-山脉-素材江湖
# Color profile: E:\lut插件\exportlut.1.24\exportlut.lrplugin\color profiles\Rec709gamma2.4.icc
LUT_3D_SIZE 32
DOMAIN_MIN 0.0 0.0 0.0
DOMAIN_MAX 1.0 1.0 1.0
0.141421 0.119539 0.090486
0.141421 0.119539 0.090486
0.141848 0.119478 0.090486
0.142641 0.119356 0.090455
0.144442 0.119387 0.090394
0.150820 0.119295 0.090181
0.169711 0.118074 0.089601
0.209476 0.113924 0.088228
0.262486 0.104494 0.084657
0.324132 0.082063 0.079194
0.390509 0.000000 0.068208
0.458717 0.000000 0.054139
0.530541 0.000000 0.034974
0.607355 0.000000 0.008301
0.690913 0.000000 0.000000
0.773434 0.000000 0.000000
0.848386 0.000000 0.000000
0.912047 0.000000 0.000000
0.966094 0.000000 0.000000
1.000000 0.000000 0.000000
1.000000 0.000000 0.000000
1.000000 0.000000 0.000000
1.000000 0.000000 0.000000
1.000000 0.000000 0.000000
1.000000 0.000000 0.000000
1.000000 0.023743 0.000000
1.000000 0.091066 0.000000
1.000000 0.114229 0.000000
1.000000 0.132082 0.000000
1.000000 0.145174 0.000000
1.000000 0.155978 0.000000
1.000000 0.164523 0.000000
0.141421 0.119539 0.090486
0.141421 0.119539 0.090486
0.141848 0.119478 0.090486
0.142641 0.119356 0.090455
0.144289 0.119692 0.090333
0.150423 0.119326 0.090181
0.168795 0.118227 0.089601
0.207065 0.114839 0.088197
0.258091 0.106874 0.084596
0.318761 0.088350 0.079316
0.383917 0.010712 0.068910
0.451575 0.000000 0.055360
0.522210 0.000000 0.036500
0.597955 0.000000 0.010834
0.680415 0.000000 0.000000
0.763394 0.000000 0.000000
0.839445 0.000000 0.000000
0.904448 0.000000 0.000000
0.959686 0.000000 0.000000
1.000000 0.000000 0.000000
1.000000 0.000000 0.000000
1.000000 0.000000 0.000000
1.000000 0.000000 0.000000
1.000000 0.000000 0.000000
1.000000 0.000000 0.000000
1.000000 0.016236 0.000000
1.000000 0.090852 0.000000
1.000000 0.113954 0.000000
1.000000 0.130800 0.000000
1.000000 0.144076 0.000000
1.000000 0.153872 0.000000
1.000000 0.162661 0.000000
0.141634 0.119783 0.090852
0.141634 0.119783 0.090852
0.142092 0.119722 0.090425
0.142336 0.119966 0.090364
0.144564 0.119936 0.090272
0.150637 0.120455 0.089937
0.168429 0.120027 0.089265
0.206088 0.117769 0.087587
0.256565 0.111025 0.083619
0.316106 0.095369 0.078187
0.380316 0.037873 0.067750
0.447333 0.000000 0.053071
0.517510 0.000000 0.034211
0.591516 0.000000 0.008789
0.672999 0.000000 0.000000
0.756039 0.000000 0.000000
0.832486 0.000000 0.000000
0.898741 0.000000 0.000000
0.954406 0.000000 0.000000
1.000000 0.000000 0.000000
1.000000 0.000000 0.000000
1.000000 0.000000 0.000000
1.000000 0.000000 0.000000
1.000000 0.000000 0.000000
1.000000 0.003510 0.000000
1.000000 0.084871 0.000000
1.000000 0.111025 0.000000
1.000000 0.131991 0.000000
1.000000 0.144717 0.000000
1.000000 0.155489 0.000000
1.000000 0.163760 0.000000
1.000000 0.171359 0.000000
0.142153 0.120272 0.090730
0.142153 0.120272 0.090730
0.142000 0.120577 0.090669
0.142397 0.120546 0.090669
0.144778 0.121065 0.090059
0.151034 0.121798 0.090089
0.169039 0.122957 0.089052
0.205478 0.122988 0.086580
0.255039 0.118807 0.082063
0.313848 0.107729 0.074769
0.378180 0.079774 0.062745
0.444495 0.000000 0.047272
0.513664 0.000000 0.027375
0.586786 0.000000 0.001740
0.666468 0.000000 0.000000
0.748043 0.000000 0.000000
0.824002 0.000000 0.000000
0.889891 0.000000 0.000000
0.947326 0.000000 0.000000
1.000000 0.000000 0.000000
1.000000 0.000000 0.000000
1.000000 0.000000 0.000000
1.000000 0.000000 0.000000
1.000000 0.079286 0.000000
1.000000 0.117250 0.000000
1.000000 0.137179 0.000000
1.000000 0.151553 0.000000
1.000000 0.162661 0.000000
1.000000 0.171572 0.000000
1.000000 0.179690 0.000000
1.000000 0.185336 0.000000
1.000000 0.189548 0.000000
0.142550 0.121645 0.090852
0.142947 0.121584 0.090852
0.142947 0.121584 0.090852
0.143465 0.122042 0.090730
0.145174 0.122377 0.090181
0.151461 0.123903 0.089631
0.168307 0.127108 0.088228
0.203738 0.130220 0.084138
0.251225 0.129427 0.078859
0.308629 0.122957 0.068544
0.370916 0.108705 0.055238
0.436591 0.071809 0.039063
0.504753 0.000000 0.019562
0.577478 0.000000 0.000000
0.656519 0.000000 0.000000
0.739254 0.000000 0.000000
0.816495 0.000000 0.000000
0.883848 0.000000 0.000000
0.944335 0.000000 0.000000
0.998230 0.000000 0.000000
1.000000 0.002014 0.000000
1.000000 0.110475 0.000000
1.000000 0.141543 0.000000
1.000000 0.161746 0.000000
1.000000 0.174899 0.000000
1.000000 0.186221 0.000000
1.000000 0.194919 0.000000
1.000000 0.201236 0.000000
1.000000 0.206729 0.000000
1.000000 0.210636 0.000000
1.000000 0.213901 0.000000
1.000000 0.215976 0.000000
0.144350 0.124361 0.091493
0.144350 0.124361 0.091493
0.144747 0.124300 0.091493
0.146059 0.124666 0.090944
0.147982 0.126009 0.090150
0.152224 0.127260 0.089296
0.168765 0.132387 0.086427
0.202548 0.138460 0.081758
0.249729 0.142031 0.072724
0.307347 0.141054 0.058900
0.369146 0.133181 0.043702
0.433722 0.118105 0.025360
0.501457 0.090089 0.003845
0.573510 0.000000 0.000000
0.652399 0.000000 0.000000
0.734554 0.000000 0.000000
0.812070 0.000000 0.000000
0.880369 0.000000 0.000000
0.943969 0.028595 0.000000
0.996368 0.140932 0.000000
1.000000 0.179507 0.000000
1.000000 0.200717 0.000000
1.000000 0.246708 0.000000
1.000000 0.251408 0.000000
1.000000 0.255375 0.000000
1.000000 0.257328 0.000000
1.000000 0.258732 0.000000
1.000000 0.259403 0.000000
1.000000 0.260410 0.000000
1.000000 0.260929 0.000000
1.000000 0.261021 0.000000
1.000000 0.259892 0.000000
0.148806 0.131502 0.091432
0.149172 0.131472 0.091432
0.149905 0.131350 0.091432
0.151705 0.131868 0.091249
0.155215 0.134340 0.090089
0.162661 0.137606 0.087648
0.175906 0.141878 0.083436
0.208896 0.150851 0.074250
0.257298 0.157687 0.060670
0.317540 0.161685 0.041688
0.384222 0.161929 0.019532
0.451850 0.154879 0.000000
0.520775 0.142123 0.000000
0.594171 0.123049 0.000000
0.673671 0.102174 0.000000
0.753841 0.095186 0.000000
0.827451 0.120394 0.000000
0.900023 0.173190 0.000000
0.960510 0.218051 0.000000
1.000000 0.251713 0.000000
1.000000 0.272923 0.000000
1.000000 0.285954 0.000000
1.000000 0.293706 0.000000
1.000000 0.298192 0.000000
1.000000 0.300175 0.000000
1.000000 0.300633 0.000000
1.000000 0.299382 0.000000
1.000000 0.298650 0.000000
1.000000 0.297276 0.000000
1.000000 0.295384 0.000000
1.000000 0.293248 0.000000
1.000000 0.290898 0.000000
0.157595 0.144106 0.091371
0.157931 0.144045 0.091371
0.159640 0.143832 0.091371
0.161929 0.143526 0.091768
0.167758 0.147097 0.089723
0.176547 0.151583 0.085420
0.189700 0.156497 0.079805
0.208682 0.160891 0.070985
0.249851 0.170596 0.051545
0.305943 0.178653 0.031342
0.370703 0.183352 0.006683
0.439582 0.185397 0.000000
0.513451 0.185763 0.000000
0.584924 0.180636 0.000000
0.663111 0.177554 0.000000
0.741451 0.184939 0.000000
0.823301 0.214115 0.000000
0.891905 0.252049 0.000000
0.949187 0.286046 0.000000
0.999023 0.312200 0.000000
1.000000 0.329076 0.000000
1.000000 0.339452 0.000000
1.000000 0.345068 0.000000
1.000000 0.347478 0.000000
1.000000 0.347509 0.000000
1.000000 0.345678 0.000000
1.000000 0.343389 0.000000
1.000000 0.339696 0.000000
1.000000 0.335973 0.000000
1.000000 0.332158 0.000000
1.000000 0.328496 0.000000
1.000000 0.324498 0.000000
0.173465 0.164034 0.090883
0.173922 0.164157 0.091249
0.175998 0.163912 0.091218
0.180026 0.163760 0.091920
0.185580 0.165774 0.090150
0.195193 0.170199 0.084199
0.208591 0.175326 0.074342
0.226535 0.180392 0.059693
0.250340 0.184421 0.045350
0.296239 0.193973 0.021057
0.357916 0.203159 0.000000
0.424323 0.209873 0.000000
0.495888 0.215213 0.000000
0.573236 0.221988 0.000000
0.659907 0.235325 0.000000
0.744228 0.254734 0.000000
0.820127 0.285039 0.000000
0.884398 0.317388 0.000000
0.939422 0.346441 0.000000
0.988281 0.368780 0.000000
1.000000 0.383490 0.000000
1.000000 0.391516 0.000000
1.000000 0.395178 0.000000
1.000000 0.396155 0.000000
1.000000 0.394476 0.000000
1.000000 0.391424 0.000000
1.000000 0.387457 0.000000
1.000000 0.382483 0.000000
1.000000 0.377600 0.000000
1.000000 0.372229 0.000000
1.000000 0.366461 0.000000
1.000000 0.360327 0.000000
0.194736 0.188510 0.093141
0.195346 0.188296 0.093202
0.197574 0.188022 0.093568
0.202609 0.187839 0.094545
0.208469 0.187991 0.094148
0.217838 0.192172 0.087739
0.230686 0.197391 0.074372
0.247715 0.202609 0.052766
0.269596 0.207431 0.032197
0.296147 0.210758 0.013642
0.342870 0.219059 0.000000
0.406500 0.229831 0.000000
0.477821 0.240421 0.000000
0.556664 0.253330 0.000000
0.645045 0.273747 0.000000
0.735958 0.307164 0.000000
0.813718 0.345037 0.000000
0.876585 0.377111 0.000000
0.930632 0.404822 0.000000
0.978759 0.424506 0.000000
1.000000 0.436133 0.000000
1.000000 0.441138 0.000000
1.000000 0.442634 0.000000
1.000000 0.441169 0.000000
1.000000 0.438148 0.000000
1.000000 0.433661 0.000000
1.000000 0.428534 0.000000
1.000000 0.422858 0.000000
1.000000 0.416815 0.000000
1.000000 0.410620 0.000000
1.000000 0.404181 0.000000
1.000000 0.397406 0.000000
0.219577 0.214298 0.099367
0.220188 0.214206 0.099702
0.222538 0.214176 0.099947
0.227481 0.214206 0.101106
0.234623 0.213779 0.102968
0.243137 0.217350 0.096925
0.255985 0.222629 0.085664
0.272160 0.228183 0.058900
0.292515 0.233616 0.027222
0.318120 0.238468 0.000000
0.349096 0.242344 0.000000
0.396521 0.250278 0.000000
0.464973 0.264805 0.000000
0.540002 0.280613 0.000000
0.624018 0.303075 0.000000
0.712642 0.336980 0.000000
0.794888 0.382238 0.000000
0.864958 0.428748 0.000000
0.919066 0.456489 0.000000
0.966491 0.474189 0.000000
1.000000 0.483650 0.000000
1.000000 0.487404 0.000000
1.000000 0.487465 0.000000
1.000000 0.485023 0.000000
1.000000 0.480751 0.000000
1.000000 0.475502 0.000000
1.000000 0.469245 0.000000
1.000000 0.462654 0.000000
1.000000 0.455726 0.000000
1.000000 0.448859 0.000000
1.000000 0.441596 0.000000
1.000000 0.433997 0.000000
0.248753 0.243961 0.108736
0.249424 0.243992 0.108705
0.252232 0.243961 0.109163
0.256870 0.244114 0.110719
0.265202 0.244755 0.112490
0.273899 0.246647 0.110780
0.286839 0.252750 0.100923
0.302861 0.259464 0.086305
0.323033 0.266331 0.044953
0.346899 0.272282 0.000000
0.374578 0.276829 0.000000
0.406165 0.279393 0.000000
0.489540 0.310430 0.000000
0.568658 0.335119 0.000000
0.657893 0.369970 0.000000
0.745205 0.415900 0.000000
0.821805 0.465522 0.000000
0.886168 0.506920 0.000000
0.942931 0.536278 0.000000
0.991547 0.552789 0.000000
1.000000 0.553399 0.000000
1.000000 0.550652 0.000000
1.000000 0.545769 0.000000
1.000000 0.539544 0.000000
1.000000 0.532311 0.000000
1.000000 0.524620 0.000000
1.000000 0.516350 0.000000
1.000000 0.507805 0.000000
1.000000 0.499214 0.000000
1.000000 0.490700 0.000000
1.000000 0.482063 0.000000
1.000000 0.473518 0.000000
0.295872 0.290806 0.127749
0.296422 0.290745 0.127993
0.298772 0.290471 0.128511
0.303471 0.290227 0.129580
0.310674 0.290074 0.131472
0.319005 0.289158 0.133761
0.329931 0.294347 0.123537
0.344335 0.300389 0.109102
0.362646 0.307317 0.089509
0.385290 0.314672 0.031678
0.412726 0.322210 0.000000
0.445136 0.329107 0.000000
0.482429 0.334447 0.000000
0.532647 0.343908 0.000000
0.616419 0.376898 0.000000
0.704738 0.421637 0.000000
0.784604 0.472114 0.000000
0.852018 0.516503 0.000000
0.910887 0.549615 0.000000
0.962707 0.570855 0.000000
1.000000 0.582269 0.000000
1.000000 0.584802 0.000000
1.000000 0.580102 0.000000
1.000000 0.573999 0.000000
1.000000 0.566766 0.000000
1.000000 0.558831 0.000000
1.000000 0.550469 0.000000
1.000000 0.541924 0.000000
1.000000 0.533135 0.000000
1.000000 0.524468 0.000000
1.000000 0.515709 0.000000
1.000000 0.506767 0.000000
0.329473 0.324315 0.145052
0.329534 0.324041 0.144961
0.331365 0.323400 0.145327
0.335149 0.323095 0.146304
0.341588 0.322362 0.147921
0.350530 0.322057 0.150637
0.358831 0.323613 0.145205
0.371496 0.329320 0.132601
0.387671 0.336095 0.115450
0.407996 0.343786 0.091157
0.432624 0.352270 0.018341
0.462043 0.361059 0.000000
0.496040 0.369024 0.000000
0.534020 0.375799 0.000000
0.582971 0.386267 0.000000
0.665095 0.425116 0.000000
0.746517 0.474678 0.000000
0.817746 0.522240 0.000000
0.879026 0.559442 0.000000
0.933623 0.584802 0.000000
0.981262 0.599817 0.000000
1.000000 0.607385 0.000000
1.000000 0.610468 0.000000
1.000000 0.606561 0.000000
1.000000 0.599481 0.000000
1.000000 0.591547 0.000000
1.000000 0.583093 0.000000
1.000000 0.574334 0.000000
1.000000 0.565545 0.000000
1.000000 0.556725 0.000000
1.000000 0.547753 0.000000
1.000000 0.538659 0.000000
0.361120 0.356939 0.163241
0.361608 0.356756 0.163302
0.363165 0.356146 0.163455
0.366369 0.355352 0.164157
0.371771 0.354620 0.165743
0.379706 0.354009 0.168032
0.387854 0.353460 0.168429
0.399115 0.358984 0.157076
0.413947 0.365759 0.141817
0.432197 0.373754 0.122469
0.454841 0.382910 0.093660
0.481849 0.393042 0.000641
0.513146 0.403388 0.000000
0.548577 0.413275 0.000000
0.587304 0.421942 0.000000
0.633143 0.432959 0.000000
0.708736 0.474891 0.000000
0.783291 0.524712 0.000000
0.847623 0.565759 0.000000
0.904601 0.595575 0.000000
0.955535 0.614649 0.000000
0.999207 0.624994 0.000000
1.000000 0.629694 0.000000
1.000000 0.630884 0.000000
1.000000 0.629786 0.000000
1.000000 0.621973 0.000000
1.000000 0.613733 0.000000
1.000000 0.605127 0.000000
1.000000 0.596368 0.000000
1.000000 0.587701 0.000000
1.000000 0.578851 0.000000
1.000000 0.569818 0.000000
0.391211 0.387915 0.181125
0.391791 0.388128 0.181338
0.393561 0.388037 0.181918
0.397162 0.387854 0.183047
0.402411 0.387823 0.184634
0.410559 0.387976 0.187350
0.420050 0.388128 0.191714
0.430701 0.392706 0.183810
0.444770 0.400122 0.171023
0.462104 0.408728 0.154238
0.482704 0.418158 0.131441
0.506798 0.428321 0.096162
0.534630 0.439033 0.000000
0.565759 0.449531 0.000000
0.600183 0.459785 0.000000
0.636591 0.468666 0.000000
0.676509 0.478492 0.000000
0.745022 0.520104 0.000000
0.813504 0.566003 0.000000
0.873381 0.600855 0.000000
0.927947 0.625238 0.000000
0.975952 0.639673 0.000000
1.000000 0.646784 0.000000
1.000000 0.649470 0.000000
1.000000 0.649287 0.000000
1.000000 0.647272 0.000000
1.000000 0.642847 0.000000
1.000000 0.634363 0.000000
1.000000 0.625544 0.000000
1.000000 0.616724 0.000000
1.000000 0.607660 0.000000
1.000000 0.598566 0.000000
0.420569 0.419348 0.199130
0.420905 0.419409 0.199527
0.422675 0.419501 0.199954
0.426123 0.419532 0.200992
0.431434 0.419837 0.202792
0.439033 0.420447 0.205661
0.449134 0.421576 0.209323
0.458686 0.423407 0.208499
0.471839 0.430915 0.196811
0.487831 0.439490 0.182162
0.507164 0.449470 0.162509
0.529686 0.460365 0.135256
0.555779 0.472297 0.091249
0.584741 0.484443 0.000000
0.616022 0.496437 0.000000
0.648981 0.507500 0.000000
0.682856 0.517418 0.000000
0.718166 0.526299 0.000000
0.780850 0.564935 0.000000
0.842954 0.603510 0.000000
0.900114 0.632837 0.000000
0.952087 0.651667 0.000000
0.996002 0.661769 0.000000
1.000000 0.666224 0.000000
1.000000 0.667262 0.000000
1.000000 0.666011 0.000000
1.000000 0.663294 0.000000
1.000000 0.659724 0.000000
1.000000 0.652918 0.000000
1.000000 0.644129 0.000000
1.000000 0.635126 0.000000
1.000000 0.626123 0.000000
0.453468 0.455146 0.219089
0.454047 0.455573 0.219394
0.477150 0.479347 0.233097
0.480537 0.479713 0.234226
0.485939 0.480171 0.235996
0.493233 0.480903 0.238743
0.503105 0.482033 0.242344
0.513024 0.481910 0.247745
0.525963 0.489876 0.236545
0.541985 0.499519 0.221866
0.560998 0.510552 0.203525
0.582574 0.522545 0.179324
0.606104 0.534661 0.145571
0.631495 0.546868 0.087800
0.658167 0.558312 0.000000
0.686152 0.568963 0.000000
0.714717 0.577996 0.000000
0.744228 0.585565 0.000000
0.774502 0.591302 0.000000
0.827390 0.619135 0.000000
0.883330 0.647547 0.000000
0.936553 0.668238 0.000000
0.982330 0.679683 0.000000
1.000000 0.684932 0.000000
1.000000 0.686183 0.000000
1.000000 0.685023 0.000000
1.000000 0.682185 0.000000
1.000000 0.678401 0.000000
1.000000 0.674250 0.000000
1.000000 0.669734 0.000000
1.000000 0.661097 0.000000
1.000000 0.652033 0.000000
0.494270 0.500786 0.242771
0.496834 0.503136 0.243992
0.500786 0.505730 0.245853
0.505852 0.508507 0.248203
0.512596 0.510887 0.251072
0.519982 0.512413 0.253941
0.529381 0.513939 0.257450
0.540551 0.515770 0.261814
0.551049 0.519158 0.258976
0.565576 0.528191 0.245518
0.582940 0.538750 0.228916
0.602228 0.550195 0.208530
0.623529 0.562036 0.181277
0.646387 0.573816 0.143496
0.670619 0.585321 0.059754
0.696254 0.596277 0.000000
0.722805 0.606317 0.000000
0.750118 0.614984 0.000000
0.778225 0.622187 0.000000
0.806943 0.627588 0.000000
0.855589 0.650050 0.000000
0.908904 0.673152 0.000000
0.959014 0.689082 0.000000
1.000000 0.697261 0.000000
1.000000 0.700404 0.000000
1.000000 0.700435 0.000000
1.000000 0.698390 0.000000
1.000000 0.695033 0.000000
1.000000 0.690974 0.000000
1.000000 0.686580 0.000000
1.000000 0.681910 0.000000
1.000000 0.676020 0.000000
0.526329 0.536553 0.259953
0.528985 0.539147 0.261540
0.532921 0.542016 0.263401
0.538079 0.545006 0.265904
0.544427 0.547601 0.268803
0.551629 0.549432 0.271763
0.560601 0.551049 0.275395
0.571099 0.552850 0.279698
0.581018 0.553857 0.284337
0.594079 0.562158 0.271916
0.609705 0.571954 0.256779
0.627100 0.582483 0.238560
0.646204 0.593561 0.216281
0.667018 0.604730 0.185977
0.689204 0.615930 0.144686
0.712367 0.626581 0.038972
0.736385 0.636225 0.000000
0.761105 0.644800 0.000000
0.786526 0.652094 0.000000
0.812955 0.657954 0.000000
0.839963 0.661830 0.000000
0.884642 0.678584 0.000000
0.934295 0.695796 0.000000
0.980224 0.707546 0.000000
1.000000 0.713069 0.000000
1.000000 0.714595 0.000000
1.000000 0.713558 0.000000
1.000000 0.710842 0.000000
1.000000 0.707179 0.000000
1.000000 0.702876 0.000000
1.000000 0.698238 0.000000
1.000000 0.693416 0.000000
0.561242 0.575586 0.279637
0.563561 0.577966 0.281254
0.567346 0.580652 0.283238
0.572107 0.583398 0.285649
0.577783 0.585748 0.288457
0.584619 0.587366 0.291478
0.592645 0.589105 0.295018
0.602258 0.590845 0.299535
0.613458 0.593042 0.305394
0.623835 0.597375 0.300267
0.637812 0.606256 0.286870
0.653590 0.615961 0.270634
0.671046 0.626093 0.250645
0.689784 0.636500 0.225986
0.709987 0.646876 0.194797
0.731106 0.656916 0.152102
0.753536 0.666651 0.051789
0.776822 0.675563 0.000000
0.801175 0.683650 0.000000
0.826719 0.690578 0.000000
0.853239 0.695949 0.000000
0.880522 0.699062 0.000000
0.921874 0.709926 0.000000
0.966552 0.721065 0.000000
1.000000 0.728939 0.000000
1.000000 0.731930 0.000000
1.000000 0.731746 0.000000
1.000000 0.729580 0.000000
1.000000 0.726101 0.000000
1.000000 0.721920 0.000000
1.000000 0.717281 0.000000
1.000000 0.712367 0.000000
0.610529 0.630671 0.313054
0.611749 0.631708 0.313939
0.613519 0.632593 0.314946
0.616510 0.633478 0.316686
0.620661 0.634333 0.318608
0.625971 0.634974 0.321080
0.632776 0.636103 0.324407
0.641291 0.637568 0.328832
0.651789 0.639734 0.334447
0.661585 0.641230 0.338781
0.674311 0.649317 0.326513
0.688655 0.657984 0.311894
0.704097 0.666773 0.294499
0.720882 0.675807 0.273320
0.738582 0.684504 0.248081
0.757382 0.692897 0.216434
0.777157 0.700893 0.175265
0.797787 0.708217 0.109895
0.819455 0.714748 0.000000
0.842252 0.720211 0.000000
0.865751 0.724269 0.000000
0.890166 0.726589 0.000000
0.914488 0.726436 0.000000
0.949676 0.731502 0.000000
0.988769 0.738125 0.000000
1.000000 0.743435 0.000000
1.000000 0.744869 0.000000
1.000000 0.743832 0.000000
1.000000 0.741054 0.000000
1.000000 0.737240 0.000000
1.000000 0.732753 0.000000
1.000000 0.727718 0.000000
0.645747 0.670375 0.341802
0.646754 0.671168 0.342473
0.648432 0.672114 0.343877
0.651240 0.672816 0.345403
0.654871 0.673610 0.347601
0.659815 0.674434 0.350286
0.666163 0.675349 0.353857
0.674006 0.676722 0.358587
0.683406 0.678706 0.364813
0.693935 0.680415 0.372717
0.704067 0.684840 0.367346
0.716915 0.692317 0.353979
0.730861 0.699916 0.338201
0.746029 0.707820 0.320073
0.762325 0.715511 0.298466
0.779538 0.722988 0.273808
0.797971 0.730190 0.242649
0.817227 0.736812 0.204929
0.837522 0.742672 0.151919
0.858824 0.747555 0.000000
0.880858 0.751095 0.000000
0.903075 0.753017 0.000000
0.925292 0.753017 0.000000
0.947509 0.750942 0.000000
0.972992 0.748806 0.000000
1.000000 0.752377 0.000000
1.000000 0.756008 0.000000
1.000000 0.756405 0.000000
1.000000 0.754635 0.000000
1.000000 0.751400 0.000000
1.000000 0.747280 0.000000
1.000000 0.742245 0.000000
0.686885 0.716823 0.387488
0.688319 0.718074 0.389349
0.689693 0.718807 0.390692
0.691646 0.718929 0.392004
0.694118 0.718715 0.393164
0.697719 0.718318 0.394629
0.702205 0.717891 0.397101
0.708248 0.717830 0.400641
0.715846 0.718227 0.405524
0.725032 0.719234 0.411933
0.732631 0.719081 0.415534
0.743404 0.724514 0.401801
0.755306 0.730220 0.386603
0.768338 0.736049 0.368536
0.782193 0.741756 0.348272
0.797269 0.747341 0.324743
0.813596 0.752956 0.298192
0.831113 0.758358 0.267369
0.850004 0.763577 0.231205
0.869993 0.768124 0.184054
0.890471 0.771511 0.108583
0.911009 0.773373 0.000000
0.931395 0.773465 0.000000
0.951415 0.771633 0.000000
0.971069 0.767697 0.000000
0.997040 0.766140 0.000000
1.000000 0.766842 0.000000
1.000000 0.768643 0.000000
1.000000 0.767849 0.000000
1.000000 0.765103 0.000000
1.000000 0.761074 0.000000
1.000000 0.756497 0.000000
0.714412 0.748592 0.427131
0.715480 0.749752 0.429236
0.716976 0.750576 0.430945
0.718929 0.751034 0.432624
0.721828 0.751247 0.434546
0.725551 0.751614 0.437232
0.730556 0.752102 0.440894
0.736965 0.752926 0.445991
0.744839 0.754147 0.452338
0.753964 0.755703 0.460151
0.762997 0.756558 0.469673
0.772061 0.759457 0.464240
0.783291 0.764462 0.449958
0.795499 0.769375 0.433906
0.808469 0.774105 0.414984
0.822507 0.778683 0.393378
0.837522 0.783047 0.369177
0.853574 0.787167 0.342657
0.870695 0.790982 0.312688
0.888518 0.794308 0.279088
0.907012 0.796750 0.238804
0.925719 0.798032 0.186069
0.944396 0.797940 0.091005
0.963012 0.796262 0.000000
0.981415 0.792905 0.000000
0.999603 0.787808 0.000000
1.000000 0.784115 0.000000
1.000000 0.782803 0.000000
1.000000 0.782315 0.000000
1.000000 0.780117 0.000000
1.000000 0.776608 0.000000
1.000000 0.772122 0.000000
0.745541 0.785733 0.484871
0.746151 0.786343 0.486000
0.747219 0.786709 0.487160
0.748867 0.786923 0.488502
0.751339 0.787045 0.490211
0.754757 0.787106 0.492531
0.759335 0.787411 0.495918
0.765103 0.787839 0.500328
0.772091 0.788602 0.506126
0.780514 0.789761 0.513298
0.790127 0.791135 0.521904
0.797879 0.791104 0.527733
0.808194 0.795315 0.515831
0.819394 0.799466 0.501701
0.831357 0.803281 0.484810
0.844022 0.806790 0.465888
0.857664 0.810086 0.444282
0.872099 0.813138 0.420691
0.887633 0.815946 0.394507
0.903960 0.818387 0.365942
0.920836 0.820096 0.333928
0.937987 0.820890 0.296452
0.955261 0.820401 0.250553
0.972503 0.818601 0.189609
0.989288 0.815305 0.035920
1.000000 0.810330 0.000000
1.000000 0.803922 0.000000
1.000000 0.798154 0.000000
1.000000 0.795163 0.000000
1.000000 0.793240 0.000000
1.000000 0.790341 0.000000
1.000000 0.786435 0.000000
0.772580 0.818814 0.543328
0.773129 0.819242 0.544366
0.774105 0.819638 0.545525
0.775845 0.819974 0.547265
0.778470 0.820432 0.549676
0.782223 0.821225 0.553307
0.787594 0.822599 0.559167
0.794400 0.824369 0.566461
0.802548 0.826658 0.575525
0.811917 0.829191 0.586175
0.822416 0.832059 0.598413
0.832731 0.833982 0.611170
0.841520 0.836515 0.611139
0.851987 0.840574 0.602899
0.862943 0.844053 0.591913
0.874296 0.846799 0.577691
0.886229 0.849058 0.561395
0.899046 0.850950 0.542779
0.912749 0.852567 0.522179
0.927123 0.853666 0.499245
0.942046 0.853941 0.472511
0.957458 0.853361 0.441657
0.973083 0.851652 0.404486
0.988861 0.848814 0.361089
1.000000 0.844755 0.308568
1.000000 0.839384 0.242344
1.000000 0.832761 0.140322
1.000000 0.824887 0.000000
1.000000 0.817166 0.000000
1.000000 0.811948 0.000000
1.000000 0.808133 0.000000
1.000000 0.804257 0.000000
0.808743 0.860960 0.635615
0.809018 0.860990 0.635767
0.809720 0.860929 0.636103
0.810971 0.860838 0.636713
0.812955 0.860838 0.637964
0.816007 0.860868 0.640009
0.819944 0.861112 0.643061
0.825101 0.861509 0.647028
0.831388 0.862150 0.652461
0.838743 0.862974 0.658808
0.847105 0.863981 0.666285
0.856199 0.865019 0.674311
0.862913 0.864256 0.681117
0.871031 0.866728 0.673274
