20 Preset/Travel Style/【3】LUT video cho PR-AE-FCPX/Green Moody - Lut (25).cube
# Created by Adobe Lightroom plugin Export LUT (1.24.0)
# www.johnrellis.com/lightroom/exportlut.htm
# Preset: 25自然风光-烟雾-素材江湖
# Color profile: E:\lut插件\exportlut.1.24\exportlut.lrplugin\color profiles\Rec709gamma2.4.icc
LUT_3D_SIZE 8
DOMAIN_MIN 0.000000 0.000000 0.000000
DOMAIN_MAX 0.903226 0.903226 0.903226
0.111543 0.126162 0.134371
0.126589 0.125399 0.134707
0.215640 0.117342 0.136599
0.362921 0.109255 0.131197
0.550439 0.080476 0.120729
0.732357 0.000000 0.109255
0.924590 0.000000 0.081270
1.000000 0.000000 0.064088
0.105776 0.143130 0.137453
0.126741 0.144015 0.138186
0.211276 0.148623 0.135988
0.358160 0.153323 0.127230
0.541070 0.148959 0.119631
0.721431 0.132021 0.105989
0.902678 0.112917 0.076692
1.000000 0.124788 0.043183
0.129061 0.209293 0.157992
0.148257 0.206424 0.160159
0.203769 0.227359 0.157778
0.370947 0.273167 0.142763
0.567590 0.289891 0.121035
0.765957 0.301671 0.087648
0.944457 0.308812 0.012238
1.000000 0.312474 0.077516
0.147280 0.340124 0.193118
0.173831 0.335332 0.194705
0.242435 0.345464 0.200809
0.379034 0.420020 0.208713
0.608453 0.506706 0.209018
0.809628 0.517113 0.200687
0.955383 0.509178 0.201846
1.000000 0.497292 0.217105
0.184390 0.498878 0.266667
0.211582 0.494636 0.267704
0.287541 0.482033 0.274846
0.390845 0.532525 0.297734
0.550439 0.614191 0.334447
0.759945 0.695918 0.377356
0.916625 0.692592 0.391089
1.000000 0.677333 0.428107
0.252598 0.649958 0.372503
0.276707 0.654353 0.379248
0.341222 0.643122 0.382208
0.428534 0.650355 0.398352
0.553643 0.714900 0.444923
0.712245 0.786160 0.512932
0.876799 0.845609 0.608209
0.986389 0.835142 0.635889
0.377050 0.812497 0.524193
0.391150 0.812528 0.526604
0.435126 0.805234 0.526360
0.505303 0.792660 0.529076
0.597955 0.819547 0.566308
0.712612 0.859556 0.629511
0.830655 0.895506 0.704311
0.943236 0.930449 0.789853
0.618006 0.944549 0.764340
0.623285 0.944030 0.764889
0.647181 0.942718 0.769223
0.692195 0.940978 0.779782
0.725612 0.931731 0.771481
0.797665 0.947295 0.806210
0.870756 0.961944 0.838529
0.936858 0.972381 0.862364
0.111208 0.128695 0.150881
0.126497 0.125460 0.153872
0.206638 0.121889 0.155886
0.337957 0.110414 0.157229
0.522301 0.025391 0.154269
0.702968 0.000000 0.147127
0.881590 0.000000 0.136538
1.000000 0.000000 0.130282
0.105165 0.142672 0.153445
0.129061 0.146670 0.155215
0.206699 0.149599 0.157900
0.344732 0.147890 0.158053
0.526940 0.131167 0.153262
0.706416 0.098116 0.145418
0.874907 0.012390 0.133669
1.000000 0.016602 0.125978
0.122927 0.216037 0.176669
0.146365 0.213748 0.178561
0.203372 0.228397 0.181003
0.364446 0.264591 0.173861
0.552392 0.276432 0.158968
0.736873 0.280369 0.142428
0.902281 0.281468 0.129030
1.000000 0.288304 0.136294
0.134615 0.339605 0.211795
0.165469 0.335790 0.213443
0.238071 0.338323 0.220859
0.357794 0.397375 0.230503
0.565057 0.467567 0.230869
0.762325 0.479408 0.222995
0.915831 0.478431 0.214115
1.000000 0.474159 0.221927
0.173495 0.499214 0.285618
0.202365 0.494179 0.285618
0.281163 0.479347 0.290105
0.378943 0.516747 0.309453
0.528649 0.590936 0.342351
0.736080 0.672969 0.381628
0.899504 0.676051 0.394171
1.000000 0.664057 0.424323
0.240635 0.642298 0.380316
0.261540 0.640162 0.381384
0.328008 0.630152 0.384924
0.416144 0.633173 0.399756
0.540764 0.700679 0.447242
0.702327 0.777340 0.518242
0.868711 0.838346 0.609155
0.980041 0.828183 0.632654
0.358679 0.801877 0.518425
0.368994 0.798489 0.516289
0.414893 0.790463 0.515435
0.488319 0.778775 0.519432
0.585443 0.808164 0.559167
0.702113 0.850889 0.622644
0.821012 0.887694 0.694667
0.936126 0.923919 0.780087
0.596826 0.938201 0.751034
0.605951 0.938842 0.754574
0.629969 0.937163 0.758175
0.676814 0.935454 0.769009
0.735866 0.936217 0.785794
0.800137 0.948272 0.811856
0.869108 0.960845 0.838956
0.935607 0.971496 0.862882
0.101625 0.135927 0.245487
0.130190 0.130282 0.249546
0.214084 0.120272 0.258488
0.365881 0.092653 0.285405
0.541253 0.000000 0.285191
0.708217 0.000000 0.257847
0.882994 0.000000 0.253239
1.000000 0.000000 0.262821
0.114321 0.157290 0.247227
0.135439 0.156161 0.249943
0.212863 0.149752 0.258061
0.362829 0.131594 0.277714
0.535332 0.000000 0.270909
0.702296 0.000000 0.246860
0.876646 0.000000 0.252445
1.000000 0.000000 0.261173
0.078126 0.231174 0.261234
0.118532 0.234257 0.263371
0.216007 0.249760 0.273320
0.379095 0.246494 0.269993
0.559777 0.242618 0.270237
0.736202 0.239475 0.272618
0.898833 0.239719 0.275486
1.000000 0.253513 0.284520
0.000000 0.387182 0.315312
0.053254 0.388739 0.316716
0.243656 0.377569 0.320317
0.372198 0.420050 0.347601
0.580346 0.473487 0.365301
0.767575 0.477424 0.359747
0.919554 0.474006 0.352239
1.000000 0.468666 0.351629
0.100862 0.536889 0.381720
0.161898 0.533227 0.381842
0.277226 0.519432 0.383734
0.386725 0.529564 0.402228
0.538750 0.609155 0.453559
0.739315 0.678950 0.491890
0.897307 0.677852 0.499855
1.000000 0.667536 0.513146
0.217563 0.667750 0.456580
0.243992 0.666102 0.457710
0.321965 0.655055 0.458167
0.414710 0.633539 0.458656
0.536645 0.698604 0.508446
0.697932 0.777157 0.584009
0.861570 0.836728 0.669215
0.973754 0.831083 0.691371
0.354162 0.816678 0.574151
0.365454 0.813779 0.572198
0.411810 0.804593 0.568231
0.486427 0.790829 0.566888
0.581415 0.805081 0.594598
0.701686 0.850889 0.662776
0.823392 0.891142 0.739284
0.937713 0.927337 0.813840
0.596704 0.940887 0.770565
0.600519 0.939818 0.769619
0.624292 0.937957 0.772183
0.675227 0.937469 0.784573
0.733639 0.934203 0.795804
0.802365 0.948394 0.824826
0.872435 0.961852 0.852018
0.938140 0.972656 0.874907
0.000000 0.126833 0.463844
0.077455 0.123781 0.469398
0.226230 0.108766 0.473884
0.371984 0.007263 0.480018
0.559838 0.000000 0.503410
0.744137 0.000000 0.508446
0.887877 0.000000 0.480385
1.000000 0.000000 0.445899
0.000000 0.164736 0.472602
0.053376 0.162509 0.474220
0.224308 0.149355 0.478126
0.375525 0.110536 0.485084
0.565118 0.000000 0.505577
0.743099 0.000000 0.503807
0.884581 0.000000 0.473884
1.000000 0.000000 0.438849
0.000000 0.266941 0.478950
0.000000 0.267552 0.480201
0.218051 0.272221 0.482521
0.374640 0.249821 0.488075
0.578607 0.253971 0.512596
0.744442 0.217136 0.493141
0.893126 0.167147 0.465980
1.000000 0.131777 0.441535
0.000000 0.415534 0.503105
0.000000 0.417121 0.503014
0.200626 0.427771 0.507744
0.383490 0.453559 0.522728
0.571252 0.441627 0.508019
0.739712 0.435920 0.500969
0.893156 0.435431 0.498299
1.000000 0.441627 0.501152
0.000000 0.602106 0.562249
0.000000 0.599939 0.559594
0.226719 0.596216 0.556573
0.402564 0.578454 0.556085
0.551843 0.636347 0.605035
0.742641 0.683436 0.632990
0.891142 0.677180 0.632380
1.000000 0.665309 0.623835
0.154818 0.731746 0.605371
0.194980 0.734585 0.606897
0.310857 0.721553 0.602014
0.430121 0.699336 0.596124
0.546624 0.713313 0.618952
0.703273 0.789242 0.696742
0.856107 0.838987 0.758206
0.966094 0.835752 0.770138
0.347082 0.841306 0.669184
0.362615 0.840391 0.669490
0.415564 0.834409 0.667842
0.495155 0.822477 0.664637
0.582605 0.806943 0.662409
0.706172 0.854276 0.732021
0.827085 0.895232 0.798337
0.938811 0.929473 0.852445
0.610132 0.950378 0.812375
0.615229 0.949767 0.812436
0.637232 0.947723 0.813535
0.679774 0.944640 0.817624
0.735286 0.939544 0.823117
0.803555 0.947570 0.843931
0.876036 0.962493 0.870939
0.942809 0.974640 0.894072
0.000000 0.124483 0.711391
0.000000 0.120699 0.714351
0.221988 0.099306 0.714717
0.389837 0.000000 0.715633
0.560052 0.000000 0.716091
0.749630 0.000000 0.725917
0.918669 0.000000 0.729061
1.000000 0.000000 0.694301
0.000000 0.178653 0.716670
0.000000 0.176364 0.719997
0.223392 0.161654 0.719966
0.390021 0.111086 0.717189
0.561822 0.000000 0.718044
0.751156 0.000000 0.726986
0.916075 0.000000 0.727260
1.000000 0.000000 0.692317
0.000000 0.326268 0.722316
0.000000 0.324224 0.722591
0.231632 0.312139 0.720790
0.389471 0.285924 0.718990
0.558312 0.250004 0.715633
0.742061 0.255100 0.719600
0.898955 0.267735 0.714351
1.000000 0.234134 0.678035
0.000000 0.472358 0.731106
0.000000 0.475196 0.731228
0.265324 0.487129 0.732876
0.407477 0.487861 0.729366
0.558740 0.457282 0.725307
0.742641 0.470192 0.730312
0.880156 0.439979 0.698878
0.999573 0.398566 0.656489
0.000000 0.615717 0.730220
0.000000 0.617639 0.730861
0.215152 0.623682 0.732052
0.400427 0.635737 0.735134
0.555932 0.653590 0.739651
0.717037 0.632624 0.718074
0.860838 0.618677 0.702541
0.984833 0.612207 0.693660
0.000000 0.763729 0.749874
0.000000 0.763210 0.748959
0.208225 0.756924 0.741604
0.403174 0.748135 0.732967
0.542809 0.726558 0.724636
0.697932 0.788846 0.785977
0.847227 0.828550 0.819242
0.958282 0.825193 0.822446
0.351263 0.867185 0.779324
0.362860 0.865354 0.777432
0.413916 0.860136 0.773037
0.493874 0.850980 0.766995
0.584009 0.831388 0.757107
0.693568 0.843626 0.782437
0.825010 0.893248 0.844572
0.935973 0.924620 0.879728
0.582391 0.953582 0.841825
0.587335 0.952850 0.841459
0.609522 0.950256 0.840909
0.662470 0.949035 0.846677
0.720607 0.943328 0.848875
0.788235 0.939300 0.855802
0.869963 0.957946 0.885405
0.941283 0.972473 0.909239
0.121370 0.174075 0.891386
0.180056 0.172427 0.892119
0.302892 0.159487 0.890074
0.441627 0.115694 0.888396
0.588128 0.000000 0.887419
0.749325 0.000000 0.884367
0.914000 0.000000 0.881682
1.000000 0.190890 0.868070
0.131777 0.226780 0.885344
0.181552 0.224765 0.885008
0.300450 0.213260 0.884031
0.436164 0.183749 0.882841
0.579339 0.084230 0.880430
0.740352 0.000000 0.877989
0.905516 0.000000 0.876310
1.000000 0.231479 0.864408
0.230228 0.386694 0.889128
0.255222 0.384253 0.888823
0.338659 0.375494 0.888334
0.449409 0.350134 0.883665
0.582269 0.308751 0.880278
0.739437 0.274357 0.877409
0.901396 0.307012 0.875425
1.000000 0.380652 0.864591
0.294041 0.548394 0.891905
0.320256 0.551629 0.890471
0.412207 0.569268 0.887419
0.495125 0.556756 0.888914
0.602197 0.524987 0.886717
0.743587 0.492714 0.882261
0.894499 0.516350 0.878111
1.000000 0.552483 0.867857
0.331548 0.675227 0.881590
0.352941 0.677211 0.881315
0.429541 0.686580 0.881010
0.537774 0.706050 0.881498
0.615106 0.698024 0.876066
0.721675 0.661097 0.870665
0.863554 0.675227 0.868772
0.973419 0.645045 0.845457
0.309331 0.780301 0.870054
0.337163 0.783078 0.871397
0.407355 0.785428 0.870970
0.506371 0.790249 0.870359
0.613428 0.797116 0.869596
0.723781 0.810361 0.872160
0.840391 0.793606 0.859617
0.953033 0.781582 0.850065
0.398657 0.900511 0.886778
0.417151 0.900725 0.886961
0.468696 0.898222 0.884550
0.549096 0.893065 0.879850
0.639612 0.884306 0.872984
0.713832 0.861021 0.859342
0.838743 0.900908 0.897002
0.944915 0.924895 0.915007
0.602960 0.966033 0.898497
0.606104 0.965209 0.897612
0.625971 0.963378 0.896178
0.667079 0.961028 0.894987
0.715999 0.955535 0.891020
0.780026 0.945800 0.888792
0.863371 0.953033 0.905089
0.944213 0.972381 0.931518
0.340734 0.284855 0.969329
0.359594 0.286717 0.970336
0.414740 0.280064 0.969451
0.505608 0.264805 0.969207
0.614466 0.224582 0.967864
0.735134 0.104097 0.965423
0.876707 0.000000 0.962310
1.000000 0.162478 0.957977
0.337255 0.313237 0.963012
0.356847 0.315831 0.964446
0.410407 0.308537 0.963897
0.496742 0.289982 0.962799
0.603449 0.250584 0.960998
0.721157 0.152956 0.957397
0.860349 0.000000 0.953155
1.000000 0.156893 0.948150
0.395972 0.451881 0.962829
0.406592 0.449897 0.962768
0.445228 0.439765 0.961608
0.516655 0.421973 0.960449
0.609857 0.387518 0.957977
0.722499 0.331670 0.955596
0.863493 0.310124 0.954559
1.000000 0.357153 0.951781
0.497627 0.631708 0.958740
0.500008 0.627436 0.958129
0.518700 0.615961 0.956878
0.566735 0.601434 0.956786
0.635676 0.571466 0.955505
0.732753 0.529625 0.954925
0.863523 0.508995 0.954437
0.992248 0.538231 0.949248
0.543511 0.736172 0.951232
0.544305 0.733364 0.950103
0.563348 0.731594 0.948363
0.620386 0.742458 0.946044
0.665797 0.725612 0.944823
0.731197 0.688533 0.943664
0.842710 0.658381 0.942718
0.968475 0.689967 0.942016
0.555901 0.811917 0.943999
0.565270 0.813504 0.944121
0.598444 0.818509 0.944121
0.654841 0.828061 0.944396
0.724269 0.841337 0.944732
0.774319 0.837125 0.943420
0.845548 0.810025 0.941344
0.951812 0.818479 0.939818
0.569421 0.889281 0.941070
0.579614 0.890623 0.941650
0.606195 0.891814 0.941436
0.654932 0.894865 0.941466
0.714870 0.897917 0.940795
0.782437 0.902129 0.940093
0.853178 0.907317 0.939513
0.941924 0.892943 0.930419
0.619898 0.977386 0.954284
0.626368 0.977325 0.954192
0.656031 0.977691 0.954376
0.696956 0.976104 0.952636
0.747341 0.972656 0.948882
0.804166 0.967315 0.943420
0.859312 0.954376 0.934844
0.950927 0.973754 0.957610
0.473426 0.411109 1.000000
0.482673 0.412360 1.000000
0.509239 0.402319 1.000000
0.565362 0.391974 1.000000
0.640925 0.367224 1.000000
0.731960 0.317571 1.000000
0.838682 0.218936 1.000000
0.965637 0.197787 1.000000
0.472908 0.427802 1.000000
0.482216 0.428870 1.000000
0.510033 0.421393 1.000000
0.563592 0.408759 1.000000
0.637842 0.383642 1.000000
0.727932 0.335637 1.000000
0.832883 0.239902 1.000000
0.958953 0.210910 1.000000
0.503685 0.518303 1.000000
0.509850 0.517479 1.000000
0.531548 0.508202 1.000000
0.583459 0.503441 1.000000
0.646815 0.476356 1.000000
0.728084 0.429786 1.000000
0.829343 0.358221 1.000000
0.953796 0.335027 1.000000
0.566094 0.651759 0.994659
0.571405 0.651942 0.994903
0.585962 0.644709 0.994965
0.619989 0.634852 0.995789
0.669703 0.613367 0.996674
0.737545 0.575341 0.997620
0.828733 0.517906 0.999359
0.948363 0.494667 0.998627
0.623102 0.759487 0.987427
0.630579 0.762264 0.987457
0.649989 0.765499 0.986389
0.674250 0.760647 0.986542
0.703334 0.742000 0.987213
0.750515 0.711666 0.988281
0.825315 0.667597 0.990570
0.937255 0.646265 0.991730
0.672389 0.837186 0.982635
0.674281 0.836637 0.982208
0.687861 0.837430 0.981201
0.709499 0.837827 0.980713
0.748104 0.841947 0.980499
0.792325 0.837339 0.982544
0.848264 0.818570 0.985931
0.938323 0.800809 0.988251
0.697688 0.898039 0.982422
0.700832 0.898192 0.982269
0.715023 0.899229 0.981811
0.746395 0.903410 0.981750
0.791531 0.910460 0.981933
0.848264 0.921904 0.983062
0.890318 0.922301 0.984680
0.943542 0.899992 0.984588
0.725551 0.958312 0.983612
0.727962 0.958251 0.983459
0.741146 0.958831 0.983368
0.769436 0.960998 0.983642
0.807736 0.963714 0.983825
0.853422 0.966857 0.983825
0.904631 0.970703 0.983886
0.955352 0.973022 0.982757
