20 Preset/Travel Style/【3】LUT video cho PR-AE-FCPX/Green Moody - Lut (1).cube
# Created by Adobe Lightroom plugin Export LUT (1.24.0)
# www.johnrellis.com/lightroom/exportlut.htm
# Preset: 01自然风光-复古-素材江湖
# Color profile: E:\lut插件\exportlut.1.24\exportlut.lrplugin\color profiles\Rec709gamma2.4.icc
LUT_3D_SIZE 5
DOMAIN_MIN 0.000000 0.000000 0.000000
DOMAIN_MAX 0.903226 0.903226 0.903226
0.211887 0.157412 0.160189
0.280125 0.156985 0.160128
0.573816 0.164553 0.142794
0.868101 0.259403 0.150851
1.000000 0.355627 0.245335
0.215915 0.200443 0.164767
0.267002 0.211734 0.158022
0.593866 0.312291 0.141848
0.873075 0.379797 0.168093
1.000000 0.436255 0.274754
0.249851 0.358831 0.209171
0.283574 0.357671 0.208591
0.442145 0.414282 0.163455
0.827634 0.615137 0.228794
1.000000 0.653132 0.412757
0.253941 0.564874 0.291173
0.292485 0.550134 0.295415
0.394690 0.588983 0.276005
0.615564 0.671107 0.203952
0.965942 0.805997 0.422248
0.251225 0.853880 0.512535
0.294255 0.848722 0.515892
0.408606 0.848814 0.523430
0.584070 0.887388 0.509331
0.847776 0.921508 0.469490
0.221744 0.158755 0.220066
0.275029 0.151736 0.203403
0.518730 0.142824 0.219577
0.820554 0.276982 0.276829
1.000000 0.394903 0.358831
0.229953 0.223484 0.207523
0.287694 0.223758 0.208194
0.536339 0.290715 0.246250
0.831144 0.384283 0.296605
1.000000 0.466346 0.383581
0.277348 0.377996 0.252476
0.308324 0.361364 0.255558
0.446723 0.415656 0.229557
0.820920 0.623865 0.361456
1.000000 0.671382 0.504326
0.274205 0.577935 0.328374
0.310094 0.563256 0.330755
0.404303 0.588983 0.320317
0.616602 0.670619 0.274449
0.959899 0.813474 0.509270
0.272801 0.858213 0.538048
0.311589 0.853117 0.540734
0.418463 0.845274 0.547173
0.587457 0.885374 0.538781
0.847257 0.920623 0.508324
0.280735 0.188296 0.570489
0.399084 0.179721 0.527886
0.522911 0.171359 0.428595
0.791165 0.230869 0.487312
0.991058 0.395941 0.523186
0.310002 0.334936 0.498878
0.380957 0.311162 0.474311
0.513329 0.276860 0.422095
0.768521 0.337072 0.473335
0.967102 0.493355 0.556939
0.276158 0.479866 0.429755
0.352422 0.471504 0.425666
0.495430 0.474556 0.423285
0.763363 0.622431 0.570092
0.967407 0.696559 0.665034
0.328008 0.648707 0.472450
0.357000 0.635004 0.466346
0.440040 0.600336 0.455879
0.625940 0.679988 0.453346
0.943175 0.847166 0.729976
0.332525 0.881041 0.631708
0.361822 0.875883 0.631403
0.453162 0.853330 0.630671
0.598901 0.880583 0.634455
0.848478 0.920012 0.629816
0.386633 0.380591 0.898344
0.470130 0.377478 0.886656
0.661311 0.339422 0.831235
0.786099 0.307988 0.741207
0.984466 0.448890 0.764157
0.421210 0.516991 0.872618
0.479927 0.504509 0.861875
0.641444 0.444923 0.810147
0.770077 0.398718 0.732753
0.967163 0.513756 0.763577
0.452827 0.709712 0.828580
0.495308 0.706355 0.819089
0.581933 0.628168 0.757687
0.712337 0.572564 0.703517
0.921294 0.663416 0.767269
0.302434 0.775540 0.730007
0.366644 0.770871 0.727413
0.526146 0.747951 0.716854
0.676387 0.749844 0.715419
0.926757 0.873075 0.869627
0.520226 0.924559 0.814908
0.541924 0.921202 0.815488
0.562158 0.906676 0.792508
0.617731 0.869780 0.756069
0.854337 0.921202 0.780087
0.558495 0.630365 0.997742
0.587823 0.626917 0.995605
0.696284 0.612757 0.987610
0.860441 0.549523 0.967864
0.988861 0.516472 0.935973
0.588891 0.698177 0.988800
0.611383 0.692958 0.987060
0.699001 0.669154 0.979583
0.846189 0.597040 0.959655
0.970214 0.556786 0.927489
0.673182 0.837583 0.973510
0.676143 0.827878 0.971405
0.714260 0.798764 0.963836
0.809567 0.724514 0.942809
0.932067 0.689326 0.918669
0.683955 0.910491 0.965332
0.699886 0.910307 0.964385
0.767056 0.914702 0.963409
0.812680 0.881926 0.949737
0.906584 0.842802 0.928740
0.566766 0.968078 0.937804
0.584955 0.966125 0.936950
0.661402 0.960479 0.936187
0.764004 0.945953 0.930785
0.881926 0.934386 0.928801
