20 Preset/Travel Style/【3】LUT video cho PR-AE-FCPX/Green Moody - Lut (28).cube
# Created by Adobe Lightroom plugin Export LUT (1.24.0)
# www.johnrellis.com/lightroom/exportlut.htm
# Preset: 28自然风光-素材江湖
# Color profile: E:\lut插件\exportlut.1.24\exportlut.lrplugin\color profiles\Rec709gamma2.4.icc
LUT_3D_SIZE 8
DOMAIN_MIN 0.000000 0.000000 0.000000
DOMAIN_MAX 0.903226 0.903226 0.903226
0.171756 0.172671 0.145571
0.175509 0.173404 0.146639
0.254612 0.173648 0.152621
0.432013 0.172610 0.150729
0.677089 0.203098 0.152071
0.900664 0.275944 0.184329
1.000000 0.365270 0.272251
1.000000 0.471046 0.405035
0.171725 0.175998 0.146273
0.179141 0.177127 0.146761
0.237552 0.184756 0.151156
0.395026 0.194949 0.148623
0.628504 0.229709 0.147402
0.865415 0.291356 0.171633
1.000000 0.365087 0.250889
1.000000 0.462959 0.383307
0.180636 0.217899 0.140963
0.195041 0.221103 0.139956
0.270634 0.240848 0.131380
0.332341 0.231357 0.142397
0.533074 0.280919 0.138460
0.804746 0.353216 0.149447
0.985473 0.416358 0.236606
1.000000 0.496101 0.379675
0.202579 0.317540 0.110750
0.224033 0.322240 0.105776
0.308873 0.345922 0.061799
0.506310 0.425391 0.000000
0.617884 0.407355 0.000000
0.682734 0.389837 0.122438
0.915435 0.464088 0.189700
1.000000 0.528161 0.340398
0.252995 0.478370 0.000000
0.278630 0.484627 0.000000
0.376410 0.514214 0.000000
0.551263 0.575982 0.000000
0.769284 0.635279 0.000000
0.849271 0.577295 0.000000
0.858640 0.513634 0.000000
0.993439 0.558404 0.274083
0.328008 0.664912 0.000000
0.354864 0.675044 0.000000
0.446143 0.693751 0.000000
0.592828 0.726284 0.000000
0.776547 0.765469 0.000000
0.936400 0.766781 0.000000
0.997101 0.695186 0.000000
1.000000 0.644221 0.084138
0.405859 0.822538 0.000000
0.426276 0.825620 0.000000
0.499702 0.833341 0.000000
0.619287 0.847623 0.000000
0.766445 0.863645 0.000000
0.929137 0.879210 0.000000
1.000000 0.840391 0.000000
1.000000 0.766445 0.000000
0.471351 0.936065 0.000000
0.485878 0.936553 0.000000
0.542596 0.938750 0.000000
0.638209 0.942657 0.000000
0.753017 0.941222 0.000000
0.886961 0.944060 0.000000
1.000000 0.942565 0.000000
1.000000 0.883818 0.000000
0.175143 0.175296 0.151797
0.176516 0.174502 0.151675
0.235080 0.178408 0.154788
0.375158 0.193210 0.151431
0.604547 0.229374 0.146853
0.848142 0.288914 0.166964
0.999390 0.358160 0.241245
1.000000 0.451362 0.369390
0.172549 0.177554 0.152102
0.177646 0.178500 0.151186
0.223392 0.187564 0.155795
0.358190 0.204807 0.151492
0.578485 0.244755 0.144167
0.827787 0.303380 0.160433
0.984497 0.364446 0.230320
1.000000 0.449439 0.355200
0.174777 0.212650 0.153658
0.187015 0.213870 0.152071
0.249912 0.229313 0.145480
0.319951 0.231205 0.150301
0.500359 0.277501 0.139528
0.762692 0.347936 0.141573
0.952392 0.405219 0.210788
1.000000 0.478645 0.346471
0.185916 0.302251 0.136385
0.206210 0.304051 0.133028
0.283879 0.325109 0.115328
0.452857 0.384741 0.000000
0.564080 0.377600 0.000000
0.631922 0.368292 0.124575
0.877836 0.447150 0.168002
1.000000 0.511559 0.308598
0.230900 0.462867 0.000000
0.256107 0.465003 0.000000
0.350683 0.491035 0.000000
0.515801 0.545525 0.000000
0.733150 0.608179 0.000000
0.821866 0.560388 0.000000
0.846036 0.508019 0.000000
0.979553 0.548608 0.255161
0.303380 0.646693 0.000000
0.328649 0.651118 0.000000
0.420966 0.671199 0.000000
0.569787 0.707240 0.000000
0.756588 0.750668 0.000000
0.924132 0.759152 0.000000
0.990631 0.692744 0.000000
1.000000 0.640650 0.000000
0.386419 0.810239 0.000000
0.405859 0.811185 0.000000
0.480964 0.819455 0.000000
0.603632 0.836118 0.000000
0.754879 0.855924 0.000000
0.919646 0.873350 0.000000
1.000000 0.837278 0.000000
1.000000 0.763424 0.000000
0.459174 0.930571 0.000000
0.474922 0.931823 0.000000
0.532860 0.934173 0.000000
0.630091 0.938689 0.000000
0.751431 0.942840 0.000000
0.885344 0.944579 0.000000
1.000000 0.942290 0.000000
1.000000 0.883970 0.000000
0.180117 0.178683 0.214542
0.183444 0.180850 0.211582
0.225345 0.183688 0.210605
0.344671 0.192996 0.218479
0.623926 0.263798 0.275944
0.846403 0.348730 0.312352
0.985199 0.420996 0.345617
1.000000 0.472633 0.373175
0.170138 0.184054 0.206180
0.184176 0.188388 0.202304
0.222568 0.195346 0.204654
0.342748 0.213260 0.220249
0.593805 0.279942 0.269871
0.824399 0.356085 0.304662
0.972168 0.420844 0.333043
1.000000 0.471839 0.362158
0.172671 0.219303 0.203342
0.185275 0.220584 0.202243
0.237064 0.239261 0.211063
0.334844 0.264256 0.225956
0.532372 0.318425 0.255741
0.774594 0.387182 0.284977
0.943511 0.446387 0.317388
1.000000 0.494270 0.354620
0.166751 0.306371 0.219242
0.185550 0.308843 0.218296
0.249424 0.318242 0.205264
0.400122 0.357275 0.196689
0.479255 0.347204 0.222141
0.663783 0.403449 0.245640
0.882231 0.476295 0.282597
1.000000 0.527642 0.332982
0.155795 0.455207 0.211460
0.190860 0.456641 0.207340
0.293462 0.463294 0.189792
0.461250 0.516320 0.158846
0.687434 0.582788 0.099550
0.768521 0.535454 0.156405
0.809384 0.502068 0.218387
0.975067 0.557916 0.284794
0.220066 0.635492 0.167544
0.254765 0.637507 0.161868
0.360204 0.643763 0.131014
0.519707 0.681941 0.038148
0.715023 0.729183 0.000000
0.896239 0.748013 0.000000
0.967529 0.686366 0.000000
1.000000 0.647211 0.161654
0.336309 0.805966 0.107393
0.358038 0.805356 0.087861
0.439307 0.807279 0.000000
0.570916 0.824918 0.000000
0.729000 0.847105 0.000000
0.899992 0.868162 0.000000
1.000000 0.839536 0.000000
1.000000 0.769680 0.000000
0.435920 0.927459 0.008392
0.450141 0.927001 0.000000
0.510002 0.928313 0.000000
0.613184 0.934600 0.000000
0.737118 0.939818 0.000000
0.873014 0.943389 0.000000
1.000000 0.943297 0.000000
1.000000 0.887205 0.000000
0.157809 0.182834 0.325139
0.174228 0.187961 0.323827
0.239261 0.210819 0.320989
0.328801 0.217777 0.338476
0.481422 0.228794 0.345678
0.820951 0.388769 0.491737
0.955261 0.604883 0.639185
1.000000 0.657282 0.669551
0.161990 0.194827 0.315068
0.179751 0.200870 0.313817
0.243381 0.226719 0.314824
0.328435 0.234012 0.335393
0.484565 0.246738 0.347814
0.820340 0.421088 0.504143
0.949187 0.603876 0.632380
1.000000 0.656672 0.665187
0.159304 0.234897 0.308385
0.178531 0.236454 0.305150
0.242710 0.253605 0.300237
0.330388 0.282200 0.328069
0.513909 0.323064 0.371374
0.821164 0.546197 0.573816
0.931975 0.619226 0.626093
1.000000 0.666194 0.660121
0.161135 0.315404 0.321935
0.182681 0.316716 0.320928
0.251316 0.328283 0.323796
0.376196 0.384314 0.364660
0.544610 0.445563 0.416785
0.731960 0.514794 0.476081
0.886717 0.591577 0.548791
0.994934 0.652552 0.609491
0.100893 0.470436 0.381353
0.151369 0.471626 0.380316
0.261112 0.483284 0.381079
0.396704 0.508782 0.367742
0.623438 0.567163 0.384222
0.667170 0.510826 0.380438
0.807095 0.555047 0.429938
0.966949 0.639124 0.529198
0.136233 0.644343 0.414588
0.191836 0.650172 0.416876
0.294194 0.654078 0.397131
0.449348 0.662104 0.370916
0.657465 0.713497 0.388586
0.847684 0.744381 0.434028
0.915312 0.689235 0.417273
0.968627 0.664790 0.442573
0.294163 0.800015 0.429908
0.317845 0.800992 0.427649
0.398566 0.803372 0.415412
0.521630 0.808286 0.390539
0.690517 0.836027 0.414862
0.861295 0.861906 0.438727
0.981384 0.849516 0.473976
1.000000 0.787259 0.394385
0.454108 0.923949 0.475654
0.465400 0.923980 0.471748
0.511376 0.924224 0.456275
0.597589 0.925963 0.432502
0.721492 0.933165 0.442451
0.851896 0.939300 0.438178
0.986603 0.942504 0.394507
1.000000 0.897612 0.318364
0.099611 0.202274 0.477455
0.138277 0.209598 0.478248
0.237186 0.241550 0.478584
0.345068 0.271061 0.501061
0.490120 0.290135 0.554803
0.665797 0.303960 0.550439
0.893370 0.493935 0.646906
0.979583 0.760739 0.813321
0.117708 0.216770 0.469703
0.149386 0.223667 0.471382
0.240208 0.253574 0.474464
0.347784 0.286229 0.498299
0.489693 0.305974 0.551904
0.666041 0.321141 0.550317
0.891966 0.518883 0.656092
0.976806 0.770626 0.819303
0.088533 0.251682 0.459846
0.142672 0.257084 0.456489
0.242191 0.282658 0.456245
0.355016 0.332921 0.485817
0.485176 0.357366 0.536736
0.659846 0.377783 0.543633
0.884825 0.601038 0.689723
0.967071 0.803647 0.839445
0.069520 0.337102 0.472847
0.130495 0.338140 0.470405
0.233371 0.345159 0.464820
0.356481 0.381323 0.471931
0.501579 0.446845 0.540764
0.677363 0.485817 0.564599
0.885771 0.728023 0.765530
0.958770 0.795987 0.819120
0.008453 0.452522 0.499641
0.122621 0.454353 0.499825
0.243961 0.462776 0.500847
0.377020 0.490517 0.515435
0.553216 0.572229 0.578637
0.719692 0.656977 0.658900
0.844297 0.709224 0.706905
0.944610 0.760616 0.755703
0.000000 0.626825 0.567864
0.000000 0.629053 0.568780
0.249241 0.636774 0.571130
0.415930 0.654047 0.579126
0.567285 0.678279 0.576867
0.771145 0.734157 0.630762
0.812009 0.678248 0.592401
0.914458 0.712245 0.640192
0.296269 0.791775 0.628260
0.317876 0.791043 0.626673
0.397406 0.791012 0.623468
0.506950 0.797391 0.619928
0.624140 0.805478 0.598077
0.800687 0.844480 0.645533
0.929534 0.856718 0.690059
0.991516 0.808957 0.637140
0.491371 0.909270 0.672816
0.498665 0.909361 0.670924
0.530327 0.910124 0.663508
0.599695 0.914092 0.655970
0.691066 0.917113 0.634913
0.822507 0.929229 0.665919
0.942504 0.938140 0.685298
1.000000 0.916747 0.681575
0.000000 0.240146 0.667994
0.000000 0.247349 0.668788
0.198215 0.279576 0.671504
0.363287 0.347204 0.684749
0.489143 0.373419 0.713558
0.643397 0.416602 0.751827
0.809628 0.446784 0.743282
0.947784 0.588006 0.766232
0.000000 0.251102 0.656062
0.000000 0.257694 0.656489
0.201785 0.287022 0.659236
0.359472 0.350683 0.671107
0.484230 0.379217 0.701839
0.637751 0.423011 0.743130
0.803525 0.453681 0.736904
0.944396 0.598413 0.766995
0.000000 0.289464 0.652552
0.000000 0.294591 0.649104
0.208408 0.321019 0.651911
0.358556 0.377325 0.660975
0.491646 0.425452 0.692592
0.640436 0.474250 0.736904
0.800839 0.509483 0.737026
0.940703 0.662837 0.789761
0.000000 0.363592 0.660304
0.000000 0.364294 0.656947
0.166201 0.370459 0.648127
0.357824 0.419928 0.650690
0.518486 0.506889 0.690608
0.657282 0.563104 0.738552
0.804959 0.600763 0.748135
0.938262 0.765042 0.836332
0.000000 0.469520 0.664698
0.000000 0.470405 0.663020
0.190890 0.475959 0.658015
0.350347 0.492714 0.653498
0.509850 0.546838 0.662867
0.668086 0.637873 0.730678
0.806760 0.676112 0.751339
0.939483 0.855253 0.885435
0.000000 0.598688 0.686275
0.019013 0.601648 0.687770
0.249607 0.607446 0.686152
0.397345 0.622644 0.687098
0.544701 0.655543 0.699367
0.709285 0.732357 0.753994
0.848875 0.814023 0.828916
0.926024 0.846708 0.856535
0.151247 0.785397 0.761013
0.211673 0.786984 0.761929
0.339269 0.789731 0.761532
0.483986 0.797024 0.763333
0.619501 0.809110 0.768276
0.739071 0.825437 0.769345
0.884123 0.864286 0.817014
0.924346 0.822019 0.774990
0.460548 0.909545 0.796872
0.471839 0.908873 0.795865
0.521477 0.907561 0.794644
0.605646 0.907012 0.795590
0.699458 0.907927 0.797024
0.781521 0.913024 0.783169
0.904387 0.932403 0.825254
0.979065 0.932311 0.844236
0.000000 0.309514 0.832914
0.000000 0.316808 0.832639
0.193790 0.347845 0.831235
0.375402 0.413947 0.830838
0.519585 0.483558 0.837247
0.637293 0.526421 0.853208
0.765469 0.586114 0.873594
0.894987 0.618280 0.869780
0.000000 0.319310 0.829984
0.000000 0.326238 0.829740
0.198947 0.356146 0.828763
0.376135 0.419837 0.828305
0.522820 0.492714 0.834867
0.639063 0.535332 0.851438
0.765835 0.593896 0.872282
0.894102 0.624872 0.868956
0.000000 0.349340 0.821866
0.000000 0.355627 0.821683
0.208804 0.383398 0.821134
0.379889 0.443183 0.821653
0.537530 0.528832 0.828000
0.647974 0.570489 0.846220
0.769619 0.625940 0.869108
0.892851 0.653376 0.867948
0.000000 0.396033 0.823087
0.000000 0.400702 0.820798
0.181216 0.422980 0.813718
0.376837 0.474922 0.810361
0.545708 0.567163 0.817868
0.662562 0.622736 0.838315
0.776699 0.674525 0.864836
0.892393 0.699611 0.867216
0.000000 0.499489 0.826261
0.000000 0.500999 0.825010
0.166110 0.508110 0.820035
0.346136 0.523339 0.810880
0.525475 0.585657 0.803952
0.677089 0.676143 0.828977
0.787320 0.728237 0.861723
0.895689 0.758328 0.869871
0.000000 0.617517 0.833768
0.104158 0.618830 0.832944
0.260441 0.624537 0.829435
0.397864 0.636286 0.823026
0.526940 0.655634 0.814481
0.666072 0.703456 0.813901
0.804257 0.787045 0.862699
0.904509 0.820249 0.877867
0.268284 0.743099 0.846372
0.291081 0.744137 0.845914
0.366430 0.748226 0.843900
0.471687 0.756802 0.840604
0.585962 0.771267 0.837827
0.704616 0.796597 0.841794
0.831632 0.850370 0.872282
0.928344 0.908080 0.920287
0.371191 0.895903 0.888212
0.387396 0.896971 0.888548
0.448188 0.901701 0.890196
0.550408 0.904997 0.888975
0.669825 0.907286 0.886503
0.775692 0.911986 0.886625
0.863066 0.920043 0.887602
0.952880 0.941650 0.919615
0.319493 0.480903 0.958404
0.340734 0.488991 0.957885
0.416785 0.522454 0.955444
0.531945 0.585870 0.950713
0.656184 0.667079 0.944640
0.728786 0.698939 0.945403
0.800259 0.727504 0.948425
0.875822 0.763577 0.952697
0.326360 0.487892 0.957610
0.346715 0.495796 0.957092
0.421332 0.528527 0.954711
0.533989 0.590112 0.950103
0.656794 0.669612 0.944182
0.730922 0.703609 0.944762
0.801511 0.731563 0.947906
0.876402 0.767056 0.952300
0.344091 0.511406 0.955474
0.363134 0.518639 0.954925
0.433539 0.549126 0.952636
0.540764 0.605859 0.948394
0.658808 0.679500 0.942840
0.739681 0.721798 0.942565
0.807065 0.747982 0.946197
0.879301 0.781460 0.951171
0.336309 0.542382 0.954925
0.359594 0.549096 0.954070
0.439826 0.575891 0.950225
0.542840 0.626368 0.946227
0.657588 0.693294 0.941192
0.753292 0.750637 0.939300
0.816281 0.774533 0.943725
0.884703 0.805325 0.949676
0.320714 0.594842 0.956725
0.338262 0.597681 0.956207
0.399329 0.608850 0.954009
0.516381 0.644709 0.947692
0.643549 0.703975 0.940185
0.759487 0.775143 0.936461
0.826505 0.804868 0.941131
0.892210 0.834043 0.948516
0.385046 0.684199 0.956298
0.397955 0.686000 0.955871
0.446723 0.693568 0.954009
0.523980 0.707820 0.950408
0.614527 0.727901 0.944762
0.737758 0.779660 0.935729
0.837308 0.837644 0.938262
0.902007 0.866697 0.947967
0.453803 0.777462 0.956512
0.464210 0.778744 0.956146
0.504448 0.784085 0.954650
0.572076 0.794369 0.951720
0.653742 0.808682 0.947173
0.737362 0.825193 0.940948
0.828855 0.854368 0.933745
0.913542 0.901030 0.948180
0.531914 0.870756 0.957153
0.540276 0.871580 0.956909
0.573724 0.874968 0.955810
0.631220 0.881346 0.953735
0.702815 0.890257 0.950683
0.778073 0.900694 0.946777
0.852140 0.912718 0.943053
0.927276 0.937041 0.949889
