20 Preset/Travel Style/【3】LUT video cho PR-AE-FCPX/Green Moody - Lut (14).cube
# Created by Adobe Lightroom plugin Export LUT (1.24.0)
# www.johnrellis.com/lightroom/exportlut.htm
# Preset: 14自然风光-暗黑-素材江湖
# Color profile: E:\lut插件\exportlut.1.24\exportlut.lrplugin\color profiles\Rec709gamma2.4.icc
LUT_3D_SIZE 32
DOMAIN_MIN 0.0 0.0 0.0
DOMAIN_MAX 1.0 1.0 1.0
0.099092 0.144472 0.163333
0.099092 0.144472 0.163333
0.099092 0.144472 0.163333
0.101198 0.144961 0.164004
0.107393 0.145968 0.165469
0.115816 0.147189 0.167239
0.126314 0.148775 0.168704
0.139467 0.149935 0.170138
0.156558 0.151125 0.170962
0.177218 0.152316 0.171481
0.202274 0.153719 0.171786
0.231846 0.155093 0.171878
0.265385 0.156100 0.171695
0.301976 0.156954 0.171511
0.341863 0.157717 0.170748
0.383856 0.158755 0.170382
0.428138 0.159670 0.170321
0.475135 0.160891 0.170596
0.523613 0.161624 0.170962
0.573358 0.161379 0.172152
0.623346 0.161227 0.173281
0.682521 0.161318 0.175601
0.744167 0.161135 0.179599
0.801297 0.161685 0.185122
0.852018 0.164034 0.192782
0.897551 0.168276 0.202945
0.939544 0.176394 0.214908
0.978210 0.186709 0.229618
1.000000 0.201724 0.246891
1.000000 0.220523 0.267369
1.000000 0.243595 0.291325
1.000000 0.271580 0.318944
0.099092 0.144472 0.163333
0.099092 0.144472 0.163333
0.099092 0.144472 0.163333
0.101198 0.144961 0.164004
0.108003 0.145937 0.165469
0.115633 0.147433 0.167208
0.125612 0.149020 0.168856
0.138918 0.150210 0.170108
0.155367 0.151461 0.170932
0.175357 0.152773 0.171450
0.199832 0.154116 0.171786
0.228672 0.155520 0.171908
0.261540 0.156405 0.171786
0.297887 0.157687 0.171603
0.336950 0.158724 0.170871
0.378607 0.159609 0.170596
0.422522 0.160464 0.170443
0.469429 0.161898 0.170596
0.517601 0.162295 0.171084
0.567132 0.162478 0.171969
0.616907 0.163027 0.172976
0.674342 0.162600 0.175357
0.733669 0.162875 0.178927
0.788998 0.162997 0.183993
0.839445 0.164279 0.190707
0.885344 0.168826 0.199680
0.927886 0.175204 0.211093
0.967681 0.184665 0.224949
1.000000 0.198611 0.241337
1.000000 0.216007 0.261418
1.000000 0.237766 0.284886
1.000000 0.264805 0.312047
0.098848 0.144717 0.163302
0.098756 0.144717 0.163485
0.098512 0.144961 0.163485
0.102022 0.145754 0.164279
0.108248 0.147189 0.165866
0.115999 0.149050 0.167544
0.126009 0.150668 0.169009
0.138705 0.152071 0.170260
0.155062 0.153536 0.171054
0.175265 0.154971 0.171542
0.199435 0.156558 0.171878
0.228153 0.157961 0.171969
0.260288 0.159365 0.172000
0.296300 0.160800 0.171633
0.334966 0.162173 0.171084
0.376379 0.163394 0.170596
0.420081 0.164462 0.170443
0.466560 0.165866 0.170840
0.515160 0.167269 0.171023
0.564721 0.168338 0.171786
0.614405 0.168887 0.173190
0.672206 0.168948 0.175479
0.730068 0.168978 0.178836
0.784421 0.169345 0.183932
0.834379 0.171633 0.190219
0.879789 0.174868 0.198764
0.922576 0.180941 0.209720
0.962737 0.190097 0.223087
0.999847 0.202029 0.239597
1.000000 0.219303 0.259098
1.000000 0.239628 0.282048
1.000000 0.265537 0.308995
0.096712 0.148592 0.166171
0.096559 0.148806 0.165988
0.097414 0.148989 0.165225
0.101106 0.149386 0.165499
0.107942 0.150942 0.166690
0.116518 0.152468 0.168215
0.127016 0.153994 0.169497
0.140169 0.155703 0.170504
0.156832 0.157443 0.171084
0.176761 0.159243 0.171878
0.200565 0.160922 0.172335
0.229068 0.162844 0.172366
0.261326 0.164889 0.172122
0.296574 0.166934 0.171878
0.334630 0.168765 0.171298
0.375402 0.170504 0.170748
0.418433 0.172488 0.170535
0.464240 0.174716 0.170687
0.511711 0.176425 0.171298
0.560540 0.177737 0.171969
0.609613 0.178927 0.173220
0.667109 0.179599 0.175540
0.722744 0.180850 0.178775
0.776577 0.182071 0.183474
0.827268 0.183780 0.189944
0.874693 0.187686 0.198459
0.918853 0.193179 0.209934
0.960388 0.201511 0.223606
0.998474 0.213382 0.240269
1.000000 0.229129 0.259892
1.000000 0.248051 0.282780
1.000000 0.272099 0.308812
0.094240 0.154726 0.168887
0.094118 0.154940 0.168673
0.095308 0.154910 0.167788
0.098573 0.155306 0.167880
0.105226 0.156069 0.168093
0.115633 0.158816 0.168856
0.126955 0.159976 0.169986
0.141207 0.161501 0.171359
0.157748 0.163516 0.172030
0.177646 0.165560 0.172610
0.201694 0.167849 0.172976
0.230076 0.170504 0.172732
0.261845 0.173342 0.172702
0.297124 0.176211 0.172152
0.335058 0.178897 0.171603
0.376257 0.181796 0.171023
0.419715 0.184512 0.170809
0.466133 0.187564 0.170718
0.513603 0.189609 0.171603
0.562371 0.191714 0.172427
0.613001 0.193698 0.173861
0.669825 0.196201 0.176242
0.723842 0.197787 0.179721
0.776974 0.199619 0.184512
0.827451 0.202304 0.191226
0.874571 0.205844 0.200534
0.918914 0.211673 0.211826
0.959960 0.219364 0.225589
0.997528 0.230198 0.242435
1.000000 0.244053 0.262058
1.000000 0.261784 0.284276
1.000000 0.283879 0.310307
0.090028 0.162142 0.171664
0.089998 0.162356 0.171298
0.090547 0.162356 0.170413
0.092927 0.162783 0.169986
0.100435 0.163668 0.170352
0.109895 0.164889 0.170962
0.124636 0.169009 0.171633
0.140475 0.171359 0.172488
0.159457 0.173495 0.173281
0.181827 0.175723 0.173739
0.206394 0.178958 0.173922
0.234928 0.182223 0.173861
0.267277 0.186069 0.173404
0.302770 0.189792 0.172824
0.341100 0.193515 0.172335
0.382544 0.197208 0.171359
0.426764 0.200900 0.171145
0.473732 0.205112 0.171237
0.521782 0.208499 0.172000
0.570642 0.211429 0.172885
0.625086 0.215030 0.174594
0.680385 0.217899 0.177523
0.796811 0.230838 0.189181
0.849180 0.234897 0.198978
0.895628 0.240085 0.210697
0.937652 0.246281 0.224063
0.975128 0.254490 0.239445
1.000000 0.264195 0.256931
1.000000 0.276829 0.276677
1.000000 0.292058 0.298619
1.000000 0.311315 0.322515
1.000000 0.333837 0.348974
0.074403 0.173587 0.176028
0.074708 0.173587 0.175875
0.077455 0.173739 0.174990
0.080751 0.173892 0.172946
0.091432 0.174838 0.173434
0.102846 0.176761 0.173922
0.117464 0.179141 0.174624
0.139254 0.185519 0.174929
0.162966 0.190921 0.175082
0.188815 0.194736 0.175509
0.220981 0.198978 0.175387
0.254215 0.203311 0.175021
0.288029 0.207828 0.174380
0.325078 0.212284 0.173342
0.364813 0.216892 0.172366
0.406958 0.221530 0.171847
0.452094 0.226230 0.171542
0.498756 0.230655 0.172061
0.546929 0.234806 0.173129
0.600336 0.238956 0.174868
0.662745 0.245274 0.177798
0.723568 0.250523 0.182742
0.783108 0.255863 0.189792
0.838651 0.261509 0.199680
0.888304 0.266606 0.212284
0.931853 0.272892 0.226505
0.969848 0.279637 0.242252
1.000000 0.288426 0.259159
1.000000 0.298894 0.278691
1.000000 0.311803 0.299718
1.000000 0.328405 0.322881
1.000000 0.348547 0.348913
0.044648 0.185336 0.180575
0.044953 0.185336 0.180423
0.047028 0.185336 0.179263
0.051240 0.185336 0.176974
0.069062 0.185855 0.175998
0.090364 0.188113 0.176425
0.106905 0.191073 0.177005
0.126589 0.195193 0.177646
0.153658 0.203311 0.178439
0.185580 0.213565 0.177584
0.217258 0.219516 0.177279
0.254459 0.225223 0.176761
0.296239 0.230503 0.175875
0.334081 0.235874 0.174624
0.373480 0.240848 0.173709
0.415686 0.246006 0.172885
0.460090 0.251286 0.173129
0.507164 0.256840 0.173617
0.557122 0.262119 0.174685
0.615106 0.268925 0.176974
0.672633 0.274846 0.181186
0.730312 0.280735 0.186435
0.786770 0.286381 0.194369
0.839872 0.291752 0.205081
0.888243 0.297612 0.217716
0.930632 0.303410 0.232151
0.967987 0.309636 0.247623
1.000000 0.316564 0.264744
1.000000 0.325902 0.284184
1.000000 0.337621 0.304936
1.000000 0.351995 0.328222
1.000000 0.369879 0.353552
0.000000 0.199710 0.185855
0.000031 0.199710 0.185397
0.002106 0.199710 0.184298
0.008698 0.199527 0.182254
0.018982 0.199496 0.178866
0.051087 0.201389 0.179263
0.089052 0.204807 0.179904
0.112581 0.209598 0.180514
0.138521 0.215915 0.181369
0.171969 0.226017 0.181765
0.214267 0.242802 0.179843
0.251316 0.250706 0.179049
0.293278 0.258366 0.177493
0.339483 0.264988 0.176394
0.387945 0.271061 0.175326
0.430060 0.276585 0.174929
0.475013 0.282506 0.175296
0.524041 0.288731 0.176364
0.578820 0.296635 0.178225
0.633600 0.303227 0.181247
0.688136 0.309453 0.186191
0.742733 0.315312 0.192813
0.796109 0.320867 0.201846
0.846464 0.326207 0.213382
0.892546 0.331884 0.226780
0.933410 0.337041 0.241337
0.969421 0.342412 0.257389
1.000000 0.349035 0.274479
1.000000 0.357000 0.293736
1.000000 0.367254 0.314397
1.000000 0.380194 0.337285
1.000000 0.396429 0.362219
0.000000 0.217105 0.191806
0.000000 0.216953 0.191501
0.000000 0.216861 0.190188
0.000000 0.216709 0.187930
0.000000 0.216312 0.183780
0.000000 0.216587 0.182071
0.029725 0.220432 0.182712
0.089265 0.225681 0.183322
0.119783 0.232609 0.184268
0.153872 0.241062 0.185031
0.192966 0.252781 0.185519
0.246220 0.276097 0.182223
0.288121 0.285924 0.180758
0.334417 0.295048 0.178958
0.385534 0.303593 0.178164
0.440925 0.311742 0.178042
0.499092 0.320989 0.179690
0.551873 0.329259 0.181247
0.604211 0.336309 0.184665
0.656367 0.342687 0.188937
0.707729 0.348180 0.194949
0.757778 0.352941 0.202670
0.806332 0.357885 0.211765
0.851743 0.362005 0.223392
0.894041 0.366430 0.236118
0.932616 0.370550 0.250278
0.967315 0.375219 0.266117
0.998993 0.380896 0.283543
1.000000 0.388098 0.303044
1.000000 0.397498 0.323980
1.000000 0.409522 0.347234
1.000000 0.424628 0.372381
0.000000 0.236240 0.198459
0.000000 0.236118 0.198062
0.000000 0.236027 0.196658
0.000000 0.235782 0.194217
0.000000 0.235447 0.189822
0.000000 0.234989 0.184970
0.000000 0.237827 0.185367
0.004730 0.243870 0.186191
0.090303 0.251286 0.187045
0.131807 0.260594 0.188083
0.173220 0.271489 0.189181
0.218418 0.284764 0.190127
0.282261 0.313909 0.185855
0.332250 0.327916 0.183322
0.387915 0.341466 0.182071
0.447333 0.354223 0.183322
0.510643 0.365057 0.185672
0.575463 0.373816 0.190433
0.629084 0.379950 0.195071
0.678309 0.385321 0.200320
0.726925 0.389868 0.207309
0.773922 0.393835 0.215763
0.819211 0.398016 0.225803
0.861997 0.401495 0.237705
0.902007 0.405035 0.250919
0.938445 0.408820 0.265843
0.971527 0.412696 0.281743
1.000000 0.417456 0.299199
1.000000 0.423865 0.318425
1.000000 0.432288 0.339818
1.000000 0.443275 0.362585
1.000000 0.457099 0.387549
0.000000 0.259037 0.206058
0.000000 0.259007 0.205783
0.000000 0.258915 0.204562
0.000000 0.258732 0.201602
0.000000 0.258213 0.197177
0.000000 0.257572 0.190982
0.000000 0.257725 0.188418
0.000000 0.264195 0.189303
0.000000 0.272343 0.190280
0.096132 0.282200 0.191531
0.148623 0.294163 0.192844
0.199771 0.310033 0.194400
0.276310 0.350713 0.200259
0.363684 0.391882 0.198489
0.434577 0.415259 0.197238
0.498970 0.429786 0.200656
0.564874 0.441749 0.205722
0.630488 0.450904 0.213474
0.695766 0.457740 0.223728
0.758633 0.461860 0.236881
0.801297 0.463325 0.245823
0.841001 0.464393 0.256382
0.878141 0.464942 0.268711
0.913390 0.466011 0.281376
0.945342 0.467170 0.295445
0.974243 0.468482 0.310185
1.000000 0.470497 0.325536
1.000000 0.473457 0.341588
1.000000 0.478035 0.359228
1.000000 0.484688 0.378576
1.000000 0.493874 0.399725
1.000000 0.506493 0.422889
0.000000 0.291112 0.217441
0.000000 0.291020 0.217227
0.000000 0.290684 0.215640
0.000000 0.289799 0.212619
0.000000 0.288762 0.207584
0.000000 0.287480 0.199924
0.000000 0.286107 0.192691
0.000000 0.291112 0.193668
0.000000 0.301488 0.195132
0.000000 0.314458 0.197055
0.110811 0.330785 0.199619
0.180880 0.350500 0.203128
0.248234 0.373571 0.207431
0.319890 0.399268 0.212985
0.416114 0.443793 0.215457
0.495094 0.470527 0.213870
0.558465 0.482918 0.219608
0.621210 0.492714 0.226444
0.683803 0.500145 0.236057
0.744015 0.504906 0.247776
0.799832 0.507073 0.262821
0.847684 0.507286 0.277745
0.882902 0.506737 0.288884
0.916045 0.506859 0.301488
0.946380 0.507012 0.314916
0.974090 0.507195 0.329442
0.999603 0.508568 0.344427
1.000000 0.510918 0.360723
1.000000 0.514916 0.378027
1.000000 0.520958 0.397406
1.000000 0.529442 0.418280
1.000000 0.540948 0.441077
0.000000 0.322972 0.229892
0.000000 0.322820 0.229587
0.000000 0.322148 0.228092
0.000000 0.321324 0.224704
0.000000 0.320134 0.219394
0.000000 0.318761 0.211856
0.000000 0.317266 0.201785
0.000000 0.316533 0.198367
0.000000 0.326818 0.200229
0.000000 0.339605 0.202914
0.000000 0.355718 0.205814
0.136965 0.375158 0.210208
0.215457 0.397742 0.215518
0.289464 0.422766 0.222416
0.366369 0.449165 0.230289
0.464729 0.491524 0.235538
0.551446 0.522515 0.235019
0.612543 0.532769 0.241489
0.673213 0.541161 0.250797
0.731350 0.546838 0.261601
0.786160 0.549920 0.275761
0.837675 0.551232 0.292638
0.885100 0.551537 0.311437
0.921813 0.550774 0.327123
0.950378 0.549767 0.340246
0.976623 0.549340 0.354162
1.000000 0.549676 0.368994
1.000000 0.551110 0.384314
1.000000 0.554314 0.401556
1.000000 0.559686 0.420325
1.000000 0.567315 0.440436
1.000000 0.577844 0.462989
0.000000 0.356115 0.244175
0.000000 0.355810 0.243717
0.000000 0.355016 0.241947
0.000000 0.353704 0.238224
0.000000 0.352026 0.232700
0.000000 0.349828 0.225071
0.000000 0.347570 0.214176
0.000000 0.345312 0.204135
0.000000 0.350622 0.205203
0.000000 0.363439 0.208255
0.000000 0.379309 0.211917
0.000000 0.398444 0.216922
0.171359 0.420508 0.223209
0.253483 0.444739 0.230808
0.332158 0.470405 0.239780
0.412512 0.496712 0.249790
0.509880 0.535882 0.258518
0.604028 0.571496 0.259586
0.664210 0.581598 0.267308
0.721004 0.587823 0.277989
0.774258 0.591760 0.291142
0.825040 0.593957 0.307347
0.872160 0.594903 0.325597
0.914885 0.594598 0.345617
0.952819 0.593652 0.367285
0.979126 0.592432 0.382208
1.000000 0.592248 0.396460
1.000000 0.593408 0.412268
1.000000 0.596307 0.429450
1.000000 0.601495 0.448554
1.000000 0.609247 0.469337
1.000000 0.619928 0.492348
0.000000 0.386328 0.257450
0.000000 0.386419 0.257420
0.000000 0.385870 0.255680
0.000000 0.384863 0.252293
0.000000 0.383246 0.246677
0.000000 0.381506 0.238865
0.000000 0.379797 0.229068
0.000000 0.377691 0.215213
0.000000 0.375860 0.211215
0.000000 0.388922 0.214755
0.000000 0.404456 0.218845
0.000000 0.422553 0.224491
0.093812 0.442847 0.230838
0.208865 0.465156 0.238590
0.292699 0.488838 0.247440
0.373114 0.513573 0.258000
0.454139 0.539055 0.269718
0.549493 0.575311 0.281376
0.646143 0.613062 0.286839
0.709133 0.625818 0.294652
0.762631 0.631067 0.307652
0.813230 0.634516 0.323613
0.860258 0.636591 0.341588
0.902983 0.637293 0.361608
0.941131 0.636927 0.383520
0.975036 0.636652 0.406500
1.000000 0.637110 0.429572
1.000000 0.637568 0.444984
1.000000 0.639765 0.461158
1.000000 0.643977 0.479255
1.000000 0.650416 0.498878
1.000000 0.659602 0.520623
0.000000 0.415259 0.270359
0.000000 0.415198 0.270268
0.000000 0.414771 0.268620
0.000000 0.413886 0.265446
0.000000 0.412634 0.260410
0.000000 0.410742 0.252750
0.000000 0.408759 0.242649
0.000000 0.406622 0.229923
0.000000 0.403784 0.218082
0.000000 0.409186 0.219913
0.000000 0.424414 0.224399
0.000000 0.442023 0.230045
0.000000 0.461799 0.237034
0.145144 0.483558 0.245090
0.247807 0.506584 0.254429
0.332738 0.530694 0.265446
0.413947 0.555413 0.277867
0.496864 0.581262 0.291814
0.590265 0.615534 0.306706
0.687221 0.654108 0.317662
0.752926 0.669734 0.325841
0.802670 0.674159 0.341070
0.849424 0.676661 0.359075
0.891630 0.677852 0.379034
0.929625 0.677974 0.400458
0.963470 0.678096 0.423468
0.993469 0.678737 0.447852
1.000000 0.680354 0.472908
1.000000 0.683253 0.495491
1.000000 0.686854 0.513024
1.000000 0.692775 0.532311
1.000000 0.701350 0.553887
0.000000 0.446052 0.285069
0.000000 0.446143 0.284611
0.000000 0.463813 0.291966
0.000000 0.462867 0.288853
0.000000 0.461372 0.283543
0.000000 0.459205 0.275944
0.000000 0.456611 0.265537
0.000000 0.453529 0.251835
0.000000 0.450202 0.234714
0.000000 0.446052 0.229770
0.000000 0.461891 0.235294
0.000000 0.479988 0.242344
0.000000 0.499641 0.250431
0.000000 0.520867 0.259800
0.206485 0.543206 0.270573
0.305272 0.566461 0.282841
0.391608 0.590204 0.296269
0.475044 0.614649 0.310643
0.557641 0.638972 0.327398
0.645930 0.668299 0.345312
0.739895 0.705806 0.362860
0.805661 0.722591 0.371466
0.848966 0.724025 0.388373
0.888457 0.723964 0.407202
0.923949 0.722713 0.426978
0.955840 0.721431 0.447639
0.984222 0.720577 0.469764
1.000000 0.720943 0.493111
1.000000 0.723354 0.518547
1.000000 0.728328 0.546044
1.000000 0.734401 0.568444
1.000000 0.741695 0.588678
0.000000 0.481636 0.301823
0.000000 0.483223 0.302373
0.000000 0.484596 0.301793
0.000000 0.485298 0.299321
0.000000 0.485115 0.294987
0.000000 0.483650 0.288334
0.000000 0.481209 0.278782
0.000000 0.478035 0.265934
0.000000 0.474586 0.250187
0.000000 0.470222 0.235996
0.000000 0.475349 0.238254
0.000000 0.492470 0.244907
0.000000 0.511589 0.252934
0.000000 0.531914 0.262333
0.108400 0.553735 0.273472
0.248569 0.576776 0.285710
0.342412 0.600519 0.299229
0.428595 0.625208 0.314611
0.512291 0.649958 0.331823
0.594202 0.674250 0.351019
0.677943 0.700801 0.372442
0.770840 0.739651 0.396429
0.837461 0.758846 0.406134
0.876646 0.759182 0.424445
0.911864 0.758206 0.443580
0.943511 0.756863 0.464210
0.971862 0.755734 0.485664
0.997162 0.755673 0.509026
1.000000 0.757412 0.534081
1.000000 0.761593 0.561608
1.000000 0.768307 0.590600
1.000000 0.777432 0.620447
0.000000 0.508049 0.313909
0.000000 0.509667 0.314458
0.000000 0.511254 0.314183
0.000000 0.512047 0.311894
0.000000 0.511955 0.307805
0.000000 0.510674 0.301671
0.000000 0.508202 0.292210
0.000000 0.505303 0.280735
0.000000 0.501640 0.265415
0.000000 0.497566 0.246311
0.000000 0.492012 0.241245
0.000000 0.507958 0.247868
0.000000 0.526482 0.255985
0.000000 0.546502 0.265629
0.000000 0.568048 0.276707
0.175296 0.590692 0.289189
0.291630 0.614252 0.303410
0.384253 0.638697 0.319036
0.469673 0.662898 0.336645
0.551690 0.686763 0.356146
0.631159 0.709743 0.377966
0.710323 0.733303 0.401862
0.797360 0.769345 0.429297
0.862425 0.789883 0.443366
0.900511 0.791623 0.461769
0.931975 0.790249 0.481788
0.960174 0.788968 0.502922
0.985382 0.788510 0.525963
1.000000 0.789761 0.551324
1.000000 0.792935 0.578271
1.000000 0.798306 0.606561
1.000000 0.805875 0.635737
0.000000 0.536248 0.326757
0.000000 0.537774 0.327092
0.000000 0.538933 0.326268
0.000000 0.539757 0.324498
0.000000 0.539696 0.320775
0.000000 0.538354 0.314824
0.000000 0.536004 0.305943
0.000000 0.533074 0.294957
0.000000 0.529564 0.280522
0.000000 0.525505 0.262760
0.000000 0.520500 0.247898
0.000000 0.524559 0.249851
0.000000 0.542596 0.258213
0.000000 0.562310 0.268009
0.000000 0.583551 0.279576
0.000000 0.606226 0.292454
0.231571 0.630457 0.307286
0.338872 0.655207 0.324010
0.430426 0.680079 0.343206
0.516320 0.704799 0.364721
0.598260 0.728786 0.388708
0.676905 0.751614 0.414649
0.750393 0.772457 0.442329
0.830259 0.804685 0.475410
0.890776 0.825071 0.496559
0.928588 0.830045 0.516106
0.955596 0.828946 0.538994
0.979614 0.828611 0.563012
1.000000 0.829618 0.588312
1.000000 0.832273 0.614771
1.000000 0.836790 0.642145
1.000000 0.843046 0.670314
0.000000 0.576562 0.344579
0.000000 0.577356 0.345006
0.000000 0.577417 0.343938
0.000000 0.577020 0.341436
0.000000 0.575769 0.337011
0.000000 0.573816 0.331121
0.000000 0.571038 0.322393
0.000000 0.568048 0.311803
0.000000 0.564538 0.298436
0.000000 0.560540 0.281041
0.000000 0.555932 0.259220
0.000000 0.549767 0.254246
0.000000 0.565667 0.261845
0.000000 0.585412 0.272282
0.000000 0.606592 0.284245
0.000000 0.629267 0.297673
0.145785 0.652552 0.313115
0.290898 0.676265 0.330694
0.391485 0.699550 0.350195
0.480568 0.722591 0.372107
0.562737 0.744717 0.395392
0.640742 0.765652 0.421149
0.713283 0.784848 0.448219
0.780240 0.802213 0.476509
0.851377 0.829160 0.511192
0.907408 0.849027 0.538018
0.945068 0.856779 0.558007
0.969116 0.856229 0.581659
0.990387 0.856748 0.606592
1.000000 0.858579 0.632502
1.000000 0.861906 0.659083
1.000000 0.866789 0.686061
0.000000 0.608026 0.357702
0.000000 0.608576 0.357916
0.000000 0.608759 0.357000
0.000000 0.608270 0.354437
0.000000 0.607324 0.350835
0.000000 0.605341 0.344549
0.000000 0.602930 0.336522
0.000000 0.600031 0.326665
0.000000 0.596582 0.313512
0.000000 0.592645 0.296971
0.000000 0.588342 0.277012
0.000000 0.582879 0.260838
0.000000 0.585840 0.262547
0.000000 0.605432 0.273381
0.000000 0.626703 0.285710
0.000000 0.649165 0.299779
0.000000 0.672084 0.316045
0.224979 0.695125 0.334356
0.346807 0.717952 0.355016
0.442878 0.740200 0.377356
0.528618 0.761593 0.401862
0.608240 0.781460 0.428382
0.681758 0.799741 0.456458
0.749142 0.816464 0.485695
0.804929 0.826780 0.508446
0.868589 0.849760 0.544823
0.920806 0.869566 0.576715
0.958282 0.879850 0.596796
0.979797 0.879881 0.621332
0.998688 0.881041 0.646723
1.000000 0.883665 0.673213
1.000000 0.887572 0.699611
0.000000 0.649470 0.374945
0.000000 0.650416 0.374914
0.000000 0.650629 0.374212
0.000000 0.649714 0.371649
0.000000 0.647883 0.367498
0.000000 0.645075 0.361151
0.000000 0.641688 0.353216
0.000000 0.637690 0.342809
0.000000 0.633204 0.329931
0.000000 0.628473 0.314092
0.000000 0.623133 0.294408
0.000000 0.617487 0.269780
0.000000 0.609857 0.263279
0.000000 0.625055 0.272190
0.000000 0.644678 0.284276
0.000000 0.665400 0.298466
0.000000 0.686793 0.314427
0.067048 0.708492 0.332799
0.283970 0.730312 0.353521
0.394446 0.752010 0.376471
0.486519 0.772885 0.401587
0.569238 0.792050 0.428412
0.644282 0.809415 0.456214
0.712612 0.824949 0.485206
0.774716 0.838895 0.514977
0.830381 0.851499 0.545495
0.886595 0.870634 0.581994
0.934051 0.889494 0.617304
0.970092 0.901305 0.637018
0.989227 0.901884 0.661250
1.000000 0.903502 0.686519
1.000000 0.906371 0.712123
0.000000 0.681331 0.386755
0.000000 0.682368 0.387121
0.000000 0.682795 0.386542
0.000000 0.682277 0.384283
0.000000 0.681056 0.380346
0.000000 0.679194 0.374640
0.000000 0.677119 0.367773
0.000000 0.674220 0.357946
0.000000 0.671168 0.346044
0.000000 0.667659 0.331060
0.000000 0.663416 0.312444
0.000000 0.658534 0.289067
0.000000 0.652399 0.270970
0.000000 0.653346 0.271855
0.000000 0.672572 0.285100
0.000000 0.692134 0.300114
0.000000 0.712215 0.317296
0.000000 0.732448 0.336584
0.212253 0.752895 0.358251
0.350683 0.773129 0.381903
0.452522 0.792294 0.407904
0.539727 0.810086 0.435584
0.617426 0.826261 0.464607
0.687770 0.840879 0.494759
0.751217 0.854002 0.525872
0.807858 0.865904 0.557824
0.857633 0.876860 0.589624
0.906310 0.892790 0.626246
0.948852 0.910948 0.665492
0.980224 0.921904 0.685939
0.999023 0.925200 0.708949
1.000000 0.927092 0.732753
0.000000 0.721859 0.402808
0.000000 0.722286 0.402747
0.000000 0.722286 0.402014
0.000000 0.721828 0.399878
0.000000 0.720638 0.396124
0.000000 0.718898 0.390845
0.000000 0.716762 0.383612
0.000000 0.714137 0.374304
0.000000 0.711238 0.362951
0.000000 0.707912 0.348455
0.000000 0.704036 0.330480
0.000000 0.699886 0.308263
0.000000 0.695003 0.280034
0.000000 0.687953 0.273228
0.000000 0.700923 0.283970
0.000000 0.719234 0.300114
0.000000 0.737911 0.318273
0.000000 0.756710 0.338598
0.000000 0.775784 0.361059
0.297307 0.794156 0.385840
0.414405 0.811582 0.412757
0.508263 0.827695 0.441047
0.589746 0.842374 0.470466
0.662318 0.855619 0.501305
0.726986 0.867491 0.532738
0.784695 0.878233 0.564965
0.835203 0.888151 0.596612
0.879423 0.897368 0.627771
0.921721 0.910613 0.663111
0.959594 0.927337 0.702174
0.987671 0.938262 0.724880
1.000000 0.943572 0.747005
0.000000 0.761379 0.418677
0.000000 0.761837 0.418738
0.000000 0.761990 0.417884
0.000000 0.761776 0.415991
0.000000 0.761257 0.412726
0.000000 0.760678 0.407782
0.000000 0.760494 0.401953
0.000000 0.760281 0.394385
0.000000 0.760220 0.384771
0.000000 0.760037 0.372168
0.000000 0.759670 0.356542
0.000000 0.758816 0.337041
0.000000 0.757137 0.311437
0.000000 0.753872 0.291936
0.000000 0.755062 0.292790
0.000000 0.771969 0.312291
0.000000 0.788357 0.333684
0.000000 0.804410 0.357153
0.000000 0.820005 0.382666
0.273167 0.834989 0.409888
0.406867 0.849119 0.438758
0.506981 0.862119 0.469093
0.590692 0.873808 0.500328
0.663905 0.884306 0.532677
0.728023 0.893706 0.565393
0.783719 0.902312 0.597406
0.832181 0.910277 0.628687
0.874266 0.917784 0.659144
0.910369 0.924956 0.688563
0.943999 0.935027 0.720089
0.974823 0.949065 0.755489
0.997894 0.959075 0.779019
0.000000 0.820218 0.447547
0.000000 0.820218 0.447578
0.000000 0.819852 0.446204
0.000000 0.819333 0.444221
0.000000 0.818540 0.440894
0.000000 0.817533 0.435981
0.000000 0.816464 0.429786
0.000000 0.815244 0.421393
0.000000 0.814084 0.411597
0.000000 0.812772 0.399145
0.000000 0.811337 0.383795
0.000000 0.809720 0.365026
0.000000 0.807736 0.341039
0.000000 0.805173 0.310399
