20 Preset/Travel Style/【3】LUT video cho PR-AE-FCPX/Green Moody - Lut (23).cube
# Created by Adobe Lightroom plugin Export LUT (1.24.0)
# www.johnrellis.com/lightroom/exportlut.htm
# Preset: 23自然风光-天空-素材江湖
# Color profile: E:\lut插件\exportlut.1.24\exportlut.lrplugin\color profiles\Rec709gamma2.4.icc
LUT_3D_SIZE 32
DOMAIN_MIN 0.0 0.0 0.0
DOMAIN_MAX 1.0 1.0 1.0
0.078523 0.125124 0.140078
0.078523 0.125124 0.140078
0.078523 0.125124 0.140078
0.091279 0.125002 0.140200
0.110842 0.124147 0.140536
0.130709 0.124666 0.140841
0.149447 0.126711 0.141146
0.168429 0.129244 0.141085
0.189029 0.131930 0.140902
0.211551 0.135256 0.140902
0.236728 0.139193 0.141024
0.265721 0.143343 0.141482
0.298528 0.148043 0.141634
0.335607 0.153292 0.141329
0.376043 0.158450 0.140841
0.419379 0.164034 0.139498
0.464363 0.169802 0.137514
0.511223 0.175479 0.135561
0.559258 0.180575 0.132692
0.608240 0.185458 0.128939
0.656092 0.190677 0.124422
0.710079 0.196292 0.117891
0.764828 0.201633 0.110048
0.815030 0.207340 0.101656
0.860990 0.213443 0.091646
0.903075 0.219120 0.076783
0.941802 0.225132 0.053529
0.978210 0.231510 0.031983
1.000000 0.238590 0.011688
1.000000 0.246494 0.000000
1.000000 0.253971 0.000000
1.000000 0.262150 0.000000
0.078523 0.125124 0.140078
0.078523 0.125124 0.140078
0.078523 0.125124 0.140078
0.092287 0.124666 0.140230
0.111177 0.124392 0.140505
0.129702 0.125887 0.140475
0.148318 0.127657 0.141054
0.167330 0.129946 0.140810
0.187472 0.132692 0.141085
0.209476 0.136385 0.140810
0.234714 0.139895 0.141024
0.263249 0.144015 0.141268
0.295628 0.148684 0.141695
0.331914 0.153933 0.141482
0.372381 0.159060 0.141024
0.415290 0.164462 0.139773
0.460517 0.170138 0.138094
0.507164 0.175998 0.135958
0.554742 0.181430 0.132906
0.603479 0.186252 0.129305
0.650904 0.191409 0.124727
0.704555 0.196628 0.118532
0.758053 0.202121 0.111208
0.807309 0.207675 0.102846
0.853269 0.212802 0.093721
0.894957 0.219242 0.080201
0.934508 0.224826 0.057130
0.971283 0.231266 0.033295
1.000000 0.238529 0.010224
1.000000 0.245823 0.000000
1.000000 0.253086 0.000000
1.000000 0.261387 0.000000
0.075624 0.126253 0.140169
0.074922 0.126528 0.140139
0.079408 0.126650 0.140108
0.093690 0.127474 0.140139
0.110414 0.128908 0.140444
0.128847 0.130587 0.140627
0.146517 0.132448 0.140963
0.165225 0.134463 0.140993
0.185367 0.136934 0.140597
0.207523 0.140017 0.140871
0.232242 0.143587 0.141299
0.260472 0.147738 0.141543
0.292149 0.152346 0.142031
0.328252 0.157412 0.142061
0.368048 0.162844 0.141390
0.410407 0.168551 0.139956
0.455116 0.174411 0.138369
0.502068 0.179599 0.136355
0.549981 0.185183 0.133272
0.597925 0.190585 0.129488
0.646113 0.195499 0.125185
0.700496 0.200656 0.119203
0.752682 0.206699 0.111269
0.801907 0.211765 0.103212
0.847257 0.217319 0.093507
0.889464 0.222751 0.080415
0.928862 0.228733 0.055146
0.966400 0.234501 0.032471
1.000000 0.240940 0.011048
1.000000 0.248478 0.000000
1.000000 0.255985 0.000000
1.000000 0.263645 0.000000
0.055787 0.137423 0.139773
0.059052 0.137575 0.139742
0.072816 0.137942 0.139651
0.092470 0.138338 0.140139
0.109255 0.138735 0.140352
0.126497 0.139254 0.140475
0.144106 0.140536 0.140658
0.162356 0.142275 0.140688
0.182376 0.144442 0.140810
0.204074 0.147250 0.141329
0.228458 0.150759 0.142000
0.256626 0.154543 0.142306
0.287694 0.159426 0.142519
0.322698 0.164706 0.142580
0.361700 0.170169 0.141512
0.403143 0.176028 0.140627
0.447700 0.181521 0.139132
0.493538 0.187381 0.136721
0.540612 0.193088 0.134066
0.588190 0.198398 0.130220
0.635706 0.203708 0.125307
0.690822 0.209110 0.119265
0.742336 0.214450 0.111910
0.791135 0.219699 0.103883
0.837858 0.224796 0.094453
0.881529 0.230289 0.080507
0.922576 0.236088 0.054749
0.961151 0.241947 0.029511
0.997528 0.248539 0.006500
1.000000 0.255528 0.000000
1.000000 0.262211 0.000000
1.000000 0.269841 0.000000
0.044678 0.153048 0.139437
0.047211 0.153384 0.139376
0.065370 0.153414 0.139528
0.088716 0.153597 0.139590
0.105715 0.153384 0.139895
0.123354 0.153048 0.140139
0.140352 0.152468 0.140841
0.157839 0.152377 0.141390
0.177401 0.154269 0.142000
0.198978 0.156802 0.142550
0.222965 0.160037 0.143008
0.249943 0.164157 0.143282
0.280339 0.169009 0.143526
0.315068 0.174258 0.143404
0.353277 0.179873 0.142824
0.394385 0.186130 0.141451
0.437995 0.192294 0.140169
0.483528 0.198337 0.137118
0.530785 0.204074 0.134249
0.578637 0.209537 0.130434
0.628016 0.215030 0.125734
0.682673 0.220981 0.119448
0.733577 0.226413 0.112306
0.782284 0.231479 0.103456
0.829191 0.236790 0.093538
0.873716 0.242039 0.078523
0.915343 0.247623 0.050080
0.954406 0.253361 0.022095
0.991577 0.259129 0.000000
1.000000 0.265629 0.000000
1.000000 0.272282 0.000000
1.000000 0.278874 0.000000
0.029786 0.170748 0.140902
0.032044 0.171054 0.141054
0.048219 0.171115 0.141207
0.078401 0.171267 0.141512
0.100496 0.170871 0.141848
0.119722 0.170047 0.142184
0.137453 0.168490 0.142824
0.155276 0.167727 0.143038
0.173312 0.167483 0.143771
0.193118 0.168307 0.144411
0.216526 0.171817 0.144839
0.243290 0.175937 0.145083
0.273289 0.180667 0.145113
0.307042 0.186252 0.144503
0.344427 0.192355 0.143862
0.384833 0.198764 0.142519
0.428138 0.205478 0.140719
0.473457 0.211795 0.137881
0.520195 0.217838 0.135073
0.568200 0.223514 0.130983
0.621210 0.230076 0.125643
0.674586 0.236515 0.118868
0.760494 0.248722 0.104280
0.810910 0.254429 0.094484
0.857694 0.259892 0.079561
0.900908 0.264897 0.050019
0.940520 0.270207 0.024537
0.977661 0.275212 0.002014
1.000000 0.280766 0.000000
1.000000 0.286595 0.000000
1.000000 0.292424 0.000000
1.000000 0.298253 0.000000
0.001984 0.194217 0.144564
0.006256 0.194156 0.144350
0.020996 0.194522 0.144442
0.056580 0.194705 0.144686
0.093782 0.193942 0.145083
0.115724 0.192721 0.145296
0.136202 0.190982 0.145968
0.155093 0.188174 0.145907
0.174594 0.187259 0.146090
0.194369 0.186862 0.146700
0.214755 0.187167 0.146883
0.240177 0.190188 0.146883
0.270420 0.195499 0.146700
0.303746 0.201511 0.146151
0.340612 0.207889 0.144991
0.380713 0.214511 0.143496
0.422950 0.221530 0.140932
0.468147 0.227909 0.138460
0.514275 0.234653 0.134737
0.565332 0.241764 0.130159
0.623011 0.249912 0.123140
0.679438 0.257389 0.115297
0.734035 0.263981 0.106416
0.786252 0.270603 0.095186
0.836545 0.276127 0.078462
0.882292 0.281743 0.045045
0.924468 0.286381 0.018067
0.962676 0.291478 0.000000
0.999145 0.296666 0.000000
1.000000 0.301549 0.000000
1.000000 0.307103 0.000000
1.000000 0.312566 0.000000
0.000000 0.218601 0.147341
0.000000 0.218509 0.147127
0.000000 0.218784 0.147219
0.022827 0.219089 0.147860
0.079011 0.219120 0.148074
0.108675 0.217319 0.148226
0.132387 0.214878 0.148440
0.153933 0.212100 0.148653
0.172946 0.208408 0.148623
0.193179 0.207309 0.148562
0.214603 0.207034 0.148806
0.236454 0.207279 0.148836
0.258762 0.207767 0.148898
0.290074 0.213596 0.147860
0.325872 0.220371 0.146883
0.364019 0.227298 0.145083
0.405066 0.234531 0.142672
0.448524 0.241825 0.139345
0.495491 0.249241 0.135470
0.549493 0.258183 0.130007
0.604303 0.266453 0.123262
0.658350 0.274266 0.115450
0.712093 0.281376 0.105867
0.764889 0.287938 0.094789
0.815396 0.294011 0.075135
0.862821 0.299657 0.040406
0.906096 0.304814 0.007446
0.946685 0.309514 0.000000
0.984619 0.314366 0.000000
1.000000 0.319493 0.000000
1.000000 0.324193 0.000000
1.000000 0.329107 0.000000
0.000000 0.247868 0.150393
0.000000 0.247837 0.150393
0.000000 0.248173 0.150240
0.000000 0.248508 0.150637
0.034516 0.249088 0.151095
0.097566 0.247471 0.151431
0.127596 0.244266 0.151095
0.152743 0.240848 0.151339
0.174655 0.236698 0.151308
0.194003 0.231785 0.151431
0.214817 0.229618 0.150515
0.237552 0.229831 0.150301
0.260838 0.229770 0.149599
0.284031 0.229984 0.149111
0.309667 0.231449 0.148074
0.346410 0.238895 0.146273
0.385992 0.246616 0.143923
0.429908 0.254948 0.140383
0.478859 0.264347 0.136019
0.530022 0.273564 0.130404
0.582238 0.282292 0.123568
0.635645 0.290440 0.115694
0.688899 0.298161 0.105623
0.741360 0.305486 0.093751
0.792630 0.312169 0.071321
0.841886 0.317815 0.033417
0.886931 0.323522 0.000000
0.929290 0.328527 0.000000
0.969207 0.333318 0.000000
1.000000 0.338262 0.000000
1.000000 0.343114 0.000000
1.000000 0.347784 0.000000
0.000000 0.283146 0.151705
0.000000 0.283207 0.151675
0.000000 0.283085 0.151644
0.000000 0.283482 0.151766
0.000000 0.283909 0.152407
0.069093 0.283665 0.152560
0.119417 0.279637 0.152560
0.150454 0.275395 0.152377
0.176608 0.270298 0.152560
0.198978 0.264500 0.152499
0.218173 0.257694 0.152224
0.238499 0.253696 0.151247
0.262364 0.253666 0.149874
0.286320 0.253544 0.148806
0.310338 0.253330 0.148287
0.333715 0.252934 0.147036
0.367224 0.257908 0.144839
0.411322 0.267674 0.141146
0.458228 0.277470 0.136690
0.506737 0.287083 0.130465
0.557275 0.296300 0.124178
0.608789 0.304967 0.116213
0.661036 0.313085 0.106294
0.712703 0.320836 0.093874
0.763363 0.327825 0.070100
0.813016 0.334386 0.028199
0.860716 0.340551 0.000000
0.906004 0.346105 0.000000
0.948577 0.351629 0.000000
0.989136 0.356847 0.000000
1.000000 0.362219 0.000000
1.000000 0.367102 0.000000
0.000000 0.323369 0.150454
0.000000 0.323552 0.150790
0.000000 0.323583 0.150668
0.000000 0.324010 0.150546
0.000000 0.324620 0.150607
0.000000 0.325597 0.150881
0.104311 0.322881 0.150973
0.145937 0.317632 0.150973
0.178042 0.311650 0.150881
0.205142 0.304387 0.151369
0.227726 0.296452 0.151186
0.246555 0.287449 0.151308
0.264805 0.280186 0.149630
0.289921 0.280003 0.148104
0.316411 0.280552 0.146487
0.342260 0.280735 0.144869
0.367651 0.280217 0.143496
0.392279 0.279454 0.141665
0.431678 0.286809 0.137789
0.478218 0.296910 0.132174
0.527428 0.306828 0.125704
0.577447 0.316136 0.117372
0.628565 0.325597 0.106935
0.681331 0.334325 0.094209
0.733669 0.342473 0.066560
0.784482 0.349981 0.021881
0.834623 0.357275 0.000000
0.882719 0.363806 0.000000
0.927916 0.370031 0.000000
0.970916 0.375982 0.000000
1.000000 0.381872 0.000000
1.000000 0.387182 0.000000
0.000000 0.371466 0.145235
0.000000 0.371405 0.144991
0.000000 0.371649 0.145418
0.000000 0.372076 0.145235
0.000000 0.372717 0.145632
0.000000 0.373754 0.145480
0.049592 0.374212 0.145449
0.137148 0.368170 0.145663
0.178836 0.360967 0.145693
0.212070 0.352575 0.146304
0.239292 0.343053 0.146426
0.263127 0.334356 0.146670
0.294255 0.334936 0.144930
0.310460 0.322637 0.143374
0.338354 0.321965 0.140810
0.365118 0.320500 0.138613
0.390478 0.318547 0.136751
0.415167 0.316136 0.134890
0.438575 0.313451 0.133059
0.461860 0.310735 0.131014
0.511070 0.322087 0.123445
0.561639 0.332860 0.113893
0.614527 0.343511 0.102327
0.668055 0.353491 0.085420
0.720821 0.362768 0.041962
0.773129 0.371435 0.000000
0.824369 0.379400 0.000000
0.873198 0.386786 0.000000
0.919524 0.393347 0.000000
0.963561 0.399573 0.000000
1.000000 0.405585 0.000000
1.000000 0.411139 0.000000
0.000000 0.432990 0.133181
0.000000 0.432959 0.133425
0.000000 0.432807 0.133639
0.000000 0.432715 0.133608
0.000000 0.432837 0.133516
0.000000 0.433173 0.134066
0.000000 0.434028 0.133730
0.123201 0.431739 0.133394
0.181704 0.425544 0.133608
0.224796 0.418067 0.133486
0.260777 0.409735 0.133700
0.290593 0.399512 0.133974
0.315068 0.387549 0.134676
0.333471 0.373114 0.135775
0.343450 0.354345 0.135836
0.370611 0.352026 0.133272
0.396185 0.348882 0.130739
0.420081 0.345220 0.128878
0.443091 0.341314 0.127199
0.465034 0.337316 0.125246
0.486549 0.333288 0.123049
0.515984 0.334020 0.118410
0.567773 0.346166 0.106905
0.621698 0.358068 0.091615
0.676295 0.369268 0.052186
0.731228 0.379767 0.000000
0.784726 0.389715 0.000000
0.838132 0.399115 0.000000
0.889097 0.407752 0.000000
0.937530 0.415686 0.000000
0.983429 0.423346 0.000000
1.000000 0.430182 0.000000
0.000000 0.496315 0.114534
0.000000 0.496101 0.114382
0.000000 0.495735 0.114534
0.000000 0.495735 0.114687
0.000000 0.496010 0.114229
0.000000 0.496681 0.114321
0.000000 0.497749 0.113863
0.095949 0.498604 0.113527
0.178958 0.490639 0.114015
0.231693 0.481636 0.114565
0.273075 0.471656 0.115663
0.307897 0.460060 0.116487
0.336370 0.446204 0.117830
0.358373 0.430304 0.120058
0.373541 0.411627 0.123293
0.379065 0.388067 0.125368
0.400763 0.380468 0.123110
0.425025 0.375769 0.120546
0.447761 0.370672 0.118654
0.469429 0.365667 0.116548
0.490669 0.360815 0.114961
0.511925 0.356420 0.111879
0.533135 0.352239 0.108583
0.573266 0.358404 0.097780
0.628779 0.371771 0.065614
0.685878 0.384710 0.007111
0.742672 0.396918 0.000000
0.799527 0.408637 0.000000
0.855039 0.419715 0.000000
0.908415 0.429969 0.000000
0.958831 0.439643 0.000000
1.000000 0.448341 0.000000
0.000000 0.560021 0.080171
0.000000 0.559960 0.081575
0.000000 0.559442 0.081056
0.000000 0.558923 0.081239
0.000000 0.558343 0.080781
0.000000 0.557977 0.083162
0.000000 0.558282 0.082551
0.000000 0.559411 0.080629
0.172854 0.554986 0.081178
0.235355 0.545342 0.083131
0.283757 0.534295 0.084779
0.323217 0.522118 0.087068
0.355840 0.507744 0.089479
0.381720 0.490913 0.093477
0.400977 0.470985 0.098665
0.412787 0.448402 0.104738
0.414527 0.420874 0.110597
0.429572 0.407507 0.109987
0.452918 0.401648 0.107179
0.474525 0.395697 0.104952
0.495766 0.389929 0.102937
0.516930 0.384588 0.100130
0.538018 0.379889 0.095918
0.559930 0.375708 0.090394
0.582452 0.372107 0.080629
0.635218 0.384527 0.025238
0.695064 0.399603 0.000000
0.755489 0.414160 0.000000
0.817044 0.428595 0.000000
0.876432 0.442084 0.000000
0.933410 0.454658 0.000000
0.987060 0.466224 0.000000
0.000000 0.617151 0.000000
0.000000 0.617273 0.000000
0.000000 0.617090 0.000000
0.000000 0.616876 0.000000
0.000000 0.616754 0.000000
0.000000 0.616876 0.000000
0.000000 0.617517 0.000092
0.000000 0.618860 0.000000
0.168093 0.619562 0.000000
0.240024 0.610315 0.000000
0.294102 0.598657 0.000000
0.337713 0.585412 0.000000
0.373846 0.570001 0.000000
0.402899 0.552209 0.007385
0.425238 0.531365 0.021180
0.440955 0.508080 0.044648
0.449531 0.482368 0.069917
0.448432 0.452308 0.089235
0.456489 0.432807 0.093080
0.478645 0.426123 0.089631
0.500572 0.419867 0.084962
0.522026 0.413977 0.078523
0.543633 0.408789 0.068605
0.565698 0.403998 0.051392
0.588708 0.400244 0.031678
0.613092 0.397314 0.007599
0.642847 0.397375 0.000000
0.707485 0.415534 0.000000
0.773617 0.433295 0.000000
0.839536 0.450629 0.000000
0.902403 0.466407 0.000000
0.961944 0.480964 0.000000
0.000000 0.668360 0.000000
0.000000 0.668330 0.000000
0.000000 0.668238 0.000000
0.000000 0.668086 0.000000
0.000000 0.667994 0.000000
0.000000 0.668147 0.000000
0.000000 0.668482 0.000000
0.000000 0.669306 0.000000
0.155215 0.670497 0.000000
0.240543 0.665919 0.000000
0.298772 0.655085 0.000000
0.346563 0.642329 0.000000
0.386328 0.627955 0.000000
0.419623 0.610834 0.000000
0.446357 0.591119 0.000000
0.466438 0.568597 0.000000
0.479774 0.543481 0.000000
0.486366 0.516014 0.000000
0.483284 0.483986 0.023804
0.483375 0.458106 0.044617
0.505699 0.451026 0.035187
0.527733 0.444678 0.022309
0.549615 0.438819 0.008759
0.571954 0.433692 0.000000
0.595239 0.429541 0.000000
0.619837 0.426368 0.000000
0.646937 0.424475 0.000000
0.676661 0.424079 0.000000
0.723995 0.432837 0.000000
0.796567 0.454566 0.000000
0.867857 0.475288 0.000000
0.934508 0.493965 0.000000
0.000000 0.716823 0.000000
0.000000 0.717067 0.000000
0.000000 0.734066 0.000000
0.000000 0.733944 0.000000
0.000000 0.733822 0.000000
0.000000 0.733608 0.000000
0.000000 0.733364 0.000000
0.000000 0.733455 0.000000
0.169192 0.733791 0.000000
0.260044 0.734157 0.000000
0.318822 0.723995 0.000000
0.368200 0.711940 0.000000
0.410285 0.697566 0.000000
0.446204 0.680659 0.000000
0.475990 0.661189 0.000000
0.499886 0.639277 0.000000
0.517205 0.614099 0.000000
0.528099 0.586572 0.000000
0.531731 0.556298 0.000000
0.525902 0.521599 0.000000
0.516930 0.487922 0.000000
0.538964 0.480293 0.000000
0.561120 0.473579 0.000000
0.583307 0.467689 0.000000
0.606317 0.462470 0.000000
0.630793 0.458564 0.000000
0.657221 0.455909 0.000000
0.686702 0.455116 0.000000
0.720333 0.456458 0.000000
0.759426 0.460426 0.000000
0.826291 0.479316 0.000000
0.902525 0.503380 0.000000
0.000000 0.764248 0.000000
0.000000 0.765621 0.000000
0.000000 0.766995 0.000000
0.000000 0.768246 0.001251
0.000000 0.769070 0.012177
0.000000 0.769192 0.012604
0.000000 0.769253 0.019654
0.000000 0.768856 0.022644
0.161501 0.768887 0.035401
0.255772 0.769039 0.050141
0.320195 0.764614 0.033387
0.370214 0.754177 0.000000
0.414008 0.741726 0.000000
0.452338 0.727260 0.000000
0.485451 0.710323 0.000000
0.513268 0.690730 0.000000
0.535454 0.668452 0.000000
0.551873 0.643671 0.000000
0.562158 0.616358 0.000000
0.565667 0.586297 0.000000
0.560327 0.552178 0.000000
0.543725 0.512474 0.000000
0.566339 0.505241 0.000000
0.589197 0.498878 0.000000
0.612909 0.493538 0.000000
0.637476 0.489265 0.000000
0.664149 0.486397 0.000000
0.693996 0.485512 0.000000
0.728176 0.487098 0.000000
0.767697 0.491554 0.000000
0.813657 0.499062 0.000000
0.865080 0.509148 0.000000
0.000000 0.798611 0.092287
0.000000 0.799954 0.093324
0.000000 0.801297 0.098299
0.000000 0.802426 0.099641
0.000000 0.803220 0.105898
0.000000 0.803342 0.106752
0.000000 0.803189 0.108644
0.000000 0.802914 0.110658
0.167330 0.802670 0.115389
0.257969 0.802518 0.120455
0.326116 0.802426 0.124178
0.375128 0.793698 0.102846
0.418860 0.783108 0.042390
0.458564 0.770718 0.000000
0.493629 0.756558 0.000000
0.524834 0.739986 0.000000
0.551232 0.720882 0.000000
0.572412 0.699001 0.000000
0.588006 0.674434 0.000000
0.597711 0.647211 0.000000
0.600946 0.617182 0.000000
0.596307 0.583612 0.000000
0.578515 0.542840 0.000000
0.595483 0.531151 0.000000
0.619318 0.525414 0.000000
0.644831 0.520897 0.000000
0.671748 0.517998 0.000000
0.702113 0.517113 0.000000
0.736751 0.519036 0.000000
0.776944 0.523980 0.000000
0.823056 0.531945 0.000000
0.874296 0.542687 0.000000
0.000000 0.830655 0.142184
0.000000 0.831754 0.144839
0.000000 0.832761 0.146181
0.000000 0.833677 0.149172
0.000000 0.834226 0.151522
0.000000 0.834318 0.154482
0.000000 0.834134 0.155886
0.000000 0.833768 0.157290
0.184482 0.833463 0.161318
0.266300 0.833127 0.163149
0.330510 0.832914 0.167514
0.382788 0.829221 0.162387
0.425147 0.820279 0.139498
0.464607 0.809659 0.105440
0.500359 0.797879 0.026856
0.533349 0.784146 0.000000
0.563195 0.768399 0.000000
0.589044 0.750790 0.000000
0.610712 0.730739 0.000000
0.627466 0.707881 0.000000
0.638239 0.682246 0.000000
0.642237 0.652979 0.000000
0.638758 0.620264 0.000000
0.621851 0.579614 0.000000
0.633448 0.563348 0.000000
0.660273 0.559258 0.000000
0.689418 0.556970 0.000000
0.721798 0.557092 0.000000
0.758724 0.560052 0.000000
0.800961 0.566125 0.000000
0.848234 0.575036 0.000000
0.900023 0.586542 0.000000
0.000000 0.865354 0.200748
0.000000 0.865721 0.202548
0.000000 0.865934 0.203403
0.000000 0.865995 0.204105
0.000000 0.865843 0.204807
0.000000 0.865476 0.206332
0.000000 0.865019 0.206912
0.115602 0.864561 0.208011
0.216861 0.864103 0.210697
0.285496 0.863706 0.213382
0.344152 0.863310 0.216739
0.397436 0.862852 0.221134
0.437537 0.856077 0.203281
0.474922 0.847623 0.180972
0.510277 0.837827 0.152316
0.543877 0.826291 0.110567
0.574578 0.813260 0.000000
0.602777 0.798184 0.000000
0.627893 0.781094 0.000000
0.648981 0.761929 0.000000
0.665553 0.740017 0.000000
0.676631 0.714992 0.000000
0.680903 0.686213 0.000000
0.676997 0.653193 0.000000
0.661646 0.613458 0.000000
0.667414 0.592676 0.000000
0.697536 0.590692 0.000000
0.731014 0.591302 0.000000
0.769131 0.594873 0.000000
0.811643 0.601343 0.000000
0.858671 0.610620 0.000000
0.910094 0.622461 0.000000
0.000000 0.889860 0.245335
0.000000 0.890166 0.245792
0.000000 0.890349 0.247044
0.000000 0.890349 0.247837
0.000000 0.890257 0.248875
0.000000 0.889952 0.249729
0.029419 0.889525 0.249973
0.180697 0.889067 0.251194
0.248569 0.888640 0.253300
0.306401 0.888151 0.256413
0.358251 0.887663 0.259525
0.406867 0.887175 0.262608
0.449317 0.884337 0.258366
0.483833 0.877531 0.238346
0.517632 0.869596 0.214755
0.550317 0.860624 0.186984
0.581689 0.850126 0.149355
0.611322 0.838254 0.091310
0.638911 0.824521 0.000000
0.663691 0.808774 0.000000
0.684962 0.791012 0.000000
0.702296 0.770626 0.000000
0.714626 0.747280 0.000000
0.720851 0.720577 0.000000
0.714626 0.685573 0.000000
0.702174 0.648035 0.000000
0.703914 0.623713 0.000000
0.738338 0.624750 0.000000
0.776761 0.628748 0.000000
0.819730 0.635615 0.000000
0.867155 0.645441 0.000000
0.918578 0.657862 0.000000
0.000000 0.914183 0.296147
0.000000 0.914580 0.297032
0.000000 0.914702 0.297978
0.000000 0.914519 0.298497
0.000000 0.914122 0.297917
0.124636 0.913512 0.297704
0.187076 0.912749 0.297704
0.239048 0.911894 0.297887
0.286931 0.911009 0.298528
0.332525 0.910185 0.299168
0.376287 0.909270 0.301213
0.419623 0.908385 0.303502
0.462043 0.907378 0.306310
0.493690 0.902159 0.290257
0.523919 0.895506 0.268833
0.554284 0.887785 0.243442
0.584436 0.879026 0.212741
0.613855 0.869200 0.175570
0.642298 0.858244 0.124544
0.669184 0.846036 0.000000
0.694179 0.831968 0.000000
0.716030 0.815885 0.000000
0.734157 0.796994 0.000000
0.747341 0.775235 0.000000
0.754818 0.749874 0.000000
0.755367 0.720424 0.000000
0.747555 0.686366 0.000000
0.746761 0.659754 0.000000
0.785275 0.663539 0.000000
0.828061 0.670619 0.000000
0.875364 0.680598 0.000000
0.926268 0.693080 0.000000
0.104463 0.931853 0.334203
0.114778 0.932128 0.335363
0.131228 0.932280 0.336553
0.155856 0.932219 0.336919
0.185275 0.932006 0.336797
0.217929 0.931670 0.337377
0.252201 0.931243 0.338262
0.289189 0.930785 0.338933
0.326116 0.930266 0.340337
0.363775 0.929686 0.342351
0.401648 0.929076 0.344915
0.439673 0.928344 0.347509
0.477577 0.927459 0.350011
0.511254 0.925200 0.346380
0.537285 0.919860 0.327031
0.564416 0.913695 0.304173
0.592035 0.906767 0.278538
0.619837 0.898985 0.248264
0.647822 0.890257 0.212192
0.675349 0.880583 0.165743
0.701808 0.869657 0.088106
0.726894 0.857328 0.000000
0.749599 0.843046 0.000000
0.769406 0.826688 0.000000
0.785122 0.807431 0.000000
0.795804 0.785061 0.000000
0.800595 0.759060 0.000000
0.799557 0.729946 0.000000
0.800717 0.704189 0.000000
0.844175 0.711604 0.000000
0.891447 0.721981 0.000000
0.940734 0.733333 0.000000
0.237888 0.949248 0.378180
0.240574 0.949401 0.378698
0.245457 0.949401 0.378943
0.256016 0.949279 0.378973
0.270817 0.949035 0.379217
0.289708 0.948699 0.379828
0.312688 0.948272 0.379980
0.338567 0.947784 0.380896
0.366857 0.947265 0.382483
0.397650 0.946654 0.383734
0.429419 0.946014 0.385809
0.462074 0.945312 0.387945
0.495491 0.944488 0.390967
0.529076 0.943572 0.393591
0.553124 0.939879 0.379644
0.576135 0.935088 0.359350
0.600519 0.929625 0.336858
0.625879 0.923491 0.310979
0.652033 0.916686 0.280491
0.678645 0.909148 0.245426
0.705318 0.900755 0.202335
0.731441 0.891264 0.139467
0.756619 0.880369 0.000000
0.780301 0.867918 0.000000
0.801572 0.853727 0.000000
0.819852 0.837278 0.000000
0.834318 0.818326 0.000000
0.843778 0.796292 0.000000
0.849241 0.772152 0.000000
0.859190 0.752865 0.000000
0.901061 0.759060 0.000000
0.949126 0.769741 0.000000
0.314397 0.963958 0.418250
0.315709 0.964050 0.418799
0.319921 0.964080 0.419165
0.327062 0.963989 0.419593
0.337682 0.963897 0.420417
0.351598 0.963806 0.421363
0.370214 0.963714 0.423499
0.392004 0.963622 0.426032
0.416541 0.963561 0.429633
0.443244 0.963470 0.432959
0.471229 0.963348 0.437385
0.500175 0.963104 0.441566
0.529870 0.962707 0.446265
0.559686 0.962127 0.450568
0.585840 0.960784 0.448859
0.604028 0.957366 0.431525
0.623499 0.953491 0.411902
0.644617 0.949035 0.389319
0.667201 0.944152 0.364416
0.691127 0.938628 0.335241
0.715938 0.932616 0.302220
0.741390 0.925780 0.261570
0.767117 0.917967 0.209873
0.792660 0.909178 0.131441
0.817502 0.899168 0.000000
0.841276 0.887816 0.000000
0.863218 0.874998 0.000000
0.882841 0.860380 0.000000
0.899199 0.843931 0.000000
0.913359 0.826230 0.000000
0.932891 0.813809 0.000000
0.971862 0.817411 0.000000
0.402930 0.979858 0.474403
0.403723 0.979858 0.474678
0.405707 0.979797 0.474800
0.409674 0.979675 0.474586
0.416327 0.979461 0.474769
0.425605 0.979187 0.475410
0.437720 0.978912 0.475898
0.452461 0.978576 0.477028
0.469764 0.978210 0.478370
0.489418 0.977783 0.480446
0.510979 0.977325 0.482856
0.533806 0.976806 0.485786
0.558251 0.976196 0.488533
0.583154 0.975494 0.491646
