20 Preset/Car Style/【1】LRtemplate Lightroom bản cũ/Tone (26).lrtemplate
s = {
	id = "BDC06074-08C3-45A7-A10E-98223D45367A",
	internalName = "01汽车质感（素材江湖）",
	title = "01汽车质感（素材江湖）",
	type = "Develop",
	value = {
		settings = {
			AutoLateralCA = 0,
			Blacks2012 = 63,
			BlueHue = 0,
			BlueSaturation = 0,
			CameraProfile = "Adobe Standard",
			ChromaticAberrationB = 0,
			ChromaticAberrationR = 0,
			Clarity2012 = -10,
			ColorNoiseReduction = 25,
			ColorNoiseReductionDetail = 50,
			ColorNoiseReductionSmoothness = 50,
			Contrast2012 = 0,
			ConvertToGrayscale = false,
			CropConstrainToWarp = 0,
			Defringe = 0,
			DefringeGreenAmount = 0,
			DefringeGreenHueHi = 60,
			DefringeGreenHueLo = 40,
			DefringePurpleAmount = 0,
			DefringePurpleHueHi = 70,
			DefringePurpleHueLo = 30,
			Dehaze = 0,
			EnableCalibration = true,
			EnableColorAdjustments = true,
			EnableDetail = true,
			EnableEffects = true,
			EnableLensCorrections = true,
			EnableSplitToning = true,
			Exposure2012 = 0,
			GrainAmount = 0,
			GrainFrequency = 50,
			GrainSize = 25,
			GreenHue = 0,
			GreenSaturation = 0,
			Highlights2012 = -59,
			HueAdjustmentAqua = 54,
			HueAdjustmentBlue = 0,
			HueAdjustmentGreen = 84,
			HueAdjustmentMagenta = 30,
			HueAdjustmentOrange = 4,
			HueAdjustmentPurple = 20,
			HueAdjustmentRed = 5,
			HueAdjustmentYellow = 62,
			LensManualDistortionAmount = 0,
			LuminanceAdjustmentAqua = 0,
			LuminanceAdjustmentBlue = 0,
			LuminanceAdjustmentGreen = -15,
			LuminanceAdjustmentMagenta = 0,
			LuminanceAdjustmentOrange = 0,
			LuminanceAdjustmentPurple = -15,
			LuminanceAdjustmentRed = 5,
			LuminanceAdjustmentYellow = 10,
			LuminanceNoiseReductionContrast = 0,
			LuminanceNoiseReductionDetail = 50,
			LuminanceSmoothing = 15,
			ParametricDarks = 0,
			ParametricHighlightSplit = 75,
			ParametricHighlights = 0,
			ParametricLights = 0,
			ParametricMidtoneSplit = 48,
			ParametricShadowSplit = 20,
			ParametricShadows = 0,
			PostCropVignetteAmount = -33,
			PostCropVignetteFeather = 75,
			PostCropVignetteHighlightContrast = 0,
			PostCropVignetteMidpoint = 35,
			PostCropVignetteRoundness = 69,
			PostCropVignetteStyle = 1,
			ProcessVersion = "10.0",
			RedHue = 0,
			RedSaturation = 0,
			Saturation = -6,
			SaturationAdjustmentAqua = -73,
			SaturationAdjustmentBlue = -24,
			SaturationAdjustmentGreen = -83,
			SaturationAdjustmentMagenta = -45,
			SaturationAdjustmentOrange = -28,
			SaturationAdjustmentPurple = -45,
			SaturationAdjustmentRed = -20,
			SaturationAdjustmentYellow = -58,
			ShadowTint = 0,
			Shadows2012 = 51,
			SharpenDetail = 25,
			SharpenEdgeMasking = 0,
			SharpenRadius = 1.8,
			Sharpness = 41,
			SplitToningBalance = 0,
			SplitToningHighlightHue = 43,
			SplitToningHighlightSaturation = 10,
			SplitToningShadowHue = 257,
			SplitToningShadowSaturation = 9,
			ToneCurveName2012 = "Custom",
			ToneCurvePV2012 = {
				0,
				40,
				32,
				55,
				63,
				69,
				90,
				92,
				194,
				192,
				255,
				255,
			},
			ToneCurvePV2012Blue = {
				0,
				0,
				36,
				10,
				76,
				46,
				122,
				118,
				183,
				206,
				222,
				235,
				255,
				255,
			},
			ToneCurvePV2012Green = {
				0,
				0,
				36,
				10,
				76,
				46,
				124,
				122,
				180,
				202,
				255,
				255,
			},
			ToneCurvePV2012Red = {
				0,
				0,
				40,
				9,
				76,
				46,
				126,
				122,
				182,
				204,
				255,
				255,
			},
			Vibrance = 8,
			VignetteAmount = 0,
			VignetteMidpoint = 50,
			WhiteBalance = "As Shot",
			Whites2012 = -53,
		},
		uuid = "B1087DFB-2381-426C-B510-20629B7A9CCE",
	},
	version = 0,
}
