20 Preset/Car Style/【1】LRtemplate Lightroom bản cũ/Tone (1).lrtemplate
s = {
	id = "3D1A341B-74B3-40E2-A35F-4703D72AF8C9",
	internalName = "02汽车质感（素材江湖）",
	title = "02汽车质感（素材江湖）",
	type = "Develop",
	value = {
		settings = {
			AutoLateralCA = 0,
			Blacks2012 = 13,
			BlueHue = 0,
			BlueSaturation = 0,
			CameraProfile = "Adobe Standard",
			ChromaticAberrationB = 0,
			ChromaticAberrationR = 0,
			Clarity2012 = -39,
			ColorNoiseReduction = 25,
			ColorNoiseReductionDetail = 50,
			ColorNoiseReductionSmoothness = 50,
			Contrast2012 = -15,
			ConvertToGrayscale = false,
			CropConstrainToWarp = 0,
			Defringe = 0,
			DefringeGreenAmount = 0,
			DefringeGreenHueHi = 60,
			DefringeGreenHueLo = 40,
			DefringePurpleAmount = 0,
			DefringePurpleHueHi = 70,
			DefringePurpleHueLo = 30,
			Dehaze = -5,
			EnableCalibration = true,
			EnableColorAdjustments = true,
			EnableDetail = true,
			EnableEffects = true,
			EnableLensCorrections = true,
			EnableSplitToning = true,
			Exposure2012 = 0,
			GrainAmount = 25,
			GrainFrequency = 44,
			GrainSize = 35,
			GreenHue = 0,
			GreenSaturation = 0,
			Highlights2012 = -60,
			HueAdjustmentAqua = 48,
			HueAdjustmentBlue = -9,
			HueAdjustmentGreen = 35,
			HueAdjustmentMagenta = 0,
			HueAdjustmentOrange = -3,
			HueAdjustmentPurple = 0,
			HueAdjustmentRed = 5,
			HueAdjustmentYellow = 47,
			LensManualDistortionAmount = 0,
			LuminanceAdjustmentAqua = 0,
			LuminanceAdjustmentBlue = -25,
			LuminanceAdjustmentGreen = 0,
			LuminanceAdjustmentMagenta = 0,
			LuminanceAdjustmentOrange = 0,
			LuminanceAdjustmentPurple = -15,
			LuminanceAdjustmentRed = 5,
			LuminanceAdjustmentYellow = 10,
			LuminanceNoiseReductionContrast = 0,
			LuminanceNoiseReductionDetail = 50,
			LuminanceSmoothing = 23,
			ParametricDarks = 0,
			ParametricHighlightSplit = 75,
			ParametricHighlights = 0,
			ParametricLights = 0,
			ParametricMidtoneSplit = 48,
			ParametricShadowSplit = 20,
			ParametricShadows = 0,
			PostCropVignetteAmount = -33,
			PostCropVignetteFeather = 50,
			PostCropVignetteHighlightContrast = 0,
			PostCropVignetteMidpoint = 37,
			PostCropVignetteRoundness = 0,
			PostCropVignetteStyle = 1,
			ProcessVersion = "10.0",
			RedHue = 0,
			RedSaturation = 0,
			Saturation = -46,
			SaturationAdjustmentAqua = -35,
			SaturationAdjustmentBlue = 17,
			SaturationAdjustmentGreen = 41,
			SaturationAdjustmentMagenta = -24,
			SaturationAdjustmentOrange = -38,
			SaturationAdjustmentPurple = -27,
			SaturationAdjustmentRed = 28,
			SaturationAdjustmentYellow = -69,
			ShadowTint = 0,
			Shadows2012 = 48,
			SharpenDetail = 30,
			SharpenEdgeMasking = 0,
			SharpenRadius = 1.3,
			Sharpness = 17,
			SplitToningBalance = 89,
			SplitToningHighlightHue = 52,
			SplitToningHighlightSaturation = 2,
			SplitToningShadowHue = 309,
			SplitToningShadowSaturation = 15,
			ToneCurveName2012 = "Custom",
			ToneCurvePV2012 = {
				0,
				44,
				39,
				48,
				90,
				92,
				151,
				157,
				210,
				193,
				253,
				216,
			},
			ToneCurvePV2012Blue = {
				0,
				0,
				36,
				10,
				76,
				46,
				122,
				118,
				183,
				206,
				222,
				235,
				255,
				255,
			},
			ToneCurvePV2012Green = {
				0,
				0,
				36,
				10,
				76,
				46,
				124,
				122,
				180,
				202,
				255,
				255,
			},
			ToneCurvePV2012Red = {
				0,
				0,
				40,
				9,
				76,
				46,
				126,
				122,
				182,
				204,
				255,
				255,
			},
			Vibrance = 46,
			VignetteAmount = 0,
			VignetteMidpoint = 50,
			WhiteBalance = "As Shot",
			Whites2012 = -35,
		},
		uuid = "65F977C6-8EAF-4775-B220-FAF46BA28667",
	},
	version = 0,
}
