20 Preset/Journey new/LUT for PR-AE-PS-FCPX/Journey - Lut (9).cube
# Created by Adobe Lightroom plugin Export LUT (1.24.0)
# www.johnrellis.com/lightroom/exportlut.htm
# Preset: 旅拍胶片-素材江湖09
# Color profile: C:\Program Files (x86)\Common Files\Adobe\Color\Profiles\Recommended\VideoHD.icc
LUT_3D_SIZE 32
DOMAIN_MIN 0.0 0.0 0.0
DOMAIN_MAX 1.0 1.0 1.0
0.084291 0.084291 0.084291
0.084291 0.084291 0.084291
0.084291 0.084291 0.084291
0.084291 0.084291 0.084291
0.084291 0.084291 0.084291
0.084932 0.084932 0.084932
0.086763 0.086763 0.086763
0.088380 0.088380 0.088380
0.089479 0.089479 0.089479
0.090547 0.090547 0.090547
0.092012 0.092012 0.092012
0.095186 0.095186 0.095186
0.099214 0.099214 0.099214
0.104799 0.104799 0.104799
0.112734 0.112734 0.112734
0.121920 0.121920 0.121920
0.132448 0.132448 0.132448
0.144198 0.144198 0.144198
0.157321 0.157321 0.157321
0.171939 0.171939 0.171939
0.187930 0.187930 0.187930
0.207706 0.207706 0.207706
0.230320 0.230320 0.230320
0.253819 0.253819 0.253819
0.278264 0.278264 0.278264
0.303685 0.303685 0.303685
0.330480 0.330480 0.330480
0.358984 0.358984 0.358984
0.389593 0.389593 0.389593
0.422675 0.422675 0.422675
0.458564 0.458564 0.458564
0.497139 0.497139 0.497139
0.084291 0.084291 0.084291
0.084291 0.084291 0.084291
0.084291 0.084291 0.084291
0.084291 0.084291 0.084291
0.084291 0.084291 0.084291
0.084932 0.084932 0.084932
0.086763 0.086763 0.086763
0.088380 0.088380 0.088380
0.089113 0.089113 0.089113
0.090547 0.090547 0.090547
0.092378 0.092378 0.092378
0.095186 0.095186 0.095186
0.099214 0.099214 0.099214
0.104799 0.104799 0.104799
0.112459 0.112459 0.112459
0.121706 0.121706 0.121706
0.131991 0.131991 0.131991
0.143801 0.143801 0.143801
0.156649 0.156649 0.156649
0.171023 0.171023 0.171023
0.186862 0.186862 0.186862
0.206088 0.206088 0.206088
0.227817 0.227817 0.227817
0.250584 0.250584 0.250584
0.274418 0.274418 0.274418
0.299107 0.299107 0.299107
0.325444 0.325444 0.325444
0.353643 0.353643 0.353643
0.383948 0.383948 0.383948
0.416938 0.416938 0.416938
0.452674 0.452674 0.452674
0.491310 0.491310 0.491310
0.084291 0.084291 0.084291
0.084291 0.084291 0.084291
0.084291 0.084291 0.084291
0.084291 0.084291 0.084291
0.084291 0.084291 0.084291
0.085542 0.085542 0.085542
0.086763 0.086763 0.086763
0.088380 0.088380 0.088380
0.089479 0.089479 0.089479
0.090547 0.090547 0.090547
0.092744 0.092744 0.092744
0.095857 0.095857 0.095857
0.100160 0.100160 0.100160
0.105959 0.105959 0.105959
0.113802 0.113802 0.113802
0.122896 0.122896 0.122896
0.133272 0.133272 0.133272
0.144961 0.144961 0.144961
0.157656 0.157656 0.157656
0.172091 0.172091 0.172091
0.187930 0.187930 0.187930
0.207248 0.207248 0.207248
0.228519 0.228519 0.228519
0.250767 0.250767 0.250767
0.274174 0.274174 0.274174
0.298497 0.298497 0.298497
0.324590 0.324590 0.324590
0.352544 0.352544 0.352544
0.382605 0.382605 0.382605
0.415442 0.415442 0.415442
0.450904 0.450904 0.450904
0.489265 0.489265 0.489265
0.084291 0.084291 0.084291
0.084291 0.084291 0.084291
0.084291 0.084291 0.084291
0.084291 0.084291 0.084291
0.084291 0.084291 0.084291
0.085542 0.085542 0.085542
0.087404 0.087404 0.087404
0.089113 0.089113 0.089113
0.090211 0.090211 0.090211
0.092012 0.092012 0.092012
0.094514 0.094514 0.094514
0.097871 0.097871 0.097871
0.102632 0.102632 0.102632
0.108888 0.108888 0.108888
0.116945 0.116945 0.116945
0.125948 0.125948 0.125948
0.136233 0.136233 0.136233
0.147585 0.147585 0.147585
0.160311 0.160311 0.160311
0.174594 0.174594 0.174594
0.190036 0.190036 0.190036
0.209323 0.209323 0.209323
0.229801 0.229801 0.229801
0.251652 0.251652 0.251652
0.274815 0.274815 0.274815
0.299443 0.299443 0.299443
0.325933 0.325933 0.325933
0.354192 0.354192 0.354192
0.384527 0.384527 0.384527
0.417273 0.417273 0.417273
0.452369 0.452369 0.452369
0.489967 0.489967 0.489967
0.088380 0.088380 0.088380
0.088380 0.088380 0.088380
0.088746 0.088746 0.088746
0.088746 0.088746 0.088746
0.089845 0.089845 0.089845
0.090211 0.090211 0.090211
0.090211 0.090211 0.090211
0.091279 0.091279 0.091279
0.093111 0.093111 0.093111
0.095186 0.095186 0.095186
0.097871 0.097871 0.097871
0.101717 0.101717 0.101717
0.106844 0.106844 0.106844
0.113802 0.113802 0.113802
0.121920 0.121920 0.121920
0.131106 0.131106 0.131106
0.141482 0.141482 0.141482
0.152987 0.152987 0.152987
0.165805 0.165805 0.165805
0.179904 0.179904 0.179904
0.196017 0.196017 0.196017
0.215091 0.215091 0.215091
0.235203 0.235203 0.235203
0.256657 0.256657 0.256657
0.279637 0.279637 0.279637
0.304204 0.304204 0.304204
0.330358 0.330358 0.330358
0.358404 0.358404 0.358404
0.388495 0.388495 0.388495
0.420752 0.420752 0.420752
0.455360 0.455360 0.455360
0.492348 0.492348 0.492348
0.094514 0.094514 0.094514
0.094514 0.094514 0.094514
0.094850 0.094850 0.094850
0.095857 0.095857 0.095857
0.097871 0.097871 0.097871
0.098207 0.098207 0.098207
0.099825 0.099825 0.099825
0.098207 0.098207 0.098207
0.098207 0.098207 0.098207
0.100771 0.100771 0.100771
0.103883 0.103883 0.103883
0.108888 0.108888 0.108888
0.114870 0.114870 0.114870
0.121920 0.121920 0.121920
0.130251 0.130251 0.130251
0.139498 0.139498 0.139498
0.149966 0.149966 0.149966
0.161624 0.161624 0.161624
0.174594 0.174594 0.174594
0.188846 0.188846 0.188846
0.205997 0.205997 0.205997
0.224949 0.224949 0.224949
0.263462 0.263462 0.263462
0.287358 0.287358 0.287358
0.312016 0.312016 0.312016
0.337774 0.337774 0.337774
0.364752 0.364752 0.364752
0.393164 0.393164 0.393164
0.423468 0.423468 0.423468
0.455726 0.455726 0.455726
0.489845 0.489845 0.489845
0.524681 0.524681 0.524681
0.110536 0.110536 0.110536
0.110536 0.110536 0.110536
0.111635 0.111635 0.111635
0.113558 0.113558 0.113558
0.116945 0.116945 0.116945
0.117708 0.117708 0.117708
0.118715 0.118715 0.118715
0.123354 0.123354 0.123354
0.120211 0.120211 0.120211
0.117983 0.117983 0.117983
0.117220 0.117220 0.117220
0.122408 0.122408 0.122408
0.128695 0.128695 0.128695
0.136019 0.136019 0.136019
0.144381 0.144381 0.144381
0.153872 0.153872 0.153872
0.164370 0.164370 0.164370
0.176333 0.176333 0.176333
0.189639 0.189639 0.189639
0.205386 0.205386 0.205386
0.225071 0.225071 0.225071
0.246128 0.246128 0.246128
0.268803 0.268803 0.268803
0.293034 0.293034 0.293034
0.318242 0.318242 0.318242
0.344213 0.344213 0.344213
0.370672 0.370672 0.370672
0.398535 0.398535 0.398535
0.428046 0.428046 0.428046
0.459358 0.459358 0.459358
0.492622 0.492622 0.492622
0.526604 0.526604 0.526604
0.133486 0.133486 0.133486
0.133700 0.133700 0.133700
0.134768 0.134768 0.134768
0.136843 0.136843 0.136843
0.139895 0.139895 0.139895
0.141268 0.141268 0.141268
0.142061 0.142061 0.142061
0.143404 0.143404 0.143404
0.149233 0.149233 0.149233
0.148318 0.148318 0.148318
0.145510 0.145510 0.145510
0.143801 0.143801 0.143801
0.143221 0.143221 0.143221
0.150515 0.150515 0.150515
0.158663 0.158663 0.158663
0.167819 0.167819 0.167819
0.178622 0.178622 0.178622
0.190402 0.190402 0.190402
0.203983 0.203983 0.203983
0.221225 0.221225 0.221225
0.239872 0.239872 0.239872
0.259983 0.259983 0.259983
0.281590 0.281590 0.281590
0.304753 0.304753 0.304753
0.329259 0.329259 0.329259
0.354345 0.354345 0.354345
0.380346 0.380346 0.380346
0.407507 0.407507 0.407507
0.436439 0.436439 0.436439
0.467201 0.467201 0.467201
0.499580 0.499580 0.499580
0.532677 0.532677 0.532677
0.161807 0.161807 0.161807
0.162142 0.162142 0.162142
0.162783 0.162783 0.162783
0.164858 0.164858 0.164858
0.167819 0.167819 0.167819
0.169528 0.169528 0.169528
0.170291 0.170291 0.170291
0.171328 0.171328 0.171328
0.172824 0.172824 0.172824
0.177920 0.177920 0.177920
0.181704 0.181704 0.181704
0.178775 0.178775 0.178775
0.176486 0.176486 0.176486
0.174899 0.174899 0.174899
0.176913 0.176913 0.176913
0.186191 0.186191 0.186191
0.196750 0.196750 0.196750
0.209201 0.209201 0.209201
0.224338 0.224338 0.224338
0.240696 0.240696 0.240696
0.258549 0.258549 0.258549
0.277714 0.277714 0.277714
0.298344 0.298344 0.298344
0.320745 0.320745 0.320745
0.344335 0.344335 0.344335
0.368688 0.368688 0.368688
0.393988 0.393988 0.393988
0.420569 0.420569 0.420569
0.448829 0.448829 0.448829
0.478737 0.478737 0.478737
0.510277 0.510277 0.510277
0.541955 0.541955 0.541955
0.193362 0.193362 0.193362
0.193484 0.193484 0.193484
0.194125 0.194125 0.194125
0.196017 0.196017 0.196017
0.198856 0.198856 0.198856
0.202335 0.202335 0.202335
0.202823 0.202823 0.202823
0.203891 0.203891 0.203891
0.205173 0.205173 0.205173
0.206912 0.206912 0.206912
0.211002 0.211002 0.211002
0.220798 0.220798 0.220798
0.217502 0.217502 0.217502
0.215213 0.215213 0.215213
0.213687 0.213687 0.213687
0.212558 0.212558 0.212558
0.220279 0.220279 0.220279
0.233829 0.233829 0.233829
0.248386 0.248386 0.248386
0.264103 0.264103 0.264103
0.280766 0.280766 0.280766
0.298497 0.298497 0.298497
0.317418 0.317418 0.317418
0.337957 0.337957 0.337957
0.359838 0.359838 0.359838
0.382879 0.382879 0.382879
0.407202 0.407202 0.407202
0.433234 0.433234 0.433234
0.461006 0.461006 0.461006
0.490669 0.490669 0.490669
0.521324 0.521324 0.521324
0.552178 0.552178 0.552178
0.228611 0.228611 0.228611
0.228794 0.228794 0.228794
0.229618 0.229618 0.229618
0.231388 0.231388 0.231388
0.234226 0.234226 0.234226
0.238346 0.238346 0.238346
0.240787 0.240787 0.240787
0.241917 0.241917 0.241917
0.243381 0.243381 0.243381
0.245212 0.245212 0.245212
0.247288 0.247288 0.247288
0.250065 0.250065 0.250065
0.266087 0.266087 0.266087
0.262974 0.262974 0.262974
0.262455 0.262455 0.262455
0.262211 0.262211 0.262211
0.262547 0.262547 0.262547
0.263218 0.263218 0.263218
0.274876 0.274876 0.274876
0.289464 0.289464 0.289464
0.304875 0.304875 0.304875
0.321416 0.321416 0.321416
0.339696 0.339696 0.339696
0.359258 0.359258 0.359258
0.380255 0.380255 0.380255
0.402594 0.402594 0.402594
0.426246 0.426246 0.426246
0.451484 0.451484 0.451484
0.478523 0.478523 0.478523
0.507103 0.507103 0.507103
0.536309 0.536309 0.536309
0.565637 0.565637 0.565637
0.269841 0.269841 0.269841
0.270176 0.270176 0.270176
0.270970 0.270970 0.270970
0.272709 0.272709 0.272709
0.275425 0.275425 0.275425
0.279332 0.279332 0.279332
0.284337 0.284337 0.284337
0.285374 0.285374 0.285374
0.286992 0.286992 0.286992
0.288884 0.288884 0.288884
0.290898 0.290898 0.290898
0.295232 0.295232 0.295232
0.315557 0.315557 0.315557
0.338720 0.338720 0.338720
0.337316 0.337316 0.337316
0.336217 0.336217 0.336217
0.335393 0.335393 0.335393
0.335088 0.335088 0.335088
0.335027 0.335027 0.335027
0.337072 0.337072 0.337072
0.351904 0.351904 0.351904
0.367651 0.367651 0.367651
0.384741 0.384741 0.384741
0.403388 0.403388 0.403388
0.423133 0.423133 0.423133
0.444038 0.444038 0.444038
0.465888 0.465888 0.465888
0.489235 0.489235 0.489235
0.513603 0.513603 0.513603
0.538750 0.538750 0.538750
0.564477 0.564477 0.564477
0.591089 0.591089 0.591089
0.322240 0.322240 0.322240
0.322362 0.322362 0.322362
0.322667 0.322667 0.322667
0.324102 0.324102 0.324102
0.326116 0.326116 0.326116
0.329076 0.329076 0.329076
0.333806 0.333806 0.333806
0.337896 0.337896 0.337896
0.340856 0.340856 0.340856
0.344610 0.344610 0.344610
0.349371 0.349371 0.349371
0.354894 0.354894 0.354894
0.360998 0.360998 0.360998
0.367071 0.367071 0.367071
0.393927 0.393927 0.393927
0.392187 0.392187 0.392187
0.390478 0.390478 0.390478
0.388678 0.388678 0.388678
0.387304 0.387304 0.387304
0.386572 0.386572 0.386572
0.386389 0.386389 0.386389
0.392370 0.392370 0.392370
0.408331 0.408331 0.408331
0.425849 0.425849 0.425849
0.444709 0.444709 0.444709
0.464759 0.464759 0.464759
0.486091 0.486091 0.486091
0.508476 0.508476 0.508476
0.531609 0.531609 0.531609
0.555535 0.555535 0.555535
0.580041 0.580041 0.580041
0.605646 0.605646 0.605646
0.373449 0.373449 0.373449
0.373449 0.373449 0.373449
0.373907 0.373907 0.373907
0.374975 0.374975 0.374975
0.376867 0.376867 0.376867
0.379858 0.379858 0.379858
0.384314 0.384314 0.384314
0.389868 0.389868 0.389868
0.391913 0.391913 0.391913
0.394965 0.394965 0.394965
0.398840 0.398840 0.398840
0.403693 0.403693 0.403693
0.409064 0.409064 0.409064
0.414527 0.414527 0.414527
0.419562 0.419562 0.419562
0.442908 0.442908 0.442908
0.445289 0.445289 0.445289
0.442847 0.442847 0.442847
0.440650 0.440650 0.440650
0.438880 0.438880 0.438880
0.437873 0.437873 0.437873
0.438270 0.438270 0.438270
0.440040 0.440040 0.440040
0.451850 0.451850 0.451850
0.469795 0.469795 0.469795
0.489143 0.489143 0.489143
0.509300 0.509300 0.509300
0.530114 0.530114 0.530114
0.551568 0.551568 0.551568
0.574090 0.574090 0.574090
0.597375 0.597375 0.597375
0.621698 0.621698 0.621698
0.425788 0.425788 0.425788
0.425788 0.425788 0.425788
0.426001 0.426001 0.426001
0.426581 0.426581 0.426581
0.427802 0.427802 0.427802
0.429877 0.429877 0.429877
0.433387 0.433387 0.433387
0.438300 0.438300 0.438300
0.441962 0.441962 0.441962
0.444495 0.444495 0.444495
0.447913 0.447913 0.447913
0.452155 0.452155 0.452155
0.457008 0.457008 0.457008
0.461769 0.461769 0.461769
0.466255 0.466255 0.466255
0.469947 0.469947 0.469947
0.489052 0.489052 0.489052
0.496468 0.496468 0.496468
0.493690 0.493690 0.493690
0.491402 0.491402 0.491402
0.489967 0.489967 0.489967
0.489998 0.489998 0.489998
0.491310 0.491310 0.491310
0.494087 0.494087 0.494087
0.497932 0.497932 0.497932
0.514611 0.514611 0.514611
0.533318 0.533318 0.533318
0.552880 0.552880 0.552880
0.573388 0.573388 0.573388
0.595026 0.595026 0.595026
0.617762 0.617762 0.617762
0.640650 0.640650 0.640650
0.474495 0.474495 0.474495
0.474708 0.474708 0.474708
0.475074 0.475074 0.475074
0.475929 0.475929 0.475929
0.477333 0.477333 0.477333
0.479622 0.479622 0.479622
0.483223 0.483223 0.483223
0.488014 0.488014 0.488014
0.494087 0.494087 0.494087
0.496162 0.496162 0.496162
0.498695 0.498695 0.498695
0.501488 0.501488 0.501488
0.504540 0.504540 0.504540
0.507469 0.507469 0.507469
0.510369 0.510369 0.510369
0.512932 0.512932 0.512932
0.515526 0.515526 0.515526
0.529931 0.529931 0.529931
0.541344 0.541344 0.541344
0.539208 0.539208 0.539208
0.538140 0.538140 0.538140
0.538354 0.538354 0.538354
0.539818 0.539818 0.539818
0.542412 0.542412 0.542412
0.546105 0.546105 0.546105
0.551019 0.551019 0.551019
0.558984 0.558984 0.558984
0.577142 0.577142 0.577142
0.596368 0.596368 0.596368
0.616541 0.616541 0.616541
0.637018 0.637018 0.637018
0.657832 0.657832 0.657832
0.519768 0.519768 0.519768
0.519829 0.519829 0.519829
0.520134 0.520134 0.520134
0.520958 0.520958 0.520958
0.522332 0.522332 0.522332
0.524437 0.524437 0.524437
0.527276 0.527276 0.527276
0.531151 0.531151 0.531151
0.536034 0.536034 0.536034
0.539635 0.539635 0.539635
0.541588 0.541588 0.541588
0.543877 0.543877 0.543877
0.546288 0.546288 0.546288
0.548608 0.548608 0.548608
0.550835 0.550835 0.550835
0.552880 0.552880 0.552880
0.554925 0.554925 0.554925
0.557122 0.557122 0.557122
0.567620 0.567620 0.567620
0.582300 0.582300 0.582300
0.581598 0.581598 0.581598
0.581842 0.581842 0.581842
0.583307 0.583307 0.583307
0.585870 0.585870 0.585870
0.589441 0.589441 0.589441
0.594110 0.594110 0.594110
0.599969 0.599969 0.599969
0.606897 0.606897 0.606897
0.619379 0.619379 0.619379
0.637812 0.637812 0.637812
0.656672 0.656672 0.656672
0.676143 0.676143 0.676143
0.561822 0.561822 0.561822
0.562036 0.562036 0.562036
0.577417 0.577417 0.577417
0.578119 0.578119 0.578119
0.579156 0.579156 0.579156
0.580652 0.580652 0.580652
0.582727 0.582727 0.582727
0.585534 0.585534 0.585534
0.589258 0.589258 0.589258
0.593835 0.593835 0.593835
0.595239 0.595239 0.595239
0.596735 0.596735 0.596735
0.598047 0.598047 0.598047
0.599237 0.599237 0.599237
0.600244 0.600244 0.600244
0.601099 0.601099 0.601099
0.601770 0.601770 0.601770
0.602533 0.602533 0.602533
0.603449 0.603449 0.603449
0.610376 0.610376 0.610376
0.627192 0.627192 0.627192
0.627222 0.627222 0.627222
0.628138 0.628138 0.628138
0.629938 0.629938 0.629938
0.632410 0.632410 0.632410
0.635798 0.635798 0.635798
0.640192 0.640192 0.640192
0.645716 0.645716 0.645716
0.652552 0.652552 0.652552
0.660731 0.660731 0.660731
0.675868 0.675868 0.675868
0.694026 0.694026 0.694026
0.603662 0.603662 0.603662
0.605035 0.605035 0.605035
0.606744 0.606744 0.606744
0.608515 0.608515 0.608515
0.610315 0.610315 0.610315
0.611963 0.611963 0.611963
0.613825 0.613825 0.613825
0.616144 0.616144 0.616144
0.619043 0.619043 0.619043
0.622644 0.622644 0.622644
0.625452 0.625452 0.625452
0.626642 0.626642 0.626642
0.627741 0.627741 0.627741
0.628779 0.628779 0.628779
0.629786 0.629786 0.629786
0.630701 0.630701 0.630701
0.631586 0.631586 0.631586
0.632624 0.632624 0.632624
0.633845 0.633845 0.633845
0.635401 0.635401 0.635401
0.640314 0.640314 0.640314
0.659602 0.659602 0.659602
0.660731 0.660731 0.660731
0.662501 0.662501 0.662501
0.664973 0.664973 0.664973
0.668147 0.668147 0.668147
0.672267 0.672267 0.672267
0.677333 0.677333 0.677333
0.683680 0.683680 0.683680
0.691341 0.691341 0.691341
0.700374 0.700374 0.700374
0.710567 0.710567 0.710567
0.635065 0.635065 0.635065
0.636286 0.636286 0.636286
0.637873 0.637873 0.637873
0.639460 0.639460 0.639460
0.641077 0.641077 0.641077
0.642542 0.642542 0.642542
0.644068 0.644068 0.644068
0.645869 0.645869 0.645869
0.648249 0.648249 0.648249
0.651118 0.651118 0.651118
0.654444 0.654444 0.654444
0.655665 0.655665 0.655665
0.656580 0.656580 0.656580
0.657588 0.657588 0.657588
0.658503 0.658503 0.658503
0.659480 0.659480 0.659480
0.660334 0.660334 0.660334
0.661280 0.661280 0.661280
0.662501 0.662501 0.662501
0.663905 0.663905 0.663905
0.665583 0.665583 0.665583
0.668757 0.668757 0.668757
0.687404 0.687404 0.687404
0.691737 0.691737 0.691737
0.694179 0.694179 0.694179
0.697353 0.697353 0.697353
0.701228 0.701228 0.701228
0.706142 0.706142 0.706142
0.712184 0.712184 0.712184
0.719478 0.719478 0.719478
0.728084 0.728084 0.728084
0.737850 0.737850 0.737850
0.664454 0.664454 0.664454
0.665522 0.665522 0.665522
0.666773 0.666773 0.666773
0.668086 0.668086 0.668086
0.669429 0.669429 0.669429
0.670680 0.670680 0.670680
0.672023 0.672023 0.672023
0.673548 0.673548 0.673548
0.675532 0.675532 0.675532
0.677943 0.677943 0.677943
0.680751 0.680751 0.680751
0.683009 0.683009 0.683009
0.683894 0.683894 0.683894
0.684779 0.684779 0.684779
0.685695 0.685695 0.685695
0.686793 0.686793 0.686793
0.687984 0.687984 0.687984
0.689387 0.689387 0.689387
0.691157 0.691157 0.691157
0.693202 0.693202 0.693202
0.695552 0.695552 0.695552
0.698085 0.698085 0.698085
0.700771 0.700771 0.700771
0.718410 0.718410 0.718410
0.726070 0.726070 0.726070
0.729702 0.729702 0.729702
0.733852 0.733852 0.733852
0.738918 0.738918 0.738918
0.745022 0.745022 0.745022
0.752193 0.752193 0.752193
0.760464 0.760464 0.760464
0.769741 0.769741 0.769741
0.698299 0.698299 0.698299
0.698695 0.698695 0.698695
0.699153 0.699153 0.699153
0.699672 0.699672 0.699672
0.700313 0.700313 0.700313
0.700954 0.700954 0.700954
0.701869 0.701869 0.701869
0.703120 0.703120 0.703120
0.704768 0.704768 0.704768
0.706874 0.706874 0.706874
0.709316 0.709316 0.709316
0.712154 0.712154 0.712154
0.713252 0.713252 0.713252
0.714046 0.714046 0.714046
0.714900 0.714900 0.714900
0.715785 0.715785 0.715785
0.716762 0.716762 0.716762
0.717891 0.717891 0.717891
0.719234 0.719234 0.719234
0.720729 0.720729 0.720729
0.722438 0.722438 0.722438
0.724361 0.724361 0.724361
0.726436 0.726436 0.726436
0.728573 0.728573 0.728573
0.743618 0.743618 0.743618
0.753536 0.753536 0.753536
0.757809 0.757809 0.757809
0.762875 0.762875 0.762875
0.768826 0.768826 0.768826
0.775692 0.775692 0.775692
0.783474 0.783474 0.783474
0.792111 0.792111 0.792111
0.724483 0.724483 0.724483
0.724819 0.724819 0.724819
0.725216 0.725216 0.725216
0.725734 0.725734 0.725734
0.726253 0.726253 0.726253
0.726925 0.726925 0.726925
0.727687 0.727687 0.727687
0.728817 0.728817 0.728817
0.730312 0.730312 0.730312
0.732082 0.732082 0.732082
0.734310 0.734310 0.734310
0.736782 0.736782 0.736782
0.738827 0.738827 0.738827
0.739681 0.739681 0.739681
0.740597 0.740597 0.740597
0.741543 0.741543 0.741543
0.742641 0.742641 0.742641
0.743832 0.743832 0.743832
0.745205 0.745205 0.745205
0.746731 0.746731 0.746731
0.748440 0.748440 0.748440
0.750332 0.750332 0.750332
0.752316 0.752316 0.752316
0.754452 0.754452 0.754452
0.753658 0.753658 0.753658
0.766567 0.766567 0.766567
0.778470 0.778470 0.778470
0.783474 0.783474 0.783474
0.789212 0.789212 0.789212
0.795834 0.795834 0.795834
0.803342 0.803342 0.803342
0.811643 0.811643 0.811643
0.753048 0.753048 0.753048
0.753567 0.753567 0.753567
0.753933 0.753933 0.753933
0.754116 0.754116 0.754116
0.754238 0.754238 0.754238
0.754391 0.754391 0.754391
0.754635 0.754635 0.754635
0.755093 0.755093 0.755093
0.755886 0.755886 0.755886
0.757015 0.757015 0.757015
0.758419 0.758419 0.758419
0.760250 0.760250 0.760250
0.762325 0.762325 0.762325
0.763058 0.763058 0.763058
0.763485 0.763485 0.763485
0.764034 0.764034 0.764034
0.764706 0.764706 0.764706
0.765652 0.765652 0.765652
0.766903 0.766903 0.766903
0.768460 0.768460 0.768460
0.770230 0.770230 0.770230
0.772091 0.772091 0.772091
0.773922 0.773922 0.773922
0.775662 0.775662 0.775662
0.777340 0.777340 0.777340
0.778988 0.778988 0.778988
0.789700 0.789700 0.789700
0.802731 0.802731 0.802731
0.808011 0.808011 0.808011
0.814176 0.814176 0.814176
0.821164 0.821164 0.821164
0.828977 0.828977 0.828977
0.775448 0.775448 0.775448
0.775937 0.775937 0.775937
0.776333 0.776333 0.776333
0.776608 0.776608 0.776608
0.776944 0.776944 0.776944
0.777340 0.777340 0.777340
0.777920 0.777920 0.777920
0.778714 0.778714 0.778714
0.779751 0.779751 0.779751
0.781064 0.781064 0.781064
0.782559 0.782559 0.782559
0.784298 0.784298 0.784298
0.786191 0.786191 0.786191
0.787747 0.787747 0.787747
0.788205 0.788205 0.788205
0.788663 0.788663 0.788663
0.789242 0.789242 0.789242
0.790036 0.790036 0.790036
0.791135 0.791135 0.791135
0.792508 0.792508 0.792508
0.794095 0.794095 0.794095
0.795834 0.795834 0.795834
0.797604 0.797604 0.797604
0.799374 0.799374 0.799374
0.801144 0.801144 0.801144
0.802884 0.802884 0.802884
0.804715 0.804715 0.804715
0.813657 0.813657 0.813657
0.827726 0.827726 0.827726
0.833555 0.833555 0.833555
0.840055 0.840055 0.840055
0.847379 0.847379 0.847379
0.799313 0.799313 0.799313
0.799557 0.799557 0.799557
0.799771 0.799771 0.799771
0.799954 0.799954 0.799954
0.800198 0.800198 0.800198
0.800473 0.800473 0.800473
0.800931 0.800931 0.800931
0.801572 0.801572 0.801572
0.802396 0.802396 0.802396
0.803464 0.803464 0.803464
0.804715 0.804715 0.804715
0.806210 0.806210 0.806210
0.807889 0.807889 0.807889
0.809659 0.809659 0.809659
0.810361 0.810361 0.810361
0.810819 0.810819 0.810819
0.811368 0.811368 0.811368
0.812100 0.812100 0.812100
0.813107 0.813107 0.813107
0.814359 0.814359 0.814359
0.815793 0.815793 0.815793
0.817350 0.817350 0.817350
0.818936 0.818936 0.818936
0.820554 0.820554 0.820554
0.822110 0.822110 0.822110
0.823728 0.823728 0.823728
0.825345 0.825345 0.825345
0.827024 0.827024 0.827024
0.834409 0.834409 0.834409
0.847990 0.847990 0.847990
0.855314 0.855314 0.855314
0.862272 0.862272 0.862272
0.820829 0.820829 0.820829
0.821012 0.821012 0.821012
0.821195 0.821195 0.821195
0.821469 0.821469 0.821469
0.821836 0.821836 0.821836
0.822385 0.822385 0.822385
0.823270 0.823270 0.823270
0.824430 0.824430 0.824430
0.825834 0.825834 0.825834
0.827512 0.827512 0.827512
0.829374 0.829374 0.829374
0.831357 0.831357 0.831357
0.833402 0.833402 0.833402
0.835416 0.835416 0.835416
0.837156 0.837156 0.837156
0.837797 0.837797 0.837797
0.838437 0.838437 0.838437
0.839170 0.839170 0.839170
0.840116 0.840116 0.840116
0.841245 0.841245 0.841245
0.842557 0.842557 0.842557
0.843931 0.843931 0.843931
0.845335 0.845335 0.845335
0.846708 0.846708 0.846708
0.848081 0.848081 0.848081
0.849454 0.849454 0.849454
0.850889 0.850889 0.850889
0.852384 0.852384 0.852384
0.854032 0.854032 0.854032
0.859800 0.859800 0.859800
0.872282 0.872282 0.872282
0.880400 0.880400 0.880400
0.846220 0.846220 0.846220
0.846220 0.846220 0.846220
0.846250 0.846250 0.846250
0.846342 0.846342 0.846342
0.846494 0.846494 0.846494
0.846738 0.846738 0.846738
0.847166 0.847166 0.847166
0.847715 0.847715 0.847715
0.848508 0.848508 0.848508
0.849454 0.849454 0.849454
0.850553 0.850553 0.850553
0.851835 0.851835 0.851835
0.853208 0.853208 0.853208
0.854704 0.854704 0.854704
