20 Preset/Journey new/LUT for PR-AE-PS-FCPX/Journey - Lut (6).cube
# Created by Adobe Lightroom plugin Export LUT (1.24.0)
# www.johnrellis.com/lightroom/exportlut.htm
# Preset: 旅拍胶片-素材江湖06
# Color profile: C:\Program Files (x86)\Common Files\Adobe\Color\Profiles\Recommended\VideoHD.icc
LUT_3D_SIZE 32
DOMAIN_MIN 0.0 0.0 0.0
DOMAIN_MAX 1.0 1.0 1.0
0.030793 0.098421 0.075257
0.030793 0.098421 0.075257
0.030793 0.098421 0.075257
0.030793 0.098421 0.075257
0.028809 0.098482 0.075257
0.028809 0.098482 0.075257
0.036774 0.098177 0.075227
0.057191 0.098177 0.074830
0.091310 0.098726 0.073732
0.120363 0.098878 0.071809
0.158267 0.098299 0.068421
0.204044 0.094331 0.063722
0.255528 0.084138 0.057008
0.309911 0.049012 0.048371
0.365484 0.000000 0.037720
0.420752 0.000000 0.024964
0.475532 0.000000 0.010071
0.529686 0.000000 0.000000
0.583581 0.000000 0.000000
0.636713 0.000000 0.000000
0.687465 0.000000 0.000000
0.735988 0.000000 0.000000
0.782712 0.000000 0.000000
0.836576 0.000000 0.000000
0.884886 0.000000 0.000000
0.928252 0.000000 0.000000
0.967529 0.000000 0.000000
1.000000 0.000000 0.000000
1.000000 0.000000 0.000000
1.000000 0.000000 0.000000
1.000000 0.000000 0.000000
1.000000 0.000000 0.000000
0.030793 0.098421 0.075257
0.030793 0.098421 0.075257
0.030793 0.098421 0.075257
0.030793 0.098421 0.075257
0.028809 0.098482 0.075257
0.028809 0.098482 0.075257
0.036774 0.098177 0.075227
0.057191 0.098177 0.074830
0.091310 0.098726 0.073732
0.119356 0.099031 0.071809
0.155978 0.098421 0.068635
0.201389 0.095186 0.063813
0.252262 0.086091 0.057313
0.306493 0.052430 0.048890
0.361608 0.000000 0.038331
0.417151 0.000000 0.025605
0.471931 0.000000 0.010925
0.526085 0.000000 0.000000
0.579858 0.000000 0.000000
0.632807 0.000000 0.000000
0.683558 0.000000 0.000000
0.732113 0.000000 0.000000
0.778714 0.000000 0.000000
0.831357 0.000000 0.000000
0.879210 0.000000 0.000000
0.922332 0.000000 0.000000
0.961822 0.000000 0.000000
0.997925 0.000000 0.000000
1.000000 0.000000 0.000000
1.000000 0.000000 0.000000
1.000000 0.000000 0.000000
1.000000 0.000000 0.000000
0.030793 0.098421 0.075257
0.030793 0.098421 0.075257
0.030793 0.098421 0.075257
0.030793 0.098421 0.075257
0.029511 0.098085 0.075410
0.030793 0.098421 0.075257
0.036774 0.098177 0.075227
0.058473 0.098512 0.074678
0.091035 0.099153 0.073579
0.118990 0.099794 0.071504
0.155703 0.099245 0.068330
0.200473 0.096223 0.063539
0.251347 0.088563 0.056916
0.304692 0.059907 0.048402
0.359838 0.007355 0.037873
0.414893 0.000000 0.025208
0.469856 0.000000 0.010254
0.523949 0.000000 0.000000
0.577661 0.000000 0.000000
0.630701 0.000000 0.000000
0.681605 0.000000 0.000000
0.730007 0.000000 0.000000
0.777310 0.000000 0.000000
0.829129 0.000000 0.000000
0.876432 0.000000 0.000000
0.919615 0.000000 0.000000
0.958953 0.000000 0.000000
0.995209 0.000000 0.000000
1.000000 0.000000 0.000000
1.000000 0.000000 0.000000
1.000000 0.000000 0.000000
1.000000 0.000000 0.000000
0.031525 0.097993 0.075410
0.031525 0.097993 0.075410
0.031525 0.097993 0.075410
0.031525 0.097993 0.075410
0.029511 0.098085 0.075410
0.030793 0.098421 0.075257
0.038025 0.098512 0.075074
0.059022 0.099245 0.074372
0.092470 0.100099 0.073091
0.120455 0.100679 0.071015
0.156710 0.101198 0.067384
0.201328 0.098665 0.062440
0.251652 0.092164 0.055512
0.304479 0.071504 0.046876
0.359045 0.022461 0.036103
0.413611 0.000000 0.023346
0.467659 0.000000 0.008362
0.521050 0.000000 0.000000
0.574487 0.000000 0.000000
0.627008 0.000000 0.000000
0.677546 0.000000 0.000000
0.725948 0.000000 0.000000
0.774258 0.000000 0.000000
0.825437 0.000000 0.000000
0.872740 0.000000 0.000000
0.916350 0.000000 0.000000
0.956634 0.000000 0.000000
0.993561 0.000000 0.000000
1.000000 0.000000 0.000000
1.000000 0.000000 0.000000
1.000000 0.000000 0.000000
1.000000 0.000000 0.000000
0.031525 0.097993 0.075410
0.031525 0.097993 0.075410
0.031525 0.097993 0.075410
0.031525 0.097993 0.075410
0.029511 0.098085 0.075410
0.031525 0.097993 0.075410
0.037324 0.098939 0.074922
0.061585 0.099886 0.074037
0.094331 0.101350 0.072480
0.122194 0.102937 0.069947
0.158145 0.103761 0.066133
0.202243 0.102754 0.060578
0.251713 0.097292 0.053529
0.304448 0.086030 0.044282
0.358373 0.046296 0.033082
0.412848 0.000000 0.019776
0.467170 0.000000 0.004303
0.520592 0.000000 0.000000
0.574029 0.000000 0.000000
0.626337 0.000000 0.000000
0.676722 0.000000 0.000000
0.725093 0.000000 0.000000
0.774441 0.000000 0.000000
0.824857 0.000000 0.000000
0.871733 0.000000 0.000000
0.915312 0.000000 0.000000
0.955505 0.000000 0.000000
0.992432 0.000000 0.000000
1.000000 0.000000 0.000000
1.000000 0.000000 0.000000
1.000000 0.000000 0.000000
1.000000 0.000000 0.000000
0.031525 0.097993 0.075410
0.031525 0.097993 0.075410
0.029511 0.098085 0.075410
0.029511 0.098085 0.075410
0.031525 0.097993 0.075410
0.030793 0.098421 0.075257
0.035340 0.099001 0.074922
0.056916 0.100404 0.073915
0.094484 0.103120 0.071717
0.123537 0.105837 0.068544
0.162051 0.108064 0.063752
0.206973 0.108217 0.057343
0.255955 0.104646 0.049500
0.308141 0.096864 0.039460
0.361669 0.078553 0.027497
0.415869 0.022553 0.013519
0.469856 0.000000 0.000000
0.523247 0.000000 0.000000
0.576257 0.000000 0.000000
0.628504 0.000000 0.000000
0.678828 0.000000 0.000000
0.726802 0.000000 0.000000
0.803922 0.000000 0.000000
0.855680 0.000000 0.000000
0.902342 0.000000 0.000000
0.944152 0.000000 0.000000
0.981689 0.000000 0.000000
1.000000 0.000000 0.000000
1.000000 0.000000 0.000000
1.000000 0.000000 0.000000
1.000000 0.000000 0.000000
1.000000 0.000000 0.000000
0.029389 0.099245 0.074952
0.029389 0.099245 0.074952
0.029389 0.099245 0.074952
0.029389 0.099245 0.074952
0.031373 0.099153 0.074952
0.031922 0.099855 0.074647
0.037171 0.100038 0.074464
0.052796 0.101625 0.073487
0.090974 0.105196 0.070985
0.125460 0.110201 0.066377
0.169436 0.114504 0.059754
0.217868 0.116457 0.051453
0.270237 0.115267 0.041169
0.323796 0.109560 0.029297
0.376745 0.098878 0.015747
0.429358 0.074037 0.001617
0.482551 0.008515 0.000000
0.535363 0.000000 0.000000
0.587915 0.000000 0.000000
0.639948 0.000000 0.000000
0.690394 0.000000 0.000000
0.742275 0.000000 0.000000
0.797147 0.000000 0.000000
0.849393 0.000000 0.000000
0.897002 0.000000 0.000000
0.939544 0.000000 0.000000
0.977447 0.000000 0.000000
1.000000 0.000000 0.000000
1.000000 0.000000 0.000000
1.000000 0.000000 0.000000
1.000000 0.000000 0.000000
1.000000 0.000000 0.000000
0.026246 0.102937 0.073426
0.026246 0.102937 0.073426
0.026246 0.102937 0.073426
0.028229 0.102876 0.073426
0.030945 0.102419 0.073579
0.036194 0.102571 0.073396
0.042695 0.103059 0.073060
0.052491 0.103792 0.072572
0.081666 0.106783 0.070588
0.114290 0.113497 0.065644
0.158755 0.121096 0.058717
0.216251 0.126375 0.047456
0.268894 0.128267 0.035492
0.323247 0.126925 0.022614
0.378607 0.121096 0.007874
0.432410 0.110292 0.000000
0.484565 0.092775 0.000000
0.536797 0.034668 0.000000
0.588983 0.000000 0.000000
0.640436 0.000000 0.000000
0.690394 0.000000 0.000000
0.744594 0.000000 0.000000
0.797421 0.000000 0.000000
0.848142 0.000000 0.000000
0.894804 0.000000 0.000000
0.936767 0.000000 0.000000
0.974395 0.000000 0.000000
1.000000 0.000000 0.000000
1.000000 0.000000 0.000000
1.000000 0.000000 0.000000
1.000000 0.000000 0.000000
1.000000 0.000000 0.000000
0.020661 0.110170 0.072511
0.020661 0.110170 0.072511
0.022644 0.110109 0.072511
0.025757 0.109346 0.073945
0.030152 0.108888 0.075196
0.037385 0.108980 0.075013
0.045167 0.109682 0.074525
0.060212 0.110475 0.073854
0.082338 0.111299 0.071870
0.104341 0.115999 0.069551
0.144015 0.126253 0.061891
0.196994 0.136934 0.048707
0.260288 0.144045 0.033051
0.322881 0.146242 0.017060
0.377813 0.144839 0.000214
0.432685 0.139162 0.000000
0.487587 0.129549 0.000000
0.541070 0.114137 0.000000
0.592584 0.091035 0.000000
0.643275 0.019837 0.000000
0.696345 0.000000 0.000000
0.748409 0.000000 0.000000
0.799527 0.000000 0.000000
0.848814 0.000000 0.000000
0.894377 0.000000 0.000000
0.935637 0.000000 0.000000
0.972808 0.000000 0.000000
1.000000 0.000000 0.000000
1.000000 0.000000 0.000000
1.000000 0.000000 0.000000
1.000000 0.000000 0.000000
1.000000 0.029450 0.000000
0.010864 0.122866 0.072938
0.010864 0.122866 0.072938
0.011566 0.122560 0.073091
0.016663 0.121859 0.074525
0.023743 0.121096 0.075929
0.033234 0.119936 0.078431
0.048280 0.120668 0.077943
0.068147 0.121798 0.075807
0.089937 0.122866 0.074617
0.104555 0.124453 0.071778
0.129824 0.130007 0.068910
0.177859 0.144411 0.055451
0.236942 0.157534 0.038209
0.303044 0.166598 0.017243
0.373175 0.169894 0.000000
0.431617 0.168338 0.000000
0.486488 0.164004 0.000000
0.541405 0.156283 0.000000
0.596094 0.145113 0.000000
0.651759 0.129946 0.000000
0.703029 0.110658 0.000000
0.752651 0.082521 0.000000
0.801297 0.008240 0.000000
0.848173 0.000000 0.000000
0.891844 0.000000 0.000000
0.932097 0.000000 0.000000
0.968902 0.000000 0.000000
1.000000 0.000000 0.000000
1.000000 0.000000 0.000000
1.000000 0.058869 0.000000
1.000000 0.121462 0.000000
1.000000 0.159365 0.000000
0.000000 0.142214 0.073915
0.000000 0.142214 0.073915
0.000000 0.141878 0.075196
0.000000 0.141024 0.076753
0.008026 0.139864 0.078340
0.024994 0.138033 0.081727
0.043458 0.138064 0.081483
0.068849 0.139590 0.080568
0.093233 0.140963 0.078767
0.110414 0.142916 0.075654
0.130617 0.144686 0.071717
0.160189 0.150149 0.068238
0.215274 0.168704 0.048859
0.278782 0.183780 0.026062
0.346654 0.193759 0.000488
0.417456 0.198795 0.000000
0.486030 0.198123 0.000000
0.541436 0.195285 0.000000
0.598444 0.190921 0.000000
0.653437 0.183932 0.000000
0.706233 0.174228 0.000000
0.756771 0.163577 0.000000
0.804166 0.154116 0.000000
0.849638 0.144320 0.000000
0.892454 0.137728 0.000000
0.931792 0.134890 0.000000
0.968109 0.137331 0.000000
1.000000 0.145815 0.000000
1.000000 0.159182 0.000000
1.000000 0.177035 0.000000
1.000000 0.197574 0.000000
1.000000 0.219913 0.000000
0.000000 0.169802 0.074891
0.000000 0.169802 0.074891
0.000000 0.169162 0.075319
0.000000 0.168429 0.078767
0.000000 0.167269 0.080629
0.000000 0.165194 0.084321
0.022614 0.162966 0.088411
0.056123 0.164584 0.086732
0.091341 0.166629 0.084352
0.112734 0.168643 0.080995
0.136446 0.170596 0.077913
0.162692 0.172671 0.071077
0.205478 0.184695 0.065095
0.266056 0.204379 0.040223
0.333104 0.221012 0.010773
0.404303 0.232700 0.000000
0.480690 0.241215 0.000000
0.558190 0.245029 0.000000
0.622614 0.244785 0.000000
0.677058 0.242191 0.000000
0.729427 0.238163 0.000000
0.779660 0.233738 0.000000
0.828061 0.229038 0.000000
0.872892 0.225467 0.000000
0.912474 0.224369 0.000000
0.948669 0.225101 0.000000
0.981750 0.227787 0.000000
1.000000 0.233677 0.000000
1.000000 0.242008 0.000000
1.000000 0.253086 0.000000
1.000000 0.266270 0.000000
1.000000 0.281590 0.000000
0.000000 0.209110 0.077302
0.000000 0.209110 0.077302
0.000000 0.208316 0.078767
0.000000 0.207034 0.080934
0.000000 0.205081 0.084901
0.000000 0.202701 0.089021
0.000000 0.199710 0.093324
0.025360 0.198856 0.094514
0.081636 0.200687 0.092958
0.112428 0.202853 0.090211
0.140352 0.205295 0.086366
0.170382 0.208103 0.080812
0.202640 0.210391 0.071717
0.242283 0.215549 0.066163
0.306249 0.236851 0.039643
0.377935 0.256413 0.005005
0.451484 0.270817 0.000000
0.526146 0.280522 0.000000
0.601251 0.286198 0.000000
0.672480 0.287541 0.000000
0.723079 0.285801 0.000000
0.772488 0.283970 0.000000
0.820249 0.282048 0.000000
0.865263 0.280400 0.000000
0.906950 0.279332 0.000000
0.945281 0.278965 0.000000
0.978210 0.282170 0.000000
1.000000 0.286687 0.000000
1.000000 0.293339 0.000000
1.000000 0.302251 0.000000
1.000000 0.312779 0.000000
1.000000 0.325231 0.000000
0.000000 0.245792 0.082643
0.000000 0.245579 0.082826
0.000000 0.244816 0.084108
0.000000 0.243412 0.087251
0.000000 0.241581 0.089998
0.000000 0.239017 0.093965
0.000000 0.235935 0.098939
0.000000 0.232456 0.104707
0.052094 0.234043 0.102174
0.105623 0.235996 0.099275
0.138277 0.238499 0.096437
0.171328 0.242313 0.092866
0.206210 0.246220 0.088014
0.243595 0.249760 0.079591
0.285801 0.253910 0.073365
0.348455 0.272801 0.047761
0.419593 0.292607 0.009430
0.491768 0.307622 0.000000
0.565393 0.318883 0.000000
0.637232 0.326024 0.000000
0.706752 0.329747 0.000000
0.766445 0.330999 0.000000
0.813840 0.331121 0.000000
0.858762 0.331243 0.000000
0.900389 0.331579 0.000000
0.938842 0.332403 0.000000
0.973877 0.333989 0.000000
1.000000 0.336370 0.000000
1.000000 0.341711 0.000000
1.000000 0.349126 0.000000
1.000000 0.357885 0.000000
1.000000 0.367987 0.000000
0.000000 0.284062 0.091127
0.000000 0.283757 0.091279
0.000000 0.283146 0.092042
0.000000 0.281987 0.094270
0.000000 0.279881 0.096834
0.000000 0.277501 0.101198
0.000000 0.275181 0.106569
0.000000 0.271977 0.113466
0.018860 0.271275 0.116304
0.099580 0.273747 0.113436
0.137514 0.276707 0.110231
0.172702 0.280125 0.106691
0.208225 0.283513 0.102205
0.245609 0.286473 0.096620
0.284215 0.288823 0.089387
0.326604 0.290715 0.085481
0.386969 0.307225 0.067079
0.457069 0.327398 0.028412
0.528801 0.343664 0.000000
0.600671 0.356207 0.000000
0.670558 0.365026 0.000000
0.739254 0.371984 0.000000
0.805570 0.377386 0.000000
0.852232 0.379034 0.000000
0.893828 0.380346 0.000000
0.932219 0.382055 0.000000
0.967498 0.384131 0.000000
0.999390 0.387152 0.000000
1.000000 0.390845 0.000000
1.000000 0.395483 0.000000
1.000000 0.403052 0.000000
1.000000 0.411810 0.000000
0.000000 0.325872 0.102266
0.000000 0.325750 0.102327
0.000000 0.325383 0.103578
0.000000 0.324376 0.105440
0.000000 0.322881 0.108492
0.000000 0.320775 0.113222
0.000000 0.318456 0.118837
0.000000 0.315587 0.125887
0.000000 0.312322 0.133761
0.098329 0.314000 0.131716
0.139284 0.316228 0.128450
0.175357 0.318578 0.125002
0.210636 0.321050 0.120180
0.246647 0.322911 0.114717
0.283635 0.324254 0.108309
0.322423 0.325048 0.100221
0.363836 0.325383 0.096468
0.421393 0.339208 0.090791
0.491096 0.360388 0.059602
0.562310 0.378149 0.016388
0.633082 0.392157 0.000000
0.702754 0.403937 0.000000
0.771023 0.414099 0.000000
0.834928 0.422278 0.000000
0.888151 0.427497 0.000000
0.926604 0.430213 0.000000
0.961822 0.433112 0.000000
0.993713 0.436255 0.000000
1.000000 0.439857 0.000000
1.000000 0.443854 0.000000
1.000000 0.448554 0.000000
1.000000 0.453529 0.000000
0.000000 0.366308 0.116365
0.000000 0.366125 0.116732
0.000000 0.365759 0.117525
0.000000 0.364721 0.119448
0.000000 0.363287 0.122621
0.000000 0.361456 0.126619
0.000000 0.359136 0.132143
0.000000 0.356054 0.139010
0.000000 0.352697 0.146731
0.101839 0.351141 0.150881
0.142550 0.352941 0.147768
0.178653 0.354986 0.144259
0.213382 0.356847 0.139803
0.248264 0.358465 0.134951
0.284184 0.359503 0.128756
0.321050 0.360204 0.121828
0.359533 0.360143 0.112947
0.400092 0.359747 0.108797
0.455024 0.371221 0.106355
0.524956 0.393805 0.091951
0.595636 0.413001 0.060822
0.666224 0.429267 0.019135
0.735622 0.443732 0.000000
0.801999 0.456428 0.000000
0.862669 0.466590 0.000000
0.916655 0.474830 0.000000
0.955657 0.479316 0.000000
0.987518 0.482765 0.000000
1.000000 0.486519 0.000000
1.000000 0.490486 0.000000
1.000000 0.494514 0.000000
1.000000 0.498665 0.000000
0.000000 0.406470 0.132753
0.000000 0.406622 0.133150
0.000000 0.417975 0.139498
0.000000 0.417121 0.141451
0.000000 0.415564 0.144381
0.000000 0.413733 0.148348
0.000000 0.411292 0.153597
0.000000 0.408148 0.160006
0.000000 0.404669 0.167208
0.119753 0.400763 0.175937
0.159762 0.401373 0.174441
0.194644 0.402655 0.171084
0.227665 0.403967 0.166415
0.260990 0.404669 0.161410
0.295232 0.405035 0.155306
0.330510 0.404852 0.148592
0.366461 0.404120 0.140688
0.404517 0.402808 0.131350
0.443671 0.400946 0.126192
0.496193 0.409918 0.125765
0.566461 0.433783 0.114199
0.636286 0.454322 0.101747
0.706020 0.472694 0.085115
0.773770 0.488960 0.046265
0.835660 0.502312 0.013703
0.891386 0.513146 0.000000
0.940551 0.521813 0.000000
0.981567 0.528222 0.000000
1.000000 0.531273 0.000000
1.000000 0.534752 0.000000
1.000000 0.538231 0.000000
1.000000 0.541711 0.000000
0.000000 0.449653 0.152010
0.000000 0.450721 0.152743
0.000000 0.451453 0.154452
0.000000 0.451820 0.156649
0.000000 0.451331 0.159792
0.000000 0.449866 0.163516
0.000000 0.447425 0.168399
0.000000 0.444556 0.174105
0.000000 0.441016 0.181033
0.121431 0.437201 0.189151
0.168215 0.434546 0.193820
0.200534 0.435828 0.190616
0.232273 0.436622 0.186496
0.264134 0.437385 0.181582
0.296757 0.437934 0.176211
0.330327 0.437964 0.170047
0.365057 0.437598 0.162753
0.401190 0.436988 0.154879
0.439246 0.435950 0.145693
0.478492 0.434211 0.139986
0.528985 0.441535 0.141817
0.598840 0.466865 0.132509
0.668879 0.489448 0.122957
0.738003 0.509941 0.111147
0.802670 0.527276 0.100404
0.861326 0.541558 0.091768
0.913481 0.553246 0.088746
0.958801 0.562829 0.092531
0.997345 0.570397 0.101717
1.000000 0.575128 0.107271
1.000000 0.578302 0.107851
1.000000 0.581323 0.111971
0.000000 0.487221 0.168521
0.000000 0.488350 0.169436
0.000000 0.489326 0.170718
0.000000 0.489845 0.173037
0.000000 0.489570 0.176181
0.000000 0.488258 0.179873
0.000000 0.486030 0.184207
0.000000 0.483070 0.189700
0.000000 0.479774 0.196048
0.123995 0.475898 0.203403
0.177340 0.471534 0.211917
0.210117 0.471382 0.211276
0.240116 0.472206 0.207156
0.270817 0.472938 0.202914
0.301884 0.473335 0.197665
0.334234 0.473610 0.191775
0.367681 0.473426 0.185458
0.402075 0.472969 0.177707
0.438392 0.472358 0.169833
0.476326 0.471504 0.160678
0.515282 0.469581 0.154391
0.562249 0.474220 0.158297
0.632136 0.501091 0.151034
0.702083 0.525689 0.143282
0.769009 0.547173 0.135164
0.830625 0.565179 0.129946
0.885710 0.579980 0.127687
0.933867 0.592279 0.130037
0.975341 0.602258 0.137789
1.000000 0.610254 0.149386
1.000000 0.616297 0.163851
1.000000 0.618830 0.167697
0.000000 0.526116 0.186069
0.000000 0.527184 0.186954
0.000000 0.528038 0.188235
0.000000 0.528405 0.190311
0.000000 0.528008 0.193118
0.000000 0.526726 0.196567
0.000000 0.524773 0.200656
0.000000 0.522210 0.205875
0.000000 0.519188 0.211948
0.130159 0.515587 0.219089
0.183352 0.511528 0.227054
0.222202 0.508324 0.232822
0.250492 0.508995 0.229099
0.279545 0.509636 0.224857
0.309606 0.510094 0.219944
0.340398 0.510613 0.214542
0.372747 0.510918 0.208804
0.406592 0.511162 0.202243
0.442145 0.511498 0.195132
0.479103 0.511772 0.187442
0.518029 0.511864 0.178775
0.557549 0.510552 0.172335
0.601923 0.512902 0.178561
0.672908 0.542229 0.173892
0.742214 0.568841 0.169436
0.806332 0.591089 0.166293
0.863767 0.609522 0.166720
0.914336 0.624781 0.170687
0.957641 0.637232 0.178653
0.993683 0.647120 0.190036
1.000000 0.654505 0.204196
1.000000 0.659693 0.220096
0.000000 0.572992 0.209689
0.000000 0.573449 0.209934
0.000000 0.573602 0.210971
0.000000 0.573175 0.212375
0.000000 0.572107 0.214542
0.000000 0.570397 0.217441
0.000000 0.568353 0.221317
0.000000 0.565789 0.225895
0.018250 0.562768 0.231632
0.144411 0.559594 0.238315
0.195743 0.555840 0.246098
0.236851 0.551690 0.254520
0.266697 0.550683 0.254520
0.294255 0.551202 0.250584
0.322881 0.551598 0.245945
0.352361 0.551843 0.240665
0.383124 0.552087 0.235080
0.415106 0.552178 0.228702
0.448707 0.552209 0.221836
0.483894 0.552117 0.214328
0.520714 0.551904 0.206394
0.559014 0.551415 0.197360
0.597192 0.549371 0.190158
0.640192 0.550958 0.195956
0.707729 0.578576 0.193271
0.774075 0.605035 0.191775
0.834806 0.627222 0.192264
0.888396 0.645655 0.196445
0.934783 0.660822 0.204746
0.973571 0.672877 0.215763
1.000000 0.682094 0.229435
1.000000 0.688716 0.245396
0.000000 0.613275 0.229618
0.000000 0.613550 0.229923
0.000000 0.613703 0.230930
0.000000 0.613367 0.232364
0.000000 0.612390 0.234592
0.000000 0.610956 0.237186
0.000000 0.608881 0.240635
0.000000 0.606561 0.245212
0.076234 0.603876 0.250462
0.158999 0.600793 0.257053
0.207553 0.597345 0.264439
0.248386 0.593317 0.272404
0.282444 0.589899 0.279118
0.308568 0.590417 0.275425
0.335790 0.590967 0.270939
0.364202 0.591394 0.266148
0.393866 0.591913 0.260990
0.424903 0.592157 0.254917
0.457221 0.592584 0.248692
0.491127 0.592706 0.241825
0.526604 0.592859 0.234501
0.563378 0.592889 0.226108
0.601556 0.592554 0.217380
0.639155 0.590539 0.209506
0.677180 0.588342 0.212680
0.740169 0.612970 0.213046
0.803677 0.639124 0.214054
0.860533 0.661006 0.218418
0.910246 0.679164 0.226169
0.952209 0.693751 0.237308
0.986358 0.705196 0.251499
1.000000 0.713619 0.268009
0.000000 0.658991 0.254093
0.000000 0.659541 0.254887
0.000000 0.659663 0.255650
0.000000 0.658900 0.256809
0.000000 0.657588 0.258396
0.000000 0.655726 0.260472
0.000000 0.653162 0.263249
0.000000 0.650233 0.267033
0.116060 0.647028 0.271763
0.176974 0.643519 0.277409
0.221805 0.639551 0.283909
0.260868 0.635431 0.291325
0.296239 0.630701 0.299596
0.323583 0.628870 0.300298
0.349065 0.628779 0.295598
0.375494 0.628626 0.290684
0.403540 0.628595 0.284916
0.433051 0.628779 0.279515
0.464057 0.629175 0.273381
0.496864 0.629664 0.266850
0.530999 0.630213 0.260349
0.566552 0.630579 0.252720
0.602930 0.630488 0.244327
0.640253 0.629816 0.234745
0.676204 0.627100 0.225864
0.716335 0.627955 0.232334
0.773281 0.648371 0.235386
0.832883 0.673518 0.239597
0.885466 0.694484 0.247105
0.930419 0.711482 0.258183
0.967376 0.724971 0.272770
0.996704 0.735164 0.289708
0.000000 0.696773 0.275456
0.000000 0.697353 0.276036
0.000000 0.697536 0.277043
0.000000 0.697230 0.278264
0.000000 0.696223 0.279911
0.000000 0.695003 0.282383
0.000000 0.693294 0.285466
0.051270 0.691218 0.289372
0.151583 0.688899 0.294224
0.200839 0.686213 0.299840
0.242649 0.683131 0.306554
0.280156 0.679530 0.313970
0.314733 0.675532 0.322148
0.346227 0.671321 0.329870
0.369696 0.671199 0.325109
0.394934 0.671077 0.320378
0.421454 0.670863 0.315129
0.449409 0.670863 0.309300
0.479164 0.671138 0.303624
0.510369 0.671565 0.297642
0.542992 0.672023 0.291051
0.576867 0.672450 0.284031
0.611841 0.672694 0.276402
0.647578 0.672511 0.267948
0.684108 0.671992 0.258762
0.719844 0.669856 0.249088
0.757046 0.669642 0.256626
0.808225 0.686213 0.263401
0.863584 0.710292 0.272038
0.911070 0.729824 0.284092
0.950225 0.745235 0.299321
0.981323 0.756924 0.317510
0.000000 0.736965 0.302861
0.000000 0.737209 0.303288
0.000000 0.737148 0.303960
0.000000 0.736751 0.304997
0.000000 0.735836 0.306432
0.000000 0.734615 0.308568
0.073243 0.733028 0.311528
0.146395 0.731106 0.314977
0.193149 0.729000 0.319707
0.233127 0.726497 0.325139
0.269718 0.723629 0.331212
0.304295 0.720485 0.338567
0.336736 0.716884 0.346410
0.367651 0.712734 0.354925
0.393256 0.710658 0.356481
0.416449 0.710475 0.351812
0.441413 0.710262 0.346502
0.467659 0.710231 0.340887
0.495552 0.710384 0.335454
0.525078 0.710811 0.329503
0.556054 0.711299 0.323735
0.588251 0.711635 0.317021
0.621180 0.711818 0.310033
0.655177 0.711727 0.302312
0.689662 0.711330 0.293584
0.724788 0.710567 0.283787
0.759854 0.709163 0.273869
0.793698 0.707393 0.282048
0.838865 0.719966 0.291600
0.889433 0.742458 0.304509
0.931548 0.760250 0.320562
0.965179 0.773831 0.339635
0.000000 0.773251 0.331731
0.000000 0.773434 0.332189
0.000000 0.773404 0.332891
0.020386 0.773129 0.334081
0.101991 0.772610 0.335821
0.142031 0.771969 0.338354
0.179019 0.771359 0.342016
0.214206 0.770596 0.346593
0.249149 0.769680 0.352209
0.282444 0.768673 0.358984
0.315068 0.767361 0.366430
0.346593 0.765682 0.374609
0.377325 0.763455 0.383368
0.406653 0.760800 0.392706
0.434791 0.757382 0.402075
0.456367 0.757565 0.397955
0.479011 0.757565 0.393256
0.503075 0.757595 0.388281
0.528923 0.757748 0.383062
0.556085 0.758083 0.377874
0.584863 0.758419 0.372229
0.614649 0.758755 0.366522
0.645228 0.758785 0.359869
0.676600 0.758663 0.352483
0.708705 0.758236 0.344640
0.741329 0.757595 0.335760
0.774380 0.756802 0.326268
0.807858 0.755825 0.316258
0.837552 0.752865 0.324895
0.875059 0.760800 0.337591
0.918486 0.780117 0.355627
0.953002 0.794614 0.376196
0.207797 0.813809 0.375372
0.208774 0.813809 0.375525
0.212528 0.813565 0.375891
0.220523 0.813138 0.376654
0.231479 0.812497 0.377966
0.246952 0.811582 0.379950
0.265537 0.810575 0.382574
0.286687 0.809323 0.386053
0.309911 0.807919 0.390509
0.334539 0.806332 0.395789
0.360204 0.804410 0.401831
0.386297 0.802304 0.408789
0.412573 0.799863 0.416449
0.438636 0.797055 0.424628
