20 Preset/Journey new/LUT for PR-AE-PS-FCPX/Journey - Lut (8).cube
# Created by Adobe Lightroom plugin Export LUT (1.24.0)
# www.johnrellis.com/lightroom/exportlut.htm
# Preset: 旅拍胶片-素材江湖08
# Color profile: C:\Program Files (x86)\Common Files\Adobe\Color\Profiles\Recommended\VideoHD.icc
LUT_3D_SIZE 32
DOMAIN_MIN 0.0 0.0 0.0
DOMAIN_MAX 1.0 1.0 1.0
0.118593 0.110201 0.100465
0.118593 0.110201 0.100465
0.118593 0.110201 0.100465
0.118593 0.110201 0.100465
0.118593 0.110201 0.100465
0.119356 0.110414 0.100801
0.119417 0.111025 0.101045
0.120424 0.111513 0.101686
0.120760 0.112398 0.102235
0.121553 0.113252 0.102815
0.123232 0.114473 0.104372
0.126223 0.117037 0.106600
0.130251 0.121309 0.110475
0.136721 0.127077 0.115938
0.144442 0.134218 0.122438
0.153445 0.142855 0.130434
0.164279 0.152651 0.139590
0.176608 0.164248 0.150423
0.190616 0.177676 0.162814
0.208743 0.194736 0.178744
0.229923 0.214755 0.197696
0.252018 0.235843 0.217716
0.274571 0.257450 0.238437
0.298070 0.280308 0.260502
0.322576 0.304234 0.283757
0.348333 0.329381 0.308629
0.375006 0.355840 0.334905
0.402930 0.383612 0.362829
0.431830 0.412726 0.392218
0.461891 0.443244 0.423438
0.492866 0.474983 0.456001
0.524620 0.507683 0.489845
0.118593 0.110201 0.100465
0.118593 0.110201 0.100465
0.118593 0.110201 0.100465
0.118593 0.110201 0.100465
0.118593 0.110201 0.100465
0.119356 0.110414 0.100801
0.119417 0.111025 0.101045
0.119936 0.111574 0.101686
0.120760 0.112398 0.102235
0.121553 0.113252 0.102815
0.123232 0.114473 0.104372
0.126223 0.117037 0.106600
0.130251 0.121309 0.110475
0.136782 0.127077 0.115633
0.144442 0.134218 0.122438
0.153262 0.142641 0.130220
0.163790 0.152529 0.139376
0.176028 0.163973 0.150088
0.190249 0.177249 0.162325
0.207919 0.193851 0.177920
0.228458 0.213474 0.196384
0.249668 0.233768 0.215579
0.271763 0.254856 0.235813
0.294682 0.277073 0.257359
0.318883 0.300511 0.280247
0.344060 0.325170 0.304417
0.370520 0.351324 0.330388
0.398413 0.379095 0.358282
0.427222 0.408087 0.387579
0.457374 0.438697 0.418769
0.488594 0.470588 0.451484
0.520500 0.503380 0.485451
0.118593 0.110201 0.100465
0.118593 0.110201 0.100465
0.118593 0.110201 0.100465
0.118593 0.110201 0.100465
0.118593 0.110201 0.100465
0.119356 0.110414 0.100801
0.119417 0.111025 0.101045
0.120424 0.111513 0.101686
0.120760 0.112398 0.102235
0.121981 0.113161 0.103182
0.124025 0.115267 0.104891
0.126894 0.117800 0.107485
0.131197 0.122255 0.111238
0.138216 0.128176 0.116915
0.145449 0.135286 0.123354
0.154726 0.143771 0.131289
0.165133 0.153536 0.140352
0.177554 0.165225 0.151095
0.191562 0.178378 0.163424
0.209232 0.195224 0.179171
0.229496 0.214328 0.197208
0.250462 0.234409 0.216342
0.272068 0.255192 0.236210
0.294835 0.277226 0.257420
0.318639 0.300237 0.279942
0.343420 0.324620 0.303899
0.369848 0.350683 0.329808
0.397528 0.378271 0.357366
0.426368 0.407202 0.386664
0.456428 0.437690 0.417731
0.487373 0.469306 0.450172
0.519219 0.502037 0.484047
0.118593 0.110201 0.100465
0.118593 0.110201 0.100465
0.118593 0.110201 0.100465
0.118593 0.110201 0.100465
0.118593 0.110201 0.100465
0.119356 0.110414 0.100801
0.119936 0.110964 0.101045
0.120241 0.111849 0.101625
0.121736 0.112886 0.102876
0.123232 0.114473 0.104372
0.125673 0.116518 0.106355
0.129091 0.120058 0.109407
0.134127 0.124819 0.113619
0.141146 0.130770 0.119356
0.148562 0.138125 0.126101
0.157595 0.146792 0.133974
0.168399 0.156619 0.143191
0.180667 0.168154 0.153841
0.194522 0.181460 0.166171
0.212284 0.197910 0.181735
0.231388 0.216281 0.199008
0.251835 0.235874 0.217716
0.273136 0.256107 0.237125
0.295537 0.277806 0.258122
0.319432 0.301061 0.280674
0.344701 0.325841 0.305089
0.371435 0.352209 0.331273
0.399329 0.380011 0.359167
0.428260 0.409155 0.388617
0.458259 0.439521 0.419623
0.488838 0.470832 0.451759
0.519982 0.502861 0.484871
0.118593 0.110201 0.100465
0.118593 0.110201 0.100465
0.118929 0.110475 0.100435
0.118929 0.110475 0.100435
0.119173 0.110750 0.100740
0.120516 0.112123 0.101930
0.121248 0.112947 0.102876
0.122774 0.113954 0.103761
0.124025 0.115267 0.104891
0.126223 0.117037 0.106600
0.129305 0.119753 0.109133
0.133211 0.123873 0.112856
0.139101 0.129061 0.117647
0.145632 0.135500 0.123568
0.153780 0.142794 0.130434
0.163149 0.151827 0.138582
0.173800 0.161929 0.147921
0.186526 0.173648 0.158968
0.201053 0.187167 0.171695
0.218509 0.203983 0.187533
0.237644 0.222171 0.204562
0.257511 0.241184 0.222751
0.278325 0.261234 0.242008
0.300603 0.282658 0.262852
0.324346 0.305821 0.285374
0.349493 0.330602 0.309789
0.375921 0.356695 0.335790
0.403510 0.384222 0.363409
0.431983 0.412879 0.392401
0.461433 0.442756 0.422919
0.491554 0.473610 0.454566
0.522148 0.505150 0.487221
0.119936 0.110964 0.101045
0.119936 0.110964 0.101045
0.119692 0.111299 0.101350
0.119692 0.111299 0.101350
0.119692 0.111299 0.101350
0.120516 0.112123 0.101930
0.123781 0.115023 0.104616
0.127138 0.118074 0.107790
0.129549 0.119997 0.109407
0.132082 0.122683 0.111788
0.135836 0.126162 0.115175
0.140749 0.130831 0.119356
0.146822 0.136294 0.124269
0.153445 0.142855 0.130434
0.161929 0.150576 0.137606
0.171725 0.159792 0.146151
0.182834 0.170443 0.156039
0.195834 0.182528 0.167239
0.211246 0.197086 0.180941
0.229068 0.213870 0.196872
0.247898 0.231907 0.213870
0.267521 0.250797 0.232029
0.307530 0.289433 0.269383
0.331090 0.312474 0.291905
0.355413 0.336461 0.315648
0.380652 0.361395 0.340459
0.406592 0.387335 0.366552
0.433204 0.414160 0.393683
0.460700 0.442054 0.422156
0.488655 0.470649 0.451545
0.517082 0.499886 0.481788
0.546197 0.530022 0.513085
0.121248 0.112337 0.102235
0.121248 0.112337 0.102235
0.121248 0.112337 0.102235
0.121248 0.112337 0.102235
0.120943 0.112062 0.102296
0.121248 0.112947 0.102876
0.122774 0.113954 0.103761
0.127871 0.118807 0.108309
0.136995 0.127291 0.115877
0.144228 0.134005 0.122194
0.148196 0.137728 0.125643
0.153445 0.142855 0.130434
0.160006 0.148562 0.135836
0.167269 0.155795 0.142458
0.176211 0.164126 0.150057
0.186465 0.173648 0.159152
0.198245 0.184817 0.169497
0.211460 0.197330 0.181216
0.229191 0.213993 0.196994
0.247868 0.231907 0.213993
0.267948 0.251225 0.232425
0.289464 0.271885 0.252293
0.312322 0.294011 0.273838
0.336584 0.317815 0.297154
0.361517 0.342504 0.321599
0.386938 0.367681 0.346807
0.412390 0.393133 0.372442
0.438392 0.419440 0.399054
0.465187 0.446601 0.426856
0.492317 0.474403 0.455421
0.519982 0.502861 0.484871
0.548455 0.532372 0.515496
0.122530 0.113710 0.103456
0.122530 0.113710 0.103456
0.122530 0.113710 0.103456
0.122530 0.113710 0.103456
0.121798 0.113497 0.103120
0.122774 0.113954 0.103761
0.123781 0.115023 0.104616
0.125673 0.116518 0.106355
0.133577 0.123812 0.113161
0.144442 0.134218 0.122438
0.157931 0.147158 0.134401
0.168246 0.156466 0.143008
0.174838 0.162692 0.148836
0.182650 0.169955 0.155703
0.191714 0.178500 0.163577
0.202029 0.188235 0.172702
0.213779 0.199496 0.183200
0.228672 0.213687 0.196628
0.245274 0.229557 0.211612
0.263249 0.246616 0.227939
0.282414 0.265141 0.245762
0.302831 0.284947 0.264927
0.324865 0.306340 0.285863
0.348180 0.329198 0.308415
0.372381 0.353185 0.332280
0.396796 0.377569 0.356664
0.421576 0.402441 0.381811
0.446784 0.427955 0.407752
0.472663 0.454261 0.434699
0.499123 0.481361 0.462593
0.526055 0.509148 0.491402
0.554040 0.538170 0.521538
0.124971 0.116304 0.106081
0.124971 0.116304 0.106081
0.125216 0.115999 0.105776
0.124758 0.116060 0.105776
0.124514 0.115785 0.105501
0.125002 0.115724 0.105501
0.126223 0.117037 0.106600
0.127871 0.118807 0.108309
0.130922 0.121492 0.110750
0.141207 0.131258 0.119570
0.154360 0.143374 0.130861
0.170016 0.158297 0.144656
0.189548 0.176547 0.161685
0.202304 0.188785 0.173129
0.211460 0.197330 0.181216
0.221714 0.207126 0.190463
0.235019 0.219669 0.202304
0.249851 0.233951 0.215793
0.265751 0.248936 0.230320
0.282567 0.265324 0.245945
0.300847 0.283055 0.263188
0.320592 0.302129 0.281804
0.341436 0.322667 0.301976
0.363745 0.344701 0.323735
0.386938 0.367681 0.346807
0.410376 0.391119 0.370367
0.434119 0.415137 0.394659
0.458503 0.439765 0.419867
0.483375 0.465217 0.445960
0.508721 0.491249 0.472816
0.534936 0.518364 0.500938
0.562158 0.546624 0.530358
0.130922 0.121492 0.110750
0.130922 0.121492 0.110750
0.130465 0.121553 0.110750
0.130251 0.121309 0.110475
0.130190 0.120729 0.110231
0.129305 0.120302 0.109682
0.130465 0.121553 0.110750
0.132998 0.123629 0.112581
0.136110 0.126375 0.115145
0.140078 0.130159 0.118898
0.152712 0.142061 0.129580
0.168246 0.156466 0.143008
0.187045 0.174258 0.159640
0.209354 0.195377 0.179294
0.234714 0.219364 0.202060
0.247044 0.231022 0.213138
0.260105 0.243565 0.225071
0.274266 0.257298 0.238254
0.289403 0.271977 0.252384
0.305730 0.287724 0.267643
0.322972 0.304479 0.284062
0.340978 0.322179 0.301427
0.360143 0.341070 0.320195
0.380652 0.361395 0.340459
0.402045 0.382757 0.361883
0.423926 0.404730 0.384161
0.446571 0.427710 0.407477
0.469886 0.451423 0.431769
0.493996 0.476081 0.457160
0.518669 0.501518 0.483467
0.544366 0.528191 0.511131
0.571313 0.556146 0.540276
0.139162 0.129580 0.117861
0.139162 0.129580 0.117861
0.139284 0.129305 0.117922
0.138674 0.129122 0.117647
0.138613 0.128634 0.117464
0.137789 0.128206 0.116945
0.137789 0.128206 0.116945
0.140352 0.130404 0.118868
0.143404 0.133181 0.121523
0.147189 0.136690 0.124727
0.152377 0.141665 0.129122
0.167422 0.155581 0.142245
0.185946 0.173068 0.158480
0.209110 0.195102 0.179019
0.235508 0.219974 0.202640
0.264652 0.247959 0.229313
0.287938 0.270481 0.251011
0.301244 0.283330 0.263523
0.315496 0.297246 0.276951
0.330602 0.311955 0.291417
0.346502 0.327581 0.306798
0.363256 0.344182 0.323247
0.381445 0.362249 0.341314
0.400671 0.381353 0.360540
0.420691 0.401526 0.380865
0.441566 0.422675 0.402319
0.463233 0.444617 0.424811
0.485481 0.467414 0.448188
0.508354 0.490944 0.472511
0.532158 0.515465 0.497963
0.557061 0.541344 0.524834
0.583185 0.568536 0.553277
0.150057 0.139284 0.127199
0.150057 0.139284 0.127199
0.149874 0.139101 0.126955
0.149691 0.138888 0.126741
0.149294 0.138491 0.126558
0.148379 0.137911 0.125856
0.147555 0.137087 0.125216
0.149447 0.138705 0.126772
0.152316 0.141665 0.129397
0.156130 0.145296 0.132784
0.160769 0.149691 0.136599
0.168093 0.156283 0.142794
0.193820 0.180453 0.165438
0.218967 0.204471 0.187930
0.247318 0.231296 0.213352
0.278019 0.260899 0.241611
0.310399 0.292271 0.272068
0.343816 0.324926 0.304234
0.361089 0.342046 0.321111
0.375158 0.355993 0.335027
0.389715 0.370489 0.349615
0.405158 0.385840 0.365057
0.421363 0.402228 0.381567
0.438788 0.419776 0.399420
0.456855 0.438117 0.418158
0.475563 0.457191 0.437690
0.494697 0.476783 0.457893
0.514397 0.497169 0.478950
0.535180 0.518608 0.501183
0.557122 0.541405 0.524895
0.580285 0.565484 0.550042
0.604944 0.591272 0.577020
0.164797 0.153201 0.139956
0.164797 0.153201 0.139956
0.164645 0.153017 0.139742
0.164004 0.152712 0.139345
0.163302 0.152010 0.138766
0.162631 0.151278 0.138186
0.161593 0.150210 0.137209
0.161227 0.149844 0.137026
0.164950 0.153384 0.140139
0.169863 0.158145 0.144472
0.175906 0.163455 0.149538
0.183108 0.170413 0.156039
0.192752 0.179660 0.164675
0.216861 0.202487 0.185977
0.245335 0.229435 0.211612
0.275395 0.258488 0.239353
0.307103 0.289158 0.269047
0.339879 0.321050 0.300420
0.372839 0.353674 0.332738
0.401007 0.381689 0.360845
0.413855 0.394629 0.373877
0.427680 0.408576 0.388037
0.442603 0.423682 0.403418
0.458686 0.439979 0.420020
0.475410 0.457130 0.437598
0.493019 0.475074 0.456153
0.511162 0.493782 0.475410
0.530114 0.513329 0.495766
0.550225 0.534203 0.517418
0.571618 0.556481 0.540642
0.594232 0.580072 0.565301
0.618341 0.605280 0.591730
0.180697 0.168490 0.153994
0.180697 0.168490 0.153994
0.180667 0.168154 0.153841
0.180087 0.167880 0.153506
0.179507 0.167269 0.152987
0.178744 0.166476 0.152316
0.177981 0.165682 0.151644
0.176944 0.164584 0.150576
0.179080 0.166781 0.152468
0.183963 0.171298 0.156863
0.189975 0.176974 0.161990
0.197238 0.183749 0.168460
0.205753 0.191836 0.175967
0.216739 0.202365 0.185977
0.242954 0.227146 0.209415
0.273198 0.256199 0.237247
0.304204 0.286259 0.266300
0.336309 0.317571 0.296971
0.368933 0.349798 0.328862
0.401099 0.381903 0.360998
0.432715 0.413642 0.393164
0.452216 0.433387 0.413336
0.465949 0.447425 0.427680
0.480751 0.462531 0.443183
0.496407 0.478584 0.459724
0.512749 0.495460 0.477180
0.529900 0.513115 0.495521
0.548028 0.531914 0.515038
0.567285 0.551934 0.535882
0.587945 0.573480 0.558434
0.609857 0.596460 0.582452
0.633173 0.620844 0.608026
0.201450 0.187869 0.172274
0.201511 0.187716 0.172274
0.201053 0.187472 0.172000
0.200320 0.186954 0.171389
0.199680 0.186007 0.170504
0.198489 0.185092 0.169802
0.197360 0.183871 0.168612
0.196170 0.182650 0.167575
0.194919 0.181888 0.166629
0.199954 0.186557 0.170932
0.206119 0.192233 0.176394
0.213321 0.199008 0.182834
0.221653 0.207004 0.190188
0.230869 0.215732 0.198520
0.242863 0.227268 0.209537
0.270298 0.253483 0.234501
0.301915 0.284001 0.264073
0.333532 0.314916 0.294347
0.365911 0.346746 0.325872
0.397864 0.378607 0.357733
0.429419 0.410407 0.389899
0.460700 0.442054 0.422156
0.490120 0.472114 0.453101
0.503624 0.486061 0.467414
0.517998 0.500847 0.482826
0.533440 0.516777 0.499336
0.549798 0.533745 0.516960
0.567346 0.552026 0.536034
0.586206 0.571710 0.556573
0.606531 0.592950 0.578759
0.628229 0.615625 0.602564
0.651087 0.639612 0.627680
0.223239 0.208469 0.191714
0.223239 0.208469 0.191714
0.223026 0.208225 0.191470
0.222599 0.207767 0.191104
0.221744 0.207126 0.190311
0.220890 0.206180 0.189425
0.219852 0.205142 0.188540
0.218509 0.203983 0.187533
0.217197 0.202823 0.186374
0.219303 0.204562 0.188052
0.225071 0.210147 0.193332
0.231876 0.216587 0.199374
0.239597 0.224033 0.206394
0.248173 0.232181 0.214206
0.257420 0.241093 0.222660
0.269718 0.252873 0.233921
0.297734 0.279911 0.260075
0.330236 0.311559 0.291081
0.362219 0.343114 0.322210
0.394263 0.375036 0.354101
0.426184 0.407080 0.386450
0.457862 0.439185 0.419226
0.488869 0.470893 0.451789
0.518914 0.501793 0.483772
0.541070 0.524681 0.507530
0.555810 0.540032 0.523522
0.571588 0.556451 0.540612
0.588525 0.574090 0.559045
0.606622 0.593042 0.578912
0.625971 0.613275 0.600092
0.646448 0.634699 0.622583
0.668025 0.657343 0.646357
0.246555 0.230503 0.212711
0.246403 0.230533 0.212589
0.246189 0.230350 0.212497
0.245548 0.229862 0.211948
0.245060 0.229129 0.211276
0.244022 0.228275 0.210544
0.243076 0.227237 0.209537
0.241825 0.226169 0.208408
0.240269 0.224735 0.207065
0.238712 0.223087 0.205478
0.244022 0.228275 0.210544
0.250645 0.234623 0.216556
0.258183 0.241733 0.223362
0.266453 0.249638 0.230869
0.275364 0.258305 0.239261
0.285008 0.267552 0.248142
0.297765 0.280003 0.260258
0.326513 0.307927 0.287449
0.359686 0.340673 0.319768
0.391760 0.372412 0.351507
0.423743 0.404608 0.383978
0.455818 0.437049 0.417029
0.487160 0.469093 0.449958
0.517540 0.500359 0.482246
0.547448 0.531334 0.514397
0.577111 0.562188 0.546624
0.593835 0.579644 0.564843
0.610132 0.596735 0.582757
0.627619 0.614984 0.601892
0.646113 0.634363 0.622217
0.665705 0.654963 0.643793
0.686366 0.676631 0.666560
0.272068 0.255192 0.236210
0.272068 0.255192 0.236210
0.280919 0.263767 0.244419
0.280522 0.263188 0.243992
0.279728 0.262547 0.243381
0.278752 0.261631 0.242344
0.277531 0.260380 0.241276
0.275944 0.258885 0.239811
0.274510 0.257359 0.238346
0.272618 0.255589 0.236667
0.273686 0.256718 0.237705
0.280278 0.262943 0.243717
0.287327 0.269841 0.250401
0.295109 0.277348 0.257603
0.303380 0.285557 0.265599
0.312444 0.294163 0.274022
0.321935 0.303410 0.283055
0.334752 0.316045 0.295445
0.363134 0.344060 0.323125
0.396155 0.376928 0.356023
0.428046 0.408942 0.388373
0.459693 0.441016 0.421088
0.490669 0.472694 0.453651
0.520775 0.503716 0.485756
0.550256 0.534234 0.517449
0.579370 0.564569 0.549096
0.608423 0.594903 0.580835
0.632929 0.620539 0.607721
0.649012 0.637476 0.625452
0.666438 0.655695 0.644617
0.685023 0.675196 0.665064
0.704585 0.695735 0.686610
0.301915 0.284001 0.264073
0.302739 0.284886 0.264958
0.303563 0.285618 0.265660
0.304051 0.285954 0.266056
0.304051 0.285954 0.266056
0.303166 0.285344 0.265354
0.302098 0.284215 0.264317
0.300603 0.282658 0.262852
0.298924 0.281041 0.261234
0.297154 0.279301 0.259495
0.295018 0.277256 0.257603
0.299931 0.282078 0.262211
0.306645 0.288670 0.268589
0.314183 0.295842 0.275700
0.322148 0.303746 0.283330
0.330907 0.312291 0.291783
0.340185 0.321355 0.300694
0.350225 0.331243 0.310430
0.363836 0.344793 0.323857
0.392370 0.373083 0.352239
0.425483 0.406348 0.385748
0.457588 0.438911 0.418921
0.488930 0.470954 0.451850
0.519249 0.502159 0.484138
0.548974 0.532891 0.516045
0.578393 0.563561 0.547997
0.607691 0.594141 0.580041
0.636713 0.624537 0.611872
0.665431 0.654658 0.643488
0.685176 0.675410 0.665278
0.702937 0.693996 0.684779
0.721645 0.713588 0.705318
0.328557 0.309941 0.289433
0.329412 0.310857 0.290379
0.330358 0.311681 0.291234
0.330907 0.312291 0.291783
0.331029 0.312413 0.291844
0.330480 0.311833 0.291264
0.329290 0.310735 0.290227
0.327947 0.309422 0.288945
0.326390 0.307774 0.287297
0.324559 0.306004 0.285588
0.322332 0.303960 0.283543
0.322393 0.304021 0.283635
0.328923 0.310338 0.289891
0.336187 0.317418 0.296818
0.344030 0.325109 0.304356
0.352300 0.333318 0.312566
0.361364 0.342199 0.321294
0.370764 0.351598 0.330694
0.381018 0.361761 0.340795
0.395117 0.375830 0.354986
0.423194 0.403967 0.383398
0.455848 0.437171 0.417182
0.487648 0.469612 0.450477
0.518303 0.501152 0.483101
0.548272 0.532158 0.515282
0.577905 0.563012 0.547478
0.607416 0.593835 0.579706
0.636652 0.624506 0.611841
0.665675 0.654902 0.643763
0.694362 0.685023 0.675349
0.720821 0.712764 0.704463
0.738521 0.731319 0.723903
0.357153 0.338140 0.317266
0.358038 0.339086 0.318151
0.358831 0.339818 0.318975
0.359503 0.340368 0.319524
0.359503 0.340490 0.319646
0.359014 0.339971 0.319066
0.357916 0.338964 0.318090
0.356695 0.337682 0.316838
0.355200 0.336095 0.315343
0.353429 0.334478 0.313634
0.351568 0.332525 0.311711
0.349310 0.330419 0.309575
0.353155 0.334051 0.313237
0.359930 0.340826 0.320012
0.367498 0.348425 0.327489
0.375677 0.356542 0.335546
0.384619 0.365362 0.344457
0.394263 0.375036 0.354101
0.404669 0.385412 0.364599
0.415778 0.396582 0.375860
0.430945 0.411780 0.391333
0.459113 0.440406 0.420508
0.491310 0.473335 0.454353
0.522850 0.505913 0.488014
0.553765 0.537896 0.521294
0.584161 0.569543 0.554314
0.614282 0.601007 0.587243
0.643946 0.632136 0.619898
0.673304 0.662928 0.652155
0.702235 0.693263 0.684016
0.730434 0.722866 0.715053
0.757656 0.751339 0.744808
0.393591 0.374334 0.353399
0.393957 0.374731 0.353826
0.394110 0.374884 0.354009
0.393957 0.374731 0.353826
0.393561 0.374273 0.353338
0.392676 0.373388 0.352483
0.391669 0.372320 0.351476
0.390204 0.371008 0.350103
0.388769 0.369482 0.348577
0.387243 0.367895 0.347021
0.385473 0.366125 0.345251
0.383490 0.364172 0.343297
0.382330 0.363073 0.342168
0.388891 0.369635 0.348730
0.396063 0.376715 0.355871
0.403784 0.384497 0.363653
0.412085 0.392798 0.372076
0.420905 0.401770 0.381140
0.430518 0.411444 0.390967
0.440711 0.421668 0.401373
0.451423 0.432593 0.412482
0.465949 0.447425 0.427680
0.492348 0.474434 0.455451
0.522606 0.505577 0.487709
0.553368 0.537469 0.520836
0.584009 0.569421 0.554162
0.614588 0.601343 0.587579
0.644678 0.632868 0.620661
0.674342 0.664027 0.653315
0.703456 0.694575 0.685389
0.731838 0.724331 0.716579
0.759152 0.752926 0.746487
0.424811 0.405646 0.385046
0.425055 0.405921 0.385321
0.425269 0.406134 0.385565
0.425147 0.406012 0.385412
0.424811 0.405646 0.385046
0.423987 0.404883 0.384253
0.423011 0.403845 0.383215
0.421790 0.402686 0.381994
0.420539 0.401343 0.380682
0.419104 0.399878 0.379278
0.417456 0.398352 0.377661
0.415747 0.396551 0.375891
0.413642 0.394415 0.373632
0.416388 0.397131 0.376471
0.423255 0.404120 0.383490
0.430701 0.411627 0.391089
0.438788 0.419776 0.399420
0.447333 0.428443 0.408270
0.456458 0.437720 0.417762
0.466133 0.447608 0.427893
0.476448 0.458106 0.438605
0.487098 0.469001 0.449836
0.501396 0.483742 0.465064
0.526543 0.509667 0.491890
0.552392 0.536461 0.519799
0.582757 0.568109 0.552758
0.613642 0.600397 0.586572
0.644068 0.632288 0.620020
0.674128 0.663783 0.653101
0.703639 0.694759 0.685603
0.732479 0.724971 0.717250
0.760189 0.753964 0.747585
0.460639 0.441932 0.422065
0.461250 0.442573 0.422705
0.461280 0.442695 0.422827
0.460914 0.442298 0.422400
0.460151 0.441505 0.421607
0.458961 0.440345 0.420417
0.457557 0.438849 0.418891
0.455848 0.437079 0.417090
0.454078 0.435309 0.415290
0.452216 0.433387 0.413336
0.450202 0.431342 0.411231
0.448066 0.429175 0.409033
0.445716 0.426825 0.406592
0.443244 0.424292 0.403998
0.449165 0.430335 0.410163
0.455634 0.436866 0.416907
0.462806 0.444190 0.424353
0.470619 0.452186 0.432532
0.479255 0.460975 0.441566
0.488472 0.470466 0.451392
0.498299 0.480568 0.461799
0.508385 0.490974 0.472541
0.518822 0.501610 0.483589
0.532555 0.515892 0.498390
0.556359 0.540612 0.524132
0.584497 0.569909 0.554681
0.614160 0.600946 0.587152
0.644556 0.632776 0.620539
0.674556 0.664271 0.653590
0.704158 0.695308 0.686152
0.733089 0.725643 0.717922
0.761105 0.754940 0.748592
0.490547 0.472541 0.453498
0.491066 0.473091 0.454078
0.491310 0.473335 0.454353
0.491218 0.473243 0.454200
0.490791 0.472786 0.453773
0.490059 0.472023 0.452979
0.489204 0.471199 0.452094
0.488167 0.470161 0.450996
0.487068 0.468971 0.449805
0.485817 0.467689 0.448524
0.484443 0.466255 0.447059
0.482704 0.464607 0.445289
0.480842 0.462654 0.443305
0.478553 0.460243 0.440864
0.479683 0.461433 0.442054
0.485664 0.467597 0.448371
0.492195 0.474281 0.455299
0.499458 0.481697 0.462989
0.507378 0.489815 0.471382
0.515892 0.498726 0.480568
0.525170 0.508232 0.490425
0.534844 0.518273 0.500877
0.544884 0.528649 0.511620
0.555108 0.539300 0.522728
0.568902 0.553643 0.537682
0.592432 0.578180 0.563348
0.619806 0.606836 0.593347
0.648737 0.637140 0.625147
0.679042 0.668940 0.658503
0.708736 0.700099 0.691188
0.737758 0.730495 0.723018
0.765774 0.759854 0.753719
0.523949 0.506981 0.489143
0.524254 0.507286 0.489418
0.524254 0.507286 0.489418
0.524071 0.507103 0.489265
0.523583 0.506584 0.488746
0.522881 0.505943 0.488045
0.522057 0.504997 0.487129
0.521080 0.503990 0.486030
0.519982 0.502861 0.484871
0.518853 0.501640 0.483619
0.517449 0.500267 0.482185
0.516014 0.498787 0.480629
0.514336 0.497047 0.478828
0.512291 0.494972 0.476692
0.509941 0.492500 0.474128
0.514611 0.497383 0.479133
0.520775 0.503716 0.485756
0.527489 0.510643 0.492927
0.534966 0.518395 0.500969
0.543175 0.526879 0.509789
0.551965 0.536004 0.519280
0.561212 0.545647 0.529320
0.570764 0.555566 0.539696
0.580529 0.565789 0.550378
0.590539 0.576226 0.561303
0.604089 0.590387 0.576104
0.626947 0.614282 0.601160
0.652857 0.641444 0.629664
0.680598 0.670588 0.660243
0.710658 0.702174 0.693324
0.740047 0.732937 0.725582
0.768338 0.762539 0.756527
0.556542 0.540795 0.524285
0.556756 0.541009 0.524498
0.556847 0.541100 0.524620
0.556817 0.541070 0.524590
0.556634 0.540887 0.524407
0.556420 0.540673 0.524193
0.556512 0.540734 0.524193
0.556573 0.540826 0.524346
0.556756 0.541009 0.524498
0.556909 0.541161 0.524651
0.556939 0.541222 0.524743
0.556817 0.541070 0.524590
0.556359 0.540612 0.524132
0.555444 0.539666 0.523125
0.554101 0.538231 0.521599
0.554681 0.538872 0.522301
0.560754 0.545159 0.528832
0.567285 0.551934 0.535882
0.574456 0.559472 0.543755
0.582361 0.567681 0.552331
0.590753 0.576471 0.561517
0.599664 0.585779 0.571252
0.608789 0.595270 0.581201
0.618097 0.605005 0.591455
0.627497 0.614862 0.601770
0.637049 0.624903 0.612299
0.650111 0.638575 0.626642
0.671717 0.661250 0.650416
0.696040 0.686763 0.677211
0.721920 0.713954 0.705684
0.750881 0.744289 0.737453
0.778561 0.773159 0.767636
0.598932 0.584955 0.570459
0.598932 0.584924 0.570397
0.598749 0.584771 0.570214
0.598505 0.584497 0.569940
0.598077 0.584070 0.569482
0.597528 0.583520 0.568902
0.597009 0.583001 0.568383
0.596429 0.582422 0.567742
0.595850 0.581781 0.567102
0.595239 0.581109 0.566400
0.594507 0.580346 0.565606
0.593683 0.579492 0.564691
0.592676 0.578424 0.563592
0.591424 0.577142 0.562249
