20 Preset/Journey new/LUT for PR-AE-PS-FCPX/Journey - Lut (8).cube
# Created by Adobe Lightroom plugin Export LUT (1.24.0)
# www.johnrellis.com/lightroom/exportlut.htm
# Preset: 旅拍胶片-素材江湖08
# Color profile: C:\Program Files (x86)\Common Files\Adobe\Color\Profiles\Recommended\VideoHD.icc
LUT_3D_SIZE 8
DOMAIN_MIN 0.000000 0.000000 0.000000
DOMAIN_MAX 0.903226 0.903226 0.903226
0.118593 0.110201 0.100465
0.118593 0.110201 0.100465
0.120760 0.112398 0.102235
0.130251 0.121309 0.110475
0.164279 0.152651 0.139590
0.229923 0.214755 0.197696
0.322576 0.304234 0.283757
0.431830 0.412726 0.392218
0.118593 0.110201 0.100465
0.119173 0.110750 0.100740
0.124025 0.115267 0.104891
0.139101 0.129061 0.117647
0.173800 0.161929 0.147921
0.237644 0.222171 0.204562
0.324346 0.305821 0.285374
0.431983 0.412879 0.392401
0.124971 0.116304 0.106081
0.124514 0.115785 0.105501
0.130922 0.121492 0.110750
0.189548 0.176547 0.161685
0.235019 0.219669 0.202304
0.300847 0.283055 0.263188
0.386938 0.367681 0.346807
0.483375 0.465217 0.445960
0.164797 0.153201 0.139956
0.163302 0.152010 0.138766
0.164950 0.153384 0.140139
0.192752 0.179660 0.164675
0.307103 0.289158 0.269047
0.413855 0.394629 0.373877
0.475410 0.457130 0.437598
0.550225 0.534203 0.517418
0.246555 0.230503 0.212711
0.245060 0.229129 0.211276
0.240269 0.224735 0.207065
0.258183 0.241733 0.223362
0.297765 0.280003 0.260258
0.423743 0.404608 0.383978
0.547448 0.531334 0.514397
0.627619 0.614984 0.601892
0.357153 0.338140 0.317266
0.359503 0.340490 0.319646
0.355200 0.336095 0.315343
0.353155 0.334051 0.313237
0.384619 0.365362 0.344457
0.430945 0.411780 0.391333
0.553765 0.537896 0.521294
0.673304 0.662928 0.652155
0.490547 0.472541 0.453498
0.490791 0.472786 0.453773
0.487068 0.468971 0.449805
0.480842 0.462654 0.443305
0.492195 0.474281 0.455299
0.525170 0.508232 0.490425
0.568902 0.553643 0.537682
0.679042 0.668940 0.658503
0.635035 0.622766 0.610040
0.634516 0.622248 0.609491
0.633082 0.620752 0.607935
0.630854 0.618402 0.605463
0.616846 0.603723 0.590112
0.646143 0.634394 0.622248
0.681056 0.671077 0.660700
0.720150 0.712093 0.703731
0.118593 0.110201 0.100465
0.118593 0.110201 0.100465
0.120516 0.112123 0.101930
0.134554 0.125307 0.114137
0.169528 0.157809 0.144320
0.230655 0.215518 0.198276
0.314061 0.295842 0.275608
0.419165 0.399939 0.379278
0.119356 0.110414 0.100801
0.120180 0.111238 0.101350
0.125277 0.116579 0.106020
0.144045 0.133791 0.121950
0.180240 0.168032 0.153658
0.241611 0.225956 0.208316
0.321294 0.302892 0.282536
0.422950 0.403693 0.383124
0.131411 0.122499 0.111513
0.132937 0.123110 0.112337
0.138613 0.128634 0.117464
0.193820 0.180453 0.165438
0.234409 0.219028 0.201724
0.295415 0.277653 0.257939
0.372900 0.353735 0.332799
0.468971 0.450477 0.430823
0.174197 0.162051 0.148318
0.173007 0.161105 0.147189
0.172519 0.160616 0.146853
0.196689 0.183200 0.168002
0.299931 0.282078 0.262211
0.394324 0.375097 0.354162
0.456031 0.437293 0.417304
0.533715 0.517082 0.499641
0.256352 0.240177 0.221714
0.254459 0.238193 0.220005
0.248814 0.232883 0.214847
0.261662 0.244999 0.226474
0.297734 0.279911 0.260075
0.419165 0.400031 0.379370
0.541253 0.524865 0.507713
0.617762 0.604669 0.591089
0.361578 0.342535 0.321599
0.360876 0.341802 0.320928
0.357031 0.338018 0.317144
0.353552 0.334600 0.313756
0.385168 0.365942 0.345037
0.431983 0.412879 0.392401
0.552209 0.536278 0.519585
0.669703 0.659144 0.648219
0.489967 0.472023 0.452949
0.488258 0.470222 0.451087
0.484474 0.466285 0.447089
0.479255 0.460975 0.441566
0.490852 0.472877 0.453864
0.523217 0.506188 0.488319
0.564782 0.549371 0.533196
0.673274 0.662898 0.652155
0.632380 0.620020 0.607141
0.633051 0.620722 0.607874
0.631373 0.618982 0.606043
0.629328 0.616815 0.603784
0.624475 0.611688 0.598413
0.650111 0.638575 0.626642
0.682033 0.672053 0.661769
0.720546 0.712459 0.704128
0.124453 0.115206 0.105257
0.124453 0.115206 0.105257
0.127199 0.118074 0.107454
0.147799 0.137301 0.125185
0.176791 0.164767 0.150759
0.246769 0.230930 0.213046
0.333227 0.314580 0.294011
0.435401 0.416388 0.395941
0.124025 0.115267 0.104891
0.127871 0.118807 0.108309
0.135195 0.125460 0.114412
0.155459 0.144533 0.131899
0.188846 0.175814 0.161074
0.257237 0.240909 0.222446
0.339483 0.320623 0.299962
0.439460 0.420447 0.400122
0.139498 0.129519 0.118166
0.144991 0.134859 0.123140
0.169528 0.157809 0.144320
0.197482 0.183993 0.168765
0.245151 0.229252 0.211398
0.308721 0.290562 0.270542
0.385626 0.366400 0.345464
0.477394 0.459052 0.439612
0.196048 0.182498 0.167422
0.202914 0.189151 0.173587
0.220859 0.206180 0.189578
0.238346 0.222904 0.205264
0.340429 0.321752 0.301030
0.403052 0.383825 0.362982
0.466285 0.447730 0.427985
0.541711 0.525414 0.508232
0.294682 0.276890 0.257206
0.300145 0.282292 0.262455
0.301183 0.283268 0.263432
0.303227 0.285405 0.265415
0.338476 0.319677 0.299016
0.449409 0.430518 0.410407
0.557641 0.541924 0.525475
0.621118 0.608179 0.594781
0.402808 0.383581 0.362737
0.402441 0.383185 0.362371
0.398810 0.379492 0.358648
0.391485 0.372229 0.351293
0.413947 0.394751 0.373968
0.456428 0.437690 0.417731
0.568414 0.553124 0.537133
0.681575 0.671626 0.661311
0.519860 0.502770 0.484749
0.518425 0.501213 0.483192
0.514153 0.496834 0.478614
0.508202 0.490761 0.472328
0.511254 0.493874 0.475563
0.542138 0.525841 0.508690
0.583154 0.568505 0.553216
0.688228 0.678584 0.668605
0.649470 0.637873 0.625910
0.648402 0.636835 0.624781
0.646754 0.635065 0.622950
0.646174 0.634455 0.622309
0.641199 0.629236 0.616846
0.661830 0.650874 0.639521
0.692866 0.683467 0.673732
0.729671 0.722011 0.714137
0.142428 0.132570 0.120790
0.143404 0.133181 0.121523
0.154726 0.143771 0.131289
0.171878 0.159945 0.146334
0.221286 0.206638 0.189944
0.268650 0.251926 0.232975
0.329992 0.311315 0.290776
0.432563 0.413519 0.393072
0.147372 0.136904 0.124971
0.154147 0.143191 0.130892
0.166751 0.154910 0.141695
0.183413 0.170718 0.156191
0.232181 0.216922 0.199741
0.277775 0.260655 0.241459
0.341558 0.322789 0.302098
0.441413 0.422492 0.402197
0.167422 0.155581 0.142245
0.173739 0.161563 0.147768
0.205020 0.191073 0.175265
0.224216 0.209232 0.192477
0.271000 0.254063 0.235172
0.317601 0.299138 0.278935
0.398047 0.378790 0.357885
0.485267 0.467109 0.447913
0.213657 0.199374 0.183078
0.220432 0.205722 0.189059
0.249943 0.234043 0.215915
0.308202 0.289982 0.269902
0.351629 0.332586 0.311772
0.404791 0.385565 0.364752
0.468940 0.450446 0.430793
0.543145 0.526848 0.509728
0.320348 0.301854 0.281498
0.325811 0.307195 0.286748
0.350042 0.331182 0.310369
0.384222 0.364965 0.344091
0.404089 0.384833 0.364019
0.498299 0.480507 0.461738
0.562860 0.547356 0.531121
0.624231 0.611475 0.598199
0.434455 0.415381 0.394934
0.441382 0.422370 0.402075
0.457435 0.438727 0.418799
0.467811 0.449226 0.429541
0.470741 0.452308 0.432654
0.503380 0.485817 0.467170
0.601160 0.587335 0.572900
0.703639 0.694759 0.685603
0.550561 0.534539 0.517784
0.553948 0.538079 0.521477
0.565515 0.550134 0.533989
0.561364 0.545800 0.529503
0.553826 0.537957 0.521294
0.577783 0.562921 0.547356
0.613123 0.599817 0.585992
0.710018 0.701442 0.692622
0.682979 0.673091 0.662806
0.682521 0.672572 0.662287
0.680781 0.670741 0.660426
0.678096 0.667964 0.657465
0.673030 0.662654 0.651881
0.681575 0.671595 0.661311
0.710658 0.702113 0.693324
0.745602 0.738735 0.731655
0.185000 0.172366 0.157656
0.192142 0.178927 0.163882
0.206119 0.192233 0.176394
0.233646 0.218418 0.200992
0.260441 0.243931 0.225498
0.330907 0.312291 0.291783
0.391424 0.372168 0.351232
0.458930 0.440223 0.420294
0.195712 0.182406 0.167086
0.204288 0.190585 0.174838
0.220737 0.206058 0.189456
0.245457 0.229770 0.211826
0.271824 0.254917 0.236027
0.340978 0.322179 0.301427
0.398535 0.379309 0.358434
0.464363 0.445808 0.426032
0.220096 0.205631 0.188937
0.228031 0.213016 0.196017
0.261845 0.245182 0.226688
0.288273 0.270787 0.251255
0.312261 0.293950 0.273777
0.374578 0.355383 0.334508
0.423407 0.404181 0.383581
0.482704 0.464607 0.445289
0.266026 0.249180 0.230503
0.272709 0.255680 0.236759
0.301396 0.283482 0.263584
0.360143 0.341070 0.320195
0.385046 0.365789 0.344854
0.430671 0.411597 0.391058
0.472419 0.453986 0.434424
0.534630 0.518029 0.500633
0.335698 0.316930 0.296361
0.341711 0.322972 0.302312
0.366400 0.347265 0.326360
0.411383 0.392157 0.371374
0.470069 0.451606 0.431922
0.506401 0.488838 0.470375
0.553521 0.537621 0.520958
0.613062 0.599756 0.585931
0.445319 0.426398 0.406195
0.449989 0.431128 0.411017
0.465064 0.446479 0.426673
0.494942 0.477119 0.458228
0.527001 0.510155 0.492470
0.548943 0.532860 0.516014
0.636774 0.624628 0.611963
0.705287 0.696468 0.687373
0.558160 0.542473 0.526024
0.559991 0.544366 0.527977
0.569299 0.554070 0.538140
0.593469 0.579248 0.564446
0.609613 0.596124 0.582116
0.613581 0.600275 0.586481
0.643824 0.632013 0.619745
0.731411 0.723903 0.716091
0.673701 0.663325 0.652613
0.675868 0.665614 0.655024
0.685664 0.675837 0.665736
0.707973 0.699306 0.690364
0.708583 0.699916 0.690974
0.702419 0.693507 0.684260
0.728634 0.720943 0.713039
0.759884 0.753658 0.747250
0.267857 0.251133 0.232303
0.276829 0.259648 0.240543
0.290562 0.273075 0.253483
0.316136 0.297765 0.277562
0.356756 0.337743 0.316899
0.381994 0.362707 0.341772
0.451087 0.432288 0.412207
0.528832 0.512047 0.494392
0.274022 0.257053 0.238071
0.282017 0.264744 0.245396
0.299992 0.282170 0.262272
0.324559 0.306004 0.285588
0.361517 0.342351 0.321477
0.386206 0.366918 0.346044
0.454231 0.435462 0.415442
0.529686 0.512902 0.495277
0.301549 0.283635 0.263737
0.309422 0.291295 0.271153
0.342260 0.323400 0.302708
0.366552 0.347417 0.326543
0.397284 0.377996 0.357153
0.419989 0.400793 0.380163
0.482887 0.464790 0.445472
0.548028 0.531945 0.515099
0.343938 0.325048 0.304356
0.349493 0.330602 0.309789
0.375860 0.356634 0.335729
0.432959 0.413916 0.393439
0.461280 0.442603 0.422736
0.480781 0.462593 0.443244
0.534936 0.518364 0.500938
0.583703 0.569085 0.553796
0.399634 0.380377 0.359533
0.404608 0.385382 0.364538
0.425208 0.406104 0.385504
0.463325 0.444739 0.424933
0.518456 0.501244 0.483253
0.538170 0.521721 0.504417
0.578882 0.563989 0.548516
0.617731 0.604669 0.591058
0.466346 0.447791 0.428107
0.471565 0.453101 0.433539
0.486976 0.468910 0.449775
0.515465 0.498207 0.480049
0.556176 0.540398 0.523857
0.612512 0.599145 0.585290
0.650477 0.638972 0.627039
0.697139 0.687922 0.678401
0.572045 0.556909 0.541100
0.575952 0.560967 0.545312
0.588678 0.574243 0.559228
0.612421 0.599054 0.585229
0.642756 0.630915 0.618555
0.674983 0.664698 0.654017
0.691188 0.681727 0.671870
0.768521 0.762692 0.756680
0.684169 0.674311 0.664149
0.685176 0.675380 0.665248
0.691676 0.682216 0.672419
0.706569 0.697871 0.688808
0.731258 0.723690 0.715908
0.750027 0.743374 0.736507
0.756130 0.749752 0.743160
0.783322 0.778134 0.772824
0.384131 0.364843 0.343908
0.391760 0.372534 0.351629
0.406806 0.387457 0.366705
0.427771 0.408667 0.388128
0.456458 0.437720 0.417762
0.491737 0.473793 0.454780
0.508659 0.491188 0.472755
0.563714 0.548241 0.532036
0.390112 0.370794 0.349889
0.397436 0.378149 0.357244
0.415686 0.396490 0.375830
0.434913 0.415839 0.395453
0.462287 0.443641 0.423804
0.496193 0.478370 0.459510
0.512566 0.495247 0.476967
0.566918 0.551568 0.535485
0.409766 0.390570 0.369757
0.416205 0.397009 0.376257
0.442420 0.423468 0.403204
0.465187 0.446601 0.426856
0.488563 0.470558 0.451423
0.518425 0.501213 0.483192
0.534478 0.517876 0.500450
0.587396 0.572900 0.557794
0.434333 0.415351 0.394873
0.439673 0.420752 0.400397
0.463600 0.445014 0.425177
0.507561 0.490120 0.471626
0.531334 0.514611 0.497047
0.556603 0.540856 0.524376
0.572168 0.557061 0.541253
0.622461 0.609613 0.596246
0.476448 0.458106 0.438605
0.479927 0.461677 0.442329
0.495064 0.477180 0.458320
0.523064 0.506096 0.488228
0.578515 0.563684 0.548150
0.602655 0.588861 0.574548
0.618647 0.605615 0.592065
0.668055 0.657404 0.646387
0.530327 0.513573 0.496010
0.533349 0.516686 0.499245
0.545495 0.529351 0.512352
0.568841 0.553582 0.537591
0.604181 0.590448 0.576165
0.658076 0.646906 0.635370
0.677638 0.667506 0.657008
0.717403 0.709224 0.700740
0.589624 0.575219 0.560235
0.592187 0.577935 0.563043
0.602625 0.588830 0.574487
0.623163 0.610407 0.597040
0.654292 0.643000 0.631281
0.695705 0.686458 0.676844
0.746151 0.739254 0.732235
0.778805 0.773404 0.767880
0.687282 0.677577 0.667536
0.689479 0.679927 0.670039
0.699123 0.690028 0.680629
0.717403 0.709163 0.700679
0.744686 0.737758 0.730648
0.772854 0.767239 0.761410
0.801755 0.797360 0.792813
0.816220 0.812375 0.808408
0.540032 0.523674 0.506462
0.545098 0.528954 0.511955
0.557061 0.541344 0.524834
0.570184 0.554955 0.539055
0.589502 0.575097 0.560143
0.614343 0.601099 0.587304
0.643580 0.631708 0.619409
0.652583 0.641169 0.629358
0.542199 0.525872 0.508782
0.547143 0.531029 0.514122
0.561944 0.546410 0.530114
0.574456 0.559472 0.543755
0.593256 0.579065 0.564263
0.617517 0.604425 0.590814
0.646021 0.634272 0.622126
0.654841 0.643610 0.631891
0.550164 0.534142 0.517357
0.554864 0.539055 0.522484
0.573785 0.558709 0.542992
0.593042 0.578820 0.563989
0.609888 0.596460 0.582483
0.631922 0.619501 0.606592
0.658412 0.647272 0.635737
0.667262 0.656580 0.645533
0.558831 0.543175 0.526757
0.563439 0.547936 0.531731
0.581964 0.567285 0.551934
0.616999 0.603876 0.590234
0.637781 0.625666 0.613092
0.657160 0.646021 0.634455
0.680842 0.670802 0.660456
0.689967 0.680446 0.670558
0.571862 0.556756 0.540917
0.574456 0.559472 0.543755
0.584588 0.570001 0.554772
0.618524 0.605463 0.591882
0.667201 0.656550 0.645472
0.688502 0.678889 0.668910
0.709529 0.700923 0.692042
0.720241 0.712184 0.703853
0.613611 0.600366 0.586542
0.615595 0.602380 0.588678
0.623957 0.611200 0.597925
0.641108 0.629145 0.616724
0.667842 0.657191 0.646174
0.724575 0.716701 0.708553
0.746975 0.740200 0.733150
0.760067 0.753841 0.747433
0.662562 0.651606 0.640314
0.664302 0.653468 0.642237
0.671809 0.661341 0.650538
0.687037 0.677333 0.667292
0.710658 0.702113 0.693294
0.742794 0.735805 0.728573
0.790158 0.785275 0.780270
0.806149 0.801938 0.797574
0.716823 0.708614 0.700099
0.718349 0.710201 0.701778
0.724941 0.717067 0.708980
0.738216 0.731044 0.723598
0.758663 0.752407 0.745968
0.786160 0.781125 0.775906
0.820066 0.816373 0.812558
0.859464 0.857115 0.854734
