20 Preset/Journey new/LUT for PR-AE-PS-FCPX/Journey - Lut (3).cube
# Created by Adobe Lightroom plugin Export LUT (1.24.0)
# www.johnrellis.com/lightroom/exportlut.htm
# Preset: 旅拍胶片-素材江湖03
# Color profile: C:\Program Files (x86)\Common Files\Adobe\Color\Profiles\Recommended\VideoHD.icc
LUT_3D_SIZE 32
DOMAIN_MIN 0.0 0.0 0.0
DOMAIN_MAX 1.0 1.0 1.0
0.011414 0.006409 0.004547
0.011414 0.006409 0.004547
0.011414 0.006409 0.004547
0.012696 0.007385 0.004395
0.025879 0.007019 0.004181
0.066743 0.006897 0.003388
0.100282 0.008942 0.003052
0.120150 0.013458 0.001099
0.141695 0.016022 0.001129
0.166781 0.015869 0.000000
0.197208 0.008453 0.000000
0.232761 0.000000 0.000000
0.273808 0.000000 0.000000
0.320928 0.000000 0.000000
0.371832 0.000000 0.000000
0.425452 0.000000 0.000000
0.479927 0.000000 0.000000
0.534325 0.000000 0.000000
0.587945 0.000000 0.000000
0.639826 0.000000 0.000000
0.688106 0.000000 0.000000
0.736660 0.000000 0.000000
0.780423 0.000000 0.000000
0.820310 0.000000 0.000000
0.856748 0.000000 0.000000
0.889921 0.000000 0.000000
0.920623 0.000000 0.000000
0.949187 0.000000 0.000000
0.975830 0.000000 0.000000
1.000000 0.000000 0.000000
1.000000 0.000000 0.000000
1.000000 0.142031 0.000000
0.011414 0.006409 0.004547
0.011414 0.006409 0.004547
0.011414 0.006409 0.004547
0.012696 0.007385 0.004395
0.025879 0.007019 0.004181
0.068025 0.007874 0.003235
0.100038 0.010132 0.002899
0.119966 0.014649 0.000946
0.140749 0.017670 0.000977
0.166049 0.017517 0.000000
0.195865 0.010773 0.000000
0.231327 0.000000 0.000000
0.271916 0.000000 0.000000
0.318517 0.000000 0.000000
0.369329 0.000000 0.000000
0.422889 0.000000 0.000000
0.477180 0.000000 0.000000
0.531670 0.000000 0.000000
0.585107 0.000000 0.000000
0.637140 0.000000 0.000000
0.685359 0.000000 0.000000
0.733333 0.000000 0.000000
0.776669 0.000000 0.000000
0.816281 0.000000 0.000000
0.852567 0.000000 0.000000
0.885893 0.000000 0.000000
0.916899 0.000000 0.000000
0.945739 0.000000 0.000000
0.972778 0.000000 0.000000
0.998077 0.000000 0.000000
1.000000 0.000000 0.000000
1.000000 0.133761 0.000000
0.010712 0.007599 0.004395
0.010712 0.007599 0.004395
0.010712 0.007599 0.004395
0.014679 0.007141 0.004395
0.028443 0.008972 0.003876
0.071839 0.010834 0.002777
0.100191 0.015686 0.002136
0.119570 0.020447 0.000183
0.140841 0.023255 0.000214
0.165896 0.022126 0.000000
0.195743 0.015351 0.000000
0.231022 0.000000 0.000000
0.271611 0.000000 0.000000
0.317601 0.000000 0.000000
0.368383 0.000000 0.000000
0.421485 0.000000 0.000000
0.475837 0.000000 0.000000
0.529931 0.000000 0.000000
0.583490 0.000000 0.000000
0.635462 0.000000 0.000000
0.683894 0.000000 0.000000
0.731746 0.000000 0.000000
0.774746 0.000000 0.000000
0.814298 0.000000 0.000000
0.850370 0.000000 0.000000
0.883787 0.000000 0.000000
0.914733 0.000000 0.000000
0.943816 0.000000 0.000000
0.971038 0.000000 0.000000
0.996460 0.000000 0.000000
1.000000 0.000000 0.000000
1.000000 0.134524 0.000000
0.011261 0.009766 0.004089
0.011261 0.009766 0.004089
0.011261 0.009766 0.004089
0.016510 0.010315 0.003906
0.033539 0.012879 0.003235
0.077790 0.019104 0.002655
0.101930 0.025177 0.000732
0.120394 0.030152 0.000000
0.141817 0.033936 0.000000
0.166995 0.032593 0.000000
0.196963 0.024384 0.000000
0.231693 0.008637 0.000000
0.272282 0.000000 0.000000
0.318059 0.000000 0.000000
0.368109 0.000000 0.000000
0.420539 0.000000 0.000000
0.474311 0.000000 0.000000
0.527886 0.000000 0.000000
0.580896 0.000000 0.000000
0.632471 0.000000 0.000000
0.680842 0.000000 0.000000
0.728481 0.000000 0.000000
0.770993 0.000000 0.000000
0.810513 0.000000 0.000000
0.847227 0.000000 0.000000
0.881193 0.000000 0.000000
0.912871 0.000000 0.000000
0.942473 0.000000 0.000000
0.969940 0.000000 0.000000
0.995544 0.000000 0.000000
1.000000 0.000000 0.000000
1.000000 0.144717 0.000000
0.011505 0.020905 0.004822
0.011505 0.020905 0.004822
0.015473 0.020478 0.004822
0.022004 0.021973 0.004486
0.042298 0.025299 0.003632
0.082399 0.031739 0.001923
0.103243 0.039246 0.001007
0.121309 0.045411 0.000000
0.142641 0.048005 0.000000
0.168215 0.046204 0.000000
0.197604 0.039429 0.000000
0.232395 0.023438 0.000000
0.272221 0.000000 0.000000
0.318059 0.000000 0.000000
0.367773 0.000000 0.000000
0.420050 0.000000 0.000000
0.473701 0.000000 0.000000
0.527184 0.000000 0.000000
0.580255 0.000000 0.000000
0.631830 0.000000 0.000000
0.681025 0.000000 0.000000
0.727626 0.000000 0.000000
0.769680 0.000000 0.000000
0.808988 0.000000 0.000000
0.845823 0.000000 0.000000
0.879881 0.000000 0.000000
0.911620 0.000000 0.000000
0.941161 0.000000 0.000000
0.968688 0.000000 0.000000
0.994202 0.000000 0.000000
1.000000 0.057679 0.000000
1.000000 0.160098 0.000000
0.011139 0.047761 0.005707
0.015106 0.047303 0.005676
0.021057 0.046632 0.005676
0.029999 0.046723 0.006592
0.053529 0.050813 0.005585
0.085206 0.053559 0.003388
0.105074 0.058656 0.002777
0.123476 0.065583 0.001648
0.145510 0.068696 0.000000
0.170840 0.066682 0.000000
0.200534 0.060212 0.000000
0.235203 0.048127 0.000061
0.275334 0.024781 0.000000
0.320867 0.000000 0.000000
0.370336 0.000000 0.000000
0.422522 0.000000 0.000000
0.475654 0.000000 0.000000
0.529107 0.000000 0.000000
0.581872 0.000000 0.000000
0.633112 0.000000 0.000000
0.682979 0.000000 0.000000
0.728908 0.000000 0.000000
0.791684 0.000000 0.000000
0.830442 0.000000 0.000000
0.865782 0.000000 0.000000
0.898131 0.000000 0.000000
0.928008 0.000000 0.000000
0.955596 0.000000 0.000000
0.981201 0.000000 0.000000
1.000000 0.095247 0.000000
1.000000 0.163302 0.000000
1.000000 0.211460 0.000000
0.026703 0.081056 0.010803
0.030396 0.080751 0.011933
0.036347 0.080323 0.011902
0.047242 0.080232 0.012818
0.066682 0.080964 0.013428
0.090730 0.084230 0.010925
0.107759 0.086976 0.008209
0.128573 0.089021 0.008301
0.151522 0.090608 0.005524
0.178164 0.090791 0.004517
0.208957 0.089174 0.002747
0.244755 0.083162 0.002014
0.285863 0.065248 0.000855
0.331762 0.031128 0.000000
0.381415 0.000000 0.000000
0.432807 0.000000 0.000000
0.485542 0.000000 0.000000
0.538293 0.000000 0.000000
0.590234 0.000000 0.000000
0.641901 0.000000 0.000000
0.693843 0.000000 0.000000
0.740627 0.000000 0.000000
0.783719 0.000000 0.000000
0.823911 0.000000 0.000000
0.860685 0.000000 0.000000
0.893858 0.000000 0.000000
0.924102 0.000000 0.000000
0.951812 0.000000 0.000000
0.977600 0.046326 0.000000
1.000000 0.141054 0.000000
1.000000 0.189120 0.000000
1.000000 0.229984 0.000000
0.046448 0.098787 0.020630
0.048432 0.098726 0.020630
0.054414 0.098482 0.020600
0.065309 0.098451 0.021546
0.080690 0.098177 0.022431
0.094148 0.100099 0.021088
0.109010 0.103090 0.018921
0.129152 0.105562 0.016297
0.154971 0.106569 0.015595
0.182162 0.108125 0.012634
0.213565 0.108095 0.010040
0.249271 0.106264 0.006226
0.290227 0.100862 0.003326
0.335607 0.091585 0.000366
0.384588 0.060151 0.000000
0.435065 0.006592 0.000000
0.487007 0.000000 0.000000
0.539055 0.000000 0.000000
0.590539 0.000000 0.000000
0.644068 0.000000 0.000000
0.693538 0.000000 0.000000
0.739071 0.000000 0.000000
0.781308 0.000000 0.000000
0.820951 0.000000 0.000000
0.857298 0.000000 0.000000
0.890471 0.000000 0.000000
0.920714 0.000000 0.000000
0.948638 0.084047 0.000000
0.974487 0.141146 0.000000
0.998413 0.182467 0.000000
1.000000 0.218875 0.000000
1.000000 0.253422 0.000000
0.059754 0.117281 0.030976
0.061738 0.117220 0.030976
0.067689 0.117037 0.030945
0.075898 0.117403 0.031739
0.087404 0.117189 0.032654
0.097200 0.117556 0.034211
0.110994 0.120882 0.030426
0.130800 0.125032 0.026612
0.155703 0.128023 0.022400
0.187198 0.128634 0.022553
0.219699 0.130678 0.017212
0.256382 0.130709 0.012116
0.297459 0.128298 0.005615
0.341772 0.122896 0.000000
0.389960 0.114534 0.000000
0.439734 0.101686 0.000000
0.490852 0.081361 0.000000
0.542077 0.024140 0.000000
0.595117 0.000000 0.000000
0.647059 0.000000 0.000000
0.694728 0.000000 0.000000
0.738705 0.000000 0.000000
0.780117 0.000000 0.000000
0.819150 0.000000 0.000000
0.855161 0.000000 0.000000
0.887999 0.089082 0.000000
0.918212 0.127718 0.000000
0.946014 0.161105 0.000000
0.971893 0.191806 0.000000
0.995789 0.221500 0.000000
1.000000 0.250828 0.000000
1.000000 0.279973 0.000000
0.065705 0.139925 0.041169
0.066438 0.139681 0.041321
0.071382 0.139773 0.042298
0.082216 0.139712 0.042084
0.091371 0.139742 0.042817
0.100984 0.139559 0.044678
0.114015 0.141482 0.043641
0.132296 0.146242 0.038911
0.156802 0.151583 0.033692
0.187320 0.155215 0.027070
0.226291 0.155978 0.025696
0.263706 0.157870 0.017517
0.305516 0.158175 0.008759
0.350256 0.156161 0.000000
0.397345 0.152041 0.000000
0.445258 0.145937 0.000000
0.495705 0.138918 0.000000
0.548760 0.131991 0.000000
0.600885 0.124117 0.000000
0.650843 0.117952 0.000000
0.696773 0.114412 0.000000
0.739040 0.115541 0.000000
0.778653 0.122499 0.000000
0.816434 0.134188 0.000000
0.851499 0.149844 0.000000
0.883879 0.168338 0.000000
0.913939 0.188418 0.000000
0.941924 0.210025 0.000000
0.968017 0.233310 0.000000
0.992279 0.257237 0.000000
1.000000 0.282048 0.000000
1.000000 0.307652 0.000000
0.064881 0.166079 0.050813
0.066865 0.166049 0.050782
0.074098 0.166079 0.050599
0.083742 0.166018 0.051545
0.094179 0.166140 0.052125
0.104433 0.166110 0.053803
0.117250 0.166171 0.056245
0.134859 0.171054 0.050568
0.158511 0.177218 0.043702
0.189609 0.184176 0.034211
0.226169 0.188449 0.023896
0.272953 0.189670 0.022766
0.315404 0.192050 0.009979
0.360479 0.193057 0.000000
0.407416 0.192081 0.000000
0.456031 0.190066 0.000000
0.505394 0.187289 0.000000
0.555383 0.184573 0.000000
0.605921 0.182986 0.000000
0.653773 0.182437 0.000000
0.697902 0.183108 0.000000
0.738979 0.185946 0.000000
0.777920 0.192081 0.000000
0.815000 0.200168 0.000000
0.849577 0.210758 0.000000
0.881712 0.223941 0.000000
0.911528 0.239170 0.000000
0.939330 0.256107 0.000000
0.965362 0.274144 0.000000
0.989532 0.294072 0.000000
1.000000 0.315312 0.000000
1.000000 0.337255 0.027405
0.054047 0.197696 0.060121
0.056031 0.197665 0.060121
0.065248 0.197665 0.059937
0.080201 0.197726 0.060700
0.093233 0.197910 0.062226
0.106325 0.197879 0.064851
0.121035 0.198093 0.066957
0.137911 0.200259 0.066560
0.161318 0.207095 0.057527
0.190982 0.214969 0.045472
0.229129 0.223758 0.030304
0.272557 0.229313 0.015900
0.335576 0.237461 0.012940
0.385321 0.242130 0.000000
0.435645 0.245029 0.000000
0.486030 0.246647 0.000000
0.535271 0.246952 0.000000
0.583917 0.246403 0.000000
0.629938 0.245670 0.000000
0.674769 0.247288 0.000000
0.716609 0.249699 0.000000
0.755703 0.253452 0.000000
0.792599 0.258824 0.000000
0.827451 0.265873 0.000000
0.859953 0.274662 0.000000
0.890166 0.284703 0.000000
0.918303 0.295872 0.000000
0.944488 0.308843 0.000000
0.968933 0.323247 0.000000
0.991821 0.339147 0.000000
1.000000 0.356268 0.013458
1.000000 0.375006 0.092836
0.022583 0.238621 0.073213
0.024567 0.238590 0.073182
0.034913 0.238346 0.074434
0.057038 0.238346 0.075166
0.086763 0.238071 0.076020
0.104128 0.237858 0.078523
0.122103 0.237888 0.080537
0.141115 0.237919 0.083040
0.164492 0.243473 0.079286
0.194430 0.252049 0.065461
0.232547 0.262058 0.047822
0.280705 0.274662 0.022980
0.333440 0.283055 0.001099
0.393286 0.285801 0.004883
0.448066 0.292149 0.000000
0.497230 0.295109 0.000000
0.545281 0.296574 0.000000
0.591608 0.296818 0.000000
0.635554 0.296910 0.000000
0.676051 0.296208 0.000000
0.714229 0.295964 0.000000
0.752438 0.299596 0.000000
0.788754 0.304356 0.000000
0.823301 0.310246 0.000000
0.855558 0.317510 0.000000
0.885649 0.326116 0.000000
0.913848 0.335851 0.000000
0.940215 0.346929 0.000000
0.964874 0.359075 0.000000
0.987915 0.372992 0.000000
1.000000 0.388128 0.058869
1.000000 0.404761 0.112276
0.000000 0.278904 0.086152
0.000000 0.278813 0.086244
0.000000 0.278691 0.086946
0.016205 0.278447 0.086854
0.056611 0.278172 0.088075
0.095735 0.277928 0.089479
0.119173 0.277836 0.090669
0.142061 0.278325 0.092561
0.166049 0.280247 0.094453
0.197330 0.289982 0.088899
0.235508 0.301030 0.077516
0.281895 0.313603 0.052033
0.335943 0.327001 0.020356
0.391730 0.335485 0.000000
0.451179 0.336919 0.003326
0.507683 0.343664 0.000000
0.554314 0.345830 0.000000
0.598962 0.346899 0.000000
0.641047 0.346838 0.000000
0.679805 0.346288 0.000000
0.716365 0.345525 0.000000
0.751431 0.345525 0.000000
0.786252 0.348058 0.000000
0.820310 0.353368 0.000000
0.852323 0.359472 0.000000
0.882292 0.366857 0.000000
0.910338 0.375067 0.000000
0.936584 0.384466 0.000000
0.961181 0.394995 0.000000
0.984192 0.406928 0.025330
1.000000 0.420264 0.097932
1.000000 0.435187 0.131960
0.000000 0.324224 0.097444
0.000000 0.324315 0.097749
0.000000 0.324071 0.097810
0.000000 0.323857 0.098146
0.015747 0.323613 0.099153
0.083864 0.323400 0.100313
0.116243 0.323461 0.101808
0.144076 0.324071 0.104250
0.171450 0.324407 0.106813
0.202090 0.329870 0.105989
0.239719 0.340642 0.099763
0.284367 0.352758 0.091249
0.334966 0.365972 0.071687
0.392279 0.379736 0.031708
0.448829 0.387579 0.000916
0.506249 0.387884 0.023713
0.563378 0.395270 0.000061
0.606378 0.396490 0.000000
0.646357 0.396338 0.000000
0.683894 0.395514 0.000000
0.719295 0.394568 0.000000
0.753567 0.394385 0.000000
0.786465 0.394659 0.000000
0.817960 0.395666 0.000000
0.849241 0.400275 0.000000
0.878996 0.406378 0.000000
0.906981 0.413367 0.000000
0.933165 0.421851 0.000000
0.957885 0.431128 0.013245
0.980957 0.441779 0.090272
1.000000 0.454139 0.125093
1.000000 0.467811 0.156313
0.000000 0.370977 0.113375
0.000000 0.371038 0.113283
0.000000 0.370947 0.113252
0.000000 0.370764 0.113771
0.000000 0.370581 0.114809
0.071199 0.370459 0.116243
0.117311 0.370825 0.118074
0.149874 0.371221 0.120516
0.180423 0.372015 0.123293
0.209842 0.372839 0.126833
0.246891 0.381933 0.123140
0.289128 0.393103 0.117067
0.336828 0.405188 0.108522
0.389746 0.417884 0.097169
0.447059 0.430671 0.072724
0.502342 0.437568 0.040375
0.556725 0.436469 0.078218
0.612146 0.443610 0.069581
0.650629 0.443580 0.030488
0.687037 0.442542 0.000000
0.721950 0.441779 0.000000
0.755550 0.441413 0.000000
0.787900 0.441505 0.000000
0.818784 0.442176 0.000000
0.848234 0.443336 0.000000
0.876493 0.445869 0.000000
0.904295 0.451942 0.000000
0.930358 0.458991 0.012848
0.954772 0.467262 0.088594
0.977539 0.476661 0.120974
0.998657 0.487129 0.150637
1.000000 0.499153 0.178988
0.000000 0.416419 0.132753
0.000000 0.416327 0.133028
0.000000 0.416388 0.133394
0.000000 0.416266 0.133791
0.000000 0.416083 0.134585
0.079286 0.416144 0.136080
0.124178 0.416236 0.138064
0.158694 0.416419 0.140505
0.190677 0.416815 0.143496
0.221225 0.417487 0.146944
0.253513 0.420844 0.149111
0.294285 0.431434 0.144900
0.339330 0.442939 0.139406
0.388983 0.454963 0.132631
0.442573 0.467384 0.122713
0.499855 0.479957 0.109468
0.552941 0.485939 0.100221
0.601953 0.482826 0.119142
0.655634 0.489570 0.125002
0.690730 0.488685 0.113863
0.724819 0.487892 0.103243
0.757717 0.487129 0.093416
0.789242 0.487098 0.082795
0.819455 0.487160 0.068940
0.848234 0.487892 0.057496
0.875761 0.489052 0.054597
0.901884 0.491157 0.057313
0.927337 0.495735 0.093568
0.951507 0.502831 0.124208
0.974029 0.511070 0.151125
0.994965 0.520500 0.177188
1.000000 0.531090 0.204135
0.000000 0.462196 0.158206
0.000000 0.462318 0.158114
0.000000 0.473365 0.165469
0.000000 0.473213 0.165927
0.049653 0.473060 0.166842
0.112123 0.472908 0.168154
0.147951 0.472755 0.170077
0.181369 0.472602 0.171969
0.212558 0.472877 0.175021
0.243717 0.473182 0.178653
0.274266 0.473610 0.182742
0.311223 0.480629 0.182620
0.353948 0.491035 0.179202
0.400702 0.501640 0.175296
0.450538 0.512383 0.169711
0.502770 0.523278 0.163424
0.557244 0.533928 0.154757
0.606165 0.538018 0.150637
0.649439 0.532525 0.166934
0.700343 0.538933 0.177829
0.732601 0.537285 0.169924
0.763912 0.536217 0.163302
0.794064 0.534936 0.158145
0.822843 0.534264 0.153841
0.850187 0.533654 0.151614
0.876402 0.533654 0.150088
0.901427 0.534417 0.150912
0.925353 0.535973 0.153567
0.948241 0.538415 0.158297
0.970367 0.545129 0.180667
0.990906 0.553277 0.205203
1.000000 0.562676 0.230777
0.000000 0.509941 0.188785
0.000000 0.510887 0.189792
0.000000 0.512016 0.190890
0.054780 0.512871 0.191897
0.106416 0.513420 0.193423
0.138125 0.513603 0.194766
0.169070 0.513542 0.196689
0.199374 0.513237 0.198428
0.229435 0.513207 0.201144
0.259007 0.513420 0.204410
0.288701 0.513664 0.208408
0.318975 0.514580 0.212314
0.359289 0.523827 0.210513
0.402319 0.533501 0.208347
0.448707 0.543389 0.205814
0.497169 0.553521 0.202274
0.547570 0.563684 0.198276
0.599298 0.573999 0.192966
0.645411 0.577813 0.192416
0.684962 0.571984 0.207950
0.734493 0.578698 0.223758
0.764981 0.577600 0.218235
0.794247 0.576410 0.213413
0.822232 0.575311 0.209964
0.848905 0.574487 0.207584
0.874479 0.574029 0.206699
0.898894 0.574090 0.207034
0.922210 0.574945 0.209293
0.944518 0.576776 0.213596
0.965850 0.579706 0.220096
0.986053 0.584527 0.231998
1.000000 0.592859 0.257359
0.099275 0.550225 0.219608
0.103548 0.551232 0.220523
0.114076 0.552270 0.221775
0.130220 0.553155 0.223026
0.150637 0.553796 0.224643
0.173892 0.553918 0.225986
0.199069 0.553796 0.227634
0.225010 0.553613 0.229709
0.252262 0.553368 0.232120
0.279789 0.553368 0.234958
0.308232 0.553399 0.238743
0.336217 0.553582 0.242893
0.369055 0.557458 0.244816
0.409461 0.566217 0.244450
0.452033 0.575280 0.243534
0.496742 0.584619 0.242130
0.543114 0.594141 0.240360
0.590997 0.603845 0.238010
0.640040 0.613642 0.235874
0.683192 0.617121 0.236820
0.719020 0.610468 0.252171
0.765866 0.616938 0.272526
0.794339 0.615808 0.268070
0.821439 0.614771 0.265110
0.847379 0.613703 0.262669
0.872251 0.612879 0.260929
0.895933 0.612543 0.261051
0.918578 0.612818 0.262821
0.940307 0.614008 0.266361
0.961059 0.616205 0.272068
0.980743 0.619471 0.280308
0.999329 0.623865 0.290929
0.161410 0.589410 0.254246
0.164462 0.590234 0.255131
0.170809 0.591089 0.256291
0.181277 0.591913 0.257664
0.195834 0.592432 0.258946
0.213443 0.592462 0.260594
0.233158 0.592462 0.262119
0.255589 0.592248 0.263920
0.279789 0.592065 0.266056
0.304967 0.591913 0.269291
0.330938 0.591913 0.272587
0.357641 0.591882 0.276646
0.384192 0.591913 0.280949
0.419806 0.598718 0.281956
0.459205 0.607141 0.282567
0.500267 0.615869 0.282444
0.543145 0.624872 0.283177
0.587762 0.634241 0.283360
0.633509 0.643885 0.283940
0.680262 0.653651 0.284489
0.720668 0.657069 0.288945
0.753109 0.650324 0.304753
0.796933 0.656703 0.329808
0.823331 0.655970 0.327123
0.848539 0.655238 0.325200
0.872526 0.654505 0.324285
0.895415 0.654047 0.324407
0.917205 0.654139 0.326390
0.938140 0.654902 0.329564
0.958007 0.656672 0.335302
0.976776 0.659327 0.343267
0.994476 0.663050 0.353277
0.224979 0.632502 0.298528
0.226474 0.632868 0.299168
0.229892 0.633112 0.299596
0.236637 0.633234 0.300328
0.246769 0.633143 0.300999
0.259739 0.632929 0.301976
0.275822 0.632593 0.303349
0.294347 0.632288 0.304906
0.314641 0.632044 0.307012
0.337316 0.632044 0.310033
0.360632 0.631952 0.313298
0.385016 0.632013 0.317388
0.409735 0.631891 0.321447
0.437293 0.633661 0.325444
0.472694 0.641169 0.326757
0.510063 0.649042 0.328038
0.549096 0.657038 0.329564
0.589288 0.665248 0.331395
0.630945 0.673671 0.333165
0.673548 0.682155 0.335088
0.716793 0.690669 0.337255
0.753536 0.693080 0.342199
0.781765 0.685481 0.356390
0.821988 0.690761 0.384192
0.845945 0.689754 0.381506
0.869017 0.689082 0.380285
0.891203 0.688472 0.380102
0.912352 0.688411 0.381537
0.932464 0.688960 0.384802
0.951690 0.690150 0.389532
0.969879 0.692287 0.396460
0.987121 0.695247 0.405554
0.276188 0.668208 0.340093
0.277226 0.668452 0.340581
0.280308 0.668635 0.341009
0.285588 0.668849 0.341924
0.293431 0.668757 0.342565
0.304082 0.668635 0.343542
0.317021 0.668330 0.344945
0.332616 0.668116 0.346471
0.350286 0.667933 0.348608
0.369909 0.667811 0.351507
0.390448 0.667750 0.354620
0.412726 0.667689 0.358465
0.434974 0.667659 0.362402
0.458106 0.667659 0.367193
0.487190 0.672053 0.370703
0.521080 0.679042 0.373022
0.556542 0.686397 0.375708
0.593439 0.693874 0.378607
0.631373 0.701503 0.381506
0.670405 0.709224 0.384710
0.710018 0.717006 0.388190
0.749813 0.724727 0.392035
0.783230 0.726406 0.397986
0.808072 0.718807 0.410956
0.842039 0.720668 0.433265
0.864958 0.719997 0.433631
0.886320 0.719478 0.432990
0.906706 0.719356 0.434150
0.926177 0.719631 0.436622
0.944823 0.720546 0.440681
0.962524 0.722255 0.447089
0.979339 0.724758 0.455543
0.332494 0.704585 0.389288
0.333776 0.704952 0.390051
0.336065 0.705135 0.390448
0.340002 0.704982 0.390906
0.345403 0.704707 0.391302
0.353094 0.704219 0.391485
0.363073 0.703548 0.392126
0.375280 0.702907 0.392981
0.389471 0.702296 0.394507
0.405432 0.701778 0.396338
0.422797 0.701320 0.398688
0.441810 0.700923 0.401801
0.461524 0.700587 0.405280
0.481849 0.700252 0.409308
0.503044 0.700099 0.413428
0.532860 0.705959 0.415503
0.564569 0.712184 0.418189
0.597711 0.718685 0.421271
0.632319 0.725521 0.424567
0.667933 0.732570 0.428717
0.704189 0.739651 0.432898
0.740963 0.746700 0.437232
0.777615 0.753506 0.441413
0.807767 0.754482 0.447456
0.829435 0.746487 0.458228
0.860685 0.749172 0.482979
0.882017 0.748531 0.486000
0.901488 0.748104 0.485878
0.920134 0.748135 0.487465
0.938048 0.748623 0.490791
0.955138 0.749905 0.496132
0.971435 0.752010 0.503807
0.377722 0.734401 0.432990
0.378973 0.734707 0.433570
0.380957 0.734981 0.434333
0.384192 0.734951 0.434699
0.389258 0.734829 0.435309
0.395941 0.734615 0.436103
0.404517 0.734371 0.437140
0.415106 0.734157 0.438483
0.427527 0.734005 0.440345
0.441718 0.733761 0.442573
0.457038 0.733608 0.445289
0.473823 0.733333 0.448341
0.491371 0.733211 0.451820
0.509606 0.732906 0.455390
0.528222 0.732540 0.459358
0.550774 0.734615 0.462776
0.578851 0.739956 0.465461
0.608515 0.745632 0.468757
0.639582 0.751522 0.472419
0.671687 0.757626 0.476539
0.704616 0.763882 0.481025
0.737972 0.770108 0.485939
0.771420 0.776211 0.490883
0.804868 0.782071 0.495399
0.831785 0.782589 0.501762
0.850675 0.774838 0.511681
0.877775 0.776638 0.534844
0.897459 0.776150 0.540368
0.915160 0.776120 0.541650
0.932158 0.776516 0.544549
0.948516 0.777462 0.549096
0.964202 0.779202 0.555901
0.424903 0.764279 0.480751
0.425605 0.764462 0.481056
0.427070 0.764492 0.481514
0.429664 0.764462 0.481880
0.433753 0.764309 0.482307
0.439094 0.764096 0.482887
0.446143 0.763851 0.483680
0.454841 0.763607 0.484718
0.465309 0.763363 0.486336
0.477333 0.763149 0.488441
0.490669 0.762905 0.490852
0.505303 0.762753 0.493751
0.520745 0.762570 0.496803
0.537011 0.762295 0.500298
0.553796 0.761990 0.503960
0.570825 0.761685 0.507897
0.594690 0.765438 0.511101
0.621180 0.770382 0.514244
0.648951 0.775509 0.517967
0.677729 0.780819 0.522271
0.707362 0.786252 0.527031
0.737667 0.791653 0.531792
0.767880 0.796902 0.536767
0.798306 0.802029 0.541680
0.828244 0.806943 0.546502
0.852201 0.806912 0.552361
0.868467 0.799435 0.560998
0.891844 0.800290 0.582361
0.909850 0.799802 0.589532
0.926055 0.800168 0.592004
0.941802 0.800992 0.596002
0.957061 0.802487 0.601740
0.468879 0.791073 0.526787
0.469429 0.791226 0.527184
0.470649 0.791287 0.527550
0.472877 0.791318 0.527947
0.476661 0.791318 0.528771
0.481544 0.791348 0.529808
0.488350 0.791562 0.531365
0.496681 0.791836 0.533501
0.506676 0.792172 0.536278
0.517876 0.792599 0.539361
0.530571 0.793057 0.543053
0.544091 0.793484 0.546960
0.558373 0.793851 0.550896
0.573114 0.794064 0.554955
0.588373 0.794125 0.559106
0.603815 0.794003 0.563134
0.620905 0.794766 0.567254
0.644007 0.798886 0.570794
0.668299 0.803220 0.574609
0.693599 0.807675 0.578851
0.719600 0.812161 0.583520
0.746059 0.816678 0.588434
0.772763 0.821042 0.593194
0.799496 0.825315 0.598016
0.826047 0.829435 0.602625
0.852323 0.833433 0.607172
0.872984 0.832944 0.612696
0.886687 0.825925 0.619715
0.906371 0.825956 0.638270
0.922362 0.825315 0.646387
0.937163 0.825986 0.649500
0.951507 0.827268 0.654322
0.521416 0.819638 0.582269
0.521599 0.819608 0.582147
0.522454 0.819547 0.582269
0.524010 0.819486 0.582452
0.526696 0.819364 0.582879
0.530480 0.819242 0.583520
0.535576 0.819120 0.584314
0.541833 0.819028 0.585657
0.549371 0.818967 0.587213
0.558282 0.818936 0.589258
0.568170 0.818906 0.591577
0.579156 0.818875 0.594293
0.591058 0.818875 0.597314
0.603540 0.818784 0.600458
