20 Preset/Journey new/LUT for PR-AE-PS-FCPX/Journey - Lut (2).cube
# Created by Adobe Lightroom plugin Export LUT (1.24.0)
# www.johnrellis.com/lightroom/exportlut.htm
# Preset: 旅拍胶片-素材江湖02
# Color profile: C:\Program Files (x86)\Common Files\Adobe\Color\Profiles\Recommended\VideoHD.icc
LUT_3D_SIZE 8
DOMAIN_MIN 0.000000 0.000000 0.000000
DOMAIN_MAX 0.903226 0.903226 0.903226
0.000000 0.000000 0.000000
0.025940 0.002655 0.000275
0.151858 0.048219 0.000000
0.354284 0.000000 0.003479
0.623468 0.000000 0.000000
0.834440 0.000000 0.000000
0.956786 0.104402 0.000000
1.000000 0.292943 0.090852
0.003601 0.019623 0.002899
0.026551 0.030488 0.002106
0.144747 0.083009 0.001495
0.336553 0.044221 0.009216
0.603906 0.000000 0.000000
0.813474 0.000000 0.000000
0.941955 0.138064 0.000000
1.000000 0.299931 0.080354
0.036378 0.117739 0.059419
0.067048 0.118807 0.066163
0.119081 0.128450 0.058289
0.313115 0.166903 0.028748
0.600336 0.169955 0.000000
0.805020 0.204257 0.000000
0.940185 0.287785 0.000000
1.000000 0.383154 0.122683
0.000000 0.245975 0.098543
0.079957 0.245975 0.100557
0.170077 0.252995 0.102449
0.273655 0.273014 0.076081
0.547204 0.338811 0.000000
0.791531 0.385687 0.000000
0.922332 0.427466 0.000000
1.000000 0.484749 0.167544
0.124697 0.435065 0.130831
0.166812 0.434607 0.133944
0.275517 0.436011 0.147311
0.375891 0.445380 0.130220
0.480323 0.446052 0.079774
0.684260 0.492836 0.000092
0.871672 0.547692 0.119875
0.987518 0.592798 0.226535
0.324590 0.604822 0.225010
0.347997 0.608667 0.231235
0.412879 0.607965 0.243015
0.501610 0.608240 0.255985
0.574273 0.611963 0.224887
0.656489 0.608820 0.186954
0.800839 0.644648 0.216831
0.940246 0.697444 0.315068
0.504021 0.750576 0.378180
0.514305 0.751125 0.381476
0.549828 0.749966 0.389471
0.610559 0.748959 0.407141
0.666194 0.749294 0.401465
0.726436 0.753353 0.376196
0.790799 0.751156 0.350103
0.887388 0.771481 0.393317
0.658473 0.862547 0.566125
0.663386 0.862364 0.567742
0.684047 0.862150 0.575280
0.721462 0.862242 0.591363
0.761685 0.857145 0.598230
0.801083 0.861875 0.590112
0.850278 0.867796 0.581109
0.898558 0.867826 0.570123
0.000000 0.000916 0.029328
0.019379 0.000000 0.033600
0.134798 0.022736 0.048249
0.302281 0.004669 0.079500
0.575494 0.000000 0.069398
0.795499 0.000000 0.038666
0.930480 0.102754 0.053712
1.000000 0.287114 0.133242
0.000000 0.028870 0.035920
0.017273 0.035706 0.045594
0.127474 0.076143 0.066438
0.300206 0.064881 0.081819
0.569879 0.000000 0.068177
0.787900 0.000000 0.035676
0.922911 0.148348 0.047944
1.000000 0.297948 0.130220
0.020874 0.118685 0.091127
0.051545 0.119753 0.093629
0.114412 0.127779 0.091890
0.298192 0.162539 0.087556
0.566918 0.167971 0.056550
0.778103 0.199832 0.018555
0.916869 0.276463 0.060945
1.000000 0.373541 0.151369
0.000000 0.239414 0.116732
0.054505 0.239933 0.118471
0.165011 0.246586 0.123598
0.255680 0.259983 0.106722
0.514427 0.319188 0.054322
0.762081 0.365484 0.000000
0.900389 0.410010 0.092866
0.999542 0.472267 0.182132
0.107546 0.429419 0.153445
0.153079 0.428473 0.155673
0.262974 0.428260 0.165988
0.362707 0.433967 0.154665
0.462806 0.432868 0.116915
0.670039 0.481697 0.098787
0.861631 0.539025 0.150179
0.979644 0.586114 0.239475
0.311437 0.597253 0.237430
0.330266 0.597406 0.240269
0.397528 0.597192 0.250919
0.491585 0.598505 0.267338
0.564935 0.603632 0.238560
0.649042 0.602899 0.204898
0.795132 0.640009 0.232364
0.935729 0.693416 0.323552
0.493294 0.744167 0.380316
0.501427 0.743069 0.381048
0.537469 0.741726 0.388281
0.600183 0.741573 0.406317
0.659815 0.743740 0.405768
0.719997 0.747890 0.380407
0.783536 0.744533 0.351659
0.881773 0.765347 0.391333
0.650599 0.859098 0.563195
0.656703 0.859556 0.566339
0.677424 0.859220 0.573480
0.715602 0.859434 0.589502
0.764431 0.859617 0.611688
0.801266 0.862608 0.599023
0.848631 0.867124 0.585992
0.896941 0.867094 0.574029
0.000000 0.000702 0.148959
0.005676 0.000000 0.145571
0.110780 0.019867 0.136843
0.268986 0.000000 0.154391
0.538933 0.000000 0.157137
0.767819 0.000000 0.189548
0.912627 0.204288 0.217624
1.000000 0.343145 0.263279
0.000000 0.062867 0.144961
0.000000 0.059663 0.142245
0.107210 0.065980 0.137026
0.266178 0.032898 0.152102
0.530938 0.000000 0.168063
0.758419 0.012085 0.189700
0.905882 0.222782 0.215030
1.000000 0.351080 0.260655
0.000000 0.131807 0.141207
0.000000 0.133211 0.142519
0.110567 0.143771 0.153231
0.276402 0.163729 0.161868
0.536065 0.183719 0.177768
0.754849 0.230289 0.194430
0.899931 0.312352 0.222263
1.000000 0.408148 0.271641
0.000000 0.245914 0.145541
0.000000 0.249485 0.153506
0.149111 0.259861 0.185489
0.256443 0.271122 0.178195
0.522454 0.330938 0.184848
0.744625 0.377722 0.204288
0.887785 0.431800 0.239445
0.988922 0.498177 0.295689
0.000000 0.433356 0.224063
0.097047 0.433631 0.227176
0.242863 0.434821 0.235508
0.365545 0.440314 0.240665
0.463813 0.441474 0.211154
0.671901 0.492348 0.220157
0.858152 0.550774 0.267063
0.969177 0.600916 0.334966
0.294530 0.597925 0.301701
0.315099 0.598444 0.304265
0.384344 0.598077 0.312596
0.483558 0.598383 0.329656
0.559045 0.602319 0.310399
0.641199 0.602289 0.280339
0.791012 0.644526 0.309911
0.931182 0.701350 0.393500
0.487495 0.746792 0.428534
0.495979 0.745876 0.429297
0.531182 0.744015 0.434211
0.592798 0.743008 0.448341
0.657893 0.744167 0.455268
0.716091 0.748836 0.431250
0.780392 0.747677 0.405341
0.881315 0.772457 0.446052
0.644373 0.859983 0.589319
0.648981 0.859525 0.589990
0.669825 0.859159 0.596277
0.709712 0.860105 0.612726
0.759091 0.860288 0.633265
0.799130 0.863523 0.628168
0.845823 0.868345 0.615351
0.894072 0.868620 0.602258
0.000000 0.013550 0.326879
0.000000 0.020752 0.321019
0.000000 0.032288 0.292058
0.224826 0.000000 0.265721
0.470588 0.000000 0.292851
0.728573 0.000000 0.298711
0.885924 0.155978 0.323247
0.984009 0.386542 0.392554
0.000000 0.085908 0.318242
0.000000 0.086641 0.312596
0.000000 0.085481 0.289982
0.227878 0.053193 0.266972
0.473060 0.000000 0.295140
0.727108 0.000000 0.299016
0.879606 0.228489 0.334752
0.981720 0.398840 0.394507
0.000000 0.170809 0.314031
0.000000 0.171572 0.312322
0.013367 0.166690 0.292454
0.236057 0.154208 0.270542
0.486275 0.155001 0.298100
0.726009 0.193881 0.308843
0.873289 0.355932 0.366430
0.978454 0.456947 0.412696
0.000000 0.286442 0.285679
0.000000 0.286748 0.285496
0.000000 0.291173 0.288243
0.262638 0.305425 0.302434
0.499947 0.335882 0.314153
0.704036 0.385718 0.340368
0.856748 0.452705 0.376989
0.965759 0.528130 0.425483
0.000000 0.437659 0.270939
0.000000 0.438941 0.274601
0.000000 0.447456 0.293034
0.353613 0.458045 0.349859
0.464424 0.459327 0.333257
0.677089 0.514519 0.359655
0.844450 0.570550 0.406073
0.950652 0.622583 0.456428
0.000000 0.608453 0.348180
0.178897 0.611536 0.361852
0.349920 0.610773 0.401465
0.468055 0.611414 0.421973
0.560967 0.613672 0.424323
0.634913 0.611231 0.391241
0.788602 0.658930 0.424018
0.924681 0.716091 0.497353
0.462684 0.750484 0.496742
0.475471 0.750607 0.500542
0.515099 0.750546 0.506737
0.580407 0.750607 0.519158
0.657374 0.751186 0.537987
0.711421 0.754116 0.515099
0.773007 0.752071 0.485481
0.878294 0.781643 0.526177
0.632624 0.864012 0.636652
0.637751 0.863859 0.637781
0.659236 0.863340 0.642756
0.698421 0.863096 0.653986
0.748898 0.862974 0.670710
0.794858 0.865080 0.675807
0.839933 0.869932 0.662135
0.888884 0.871366 0.649104
0.000000 0.049653 0.553216
0.000000 0.052491 0.548302
0.000000 0.049866 0.522026
0.190219 0.000000 0.476509
0.424353 0.000000 0.443519
0.665126 0.000000 0.459602
0.847318 0.000000 0.468177
0.973419 0.305943 0.487343
0.000000 0.103243 0.545861
0.000000 0.104433 0.541985
0.000000 0.103609 0.519066
0.201511 0.072084 0.474983
0.426886 0.000000 0.443244
0.664088 0.000000 0.459724
0.845670 0.108614 0.469337
0.971130 0.328405 0.489540
0.000000 0.211429 0.537194
0.000000 0.211124 0.531670
0.000000 0.206180 0.510124
0.235660 0.188907 0.473182
0.431281 0.157900 0.439918
0.653162 0.171481 0.456397
0.836606 0.265873 0.470802
0.961151 0.399969 0.494606
0.000000 0.360357 0.519310
0.000000 0.361303 0.517967
0.000000 0.365820 0.514611
0.277806 0.349248 0.485908
0.445563 0.315557 0.449012
0.653956 0.351995 0.465705
0.829038 0.420356 0.482643
0.935119 0.549126 0.545617
0.000000 0.492653 0.471656
0.000000 0.492470 0.471107
0.000000 0.490730 0.469764
0.248783 0.488258 0.468818
0.463416 0.488838 0.473671
0.652613 0.519280 0.486915
0.809567 0.570947 0.519036
0.925750 0.631189 0.562371
0.000000 0.595453 0.418982
0.000000 0.596399 0.421698
0.000000 0.598199 0.432471
0.328099 0.605097 0.456794
0.530114 0.612879 0.513787
0.617792 0.616480 0.499214
0.785428 0.673396 0.540642
0.913603 0.726497 0.600122
0.169009 0.753597 0.482216
0.208713 0.753048 0.484260
0.338170 0.751919 0.503899
0.512383 0.751522 0.564874
0.624201 0.752773 0.599023
0.697566 0.754818 0.600366
0.757290 0.752316 0.567712
0.872221 0.787900 0.607965
0.525811 0.866148 0.624079
0.540276 0.865568 0.630732
0.595087 0.863706 0.658381
0.666011 0.863798 0.693050
0.724331 0.863828 0.707790
0.785702 0.864897 0.727504
0.828153 0.869139 0.711788
0.877806 0.870420 0.694606
0.000000 0.094423 0.738857
0.000000 0.095857 0.735927
0.000000 0.096620 0.719448
0.000000 0.049561 0.689082
0.418128 0.000000 0.645441
0.623377 0.000000 0.615778
0.806149 0.000000 0.620233
0.937011 0.303410 0.638392
0.000000 0.130922 0.729458
0.000000 0.131991 0.726009
0.000000 0.132631 0.711086
0.000000 0.117067 0.682338
0.418097 0.000000 0.638727
0.618067 0.000000 0.609766
0.800473 0.083955 0.615930
0.933257 0.318425 0.635676
0.000000 0.255406 0.722530
0.000000 0.256077 0.718929
0.000000 0.253910 0.706264
0.207950 0.242954 0.679805
0.440162 0.211765 0.637659
0.619471 0.184115 0.607965
0.794522 0.258793 0.617945
0.927031 0.395087 0.640558
0.000000 0.426154 0.726223
0.000000 0.426703 0.722438
0.000000 0.429236 0.708339
0.316869 0.420356 0.685420
0.476600 0.386023 0.647791
0.624567 0.358526 0.614191
0.786893 0.414740 0.628748
0.919463 0.506981 0.653620
0.000000 0.560357 0.688838
0.000000 0.560815 0.687984
0.000000 0.563500 0.685542
0.357916 0.567956 0.682673
0.498726 0.544427 0.653895
0.613336 0.501183 0.612757
0.774350 0.541833 0.631922
0.909575 0.610132 0.657740
0.000000 0.665583 0.642939
0.000000 0.666407 0.643977
0.000000 0.663569 0.642084
0.271458 0.658808 0.639216
0.468177 0.652308 0.635737
0.616693 0.649287 0.636561
0.774716 0.685298 0.659510
0.893980 0.732113 0.696162
0.000000 0.754910 0.593469
0.000000 0.755459 0.594965
0.099550 0.755398 0.599237
0.362463 0.757534 0.613703
0.523674 0.762325 0.638575
0.678950 0.766476 0.691981
0.744991 0.763485 0.670893
0.873320 0.806668 0.715755
0.321996 0.872221 0.640711
0.339269 0.871794 0.641993
0.407019 0.871122 0.650599
0.508385 0.871214 0.670680
0.658717 0.868223 0.731563
0.758114 0.867918 0.769497
0.816434 0.871000 0.774319
0.865629 0.872068 0.754238
0.000000 0.136385 0.861601
0.000000 0.138369 0.860594
0.000000 0.142245 0.853819
0.000000 0.140536 0.840360
0.413764 0.115908 0.817441
0.606500 0.000000 0.782071
0.771481 0.029664 0.762905
0.903899 0.269017 0.757168
0.000000 0.171115 0.857420
0.000000 0.173129 0.856626
0.000000 0.177432 0.850004
0.000000 0.176852 0.836240
0.418219 0.160281 0.813138
0.603845 0.103029 0.777127
0.765805 0.122316 0.757046
0.898283 0.280858 0.751919
0.000000 0.301122 0.854002
0.000000 0.301701 0.852567
0.000000 0.302647 0.845975
0.193362 0.300755 0.832731
0.451423 0.288609 0.810208
0.612604 0.256687 0.775875
0.764767 0.266697 0.757290
0.894560 0.369451 0.756710
0.000000 0.465339 0.851438
0.000000 0.467323 0.849363
0.000000 0.476204 0.841703
0.344488 0.472328 0.829526
0.496101 0.452369 0.809232
0.625177 0.417334 0.778103
0.760067 0.410437 0.757961
0.885252 0.480446 0.762051
0.000000 0.607599 0.843015
0.000000 0.608728 0.842161
0.246586 0.615717 0.840360
0.412665 0.616419 0.830137
0.531334 0.602411 0.809934
0.629358 0.561059 0.780087
0.746548 0.533684 0.754635
0.873747 0.591089 0.768734
0.000000 0.716060 0.818051
0.000000 0.716609 0.818082
0.161440 0.718288 0.817716
0.394965 0.721523 0.817563
0.552026 0.726162 0.817685
0.649531 0.706722 0.798642
0.738094 0.663294 0.763607
0.865263 0.704463 0.781552
0.000000 0.808255 0.793179
0.000000 0.808316 0.793576
0.000000 0.806699 0.792996
0.322576 0.804044 0.792416
0.494545 0.799496 0.790646
0.627314 0.793515 0.787961
0.736385 0.784421 0.781918
0.865354 0.815702 0.805570
0.000000 0.874846 0.747646
0.000000 0.874754 0.748318
0.234714 0.874846 0.752102
0.397162 0.873472 0.756558
0.543938 0.872984 0.769131
0.674464 0.874907 0.791409
0.800443 0.876921 0.833402
0.853574 0.876890 0.821134
0.000000 0.193515 0.939818
0.000000 0.196139 0.939361
0.000000 0.204929 0.936309
0.000000 0.220340 0.930999
0.431922 0.237949 0.922057
0.619989 0.252384 0.908721
0.760800 0.250462 0.890349
0.890959 0.326024 0.881407
0.000000 0.225345 0.938140
0.000000 0.228519 0.937682
0.000000 0.237064 0.934905
0.000000 0.250858 0.929442
0.440314 0.266575 0.920531
0.621424 0.277897 0.907195
0.759121 0.271672 0.888487
0.888060 0.338079 0.879271
0.000000 0.344671 0.934691
0.000000 0.346258 0.934112
0.000000 0.351781 0.931273
0.260349 0.363470 0.926513
0.477729 0.372168 0.917601
0.631983 0.373114 0.904479
0.758968 0.358129 0.886412
0.883085 0.400977 0.877379
0.000000 0.495949 0.929534
0.000000 0.501976 0.928740
0.227939 0.515129 0.925383
0.387549 0.516381 0.920836
0.523827 0.513756 0.913115
0.646418 0.502739 0.901549
0.758328 0.476753 0.884886
0.875029 0.495796 0.875914
0.000000 0.612909 0.926543
0.000000 0.615412 0.926055
0.264927 0.622827 0.923522
0.450477 0.645106 0.917327
0.564569 0.648127 0.909239
0.657527 0.628565 0.898833
0.753567 0.595666 0.883421
0.863615 0.595331 0.874174
0.000000 0.729793 0.916258
0.016388 0.730648 0.915984
0.295720 0.735134 0.915160
0.461830 0.745357 0.914427
0.586053 0.753170 0.910948
0.681025 0.751339 0.901183
0.755642 0.721492 0.887663
0.852750 0.704280 0.876493
0.000000 0.826291 0.903136
0.000000 0.826413 0.903075
0.239078 0.827176 0.902739
0.425513 0.829526 0.902770
0.574823 0.833890 0.903349
0.700587 0.841306 0.905455
0.776791 0.833951 0.898375
0.842557 0.800900 0.879301
0.000000 0.907469 0.892729
0.000000 0.907164 0.892699
0.208804 0.906279 0.893034
0.402838 0.904448 0.893614
0.549676 0.901915 0.894285
0.671199 0.899199 0.895232
0.770657 0.896544 0.896117
0.847898 0.888670 0.891417
