20 Preset/Journey new/LUT for PR-AE-PS-FCPX/Journey - Lut (2).cube
# Created by Adobe Lightroom plugin Export LUT (1.24.0)
# www.johnrellis.com/lightroom/exportlut.htm
# Preset: 旅拍胶片-素材江湖02
# Color profile: C:\Program Files (x86)\Common Files\Adobe\Color\Profiles\Recommended\VideoHD.icc
LUT_3D_SIZE 32
DOMAIN_MIN 0.0 0.0 0.0
DOMAIN_MAX 1.0 1.0 1.0
0.000000 0.000000 0.000000
0.000000 0.000000 0.000000
0.000000 0.000000 0.000000
0.003265 0.000763 0.000000
0.025940 0.002655 0.000275
0.072480 0.008667 0.000000
0.100374 0.022492 0.000000
0.122499 0.038209 0.000000
0.151858 0.048219 0.000000
0.189334 0.049958 0.000000
0.235935 0.039490 0.000000
0.291173 0.012421 0.002136
0.354284 0.000000 0.003479
0.422675 0.000000 0.000977
0.492714 0.000000 0.000000
0.560845 0.000000 0.000000
0.623468 0.000000 0.000000
0.680812 0.000000 0.000000
0.740963 0.000000 0.000000
0.791531 0.000000 0.000000
0.834440 0.000000 0.000000
0.871153 0.000000 0.000000
0.902678 0.000000 0.000000
0.931090 0.000000 0.000000
0.956786 0.104402 0.000000
0.980224 0.167575 0.000000
1.000000 0.214206 0.000000
1.000000 0.255009 0.019989
1.000000 0.292943 0.090852
1.000000 0.329564 0.125673
1.000000 0.365576 0.159030
1.000000 0.401556 0.194400
0.000000 0.000000 0.000000
0.000000 0.000000 0.000000
0.000000 0.000000 0.000000
0.005249 0.000519 0.000000
0.025238 0.003876 0.000122
0.071473 0.009857 0.000000
0.099519 0.023896 0.000000
0.121035 0.038880 0.000000
0.150393 0.049104 0.000000
0.187442 0.051545 0.000000
0.232822 0.041871 0.000244
0.287419 0.017060 0.001373
0.349889 0.000000 0.004089
0.417700 0.000000 0.001740
0.487404 0.000000 0.000000
0.555932 0.000000 0.000000
0.619043 0.000000 0.000000
0.677058 0.000000 0.000000
0.736355 0.000000 0.000000
0.786465 0.000000 0.000000
0.829221 0.000000 0.000000
0.865904 0.000000 0.000000
0.897459 0.000000 0.000000
0.926146 0.000000 0.000000
0.952239 0.091157 0.000000
0.976074 0.159182 0.000000
0.998138 0.206851 0.000000
1.000000 0.248753 0.008606
1.000000 0.287327 0.083680
1.000000 0.324132 0.119539
1.000000 0.360601 0.154330
1.000000 0.396704 0.188907
0.000000 0.001190 0.000000
0.000000 0.001190 0.000000
0.001282 0.000977 0.000000
0.004547 0.001740 0.000000
0.027070 0.007019 0.000000
0.071901 0.015412 0.000000
0.098634 0.030884 0.000000
0.120058 0.044892 0.000000
0.148501 0.055787 0.000000
0.185245 0.058869 0.000000
0.230564 0.051087 0.000580
0.284581 0.026856 0.003021
0.346349 0.000000 0.004578
0.413550 0.000000 0.003326
0.483131 0.000000 0.000000
0.551690 0.000000 0.000000
0.615106 0.000000 0.000000
0.673915 0.000000 0.000000
0.732631 0.000000 0.000000
0.782589 0.000000 0.000000
0.825528 0.000000 0.000000
0.862364 0.000000 0.000000
0.894285 0.000000 0.000000
0.923186 0.000000 0.000000
0.949371 0.096620 0.000000
0.973480 0.160769 0.000000
0.995727 0.208133 0.000000
1.000000 0.249149 0.003357
1.000000 0.286992 0.076814
1.000000 0.323919 0.117769
1.000000 0.359777 0.151675
1.000000 0.395789 0.186496
0.001556 0.003174 0.000671
0.000824 0.004364 0.000519
0.002808 0.004150 0.000519
0.005371 0.006104 0.000183
0.026764 0.015961 0.000702
0.069429 0.027985 0.000000
0.098054 0.042237 0.000000
0.119112 0.056458 0.000000
0.147433 0.067567 0.000000
0.183597 0.071351 0.001068
0.228580 0.066651 0.002228
0.281285 0.047272 0.005615
0.342870 0.004334 0.005798
0.409339 0.000000 0.004395
0.478187 0.000000 0.000000
0.546166 0.000000 0.000000
0.609552 0.000000 0.000000
0.669215 0.000000 0.000000
0.726253 0.000000 0.000000
0.775448 0.000000 0.000000
0.818143 0.000000 0.000000
0.855192 0.000000 0.000000
0.887846 0.000000 0.000000
0.917662 0.000000 0.000000
0.944976 0.110445 0.000000
0.970031 0.169070 0.000000
0.993133 0.214542 0.000000
1.000000 0.254368 0.003998
1.000000 0.291691 0.077272
1.000000 0.327855 0.117525
1.000000 0.362982 0.151614
1.000000 0.397864 0.185977
0.003601 0.019623 0.002899
0.002869 0.020844 0.002747
0.006134 0.021576 0.002594
0.012940 0.025269 0.003082
0.026551 0.030488 0.002106
0.057008 0.043824 0.001953
0.093507 0.059297 0.001099
0.116548 0.074281 0.000977
0.144747 0.083009 0.001495
0.180270 0.087465 0.004242
0.224094 0.087282 0.006287
0.276249 0.078737 0.008179
0.336553 0.044221 0.009216
0.402838 0.000000 0.007355
0.471199 0.000000 0.000977
0.539361 0.000000 0.000000
0.603906 0.000000 0.000000
0.665522 0.000000 0.000000
0.721736 0.000000 0.000000
0.770779 0.000000 0.000000
0.813474 0.000000 0.000000
0.850858 0.000000 0.000000
0.883787 0.000000 0.000000
0.914183 0.042329 0.000000
0.941955 0.138064 0.000000
0.967376 0.186770 0.000000
0.990906 0.226963 0.000000
1.000000 0.264408 0.003723
1.000000 0.299931 0.080354
1.000000 0.334508 0.118837
1.000000 0.368444 0.152255
1.000000 0.402258 0.186160
0.007843 0.049165 0.007843
0.009125 0.050172 0.007660
0.014069 0.050690 0.008637
0.023957 0.051759 0.010559
0.035584 0.057160 0.009583
0.052888 0.061921 0.009735
0.085573 0.076783 0.009247
0.109865 0.088319 0.009979
0.140871 0.094514 0.008545
0.177951 0.099092 0.010376
0.221469 0.100771 0.011872
0.273320 0.099031 0.012909
0.332952 0.090364 0.012970
0.398596 0.051698 0.010132
0.466804 0.000000 0.002502
0.535424 0.000000 0.000000
0.599756 0.000000 0.000000
0.663600 0.000000 0.000000
0.719326 0.000000 0.000000
0.768215 0.000000 0.000000
0.811032 0.000000 0.000000
0.848478 0.000000 0.000000
0.907317 0.131380 0.000000
0.935424 0.173648 0.000000
0.960967 0.210452 0.000000
0.984161 0.244480 0.000000
1.000000 0.276799 0.008423
1.000000 0.308324 0.079347
1.000000 0.339422 0.116457
1.000000 0.370275 0.148531
1.000000 0.401129 0.180056
1.000000 0.432074 0.212802
0.022004 0.082551 0.022980
0.022004 0.082551 0.022980
0.026642 0.082887 0.025086
0.035828 0.084321 0.026856
0.048585 0.086213 0.027314
0.065461 0.089174 0.026184
0.083314 0.091249 0.025025
0.103151 0.097932 0.024842
0.133150 0.106538 0.024537
0.173709 0.113985 0.022217
0.225589 0.118410 0.019715
0.279576 0.119600 0.018585
0.340398 0.115419 0.016602
0.406287 0.105135 0.011322
0.474311 0.085878 0.003204
0.541863 0.027466 0.000000
0.609522 0.000000 0.000000
0.672908 0.000000 0.000000
0.728298 0.000000 0.000000
0.777066 0.000000 0.000000
0.820432 0.076204 0.000000
0.859037 0.124941 0.000000
0.893553 0.163088 0.000000
0.924834 0.198489 0.000000
0.952880 0.230930 0.000000
0.977539 0.262303 0.000000
0.999695 0.291783 0.005798
1.000000 0.320714 0.078065
1.000000 0.349859 0.116121
1.000000 0.378607 0.147189
1.000000 0.407904 0.178622
1.000000 0.437659 0.211429
0.030732 0.099550 0.039796
0.031708 0.099855 0.040772
0.037354 0.099641 0.041901
0.047272 0.099977 0.043824
0.059815 0.100557 0.047852
0.076295 0.102846 0.045411
0.088960 0.105959 0.043641
0.099428 0.108003 0.042145
0.120851 0.115053 0.040650
0.158083 0.125460 0.038300
0.206638 0.134646 0.033936
0.266331 0.140444 0.028473
0.334356 0.140993 0.020447
0.399359 0.137911 0.013245
0.466621 0.131685 0.000641
0.535424 0.122805 0.000000
0.604364 0.116152 0.000000
0.665614 0.113344 0.000000
0.720058 0.118837 0.000000
0.768673 0.132815 0.000000
0.811887 0.153140 0.000000
0.850767 0.176913 0.000000
0.885832 0.202731 0.000000
0.917632 0.230045 0.000000
0.946166 0.257664 0.000000
0.971527 0.284733 0.000000
0.994171 0.311223 0.007691
1.000000 0.337560 0.080110
1.000000 0.364324 0.117494
1.000000 0.391424 0.148806
1.000000 0.419104 0.180636
1.000000 0.447303 0.212772
0.036378 0.117739 0.059419
0.037659 0.117983 0.059266
0.043305 0.117800 0.060365
0.050507 0.118441 0.062135
0.067048 0.118807 0.066163
0.082856 0.120241 0.066133
0.094209 0.123201 0.062928
0.106264 0.126253 0.060487
0.119081 0.128450 0.058289
0.143069 0.135958 0.054994
0.188510 0.148806 0.048615
0.245090 0.159701 0.040467
0.313115 0.166903 0.028748
0.388800 0.169406 0.012818
0.462013 0.169253 0.000000
0.534020 0.169497 0.000000
0.600336 0.169955 0.000000
0.659937 0.172702 0.000000
0.713588 0.179049 0.000000
0.761898 0.189822 0.000000
0.805020 0.204257 0.000000
0.843809 0.222263 0.000000
0.878996 0.242283 0.000000
0.911131 0.264622 0.000000
0.940185 0.287785 0.000000
0.965942 0.311223 0.000000
0.989105 0.334661 0.016876
1.000000 0.358587 0.088380
1.000000 0.383154 0.122683
1.000000 0.408087 0.153811
1.000000 0.433783 0.184634
1.000000 0.460487 0.216922
0.033875 0.140658 0.076295
0.034852 0.140841 0.077272
0.040101 0.140963 0.077089
0.053956 0.141085 0.078676
0.072084 0.141543 0.080385
0.090761 0.142000 0.082704
0.101106 0.144442 0.081270
0.112947 0.147921 0.078523
0.128450 0.151431 0.072694
0.143801 0.153231 0.068818
0.170626 0.160342 0.064759
0.223178 0.175479 0.054963
0.287419 0.188113 0.039887
0.362036 0.198001 0.021088
0.445258 0.206027 0.000000
0.528710 0.211093 0.000000
0.595544 0.215244 0.000000
0.654932 0.220584 0.000000
0.708339 0.228244 0.000000
0.756130 0.238224 0.000000
0.798825 0.250187 0.000000
0.837003 0.263951 0.000000
0.871519 0.279881 0.000000
0.903349 0.297795 0.000000
0.932250 0.316930 0.000000
0.958282 0.337011 0.000000
0.981964 0.357733 0.022431
1.000000 0.379339 0.092622
1.000000 0.401770 0.126284
1.000000 0.425422 0.157595
1.000000 0.449622 0.188785
1.000000 0.475074 0.221408
0.029267 0.167758 0.086061
0.030243 0.167910 0.086702
0.036469 0.168154 0.087190
0.051606 0.168399 0.088167
0.078645 0.168795 0.089113
0.096040 0.169528 0.090303
0.110018 0.171176 0.091127
0.122499 0.174472 0.088838
0.138094 0.178134 0.085725
0.157107 0.182345 0.080537
0.175051 0.183261 0.076600
0.203952 0.189578 0.070619
0.265537 0.207980 0.054261
0.339269 0.224216 0.031739
0.419318 0.237522 0.004486
0.501793 0.248508 0.000000
0.580438 0.257115 0.000000
0.649165 0.264286 0.000000
0.701900 0.272068 0.000000
0.749172 0.281315 0.000000
0.791562 0.291752 0.000000
0.829618 0.303532 0.000000
0.864439 0.317327 0.000000
0.896544 0.332555 0.000000
0.925841 0.349065 0.000000
0.952239 0.366705 0.000000
0.976379 0.385016 0.040620
0.998322 0.404608 0.101808
1.000000 0.425116 0.134463
1.000000 0.446540 0.165194
1.000000 0.469184 0.196506
1.000000 0.492836 0.228458
0.018158 0.201328 0.092348
0.020142 0.201328 0.092348
0.027344 0.201633 0.092988
0.048463 0.201724 0.093629
0.079683 0.202518 0.094697
0.100923 0.203037 0.096101
0.119905 0.204135 0.097932
0.135317 0.206851 0.096437
0.151339 0.210391 0.093690
0.170260 0.214603 0.089723
0.193210 0.219791 0.083467
0.215579 0.221164 0.078645
0.264012 0.239536 0.069398
0.336828 0.261082 0.041566
0.418708 0.280461 0.007050
0.502861 0.297276 0.000000
0.581415 0.310826 0.000000
0.652216 0.322026 0.000000
0.714900 0.332311 0.000000
0.765042 0.341650 0.000000
0.805051 0.350805 0.000000
0.841001 0.360754 0.000000
0.873960 0.372015 0.000000
0.904143 0.384680 0.000000
0.931670 0.398230 0.000000
0.956695 0.412634 0.038666
0.979461 0.427710 0.099672
1.000000 0.443977 0.130526
1.000000 0.461280 0.159823
1.000000 0.479805 0.188235
1.000000 0.499611 0.217746
1.000000 0.520806 0.248631
0.000000 0.245975 0.098543
0.000000 0.246067 0.098878
0.010468 0.245670 0.098939
0.035798 0.245945 0.099763
0.079957 0.245975 0.100557
0.106111 0.246098 0.102235
0.129793 0.246769 0.104585
0.151949 0.247898 0.105806
0.170077 0.252995 0.102449
0.191928 0.258671 0.097841
0.217533 0.265141 0.091951
0.246860 0.272038 0.083131
0.273655 0.273014 0.076081
0.310399 0.278019 0.065553
0.384558 0.300267 0.029786
0.467475 0.321416 0.000000
0.547204 0.338811 0.000000
0.619715 0.352789 0.000000
0.684321 0.365026 0.000000
0.741268 0.375982 0.000000
0.791531 0.385687 0.000000
0.829648 0.394781 0.000000
0.863188 0.404517 0.000000
0.894011 0.415595 0.000000
0.922332 0.427466 0.000000
0.947967 0.440345 0.061280
0.971466 0.454139 0.109224
0.992889 0.468849 0.139193
1.000000 0.484749 0.167544
1.000000 0.501976 0.196292
1.000000 0.520256 0.225772
1.000000 0.540307 0.257511
0.000000 0.289555 0.103822
0.000000 0.289464 0.103883
0.000000 0.289647 0.104372
0.029816 0.289738 0.104768
0.082948 0.290166 0.106233
0.113344 0.290684 0.108156
0.141238 0.291722 0.110811
0.169558 0.293156 0.113313
0.191928 0.296300 0.111727
0.213321 0.300969 0.106844
0.238529 0.306218 0.101137
0.267491 0.312261 0.093324
0.299474 0.318212 0.081147
0.325994 0.317418 0.071138
0.360632 0.319310 0.058900
0.432929 0.340673 0.016968
0.512779 0.361944 0.000000
0.586450 0.379034 0.000000
0.653376 0.393683 0.000000
0.712673 0.406317 0.000000
0.765255 0.417304 0.000000
0.812375 0.427863 0.000000
0.853635 0.438025 0.000000
0.885161 0.447730 0.000000
0.914000 0.458381 0.007477
0.940154 0.470100 0.088167
0.964202 0.482307 0.120760
0.985992 0.495674 0.150729
1.000000 0.510033 0.178592
1.000000 0.525750 0.207187
1.000000 0.542901 0.236881
1.000000 0.561486 0.268345
0.000000 0.339910 0.110689
0.000000 0.339849 0.110658
0.006531 0.339574 0.111055
0.050599 0.339361 0.111910
0.100008 0.338964 0.113008
0.129274 0.338811 0.114961
0.158633 0.339055 0.117647
0.188876 0.339696 0.120882
0.218875 0.341161 0.123568
0.239902 0.344884 0.118441
0.264073 0.349340 0.112398
0.291661 0.354559 0.104738
0.321782 0.359869 0.095003
0.354406 0.364843 0.078889
0.379644 0.361822 0.065339
0.411231 0.360815 0.053773
0.479286 0.380987 0.007904
0.554131 0.401373 0.000000
0.622461 0.418433 0.000000
0.684016 0.433204 0.000000
0.738918 0.445930 0.000000
0.788266 0.457710 0.000000
0.832731 0.468818 0.000000
0.872679 0.479530 0.000000
0.905699 0.489662 0.044617
0.932464 0.499947 0.104463
0.956939 0.511070 0.134676
0.979309 0.523400 0.164004
0.999847 0.536858 0.191958
1.000000 0.551781 0.221469
1.000000 0.567987 0.251530
1.000000 0.585779 0.284337
0.047913 0.388128 0.119295
0.057404 0.388220 0.119448
0.084291 0.388128 0.119966
0.104555 0.388037 0.120607
0.129732 0.387884 0.122225
0.156893 0.387762 0.124392
0.185397 0.388373 0.126894
0.215579 0.388952 0.130587
0.247654 0.390234 0.134920
0.273503 0.392493 0.134218
0.296117 0.395911 0.127718
0.320958 0.399542 0.120150
0.348516 0.403204 0.110384
0.377722 0.406622 0.098451
0.408331 0.409735 0.081239
0.430854 0.404517 0.066041
0.459052 0.400824 0.054200
0.520317 0.418494 0.009308
0.590326 0.438422 0.000000
0.653834 0.455543 0.000000
0.711421 0.470832 0.000000
0.763577 0.484413 0.000000
0.810361 0.497047 0.000000
0.852628 0.508690 0.035706
0.890410 0.519890 0.094453
0.924102 0.530846 0.123476
0.950256 0.541283 0.152560
0.973022 0.552483 0.180392
0.993744 0.564721 0.208713
1.000000 0.578241 0.237278
1.000000 0.592920 0.267033
1.000000 0.609064 0.299046
0.124697 0.435065 0.130831
0.126040 0.435035 0.131075
0.133516 0.435004 0.131441
0.147646 0.434852 0.132265
0.166812 0.434607 0.133944
0.190036 0.434791 0.135592
0.216464 0.434852 0.138674
0.244877 0.435279 0.142550
0.275517 0.436011 0.147311
0.307073 0.436927 0.152132
0.327886 0.439582 0.146365
0.350866 0.442573 0.139101
0.375891 0.445380 0.130220
0.402289 0.448249 0.119997
0.430579 0.450629 0.106935
0.459846 0.452644 0.090120
0.480323 0.446052 0.079774
0.504723 0.440192 0.072084
0.559167 0.455482 0.030549
0.624537 0.475196 0.009003
0.684260 0.492836 0.000092
0.738766 0.508476 0.014954
0.787869 0.522576 0.048432
0.832090 0.535546 0.093446
0.871672 0.547692 0.119875
0.907225 0.559167 0.146212
0.938811 0.570428 0.172488
0.966583 0.581445 0.198795
0.987518 0.592798 0.226535
1.000000 0.605188 0.255070
1.000000 0.618738 0.284886
1.000000 0.633692 0.317082
0.177615 0.481270 0.147677
0.178500 0.481453 0.147738
0.201144 0.495857 0.155978
0.211093 0.495766 0.156771
0.225956 0.495460 0.158450
0.244877 0.495277 0.160647
0.267216 0.495003 0.163546
0.293248 0.494820 0.167178
0.321233 0.495064 0.171756
0.351385 0.495369 0.177218
0.377203 0.496407 0.178561
0.397467 0.498177 0.171603
0.419165 0.499855 0.163516
0.442512 0.501244 0.153353
0.467079 0.502251 0.142397
0.492622 0.502983 0.129244
0.518944 0.503258 0.111757
0.536461 0.494911 0.104799
0.556390 0.486336 0.100465
0.603601 0.499031 0.086793
0.664027 0.518334 0.087007
0.719448 0.535515 0.095003
0.769772 0.550805 0.108888
0.814878 0.564569 0.128267
0.855497 0.576776 0.148928
0.891752 0.588220 0.171878
0.924285 0.599023 0.194949
0.953185 0.609735 0.220035
0.978973 0.620691 0.246220
1.000000 0.632074 0.274266
1.000000 0.644495 0.304570
1.000000 0.658045 0.336339
0.232700 0.528557 0.172488
0.235416 0.529778 0.173465
0.241001 0.531121 0.175143
0.250950 0.532189 0.176669
0.264500 0.532891 0.178775
0.281010 0.532982 0.181216
0.300786 0.532708 0.183963
0.323796 0.532403 0.187259
0.349035 0.532280 0.191653
0.376471 0.532280 0.196933
0.405280 0.532525 0.202640
0.424720 0.533806 0.198123
0.444160 0.534966 0.190768
0.464912 0.536278 0.182742
0.486976 0.537224 0.173007
0.510246 0.537926 0.161837
0.534539 0.538506 0.148653
0.559686 0.539086 0.133669
0.576135 0.530877 0.126467
0.594079 0.521996 0.122713
0.636164 0.533379 0.114778
0.693904 0.553185 0.121462
0.746029 0.570459 0.133303
0.793179 0.585809 0.150423
0.835569 0.599359 0.169436
0.873625 0.611688 0.190646
0.907561 0.623224 0.213596
0.937896 0.634302 0.238621
0.964904 0.645350 0.264530
0.988891 0.656794 0.292943
1.000000 0.668666 0.322972
1.000000 0.681086 0.354345
0.278752 0.566796 0.196811
0.280797 0.568078 0.198123
0.286076 0.569512 0.199496
0.294408 0.570489 0.201450
0.305943 0.571283 0.203464
0.320317 0.571405 0.205997
0.337469 0.571283 0.208225
0.357824 0.570764 0.211490
0.380499 0.570520 0.215671
0.405097 0.570336 0.220493
0.431220 0.570245 0.226261
0.455268 0.570642 0.229068
0.472267 0.571740 0.222293
0.490944 0.572686 0.214755
0.510552 0.573632 0.206607
0.531518 0.574426 0.196841
0.553429 0.575067 0.185672
0.576410 0.575586 0.173129
0.600183 0.576379 0.159304
0.615412 0.568017 0.152621
0.631403 0.558679 0.149477
0.668574 0.568414 0.144015
0.722499 0.587915 0.155154
0.771664 0.605035 0.170779
0.815793 0.620111 0.189609
0.855406 0.633509 0.209873
0.890837 0.645838 0.232364
0.922545 0.657404 0.256992
0.950805 0.668757 0.283482
0.975830 0.680323 0.311894
0.998077 0.691981 0.342077
1.000000 0.703822 0.373571
0.324590 0.604822 0.225010
0.326665 0.606043 0.226047
0.330938 0.607172 0.227512
0.338201 0.608026 0.229374
0.347997 0.608667 0.231235
0.360113 0.608850 0.233768
0.374914 0.608606 0.236149
0.392767 0.608240 0.239048
0.412879 0.607965 0.243015
0.435035 0.607752 0.247349
0.458747 0.607630 0.252903
0.483680 0.607568 0.258915
0.501610 0.608240 0.255985
0.517784 0.609094 0.249607
0.535454 0.609979 0.242191
0.554223 0.610925 0.233646
0.574273 0.611963 0.224887
0.595697 0.613092 0.214511
0.618128 0.614405 0.204166
0.641627 0.615961 0.192172
0.656489 0.608820 0.186954
0.671473 0.599786 0.184512
0.706142 0.609155 0.182742
0.755001 0.627466 0.197421
0.800839 0.644648 0.216831
0.842008 0.659663 0.238560
0.878599 0.673091 0.261875
0.911284 0.685512 0.287510
0.940246 0.697444 0.315068
0.965911 0.709102 0.344305
0.988708 0.720546 0.374517
1.000000 0.731991 0.406317
0.378454 0.648707 0.263767
0.379797 0.649195 0.264164
0.382544 0.649470 0.265080
0.387366 0.649500 0.265934
0.394995 0.649439 0.267277
0.404913 0.649073 0.268620
0.417456 0.648585 0.270970
0.432532 0.648219 0.273777
0.450050 0.647791 0.277043
0.469703 0.647700 0.281773
0.490608 0.647547 0.286870
0.513329 0.647486 0.292607
0.534936 0.647608 0.296971
0.549035 0.648310 0.290959
0.564508 0.649073 0.284184
0.581140 0.649897 0.276738
0.598810 0.650568 0.268803
0.617700 0.651362 0.259861
0.637568 0.652308 0.250370
0.658595 0.653407 0.239994
0.680446 0.654566 0.228977
0.693721 0.646967 0.223789
0.706477 0.637079 0.220035
0.737881 0.644984 0.219944
0.781186 0.661097 0.234989
0.823941 0.677546 0.256626
0.862150 0.692256 0.280766
0.896178 0.705592 0.307012
0.926482 0.718044 0.334722
0.953277 0.729854 0.363836
0.976928 0.741299 0.394476
0.997742 0.752468 0.426612
0.421454 0.683772 0.298619
0.422370 0.684047 0.299077
0.424842 0.684352 0.299992
0.429053 0.684474 0.300847
0.435401 0.684382 0.302159
0.443854 0.684199 0.303838
0.454688 0.683772 0.305760
0.467872 0.683375 0.308446
0.483162 0.683131 0.311711
0.500572 0.682918 0.316075
0.519524 0.682856 0.320928
0.539666 0.682765 0.326543
0.560784 0.682734 0.332769
0.577203 0.683253 0.332311
0.590814 0.684016 0.326360
0.605646 0.684901 0.319829
0.621790 0.685786 0.312718
0.638758 0.686763 0.305180
0.656855 0.687800 0.296910
0.675959 0.688899 0.287999
0.695949 0.690181 0.279026
0.716701 0.691615 0.269413
0.729152 0.684352 0.264317
0.740658 0.674586 0.260380
0.766415 0.678096 0.256870
0.805020 0.692409 0.272953
0.844907 0.708400 0.297093
0.880461 0.722744 0.323674
0.912139 0.735897 0.351659
0.940246 0.748104 0.381262
0.965087 0.759823 0.412665
0.986877 0.771023 0.445502
0.467659 0.720943 0.341833
0.468849 0.721462 0.342779
0.470802 0.721645 0.343297
0.474128 0.721431 0.343725
0.478950 0.721004 0.344335
0.485542 0.720363 0.345434
0.494026 0.719509 0.346532
0.504723 0.718593 0.348119
0.517357 0.717739 0.350591
0.531884 0.717128 0.353796
0.548028 0.716457 0.357488
0.565667 0.715969 0.362066
0.584344 0.715541 0.367559
0.603357 0.715145 0.372992
0.615076 0.715450 0.367163
0.627741 0.715755 0.360540
0.641688 0.716274 0.353918
0.656794 0.716945 0.346715
0.673121 0.717952 0.339757
0.690578 0.719265 0.332433
0.708919 0.720760 0.324651
0.728084 0.722255 0.316655
0.747738 0.723629 0.307500
0.758999 0.716365 0.302403
0.769558 0.707118 0.297642
0.794949 0.712062 0.299535
0.828885 0.724147 0.315465
0.865629 0.739193 0.341466
0.898466 0.752712 0.369207
0.927611 0.765255 0.398962
0.953491 0.777005 0.430549
0.976135 0.788235 0.464363
0.504021 0.750576 0.378180
0.505089 0.751064 0.379217
0.506828 0.751339 0.380102
0.509880 0.751369 0.380865
0.514305 0.751125 0.381476
0.520409 0.750912 0.382910
0.528374 0.750546 0.384527
0.538262 0.750210 0.386816
0.549828 0.749966 0.389471
0.563134 0.749752 0.393194
0.577783 0.749477 0.397070
0.593744 0.749203 0.401831
0.610559 0.748959 0.407141
0.628199 0.748684 0.412757
0.642695 0.748653 0.413367
0.653895 0.748898 0.407660
0.666194 0.749294 0.401465
0.679591 0.749905 0.395239
0.694148 0.750790 0.389044
0.709865 0.751980 0.382727
0.726436 0.753353 0.376196
0.743862 0.754910 0.369574
0.761868 0.756405 0.362341
0.780392 0.757870 0.354589
0.790799 0.751156 0.350103
0.801053 0.743069 0.345830
0.823728 0.746944 0.348791
0.853483 0.757229 0.364477
0.887388 0.771481 0.393317
0.917418 0.784298 0.423590
0.943938 0.796078 0.456062
0.967193 0.807126 0.490364
0.542931 0.781369 0.420783
0.543542 0.781613 0.421180
0.545037 0.781704 0.421698
0.547417 0.781613 0.422370
0.551110 0.781399 0.423041
0.556359 0.781094 0.424231
0.563104 0.780789 0.425696
0.571618 0.780392 0.427558
0.581689 0.780087 0.430243
0.593225 0.779812 0.433295
0.606287 0.779507 0.437049
0.620447 0.779263 0.441321
0.635645 0.779080 0.446326
0.651514 0.778775 0.451575
0.668055 0.778408 0.457435
0.678553 0.778714 0.453407
0.689479 0.779110 0.448066
0.701472 0.779721 0.442603
0.714382 0.780606 0.437232
0.728542 0.781704 0.431708
0.743557 0.783017 0.426246
0.759365 0.784451 0.420691
0.775692 0.785855 0.414740
0.792630 0.787259 0.408301
0.809934 0.788632 0.401434
0.819394 0.782345 0.396857
0.829129 0.775204 0.392737
0.849210 0.777920 0.396674
0.875181 0.786465 0.411963
0.906371 0.799802 0.443397
0.933837 0.811856 0.476631
0.957916 0.823026 0.512047
0.578882 0.808835 0.462715
0.579492 0.808988 0.463081
0.580713 0.809049 0.463600
0.583093 0.809110 0.464332
0.586511 0.809110 0.465583
0.591485 0.809171 0.467018
0.598260 0.809415 0.469581
0.606531 0.809781 0.472847
0.616419 0.810269 0.476936
0.627741 0.810819 0.481666
0.640253 0.811429 0.486915
0.653773 0.812009 0.492866
0.668055 0.812467 0.499062
0.682795 0.812772 0.505364
0.697963 0.812955 0.511772
0.711147 0.813138 0.514672
0.720882 0.813687 0.510399
0.731411 0.814359 0.505943
0.742885 0.815274 0.501640
0.755428 0.816373 0.497444
0.768673 0.817594 0.493111
0.782742 0.818936 0.488563
0.797330 0.820218 0.483650
0.812497 0.821530 0.478676
0.828061 0.822782 0.473030
0.843961 0.823941 0.467292
0.852537 0.818570 0.463630
0.861601 0.812680 0.460182
0.879088 0.814420 0.464881
0.900938 0.821012 0.480262
0.928405 0.832853 0.514641
0.952453 0.843687 0.550378
0.623133 0.839261 0.518853
0.623377 0.839292 0.519036
0.624140 0.839200 0.519066
0.625910 0.839078 0.519524
0.628595 0.838926 0.520134
0.632471 0.838743 0.521233
0.637629 0.838590 0.522881
0.644068 0.838468 0.524773
0.651850 0.838376 0.527581
0.660914 0.838315 0.530846
0.671168 0.838285 0.534874
0.682368 0.838285 0.539147
0.694423 0.838285 0.544152
0.707179 0.838224 0.549401
