20 Preset/Journey new/LUT for PR-AE-PS-FCPX/Journey - Lut (4).cube
# Created by Adobe Lightroom plugin Export LUT (1.24.0)
# www.johnrellis.com/lightroom/exportlut.htm
# Preset: 旅拍胶片-素材江湖04
# Color profile: C:\Program Files (x86)\Common Files\Adobe\Color\Profiles\Recommended\VideoHD.icc
LUT_3D_SIZE 5
DOMAIN_MIN 0.000000 0.000000 0.000000
DOMAIN_MAX 0.903226 0.903226 0.903226
0.000000 0.000000 0.000000
0.129152 0.008240 0.000000
0.406714 0.000000 0.000000
0.795346 0.000000 0.000000
1.000000 0.000000 0.000000
0.088991 0.102754 0.019104
0.141115 0.116243 0.002167
0.425086 0.097597 0.000000
0.801114 0.000000 0.000000
1.000000 0.131807 0.000000
0.184146 0.326604 0.072938
0.226810 0.329961 0.050690
0.453193 0.403143 0.000000
0.781460 0.450111 0.000000
0.987488 0.483070 0.000000
0.397986 0.624903 0.240970
0.426642 0.623529 0.245914
0.539788 0.651057 0.204929
0.749355 0.696590 0.000000
0.933989 0.696559 0.077974
0.647486 0.825956 0.576959
0.657771 0.825498 0.579950
0.691249 0.825376 0.566155
0.775387 0.839872 0.546075
0.893278 0.852384 0.499153
0.000000 0.011841 0.104341
0.128725 0.000000 0.104921
0.372747 0.000000 0.091890
0.752193 0.000000 0.069734
0.995270 0.000000 0.000000
0.088869 0.119783 0.097993
0.148775 0.126589 0.103700
0.394812 0.116854 0.102632
0.761074 0.000000 0.043793
0.992462 0.168795 0.000000
0.208286 0.336828 0.151949
0.249729 0.333989 0.155306
0.435767 0.387762 0.087129
0.761257 0.445747 0.000000
0.976165 0.492531 0.064210
0.413458 0.629511 0.302861
0.441230 0.628626 0.307195
0.543267 0.648554 0.290806
0.743923 0.694545 0.206943
0.927642 0.701595 0.255894
0.651637 0.826413 0.600580
0.661219 0.825803 0.602747
0.700221 0.827909 0.607721
0.776883 0.841306 0.587549
0.890227 0.854185 0.547387
0.000000 0.081331 0.399207
0.000000 0.065522 0.393927
0.345983 0.000000 0.376684
0.750179 0.000000 0.301091
0.967010 0.000000 0.335088
0.000000 0.198123 0.380011
0.000000 0.166262 0.378149
0.371710 0.102022 0.369360
0.741573 0.109133 0.321477
0.958373 0.214328 0.355718
0.080812 0.390295 0.347814
0.212802 0.393133 0.350103
0.440528 0.412055 0.370184
0.729030 0.449775 0.386725
0.941131 0.512993 0.422339
0.423774 0.650874 0.458839
0.471504 0.649714 0.476020
0.557122 0.645808 0.486427
0.722927 0.692683 0.469917
0.901854 0.721553 0.521324
0.656916 0.828275 0.668574
0.667079 0.828122 0.671077
0.704250 0.827054 0.679896
0.769772 0.837644 0.675990
0.874846 0.853056 0.652674
0.000000 0.149508 0.751644
0.000000 0.136812 0.749538
0.000000 0.079957 0.738827
0.638666 0.000000 0.721065
0.944091 0.179599 0.641352
0.000000 0.265019 0.738979
0.000000 0.235752 0.737545
0.156466 0.196536 0.728634
0.645655 0.000000 0.711543
0.934844 0.311192 0.640131
0.000000 0.520439 0.704677
0.158663 0.516350 0.702907
0.370306 0.464088 0.702327
0.661433 0.412543 0.689631
0.903044 0.561425 0.658473
0.319097 0.685359 0.675471
0.368475 0.684382 0.674678
0.513024 0.685695 0.677363
0.688411 0.694911 0.689998
0.870390 0.728115 0.713893
0.627619 0.834989 0.744472
0.642939 0.835264 0.747921
0.700343 0.837278 0.764462
0.767086 0.835752 0.779477
0.855192 0.854643 0.776883
0.000000 0.277379 0.910613
0.000000 0.258183 0.910399
0.000000 0.248081 0.908293
0.489479 0.187076 0.904051
0.819486 0.000000 0.897612
0.000000 0.367010 0.905486
0.000000 0.348211 0.905699
0.000000 0.320836 0.904417
0.511192 0.276493 0.900511
0.820981 0.195834 0.894591
0.301854 0.612726 0.887724
0.313451 0.600610 0.888029
0.365576 0.546197 0.890257
0.573907 0.503838 0.888426
0.823697 0.464454 0.885344
0.491768 0.761837 0.870756
0.513634 0.762020 0.870420
0.589990 0.761227 0.870695
0.666011 0.729580 0.874052
0.824430 0.702937 0.873655
0.603296 0.852781 0.861692
0.616480 0.852567 0.861692
0.669551 0.852537 0.862577
0.749935 0.852689 0.864164
0.837003 0.855436 0.868284
