20 Preset/Journey new/LUT for PR-AE-PS-FCPX/Journey - Lut (7).cube
# Created by Adobe Lightroom plugin Export LUT (1.24.0)
# www.johnrellis.com/lightroom/exportlut.htm
# Preset: 旅拍胶片-素材江湖07
# Color profile: C:\Program Files (x86)\Common Files\Adobe\Color\Profiles\Recommended\VideoHD.icc
LUT_3D_SIZE 8
DOMAIN_MIN 0.000000 0.000000 0.000000
DOMAIN_MAX 0.903226 0.903226 0.903226
0.087922 0.102815 0.099641
0.108370 0.104158 0.100893
0.158480 0.106050 0.103487
0.253727 0.101442 0.104524
0.412665 0.024781 0.098878
0.601282 0.000000 0.081239
0.780331 0.000000 0.015229
0.957855 0.000000 0.000000
0.096895 0.112673 0.106874
0.107668 0.112551 0.106355
0.161654 0.113741 0.105043
0.257694 0.111360 0.102815
0.413642 0.080476 0.096468
0.597925 0.000000 0.074861
0.775753 0.000000 0.003967
0.950256 0.000000 0.000000
0.115084 0.142611 0.121431
0.122988 0.143069 0.120638
0.160708 0.144442 0.118013
0.291600 0.156008 0.105562
0.465003 0.155093 0.074464
0.650111 0.125429 0.000000
0.833402 0.003937 0.000000
0.986358 0.000000 0.000000
0.137270 0.227665 0.137087
0.147646 0.228122 0.136049
0.192203 0.232517 0.131563
0.291508 0.243229 0.121645
0.514977 0.286137 0.035279
0.730648 0.279271 0.000000
0.890440 0.273594 0.000000
1.000000 0.275212 0.000000
0.156924 0.385046 0.161044
0.173251 0.386053 0.159304
0.233890 0.392493 0.153048
0.340887 0.406714 0.138399
0.500053 0.420264 0.108675
0.719692 0.450416 0.000000
0.908629 0.436805 0.000000
1.000000 0.441871 0.000000
0.232212 0.562066 0.226383
0.250614 0.568444 0.228367
0.304448 0.572839 0.224063
0.398413 0.581720 0.214237
0.530480 0.592828 0.195773
0.702358 0.604913 0.174502
0.881651 0.627985 0.151766
1.000000 0.628290 0.105684
0.397498 0.729641 0.357458
0.408728 0.729580 0.361669
0.440772 0.731350 0.358679
0.504265 0.735927 0.354955
0.596185 0.741207 0.347417
0.718044 0.750027 0.340398
0.856687 0.758297 0.339635
0.974609 0.772030 0.355047
0.604242 0.861173 0.530297
0.609369 0.860410 0.532464
0.631250 0.857633 0.542626
0.669459 0.858793 0.548516
0.710964 0.855558 0.535851
0.786404 0.860838 0.540063
0.872953 0.866361 0.545220
0.955261 0.869169 0.554040
0.090089 0.109133 0.126192
0.107820 0.106996 0.126955
0.156191 0.104494 0.122408
0.252567 0.087312 0.118715
0.406195 0.000000 0.116121
0.589471 0.000000 0.107118
0.768582 0.000000 0.085145
0.940215 0.000000 0.000000
0.096590 0.118532 0.120272
0.113069 0.117250 0.121309
0.159426 0.119753 0.122988
0.250065 0.118441 0.123415
0.401251 0.095155 0.119326
0.582971 0.000000 0.108614
0.761074 0.000000 0.086458
0.928893 0.000000 0.000000
0.123354 0.146731 0.128695
0.130282 0.147372 0.128450
0.165957 0.149294 0.126741
0.289952 0.160037 0.119783
0.451972 0.158938 0.106416
0.629816 0.133913 0.082826
0.803769 0.048707 0.004395
0.959777 0.000000 0.000000
0.144778 0.226902 0.136202
0.154726 0.227665 0.135286
0.197055 0.232761 0.131075
0.287999 0.241184 0.121767
0.493233 0.280247 0.056001
0.699672 0.273198 0.000000
0.859007 0.265751 0.000000
0.996643 0.266026 0.000000
0.167788 0.384863 0.159579
0.182315 0.384924 0.158053
0.238346 0.389166 0.151308
0.338231 0.399481 0.136873
0.486763 0.409125 0.109194
0.702205 0.440925 0.000000
0.893919 0.431159 0.000000
1.000000 0.435096 0.000000
0.235233 0.555291 0.222232
0.249027 0.556786 0.221408
0.301488 0.561822 0.216861
0.393744 0.571984 0.207797
0.524315 0.584802 0.190280
0.696712 0.599695 0.170565
0.875517 0.623194 0.146670
1.000000 0.623133 0.093172
0.390112 0.721462 0.350866
0.397223 0.719966 0.350683
0.429419 0.721523 0.347631
0.494484 0.727199 0.344945
0.589929 0.735134 0.340185
0.711849 0.744198 0.332647
0.849638 0.751064 0.329625
0.969757 0.764736 0.343053
0.594690 0.857053 0.522148
0.601770 0.857023 0.525872
0.623743 0.854093 0.535821
0.662623 0.855497 0.541924
0.717861 0.858976 0.543206
0.788602 0.862119 0.542840
0.872404 0.865934 0.544182
0.954864 0.868650 0.552636
0.000000 0.124117 0.223117
0.017700 0.117739 0.224460
0.167849 0.109957 0.223636
0.264744 0.093568 0.206851
0.424872 0.000000 0.204868
0.622187 0.000000 0.173617
0.808377 0.000000 0.156741
0.967224 0.000000 0.145846
0.029053 0.137392 0.210086
0.085573 0.133730 0.210727
0.170840 0.124636 0.211948
0.267216 0.111238 0.202640
0.429389 0.000000 0.195529
0.621790 0.000000 0.164401
0.799222 0.000000 0.160586
0.957824 0.000000 0.149416
0.099916 0.181735 0.186130
0.120668 0.181308 0.187533
0.192111 0.179110 0.193759
0.296422 0.180270 0.190311
0.444465 0.178225 0.187381
0.619226 0.165805 0.184695
0.790280 0.145174 0.179416
0.945373 0.143893 0.170138
0.166140 0.269841 0.192294
0.181643 0.267338 0.196353
0.225803 0.265446 0.202731
0.320378 0.276524 0.200381
0.519219 0.303410 0.190921
0.696864 0.303441 0.176974
0.853269 0.301091 0.158328
0.985229 0.309758 0.137881
0.217319 0.406683 0.215396
0.228672 0.407752 0.214176
0.275639 0.413214 0.210880
0.367864 0.425147 0.204410
0.511589 0.436713 0.193210
0.712917 0.465095 0.169528
0.895628 0.455634 0.129335
1.000000 0.463661 0.000000
0.273411 0.568719 0.225589
0.285344 0.570428 0.225132
0.331792 0.574640 0.220706
0.416815 0.582818 0.211460
0.540154 0.594293 0.194614
0.704402 0.608545 0.176608
0.877867 0.633021 0.161349
1.000000 0.635706 0.122621
0.416144 0.729885 0.360632
0.422034 0.729458 0.359045
0.451118 0.729976 0.355505
0.511376 0.734005 0.351293
0.601862 0.740871 0.345739
0.720943 0.750332 0.340124
0.856535 0.759091 0.340520
0.973846 0.773922 0.358587
0.601831 0.859068 0.527459
0.606043 0.857939 0.528893
0.627192 0.854948 0.538293
0.667231 0.857389 0.545678
0.721462 0.860716 0.546746
0.792691 0.864530 0.548333
0.875456 0.868559 0.550683
0.956451 0.871092 0.558740
0.000000 0.154116 0.398993
0.000000 0.146548 0.401160
0.000000 0.131533 0.400946
0.289769 0.097322 0.403113
0.462715 0.000000 0.385290
0.626184 0.000000 0.366033
0.806180 0.000000 0.345190
0.972778 0.000000 0.296971
0.000000 0.173312 0.389807
0.000000 0.168246 0.390295
0.000000 0.148531 0.392309
0.296147 0.122621 0.396765
0.462043 0.000000 0.377600
0.629236 0.000000 0.363622
0.808225 0.000000 0.339269
0.973449 0.000000 0.290013
0.000000 0.231479 0.360876
0.000000 0.228428 0.360540
0.129946 0.215915 0.363226
0.315953 0.199527 0.370123
0.477790 0.179477 0.360327
0.651850 0.125765 0.353735
0.834531 0.000000 0.320958
0.984588 0.000000 0.280919
0.000000 0.345922 0.324620
0.000000 0.344610 0.324956
0.201541 0.342321 0.330053
0.367864 0.340520 0.345190
0.509087 0.339055 0.334264
0.656916 0.344610 0.329808
0.807126 0.353796 0.327489
0.946288 0.370886 0.323949
0.257786 0.485878 0.329351
0.277379 0.482460 0.332067
0.342321 0.472175 0.346105
0.421393 0.467567 0.363317
0.540581 0.482643 0.363989
0.721981 0.506920 0.362432
0.869627 0.511406 0.350958
0.990539 0.520256 0.330419
0.375677 0.610834 0.369116
0.389288 0.613092 0.374884
0.424933 0.604639 0.385016
0.484382 0.612238 0.384100
0.579980 0.623346 0.380591
0.714321 0.635279 0.378668
0.872526 0.662898 0.376806
1.000000 0.667597 0.348302
0.462104 0.742061 0.399847
0.468940 0.743099 0.399725
0.496620 0.745724 0.398169
0.550591 0.750698 0.394568
0.631708 0.756954 0.387427
0.739681 0.764370 0.376684
0.865782 0.771023 0.367742
0.978454 0.784634 0.377630
0.616754 0.866209 0.540856
0.621424 0.865476 0.542901
0.641474 0.862364 0.551781
0.676905 0.862669 0.556756
0.728786 0.865324 0.557031
0.797757 0.868559 0.558068
0.879057 0.872465 0.560571
0.959106 0.875395 0.569665
0.000000 0.208469 0.584436
0.000000 0.204898 0.586145
0.000000 0.178256 0.587976
0.179294 0.165957 0.593194
0.453590 0.109071 0.598535
0.661189 0.000000 0.586481
0.808621 0.000000 0.548913
0.952972 0.000000 0.537926
0.000000 0.229252 0.579736
0.000000 0.227146 0.582208
0.000000 0.198306 0.585870
0.200290 0.187106 0.588495
0.459968 0.145632 0.593927
0.663874 0.000000 0.582269
0.809232 0.000000 0.546441
0.952270 0.000000 0.536980
0.000000 0.294255 0.561089
0.000000 0.292363 0.561791
0.000000 0.283360 0.563500
0.250614 0.257633 0.566796
0.478370 0.240757 0.570825
0.665187 0.194491 0.559319
0.807004 0.185824 0.533379
0.949676 0.157473 0.523766
0.000000 0.399176 0.531212
0.000000 0.397314 0.530816
0.000000 0.390845 0.530144
0.324926 0.383459 0.534844
0.515740 0.373175 0.541863
0.670314 0.365423 0.526482
0.811978 0.370367 0.520958
0.964508 0.295537 0.485664
0.000000 0.538872 0.481178
0.000000 0.538628 0.482094
0.226596 0.535607 0.485298
0.398047 0.530846 0.492470
0.559075 0.525170 0.505547
0.682490 0.520531 0.490761
0.810330 0.525231 0.481544
0.935454 0.537621 0.473915
0.383917 0.656550 0.472663
0.400061 0.655451 0.475502
0.457527 0.648554 0.486336
0.521416 0.636866 0.496803
0.596307 0.630854 0.513481
0.708614 0.652461 0.524437
0.858305 0.683070 0.531304
0.975799 0.692775 0.517723
0.532311 0.771023 0.519341
0.536431 0.769192 0.519249
0.556237 0.763577 0.521691
0.601190 0.755886 0.535790
0.661860 0.760830 0.540917
0.745998 0.770413 0.539513
0.853269 0.780179 0.540490
0.963531 0.798093 0.534142
0.604883 0.869657 0.537377
0.609918 0.868772 0.539239
0.630945 0.865507 0.548119
0.672847 0.864988 0.562860
0.725734 0.867918 0.563622
0.795651 0.871092 0.564508
0.877745 0.874449 0.566003
0.959442 0.876738 0.572564
0.000000 0.294926 0.744564
0.000000 0.295781 0.745754
0.000000 0.269657 0.745113
0.000000 0.258549 0.746242
0.388159 0.246464 0.746578
0.614221 0.216098 0.748318
0.806638 0.153292 0.745937
0.950164 0.105806 0.730282
0.000000 0.306310 0.731868
0.000000 0.305760 0.731655
0.000000 0.286656 0.732296
0.000000 0.269444 0.734401
0.390173 0.259709 0.736843
0.612940 0.234745 0.740597
0.803281 0.185183 0.739010
0.946044 0.155917 0.724208
0.000000 0.367651 0.722744
0.000000 0.366705 0.722377
0.000000 0.365057 0.722744
0.125490 0.333043 0.722408
0.426246 0.328344 0.724971
0.631922 0.317418 0.729274
0.810971 0.294194 0.729519
0.944762 0.291936 0.715114
0.000000 0.456184 0.700221
0.000000 0.454780 0.699001
0.000000 0.454780 0.699336
0.310307 0.458381 0.705104
0.484382 0.441627 0.710872
0.666621 0.440681 0.714870
0.825986 0.430365 0.716335
0.944732 0.438972 0.703059
0.000000 0.576226 0.669276
0.000000 0.575433 0.668818
0.000000 0.571679 0.668147
0.339025 0.564721 0.668208
0.525536 0.559411 0.672877
0.684443 0.554620 0.679866
0.817838 0.550866 0.674708
0.935515 0.561089 0.673457
0.192996 0.700893 0.621698
0.231388 0.701717 0.623499
0.327092 0.698695 0.624750
0.447822 0.693599 0.627893
0.577966 0.686397 0.633692
0.715389 0.683131 0.647822
0.823545 0.681147 0.634882
0.930846 0.686061 0.623743
0.523827 0.810758 0.624750
0.534569 0.810666 0.626886
0.570642 0.807492 0.632166
0.634333 0.801053 0.644068
0.696193 0.790829 0.654475
0.759274 0.783963 0.668757
0.847318 0.797543 0.676295
0.951873 0.817197 0.679072
0.679316 0.886870 0.667659
0.681117 0.886046 0.666926
0.691859 0.883726 0.666560
0.714473 0.879911 0.667903
0.749722 0.872343 0.674067
0.804654 0.873198 0.680659
0.873838 0.878813 0.680018
0.948638 0.882994 0.679164
0.000000 0.396399 0.850523
0.000000 0.398383 0.851011
0.000000 0.386419 0.851591
0.000000 0.363348 0.853605
0.363317 0.362249 0.854124
0.576684 0.355962 0.855009
0.756130 0.345220 0.856352
0.907347 0.331823 0.855894
0.000000 0.405737 0.845579
0.000000 0.407782 0.846372
0.000000 0.400946 0.846799
0.000000 0.373053 0.848661
0.367529 0.371283 0.849332
0.576104 0.364294 0.850004
0.753140 0.353277 0.851133
0.903410 0.338872 0.850614
0.000000 0.452338 0.839353
0.000000 0.453010 0.839353
0.000000 0.455543 0.838834
0.132357 0.428870 0.841062
0.405859 0.422248 0.841917
0.597223 0.418158 0.843351
0.766110 0.414282 0.846372
0.910460 0.408240 0.848417
0.000000 0.524956 0.827543
0.000000 0.524498 0.826963
0.000000 0.525353 0.826566
0.320317 0.530632 0.827268
0.458228 0.505943 0.830594
0.629755 0.506035 0.833219
0.784512 0.507103 0.837278
0.917662 0.502678 0.840970
0.000000 0.617060 0.807309
0.000000 0.615534 0.806485
0.000000 0.611597 0.805295
0.311559 0.607324 0.806149
0.514580 0.611475 0.808988
0.650813 0.596460 0.814298
0.796536 0.599451 0.819516
0.924529 0.598322 0.827787
0.000000 0.732265 0.785397
0.000000 0.731777 0.785397
0.239170 0.728695 0.785489
0.383520 0.722255 0.785885
0.520562 0.710750 0.786557
0.677668 0.704250 0.792813
0.814572 0.703426 0.801053
0.923461 0.701564 0.800870
0.381079 0.832547 0.751156
0.394476 0.832425 0.751736
0.441047 0.830472 0.752468
0.519005 0.826719 0.754360
0.615351 0.820676 0.757015
0.723049 0.813046 0.761898
0.834531 0.806455 0.771450
0.919829 0.802243 0.756313
0.641291 0.906157 0.751308
0.647272 0.905821 0.752132
0.672541 0.904570 0.756252
0.715999 0.901213 0.762966
0.774411 0.895628 0.774472
0.825315 0.888518 0.783841
0.872343 0.883665 0.795254
0.933165 0.892546 0.804013
0.000000 0.537713 0.926452
0.000000 0.539971 0.926421
0.204593 0.536797 0.926085
0.291112 0.510002 0.928099
0.454871 0.506218 0.928252
0.607385 0.504906 0.928069
0.748287 0.503471 0.928283
0.872831 0.501488 0.928588
0.000000 0.542840 0.924559
0.000000 0.545098 0.924590
0.231418 0.546868 0.924163
0.306706 0.519707 0.926177
0.458473 0.512932 0.926604
0.609216 0.511437 0.926513
0.748257 0.509209 0.926696
0.872099 0.506676 0.926970
0.000000 0.570245 0.920653
0.052583 0.571740 0.920562
0.270634 0.576654 0.919799
0.375708 0.566186 0.921386
0.482124 0.547387 0.922667
0.622797 0.544915 0.922576
0.756313 0.543236 0.923125
0.875761 0.541375 0.923827
0.000000 0.615076 0.914549
0.100984 0.616266 0.914549
0.278080 0.619989 0.914031
0.434180 0.629297 0.913390
0.513725 0.603967 0.916075
0.644587 0.602258 0.916655
0.769924 0.600855 0.917723
0.882567 0.599817 0.919158
0.000000 0.675624 0.905303
0.000000 0.675807 0.905577
0.216464 0.674464 0.905852
0.401068 0.678187 0.905852
0.562219 0.686366 0.905272
0.657862 0.665583 0.908415
0.780667 0.665461 0.910216
0.889525 0.667781 0.912627
0.182315 0.765988 0.893584
0.206271 0.764981 0.893431
0.286015 0.761166 0.893248
0.392370 0.754360 0.893584
0.515221 0.744961 0.895140
0.684688 0.751888 0.897307
0.794156 0.743282 0.901976
0.898314 0.748257 0.904845
0.373175 0.858579 0.881529
0.383215 0.857969 0.881498
0.423072 0.855375 0.881437
0.492134 0.850340 0.881621
0.580316 0.842069 0.882048
0.679713 0.829587 0.882963
0.806394 0.822721 0.886229
0.905547 0.823148 0.891447
0.553643 0.921996 0.857725
0.559106 0.921599 0.857694
0.583032 0.920256 0.858152
0.629114 0.917754 0.859373
0.691859 0.913725 0.861112
0.765866 0.908141 0.863554
0.844694 0.901701 0.867277
0.919463 0.896391 0.873625
