20 Preset/Journey new/LUT for PR-AE-PS-FCPX/Journey - Lut (4).cube
# Created by Adobe Lightroom plugin Export LUT (1.24.0)
# www.johnrellis.com/lightroom/exportlut.htm
# Preset: 旅拍胶片-素材江湖04
# Color profile: C:\Program Files (x86)\Common Files\Adobe\Color\Profiles\Recommended\VideoHD.icc
LUT_3D_SIZE 32
DOMAIN_MIN 0.0 0.0 0.0
DOMAIN_MAX 1.0 1.0 1.0
0.000000 0.000000 0.000000
0.000000 0.000000 0.000000
0.001984 0.000000 0.000000
0.007233 0.000305 0.000000
0.030640 0.001007 0.000397
0.083528 0.000305 0.000000
0.108064 0.002869 0.000000
0.129152 0.008240 0.000000
0.153475 0.010315 0.000000
0.181735 0.005921 0.000000
0.215793 0.000000 0.000000
0.255039 0.000000 0.000000
0.300420 0.000000 0.000000
0.351629 0.000000 0.000000
0.406714 0.000000 0.000000
0.463813 0.000000 0.000000
0.521813 0.000000 0.000000
0.580041 0.000000 0.000000
0.637781 0.000000 0.000000
0.692409 0.000000 0.000000
0.742733 0.000000 0.000000
0.795346 0.000000 0.000000
0.839567 0.000000 0.000000
0.878202 0.000000 0.000000
0.911894 0.000000 0.000000
0.941802 0.000000 0.000000
0.968688 0.000000 0.000000
0.992889 0.000000 0.000000
1.000000 0.000000 0.000000
1.000000 0.000000 0.000000
1.000000 0.000000 0.000000
1.000000 0.000000 0.000000
0.000000 0.000000 0.000000
0.000000 0.000000 0.000000
0.001282 0.000977 0.000000
0.009216 0.000092 0.000000
0.030640 0.001007 0.000397
0.082887 0.001526 0.000366
0.107637 0.005280 0.000000
0.128511 0.009644 0.000000
0.152285 0.012177 0.000000
0.180514 0.008026 0.000000
0.213687 0.000000 0.000000
0.252689 0.000000 0.000000
0.297490 0.000000 0.000000
0.348486 0.000000 0.000000
0.402930 0.000000 0.000000
0.459998 0.000000 0.000000
0.518120 0.000000 0.000000
0.576287 0.000000 0.000000
0.633936 0.000000 0.000000
0.688716 0.000000 0.000000
0.739223 0.000000 0.000000
0.790829 0.000000 0.000000
0.834531 0.000000 0.000000
0.872923 0.000000 0.000000
0.906950 0.000000 0.000000
0.937072 0.000000 0.000000
0.964355 0.000000 0.000000
0.989075 0.000000 0.000000
1.000000 0.000000 0.000000
1.000000 0.000000 0.000000
1.000000 0.000000 0.000000
1.000000 0.000000 0.000000
0.000977 0.000977 0.000977
0.000977 0.000977 0.000977
0.002564 0.001953 0.000000
0.009491 0.002258 0.000641
0.033753 0.005158 0.000000
0.084413 0.006867 0.000000
0.107912 0.013031 0.000000
0.128115 0.018830 0.000000
0.152041 0.020172 0.000000
0.180362 0.015991 0.000000
0.213413 0.003418 0.000000
0.252140 0.000000 0.000000
0.296696 0.000000 0.000000
0.347021 0.000000 0.000000
0.401556 0.000000 0.000000
0.458198 0.000000 0.000000
0.516106 0.000000 0.000000
0.574029 0.000000 0.000000
0.631739 0.000000 0.000000
0.686732 0.000000 0.000000
0.738003 0.000000 0.000000
0.788724 0.000000 0.000000
0.832151 0.000000 0.000000
0.870512 0.000000 0.000000
0.904265 0.000000 0.000000
0.934600 0.000000 0.000000
0.961944 0.000000 0.000000
0.986908 0.000000 0.000000
1.000000 0.000000 0.000000
1.000000 0.000000 0.000000
1.000000 0.000000 0.000000
1.000000 0.000000 0.000000
0.005066 0.006104 0.001343
0.005066 0.006104 0.001343
0.006348 0.007080 0.001160
0.016144 0.009339 0.000671
0.041688 0.013214 0.000000
0.087373 0.020935 0.000000
0.108431 0.028534 0.000000
0.128664 0.033112 0.000000
0.153048 0.035218 0.000000
0.181552 0.029603 0.000000
0.214267 0.018219 0.000000
0.252781 0.000000 0.000000
0.297459 0.000000 0.000000
0.347326 0.000000 0.000000
0.400977 0.000000 0.000000
0.457343 0.000000 0.000000
0.514275 0.000000 0.000000
0.571649 0.000000 0.000000
0.628931 0.000000 0.000000
0.683253 0.000000 0.000000
0.735378 0.000000 0.000000
0.784512 0.000000 0.000000
0.827420 0.000000 0.000000
0.865904 0.000000 0.000000
0.900572 0.000000 0.000000
0.931609 0.000000 0.000000
0.959838 0.000000 0.000000
0.985382 0.000000 0.000000
1.000000 0.000000 0.000000
1.000000 0.000000 0.000000
1.000000 0.000000 0.000000
1.000000 0.000000 0.000000
0.013947 0.024079 0.002106
0.015930 0.023865 0.002075
0.018494 0.025818 0.001770
0.031830 0.028840 0.000000
0.058656 0.033692 0.000000
0.089570 0.039368 0.000000
0.108797 0.047395 0.000000
0.129549 0.053956 0.000000
0.154116 0.055818 0.000000
0.182559 0.051209 0.000000
0.215488 0.039368 0.000000
0.253941 0.018067 0.000000
0.297917 0.000000 0.000000
0.347692 0.000000 0.000000
0.401282 0.000000 0.000000
0.457221 0.000000 0.000000
0.514580 0.000000 0.000000
0.571740 0.000000 0.000000
0.628840 0.000000 0.000000
0.683101 0.000000 0.000000
0.735958 0.000000 0.000000
0.783810 0.000000 0.000000
0.826017 0.000000 0.000000
0.864439 0.000000 0.000000
0.898924 0.000000 0.000000
0.930175 0.000000 0.000000
0.958404 0.000000 0.000000
0.983917 0.000000 0.000000
1.000000 0.000000 0.000000
1.000000 0.000000 0.000000
1.000000 0.000000 0.000000
1.000000 0.000000 0.000000
0.037934 0.052613 0.004517
0.037934 0.052613 0.004517
0.043183 0.053132 0.004334
0.054566 0.056397 0.002564
0.078126 0.060487 0.001526
0.095186 0.067811 0.000000
0.110597 0.070192 0.000000
0.131014 0.078645 0.000000
0.155428 0.081209 0.000000
0.184970 0.081086 0.000000
0.219211 0.074769 0.000000
0.258030 0.056458 0.000000
0.302068 0.025940 0.000000
0.351995 0.000000 0.000000
0.405432 0.000000 0.000000
0.461463 0.000000 0.000000
0.518181 0.000000 0.000000
0.575463 0.000000 0.000000
0.632197 0.000000 0.000000
0.686183 0.000000 0.000000
0.739406 0.000000 0.000000
0.786099 0.000000 0.000000
0.855314 0.000000 0.000000
0.891417 0.000000 0.000000
0.923278 0.000000 0.000000
0.951629 0.000000 0.000000
0.976989 0.000000 0.000000
0.999603 0.000000 0.000000
1.000000 0.000000 0.000000
1.000000 0.000000 0.000000
1.000000 0.064668 0.000000
1.000000 0.150912 0.000000
0.067964 0.085878 0.011200
0.069947 0.085725 0.011200
0.075898 0.085298 0.011170
0.082460 0.087495 0.010529
0.092164 0.089418 0.008392
0.102754 0.092317 0.004486
0.117678 0.095827 0.000000
0.135470 0.096407 0.000000
0.160983 0.099245 0.000000
0.190860 0.101320 0.000000
0.227146 0.100862 0.000000
0.269444 0.096956 0.000000
0.317601 0.087495 0.000000
0.368261 0.049928 0.000000
0.421637 0.000000 0.000000
0.476875 0.000000 0.000000
0.533013 0.000000 0.000000
0.589349 0.000000 0.000000
0.644800 0.000000 0.000000
0.702205 0.000000 0.000000
0.755367 0.000000 0.000000
0.802823 0.000000 0.000000
0.845457 0.000000 0.000000
0.883696 0.000000 0.000000
0.917357 0.000000 0.000000
0.946654 0.000000 0.000000
0.972473 0.000000 0.000000
0.995361 0.000000 0.000000
1.000000 0.000000 0.000000
1.000000 0.083986 0.000000
1.000000 0.144747 0.000000
1.000000 0.187869 0.000000
0.088991 0.102754 0.019104
0.089723 0.102693 0.019104
0.091218 0.102541 0.019074
0.094240 0.102968 0.019867
0.099947 0.105196 0.016327
0.109255 0.107881 0.013397
0.122072 0.111818 0.008331
0.141115 0.116243 0.002167
0.160983 0.115419 0.000000
0.191287 0.119081 0.000000
0.226688 0.121218 0.000000
0.268315 0.121370 0.000000
0.316136 0.118532 0.000000
0.369726 0.110842 0.000000
0.425086 0.097597 0.000000
0.479561 0.057099 0.000000
0.535058 0.000000 0.000000
0.590906 0.000000 0.000000
0.648981 0.000000 0.000000
0.704921 0.000000 0.000000
0.755337 0.000000 0.000000
0.801114 0.000000 0.000000
0.842527 0.000000 0.000000
0.880095 0.000000 0.000000
0.913451 0.000000 0.000000
0.942687 0.000000 0.000000
0.968566 0.000000 0.000000
0.991608 0.088655 0.000000
1.000000 0.131807 0.000000
1.000000 0.166110 0.000000
1.000000 0.196719 0.000000
1.000000 0.226749 0.000000
0.098482 0.122042 0.027222
0.099153 0.121981 0.027192
0.100984 0.121828 0.028321
0.103822 0.121859 0.029267
0.108766 0.123598 0.026825
0.117159 0.126558 0.022309
0.128908 0.130495 0.016785
0.145510 0.135225 0.008911
0.168429 0.140597 0.000610
0.190188 0.138735 0.000000
0.227390 0.143069 0.000000
0.268284 0.146181 0.000000
0.315740 0.147616 0.000000
0.368048 0.146365 0.000000
0.423865 0.142733 0.000000
0.481849 0.136202 0.000000
0.539574 0.126772 0.000000
0.597314 0.115328 0.000000
0.654719 0.103517 0.000000
0.707881 0.094057 0.000000
0.756435 0.088319 0.000000
0.800687 0.091188 0.000000
0.841337 0.100343 0.000000
0.877867 0.113985 0.000000
0.910674 0.130220 0.000000
0.939635 0.147250 0.000000
0.965332 0.165042 0.000000
0.988342 0.183536 0.000000
1.000000 0.202914 0.000000
1.000000 0.222782 0.000000
1.000000 0.244266 0.000000
1.000000 0.266178 0.000000
0.109285 0.144594 0.036225
0.109834 0.144533 0.036194
0.111513 0.144411 0.036164
0.114717 0.144137 0.037263
0.119417 0.145083 0.035126
0.126741 0.148104 0.031281
0.137179 0.152102 0.025147
0.152285 0.156985 0.016541
0.172824 0.162631 0.006226
0.200107 0.169162 0.000000
0.224338 0.166079 0.000000
0.267826 0.171389 0.000000
0.314305 0.176181 0.000000
0.365545 0.179568 0.000000
0.420569 0.181247 0.000000
0.479011 0.182162 0.000000
0.540826 0.183474 0.000000
0.602899 0.185092 0.000000
0.661067 0.186496 0.000000
0.711788 0.187015 0.000000
0.758175 0.188510 0.000000
0.800107 0.191653 0.000000
0.838712 0.196719 0.000000
0.874174 0.203677 0.000000
0.906065 0.211582 0.000000
0.934539 0.220584 0.000000
0.960174 0.230716 0.000000
0.983368 0.242649 0.000000
1.000000 0.255589 0.000000
1.000000 0.270390 0.000000
1.000000 0.286381 0.000000
1.000000 0.303960 0.000000
0.120760 0.170260 0.041169
0.121279 0.170230 0.041169
0.122957 0.170260 0.042115
0.126314 0.170016 0.042054
0.131380 0.169986 0.042817
0.138155 0.173068 0.037201
0.147829 0.177279 0.030152
0.161593 0.182498 0.021454
0.180545 0.188663 0.009583
0.205661 0.195834 0.000000
0.237919 0.203769 0.000000
0.263951 0.199100 0.000000
0.314092 0.205692 0.000000
0.365820 0.212985 0.000000
0.421454 0.219669 0.000000
0.480018 0.225559 0.000000
0.539940 0.230991 0.000000
0.599939 0.236637 0.000000
0.658106 0.242893 0.000000
0.711604 0.249149 0.000000
0.758419 0.254063 0.000000
0.798978 0.257694 0.000000
0.836637 0.262394 0.000000
0.871336 0.267430 0.000000
0.902953 0.273259 0.000000
0.931487 0.280034 0.000000
0.956847 0.287358 0.000000
0.979889 0.295659 0.000000
1.000000 0.305303 0.000000
1.000000 0.316258 0.000000
1.000000 0.328862 0.000000
1.000000 0.342748 0.000000
0.133608 0.200900 0.047059
0.134035 0.200870 0.047059
0.135775 0.200748 0.047028
0.139284 0.200656 0.047913
0.144533 0.200565 0.048646
0.151583 0.202792 0.045441
0.160586 0.207248 0.036011
0.173770 0.212680 0.024628
0.191440 0.219242 0.010803
0.214572 0.226902 0.000000
0.244877 0.235691 0.000000
0.284062 0.246006 0.000000
0.330541 0.254887 0.000000
0.388647 0.262821 0.000000
0.445808 0.273198 0.000000
0.504601 0.282933 0.000000
0.564202 0.291966 0.000000
0.623377 0.301274 0.000000
0.678584 0.309789 0.000000
0.729152 0.317754 0.000000
0.775174 0.324681 0.000000
0.816709 0.331609 0.000000
0.852995 0.336309 0.000000
0.884459 0.339818 0.000000
0.913237 0.343359 0.000000
0.939452 0.347082 0.000000
0.963134 0.350866 0.000000
0.984100 0.355566 0.000000
1.000000 0.361669 0.000000
1.000000 0.368780 0.000000
1.000000 0.377630 0.000000
1.000000 0.388098 0.000000
0.148653 0.241245 0.053315
0.148989 0.241032 0.052491
0.150668 0.240696 0.053895
0.154269 0.240482 0.053803
0.160098 0.239811 0.055238
0.167208 0.240299 0.053681
0.176608 0.245182 0.042084
0.190219 0.251194 0.029053
0.208042 0.259068 0.009552
0.231876 0.268070 0.000000
0.262577 0.278813 0.000000
0.300969 0.290867 0.000000
0.346990 0.303899 0.000000
0.383459 0.301762 0.000000
0.440986 0.308904 0.000000
0.499519 0.320500 0.000000
0.557275 0.331548 0.000000
0.614313 0.341955 0.000000
0.667659 0.351263 0.000000
0.717006 0.359258 0.000000
0.762173 0.366430 0.000000
0.803708 0.373388 0.000000
0.841794 0.379675 0.000000
0.876738 0.385595 0.000000
0.906676 0.389746 0.000000
0.932860 0.392523 0.000000
0.956847 0.395148 0.000000
0.978454 0.398566 0.000000
0.997650 0.403021 0.000000
1.000000 0.408728 0.000000
1.000000 0.415473 0.000000
1.000000 0.424079 0.000000
0.164553 0.282872 0.059358
0.164553 0.282872 0.059358
0.167086 0.282475 0.060883
0.170626 0.281926 0.061402
0.176577 0.281315 0.063935
0.184695 0.280644 0.065156
0.194156 0.284611 0.052216
0.207248 0.290105 0.035645
0.224674 0.297215 0.014740
0.247166 0.305852 0.000000
0.275731 0.316167 0.000000
0.310704 0.327672 0.000000
0.352605 0.340368 0.000000
0.400458 0.353521 0.000000
0.437476 0.351385 0.000000
0.491402 0.356420 0.000000
0.550408 0.368078 0.000000
0.605341 0.379675 0.000000
0.657527 0.389837 0.000000
0.705745 0.398383 0.000000
0.750332 0.405921 0.000000
0.792142 0.412757 0.000000
0.830503 0.419196 0.000000
0.865751 0.425086 0.000000
0.897704 0.430518 0.000000
0.926482 0.435615 0.000000
0.951263 0.438605 0.000000
0.973022 0.440467 0.000000
0.992493 0.443305 0.000000
1.000000 0.447608 0.000000
1.000000 0.452979 0.000000
1.000000 0.459907 0.000000
0.184146 0.326604 0.072938
0.184665 0.326452 0.072084
0.186374 0.326055 0.073793
0.189975 0.325261 0.073915
0.196170 0.324132 0.075380
0.204074 0.323186 0.078340
0.213931 0.324926 0.070802
0.226810 0.329961 0.050690
0.243259 0.336461 0.026093
0.264805 0.344579 0.000000
0.291295 0.354223 0.000000
0.323552 0.365332 0.000000
0.361456 0.377569 0.000000
0.404913 0.390295 0.000000
0.453193 0.403143 0.000000
0.489906 0.400885 0.000000
0.539788 0.403571 0.000000
0.597711 0.415290 0.000000
0.648524 0.426123 0.000000
0.695735 0.435065 0.000000
0.739925 0.442878 0.000000
0.781460 0.450111 0.000000
0.819944 0.456489 0.000000
0.855344 0.462196 0.000000
0.887572 0.467353 0.000000
0.916777 0.471931 0.000000
0.943175 0.476326 0.000000
0.966949 0.480507 0.000000
0.987488 0.483070 0.000000
1.000000 0.486336 0.000000
1.000000 0.490883 0.000000
1.000000 0.496834 0.000000
0.206638 0.369085 0.088380
0.207431 0.369299 0.088991
0.209140 0.368963 0.089174
0.213138 0.368505 0.089357
0.219181 0.367773 0.090089
0.227604 0.367071 0.091463
0.237491 0.367315 0.091768
0.250126 0.372473 0.079988
0.266148 0.378943 0.053498
0.286656 0.386664 0.018463
0.310979 0.395392 0.000000
0.340185 0.405188 0.000000
0.374151 0.415991 0.000000
0.412848 0.427192 0.000000
0.455818 0.438636 0.000000
0.502739 0.450416 0.000000
0.538811 0.448188 0.000000
0.583856 0.448493 0.000000
0.639033 0.459144 0.000000
0.685542 0.468727 0.000000
0.729549 0.477241 0.000000
0.771359 0.485023 0.000000
0.809934 0.491890 0.000000
0.845579 0.497810 0.000000
0.878202 0.503105 0.000000
0.907805 0.507622 0.000000
0.934691 0.511742 0.000000
0.958831 0.515496 0.000000
0.980468 0.519005 0.000000
0.999329 0.523430 0.000000
1.000000 0.527184 0.000000
1.000000 0.531670 0.000000
0.231907 0.411444 0.102144
0.232364 0.411383 0.102571
0.234226 0.411078 0.102724
0.238102 0.410712 0.103182
0.243748 0.410163 0.103700
0.251591 0.409613 0.105074
0.261875 0.409003 0.106630
0.273991 0.412726 0.101228
0.288853 0.418585 0.091005
0.307408 0.425635 0.063386
0.330175 0.433814 0.017853
0.357031 0.443091 0.000000
0.388159 0.453101 0.000000
0.423224 0.463447 0.000000
0.462593 0.474525 0.000000
0.505180 0.485573 0.000000
0.550713 0.496712 0.000000
0.585412 0.494514 0.000000
0.624659 0.491951 0.000000
0.677119 0.500908 0.000000
0.720638 0.510063 0.000000
0.761990 0.518273 0.000000
0.800626 0.525383 0.000000
0.836271 0.531548 0.000000
0.868986 0.536919 0.000000
0.898955 0.541405 0.000000
0.926055 0.545403 0.000000
0.950561 0.548882 0.000000
0.972473 0.552087 0.000000
0.991943 0.555261 0.000000
1.000000 0.560479 0.000000
1.000000 0.566247 0.000000
0.260410 0.455116 0.120974
0.260777 0.455177 0.121187
0.273075 0.469734 0.129427
0.276585 0.469398 0.129763
0.282078 0.468971 0.130587
0.289860 0.468086 0.131594
0.299474 0.467384 0.133059
0.310979 0.468482 0.131960
0.325109 0.473915 0.122927
0.342992 0.480415 0.111269
0.364446 0.487861 0.095583
0.389258 0.496101 0.055055
0.417731 0.504631 0.000000
0.449683 0.513573 0.000000
0.484535 0.522545 0.000000
0.522271 0.531579 0.000000
0.562585 0.540551 0.000000
0.604700 0.549645 0.000000
0.636591 0.546593 0.000000
0.669764 0.540429 0.000000
0.719020 0.547692 0.000000
0.759152 0.555352 0.000000
0.796506 0.562066 0.000000
0.831174 0.567559 0.000000
0.862974 0.571923 0.000000
0.892027 0.575738 0.000000
0.918608 0.578790 0.000000
0.942779 0.581415 0.000000
0.964599 0.583948 0.000000
0.984070 0.586389 0.000000
1.000000 0.590265 0.000000
1.000000 0.595575 0.046448
0.294102 0.502831 0.146487
0.295354 0.504051 0.147005
0.298131 0.505455 0.148379
0.302464 0.506432 0.149508
0.308324 0.506767 0.151034
0.315831 0.506554 0.152224
0.324804 0.505943 0.153628
0.335637 0.505058 0.155032
0.348852 0.509636 0.148196
0.364813 0.515404 0.139315
0.384222 0.521874 0.127901
0.406622 0.529076 0.112734
0.432380 0.536675 0.090242
0.461067 0.544610 0.019226
0.492409 0.552819 0.000000
0.526726 0.561212 0.000000
0.563317 0.569726 0.000000
0.601709 0.578302 0.000000
0.642298 0.587274 0.000000
0.673152 0.584955 0.000000
0.702602 0.577142 0.000000
0.749142 0.584527 0.000000
0.787686 0.591058 0.000000
0.822110 0.596735 0.000000
0.853788 0.601373 0.000000
0.882933 0.605097 0.000000
0.909545 0.608148 0.000000
0.933806 0.610681 0.000000
0.955810 0.612909 0.000000
0.975555 0.615015 0.000000
0.992615 0.617945 0.000000
1.000000 0.622766 0.111330
0.324285 0.541863 0.170962
0.325628 0.543206 0.171908
0.328588 0.544518 0.173281
0.332586 0.545556 0.174777
0.338109 0.546136 0.176303
0.345006 0.546075 0.177493
0.353185 0.545525 0.178775
0.363409 0.544732 0.180209
0.375463 0.546899 0.177493
0.389899 0.551659 0.170352
0.407324 0.557275 0.161624
0.427680 0.563592 0.151186
0.450752 0.570214 0.137148
0.476570 0.577478 0.117830
0.504906 0.584741 0.090608
0.535729 0.592340 0.002594
0.568627 0.600122 0.000000
0.603601 0.607935 0.000000
0.640375 0.616022 0.000000
0.678920 0.624353 0.000000
0.708400 0.622370 0.000000
0.733913 0.612848 0.000000
0.777127 0.619440 0.000000
0.813840 0.624567 0.000000
0.845396 0.629267 0.000000
0.874327 0.633143 0.000000
0.900908 0.636072 0.000000
0.925200 0.638453 0.000000
0.947295 0.640528 0.000000
0.967132 0.642451 0.000000
0.984527 0.644617 0.000000
0.998688 0.648859 0.146792
0.356664 0.580652 0.199954
0.358312 0.581659 0.201083
0.360693 0.582879 0.202457
0.364294 0.583764 0.203952
0.369604 0.584253 0.205478
0.375769 0.584131 0.206485
0.383276 0.583642 0.207340
0.392584 0.582940 0.209049
0.403326 0.583154 0.209323
0.416571 0.587274 0.203555
0.432319 0.592157 0.196750
0.450538 0.597620 0.188449
0.471138 0.603571 0.178317
0.494118 0.609796 0.166323
0.519677 0.616419 0.151095
0.547417 0.623438 0.130617
0.577417 0.630793 0.102235
0.609583 0.638361 0.019928
0.643641 0.646326 0.000000
0.679347 0.654475 0.000000
0.716426 0.662715 0.000000
0.745113 0.661463 0.000000
0.767788 0.651575 0.000000
0.807340 0.656580 0.000000
0.841794 0.660609 0.000000
0.870420 0.664576 0.000000
0.896605 0.667567 0.000000
0.920409 0.669947 0.000000
0.941985 0.671870 0.000000
0.961395 0.673487 0.019379
0.978607 0.674922 0.120485
0.992218 0.678676 0.200412
0.397986 0.624903 0.240970
0.398688 0.625391 0.241337
0.400305 0.625635 0.241886
0.402747 0.625696 0.242649
0.406775 0.625422 0.243229
0.411902 0.624811 0.243687
0.418372 0.624170 0.244572
0.426642 0.623529 0.245914
0.436225 0.622736 0.247074
0.448188 0.625696 0.243992
0.462135 0.629847 0.238468
0.478340 0.634668 0.232151
0.496651 0.639826 0.224918
0.517174 0.645289 0.215671
0.539788 0.651057 0.204929
0.564446 0.657069 0.192233
0.590997 0.663294 0.176486
0.619623 0.669673 0.157504
0.650019 0.676234 0.132479
0.681880 0.682979 0.095613
0.715114 0.689815 0.000000
0.749355 0.696590 0.000000
0.775814 0.694759 0.000000
0.796292 0.684565 0.000000
0.830411 0.686580 0.000000
0.862699 0.689082 0.000000
0.888731 0.692226 0.000000
0.912444 0.694697 0.000000
0.933989 0.696559 0.077974
0.953307 0.698024 0.131868
0.970550 0.699092 0.167178
0.984070 0.702419 0.232639
0.432471 0.659968 0.278416
0.433051 0.660273 0.278874
0.434455 0.660487 0.279332
0.436805 0.660639 0.279973
0.440253 0.660365 0.280400
0.444739 0.659998 0.281163
0.450752 0.659419 0.281895
0.457832 0.658808 0.282933
0.466651 0.658289 0.284459
0.477211 0.659358 0.284001
0.489631 0.663020 0.279759
0.503807 0.667170 0.274571
0.519951 0.671565 0.268681
0.538262 0.676387 0.261753
0.558404 0.681453 0.253910
0.580316 0.686793 0.244755
0.604334 0.692287 0.233707
0.630030 0.697932 0.221469
0.657404 0.703792 0.206668
0.686183 0.709712 0.189425
0.716365 0.715785 0.168643
0.747585 0.721736 0.141878
0.779538 0.727626 0.101656
0.804257 0.725856 0.026429
0.820554 0.713313 0.000000
0.850370 0.712917 0.000000
0.880674 0.714290 0.000214
0.904204 0.716915 0.104463
0.925719 0.718807 0.143191
0.945037 0.720180 0.175387
0.962310 0.721370 0.206363
0.975830 0.724453 0.263706
0.471504 0.696407 0.324956
0.472328 0.696925 0.326146
0.473487 0.697078 0.326482
0.475288 0.696864 0.326757
0.477852 0.696345 0.326604
0.481270 0.695583 0.326513
0.485786 0.694575 0.326390
0.491493 0.693568 0.326390
0.498695 0.692439 0.327001
0.507073 0.691585 0.328008
0.517266 0.694118 0.323461
0.529442 0.697230 0.318791
0.543267 0.700679 0.313115
0.558679 0.704372 0.307103
0.576013 0.708278 0.299931
0.595056 0.712428 0.291722
0.616022 0.716884 0.282841
0.638697 0.721614 0.272831
0.663203 0.726680 0.261875
0.689357 0.731930 0.250370
0.716670 0.737392 0.237125
0.745083 0.742702 0.221347
0.774289 0.747829 0.202823
0.803769 0.752682 0.179294
0.826627 0.750423 0.157229
0.843473 0.740688 0.141299
0.868986 0.738125 0.145815
0.896452 0.738460 0.161257
0.918059 0.739895 0.187564
0.937194 0.741115 0.213962
0.954284 0.742214 0.241184
0.967651 0.745022 0.295048
0.503716 0.724666 0.366918
0.504662 0.725154 0.367895
0.505821 0.725368 0.368688
0.507591 0.725338 0.369177
0.509911 0.725093 0.369329
0.513359 0.724758 0.369909
0.517784 0.724331 0.370581
0.523339 0.723812 0.371221
0.530205 0.723323 0.372595
0.538109 0.722805 0.374212
0.547204 0.724269 0.372473
0.557946 0.726986 0.369146
0.569909 0.730037 0.364782
0.583612 0.733211 0.359594
0.598657 0.736507 0.353582
0.615167 0.739956 0.346715
0.633478 0.743618 0.339361
0.653285 0.747585 0.331121
0.674769 0.751827 0.322850
0.697932 0.756252 0.313542
0.722316 0.760861 0.303716
0.747829 0.765438 0.292699
0.774105 0.769863 0.280430
0.801022 0.774075 0.265690
0.828244 0.778134 0.248875
0.849516 0.775967 0.233707
0.864927 0.766812 0.221592
0.886717 0.762783 0.224796
0.911223 0.762570 0.238743
0.930816 0.762997 0.260197
0.947478 0.763851 0.284855
0.960082 0.766476 0.337255
0.539696 0.753323 0.416419
0.540215 0.753567 0.416968
0.541009 0.753628 0.417334
0.542443 0.753536 0.417609
0.544366 0.753292 0.417731
0.547204 0.752987 0.418067
0.551019 0.752529 0.418494
0.555657 0.752010 0.418860
0.561578 0.751553 0.420111
0.568444 0.751064 0.421546
0.576226 0.751186 0.422065
0.585412 0.753567 0.418860
0.595880 0.756069 0.415198
0.607660 0.758755 0.411017
0.620752 0.761471 0.405951
0.635096 0.764401 0.400427
0.650935 0.767453 0.394110
0.668208 0.770748 0.387396
0.687037 0.774319 0.380835
0.707393 0.778042 0.373449
0.728969 0.781918 0.365667
0.751492 0.785763 0.357641
0.774899 0.789487 0.347845
0.799039 0.793088 0.336584
0.823636 0.796414 0.323857
0.848539 0.799557 0.309300
0.868132 0.797452 0.296147
0.882078 0.788663 0.284764
0.900633 0.783474 0.285649
0.922393 0.782803 0.300786
0.940337 0.782498 0.320500
0.952392 0.785000 0.373724
0.573114 0.778439 0.464515
0.573541 0.778561 0.464942
0.574273 0.778622 0.465431
0.575616 0.778622 0.465827
0.577630 0.778622 0.466377
0.580499 0.778592 0.467262
0.584558 0.778775 0.469093
0.589685 0.778988 0.471351
0.595789 0.779294 0.473823
0.602686 0.779629 0.476997
0.610620 0.779995 0.480476
0.619471 0.782284 0.480507
0.629297 0.784939 0.479103
0.639918 0.787594 0.477150
0.651392 0.790219 0.474311
0.663783 0.792752 0.470283
0.677211 0.795315 0.465675
0.691951 0.797971 0.460334
0.708034 0.800809 0.455482
0.725368 0.803830 0.449775
0.743709 0.806882 0.444038
0.763088 0.809903 0.437873
0.783261 0.812802 0.430365
0.804044 0.815610 0.421912
0.825284 0.818204 0.412421
0.847196 0.820645 0.401404
0.869413 0.822934 0.389136
0.886992 0.820768 0.377661
0.899229 0.812619 0.367681
0.914519 0.806516 0.366278
0.932799 0.805509 0.385657
0.945708 0.806332 0.430976
0.614405 0.805753 0.526360
0.614527 0.805753 0.526238
0.614954 0.805692 0.526360
0.615808 0.805570 0.526390
0.617273 0.805386 0.526482
0.619379 0.805173 0.526909
0.622217 0.804990 0.527520
0.625910 0.804807 0.528496
0.630365 0.804654 0.529839
0.635645 0.804471 0.531426
0.641718 0.804288 0.533288
0.648554 0.805051 0.533867
0.656275 0.806851 0.531914
0.664912 0.808774 0.529595
