20 Preset/Journey new/LUT for PR-AE-PS-FCPX/Journey - Lut (2).cube
# Created by Adobe Lightroom plugin Export LUT (1.24.0)
# www.johnrellis.com/lightroom/exportlut.htm
# Preset: 旅拍胶片-素材江湖02
# Color profile: C:\Program Files (x86)\Common Files\Adobe\Color\Profiles\Recommended\VideoHD.icc
LUT_3D_SIZE 5
DOMAIN_MIN 0.000000 0.000000 0.000000
DOMAIN_MAX 0.903226 0.903226 0.903226
0.000000 0.000000 0.000000
0.122499 0.038209 0.000000
0.492714 0.000000 0.000000
0.871153 0.000000 0.000000
1.000000 0.292943 0.090852
0.030732 0.099550 0.039796
0.099428 0.108003 0.042145
0.466621 0.131685 0.000641
0.850767 0.176913 0.000000
1.000000 0.364324 0.117494
0.000000 0.339910 0.110689
0.188876 0.339696 0.120882
0.379644 0.361822 0.065339
0.788266 0.457710 0.000000
0.999847 0.536858 0.191958
0.378454 0.648707 0.263767
0.432532 0.648219 0.273777
0.564508 0.649073 0.284184
0.693721 0.646967 0.223789
0.926482 0.718044 0.334722
0.658473 0.862547 0.566125
0.677150 0.862150 0.572625
0.736812 0.856718 0.587243
0.812711 0.863340 0.588098
0.898558 0.867826 0.570123
0.000000 0.000427 0.120424
0.095949 0.010254 0.115541
0.406439 0.000000 0.128695
0.811795 0.000000 0.162478
1.000000 0.322179 0.225162
0.000000 0.109133 0.117922
0.089906 0.117708 0.127321
0.402869 0.140688 0.143740
0.803372 0.201144 0.164157
1.000000 0.379004 0.234806
0.000000 0.335637 0.176516
0.157992 0.337530 0.184634
0.355261 0.349218 0.167117
0.768063 0.450690 0.181857
0.985199 0.546899 0.288090
0.365576 0.646754 0.321141
0.421363 0.646937 0.329839
0.562005 0.647700 0.348486
0.685878 0.645258 0.290623
0.921080 0.721584 0.391028
0.651972 0.862547 0.588556
0.670558 0.861997 0.594079
0.737881 0.861601 0.619562
0.812741 0.866178 0.620722
0.897398 0.871061 0.601984
0.000000 0.030121 0.442939
0.000000 0.041413 0.415442
0.316411 0.000000 0.351324
0.745357 0.000000 0.383368
0.979095 0.356878 0.435828
0.000000 0.162295 0.427680
0.000000 0.158419 0.404852
0.326390 0.127443 0.352605
0.739773 0.135286 0.384131
0.963104 0.454597 0.469612
0.000000 0.389776 0.377996
0.000000 0.389502 0.376715
0.365087 0.398596 0.388190
0.718196 0.467750 0.422370
0.945281 0.582025 0.496651
0.000000 0.648188 0.388006
0.206332 0.646662 0.408728
0.526482 0.649378 0.489967
0.664271 0.649805 0.462135
0.907561 0.736538 0.549218
0.608240 0.862425 0.649958
0.632715 0.862303 0.657527
0.708949 0.862181 0.677577
0.798947 0.864744 0.694301
0.882536 0.869383 0.666590
0.000000 0.102205 0.770382
0.000000 0.105684 0.759640
0.279515 0.003937 0.712642
0.660212 0.000000 0.650935
0.924926 0.290257 0.666865
0.000000 0.225406 0.759701
0.000000 0.226139 0.749569
0.326452 0.207553 0.705989
0.655634 0.146609 0.644129
0.915465 0.360479 0.667292
0.000000 0.503197 0.746883
0.000000 0.510002 0.743191
0.419348 0.491157 0.701961
0.644221 0.427710 0.637751
0.900908 0.544335 0.678889
0.000000 0.707149 0.686549
0.000000 0.703883 0.684077
0.386236 0.696132 0.679927
0.648188 0.685206 0.674800
0.885069 0.751766 0.722683
0.270329 0.872618 0.662715
0.352605 0.872282 0.670069
0.547356 0.872618 0.702998
0.769497 0.870848 0.787594
0.862394 0.872892 0.770413
0.000000 0.193515 0.939818
0.000000 0.202121 0.937285
0.295445 0.229282 0.927062
0.658625 0.254276 0.904692
0.890959 0.326024 0.881407
0.000000 0.308080 0.936034
0.000000 0.314946 0.933654
0.362982 0.334508 0.923461
0.664332 0.344549 0.901549
0.885466 0.384222 0.878752
0.000000 0.549126 0.928649
0.199619 0.566155 0.925078
0.488289 0.586053 0.914305
0.676509 0.558007 0.895384
0.869322 0.543725 0.874540
0.000000 0.757076 0.913664
0.246067 0.760067 0.913054
0.532280 0.774868 0.912139
0.706477 0.773983 0.899870
0.849729 0.729854 0.877073
0.000000 0.907469 0.892729
0.128695 0.906523 0.892882
0.479988 0.903227 0.893950
0.698207 0.898558 0.895506
0.847898 0.888670 0.891417
