20 Preset/Journey new/LUT for PR-AE-PS-FCPX/Journey - Lut (1).cube
# Created by Adobe Lightroom plugin Export LUT (1.24.0)
# www.johnrellis.com/lightroom/exportlut.htm
# Preset: 旅拍胶片-素材江湖01
# Color profile: C:\Program Files (x86)\Common Files\Adobe\Color\Profiles\Recommended\VideoHD.icc
LUT_3D_SIZE 5
DOMAIN_MIN 0.000000 0.000000 0.000000
DOMAIN_MAX 0.903226 0.903226 0.903226
0.093751 0.091310 0.077577
0.132906 0.089021 0.080110
0.308171 0.000000 0.084718
0.636286 0.000000 0.082338
0.920531 0.000000 0.105318
0.103426 0.117098 0.086671
0.147402 0.123568 0.070985
0.362524 0.115145 0.059846
0.671809 0.000000 0.036133
0.937377 0.000000 0.094484
0.149508 0.243626 0.118624
0.180850 0.250462 0.103212
0.396796 0.291905 0.000000
0.795377 0.395209 0.000000
0.966888 0.343999 0.000000
0.261906 0.501396 0.190677
0.290959 0.506188 0.169223
0.433082 0.521294 0.000000
0.713375 0.549889 0.000000
0.964599 0.638392 0.000000
0.488991 0.761990 0.426795
0.501640 0.763973 0.410346
0.559319 0.764645 0.320226
0.724788 0.774228 0.151827
0.925505 0.768917 0.001160
0.091829 0.111879 0.124788
0.139071 0.102144 0.128206
0.298558 0.076753 0.124025
0.615259 0.000000 0.123323
0.915862 0.000000 0.095399
0.109163 0.143832 0.127291
0.153658 0.144625 0.129397
0.330388 0.140139 0.130190
0.651362 0.000000 0.120821
0.928038 0.000000 0.083742
0.171572 0.276707 0.159548
0.206729 0.270268 0.162966
0.387549 0.297490 0.102937
0.757412 0.387884 0.031739
0.962615 0.376257 0.000000
0.295171 0.518853 0.248051
0.327337 0.515770 0.251652
0.441108 0.530480 0.167544
0.707820 0.555047 0.000000
0.960479 0.644434 0.005921
0.503349 0.765866 0.468971
0.519097 0.764340 0.469062
0.576410 0.771969 0.403326
0.727504 0.780117 0.222782
0.927276 0.773861 0.089296
0.000000 0.218753 0.338262
0.057618 0.210391 0.339666
0.342107 0.145968 0.341100
0.635859 0.000000 0.320165
0.866819 0.000000 0.320256
0.000000 0.261784 0.334752
0.154726 0.258274 0.333928
0.355810 0.201755 0.339117
0.632197 0.146639 0.319982
0.862852 0.178775 0.331182
0.072572 0.381964 0.339910
0.200198 0.380102 0.338903
0.409522 0.379980 0.345068
0.657099 0.397223 0.358740
0.895567 0.435370 0.386755
0.351141 0.583124 0.412024
0.394903 0.578698 0.418585
0.488319 0.565270 0.427955
0.688746 0.587671 0.344518
0.921599 0.700191 0.508904
0.529808 0.782071 0.582818
0.546990 0.780606 0.586450
0.604944 0.774472 0.597681
0.709987 0.784451 0.484108
0.910979 0.782101 0.345922
0.000000 0.423133 0.674830
0.000000 0.421973 0.676020
0.299870 0.380774 0.674708
0.597955 0.290898 0.665705
0.861662 0.280919 0.643153
0.000000 0.457069 0.667781
0.000000 0.454963 0.666682
0.336278 0.417700 0.666468
0.600549 0.334874 0.658015
0.857725 0.331792 0.640620
0.138674 0.539208 0.658259
0.246616 0.538476 0.655451
0.438544 0.537652 0.650874
0.615534 0.470283 0.646845
0.848478 0.482368 0.642145
0.272099 0.667384 0.665461
0.322789 0.664820 0.663203
0.467567 0.659754 0.660792
0.649409 0.654658 0.662318
0.842802 0.683680 0.690669
0.513725 0.817350 0.729366
0.536278 0.816190 0.731350
0.618982 0.811978 0.742519
0.709987 0.800900 0.752529
0.864408 0.807767 0.675685
0.396277 0.668391 0.878813
0.428443 0.669276 0.878416
0.530907 0.672145 0.878019
0.620966 0.632258 0.879362
0.786191 0.562646 0.880186
0.420203 0.681910 0.876249
0.448341 0.682582 0.876097
0.540215 0.683742 0.875853
0.627039 0.647456 0.877226
0.786191 0.580926 0.878447
0.447547 0.719265 0.874998
0.476936 0.720607 0.874174
0.570123 0.725490 0.872465
0.651362 0.702052 0.873869
0.790280 0.646723 0.876432
0.499428 0.783261 0.876677
0.516777 0.782559 0.876341
0.584588 0.781277 0.875944
0.696925 0.782864 0.875975
0.802090 0.741512 0.877592
0.560937 0.859678 0.881712
0.574060 0.859068 0.881559
0.627649 0.857725 0.881926
0.714778 0.854398 0.881834
0.825559 0.848508 0.880705
