20 Preset/Journey new/LUT for PR-AE-PS-FCPX/Journey - Lut (1).cube
# Created by Adobe Lightroom plugin Export LUT (1.24.0)
# www.johnrellis.com/lightroom/exportlut.htm
# Preset: 旅拍胶片-素材江湖01
# Color profile: C:\Program Files (x86)\Common Files\Adobe\Color\Profiles\Recommended\VideoHD.icc
LUT_3D_SIZE 8
DOMAIN_MIN 0.000000 0.000000 0.000000
DOMAIN_MAX 0.903226 0.903226 0.903226
0.093751 0.091310 0.077577
0.099519 0.091005 0.078370
0.148409 0.087098 0.080232
0.237736 0.046906 0.082795
0.395148 0.000000 0.085206
0.589685 0.000000 0.083589
0.769070 0.000000 0.084047
0.920531 0.000000 0.105318
0.095003 0.095186 0.079683
0.104341 0.097200 0.078096
0.154696 0.097810 0.078798
0.244083 0.079896 0.080476
0.400427 0.000000 0.081025
0.590173 0.000000 0.076204
0.766079 0.000000 0.075532
0.914855 0.000000 0.100221
0.108186 0.127321 0.090883
0.115175 0.129091 0.088228
0.166506 0.135988 0.070436
0.306371 0.155001 0.045960
0.466957 0.125002 0.032593
0.642725 0.000000 0.015106
0.812711 0.000000 0.011994
0.939818 0.000000 0.087587
0.133974 0.193515 0.109285
0.140505 0.194980 0.105623
0.179324 0.202396 0.090791
0.298009 0.223239 0.021759
0.543511 0.288914 0.000000
0.736507 0.295232 0.000000
0.861387 0.259220 0.000000
0.960479 0.230564 0.000000
0.169833 0.309148 0.129946
0.177646 0.310887 0.125216
0.218326 0.318883 0.103426
0.315618 0.333165 0.000000
0.491951 0.362097 0.000000
0.722744 0.435248 0.000000
0.889342 0.472145 0.000000
0.972869 0.445380 0.000000
0.235142 0.456123 0.170962
0.245365 0.461585 0.167300
0.280766 0.467079 0.141207
0.360754 0.476844 0.033143
0.492042 0.486580 0.000000
0.672511 0.512016 0.000000
0.855741 0.576867 0.000000
0.973480 0.619440 0.000000
0.344182 0.617609 0.262516
0.350561 0.619562 0.258244
0.374731 0.622492 0.234775
0.431434 0.628656 0.181338
0.528099 0.634913 0.000000
0.666499 0.641840 0.000000
0.817502 0.651392 0.000000
0.938964 0.690394 0.000000
0.488991 0.761990 0.426795
0.491951 0.762448 0.422339
0.507073 0.764828 0.404364
0.542657 0.769558 0.367498
0.595941 0.767575 0.279118
0.695338 0.773037 0.187350
0.820798 0.776181 0.000000
0.925505 0.768917 0.001160
0.093324 0.095155 0.089876
0.103670 0.092683 0.091249
0.147585 0.091615 0.090059
0.231510 0.086488 0.092805
0.393042 0.000000 0.088624
0.589166 0.000000 0.071870
0.761593 0.000000 0.069856
0.907622 0.000000 0.097353
0.094423 0.102815 0.091188
0.106813 0.102846 0.091768
0.152010 0.104555 0.092988
0.241184 0.098421 0.093019
0.403052 0.000000 0.087831
0.597528 0.000000 0.061036
0.763912 0.000000 0.058289
0.905211 0.000000 0.092744
0.117067 0.135775 0.102480
0.123293 0.134676 0.103243
0.167117 0.140505 0.093751
0.291112 0.156802 0.089326
0.454108 0.139254 0.066438
0.640223 0.022797 0.007568
0.798154 0.000000 0.000000
0.926452 0.000000 0.065797
0.140475 0.198734 0.119203
0.148196 0.197330 0.119997
0.181186 0.205020 0.106294
0.291173 0.221958 0.065858
0.519585 0.280613 0.000000
0.707637 0.287663 0.000000
0.842191 0.262760 0.000000
0.947356 0.231601 0.000000
0.177554 0.314153 0.143099
0.186587 0.312413 0.143343
0.221378 0.318883 0.123659
0.310765 0.330205 0.058350
0.478431 0.354376 0.000000
0.706691 0.426703 0.000000
0.880095 0.470130 0.000000
0.966613 0.444007 0.000000
0.240848 0.454200 0.184787
0.250065 0.453803 0.184543
0.281712 0.459815 0.161959
0.357000 0.470527 0.104677
0.485115 0.481605 0.000000
0.665461 0.508202 0.000000
0.849638 0.574304 0.000000
0.969726 0.616083 0.000000
0.345281 0.612055 0.272160
0.350378 0.610803 0.269261
0.372381 0.613581 0.247044
0.426978 0.620844 0.199466
0.523125 0.629694 0.049317
0.659724 0.636835 0.000000
0.810452 0.645777 0.000000
0.934447 0.685237 0.000000
0.486091 0.757687 0.430671
0.491157 0.758724 0.429999
0.505180 0.760922 0.412207
0.539818 0.765896 0.376715
0.601831 0.771237 0.309239
0.696468 0.774746 0.194095
0.819516 0.776059 0.000000
0.924651 0.768521 0.000000
0.089967 0.120516 0.142519
0.102419 0.118593 0.143923
0.156222 0.107454 0.145846
0.250767 0.094667 0.141207
0.381964 0.006195 0.141634
0.557733 0.000000 0.143923
0.753811 0.000000 0.143008
0.914214 0.000000 0.133486
0.102296 0.131258 0.141604
0.114565 0.130709 0.141726
0.159701 0.120302 0.144747
0.249760 0.111543 0.141146
0.379278 0.072450 0.142306
0.564904 0.000000 0.145449
0.754604 0.000000 0.141115
0.912596 0.000000 0.130770
0.113344 0.164034 0.144625
0.127321 0.163912 0.144869
0.176699 0.165255 0.147311
0.270634 0.165835 0.147799
0.423957 0.156802 0.149081
0.612238 0.117494 0.147097
0.783627 0.000000 0.140658
0.926329 0.000000 0.128389
0.151827 0.237217 0.159854
0.168093 0.237613 0.162844
0.206485 0.231754 0.166018
0.305119 0.246250 0.141451
0.525414 0.303960 0.148959
0.683680 0.297765 0.143679
0.827817 0.291478 0.135409
0.946319 0.288182 0.123415
0.205142 0.350652 0.193118
0.216587 0.348791 0.194186
0.255161 0.342473 0.198276
0.325994 0.354681 0.162692
0.486488 0.373693 0.106294
0.705470 0.446571 0.107668
0.862791 0.481636 0.129366
0.961181 0.471015 0.125429
0.274998 0.479622 0.241184
0.284794 0.478950 0.242802
0.319280 0.474159 0.246525
0.373754 0.483406 0.208225
0.487343 0.493202 0.132479
0.660761 0.516197 0.000000
0.842435 0.587304 0.023651
0.963867 0.631617 0.176791
0.376471 0.629755 0.330571
0.382635 0.627863 0.330632
0.407385 0.622889 0.330755
0.447272 0.628870 0.292119
0.529137 0.636713 0.223056
0.658137 0.644373 0.000000
0.808621 0.654597 0.000000
0.933989 0.695064 0.012940
0.501823 0.764004 0.474281
0.505699 0.763058 0.474281
0.523278 0.761501 0.475349
0.553155 0.767514 0.446204
0.607233 0.772946 0.388708
0.696284 0.777890 0.290318
0.818845 0.780301 0.000000
0.924926 0.771756 0.017578
0.000000 0.175509 0.254398
0.005982 0.174289 0.256199
0.135653 0.157259 0.257694
0.265171 0.130037 0.257847
0.419440 0.044526 0.251316
0.580560 0.000000 0.244755
0.724636 0.000000 0.243656
0.864591 0.000000 0.256870
0.019226 0.190433 0.253819
0.082490 0.189120 0.254215
0.148653 0.172427 0.257176
0.270298 0.145144 0.258244
0.425757 0.095369 0.252659
0.580468 0.000000 0.245365
0.722774 0.000000 0.245457
0.867765 0.000000 0.259800
0.090852 0.226505 0.252628
0.118654 0.226047 0.252232
0.190005 0.223911 0.251469
0.285344 0.196414 0.256748
0.438483 0.178714 0.253422
0.584741 0.168307 0.252934
0.734188 0.173281 0.264866
0.889311 0.187411 0.278111
0.096437 0.297642 0.260410
0.127962 0.296757 0.259678
0.210422 0.296025 0.260075
0.323827 0.298253 0.265751
0.464607 0.302525 0.268528
0.621607 0.311131 0.277287
0.776761 0.323674 0.287816
0.909758 0.341436 0.297063
0.192508 0.409247 0.279515
0.215061 0.408209 0.280797
0.290684 0.406653 0.290349
0.369390 0.398871 0.301579
0.495918 0.413031 0.262211
0.699397 0.491524 0.321630
0.826352 0.501457 0.334112
0.930938 0.506249 0.339117
0.325414 0.531029 0.342992
0.335607 0.533074 0.345434
0.371496 0.526757 0.347967
0.426307 0.517357 0.354864
0.502892 0.526909 0.302647
0.658473 0.542290 0.256016
0.829526 0.619165 0.340307
0.940276 0.664271 0.412024
0.415259 0.657893 0.422461
0.422370 0.657465 0.423743
0.448859 0.654139 0.427649
0.492256 0.648066 0.433875
0.547204 0.655818 0.381842
0.656580 0.661738 0.298924
0.800931 0.670130 0.245060
0.921813 0.717983 0.356847
0.528313 0.778408 0.551873
0.532494 0.777798 0.552422
0.549706 0.775601 0.555505
0.580804 0.772366 0.560693
0.618402 0.777859 0.512688
0.693111 0.783017 0.436713
0.808255 0.786099 0.312535
0.920531 0.779751 0.248142
0.000000 0.270329 0.433173
0.000000 0.269535 0.434760
0.000000 0.260929 0.435584
0.240970 0.227695 0.437568
0.423255 0.171939 0.435126
0.597101 0.095857 0.416602
0.750484 0.000000 0.401190
0.872190 0.054353 0.398993
0.000000 0.286442 0.432685
0.000000 0.285893 0.434913
0.099397 0.277745 0.437079
0.251652 0.242893 0.437110
0.426612 0.189456 0.434363
0.599084 0.131167 0.416663
0.749264 0.038483 0.401404
0.870634 0.134127 0.400549
0.000000 0.328191 0.432197
0.000000 0.327947 0.431891
0.182650 0.323919 0.429419
0.282475 0.293706 0.430884
0.435798 0.247501 0.427192
0.600061 0.217472 0.411200
0.741512 0.213870 0.401129
0.861753 0.243473 0.404791
0.000000 0.386175 0.429419
0.100435 0.385565 0.428504
0.225315 0.384741 0.426856
0.345006 0.382879 0.425422
0.459907 0.343938 0.427924
0.612329 0.334142 0.415778
0.734920 0.346105 0.412543
0.852415 0.367590 0.423011
0.109041 0.469154 0.429999
0.151553 0.469001 0.430060
0.252018 0.467109 0.429328
0.367864 0.464515 0.429297
0.490486 0.463172 0.432898
0.620905 0.471778 0.439155
0.758511 0.490425 0.455085
0.880156 0.513542 0.473823
0.261295 0.567132 0.435431
0.280095 0.566888 0.436713
0.342962 0.563684 0.440345
0.437171 0.560113 0.453010
0.517754 0.551385 0.466194
0.639338 0.569207 0.428229
0.803983 0.655726 0.535546
0.900664 0.671321 0.559899
0.423743 0.687984 0.524681
0.432258 0.686732 0.525017
0.467170 0.683467 0.530297
0.510063 0.678859 0.531090
0.567773 0.670069 0.540307
0.642329 0.677119 0.476051
0.779965 0.685542 0.432502
0.898100 0.742184 0.549065
0.533349 0.790494 0.622827
0.537682 0.789883 0.623133
0.555718 0.787503 0.625025
0.591852 0.785519 0.634577
0.633814 0.780362 0.642023
0.684260 0.786893 0.586053
0.784817 0.790768 0.493874
0.901152 0.788602 0.446601
0.000000 0.399298 0.642390
0.000000 0.399573 0.643610
0.000000 0.393713 0.640711
0.228397 0.370794 0.639704
0.391882 0.329595 0.633997
0.569665 0.264805 0.626398
0.735561 0.234318 0.609369
0.875425 0.246921 0.599573
0.000000 0.404150 0.629664
0.000000 0.402991 0.629328
0.000000 0.397742 0.628107
0.247410 0.378576 0.627680
0.392737 0.336522 0.624628
0.567163 0.275059 0.619348
0.731838 0.247929 0.603845
0.872374 0.259892 0.596033
0.000000 0.444190 0.631006
0.000000 0.443885 0.629908
0.169284 0.441230 0.627863
0.307927 0.426001 0.623346
0.415930 0.383337 0.621363
0.575280 0.329534 0.616846
0.734188 0.313176 0.604669
0.868284 0.329717 0.598291
0.000000 0.495338 0.628260
0.125154 0.494759 0.626764
0.254063 0.495125 0.623926
0.373907 0.496498 0.624598
0.459724 0.466651 0.626276
0.593500 0.420844 0.621485
0.741329 0.414038 0.612268
0.860533 0.432319 0.606073
0.174716 0.553735 0.618952
0.204013 0.553491 0.618463
0.289921 0.552605 0.616815
0.396429 0.551995 0.615198
0.503105 0.549859 0.613092
0.602319 0.510643 0.612238
0.741573 0.507744 0.605798
0.844205 0.523735 0.602350
0.236881 0.628046 0.617060
0.257603 0.628931 0.618341
0.320439 0.627008 0.617151
0.409094 0.623896 0.615351
0.509331 0.619654 0.613733
0.621881 0.619745 0.618982
0.742061 0.636011 0.635126
0.851255 0.657160 0.655848
0.352209 0.725673 0.635737
0.365026 0.725978 0.637263
0.410101 0.724331 0.639094
0.485115 0.721035 0.644038
0.575921 0.716091 0.655085
0.649866 0.706355 0.665797
0.753628 0.714443 0.622705
0.872648 0.780209 0.730648
0.524468 0.811521 0.709590
0.529473 0.810788 0.709438
0.552697 0.808988 0.711635
0.597436 0.806516 0.719020
0.642054 0.801846 0.720882
0.692622 0.794736 0.728786
0.757870 0.800687 0.672480
0.872313 0.803403 0.634363
0.000000 0.526757 0.786007
0.000000 0.527642 0.786526
0.179812 0.526787 0.785946
0.330999 0.524315 0.785641
0.415778 0.489937 0.785580
0.541283 0.455146 0.782925
0.686091 0.396979 0.779141
0.825193 0.384497 0.768551
0.000000 0.531579 0.781674
0.000000 0.532494 0.782589
0.200595 0.531334 0.782132
0.335180 0.527459 0.781369
0.417853 0.493812 0.781186
0.539940 0.458442 0.777981
0.682734 0.400275 0.773709
0.821347 0.386511 0.762783
0.155856 0.560906 0.780697
0.191318 0.561547 0.780331
0.272496 0.560204 0.779385
0.370306 0.555627 0.778653
0.444129 0.526268 0.778408
0.551904 0.493233 0.776028
0.687922 0.441444 0.773861
0.823972 0.433356 0.766629
0.246891 0.600793 0.780667
0.265141 0.600336 0.779660
0.330816 0.601007 0.777737
0.419287 0.601984 0.776242
0.502312 0.592462 0.775692
0.573663 0.553429 0.775662
0.695918 0.507530 0.774228
0.824216 0.502586 0.767880
0.293553 0.644800 0.776455
0.306706 0.644099 0.775570
0.357824 0.643397 0.773983
0.437385 0.643824 0.772671
0.530327 0.644617 0.770474
0.594385 0.618280 0.771023
0.700465 0.577478 0.769314
0.824369 0.580468 0.767697
0.338872 0.699092 0.774807
0.349889 0.699123 0.774868
0.391333 0.698543 0.774502
0.459236 0.697627 0.774044
0.541833 0.696040 0.772976
0.631678 0.695705 0.772763
0.712276 0.663111 0.772030
0.827329 0.665339 0.770199
0.383917 0.761776 0.778470
0.393164 0.761898 0.778744
0.426337 0.760830 0.778317
0.483650 0.758938 0.777829
0.556329 0.755581 0.776364
0.638361 0.751369 0.774899
0.726680 0.747646 0.774746
0.827420 0.762356 0.788968
0.486580 0.832944 0.792020
0.492164 0.832944 0.792172
0.515709 0.833341 0.793210
0.559442 0.832303 0.794553
0.622980 0.829221 0.797818
0.696437 0.824765 0.804135
0.757626 0.817441 0.811307
0.842802 0.823209 0.782010
0.396277 0.668391 0.878813
0.406165 0.669154 0.878965
0.439551 0.669581 0.878294
0.497230 0.671565 0.878080
0.561730 0.669306 0.877958
0.602991 0.638361 0.879271
0.682948 0.609216 0.879820
0.786191 0.562646 0.880186
0.400641 0.670710 0.877317
0.410224 0.671443 0.877470
0.443214 0.672297 0.877134
0.498848 0.673671 0.876890
0.564965 0.672847 0.876677
0.603784 0.641169 0.878080
0.682368 0.611536 0.878447
0.785031 0.564874 0.878752
0.426856 0.686336 0.875517
0.434638 0.686671 0.875547
0.462928 0.686793 0.875151
0.514977 0.688869 0.875700
0.575647 0.687373 0.875334
0.613092 0.658900 0.876432
0.686641 0.630732 0.877043
0.785824 0.586419 0.877562
0.443610 0.706874 0.874876
0.452552 0.707698 0.874815
0.485878 0.710140 0.874083
0.536095 0.712764 0.873777
0.590967 0.711391 0.873960
0.631006 0.690822 0.875364
0.695827 0.665400 0.876127
0.788785 0.625208 0.876982
0.456977 0.734401 0.874723
0.464210 0.734798 0.874815
0.488716 0.734768 0.874418
0.541985 0.737636 0.873686
0.605646 0.740536 0.872709
0.661433 0.735317 0.873289
0.706142 0.706386 0.875181
0.792905 0.671809 0.876585
0.487373 0.771664 0.875273
0.491951 0.771328 0.875059
0.511772 0.770504 0.874571
0.550469 0.769894 0.874296
0.605127 0.769802 0.874479
0.677882 0.773556 0.874876
0.725307 0.757900 0.877501
0.800565 0.728267 0.877928
0.527550 0.815671 0.878996
0.531640 0.815488 0.878935
0.548608 0.814786 0.878660
0.581506 0.813748 0.878508
0.628107 0.812222 0.878294
0.685389 0.810513 0.878202
0.750881 0.809567 0.877958
0.809018 0.784390 0.877562
0.560937 0.859678 0.881712
0.564233 0.859464 0.881651
0.578973 0.858946 0.881590
0.608179 0.858274 0.881804
0.649561 0.856931 0.881926
0.700649 0.854978 0.881865
0.759762 0.852384 0.881621
0.825559 0.848508 0.880705
