20 Preset/Journey new/LUT for PR-AE-PS-FCPX/Journey - Lut (5).cube
# Created by Adobe Lightroom plugin Export LUT (1.24.0)
# www.johnrellis.com/lightroom/exportlut.htm
# Preset: 旅拍胶片-素材江湖05
# Color profile: C:\Program Files (x86)\Common Files\Adobe\Color\Profiles\Recommended\VideoHD.icc
LUT_3D_SIZE 8
DOMAIN_MIN 0.000000 0.000000 0.000000
DOMAIN_MAX 0.903226 0.903226 0.903226
0.058839 0.056916 0.040772
0.087343 0.060853 0.042969
0.162051 0.072450 0.045441
0.323064 0.006622 0.033265
0.554772 0.000000 0.000000
0.760616 0.000000 0.000000
0.902281 0.000000 0.000000
0.995453 0.157900 0.000000
0.065797 0.082490 0.045838
0.089509 0.086671 0.042054
0.162112 0.092622 0.041993
0.318669 0.069368 0.027222
0.546349 0.000000 0.000000
0.750851 0.000000 0.000000
0.891295 0.000000 0.000000
0.989227 0.178256 0.000000
0.083955 0.137606 0.069368
0.101045 0.135592 0.074311
0.157290 0.148989 0.042329
0.327886 0.165377 0.002960
0.553857 0.165774 0.000000
0.756954 0.178256 0.000000
0.896147 0.218753 0.000000
0.990631 0.277592 0.000000
0.000092 0.267338 0.074983
0.092439 0.264469 0.082795
0.177951 0.264622 0.079835
0.325048 0.304204 0.000000
0.566552 0.340307 0.000000
0.766110 0.347570 0.000000
0.891447 0.363622 0.000000
0.981781 0.392493 0.000000
0.000000 0.463691 0.086427
0.019196 0.461097 0.094362
0.227817 0.453162 0.121248
0.345953 0.469276 0.000000
0.520989 0.497383 0.000000
0.717983 0.510918 0.000000
0.864317 0.509483 0.000000
0.966125 0.513603 0.000000
0.175174 0.641382 0.199283
0.214969 0.643214 0.206882
0.310216 0.637415 0.223209
0.416968 0.629725 0.241672
0.518425 0.646845 0.115511
0.670710 0.663233 0.000000
0.824613 0.658808 0.000000
0.935180 0.649500 0.000000
0.379889 0.771054 0.377386
0.392767 0.770718 0.380957
0.436286 0.766934 0.390295
0.504967 0.760342 0.410559
0.569177 0.760525 0.384955
0.655573 0.769802 0.282292
0.778775 0.776669 0.000000
0.898772 0.762875 0.000000
0.546044 0.855161 0.578393
0.551141 0.854673 0.579767
0.572778 0.852934 0.586786
0.611200 0.849760 0.601282
0.653162 0.841489 0.611017
0.696162 0.848112 0.560021
0.766415 0.854643 0.471260
0.865446 0.858122 0.309911
0.058930 0.060304 0.074159
0.091402 0.058747 0.072389
0.153902 0.066926 0.069673
0.289616 0.056031 0.076753
0.518517 0.000000 0.042267
0.731777 0.000000 0.000000
0.879026 0.000000 0.000000
0.981506 0.164004 0.000000
0.057465 0.088960 0.071534
0.090700 0.089204 0.072877
0.151919 0.096834 0.079927
0.292454 0.091493 0.076356
0.518700 0.000000 0.036072
0.729488 0.000000 0.000000
0.874144 0.000000 0.000000
0.977234 0.185672 0.000000
0.091096 0.140963 0.090608
0.106905 0.139376 0.092744
0.156039 0.147433 0.080537
0.312749 0.161349 0.059419
0.531487 0.166934 0.000000
0.733791 0.178073 0.000000
0.875364 0.215610 0.000000
0.977264 0.276860 0.000000
0.029603 0.264591 0.101442
0.102968 0.262211 0.104494
0.184176 0.259525 0.110353
0.312047 0.290867 0.000000
0.539025 0.321355 0.000000
0.740383 0.332555 0.000000
0.871946 0.354040 0.000000
0.969482 0.387488 0.000000
0.000000 0.460914 0.122957
0.081971 0.457923 0.127169
0.233158 0.448615 0.146029
0.343420 0.458320 0.101381
0.508782 0.483467 0.000000
0.705776 0.499336 0.000000
0.855100 0.502892 0.000000
0.958556 0.511315 0.000000
0.183536 0.635737 0.217594
0.216709 0.634699 0.221469
0.309545 0.629358 0.236606
0.417639 0.620783 0.261143
0.515190 0.639338 0.158633
0.666041 0.657679 0.000000
0.819883 0.654566 0.000000
0.930846 0.647028 0.000000
0.377630 0.766873 0.383276
0.388098 0.765469 0.384192
0.431464 0.761654 0.392859
0.501213 0.755520 0.413275
0.567926 0.756161 0.396185
0.652583 0.765805 0.298466
0.774166 0.772213 0.000000
0.894285 0.758907 0.000000
0.542351 0.853025 0.578607
0.548547 0.852903 0.581262
0.570031 0.851072 0.587945
0.608759 0.847990 0.602411
0.657099 0.843107 0.622492
0.697902 0.848173 0.573175
0.765713 0.853910 0.484138
0.864134 0.857389 0.328588
0.021210 0.071290 0.158511
0.086213 0.068299 0.156374
0.166506 0.058656 0.144564
0.294408 0.014038 0.146181
0.506249 0.000000 0.133272
0.706203 0.000000 0.154330
0.860166 0.138491 0.160678
0.967742 0.250645 0.177218
0.052644 0.103334 0.147829
0.089601 0.098451 0.147189
0.164187 0.094087 0.140993
0.291661 0.078676 0.144198
0.497169 0.000000 0.142885
0.702419 0.059937 0.154757
0.856046 0.165011 0.158145
0.964446 0.262303 0.173709
0.031556 0.158358 0.141360
0.089021 0.158602 0.141756
0.178653 0.166903 0.150393
0.308171 0.173434 0.149355
0.512413 0.186709 0.153384
0.712184 0.210391 0.154116
0.857694 0.259220 0.158236
0.962341 0.325628 0.177554
0.000000 0.284977 0.153841
0.035401 0.286137 0.157931
0.210727 0.283787 0.176120
0.324926 0.299138 0.149172
0.538994 0.323705 0.142519
0.724300 0.347967 0.149844
0.858183 0.380407 0.160250
0.957000 0.421881 0.185702
0.033845 0.473640 0.211704
0.138766 0.471565 0.214450
0.262242 0.463996 0.226749
0.370184 0.461372 0.229007
0.514000 0.485634 0.130251
0.701717 0.500481 0.061646
0.846708 0.512444 0.152193
0.946044 0.532647 0.203189
0.235447 0.639673 0.297642
0.260319 0.638911 0.300542
0.338476 0.633692 0.311376
0.437659 0.623896 0.332311
0.524346 0.634974 0.281834
0.662562 0.653040 0.150637
0.813199 0.653864 0.000000
0.923033 0.654627 0.198367
0.405646 0.768734 0.443946
0.414893 0.767514 0.444862
0.452918 0.763394 0.450935
0.515953 0.757076 0.467018
0.581445 0.753567 0.468849
0.656001 0.763973 0.387732
0.772244 0.771786 0.257053
0.891081 0.761624 0.140017
0.551263 0.853269 0.609735
0.555871 0.852659 0.610376
0.576318 0.850858 0.615930
0.614557 0.848325 0.629969
0.661189 0.843595 0.647333
0.702174 0.847135 0.616663
0.765438 0.853391 0.540398
0.860838 0.857237 0.409155
0.000000 0.083253 0.345678
0.000000 0.080903 0.342962
0.168521 0.038605 0.325841
0.337438 0.000000 0.295201
0.515343 0.000000 0.291905
0.709895 0.000000 0.282841
0.849882 0.000000 0.265110
0.934447 0.333379 0.334813
0.000000 0.111635 0.329717
0.000000 0.110109 0.326970
0.171054 0.096773 0.315831
0.337133 0.000000 0.292149
0.515465 0.000000 0.292454
0.707393 0.000000 0.281651
0.843565 0.102510 0.275944
0.933288 0.345739 0.336522
0.000000 0.206882 0.308690
0.000000 0.204135 0.305882
0.170596 0.184482 0.299870
0.338598 0.166018 0.285924
0.517693 0.181613 0.291844
0.703059 0.186618 0.281041
0.827939 0.329870 0.323919
0.933623 0.401038 0.351598
0.000000 0.325719 0.292515
0.000000 0.324895 0.291600
0.161746 0.326543 0.293339
0.373846 0.345373 0.314672
0.529473 0.349920 0.305455
0.690608 0.379248 0.315801
0.825132 0.421942 0.334295
0.928161 0.472786 0.360662
0.000000 0.496345 0.305577
0.000000 0.495247 0.307897
0.234714 0.494301 0.322606
0.413001 0.490425 0.359136
0.527398 0.500053 0.321172
0.695796 0.515282 0.326513
0.825895 0.539361 0.358526
0.920928 0.568994 0.384192
0.211429 0.655512 0.387793
0.253178 0.657191 0.395758
0.372778 0.652735 0.424109
0.467414 0.643641 0.439460
0.548760 0.640284 0.435615
0.661433 0.654780 0.355169
0.801816 0.659907 0.344060
0.906493 0.671321 0.402472
0.433722 0.772580 0.530541
0.443397 0.772030 0.532372
0.479561 0.769314 0.538720
0.537804 0.763973 0.551476
0.603571 0.756008 0.569909
0.662501 0.763455 0.516838
0.765866 0.770840 0.419867
0.880919 0.765347 0.374212
0.564050 0.856016 0.660822
0.568750 0.855558 0.661677
0.588006 0.853758 0.665736
0.622797 0.850614 0.674556
0.667353 0.845884 0.687678
0.709010 0.845457 0.680690
0.763790 0.852201 0.621515
0.853696 0.857053 0.522728
0.000000 0.098146 0.593866
0.000000 0.095308 0.591516
0.000000 0.047120 0.576989
0.346746 0.000000 0.553765
0.554284 0.000000 0.513787
0.714199 0.000000 0.484932
0.840146 0.089723 0.471534
0.940307 0.260563 0.459236
0.000000 0.130159 0.581353
0.000000 0.128115 0.580072
0.000000 0.111360 0.568627
0.348241 0.000000 0.546410
0.553216 0.000000 0.510124
0.711238 0.000000 0.483711
0.837247 0.157412 0.471443
0.937377 0.285252 0.460761
0.000000 0.255253 0.552758
0.000000 0.251835 0.550134
0.000000 0.221683 0.542504
0.353033 0.197940 0.527214
0.546563 0.158877 0.496101
0.695003 0.211276 0.476661
0.824338 0.282139 0.468940
0.924804 0.361028 0.463752
0.000000 0.392493 0.531029
0.000000 0.391547 0.528985
0.143435 0.389776 0.523033
0.364538 0.367620 0.514122
0.545739 0.349920 0.492927
0.680262 0.387518 0.483833
0.807889 0.418891 0.472999
0.892851 0.508598 0.508263
0.000000 0.528801 0.499489
0.000000 0.528344 0.499062
0.000000 0.525841 0.496956
0.363897 0.525811 0.499001
0.550744 0.540368 0.519219
0.669429 0.539574 0.502586
0.785489 0.563989 0.512383
0.883940 0.599329 0.534630
0.000000 0.660121 0.487648
0.000000 0.659602 0.489418
0.244083 0.656184 0.496040
0.423163 0.652918 0.515984
0.562676 0.648432 0.555383
0.653040 0.657038 0.520958
0.781338 0.669276 0.531914
0.879332 0.689509 0.569116
0.338445 0.778653 0.572412
0.356085 0.777584 0.574212
0.419898 0.774563 0.584436
0.521660 0.770382 0.614282
0.606470 0.762600 0.638514
0.664912 0.759976 0.631891
0.752316 0.767361 0.561089
0.862119 0.767575 0.545434
0.512230 0.859648 0.677333
0.522423 0.858976 0.680781
0.567041 0.855985 0.699062
0.618402 0.852934 0.716365
0.665919 0.848356 0.726711
0.715145 0.842679 0.740261
0.759060 0.849058 0.699580
0.841428 0.854246 0.625910
0.000000 0.131441 0.778622
0.000000 0.129580 0.777554
0.000000 0.114534 0.770321
0.261234 0.000000 0.759823
0.529564 0.000000 0.742885
0.714626 0.000000 0.709895
0.838102 0.055207 0.669032
0.916625 0.340612 0.663081
0.000000 0.164279 0.769284
0.000000 0.162875 0.767666
0.000000 0.152926 0.761593
0.269688 0.113924 0.751186
0.527337 0.000000 0.734585
0.709895 0.000000 0.703243
0.832547 0.148562 0.664454
0.912566 0.354955 0.660487
0.000000 0.291722 0.755795
0.000000 0.281926 0.755001
0.000000 0.272953 0.750210
0.311040 0.256321 0.738430
0.532769 0.222293 0.723018
0.703975 0.207126 0.694362
0.820310 0.297185 0.662257
0.901762 0.422553 0.662104
0.000000 0.452827 0.739315
0.000000 0.452247 0.737087
0.188907 0.451270 0.730312
0.364996 0.425544 0.725154
0.541497 0.407752 0.712703
0.694575 0.396429 0.688258
0.799252 0.452216 0.666438
0.884794 0.520439 0.667842
0.000000 0.576287 0.712276
0.000000 0.576165 0.711330
0.166812 0.576287 0.707546
0.395972 0.578271 0.702754
0.537041 0.562585 0.695003
0.671656 0.546441 0.676448
0.768765 0.578576 0.667262
0.866392 0.602808 0.660060
0.000000 0.688991 0.684108
0.000000 0.689296 0.684535
0.050996 0.686580 0.682185
0.361547 0.682643 0.679377
0.521569 0.679957 0.678798
0.660822 0.688869 0.692470
0.755032 0.688746 0.680201
0.847074 0.705959 0.687861
0.105715 0.788357 0.671351
0.178378 0.788205 0.672938
0.308812 0.785824 0.676387
0.444587 0.781704 0.684199
0.570764 0.776974 0.699855
0.675593 0.770657 0.726833
0.741909 0.771756 0.694453
0.843565 0.778378 0.699855
0.424567 0.865904 0.718593
0.435340 0.865263 0.719478
0.479713 0.863218 0.724941
0.552392 0.860075 0.737362
0.640314 0.855253 0.759579
0.713191 0.848386 0.779660
0.758816 0.847227 0.774960
0.828702 0.852811 0.725185
0.000000 0.195529 0.879667
0.000000 0.195895 0.879454
0.000000 0.192599 0.876677
0.207950 0.180423 0.871794
0.483619 0.145815 0.863859
0.673457 0.000000 0.852811
0.820432 0.126619 0.832090
0.912047 0.296208 0.798001
0.000000 0.225956 0.875303
0.000000 0.226383 0.875242
0.000000 0.223392 0.872679
0.227909 0.212680 0.867582
0.485420 0.186007 0.859648
0.670497 0.124880 0.848325
0.815579 0.168673 0.827146
0.906798 0.309056 0.793057
0.000000 0.336950 0.868193
0.000000 0.336584 0.867613
0.000000 0.333623 0.864927
0.304265 0.326635 0.860258
0.504692 0.311925 0.852415
0.672084 0.286442 0.842008
0.809751 0.306920 0.823209
0.896880 0.399634 0.793484
0.094697 0.510582 0.854765
0.172244 0.511162 0.853635
0.272435 0.500145 0.851347
0.385138 0.478889 0.848508
0.529900 0.466682 0.841825
0.671138 0.448798 0.833005
0.796262 0.453742 0.816281
0.876768 0.513878 0.792050
0.138491 0.621668 0.841215
0.193149 0.621912 0.840238
0.317937 0.623224 0.837217
0.448066 0.624292 0.832578
0.543725 0.604120 0.827481
0.658930 0.585901 0.819333
0.773617 0.576562 0.804440
0.852964 0.618402 0.790616
0.038483 0.715694 0.824491
0.155398 0.715846 0.824125
0.294713 0.716121 0.822782
0.428779 0.716701 0.820462
0.552819 0.717403 0.817502
0.652247 0.705135 0.813046
0.753841 0.691066 0.800259
0.830045 0.713344 0.794400
0.000000 0.801083 0.809171
0.051453 0.800961 0.809201
0.259892 0.799069 0.808011
0.401709 0.795743 0.806088
0.527520 0.790921 0.803220
0.640314 0.786526 0.801236
0.744259 0.787716 0.805356
0.822690 0.786893 0.796719
0.274205 0.871183 0.792538
0.295079 0.870970 0.792844
0.366888 0.870115 0.794797
0.467872 0.867308 0.797848
0.576104 0.862852 0.803555
0.677272 0.858213 0.813260
0.765042 0.852567 0.831540
0.820035 0.853941 0.809232
0.000000 0.299351 0.941955
0.000000 0.300084 0.941802
0.000000 0.300298 0.940215
0.292790 0.301061 0.937804
0.487312 0.298589 0.933959
0.645716 0.290532 0.928557
0.787808 0.275151 0.921996
0.899504 0.345586 0.908049
0.000000 0.324102 0.939849
0.000000 0.324956 0.939696
0.000000 0.325078 0.938384
0.309880 0.324834 0.935943
0.492622 0.321935 0.932158
0.646571 0.313603 0.926848
0.786069 0.297704 0.920195
0.896818 0.359228 0.906249
0.000000 0.416938 0.934264
0.000000 0.416968 0.934020
0.201755 0.415625 0.932708
0.373785 0.416083 0.930938
0.517571 0.411109 0.927245
0.653376 0.401434 0.922087
0.783352 0.386023 0.915923
0.889403 0.427649 0.902556
0.322820 0.566613 0.923217
0.329717 0.563195 0.923339
0.353368 0.546715 0.923400
0.443580 0.542748 0.921721
0.549584 0.536278 0.918730
0.661982 0.524895 0.914458
0.776883 0.508171 0.909087
0.876432 0.526146 0.897154
0.355352 0.662348 0.914824
0.372320 0.663539 0.914580
0.428107 0.666133 0.913207
0.518364 0.674128 0.910002
0.571374 0.649561 0.908995
0.662715 0.636439 0.905303
0.764126 0.618860 0.900633
0.859586 0.621180 0.890501
0.342290 0.742092 0.905699
0.357153 0.742214 0.905364
0.413092 0.743374 0.904204
0.499062 0.746670 0.902617
0.589532 0.746273 0.900420
0.664912 0.733547 0.898192
0.752773 0.720485 0.894285
0.843046 0.713619 0.885679
0.313359 0.813230 0.896757
0.329717 0.813169 0.896574
0.389441 0.812802 0.895781
0.478309 0.812711 0.894682
0.575158 0.812619 0.893278
0.669642 0.812772 0.892088
0.746853 0.802884 0.889860
0.828000 0.789090 0.880552
0.287938 0.880949 0.888365
0.305119 0.880583 0.888182
0.367498 0.879301 0.887663
0.458137 0.877104 0.886900
0.555322 0.873838 0.885649
0.649470 0.869718 0.883909
0.738155 0.865568 0.882353
0.824216 0.863859 0.883207
