20 Preset/Journey new/LUT for PR-AE-PS-FCPX/Journey - Lut (1).cube
# Created by Adobe Lightroom plugin Export LUT (1.24.0)
# www.johnrellis.com/lightroom/exportlut.htm
# Preset: 旅拍胶片-素材江湖01
# Color profile: C:\Program Files (x86)\Common Files\Adobe\Color\Profiles\Recommended\VideoHD.icc
LUT_3D_SIZE 32
DOMAIN_MIN 0.0 0.0 0.0
DOMAIN_MAX 1.0 1.0 1.0
0.093751 0.091310 0.077577
0.093751 0.091310 0.077577
0.094453 0.091218 0.077577
0.095705 0.091066 0.078492
0.099519 0.091005 0.078370
0.107027 0.090822 0.078828
0.119661 0.089723 0.079225
0.132906 0.089021 0.080110
0.148409 0.087098 0.080232
0.165316 0.083680 0.080934
0.185702 0.077058 0.081514
0.209537 0.065736 0.082307
0.237736 0.046906 0.082795
0.270787 0.019409 0.083406
0.308171 0.000000 0.084718
0.350103 0.000000 0.085084
0.395148 0.000000 0.085206
0.442573 0.000000 0.084962
0.491402 0.000000 0.085054
0.540856 0.000000 0.083772
0.589685 0.000000 0.083589
0.636286 0.000000 0.082338
0.679896 0.000000 0.081849
0.722011 0.000000 0.081666
0.769070 0.000000 0.084047
0.812772 0.000000 0.087556
0.852110 0.000000 0.091493
0.887724 0.000000 0.097505
0.920531 0.000000 0.105318
0.951293 0.000000 0.115755
0.980163 0.000000 0.128786
1.000000 0.000000 0.145418
0.093751 0.091310 0.077577
0.093751 0.091310 0.077577
0.094453 0.091218 0.077577
0.095705 0.091066 0.078492
0.099519 0.091005 0.078370
0.107637 0.090730 0.078798
0.119478 0.090181 0.079133
0.132753 0.089448 0.080018
0.147646 0.087373 0.080262
0.165011 0.083833 0.080934
0.185031 0.078492 0.081453
0.208377 0.066865 0.082338
0.236423 0.048493 0.082094
0.268772 0.023285 0.083375
0.306126 0.000000 0.083986
0.347692 0.000000 0.085115
0.392676 0.000000 0.085328
0.440070 0.000000 0.085145
0.488655 0.000000 0.084535
0.537774 0.000000 0.084138
0.586481 0.000000 0.082551
0.632898 0.000000 0.082246
0.676570 0.000000 0.081727
0.718288 0.000000 0.081819
0.764950 0.000000 0.082948
0.808011 0.000000 0.086183
0.847074 0.000000 0.090547
0.882994 0.000000 0.096071
0.916136 0.000000 0.104189
0.947173 0.000000 0.114351
0.976410 0.000000 0.127077
1.000000 0.000000 0.142794
0.094331 0.091218 0.078492
0.094087 0.091676 0.078401
0.094881 0.091585 0.077424
0.096590 0.091798 0.078279
0.100343 0.091737 0.078157
0.109346 0.091768 0.078492
0.120699 0.091615 0.079438
0.133608 0.090547 0.079713
0.148470 0.089540 0.079774
0.165805 0.086305 0.080537
0.185641 0.081727 0.080934
0.209140 0.071748 0.081819
0.236820 0.053620 0.082338
0.269291 0.028199 0.082856
0.306493 0.000000 0.084108
0.347906 0.000000 0.084504
0.392706 0.000000 0.084565
0.439979 0.000000 0.084291
0.488502 0.000000 0.083680
0.537713 0.000000 0.083162
0.586236 0.000000 0.082246
0.632563 0.000000 0.081147
0.675929 0.000000 0.080720
0.717983 0.000000 0.080598
0.763851 0.000000 0.081971
0.806455 0.000000 0.084749
0.845365 0.000000 0.089723
0.881071 0.000000 0.095369
0.914305 0.000000 0.102815
0.945434 0.000000 0.112917
0.974609 0.000000 0.126009
1.000000 0.000000 0.141665
0.094301 0.092500 0.078218
0.094972 0.092409 0.078187
0.095399 0.092775 0.078096
0.097200 0.092958 0.077913
0.102052 0.093996 0.078279
0.111574 0.094697 0.078431
0.123232 0.094484 0.078645
0.136080 0.093843 0.078828
0.151064 0.092287 0.079683
0.168124 0.090578 0.080262
0.188418 0.087343 0.080629
0.211765 0.079591 0.080812
0.239811 0.063569 0.081788
0.272221 0.038697 0.082246
0.309361 0.001770 0.082734
0.350530 0.000000 0.083558
0.394995 0.000000 0.083589
0.441382 0.000000 0.083162
0.489540 0.000000 0.082399
0.537682 0.000000 0.081147
0.585565 0.000000 0.080293
0.631922 0.000000 0.078798
0.675257 0.000000 0.078218
0.718105 0.000000 0.078584
0.763241 0.000000 0.079438
0.805722 0.000000 0.082673
0.844968 0.000000 0.088289
0.880919 0.000000 0.093996
0.914183 0.000000 0.101808
0.945373 0.000000 0.112062
0.974334 0.000000 0.124941
1.000000 0.000000 0.140658
0.095003 0.095186 0.079683
0.095430 0.095521 0.079561
0.095979 0.095857 0.078767
0.098482 0.095949 0.078645
0.104341 0.097200 0.078096
0.114626 0.098878 0.077852
0.126314 0.099733 0.077729
0.139590 0.098970 0.078004
0.154696 0.097810 0.078798
0.171878 0.096071 0.079377
0.192050 0.093599 0.079652
0.216098 0.088960 0.079683
0.244083 0.079896 0.080476
0.277287 0.056214 0.080659
0.314611 0.020874 0.081544
0.356085 0.000000 0.081422
0.400427 0.000000 0.081025
0.446998 0.000000 0.080934
0.494667 0.000000 0.079866
0.542748 0.000000 0.078279
0.590173 0.000000 0.076204
0.635523 0.000000 0.075257
0.678553 0.000000 0.073854
0.722103 0.000000 0.073365
0.766079 0.000000 0.075532
0.808011 0.000000 0.078889
0.846403 0.000000 0.084810
0.882017 0.000000 0.091676
0.914855 0.000000 0.100221
0.945586 0.000000 0.110658
0.974182 0.000000 0.123812
1.000000 0.000000 0.139498
0.096742 0.100282 0.080446
0.096498 0.100649 0.080354
0.097719 0.100893 0.079530
0.100313 0.101686 0.079225
0.105745 0.102510 0.078065
0.115938 0.104097 0.076692
0.129122 0.105989 0.075898
0.145357 0.107057 0.075044
0.160586 0.106233 0.076051
0.178347 0.104738 0.076753
0.199283 0.102358 0.076997
0.224125 0.098817 0.077638
0.253147 0.092866 0.078462
0.286900 0.081514 0.078889
0.324804 0.048981 0.079316
0.366552 0.003174 0.078614
0.410895 0.000000 0.078462
0.457435 0.000000 0.076478
0.505028 0.000000 0.073671
0.552361 0.000000 0.071504
0.599084 0.000000 0.068666
0.643610 0.000000 0.065492
0.705226 0.000000 0.063233
0.752041 0.000000 0.063722
0.797360 0.000000 0.067536
0.837980 0.000000 0.074006
0.874296 0.000000 0.084443
0.907225 0.000000 0.093721
0.937560 0.000000 0.104219
0.965637 0.000000 0.116670
0.991699 0.000000 0.131289
1.000000 0.000000 0.149020
0.099763 0.108217 0.082429
0.099550 0.108583 0.082338
0.100587 0.108797 0.082216
0.103182 0.109529 0.081178
0.107698 0.110658 0.079225
0.117189 0.111482 0.076539
0.131044 0.113466 0.073335
0.148196 0.116335 0.073640
0.168521 0.117830 0.072816
0.191257 0.118135 0.071839
0.214115 0.115816 0.072755
0.241306 0.112947 0.072450
0.272801 0.108034 0.073396
0.308080 0.100679 0.071809
0.346899 0.088472 0.072236
0.388830 0.046906 0.070039
0.433387 0.000000 0.068238
0.479347 0.000000 0.065888
0.526207 0.000000 0.061463
0.572992 0.000000 0.058900
0.619104 0.000000 0.055604
0.663294 0.000000 0.053346
0.707515 0.000000 0.050446
0.755062 0.000000 0.050355
0.799435 0.000000 0.053712
0.839322 0.000000 0.060548
0.874693 0.000000 0.075044
0.906981 0.000000 0.088899
0.936614 0.000000 0.099825
0.964202 0.000000 0.112856
0.989807 0.000000 0.128328
1.000000 0.000000 0.146120
0.103426 0.117098 0.086671
0.103426 0.117098 0.086671
0.104555 0.117311 0.085847
0.106386 0.117983 0.084810
0.110719 0.119020 0.082856
0.118318 0.120272 0.079255
0.129885 0.121492 0.076051
0.147402 0.123568 0.070985
0.168948 0.127413 0.068605
0.193545 0.130373 0.067994
0.225437 0.133486 0.064118
0.255192 0.131930 0.064668
0.287266 0.128664 0.063416
0.323033 0.123507 0.061860
0.362524 0.115145 0.059846
0.404028 0.102174 0.057588
0.447791 0.077943 0.054414
0.493050 0.004456 0.050996
0.538933 0.000000 0.046693
0.584619 0.000000 0.043030
0.629236 0.000000 0.037903
0.671809 0.000000 0.036133
0.717983 0.000000 0.033509
0.762631 0.000000 0.033875
0.805020 0.000000 0.035370
0.842954 0.000000 0.042908
0.877134 0.000000 0.057191
0.908324 0.000000 0.078584
0.937377 0.000000 0.094484
0.964355 0.000000 0.108980
0.989563 0.000000 0.125124
1.000000 0.000000 0.143740
0.108186 0.127321 0.090883
0.108797 0.127291 0.090883
0.109804 0.127474 0.090394
0.111604 0.128084 0.089387
0.115175 0.129091 0.088228
0.121828 0.130220 0.085481
0.131167 0.131777 0.081544
0.145785 0.133028 0.075715
0.166506 0.135988 0.070436
0.193423 0.141604 0.065339
0.224094 0.146365 0.060304
0.262974 0.151919 0.052735
0.306371 0.155001 0.045960
0.342901 0.151492 0.044068
0.382422 0.145846 0.040620
0.423774 0.137392 0.036866
0.466957 0.125002 0.032593
0.511223 0.107271 0.027466
0.555718 0.068513 0.023468
0.599878 0.000000 0.018524
0.642725 0.000000 0.015106
0.686915 0.000000 0.011048
0.730617 0.000000 0.007904
0.772946 0.000000 0.007813
0.812711 0.000000 0.011994
0.848753 0.000000 0.021057
0.881559 0.000000 0.036622
0.911711 0.000000 0.059663
0.939818 0.000000 0.087587
0.965972 0.000000 0.104097
0.990539 0.000000 0.121950
1.000000 0.000000 0.141695
0.113924 0.139223 0.095033
0.114260 0.139437 0.094972
0.115206 0.139590 0.094545
0.117464 0.140108 0.093568
0.120333 0.140993 0.091981
0.125978 0.142306 0.090242
0.134585 0.143709 0.087129
0.147097 0.145266 0.082124
0.164553 0.146609 0.075929
0.189548 0.151034 0.068269
0.222416 0.158999 0.060121
0.259709 0.166018 0.051270
0.305272 0.173739 0.037415
0.358526 0.181521 0.019959
0.404273 0.180789 0.010773
0.445869 0.175051 0.006317
0.488563 0.167025 0.000427
0.532494 0.156283 0.000000
0.575647 0.141878 0.000000
0.618128 0.123018 0.000000
0.661524 0.096529 0.000000
0.703273 0.020905 0.000000
0.743526 0.000000 0.000000
0.782650 0.000000 0.000000
0.819242 0.000000 0.000000
0.853086 0.000000 0.000000
0.884398 0.000000 0.008453
0.913634 0.000000 0.034119
0.941100 0.000000 0.070130
0.966857 0.000000 0.097688
0.990997 0.000000 0.118105
1.000000 0.000000 0.139681
0.119997 0.153262 0.099214
0.119997 0.153262 0.099214
0.121218 0.153567 0.098726
0.122621 0.154269 0.097719
0.126314 0.154971 0.096284
0.130983 0.156374 0.094606
0.139284 0.157992 0.091798
0.150546 0.160006 0.088289
0.166598 0.161837 0.082063
0.187839 0.163455 0.072297
0.218143 0.169772 0.060975
0.257542 0.180362 0.049042
0.301823 0.189914 0.034150
0.353429 0.200229 0.013794
0.411963 0.210086 0.000000
0.470832 0.217014 0.000000
0.512963 0.211246 0.000000
0.555108 0.203586 0.000000
0.597436 0.194461 0.000000
0.640406 0.183902 0.000000
0.680903 0.170901 0.000000
0.719539 0.155520 0.000000
0.757504 0.137484 0.000000
0.794278 0.114931 0.000000
0.828824 0.082856 0.000000
0.860685 0.000000 0.000000
0.890532 0.000000 0.000000
0.918364 0.000000 0.004120
0.944823 0.000000 0.044190
0.969696 0.000000 0.089693
0.993042 0.000000 0.114107
1.000000 0.000000 0.137392
0.126589 0.170199 0.103670
0.126528 0.170199 0.104005
0.127260 0.170504 0.103182
0.129335 0.171237 0.102205
0.132448 0.172213 0.100771
0.137423 0.173709 0.098726
0.145144 0.175296 0.095644
0.156283 0.177310 0.092134
0.171206 0.179629 0.087526
0.191073 0.181918 0.078706
0.216678 0.184115 0.062623
0.252811 0.192660 0.046906
0.309483 0.212467 0.021698
0.362036 0.225345 0.000000
0.420600 0.238071 0.000000
0.483833 0.250431 0.000000
0.548577 0.262150 0.000000
0.600732 0.262699 0.000000
0.643427 0.256657 0.000000
0.683406 0.248661 0.000000
0.721370 0.239963 0.000000
0.757595 0.230167 0.000000
0.792203 0.219516 0.000000
0.824887 0.208408 0.000000
0.855192 0.196689 0.000000
0.883665 0.184726 0.000000
0.909941 0.172488 0.000000
0.934752 0.162631 0.000000
0.958251 0.156191 0.026246
0.980560 0.153201 0.087922
1.000000 0.158053 0.116243
1.000000 0.169039 0.142702
0.133974 0.193515 0.109285
0.134401 0.193484 0.109285
0.135073 0.193729 0.108522
0.137057 0.194339 0.107271
0.140505 0.194980 0.105623
0.145937 0.196170 0.103334
0.153414 0.197910 0.100313
0.164645 0.199832 0.096132
0.179324 0.202396 0.090791
0.198611 0.205112 0.081880
0.222995 0.208194 0.066285
0.254215 0.211704 0.044587
0.298009 0.223239 0.021759
0.352270 0.240330 0.000000
0.412085 0.256962 0.000000
0.476539 0.273289 0.000000
0.543511 0.288914 0.000000
0.609247 0.303258 0.000000
0.665583 0.311162 0.000000
0.702052 0.303838 0.000000
0.736507 0.295232 0.000000
0.770230 0.286656 0.000000
0.802213 0.277653 0.000000
0.832609 0.268376 0.000000
0.861387 0.259220 0.000000
0.888273 0.250217 0.000000
0.913725 0.242344 0.000000
0.937682 0.235019 0.000000
0.960479 0.230564 0.000000
0.982147 0.228702 0.067536
1.000000 0.231174 0.111299
1.000000 0.238376 0.141360
0.141482 0.216861 0.113954
0.141543 0.216861 0.113649
0.142763 0.217166 0.113222
0.144533 0.217441 0.111818
0.147890 0.218235 0.110170
0.153231 0.219394 0.107607
0.161074 0.221042 0.104005
0.171847 0.223148 0.099489
0.186343 0.225681 0.093843
0.205051 0.228550 0.085878
0.228305 0.231907 0.069368
0.257664 0.235752 0.044556
0.294865 0.240970 0.016724
0.345678 0.256107 0.000000
0.407141 0.276890 0.000000
0.470466 0.295476 0.000000
0.534478 0.312261 0.000000
0.597650 0.327794 0.000000
0.658259 0.341680 0.000000
0.714900 0.354345 0.000000
0.751827 0.349950 0.000000
0.783047 0.341192 0.000000
0.813046 0.332647 0.000000
0.841611 0.324041 0.000000
0.868620 0.315587 0.000000
0.894347 0.307561 0.000000
0.918547 0.300298 0.000000
0.941558 0.294224 0.000000
0.963439 0.289860 0.000000
0.984314 0.288121 0.036408
1.000000 0.289586 0.105653
1.000000 0.294713 0.140475
0.149508 0.243626 0.118624
0.149447 0.243748 0.118288
0.150515 0.243809 0.117678
0.152590 0.244205 0.116548
0.156130 0.244877 0.114382
0.161746 0.246098 0.111818
0.169802 0.248020 0.107851
0.180850 0.250462 0.103212
0.195468 0.253422 0.096590
0.214542 0.257023 0.088533
0.237613 0.261021 0.071015
0.266606 0.265476 0.041749
0.300267 0.269841 0.009003
0.341741 0.275120 0.000000
0.396796 0.291905 0.000000
0.459937 0.313573 0.000000
0.523949 0.333104 0.000000
0.585473 0.349950 0.000000
0.644526 0.364843 0.000000
0.700404 0.378576 0.000000
0.753353 0.391272 0.000000
0.795377 0.395209 0.000000
0.823301 0.386114 0.000000
0.850187 0.377264 0.000000
0.875731 0.368627 0.000000
0.900206 0.360815 0.000000
0.923461 0.353765 0.000000
0.945617 0.348119 0.000000
0.966888 0.343999 0.000000
0.987060 0.342443 0.012146
1.000000 0.343694 0.103944
1.000000 0.348211 0.143801
0.159152 0.275822 0.123964
0.158907 0.276005 0.123873
0.160342 0.276188 0.123201
0.162814 0.276616 0.121859
0.166415 0.277592 0.119905
0.172488 0.278935 0.116487
0.181033 0.280705 0.112276
0.192172 0.283299 0.106905
0.207126 0.286229 0.099977
0.225803 0.289860 0.090517
0.248753 0.293492 0.071138
0.276219 0.297520 0.037995
0.308263 0.301518 0.000275
0.344915 0.304997 0.000000
0.387976 0.309270 0.000000
0.445106 0.327001 0.000000
0.508690 0.349004 0.000000
0.570977 0.368475 0.000000
0.629053 0.384924 0.000000
0.684535 0.399786 0.000000
0.737881 0.413977 0.000000
0.787350 0.426886 0.000000
0.832181 0.438117 0.000000
0.858488 0.429664 0.000000
0.883055 0.420996 0.000000
0.906401 0.413062 0.000000
0.928710 0.405951 0.000000
0.950011 0.400214 0.000000
0.970245 0.395789 0.000000
0.989380 0.393378 0.000000
1.000000 0.393561 0.103243
1.000000 0.396399 0.148104
0.169833 0.309148 0.129946
0.169955 0.309300 0.129641
0.170962 0.309483 0.129000
0.173312 0.309972 0.127657
0.177646 0.310887 0.125216
0.183719 0.312108 0.121675
0.192172 0.313817 0.117006
0.203891 0.316045 0.111269
0.218326 0.318883 0.103426
0.236606 0.322026 0.093233
0.258762 0.325628 0.073915
0.285069 0.329381 0.035645
0.315618 0.333165 0.000000
0.350195 0.336645 0.000000
0.389075 0.339696 0.000000
0.433936 0.343175 0.000000
0.491951 0.362097 0.000000
0.554650 0.384161 0.000000
0.614557 0.403601 0.000000
0.669368 0.419623 0.000000
0.722744 0.435248 0.000000
0.773037 0.449561 0.000000
0.818601 0.462043 0.000000
0.860014 0.473152 0.000000
0.889342 0.472145 0.000000
0.911742 0.463813 0.000000
0.933196 0.456275 0.000000
0.953552 0.450141 0.000000
0.972869 0.445380 0.000000
0.991211 0.442420 0.000000
1.000000 0.441779 0.108797
1.000000 0.443915 0.156497
0.182834 0.344610 0.137301
0.182864 0.344732 0.137484
0.189120 0.355932 0.139437
0.191592 0.356451 0.137697
0.195834 0.357122 0.134798
0.202182 0.358251 0.130983
0.210910 0.359747 0.125917
0.222507 0.361578 0.118715
0.237247 0.364202 0.110048
0.255589 0.367071 0.097841
0.277623 0.370306 0.078798
0.303655 0.373785 0.032746
0.333471 0.376989 0.000000
0.366918 0.379889 0.000000
0.403876 0.382330 0.000000
0.444251 0.383978 0.000000
0.489387 0.385870 0.000000
0.547356 0.405249 0.000000
0.606348 0.426032 0.000000
0.662806 0.444739 0.000000
0.715175 0.460883 0.000000
0.764828 0.475868 0.000000
0.810208 0.488838 0.000000
0.851316 0.500206 0.000000
0.888182 0.510460 0.000000
0.918120 0.515221 0.000000
0.937865 0.506706 0.000000
0.956847 0.499306 0.000000
0.974914 0.493507 0.000000
0.992248 0.489906 0.000000
1.000000 0.488350 0.118410
1.000000 0.489204 0.168063
0.199863 0.384222 0.147768
0.200565 0.385351 0.148013
0.202243 0.386816 0.147402
0.205356 0.388281 0.146090
0.209873 0.389746 0.143618
0.215885 0.391058 0.139498
0.224552 0.392401 0.134096
0.235355 0.394110 0.126955
0.249363 0.396277 0.117769
0.266819 0.398810 0.105776
0.287633 0.401740 0.089754
0.311894 0.404974 0.044923
0.339879 0.407935 0.000000
0.371405 0.410742 0.000000
0.406378 0.413306 0.000000
0.444678 0.415320 0.000000
0.484260 0.415534 0.000000
0.530846 0.418128 0.000000
0.588128 0.438392 0.000000
0.644770 0.458991 0.000000
0.699123 0.478004 0.000000
0.749569 0.494606 0.000000
0.795926 0.508873 0.000000
0.837766 0.520989 0.000000
0.875486 0.532006 0.000000
0.909300 0.542138 0.000000
0.939178 0.551995 0.000000
0.957763 0.544823 0.000000
0.975097 0.538537 0.000000
0.991699 0.534020 0.009857
1.000000 0.531579 0.131289
1.000000 0.531701 0.182071
0.216129 0.419257 0.157992
0.217197 0.420478 0.158267
0.219211 0.421973 0.157809
0.221866 0.423590 0.156649
0.226444 0.425055 0.154299
0.232822 0.426368 0.150454
0.240574 0.427649 0.145113
0.250889 0.429175 0.137789
0.264317 0.431098 0.128359
0.280491 0.433387 0.116091
0.299901 0.435950 0.100618
0.323003 0.438849 0.069093
0.349279 0.441718 0.003632
0.379278 0.444526 0.000000
0.412329 0.447120 0.000000
0.448585 0.449348 0.000000
0.487984 0.451026 0.000000
0.527947 0.451026 0.000000
0.573236 0.452247 0.000000
0.628687 0.473060 0.000000
0.682979 0.493355 0.000000
0.734737 0.511894 0.000000
0.781674 0.527520 0.000000
0.824552 0.540795 0.000000
0.863096 0.552453 0.000000
0.897704 0.562982 0.000000
0.928496 0.572992 0.000000
0.955566 0.583093 0.000000
0.974731 0.581750 0.000000
0.990631 0.576562 0.064759
1.000000 0.573327 0.150729
1.000000 0.572473 0.200534
0.235142 0.456123 0.170962
0.236057 0.457374 0.170962
0.237980 0.458686 0.170871
0.241001 0.460090 0.169680
0.245365 0.461585 0.167300
0.251072 0.462806 0.163272
0.258640 0.463966 0.157748
0.268467 0.465400 0.150362
0.280766 0.467079 0.141207
0.296208 0.469215 0.129274
0.314488 0.471534 0.114412
0.336217 0.474067 0.093355
0.360754 0.476844 0.033143
0.388983 0.479438 0.000000
0.420172 0.481910 0.000000
0.454627 0.484352 0.000000
0.492042 0.486580 0.000000
0.532250 0.488655 0.000000
0.573175 0.489021 0.000000
0.617945 0.489937 0.000000
0.672511 0.512016 0.000000
0.724941 0.532464 0.000000
0.772488 0.549371 0.000000
0.816312 0.564172 0.000000
0.855741 0.576867 0.000000
0.890990 0.588220 0.000000
0.922240 0.598718 0.000000
0.949645 0.608881 0.000000
0.973480 0.619440 0.000000
0.991882 0.623346 0.135500
1.000000 0.619654 0.191653
1.000000 0.618189 0.238621
0.261906 0.501396 0.190677
0.262516 0.501823 0.190585
0.263828 0.502342 0.190127
0.266300 0.502922 0.188388
0.269810 0.503502 0.185641
0.274754 0.504173 0.181796
0.282017 0.504997 0.176150
0.290959 0.506188 0.169223
0.302342 0.507561 0.159915
0.316686 0.509483 0.148531
0.333837 0.511803 0.133974
0.354070 0.514153 0.115053
0.377295 0.516503 0.087282
0.403723 0.518944 0.000732
0.433082 0.521294 0.000000
0.465400 0.523552 0.000000
0.500511 0.525597 0.000000
0.538323 0.527459 0.000000
0.578424 0.529229 0.000000
0.618647 0.528557 0.000000
0.661860 0.529107 0.000000
0.713375 0.549889 0.000000
0.760739 0.567254 0.000000
0.803342 0.581476 0.000000
0.843351 0.594598 0.000000
0.879454 0.606592 0.000000
0.911650 0.617517 0.000000
0.939940 0.627955 0.000000
0.964599 0.638392 0.000000
0.985809 0.649195 0.144686
1.000000 0.657130 0.221714
1.000000 0.654810 0.266484
0.286717 0.539239 0.210636
0.287327 0.539666 0.210666
0.288426 0.540215 0.209964
0.290623 0.540734 0.208286
0.293919 0.541314 0.205905
0.298833 0.541894 0.202029
0.304967 0.542718 0.196292
0.313268 0.543786 0.189334
0.323980 0.545251 0.180484
0.337133 0.546960 0.169955
0.352941 0.548943 0.156680
0.371527 0.551202 0.139651
0.393011 0.553491 0.116213
0.417578 0.555779 0.078279
0.445258 0.558190 0.000000
0.475471 0.560510 0.000000
0.508537 0.562799 0.000000
0.544305 0.564904 0.000000
0.582666 0.566827 0.000000
0.622797 0.568750 0.000000
0.662348 0.567529 0.000000
0.704341 0.568231 0.000000
0.751827 0.586542 0.000000
0.794888 0.601587 0.000000
0.830686 0.610651 0.000000
0.867002 0.622705 0.000000
0.900267 0.634119 0.000000
0.929442 0.644800 0.000000
0.955138 0.655268 0.000000
0.977203 0.665858 0.133120
0.995727 0.677150 0.225223
1.000000 0.688319 0.296574
0.317540 0.581872 0.237675
0.318456 0.582605 0.237949
0.319554 0.582971 0.237308
0.321294 0.583185 0.235721
0.323857 0.583246 0.232456
0.327611 0.583246 0.227970
0.332738 0.583337 0.222416
0.339696 0.583673 0.215091
0.348760 0.584222 0.206363
0.360143 0.585229 0.195407
0.373938 0.586358 0.182315
0.390417 0.587884 0.166323
0.409918 0.589593 0.146212
0.432105 0.591333 0.119631
0.457069 0.593011 0.062654
0.484688 0.594690 0.000000
0.515251 0.596429 0.000000
0.548455 0.598352 0.000000
0.584405 0.600336 0.000000
0.622827 0.602472 0.000000
0.662898 0.604517 0.000000
0.701015 0.602258 0.000000
0.740505 0.602075 0.000000
0.783871 0.617609 0.000000
0.822629 0.630121 0.000000
0.857145 0.640314 0.000000
0.889799 0.650904 0.000000
0.919738 0.661524 0.000000
0.945983 0.671748 0.000000
0.968780 0.682002 0.121218
0.988006 0.692744 0.221408
1.000000 0.704189 0.298100
0.344182 0.617609 0.262516
0.345037 0.618311 0.262943
0.346319 0.618830 0.262272
0.348180 0.619196 0.260990
0.350561 0.619562 0.258244
0.354253 0.619959 0.254490
0.359319 0.620539 0.249180
0.366033 0.621363 0.242466
0.374731 0.622492 0.234775
0.385473 0.623804 0.224887
0.398199 0.625330 0.212863
0.413672 0.626947 0.198795
0.431434 0.628656 0.181338
0.451728 0.630365 0.158724
0.474464 0.631861 0.128908
0.499916 0.633417 0.073091
0.528099 0.634913 0.000000
0.559014 0.636469 0.000000
0.592493 0.638209 0.000000
0.628412 0.640040 0.000000
0.666499 0.641840 0.000000
0.705898 0.643427 0.000000
0.741451 0.639246 0.000000
0.778408 0.638209 0.000000
0.817502 0.651392 0.000000
0.852354 0.662013 0.000000
0.883238 0.670680 0.000000
0.912200 0.680110 0.000000
0.938964 0.690394 0.000000
0.962127 0.700374 0.124514
0.981689 0.710628 0.228000
0.997620 0.721431 0.306920
0.376562 0.656245 0.294896
0.377203 0.656489 0.295018
0.377752 0.656794 0.294285
0.379461 0.656977 0.292851
0.381659 0.657221 0.290410
0.384863 0.657527 0.286656
0.389166 0.657984 0.281437
0.394965 0.658595 0.274907
0.402502 0.659419 0.267338
0.412024 0.660548 0.257816
0.423590 0.661738 0.246433
0.437324 0.663203 0.233738
0.453193 0.664759 0.217685
0.471473 0.666194 0.198123
0.492287 0.667536 0.173831
0.515343 0.668849 0.141543
0.541192 0.670161 0.091402
0.569635 0.671595 0.000000
0.600855 0.673121 0.000000
0.634211 0.674739 0.000000
0.669856 0.676326 0.000000
0.707118 0.677760 0.000000
0.745480 0.678889 0.000000
0.777829 0.672602 0.000000
0.811856 0.671046 0.000000
0.847044 0.681880 0.000000
0.878111 0.690669 0.000000
0.905364 0.697841 0.000000
0.930755 0.705928 0.000000
0.954589 0.715846 0.118654
0.974762 0.725795 0.228519
0.991272 0.736172 0.310246
0.408728 0.691035 0.329686
0.409247 0.691249 0.329839
0.410071 0.691524 0.329442
0.411536 0.691859 0.328161
0.413825 0.692287 0.325963
0.417243 0.692958 0.322911
0.421790 0.694087 0.319158
0.428321 0.695491 0.314488
0.435950 0.697322 0.308629
0.445563 0.699306 0.301396
0.456977 0.701534 0.292760
0.470253 0.703822 0.282261
0.485267 0.706020 0.269352
0.502342 0.708034 0.253513
0.521416 0.709895 0.234195
0.542412 0.711391 0.210025
0.565850 0.712612 0.179110
0.591760 0.713954 0.136843
0.620111 0.715328 0.024903
0.650874 0.716793 0.000000
0.683894 0.718135 0.000000
0.718654 0.719295 0.000000
0.754147 0.719966 0.000000
0.789487 0.719173 0.000000
0.819425 0.711879 0.000000
0.850340 0.710109 0.000000
0.880797 0.718349 0.000000
0.907347 0.724941 0.000000
0.930266 0.730373 0.000000
0.951293 0.736904 0.149996
0.971160 0.746273 0.251713
0.987243 0.755947 0.333715
0.452796 0.730983 0.381201
0.452949 0.730983 0.381201
0.453346 0.731014 0.380224
0.454383 0.731106 0.378576
0.456001 0.731289 0.376165
0.458503 0.731533 0.372747
0.462013 0.732021 0.368658
0.466651 0.732662 0.363134
0.472602 0.733547 0.356695
0.480049 0.734646 0.348852
0.489113 0.735836 0.339513
0.499977 0.737209 0.328649
0.512627 0.738613 0.315892
0.527123 0.740017 0.300603
