20 Preset/Journey new/LUT for PR-AE-PS-FCPX/Journey - Lut (8).cube
# Created by Adobe Lightroom plugin Export LUT (1.24.0)
# www.johnrellis.com/lightroom/exportlut.htm
# Preset: 旅拍胶片-素材江湖08
# Color profile: C:\Program Files (x86)\Common Files\Adobe\Color\Profiles\Recommended\VideoHD.icc
LUT_3D_SIZE 5
DOMAIN_MIN 0.000000 0.000000 0.000000
DOMAIN_MAX 0.903226 0.903226 0.903226
0.118593 0.110201 0.100465
0.120424 0.111513 0.101686
0.144442 0.134218 0.122438
0.252018 0.235843 0.217716
0.431830 0.412726 0.392218
0.122530 0.113710 0.103456
0.125673 0.116518 0.106355
0.191714 0.178500 0.163577
0.302831 0.284947 0.264927
0.472663 0.454261 0.434699
0.201450 0.187869 0.172274
0.196170 0.182650 0.167575
0.242863 0.227268 0.209537
0.460700 0.442054 0.422156
0.586206 0.571710 0.556573
0.393591 0.374334 0.353399
0.390204 0.371008 0.350103
0.396063 0.376715 0.355871
0.465949 0.447425 0.427680
0.674342 0.664027 0.653315
0.635035 0.622766 0.610040
0.633478 0.621149 0.608362
0.617914 0.604852 0.591241
0.654658 0.643336 0.631617
0.720150 0.712093 0.703731
0.122225 0.113436 0.103487
0.123232 0.114473 0.104372
0.153262 0.142641 0.130220
0.260929 0.244572 0.225956
0.427649 0.408545 0.388006
0.129549 0.119997 0.109407
0.149874 0.139101 0.126955
0.198428 0.184970 0.169467
0.305180 0.287114 0.267094
0.462684 0.444068 0.424262
0.236118 0.220615 0.203220
0.240757 0.225040 0.207431
0.269841 0.253056 0.234226
0.465705 0.447150 0.427405
0.582605 0.567956 0.552667
0.427649 0.408545 0.388006
0.425086 0.405951 0.385382
0.422370 0.403204 0.382635
0.485115 0.467048 0.447822
0.682155 0.672206 0.661921
0.649256 0.637690 0.625696
0.647456 0.635798 0.623713
0.641840 0.629908 0.617548
0.668879 0.658289 0.647303
0.731533 0.723995 0.716213
0.158511 0.147738 0.134798
0.172061 0.160098 0.146304
0.210513 0.196323 0.180270
0.313176 0.294926 0.274784
0.430976 0.411841 0.391394
0.183505 0.170840 0.156558
0.213199 0.198886 0.182681
0.251560 0.235355 0.217288
0.343481 0.324681 0.303960
0.466896 0.448402 0.428687
0.270512 0.253544 0.234714
0.295415 0.277653 0.257939
0.390875 0.371618 0.350774
0.468177 0.449622 0.429969
0.577813 0.562951 0.547387
0.471717 0.453254 0.433631
0.483223 0.465064 0.445838
0.519066 0.501946 0.483925
0.550439 0.534417 0.517662
0.713161 0.704768 0.696040
0.676936 0.666712 0.656184
0.686488 0.676814 0.666743
0.690394 0.680873 0.671015
0.695613 0.686305 0.676722
0.749722 0.743069 0.736172
0.290196 0.272496 0.252995
0.309361 0.291203 0.271092
0.356634 0.337621 0.316777
0.409979 0.390692 0.369909
0.541375 0.525048 0.507866
0.315373 0.297093 0.276890
0.344182 0.325292 0.304570
0.388556 0.369268 0.348394
0.434455 0.415381 0.394934
0.554070 0.538201 0.521569
0.383337 0.364141 0.343175
0.402808 0.383581 0.362737
0.484321 0.466194 0.446937
0.521904 0.504845 0.486946
0.608331 0.594781 0.580713
0.500053 0.482338 0.463630
0.511223 0.493843 0.475532
0.559197 0.543542 0.527153
0.646357 0.634638 0.622522
0.714931 0.706630 0.697993
0.688289 0.678676 0.668696
0.694636 0.685328 0.675685
0.722072 0.714076 0.705837
0.763882 0.757839 0.751614
0.790494 0.785611 0.780575
0.540032 0.523674 0.506462
0.554833 0.538994 0.522393
0.579126 0.564324 0.548821
0.621271 0.608392 0.594965
0.652583 0.641169 0.629358
0.548089 0.531975 0.515099
0.565576 0.550195 0.534051
0.595087 0.580957 0.566186
0.633783 0.621485 0.608667
0.663539 0.652674 0.641444
0.560937 0.545373 0.529046
0.577691 0.562768 0.547234
0.641321 0.629328 0.616968
0.676875 0.666682 0.656123
0.703914 0.695033 0.685878
0.625849 0.613184 0.600000
0.633204 0.620874 0.608026
0.664363 0.653498 0.642298
0.740352 0.733211 0.725887
0.770962 0.765255 0.759365
0.716823 0.708614 0.700099
0.722713 0.714748 0.706538
0.747555 0.740810 0.733822
0.794095 0.789364 0.784512
0.859464 0.857115 0.854734
