20 Preset/Journey new/LUT for PR-AE-PS-FCPX/Journey - Lut (9).cube
# Created by Adobe Lightroom plugin Export LUT (1.24.0)
# www.johnrellis.com/lightroom/exportlut.htm
# Preset: 旅拍胶片-素材江湖09
# Color profile: C:\Program Files (x86)\Common Files\Adobe\Color\Profiles\Recommended\VideoHD.icc
LUT_3D_SIZE 5
DOMAIN_MIN 0.000000 0.000000 0.000000
DOMAIN_MAX 0.903226 0.903226 0.903226
0.084291 0.084291 0.084291
0.088380 0.088380 0.088380
0.112734 0.112734 0.112734
0.207706 0.207706 0.207706
0.389593 0.389593 0.389593
0.133486 0.133486 0.133486
0.143404 0.143404 0.143404
0.158663 0.158663 0.158663
0.259983 0.259983 0.259983
0.436439 0.436439 0.436439
0.425788 0.425788 0.425788
0.438300 0.438300 0.438300
0.466255 0.466255 0.466255
0.489998 0.489998 0.489998
0.573388 0.573388 0.573388
0.698299 0.698299 0.698299
0.703120 0.703120 0.703120
0.714900 0.714900 0.714900
0.724361 0.724361 0.724361
0.768826 0.768826 0.768826
0.865599 0.865599 0.865599
0.867247 0.867247 0.867247
0.869627 0.869627 0.869627
0.877653 0.877653 0.877653
0.886839 0.886839 0.886839
0.088746 0.088746 0.088746
0.090913 0.090913 0.090913
0.127321 0.127321 0.127321
0.220798 0.220798 0.220798
0.383703 0.383703 0.383703
0.107698 0.107698 0.107698
0.119722 0.119722 0.119722
0.165957 0.165957 0.165957
0.264439 0.264439 0.264439
0.423560 0.423560 0.423560
0.382452 0.382452 0.382452
0.397803 0.397803 0.397803
0.426307 0.426307 0.426307
0.454963 0.454963 0.454963
0.569787 0.569787 0.569787
0.687190 0.687190 0.687190
0.692775 0.692775 0.692775
0.707973 0.707973 0.707973
0.717433 0.717433 0.717433
0.762966 0.762966 0.762966
0.863157 0.863157 0.863157
0.864683 0.864683 0.864683
0.871977 0.871977 0.871977
0.879240 0.879240 0.879240
0.888518 0.888518 0.888518
0.109712 0.109712 0.109712
0.120699 0.120699 0.120699
0.162936 0.162936 0.162936
0.276432 0.276432 0.276432
0.422461 0.422461 0.422461
0.155947 0.155947 0.155947
0.165316 0.165316 0.165316
0.205173 0.205173 0.205173
0.311559 0.311559 0.311559
0.452888 0.452888 0.452888
0.301579 0.301579 0.301579
0.313237 0.313237 0.313237
0.361151 0.361151 0.361151
0.443122 0.443122 0.443122
0.567926 0.567926 0.567926
0.648096 0.648096 0.648096
0.649378 0.649378 0.649378
0.674098 0.674098 0.674098
0.695399 0.695399 0.695399
0.738766 0.738766 0.738766
0.850950 0.850950 0.850950
0.853330 0.853330 0.853330
0.862119 0.862119 0.862119
0.873533 0.873533 0.873533
0.883024 0.883024 0.883024
0.198734 0.198734 0.198734
0.211673 0.211673 0.211673
0.262211 0.262211 0.262211
0.339513 0.339513 0.339513
0.482979 0.482979 0.482979
0.249271 0.249271 0.249271
0.259709 0.259709 0.259709
0.302739 0.302739 0.302739
0.371191 0.371191 0.371191
0.508751 0.508751 0.508751
0.345495 0.345495 0.345495
0.370764 0.370764 0.370764
0.435950 0.435950 0.435950
0.489052 0.489052 0.489052
0.602716 0.602716 0.602716
0.581720 0.581720 0.581720
0.585382 0.585382 0.585382
0.606531 0.606531 0.606531
0.647761 0.647761 0.647761
0.710048 0.710048 0.710048
0.831724 0.831724 0.831724
0.833646 0.833646 0.833646
0.842771 0.842771 0.842771
0.862242 0.862242 0.862242
0.875883 0.875883 0.875883
0.414679 0.414679 0.414679
0.424659 0.424659 0.424659
0.466133 0.466133 0.466133
0.535821 0.535821 0.535821
0.602350 0.602350 0.602350
0.449500 0.449500 0.449500
0.458350 0.458350 0.458350
0.494911 0.494911 0.494911
0.556085 0.556085 0.556085
0.616999 0.616999 0.616999
0.552514 0.552514 0.552514
0.557794 0.557794 0.557794
0.581079 0.581079 0.581079
0.622400 0.622400 0.622400
0.668147 0.668147 0.668147
0.637659 0.637659 0.637659
0.638880 0.638880 0.638880
0.651850 0.651850 0.651850
0.710811 0.710811 0.710811
0.748806 0.748806 0.748806
0.800198 0.800198 0.800198
0.801633 0.801633 0.801633
0.808988 0.808988 0.808988
0.824002 0.824002 0.824002
0.851774 0.851774 0.851774
