20 Preset/Journey new/LUT for PR-AE-PS-FCPX/Journey - Lut (7).cube
# Created by Adobe Lightroom plugin Export LUT (1.24.0)
# www.johnrellis.com/lightroom/exportlut.htm
# Preset: 旅拍胶片-素材江湖07
# Color profile: C:\Program Files (x86)\Common Files\Adobe\Color\Profiles\Recommended\VideoHD.icc
LUT_3D_SIZE 32
DOMAIN_MIN 0.0 0.0 0.0
DOMAIN_MAX 1.0 1.0 1.0
0.087922 0.102815 0.099641
0.089174 0.103059 0.099580
0.092500 0.103090 0.099886
0.098512 0.103548 0.100435
0.108370 0.104158 0.100893
0.118379 0.104921 0.101625
0.130098 0.105287 0.102358
0.142977 0.105867 0.102968
0.158480 0.106050 0.103487
0.176211 0.106264 0.104219
0.197848 0.105928 0.104677
0.223697 0.104372 0.104585
0.253727 0.101442 0.104524
0.288487 0.096162 0.103639
0.326726 0.088563 0.102480
0.368627 0.063050 0.100740
0.412665 0.024781 0.098878
0.458625 0.000000 0.096132
0.506004 0.000000 0.093263
0.553674 0.000000 0.088991
0.601282 0.000000 0.081239
0.647639 0.000000 0.069551
0.692287 0.000000 0.054047
0.736446 0.000000 0.034943
0.780331 0.000000 0.015229
0.826535 0.000000 0.000000
0.873594 0.000000 0.000000
0.916930 0.000000 0.000000
0.957855 0.000000 0.000000
0.996551 0.000000 0.000000
1.000000 0.000000 0.000000
1.000000 0.000000 0.000000
0.088319 0.103151 0.099947
0.089052 0.103059 0.099947
0.092226 0.103487 0.099825
0.098268 0.103914 0.100404
0.108156 0.104524 0.100832
0.118379 0.104921 0.101625
0.129427 0.105715 0.102663
0.142580 0.105959 0.102968
0.157656 0.106538 0.103456
0.175204 0.106844 0.104158
0.196750 0.106538 0.104646
0.222019 0.104891 0.104616
0.251347 0.102754 0.104494
0.285588 0.098024 0.103639
0.323766 0.090120 0.102571
0.365148 0.070436 0.101198
0.409003 0.032746 0.099062
0.454841 0.000000 0.096315
0.501884 0.000000 0.093446
0.549432 0.000000 0.089448
0.596643 0.000000 0.082612
0.642908 0.000000 0.070375
0.687434 0.000000 0.055573
0.731594 0.000000 0.037201
0.775296 0.000000 0.016815
0.821439 0.000000 0.000000
0.867826 0.000000 0.000000
0.910887 0.000000 0.000000
0.951781 0.000000 0.000000
0.990723 0.000000 0.000000
1.000000 0.000000 0.000000
1.000000 0.000000 0.000000
0.089631 0.104738 0.100801
0.090364 0.104677 0.100771
0.091859 0.104524 0.100771
0.099123 0.105165 0.100923
0.108919 0.105776 0.101350
0.119020 0.106172 0.102144
0.130220 0.106569 0.102876
0.143160 0.107179 0.103120
0.158145 0.107759 0.103609
0.176120 0.107637 0.103670
0.197024 0.107485 0.104158
0.222354 0.106142 0.104433
0.251804 0.104005 0.104311
0.285496 0.099977 0.103395
0.323613 0.092714 0.102296
0.364660 0.078859 0.100862
0.408423 0.042054 0.098726
0.454017 0.000000 0.096376
0.501061 0.000000 0.092958
0.548547 0.000000 0.089326
0.595697 0.000000 0.081544
0.641688 0.000000 0.069062
0.686152 0.000000 0.053529
0.730312 0.000000 0.036439
0.773770 0.000000 0.016449
0.819913 0.000000 0.000000
0.865568 0.000000 0.000000
0.908171 0.000000 0.000000
0.948852 0.000000 0.000000
0.987732 0.000000 0.000000
1.000000 0.000000 0.000000
1.000000 0.000000 0.000000
0.092470 0.108095 0.103151
0.093233 0.108034 0.103120
0.094301 0.108248 0.103456
0.099580 0.108064 0.102998
0.108827 0.108736 0.103090
0.119814 0.108705 0.103212
0.131777 0.109316 0.103151
0.144991 0.109499 0.103822
0.160250 0.109651 0.103975
0.177951 0.110140 0.104280
0.199405 0.109804 0.104067
0.224582 0.108797 0.103578
0.254154 0.106844 0.103395
0.287968 0.103059 0.102754
0.325383 0.097139 0.101564
0.366217 0.087465 0.100099
0.409430 0.057496 0.098238
0.454292 0.015106 0.095796
0.500877 0.000000 0.091951
0.547692 0.000000 0.088228
0.594232 0.000000 0.079957
0.640101 0.000000 0.066285
0.684413 0.000000 0.050813
0.728817 0.000000 0.033570
0.772976 0.000000 0.011688
0.820005 0.000000 0.000000
0.865537 0.000000 0.000000
0.908324 0.000000 0.000000
0.949004 0.000000 0.000000
0.987884 0.000000 0.000000
1.000000 0.000000 0.000000
1.000000 0.000000 0.000000
0.096895 0.112673 0.106874
0.096895 0.112673 0.106874
0.098848 0.112490 0.107210
0.101930 0.112520 0.106813
0.107668 0.112551 0.106355
0.118471 0.113191 0.106355
0.131930 0.113008 0.105715
0.145663 0.113130 0.105318
0.161654 0.113741 0.105043
0.180514 0.113649 0.104677
0.201755 0.113588 0.104433
0.227451 0.112978 0.103822
0.257694 0.111360 0.102815
0.291844 0.108431 0.101656
0.329473 0.103517 0.100679
0.370123 0.095705 0.099031
0.413642 0.080476 0.096468
0.458595 0.041993 0.093812
0.505028 0.000000 0.090028
0.551415 0.000000 0.084932
0.597925 0.000000 0.074861
0.643183 0.000000 0.059846
0.687465 0.000000 0.043885
0.731441 0.000000 0.025238
0.775753 0.000000 0.003967
0.823453 0.000000 0.000000
0.867857 0.000000 0.000000
0.910063 0.000000 0.000000
0.950256 0.000000 0.000000
0.988525 0.000000 0.000000
1.000000 0.000000 0.000000
1.000000 0.000000 0.000000
0.101259 0.117586 0.110353
0.101259 0.117586 0.110353
0.102419 0.117464 0.110658
0.104799 0.117556 0.110292
0.109865 0.117342 0.110231
0.116487 0.117525 0.109743
0.129946 0.118532 0.109285
0.145876 0.118624 0.108186
0.163058 0.118746 0.107271
0.182864 0.119295 0.106416
0.206271 0.119234 0.105379
0.233921 0.118776 0.103944
0.264775 0.117922 0.102327
0.299931 0.116121 0.100496
0.338384 0.112154 0.098817
0.379400 0.106172 0.096681
0.422827 0.096742 0.094179
0.467720 0.078706 0.091035
0.513939 0.031220 0.086061
0.560174 0.000000 0.078065
0.606195 0.000000 0.063233
0.650904 0.000000 0.049012
0.718837 0.000000 0.019837
0.761990 0.000000 0.000000
0.807614 0.000000 0.000000
0.856992 0.000000 0.000000
0.901427 0.000000 0.000000
0.942290 0.000000 0.000000
0.980621 0.000000 0.000000
1.000000 0.000000 0.000000
1.000000 0.000000 0.000000
1.000000 0.000000 0.000000
0.105562 0.124636 0.114229
0.106172 0.124575 0.114229
0.107485 0.124178 0.114565
0.109682 0.124239 0.114229
0.113832 0.124392 0.113832
0.120119 0.124575 0.113375
0.129305 0.124361 0.112551
0.146029 0.126497 0.111757
0.165866 0.127474 0.110353
0.190494 0.126986 0.108522
0.215793 0.128084 0.107118
0.245457 0.128542 0.104982
0.279698 0.128389 0.102571
0.318151 0.127199 0.099397
0.359777 0.124147 0.095277
0.401160 0.119539 0.092073
0.444495 0.112367 0.088716
0.489235 0.101717 0.083375
0.534691 0.085573 0.073518
0.580987 0.036500 0.059174
0.627131 0.000000 0.043397
0.672847 0.000000 0.026368
0.717983 0.000000 0.007355
0.762570 0.000000 0.000000
0.813321 0.000000 0.000000
0.860563 0.000000 0.000000
0.903258 0.000000 0.000000
0.942931 0.000000 0.000000
0.980255 0.000000 0.000000
1.000000 0.000000 0.000000
1.000000 0.000000 0.000000
1.000000 0.000000 0.000000
0.110414 0.132357 0.117464
0.110872 0.132296 0.117739
0.111452 0.132265 0.117739
0.114076 0.132265 0.117403
0.117922 0.132418 0.117311
0.123537 0.132631 0.116548
0.131624 0.132998 0.115694
0.142885 0.133150 0.115084
0.163577 0.136416 0.114260
0.187472 0.138308 0.112123
0.217136 0.139162 0.109651
0.250706 0.139467 0.106996
0.285313 0.140352 0.103670
0.323857 0.140780 0.100069
0.365515 0.139803 0.095552
0.409857 0.137148 0.089754
0.456031 0.132509 0.080720
0.500999 0.125429 0.069184
0.545892 0.115877 0.055085
0.591211 0.102022 0.040955
0.636439 0.079255 0.023133
0.681025 0.020905 0.005219
0.725460 0.000000 0.000000
0.773068 0.000000 0.000000
0.822354 0.000000 0.000000
0.866728 0.000000 0.000000
0.907561 0.000000 0.000000
0.945892 0.000000 0.000000
0.982116 0.000000 0.000000
1.000000 0.000000 0.000000
1.000000 0.000000 0.000000
1.000000 0.000000 0.000000
0.115084 0.142611 0.121431
0.115419 0.142824 0.121401
0.116487 0.142733 0.121401
0.119478 0.142702 0.121035
0.122988 0.143069 0.120638
0.128695 0.143191 0.120180
0.136355 0.143557 0.119387
0.146609 0.143984 0.118776
0.160708 0.144442 0.118013
0.185397 0.149325 0.116548
0.215030 0.153048 0.113375
0.250187 0.155642 0.109590
0.291600 0.156008 0.105562
0.332433 0.156710 0.100587
0.374426 0.157626 0.095399
0.418769 0.156954 0.088502
0.465003 0.155093 0.074464
0.512505 0.151400 0.052277
0.559899 0.144930 0.031800
0.606012 0.136080 0.013214
0.650111 0.125429 0.000000
0.693568 0.111849 0.000000
0.739193 0.094514 0.000000
0.787625 0.054170 0.000000
0.833402 0.003937 0.000000
0.875456 0.000000 0.000000
0.914580 0.000000 0.000000
0.951476 0.000000 0.000000
0.986358 0.000000 0.000000
1.000000 0.000000 0.000000
1.000000 0.033448 0.000000
1.000000 0.104005 0.000000
0.120943 0.156222 0.124941
0.121462 0.156191 0.124941
0.122347 0.156313 0.124636
0.124392 0.156558 0.124544
0.128817 0.156588 0.124178
0.134432 0.156863 0.123720
0.141756 0.157565 0.123171
0.152132 0.158053 0.122255
0.165194 0.158724 0.121218
0.182406 0.159609 0.120180
0.212680 0.166445 0.118105
0.247074 0.172305 0.113527
0.288029 0.176394 0.108431
0.334295 0.178164 0.102083
0.384344 0.177218 0.094911
0.429267 0.178683 0.086213
0.475807 0.178500 0.068116
0.523400 0.177401 0.043275
0.571191 0.174380 0.016419
0.618647 0.170016 0.000000
0.664332 0.163180 0.000000
0.711330 0.154665 0.000000
0.756558 0.146151 0.000000
0.800931 0.137148 0.000000
0.842741 0.127779 0.000000
0.882109 0.119997 0.000000
0.919371 0.114076 0.000000
0.955138 0.111940 0.000000
0.989197 0.116091 0.000000
1.000000 0.126833 0.000000
1.000000 0.142550 0.000000
1.000000 0.163272 0.000000
0.126528 0.173190 0.128664
0.126528 0.173190 0.128664
0.127687 0.173434 0.128328
0.130587 0.173556 0.127993
0.134340 0.173953 0.127840
0.140047 0.174685 0.127291
0.148348 0.175326 0.126680
0.159152 0.176150 0.125704
0.172580 0.177279 0.124544
0.189242 0.178317 0.123201
0.210056 0.179660 0.121523
0.246372 0.188785 0.119234
0.286381 0.196536 0.112825
0.332525 0.202335 0.105135
0.383154 0.205539 0.095888
0.437354 0.205203 0.083589
0.488533 0.204379 0.059358
0.535790 0.204715 0.031250
0.582544 0.203861 0.002350
0.630182 0.202090 0.000000
0.678828 0.199069 0.000000
0.725887 0.195102 0.000000
0.771969 0.190158 0.000000
0.815793 0.184482 0.000000
0.855619 0.179263 0.000000
0.892943 0.175448 0.000000
0.928618 0.173709 0.000000
0.962921 0.173922 0.000000
0.995727 0.177340 0.000000
1.000000 0.184390 0.000000
1.000000 0.195560 0.000000
1.000000 0.210605 0.000000
0.131563 0.195285 0.132357
0.131930 0.195254 0.132601
0.133425 0.195468 0.132265
0.136233 0.195834 0.132113
0.140566 0.196536 0.131868
0.147127 0.197086 0.131075
0.156039 0.198245 0.130343
0.166964 0.199435 0.129244
0.181186 0.200748 0.127962
0.198184 0.202457 0.126680
0.218906 0.203983 0.124361
0.244480 0.205966 0.122621
0.298650 0.225040 0.118318
0.346532 0.235294 0.108339
0.398901 0.242466 0.095613
0.454078 0.245975 0.077638
0.510979 0.245884 0.040253
0.571862 0.242496 0.002045
0.623041 0.244022 0.000000
0.672297 0.244205 0.000000
0.719661 0.243198 0.000000
0.765042 0.241489 0.000000
0.808286 0.239017 0.000000
0.849058 0.236606 0.000000
0.887510 0.234165 0.000000
0.923674 0.231998 0.000000
0.956970 0.231052 0.000000
0.987427 0.232456 0.000000
1.000000 0.235752 0.000000
1.000000 0.241459 0.000000
1.000000 0.249973 0.000000
1.000000 0.261570 0.000000
0.137270 0.227665 0.137087
0.137667 0.227634 0.137087
0.138827 0.227695 0.136812
0.142641 0.227726 0.136477
0.147646 0.228122 0.136049
0.155215 0.228458 0.135286
0.164614 0.229557 0.134249
0.177157 0.230686 0.133089
0.192203 0.232517 0.131563
0.210697 0.234409 0.129824
0.233066 0.236881 0.127321
0.259495 0.239750 0.124514
0.291508 0.243229 0.121645
0.341344 0.256748 0.116701
0.396918 0.270848 0.102205
0.455390 0.280613 0.082063
0.514977 0.286137 0.035279
0.575097 0.287083 0.000000
0.634241 0.283696 0.000000
0.686580 0.279911 0.000000
0.730648 0.279271 0.000000
0.773587 0.278325 0.000000
0.814542 0.276799 0.000000
0.853513 0.275181 0.000000
0.890440 0.273594 0.000000
0.925628 0.272435 0.000000
0.959075 0.272190 0.000000
0.990539 0.272740 0.000000
1.000000 0.275212 0.000000
1.000000 0.280583 0.000000
1.000000 0.288243 0.000000
1.000000 0.298528 0.000000
0.141421 0.259464 0.141024
0.141421 0.259464 0.141024
0.143465 0.259373 0.140780
0.146883 0.259464 0.140658
0.152895 0.259739 0.139773
0.161013 0.260075 0.139010
0.171603 0.261082 0.137942
0.184665 0.262425 0.136660
0.200748 0.264286 0.134768
0.219852 0.266697 0.132753
0.243137 0.270726 0.130251
0.271305 0.275456 0.126680
0.304051 0.280278 0.122866
0.342748 0.285649 0.118624
0.399329 0.300999 0.112184
0.457740 0.315282 0.092103
0.515740 0.323827 0.044770
0.573632 0.328038 0.000000
0.631250 0.328191 0.000000
0.686854 0.324163 0.000000
0.740658 0.316777 0.000000
0.782864 0.315526 0.000000
0.822049 0.314702 0.000000
0.859617 0.313756 0.000000
0.895415 0.312810 0.000000
0.929717 0.312566 0.000000
0.962188 0.312627 0.000000
0.992859 0.313603 0.000000
1.000000 0.315709 0.000000
1.000000 0.319615 0.000000
1.000000 0.326329 0.000000
1.000000 0.335698 0.000000
0.144991 0.298039 0.145907
0.145907 0.297917 0.145937
0.147524 0.298009 0.145876
0.152041 0.298070 0.145327
0.158480 0.298405 0.144839
0.167727 0.298924 0.143526
0.179416 0.300145 0.142550
0.193942 0.301915 0.140993
0.211246 0.304234 0.139040
0.232090 0.307713 0.136812
0.256596 0.311711 0.133974
0.285100 0.316564 0.130007
0.317449 0.321752 0.126162
0.355047 0.326635 0.120027
0.397650 0.331640 0.114656
0.455634 0.345586 0.108095
0.514122 0.358831 0.078370
0.570947 0.366186 0.009155
0.627039 0.369268 0.000000
0.681636 0.368597 0.000000
0.734707 0.364691 0.000000
0.786038 0.358129 0.000000
0.829862 0.352789 0.000000
0.865965 0.352178 0.000000
0.900603 0.351812 0.000000
0.933959 0.352026 0.000000
0.965667 0.352697 0.000000
0.995819 0.354406 0.000000
1.000000 0.357092 0.000000
1.000000 0.361517 0.000000
1.000000 0.367712 0.000000
1.000000 0.375463 0.000000
0.150118 0.341772 0.152529
0.150576 0.341894 0.152468
0.153017 0.342046 0.152163
0.157931 0.342077 0.151858
0.165560 0.342565 0.151064
0.175570 0.343389 0.150057
0.188785 0.344793 0.148898
0.204349 0.346777 0.147341
0.223087 0.349645 0.144991
0.244938 0.352911 0.142580
0.270146 0.356420 0.139254
0.298497 0.360571 0.135561
0.330266 0.364904 0.130861
0.365911 0.368872 0.124910
0.405341 0.372564 0.116884
0.449256 0.376104 0.110719
0.507561 0.388067 0.105623
0.564996 0.400336 0.060029
0.619959 0.406561 0.000000
0.674037 0.408972 0.000000
0.726864 0.408789 0.000000
0.778286 0.405798 0.000000
0.826841 0.400122 0.000000
0.872801 0.391974 0.000000
0.907012 0.392035 0.000000
0.939605 0.392828 0.000000
0.970489 0.394354 0.000000
0.999908 0.396399 0.000000
1.000000 0.399237 0.000000
1.000000 0.403693 0.000000
1.000000 0.409277 0.000000
1.000000 0.416388 0.000000
0.156924 0.385046 0.161044
0.158083 0.385168 0.160403
0.160464 0.385382 0.160433
0.165621 0.385412 0.160128
0.173251 0.386053 0.159304
0.184604 0.386816 0.158267
0.197787 0.388159 0.156710
0.214694 0.390051 0.155093
0.233890 0.392493 0.153048
0.255985 0.395575 0.150393
0.281254 0.398901 0.146853
0.309453 0.402777 0.143160
0.340887 0.406714 0.138399
0.375341 0.410712 0.132265
0.413397 0.414282 0.124910
0.454719 0.417334 0.116274
0.500053 0.420264 0.108675
0.557671 0.430488 0.107698
0.614130 0.441871 0.054719
0.667201 0.447517 0.000000
0.719692 0.450416 0.000000
0.770718 0.450507 0.000000
0.818997 0.447913 0.000000
0.864836 0.443214 0.000000
0.908629 0.436805 0.000000
0.944823 0.434302 0.000000
0.974823 0.436072 0.000000
1.000000 0.438544 0.000000
1.000000 0.441871 0.000000
1.000000 0.446265 0.000000
1.000000 0.452033 0.000000
1.000000 0.458930 0.000000
0.168887 0.430213 0.171847
0.169162 0.430365 0.171786
0.178408 0.446876 0.176486
0.183383 0.447181 0.176059
0.191928 0.447608 0.175174
0.203677 0.448127 0.174105
0.217716 0.449256 0.172488
0.235142 0.450660 0.170901
0.255100 0.452766 0.168612
0.278386 0.455451 0.165713
0.304173 0.458564 0.162631
0.333043 0.461860 0.158633
0.363897 0.465156 0.153933
0.398169 0.468086 0.148135
0.434821 0.470741 0.140658
0.474434 0.472969 0.131655
0.516899 0.474556 0.120943
0.562646 0.475685 0.114076
0.617945 0.483101 0.118685
0.671534 0.492805 0.082277
0.722316 0.497627 0.000000
0.771176 0.499672 0.000000
0.817960 0.499153 0.000000
0.862547 0.496529 0.000000
0.904845 0.492073 0.000000
0.944701 0.486061 0.000000
0.980560 0.480354 0.000000
1.000000 0.482155 0.000000
1.000000 0.485176 0.000000
1.000000 0.489479 0.000000
1.000000 0.494820 0.000000
1.000000 0.501366 0.000000
0.187106 0.479622 0.188052
0.188602 0.481178 0.188785
0.191745 0.483040 0.189273
0.198001 0.484688 0.189364
0.206485 0.486275 0.188998
0.217990 0.487343 0.188174
0.231571 0.488350 0.186709
0.248539 0.489509 0.184848
0.267887 0.491279 0.182803
0.289830 0.493538 0.180484
0.314702 0.496315 0.177584
0.342260 0.499397 0.173983
0.371710 0.502281 0.169436
0.404425 0.505211 0.164553
0.439307 0.508049 0.158328
0.476997 0.510491 0.150820
0.517510 0.512749 0.141604
0.560967 0.514672 0.130770
0.607385 0.516075 0.125277
0.661402 0.522972 0.135836
0.713405 0.532647 0.107362
0.761837 0.537865 0.049561
0.808408 0.540185 0.000000
0.852659 0.540185 0.000000
0.894713 0.538323 0.000000
0.934356 0.535058 0.000000
0.971405 0.530449 0.000000
1.000000 0.524895 0.000000
1.000000 0.526177 0.000000
1.000000 0.530266 0.000000
1.000000 0.535637 0.000000
1.000000 0.541955 0.000000
0.207248 0.520256 0.205478
0.208774 0.522026 0.205905
0.212467 0.523919 0.206485
0.217807 0.525750 0.207187
0.226291 0.527398 0.207004
0.237247 0.528496 0.205783
0.249973 0.529503 0.204807
0.265690 0.530632 0.202976
0.284459 0.532097 0.201389
0.305455 0.534020 0.199100
0.329015 0.536400 0.196597
0.355016 0.539208 0.193637
0.383490 0.541894 0.189792
0.414435 0.544793 0.185245
0.447822 0.547478 0.180453
0.483864 0.550134 0.173800
0.522240 0.552453 0.166293
0.563134 0.554528 0.157748
0.607080 0.556756 0.147860
0.652918 0.558282 0.144167
0.704952 0.564080 0.159365
0.753140 0.572564 0.137819
0.799008 0.577752 0.114412
0.842985 0.580591 0.084108
0.884672 0.581353 0.011597
0.923949 0.580377 0.000000
0.960662 0.578058 0.000000
0.994965 0.574884 0.000000
1.000000 0.571191 0.000000
1.000000 0.570947 0.000000
1.000000 0.576135 0.000000
1.000000 0.581994 0.000000
0.232212 0.562066 0.226383
0.234043 0.563500 0.227390
0.237095 0.565270 0.227756
0.243259 0.566888 0.228580
0.250614 0.568444 0.228367
0.260472 0.569512 0.227970
0.272282 0.570306 0.226810
0.286992 0.571405 0.225528
0.304448 0.572839 0.224063
0.324041 0.574640 0.222080
0.346624 0.576684 0.219730
0.371405 0.579126 0.217227
0.398413 0.581720 0.214237
0.427558 0.584253 0.210605
0.459419 0.587060 0.206271
0.493629 0.589899 0.201572
0.530480 0.592828 0.195773
0.569970 0.595850 0.189242
0.612146 0.599145 0.182498
0.656733 0.602594 0.174472
0.702358 0.604913 0.174502
0.751553 0.610101 0.194858
0.796597 0.618036 0.180514
0.840391 0.624048 0.165713
0.881651 0.627985 0.151766
0.920348 0.629938 0.138186
0.956329 0.630243 0.124575
0.989776 0.629480 0.113863
1.000000 0.628290 0.105684
1.000000 0.626429 0.102266
1.000000 0.625147 0.106050
1.000000 0.630396 0.117983
0.272068 0.613001 0.258244
0.272831 0.613672 0.258335
0.275212 0.614313 0.258671
0.279545 0.614771 0.258457
0.285588 0.615229 0.257908
0.293767 0.615564 0.257176
0.304387 0.616114 0.255985
0.317845 0.616999 0.254826
0.333623 0.618189 0.253544
0.352056 0.619837 0.251987
0.372717 0.621790 0.250278
0.396246 0.623957 0.247959
0.421729 0.626276 0.245701
0.449256 0.628595 0.242771
0.479164 0.630915 0.239261
0.511009 0.633448 0.235599
0.545251 0.635767 0.231327
0.581750 0.638300 0.226688
0.620356 0.640864 0.221347
0.661067 0.643427 0.215305
0.703822 0.646021 0.208835
0.746365 0.647211 0.210147
0.790799 0.650690 0.231510
0.831571 0.656916 0.220432
0.871794 0.662501 0.210147
0.909697 0.666560 0.201572
0.945312 0.669093 0.194217
0.978180 0.670649 0.189395
1.000000 0.671321 0.185977
1.000000 0.671290 0.186007
1.000000 0.670497 0.189181
1.000000 0.668635 0.195163
0.308904 0.652796 0.288090
0.309728 0.653315 0.288518
0.312078 0.653773 0.288792
0.315831 0.654292 0.288640
0.321050 0.654780 0.288151
0.328496 0.655146 0.287480
0.338201 0.655604 0.286717
0.349889 0.656336 0.285771
0.364080 0.657404 0.284672
0.380987 0.658839 0.283543
0.400183 0.660487 0.282231
0.421485 0.662409 0.280644
0.445045 0.664454 0.278874
0.470680 0.666651 0.276677
0.498360 0.668849 0.274296
0.528038 0.671199 0.271763
0.560052 0.673671 0.268894
0.593774 0.676112 0.265568
0.629694 0.678676 0.261692
0.667262 0.681300 0.257481
0.706752 0.684047 0.253452
0.747707 0.686763 0.248814
0.787778 0.687953 0.252140
0.828550 0.691096 0.273564
0.861723 0.692103 0.260746
0.898283 0.697383 0.253788
0.933379 0.701961 0.249027
0.965759 0.705379 0.246220
0.995514 0.707790 0.244816
1.000000 0.709468 0.246647
1.000000 0.710353 0.250858
1.000000 0.710384 0.257542
0.357275 0.695430 0.326421
0.359075 0.696040 0.327123
0.360906 0.696437 0.327428
0.363470 0.696498 0.327123
0.367651 0.696315 0.326329
0.372808 0.696071 0.325261
0.380194 0.695796 0.323980
0.389654 0.695735 0.322332
0.401526 0.695857 0.320836
0.415320 0.696376 0.319066
0.431617 0.697078 0.317388
0.450172 0.698207 0.315953
0.470924 0.699428 0.314031
0.493477 0.700801 0.311833
0.517937 0.702174 0.309545
0.544488 0.703761 0.306920
0.572930 0.705440 0.304021
0.603815 0.707454 0.301213
0.636591 0.709895 0.298741
0.671534 0.712612 0.296330
0.707973 0.715480 0.293278
0.745785 0.718379 0.290593
0.784329 0.720912 0.286809
0.821225 0.721767 0.291508
0.857694 0.723659 0.311772
0.890654 0.727474 0.305943
0.923278 0.732052 0.300572
0.954620 0.736538 0.298741
0.983551 0.740078 0.298253
1.000000 0.742977 0.300786
1.000000 0.745052 0.305669
1.000000 0.746273 0.312718
0.397498 0.729641 0.357458
0.398993 0.730220 0.358556
0.401160 0.730465 0.359411
0.404242 0.730159 0.360632
0.408728 0.729580 0.361669
0.413855 0.729854 0.360815
0.421088 0.730129 0.360296
0.429877 0.730648 0.359594
0.440772 0.731350 0.358679
0.453803 0.732326 0.358160
0.468818 0.733333 0.357244
0.485634 0.734615 0.356207
0.504265 0.735927 0.354955
0.524712 0.737270 0.353582
0.546654 0.738491 0.351659
0.570367 0.739773 0.349432
0.596185 0.741207 0.347417
0.623774 0.742947 0.345342
0.653315 0.745083 0.343236
0.684840 0.747463 0.341894
0.718044 0.750027 0.340398
0.752499 0.752682 0.338323
0.787564 0.755276 0.336339
0.823270 0.757687 0.334234
0.856687 0.758297 0.339635
0.889097 0.759884 0.360571
0.918181 0.763088 0.356756
0.946990 0.767239 0.353796
0.974609 0.772030 0.355047
0.999390 0.775814 0.358160
1.000000 0.778683 0.363653
1.000000 0.780606 0.371435
0.445380 0.766201 0.395239
0.446113 0.766476 0.395819
0.447974 0.766384 0.396460
0.450721 0.766079 0.397589
0.454444 0.765255 0.398627
0.459815 0.764187 0.400488
0.466041 0.764004 0.400519
0.473732 0.764309 0.399908
0.482918 0.764797 0.399359
0.494362 0.765560 0.398901
0.507256 0.766415 0.398047
0.522240 0.767483 0.397375
0.538720 0.768643 0.396399
0.556786 0.769741 0.395453
0.576318 0.770871 0.394079
0.597314 0.771939 0.392370
0.620356 0.773220 0.390753
0.644953 0.774655 0.389319
0.671687 0.776455 0.388190
0.699977 0.778561 0.387152
0.729793 0.780850 0.386542
0.760616 0.783169 0.385473
0.792172 0.785428 0.384497
0.824430 0.787533 0.383581
0.856718 0.789487 0.381964
0.886534 0.789761 0.387762
0.914702 0.790738 0.408118
0.940032 0.793027 0.405798
0.964752 0.796323 0.404150
0.988708 0.801053 0.408301
1.000000 0.804685 0.414588
1.000000 0.807370 0.423041
0.491981 0.798550 0.433570
0.492775 0.798703 0.433875
0.494270 0.798703 0.434577
0.496803 0.798520 0.435706
0.500420 0.798123 0.437140
0.506157 0.797604 0.439582
0.513603 0.797177 0.442817
0.522454 0.797391 0.445686
0.532403 0.798886 0.446632
0.544121 0.800595 0.447822
0.557244 0.802487 0.449104
0.571923 0.804349 0.450263
0.587732 0.806210 0.451209
0.604700 0.807919 0.451789
0.622553 0.809415 0.451850
0.641352 0.810636 0.451392
0.661402 0.811795 0.450690
0.682948 0.813016 0.449836
0.706203 0.814511 0.449378
0.730861 0.816190 0.449195
0.756771 0.818051 0.449256
0.783719 0.819852 0.449378
0.811124 0.821592 0.449470
0.839017 0.823209 0.449042
0.867002 0.824735 0.448432
0.894865 0.826169 0.447669
0.919951 0.826108 0.454231
0.942535 0.826261 0.473854
0.963104 0.827481 0.472694
0.982849 0.829404 0.471748
1.000000 0.833188 0.478798
1.000000 0.836057 0.487526
0.554711 0.835019 0.486152
0.554864 0.834989 0.486183
0.555718 0.834775 0.486458
0.557336 0.834470 0.487098
0.560266 0.833890 0.488075
0.564233 0.833158 0.489693
0.569848 0.832303 0.492012
0.576654 0.831296 0.494881
0.584741 0.830411 0.497993
0.593530 0.831113 0.498390
0.603540 0.831907 0.498390
0.614954 0.832883 0.498909
0.627710 0.833860 0.498909
0.641718 0.834836 0.499123
