20 Preset/Journey new/LUT for PR-AE-PS-FCPX/Journey - Lut (5).cube
# Created by Adobe Lightroom plugin Export LUT (1.24.0)
# www.johnrellis.com/lightroom/exportlut.htm
# Preset: 旅拍胶片-素材江湖05
# Color profile: C:\Program Files (x86)\Common Files\Adobe\Color\Profiles\Recommended\VideoHD.icc
LUT_3D_SIZE 5
DOMAIN_MIN 0.000000 0.000000 0.000000
DOMAIN_MAX 0.903226 0.903226 0.903226
0.058839 0.056916 0.040772
0.137697 0.072694 0.045686
0.437812 0.000000 0.014710
0.803891 0.000000 0.000000
0.995453 0.157900 0.000000
0.082612 0.119997 0.062898
0.134646 0.128359 0.045777
0.440589 0.135561 0.000000
0.798947 0.139162 0.000000
0.993439 0.253758 0.000000
0.000000 0.364904 0.063508
0.174075 0.354467 0.097261
0.429694 0.404547 0.000000
0.782650 0.431342 0.000000
0.973846 0.451545 0.000000
0.237552 0.682643 0.244419
0.317876 0.678187 0.257786
0.478614 0.673213 0.254673
0.701137 0.696651 0.000000
0.925780 0.679896 0.000000
0.546044 0.855161 0.578393
0.565637 0.853483 0.584436
0.627497 0.844053 0.599329
0.711055 0.849912 0.542077
0.865446 0.858122 0.309911
0.046143 0.067659 0.129519
0.141207 0.063416 0.121828
0.391485 0.000000 0.113405
0.753353 0.000000 0.120760
0.970397 0.221836 0.127382
0.058686 0.134096 0.119417
0.147433 0.139223 0.125154
0.398322 0.150210 0.127291
0.756466 0.172580 0.115084
0.968170 0.288975 0.127565
0.000000 0.372351 0.160403
0.197208 0.364172 0.171389
0.415900 0.387396 0.094942
0.760342 0.421881 0.027924
0.958251 0.470466 0.144228
0.279240 0.682826 0.316777
0.346807 0.679011 0.327276
0.497322 0.668971 0.344823
0.697078 0.691951 0.108217
0.918395 0.682918 0.119387
0.553582 0.854887 0.605982
0.572107 0.853147 0.610956
0.637751 0.847074 0.633173
0.715755 0.850278 0.590600
0.863645 0.858976 0.393408
0.000000 0.090669 0.469764
0.000000 0.061189 0.454414
0.448188 0.000000 0.400366
0.746426 0.000000 0.380835
0.946410 0.235721 0.363653
0.000000 0.202274 0.432166
0.000000 0.175265 0.423743
0.445686 0.116121 0.390051
0.736110 0.170657 0.376898
0.926543 0.374060 0.402991
0.000000 0.428931 0.393408
0.000000 0.426856 0.391180
0.471443 0.445655 0.415808
0.712123 0.467231 0.409186
0.906188 0.539727 0.450202
0.214511 0.693935 0.457618
0.325475 0.689448 0.469581
0.531395 0.678248 0.522698
0.685176 0.687282 0.451301
0.887633 0.700099 0.482643
0.558740 0.855650 0.679866
0.577813 0.854337 0.683864
0.642695 0.848661 0.698878
0.720119 0.844785 0.699611
0.847227 0.854795 0.570733
0.000000 0.142641 0.806638
0.000000 0.134890 0.802548
0.392737 0.000000 0.785397
0.742306 0.000000 0.743984
0.914733 0.326055 0.694484
0.000000 0.254520 0.791989
0.000000 0.250675 0.788113
0.412696 0.219944 0.772244
0.734066 0.171756 0.732876
0.901305 0.396826 0.694728
0.000000 0.523217 0.759274
0.112642 0.522911 0.754086
0.454108 0.498695 0.740536
0.705013 0.470924 0.709163
0.866880 0.564996 0.699031
0.000000 0.723140 0.723323
0.000000 0.720089 0.720516
0.446387 0.713375 0.715908
0.682795 0.717281 0.725734
0.838590 0.726192 0.716609
0.396307 0.867491 0.734768
0.443458 0.865843 0.739132
0.580621 0.860227 0.757961
0.726864 0.849699 0.794003
0.825895 0.852720 0.747677
0.000000 0.299351 0.941955
0.000000 0.300175 0.940703
0.397864 0.300481 0.936095
0.682643 0.287602 0.927031
0.899504 0.345586 0.908049
0.000000 0.389075 0.936248
0.000000 0.388830 0.935180
0.434913 0.386389 0.930846
0.685878 0.372351 0.922301
0.892332 0.408820 0.904204
0.362402 0.622309 0.918608
0.426337 0.630426 0.916350
0.513634 0.598840 0.914855
0.688197 0.576654 0.907958
0.868193 0.573266 0.893706
0.340673 0.761471 0.904082
0.394141 0.762142 0.903136
0.544366 0.766201 0.900420
0.686183 0.751888 0.895781
0.839078 0.733852 0.884428
0.287938 0.880949 0.888365
0.348119 0.879698 0.887785
0.506920 0.875608 0.886351
0.672175 0.868620 0.883482
0.824216 0.863859 0.883207
