20 Preset/Journey new/LUT for PR-AE-PS-FCPX/Journey - Lut (9).cube
# Created by Adobe Lightroom plugin Export LUT (1.24.0)
# www.johnrellis.com/lightroom/exportlut.htm
# Preset: 旅拍胶片-素材江湖09
# Color profile: C:\Program Files (x86)\Common Files\Adobe\Color\Profiles\Recommended\VideoHD.icc
LUT_3D_SIZE 8
DOMAIN_MIN 0.000000 0.000000 0.000000
DOMAIN_MAX 0.903226 0.903226 0.903226
0.084291 0.084291 0.084291
0.084291 0.084291 0.084291
0.089479 0.089479 0.089479
0.099214 0.099214 0.099214
0.132448 0.132448 0.132448
0.187930 0.187930 0.187930
0.278264 0.278264 0.278264
0.389593 0.389593 0.389593
0.088380 0.088380 0.088380
0.089845 0.089845 0.089845
0.093111 0.093111 0.093111
0.106844 0.106844 0.106844
0.141482 0.141482 0.141482
0.196017 0.196017 0.196017
0.279637 0.279637 0.279637
0.388495 0.388495 0.388495
0.161807 0.161807 0.161807
0.167819 0.167819 0.167819
0.172824 0.172824 0.172824
0.176486 0.176486 0.176486
0.196750 0.196750 0.196750
0.258549 0.258549 0.258549
0.344335 0.344335 0.344335
0.448829 0.448829 0.448829
0.322240 0.322240 0.322240
0.326116 0.326116 0.326116
0.340856 0.340856 0.340856
0.360998 0.360998 0.360998
0.390478 0.390478 0.390478
0.386389 0.386389 0.386389
0.444709 0.444709 0.444709
0.531609 0.531609 0.531609
0.519768 0.519768 0.519768
0.522332 0.522332 0.522332
0.536034 0.536034 0.536034
0.546288 0.546288 0.546288
0.554925 0.554925 0.554925
0.581598 0.581598 0.581598
0.589441 0.589441 0.589441
0.619379 0.619379 0.619379
0.664454 0.664454 0.664454
0.669429 0.669429 0.669429
0.675532 0.675532 0.675532
0.683894 0.683894 0.683894
0.687984 0.687984 0.687984
0.695552 0.695552 0.695552
0.726070 0.726070 0.726070
0.745022 0.745022 0.745022
0.775448 0.775448 0.775448
0.776944 0.776944 0.776944
0.779751 0.779751 0.779751
0.786191 0.786191 0.786191
0.789242 0.789242 0.789242
0.794095 0.794095 0.794095
0.801144 0.801144 0.801144
0.827726 0.827726 0.827726
0.865599 0.865599 0.865599
0.865965 0.865965 0.865965
0.867979 0.867979 0.867979
0.872160 0.872160 0.872160
0.871855 0.871855 0.871855
0.876249 0.876249 0.876249
0.881712 0.881712 0.881712
0.886839 0.886839 0.886839
0.084932 0.084932 0.084932
0.084932 0.084932 0.084932
0.089479 0.089479 0.089479
0.102327 0.102327 0.102327
0.136629 0.136629 0.136629
0.189639 0.189639 0.189639
0.268986 0.268986 0.268986
0.373297 0.373297 0.373297
0.086763 0.086763 0.086763
0.088746 0.088746 0.088746
0.094514 0.094514 0.094514
0.111635 0.111635 0.111635
0.146822 0.146822 0.146822
0.200534 0.200534 0.200534
0.275975 0.275975 0.275975
0.376623 0.376623 0.376623
0.147219 0.147219 0.147219
0.152468 0.152468 0.152468
0.161471 0.161471 0.161471
0.167971 0.167971 0.167971
0.196384 0.196384 0.196384
0.253483 0.253483 0.253483
0.328313 0.328313 0.328313
0.429145 0.429145 0.429145
0.301305 0.301305 0.301305
0.305821 0.305821 0.305821
0.323857 0.323857 0.323857
0.336095 0.336095 0.336095
0.358984 0.358984 0.358984
0.357214 0.357214 0.357214
0.419348 0.419348 0.419348
0.509148 0.509148 0.509148
0.506340 0.506340 0.506340
0.508080 0.508080 0.508080
0.520378 0.520378 0.520378
0.529320 0.529320 0.529320
0.535637 0.535637 0.535637
0.563256 0.563256 0.563256
0.573205 0.573205 0.573205
0.607507 0.607507 0.607507
0.654597 0.654597 0.654597
0.656336 0.656336 0.656336
0.663111 0.663111 0.663111
0.673640 0.673640 0.673640
0.679072 0.679072 0.679072
0.688594 0.688594 0.688594
0.719234 0.719234 0.719234
0.737881 0.737881 0.737881
0.768276 0.768276 0.768276
0.768246 0.768246 0.768246
0.771054 0.771054 0.771054
0.778347 0.778347 0.778347
0.783627 0.783627 0.783627
0.788663 0.788663 0.788663
0.794827 0.794827 0.794827
0.821347 0.821347 0.821347
0.861570 0.861570 0.861570
0.862547 0.862547 0.862547
0.864439 0.864439 0.864439
0.868864 0.868864 0.868864
0.873869 0.873869 0.873869
0.876707 0.876707 0.876707
0.880888 0.880888 0.880888
0.885954 0.885954 0.885954
0.089845 0.089845 0.089845
0.090547 0.090547 0.090547
0.093843 0.093843 0.093843
0.116701 0.116701 0.116701
0.153353 0.153353 0.153353
0.210208 0.210208 0.210208
0.291264 0.291264 0.291264
0.393988 0.393988 0.393988
0.093111 0.093111 0.093111
0.094514 0.094514 0.094514
0.101411 0.101411 0.101411
0.125734 0.125734 0.125734
0.161807 0.161807 0.161807
0.218662 0.218662 0.218662
0.297032 0.297032 0.297032
0.397894 0.397894 0.397894
0.123842 0.123842 0.123842
0.127108 0.127108 0.127108
0.140475 0.140475 0.140475
0.166415 0.166415 0.166415
0.209323 0.209323 0.209323
0.269841 0.269841 0.269841
0.344701 0.344701 0.344701
0.441932 0.441932 0.441932
0.271672 0.271672 0.271672
0.275486 0.275486 0.275486
0.297368 0.297368 0.297368
0.317723 0.317723 0.317723
0.339178 0.339178 0.339178
0.366979 0.366979 0.366979
0.434241 0.434241 0.434241
0.521721 0.521721 0.521721
0.478950 0.478950 0.478950
0.482063 0.482063 0.482063
0.496956 0.496956 0.496956
0.517510 0.517510 0.517510
0.526787 0.526787 0.526787
0.551904 0.551904 0.551904
0.564141 0.564141 0.564141
0.612512 0.612512 0.612512
0.641871 0.641871 0.641871
0.644038 0.644038 0.644038
0.650843 0.650843 0.650843
0.664240 0.664240 0.664240
0.670222 0.670222 0.670222
0.680446 0.680446 0.680446
0.711818 0.711818 0.711818
0.733425 0.733425 0.733425
0.764431 0.764431 0.764431
0.764584 0.764584 0.764584
0.766903 0.766903 0.766903
0.773648 0.773648 0.773648
0.780453 0.780453 0.780453
0.786252 0.786252 0.786252
0.794217 0.794217 0.794217
0.822049 0.822049 0.822049
0.859586 0.859586 0.859586
0.859739 0.859739 0.859739
0.861631 0.861631 0.861631
0.866850 0.866850 0.866850
0.872801 0.872801 0.872801
0.876402 0.876402 0.876402
0.880980 0.880980 0.880980
0.886107 0.886107 0.886107
0.099214 0.099214 0.099214
0.100465 0.100465 0.100465
0.109987 0.109987 0.109987
0.131350 0.131350 0.131350
0.171633 0.171633 0.171633
0.239017 0.239017 0.239017
0.312261 0.312261 0.312261
0.404456 0.404456 0.404456
0.109163 0.109163 0.109163
0.111910 0.111910 0.111910
0.123110 0.123110 0.123110
0.143404 0.143404 0.143404
0.184329 0.184329 0.184329
0.249454 0.249454 0.249454
0.320928 0.320928 0.320928
0.411627 0.411627 0.411627
0.136629 0.136629 0.136629
0.144381 0.144381 0.144381
0.165469 0.165469 0.165469
0.185794 0.185794 0.185794
0.236637 0.236637 0.236637
0.294865 0.294865 0.294865
0.368719 0.368719 0.368719
0.456245 0.456245 0.456245
0.229404 0.229404 0.229404
0.232670 0.232670 0.232670
0.247471 0.247471 0.247471
0.276951 0.276951 0.276951
0.318730 0.318730 0.318730
0.371984 0.371984 0.371984
0.440650 0.440650 0.440650
0.526421 0.526421 0.526421
0.444068 0.444068 0.444068
0.445380 0.445380 0.445380
0.454353 0.454353 0.454353
0.483742 0.483742 0.483742
0.503929 0.503929 0.503929
0.526207 0.526207 0.526207
0.553735 0.553735 0.553735
0.618097 0.618097 0.618097
0.622889 0.622889 0.622889
0.627832 0.627832 0.627832
0.634424 0.634424 0.634424
0.649317 0.649317 0.649317
0.663416 0.663416 0.663416
0.671656 0.671656 0.671656
0.701045 0.701045 0.701045
0.723720 0.723720 0.723720
0.754330 0.754330 0.754330
0.755581 0.755581 0.755581
0.759731 0.759731 0.759731
0.767880 0.767880 0.767880
0.778988 0.778988 0.778988
0.784054 0.784054 0.784054
0.791257 0.791257 0.791257
0.819333 0.819333 0.819333
0.857664 0.857664 0.857664
0.858061 0.858061 0.858061
0.859983 0.859983 0.859983
0.864225 0.864225 0.864225
0.870420 0.870420 0.870420
0.875486 0.875486 0.875486
0.880339 0.880339 0.880339
0.886259 0.886259 0.886259
0.127565 0.127565 0.127565
0.130892 0.130892 0.130892
0.143984 0.143984 0.143984
0.169528 0.169528 0.169528
0.203525 0.203525 0.203525
0.256748 0.256748 0.256748
0.355322 0.355322 0.355322
0.444892 0.444892 0.444892
0.143221 0.143221 0.143221
0.146456 0.146456 0.146456
0.158328 0.158328 0.158328
0.182254 0.182254 0.182254
0.215976 0.215976 0.215976
0.268894 0.268894 0.268894
0.364050 0.364050 0.364050
0.452064 0.452064 0.452064
0.192355 0.192355 0.192355
0.195010 0.195010 0.195010
0.205875 0.205875 0.205875
0.229313 0.229313 0.229313
0.260960 0.260960 0.260960
0.311681 0.311681 0.311681
0.395056 0.395056 0.395056
0.476570 0.476570 0.476570
0.244297 0.244297 0.244297
0.247929 0.247929 0.247929
0.267216 0.267216 0.267216
0.315190 0.315190 0.315190
0.344335 0.344335 0.344335
0.397375 0.397375 0.397375
0.458961 0.458961 0.458961
0.530022 0.530022 0.530022
0.380529 0.380529 0.380529
0.383612 0.383612 0.383612
0.395178 0.395178 0.395178
0.417578 0.417578 0.417578
0.448981 0.448981 0.448981
0.490639 0.490639 0.490639
0.544549 0.544549 0.544549
0.607507 0.607507 0.607507
0.582818 0.582818 0.582818
0.584283 0.584283 0.584283
0.588525 0.588525 0.588525
0.599969 0.599969 0.599969
0.624598 0.624598 0.624598
0.645380 0.645380 0.645380
0.673518 0.673518 0.673518
0.699336 0.699336 0.699336
0.734615 0.734615 0.734615
0.734676 0.734676 0.734676
0.736782 0.736782 0.736782
0.745815 0.745815 0.745815
0.760525 0.760525 0.760525
0.772488 0.772488 0.772488
0.779934 0.779934 0.779934
0.807095 0.807095 0.807095
0.845670 0.845670 0.845670
0.846098 0.846098 0.846098
0.848203 0.848203 0.848203
0.854765 0.854765 0.854765
0.862272 0.862272 0.862272
0.871122 0.871122 0.871122
0.876066 0.876066 0.876066
0.881926 0.881926 0.881926
0.183505 0.183505 0.183505
0.187259 0.187259 0.187259
0.200412 0.200412 0.200412
0.226993 0.226993 0.226993
0.270176 0.270176 0.270176
0.313237 0.313237 0.313237
0.366979 0.366979 0.366979
0.488014 0.488014 0.488014
0.196384 0.196384 0.196384
0.199313 0.199313 0.199313
0.211673 0.211673 0.211673
0.237217 0.237217 0.237217
0.277104 0.277104 0.277104
0.318975 0.318975 0.318975
0.372412 0.372412 0.372412
0.491188 0.491188 0.491188
0.252079 0.252079 0.252079
0.254795 0.254795 0.254795
0.266575 0.266575 0.266575
0.287266 0.287266 0.287266
0.322240 0.322240 0.322240
0.360754 0.360754 0.360754
0.414374 0.414374 0.414374
0.524346 0.524346 0.524346
0.315892 0.315892 0.315892
0.322728 0.322728 0.322728
0.353704 0.353704 0.353704
0.376379 0.376379 0.376379
0.407294 0.407294 0.407294
0.440497 0.440497 0.440497
0.493599 0.493599 0.493599
0.579950 0.579950 0.579950
0.401617 0.401617 0.401617
0.404273 0.404273 0.404273
0.415747 0.415747 0.415747
0.438178 0.438178 0.438178
0.492775 0.492775 0.492775
0.520470 0.520470 0.520470
0.569116 0.569116 0.569116
0.623743 0.623743 0.623743
0.540826 0.540826 0.540826
0.544244 0.544244 0.544244
0.550835 0.550835 0.550835
0.563806 0.563806 0.563806
0.583124 0.583124 0.583124
0.613611 0.613611 0.613611
0.650843 0.650843 0.650843
0.693355 0.693355 0.693355
0.715267 0.715267 0.715267
0.716793 0.716793 0.716793
0.720058 0.720058 0.720058
0.726864 0.726864 0.726864
0.737728 0.737728 0.737728
0.756771 0.756771 0.756771
0.768948 0.768948 0.768948
0.793423 0.793423 0.793423
0.835019 0.835019 0.835019
0.835080 0.835080 0.835080
0.836759 0.836759 0.836759
0.841520 0.841520 0.841520
0.849241 0.849241 0.849241
0.861143 0.861143 0.861143
0.871092 0.871092 0.871092
0.877379 0.877379 0.877379
0.270634 0.270634 0.270634
0.274327 0.274327 0.274327
0.287572 0.287572 0.287572
0.313695 0.313695 0.313695
0.351080 0.351080 0.351080
0.399603 0.399603 0.399603
0.443153 0.443153 0.443153
0.487190 0.487190 0.487190
0.282872 0.282872 0.282872
0.286320 0.286320 0.286320
0.298833 0.298833 0.298833
0.322606 0.322606 0.322606
0.358404 0.358404 0.358404
0.404944 0.404944 0.404944
0.446906 0.446906 0.446906
0.490303 0.490303 0.490303
0.332860 0.332860 0.332860
0.335332 0.335332 0.335332
0.345556 0.345556 0.345556
0.366461 0.366461 0.366461
0.398077 0.398077 0.398077
0.440650 0.440650 0.440650
0.481178 0.481178 0.481178
0.525444 0.525444 0.525444
0.412177 0.412177 0.412177
0.413458 0.413458 0.413458
0.421729 0.421729 0.421729
0.439887 0.439887 0.439887
0.466865 0.466865 0.466865
0.503807 0.503807 0.503807
0.538079 0.538079 0.538079
0.578820 0.578820 0.578820
0.445533 0.445533 0.445533
0.450660 0.450660 0.450660
0.473793 0.473793 0.473793
0.517723 0.517723 0.517723
0.544121 0.544121 0.544121
0.571008 0.571008 0.571008
0.598322 0.598322 0.598322
0.640192 0.640192 0.640192
0.569360 0.569360 0.569360
0.570794 0.570794 0.570794
0.576135 0.576135 0.576135
0.586389 0.586389 0.586389
0.601984 0.601984 0.601984
0.646571 0.646571 0.646571
0.669154 0.669154 0.669154
0.707027 0.707027 0.707027
0.680903 0.680903 0.680903
0.682033 0.682033 0.682033
0.685420 0.685420 0.685420
0.692500 0.692500 0.692500
0.703426 0.703426 0.703426
0.719234 0.719234 0.719234
0.741329 0.741329 0.741329
0.771389 0.771389 0.771389
0.818418 0.818418 0.818418
0.819028 0.819028 0.819028
0.821805 0.821805 0.821805
0.826596 0.826596 0.826596
0.833890 0.833890 0.833890
0.844327 0.844327 0.844327
0.860410 0.860410 0.860410
0.870359 0.870359 0.870359
0.414679 0.414679 0.414679
0.417700 0.417700 0.417700
0.428382 0.428382 0.428382
0.450843 0.450843 0.450843
0.483742 0.483742 0.483742
0.524681 0.524681 0.524681
0.570001 0.570001 0.570001
0.602350 0.602350 0.602350
0.423255 0.423255 0.423255
0.426307 0.426307 0.426307
0.436927 0.436927 0.436927
0.458167 0.458167 0.458167
0.490059 0.490059 0.490059
0.529625 0.529625 0.529625
0.573114 0.573114 0.573114
0.604547 0.604547 0.604547
0.460883 0.460883 0.460883
0.463264 0.463264 0.463264
0.472358 0.472358 0.472358
0.492622 0.492622 0.492622
0.519860 0.519860 0.519860
0.553643 0.553643 0.553643
0.592584 0.592584 0.592584
0.621454 0.621454 0.621454
0.520226 0.520226 0.520226
0.522332 0.522332 0.522332
0.529717 0.529717 0.529717
0.544854 0.544854 0.544854
0.566705 0.566705 0.566705
0.594385 0.594385 0.594385
0.626978 0.626978 0.626978
0.651362 0.651362 0.651362
0.566796 0.566796 0.566796
0.571008 0.571008 0.571008
0.586206 0.586206 0.586206
0.601923 0.601923 0.601923
0.618555 0.618555 0.618555
0.639979 0.639979 0.639979
0.665797 0.665797 0.665797
0.687892 0.687892 0.687892
0.606531 0.606531 0.606531
0.606653 0.606653 0.606653
0.607935 0.607935 0.607935
0.628321 0.628321 0.628321
0.665949 0.665949 0.665949
0.691737 0.691737 0.691737
0.714900 0.714900 0.714900
0.736049 0.736049 0.736049
0.713924 0.713924 0.713924
0.714290 0.714290 0.714290
0.715877 0.715877 0.715877
0.719661 0.719661 0.719661
0.725917 0.725917 0.725917
0.735317 0.735317 0.735317
0.771298 0.771298 0.771298
0.790341 0.790341 0.790341
0.800198 0.800198 0.800198
0.800504 0.800504 0.800504
0.802243 0.802243 0.802243
0.806180 0.806180 0.806180
0.812345 0.812345 0.812345
0.821256 0.821256 0.821256
0.833921 0.833921 0.833921
0.851774 0.851774 0.851774
