20 Preset/Journey new/LUT for PR-AE-PS-FCPX/Journey - Lut (6).cube
# Created by Adobe Lightroom plugin Export LUT (1.24.0)
# www.johnrellis.com/lightroom/exportlut.htm
# Preset: 旅拍胶片-素材江湖06
# Color profile: C:\Program Files (x86)\Common Files\Adobe\Color\Profiles\Recommended\VideoHD.icc
LUT_3D_SIZE 8
DOMAIN_MIN 0.000000 0.000000 0.000000
DOMAIN_MAX 0.903226 0.903226 0.903226
0.030793 0.098421 0.075257
0.028809 0.098482 0.075257
0.091310 0.098726 0.073732
0.255528 0.084138 0.057008
0.475532 0.000000 0.010071
0.687465 0.000000 0.000000
0.884886 0.000000 0.000000
1.000000 0.000000 0.000000
0.031525 0.097993 0.075410
0.029511 0.098085 0.075410
0.094331 0.101350 0.072480
0.251713 0.097292 0.053529
0.467170 0.000000 0.004303
0.676722 0.000000 0.000000
0.871733 0.000000 0.000000
1.000000 0.000000 0.000000
0.020661 0.110170 0.072511
0.030152 0.108888 0.075196
0.082338 0.111299 0.071870
0.260288 0.144045 0.033051
0.487587 0.129549 0.000000
0.696345 0.000000 0.000000
0.894377 0.000000 0.000000
1.000000 0.000000 0.000000
0.000000 0.209110 0.077302
0.000000 0.205081 0.084901
0.081636 0.200687 0.092958
0.202640 0.210391 0.071717
0.451484 0.270817 0.000000
0.723079 0.285801 0.000000
0.906950 0.279332 0.000000
1.000000 0.293339 0.000000
0.000000 0.366308 0.116365
0.000000 0.363287 0.122621
0.000000 0.352697 0.146731
0.213382 0.356847 0.139803
0.359533 0.360143 0.112947
0.595636 0.413001 0.060822
0.862669 0.466590 0.000000
1.000000 0.486519 0.000000
0.000000 0.526116 0.186069
0.000000 0.528008 0.193118
0.000000 0.519188 0.211948
0.250492 0.508995 0.229099
0.372747 0.510918 0.208804
0.518029 0.511864 0.178775
0.742214 0.568841 0.169436
0.957641 0.637232 0.178653
0.000000 0.696773 0.275456
0.000000 0.696223 0.279911
0.151583 0.688899 0.294224
0.314733 0.675532 0.322148
0.421454 0.670863 0.315129
0.542992 0.672023 0.291051
0.684108 0.671992 0.258762
0.863584 0.710292 0.272038
0.290929 0.843931 0.413611
0.307195 0.842985 0.416327
0.366583 0.839414 0.428809
0.454749 0.832761 0.454505
0.529381 0.817563 0.463996
0.620539 0.819425 0.448798
0.728328 0.820310 0.427832
0.843076 0.818112 0.398169
0.031525 0.097993 0.075410
0.029511 0.098085 0.075410
0.095552 0.094759 0.077302
0.234623 0.073487 0.066712
0.447669 0.000000 0.034516
0.658717 0.000000 0.000000
0.854582 0.000000 0.000000
1.000000 0.000000 0.000000
0.028809 0.098482 0.075257
0.030793 0.098421 0.075257
0.097414 0.099184 0.075471
0.241367 0.090059 0.064088
0.450416 0.000000 0.030213
0.658778 0.000000 0.000000
0.849851 0.000000 0.000000
1.000000 0.000000 0.000000
0.011322 0.117678 0.082338
0.030152 0.116182 0.085420
0.093385 0.116823 0.084962
0.265995 0.142336 0.062226
0.472908 0.125490 0.007813
0.675929 0.000000 0.000000
0.863432 0.000000 0.000000
1.000000 0.000000 0.000000
0.000000 0.215793 0.096407
0.000000 0.212497 0.100771
0.094240 0.206058 0.111604
0.205692 0.213321 0.098909
0.438849 0.265690 0.049958
0.690181 0.278111 0.000000
0.876677 0.271366 0.000000
1.000000 0.287999 0.000000
0.000000 0.370947 0.136904
0.000000 0.367468 0.141756
0.039673 0.355718 0.161685
0.219059 0.354498 0.158785
0.354681 0.355383 0.134798
0.585290 0.407996 0.114351
0.850919 0.461707 0.060334
1.000000 0.482460 0.000000
0.000000 0.523583 0.199008
0.000000 0.521904 0.203525
0.042939 0.513512 0.220676
0.256931 0.503166 0.240665
0.372961 0.506401 0.222324
0.515740 0.509361 0.195834
0.737636 0.566766 0.190463
0.953033 0.634852 0.201938
0.000000 0.691463 0.281498
0.000000 0.688685 0.283909
0.151614 0.681178 0.297124
0.313420 0.668818 0.324712
0.421363 0.665705 0.322942
0.539788 0.666957 0.299504
0.677180 0.665461 0.266850
0.857145 0.704463 0.277989
0.282231 0.840482 0.413397
0.301946 0.840330 0.417700
0.361456 0.836606 0.429633
0.450538 0.830076 0.454902
0.541161 0.821500 0.480537
0.625483 0.820951 0.460914
0.728511 0.820005 0.436378
0.842283 0.817685 0.405127
0.000000 0.098909 0.140047
0.014282 0.097536 0.139315
0.115938 0.093904 0.136110
0.248478 0.056672 0.153475
0.471229 0.000000 0.129580
0.655512 0.000000 0.130861
0.838834 0.000000 0.138033
1.000000 0.000000 0.137392
0.000000 0.108614 0.139864
0.001709 0.103792 0.139773
0.117342 0.101167 0.137362
0.255131 0.079377 0.151003
0.462196 0.000000 0.126375
0.644495 0.000000 0.136263
0.834257 0.000000 0.137881
0.997436 0.000000 0.136049
0.000000 0.149783 0.144686
0.000000 0.149752 0.145205
0.131502 0.150210 0.149844
0.279698 0.152987 0.147372
0.463600 0.148226 0.148836
0.660914 0.130037 0.150362
0.846006 0.110109 0.148501
1.000000 0.155276 0.145876
0.000000 0.263615 0.158297
0.000000 0.262669 0.163821
0.141634 0.253239 0.179110
0.247227 0.253544 0.178012
0.476539 0.302434 0.185611
0.685328 0.314000 0.179812
0.863798 0.321080 0.171786
1.000000 0.344182 0.168093
0.000000 0.405097 0.204501
0.000000 0.402411 0.207889
0.152560 0.391913 0.222629
0.268193 0.382483 0.235111
0.385138 0.383581 0.216464
0.608148 0.438056 0.219333
0.857664 0.491005 0.229435
0.996918 0.509636 0.217594
0.000000 0.545098 0.257511
0.000000 0.543694 0.260960
0.173953 0.535515 0.274174
0.304631 0.519677 0.298955
0.400610 0.520165 0.285771
0.529961 0.522789 0.264042
0.747311 0.584405 0.271336
0.953674 0.652155 0.300145
0.000000 0.706935 0.332738
0.035584 0.704463 0.334630
0.226444 0.696376 0.344701
0.350561 0.683406 0.367315
0.450568 0.674617 0.376257
0.557427 0.676509 0.354955
0.688716 0.676844 0.326940
0.864927 0.719326 0.345769
0.319585 0.845487 0.449531
0.332647 0.844236 0.451087
0.386053 0.840543 0.461830
0.472023 0.834989 0.486763
0.561517 0.824155 0.519677
0.639643 0.824399 0.503197
0.736233 0.823850 0.479835
0.844999 0.821469 0.449073
0.000000 0.114565 0.301244
0.000000 0.114046 0.300847
0.119020 0.110170 0.293339
0.282658 0.091798 0.285832
0.450690 0.116579 0.299718
0.659693 0.000000 0.303197
0.855375 0.000000 0.262913
0.993622 0.000000 0.263828
0.000000 0.143282 0.300999
0.000000 0.134493 0.300145
0.130251 0.130770 0.293858
0.287297 0.118776 0.287205
0.453162 0.152346 0.303258
0.661006 0.000000 0.301061
0.850645 0.000000 0.260410
0.988586 0.000000 0.269047
0.000000 0.215732 0.297612
0.000000 0.216007 0.296849
0.147158 0.203311 0.294011
0.295506 0.198489 0.288273
0.459998 0.237064 0.310643
0.672786 0.158541 0.290135
0.840970 0.164828 0.283207
0.977325 0.262181 0.293156
0.000000 0.328923 0.297704
0.000000 0.327581 0.297368
0.110231 0.324529 0.297185
0.314946 0.321874 0.302434
0.480446 0.328618 0.298833
0.652461 0.342168 0.302129
0.828641 0.361547 0.307927
0.978943 0.393652 0.314519
0.000000 0.460304 0.296147
0.000000 0.458137 0.298528
0.179446 0.451759 0.311559
0.338201 0.438117 0.335424
0.433967 0.432319 0.329808
0.650172 0.488655 0.349889
0.844572 0.521416 0.357916
0.980377 0.542992 0.356725
0.020935 0.589624 0.351263
0.146120 0.591424 0.357488
0.246769 0.584344 0.361120
0.365576 0.569177 0.380346
0.455512 0.556909 0.388983
0.561822 0.555474 0.366644
0.770260 0.620508 0.388647
0.955200 0.682399 0.434028
0.175814 0.732448 0.410437
0.208194 0.731441 0.413153
0.297673 0.725978 0.422736
0.404456 0.714870 0.441566
0.503899 0.697566 0.468116
0.589868 0.697322 0.446693
0.705409 0.695247 0.419043
0.874632 0.740810 0.445533
0.373541 0.857359 0.514366
0.385321 0.856443 0.516167
0.431891 0.852781 0.524956
0.506706 0.845945 0.543694
0.590417 0.835264 0.571252
0.663142 0.830198 0.573236
0.747860 0.829831 0.550896
0.849027 0.828214 0.522301
0.000000 0.185672 0.481147
0.000000 0.186740 0.480659
0.067536 0.188235 0.473243
0.308232 0.183993 0.463050
0.475288 0.178195 0.454780
0.637537 0.230564 0.463416
0.807279 0.291814 0.493690
0.980346 0.219516 0.472328
0.000000 0.221500 0.479622
0.000000 0.214328 0.480018
0.120638 0.213993 0.474891
0.314824 0.207309 0.462989
0.476387 0.201511 0.454170
0.636866 0.252110 0.464210
0.807828 0.302739 0.492927
0.980255 0.234318 0.470008
0.000000 0.308232 0.476997
0.000000 0.307134 0.476112
0.170962 0.286412 0.471138
0.328252 0.277104 0.458778
0.475502 0.271397 0.448341
0.627405 0.319341 0.462409
0.808072 0.335454 0.483772
0.978393 0.276799 0.454688
0.000000 0.397467 0.469673
0.000000 0.396948 0.468696
0.202945 0.396735 0.466041
0.342840 0.380682 0.460456
0.481605 0.373236 0.450019
0.626978 0.424231 0.475532
0.821805 0.388067 0.462104
0.971954 0.374548 0.435431
0.000000 0.510491 0.458656
0.000000 0.509911 0.458625
0.027588 0.506065 0.457191
0.324346 0.499428 0.456153
0.487953 0.490822 0.457343
0.643305 0.498939 0.453986
0.808469 0.518456 0.458686
0.950561 0.547875 0.467750
0.000000 0.626459 0.437812
0.000000 0.625391 0.439368
0.136812 0.619013 0.443580
0.357214 0.608850 0.457313
0.497658 0.592248 0.481758
0.591272 0.589441 0.477272
0.797177 0.658595 0.516930
0.943847 0.696529 0.543511
0.089082 0.759731 0.494057
0.156252 0.757961 0.494850
0.285863 0.752377 0.501183
0.426825 0.744442 0.520806
0.533715 0.728664 0.539574
0.618677 0.716030 0.545769
0.718441 0.712428 0.517632
0.882139 0.762112 0.554467
0.389868 0.866423 0.582208
0.408331 0.865385 0.585840
0.443946 0.862425 0.587091
0.519463 0.857603 0.601160
0.607965 0.847349 0.624384
0.687160 0.835294 0.650263
0.756771 0.834684 0.628748
0.848020 0.832334 0.600366
0.000000 0.306279 0.670924
0.000000 0.306950 0.671015
0.119936 0.306371 0.663233
0.338689 0.303990 0.651942
0.496407 0.292515 0.633906
0.650446 0.294804 0.623957
0.796597 0.355993 0.633631
0.922301 0.477913 0.676295
0.000000 0.325811 0.659174
0.000000 0.319982 0.658167
0.142123 0.317815 0.652064
0.337865 0.313817 0.641352
0.492164 0.302983 0.625605
0.644892 0.305547 0.617670
0.790982 0.365606 0.629236
0.918395 0.484230 0.673701
0.092592 0.409522 0.658015
0.147372 0.407324 0.656489
0.210361 0.381781 0.652552
0.358679 0.372015 0.639002
0.500694 0.359838 0.623499
0.645350 0.360998 0.615656
0.788235 0.420325 0.631952
0.912963 0.528466 0.679866
0.126406 0.494453 0.654139
0.174472 0.492683 0.652094
0.287541 0.488472 0.647150
0.387335 0.466987 0.643275
0.518212 0.455024 0.630121
0.651606 0.451789 0.620203
0.788968 0.509514 0.643336
0.919615 0.571099 0.680385
0.000000 0.576013 0.637720
0.000000 0.575463 0.637049
0.248417 0.573785 0.634760
0.394446 0.571344 0.632044
0.514824 0.550530 0.624567
0.642786 0.540093 0.612146
0.779751 0.599237 0.647456
0.934844 0.586847 0.642634
0.000000 0.679072 0.623529
0.000000 0.679774 0.624567
0.011048 0.676173 0.622919
0.326177 0.669825 0.620417
0.485695 0.660182 0.617212
0.643488 0.651179 0.618677
0.796933 0.666529 0.622614
0.923827 0.690364 0.632898
0.000000 0.798642 0.613306
0.000000 0.798581 0.614649
0.056519 0.795102 0.616358
0.355322 0.787869 0.621088
0.529778 0.775601 0.633356
0.664454 0.756100 0.656733
0.744045 0.745998 0.642878
0.896574 0.798917 0.692470
0.300694 0.884794 0.654444
0.318303 0.883848 0.654719
0.389044 0.880735 0.658900
0.497688 0.875120 0.670649
0.625910 0.865049 0.696498
0.709163 0.852598 0.713497
0.774807 0.844480 0.719570
0.850431 0.841733 0.694179
0.053071 0.431037 0.807431
0.141634 0.431067 0.807462
0.269078 0.430426 0.804227
0.402838 0.429236 0.798672
0.536828 0.423133 0.789334
0.667964 0.411322 0.776150
0.798795 0.426093 0.770901
0.904631 0.490913 0.771633
0.145510 0.445502 0.802823
0.168521 0.442237 0.803250
0.276951 0.440436 0.800351
0.403723 0.437263 0.794339
0.534752 0.430030 0.784939
0.663691 0.416876 0.771267
0.793240 0.429450 0.765408
0.899748 0.492226 0.766690
0.278386 0.512169 0.799741
0.286473 0.507958 0.799435
0.316045 0.488685 0.797604
0.423438 0.482734 0.791897
0.543664 0.473304 0.782376
0.666743 0.459571 0.769711
0.793423 0.470985 0.765743
0.898650 0.535424 0.771115
0.320897 0.587854 0.797574
0.336278 0.586419 0.796384
0.395056 0.582910 0.793088
0.448341 0.556664 0.790219
0.556634 0.545495 0.781643
0.672480 0.531579 0.770474
0.792782 0.538170 0.766262
0.893553 0.601373 0.775875
0.301854 0.660426 0.790738
0.318547 0.659480 0.789731
0.382361 0.658228 0.787778
0.475196 0.652277 0.784512
0.560540 0.627558 0.778622
0.669581 0.611353 0.767483
0.784878 0.610193 0.761318
0.887144 0.675746 0.781582
0.233158 0.736660 0.782132
0.257145 0.736416 0.782040
0.336553 0.734829 0.781460
0.445472 0.731685 0.780331
0.565332 0.727016 0.778378
0.672236 0.708858 0.773373
0.782040 0.699794 0.763912
0.881102 0.758267 0.793515
0.000000 0.825467 0.776364
0.000000 0.825345 0.776699
0.239963 0.823056 0.775845
0.386603 0.818662 0.774655
0.522667 0.811093 0.772244
0.653681 0.800748 0.769070
0.778103 0.788479 0.765805
0.891234 0.802152 0.772427
0.201450 0.900389 0.757748
0.233494 0.900084 0.758297
0.331731 0.898924 0.761257
0.451972 0.895354 0.765255
0.581537 0.887907 0.771145
0.706142 0.877348 0.782040
0.803830 0.863462 0.801175
0.858366 0.857359 0.790799
0.442023 0.591913 0.893370
0.450385 0.591577 0.893309
0.484688 0.589990 0.891905
0.547784 0.588891 0.889891
0.629053 0.585931 0.886534
0.719692 0.579828 0.881712
0.813321 0.571801 0.875700
0.902708 0.598566 0.872801
0.450080 0.600641 0.891630
0.454994 0.598596 0.891783
0.487587 0.596490 0.890684
0.549004 0.594690 0.888579
0.628962 0.591058 0.885283
0.718837 0.584680 0.880522
0.811612 0.575616 0.874418
0.900999 0.600793 0.871427
0.491676 0.642542 0.887999
0.494911 0.639826 0.888029
0.506340 0.627527 0.887907
0.563287 0.626032 0.886564
0.636500 0.620447 0.883238
0.720943 0.611810 0.878508
0.810544 0.601709 0.872740
0.898070 0.623407 0.870176
0.528252 0.697230 0.884031
0.537041 0.697810 0.883879
0.563561 0.695918 0.882902
0.582238 0.675135 0.883330
0.647761 0.668727 0.880644
0.725643 0.659785 0.876585
0.809903 0.648371 0.871397
0.894041 0.664302 0.869200
0.522850 0.745876 0.881895
0.530571 0.745846 0.881895
0.557427 0.743801 0.881163
0.614130 0.743557 0.879393
0.656886 0.725429 0.878202
0.727596 0.715145 0.874571
0.807095 0.703273 0.869841
0.888670 0.713954 0.868193
0.513207 0.798093 0.878660
0.519707 0.797726 0.878447
0.548455 0.796719 0.877867
0.602167 0.796078 0.877287
0.670588 0.793393 0.876493
0.735103 0.780606 0.874968
0.808225 0.770962 0.871061
0.883360 0.773068 0.868406
0.502495 0.854124 0.876799
0.509789 0.853819 0.876768
0.540002 0.852689 0.876493
0.594995 0.850828 0.876310
0.666133 0.847929 0.875761
0.745022 0.844846 0.874998
0.811490 0.834318 0.872343
0.877317 0.828000 0.867369
0.480537 0.908995 0.874205
0.487648 0.908659 0.874083
0.519005 0.907225 0.873930
0.575982 0.904631 0.873899
0.649348 0.900450 0.873655
0.729641 0.894835 0.873075
0.808286 0.888212 0.872160
0.876799 0.880644 0.870054
