20 Preset/Journey new/LUT for PR-AE-PS-FCPX/Journey - Lut (4).cube
# Created by Adobe Lightroom plugin Export LUT (1.24.0)
# www.johnrellis.com/lightroom/exportlut.htm
# Preset: 旅拍胶片-素材江湖04
# Color profile: C:\Program Files (x86)\Common Files\Adobe\Color\Profiles\Recommended\VideoHD.icc
LUT_3D_SIZE 8
DOMAIN_MIN 0.000000 0.000000 0.000000
DOMAIN_MAX 0.903226 0.903226 0.903226
0.000000 0.000000 0.000000
0.030640 0.001007 0.000397
0.153475 0.010315 0.000000
0.300420 0.000000 0.000000
0.521813 0.000000 0.000000
0.742733 0.000000 0.000000
0.911894 0.000000 0.000000
1.000000 0.000000 0.000000
0.013947 0.024079 0.002106
0.058656 0.033692 0.000000
0.154116 0.055818 0.000000
0.297917 0.000000 0.000000
0.514580 0.000000 0.000000
0.735958 0.000000 0.000000
0.898924 0.000000 0.000000
1.000000 0.000000 0.000000
0.098482 0.122042 0.027222
0.108766 0.123598 0.026825
0.168429 0.140597 0.000610
0.315740 0.147616 0.000000
0.539574 0.126772 0.000000
0.756435 0.088319 0.000000
0.910674 0.130220 0.000000
1.000000 0.202914 0.000000
0.148653 0.241245 0.053315
0.160098 0.239811 0.055238
0.208042 0.259068 0.009552
0.346990 0.303899 0.000000
0.557275 0.331548 0.000000
0.762173 0.366430 0.000000
0.906676 0.389746 0.000000
0.997650 0.403021 0.000000
0.231907 0.411444 0.102144
0.243748 0.410163 0.103700
0.288853 0.418585 0.091005
0.388159 0.453101 0.000000
0.550713 0.496712 0.000000
0.720638 0.510063 0.000000
0.868986 0.536919 0.000000
0.972473 0.552087 0.000000
0.356664 0.580652 0.199954
0.369604 0.584253 0.205478
0.403326 0.583154 0.209323
0.471138 0.603571 0.178317
0.577417 0.630793 0.102235
0.716426 0.662715 0.000000
0.841794 0.660609 0.000000
0.941985 0.671870 0.000000
0.503716 0.724666 0.366918
0.509911 0.725093 0.369329
0.530205 0.723323 0.372595
0.569909 0.730037 0.364782
0.633478 0.743618 0.339361
0.722316 0.760861 0.303716
0.828244 0.778134 0.248875
0.911223 0.762570 0.238743
0.647486 0.825956 0.576959
0.650141 0.825772 0.577569
0.661738 0.825376 0.581231
0.684047 0.826749 0.585626
0.710689 0.829129 0.561425
0.760739 0.837644 0.549523
0.822965 0.845975 0.531182
0.893278 0.852384 0.499153
0.000000 0.003113 0.023346
0.046906 0.000000 0.024292
0.148989 0.000000 0.020935
0.279210 0.000000 0.023072
0.494148 0.000000 0.002045
0.719966 0.000000 0.000000
0.888762 0.000000 0.000000
1.000000 0.000000 0.000000
0.010925 0.038331 0.021668
0.064942 0.042206 0.024598
0.150973 0.054444 0.027680
0.284916 0.004395 0.024048
0.496864 0.000000 0.000000
0.719814 0.000000 0.000000
0.883207 0.000000 0.000000
0.996521 0.000000 0.000000
0.107057 0.126986 0.056611
0.116793 0.126833 0.059388
0.167727 0.140658 0.037873
0.307988 0.149813 0.015534
0.520134 0.133425 0.000000
0.732021 0.095216 0.000000
0.887480 0.120180 0.000000
0.997192 0.191989 0.000000
0.155184 0.240208 0.089235
0.166079 0.239475 0.090394
0.209842 0.253361 0.070039
0.331670 0.289952 0.000000
0.527123 0.313176 0.000000
0.733516 0.348028 0.000000
0.884642 0.373327 0.000000
0.986145 0.391791 0.000000
0.237339 0.409918 0.126101
0.248112 0.408118 0.127108
0.289982 0.410895 0.123537
0.380468 0.441535 0.018860
0.535393 0.481910 0.000000
0.706447 0.498878 0.000000
0.858885 0.529473 0.000000
0.965972 0.547784 0.000000
0.355352 0.575067 0.213230
0.364172 0.574914 0.214755
0.397955 0.573388 0.219944
0.464393 0.593652 0.196811
0.570092 0.622583 0.140688
0.710292 0.657160 0.000000
0.836606 0.656947 0.000000
0.937926 0.669368 0.060945
0.498848 0.719356 0.369451
0.502861 0.718105 0.368566
0.522850 0.716213 0.371099
0.563378 0.722530 0.367254
0.628473 0.738430 0.346532
0.717250 0.756313 0.312871
0.822812 0.773373 0.258610
0.907103 0.758541 0.247990
0.642695 0.823117 0.573968
0.646387 0.823484 0.576410
0.657832 0.823026 0.579675
0.680476 0.823941 0.585382
0.714443 0.830838 0.576989
0.761349 0.838041 0.560876
0.821836 0.845457 0.538964
0.892149 0.851926 0.505699
0.000000 0.018921 0.129122
0.029450 0.005829 0.129458
0.148714 0.000000 0.127871
0.285222 0.000000 0.103426
0.481849 0.000000 0.112337
0.701656 0.000000 0.114656
0.876829 0.000000 0.104402
0.995605 0.000000 0.082185
0.038849 0.088441 0.124178
0.059602 0.072389 0.124819
0.151736 0.052308 0.125216
0.286595 0.021057 0.109346
0.477760 0.000000 0.116640
0.699672 0.000000 0.116213
0.871946 0.000000 0.101228
0.991302 0.000000 0.070893
0.097444 0.145083 0.118990
0.115816 0.146731 0.120394
0.179446 0.154604 0.126986
0.310369 0.158450 0.127504
0.507683 0.149447 0.126925
0.717464 0.135622 0.116518
0.875914 0.171328 0.098482
0.988403 0.237583 0.078706
0.162997 0.265751 0.144381
0.188144 0.268681 0.152621
0.235477 0.267613 0.157290
0.340276 0.299474 0.135714
0.535149 0.330846 0.127047
0.735256 0.368170 0.119844
0.877165 0.390539 0.109926
0.979522 0.414649 0.115877
0.263798 0.427588 0.203281
0.274998 0.426673 0.204135
0.316289 0.424506 0.208042
0.393713 0.446998 0.193240
0.540337 0.489113 0.137392
0.707637 0.510307 0.116793
0.855497 0.542199 0.143069
0.960388 0.564660 0.191562
0.375586 0.584527 0.282902
0.383917 0.584649 0.284062
0.416022 0.582910 0.288029
0.473030 0.591424 0.283909
0.569543 0.620386 0.254734
0.705074 0.655573 0.206790
0.831388 0.661585 0.211398
0.932006 0.678401 0.268650
0.514153 0.725093 0.425299
0.518090 0.724117 0.424933
0.536278 0.721584 0.425574
0.571954 0.721431 0.428656
0.631128 0.737331 0.412604
0.716060 0.756374 0.389380
0.819760 0.775357 0.355230
0.903868 0.764706 0.356603
0.648341 0.824430 0.601770
0.650416 0.824063 0.601587
0.661372 0.823484 0.604242
0.684443 0.823850 0.613764
0.716121 0.829831 0.608911
0.761593 0.837980 0.597711
0.819791 0.845975 0.580529
0.887938 0.852781 0.552819
0.000000 0.056367 0.287816
0.000000 0.043763 0.288273
0.007080 0.035554 0.282719
0.263706 0.000000 0.275029
0.483864 0.000000 0.233829
0.701381 0.000000 0.226261
0.853849 0.000000 0.241215
0.972503 0.000000 0.262547
0.000000 0.106722 0.282536
0.000000 0.098421 0.282078
0.082399 0.089021 0.279088
0.273136 0.000000 0.274083
0.489662 0.000000 0.235203
0.700008 0.000000 0.232303
0.850492 0.000000 0.246036
0.971191 0.000000 0.266453
0.000000 0.197055 0.267094
0.080842 0.196109 0.267491
0.155764 0.174746 0.269780
0.300084 0.151644 0.267887
0.509941 0.168704 0.242618
0.699184 0.131472 0.257328
0.855680 0.179782 0.275120
0.972076 0.274266 0.290013
0.092744 0.297978 0.256840
0.128695 0.298863 0.257481
0.222202 0.304387 0.261997
0.349523 0.318883 0.276249
0.524651 0.332982 0.280095
0.703578 0.357519 0.289830
0.851957 0.392981 0.302831
0.961273 0.433082 0.318395
0.241154 0.451118 0.291386
0.260075 0.452308 0.294133
0.329412 0.460304 0.309667
0.418463 0.461311 0.328771
0.541497 0.499275 0.312505
0.705898 0.529747 0.328283
0.847166 0.565423 0.360937
0.944549 0.586328 0.384436
0.407568 0.609644 0.395270
0.419318 0.612116 0.399756
0.449256 0.609369 0.401190
0.500786 0.606439 0.407477
0.576989 0.626978 0.398993
0.699397 0.660090 0.376410
0.822354 0.674495 0.396796
0.918547 0.696132 0.442878
0.533471 0.734066 0.508232
0.538476 0.734096 0.509270
0.557336 0.733242 0.512078
0.591119 0.731716 0.517784
0.639582 0.739345 0.515831
0.714412 0.758633 0.501457
0.811429 0.777615 0.480079
0.893370 0.773892 0.492561
0.659785 0.828885 0.651179
0.662196 0.828702 0.651606
0.672389 0.828122 0.653437
0.692226 0.827451 0.658473
0.720302 0.828794 0.661738
0.761166 0.837491 0.653559
0.815549 0.846372 0.641993
0.880461 0.854276 0.624231
0.000000 0.098177 0.518151
0.000000 0.090517 0.518151
0.000000 0.086854 0.510857
0.123842 0.000183 0.500664
0.436957 0.000000 0.487343
0.678676 0.000000 0.441871
0.860716 0.000000 0.391211
0.965789 0.130739 0.410468
0.000000 0.133669 0.511894
0.000000 0.125948 0.512718
0.000000 0.114809 0.507469
0.158755 0.074861 0.496773
0.444495 0.000000 0.485817
0.681178 0.000000 0.441535
0.858152 0.000000 0.396918
0.962951 0.181827 0.415747
0.000000 0.253880 0.493690
0.000000 0.246036 0.493416
0.000000 0.209354 0.490974
0.233524 0.186160 0.484932
0.464393 0.125185 0.475624
0.681880 0.144106 0.435004
0.844724 0.236210 0.414252
0.950072 0.291752 0.431800
0.000000 0.379370 0.471717
0.000000 0.379889 0.471626
0.198520 0.379553 0.473121
0.315251 0.345159 0.475807
0.495644 0.316381 0.470527
0.690272 0.370489 0.440131
0.826749 0.388281 0.448310
0.932555 0.422095 0.465766
0.106905 0.485542 0.447761
0.154391 0.486366 0.448676
0.264652 0.488563 0.450965
0.391058 0.494179 0.457282
0.526238 0.504967 0.470710
0.678798 0.522271 0.478187
0.814969 0.550744 0.496040
0.919524 0.582208 0.516533
0.335668 0.605829 0.463294
0.350561 0.606836 0.465797
0.403876 0.609247 0.473976
0.488380 0.616724 0.494972
0.571099 0.618189 0.515862
0.678248 0.655421 0.515923
0.804623 0.684504 0.548760
0.899260 0.711574 0.588006
0.520531 0.742367 0.577691
0.526482 0.742061 0.578882
0.562005 0.741207 0.593286
0.595880 0.739956 0.596185
0.641566 0.738094 0.603143
0.703365 0.753964 0.600092
0.795315 0.775692 0.589685
0.877775 0.780392 0.608820
0.657404 0.830289 0.693507
0.659754 0.830045 0.693538
0.670008 0.829343 0.694636
0.692744 0.829740 0.701503
0.720790 0.828794 0.707637
0.756771 0.834195 0.708492
0.807279 0.844572 0.701534
0.869596 0.853605 0.689937
0.000000 0.138888 0.719326
0.000000 0.131960 0.719051
0.000000 0.125338 0.713649
0.000000 0.102510 0.705867
0.330022 0.000000 0.697993
0.607782 0.000000 0.686061
0.820829 0.000000 0.648096
0.954437 0.236759 0.589105
0.000000 0.171511 0.709712
0.000000 0.163973 0.708705
0.000000 0.149691 0.704982
0.000000 0.130892 0.698421
0.338842 0.000000 0.690181
0.606806 0.000000 0.679286
0.816953 0.000000 0.642329
0.950317 0.265934 0.586999
0.000000 0.295293 0.699428
0.000000 0.287633 0.699123
0.000000 0.254582 0.698177
0.000000 0.230442 0.691096
0.382757 0.193668 0.683040
0.619898 0.090028 0.673396
0.817350 0.176913 0.639307
0.939940 0.383093 0.595483
0.000000 0.453834 0.684413
0.000000 0.452308 0.683497
0.145388 0.447089 0.682124
0.246098 0.394903 0.684565
0.443153 0.367437 0.679438
0.640620 0.335729 0.670893
0.815061 0.403937 0.640711
0.920989 0.510338 0.623529
0.034455 0.561608 0.656916
0.142916 0.561883 0.656703
0.276097 0.563622 0.656794
0.408911 0.566430 0.658320
0.498512 0.533379 0.659571
0.645777 0.506432 0.653468
0.798795 0.567559 0.635706
0.897734 0.590143 0.641321
0.269963 0.648005 0.632166
0.291997 0.649378 0.633936
0.356542 0.649500 0.634363
0.448859 0.650477 0.636133
0.551354 0.652827 0.639796
0.661128 0.662593 0.652308
0.784756 0.682612 0.666346
0.880186 0.705715 0.683986
0.466438 0.745296 0.650141
0.476020 0.746181 0.652064
0.508568 0.747463 0.656367
0.565362 0.750362 0.665919
0.637140 0.755459 0.683467
0.701534 0.755276 0.698787
0.780117 0.778531 0.698878
0.863310 0.794400 0.724727
0.637079 0.834562 0.734249
0.640192 0.834348 0.734615
0.655787 0.834409 0.738521
0.687098 0.835386 0.749203
0.721920 0.834348 0.757412
0.756039 0.833127 0.763333
0.799374 0.843015 0.764431
0.857969 0.854276 0.760189
0.000000 0.195529 0.841672
0.000000 0.189517 0.842008
0.000000 0.179110 0.840269
0.000000 0.169619 0.837217
0.169131 0.126650 0.832212
0.503410 0.000000 0.825437
0.729732 0.000000 0.817350
0.923522 0.000000 0.805753
0.000000 0.224247 0.836820
0.000000 0.218479 0.837369
0.000000 0.200992 0.835935
0.000000 0.191226 0.832670
0.193820 0.156374 0.827604
0.504723 0.000000 0.820340
0.726650 0.000000 0.811704
0.917082 0.000000 0.797940
0.000000 0.338933 0.830961
0.000000 0.332616 0.830869
0.000000 0.304631 0.829953
0.000000 0.282109 0.827390
0.283452 0.259770 0.822324
0.528557 0.211063 0.816220
0.735134 0.134524 0.809995
0.910613 0.244358 0.792264
0.000000 0.507164 0.819150
0.000000 0.501793 0.818723
0.000000 0.480507 0.818112
0.139254 0.435920 0.818601
0.379522 0.409430 0.815305
0.563409 0.381476 0.810880
0.744869 0.355352 0.805875
0.897032 0.430762 0.782895
0.243900 0.621332 0.801999
0.262699 0.620172 0.801266
0.331731 0.617548 0.800351
0.428290 0.612543 0.800351
0.472297 0.566064 0.801419
0.592645 0.538109 0.798154
0.745785 0.515465 0.793912
0.880034 0.583795 0.775235
0.354467 0.702785 0.786099
0.366979 0.703182 0.786221
0.414069 0.704158 0.786587
0.488289 0.706172 0.787411
0.576410 0.708705 0.788937
0.639918 0.683497 0.791470
0.751461 0.663203 0.788174
0.861631 0.716213 0.778073
0.437263 0.772030 0.774411
0.446387 0.772396 0.774929
0.478340 0.772244 0.775082
0.533837 0.772427 0.775875
0.604120 0.772366 0.776791
0.681697 0.773342 0.779019
0.760952 0.777523 0.784756
0.848631 0.793027 0.796719
0.588159 0.835660 0.781979
0.592767 0.835813 0.782528
0.614252 0.836667 0.785580
0.650080 0.837583 0.790097
0.697627 0.838895 0.797238
0.751278 0.841520 0.809110
0.796384 0.841886 0.819669
0.847776 0.856107 0.822477
0.000000 0.277379 0.910613
0.000000 0.272496 0.910765
0.000000 0.257786 0.910124
0.000000 0.253422 0.909056
0.000000 0.238712 0.907256
0.434058 0.202213 0.904723
0.635859 0.104738 0.901884
0.819486 0.000000 0.897612
0.000000 0.301457 0.908598
0.000000 0.297032 0.908782
0.000000 0.277470 0.908629
0.000000 0.272465 0.907500
0.000000 0.258213 0.905730
0.440650 0.224704 0.903227
0.637110 0.148043 0.900267
0.818540 0.000000 0.895842
0.000000 0.396582 0.903593
0.000000 0.391791 0.903716
0.000000 0.370642 0.903838
0.000000 0.352026 0.904082
0.232120 0.338170 0.902281
0.471138 0.312352 0.899809
0.648676 0.267521 0.897246
0.820859 0.232731 0.893156
0.000000 0.539361 0.893919
0.000000 0.536339 0.894133
0.000000 0.520623 0.894621
0.184024 0.487678 0.895964
0.360967 0.465400 0.895537
0.519280 0.444709 0.893919
0.667872 0.412512 0.892149
0.823758 0.393164 0.888792
0.376226 0.662989 0.882139
0.387457 0.663203 0.882261
0.423865 0.661585 0.882139
0.451637 0.643977 0.883268
0.475319 0.603265 0.885374
0.568170 0.578607 0.884916
0.686152 0.552697 0.883909
0.823667 0.536309 0.881895
0.472450 0.745602 0.871763
0.478187 0.745449 0.871580
0.500175 0.743832 0.871336
0.542260 0.741054 0.871641
0.600946 0.736782 0.872740
0.633082 0.706050 0.876005
0.713771 0.687648 0.876463
0.824430 0.673915 0.875517
0.534295 0.802884 0.865324
0.539147 0.802853 0.865293
0.559167 0.802914 0.865171
0.597650 0.803769 0.865415
0.650172 0.805447 0.866026
0.711757 0.808621 0.867460
0.753506 0.793759 0.870359
0.826749 0.779568 0.869169
0.603296 0.852781 0.861692
0.606622 0.852689 0.861631
0.621485 0.852506 0.861723
0.650599 0.852537 0.862242
0.690578 0.852506 0.862913
0.737484 0.852567 0.863828
0.787411 0.853330 0.865415
0.837003 0.855436 0.868284
