20 Preset/Journey new/LUT for PR-AE-PS-FCPX/Journey - Lut (3).cube
# Created by Adobe Lightroom plugin Export LUT (1.24.0)
# www.johnrellis.com/lightroom/exportlut.htm
# Preset: 旅拍胶片-素材江湖03
# Color profile: C:\Program Files (x86)\Common Files\Adobe\Color\Profiles\Recommended\VideoHD.icc
LUT_3D_SIZE 8
DOMAIN_MIN 0.000000 0.000000 0.000000
DOMAIN_MAX 0.903226 0.903226 0.903226
0.011414 0.006409 0.004547
0.025879 0.007019 0.004181
0.141695 0.016022 0.001129
0.273808 0.000000 0.000000
0.479927 0.000000 0.000000
0.688106 0.000000 0.000000
0.856748 0.000000 0.000000
0.975830 0.000000 0.000000
0.011505 0.020905 0.004822
0.042298 0.025299 0.003632
0.142641 0.048005 0.000000
0.272221 0.000000 0.000000
0.473701 0.000000 0.000000
0.681025 0.000000 0.000000
0.845823 0.000000 0.000000
0.968688 0.000000 0.000000
0.059754 0.117281 0.030976
0.087404 0.117189 0.032654
0.155703 0.128023 0.022400
0.297459 0.128298 0.005615
0.490852 0.081361 0.000000
0.694728 0.000000 0.000000
0.855161 0.000000 0.000000
0.971893 0.191806 0.000000
0.022583 0.238621 0.073213
0.086763 0.238071 0.076020
0.164492 0.243473 0.079286
0.333440 0.283055 0.001099
0.545281 0.296574 0.000000
0.714229 0.295964 0.000000
0.855558 0.317510 0.000000
0.964874 0.359075 0.000000
0.000000 0.416419 0.132753
0.000000 0.416083 0.134585
0.190677 0.416815 0.143496
0.339330 0.442939 0.139406
0.552941 0.485939 0.100221
0.724819 0.487892 0.103243
0.848234 0.487892 0.057496
0.951507 0.502831 0.124208
0.161410 0.589410 0.254246
0.195834 0.592432 0.258946
0.279789 0.592065 0.266056
0.384192 0.591913 0.280949
0.543145 0.624872 0.283177
0.720668 0.657069 0.288945
0.848539 0.655238 0.325200
0.938140 0.654902 0.329564
0.377722 0.734401 0.432990
0.389258 0.734829 0.435309
0.427527 0.734005 0.440345
0.491371 0.733211 0.451820
0.578851 0.739956 0.465461
0.704616 0.763882 0.481025
0.831785 0.782589 0.501762
0.915160 0.776120 0.541650
0.565026 0.842161 0.628656
0.569574 0.842069 0.629450
0.589105 0.841917 0.633936
0.624903 0.841947 0.643397
0.664485 0.837919 0.646998
0.737240 0.848081 0.663783
0.822171 0.861387 0.681605
0.901488 0.869413 0.697963
0.009644 0.009522 0.017700
0.050782 0.004822 0.019806
0.142489 0.014862 0.023774
0.263462 0.000000 0.034546
0.462104 0.000000 0.028656
0.670680 0.000000 0.000000
0.836027 0.000000 0.000000
0.961151 0.000000 0.000000
0.007935 0.039734 0.022644
0.062959 0.042420 0.024598
0.144350 0.058228 0.032349
0.267918 0.024903 0.037873
0.463996 0.000000 0.028656
0.670344 0.000000 0.000000
0.831479 0.000000 0.000000
0.956573 0.000000 0.000000
0.082368 0.124208 0.059480
0.099641 0.124941 0.062776
0.159579 0.133242 0.057191
0.292668 0.135409 0.042054
0.481056 0.108217 0.020294
0.679103 0.000000 0.000000
0.835843 0.082246 0.000000
0.958343 0.199069 0.000000
0.068696 0.240970 0.097414
0.103487 0.240848 0.098939
0.171664 0.243778 0.103517
0.326299 0.278630 0.073243
0.522362 0.288457 0.013092
0.691768 0.289403 0.000000
0.836576 0.311345 0.000000
0.952422 0.355047 0.028290
0.000000 0.417243 0.153964
0.069062 0.416510 0.155093
0.201785 0.415869 0.162051
0.337224 0.436072 0.161807
0.541466 0.476692 0.136385
0.712398 0.481025 0.138430
0.838346 0.483436 0.118685
0.944213 0.500633 0.155093
0.174472 0.585809 0.265904
0.201938 0.585870 0.267613
0.281956 0.585962 0.274723
0.384375 0.586786 0.289586
0.538293 0.619196 0.295109
0.715511 0.653559 0.304906
0.843259 0.653254 0.338933
0.933623 0.653285 0.340948
0.376532 0.730312 0.436133
0.385657 0.729488 0.436225
0.423682 0.728573 0.440711
0.488319 0.728389 0.453010
0.575616 0.735805 0.469459
0.700618 0.760372 0.485359
0.827207 0.779049 0.504723
0.911467 0.773129 0.542504
0.561273 0.839841 0.627619
0.567041 0.840208 0.629755
0.586358 0.839933 0.633753
0.622492 0.840085 0.643336
0.669459 0.840024 0.656550
0.738369 0.848600 0.670466
0.821347 0.861112 0.685939
0.900481 0.869230 0.701930
0.020142 0.054841 0.112886
0.073915 0.040833 0.114046
0.161044 0.024018 0.115969
0.298680 0.000000 0.112917
0.465095 0.000000 0.124941
0.667384 0.000000 0.139437
0.829465 0.000000 0.154360
0.954345 0.156649 0.179202
0.070466 0.096956 0.113344
0.091676 0.091554 0.115541
0.164492 0.072816 0.118288
0.294224 0.030945 0.116182
0.464454 0.000000 0.129274
0.664820 0.000000 0.141695
0.825498 0.000000 0.153689
0.950774 0.181033 0.178836
0.084810 0.148684 0.121645
0.107362 0.150057 0.122744
0.175967 0.155642 0.128481
0.301579 0.162814 0.133364
0.484749 0.163272 0.141085
0.675502 0.165347 0.149630
0.828458 0.204837 0.163485
0.949615 0.276402 0.191470
0.087343 0.261753 0.149599
0.121584 0.264500 0.153140
0.206363 0.273045 0.166445
0.339483 0.298619 0.169162
0.521050 0.310979 0.164309
0.689021 0.323980 0.166537
0.831601 0.352972 0.186099
0.945647 0.397162 0.221134
0.111086 0.432929 0.221378
0.153750 0.434272 0.225284
0.246342 0.436347 0.233829
0.356298 0.445777 0.245243
0.546166 0.489754 0.244663
0.705623 0.495918 0.249424
0.829740 0.499733 0.238956
0.936645 0.523613 0.273747
0.236728 0.594507 0.328313
0.256229 0.594873 0.330175
0.321324 0.594720 0.336217
0.411566 0.594903 0.348791
0.541558 0.619806 0.362249
0.709194 0.656153 0.380835
0.833371 0.661158 0.410712
0.925017 0.664393 0.411505
0.406867 0.735317 0.482124
0.414954 0.734707 0.482338
0.448463 0.733394 0.485664
0.506828 0.732692 0.495216
0.582116 0.735622 0.511101
0.700404 0.761593 0.530266
0.823392 0.782864 0.554223
0.906065 0.780850 0.589044
0.572259 0.841276 0.650385
0.576196 0.840970 0.650660
0.594751 0.840696 0.654322
0.630823 0.841459 0.664485
0.676143 0.841459 0.676570
0.740139 0.849058 0.691981
0.820676 0.862303 0.708400
0.897948 0.871183 0.724727
0.000000 0.110597 0.243656
0.000000 0.102602 0.245609
0.154055 0.095033 0.245975
0.315740 0.000000 0.245914
0.528252 0.000000 0.238590
0.685237 0.000000 0.243076
0.810361 0.158328 0.280766
0.932219 0.276707 0.321538
0.000641 0.144289 0.247105
0.033692 0.134981 0.248020
0.163973 0.120729 0.249149
0.321141 0.058045 0.249760
0.527642 0.000000 0.242130
0.681697 0.000000 0.248875
0.808469 0.196262 0.286992
0.931121 0.293736 0.324834
0.073976 0.214023 0.249424
0.115877 0.215518 0.250187
0.191257 0.203098 0.256474
0.332677 0.175296 0.258640
0.518700 0.166995 0.255161
0.670314 0.229099 0.277531
0.814603 0.296635 0.312291
0.932586 0.362890 0.345769
0.000000 0.311833 0.267735
0.068452 0.312413 0.268345
0.209262 0.315862 0.271733
0.347173 0.324224 0.282322
0.510094 0.340276 0.292454
0.671504 0.365606 0.310216
0.812161 0.402319 0.335149
0.927214 0.449897 0.369146
0.081697 0.454994 0.310552
0.143923 0.455879 0.312902
0.263767 0.461707 0.325231
0.393896 0.472877 0.351415
0.544305 0.505394 0.369818
0.689723 0.513970 0.371618
0.814908 0.528710 0.380774
0.920806 0.559838 0.416144
0.263310 0.608728 0.408667
0.288182 0.611566 0.414496
0.362219 0.613306 0.427070
0.455909 0.616114 0.446387
0.551537 0.626734 0.463722
0.700923 0.664790 0.487892
0.818265 0.674372 0.507988
0.911040 0.679622 0.505425
0.422095 0.741238 0.537591
0.434546 0.741665 0.541100
0.481758 0.742763 0.554986
0.535912 0.743221 0.564263
0.601587 0.743679 0.578149
0.700465 0.764858 0.598840
0.815885 0.788022 0.624109
0.896574 0.790433 0.650965
0.587884 0.845518 0.688441
0.594842 0.845487 0.691005
0.611658 0.845335 0.693507
0.644251 0.845212 0.700404
0.687282 0.845151 0.710597
0.741726 0.849302 0.724910
0.818784 0.863828 0.742214
0.894072 0.874601 0.759854
0.000000 0.179202 0.442145
0.000000 0.171023 0.443336
0.000000 0.160403 0.441444
0.311437 0.128725 0.439094
0.520104 0.000000 0.436194
0.719875 0.000000 0.422675
0.841917 0.000000 0.407660
0.931975 0.299016 0.443549
0.000000 0.214481 0.443427
0.000000 0.205631 0.444617
0.083436 0.185641 0.443915
0.318883 0.157504 0.441230
0.522301 0.000000 0.437781
0.718990 0.000000 0.423896
0.838621 0.108400 0.411719
0.928496 0.322942 0.449317
0.000000 0.305394 0.443000
0.029084 0.303441 0.444221
0.183261 0.278630 0.446693
0.334966 0.247135 0.445045
0.524010 0.204349 0.440894
0.710201 0.157687 0.424811
0.822507 0.274327 0.426032
0.912352 0.401373 0.470893
0.000000 0.399603 0.448096
0.100038 0.400031 0.448096
0.245182 0.402777 0.449226
0.364874 0.385962 0.455879
0.528099 0.354009 0.454505
0.687007 0.365850 0.442573
0.795132 0.434333 0.466499
0.898070 0.501030 0.509483
0.000000 0.503288 0.462806
0.093721 0.503624 0.463172
0.249210 0.504173 0.464637
0.388098 0.505486 0.468360
0.522728 0.508843 0.475868
0.658930 0.525353 0.487617
0.787778 0.552575 0.509728
0.897063 0.586969 0.538964
0.220737 0.613733 0.490425
0.248234 0.614282 0.492226
0.332372 0.615473 0.498604
0.443091 0.619837 0.513817
0.555291 0.628534 0.541527
0.680507 0.663661 0.574151
0.796139 0.676875 0.584894
0.892943 0.689021 0.592432
0.393164 0.745296 0.590417
0.404120 0.745022 0.591241
0.448066 0.744991 0.596674
0.528832 0.747585 0.615198
0.613123 0.750668 0.638605
0.690822 0.760983 0.657649
0.803372 0.789548 0.685939
0.884550 0.795193 0.702937
0.538293 0.846586 0.697963
0.546838 0.846464 0.700130
0.581262 0.846189 0.709682
0.641718 0.847562 0.731441
0.692195 0.848142 0.744778
0.741634 0.849058 0.757443
0.812802 0.863371 0.775357
0.887968 0.876493 0.793423
0.000000 0.285801 0.639307
0.000000 0.278508 0.640192
0.000000 0.259068 0.638758
0.298375 0.244266 0.635859
0.510124 0.196170 0.629725
0.694026 0.114595 0.622004
0.848447 0.051728 0.601007
0.952514 0.258427 0.584283
0.000000 0.312840 0.633356
0.000000 0.304845 0.633265
0.000000 0.278080 0.632410
0.303288 0.262272 0.629084
0.507530 0.219394 0.624292
0.690059 0.157076 0.618128
0.844022 0.138033 0.598474
0.948058 0.281163 0.584070
0.000000 0.407050 0.634577
0.098390 0.404822 0.634424
0.182284 0.374548 0.634607
0.331945 0.340520 0.630274
0.513603 0.308232 0.625727
0.687984 0.272984 0.620478
0.837919 0.273564 0.602899
0.935973 0.374060 0.595941
0.178378 0.502495 0.631891
0.210666 0.501122 0.631464
0.304448 0.496956 0.632166
0.395636 0.472114 0.636988
0.524437 0.439155 0.635248
0.684779 0.413031 0.630457
0.827909 0.418494 0.615991
0.915129 0.496773 0.621485
0.216403 0.578363 0.632197
0.244388 0.578546 0.632288
0.330358 0.579461 0.632166
0.440467 0.581659 0.633204
0.536980 0.565881 0.636622
0.667903 0.538109 0.633722
0.798886 0.551263 0.625513
0.883330 0.607599 0.648981
0.264103 0.660548 0.641596
0.286290 0.661402 0.642878
0.352972 0.660761 0.643030
0.445899 0.659968 0.643854
0.548363 0.659144 0.645502
0.656367 0.661830 0.652155
0.772976 0.680476 0.668025
0.874174 0.705043 0.689937
0.379797 0.755032 0.674098
0.391943 0.755764 0.675380
0.433661 0.756619 0.677790
0.506279 0.758389 0.684016
0.598535 0.761440 0.696895
0.692409 0.766629 0.719692
0.790951 0.793088 0.748653
0.873747 0.800717 0.755978
0.515648 0.851652 0.745815
0.521874 0.851408 0.746120
0.549706 0.851194 0.749081
0.601160 0.851713 0.756771
0.673396 0.852476 0.772519
0.746609 0.854368 0.794675
0.805753 0.862455 0.810758
0.882506 0.880156 0.830777
0.000000 0.416754 0.783780
0.000000 0.411658 0.784512
0.000000 0.387732 0.784329
0.331304 0.378912 0.782467
0.506249 0.357885 0.778897
0.672724 0.317174 0.774228
0.819608 0.297887 0.768429
0.931456 0.325200 0.742824
0.000000 0.435157 0.779416
0.000000 0.430304 0.780392
0.104860 0.403388 0.780728
0.336034 0.391669 0.778408
0.505058 0.370031 0.774960
0.668574 0.329778 0.769741
0.814328 0.308904 0.763546
0.926757 0.332372 0.738155
0.247196 0.512413 0.777493
0.255009 0.507378 0.777615
0.283146 0.484047 0.777707
0.371466 0.453742 0.777066
0.515618 0.432990 0.773465
0.667506 0.398535 0.769345
0.810452 0.382696 0.765560
0.922179 0.404395 0.744625
0.330541 0.591241 0.775601
0.344182 0.589929 0.775143
0.397253 0.586023 0.774685
0.445777 0.559686 0.775906
0.534386 0.529320 0.774441
0.666163 0.502251 0.771786
0.802274 0.485267 0.769070
0.912352 0.498390 0.751919
0.368688 0.658991 0.772061
0.380194 0.658473 0.771298
0.426856 0.658656 0.770352
0.495888 0.654871 0.771237
0.562951 0.632105 0.773007
0.657740 0.601556 0.771298
0.786893 0.581598 0.768978
0.900328 0.593591 0.759548
0.392370 0.720851 0.775418
0.403235 0.720943 0.775509
0.443580 0.721126 0.775753
0.509972 0.721401 0.776333
0.591089 0.721523 0.777066
0.668299 0.708919 0.780209
0.774838 0.686732 0.778653
0.879484 0.699947 0.773495
0.425299 0.787015 0.786282
0.434668 0.787289 0.786709
0.468360 0.786862 0.786893
0.526818 0.786282 0.787655
0.600092 0.785031 0.788266
0.681056 0.783719 0.789395
0.764492 0.783108 0.791623
0.857694 0.799130 0.805539
0.517815 0.856046 0.808743
0.524102 0.856199 0.809171
0.551049 0.857206 0.811490
0.595453 0.858030 0.814328
0.654841 0.859159 0.818540
0.728969 0.860960 0.827848
0.804074 0.864866 0.845151
0.877226 0.884215 0.866361
0.370581 0.574273 0.880797
0.375677 0.571099 0.881163
0.391302 0.554009 0.881437
0.463691 0.543603 0.881193
0.564111 0.532311 0.880156
0.677455 0.512413 0.878599
0.801755 0.482307 0.877195
0.910857 0.482673 0.874174
0.384771 0.584710 0.878782
0.389471 0.581842 0.879149
0.404517 0.565606 0.879789
0.467384 0.551751 0.879728
0.564935 0.539971 0.878721
0.676448 0.520165 0.877256
0.799374 0.489265 0.875700
0.908446 0.487892 0.872587
0.443214 0.630213 0.875425
0.445930 0.627100 0.875669
0.455848 0.612634 0.876188
0.490639 0.590692 0.877989
0.575555 0.577905 0.876921
0.677668 0.557610 0.875395
0.795254 0.528130 0.874205
0.903136 0.523644 0.871702
0.490181 0.685054 0.872068
0.498604 0.685267 0.872221
0.529259 0.684474 0.872099
0.543542 0.661311 0.873960
0.592493 0.637324 0.874846
0.681239 0.619348 0.874022
0.789151 0.592737 0.873442
0.894743 0.584283 0.871855
0.507378 0.735317 0.869566
0.513664 0.735134 0.869871
0.535485 0.732418 0.870054
0.584253 0.730251 0.870634
0.623407 0.710994 0.872129
0.683131 0.686275 0.872709
0.779568 0.663539 0.872587
0.884062 0.652888 0.872374
0.526543 0.782406 0.870268
0.531426 0.782101 0.870054
0.552697 0.781430 0.869596
0.593774 0.781369 0.869535
0.647456 0.779049 0.870787
0.702632 0.764767 0.874205
0.774563 0.744259 0.875944
0.873777 0.732601 0.876738
0.551965 0.831144 0.875792
0.556786 0.831052 0.875761
0.576318 0.830686 0.875731
0.613703 0.830564 0.876127
0.665461 0.830625 0.876921
0.727169 0.831327 0.878538
0.783413 0.822110 0.880797
0.862272 0.804746 0.880003
0.586938 0.879332 0.884092
0.590753 0.879179 0.884031
0.607782 0.878904 0.884245
0.640589 0.878752 0.885008
0.685939 0.878416 0.885985
0.739773 0.877958 0.887236
0.798398 0.877775 0.888914
0.859098 0.876890 0.890074
