20 Preset/Journey new/LUT for PR-AE-PS-FCPX/Journey - Lut (7).cube
# Created by Adobe Lightroom plugin Export LUT (1.24.0)
# www.johnrellis.com/lightroom/exportlut.htm
# Preset: 旅拍胶片-素材江湖07
# Color profile: C:\Program Files (x86)\Common Files\Adobe\Color\Profiles\Recommended\VideoHD.icc
LUT_3D_SIZE 5
DOMAIN_MIN 0.000000 0.000000 0.000000
DOMAIN_MAX 0.903226 0.903226 0.903226
0.087922 0.102815 0.099641
0.142977 0.105867 0.102968
0.326726 0.088563 0.102480
0.647639 0.000000 0.069551
0.957855 0.000000 0.000000
0.110414 0.132357 0.117464
0.142885 0.133150 0.115084
0.365515 0.139803 0.095552
0.681025 0.020905 0.005219
0.982116 0.000000 0.000000
0.144991 0.298039 0.145907
0.193942 0.301915 0.140993
0.397650 0.331640 0.114656
0.786038 0.358129 0.000000
1.000000 0.357092 0.000000
0.272068 0.613001 0.258244
0.317845 0.616999 0.254826
0.479164 0.630915 0.239261
0.746365 0.647211 0.210147
1.000000 0.671321 0.185977
0.604242 0.861173 0.530297
0.623987 0.858549 0.539086
0.680079 0.853483 0.534966
0.807645 0.862364 0.541619
0.955261 0.869169 0.554040
0.040589 0.118959 0.189120
0.147433 0.109926 0.190921
0.330480 0.018585 0.176242
0.655879 0.000000 0.142885
0.953826 0.000000 0.120485
0.104311 0.158236 0.163851
0.164675 0.155856 0.168887
0.350225 0.156100 0.165591
0.648768 0.113954 0.156985
0.942779 0.000000 0.135927
0.180789 0.315831 0.182345
0.221622 0.320378 0.179263
0.401129 0.339452 0.165438
0.766415 0.364477 0.109407
1.000000 0.377722 0.000000
0.302220 0.620661 0.260014
0.344152 0.625086 0.257511
0.495857 0.638239 0.243137
0.750698 0.652491 0.214969
1.000000 0.677302 0.195956
0.608484 0.861997 0.533196
0.627405 0.859129 0.541466
0.695247 0.860502 0.549462
0.814786 0.866819 0.551904
0.958038 0.873198 0.564385
0.000000 0.178378 0.495125
0.000000 0.153017 0.496590
0.369940 0.090425 0.503777
0.680903 0.000000 0.460548
0.963043 0.000000 0.424659
0.000000 0.241825 0.468605
0.000000 0.229496 0.471626
0.391760 0.190341 0.483070
0.685969 0.100832 0.448920
0.970275 0.000000 0.407904
0.000000 0.443275 0.403296
0.149020 0.440436 0.406317
0.466285 0.434485 0.427192
0.703487 0.435096 0.409094
0.941253 0.459876 0.401495
0.432105 0.668238 0.436683
0.461189 0.659815 0.442298
0.562585 0.657160 0.460487
0.751949 0.679805 0.462806
0.987976 0.710140 0.441871
0.608118 0.865873 0.536004
0.628504 0.863676 0.545342
0.696864 0.863798 0.556970
0.814511 0.869291 0.558343
0.958160 0.874510 0.567102
0.000000 0.311650 0.766293
0.000000 0.300542 0.768429
0.211337 0.275395 0.771176
0.646937 0.242161 0.775235
0.952514 0.149294 0.778195
0.000000 0.363989 0.752712
0.000000 0.363561 0.752987
0.273350 0.330388 0.757229
0.657588 0.311711 0.761929
0.943542 0.269139 0.761990
0.000000 0.514885 0.713863
0.000000 0.511254 0.711879
0.409735 0.510674 0.715694
0.693721 0.496315 0.724178
0.932464 0.498939 0.723384
0.257176 0.739467 0.657771
0.331640 0.735866 0.657557
0.524437 0.727169 0.662928
0.747799 0.716670 0.679835
0.926543 0.714290 0.654810
0.691005 0.891417 0.696407
0.702388 0.889799 0.697322
0.745754 0.883238 0.701869
0.825193 0.876463 0.714382
0.944213 0.885191 0.715145
0.000000 0.537713 0.926452
0.184390 0.541527 0.925841
0.371923 0.506340 0.928374
0.643915 0.504540 0.928099
0.872831 0.501488 0.928588
0.000000 0.562188 0.922087
0.225925 0.567407 0.921538
0.399145 0.536767 0.923949
0.653864 0.534295 0.924102
0.875334 0.532128 0.925231
0.000000 0.642023 0.910826
0.211429 0.643977 0.910277
0.499397 0.656458 0.908904
0.681758 0.630671 0.912261
0.885679 0.631556 0.915953
0.245274 0.791318 0.891325
0.306065 0.788357 0.891173
0.471626 0.776059 0.891844
0.716304 0.770077 0.895201
0.899657 0.766781 0.901762
0.553643 0.921996 0.857725
0.575097 0.920684 0.857939
0.658747 0.915953 0.860227
0.785458 0.906554 0.864347
0.919463 0.896391 0.873625
