20 Preset/Journey new/LUT for PR-AE-PS-FCPX/Journey - Lut (6).cube
# Created by Adobe Lightroom plugin Export LUT (1.24.0)
# www.johnrellis.com/lightroom/exportlut.htm
# Preset: 旅拍胶片-素材江湖06
# Color profile: C:\Program Files (x86)\Common Files\Adobe\Color\Profiles\Recommended\VideoHD.icc
LUT_3D_SIZE 5
DOMAIN_MIN 0.000000 0.000000 0.000000
DOMAIN_MAX 0.903226 0.903226 0.903226
0.030793 0.098421 0.075257
0.057191 0.098177 0.074830
0.365484 0.000000 0.037720
0.735988 0.000000 0.000000
1.000000 0.000000 0.000000
0.026246 0.102937 0.073426
0.052491 0.103792 0.072572
0.378607 0.121096 0.007874
0.744594 0.000000 0.000000
1.000000 0.000000 0.000000
0.000000 0.284062 0.091127
0.000000 0.271977 0.113466
0.284215 0.288823 0.089387
0.739254 0.371984 0.000000
1.000000 0.390845 0.000000
0.000000 0.572992 0.209689
0.000000 0.565789 0.225895
0.322881 0.551598 0.245945
0.559014 0.551415 0.197360
0.934783 0.660822 0.204746
0.290929 0.843931 0.413611
0.347967 0.840574 0.424567
0.485206 0.820310 0.457038
0.646418 0.819883 0.444190
0.843076 0.818112 0.398169
0.007721 0.098329 0.110689
0.089082 0.095705 0.109529
0.360571 0.000000 0.107271
0.693263 0.000000 0.103243
1.000000 0.000000 0.080079
0.000000 0.123659 0.116152
0.098451 0.123995 0.119783
0.360510 0.115785 0.117830
0.706172 0.000000 0.110658
1.000000 0.000000 0.090761
0.000000 0.319860 0.158907
0.077516 0.308995 0.173983
0.302525 0.305333 0.170291
0.729488 0.387304 0.170108
1.000000 0.419654 0.140902
0.000000 0.588281 0.263859
0.125154 0.581933 0.276890
0.358831 0.562585 0.303960
0.569116 0.561089 0.261662
0.933867 0.671901 0.289067
0.323064 0.847379 0.445563
0.373327 0.843839 0.455116
0.516014 0.830625 0.496742
0.662196 0.825589 0.489113
0.848081 0.823758 0.443122
0.000000 0.141482 0.390509
0.000000 0.142397 0.384192
0.380346 0.126040 0.369604
0.684016 0.204837 0.400153
1.000000 0.000000 0.341985
0.000000 0.238621 0.385412
0.096437 0.220249 0.381201
0.386175 0.210666 0.368536
0.687770 0.252140 0.393866
0.993927 0.032654 0.341588
0.000000 0.420417 0.376776
0.000000 0.416693 0.375616
0.403601 0.407385 0.379126
0.688258 0.426276 0.378210
0.964752 0.476081 0.392462
0.000000 0.645136 0.405097
0.222721 0.637568 0.413519
0.444343 0.615808 0.445441
0.609339 0.604059 0.431983
0.935607 0.710933 0.496864
0.370123 0.860441 0.539452
0.418647 0.857572 0.547906
0.554559 0.845243 0.580407
0.688991 0.831052 0.602502
0.846677 0.828275 0.555657
0.000000 0.329351 0.701411
0.000000 0.330510 0.698512
0.422614 0.324956 0.680293
0.686824 0.321019 0.660090
0.915923 0.476692 0.697230
0.000000 0.406104 0.692958
0.160311 0.384588 0.690028
0.432624 0.373419 0.673213
0.681819 0.365911 0.653223
0.908873 0.511467 0.697505
0.133242 0.547173 0.679500
0.261265 0.546319 0.676265
0.453162 0.517571 0.664820
0.673854 0.500359 0.643580
0.900755 0.618219 0.706935
0.000000 0.722408 0.667659
0.000000 0.718502 0.665248
0.409644 0.707607 0.661158
0.679438 0.688502 0.657862
0.914305 0.718410 0.667659
0.278843 0.889403 0.679133
0.355169 0.886992 0.682704
0.550652 0.877012 0.700740
0.736233 0.855802 0.738308
0.851682 0.844907 0.718502
0.442023 0.591913 0.893370
0.473243 0.590173 0.892332
0.586938 0.587793 0.888426
0.743160 0.578210 0.880369
0.902708 0.598566 0.872801
0.479957 0.629938 0.889311
0.491798 0.619104 0.889311
0.594507 0.613703 0.885679
0.743221 0.601434 0.877958
0.899443 0.617609 0.871061
0.523888 0.719295 0.883299
0.553460 0.719417 0.882017
0.618341 0.698878 0.880247
0.745083 0.681636 0.873472
0.891264 0.687251 0.868376
0.513909 0.812802 0.878630
0.539940 0.811887 0.878172
0.636896 0.810117 0.877195
0.755398 0.795041 0.874479
0.881498 0.786557 0.867887
0.480537 0.908995 0.874205
0.508598 0.907683 0.873960
0.611505 0.902708 0.873838
0.749844 0.893248 0.872892
0.876799 0.880644 0.870054
