20 Preset/Journey new/LUT for PR-AE-PS-FCPX/Journey - Lut (5).cube
# Created by Adobe Lightroom plugin Export LUT (1.24.0)
# www.johnrellis.com/lightroom/exportlut.htm
# Preset: 旅拍胶片-素材江湖05
# Color profile: C:\Program Files (x86)\Common Files\Adobe\Color\Profiles\Recommended\VideoHD.icc
LUT_3D_SIZE 32
DOMAIN_MIN 0.0 0.0 0.0
DOMAIN_MAX 1.0 1.0 1.0
0.058839 0.056916 0.040772
0.058839 0.056916 0.040772
0.062837 0.056458 0.040742
0.069062 0.057954 0.041566
0.087343 0.060853 0.042969
0.101503 0.065339 0.043824
0.118105 0.069978 0.044343
0.137697 0.072694 0.045686
0.162051 0.072450 0.045441
0.191653 0.069978 0.044099
0.228275 0.060090 0.042664
0.272099 0.040375 0.038178
0.323064 0.006622 0.033265
0.379126 0.000000 0.026062
0.437812 0.000000 0.014710
0.496834 0.000000 0.000610
0.554772 0.000000 0.000000
0.610559 0.000000 0.000000
0.663294 0.000000 0.000000
0.712428 0.000000 0.000000
0.760616 0.000000 0.000000
0.803891 0.000000 0.000000
0.840696 0.000000 0.000000
0.873167 0.000000 0.000000
0.902281 0.000000 0.000000
0.928618 0.000000 0.000000
0.952605 0.006195 0.000000
0.974792 0.114199 0.000000
0.995453 0.157900 0.000000
1.000000 0.194766 0.000000
1.000000 0.230014 0.000000
1.000000 0.264958 0.000000
0.058839 0.056916 0.040772
0.058839 0.056916 0.040772
0.062837 0.056458 0.040742
0.071046 0.057740 0.041535
0.087343 0.060853 0.042969
0.101259 0.066529 0.043671
0.117586 0.070192 0.044343
0.137148 0.074128 0.045563
0.161288 0.074098 0.045289
0.190616 0.070863 0.044129
0.226627 0.061860 0.042725
0.269993 0.043275 0.038270
0.320165 0.011749 0.033478
0.376013 0.000000 0.026307
0.434363 0.000000 0.015534
0.493568 0.000000 0.001312
0.551720 0.000000 0.000000
0.607660 0.000000 0.000000
0.660304 0.000000 0.000000
0.709590 0.000000 0.000000
0.757412 0.000000 0.000000
0.800290 0.000000 0.000000
0.836698 0.000000 0.000000
0.869200 0.000000 0.000000
0.898497 0.000000 0.000000
0.925017 0.000000 0.000000
0.949310 0.000000 0.000000
0.971832 0.108888 0.000000
0.992828 0.152987 0.000000
1.000000 0.190616 0.000000
1.000000 0.226047 0.000000
1.000000 0.261357 0.000000
0.059113 0.059083 0.041596
0.061097 0.058869 0.041596
0.063081 0.058625 0.041566
0.070893 0.061128 0.041077
0.088045 0.065217 0.042329
0.101625 0.070893 0.043061
0.117800 0.074556 0.044862
0.136965 0.078492 0.044953
0.161013 0.079255 0.044526
0.190127 0.076875 0.043397
0.225864 0.068330 0.041993
0.269230 0.049958 0.037537
0.319249 0.020111 0.032593
0.374304 0.000000 0.025391
0.432685 0.000000 0.014313
0.491768 0.000000 0.000000
0.549676 0.000000 0.000000
0.605646 0.000000 0.000000
0.658503 0.000000 0.000000
0.707820 0.000000 0.000000
0.755886 0.000000 0.000000
0.798276 0.000000 0.000000
0.834531 0.000000 0.000000
0.867033 0.000000 0.000000
0.896330 0.000000 0.000000
0.923033 0.000000 0.000000
0.947478 0.008362 0.000000
0.970153 0.112886 0.000000
0.991302 0.155734 0.000000
1.000000 0.192233 0.000000
1.000000 0.226688 0.000000
1.000000 0.261448 0.000000
0.062196 0.065400 0.042939
0.064179 0.065187 0.042908
0.065156 0.066163 0.043885
0.073274 0.068635 0.042267
0.089265 0.074922 0.042084
0.102235 0.079072 0.042969
0.118196 0.082155 0.043488
0.137850 0.083864 0.043702
0.161593 0.085389 0.043153
0.190372 0.084993 0.042847
0.226627 0.079927 0.040131
0.269047 0.065919 0.036561
0.319127 0.038239 0.031312
0.373938 0.000000 0.022522
0.431495 0.000000 0.012207
0.490150 0.000000 0.000000
0.547814 0.000000 0.000000
0.603204 0.000000 0.000000
0.655787 0.000000 0.000000
0.704707 0.000000 0.000000
0.752407 0.000000 0.000000
0.793912 0.000000 0.000000
0.830198 0.000000 0.000000
0.863066 0.000000 0.000000
0.893126 0.000000 0.000000
0.920439 0.000000 0.000000
0.945647 0.061128 0.000000
0.968872 0.126436 0.000000
0.990356 0.164736 0.000000
1.000000 0.198581 0.000000
1.000000 0.231754 0.000000
1.000000 0.264958 0.000000
0.065797 0.082490 0.045838
0.065797 0.082490 0.045838
0.071443 0.082063 0.046937
0.079469 0.082887 0.045472
0.089509 0.086671 0.042054
0.102541 0.088960 0.041810
0.118624 0.090333 0.042481
0.138216 0.091341 0.042695
0.162112 0.092622 0.041993
0.190829 0.093202 0.041352
0.226230 0.091341 0.038392
0.269352 0.085725 0.034302
0.318669 0.069368 0.027222
0.373449 0.036103 0.018799
0.430854 0.000000 0.006470
0.488991 0.000000 0.000000
0.546349 0.000000 0.000000
0.601495 0.000000 0.000000
0.653895 0.000000 0.000000
0.703304 0.000000 0.000000
0.750851 0.000000 0.000000
0.791928 0.000000 0.000000
0.828031 0.000000 0.000000
0.861173 0.000000 0.000000
0.891295 0.000000 0.000000
0.918883 0.021363 0.000000
0.944244 0.107942 0.000000
0.967742 0.145571 0.000000
0.989227 0.178256 0.000000
1.000000 0.209049 0.000000
1.000000 0.239719 0.000000
1.000000 0.271214 0.000000
0.071199 0.094057 0.050233
0.072877 0.093965 0.051362
0.077577 0.093385 0.051484
0.083406 0.093416 0.052430
0.090608 0.095216 0.049195
0.101106 0.097566 0.044282
0.118013 0.100252 0.040925
0.137942 0.101442 0.041016
0.162631 0.101991 0.041566
0.192508 0.102510 0.039612
0.228061 0.102174 0.035981
0.271000 0.099886 0.031159
0.320195 0.094972 0.024262
0.374212 0.084535 0.014801
0.431159 0.053620 0.002441
0.489235 0.009766 0.000000
0.546319 0.000000 0.000000
0.601648 0.000000 0.000000
0.653773 0.000000 0.000000
0.704707 0.000000 0.000000
0.751217 0.000000 0.000000
0.791928 0.000000 0.000000
0.848722 0.000000 0.000000
0.880369 0.045380 0.000000
0.908812 0.105867 0.000000
0.934539 0.137270 0.000000
0.958038 0.164614 0.000000
0.979858 0.190433 0.000000
1.000000 0.216068 0.000000
1.000000 0.242374 0.000000
1.000000 0.269749 0.000000
1.000000 0.298497 0.000000
0.079194 0.106050 0.056336
0.078981 0.106050 0.057465
0.082765 0.105867 0.057435
0.088655 0.105165 0.059815
0.093660 0.106081 0.058015
0.101991 0.108949 0.052857
0.116701 0.111818 0.045960
0.139193 0.115328 0.038941
0.164767 0.116762 0.038849
0.196353 0.117861 0.037354
0.235447 0.117220 0.034241
0.279576 0.116915 0.029023
0.329686 0.115358 0.020111
0.383978 0.111696 0.009491
0.440925 0.104799 0.000000
0.498085 0.094484 0.000000
0.554437 0.075593 0.000000
0.608850 0.042695 0.000000
0.661006 0.018067 0.000000
0.714168 0.011933 0.000000
0.761074 0.027436 0.000000
0.802487 0.064271 0.000000
0.839536 0.098756 0.000000
0.873167 0.122347 0.000000
0.903288 0.145480 0.000000
0.929900 0.168307 0.000000
0.954101 0.189242 0.000000
0.976135 0.211124 0.000000
0.996582 0.233005 0.000000
1.000000 0.255741 0.000000
1.000000 0.280583 0.000000
1.000000 0.307225 0.000000
0.082612 0.119997 0.062898
0.082429 0.119997 0.064027
0.086213 0.119844 0.063996
0.091554 0.119173 0.065248
0.097475 0.118105 0.067750
0.104646 0.120943 0.062409
0.116426 0.124239 0.055268
0.134646 0.128359 0.045777
0.162203 0.133028 0.035584
0.193637 0.135286 0.033356
0.232059 0.137179 0.030030
0.278416 0.138155 0.023651
0.330602 0.137392 0.015015
0.384314 0.137362 0.002747
0.440589 0.135561 0.000000
0.497139 0.132174 0.000000
0.552850 0.128054 0.000000
0.606958 0.123415 0.000000
0.661799 0.121584 0.000000
0.712764 0.124239 0.000000
0.758267 0.129946 0.000000
0.798947 0.139162 0.000000
0.835691 0.151583 0.000000
0.869200 0.166201 0.000000
0.899321 0.182712 0.000000
0.926177 0.199619 0.000000
0.950469 0.216983 0.000000
0.972778 0.234836 0.000000
0.993439 0.253758 0.000000
1.000000 0.273411 0.000000
1.000000 0.295628 0.000000
1.000000 0.320012 0.000000
0.083955 0.137606 0.069368
0.085206 0.137545 0.069337
0.089601 0.137118 0.069459
0.094057 0.136599 0.071839
0.101045 0.135592 0.074311
0.108705 0.135958 0.073610
0.118441 0.139620 0.064881
0.134554 0.143954 0.054963
0.157290 0.148989 0.042329
0.190646 0.154910 0.027955
0.229770 0.159213 0.021363
0.275456 0.163088 0.013886
0.327886 0.165377 0.002960
0.384863 0.165988 0.000000
0.442664 0.165866 0.000000
0.498665 0.166018 0.000000
0.553857 0.165774 0.000000
0.610193 0.166781 0.000000
0.663294 0.168795 0.000000
0.712612 0.172580 0.000000
0.756954 0.178256 0.000000
0.796719 0.185489 0.000000
0.832883 0.194827 0.000000
0.866117 0.206180 0.000000
0.896147 0.218753 0.000000
0.923125 0.231846 0.000000
0.947448 0.246311 0.000000
0.969879 0.261570 0.000000
0.990631 0.277592 0.000000
1.000000 0.294774 0.000000
1.000000 0.313970 0.000000
1.000000 0.336217 0.000000
0.084230 0.159792 0.074708
0.085481 0.159762 0.074708
0.089021 0.159457 0.074830
0.095247 0.158724 0.076173
0.102907 0.157687 0.079286
0.112825 0.156222 0.081727
0.122408 0.158846 0.076539
0.136660 0.163699 0.064576
0.157046 0.169039 0.050111
0.185275 0.175021 0.032166
0.224338 0.181979 0.012543
0.271489 0.188998 0.000000
0.323278 0.194430 0.000000
0.379858 0.198550 0.000000
0.439612 0.200351 0.000000
0.500633 0.200259 0.000000
0.558923 0.203067 0.000000
0.613794 0.206638 0.000000
0.665675 0.210605 0.000000
0.713588 0.215000 0.000000
0.756497 0.220523 0.000000
0.794980 0.226505 0.000000
0.829892 0.233860 0.000000
0.862272 0.242466 0.000000
0.891661 0.252171 0.000000
0.918486 0.262882 0.000000
0.942931 0.274784 0.000000
0.965576 0.287602 0.000000
0.986725 0.301701 0.000000
1.000000 0.317296 0.000000
1.000000 0.333776 0.000000
1.000000 0.353826 0.000000
0.076173 0.187045 0.077516
0.078584 0.186831 0.077668
0.083894 0.186557 0.078614
0.093294 0.185916 0.080201
0.103365 0.184817 0.081941
0.115480 0.183383 0.085176
0.128115 0.183017 0.086183
0.141085 0.188174 0.075593
0.160616 0.194034 0.057313
0.187045 0.200809 0.035340
0.221195 0.207828 0.011719
0.265049 0.215488 0.000000
0.319799 0.225284 0.000000
0.376043 0.231846 0.000000
0.436591 0.237919 0.000000
0.498482 0.241855 0.000000
0.559472 0.243748 0.000000
0.617304 0.244877 0.000000
0.667292 0.249821 0.000000
0.713588 0.254582 0.000000
0.755276 0.259709 0.000000
0.792905 0.265049 0.000000
0.827481 0.271244 0.000000
0.859525 0.278264 0.000000
0.888792 0.286564 0.000000
0.915373 0.295689 0.000000
0.939910 0.305486 0.000000
0.962585 0.316716 0.000000
0.983734 0.328801 0.000000
1.000000 0.342473 0.000000
1.000000 0.357519 0.000000
1.000000 0.374395 0.000000
0.050813 0.221408 0.078462
0.053498 0.221256 0.078553
0.063844 0.221012 0.079347
0.085145 0.220310 0.080995
0.099611 0.219486 0.083345
0.116243 0.218051 0.086641
0.133669 0.216251 0.090028
0.148592 0.218936 0.085573
0.167300 0.225132 0.066377
0.192233 0.232395 0.039826
0.224796 0.240055 0.009125
0.264927 0.248295 0.000000
0.325536 0.266270 0.000000
0.391211 0.280003 0.000000
0.453315 0.288212 0.000000
0.515557 0.294713 0.000000
0.575677 0.299229 0.000000
0.633143 0.302037 0.000000
0.686671 0.303777 0.000000
0.733059 0.306126 0.000000
0.771908 0.310338 0.000000
0.807126 0.314549 0.000000
0.839506 0.319341 0.000000
0.869413 0.325139 0.000000
0.896727 0.331365 0.000000
0.921752 0.338293 0.000000
0.944793 0.346075 0.000000
0.966186 0.354833 0.000000
0.986084 0.364874 0.000000
1.000000 0.376257 0.000000
1.000000 0.388739 0.000000
1.000000 0.402869 0.000000
0.000092 0.267338 0.074983
0.004059 0.267308 0.074952
0.019226 0.266697 0.076783
0.052003 0.265904 0.079103
0.092439 0.264469 0.082795
0.115236 0.262516 0.086732
0.138094 0.260227 0.090852
0.159792 0.258122 0.094575
0.177951 0.264622 0.079835
0.202945 0.273045 0.046235
0.235966 0.282872 0.004028
0.276738 0.293462 0.000000
0.325048 0.304204 0.000000
0.377600 0.311894 0.000000
0.446326 0.326848 0.000000
0.507408 0.334630 0.000000
0.566552 0.340307 0.000000
0.622766 0.344152 0.000000
0.675349 0.346746 0.000000
0.723171 0.347875 0.000000
0.766110 0.347570 0.000000
0.802029 0.350103 0.000000
0.834195 0.354101 0.000000
0.864073 0.358495 0.000000
0.891447 0.363622 0.000000
0.916594 0.369512 0.000000
0.939879 0.376287 0.000000
0.961547 0.383825 0.000000
0.981781 0.392493 0.000000
1.000000 0.402411 0.000000
1.000000 0.413642 0.000000
1.000000 0.426307 0.000000
0.000000 0.312718 0.069093
0.000000 0.312627 0.069245
0.000000 0.312139 0.070893
0.006348 0.311376 0.075044
0.070588 0.310063 0.079927
0.111025 0.308751 0.084749
0.140169 0.306859 0.090822
0.167330 0.304601 0.095857
0.190066 0.306920 0.092317
0.213809 0.315038 0.061280
0.244694 0.324102 0.010285
0.282444 0.334020 0.000000
0.327245 0.344396 0.000000
0.378149 0.354620 0.000000
0.429603 0.359503 0.000000
0.498543 0.374151 0.000000
0.556481 0.380499 0.000000
0.611627 0.385077 0.000000
0.663874 0.388556 0.000000
0.711269 0.389960 0.000000
0.754299 0.389929 0.000000
0.793912 0.389624 0.000000
0.830045 0.389441 0.000000
0.859739 0.393194 0.000000
0.887083 0.397253 0.000000
0.912352 0.402167 0.000000
0.935637 0.407630 0.000000
0.957397 0.413947 0.000000
0.977691 0.421393 0.000000
0.996826 0.430152 0.000000
1.000000 0.439948 0.000000
1.000000 0.451179 0.000000
0.000000 0.364904 0.063508
0.000000 0.364691 0.063935
0.000000 0.364141 0.064912
0.000000 0.362921 0.070375
0.031312 0.361303 0.077333
0.106050 0.359380 0.084260
0.141695 0.357153 0.090578
0.174075 0.354467 0.097261
0.203952 0.351843 0.104189
0.227207 0.358373 0.087800
0.255192 0.366766 0.032685
0.289982 0.376165 0.000000
0.331243 0.385779 0.000000
0.377996 0.395453 0.000000
0.429694 0.404547 0.000000
0.480049 0.407874 0.000000
0.546136 0.420508 0.000000
0.600610 0.425574 0.000000
0.652247 0.429267 0.000000
0.699672 0.431037 0.000000
0.742702 0.431342 0.000000
0.782650 0.431342 0.000000
0.819455 0.430762 0.000000
0.853208 0.430457 0.000000
0.882872 0.431312 0.000000
0.908019 0.435126 0.000000
0.931456 0.439643 0.000000
0.953277 0.445106 0.000000
0.973846 0.451545 0.000000
0.993225 0.459205 0.000000
1.000000 0.468208 0.000000
1.000000 0.478523 0.000000
0.000000 0.415045 0.066529
0.000000 0.415137 0.068482
0.000000 0.414618 0.069398
0.000000 0.413733 0.074403
0.009155 0.412421 0.081361
0.104891 0.410590 0.089357
0.147036 0.408698 0.095521
0.182925 0.406561 0.102205
0.216220 0.404181 0.110506
0.244663 0.404639 0.110506
0.269871 0.412116 0.082887
0.300969 0.419989 0.003845
0.337896 0.428290 0.000000
0.379919 0.436469 0.000000
0.426337 0.444190 0.000000
0.476936 0.451667 0.000000
0.527214 0.454994 0.000000
0.587793 0.464393 0.000000
0.639124 0.468482 0.000000
0.686763 0.470497 0.000000
0.730343 0.471290 0.000000
0.771054 0.471473 0.000000
0.808438 0.471351 0.000000
0.842985 0.470863 0.000000
0.874388 0.470466 0.000000
0.903258 0.470192 0.000000
0.927703 0.472816 0.000000
0.949584 0.477089 0.000000
0.970092 0.482460 0.000000
0.989380 0.488869 0.000000
1.000000 0.496315 0.000000
1.000000 0.505089 0.000000
0.000000 0.463691 0.086427
0.000000 0.463478 0.086793
0.000000 0.463203 0.088319
0.000000 0.462287 0.090700
0.019196 0.461097 0.094362
0.111849 0.459632 0.099031
0.155276 0.457771 0.105562
0.193484 0.455634 0.112825
0.227817 0.453162 0.121248
0.260990 0.450294 0.130220
0.286107 0.454597 0.116640
0.313298 0.461799 0.083223
0.345953 0.469276 0.000000
0.383581 0.476692 0.000000
0.425605 0.483986 0.000000
0.471809 0.490791 0.000000
0.520989 0.497383 0.000000
0.570916 0.501579 0.000000
0.625269 0.507286 0.000000
0.673793 0.509850 0.000000
0.717983 0.510918 0.000000
0.759243 0.511070 0.000000
0.797269 0.510735 0.000000
0.832212 0.510277 0.000000
0.864317 0.509483 0.000000
0.893645 0.508965 0.000000
0.920684 0.508812 0.000000
0.945525 0.509361 0.000000
0.966125 0.513603 0.000000
0.985443 0.518975 0.000000
1.000000 0.525353 0.000000
1.000000 0.532860 0.000000
0.000000 0.511681 0.106538
0.000000 0.511894 0.106600
0.000000 0.524224 0.115602
0.001129 0.523552 0.117769
0.099458 0.522393 0.120394
0.143404 0.520714 0.124910
0.181827 0.518761 0.130709
0.217746 0.516472 0.137423
0.251926 0.513909 0.144808
0.285618 0.510979 0.153780
0.315770 0.509331 0.158816
0.339117 0.515373 0.135042
0.367041 0.521721 0.099733
0.400092 0.527916 0.000000
0.437232 0.533745 0.000000
0.478065 0.539300 0.000000
0.522301 0.544549 0.000000
0.568933 0.549401 0.000000
0.617426 0.553460 0.000000
0.664851 0.553704 0.000000
0.710323 0.554559 0.000000
0.751156 0.554070 0.000000
0.789151 0.553002 0.000000
0.824002 0.551629 0.000000
0.855924 0.549889 0.000000
0.885191 0.548302 0.000000
0.912200 0.547082 0.000000
0.937133 0.546502 0.000000
0.960357 0.546777 0.000000
0.981262 0.549065 0.000000
0.999451 0.554253 0.000000
1.000000 0.560601 0.000000
0.000000 0.561456 0.135622
0.000000 0.562646 0.136294
0.035187 0.563561 0.138521
0.097566 0.564019 0.140749
0.133364 0.563775 0.144076
0.167727 0.562707 0.148257
0.202121 0.560876 0.152895
0.234562 0.558679 0.158633
0.267247 0.556115 0.165591
0.299290 0.553429 0.173648
0.331029 0.550378 0.182650
0.355596 0.552209 0.175204
0.379492 0.557733 0.149722
0.407782 0.563287 0.114260
0.440162 0.568811 0.007294
0.476478 0.574090 0.000000
0.516167 0.579034 0.000000
0.558770 0.583642 0.000000
0.603784 0.588159 0.000000
0.650629 0.592340 0.000000
0.694148 0.590204 0.000000
0.737972 0.590936 0.000000
0.776486 0.589868 0.000000
0.812039 0.588128 0.000000
0.844450 0.586114 0.000000
0.874418 0.584009 0.000000
0.901946 0.582177 0.000000
0.927459 0.580896 0.000000
0.951110 0.580591 0.000000
0.973236 0.581170 0.000000
0.993774 0.582940 0.000000
1.000000 0.587213 0.000000
0.114199 0.602594 0.165042
0.119295 0.603601 0.165774
0.130983 0.604639 0.168002
0.149416 0.605097 0.170382
0.173648 0.604913 0.173190
0.199954 0.604120 0.177127
0.227268 0.602564 0.180697
0.256748 0.600610 0.186313
0.286778 0.598291 0.192508
0.317052 0.595575 0.199069
0.347051 0.592828 0.207401
0.376593 0.589776 0.215793
0.396674 0.594507 0.195193
0.420508 0.599420 0.169589
0.448402 0.604181 0.134951
0.480079 0.608942 0.062867
0.515160 0.613336 0.000000
0.553216 0.617639 0.000000
0.594110 0.621637 0.000000
0.637018 0.625666 0.000000
0.681788 0.629206 0.000000
0.721828 0.625452 0.000000
0.763760 0.625452 0.000000
0.799863 0.623499 0.000000
0.832944 0.621180 0.000000
0.863401 0.618677 0.000000
0.891539 0.616327 0.000000
0.917540 0.614466 0.000000
0.941802 0.613367 0.000000
0.964446 0.613153 0.000000
0.985504 0.614069 0.000000
1.000000 0.615961 0.000000
0.175174 0.641382 0.199283
0.177646 0.642329 0.200687
0.185397 0.642969 0.201755
0.198001 0.643336 0.204166
0.214969 0.643214 0.206882
0.235355 0.642512 0.209934
0.258427 0.641199 0.213565
0.283452 0.639399 0.217929
0.310216 0.637415 0.223209
0.337865 0.635065 0.229557
0.365789 0.632532 0.236759
0.393622 0.629725 0.245060
0.416968 0.629725 0.241672
0.436805 0.633936 0.220981
0.460487 0.638178 0.195621
0.487617 0.642512 0.162661
0.518425 0.646845 0.115511
0.552483 0.651148 0.000000
0.589654 0.655207 0.000000
0.629267 0.659358 0.000000
0.670710 0.663233 0.000000
0.713985 0.666865 0.000000
0.750881 0.661982 0.000000
0.790890 0.661250 0.000000
0.824613 0.658808 0.000000
0.855650 0.656062 0.000000
0.884184 0.653346 0.000000
0.910643 0.651057 0.000000
0.935180 0.649500 0.000000
0.958160 0.648646 0.000000
0.979522 0.648737 0.000000
0.999451 0.649714 0.000000
0.237552 0.682643 0.244419
0.239445 0.682979 0.245243
0.243809 0.683009 0.245884
0.251469 0.682765 0.247318
0.263249 0.682124 0.248905
0.278538 0.681086 0.251164
0.296971 0.679805 0.254246
0.317876 0.678187 0.257786
0.340642 0.676387 0.262547
0.364965 0.674434 0.268162
0.390082 0.672236 0.274662
0.415778 0.669795 0.282109
0.441199 0.667048 0.290074
0.459205 0.669520 0.275883
0.478614 0.673213 0.254673
0.501549 0.676875 0.229770
0.527642 0.680446 0.199405
0.557031 0.683955 0.158877
0.589380 0.687404 0.093660
0.624414 0.690730 0.000000
0.661860 0.693812 0.000000
0.701137 0.696651 0.000000
0.741634 0.699092 0.000000
0.775296 0.692744 0.000000
0.812863 0.690730 0.000000
0.844388 0.687709 0.000000
0.873594 0.684718 0.000000
0.900633 0.682033 0.000000
0.925780 0.679896 0.000000
0.949218 0.678431 0.000000
0.971099 0.677699 0.000000
0.991547 0.677821 0.000000
0.286595 0.714931 0.285801
0.287327 0.715206 0.286412
0.291142 0.715175 0.287022
0.297276 0.715023 0.288396
0.306493 0.714504 0.289891
0.318517 0.713619 0.291783
0.333349 0.712490 0.294347
0.350988 0.711116 0.297642
0.370459 0.709621 0.301793
0.391760 0.707851 0.306920
0.414038 0.705989 0.312993
0.437140 0.703792 0.319402
0.460609 0.701381 0.327092
0.481666 0.700374 0.328191
0.497658 0.703639 0.310002
0.516869 0.706844 0.289189
0.539055 0.710109 0.265324
0.564294 0.713313 0.236301
0.592370 0.716457 0.200565
0.623346 0.719356 0.152407
0.656703 0.722164 0.027436
0.692195 0.724727 0.000000
0.729397 0.726925 0.000000
0.767910 0.728817 0.000000
0.797147 0.719783 0.000000
0.832700 0.716945 0.000000
0.862455 0.713710 0.000000
0.890074 0.710750 0.000000
0.915892 0.708125 0.000000
0.939940 0.706142 0.000000
0.962432 0.704860 0.000000
0.983520 0.704372 0.000000
0.338018 0.746548 0.334142
0.339910 0.746883 0.335393
0.342168 0.746883 0.335912
0.346654 0.746578 0.336889
0.353185 0.745785 0.337530
0.362280 0.744778 0.338720
0.373358 0.743526 0.340246
0.387213 0.741939 0.342351
0.403204 0.740200 0.345617
0.420783 0.738399 0.349371
0.439826 0.736355 0.354040
0.459937 0.734157 0.359350
0.480873 0.731777 0.365667
0.501854 0.729152 0.372717
0.517418 0.730007 0.363134
0.532708 0.732479 0.343847
0.550927 0.735134 0.322362
0.572198 0.737789 0.298283
0.596246 0.740475 0.270481
0.623468 0.743191 0.237949
0.652979 0.745815 0.197208
0.684871 0.748165 0.138216
0.718502 0.750179 0.000000
0.753597 0.751736 0.000000
0.789761 0.752895 0.000000
0.818814 0.745541 0.000000
0.851957 0.741909 0.000000
0.880217 0.738338 0.000000
0.906401 0.735225 0.000000
0.930938 0.732662 0.000000
0.953948 0.730739 0.000000
0.975525 0.729610 0.000000
0.379889 0.771054 0.377386
0.381201 0.771298 0.378241
0.383276 0.771389 0.378912
0.387030 0.771206 0.379889
0.392767 0.770718 0.380957
0.400671 0.770016 0.382544
0.410498 0.769162 0.384527
0.422339 0.768154 0.387030
0.436286 0.766934 0.390295
0.451667 0.765591 0.394385
0.468544 0.764034 0.399023
0.486305 0.762295 0.404517
0.504967 0.760342 0.410559
0.524041 0.758175 0.417182
0.542199 0.756222 0.421515
0.554406 0.758358 0.404089
0.569177 0.760525 0.384955
0.586603 0.762783 0.363409
0.606928 0.765133 0.339940
0.629938 0.767514 0.313359
0.655573 0.769802 0.282292
0.683619 0.771939 0.246036
0.713649 0.773831 0.199649
0.745480 0.775418 0.129274
0.778775 0.776669 0.000000
0.813199 0.777493 0.000000
0.840482 0.770504 0.000000
0.871397 0.766323 0.000000
0.898772 0.762875 0.000000
0.923705 0.759823 0.000000
0.947051 0.757412 0.000000
0.968994 0.755612 0.000000
0.424323 0.794705 0.426581
0.425147 0.794827 0.426978
0.426612 0.794797 0.427375
0.429633 0.794553 0.428260
0.434150 0.794125 0.429145
0.440314 0.793515 0.430396
0.448371 0.792752 0.432105
0.458137 0.791836 0.434272
0.469703 0.790768 0.437201
0.482856 0.789517 0.440772
0.497505 0.788144 0.445289
0.513024 0.786618 0.450172
0.529259 0.784970 0.455695
0.546166 0.783047 0.461677
0.563439 0.780850 0.468177
0.576745 0.780880 0.462623
0.588617 0.782803 0.445594
0.602869 0.784848 0.425910
0.619715 0.786923 0.405005
0.639033 0.789090 0.381689
0.660975 0.791196 0.355810
0.685298 0.793179 0.325811
0.711696 0.794919 0.291142
0.739956 0.796384 0.249943
0.770016 0.797604 0.195682
0.801480 0.798489 0.102754
0.834257 0.799069 0.000000
0.860136 0.792325 0.000000
0.888945 0.787747 0.000000
0.915709 0.784329 0.000000
0.939513 0.781521 0.000000
0.962036 0.779294 0.000000
0.464576 0.815396 0.474464
0.465126 0.815457 0.474800
0.466529 0.815457 0.475502
0.469184 0.815305 0.476204
0.473213 0.815061 0.477546
0.478859 0.814694 0.479194
0.486122 0.814389 0.481575
0.495399 0.813993 0.485115
0.506126 0.813504 0.489174
0.518151 0.813016 0.493996
0.531579 0.812314 0.499306
0.545830 0.811490 0.505303
0.560632 0.810452 0.511498
0.575769 0.809201 0.517754
0.591150 0.807675 0.524285
0.606622 0.805844 0.530816
0.616419 0.807523 0.517296
0.627863 0.809323 0.500755
0.641505 0.811215 0.482734
0.657404 0.813169 0.462440
0.675563 0.815122 0.440009
0.695918 0.816953 0.414618
0.718379 0.818570 0.385412
0.742947 0.820005 0.352728
0.769406 0.821134 0.314519
0.797482 0.822049 0.268101
0.827146 0.822690 0.208072
0.858122 0.823056 0.105074
0.882963 0.816831 0.000000
0.909545 0.811673 0.000000
0.935454 0.808225 0.000000
0.958038 0.805631 0.000000
0.510674 0.837461 0.532219
0.510918 0.837461 0.532341
0.511772 0.837339 0.532372
0.513573 0.837156 0.532891
0.516533 0.836820 0.533593
0.520836 0.836393 0.534661
0.526329 0.835904 0.536095
0.533318 0.835264 0.538201
0.541497 0.834623 0.540826
0.551110 0.833799 0.544213
0.561730 0.832914 0.547967
0.573327 0.831937 0.552056
0.585748 0.830808 0.556817
0.598749 0.829557 0.561944
