20 Preset/Journey new/LUT for PR-AE-PS-FCPX/Journey - Lut (3).cube
# Created by Adobe Lightroom plugin Export LUT (1.24.0)
# www.johnrellis.com/lightroom/exportlut.htm
# Preset: 旅拍胶片-素材江湖03
# Color profile: C:\Program Files (x86)\Common Files\Adobe\Color\Profiles\Recommended\VideoHD.icc
LUT_3D_SIZE 5
DOMAIN_MIN 0.000000 0.000000 0.000000
DOMAIN_MAX 0.903226 0.903226 0.903226
0.011414 0.006409 0.004547
0.120150 0.013458 0.001099
0.371832 0.000000 0.000000
0.736660 0.000000 0.000000
0.975830 0.000000 0.000000
0.046448 0.098787 0.020630
0.129152 0.105562 0.016297
0.384588 0.060151 0.000000
0.739071 0.000000 0.000000
0.974487 0.141146 0.000000
0.000000 0.324224 0.097444
0.144076 0.324071 0.104250
0.448829 0.387579 0.000916
0.753567 0.394385 0.000000
0.957885 0.431128 0.013245
0.224979 0.632502 0.298528
0.294347 0.632288 0.304906
0.472694 0.641169 0.326757
0.753536 0.693080 0.342199
0.932464 0.688960 0.384802
0.565026 0.842161 0.628656
0.582544 0.841917 0.632258
0.639155 0.837797 0.639185
0.758297 0.851530 0.668299
0.901488 0.869413 0.697963
0.013855 0.038575 0.093080
0.135714 0.016724 0.095949
0.360479 0.000000 0.100710
0.709834 0.000000 0.113436
0.954314 0.080018 0.138582
0.077394 0.121706 0.099306
0.145235 0.127047 0.104433
0.378241 0.127321 0.112215
0.714961 0.071290 0.117220
0.952941 0.224674 0.149111
0.072450 0.339391 0.162600
0.188235 0.342351 0.171603
0.439246 0.386511 0.170718
0.731136 0.400122 0.151369
0.946319 0.453956 0.212528
0.274449 0.637201 0.353704
0.331701 0.637446 0.359869
0.483680 0.640711 0.383215
0.746975 0.694545 0.408453
0.923919 0.696101 0.441444
0.574121 0.842924 0.648463
0.590845 0.842527 0.651545
0.652552 0.842222 0.666529
0.761257 0.853422 0.692256
0.899840 0.872190 0.722133
0.000000 0.140566 0.339208
0.025391 0.127535 0.339635
0.416785 0.000000 0.336828
0.739590 0.000000 0.319432
0.920562 0.321935 0.394354
0.000000 0.236820 0.341833
0.149905 0.215763 0.344854
0.427344 0.154604 0.345068
0.725582 0.168856 0.334539
0.917388 0.379461 0.411963
0.000000 0.408209 0.362615
0.188022 0.409583 0.364141
0.438575 0.418463 0.377722
0.699489 0.455909 0.404364
0.911803 0.523461 0.458473
0.295048 0.648798 0.476600
0.359655 0.648615 0.483925
0.524193 0.656031 0.521324
0.725460 0.700252 0.564263
0.898070 0.712093 0.575921
0.565606 0.844877 0.690425
0.594903 0.845121 0.700740
0.665980 0.845640 0.720272
0.757290 0.851286 0.743404
0.890501 0.874632 0.774319
0.000000 0.312718 0.675837
0.000000 0.286687 0.676387
0.401984 0.257786 0.670314
0.726741 0.159731 0.659510
0.954376 0.235630 0.620661
0.000000 0.404456 0.671015
0.083009 0.376959 0.671290
0.416358 0.329351 0.667140
0.721035 0.264439 0.657282
0.942473 0.329412 0.625269
0.226627 0.555444 0.663447
0.311192 0.556146 0.661982
0.470436 0.529870 0.665339
0.700862 0.478950 0.658503
0.904204 0.538689 0.654627
0.311498 0.697139 0.683986
0.362799 0.695857 0.683314
0.509545 0.694484 0.684810
0.684993 0.694850 0.690639
0.868132 0.728603 0.719722
0.512627 0.853117 0.760678
0.538842 0.853178 0.763302
0.631769 0.854246 0.775998
0.762142 0.857389 0.808713
0.881193 0.881224 0.839994
0.370581 0.574273 0.880797
0.385626 0.559625 0.881254
0.512200 0.538964 0.880766
0.707576 0.506340 0.878294
0.910857 0.482673 0.874174
0.426795 0.616693 0.876677
0.437446 0.603723 0.877348
0.525353 0.572992 0.877989
0.706233 0.539910 0.875853
0.905333 0.514122 0.872587
0.495338 0.708553 0.871092
0.522393 0.707576 0.870756
0.583154 0.684993 0.872221
0.704005 0.644862 0.872007
0.889403 0.616724 0.871641
0.534874 0.795590 0.872190
0.553674 0.795102 0.871855
0.626429 0.794827 0.871946
0.722957 0.779080 0.875456
0.870512 0.750546 0.877104
0.586938 0.879332 0.884092
0.602014 0.878996 0.884154
0.662043 0.878630 0.885466
0.754147 0.877897 0.887633
0.859098 0.876890 0.890074
