20 Preset/Natural Wedding/【1】LRtemplate Lightroom bản cũ/Tone  (1).lrtemplate
s = {
	id = "F852D3AF-DC6C-43C2-A100-3F2E3C530C37",
	internalName = "清新婚礼-素材江湖01",
	title = "清新婚礼-素材江湖01",
	type = "Develop",
	value = {
		settings = {
			Blacks2012 = 44,
			BlueHue = -29,
			BlueSaturation = -45,
			CameraProfile = "Adobe Standard",
			Clarity2012 = -5,
			ColorNoiseReduction = 25,
			ColorNoiseReductionDetail = 50,
			ColorNoiseReductionSmoothness = 50,
			Contrast2012 = 15,
			ConvertToGrayscale = false,
			Dehaze = 0,
			EnableCalibration = true,
			EnableColorAdjustments = true,
			EnableDetail = true,
			EnableEffects = true,
			EnableSplitToning = false,
			Exposure2012 = 0,
			GrainAmount = 0,
			GrainFrequency = 50,
			GrainSize = 25,
			GreenHue = 17,
			GreenSaturation = -26,
			Highlights2012 = -27,
			HueAdjustmentAqua = -3,
			HueAdjustmentBlue = -4,
			HueAdjustmentGreen = 21,
			HueAdjustmentMagenta = 30,
			HueAdjustmentOrange = 8,
			HueAdjustmentPurple = 20,
			HueAdjustmentRed = 10,
			HueAdjustmentYellow = 0,
			LuminanceAdjustmentAqua = 0,
			LuminanceAdjustmentBlue = -25,
			LuminanceAdjustmentGreen = 65,
			LuminanceAdjustmentMagenta = 0,
			LuminanceAdjustmentOrange = 4,
			LuminanceAdjustmentPurple = -15,
			LuminanceAdjustmentRed = 5,
			LuminanceAdjustmentYellow = 10,
			LuminanceNoiseReductionContrast = 0,
			LuminanceNoiseReductionDetail = 50,
			LuminanceSmoothing = 0,
			ParametricDarks = -4,
			ParametricHighlightSplit = 75,
			ParametricHighlights = -36,
			ParametricLights = -28,
			ParametricMidtoneSplit = 48,
			ParametricShadowSplit = 20,
			ParametricShadows = -11,
			PostCropVignetteAmount = 0,
			PostCropVignetteFeather = 50,
			PostCropVignetteHighlightContrast = 0,
			PostCropVignetteMidpoint = 50,
			PostCropVignetteRoundness = 0,
			PostCropVignetteStyle = 1,
			ProcessVersion = "6.7",
			RedHue = 21,
			RedSaturation = 31,
			Saturation = -5,
			SaturationAdjustmentAqua = -35,
			SaturationAdjustmentBlue = -30,
			SaturationAdjustmentGreen = -65,
			SaturationAdjustmentMagenta = -45,
			SaturationAdjustmentOrange = -35,
			SaturationAdjustmentPurple = -45,
			SaturationAdjustmentRed = -20,
			SaturationAdjustmentYellow = -50,
			ShadowTint = -4,
			Shadows2012 = 50,
			SharpenDetail = 25,
			SharpenEdgeMasking = 0,
			SharpenRadius = 1,
			Sharpness = 25,
			SplitToningBalance = 75,
			SplitToningHighlightHue = 0,
			SplitToningHighlightSaturation = 0,
			SplitToningShadowHue = 240,
			SplitToningShadowSaturation = 10,
			ToneCurveName2012 = "Custom",
			ToneCurvePV2012 = {
				0,
				0,
				24,
				19,
				52,
				65,
				125,
				155,
				201,
				191,
				255,
				218,
			},
			ToneCurvePV2012Blue = {
				0,
				0,
				53,
				21,
				86,
				66,
				149,
				170,
				181,
				209,
				217,
				232,
				255,
				255,
			},
			ToneCurvePV2012Green = {
				0,
				0,
				36,
				13,
				76,
				56,
				115,
				120,
				166,
				190,
				214,
				227,
				255,
				252,
			},
			ToneCurvePV2012Red = {
				0,
				0,
				37,
				12,
				112,
				115,
				176,
				199,
				255,
				255,
			},
			Vibrance = 0,
			WhiteBalance = "As Shot",
			Whites2012 = -30,
		},
		uuid = "C4901464-B618-4950-834C-F701D8B5DCF6",
	},
	version = 0,
}
