20 Preset/Natural Wedding/【1】LRtemplate Lightroom bản cũ/Tone  (6).lrtemplate
s = {
	id = "788BE16C-DC7E-4EC8-B603-14C4598BE6E5",
	internalName = "清新婚礼-素材江湖06",
	title = "清新婚礼-素材江湖06",
	type = "Develop",
	value = {
		settings = {
			Blacks2012 = 45,
			BlueHue = -29,
			BlueSaturation = -45,
			CameraProfile = "Adobe Standard",
			Clarity2012 = 0,
			ColorNoiseReduction = 25,
			ColorNoiseReductionDetail = 50,
			ColorNoiseReductionSmoothness = 50,
			Contrast2012 = 5,
			ConvertToGrayscale = false,
			Dehaze = 0,
			EnableCalibration = true,
			EnableColorAdjustments = true,
			EnableDetail = true,
			EnableEffects = true,
			EnableSplitToning = true,
			Exposure2012 = 0,
			GrainAmount = 0,
			GrainFrequency = 50,
			GrainSize = 25,
			GreenHue = 60,
			GreenSaturation = -26,
			Highlights2012 = -48,
			HueAdjustmentAqua = -3,
			HueAdjustmentBlue = -4,
			HueAdjustmentGreen = 21,
			HueAdjustmentMagenta = 30,
			HueAdjustmentOrange = 8,
			HueAdjustmentPurple = 20,
			HueAdjustmentRed = 40,
			HueAdjustmentYellow = 0,
			LuminanceAdjustmentAqua = 0,
			LuminanceAdjustmentBlue = -25,
			LuminanceAdjustmentGreen = 65,
			LuminanceAdjustmentMagenta = 0,
			LuminanceAdjustmentOrange = 0,
			LuminanceAdjustmentPurple = -15,
			LuminanceAdjustmentRed = 5,
			LuminanceAdjustmentYellow = 10,
			LuminanceNoiseReductionContrast = 0,
			LuminanceNoiseReductionDetail = 50,
			LuminanceSmoothing = 0,
			ParametricDarks = 5,
			ParametricHighlightSplit = 75,
			ParametricHighlights = -5,
			ParametricLights = 0,
			ParametricMidtoneSplit = 48,
			ParametricShadowSplit = 20,
			ParametricShadows = 10,
			PostCropVignetteAmount = 0,
			PostCropVignetteFeather = 50,
			PostCropVignetteHighlightContrast = 0,
			PostCropVignetteMidpoint = 50,
			PostCropVignetteRoundness = 0,
			PostCropVignetteStyle = 1,
			ProcessVersion = "6.7",
			RedHue = 12,
			RedSaturation = 31,
			Saturation = -5,
			SaturationAdjustmentAqua = -60,
			SaturationAdjustmentBlue = -55,
			SaturationAdjustmentGreen = -55,
			SaturationAdjustmentMagenta = -55,
			SaturationAdjustmentOrange = -30,
			SaturationAdjustmentPurple = -55,
			SaturationAdjustmentRed = -20,
			SaturationAdjustmentYellow = -30,
			ShadowTint = -4,
			Shadows2012 = 40,
			SharpenDetail = 25,
			SharpenEdgeMasking = 0,
			SharpenRadius = 1,
			Sharpness = 25,
			SplitToningBalance = 0,
			SplitToningHighlightHue = 0,
			SplitToningHighlightSaturation = 0,
			SplitToningShadowHue = 0,
			SplitToningShadowSaturation = 0,
			ToneCurveName2012 = "Custom",
			ToneCurvePV2012 = {
				3,
				0,
				25,
				17,
				54,
				49,
				86,
				98,
				127,
				152,
				201,
				192,
				255,
				210,
			},
			ToneCurvePV2012Blue = {
				0,
				0,
				37,
				8,
				72,
				50,
				121,
				119,
				183,
				206,
				222,
				235,
				255,
				255,
			},
			ToneCurvePV2012Green = {
				0,
				0,
				36,
				10,
				76,
				49,
				120,
				120,
				181,
				201,
				219,
				230,
				255,
				255,
			},
			ToneCurvePV2012Red = {
				0,
				0,
				42,
				9,
				80,
				51,
				125,
				123,
				182,
				204,
				255,
				255,
			},
			Vibrance = -5,
			WhiteBalance = "As Shot",
			Whites2012 = -14,
		},
		uuid = "EECBBC58-6B92-44AF-B114-01282F44AB52",
	},
	version = 0,
}
