20 Preset/Retro wedding/【3】LUT video cho PR-AE-FCPX/TONE (4).cube
# Created by Adobe Lightroom plugin Export LUT (1.24.0)
# www.johnrellis.com/lightroom/exportlut.htm
# Preset: 焦糖色调-素材江湖05
# Color profile: E:\lut插件\exportlut.1.24\exportlut.lrplugin\color profiles\Rec709gamma2.4.icc
LUT_3D_SIZE 32
DOMAIN_MIN 0.0 0.0 0.0
DOMAIN_MAX 1.0 1.0 1.0
0.115816 0.129549 0.120760
0.116335 0.129519 0.120760
0.120729 0.130098 0.120577
0.127810 0.131350 0.120821
0.137331 0.133455 0.121431
0.150423 0.136141 0.122347
0.166232 0.139559 0.123293
0.184512 0.143038 0.124056
0.203769 0.146487 0.124117
0.224430 0.149966 0.124575
0.246067 0.153597 0.125063
0.269505 0.157473 0.125246
0.295201 0.161654 0.125551
0.324590 0.165835 0.125399
0.357641 0.170809 0.124971
0.395697 0.175875 0.124178
0.439277 0.181521 0.122591
0.489113 0.188388 0.119905
0.545464 0.196872 0.114717
0.626673 0.213382 0.103090
0.695338 0.234806 0.086702
0.753201 0.259068 0.041596
0.801755 0.284062 0.000000
0.844694 0.309758 0.000000
0.882841 0.335027 0.000000
0.917357 0.359991 0.000000
0.949432 0.385046 0.000000
0.979828 0.410132 0.000000
1.000000 0.435584 0.000000
1.000000 0.461677 0.000000
1.000000 0.488716 0.000000
1.000000 0.516716 0.000000
0.115633 0.129824 0.120729
0.116487 0.130007 0.120699
0.120302 0.130617 0.120790
0.127413 0.131899 0.121035
0.137057 0.133730 0.121950
0.149508 0.136477 0.122591
0.164889 0.139742 0.123568
0.182681 0.143099 0.124086
0.201480 0.146456 0.124483
0.221683 0.149874 0.124697
0.242802 0.153475 0.125246
0.265782 0.157198 0.125246
0.290867 0.161288 0.125643
0.319249 0.165560 0.125551
0.351476 0.170321 0.125338
0.388464 0.175387 0.124727
0.431128 0.180972 0.123384
0.479591 0.187564 0.120851
0.535882 0.195773 0.116060
0.613428 0.210849 0.105745
0.680232 0.229984 0.091676
0.737057 0.252110 0.058198
0.785000 0.275608 0.009552
0.828000 0.299840 0.000000
0.866758 0.324376 0.000000
0.902129 0.349096 0.000000
0.935485 0.374182 0.000000
0.967254 0.399786 0.000000
0.997833 0.425788 0.000000
1.000000 0.452369 0.000000
1.000000 0.479927 0.000000
1.000000 0.508354 0.000000
0.114534 0.132906 0.121706
0.115480 0.133059 0.121370
0.121187 0.133272 0.120943
0.126955 0.134096 0.122103
0.135378 0.136049 0.122988
0.147738 0.138552 0.123964
0.162905 0.141573 0.124422
0.180056 0.144594 0.124758
0.198825 0.147768 0.125185
0.218570 0.151064 0.125429
0.239567 0.154543 0.125734
0.262150 0.158206 0.126040
0.286778 0.162112 0.126253
0.314366 0.166537 0.126253
0.345983 0.171115 0.126131
0.382086 0.176028 0.125460
0.423651 0.181857 0.124269
0.471626 0.188266 0.122011
0.528283 0.196506 0.117403
0.603479 0.210636 0.108034
0.669825 0.228733 0.095491
0.726711 0.249943 0.069245
0.775021 0.272343 0.022309
0.818326 0.295933 0.000000
0.857298 0.319982 0.000000
0.893156 0.344182 0.000000
0.927184 0.369299 0.000000
0.959747 0.394903 0.000000
0.991180 0.421149 0.000000
1.000000 0.448127 0.000000
1.000000 0.475715 0.000000
1.000000 0.504143 0.000000
0.113283 0.138643 0.124117
0.114290 0.138827 0.123507
0.121309 0.138674 0.122866
0.128206 0.139620 0.122591
0.137026 0.140475 0.123903
0.145327 0.141970 0.125887
0.160433 0.144503 0.126162
0.177188 0.147341 0.126253
0.195682 0.150332 0.126436
0.215183 0.153689 0.126711
0.235996 0.156832 0.126802
0.257847 0.160464 0.127169
0.282017 0.164370 0.127169
0.308843 0.168521 0.127535
0.339208 0.173098 0.127291
0.373754 0.178042 0.127077
0.413519 0.183719 0.125978
0.459113 0.189914 0.123995
0.515679 0.198184 0.120027
0.585504 0.210727 0.112032
0.649042 0.226444 0.101534
0.705348 0.245518 0.086336
0.754818 0.266453 0.047242
0.800351 0.289555 0.000000
0.842466 0.314092 0.000000
0.881834 0.339574 0.000000
0.918883 0.366125 0.000000
0.953826 0.392950 0.000000
0.986786 0.420050 0.000000
1.000000 0.447364 0.000000
1.000000 0.474617 0.000000
1.000000 0.502281 0.000000
0.111543 0.146059 0.126955
0.112490 0.146212 0.126925
0.117403 0.146273 0.125246
0.129000 0.146548 0.124697
0.138033 0.148013 0.124514
0.150881 0.149111 0.125124
0.160006 0.149416 0.127199
0.172000 0.150942 0.128450
0.190005 0.153811 0.128420
0.209018 0.156893 0.128481
0.229404 0.160159 0.128603
0.251133 0.163516 0.128756
0.274449 0.167330 0.129122
0.300542 0.171481 0.129305
0.330022 0.176272 0.129397
0.363958 0.181338 0.129274
0.403113 0.187045 0.128359
0.448249 0.193515 0.126528
0.506310 0.202182 0.122560
0.573663 0.214054 0.115633
0.636225 0.228977 0.106142
0.692500 0.246830 0.092683
0.742702 0.267033 0.062928
0.789609 0.289616 0.013489
0.833310 0.314061 0.000000
0.874174 0.339696 0.000000
0.912383 0.366125 0.000000
0.948089 0.392889 0.000000
0.981506 0.419898 0.000000
1.000000 0.446815 0.000000
1.000000 0.473854 0.000000
1.000000 0.501152 0.000000
0.107210 0.155306 0.130373
0.107668 0.155489 0.130068
0.112032 0.155642 0.127657
0.123690 0.155764 0.126650
0.138521 0.156435 0.126223
0.151156 0.159030 0.125704
0.168368 0.161074 0.125399
0.178042 0.159426 0.128054
0.187778 0.159365 0.130312
0.203738 0.161685 0.131136
0.223941 0.164950 0.131258
0.245212 0.168399 0.131411
0.268437 0.172244 0.131777
0.294133 0.176486 0.131991
0.323186 0.181247 0.132387
0.356603 0.186526 0.132052
0.395544 0.192386 0.131411
0.440345 0.199100 0.129427
0.501396 0.208743 0.125795
0.567559 0.220859 0.118959
0.630030 0.235691 0.109865
0.686854 0.253269 0.096986
0.824033 0.320348 0.000000
0.867277 0.346349 0.000000
0.905333 0.371862 0.000000
0.939727 0.396674 0.000000
0.971038 0.420813 0.000000
1.000000 0.444495 0.000000
1.000000 0.468238 0.000000
1.000000 0.492164 0.000000
1.000000 0.516381 0.000000
1.000000 0.540795 0.000000
0.096437 0.169711 0.134859
0.097322 0.169680 0.134371
0.102052 0.169986 0.132052
0.113283 0.170260 0.128511
0.136446 0.169802 0.127626
0.153353 0.172091 0.127291
0.170993 0.176028 0.126497
0.193973 0.179385 0.125826
0.204593 0.174777 0.129549
0.214084 0.173342 0.132540
0.223972 0.173251 0.135592
0.246372 0.177096 0.135805
0.270695 0.181064 0.136019
0.297185 0.185702 0.136233
0.327337 0.190402 0.136233
0.361578 0.195834 0.135927
0.401404 0.202121 0.135012
0.453010 0.210575 0.132692
0.521569 0.222873 0.127687
0.592676 0.238224 0.119509
0.660578 0.257206 0.107576
0.723507 0.280247 0.090059
0.781277 0.306737 0.039155
0.833921 0.335332 0.000000
0.880461 0.364019 0.000000
0.920073 0.390967 0.000000
0.954650 0.416052 0.000000
0.985534 0.439979 0.000000
1.000000 0.463783 0.000000
1.000000 0.487404 0.000000
1.000000 0.511406 0.000000
1.000000 0.535760 0.000000
0.081880 0.182406 0.139193
0.083497 0.182376 0.138735
0.090028 0.182681 0.136233
0.096712 0.183291 0.130861
0.123018 0.182803 0.129824
0.151949 0.182193 0.128817
0.168002 0.186130 0.128542
0.188479 0.190921 0.127840
0.214939 0.196048 0.126650
0.226535 0.189883 0.130983
0.236362 0.186984 0.134951
0.246067 0.185946 0.138308
0.260380 0.187259 0.140414
0.286076 0.191531 0.140536
0.314672 0.196689 0.140780
0.347112 0.202060 0.140475
0.385443 0.208255 0.139406
0.439185 0.218112 0.137484
0.501274 0.229709 0.133425
0.569116 0.244022 0.126223
0.636103 0.261265 0.116060
0.699336 0.282658 0.101808
0.758145 0.307408 0.074189
0.812284 0.334691 0.010254
0.860807 0.362707 0.000000
0.902739 0.389410 0.000000
0.939239 0.414649 0.000000
0.972107 0.438697 0.000000
1.000000 0.462684 0.000000
1.000000 0.486366 0.000000
1.000000 0.510369 0.000000
1.000000 0.534722 0.000000
0.044800 0.196170 0.143984
0.048676 0.196262 0.143496
0.059876 0.196445 0.141421
0.081331 0.196902 0.137270
0.104280 0.196872 0.132204
0.137270 0.196139 0.131289
0.165591 0.196628 0.130495
0.184390 0.201419 0.130037
0.207584 0.207279 0.129519
0.237980 0.214389 0.128145
0.251438 0.207584 0.132631
0.261601 0.203281 0.137545
0.271641 0.200992 0.141268
0.281468 0.200137 0.144564
0.303410 0.203342 0.145571
0.334539 0.208957 0.145327
0.376593 0.217136 0.144717
0.426093 0.226505 0.142977
0.483772 0.237766 0.139345
0.549310 0.251713 0.133028
0.615442 0.268284 0.124086
0.678859 0.288548 0.111482
0.738582 0.312139 0.093141
0.793820 0.338231 0.043946
0.843778 0.365423 0.000000
0.887510 0.391638 0.000000
0.925933 0.416846 0.000000
0.960449 0.441047 0.000000
0.992279 0.464973 0.000000
1.000000 0.488655 0.000000
1.000000 0.512535 0.000000
1.000000 0.536797 0.000000
0.000000 0.210727 0.149233
0.001831 0.210697 0.148806
0.013062 0.210849 0.146792
0.036439 0.211276 0.142885
0.065644 0.211551 0.134798
0.117983 0.210605 0.133791
0.155703 0.209323 0.132876
0.181033 0.211734 0.132296
0.201999 0.217624 0.132021
0.227817 0.224704 0.131533
0.262699 0.234867 0.129641
0.278782 0.227359 0.133516
0.289616 0.221561 0.139284
0.299962 0.218051 0.143679
0.310674 0.216281 0.147219
0.325170 0.217136 0.150851
0.365179 0.225559 0.150332
0.412573 0.235142 0.148623
0.468147 0.246647 0.145418
0.531914 0.260716 0.139773
0.596826 0.277012 0.131441
0.658595 0.295720 0.120272
0.716304 0.316869 0.105470
0.770108 0.340337 0.082124
0.819516 0.364965 0.018494
0.864408 0.390021 0.000000
0.905058 0.414984 0.000000
0.942290 0.439673 0.000000
0.976806 0.464332 0.000000
1.000000 0.488899 0.000000
1.000000 0.513725 0.000000
1.000000 0.538781 0.000000
0.000000 0.225010 0.154208
0.000000 0.224979 0.153780
0.000000 0.225132 0.152102
0.000000 0.225498 0.148592
0.020478 0.226139 0.142428
0.089784 0.225986 0.136599
0.135927 0.224979 0.135470
0.176059 0.223575 0.134157
0.198428 0.228733 0.133974
0.222873 0.236088 0.133822
0.252079 0.245060 0.133242
0.293919 0.260288 0.129824
0.313542 0.252445 0.133303
0.326696 0.245457 0.140108
0.341527 0.242161 0.145266
0.356237 0.240269 0.149538
0.371038 0.239597 0.153048
0.396460 0.242924 0.154665
0.448646 0.254276 0.151858
0.509239 0.268223 0.146731
0.573602 0.284398 0.139376
0.635737 0.302495 0.129183
0.694850 0.323217 0.116152
0.750179 0.345983 0.098085
0.801328 0.370275 0.055604
0.847959 0.395087 0.000000
0.890593 0.420020 0.000000
0.929717 0.444800 0.000000
0.965881 0.469490 0.000000
0.999390 0.494209 0.000000
1.000000 0.519127 0.000000
1.000000 0.544305 0.000000
0.000000 0.241489 0.160098
0.000000 0.241581 0.159701
0.000000 0.241703 0.158083
0.000000 0.242039 0.154788
0.000000 0.242679 0.149355
0.000000 0.243259 0.139590
0.107729 0.242557 0.138460
0.156405 0.241489 0.137179
0.195773 0.241306 0.135927
0.219364 0.249271 0.135958
0.247959 0.258885 0.135470
0.282506 0.270787 0.134157
0.374853 0.323156 0.121218
0.411780 0.319127 0.122957
0.432013 0.309331 0.133089
0.450172 0.302190 0.140688
0.467323 0.296880 0.146548
0.484779 0.293400 0.150912
0.503380 0.291752 0.154482
0.553765 0.303624 0.150484
0.618738 0.323003 0.140871
0.679194 0.343786 0.128725
0.735042 0.366033 0.113252
0.786862 0.389258 0.092378
0.834104 0.412909 0.038544
0.876921 0.436042 0.000000
0.915190 0.458289 0.000000
0.950042 0.479957 0.000000
0.982238 0.501457 0.000000
1.000000 0.523461 0.000000
1.000000 0.545861 0.000000
1.000000 0.569329 0.000000
0.000000 0.266484 0.168582
0.000000 0.266453 0.168215
0.000000 0.266361 0.166598
0.000000 0.266361 0.163027
0.000000 0.266545 0.157717
0.000000 0.266911 0.147677
0.015900 0.266270 0.141909
0.130343 0.265019 0.140291
0.182712 0.263523 0.138674
0.219974 0.267185 0.137362
0.252506 0.281926 0.136660
0.294408 0.301366 0.134188
0.349096 0.326635 0.128145
0.437598 0.373327 0.102388
0.485115 0.374151 0.097108
0.503838 0.359045 0.114168
0.518944 0.346715 0.127108
0.532708 0.337072 0.136019
0.546960 0.330144 0.142245
0.562280 0.325536 0.147066
0.579248 0.323308 0.150851
0.640803 0.343297 0.140719
0.699367 0.365179 0.127596
0.753902 0.388251 0.111025
0.804318 0.411994 0.088472
0.850645 0.435950 0.027863
0.892576 0.459174 0.000000
0.930907 0.482002 0.000000
0.966247 0.504692 0.000000
0.999084 0.527642 0.000000
1.000000 0.550927 0.000000
1.000000 0.574853 0.000000
0.000000 0.286473 0.175021
0.000000 0.286259 0.174563
0.000000 0.286076 0.172702
0.000000 0.286107 0.169497
0.000000 0.286107 0.164157
0.000000 0.286473 0.156039
0.000000 0.287114 0.143893
0.069734 0.287297 0.142336
0.155764 0.287388 0.140658
0.212345 0.287480 0.138308
0.249821 0.299290 0.136629
0.290288 0.319249 0.133150
0.342748 0.344884 0.126345
0.408698 0.376898 0.112123
0.507164 0.430945 0.018708
0.558526 0.433967 0.000000
0.572503 0.412116 0.060975
0.583337 0.394263 0.101930
0.594446 0.380713 0.117800
0.606104 0.370520 0.127871
0.619471 0.363775 0.135256
0.635584 0.360296 0.140566
0.666835 0.366796 0.139559
0.724514 0.390448 0.124788
0.777951 0.414771 0.106630
0.827390 0.439277 0.078737
0.872526 0.463508 0.013275
0.913664 0.487037 0.000000
0.951476 0.510582 0.000000
0.986542 0.534234 0.000000
1.000000 0.558099 0.000000
1.000000 0.582788 0.000000
0.000000 0.314672 0.183291
0.000000 0.314672 0.182956
0.000000 0.314519 0.181216
0.000000 0.314427 0.177737
0.000000 0.314641 0.172183
0.000000 0.315221 0.163790
0.000000 0.316258 0.148470
0.000000 0.316045 0.143038
0.106294 0.315831 0.141024
0.185672 0.315709 0.138521
0.246250 0.316686 0.135378
0.285832 0.337316 0.131380
0.336645 0.363653 0.123140
0.399634 0.395972 0.106813
0.474647 0.433295 0.057313
0.569543 0.485298 0.000000
0.619989 0.489723 0.000000
0.633387 0.465461 0.000000
0.642542 0.444129 0.016175
0.651575 0.427283 0.085420
0.662104 0.414893 0.104860
0.675135 0.406867 0.116518
0.690486 0.402350 0.124422
0.708492 0.401251 0.130282
0.751339 0.417700 0.121157
0.803677 0.443122 0.101442
0.852293 0.468574 0.064820
0.897124 0.493874 0.007996
0.938506 0.519097 0.000000
0.976715 0.544610 0.000000
1.000000 0.570581 0.000000
1.000000 0.597101 0.068971
0.000000 0.346960 0.191989
0.000000 0.347173 0.191623
0.000000 0.347173 0.189792
0.000000 0.347448 0.186130
0.000000 0.347845 0.180209
0.000000 0.348791 0.171176
0.000000 0.350561 0.158022
0.000000 0.351598 0.141238
0.000000 0.351720 0.138705
0.137667 0.351904 0.135653
0.222538 0.351659 0.132021
0.283177 0.358679 0.127138
0.331518 0.384466 0.117128
0.390906 0.415290 0.098573
0.459205 0.449165 0.037415
0.531945 0.483742 0.000000
0.618952 0.530877 0.000000
0.669306 0.537896 0.000000
0.683680 0.513725 0.000000
0.692470 0.491005 0.000000
0.702327 0.473823 0.000000
0.713985 0.461128 0.039948
0.727749 0.452796 0.084047
0.743832 0.448341 0.099245
0.762325 0.447486 0.108675
0.783444 0.450111 0.116030
0.834867 0.476783 0.096071
0.882902 0.503593 0.059846
0.926787 0.529900 0.023560
0.966735 0.555962 0.017121
1.000000 0.582055 0.056855
1.000000 0.608453 0.111971
0.000000 0.381384 0.200504
0.000000 0.381445 0.199924
0.000000 0.381506 0.198032
0.000000 0.381811 0.194278
0.000000 0.382391 0.188022
0.000000 0.383459 0.178470
0.000000 0.385382 0.164675
0.000000 0.387243 0.137575
0.000000 0.387335 0.133272
0.000000 0.387274 0.129824
0.177066 0.386908 0.125643
0.264652 0.386114 0.120668
0.323796 0.402655 0.109834
0.381048 0.433387 0.087404
0.445838 0.465797 0.009491
0.515129 0.498970 0.000000
0.585260 0.531853 0.000000
0.665461 0.575067 0.000000
0.716854 0.585931 0.000000
0.732357 0.562554 0.000000
0.742031 0.539849 0.000000
0.752560 0.522423 0.000000
0.764675 0.509758 0.000000
0.778958 0.501183 0.000000
0.795285 0.496742 0.026001
0.814206 0.496162 0.066072
0.835843 0.499641 0.091402
0.867613 0.513054 0.096437
0.914519 0.541161 0.083497
0.956970 0.568627 0.087892
0.995422 0.595880 0.109071
1.000000 0.623285 0.144472
0.000000 0.423407 0.210300
0.000000 0.423957 0.209842
0.000000 0.458442 0.215885
0.000000 0.458900 0.210788
0.000000 0.459571 0.202396
0.000000 0.460517 0.189761
0.000000 0.462104 0.170443
0.000000 0.464027 0.137362
0.000000 0.464424 0.106813
0.000000 0.463996 0.101167
0.000000 0.463020 0.093477
0.236210 0.461189 0.081636
0.338018 0.457557 0.056336
0.400519 0.485145 0.000000
0.465400 0.515709 0.000000
0.532311 0.545983 0.000000
0.598413 0.575219 0.000000
0.662531 0.603967 0.000000
0.733333 0.640589 0.000000
0.781308 0.651270 0.000000
0.796323 0.627192 0.000000
0.805203 0.603235 0.000000
0.814786 0.584375 0.000000
0.825650 0.569970 0.000000
0.837736 0.559350 0.000000
0.851987 0.552941 0.000000
0.868467 0.550561 0.000000
0.887846 0.552728 0.049073
0.910369 0.559899 0.099702
0.946960 0.581720 0.116243
0.986999 0.609888 0.137636
1.000000 0.638117 0.172457
0.000000 0.479683 0.223697
0.000000 0.483070 0.224002
0.000000 0.486793 0.222354
0.000000 0.490333 0.218357
0.000000 0.493355 0.210452
0.000000 0.495186 0.197665
0.000000 0.496773 0.178347
0.000000 0.498573 0.148928
0.000000 0.499428 0.085756
0.000000 0.498390 0.072419
0.000000 0.497078 0.051453
0.141604 0.495064 0.027039
0.291386 0.491493 0.000671
0.381353 0.493965 0.000000
0.443580 0.523491 0.000000
0.508568 0.552972 0.000000
0.573236 0.581842 0.000000
0.636988 0.610559 0.000000
0.699245 0.639063 0.000000
0.766384 0.674037 0.000000
0.815274 0.688655 0.000000
0.833066 0.667994 0.000000
0.843137 0.645289 0.000000
0.853239 0.627008 0.000000
0.864103 0.612696 0.000000
0.876493 0.602319 0.000000
0.890837 0.596216 0.000000
0.907683 0.594537 0.000000
0.927489 0.597986 0.037629
0.950164 0.606561 0.112337
0.975067 0.620508 0.156435
1.000000 0.649866 0.193057
0.000000 0.517967 0.233188
0.000000 0.521538 0.233494
0.000000 0.525475 0.232059
0.000000 0.529259 0.228183
0.000000 0.532372 0.220096
0.000000 0.534325 0.206943
0.000000 0.535668 0.187198
0.000000 0.537194 0.157656
0.000000 0.538415 0.095430
0.000000 0.537774 0.000000
0.000000 0.536065 0.000000
0.000000 0.533745 0.000000
0.224796 0.530358 0.000000
0.349737 0.525841 0.000000
0.428779 0.537591 0.000000
0.492012 0.566064 0.000000
0.555566 0.594293 0.000000
0.618006 0.622187 0.000000
0.679072 0.649744 0.000000
0.738277 0.676844 0.000000
0.800168 0.708583 0.000000
0.848386 0.725460 0.000000
0.867399 0.706966 0.000000
0.877867 0.685328 0.000000
0.888151 0.667506 0.000000
0.899260 0.653590 0.000000
0.911925 0.643854 0.000000
0.926757 0.638544 0.000000
0.944244 0.638361 0.000000
0.964416 0.643336 0.094057
0.986816 0.653620 0.150729
1.000000 0.669398 0.205142
0.000000 0.558434 0.244266
0.000000 0.561669 0.244755
0.000000 0.565179 0.243229
0.000000 0.568536 0.238956
0.000000 0.571313 0.231083
0.000000 0.573022 0.217777
0.000000 0.574334 0.198062
0.000000 0.575616 0.168643
0.000000 0.577264 0.115877
0.000000 0.577386 0.000000
0.000000 0.575738 0.000000
0.000000 0.573419 0.000000
0.022461 0.570092 0.000000
0.298375 0.565759 0.000000
0.409705 0.560632 0.000000
0.479011 0.581842 0.000000
0.542321 0.610315 0.000000
0.605341 0.638911 0.000000
0.667201 0.667475 0.000000
0.727413 0.695613 0.000000
0.784817 0.722652 0.000000
0.843351 0.752651 0.000000
0.889372 0.770565 0.000000
0.909453 0.754482 0.000000
0.921508 0.735470 0.000000
0.933043 0.719509 0.000000
0.945342 0.707576 0.000000
0.959228 0.700008 0.000000
0.975219 0.697353 0.029938
0.993286 0.699763 0.136629
1.000000 0.707485 0.193881
1.000000 0.720729 0.253513
0.000000 0.619867 0.265202
0.000000 0.621241 0.264988
0.000000 0.622370 0.262791
0.000000 0.623224 0.257542
0.000000 0.623835 0.248081
0.000000 0.624079 0.233951
0.000000 0.624475 0.213687
0.000000 0.625269 0.183322
0.000000 0.626642 0.134829
0.000000 0.627710 0.000000
0.000000 0.626673 0.000000
0.000000 0.624506 0.000000
0.000000 0.621210 0.000000
0.225101 0.616938 0.000000
0.377020 0.611688 0.000000
0.477180 0.608911 0.000000
0.539117 0.635767 0.000000
0.600275 0.662623 0.000000
0.659876 0.688869 0.000000
0.717586 0.714321 0.000000
0.772274 0.738491 0.000000
0.823911 0.761288 0.000000
0.875425 0.786038 0.000000
0.917144 0.802487 0.000000
0.935515 0.786221 0.000000
0.948363 0.768856 0.000000
0.960388 0.754360 0.000000
0.973358 0.744106 0.000000
0.988006 0.738430 0.047425
1.000000 0.737545 0.147707
1.000000 0.741695 0.205905
1.000000 0.751064 0.264286
0.000000 0.660456 0.280522
0.000000 0.661524 0.280522
0.000000 0.662654 0.278264
0.000000 0.663508 0.272831
0.000000 0.664149 0.263737
0.000000 0.664485 0.249821
0.000000 0.664881 0.229343
0.000000 0.665644 0.200198
0.000000 0.666957 0.154879
0.000000 0.668299 0.000000
0.000000 0.668360 0.000000
0.000000 0.666407 0.000000
0.000000 0.663447 0.000000
0.000000 0.659724 0.000000
0.322942 0.655055 0.000000
0.448280 0.649866 0.000000
0.532097 0.657008 0.000000
0.592493 0.683009 0.000000
0.651484 0.708400 0.000000
0.708248 0.732692 0.000000
0.762234 0.755795 0.000000
0.813077 0.777340 0.000000
0.860075 0.797269 0.000000
0.906004 0.818143 0.000000
0.938842 0.828122 0.000000
0.956359 0.812497 0.000000
0.970550 0.797391 0.000000
0.983246 0.784512 0.000000
0.996765 0.776181 0.072206
1.000000 0.772305 0.158267
1.000000 0.773526 0.216709
1.000000 0.779721 0.273442
0.000000 0.713283 0.304479
0.000000 0.715145 0.304875
0.000000 0.716091 0.302678
0.000000 0.716030 0.296666
0.000000 0.715206 0.286870
0.000000 0.713985 0.272160
0.000000 0.712520 0.251499
0.000000 0.711360 0.222446
0.000000 0.710597 0.179324
0.000000 0.710475 0.096315
0.000000 0.709621 0.000000
0.000000 0.706538 0.000000
0.000000 0.702602 0.000000
0.000000 0.697688 0.000000
0.232456 0.691859 0.000000
0.399756 0.685542 0.000000
0.507927 0.679194 0.000000
0.576654 0.694301 0.000000
0.634455 0.718471 0.000000
0.690883 0.742214 0.000000
0.744839 0.764858 0.000000
0.795407 0.785794 0.000000
0.842069 0.804685 0.000000
0.884611 0.821622 0.000000
0.925200 0.838560 0.000000
0.960754 0.853910 0.141665
0.977630 0.839292 0.038148
0.992432 0.825650 0.000000
1.000000 0.814054 0.117128
1.000000 0.807126 0.178347
1.000000 0.804929 0.230838
1.000000 0.807675 0.284031
0.000000 0.746883 0.320684
0.000000 0.748562 0.320989
0.000000 0.749752 0.319036
0.000000 0.750179 0.313787
0.000000 0.750240 0.304723
0.000000 0.750149 0.291142
0.000000 0.750210 0.272129
0.000000 0.750515 0.244694
0.000000 0.751217 0.205905
0.000000 0.752255 0.141421
0.000000 0.752895 0.000000
0.000000 0.751888 0.000000
0.000000 0.748623 0.000000
0.000000 0.744228 0.000000
0.000000 0.738705 0.000000
0.348699 0.732631 0.000000
0.478889 0.726375 0.000000
0.575616 0.720546 0.000000
0.632227 0.742702 0.000000
0.687098 0.764431 0.000000
0.739681 0.785183 0.000000
0.789120 0.804562 0.000000
0.835080 0.822171 0.000000
0.877226 0.838163 0.000000
0.915496 0.852506 0.065888
0.951354 0.866728 0.187076
0.982910 0.879667 0.250706
1.000000 0.868498 0.225132
1.000000 0.857328 0.210300
1.000000 0.847990 0.238651
1.000000 0.843107 0.277684
1.000000 0.842252 0.321233
0.000000 0.789700 0.344579
0.000000 0.790555 0.344579
0.000000 0.790951 0.342412
0.000000 0.791104 0.337011
0.000000 0.790951 0.328069
0.000000 0.790646 0.314885
0.000000 0.790463 0.296422
0.000000 0.790433 0.270848
0.000000 0.790646 0.235508
0.000000 0.791226 0.181979
0.000000 0.791836 0.000000
0.000000 0.792111 0.000000
0.000000 0.789212 0.000000
0.000000 0.785245 0.000000
0.000000 0.780056 0.000000
0.269871 0.774289 0.000000
0.437781 0.768338 0.000000
0.548882 0.762692 0.000000
0.629145 0.765347 0.000000
0.682734 0.785214 0.000000
0.733944 0.804135 0.000000
0.782315 0.821775 0.000000
0.827298 0.837858 0.000000
0.868681 0.852445 0.000000
0.906188 0.865568 0.102937
0.940154 0.877470 0.202090
0.971832 0.889158 0.265934
0.999878 0.899840 0.316869
1.000000 0.891234 0.301579
1.000000 0.882139 0.285924
1.000000 0.874418 0.310185
1.000000 0.870665 0.344640
0.000000 0.826719 0.367315
0.000000 0.827390 0.367346
0.000000 0.827939 0.365362
0.000000 0.828336 0.360479
0.000000 0.828855 0.352514
0.000000 0.829770 0.341039
0.000000 0.831601 0.325292
0.000000 0.833951 0.303624
0.000000 0.836912 0.274113
0.000000 0.840269 0.232059
0.000000 0.843778 0.163760
0.000000 0.847410 0.000000
0.000000 0.848020 0.000000
0.000000 0.846250 0.000000
0.000000 0.843015 0.000000
0.193545 0.838437 0.000000
0.418616 0.833402 0.000000
0.545342 0.828336 0.000000
0.642756 0.823880 0.000000
0.707118 0.832059 0.000000
0.755581 0.847318 0.000000
0.801144 0.861479 0.000000
0.843107 0.874296 0.000000
0.881376 0.885954 0.136538
0.915862 0.896513 0.227512
0.947112 0.906126 0.291142
0.975402 0.914977 0.344884
1.000000 0.923430 0.392370
1.000000 0.930816 0.432776
1.000000 0.923857 0.423194
1.000000 0.916289 0.405676
1.000000 0.910369 0.427161
0.000000 0.883207 0.411261
0.000000 0.883268 0.410773
0.000000 0.883146 0.408209
0.000000 0.882933 0.403418
0.000000 0.882689 0.395392
0.000000 0.882536 0.383978
0.000000 0.882597 0.368536
0.000000 0.882872 0.347692
0.000000 0.883482 0.320562
0.000000 0.884276 0.284215
0.000000 0.885130 0.233402
0.000000 0.886503 0.099123
0.000000 0.886992 0.000000
0.000000 0.884154 0.000000
