20 Preset/Retro wedding/【3】LUT video cho PR-AE-FCPX/TONE (4).cube
# Created by Adobe Lightroom plugin Export LUT (1.24.0)
# www.johnrellis.com/lightroom/exportlut.htm
# Preset: 焦糖色调-素材江湖05
# Color profile: E:\lut插件\exportlut.1.24\exportlut.lrplugin\color profiles\Rec709gamma2.4.icc
LUT_3D_SIZE 8
DOMAIN_MIN 0.000000 0.000000 0.000000
DOMAIN_MAX 0.903226 0.903226 0.903226
0.115816 0.129549 0.120760
0.137331 0.133455 0.121431
0.203769 0.146487 0.124117
0.295201 0.161654 0.125551
0.439277 0.181521 0.122591
0.695338 0.234806 0.086702
0.882841 0.335027 0.000000
1.000000 0.435584 0.000000
0.111543 0.146059 0.126955
0.138033 0.148013 0.124514
0.190005 0.153811 0.128420
0.274449 0.167330 0.129122
0.403113 0.187045 0.128359
0.636225 0.228977 0.106142
0.833310 0.314061 0.000000
0.981506 0.419898 0.000000
0.044800 0.196170 0.143984
0.104280 0.196872 0.132204
0.207584 0.207279 0.129519
0.271641 0.200992 0.141268
0.376593 0.217136 0.144717
0.615442 0.268284 0.124086
0.843778 0.365423 0.000000
0.992279 0.464973 0.000000
0.000000 0.266484 0.168582
0.000000 0.266545 0.157717
0.182712 0.263523 0.138674
0.349096 0.326635 0.128145
0.518944 0.346715 0.127108
0.579248 0.323308 0.150851
0.804318 0.411994 0.088472
0.966247 0.504692 0.000000
0.000000 0.381384 0.200504
0.000000 0.382391 0.188022
0.000000 0.387335 0.133272
0.323796 0.402655 0.109834
0.585260 0.531853 0.000000
0.742031 0.539849 0.000000
0.795285 0.496742 0.026001
0.914519 0.541161 0.083497
0.000000 0.558434 0.244266
0.000000 0.571313 0.231083
0.000000 0.577264 0.115877
0.022461 0.570092 0.000000
0.542321 0.610315 0.000000
0.784817 0.722652 0.000000
0.921508 0.735470 0.000000
0.975219 0.697353 0.029938
0.000000 0.746883 0.320684
0.000000 0.750240 0.304723
0.000000 0.751217 0.205905
0.000000 0.748623 0.000000
0.478889 0.726375 0.000000
0.739681 0.785183 0.000000
0.915496 0.852506 0.065888
1.000000 0.857328 0.210300
0.000000 0.919493 0.442329
0.000000 0.919524 0.428412
0.000000 0.920958 0.364294
0.000000 0.925353 0.000000
0.258671 0.891783 0.000000
0.748745 0.884154 0.000000
0.904295 0.924468 0.238865
1.000000 0.950042 0.447211
0.120974 0.136538 0.132845
0.137545 0.134920 0.135927
0.202731 0.147463 0.135012
0.282170 0.165133 0.139590
0.413977 0.184543 0.139162
0.635431 0.220218 0.121675
0.822904 0.297368 0.033143
0.968902 0.399695 0.000000
0.118837 0.144472 0.139193
0.135714 0.148653 0.139681
0.192233 0.158633 0.141115
0.273289 0.172641 0.142794
0.398779 0.191745 0.142428
0.611902 0.225742 0.127047
0.797452 0.293584 0.065309
0.949096 0.391821 0.000000
0.061555 0.195132 0.165682
0.104860 0.196353 0.155734
0.201816 0.204044 0.145998
0.258762 0.199954 0.155001
0.367376 0.217533 0.155093
0.574792 0.256046 0.141299
0.784665 0.327459 0.092927
0.951904 0.428443 0.000000
0.000000 0.259068 0.184176
0.000000 0.259739 0.175204
0.167422 0.259983 0.150515
0.315770 0.299535 0.148226
0.437018 0.301518 0.154513
0.510369 0.292607 0.163333
0.737850 0.366796 0.123934
0.922087 0.464332 0.000000
0.000000 0.373266 0.216922
0.000000 0.372808 0.205722
0.000000 0.376257 0.147982
0.301732 0.377050 0.133394
0.539635 0.491005 0.000000
0.698482 0.502190 0.000000
0.755673 0.464881 0.106447
0.886961 0.515373 0.099550
0.000000 0.538384 0.258976
0.000000 0.540612 0.245457
0.000000 0.548211 0.166384
0.000000 0.547326 0.000000
0.516136 0.585809 0.000000
0.767666 0.706294 0.000000
0.907073 0.720516 0.000000
0.959838 0.680537 0.054627
0.000000 0.725246 0.329534
0.000000 0.722744 0.312474
0.000000 0.723507 0.228977
0.000000 0.725612 0.000000
0.447364 0.710231 0.000000
0.721431 0.768734 0.000000
0.900633 0.838041 0.000000
1.000000 0.843198 0.174655
0.000000 0.904997 0.444617
0.000000 0.907591 0.434028
0.000000 0.908843 0.371862
0.000000 0.913573 0.112154
0.250217 0.902342 0.000000
0.749050 0.886259 0.000000
0.900999 0.922148 0.248264
1.000000 0.948333 0.452125
0.128450 0.155032 0.170230
0.136110 0.152743 0.175021
0.208591 0.148135 0.186404
0.327520 0.153628 0.175204
0.477882 0.191958 0.180209
0.700832 0.234806 0.169375
0.868345 0.318853 0.138979
0.997803 0.418372 0.073671
0.138705 0.167880 0.171786
0.147860 0.169192 0.177066
0.204013 0.163912 0.187747
0.310796 0.175448 0.180667
0.454108 0.203830 0.183017
0.672358 0.241032 0.172274
0.844816 0.315526 0.141787
0.982544 0.413367 0.078523
0.123568 0.190677 0.193515
0.140047 0.193515 0.193820
0.195407 0.204318 0.194308
0.279271 0.217899 0.195163
0.425330 0.240055 0.194095
0.641871 0.278386 0.180423
0.825803 0.347875 0.151003
0.972076 0.440375 0.101411
0.000000 0.256504 0.241245
0.000000 0.266209 0.242100
0.126864 0.275639 0.214267
0.315343 0.302586 0.198276
0.421546 0.298131 0.204196
0.577539 0.323308 0.195254
0.786374 0.395941 0.168429
0.949706 0.485176 0.134157
0.000000 0.382574 0.287602
0.000000 0.384039 0.279850
0.000000 0.391943 0.240635
0.266941 0.394812 0.178012
0.545892 0.499458 0.156008
0.690517 0.493904 0.160891
0.744900 0.456855 0.180362
0.907256 0.532250 0.171267
0.000000 0.544884 0.337987
0.000000 0.547997 0.328923
0.000000 0.554406 0.277958
0.000000 0.560204 0.130709
0.492348 0.572107 0.059663
0.755917 0.697566 0.069184
0.895872 0.710109 0.139834
0.953613 0.677302 0.213230
0.000000 0.736080 0.416022
0.000000 0.734249 0.402655
0.000000 0.732662 0.342626
0.000000 0.736538 0.116640
0.374609 0.720150 0.000000
0.712886 0.766232 0.000000
0.901366 0.842557 0.256870
1.000000 0.848814 0.320256
0.000000 0.907073 0.515648
0.000000 0.906004 0.503563
0.000000 0.906920 0.454444
0.000000 0.913329 0.340795
0.000000 0.906584 0.105989
0.728176 0.890776 0.000000
0.899260 0.923919 0.328069
1.000000 0.950530 0.511772
0.144350 0.186893 0.227481
0.149447 0.185306 0.233433
0.200168 0.185550 0.250553
0.321263 0.170047 0.267002
0.574304 0.039857 0.272831
0.780697 0.183383 0.249851
0.902770 0.307469 0.234684
1.000000 0.412879 0.221408
0.159731 0.202304 0.231418
0.166903 0.202762 0.236332
0.203952 0.199283 0.252750
0.322148 0.184207 0.270359
0.573999 0.110506 0.273655
0.770809 0.221408 0.255650
0.894133 0.318181 0.236942
1.000000 0.419074 0.223423
0.164523 0.222843 0.236423
0.176822 0.225772 0.236698
0.214664 0.234928 0.248203
0.309880 0.226017 0.271733
0.545190 0.209323 0.267460
0.742672 0.297612 0.268956
0.894102 0.384375 0.261021
1.000000 0.467079 0.248631
0.103792 0.260655 0.275456
0.123873 0.262608 0.275547
0.186648 0.272587 0.277348
0.293950 0.294438 0.280125
0.457343 0.319829 0.280095
0.656703 0.360021 0.273350
0.832456 0.424933 0.263554
0.973480 0.505577 0.259220
0.000000 0.366979 0.363043
0.000000 0.369482 0.363195
0.000000 0.390723 0.369055
0.006989 0.439033 0.322911
0.532891 0.496223 0.286870
0.656916 0.471046 0.289677
0.770748 0.480842 0.277317
0.938476 0.565576 0.288609
0.000000 0.577264 0.480934
0.000000 0.587671 0.482429
0.000000 0.590631 0.449012
0.000000 0.602045 0.360479
0.443824 0.591455 0.230442
0.749355 0.699001 0.316503
0.877440 0.699580 0.342229
0.938293 0.671870 0.345556
0.000000 0.748135 0.548058
0.000000 0.750057 0.541558
0.000000 0.754025 0.506584
0.000000 0.760616 0.414649
0.000000 0.756191 0.219791
0.699855 0.766384 0.221805
0.896269 0.845762 0.417762
0.995636 0.849577 0.457618
0.000000 0.919738 0.639826
0.000000 0.919677 0.631922
0.000000 0.920104 0.597040
0.000000 0.921019 0.519982
0.000000 0.919402 0.331304
0.667872 0.901091 0.274540
0.891630 0.924285 0.426581
0.999542 0.954192 0.603113
0.156374 0.236820 0.324468
0.160647 0.235599 0.332494
0.199619 0.229282 0.356512
0.352239 0.222690 0.412024
0.572076 0.140047 0.440192
0.836545 0.000000 0.445869
0.970642 0.100557 0.363928
1.000000 0.472786 0.418158
0.172152 0.252506 0.329107
0.176883 0.252171 0.337591
0.204013 0.241978 0.361730
0.351629 0.236454 0.413947
0.571496 0.163027 0.441871
0.832303 0.000000 0.444312
0.966278 0.170108 0.366461
1.000000 0.480385 0.419928
0.192508 0.280247 0.321843
0.199863 0.282536 0.327825
0.234195 0.288121 0.354772
0.334264 0.281071 0.406744
0.548241 0.233585 0.433875
0.793759 0.172976 0.424201
0.932464 0.338689 0.391547
1.000000 0.497627 0.415930
0.140566 0.313359 0.353063
0.159152 0.315618 0.353429
0.225803 0.327703 0.356634
0.331914 0.355596 0.385687
0.530175 0.344579 0.442451
0.755978 0.362371 0.424384
0.885374 0.489601 0.439124
0.991302 0.548089 0.428504
0.000000 0.381445 0.417731
0.000000 0.384222 0.418952
0.000000 0.393713 0.421118
0.253086 0.415045 0.424994
0.465339 0.451637 0.425849
0.652491 0.487739 0.426276
0.818387 0.535760 0.424781
0.955749 0.596002 0.429206
0.000000 0.494392 0.499062
0.000000 0.497871 0.500572
0.000000 0.506645 0.501244
0.000000 0.532341 0.508598
0.226108 0.593439 0.453376
0.696223 0.659754 0.452918
0.818173 0.651820 0.460060
0.913695 0.656428 0.447028
0.000000 0.715908 0.661646
0.000000 0.719722 0.659358
0.000000 0.742550 0.656062
0.000000 0.755062 0.611719
0.000000 0.762234 0.503655
0.623041 0.744259 0.366033
0.872007 0.832639 0.532830
0.969970 0.829587 0.548241
0.000000 0.907347 0.757137
0.000000 0.907225 0.751553
0.000000 0.907713 0.727779
0.000000 0.916411 0.682948
0.000000 0.915190 0.586236
0.509575 0.906249 0.442084
0.863249 0.911894 0.494148
0.986053 0.948974 0.670863
0.088594 0.325505 0.510918
0.106477 0.323064 0.518364
0.163241 0.303288 0.540246
0.371923 0.308507 0.591028
0.632807 0.299535 0.654597
0.821256 0.183261 0.651423
0.996735 0.172519 0.636805
1.000000 0.417762 0.580316
0.134768 0.333227 0.496925
0.144411 0.329961 0.501854
0.184176 0.313542 0.525231
0.354192 0.310521 0.569085
0.609308 0.303349 0.633936
0.803342 0.199771 0.636439
0.984894 0.190829 0.626154
1.000000 0.418006 0.572747
0.181491 0.381567 0.501640
0.198856 0.382605 0.507073
0.260746 0.384497 0.532433
0.355688 0.362341 0.566705
0.593652 0.375311 0.628290
0.792355 0.308324 0.638636
0.969848 0.333257 0.628779
1.000000 0.486305 0.585779
0.188998 0.427436 0.498726
0.214694 0.428809 0.497017
0.294560 0.443061 0.508049
0.423713 0.477485 0.565026
0.584619 0.493355 0.633387
0.781949 0.465461 0.658350
0.947539 0.498054 0.645380
1.000000 0.596246 0.620478
0.000000 0.464759 0.534630
0.000000 0.466682 0.534539
0.158480 0.476783 0.535729
0.363684 0.503075 0.539910
0.538445 0.547997 0.568994
0.720790 0.559472 0.633539
0.895140 0.591913 0.623743
0.981506 0.691920 0.648127
0.000000 0.536614 0.588830
0.000000 0.542016 0.593011
0.000000 0.548486 0.593133
0.117891 0.563806 0.594049
0.436957 0.589532 0.595209
0.653468 0.638819 0.607477
0.821012 0.683711 0.621180
0.948913 0.725368 0.627985
0.000000 0.672724 0.693904
0.000000 0.677546 0.697566
0.000000 0.687984 0.702480
0.000000 0.705806 0.707698
0.000000 0.734646 0.715328
0.500267 0.782925 0.651209
0.848325 0.826658 0.669306
0.940581 0.815061 0.662806
0.000000 0.845029 0.835508
0.000000 0.844907 0.834226
0.000000 0.855039 0.833585
0.000000 0.897459 0.834928
0.000000 0.918334 0.792172
0.292729 0.912352 0.686275
0.806821 0.897581 0.579217
0.971832 0.946502 0.757107
0.215366 0.447242 0.674983
0.234257 0.448096 0.681849
0.280735 0.434089 0.695369
0.416907 0.431495 0.723964
0.609339 0.450324 0.760861
0.809751 0.476478 0.804593
0.948394 0.401587 0.795132
1.000000 0.431708 0.763455
0.222293 0.447120 0.658473
0.240452 0.449134 0.666407
0.283116 0.436530 0.680751
0.399329 0.426307 0.707362
0.591089 0.442451 0.744533
0.793729 0.464088 0.788998
0.932006 0.380102 0.776425
1.000000 0.403296 0.745907
0.288945 0.496132 0.659968
0.307256 0.497963 0.663966
0.356146 0.495399 0.677119
0.415778 0.472847 0.704402
0.586633 0.488899 0.739193
0.782864 0.517479 0.786923
0.927031 0.459419 0.785245
1.000000 0.492134 0.763699
0.332799 0.548608 0.650996
0.343603 0.547997 0.652064
0.394965 0.553307 0.664179
0.490272 0.568933 0.697261
0.588922 0.565637 0.737636
0.769009 0.603632 0.789548
0.914611 0.568231 0.797787
1.000000 0.589899 0.779507
0.241947 0.570855 0.655756
0.261875 0.569329 0.652064
0.344579 0.574823 0.648005
0.466651 0.595270 0.649439
0.588617 0.628626 0.702266
0.723537 0.652155 0.763394
0.880125 0.641291 0.787686
1.000000 0.682155 0.784695
0.000000 0.614466 0.697627
0.000000 0.616571 0.698299
0.103120 0.623682 0.699031
0.359289 0.638911 0.700801
0.536461 0.664607 0.702449
0.704250 0.718166 0.737942
0.855833 0.746609 0.801511
0.978729 0.774197 0.795346
0.000000 0.693690 0.761440
0.000000 0.696742 0.763363
0.000000 0.701289 0.763272
0.000000 0.712276 0.764584
0.400488 0.728328 0.764157
0.620203 0.755093 0.765713
0.799008 0.796780 0.775174
0.929870 0.830228 0.786130
0.000000 0.803098 0.843107
0.000000 0.804746 0.843809
0.000000 0.815610 0.850431
0.000000 0.831601 0.858244
0.000000 0.851804 0.864714
0.212161 0.877775 0.870329
0.695888 0.915221 0.812131
0.954803 0.943297 0.842802
0.446906 0.598077 0.806790
0.454597 0.598322 0.809873
0.469886 0.586481 0.814542
0.521813 0.575341 0.830320
0.640772 0.590906 0.849363
0.775814 0.613825 0.873625
0.909331 0.637415 0.897887
1.000000 0.595544 0.895781
0.443122 0.596979 0.798367
0.451026 0.597528 0.801785
0.469520 0.588617 0.808438
0.513939 0.573480 0.823911
0.633143 0.588769 0.843534
0.769223 0.611536 0.868528
0.903838 0.632959 0.892790
1.000000 0.587762 0.890013
0.463600 0.621149 0.791287
0.474495 0.622950 0.793729
0.494759 0.617273 0.800015
0.539849 0.611078 0.820493
0.632746 0.613947 0.839536
0.761318 0.633265 0.863462
0.897124 0.659907 0.891203
1.000000 0.617060 0.889586
0.461860 0.646967 0.778439
0.473274 0.649622 0.781613
0.510918 0.654536 0.789792
0.574487 0.663539 0.809079
0.632044 0.654322 0.833402
0.754208 0.677852 0.860533
0.890684 0.714382 0.894652
0.995911 0.676783 0.894865
0.444984 0.672633 0.761776
0.458442 0.675715 0.762905
0.488045 0.678035 0.767208
0.555322 0.690608 0.786252
0.647089 0.708858 0.815091
0.732692 0.714748 0.848783
0.869657 0.755154 0.889158
0.981811 0.739925 0.900481
0.322484 0.698421 0.794339
0.333501 0.697383 0.792264
0.385351 0.697658 0.787411
0.481514 0.706569 0.784298
0.605463 0.729366 0.784421
0.736141 0.774228 0.836545
0.855039 0.813687 0.892607
0.971618 0.822629 0.918059
0.000000 0.751736 0.844022
0.000000 0.751949 0.843381
0.159152 0.753780 0.841459
0.365209 0.762264 0.841215
0.532647 0.778592 0.841886
0.693294 0.808194 0.846464
0.837705 0.856901 0.877684
0.950530 0.877958 0.921111
0.000000 0.829801 0.905547
0.000000 0.829862 0.905028
0.000000 0.832395 0.904662
0.000000 0.840116 0.905974
0.386633 0.851469 0.906584
0.601373 0.867338 0.906218
0.774533 0.890227 0.906737
0.916564 0.920684 0.911315
