20 Preset/Retro wedding/【3】LUT video cho PR-AE-FCPX/TONE (2).cube
# Created by Adobe Lightroom plugin Export LUT (1.24.0)
# www.johnrellis.com/lightroom/exportlut.htm
# Preset: 焦糖色调-素材江湖03
# Color profile: E:\lut插件\exportlut.1.24\exportlut.lrplugin\color profiles\Rec709gamma2.4.icc
LUT_3D_SIZE 32
DOMAIN_MIN 0.0 0.0 0.0
DOMAIN_MAX 1.0 1.0 1.0
0.190005 0.170993 0.163027
0.190005 0.170993 0.163027
0.190005 0.170993 0.163027
0.190005 0.170993 0.163027
0.190799 0.170901 0.163027
0.193820 0.170657 0.162997
0.196933 0.170596 0.162905
0.200961 0.170352 0.162844
0.205600 0.170047 0.162753
0.211154 0.169741 0.162661
0.217166 0.169680 0.162875
0.224277 0.169741 0.163027
0.232334 0.169741 0.163516
0.241642 0.169802 0.163760
0.252445 0.169467 0.163973
0.264744 0.169223 0.164309
0.278843 0.168765 0.164553
0.295476 0.168124 0.165011
0.315251 0.167208 0.165347
0.339483 0.165896 0.165743
0.369116 0.163394 0.166049
0.404639 0.159152 0.166323
0.445777 0.152010 0.166232
0.493019 0.141176 0.165866
0.546380 0.123384 0.165042
0.605371 0.091554 0.164096
0.669673 0.000000 0.162448
0.737087 0.000000 0.160372
0.838743 0.000000 0.157107
0.938384 0.000000 0.154177
1.000000 0.000000 0.155154
1.000000 0.000000 0.163302
0.190005 0.170993 0.163027
0.190005 0.170993 0.163027
0.190005 0.170993 0.163027
0.190005 0.170993 0.163027
0.190799 0.170901 0.163027
0.193820 0.170657 0.162997
0.196689 0.170626 0.162905
0.200229 0.170474 0.162844
0.204990 0.169955 0.162783
0.210330 0.169680 0.162692
0.216190 0.169650 0.162722
0.222660 0.169802 0.163058
0.230503 0.169711 0.163394
0.239597 0.169650 0.163668
0.249943 0.169436 0.164065
0.261662 0.169162 0.164248
0.275486 0.168795 0.164675
0.291447 0.168246 0.165011
0.310246 0.167666 0.165316
0.333257 0.166171 0.165682
0.360845 0.164065 0.165896
0.393957 0.160616 0.166293
0.432319 0.154818 0.166171
0.477272 0.145418 0.165866
0.528649 0.129824 0.165316
0.585901 0.103639 0.164492
0.649104 0.013184 0.162936
0.717372 0.000000 0.160983
0.815427 0.000000 0.157839
0.912505 0.000000 0.154665
0.998840 0.000000 0.154208
1.000000 0.000000 0.159792
0.190005 0.170993 0.163027
0.190005 0.170993 0.163027
0.190005 0.170993 0.163027
0.190005 0.170993 0.163027
0.191501 0.170962 0.162997
0.193973 0.170809 0.162966
0.196933 0.170596 0.162905
0.200229 0.170474 0.162844
0.204746 0.169986 0.162783
0.210086 0.169741 0.162692
0.215732 0.169711 0.162722
0.222324 0.169711 0.163088
0.229740 0.169833 0.163210
0.238315 0.169711 0.163699
0.248234 0.169589 0.163912
0.259861 0.169375 0.164279
0.273075 0.168978 0.164553
0.288853 0.168338 0.164920
0.307256 0.167758 0.165286
0.329686 0.166506 0.165621
0.356847 0.164309 0.165896
0.389044 0.161227 0.166171
0.426337 0.156039 0.166110
0.470314 0.146883 0.166110
0.520287 0.132845 0.165469
0.576349 0.109468 0.164614
0.639185 0.034791 0.163210
0.707393 0.000000 0.161471
0.803708 0.000000 0.158419
0.899413 0.000000 0.155398
0.985931 0.000000 0.153964
1.000000 0.000000 0.158083
0.190188 0.171145 0.162997
0.190188 0.171145 0.162997
0.190341 0.171298 0.162966
0.191043 0.171389 0.162936
0.192660 0.171511 0.162875
0.195071 0.171542 0.162814
0.197757 0.171328 0.162783
0.201114 0.171054 0.162753
0.205264 0.170779 0.162661
0.210147 0.170596 0.162570
0.215793 0.170413 0.162997
0.222080 0.170260 0.162997
0.229160 0.170291 0.163333
0.237675 0.169986 0.163668
0.247318 0.169772 0.163943
0.258152 0.169711 0.164279
0.270939 0.169284 0.164431
0.285527 0.168948 0.164797
0.302647 0.168429 0.165194
0.323430 0.167605 0.165621
0.348455 0.165774 0.165988
0.378454 0.163363 0.166201
0.414252 0.158694 0.166262
0.457496 0.150851 0.166171
0.508629 0.137057 0.165591
0.566735 0.114443 0.164736
0.631708 0.050111 0.163455
0.701900 0.000000 0.161593
0.799313 0.000000 0.158389
0.894377 0.000000 0.155215
0.979828 0.000000 0.153811
1.000000 0.000000 0.157321
0.191135 0.173587 0.162631
0.191043 0.173770 0.162600
0.191562 0.173709 0.162600
0.192599 0.173556 0.162600
0.194400 0.173342 0.162570
0.196353 0.172732 0.162631
0.198245 0.172641 0.162783
0.201755 0.172488 0.162692
0.205570 0.172274 0.162997
0.209873 0.172335 0.163058
0.214908 0.172244 0.163302
0.220981 0.172152 0.163516
0.228000 0.172030 0.163699
0.235935 0.172030 0.164004
0.245212 0.172030 0.164218
0.255924 0.171878 0.164431
0.268284 0.171756 0.164736
0.282597 0.171511 0.165103
0.299565 0.171115 0.165347
0.319615 0.170565 0.165743
0.343786 0.169528 0.166110
0.372992 0.167453 0.166537
0.407813 0.163790 0.166415
0.450263 0.157290 0.166293
0.500999 0.145724 0.165743
0.559838 0.125673 0.164858
0.625971 0.085878 0.163485
0.697963 0.000000 0.161715
0.796048 0.000000 0.158633
0.888487 0.000000 0.155612
0.972747 0.000000 0.153933
1.000000 0.000000 0.156649
0.192599 0.176394 0.163272
0.192599 0.176394 0.163272
0.193118 0.176303 0.163272
0.194339 0.176333 0.163058
0.195895 0.176120 0.163058
0.198093 0.175814 0.163210
0.200412 0.175357 0.163241
0.201724 0.174838 0.163638
0.206027 0.174746 0.163546
0.210391 0.174594 0.163638
0.215396 0.174533 0.163882
0.221195 0.174624 0.163882
0.228000 0.174533 0.164065
0.235752 0.174563 0.164370
0.244846 0.174624 0.164614
0.255344 0.174685 0.164767
0.267582 0.174929 0.165194
0.281926 0.174868 0.165347
0.298833 0.174838 0.165743
0.318914 0.174502 0.166110
0.342931 0.173861 0.166629
0.371740 0.172366 0.166812
0.473732 0.162478 0.166445
0.526452 0.151308 0.165743
0.584863 0.133394 0.164431
0.648646 0.101534 0.162905
0.715541 0.000000 0.160647
0.804288 0.000000 0.157931
0.912261 0.000000 0.154116
1.000000 0.000000 0.154086
1.000000 0.000000 0.160098
1.000000 0.000000 0.173465
0.195377 0.181643 0.164431
0.195621 0.181613 0.164431
0.196139 0.181552 0.164431
0.197421 0.181399 0.164248
0.199466 0.181155 0.164034
0.201694 0.180850 0.163851
0.204929 0.180575 0.163973
0.207889 0.179843 0.164218
0.209751 0.178622 0.164523
0.212894 0.178164 0.164706
0.218784 0.178256 0.164706
0.225620 0.178347 0.164828
0.232822 0.178653 0.164950
0.241245 0.178714 0.165011
0.250675 0.178988 0.165377
0.261692 0.179202 0.165682
0.274632 0.179355 0.165896
0.289555 0.179721 0.166140
0.307683 0.179904 0.166751
0.330236 0.179843 0.167117
0.358770 0.179568 0.167239
0.395026 0.178164 0.167208
0.440223 0.174533 0.167086
0.494636 0.167605 0.166476
0.557031 0.154849 0.165286
0.622858 0.135348 0.163516
0.691768 0.100343 0.161379
0.799435 0.000000 0.157351
0.896849 0.000000 0.153811
0.981659 0.000000 0.152743
1.000000 0.000000 0.157137
1.000000 0.000000 0.167880
0.198215 0.186099 0.165652
0.198306 0.185916 0.165682
0.198734 0.186038 0.165469
0.199985 0.185885 0.165469
0.201755 0.185672 0.165103
0.204166 0.185519 0.164706
0.207034 0.185153 0.164492
0.211032 0.184939 0.164431
0.214206 0.183841 0.164858
0.216648 0.182559 0.165194
0.218479 0.181491 0.165835
0.224277 0.181430 0.165682
0.231449 0.181888 0.165743
0.239902 0.182101 0.165805
0.248661 0.182498 0.166018
0.259068 0.182986 0.166293
0.271122 0.183536 0.166659
0.285283 0.184085 0.166903
0.302495 0.184695 0.167330
0.323674 0.185122 0.167697
0.350042 0.185641 0.167880
0.383825 0.185275 0.167910
0.426337 0.183749 0.167636
0.478065 0.179690 0.167086
0.538170 0.171725 0.165713
0.603174 0.158297 0.164004
0.697871 0.131899 0.160769
0.794430 0.083772 0.156985
0.883482 0.000000 0.153079
0.964508 0.000000 0.151614
1.000000 0.000000 0.154665
1.000000 0.000000 0.163912
0.201419 0.191043 0.167300
0.201328 0.191226 0.167300
0.201938 0.191012 0.167117
0.202853 0.191043 0.166934
0.204562 0.190829 0.166720
0.207034 0.190524 0.166171
0.209873 0.190188 0.165774
0.213687 0.190005 0.165164
0.218051 0.189853 0.165255
0.221653 0.188907 0.165652
0.224826 0.187533 0.165988
0.227024 0.185977 0.166537
0.229709 0.185245 0.167086
0.237888 0.185824 0.167117
0.247410 0.186404 0.167056
0.257664 0.187076 0.167147
0.269261 0.187839 0.167483
0.282872 0.188663 0.167880
0.299260 0.189639 0.168124
0.319463 0.190768 0.168429
0.344640 0.191867 0.168582
0.376471 0.192569 0.168612
0.416907 0.192447 0.168338
0.466377 0.190555 0.167605
0.524468 0.186038 0.166354
0.609186 0.176547 0.163851
0.702205 0.161105 0.160189
0.789822 0.141665 0.156283
0.872923 0.116213 0.152529
0.950225 0.066072 0.150484
1.000000 0.000000 0.152621
1.000000 0.000000 0.161013
0.205325 0.197024 0.169253
0.205325 0.197024 0.169253
0.205936 0.196811 0.169070
0.206668 0.196750 0.168917
0.208194 0.196414 0.168734
0.210361 0.196170 0.168185
0.213199 0.195834 0.167636
0.216464 0.195712 0.167025
0.220615 0.195315 0.166445
0.225895 0.195468 0.166079
0.229984 0.194308 0.166690
0.232975 0.192996 0.166995
0.235721 0.191257 0.167575
0.237736 0.189731 0.168276
0.244114 0.189914 0.168582
0.254612 0.190860 0.168612
0.267033 0.192081 0.168490
0.281041 0.193423 0.168795
0.297398 0.194827 0.169131
0.316869 0.196536 0.169192
0.340795 0.198215 0.169497
0.370428 0.199619 0.169406
0.407111 0.200778 0.169009
0.453986 0.200839 0.168460
0.524529 0.199832 0.166781
0.603571 0.195438 0.164248
0.686427 0.188327 0.160708
0.767697 0.179538 0.156588
0.847196 0.169100 0.152804
0.924865 0.156619 0.149966
0.995087 0.142061 0.150698
1.000000 0.128084 0.157748
0.208988 0.203037 0.171084
0.209232 0.203006 0.171084
0.209476 0.203006 0.170901
0.210636 0.202853 0.170901
0.212284 0.202670 0.170565
0.214298 0.202579 0.170169
0.216953 0.202396 0.169772
0.220371 0.202243 0.169192
0.224460 0.202152 0.168551
0.229313 0.201938 0.167727
0.235752 0.202579 0.167056
0.240269 0.201511 0.167819
0.243565 0.199619 0.168215
0.246891 0.197848 0.168582
0.248966 0.195956 0.169558
0.251652 0.194522 0.170230
0.263310 0.196139 0.170230
0.277501 0.197757 0.170138
0.294194 0.199802 0.170169
0.313298 0.201877 0.170199
0.336156 0.203952 0.170321
0.363806 0.206455 0.170321
0.407111 0.209964 0.169863
0.462226 0.212924 0.168978
0.528038 0.214420 0.167147
0.601190 0.214176 0.164370
0.678218 0.212253 0.160708
0.755856 0.209751 0.156649
0.831968 0.207187 0.152346
0.908110 0.204135 0.149020
0.978882 0.200534 0.148836
1.000000 0.196506 0.155123
0.214084 0.210971 0.173342
0.214054 0.211093 0.173159
0.214481 0.211063 0.173159
0.215640 0.210941 0.172976
0.217136 0.210880 0.172763
0.219272 0.210758 0.172580
0.221897 0.210849 0.171969
0.225559 0.210788 0.171359
0.229740 0.210666 0.170718
0.234897 0.210666 0.169894
0.240543 0.210727 0.169162
0.248722 0.211917 0.168154
0.265354 0.218448 0.169833
0.269444 0.215732 0.170382
0.273228 0.212741 0.170993
0.275303 0.209445 0.171695
0.276555 0.206455 0.172671
0.286320 0.206729 0.172946
0.304875 0.209720 0.172854
0.332372 0.214450 0.172793
0.369146 0.220035 0.172213
0.413550 0.226078 0.171389
0.468513 0.232242 0.169924
0.533989 0.237919 0.167788
0.605798 0.243229 0.164523
0.680232 0.247929 0.160159
0.752193 0.252445 0.155520
0.821347 0.256352 0.151308
0.889311 0.259831 0.147890
0.954864 0.262669 0.146700
1.000000 0.264256 0.151827
1.000000 0.266575 0.163882
0.222812 0.226261 0.176852
0.223026 0.226230 0.176852
0.223636 0.225956 0.176730
0.224491 0.225620 0.176425
0.225925 0.225223 0.176120
0.228031 0.224765 0.175662
0.230747 0.224460 0.175143
0.234714 0.224247 0.174380
0.239292 0.224308 0.173739
0.245060 0.224521 0.173007
0.251926 0.225193 0.171969
0.260136 0.226230 0.170779
0.272343 0.229038 0.169772
0.279332 0.227878 0.170596
0.286107 0.226352 0.171511
0.292699 0.224460 0.172152
0.297704 0.221836 0.172946
0.301091 0.218814 0.174258
0.305303 0.216556 0.175326
0.331182 0.221744 0.175051
0.363958 0.227787 0.174411
0.406073 0.234592 0.173220
0.458045 0.241886 0.171115
0.516442 0.249241 0.169009
0.581781 0.256321 0.165774
0.651301 0.263371 0.161776
0.721614 0.270451 0.156893
0.789944 0.277348 0.152346
0.858610 0.284184 0.148165
0.926879 0.291173 0.145693
0.989410 0.296757 0.148592
1.000000 0.301671 0.160006
0.229313 0.237858 0.179141
0.229404 0.237736 0.179019
0.229831 0.237369 0.179080
0.230747 0.237186 0.178744
0.232364 0.236790 0.178470
0.234836 0.236515 0.177951
0.238010 0.236515 0.177371
0.242039 0.236698 0.176883
0.247318 0.237308 0.176272
0.254093 0.238468 0.175479
0.262394 0.240116 0.174502
0.272618 0.242527 0.173617
0.285191 0.245762 0.172274
0.303197 0.251804 0.170474
0.313939 0.251682 0.171603
0.321569 0.248844 0.172396
0.327428 0.244968 0.173007
0.331579 0.240452 0.173953
0.333562 0.235294 0.175296
0.334752 0.230564 0.176516
0.353704 0.232700 0.176822
0.391638 0.240299 0.175814
0.438941 0.248783 0.173892
0.496071 0.258030 0.171023
0.559960 0.267399 0.167330
0.626612 0.276616 0.163241
0.695247 0.286107 0.158328
0.763241 0.295567 0.153475
0.831479 0.305364 0.148775
0.901183 0.315648 0.145327
0.967071 0.324865 0.146883
1.000000 0.333135 0.156832
0.241947 0.261326 0.182925
0.241978 0.261326 0.182773
0.242435 0.260716 0.182589
0.243229 0.259861 0.182437
0.244602 0.258976 0.181949
0.246952 0.257969 0.181308
0.250248 0.257420 0.180697
0.254826 0.257420 0.180056
0.260716 0.257939 0.179263
0.268223 0.259312 0.178225
0.277714 0.261540 0.177188
0.289311 0.264622 0.176028
0.302770 0.268193 0.174441
0.319707 0.273228 0.172427
0.342718 0.281254 0.169680
0.353185 0.278874 0.170626
0.360327 0.273930 0.171725
0.365087 0.267643 0.172732
0.369390 0.261540 0.173495
0.369390 0.254154 0.175387
0.369696 0.247623 0.177005
0.375341 0.243626 0.178195
0.418250 0.252964 0.176730
0.470375 0.263401 0.174258
0.531365 0.274571 0.170596
0.599237 0.286412 0.165438
0.668330 0.298497 0.160128
0.738521 0.311315 0.154574
0.809873 0.324895 0.149355
0.882994 0.339788 0.145022
0.954559 0.354314 0.146120
1.000000 0.367285 0.158175
0.254124 0.286625 0.185519
0.254215 0.286687 0.185489
0.254887 0.286473 0.185367
0.256138 0.285924 0.185153
0.258000 0.285252 0.184634
0.261173 0.284703 0.184207
0.265599 0.284947 0.183536
0.271214 0.285557 0.182712
0.278416 0.286809 0.181827
0.287358 0.288670 0.180697
0.297887 0.291020 0.179355
0.310216 0.293736 0.177798
0.324010 0.296727 0.175692
0.339086 0.299290 0.173373
0.358404 0.304234 0.170016
0.383001 0.311559 0.166629
0.392065 0.306310 0.168093
0.398383 0.299046 0.169741
0.402808 0.291142 0.171084
0.407080 0.283482 0.172244
0.408637 0.275181 0.174350
0.409369 0.267338 0.176425
0.410285 0.260136 0.178408
0.446876 0.266789 0.177340
0.505150 0.280003 0.174289
0.571801 0.294438 0.169558
0.644984 0.310094 0.163119
0.719753 0.326726 0.155398
0.791897 0.343450 0.149447
0.865293 0.361059 0.145022
0.937255 0.378241 0.145266
1.000000 0.393408 0.156374
0.266758 0.315190 0.187076
0.266819 0.315129 0.187106
0.267674 0.314824 0.187015
0.269017 0.314488 0.186740
0.271427 0.313970 0.186343
0.274937 0.313725 0.185824
0.279728 0.314031 0.185122
0.286198 0.314794 0.184207
0.294377 0.316136 0.183047
0.303929 0.318212 0.181735
0.315618 0.320684 0.180179
0.328954 0.323766 0.178164
0.344244 0.327031 0.175723
0.360754 0.329931 0.173068
0.377844 0.332311 0.170077
0.400671 0.338048 0.165316
0.427802 0.345678 0.160830
0.436378 0.338109 0.163455
0.443183 0.329656 0.165469
0.447272 0.319646 0.167727
0.452552 0.310887 0.169284
0.455970 0.301732 0.171695
0.456886 0.292088 0.174563
0.458167 0.283207 0.177218
0.478859 0.282811 0.177707
0.543633 0.299321 0.173739
0.616449 0.317662 0.167666
0.693812 0.337774 0.159945
0.772244 0.359136 0.150912
0.848783 0.380591 0.144717
0.923613 0.401617 0.144686
0.990814 0.420050 0.156527
0.282414 0.353399 0.187869
0.283024 0.353979 0.187961
0.305150 0.402228 0.187533
0.307774 0.401862 0.187137
0.311467 0.401282 0.186587
0.316808 0.400610 0.185733
0.323980 0.400122 0.184360
0.333135 0.400153 0.183017
0.344549 0.401465 0.181155
0.358648 0.403693 0.178866
0.374670 0.406531 0.176120
0.392737 0.409552 0.172702
0.411688 0.411719 0.168917
0.431250 0.413001 0.164553
0.450782 0.413031 0.160006
0.470039 0.412055 0.155123
0.496162 0.416205 0.146914
0.523919 0.420508 0.140932
0.527428 0.405341 0.147494
0.530236 0.390448 0.152804
0.531640 0.375219 0.157198
0.535088 0.362188 0.160647
0.537774 0.349187 0.164157
0.536065 0.335058 0.169039
0.533776 0.321477 0.173159
0.531609 0.308843 0.176791
0.598383 0.327306 0.171664
0.673091 0.348791 0.164675
0.749783 0.372168 0.156527
0.829160 0.397009 0.148135
0.908171 0.421881 0.143801
0.977691 0.443030 0.156405
0.308415 0.413367 0.187045
0.310857 0.418402 0.187015
0.314580 0.423713 0.186618
0.319341 0.428504 0.186191
0.325322 0.431830 0.185397
0.331792 0.432868 0.184512
0.339300 0.432807 0.183261
0.348547 0.432563 0.181643
0.359747 0.433295 0.179812
0.373541 0.434852 0.177188
0.389441 0.437140 0.174319
0.407416 0.439704 0.170871
0.426215 0.441627 0.166629
0.445930 0.442939 0.162203
0.466072 0.443549 0.157107
0.486213 0.443244 0.151583
0.506401 0.442298 0.145602
0.536187 0.448951 0.134401
0.565667 0.454108 0.128176
0.571893 0.439918 0.136110
0.577356 0.425849 0.142580
0.582330 0.411810 0.147921
0.587579 0.398322 0.152102
0.592493 0.384924 0.155764
0.590570 0.368658 0.162417
0.588647 0.353155 0.168185
0.587396 0.338811 0.172885
0.635767 0.349523 0.170016
0.714565 0.375555 0.162325
0.795102 0.403479 0.154543
0.878080 0.432624 0.148928
0.956085 0.458839 0.153506
0.325719 0.451240 0.185672
0.329015 0.457069 0.185550
0.333440 0.463142 0.185214
0.338964 0.468666 0.184695
0.345556 0.472602 0.183993
0.352392 0.474128 0.182864
0.360540 0.474311 0.181247
0.370153 0.473945 0.179812
0.381689 0.474403 0.177462
0.395392 0.475227 0.174716
0.411261 0.476936 0.171725
0.429419 0.479164 0.167758
0.448646 0.480903 0.163058
0.469062 0.482612 0.157992
0.490211 0.483589 0.151949
0.511254 0.483803 0.145327
0.532616 0.483223 0.137758
0.554040 0.482490 0.129732
0.586938 0.490944 0.113375
0.615961 0.495338 0.109255
0.622766 0.480903 0.119722
0.629938 0.466987 0.128237
0.636530 0.452705 0.135256
0.642878 0.438636 0.140993
0.648035 0.423835 0.145785
0.647944 0.406561 0.153872
0.647120 0.389715 0.161379
0.648035 0.374456 0.167453
0.679683 0.376684 0.168002
0.761929 0.407538 0.160464
0.846464 0.440131 0.154940
0.929595 0.471321 0.158572
0.348333 0.495735 0.184085
0.351720 0.501274 0.184176
0.356481 0.507164 0.183932
0.362249 0.512322 0.183749
0.369177 0.516136 0.182895
0.376226 0.517510 0.182040
0.384710 0.517876 0.180270
0.394324 0.517662 0.178347
0.406378 0.518059 0.175906
0.420325 0.518853 0.172793
0.436683 0.520317 0.169314
0.454810 0.522148 0.165103
0.474372 0.523857 0.160006
0.495216 0.525475 0.153902
0.516777 0.526818 0.147250
0.539513 0.528191 0.139132
0.563836 0.530266 0.129397
0.589410 0.532830 0.117464
0.616693 0.536522 0.102266
0.655573 0.549767 0.070100
0.689601 0.557519 0.060731
0.701991 0.546288 0.091707
0.713344 0.534417 0.104311
0.724758 0.522332 0.114107
0.734890 0.509148 0.122438
0.743801 0.494759 0.128878
0.749020 0.478340 0.138888
0.753750 0.462074 0.149477
0.761959 0.448219 0.157992
0.780941 0.441169 0.164340
0.869047 0.479286 0.164279
0.950683 0.513329 0.179599
0.401953 0.580987 0.190066
0.404150 0.583368 0.190494
0.406836 0.585077 0.190890
0.410620 0.586175 0.190249
0.415595 0.586267 0.189303
0.421180 0.585260 0.187808
0.428687 0.584192 0.185763
0.438605 0.583490 0.183078
0.450874 0.583551 0.179965
0.465705 0.584405 0.176669
0.482612 0.585962 0.172824
0.501427 0.587732 0.168093
0.521447 0.589349 0.162356
0.542687 0.590814 0.155398
0.564508 0.591791 0.147372
0.587213 0.592554 0.137636
0.610803 0.593500 0.125795
0.635492 0.594781 0.110719
0.661006 0.596521 0.091890
0.688014 0.599023 0.040192
0.724178 0.609369 0.013397
0.754391 0.613062 0.027741
0.762936 0.598047 0.077424
0.770504 0.582269 0.097810
0.779904 0.567895 0.109560
0.789944 0.553857 0.118257
0.800595 0.539940 0.125277
0.810269 0.525719 0.134676
0.819547 0.511650 0.147585
0.832212 0.499702 0.158297
0.848875 0.489937 0.167666
0.926268 0.522515 0.181643
0.437903 0.629603 0.201846
0.439948 0.631647 0.202304
0.442878 0.633417 0.202853
0.446509 0.634394 0.202823
0.451240 0.634760 0.201877
0.457069 0.634302 0.200168
0.464607 0.633539 0.197848
0.474250 0.632990 0.195132
0.486244 0.633204 0.191989
0.500542 0.634058 0.188785
0.517235 0.635554 0.184665
0.535363 0.637415 0.180362
0.555322 0.639216 0.174899
0.576532 0.641138 0.168124
0.598535 0.642817 0.160555
0.621790 0.644617 0.150973
0.646021 0.646540 0.139925
0.671473 0.648890 0.125673
0.698054 0.651514 0.107546
0.725856 0.654688 0.079957
0.753933 0.657862 0.033997
0.791012 0.668605 0.058564
0.819852 0.670741 0.092622
0.828855 0.655268 0.109499
0.815183 0.620478 0.108644
0.824582 0.605676 0.118929
0.836637 0.592798 0.126864
0.849912 0.580438 0.133333
0.863706 0.568444 0.142367
0.876829 0.556481 0.157046
0.894133 0.547204 0.170871
0.915282 0.539940 0.184085
0.496986 0.702541 0.236027
0.500053 0.705989 0.238529
0.502678 0.707485 0.239292
0.505028 0.706905 0.238010
0.507347 0.704738 0.235599
0.510430 0.701411 0.231815
0.514611 0.697475 0.227176
0.520592 0.693599 0.222477
0.529107 0.690333 0.217166
0.540032 0.687953 0.211856
0.552483 0.685878 0.206241
0.567803 0.684962 0.200809
0.584527 0.684230 0.194217
0.602594 0.683375 0.186618
0.621118 0.682124 0.177768
0.640955 0.681025 0.167849
0.662257 0.680568 0.156435
0.685695 0.681483 0.143313
0.711391 0.684047 0.128603
0.739467 0.688289 0.110536
0.769039 0.693263 0.085969
0.796689 0.696132 0.095766
0.831907 0.705379 0.117342
0.856046 0.703334 0.134981
0.861875 0.684840 0.141604
0.866514 0.665431 0.144411
0.874723 0.649104 0.149996
0.886015 0.635187 0.155428
0.899565 0.622461 0.160861
0.915251 0.611322 0.168795
0.930694 0.600916 0.185122
0.950164 0.593347 0.202121
0.526268 0.739864 0.258915
0.529473 0.742947 0.261387
0.532341 0.744869 0.262974
0.535271 0.745327 0.262760
0.538872 0.744869 0.261479
0.543297 0.743923 0.259403
0.549493 0.743069 0.256931
0.557824 0.742336 0.253941
0.567956 0.742153 0.251102
0.580560 0.742428 0.247807
0.594232 0.742550 0.244297
0.610010 0.743008 0.240024
0.626612 0.743099 0.234897
0.644221 0.742672 0.228336
0.662348 0.741512 0.220310
0.681483 0.740352 0.210849
0.701747 0.739406 0.200870
0.723903 0.739559 0.190341
0.748409 0.741176 0.180087
0.774899 0.744289 0.169467
0.803159 0.748226 0.158419
0.830442 0.751308 0.162509
0.857664 0.753628 0.173739
0.888853 0.759243 0.199374
0.909453 0.754299 0.215732
0.916411 0.736080 0.215793
0.922850 0.717647 0.214206
0.932464 0.702205 0.215976
0.945983 0.689754 0.221744
0.961608 0.678676 0.228031
0.979339 0.669154 0.236851
0.996307 0.661067 0.255467
0.571954 0.791867 0.307134
0.573693 0.793240 0.308782
0.575372 0.793881 0.309239
0.577539 0.793851 0.308690
0.580591 0.793118 0.306920
0.584344 0.792081 0.304509
0.589715 0.790921 0.301640
0.596735 0.789883 0.298375
0.605585 0.789212 0.295293
0.616388 0.788937 0.292393
0.629023 0.788815 0.288762
0.643397 0.789059 0.285344
0.658961 0.789212 0.281376
0.675502 0.788876 0.275639
0.692531 0.787900 0.268956
0.710597 0.786648 0.260624
0.729793 0.785580 0.252140
0.750759 0.785428 0.243412
0.773709 0.786496 0.235966
0.798795 0.788907 0.229557
0.825254 0.792050 0.223789
0.851164 0.794644 0.227176
0.876463 0.796139 0.237797
0.902281 0.797330 0.249210
0.928161 0.798703 0.274083
0.944854 0.790677 0.286168
0.951659 0.772519 0.281956
0.958160 0.753933 0.276768
0.967956 0.738827 0.276707
0.982605 0.728237 0.284092
0.999207 0.719295 0.293675
1.000000 0.712520 0.305547
0.609705 0.830686 0.354253
0.611170 0.831662 0.355932
0.612970 0.832456 0.356939
0.615503 0.832853 0.357214
0.619104 0.833310 0.357366
0.624537 0.834226 0.358221
0.632929 0.836515 0.360845
0.643427 0.839384 0.364599
0.656336 0.843137 0.369451
0.671199 0.847318 0.375158
0.687648 0.851743 0.381537
0.704952 0.855833 0.387030
0.722805 0.859373 0.391424
0.740505 0.861936 0.393896
0.758175 0.863462 0.393896
0.775387 0.863645 0.390448
0.793057 0.863401 0.385870
0.812039 0.863340 0.381201
0.832547 0.864012 0.378088
0.854582 0.865324 0.375921
0.877684 0.867033 0.375097
0.900389 0.868345 0.380407
0.922332 0.868894 0.390723
0.944610 0.869108 0.400549
0.966217 0.868345 0.411902
0.984314 0.865171 0.433753
0.996612 0.855161 0.440467
1.000000 0.838071 0.430793
1.000000 0.821134 0.420966
1.000000 0.807034 0.417273
1.000000 0.798581 0.425544
1.000000 0.792508 0.437140
0.688746 0.891447 0.465888
0.688930 0.891508 0.466133
0.689418 0.891295 0.465370
0.690333 0.890929 0.464179
0.692073 0.890440 0.462654
0.694789 0.889982 0.461158
0.699123 0.889708 0.459876
0.704921 0.889738 0.458839
0.712398 0.890074 0.458564
0.721553 0.890623 0.458839
0.732052 0.891417 0.459174
0.743893 0.892363 0.459663
0.756832 0.893156 0.459815
0.770352 0.893706 0.459266
