20 Preset/Retro wedding/【3】LUT video cho PR-AE-FCPX/TONE (2).cube
# Created by Adobe Lightroom plugin Export LUT (1.24.0)
# www.johnrellis.com/lightroom/exportlut.htm
# Preset: 焦糖色调-素材江湖03
# Color profile: E:\lut插件\exportlut.1.24\exportlut.lrplugin\color profiles\Rec709gamma2.4.icc
LUT_3D_SIZE 8
DOMAIN_MIN 0.000000 0.000000 0.000000
DOMAIN_MAX 0.903226 0.903226 0.903226
0.190005 0.170993 0.163027
0.190799 0.170901 0.163027
0.205600 0.170047 0.162753
0.232334 0.169741 0.163516
0.278843 0.168765 0.164553
0.369116 0.163394 0.166049
0.546380 0.123384 0.165042
0.838743 0.000000 0.157107
0.191135 0.173587 0.162631
0.194400 0.173342 0.162570
0.205570 0.172274 0.162997
0.228000 0.172030 0.163699
0.268284 0.171756 0.164736
0.343786 0.169528 0.166110
0.500999 0.145724 0.165743
0.796048 0.000000 0.158633
0.201419 0.191043 0.167300
0.204562 0.190829 0.166720
0.218051 0.189853 0.165255
0.229709 0.185245 0.167086
0.269261 0.187839 0.167483
0.344640 0.191867 0.168582
0.524468 0.186038 0.166354
0.872923 0.116213 0.152529
0.222812 0.226261 0.176852
0.225925 0.225223 0.176120
0.239292 0.224308 0.173739
0.272343 0.229038 0.169772
0.297704 0.221836 0.172946
0.363958 0.227787 0.174411
0.581781 0.256321 0.165774
0.858610 0.284184 0.148165
0.266758 0.315190 0.187076
0.271427 0.313970 0.186343
0.294377 0.316136 0.183047
0.344244 0.327031 0.175723
0.427802 0.345678 0.160830
0.452552 0.310887 0.169284
0.478859 0.282811 0.177707
0.772244 0.359136 0.150912
0.348333 0.495735 0.184085
0.369177 0.516136 0.182895
0.406378 0.518059 0.175906
0.474372 0.523857 0.160006
0.563836 0.530266 0.129397
0.689601 0.557519 0.060731
0.734890 0.509148 0.122438
0.761959 0.448219 0.157992
0.526268 0.739864 0.258915
0.538872 0.744869 0.261479
0.567956 0.742153 0.251102
0.626612 0.743099 0.234897
0.701747 0.739406 0.200870
0.803159 0.748226 0.158419
0.909453 0.754299 0.215732
0.945983 0.689754 0.221744
0.733577 0.919188 0.530968
0.737270 0.918975 0.529839
0.756100 0.919829 0.530144
0.794644 0.922881 0.535882
0.810666 0.900114 0.458839
0.886015 0.906737 0.467384
0.963165 0.911040 0.516747
1.000000 0.894072 0.557824
0.189670 0.171145 0.165408
0.192386 0.171328 0.164767
0.204685 0.171389 0.162966
0.226078 0.173342 0.163729
0.265110 0.173739 0.164920
0.335210 0.172549 0.166293
0.479805 0.154696 0.166201
0.759701 0.000000 0.159640
0.192538 0.174807 0.166445
0.194980 0.174838 0.166201
0.205966 0.175204 0.164950
0.225956 0.176028 0.164462
0.262669 0.177066 0.165255
0.328832 0.177127 0.166690
0.461280 0.165805 0.166659
0.727810 0.000000 0.160464
0.202243 0.190829 0.171542
0.205142 0.190646 0.170993
0.217197 0.190158 0.168978
0.230014 0.187045 0.167178
0.261845 0.188754 0.167605
0.325628 0.193423 0.168765
0.469093 0.194034 0.167697
0.764279 0.150179 0.157534
0.219638 0.219913 0.179110
0.222385 0.219486 0.178622
0.234714 0.219760 0.176577
0.261723 0.222171 0.172885
0.283787 0.216281 0.171817
0.322942 0.216220 0.173922
0.472358 0.235538 0.170138
0.735042 0.253819 0.156558
0.260441 0.303441 0.191501
0.264225 0.300938 0.190555
0.282261 0.299351 0.187198
0.319219 0.301701 0.181369
0.381231 0.310735 0.170199
0.410285 0.288945 0.171725
0.428901 0.264622 0.178775
0.699001 0.328588 0.158053
0.326299 0.459144 0.191806
0.335058 0.460731 0.190555
0.367681 0.464698 0.185458
0.431647 0.476295 0.173281
0.519677 0.489082 0.150820
0.658564 0.531945 0.088106
0.702876 0.486854 0.127169
0.723812 0.425483 0.159457
0.487037 0.697444 0.239017
0.489693 0.691432 0.233188
0.518303 0.687709 0.222812
0.581048 0.694209 0.209934
0.666987 0.703822 0.186191
0.768826 0.714656 0.139651
0.874266 0.720760 0.160159
0.905852 0.654688 0.174228
0.700984 0.902434 0.490791
0.710628 0.905211 0.497627
0.729824 0.905669 0.496040
0.771786 0.909667 0.502190
0.826078 0.911833 0.500786
0.889189 0.910307 0.485634
0.960784 0.908415 0.507805
1.000000 0.891051 0.547845
0.193912 0.178439 0.181033
0.197391 0.178347 0.180484
0.207950 0.179446 0.177798
0.237980 0.178103 0.176699
0.277073 0.182681 0.171664
0.342382 0.189914 0.168490
0.493965 0.186313 0.166995
0.809476 0.102571 0.155886
0.198215 0.182986 0.181918
0.201022 0.182803 0.181094
0.209934 0.183108 0.178897
0.237125 0.181308 0.175937
0.272740 0.185824 0.172732
0.333806 0.193088 0.168765
0.481025 0.192355 0.167514
0.777127 0.136324 0.157076
0.209018 0.195834 0.185672
0.211063 0.195468 0.185214
0.219211 0.194888 0.183230
0.238468 0.195102 0.180758
0.273960 0.198062 0.176883
0.333532 0.205325 0.171084
0.497719 0.216770 0.168276
0.778439 0.207248 0.155245
0.225345 0.228397 0.196811
0.228244 0.229099 0.196353
0.240604 0.229343 0.193240
0.271855 0.232731 0.189639
0.297032 0.226261 0.184726
0.338231 0.227329 0.178775
0.498756 0.254551 0.170260
0.763943 0.287266 0.153689
0.259648 0.311406 0.212161
0.263645 0.310033 0.210849
0.283482 0.309117 0.206821
0.328038 0.316350 0.201328
0.402228 0.329259 0.190005
0.438239 0.307866 0.179690
0.465614 0.286107 0.177035
0.706172 0.343511 0.158846
0.319585 0.463355 0.223056
0.327733 0.464790 0.221988
0.358801 0.464546 0.216037
0.420203 0.471504 0.206302
0.508019 0.483131 0.188846
0.647669 0.525414 0.154238
0.717952 0.504814 0.121309
0.752743 0.451026 0.154604
0.494911 0.714870 0.300969
0.497047 0.708736 0.293950
0.519280 0.698573 0.278477
0.577752 0.699092 0.264500
0.662257 0.705684 0.244846
0.770657 0.721859 0.219516
0.895659 0.744533 0.202640
0.936828 0.686244 0.211582
0.706966 0.904875 0.529381
0.706752 0.902800 0.522484
0.722652 0.902068 0.516533
0.771176 0.909850 0.532677
0.824338 0.912016 0.531029
0.890471 0.914305 0.527428
0.964813 0.915221 0.530144
1.000000 0.899504 0.571801
0.201938 0.191867 0.209873
0.205447 0.192416 0.210391
0.219181 0.193118 0.207004
0.237491 0.195285 0.202670
0.288579 0.199191 0.211551
0.393072 0.179416 0.194186
0.542718 0.193820 0.181918
0.770138 0.203189 0.155978
0.207034 0.198154 0.213260
0.210178 0.197940 0.212467
0.222782 0.197574 0.208743
0.240848 0.199222 0.204807
0.294438 0.201511 0.212619
0.396796 0.189425 0.196201
0.539696 0.201511 0.183261
0.762417 0.215305 0.156100
0.217014 0.212100 0.215732
0.219333 0.211337 0.214633
0.228946 0.209232 0.211398
0.247166 0.210636 0.208194
0.316838 0.209293 0.210483
0.415564 0.219821 0.203769
0.591485 0.238437 0.189548
0.800534 0.269078 0.152010
0.241947 0.247593 0.232364
0.243626 0.245487 0.230259
0.252415 0.240940 0.225498
0.271153 0.238743 0.218875
0.309117 0.238041 0.213107
0.392889 0.249210 0.207370
0.540368 0.271397 0.192325
0.754818 0.314885 0.153414
0.274601 0.335851 0.266728
0.275639 0.331945 0.262638
0.285832 0.326726 0.251621
0.331487 0.333379 0.243992
0.417548 0.347692 0.236057
0.453315 0.318761 0.217777
0.503166 0.304692 0.199893
0.716548 0.365270 0.160433
0.332219 0.502190 0.302831
0.348882 0.517632 0.308659
0.373877 0.511315 0.294591
0.436957 0.511254 0.280674
0.536187 0.523400 0.267124
0.665095 0.547509 0.248142
0.728542 0.514183 0.204959
0.801877 0.494148 0.150637
0.502586 0.733150 0.399939
0.510704 0.734951 0.398840
0.537102 0.732876 0.387640
0.593805 0.733272 0.373144
0.680781 0.739834 0.360327
0.786221 0.749538 0.342290
0.903868 0.761898 0.331701
0.961181 0.715724 0.255802
0.745876 0.919402 0.628382
0.747189 0.918730 0.625147
0.755337 0.916808 0.614343
0.781430 0.916167 0.603632
0.829068 0.917449 0.599695
0.890318 0.919310 0.594873
0.963470 0.922240 0.591394
1.000000 0.913390 0.612421
0.208377 0.219608 0.277440
0.213474 0.220157 0.279667
0.233951 0.219089 0.275608
0.270817 0.221988 0.270695
0.309697 0.226383 0.263798
0.431952 0.246647 0.303227
0.665370 0.130983 0.294530
0.878477 0.106966 0.239750
0.213931 0.228855 0.287053
0.218692 0.229801 0.290410
0.239231 0.227054 0.284916
0.274754 0.227390 0.274052
0.312871 0.230686 0.265599
0.439734 0.254246 0.307530
0.670497 0.136568 0.290410
0.874723 0.164889 0.240635
0.226322 0.252628 0.298985
0.230320 0.251377 0.297795
0.248051 0.244968 0.287663
0.279637 0.241215 0.274052
0.314305 0.242741 0.264164
0.439612 0.258885 0.297887
0.651179 0.172641 0.261784
0.834287 0.232700 0.235416
0.246952 0.289860 0.306554
0.250797 0.287449 0.303716
0.265232 0.280491 0.295323
0.290562 0.268956 0.280552
0.336370 0.275029 0.276860
0.483101 0.271458 0.282292
0.640345 0.290349 0.267948
0.823850 0.317784 0.236057
0.290440 0.354528 0.326116
0.294377 0.353063 0.324651
0.307774 0.343328 0.314733
0.332311 0.330449 0.301335
0.367651 0.320439 0.281254
0.427222 0.310796 0.264805
0.583001 0.338140 0.255436
0.781918 0.381506 0.225132
0.354711 0.475441 0.375586
0.356512 0.474281 0.373449
0.357580 0.460182 0.356268
0.373022 0.449592 0.330877
0.446998 0.456306 0.313878
0.602075 0.505058 0.321202
0.674647 0.473854 0.280186
0.735470 0.437964 0.227115
0.504906 0.719234 0.497322
0.500206 0.713100 0.488502
0.504753 0.705074 0.468818
0.547539 0.710506 0.450507
0.630152 0.715053 0.431312
0.745724 0.729244 0.421180
0.872862 0.744594 0.412940
0.928954 0.687221 0.320684
0.729458 0.903624 0.671595
0.729091 0.902892 0.667659
0.732326 0.901427 0.654688
0.765835 0.908965 0.655634
0.804562 0.908141 0.639033
0.870268 0.912291 0.638514
0.946136 0.916533 0.636042
1.000000 0.909819 0.632013
0.169131 0.301244 0.483467
0.183749 0.301976 0.487587
0.236759 0.289067 0.468421
0.323674 0.287846 0.453742
0.403937 0.286931 0.426734
0.481697 0.293034 0.408942
0.683803 0.364263 0.486702
0.941802 0.385534 0.541711
0.189609 0.290715 0.443885
0.200351 0.288487 0.440711
0.238315 0.279393 0.429145
0.307134 0.277043 0.416297
0.381933 0.278904 0.399145
0.458900 0.287236 0.389014
0.660487 0.355352 0.468391
0.924285 0.363561 0.521019
0.211460 0.334508 0.473060
0.222293 0.330938 0.468513
0.260990 0.321019 0.456458
0.318791 0.302800 0.423926
0.393317 0.302922 0.404486
0.472450 0.312932 0.396216
0.685176 0.404150 0.487953
0.939330 0.387366 0.515007
0.257267 0.397467 0.488014
0.263828 0.391577 0.481331
0.292515 0.378576 0.468055
0.356390 0.372259 0.461097
0.441688 0.370886 0.443244
0.525414 0.381964 0.432593
0.753170 0.494453 0.535485
0.978302 0.449805 0.509453
0.314885 0.458778 0.479347
0.319951 0.455634 0.476081
0.340429 0.444831 0.464851
0.376074 0.426246 0.446357
0.419165 0.393256 0.411872
0.515618 0.416236 0.415900
0.743404 0.446143 0.449531
0.923919 0.488563 0.440497
0.411200 0.549462 0.498421
0.421302 0.554406 0.502617
0.432197 0.542779 0.490700
0.452033 0.520226 0.467781
0.484474 0.492622 0.439796
0.554162 0.486458 0.413519
0.668513 0.479744 0.389197
0.878019 0.534386 0.387732
0.633295 0.766354 0.653376
0.639063 0.769467 0.655970
0.638331 0.764279 0.645960
0.636225 0.753079 0.622522
0.633692 0.732692 0.572107
0.718624 0.736172 0.539849
0.860288 0.756588 0.542657
0.922087 0.686275 0.439643
0.795468 0.910460 0.783902
0.791928 0.908415 0.778927
0.788113 0.905547 0.768063
0.790768 0.904875 0.753536
0.800443 0.906188 0.726070
0.846464 0.906676 0.703334
0.927398 0.915709 0.710964
1.000000 0.914183 0.708431
0.176059 0.396246 0.644160
0.197635 0.395727 0.643946
0.265599 0.389410 0.637354
0.368750 0.387243 0.629114
0.481880 0.391119 0.614679
0.584497 0.399512 0.594842
0.686519 0.423011 0.587762
0.862058 0.529870 0.660731
0.190616 0.401923 0.639765
0.210269 0.401617 0.639734
0.272221 0.395453 0.633570
0.367529 0.389593 0.622553
0.479255 0.393439 0.608942
0.579950 0.400702 0.588830
0.680140 0.422522 0.581109
0.856657 0.529198 0.655146
0.237827 0.438941 0.647486
0.252476 0.437446 0.645960
0.303899 0.430884 0.638972
0.383429 0.420203 0.625940
0.490761 0.422583 0.611810
0.590112 0.429755 0.592981
0.692134 0.455055 0.589502
0.873381 0.574975 0.675013
0.300267 0.503899 0.663661
0.305364 0.498573 0.658625
0.345159 0.491127 0.650965
0.417151 0.481147 0.638361
0.511040 0.475044 0.621057
0.610437 0.482673 0.604364
0.711696 0.509453 0.603418
0.894224 0.647944 0.705287
0.398444 0.589807 0.679011
0.401984 0.586725 0.676234
0.420111 0.577050 0.667872
0.453895 0.557671 0.652857
0.523217 0.536034 0.628901
0.621576 0.535973 0.608515
0.724331 0.562371 0.609369
0.916197 0.729458 0.742702
0.519646 0.693477 0.708400
0.522637 0.692348 0.707271
0.533928 0.686488 0.701411
0.554467 0.673091 0.688594
0.582513 0.645655 0.663386
0.629725 0.601465 0.619471
0.757534 0.643336 0.634852
0.954986 0.727749 0.711604
0.663600 0.801816 0.753628
0.665949 0.801450 0.753048
0.672175 0.797696 0.747982
0.684382 0.789273 0.736721
0.700191 0.770809 0.713375
0.727779 0.741421 0.677607
0.783932 0.714229 0.625910
0.904753 0.693996 0.584527
0.861540 0.924773 0.869902
0.861936 0.924804 0.869627
0.864042 0.925261 0.868864
0.866087 0.924681 0.864652
0.867247 0.922271 0.853666
0.865263 0.915373 0.824491
0.904631 0.916625 0.795651
0.982696 0.924620 0.804166
0.471687 0.606531 0.857237
0.480934 0.607630 0.856992
0.513207 0.608698 0.853819
0.573968 0.614740 0.849027
0.649928 0.624018 0.843381
0.733120 0.636835 0.834958
0.816373 0.655818 0.824247
0.899901 0.690578 0.823819
0.475593 0.610651 0.855741
0.484779 0.611627 0.855558
0.517144 0.613275 0.852903
0.575891 0.618433 0.847868
0.650843 0.627283 0.842161
0.733394 0.639673 0.833768
0.815671 0.657404 0.822629
0.898802 0.691279 0.822049
0.501579 0.635279 0.857572
0.508995 0.635737 0.857084
0.537713 0.636622 0.854246
0.594568 0.643091 0.850675
0.664454 0.650233 0.843870
0.742061 0.660639 0.835264
0.821408 0.677302 0.824674
0.901701 0.709712 0.824887
0.537896 0.676356 0.863035
0.545037 0.677028 0.862699
0.570947 0.678126 0.860258
0.620783 0.682368 0.855894
0.687282 0.689937 0.848356
0.759579 0.699733 0.840940
0.833524 0.714168 0.831357
0.908751 0.744564 0.832883
0.609583 0.742336 0.873320
0.612146 0.741665 0.873075
0.619013 0.736538 0.870726
0.646662 0.731838 0.865904
0.707362 0.736385 0.858000
0.776089 0.743954 0.848722
0.846403 0.756527 0.840238
0.917449 0.786007 0.843687
0.716365 0.825864 0.889433
0.716945 0.824949 0.888823
0.720577 0.821469 0.886687
0.729366 0.814755 0.882841
0.743771 0.801999 0.876158
0.794705 0.798184 0.865202
0.863737 0.808835 0.856229
0.929625 0.835233 0.860624
0.810239 0.898405 0.911192
0.810910 0.898070 0.910857
0.813718 0.896574 0.909392
0.820035 0.893706 0.906645
0.829709 0.887877 0.901274
0.842649 0.875731 0.890776
0.868711 0.853239 0.867887
0.938415 0.877745 0.873228
0.884672 0.953002 0.938201
0.885069 0.952911 0.937987
0.887572 0.952636 0.937346
0.893034 0.952331 0.936309
0.901091 0.951141 0.933715
0.911376 0.947570 0.927367
0.924071 0.937011 0.910735
0.951598 0.921019 0.878965
