20 Preset/Retro wedding/【3】LUT video cho PR-AE-FCPX/TONE (4).cube
# Created by Adobe Lightroom plugin Export LUT (1.24.0)
# www.johnrellis.com/lightroom/exportlut.htm
# Preset: 焦糖色调-素材江湖05
# Color profile: E:\lut插件\exportlut.1.24\exportlut.lrplugin\color profiles\Rec709gamma2.4.icc
LUT_3D_SIZE 5
DOMAIN_MIN 0.000000 0.000000 0.000000
DOMAIN_MAX 0.903226 0.903226 0.903226
0.115816 0.129549 0.120760
0.184512 0.143038 0.124056
0.357641 0.170809 0.124971
0.753201 0.259068 0.041596
1.000000 0.435584 0.000000
0.081880 0.182406 0.139193
0.188479 0.190921 0.127840
0.314672 0.196689 0.140780
0.699336 0.282658 0.101808
1.000000 0.462684 0.000000
0.000000 0.314672 0.183291
0.000000 0.316045 0.143038
0.474647 0.433295 0.057313
0.675135 0.406867 0.116518
0.938506 0.519097 0.000000
0.000000 0.619867 0.265202
0.000000 0.625269 0.183322
0.377020 0.611688 0.000000
0.823911 0.761288 0.000000
0.988006 0.738430 0.047425
0.000000 0.919493 0.442329
0.000000 0.920348 0.387304
0.000000 0.898375 0.000000
0.793088 0.896056 0.000000
1.000000 0.950042 0.447211
0.126223 0.148775 0.157565
0.186526 0.143343 0.170718
0.367956 0.181582 0.167849
0.714321 0.244266 0.149050
0.980072 0.404913 0.000000
0.122621 0.177249 0.177981
0.177981 0.188449 0.178836
0.332616 0.212833 0.179568
0.678676 0.274174 0.158053
0.969238 0.428138 0.010315
0.000000 0.312016 0.243351
0.000000 0.316381 0.212375
0.411414 0.381537 0.169924
0.601038 0.361395 0.180545
0.934508 0.513359 0.132143
0.000000 0.618616 0.345647
0.000000 0.625574 0.294255
0.291661 0.620325 0.000000
0.812894 0.752956 0.000000
0.977386 0.730220 0.210849
0.000000 0.918334 0.506188
0.000000 0.918486 0.461036
0.000000 0.919188 0.133364
0.796017 0.903258 0.000000
1.000000 0.955718 0.519707
0.153841 0.209567 0.268345
0.183047 0.205142 0.287327
0.422156 0.170016 0.335515
0.853391 0.000000 0.293126
1.000000 0.428412 0.304601
0.183230 0.242954 0.268986
0.210452 0.247379 0.287510
0.417304 0.218845 0.340368
0.822843 0.217899 0.308995
1.000000 0.463294 0.319158
0.000000 0.311009 0.335302
0.122774 0.318639 0.336217
0.366979 0.361059 0.342199
0.697780 0.428473 0.340002
0.965881 0.549706 0.345617
0.000000 0.594690 0.545983
0.000000 0.617517 0.540459
0.000000 0.644068 0.416938
0.775204 0.730312 0.409583
0.932891 0.696376 0.405707
0.000000 0.908232 0.690974
0.000000 0.911070 0.667903
0.000000 0.914305 0.543511
0.704921 0.893980 0.331456
0.990997 0.948699 0.624567
0.078279 0.343206 0.540948
0.149111 0.330907 0.563684
0.479683 0.325414 0.638666
0.851713 0.218784 0.682277
1.000000 0.400732 0.621118
0.173281 0.385229 0.532250
0.231205 0.383764 0.552270
0.465003 0.371038 0.623407
0.829160 0.301884 0.670527
1.000000 0.448127 0.619043
0.112703 0.446418 0.521172
0.229618 0.452705 0.517906
0.464363 0.502586 0.570092
0.763790 0.489479 0.648981
1.000000 0.608911 0.641047
0.000000 0.584619 0.641138
0.000000 0.586816 0.637934
0.299596 0.613916 0.640070
0.692470 0.680568 0.650690
0.940368 0.746090 0.662165
0.000000 0.838254 0.840177
0.000000 0.843870 0.841611
0.000000 0.890074 0.848051
0.449287 0.916075 0.723384
0.967987 0.945922 0.778958
0.446906 0.598077 0.806790
0.463722 0.589776 0.812436
0.579217 0.582910 0.839445
0.811704 0.622492 0.881010
1.000000 0.595544 0.895781
0.466621 0.618341 0.795590
0.485054 0.613611 0.802335
0.573816 0.598169 0.830533
0.800473 0.636316 0.873564
1.000000 0.614740 0.892363
0.456092 0.660670 0.769802
0.486030 0.662745 0.775174
0.604791 0.680415 0.807767
0.770840 0.695399 0.858396
0.988373 0.704311 0.895842
0.300877 0.717739 0.812772
0.355505 0.718135 0.809110
0.535119 0.734676 0.804074
0.761379 0.794125 0.845151
0.966186 0.835416 0.918120
0.000000 0.829801 0.905547
0.000000 0.831388 0.904601
0.223972 0.845487 0.906584
0.647669 0.872404 0.906249
0.916564 0.920684 0.911315
