20 Preset/Retro wedding/【3】LUT video cho PR-AE-FCPX/TONE (2).cube
# Created by Adobe Lightroom plugin Export LUT (1.24.0)
# www.johnrellis.com/lightroom/exportlut.htm
# Preset: 焦糖色调-素材江湖03
# Color profile: E:\lut插件\exportlut.1.24\exportlut.lrplugin\color profiles\Rec709gamma2.4.icc
LUT_3D_SIZE 5
DOMAIN_MIN 0.000000 0.000000 0.000000
DOMAIN_MAX 0.903226 0.903226 0.903226
0.190005 0.170993 0.163027
0.200961 0.170352 0.162844
0.252445 0.169467 0.163973
0.404639 0.159152 0.166323
0.838743 0.000000 0.157107
0.198215 0.186099 0.165652
0.211032 0.184939 0.164431
0.248661 0.182498 0.166018
0.383825 0.185275 0.167910
0.883482 0.000000 0.153079
0.241947 0.261326 0.182925
0.254826 0.257420 0.180056
0.342718 0.281254 0.169680
0.375341 0.243626 0.178195
0.809873 0.324895 0.149355
0.401953 0.580987 0.190066
0.438605 0.583490 0.183078
0.564508 0.591791 0.147372
0.754391 0.613062 0.027741
0.819547 0.511650 0.147585
0.733577 0.919188 0.530968
0.749416 0.919371 0.529564
0.779232 0.898222 0.458473
0.905272 0.908385 0.480568
1.000000 0.894072 0.557824
0.192691 0.175662 0.175540
0.202518 0.176425 0.173342
0.248692 0.178439 0.168765
0.360662 0.185580 0.168002
0.773251 0.036103 0.158175
0.204105 0.189181 0.179629
0.211643 0.188724 0.177890
0.249241 0.190158 0.173251
0.354253 0.199100 0.169528
0.774380 0.169497 0.156558
0.238193 0.256870 0.197452
0.250248 0.254307 0.194034
0.313603 0.261997 0.185489
0.362463 0.244144 0.177127
0.764126 0.324010 0.152285
0.386206 0.571374 0.232090
0.422705 0.574487 0.226108
0.551507 0.584894 0.200259
0.745998 0.608911 0.124086
0.822660 0.519799 0.144564
0.732509 0.917449 0.554681
0.744289 0.916197 0.547631
0.809323 0.918700 0.546502
0.916777 0.921324 0.539300
1.000000 0.909636 0.605097
0.206271 0.202884 0.235538
0.220584 0.202762 0.232639
0.264714 0.207828 0.225559
0.473915 0.175937 0.239689
0.807279 0.193057 0.180270
0.219852 0.222904 0.245731
0.231632 0.219699 0.240513
0.273655 0.221195 0.230869
0.479072 0.191775 0.226261
0.807919 0.242557 0.182803
0.261448 0.287663 0.267857
0.270207 0.280034 0.260105
0.309514 0.271061 0.243900
0.438422 0.280034 0.230350
0.767117 0.346288 0.183261
0.370214 0.558099 0.368078
0.379187 0.543511 0.348302
0.488502 0.550378 0.321447
0.710475 0.591882 0.303593
0.808621 0.516625 0.191745
0.722103 0.906065 0.631312
0.733303 0.907591 0.626551
0.782498 0.907225 0.605890
0.892973 0.911803 0.598810
1.000000 0.905669 0.591913
0.168673 0.300389 0.482399
0.215793 0.297093 0.482948
0.361242 0.294194 0.461128
0.510491 0.306188 0.433326
0.900664 0.452674 0.581445
0.198489 0.325872 0.480568
0.236667 0.318181 0.472023
0.359014 0.307927 0.446540
0.497078 0.317082 0.418585
0.896269 0.445960 0.563256
0.272099 0.421912 0.492409
0.295262 0.411810 0.482429
0.377020 0.379217 0.448035
0.521233 0.390234 0.426886
0.942626 0.476844 0.524590
0.479103 0.624079 0.568566
0.481270 0.608881 0.553094
0.514397 0.572656 0.514672
0.605859 0.535607 0.455818
0.872435 0.557305 0.420447
0.813626 0.914122 0.809323
0.813687 0.913298 0.804410
0.818784 0.912383 0.782925
0.867704 0.913634 0.736690
0.995666 0.915892 0.730404
0.471687 0.606531 0.857237
0.502434 0.608087 0.854765
0.610742 0.619074 0.846586
0.754330 0.641108 0.832609
0.899901 0.690578 0.823819
0.494881 0.628016 0.857267
0.522698 0.629450 0.855070
0.622889 0.638483 0.846372
0.760159 0.658167 0.832700
0.901610 0.705623 0.825040
0.562982 0.704067 0.867796
0.578027 0.701656 0.865049
0.662715 0.707332 0.855650
0.783902 0.721401 0.840482
0.912413 0.763577 0.837186
0.743771 0.846860 0.895445
0.746914 0.844419 0.893767
0.761807 0.833433 0.886778
0.815061 0.813260 0.866880
0.931792 0.845792 0.863645
0.884672 0.953002 0.938201
0.886687 0.952697 0.937530
0.896788 0.951934 0.935332
0.914244 0.945892 0.924529
0.951598 0.921019 0.878965
