20 Preset/Portrait Preset/【1】LRtemplate/Tone (4).lrtemplate
s = {
	id = "27B026B4-79FA-4483-B7EF-40E1C2EAACFE",
	internalName = "灰青电影-素材江湖03",
	title = "灰青电影-素材江湖03",
	type = "Develop",
	value = {
		settings = {
			AutoLateralCA = 1,
			Blacks2012 = -21,
			BlueHue = -54,
			BlueSaturation = -26,
			CameraProfile = "Camera Standard",
			ChromaticAberrationB = 0,
			ChromaticAberrationR = 0,
			CircularGradientBasedCorrections = {
				{
					CorrectionActive = true,
					CorrectionAmount = 1,
					CorrectionID = "97449135-6BDB-44C2-81D1-3FF9B9358F16",
					CorrectionMasks = {
						{
							Angle = 0.8209,
							Bottom = 0.877886,
							Feather = 73,
							Flipped = true,
							Left = 0.075562,
							MaskID = "C8D72B7E-D4F0-4360-8070-700C73BABB4D",
							MaskValue = 1,
							Midpoint = 50,
							Right = 0.982765,
							Roundness = 0,
							Top = 0.119444,
							Version = 2,
							What = "Mask/CircularGradient",
						},
					},
					CorrectionRangeMask = {
						ColorAmount = 0.5,
						LumFeather = 0.5,
						LumMax = 1,
						LumMin = 0,
						Type = 0,
					},
					CorrectionReferenceX = 0.529164,
					CorrectionReferenceY = 0.498665,
					LocalBrightness = 0,
					LocalClarity = 0,
					LocalClarity2012 = 0,
					LocalContrast = 0,
					LocalContrast2012 = 0.02941,
					LocalDefringe = 0,
					LocalExposure = 0,
					LocalExposure2012 = 0.25,
					LocalHighlights2012 = -0.33824,
					LocalLuminanceNoise = 0,
					LocalMoire = 0,
					LocalSaturation = 0,
					LocalShadows2012 = 0.12371,
					LocalSharpness = 0,
					LocalTemperature = -0.05,
					LocalTint = 0,
					LocalToningHue = 0,
					LocalToningSaturation = 0,
					What = "Correction",
				},
			},
			Clarity2012 = 20,
			ColorNoiseReduction = 25,
			ColorNoiseReductionDetail = 50,
			ColorNoiseReductionSmoothness = 50,
			Contrast2012 = -55,
			ConvertToGrayscale = false,
			CropConstrainToWarp = 0,
			Defringe = 0,
			DefringeGreenAmount = 0,
			DefringeGreenHueHi = 60,
			DefringeGreenHueLo = 40,
			DefringePurpleAmount = 0,
			DefringePurpleHueHi = 70,
			DefringePurpleHueLo = 30,
			Dehaze = 15,
			EnableCalibration = true,
			EnableCircularGradientBasedCorrections = true,
			EnableColorAdjustments = true,
			EnableDetail = true,
			EnableEffects = true,
			EnableGradientBasedCorrections = true,
			EnableLensCorrections = true,
			EnableSplitToning = true,
			Exposure2012 = -0.3,
			GrainAmount = 0,
			GrainFrequency = 50,
			GrainSize = 25,
			GreenHue = 14,
			GreenSaturation = 32,
			Highlights2012 = -90,
			HueAdjustmentAqua = 0,
			HueAdjustmentBlue = 0,
			HueAdjustmentGreen = -100,
			HueAdjustmentMagenta = 0,
			HueAdjustmentOrange = 0,
			HueAdjustmentPurple = 0,
			HueAdjustmentRed = 0,
			HueAdjustmentYellow = -38,
			LensManualDistortionAmount = 0,
			LuminanceAdjustmentAqua = 0,
			LuminanceAdjustmentBlue = -18,
			LuminanceAdjustmentGreen = 0,
			LuminanceAdjustmentMagenta = 0,
			LuminanceAdjustmentOrange = 0,
			LuminanceAdjustmentPurple = 0,
			LuminanceAdjustmentRed = 0,
			LuminanceAdjustmentYellow = 0,
			LuminanceNoiseReductionContrast = 0,
			LuminanceNoiseReductionDetail = 50,
			LuminanceSmoothing = 0,
			ParametricDarks = 0,
			ParametricHighlightSplit = 75,
			ParametricHighlights = 0,
			ParametricLights = 0,
			ParametricMidtoneSplit = 50,
			ParametricShadowSplit = 25,
			ParametricShadows = 0,
			PostCropVignetteAmount = -5,
			PostCropVignetteFeather = 100,
			PostCropVignetteHighlightContrast = 100,
			PostCropVignetteMidpoint = 20,
			PostCropVignetteRoundness = 49,
			PostCropVignetteStyle = 1,
			ProcessVersion = "10.0",
			RedHue = 18,
			RedSaturation = -15,
			Saturation = 0,
			SaturationAdjustmentAqua = 0,
			SaturationAdjustmentBlue = -78,
			SaturationAdjustmentGreen = -74,
			SaturationAdjustmentMagenta = 0,
			SaturationAdjustmentOrange = 0,
			SaturationAdjustmentPurple = 0,
			SaturationAdjustmentRed = 0,
			SaturationAdjustmentYellow = -51,
			ShadowTint = 0,
			Shadows2012 = 30,
			SharpenDetail = 25,
			SharpenEdgeMasking = 0,
			SharpenRadius = 1.3,
			Sharpness = 95,
			SplitToningBalance = 0,
			SplitToningHighlightHue = 0,
			SplitToningHighlightSaturation = 0,
			SplitToningShadowHue = 0,
			SplitToningShadowSaturation = 0,
			Temperature = 5250,
			Tint = 8,
			ToneCurveName2012 = "Custom",
			ToneCurvePV2012 = {
				0,
				1,
				72,
				48,
				191,
				194,
				255,
				243,
			},
			ToneCurvePV2012Blue = {
				0,
				0,
				255,
				255,
			},
			ToneCurvePV2012Green = {
				0,
				0,
				28,
				28,
				255,
				255,
			},
			ToneCurvePV2012Red = {
				0,
				0,
				69,
				62,
				127,
				125,
				255,
				255,
			},
			Vibrance = -11,
			VignetteAmount = 0,
			VignetteMidpoint = 50,
			WhiteBalance = "Custom",
			Whites2012 = 20,
			orientation = "DA",
		},
		uuid = "2874750C-C93F-4D2A-B8B6-77DF2306F6CB",
	},
	version = 0,
}
