20 Preset/Russian Style/【1】LRtemplate Lightroom bản cũ/Tone (13).lrtemplate
s = {
	id = "1328C2D0-6E5F-4942-AD91-9B50BE1AAB65",
	internalName = "俄罗斯情绪-素材江湖07",
	title = "俄罗斯情绪-素材江湖07",
	type = "Develop",
	value = {
		settings = {
			AutoLateralCA = 0,
			Blacks2012 = 60,
			BlueHue = 5,
			BlueSaturation = -30,
			CameraProfile = "Adobe Standard",
			ChromaticAberrationB = 0,
			ChromaticAberrationR = 0,
			Clarity2012 = 0,
			ColorNoiseReduction = 25,
			ColorNoiseReductionDetail = 50,
			ColorNoiseReductionSmoothness = 50,
			Contrast2012 = -20,
			ConvertToGrayscale = false,
			CropConstrainToWarp = 0,
			Defringe = 0,
			DefringeGreenAmount = 0,
			DefringeGreenHueHi = 60,
			DefringeGreenHueLo = 40,
			DefringePurpleAmount = 0,
			DefringePurpleHueHi = 70,
			DefringePurpleHueLo = 30,
			Dehaze = 0,
			EnableCalibration = true,
			EnableColorAdjustments = true,
			EnableDetail = true,
			EnableEffects = true,
			EnableLensCorrections = true,
			EnableSplitToning = true,
			Exposure2012 = 1.5,
			GrainAmount = 0,
			GrainFrequency = 50,
			GrainSize = 25,
			GreenHue = 20,
			GreenSaturation = 0,
			Highlights2012 = -5,
			HueAdjustmentAqua = -10,
			HueAdjustmentBlue = -15,
			HueAdjustmentGreen = 5,
			HueAdjustmentMagenta = 0,
			HueAdjustmentOrange = 0,
			HueAdjustmentPurple = -5,
			HueAdjustmentRed = 0,
			HueAdjustmentYellow = 10,
			LensManualDistortionAmount = 0,
			LuminanceAdjustmentAqua = 0,
			LuminanceAdjustmentBlue = 0,
			LuminanceAdjustmentGreen = 0,
			LuminanceAdjustmentMagenta = 0,
			LuminanceAdjustmentOrange = 0,
			LuminanceAdjustmentPurple = 0,
			LuminanceAdjustmentRed = 0,
			LuminanceAdjustmentYellow = 0,
			LuminanceNoiseReductionContrast = 0,
			LuminanceNoiseReductionDetail = 50,
			LuminanceSmoothing = 0,
			ParametricDarks = -10,
			ParametricHighlightSplit = 75,
			ParametricHighlights = -20,
			ParametricLights = -30,
			ParametricMidtoneSplit = 50,
			ParametricShadowSplit = 25,
			ParametricShadows = 20,
			PostCropVignetteAmount = 0,
			PostCropVignetteFeather = 50,
			PostCropVignetteHighlightContrast = 0,
			PostCropVignetteMidpoint = 50,
			PostCropVignetteRoundness = 0,
			PostCropVignetteStyle = 1,
			ProcessVersion = "10.0",
			RedHue = 0,
			RedSaturation = 0,
			Saturation = 0,
			SaturationAdjustmentAqua = 0,
			SaturationAdjustmentBlue = -5,
			SaturationAdjustmentGreen = -15,
			SaturationAdjustmentMagenta = -15,
			SaturationAdjustmentOrange = -25,
			SaturationAdjustmentPurple = -10,
			SaturationAdjustmentRed = -10,
			SaturationAdjustmentYellow = -35,
			ShadowTint = -5,
			Shadows2012 = 0,
			SharpenDetail = 0,
			SharpenEdgeMasking = 0,
			SharpenRadius = 1,
			Sharpness = 0,
			SplitToningBalance = 90,
			SplitToningHighlightHue = 0,
			SplitToningHighlightSaturation = 0,
			SplitToningShadowHue = 140,
			SplitToningShadowSaturation = 25,
			Temperature = 5000,
			Tint = -10,
			ToneCurveName2012 = "Custom",
			ToneCurvePV2012 = {
				0,
				0,
				255,
				255,
			},
			ToneCurvePV2012Blue = {
				0,
				0,
				64,
				25,
				186,
				174,
				238,
				248,
				255,
				255,
			},
			ToneCurvePV2012Green = {
				0,
				0,
				64,
				25,
				183,
				174,
				236,
				244,
				255,
				255,
			},
			ToneCurvePV2012Red = {
				0,
				0,
				64,
				25,
				163,
				147,
				237,
				246,
				255,
				255,
			},
			Vibrance = 0,
			VignetteAmount = 0,
			VignetteMidpoint = 50,
			WhiteBalance = "Custom",
			Whites2012 = -20,
		},
		uuid = "5723CC74-2C42-4272-8748-F67F59EF442C",
	},
	version = 0,
}
