20 Preset/Russian Style/【1】LRtemplate Lightroom bản cũ/Tone (27).lrtemplate
s = {
	id = "7041066C-63F2-45B4-AEC1-A5F4B3BA6DDA",
	internalName = "俄罗斯情绪-素材江湖14",
	title = "俄罗斯情绪-素材江湖14",
	type = "Develop",
	value = {
		settings = {
			AutoLateralCA = 0,
			Blacks2012 = 30,
			BlueHue = -20,
			BlueSaturation = -25,
			CameraProfile = "Adobe Standard",
			ChromaticAberrationB = 0,
			ChromaticAberrationR = 0,
			Clarity2012 = 0,
			ColorNoiseReduction = 25,
			ColorNoiseReductionDetail = 50,
			ColorNoiseReductionSmoothness = 50,
			Contrast2012 = -15,
			ConvertToGrayscale = false,
			CropConstrainToWarp = 0,
			Defringe = 0,
			DefringeGreenAmount = 0,
			DefringeGreenHueHi = 60,
			DefringeGreenHueLo = 40,
			DefringePurpleAmount = 0,
			DefringePurpleHueHi = 70,
			DefringePurpleHueLo = 30,
			Dehaze = 0,
			EnableCalibration = true,
			EnableColorAdjustments = true,
			EnableDetail = true,
			EnableEffects = true,
			EnableLensCorrections = true,
			EnableSplitToning = true,
			Exposure2012 = 1,
			GrainAmount = 0,
			GrainFrequency = 50,
			GrainSize = 25,
			GreenHue = 60,
			GreenSaturation = -20,
			Highlights2012 = -60,
			HueAdjustmentAqua = 0,
			HueAdjustmentBlue = 0,
			HueAdjustmentGreen = 0,
			HueAdjustmentMagenta = 0,
			HueAdjustmentOrange = 0,
			HueAdjustmentPurple = 0,
			HueAdjustmentRed = 0,
			HueAdjustmentYellow = 0,
			LensManualDistortionAmount = 0,
			LuminanceAdjustmentAqua = -45,
			LuminanceAdjustmentBlue = -50,
			LuminanceAdjustmentGreen = -25,
			LuminanceAdjustmentMagenta = -20,
			LuminanceAdjustmentOrange = -10,
			LuminanceAdjustmentPurple = -40,
			LuminanceAdjustmentRed = -5,
			LuminanceAdjustmentYellow = -10,
			LuminanceNoiseReductionContrast = 0,
			LuminanceNoiseReductionDetail = 50,
			LuminanceSmoothing = 0,
			ParametricDarks = 0,
			ParametricHighlightSplit = 75,
			ParametricHighlights = 0,
			ParametricLights = 0,
			ParametricMidtoneSplit = 50,
			ParametricShadowSplit = 25,
			ParametricShadows = 0,
			PostCropVignetteAmount = 0,
			PostCropVignetteFeather = 50,
			PostCropVignetteHighlightContrast = 0,
			PostCropVignetteMidpoint = 50,
			PostCropVignetteRoundness = 0,
			PostCropVignetteStyle = 1,
			ProcessVersion = "10.0",
			RedHue = 20,
			RedSaturation = -20,
			Saturation = 0,
			SaturationAdjustmentAqua = -50,
			SaturationAdjustmentBlue = -65,
			SaturationAdjustmentGreen = -35,
			SaturationAdjustmentMagenta = -20,
			SaturationAdjustmentOrange = 0,
			SaturationAdjustmentPurple = -45,
			SaturationAdjustmentRed = 0,
			SaturationAdjustmentYellow = -20,
			ShadowTint = -10,
			Shadows2012 = 0,
			SharpenDetail = 0,
			SharpenEdgeMasking = 0,
			SharpenRadius = 1,
			Sharpness = 0,
			SplitToningBalance = 85,
			SplitToningHighlightHue = 55,
			SplitToningHighlightSaturation = 15,
			SplitToningShadowHue = 260,
			SplitToningShadowSaturation = 15,
			Temperature = 5700,
			Tint = -10,
			ToneCurveName2012 = "Custom",
			ToneCurvePV2012 = {
				0,
				3,
				31,
				21,
				123,
				95,
				223,
				233,
				248,
				250,
				255,
				255,
			},
			ToneCurvePV2012Blue = {
				0,
				0,
				17,
				4,
				53,
				40,
				168,
				179,
				255,
				251,
			},
			ToneCurvePV2012Green = {
				0,
				0,
				24,
				10,
				101,
				103,
				177,
				189,
				255,
				255,
			},
			ToneCurvePV2012Red = {
				0,
				0,
				22,
				9,
				104,
				100,
				191,
				201,
				255,
				255,
			},
			Vibrance = 0,
			VignetteAmount = 0,
			VignetteMidpoint = 50,
			WhiteBalance = "Custom",
			Whites2012 = -10,
		},
		uuid = "B8C46AD5-9292-41F3-96B9-778BEE0B789C",
	},
	version = 0,
}
