20 Preset/Food Style/【1】LRtemplate Lightroom bản cũ/Food Style/Food Style (8).lrtemplate
s = {
	id = "58E2EA92-7F63-4B07-B08C-97D060A8E05A",
	internalName = "静谧咖啡-素材江湖08",
	title = "静谧咖啡-素材江湖08",
	type = "Develop",
	value = {
		settings = {
			AutoLateralCA = 0,
			Blacks2012 = 45,
			BlueHue = -12,
			BlueSaturation = -15,
			CameraProfile = "Adobe Standard",
			ChromaticAberrationB = 0,
			ChromaticAberrationR = 0,
			Clarity2012 = 25,
			ColorNoiseReduction = 35,
			ColorNoiseReductionDetail = 35,
			ColorNoiseReductionSmoothness = 35,
			Contrast2012 = 0,
			ConvertToGrayscale = false,
			CropConstrainToWarp = 0,
			Defringe = 0,
			DefringeGreenAmount = 0,
			DefringeGreenHueHi = 60,
			DefringeGreenHueLo = 40,
			DefringePurpleAmount = 0,
			DefringePurpleHueHi = 70,
			DefringePurpleHueLo = 30,
			Dehaze = 10,
			EnableCalibration = true,
			EnableColorAdjustments = true,
			EnableDetail = true,
			EnableEffects = true,
			EnableLensCorrections = true,
			EnableSplitToning = true,
			Exposure2012 = 0,
			GrainAmount = 18,
			GrainFrequency = 50,
			GrainSize = 20,
			GreenHue = 50,
			GreenSaturation = -10,
			Highlights2012 = -55,
			HueAdjustmentAqua = 5,
			HueAdjustmentBlue = -4,
			HueAdjustmentGreen = 15,
			HueAdjustmentMagenta = 25,
			HueAdjustmentOrange = 12,
			HueAdjustmentPurple = 10,
			HueAdjustmentRed = 8,
			HueAdjustmentYellow = 10,
			LensManualDistortionAmount = 0,
			LuminanceAdjustmentAqua = 0,
			LuminanceAdjustmentBlue = -10,
			LuminanceAdjustmentGreen = 0,
			LuminanceAdjustmentMagenta = 0,
			LuminanceAdjustmentOrange = -5,
			LuminanceAdjustmentPurple = 0,
			LuminanceAdjustmentRed = -20,
			LuminanceAdjustmentYellow = 0,
			LuminanceNoiseReductionContrast = 0,
			LuminanceNoiseReductionDetail = 50,
			LuminanceSmoothing = 0,
			ParametricDarks = 0,
			ParametricHighlightSplit = 75,
			ParametricHighlights = 0,
			ParametricLights = 0,
			ParametricMidtoneSplit = 60,
			ParametricShadowSplit = 14,
			ParametricShadows = 55,
			PostCropVignetteAmount = 0,
			PostCropVignetteFeather = 50,
			PostCropVignetteHighlightContrast = 0,
			PostCropVignetteMidpoint = 50,
			PostCropVignetteRoundness = 0,
			PostCropVignetteStyle = 1,
			ProcessVersion = "6.7",
			RedHue = 37,
			RedSaturation = -39,
			Saturation = 0,
			SaturationAdjustmentAqua = -10,
			SaturationAdjustmentBlue = -10,
			SaturationAdjustmentGreen = -20,
			SaturationAdjustmentMagenta = -20,
			SaturationAdjustmentOrange = -5,
			SaturationAdjustmentPurple = 0,
			SaturationAdjustmentRed = -20,
			SaturationAdjustmentYellow = -5,
			ShadowTint = 0,
			Shadows2012 = 45,
			SharpenDetail = 25,
			SharpenEdgeMasking = 0,
			SharpenRadius = 1,
			Sharpness = 20,
			SplitToningBalance = 0,
			SplitToningHighlightHue = 0,
			SplitToningHighlightSaturation = 0,
			SplitToningShadowHue = 0,
			SplitToningShadowSaturation = 0,
			ToneCurveName2012 = "Custom",
			ToneCurvePV2012 = {
				0,
				56,
				46,
				66,
				96,
				96,
				176,
				173,
				255,
				255,
			},
			ToneCurvePV2012Blue = {
				0,
				0,
				45,
				15,
				82,
				61,
				117,
				122,
				179,
				200,
				255,
				255,
			},
			ToneCurvePV2012Green = {
				0,
				0,
				48,
				19,
				117,
				122,
				179,
				200,
				255,
				255,
			},
			ToneCurvePV2012Red = {
				0,
				0,
				45,
				20,
				117,
				122,
				179,
				200,
				255,
				255,
			},
			Vibrance = -17,
			VignetteAmount = 0,
			VignetteMidpoint = 50,
			WhiteBalance = "As Shot",
			Whites2012 = 0,
		},
		uuid = "5F330E78-C4B3-49B4-B0C7-EE91243AAF0D",
	},
	version = 0,
}
