20 Preset/Food Style/【1】LRtemplate Lightroom bản cũ/Food Style/Food Style (14).lrtemplate
s = {
	id = "3E6238BA-78D6-4556-ABE8-A07504D86D92",
	internalName = "静谧咖啡-素材江湖14",
	title = "静谧咖啡-素材江湖14",
	type = "Develop",
	value = {
		settings = {
			AutoLateralCA = 0,
			Blacks2012 = 25,
			BlueHue = 0,
			BlueSaturation = -10,
			CameraProfile = "Kodak Portra 800 SO",
			ChromaticAberrationB = 0,
			ChromaticAberrationR = 0,
			Clarity2012 = 6,
			ColorNoiseReduction = 25,
			ColorNoiseReductionDetail = 50,
			ColorNoiseReductionSmoothness = 50,
			Contrast2012 = 40,
			ConvertToGrayscale = false,
			CropConstrainToWarp = 0,
			Defringe = 0,
			DefringeGreenAmount = 0,
			DefringeGreenHueHi = 60,
			DefringeGreenHueLo = 40,
			DefringePurpleAmount = 0,
			DefringePurpleHueHi = 70,
			DefringePurpleHueLo = 30,
			Dehaze = 0,
			EnableCalibration = true,
			EnableColorAdjustments = true,
			EnableDetail = true,
			EnableEffects = true,
			EnableLensCorrections = true,
			EnableSplitToning = true,
			Exposure2012 = 0,
			GrainAmount = 0,
			GrainFrequency = 40,
			GrainSize = 25,
			GreenHue = 0,
			GreenSaturation = -10,
			Highlights2012 = -60,
			HueAdjustmentAqua = 5,
			HueAdjustmentBlue = -5,
			HueAdjustmentGreen = 15,
			HueAdjustmentMagenta = 10,
			HueAdjustmentOrange = -5,
			HueAdjustmentPurple = 15,
			HueAdjustmentRed = 10,
			HueAdjustmentYellow = 5,
			LensManualDistortionAmount = 0,
			LuminanceAdjustmentAqua = 0,
			LuminanceAdjustmentBlue = 0,
			LuminanceAdjustmentGreen = -10,
			LuminanceAdjustmentMagenta = 15,
			LuminanceAdjustmentOrange = 10,
			LuminanceAdjustmentPurple = 15,
			LuminanceAdjustmentRed = 10,
			LuminanceAdjustmentYellow = -5,
			LuminanceNoiseReductionContrast = 0,
			LuminanceNoiseReductionDetail = 50,
			LuminanceSmoothing = 0,
			ParametricDarks = 0,
			ParametricHighlightSplit = 75,
			ParametricHighlights = 0,
			ParametricLights = 0,
			ParametricMidtoneSplit = 50,
			ParametricShadowSplit = 25,
			ParametricShadows = 0,
			PostCropVignetteAmount = -10,
			PostCropVignetteFeather = 50,
			PostCropVignetteHighlightContrast = 0,
			PostCropVignetteMidpoint = 50,
			PostCropVignetteRoundness = 0,
			PostCropVignetteStyle = 1,
			ProcessVersion = "6.7",
			RedHue = 10,
			RedSaturation = -10,
			Saturation = 5,
			SaturationAdjustmentAqua = -35,
			SaturationAdjustmentBlue = -10,
			SaturationAdjustmentGreen = -35,
			SaturationAdjustmentMagenta = -5,
			SaturationAdjustmentOrange = -5,
			SaturationAdjustmentPurple = -25,
			SaturationAdjustmentRed = -10,
			SaturationAdjustmentYellow = -3,
			ShadowTint = -4,
			Shadows2012 = 50,
			SharpenDetail = 25,
			SharpenEdgeMasking = 0,
			SharpenRadius = 1,
			Sharpness = 36,
			SplitToningBalance = -88,
			SplitToningHighlightHue = 170,
			SplitToningHighlightSaturation = 10,
			SplitToningShadowHue = 0,
			SplitToningShadowSaturation = 0,
			ToneCurveName2012 = "Custom",
			ToneCurvePV2012 = {
				0,
				8,
				255,
				252,
			},
			ToneCurvePV2012Blue = {
				0,
				0,
				55,
				38,
				121,
				127,
				201,
				214,
				255,
				255,
			},
			ToneCurvePV2012Green = {
				0,
				0,
				58,
				38,
				120,
				128,
				177,
				192,
				255,
				255,
			},
			ToneCurvePV2012Red = {
				0,
				0,
				56,
				36,
				119,
				127,
				175,
				192,
				220,
				230,
				255,
				255,
			},
			Vibrance = -18,
			VignetteAmount = 0,
			VignetteMidpoint = 50,
			WhiteBalance = "As Shot",
			Whites2012 = -10,
		},
		uuid = "2D87BF41-E4F3-4879-A032-DD32ACFA955E",
	},
	version = 0,
}
