20 Preset/Bright-Style/【3】LUT video cho PR-AE-FCPX/Tone  (4).cube
# Created by Adobe Lightroom plugin Export LUT (1.24.0)
# www.johnrellis.com/lightroom/exportlut.htm
# Preset: 明亮奶油-素材江湖01
# Color profile: E:\lut插件\exportlut.1.24\exportlut.lrplugin\color profiles\Rec709gamma2.4.icc
LUT_3D_SIZE 32
DOMAIN_MIN 0.0 0.0 0.0
DOMAIN_MAX 1.0 1.0 1.0
0.000000 0.000000 0.000000
0.003967 0.000000 0.000000
0.026093 0.000000 0.000732
0.077150 0.000244 0.000732
0.123262 0.001953 0.000000
0.183078 0.003601 0.000000
0.251408 0.005493 0.000000
0.320806 0.012390 0.000000
0.388983 0.019898 0.000000
0.455695 0.039216 0.000000
0.520134 0.068574 0.000000
0.582300 0.091524 0.000000
0.640986 0.106020 0.000000
0.696834 0.119417 0.000000
0.748989 0.133883 0.000000
0.796811 0.149325 0.000000
0.842405 0.162051 0.000000
0.883421 0.172061 0.000000
0.918700 0.181064 0.000000
0.950378 0.188540 0.000000
0.978546 0.196139 0.000000
1.000000 0.202884 0.000000
1.000000 0.208499 0.000000
1.000000 0.213626 0.000000
1.000000 0.218387 0.000000
1.000000 0.222080 0.000000
1.000000 0.225681 0.000000
1.000000 0.229038 0.000000
1.000000 0.231815 0.000000
1.000000 0.234409 0.000000
1.000000 0.235904 0.000000
1.000000 0.237369 0.000000
0.000275 0.002167 0.000824
0.001953 0.001953 0.001953
0.024231 0.005066 0.001099
0.076295 0.004822 0.000122
0.124331 0.007080 0.000000
0.183413 0.012329 0.000000
0.250675 0.016541 0.000000
0.319341 0.028382 0.000000
0.386908 0.041535 0.000000
0.453162 0.063264 0.000000
0.517571 0.084688 0.000000
0.579431 0.099458 0.000000
0.638209 0.111696 0.000000
0.694026 0.126284 0.000000
0.746273 0.139590 0.000000
0.794095 0.153048 0.000000
0.839506 0.165072 0.000000
0.880186 0.174746 0.000000
0.915496 0.183047 0.000000
0.947082 0.190677 0.000000
0.975189 0.197696 0.000000
1.000000 0.203555 0.000000
1.000000 0.209812 0.000000
1.000000 0.214145 0.000000
1.000000 0.218723 0.000000
1.000000 0.222873 0.000000
1.000000 0.226444 0.000000
1.000000 0.229801 0.000000
1.000000 0.232303 0.000000
1.000000 0.234806 0.000000
1.000000 0.236606 0.000000
1.000000 0.237766 0.000000
0.011902 0.012940 0.008179
0.013184 0.013916 0.007996
0.018097 0.016602 0.010925
0.064485 0.026001 0.008759
0.120089 0.037873 0.004517
0.179446 0.055604 0.000000
0.246525 0.077546 0.000000
0.315557 0.090181 0.000000
0.383490 0.098848 0.000000
0.450019 0.108400 0.000000
0.514397 0.117464 0.000000
0.576379 0.127321 0.000000
0.635126 0.136934 0.000000
0.690639 0.148257 0.000000
0.742641 0.159640 0.000000
0.791012 0.169375 0.000000
0.836851 0.177920 0.000000
0.877348 0.186160 0.000000
0.912566 0.193179 0.000000
0.944121 0.200137 0.000000
0.972595 0.206058 0.000000
0.997833 0.211887 0.000000
1.000000 0.216739 0.000000
1.000000 0.220615 0.000000
1.000000 0.224613 0.000000
1.000000 0.228458 0.000000
1.000000 0.231724 0.000000
1.000000 0.234806 0.000000
1.000000 0.236728 0.000000
1.000000 0.238987 0.000000
1.000000 0.240818 0.000000
1.000000 0.241520 0.000000
0.032746 0.038025 0.023529
0.035035 0.037812 0.022400
0.043214 0.041291 0.025147
0.062776 0.053315 0.034394
0.119112 0.084993 0.023590
0.174655 0.100435 0.009033
0.241428 0.114290 0.000000
0.309514 0.126345 0.000000
0.376959 0.136751 0.000000
0.443824 0.146212 0.000000
0.508843 0.154238 0.000000
0.570947 0.163302 0.000000
0.630091 0.171328 0.000000
0.685908 0.179141 0.000000
0.738521 0.186435 0.000000
0.786801 0.193698 0.000000
0.832792 0.201266 0.000000
0.872496 0.206851 0.000000
0.907469 0.211978 0.000000
0.938933 0.217197 0.000000
0.967254 0.222568 0.000000
0.992859 0.226261 0.000000
1.000000 0.230381 0.000000
1.000000 0.233341 0.000000
1.000000 0.236576 0.000000
1.000000 0.239475 0.000000
1.000000 0.242069 0.000000
1.000000 0.244297 0.000000
1.000000 0.246128 0.000000
1.000000 0.247929 0.000000
1.000000 0.248875 0.000000
1.000000 0.249729 0.000000
0.071382 0.081392 0.042573
0.075044 0.081117 0.043671
0.084321 0.084382 0.044984
0.096529 0.092744 0.056519
0.121218 0.110750 0.080629
0.180636 0.132967 0.043275
0.234348 0.145571 0.009094
0.300206 0.160159 0.000000
0.368658 0.172091 0.000000
0.435554 0.182467 0.000000
0.500664 0.191135 0.000000
0.563378 0.199527 0.000000
0.622827 0.206821 0.000000
0.679530 0.213260 0.000000
0.732174 0.219608 0.000000
0.782345 0.225742 0.000000
0.828031 0.230991 0.000000
0.867735 0.235599 0.000000
0.902770 0.238865 0.000000
0.934478 0.242313 0.000000
0.963195 0.245304 0.000000
0.988952 0.247929 0.000000
1.000000 0.250492 0.000000
1.000000 0.252415 0.000000
1.000000 0.254490 0.000000
1.000000 0.256535 0.000000
1.000000 0.257603 0.000000
1.000000 0.259342 0.000000
1.000000 0.260472 0.000000
1.000000 0.261357 0.000000
1.000000 0.261601 0.000000
1.000000 0.261997 0.000000
0.101381 0.108370 0.068879
0.103059 0.108522 0.068696
0.107942 0.108644 0.069459
0.120546 0.118074 0.081880
0.142031 0.134249 0.095918
0.187045 0.167636 0.116609
0.254215 0.191562 0.085756
0.306584 0.200320 0.016968
0.359503 0.207950 0.000000
0.426734 0.220066 0.000000
0.492775 0.230045 0.000000
0.556268 0.238499 0.000000
0.616297 0.246067 0.000000
0.673060 0.252079 0.000000
0.726650 0.257603 0.000000
0.778073 0.262791 0.000000
0.823636 0.266545 0.000000
0.863615 0.269169 0.000000
0.899016 0.271244 0.000000
0.931060 0.272343 0.000000
0.959747 0.274113 0.000000
0.985748 0.275212 0.000000
1.000000 0.280735 0.000000
1.000000 0.281285 0.000000
1.000000 0.281804 0.000000
1.000000 0.282231 0.000000
1.000000 0.282506 0.000000
1.000000 0.282383 0.000000
1.000000 0.282536 0.000000
1.000000 0.282048 0.000000
1.000000 0.281804 0.000000
1.000000 0.280735 0.000000
0.127718 0.135927 0.091981
0.128664 0.135378 0.091249
0.132540 0.134005 0.090608
0.146273 0.145357 0.097871
0.168978 0.163516 0.110842
0.204257 0.191501 0.132753
0.270268 0.241733 0.165805
0.340551 0.263523 0.125887
0.390265 0.266331 0.071870
0.430335 0.264714 0.000000
0.490394 0.273503 0.000000
0.555077 0.283055 0.000000
0.615869 0.290349 0.000000
0.672938 0.295964 0.000000
0.729427 0.301762 0.000000
0.781277 0.305760 0.000000
0.826352 0.308019 0.000000
0.865751 0.308995 0.000000
0.900999 0.309148 0.000000
0.933227 0.309392 0.000000
0.962707 0.309483 0.000000
0.989624 0.308995 0.000000
1.000000 0.308782 0.000000
1.000000 0.308721 0.000000
1.000000 0.307988 0.000000
1.000000 0.307744 0.000000
1.000000 0.306828 0.000000
1.000000 0.305852 0.000000
1.000000 0.304936 0.000000
1.000000 0.303441 0.000000
1.000000 0.302037 0.000000
1.000000 0.300481 0.000000
0.152193 0.160830 0.105806
0.152712 0.160220 0.105257
0.155856 0.158206 0.103944
0.168765 0.168551 0.110903
0.192050 0.188357 0.124605
0.226719 0.216861 0.146181
0.272984 0.254734 0.179263
0.353307 0.316045 0.220035
0.421180 0.333837 0.176883
0.467659 0.332677 0.130465
0.504906 0.326513 0.063844
0.542535 0.322728 0.000000
0.604059 0.330938 0.000000
0.664424 0.338354 0.000000
0.720668 0.343511 0.000000
0.771237 0.346746 0.000000
0.816190 0.347570 0.000000
0.855680 0.347784 0.000000
0.891478 0.346654 0.000000
0.924193 0.345495 0.000000
0.954040 0.344091 0.000000
0.981353 0.342535 0.000000
1.000000 0.341131 0.000000
1.000000 0.339788 0.000000
1.000000 0.338354 0.000000
1.000000 0.336431 0.000000
1.000000 0.334630 0.000000
1.000000 0.332616 0.000000
1.000000 0.330510 0.000000
1.000000 0.328435 0.000000
1.000000 0.326207 0.000000
1.000000 0.323857 0.000000
0.176852 0.184787 0.119905
0.177218 0.184298 0.119722
0.179019 0.181949 0.117952
0.191348 0.191867 0.124605
0.214145 0.211429 0.138491
0.247166 0.239811 0.159884
0.292485 0.277958 0.191196
0.347692 0.324224 0.234867
0.436774 0.392859 0.282353
0.500298 0.405921 0.237339
0.543175 0.400580 0.190921
0.578637 0.391516 0.144381
0.607324 0.380285 0.086824
0.654108 0.380987 0.000000
0.709865 0.385870 0.000000
0.760525 0.388434 0.000000
0.805509 0.389014 0.000000
0.845640 0.387762 0.000000
0.881834 0.385962 0.000000
0.915007 0.383642 0.000000
0.945129 0.381445 0.000000
0.972839 0.378668 0.000000
0.998535 0.376043 0.000000
1.000000 0.373388 0.000000
1.000000 0.370947 0.000000
1.000000 0.367895 0.000000
1.000000 0.365057 0.000000
1.000000 0.362005 0.000000
1.000000 0.359380 0.000000
1.000000 0.356420 0.000000
1.000000 0.353307 0.000000
1.000000 0.350042 0.000000
0.199496 0.207187 0.133608
0.199924 0.206607 0.133242
0.200748 0.204288 0.131563
0.212436 0.213687 0.137758
0.234104 0.232822 0.151736
0.265812 0.260380 0.172702
0.308659 0.297429 0.202945
0.363653 0.344396 0.244083
0.424994 0.396948 0.297276
0.517876 0.468910 0.349645
0.576715 0.478218 0.304814
0.616419 0.469764 0.257908
0.648188 0.456611 0.211673
0.672786 0.440558 0.163149
0.695430 0.426368 0.109743
0.746975 0.429389 0.061952
0.793088 0.430152 0.000000
0.834348 0.428870 0.000000
0.871366 0.426490 0.000000
0.905119 0.423468 0.000000
0.935576 0.420111 0.000000
0.963287 0.416266 0.000000
0.989044 0.412390 0.000000
1.000000 0.408789 0.000000
1.000000 0.405066 0.000000
1.000000 0.400977 0.000000
1.000000 0.397131 0.000000
1.000000 0.393591 0.000000
1.000000 0.389929 0.000000
1.000000 0.386328 0.000000
1.000000 0.382513 0.000000
1.000000 0.378424 0.000000
0.219638 0.226780 0.145968
0.219730 0.226413 0.145602
0.220310 0.224033 0.143984
0.230838 0.232547 0.149844
0.251804 0.251347 0.163638
0.282017 0.278264 0.184329
0.323339 0.314702 0.213809
0.376165 0.360967 0.253666
0.438666 0.415259 0.304265
0.504997 0.473304 0.367407
0.595666 0.543389 0.420203
0.646571 0.547417 0.375189
0.681880 0.535058 0.325566
0.709377 0.517906 0.278416
0.731258 0.498482 0.230686
0.748287 0.478859 0.182406
0.779294 0.470222 0.148806
0.821164 0.469276 0.129427
0.858762 0.466621 0.111360
0.892943 0.463264 0.090303
0.924010 0.458961 0.047669
0.952239 0.454353 0.001495
0.978576 0.449928 0.000000
1.000000 0.445197 0.000000
1.000000 0.440803 0.000000
1.000000 0.436133 0.000000
1.000000 0.431678 0.000000
1.000000 0.427131 0.000000
1.000000 0.422736 0.000000
1.000000 0.418250 0.000000
1.000000 0.413886 0.000000
1.000000 0.409339 0.000000
0.237736 0.245151 0.157534
0.238010 0.244816 0.157229
0.238163 0.242191 0.155306
0.247349 0.249577 0.160494
0.267796 0.268162 0.174289
0.297093 0.294835 0.194827
0.336828 0.330388 0.223728
0.387640 0.375280 0.262089
0.447486 0.428321 0.310918
0.513237 0.486488 0.370001
0.582086 0.547936 0.439796
0.664240 0.610925 0.488472
0.722591 0.626093 0.462928
0.752041 0.609888 0.413123
0.775265 0.588769 0.363806
0.794034 0.565576 0.314733
0.808835 0.541863 0.265995
0.820676 0.519066 0.216556
0.857572 0.515526 0.203647
0.891264 0.511101 0.191714
0.921874 0.505730 0.180270
0.949920 0.499947 0.169070
0.976043 0.494179 0.158785
1.000000 0.488472 0.148226
1.000000 0.482795 0.137789
1.000000 0.476844 0.127016
1.000000 0.471138 0.115053
1.000000 0.465461 0.100740
1.000000 0.460029 0.081392
1.000000 0.454475 0.036866
1.000000 0.449042 0.000000
1.000000 0.443671 0.000000
0.256413 0.263676 0.169070
0.256229 0.263493 0.168948
0.256077 0.260899 0.167117
0.263279 0.265965 0.170535
0.283268 0.284215 0.184360
0.312230 0.310979 0.205020
0.350835 0.346105 0.233555
0.399664 0.390112 0.271153
0.457832 0.442176 0.318944
0.522637 0.500053 0.376440
0.589837 0.560540 0.442390
0.660853 0.625574 0.519127
0.726558 0.675959 0.563836
0.761105 0.670802 0.520226
0.787930 0.654994 0.472969
0.809415 0.633997 0.425483
0.827054 0.610468 0.377508
0.841428 0.586053 0.329656
0.853208 0.562097 0.282078
0.873655 0.547265 0.250797
0.904875 0.542199 0.239994
0.933806 0.536370 0.229923
0.960784 0.530541 0.220859
0.986114 0.524590 0.212253
1.000000 0.518639 0.203769
1.000000 0.512352 0.195254
1.000000 0.506462 0.187198
1.000000 0.500450 0.178683
1.000000 0.494423 0.169986
1.000000 0.488655 0.160464
1.000000 0.482795 0.150393
1.000000 0.476967 0.139284
0.269139 0.277012 0.177188
0.269047 0.276524 0.177005
0.268589 0.273930 0.174990
0.272679 0.275517 0.175967
0.291600 0.293370 0.189456
0.319677 0.319280 0.209384
0.355840 0.352636 0.236393
0.401923 0.394690 0.272129
0.457099 0.444678 0.317693
0.518791 0.500328 0.372320
0.584771 0.559777 0.434302
0.649836 0.619135 0.502953
0.712886 0.679225 0.582055
0.766415 0.719417 0.617578
0.794858 0.712337 0.576593
0.818570 0.696223 0.530175
0.837980 0.675227 0.483558
0.854398 0.651789 0.436561
0.868376 0.627314 0.389960
0.879942 0.602533 0.343145
0.889555 0.578790 0.297124
0.917266 0.571923 0.284092
0.945098 0.566217 0.274968
0.971283 0.560327 0.266728
0.995850 0.554345 0.258762
1.000000 0.548028 0.250950
1.000000 0.541833 0.243381
1.000000 0.535576 0.236118
1.000000 0.529412 0.228824
1.000000 0.523339 0.221561
1.000000 0.517327 0.213779
1.000000 0.511223 0.205753
0.280217 0.288579 0.184176
0.280003 0.287938 0.183566
0.279210 0.285374 0.181704
0.279271 0.282628 0.179660
0.297856 0.300023 0.192630
0.324376 0.324895 0.211734
0.359167 0.357244 0.237827
0.403174 0.397711 0.272007
0.455634 0.445869 0.315343
0.514305 0.499062 0.367102
0.578027 0.557092 0.427008
0.643397 0.616693 0.492042
0.699275 0.669184 0.561578
0.755337 0.723873 0.636011
0.800320 0.756039 0.661799
0.823545 0.747921 0.624323
0.843961 0.732357 0.581872
0.861509 0.712215 0.537285
0.877043 0.689357 0.491768
0.890379 0.664820 0.445777
0.901915 0.640375 0.400488
0.912322 0.616571 0.355993
0.928710 0.600397 0.325414
0.955627 0.594751 0.316747
0.980926 0.588891 0.308598
1.000000 0.582940 0.301213
1.000000 0.576776 0.293919
1.000000 0.570581 0.286900
1.000000 0.564355 0.280339
1.000000 0.558434 0.273991
1.000000 0.552422 0.267857
1.000000 0.546410 0.261418
0.289525 0.298314 0.189487
0.289250 0.297948 0.189303
0.288609 0.295598 0.187350
0.287083 0.291203 0.184176
0.302434 0.305211 0.194644
0.328099 0.329442 0.213169
0.361334 0.360662 0.238010
0.403937 0.400183 0.271244
0.454170 0.446540 0.312810
0.510643 0.498512 0.362768
0.571832 0.554345 0.419959
0.634943 0.612085 0.482338
0.692195 0.665278 0.548028
0.739590 0.710964 0.613581
0.790860 0.761013 0.679835
0.828428 0.786343 0.697841
0.847715 0.777584 0.663294
0.865263 0.763058 0.625025
0.880583 0.744015 0.584375
0.894896 0.722042 0.540917
0.908263 0.698878 0.496956
0.920378 0.675349 0.453681
0.931609 0.652308 0.411170
0.942016 0.629999 0.369268
0.965423 0.622309 0.356207
0.990143 0.616632 0.348638
1.000000 0.610956 0.341772
1.000000 0.605035 0.335149
1.000000 0.598901 0.328588
1.000000 0.593042 0.322515
1.000000 0.586969 0.316411
1.000000 0.580957 0.310887
0.298131 0.307530 0.194491
0.297917 0.306950 0.194064
0.297002 0.304692 0.192355
0.295628 0.300572 0.189303
0.305394 0.308293 0.195041
0.329931 0.331853 0.212863
0.361730 0.361791 0.236728
0.402411 0.400000 0.268498
0.450111 0.444434 0.307805
0.503899 0.494148 0.355230
0.563165 0.548638 0.410529
0.624201 0.604669 0.470039
0.681392 0.657740 0.533593
0.730983 0.704921 0.598413
0.773556 0.746120 0.656611
0.820951 0.792386 0.716365
0.852659 0.812589 0.728939
0.868956 0.803616 0.696895
0.884092 0.789761 0.661830
0.897368 0.772091 0.625025
0.910613 0.752102 0.586175
0.923674 0.730587 0.545312
0.936187 0.708248 0.503868
0.947967 0.685847 0.462806
0.959289 0.664363 0.422827
0.974609 0.648615 0.393683
0.998566 0.643458 0.386908
1.000000 0.637964 0.380377
1.000000 0.632380 0.374334
1.000000 0.626795 0.368597
1.000000 0.621027 0.363043
1.000000 0.615290 0.357794
0.306523 0.316564 0.199283
0.306432 0.316197 0.198947
0.308019 0.316686 0.198764
0.306249 0.312383 0.195560
0.310185 0.313634 0.196384
0.333745 0.336339 0.213626
0.365637 0.366613 0.237491
0.405219 0.403937 0.268650
0.451911 0.447608 0.307256
0.504936 0.497017 0.354314
0.561913 0.549920 0.407691
0.621576 0.605066 0.466133
0.677424 0.656886 0.528130
0.727260 0.704036 0.591485
0.770413 0.745480 0.649042
0.808408 0.782223 0.699733
0.851286 0.824216 0.753567
0.877226 0.839261 0.760800
0.890288 0.829496 0.730159
0.902983 0.815946 0.697322
0.914702 0.799405 0.663630
0.926604 0.781247 0.628779
0.938689 0.761532 0.592096
0.950896 0.740597 0.553674
0.962921 0.718929 0.513787
0.974640 0.697810 0.474891
0.986145 0.677394 0.436622
1.000000 0.669459 0.423774
1.000000 0.664332 0.417700
1.000000 0.659052 0.412146
1.000000 0.653742 0.406806
1.000000 0.648554 0.402075
0.315526 0.326207 0.204166
0.315587 0.326116 0.204044
0.315068 0.324437 0.202609
0.313298 0.320592 0.199527
0.310796 0.314702 0.195071
0.333501 0.336522 0.211398
0.363134 0.364813 0.233829
0.400610 0.400458 0.263096
0.445289 0.442512 0.299870
0.495674 0.489693 0.344091
0.550622 0.540856 0.395270
0.608301 0.594354 0.451270
0.663996 0.646143 0.511223
0.713588 0.692836 0.572808
0.758572 0.735714 0.631342
0.797696 0.773373 0.683101
0.832364 0.807004 0.729274
0.871885 0.845853 0.778836
0.894072 0.857694 0.782864
0.905455 0.848173 0.754238
0.916838 0.835691 0.724208
0.927886 0.820737 0.693294
0.938994 0.804288 0.661799
0.950378 0.786343 0.628779
0.962066 0.767453 0.594385
0.974060 0.747524 0.558129
0.986297 0.727565 0.521141
0.998596 0.707973 0.484657
1.000000 0.693538 0.457954
1.000000 0.688991 0.452613
1.000000 0.684504 0.448066
1.000000 0.679316 0.442939
0.323552 0.335271 0.208438
0.323461 0.334813 0.208042
0.322972 0.333318 0.206729
0.321386 0.329870 0.203952
0.318608 0.324102 0.199527
0.332830 0.336248 0.208652
0.361608 0.363806 0.230289
0.397253 0.397803 0.257969
0.439338 0.437842 0.292546
0.487709 0.483253 0.334661
0.540673 0.532769 0.383734
0.596521 0.584924 0.437812
0.651667 0.636194 0.495644
0.701778 0.683223 0.556176
0.746761 0.726070 0.615137
0.787594 0.765133 0.667384
0.822934 0.799252 0.714351
0.854582 0.830076 0.756649
0.890776 0.865782 0.802213
0.909575 0.874815 0.803555
0.919371 0.865476 0.776699
0.929595 0.853696 0.748562
0.939849 0.840085 0.720150
0.950347 0.825071 0.691188
0.961089 0.808743 0.661250
0.972290 0.791470 0.630030
0.983948 0.773587 0.597772
0.996277 0.755276 0.564324
1.000000 0.737240 0.530510
1.000000 0.719905 0.497505
1.000000 0.713161 0.486946
1.000000 0.708370 0.481758
0.332311 0.345098 0.213169
0.332525 0.344945 0.213077
0.331853 0.343359 0.211734
0.330175 0.340002 0.208927
0.327794 0.334539 0.204746
0.331670 0.335424 0.205295
0.358679 0.361547 0.225406
0.392828 0.394415 0.252049
0.433936 0.433448 0.285374
0.480140 0.477150 0.325505
0.530999 0.524834 0.372290
0.585382 0.575830 0.424689
0.640070 0.626825 0.480934
0.690120 0.673793 0.539818
0.735042 0.716487 0.598718
0.776425 0.755947 0.652277
0.813870 0.791775 0.699702
0.846098 0.823087 0.742977
0.875120 0.851469 0.782071
0.908202 0.884306 0.824125
0.924346 0.891234 0.823728
0.933074 0.882506 0.798886
0.942229 0.871489 0.772763
0.951934 0.859159 0.746639
0.961883 0.845670 0.720302
0.972290 0.831022 0.693141
0.983154 0.815518 0.665126
0.994598 0.799680 0.636652
1.000000 0.783597 0.607568
1.000000 0.767330 0.577691
1.000000 0.750912 0.546807
1.000000 0.738399 0.523705
0.344579 0.358556 0.219974
0.344457 0.358282 0.219821
0.343603 0.356603 0.218570
0.341894 0.353094 0.215732
0.338872 0.347509 0.211246
0.334478 0.339391 0.204807
0.356970 0.360662 0.221286
0.390204 0.392554 0.246860
0.429450 0.430121 0.278752
0.474708 0.472938 0.317540
0.523949 0.519402 0.362829
0.576928 0.569207 0.413794
0.630365 0.619287 0.468116
0.680446 0.666163 0.525811
0.725551 0.708949 0.584649
0.766903 0.748379 0.638849
0.804593 0.784329 0.686824
0.838529 0.816953 0.730434
0.867704 0.845396 0.769833
0.893889 0.871153 0.805509
0.923217 0.900481 0.843656
0.936828 0.905425 0.841520
0.944366 0.896818 0.817838
0.952483 0.886229 0.793088
0.961456 0.874784 0.768551
0.970916 0.862425 0.744167
0.980987 0.849241 0.719356
0.991669 0.835477 0.694057
1.000000 0.821073 0.668086
1.000000 0.806363 0.641596
1.000000 0.791501 0.614557
1.000000 0.776577 0.586999
0.356268 0.371984 0.227176
0.356298 0.371801 0.226963
0.355505 0.370214 0.225559
0.353674 0.366674 0.222904
0.350896 0.361303 0.218387
0.346960 0.353857 0.212558
0.355474 0.359625 0.216831
0.386877 0.389929 0.240909
0.424445 0.426032 0.271275
0.468086 0.467536 0.308476
0.515740 0.512688 0.351965
0.567010 0.561059 0.401129
0.619989 0.610803 0.454505
0.669703 0.657465 0.510582
0.715358 0.700557 0.569146
0.756435 0.739681 0.623682
0.794644 0.776150 0.673060
0.829282 0.809262 0.716915
0.859953 0.838895 0.757107
0.886564 0.864958 0.793423
0.910460 0.888640 0.826505
0.936339 0.914733 0.861265
0.947723 0.918120 0.857939
0.954498 0.909972 0.835721
0.961181 0.899168 0.811185
0.969696 0.888609 0.788205
0.978851 0.877562 0.765866
0.988464 0.865446 0.742794
0.998688 0.852750 0.719142
1.000000 0.839567 0.695125
1.000000 0.826352 0.671199
1.000000 0.813077 0.647059
0.371618 0.389258 0.236545
0.371557 0.389105 0.236271
0.370825 0.387579 0.235142
0.369329 0.384405 0.232486
0.366400 0.379065 0.228214
0.362341 0.371588 0.222171
0.356878 0.361913 0.214481
0.384558 0.388312 0.235416
0.420996 0.423346 0.264591
0.462501 0.463172 0.299962
0.508354 0.506798 0.341619
0.558251 0.553826 0.389166
0.609613 0.602167 0.440589
0.659144 0.648707 0.495369
0.704158 0.691188 0.551873
0.745571 0.730526 0.607477
0.783627 0.766781 0.657404
0.818540 0.800107 0.702052
0.850370 0.830625 0.742641
0.878202 0.857633 0.779782
0.902556 0.881590 0.813596
0.924498 0.903502 0.844633
0.946777 0.926299 0.875944
0.956451 0.928527 0.871763
0.962554 0.920745 0.850736
0.969238 0.911345 0.828672
0.977020 0.901274 0.806546
0.985595 0.890929 0.785397
0.994873 0.879850 0.763821
1.000000 0.868345 0.742061
1.000000 0.856626 0.720333
1.000000 0.845029 0.698970
0.387152 0.407111 0.246830
0.387213 0.407050 0.246647
0.386664 0.405676 0.245487
0.385229 0.402869 0.243046
0.382605 0.397711 0.238865
0.379034 0.391028 0.233219
0.373999 0.381903 0.225742
0.383429 0.387915 0.230503
0.418158 0.421393 0.258213
0.458534 0.460273 0.292302
0.503227 0.502892 0.332647
0.551476 0.548516 0.378637
0.601862 0.596216 0.429053
0.650935 0.642329 0.482551
0.696071 0.684749 0.538323
0.736995 0.723598 0.593683
0.775143 0.759915 0.644526
0.809995 0.793149 0.689631
0.842161 0.823911 0.730922
0.871305 0.851926 0.768460
0.896330 0.876371 0.802731
0.918151 0.898009 0.833829
0.937774 0.917845 0.862577
0.956451 0.937255 0.890410
0.964538 0.938445 0.885527
0.970001 0.931060 0.865629
0.976165 0.922301 0.844846
0.983490 0.913085 0.824186
0.991821 0.903838 0.804746
1.000000 0.894041 0.785122
1.000000 0.884031 0.765713
1.000000 0.874022 0.746670
0.407416 0.430060 0.260929
0.407385 0.430030 0.260655
0.406592 0.428473 0.259464
0.405310 0.425574 0.256870
0.402869 0.420905 0.252781
0.399481 0.414374 0.247166
0.394781 0.405615 0.239963
0.388678 0.394537 0.230716
0.417121 0.421363 0.252720
0.455787 0.458625 0.285405
0.499458 0.500359 0.324834
0.546136 0.544640 0.369116
0.595056 0.590967 0.417884
0.643427 0.636500 0.470222
0.688167 0.678584 0.524834
0.729122 0.717372 0.580285
0.766995 0.753384 0.631525
0.802090 0.786801 0.677607
0.834318 0.817533 0.719326
0.863584 0.845548 0.757259
0.889921 0.870939 0.791592
0.912016 0.892668 0.822904
0.931243 0.911894 0.851286
0.948486 0.929595 0.877745
0.964050 0.946075 0.902403
0.970977 0.946624 0.897307
0.975982 0.939818 0.878721
0.981781 0.931762 0.859220
0.988708 0.923339 0.839994
0.996765 0.915221 0.822232
1.000000 0.906828 0.804898
1.000000 0.898436 0.787991
0.430701 0.456489 0.278080
0.430701 0.456275 0.277867
0.430182 0.455299 0.276829
0.428931 0.452583 0.274327
0.426947 0.448341 0.270481
0.424231 0.442634 0.265507
0.420417 0.434974 0.258579
0.415473 0.424994 0.249638
0.420569 0.425818 0.250126
0.458869 0.462806 0.282444
0.501488 0.503746 0.321050
0.547356 0.547234 0.364843
0.595697 0.593194 0.413367
0.642817 0.637629 0.464851
0.686793 0.678950 0.518853
0.726833 0.716762 0.573602
0.763912 0.751919 0.624506
0.798367 0.784665 0.670558
0.830137 0.814847 0.712032
0.859190 0.842618 0.750057
0.885405 0.867857 0.784512
0.908843 0.890562 0.815976
0.928222 0.909789 0.844694
0.944732 0.926574 0.870451
0.959258 0.941772 0.894377
0.971740 0.955383 0.915862
0.977478 0.955383 0.910674
0.982086 0.949218 0.893523
0.987488 0.942016 0.875700
0.993927 0.934508 0.858152
1.000000 0.927672 0.842527
1.000000 0.920928 0.827848
0.462776 0.492592 0.303655
0.462684 0.492317 0.303502
0.462074 0.491035 0.302159
0.460883 0.488563 0.299779
0.459083 0.484565 0.295964
0.456428 0.478859 0.290593
0.452827 0.471321 0.283360
0.448157 0.461799 0.274540
0.442390 0.450355 0.264012
0.464546 0.469581 0.281254
0.504662 0.508080 0.317937
0.548211 0.549584 0.359960
0.594476 0.593408 0.406531
0.639796 0.636194 0.456397
