20 Preset/Bright-Style/【3】LUT video cho PR-AE-FCPX/Tone  (1).cube
# Created by Adobe Lightroom plugin Export LUT (1.24.0)
# www.johnrellis.com/lightroom/exportlut.htm
# Preset: 明亮奶油-素材江湖04
# Color profile: E:\lut插件\exportlut.1.24\exportlut.lrplugin\color profiles\Rec709gamma2.4.icc
LUT_3D_SIZE 8
DOMAIN_MIN 0.000000 0.000000 0.000000
DOMAIN_MAX 0.903226 0.903226 0.903226
0.123720 0.084474 0.000000
0.093599 0.087922 0.000916
0.294255 0.000000 0.037446
0.646571 0.000000 0.069306
0.889769 0.000000 0.133577
0.991852 0.000000 0.221866
1.000000 0.000000 0.305333
1.000000 0.146853 0.388678
0.078614 0.096254 0.053651
0.093263 0.112825 0.079744
0.327398 0.000000 0.061616
0.640864 0.000000 0.087770
0.868345 0.000000 0.140658
0.971283 0.000000 0.217227
1.000000 0.000000 0.296849
1.000000 0.187564 0.382727
0.133700 0.306065 0.207980
0.200748 0.296239 0.208865
0.527672 0.519982 0.358160
0.716793 0.357519 0.185733
0.872587 0.309270 0.226291
0.955138 0.310887 0.294224
1.000000 0.365209 0.374609
1.000000 0.418952 0.445380
0.429938 0.588952 0.452827
0.437293 0.569390 0.434882
0.597436 0.649500 0.551049
0.775174 0.749783 0.692256
0.833127 0.637385 0.474372
0.910674 0.597589 0.456184
0.959930 0.580621 0.484779
0.989868 0.577783 0.524407
0.583276 0.692226 0.593408
0.583703 0.684657 0.583612
0.624384 0.685206 0.594446
0.764584 0.768429 0.738613
0.837522 0.810819 0.790860
0.861448 0.749569 0.673030
0.910246 0.697444 0.594537
0.949340 0.686793 0.610285
0.681941 0.750851 0.690791
0.685908 0.750210 0.690608
0.683803 0.735317 0.670008
0.760647 0.774502 0.741146
0.835538 0.824796 0.818631
0.866056 0.844144 0.834104
0.878691 0.810300 0.780636
0.912840 0.762417 0.701472
0.751705 0.796689 0.762448
0.752071 0.795407 0.760708
0.749752 0.787289 0.749203
0.758968 0.780697 0.742672
0.827237 0.823392 0.813199
0.866880 0.853971 0.847349
0.880674 0.862791 0.851225
0.886259 0.841642 0.826047
0.808774 0.833463 0.816373
0.808530 0.832700 0.815396
0.807828 0.829526 0.811368
0.807065 0.822873 0.802548
0.825162 0.827390 0.812741
0.863859 0.854612 0.846098
0.884581 0.872313 0.859434
0.889799 0.874937 0.859586
0.114839 0.084443 0.003723
0.092226 0.086427 0.020508
0.263340 0.000000 0.035767
0.603845 0.000000 0.078309
0.851011 0.000000 0.130159
0.962463 0.000000 0.203799
1.000000 0.000000 0.281193
1.000000 0.000000 0.364996
0.067353 0.098634 0.084230
0.095094 0.108736 0.088350
0.314061 0.057130 0.082704
0.624170 0.000000 0.092409
0.848600 0.000000 0.142977
0.955444 0.000000 0.212924
1.000000 0.000000 0.284581
1.000000 0.154543 0.365118
0.161624 0.300816 0.220249
0.215457 0.299351 0.225010
0.496040 0.482704 0.338231
0.687678 0.347326 0.194186
0.848508 0.302495 0.209689
0.939178 0.299351 0.275425
0.992432 0.333288 0.344732
1.000000 0.390692 0.419501
0.397223 0.557885 0.425483
0.409827 0.541283 0.412390
0.569909 0.625635 0.525963
0.746517 0.722866 0.650233
0.809476 0.600732 0.425910
0.896483 0.569177 0.413428
0.952483 0.554162 0.448035
0.987579 0.556573 0.497139
0.578729 0.687892 0.590082
0.578332 0.679835 0.579797
0.615106 0.677699 0.586053
0.753323 0.759457 0.726558
0.829129 0.801450 0.777401
0.854795 0.738796 0.655909
0.906676 0.688258 0.578180
0.948150 0.678401 0.596246
0.675868 0.746639 0.685512
0.675868 0.743465 0.681239
0.674617 0.728969 0.661250
0.752712 0.768490 0.732876
0.831418 0.821012 0.814542
0.864042 0.841611 0.831601
0.877226 0.806973 0.775845
0.911864 0.758816 0.694911
0.746151 0.793301 0.757687
0.744900 0.791043 0.754391
0.742428 0.782620 0.742458
0.751125 0.775082 0.734493
0.823667 0.820401 0.809659
0.865049 0.852110 0.845945
0.879301 0.860929 0.849821
0.885130 0.838804 0.822690
0.804959 0.831357 0.813718
0.805417 0.830991 0.813260
0.804562 0.827604 0.808927
0.803738 0.820768 0.799802
0.826993 0.828885 0.814786
0.864042 0.854826 0.846281
0.884367 0.872068 0.859312
0.889677 0.874723 0.859464
0.094697 0.084352 0.064820
0.081575 0.086458 0.088472
0.255253 0.000549 0.135317
0.627253 0.000000 0.125673
0.861936 0.000000 0.154879
0.961608 0.000000 0.231144
1.000000 0.000000 0.311650
1.000000 0.252323 0.389960
0.059388 0.112428 0.118288
0.100893 0.120211 0.138094
0.332494 0.070466 0.158724
0.643366 0.000000 0.153079
0.852781 0.000000 0.176455
0.951873 0.000000 0.238743
1.000000 0.170352 0.314153
1.000000 0.284123 0.391119
0.203098 0.353857 0.305241
0.252354 0.341527 0.289921
0.478798 0.438636 0.342992
0.694789 0.380438 0.285313
0.848783 0.371405 0.283940
0.934569 0.377874 0.302190
0.985962 0.397009 0.367681
1.000000 0.428290 0.434577
0.448737 0.590814 0.487068
0.463355 0.578393 0.477272
0.588495 0.635920 0.558648
0.741024 0.714321 0.649226
0.808133 0.611933 0.476631
0.892821 0.591272 0.458625
0.949828 0.576989 0.468574
0.984741 0.574243 0.512291
0.599573 0.696345 0.615991
0.600275 0.689967 0.608026
0.625391 0.681575 0.603479
0.757748 0.761868 0.736080
0.828000 0.799283 0.777859
0.851743 0.734829 0.659388
0.904173 0.694453 0.594690
0.947234 0.683101 0.602045
0.685115 0.750668 0.697719
0.685512 0.747860 0.694118
0.683925 0.733852 0.675502
0.752163 0.767117 0.734798
0.830198 0.819608 0.814511
0.862089 0.838834 0.829557
0.875731 0.803433 0.773251
0.911650 0.759823 0.697261
0.753506 0.797482 0.767056
0.752377 0.795377 0.764096
0.749264 0.786954 0.752255
0.748898 0.773190 0.733852
0.822629 0.819303 0.809476
0.864988 0.851957 0.846250
0.879301 0.860807 0.850034
0.885374 0.838895 0.823728
0.808133 0.833494 0.817594
0.807492 0.832517 0.816403
0.806424 0.829160 0.812161
0.806363 0.823026 0.804318
0.824002 0.826749 0.812436
0.863615 0.854368 0.846189
0.884520 0.872221 0.859495
0.889769 0.874815 0.859617
0.037873 0.091646 0.132815
0.038544 0.094881 0.152895
0.217563 0.097444 0.215732
0.607233 0.000000 0.295750
0.852476 0.000000 0.287236
0.953124 0.000000 0.279210
1.000000 0.138582 0.309270
1.000000 0.281895 0.388586
0.030884 0.138369 0.196536
0.103243 0.146426 0.217197
0.299413 0.167239 0.274846
0.657343 0.000000 0.328008
0.857053 0.000000 0.302190
0.948241 0.000000 0.302190
0.999512 0.239017 0.323796
1.000000 0.324224 0.397711
0.254002 0.355200 0.364446
0.299138 0.373785 0.375372
0.480446 0.395819 0.399176
0.693874 0.372564 0.383490
0.842893 0.386969 0.386664
0.924315 0.421149 0.399634
0.977783 0.453437 0.416480
1.000000 0.461707 0.451453
0.511192 0.638331 0.586908
0.521996 0.630091 0.574395
0.578576 0.623865 0.570031
0.716915 0.680537 0.620966
0.800412 0.618555 0.533745
0.880491 0.605341 0.522545
0.938567 0.593988 0.514611
0.982147 0.582208 0.517296
0.638636 0.720272 0.668879
0.638636 0.714412 0.661524
0.639918 0.689601 0.631769
0.760678 0.762783 0.746365
0.822477 0.791073 0.772427
0.845487 0.722042 0.656489
0.899260 0.704829 0.634028
0.945739 0.688319 0.613794
0.708553 0.764248 0.727199
0.711543 0.763424 0.726711
0.708888 0.750210 0.709804
0.756649 0.769223 0.744381
0.832853 0.821500 0.819425
0.860288 0.835874 0.828214
0.873991 0.797513 0.769650
0.909667 0.762600 0.712703
0.765133 0.804990 0.782803
0.765042 0.803647 0.781125
0.763363 0.796872 0.772183
0.759243 0.781582 0.751492
0.822110 0.818692 0.810697
0.865415 0.852262 0.847196
0.878874 0.859953 0.849943
0.885313 0.836851 0.822934
0.816983 0.839597 0.826902
0.816648 0.838834 0.826047
0.815396 0.835721 0.822507
0.813504 0.829129 0.814694
0.817014 0.822080 0.806790
0.861723 0.852781 0.845212
0.884428 0.872099 0.859586
0.889891 0.874937 0.859861
0.000000 0.117372 0.238590
0.000000 0.124483 0.261265
0.246769 0.142611 0.352605
0.555352 0.172519 0.432380
0.818906 0.164797 0.481239
0.934905 0.158022 0.449317
0.990082 0.247562 0.427100
1.000000 0.312108 0.422400
0.000000 0.173129 0.296086
0.100282 0.182956 0.318029
0.319371 0.214572 0.403601
0.591150 0.267063 0.466377
0.823331 0.254520 0.493782
0.929870 0.251469 0.459907
0.986969 0.291478 0.433448
1.000000 0.351781 0.435035
0.270207 0.373693 0.414893
0.315831 0.397711 0.441444
0.470253 0.448371 0.512444
0.647608 0.479377 0.542931
0.817594 0.434241 0.520439
0.908354 0.411597 0.480171
0.962310 0.446326 0.481453
1.000000 0.458167 0.476204
0.531670 0.624414 0.616022
0.548730 0.630365 0.620874
0.600244 0.644038 0.625879
0.697536 0.637842 0.610620
0.795010 0.622034 0.595148
0.868559 0.611200 0.582544
0.925628 0.601923 0.572442
0.974609 0.583215 0.552544
0.670375 0.737392 0.720241
0.673274 0.734707 0.715908
0.673823 0.719356 0.690944
0.745785 0.749966 0.739651
0.801328 0.763973 0.744076
0.837217 0.715053 0.671473
0.893462 0.701137 0.656092
0.940337 0.683406 0.636866
0.727535 0.774075 0.756191
0.725093 0.771969 0.751614
0.718685 0.759945 0.733547
0.730739 0.749416 0.723812
0.821073 0.810788 0.810880
0.852873 0.825315 0.819303
0.869780 0.778500 0.749050
0.908293 0.759365 0.722011
0.782589 0.813687 0.803677
0.780270 0.812253 0.801053
0.773556 0.806577 0.791135
0.770138 0.793606 0.774807
0.807462 0.807492 0.798917
0.861570 0.848417 0.845212
0.876463 0.856382 0.847929
0.884337 0.828367 0.814878
0.824887 0.843748 0.835874
0.824949 0.843168 0.835355
0.821927 0.840665 0.831571
0.819242 0.835813 0.825101
0.815702 0.824277 0.811765
0.854398 0.846616 0.840299
0.882750 0.870390 0.858915
0.889250 0.873930 0.859495
0.000000 0.170443 0.376928
0.000000 0.178592 0.396704
0.263645 0.211063 0.474311
0.570062 0.266880 0.564569
0.763485 0.387640 0.606806
0.891600 0.408698 0.609979
0.964813 0.406226 0.580224
1.000000 0.435035 0.562463
0.000000 0.217624 0.406928
0.096803 0.226474 0.423835
0.309819 0.262058 0.491737
0.576165 0.319188 0.566461
0.756161 0.422217 0.606836
0.885893 0.428382 0.608209
0.958160 0.426032 0.580316
0.998779 0.448127 0.563012
0.301518 0.412451 0.505943
0.331182 0.422766 0.522087
0.458106 0.464454 0.573144
0.632532 0.510124 0.621057
0.760952 0.558282 0.646479
0.876646 0.528008 0.630610
0.938842 0.519921 0.604913
0.981689 0.522240 0.588891
0.515648 0.607538 0.623896
0.528466 0.610590 0.624872
0.585443 0.631067 0.639399
0.695979 0.670344 0.693233
0.788052 0.662287 0.693507
0.860868 0.638087 0.667048
0.915099 0.626184 0.649195
0.958404 0.616297 0.636530
0.693782 0.743954 0.753811
0.698939 0.745418 0.755093
0.714626 0.749355 0.756497
0.727321 0.734554 0.732906
0.782101 0.731991 0.723232
0.838437 0.719356 0.709987
0.887541 0.705531 0.697108
0.933043 0.687343 0.679866
0.754482 0.793515 0.795285
0.756405 0.792966 0.794308
0.757839 0.786740 0.785428
0.752163 0.769497 0.761318
0.813474 0.803952 0.808347
0.843534 0.810575 0.807706
0.868833 0.770077 0.753719
0.910002 0.754604 0.736477
0.800137 0.824765 0.823697
0.800931 0.824460 0.823270
0.801236 0.821408 0.819730
0.795163 0.813291 0.807858
0.786740 0.792996 0.784176
0.856229 0.843229 0.842649
0.874083 0.852384 0.846250
0.885191 0.814878 0.802579
0.832517 0.849699 0.844053
0.832303 0.849210 0.843626
0.832547 0.847776 0.842313
0.833738 0.845212 0.839841
0.826902 0.837186 0.829953
0.837522 0.833555 0.828061
0.880064 0.867613 0.857786
0.888609 0.872862 0.859251
0.000000 0.223087 0.493080
0.000000 0.232395 0.509392
0.267613 0.264134 0.561975
0.557733 0.336675 0.650233
0.739315 0.409583 0.678218
0.838560 0.525872 0.696834
0.920714 0.523003 0.687953
0.976867 0.501122 0.657252
0.000000 0.255192 0.501183
0.065339 0.265782 0.517266
0.298039 0.299229 0.566125
0.559991 0.370428 0.647120
0.731991 0.432563 0.673335
0.830503 0.532341 0.691310
0.915557 0.520409 0.680262
0.972747 0.498360 0.649805
0.273899 0.409491 0.560357
0.294255 0.412238 0.571160
0.414801 0.448737 0.609400
0.605798 0.517357 0.675380
0.740261 0.553033 0.697230
0.822110 0.610529 0.712428
0.906340 0.585077 0.699153
0.956970 0.571588 0.675715
0.430671 0.557122 0.605798
0.442847 0.559380 0.606195
0.539025 0.604395 0.654200
0.657893 0.650019 0.710109
0.754055 0.672572 0.734157
0.827726 0.680842 0.742184
0.895079 0.658869 0.725582
0.936065 0.645289 0.705257
0.635615 0.704585 0.725856
0.638514 0.704067 0.724605
0.656764 0.706142 0.724086
0.688167 0.711452 0.724880
0.767697 0.737697 0.763699
0.831174 0.724666 0.757290
0.880034 0.708888 0.739986
0.920684 0.698756 0.728664
0.764248 0.796048 0.813321
0.766751 0.796750 0.813779
0.775753 0.798917 0.815213
0.790036 0.802182 0.816861
0.786954 0.783841 0.793484
0.827573 0.783108 0.790463
0.866361 0.772000 0.780026
0.901823 0.757504 0.767361
0.814298 0.835996 0.840574
0.814878 0.835691 0.840208
0.815854 0.833494 0.837980
0.817075 0.828550 0.832853
0.812802 0.817197 0.819883
0.844327 0.831907 0.836088
0.866423 0.840177 0.839078
0.885679 0.806210 0.803983
0.840421 0.855283 0.851347
0.840757 0.855161 0.851225
0.842679 0.854887 0.850889
0.844450 0.853208 0.849485
0.845396 0.849332 0.846220
0.838987 0.838712 0.836027
0.873442 0.861112 0.854765
0.887419 0.870939 0.858854
0.000000 0.270481 0.587457
0.000000 0.278477 0.597925
0.258183 0.303960 0.631586
0.509483 0.366125 0.692775
0.722164 0.461311 0.747036
0.828489 0.518578 0.752224
0.883299 0.602869 0.758083
0.939879 0.594934 0.747097
0.000000 0.292210 0.588251
0.000000 0.300450 0.598566
0.280034 0.328832 0.632746
0.514031 0.390845 0.691463
0.719387 0.481514 0.745510
0.824002 0.531853 0.750851
0.879484 0.608423 0.756802
0.937621 0.598291 0.745968
0.202914 0.395300 0.607843
0.226688 0.397375 0.616510
0.354376 0.427070 0.646601
0.547387 0.494972 0.702419
0.724208 0.568688 0.753933
0.815396 0.596735 0.757931
0.870939 0.648615 0.765957
0.929290 0.632990 0.755520
0.303990 0.496376 0.608331
0.336828 0.509331 0.619837
0.452247 0.555901 0.661921
0.580041 0.599145 0.711574
0.731197 0.660060 0.766537
0.810544 0.675624 0.775448
0.864042 0.702480 0.784115
0.918273 0.682429 0.772305
0.479347 0.632319 0.686793
0.485817 0.632807 0.686519
0.504051 0.629725 0.680537
0.594171 0.658564 0.703883
0.725216 0.713008 0.769863
0.810544 0.735256 0.795468
0.861875 0.746304 0.802243
0.906706 0.723873 0.786404
0.693477 0.759548 0.791196
0.694911 0.759121 0.790616
0.702419 0.758419 0.788968
0.718196 0.758022 0.786618
0.739712 0.756619 0.781643
0.817288 0.788388 0.818265
0.859495 0.784573 0.817838
0.892668 0.769955 0.806180
0.805509 0.828061 0.841978
0.806394 0.828122 0.841947
0.810147 0.828489 0.841917
0.817899 0.829557 0.842100
0.828458 0.830991 0.842222
0.838376 0.830961 0.840909
0.854093 0.818631 0.830533
0.881315 0.809262 0.824308
0.850431 0.861051 0.858213
0.850492 0.860960 0.858152
0.851255 0.860929 0.857908
0.853056 0.860990 0.857481
0.855528 0.859220 0.856046
0.856992 0.854490 0.852720
0.855406 0.843870 0.845487
0.882200 0.862913 0.856077
