20 Preset/Bright-Style/【3】LUT video cho PR-AE-FCPX/Tone  (1).cube
# Created by Adobe Lightroom plugin Export LUT (1.24.0)
# www.johnrellis.com/lightroom/exportlut.htm
# Preset: 明亮奶油-素材江湖04
# Color profile: E:\lut插件\exportlut.1.24\exportlut.lrplugin\color profiles\Rec709gamma2.4.icc
LUT_3D_SIZE 5
DOMAIN_MIN 0.000000 0.000000 0.000000
DOMAIN_MAX 0.903226 0.903226 0.903226
0.123720 0.084474 0.000000
0.214420 0.012207 0.029084
0.775662 0.000000 0.094118
1.000000 0.000000 0.243870
1.000000 0.146853 0.388678
0.078218 0.241855 0.164981
0.407141 0.402594 0.255833
0.815244 0.193149 0.170871
0.980865 0.223606 0.295476
1.000000 0.379797 0.434485
0.517144 0.650202 0.531060
0.559838 0.638025 0.526848
0.814847 0.786984 0.753353
0.895506 0.658503 0.527092
0.969055 0.635859 0.564630
0.705562 0.766262 0.714900
0.704463 0.755306 0.700160
0.802731 0.803128 0.786648
0.870695 0.849973 0.840024
0.905486 0.776516 0.720882
0.808774 0.833463 0.816373
0.808011 0.830594 0.812741
0.798703 0.811917 0.786801
0.870451 0.859953 0.850736
0.889799 0.874937 0.859586
0.100740 0.083558 0.042084
0.177401 0.054505 0.106783
0.751675 0.000000 0.113527
0.973877 0.000000 0.238895
1.000000 0.201877 0.376684
0.134615 0.269352 0.234562
0.364904 0.330877 0.255314
0.780240 0.267308 0.216373
0.957092 0.287419 0.288365
1.000000 0.377173 0.415839
0.519799 0.644404 0.540703
0.556573 0.629786 0.532403
0.793210 0.764645 0.723354
0.884184 0.648798 0.520623
0.966522 0.635309 0.560143
0.710414 0.767910 0.721981
0.709804 0.757839 0.708675
0.801694 0.801755 0.786923
0.869169 0.847745 0.838499
0.904967 0.774594 0.718624
0.810697 0.834836 0.819120
0.809659 0.831846 0.815427
0.806760 0.818235 0.797452
0.871183 0.860655 0.851438
0.890166 0.875364 0.859922
0.000000 0.101167 0.181216
0.170901 0.114870 0.264164
0.739864 0.000000 0.395392
0.961334 0.000000 0.351720
1.000000 0.288548 0.389502
0.203464 0.297551 0.336675
0.377050 0.354467 0.421851
0.769650 0.333288 0.442695
0.939727 0.358373 0.411688
1.000000 0.421302 0.429877
0.602289 0.696620 0.663386
0.610498 0.675776 0.629908
0.765225 0.729030 0.693355
0.870329 0.665797 0.603296
0.961151 0.638300 0.575708
0.732692 0.781704 0.755703
0.729000 0.771084 0.741909
0.791196 0.792416 0.781247
0.863951 0.840116 0.833433
0.901335 0.772885 0.731777
0.819577 0.840543 0.830289
0.816678 0.838468 0.826566
0.813077 0.826017 0.812100
0.866300 0.856107 0.848600
0.889372 0.874144 0.859495
0.000000 0.179660 0.399054
0.186648 0.209232 0.465888
0.659815 0.307530 0.592340
0.898833 0.434333 0.626795
0.996979 0.444434 0.583459
0.226200 0.348516 0.490852
0.355230 0.384039 0.539269
0.687037 0.484016 0.631586
0.886931 0.513664 0.639429
0.981048 0.506401 0.599359
0.585901 0.663172 0.674372
0.616358 0.669856 0.677211
0.733394 0.697383 0.711666
0.856107 0.660334 0.674769
0.941711 0.648920 0.663172
0.773983 0.806851 0.811215
0.774136 0.802029 0.804929
0.766873 0.775418 0.770626
0.850156 0.818753 0.817380
0.902892 0.766842 0.753231
0.834806 0.851225 0.846098
0.835477 0.850248 0.845212
0.837308 0.845640 0.840818
0.848692 0.841550 0.837369
0.888365 0.872496 0.859190
0.000000 0.270481 0.587457
0.196384 0.294713 0.620020
0.629908 0.415290 0.725978
0.845640 0.542199 0.753079
0.939879 0.594934 0.747097
0.138552 0.361517 0.604395
0.294163 0.389593 0.634211
0.637995 0.506676 0.728450
0.835050 0.595392 0.757626
0.931914 0.624628 0.753750
0.351995 0.546990 0.625544
0.412543 0.561456 0.634333
0.658778 0.661158 0.738338
0.822629 0.708705 0.784421
0.912657 0.702235 0.778378
0.732937 0.782834 0.810758
0.738247 0.782345 0.809720
0.760494 0.781247 0.806027
0.828550 0.799039 0.823362
0.889464 0.778988 0.809659
0.850431 0.861051 0.858213
0.850980 0.860929 0.857969
0.854276 0.860533 0.856992
0.856962 0.852537 0.851377
0.882200 0.862913 0.856077
