20 Preset/Bright-Style/【3】LUT video cho PR-AE-FCPX/Tone  (5).cube
# Created by Adobe Lightroom plugin Export LUT (1.24.0)
# www.johnrellis.com/lightroom/exportlut.htm
# Preset: 明亮奶油-素材江湖03
# Color profile: E:\lut插件\exportlut.1.24\exportlut.lrplugin\color profiles\Rec709gamma2.4.icc
LUT_3D_SIZE 5
DOMAIN_MIN 0.000000 0.000000 0.000000
DOMAIN_MAX 0.903226 0.903226 0.903226
0.000000 0.000000 0.000000
0.354376 0.000000 0.000000
0.849119 0.000000 0.000000
1.000000 0.000000 0.000000
1.000000 0.000000 0.083711
0.205600 0.350042 0.008637
0.344549 0.304448 0.146609
0.800351 0.334112 0.000000
1.000000 0.229313 0.000000
1.000000 0.099001 0.195132
0.681758 0.848081 0.571984
0.755673 0.835569 0.542840
0.857725 0.806363 0.635126
0.954528 0.668849 0.455909
1.000000 0.592462 0.442603
0.836576 0.937530 0.773526
0.855741 0.936248 0.767330
0.902281 0.925292 0.759731
0.937804 0.905333 0.803159
0.992767 0.850980 0.731685
0.865904 0.978454 0.811917
0.876402 0.977813 0.811673
0.917754 0.973419 0.807980
0.953460 0.964172 0.829740
0.977173 0.948272 0.859098
0.000000 0.074952 0.136599
0.291508 0.000000 0.210727
0.786923 0.000000 0.000000
1.000000 0.000000 0.000000
1.000000 0.000000 0.027985
0.000000 0.267521 0.253483
0.296788 0.276432 0.251560
0.750149 0.306645 0.123842
1.000000 0.285039 0.000000
1.000000 0.146975 0.167544
0.654658 0.818418 0.625422
0.732753 0.814298 0.613367
0.827848 0.783169 0.646235
0.938048 0.651850 0.426612
1.000000 0.587579 0.431922
0.846403 0.936309 0.806058
0.863127 0.935729 0.802731
0.906584 0.926879 0.794461
0.936095 0.903166 0.800290
0.991943 0.848325 0.727749
0.873625 0.979614 0.832242
0.880949 0.978668 0.827237
0.917784 0.975036 0.810269
0.954070 0.965209 0.830686
0.978058 0.949126 0.860166
0.000000 0.192966 0.365637
0.201266 0.037018 0.460853
0.823972 0.000000 0.567071
1.000000 0.000000 0.381933
1.000000 0.000000 0.223819
0.000000 0.252781 0.330510
0.181796 0.270298 0.437720
0.834348 0.000000 0.540520
1.000000 0.000000 0.353429
1.000000 0.000000 0.280766
0.538018 0.765103 0.725734
0.612787 0.756008 0.709316
0.771145 0.748867 0.708827
0.928801 0.635401 0.539483
1.000000 0.567407 0.469856
0.851255 0.929808 0.860349
0.860624 0.928222 0.857298
0.910002 0.928679 0.855619
0.934325 0.915404 0.862547
0.986145 0.839994 0.729549
0.889952 0.984955 0.889250
0.896269 0.984558 0.887419
0.923827 0.981903 0.877592
0.957183 0.970336 0.859373
0.976471 0.947356 0.858701
0.000000 0.350042 0.608972
0.000000 0.278233 0.660121
0.684260 0.000000 0.795224
1.000000 0.000000 0.738369
1.000000 0.000000 0.541436
0.000000 0.379980 0.591974
0.000000 0.360784 0.639857
0.661402 0.299596 0.778195
1.000000 0.000000 0.724392
1.000000 0.000000 0.542443
0.214328 0.550713 0.617334
0.294285 0.537163 0.601923
0.571160 0.583917 0.694667
0.969696 0.550347 0.704372
1.000000 0.439704 0.597864
0.790463 0.904845 0.881315
0.812802 0.907103 0.884947
0.858213 0.903746 0.877928
0.912139 0.901823 0.880705
0.992248 0.809995 0.755550
0.861662 0.983642 0.917327
0.874968 0.985138 0.921233
0.924346 0.990570 0.939117
0.971679 0.988830 0.936889
0.986938 0.970275 0.923217
0.295232 0.568872 0.816861
0.293400 0.557488 0.819516
0.488930 0.465919 0.866697
0.929381 0.000000 0.932952
1.000000 0.000000 0.824949
0.272404 0.559686 0.810971
0.280797 0.540093 0.819455
0.497047 0.452644 0.865293
0.923308 0.225681 0.927581
1.000000 0.000000 0.819699
0.115694 0.594079 0.733394
0.230503 0.594537 0.746914
0.485908 0.597406 0.814450
0.858335 0.598047 0.898070
1.000000 0.372320 0.825559
0.460090 0.779477 0.825498
0.485512 0.775418 0.821134
0.558801 0.754360 0.800992
0.747372 0.762295 0.840482
1.000000 0.782712 0.868284
0.730068 0.953643 0.928801
0.758572 0.955077 0.931853
0.842435 0.965850 0.947723
0.943328 0.984894 0.973846
0.987579 0.983978 0.976471
