20 Preset/Bright-Style/【3】LUT video cho PR-AE-FCPX/Tone  (2).cube
# Created by Adobe Lightroom plugin Export LUT (1.24.0)
# www.johnrellis.com/lightroom/exportlut.htm
# Preset: 明亮奶油-素材江湖05
# Color profile: E:\lut插件\exportlut.1.24\exportlut.lrplugin\color profiles\Rec709gamma2.4.icc
LUT_3D_SIZE 32
DOMAIN_MIN 0.0 0.0 0.0
DOMAIN_MAX 1.0 1.0 1.0
0.096498 0.088319 0.106050
0.096742 0.087861 0.106081
0.097414 0.087709 0.106081
0.100313 0.086397 0.106111
0.103182 0.085115 0.105806
0.101900 0.085389 0.105806
0.096651 0.086488 0.105837
0.092470 0.087343 0.105867
0.101778 0.086122 0.105440
0.128511 0.080537 0.105226
0.166232 0.061799 0.104891
0.209140 0.029450 0.104341
0.252811 0.000000 0.103578
0.295293 0.000000 0.102693
0.335485 0.000000 0.101625
0.371710 0.000000 0.100496
0.410254 0.000000 0.099092
0.449775 0.000000 0.097322
0.484077 0.000000 0.095552
0.515190 0.000000 0.093782
0.544244 0.000000 0.091829
0.571313 0.000000 0.089876
0.596063 0.000000 0.087892
0.619379 0.000000 0.084749
0.641810 0.000000 0.081514
0.663478 0.000000 0.078157
0.685420 0.000000 0.072572
0.706935 0.000000 0.067048
0.729061 0.000000 0.060853
0.751186 0.000000 0.054505
0.773251 0.000000 0.047974
0.796201 0.000000 0.040711
0.096742 0.087861 0.106081
0.096742 0.087861 0.106081
0.098116 0.087587 0.106081
0.100313 0.086397 0.106111
0.103182 0.085115 0.105806
0.101900 0.085389 0.105806
0.095979 0.086641 0.105837
0.092470 0.087343 0.105867
0.102388 0.086000 0.105440
0.128969 0.080385 0.105226
0.166445 0.062806 0.104829
0.209293 0.030426 0.104311
0.252415 0.000000 0.103548
0.296391 0.000000 0.102602
0.335790 0.000000 0.101564
0.372595 0.000000 0.100435
0.410315 0.000000 0.099031
0.448951 0.000000 0.097292
0.482460 0.000000 0.095552
0.512688 0.000000 0.093874
0.541039 0.000000 0.091981
0.566827 0.000000 0.090181
0.591363 0.000000 0.088228
0.614191 0.000000 0.085359
0.635859 0.000000 0.082246
0.657710 0.000000 0.079011
0.679683 0.000000 0.073976
0.701076 0.000000 0.068482
0.723323 0.000000 0.062501
0.745907 0.000000 0.056092
0.768521 0.000000 0.049317
0.791379 0.000000 0.042298
0.098695 0.086091 0.105837
0.098695 0.086091 0.105837
0.099367 0.085939 0.105837
0.102113 0.084627 0.105867
0.104036 0.084230 0.105867
0.100221 0.085054 0.105867
0.093935 0.087068 0.105837
0.093782 0.087800 0.105470
0.109743 0.085695 0.105318
0.140871 0.078584 0.105013
0.181369 0.054994 0.104585
0.224338 0.019593 0.103944
0.268467 0.000000 0.103090
0.311192 0.000000 0.102083
0.350042 0.000000 0.100984
0.385657 0.000000 0.099794
0.423651 0.000000 0.098238
0.459541 0.000000 0.096559
0.490547 0.000000 0.094911
0.520500 0.000000 0.093111
0.547784 0.000000 0.091249
0.572839 0.000000 0.089387
0.595209 0.000000 0.087526
0.617609 0.000000 0.084443
0.639155 0.000000 0.081331
0.659205 0.000000 0.078370
0.680568 0.000000 0.073182
0.701747 0.000000 0.067597
0.723629 0.000000 0.061677
0.745876 0.000000 0.055329
0.767819 0.000000 0.048859
0.790555 0.000000 0.041871
0.101930 0.083284 0.105959
0.101717 0.084016 0.105898
0.102663 0.083131 0.105623
0.103944 0.082856 0.105623
0.102449 0.083894 0.105562
0.095399 0.086793 0.105501
0.091768 0.088899 0.105379
0.104189 0.089021 0.105165
0.133455 0.084565 0.104829
0.172549 0.068482 0.104372
0.215183 0.036957 0.103700
0.260349 0.000000 0.102846
0.304234 0.000000 0.101839
0.344091 0.000000 0.100679
0.379980 0.000000 0.099489
0.414130 0.000000 0.098116
0.449805 0.000000 0.096498
0.481178 0.000000 0.094881
0.509789 0.000000 0.093233
0.536004 0.000000 0.091493
0.560235 0.000000 0.089723
0.582666 0.000000 0.088045
0.604486 0.000000 0.085206
0.625208 0.000000 0.082338
0.645716 0.000000 0.079377
0.666133 0.000000 0.075105
0.687312 0.000000 0.069642
0.707942 0.000000 0.064240
0.728908 0.000000 0.058625
0.750637 0.000000 0.052338
0.771481 0.000000 0.046235
0.793027 0.000000 0.039460
0.103090 0.083742 0.105562
0.103090 0.083742 0.105562
0.103090 0.083742 0.105562
0.101595 0.084779 0.105531
0.094606 0.089815 0.105226
0.089082 0.094575 0.104799
0.103578 0.094881 0.104524
0.138735 0.093660 0.103822
0.184573 0.084504 0.103029
0.229587 0.053193 0.102174
0.273472 0.003784 0.101259
0.317174 0.000000 0.100160
0.357671 0.000000 0.098878
0.394263 0.000000 0.097536
0.427649 0.000000 0.096162
0.459297 0.000000 0.094667
0.490761 0.000000 0.092958
0.518059 0.000000 0.091249
0.541772 0.000000 0.089723
0.564874 0.000000 0.088075
0.586084 0.000000 0.085542
0.605859 0.000000 0.082948
0.625025 0.000000 0.080354
0.643366 0.000000 0.077485
0.662013 0.000000 0.072969
0.680751 0.000000 0.068269
0.699672 0.000000 0.063416
0.718563 0.000000 0.058595
0.738186 0.000000 0.053162
0.757961 0.000000 0.047547
0.777462 0.000000 0.041688
0.797910 0.000000 0.035126
0.094942 0.092714 0.104921
0.095186 0.092256 0.104952
0.095247 0.091005 0.105104
0.090822 0.093996 0.104829
0.080049 0.102266 0.104280
0.088746 0.130251 0.099977
0.154818 0.139223 0.095918
0.207462 0.121492 0.097108
0.261723 0.105196 0.096193
0.315282 0.072053 0.094728
0.362799 0.000000 0.093050
0.399481 0.000000 0.092164
0.433600 0.000000 0.091035
0.463752 0.000000 0.089967
0.492470 0.000000 0.088624
0.520958 0.000000 0.086610
0.545769 0.000000 0.084260
0.567529 0.000000 0.082246
0.587610 0.000000 0.080079
0.605737 0.000000 0.078126
0.623499 0.000000 0.074464
0.639399 0.000000 0.071321
0.687068 0.000000 0.057465
0.702174 0.000000 0.053925
0.716732 0.000000 0.050416
0.731899 0.000000 0.046540
0.746883 0.000000 0.042603
0.762051 0.000000 0.038392
0.777737 0.000000 0.033814
0.793759 0.000000 0.029084
0.810727 0.000000 0.023835
0.827970 0.000000 0.018250
0.029023 0.126040 0.101167
0.030426 0.125490 0.101289
0.045930 0.119814 0.102174
0.049866 0.121950 0.102144
0.042939 0.142855 0.099153
0.093843 0.182010 0.090913
0.212009 0.257725 0.015167
0.328740 0.256596 0.000000
0.384100 0.211307 0.009766
0.429297 0.160708 0.036347
0.469917 0.121370 0.038514
0.505577 0.023377 0.040070
0.535912 0.000000 0.042939
0.559533 0.000000 0.045716
0.585412 0.000000 0.045411
0.605402 0.000000 0.046540
0.622858 0.000000 0.047059
0.637812 0.000000 0.047883
0.651789 0.000000 0.047883
0.665736 0.000000 0.045777
0.679377 0.000000 0.044648
0.693599 0.000000 0.042542
0.707607 0.000000 0.040406
0.721981 0.000000 0.037507
0.735836 0.000000 0.034791
0.749294 0.000000 0.031922
0.762142 0.000000 0.029267
0.774899 0.000000 0.026581
0.788724 0.000000 0.022980
0.803006 0.000000 0.019165
0.818112 0.000000 0.014771
0.833951 0.000000 0.009796
0.000000 0.180514 0.091676
0.000000 0.178408 0.092348
0.000000 0.169528 0.094881
0.012909 0.163210 0.096773
0.035981 0.191226 0.091402
0.113313 0.235294 0.075685
0.199252 0.296941 0.033753
0.344396 0.376379 0.000000
0.453101 0.368536 0.000000
0.501030 0.317388 0.000000
0.541497 0.260136 0.000000
0.573114 0.213779 0.000000
0.605066 0.172946 0.000000
0.631434 0.118593 0.000000
0.652216 0.000000 0.000000
0.666957 0.000000 0.000000
0.678126 0.000000 0.000000
0.688289 0.000000 0.000000
0.698177 0.000000 0.000061
0.707637 0.000000 0.003723
0.717556 0.000000 0.006683
0.727901 0.000000 0.009003
0.738491 0.000000 0.009308
0.749630 0.000000 0.008423
0.760281 0.000000 0.008545
0.770565 0.000000 0.008545
0.781155 0.000000 0.007843
0.791958 0.000000 0.007019
0.803677 0.000000 0.004059
0.816312 0.000000 0.001617
0.829618 0.000000 0.000000
0.843778 0.000000 0.000000
0.000000 0.247044 0.065522
0.000000 0.243961 0.068421
0.000000 0.234501 0.078035
0.006836 0.216434 0.088991
0.080323 0.246708 0.080232
0.145327 0.290043 0.064881
0.225650 0.344732 0.068513
0.322057 0.405859 0.110842
0.454719 0.470497 0.124178
0.550439 0.467201 0.034546
0.592157 0.424201 0.000000
0.629328 0.378729 0.000000
0.659113 0.328679 0.000000
0.680873 0.288792 0.000000
0.698421 0.245396 0.000000
0.712642 0.196994 0.000000
0.724788 0.136965 0.000000
0.734127 0.000000 0.000000
0.741268 0.000000 0.000000
0.748165 0.000000 0.000000
0.755062 0.000000 0.000000
0.762448 0.000000 0.000000
0.769863 0.000000 0.000000
0.778134 0.000000 0.000000
0.786404 0.000000 0.000000
0.794553 0.000000 0.000000
0.802976 0.000000 0.000000
0.811917 0.000000 0.000000
0.821836 0.000000 0.000000
0.832364 0.000000 0.000000
0.843992 0.000000 0.000000
0.856291 0.000000 0.000000
0.000000 0.313481 0.043793
0.000000 0.310887 0.047425
0.000000 0.300786 0.057527
0.053925 0.283085 0.078798
0.126253 0.301701 0.081086
0.186587 0.341650 0.090700
0.261723 0.390814 0.115999
0.349035 0.444678 0.163912
0.440253 0.497871 0.226474
0.549981 0.545342 0.259312
0.620111 0.540246 0.224582
0.649653 0.506126 0.200168
0.677211 0.468879 0.175265
0.702571 0.426764 0.149630
0.721706 0.385870 0.117067
0.737331 0.346746 0.046143
0.750973 0.306249 0.000000
0.762783 0.262455 0.000000
0.773220 0.216068 0.000000
0.781369 0.160647 0.000000
0.787137 0.074556 0.000000
0.792660 0.000000 0.000000
0.798245 0.000000 0.000000
0.804013 0.000000 0.000000
0.809964 0.000000 0.000000
0.816342 0.000000 0.000000
0.823148 0.000000 0.000000
0.830503 0.000000 0.000000
0.838834 0.000000 0.000000
0.848051 0.000000 0.000000
0.858122 0.000000 0.000000
0.869139 0.000000 0.000000
0.000000 0.376318 0.087404
0.000000 0.374304 0.088533
0.063783 0.366186 0.090150
0.135470 0.350164 0.095003
0.180179 0.356146 0.103761
0.233280 0.389960 0.124666
0.300084 0.431342 0.159670
0.375219 0.475807 0.208499
0.453773 0.519951 0.266728
0.532128 0.562432 0.331731
0.612085 0.594476 0.357946
0.664515 0.591119 0.328283
0.687221 0.564324 0.304387
0.708888 0.534936 0.278874
0.729946 0.502647 0.252171
0.748501 0.467170 0.226566
0.763363 0.434363 0.186770
0.776852 0.399268 0.146487
0.788663 0.361334 0.102632
0.799069 0.321141 0.010559
0.808164 0.278660 0.000000
0.815854 0.233677 0.000000
0.821439 0.184726 0.000000
0.826902 0.121187 0.000000
0.832334 0.000000 0.000000
0.837858 0.000000 0.000000
0.843748 0.000000 0.000000
0.850065 0.000000 0.000000
0.857053 0.000000 0.000000
0.864958 0.000000 0.000000
0.873716 0.000000 0.000000
0.883391 0.000000 0.000000
0.148348 0.428565 0.132143
0.151797 0.427985 0.132723
0.170321 0.420325 0.131319
0.195621 0.407141 0.130648
0.227237 0.398993 0.134737
0.274846 0.428290 0.160708
0.333410 0.463355 0.198276
0.399695 0.501305 0.245426
0.469154 0.539117 0.300420
0.536065 0.574304 0.359167
0.599145 0.610742 0.419959
0.657557 0.635279 0.437842
0.718044 0.654902 0.454719
0.734585 0.633539 0.432715
0.750484 0.609888 0.407752
0.766384 0.584558 0.381140
0.782071 0.557031 0.353582
0.794369 0.528038 0.319066
0.805722 0.498756 0.278782
0.816495 0.466621 0.237552
0.826688 0.432013 0.195529
0.836271 0.394385 0.151339
0.845212 0.354559 0.102785
0.853086 0.312902 0.000000
0.858824 0.271092 0.000000
0.864286 0.224949 0.000000
0.869688 0.171633 0.000000
0.875242 0.088655 0.000000
0.881041 0.000000 0.000000
0.887602 0.000000 0.000000
0.894865 0.000000 0.000000
0.903044 0.000000 0.000000
0.252110 0.486824 0.199100
0.253239 0.485084 0.197635
0.259373 0.479347 0.194736
0.270787 0.466865 0.188846
0.284367 0.447333 0.180636
0.325444 0.470069 0.207553
0.376379 0.499123 0.244053
0.434699 0.530632 0.289281
0.495399 0.562341 0.340551
0.553979 0.593256 0.395850
0.607141 0.624781 0.450660
0.657465 0.660456 0.505394
0.701900 0.680507 0.518212
0.735622 0.679286 0.498634
0.750881 0.661799 0.481209
0.764889 0.641627 0.460670
0.778653 0.619928 0.437507
0.792081 0.596460 0.412329
0.804105 0.570489 0.385229
0.814298 0.545373 0.348028
0.824308 0.518334 0.309483
0.834134 0.489509 0.270390
0.843839 0.458320 0.230503
0.853422 0.424933 0.189517
0.862699 0.388403 0.145632
0.870939 0.349920 0.097810
0.877501 0.311681 0.008545
0.883970 0.271397 0.000000
0.890532 0.227054 0.000000
0.897459 0.175448 0.000000
0.904845 0.099001 0.000000
0.912779 0.000000 0.000000
0.302129 0.516014 0.237278
0.302434 0.514946 0.236484
0.305852 0.509087 0.232151
0.312108 0.499214 0.226322
0.319829 0.483192 0.216495
0.347692 0.488838 0.229679
0.392645 0.513725 0.263554
0.444068 0.541009 0.305150
0.498909 0.569390 0.352697
0.552483 0.597498 0.403998
0.601495 0.626520 0.454749
0.645350 0.656001 0.503807
0.687678 0.689998 0.551171
0.723934 0.705440 0.558984
0.753475 0.704128 0.540063
0.766384 0.687526 0.523369
0.778012 0.669032 0.504875
0.789578 0.649256 0.483680
0.801205 0.628473 0.461036
0.812528 0.605707 0.437812
0.821897 0.583032 0.407385
0.831327 0.560174 0.372900
0.840879 0.535760 0.337224
0.850523 0.509667 0.300298
0.860105 0.481697 0.262364
0.869718 0.450752 0.222599
0.879362 0.417762 0.181094
0.887968 0.383062 0.140322
0.895445 0.347997 0.100343
0.903227 0.312261 0.014160
0.911162 0.273930 0.000000
0.919554 0.232181 0.000000
0.344640 0.540917 0.272465
0.344884 0.539635 0.271183
0.346654 0.535576 0.267979
0.349889 0.527550 0.261723
0.354376 0.513634 0.251316
0.367102 0.504875 0.248905
0.408057 0.527062 0.281285
0.454627 0.551232 0.320104
0.504204 0.576532 0.364477
0.552758 0.602106 0.411688
0.598657 0.629297 0.459449
0.639551 0.656733 0.505425
0.675868 0.684199 0.547814
0.711818 0.715663 0.591363
0.741878 0.726833 0.594690
0.768063 0.725246 0.575921
0.779355 0.709468 0.558831
0.789395 0.691981 0.540917
0.799374 0.673854 0.521965
0.809506 0.654994 0.501610
0.819944 0.635401 0.480262
0.829068 0.613947 0.457588
0.837827 0.594202 0.427253
0.846952 0.573175 0.395056
0.856229 0.550408 0.361181
0.865690 0.526513 0.326207
0.875364 0.500511 0.289738
0.885344 0.472633 0.251957
0.895598 0.442756 0.212711
0.904692 0.412940 0.178073
0.913603 0.382422 0.144198
0.922820 0.350591 0.107546
0.380255 0.560906 0.302953
0.380713 0.560327 0.302403
0.381781 0.556970 0.299382
0.383948 0.550408 0.293400
0.386755 0.539788 0.284398
0.389227 0.523827 0.271183
0.423865 0.539818 0.298161
0.466987 0.561975 0.335790
0.512322 0.584894 0.377752
0.557122 0.608789 0.422065
0.598993 0.633783 0.466255
0.636683 0.659022 0.508721
0.670039 0.684047 0.547814
0.699947 0.708400 0.585687
0.730678 0.736782 0.624720
0.755550 0.744045 0.623560
0.778897 0.741817 0.605035
0.789242 0.727199 0.588342
0.798276 0.711025 0.571252
0.807431 0.694057 0.553094
0.816831 0.677089 0.534844
0.826535 0.659724 0.516320
0.835660 0.640375 0.498909
0.844022 0.622431 0.473213
0.852628 0.604089 0.445045
0.861631 0.584466 0.415045
0.870909 0.563745 0.383795
0.880674 0.541558 0.350652
0.890776 0.517876 0.316075
0.901274 0.492775 0.280461
0.912200 0.465370 0.242985
0.921447 0.439490 0.212772
0.411139 0.578668 0.330877
0.411048 0.577935 0.329931
0.412116 0.575189 0.327428
0.413428 0.570031 0.322454
0.414679 0.561303 0.313817
0.416236 0.548333 0.301976
0.434668 0.549340 0.309972
0.474434 0.569299 0.345159
0.515740 0.589929 0.384558
0.557305 0.612177 0.426032
0.596704 0.635645 0.468025
0.632105 0.659266 0.508110
0.664027 0.683070 0.545678
0.692958 0.706294 0.582361
0.718685 0.728328 0.616999
0.745846 0.754238 0.653101
0.766964 0.758633 0.648951
0.787594 0.755978 0.631189
0.797879 0.743038 0.614862
0.806027 0.727871 0.599054
0.814603 0.712428 0.582361
0.823606 0.696864 0.565301
0.832853 0.681056 0.547997
0.841794 0.663874 0.531456
0.849760 0.646448 0.512413
0.858000 0.630152 0.487648
0.866606 0.612848 0.461433
0.875700 0.594781 0.433570
0.885313 0.575463 0.404059
0.895415 0.555108 0.373327
0.906065 0.533379 0.340856
0.917235 0.509972 0.306859
0.440406 0.594842 0.358465
0.440589 0.593988 0.357397
0.456184 0.600122 0.369512
0.456336 0.595605 0.364263
0.456764 0.588434 0.356268
0.456184 0.577813 0.344060
0.458747 0.566705 0.333501
0.494789 0.584283 0.367559
0.532250 0.603296 0.404578
0.570367 0.624262 0.444129
0.605798 0.646143 0.483162
0.638209 0.668299 0.520958
0.667506 0.690578 0.556268
0.694270 0.712306 0.591241
0.718135 0.732784 0.624018
0.739773 0.751766 0.655055
0.762844 0.773983 0.686885
0.780056 0.775540 0.679469
0.797574 0.772122 0.661707
0.807309 0.760342 0.645136
0.814755 0.746059 0.629633
0.822660 0.731685 0.613825
0.830961 0.717128 0.597650
0.839597 0.702235 0.580926
0.848234 0.686213 0.564111
0.855985 0.668452 0.548211
0.863554 0.653254 0.525444
0.871580 0.637537 0.501884
0.880247 0.621180 0.477089
0.889586 0.603998 0.450904
0.899535 0.585992 0.423377
0.909972 0.566644 0.393591
0.469978 0.611475 0.386511
0.471138 0.611749 0.387182
0.472480 0.610376 0.385931
0.473671 0.607172 0.382483
0.474495 0.601129 0.375921
0.474128 0.592370 0.365789
0.472145 0.579614 0.350500
0.495399 0.586938 0.368933
0.530571 0.604700 0.403998
0.566247 0.624140 0.441047
0.600183 0.644587 0.478553
0.631159 0.665522 0.514672
0.659785 0.686763 0.549035
0.685847 0.707668 0.582757
0.709621 0.727779 0.615351
0.731228 0.746670 0.646296
0.750698 0.763882 0.675227
0.771786 0.784237 0.704463
0.787045 0.784726 0.696162
0.802884 0.781552 0.680049
0.812619 0.771511 0.664576
0.819821 0.758694 0.650629
0.827451 0.745449 0.636011
0.835447 0.731930 0.620935
0.843687 0.718135 0.605371
0.852171 0.703517 0.589502
0.859831 0.686732 0.575189
0.867552 0.671778 0.555627
0.875547 0.657435 0.534264
0.884001 0.642847 0.512657
0.892973 0.627283 0.489296
0.902617 0.610773 0.464363
0.489265 0.623743 0.406226
0.490608 0.623865 0.406836
0.491737 0.622797 0.405829
0.492714 0.619989 0.402747
0.493233 0.614832 0.396918
0.492653 0.606989 0.387610
0.490578 0.595880 0.374212
0.497566 0.590661 0.371618
0.530480 0.607172 0.404547
0.563928 0.625147 0.439643
0.596216 0.644495 0.475441
0.626184 0.664179 0.510430
0.653803 0.684535 0.543725
0.679377 0.704707 0.576745
0.702785 0.724331 0.608820
0.724025 0.742763 0.639124
0.743496 0.759945 0.668086
0.761257 0.775570 0.694911
0.780545 0.794064 0.721645
0.793698 0.793515 0.712398
0.807736 0.790463 0.697505
0.817288 0.781888 0.682887
0.824155 0.770169 0.670222
0.831479 0.758022 0.656611
0.839139 0.745449 0.642359
0.847166 0.732540 0.627497
0.855436 0.719081 0.612757
0.862974 0.703517 0.599603
0.870787 0.688838 0.583978
0.878813 0.675349 0.563714
0.887205 0.661463 0.543084
0.895933 0.647120 0.521965
0.507927 0.635889 0.425483
0.508965 0.636286 0.426398
0.509728 0.635126 0.425147
0.510491 0.632624 0.422400
0.510826 0.628260 0.417395
0.510002 0.621149 0.408606
0.508171 0.611536 0.396643
0.505150 0.599023 0.381445
0.530419 0.609583 0.404761
0.562127 0.626551 0.438300
0.592767 0.644648 0.472450
0.621820 0.663508 0.506584
0.648676 0.682918 0.538933
0.673518 0.702296 0.571008
0.696468 0.721279 0.602411
0.717586 0.739467 0.632593
0.737087 0.756649 0.661646
0.755032 0.772457 0.689021
0.771786 0.787167 0.714351
0.789029 0.803464 0.738521
0.800473 0.802548 0.729580
0.812985 0.799954 0.716487
0.822171 0.792874 0.703029
0.828672 0.782559 0.691737
0.835599 0.771725 0.679591
0.843046 0.760220 0.666529
0.850980 0.748379 0.652827
0.859129 0.735775 0.639033
0.866545 0.721492 0.626795
0.874357 0.706935 0.614069
0.882353 0.694270 0.595361
0.890806 0.681178 0.575891
0.530846 0.651575 0.450446
0.531243 0.651575 0.450660
0.531456 0.650416 0.449256
0.531487 0.647883 0.446143
0.531060 0.643397 0.440528
0.530114 0.637201 0.432868
0.528283 0.628443 0.421698
0.525231 0.617273 0.407446
0.532738 0.613733 0.406958
0.563104 0.629938 0.439612
0.592340 0.647089 0.472755
0.620142 0.665034 0.505638
0.645869 0.683467 0.536950
0.670130 0.702205 0.568383
0.692592 0.720577 0.599359
0.713222 0.738247 0.628962
0.732265 0.754910 0.657527
0.749905 0.770382 0.684596
0.766262 0.784543 0.709560
0.781582 0.797818 0.732448
0.796445 0.811521 0.753323
0.806058 0.809934 0.743893
0.816861 0.807309 0.731502
0.825467 0.801175 0.718624
0.831418 0.791775 0.707759
0.837980 0.781857 0.696468
0.845121 0.771237 0.684138
0.852750 0.760220 0.671260
0.860594 0.748318 0.658381
0.868009 0.734890 0.646815
0.875761 0.721035 0.635218
0.883757 0.708522 0.618860
0.546258 0.663508 0.468544
0.546715 0.663630 0.468940
0.546715 0.662440 0.467384
0.546868 0.660243 0.464820
0.546563 0.656489 0.459998
0.545953 0.650965 0.453040
0.544427 0.643244 0.443030
0.542260 0.633539 0.430640
0.538262 0.621241 0.414618
0.561700 0.631800 0.437964
0.589776 0.648035 0.469917
0.616663 0.665064 0.501915
0.641871 0.682856 0.532799
0.665461 0.700832 0.563409
0.687678 0.718746 0.594018
0.708034 0.735988 0.623346
0.726986 0.752468 0.651789
0.744503 0.767788 0.678859
0.760891 0.781949 0.704067
0.775875 0.794705 0.727016
0.789914 0.806668 0.747829
0.802823 0.818296 0.766140
0.811002 0.816403 0.756771
0.820371 0.813993 0.745571
0.828000 0.807919 0.731563
0.833524 0.799374 0.721035
0.839658 0.790311 0.710445
0.846403 0.780667 0.699092
0.853788 0.770535 0.687129
0.861357 0.759274 0.675380
0.868681 0.746761 0.664668
0.876341 0.733822 0.653773
0.563684 0.677729 0.489937
0.564172 0.677913 0.490394
0.564355 0.676997 0.489265
0.564111 0.674647 0.486305
0.563806 0.671260 0.482094
0.562890 0.665980 0.475257
0.561395 0.659083 0.466255
0.559197 0.650172 0.454383
0.555993 0.639002 0.439673
0.560845 0.634119 0.436439
0.587518 0.649226 0.467140
0.613275 0.665217 0.497902
0.637598 0.682002 0.527947
0.660548 0.699184 0.557519
0.682033 0.716213 0.587152
0.701991 0.732845 0.615839
0.720699 0.748928 0.643793
0.738064 0.764004 0.670619
0.754452 0.778134 0.696101
0.769650 0.791043 0.719509
0.783505 0.802518 0.740566
0.796201 0.813199 0.759365
0.807401 0.823056 0.775326
0.814389 0.820951 0.765957
0.822690 0.818570 0.755184
0.830289 0.814115 0.743709
0.835386 0.806332 0.733608
0.841062 0.798093 0.723659
0.847501 0.789303 0.713008
0.854582 0.779965 0.701747
0.861662 0.769375 0.691249
0.868711 0.757931 0.681544
0.575677 0.689204 0.506157
0.576165 0.689296 0.506462
0.576349 0.688685 0.505730
0.576471 0.686763 0.503441
0.576287 0.683589 0.499428
0.575921 0.679164 0.493812
0.575372 0.673274 0.486397
0.574060 0.665492 0.476326
0.572015 0.656001 0.463844
0.568475 0.644099 0.447761
0.586481 0.651453 0.465400
0.611475 0.666804 0.495644
0.635187 0.682918 0.525170
0.657435 0.699397 0.554101
0.678462 0.715816 0.583154
0.698085 0.731868 0.611444
0.716335 0.747433 0.638849
0.733486 0.762173 0.665431
0.749660 0.776028 0.690761
0.764828 0.788815 0.714199
0.778805 0.800320 0.735561
0.791226 0.810330 0.754421
0.802518 0.819638 0.771115
0.812100 0.827726 0.784726
0.818051 0.825742 0.775998
0.825284 0.823606 0.766293
0.832425 0.820005 0.755764
0.837095 0.813107 0.746365
0.842374 0.805936 0.737484
0.848386 0.798123 0.727779
0.855070 0.789883 0.717433
0.861540 0.780240 0.708553
0.588891 0.702541 0.524773
0.589227 0.702480 0.524773
0.589288 0.701747 0.523919
0.589502 0.699977 0.521874
0.589380 0.696986 0.518151
0.589288 0.693080 0.513329
0.588922 0.687800 0.506645
0.588006 0.680842 0.497719
0.586542 0.672297 0.486580
0.584009 0.661799 0.472572
0.584314 0.653040 0.462196
0.608606 0.667659 0.491768
0.631769 0.683040 0.520775
0.653559 0.698909 0.549126
0.674250 0.714778 0.577691
0.693629 0.730465 0.605829
0.711666 0.745571 0.632898
0.728725 0.760128 0.659358
0.744717 0.773709 0.684596
0.759884 0.786465 0.708370
0.773953 0.797971 0.729976
0.786709 0.808133 0.749294
0.797818 0.816861 0.766171
0.807736 0.824857 0.780911
0.815885 0.831388 0.792355
0.820981 0.829618 0.784329
0.827359 0.827665 0.775387
0.834043 0.824765 0.765621
0.838315 0.818570 0.756802
0.843229 0.812314 0.748775
0.848783 0.805600 0.740169
0.854917 0.798337 0.731075
0.600366 0.714870 0.541772
0.600549 0.714870 0.541863
0.600641 0.714168 0.540978
0.600824 0.712673 0.539086
0.601038 0.710414 0.536309
0.601343 0.707027 0.532158
0.601801 0.702602 0.526696
0.602106 0.696956 0.519951
0.602075 0.689876 0.511223
0.601221 0.681086 0.499825
0.599390 0.670466 0.485786
0.610590 0.672511 0.493751
0.633143 0.687617 0.522637
0.654658 0.703243 0.551110
0.674891 0.718654 0.579522
0.693721 0.733761 0.607385
0.711330 0.748409 0.634241
0.727993 0.762448 0.660517
0.743740 0.775601 0.685481
0.758663 0.787900 0.708919
0.772519 0.799039 0.730373
0.785183 0.808896 0.749599
0.796292 0.817380 0.766415
0.805814 0.824552 0.780911
0.814115 0.830900 0.793240
0.820554 0.835752 0.802304
0.824674 0.834226 0.795193
0.829984 0.832547 0.787167
0.835996 0.830289 0.778347
0.839750 0.825040 0.770260
0.844083 0.819821 0.763180
0.849058 0.814206 0.755520
0.616907 0.731502 0.567010
0.616907 0.731258 0.566644
0.616999 0.730617 0.565881
0.616938 0.729213 0.563867
0.617151 0.727077 0.561120
0.617273 0.723995 0.556939
0.617304 0.719875 0.551507
0.617456 0.714717 0.544762
0.617426 0.708278 0.536492
0.616968 0.700221 0.526177
0.615930 0.690608 0.513970
0.613550 0.679133 0.498543
0.632166 0.690089 0.520928
0.652430 0.704555 0.547967
