20 Preset/Bright-Style/【3】LUT video cho PR-AE-FCPX/Tone  (2).cube
# Created by Adobe Lightroom plugin Export LUT (1.24.0)
# www.johnrellis.com/lightroom/exportlut.htm
# Preset: 明亮奶油-素材江湖05
# Color profile: E:\lut插件\exportlut.1.24\exportlut.lrplugin\color profiles\Rec709gamma2.4.icc
LUT_3D_SIZE 5
DOMAIN_MIN 0.000000 0.000000 0.000000
DOMAIN_MAX 0.903226 0.903226 0.903226
0.096498 0.088319 0.106050
0.092470 0.087343 0.105867
0.335485 0.000000 0.101625
0.571313 0.000000 0.089876
0.729061 0.000000 0.060853
0.000000 0.180514 0.091676
0.344396 0.376379 0.000000
0.652216 0.000000 0.000000
0.727901 0.000000 0.009003
0.803677 0.000000 0.004059
0.344640 0.540917 0.272465
0.454627 0.551232 0.320104
0.741878 0.726833 0.594690
0.829068 0.613947 0.457588
0.895598 0.442756 0.212711
0.530846 0.651575 0.450446
0.525231 0.617273 0.407446
0.692592 0.720577 0.599359
0.806058 0.809934 0.743893
0.860594 0.748318 0.658381
0.629450 0.744961 0.587671
0.630823 0.731014 0.568505
0.665827 0.716793 0.566308
0.777005 0.805631 0.739620
0.828885 0.839170 0.807401
0.102449 0.083894 0.105562
0.109712 0.081910 0.109560
0.422217 0.000000 0.096773
0.642603 0.000000 0.066773
0.742458 0.000000 0.047669
0.000000 0.274052 0.196292
0.346349 0.311772 0.175235
0.644221 0.137911 0.029511
0.751186 0.000000 0.000000
0.804105 0.000000 0.000000
0.387396 0.562463 0.346654
0.464698 0.545129 0.355688
0.729000 0.705776 0.582269
0.815549 0.604486 0.459419
0.892088 0.455665 0.229557
0.549035 0.662898 0.484504
0.547051 0.631495 0.447608
0.692439 0.718135 0.605615
0.805264 0.807340 0.744198
0.858610 0.745937 0.660578
0.634363 0.752712 0.605921
0.635889 0.739071 0.587121
0.665461 0.716091 0.569757
0.777829 0.805875 0.742947
0.829313 0.839445 0.809567
0.022827 0.096498 0.161257
0.129915 0.104433 0.301274
0.713497 0.175113 0.415167
0.509300 0.000000 0.096712
0.759304 0.000000 0.036622
0.194827 0.268894 0.284245
0.361913 0.354162 0.409247
0.669612 0.256962 0.359777
0.666468 0.000000 0.090394
0.809506 0.000000 0.000000
0.488991 0.669490 0.618647
0.546563 0.630182 0.550591
0.712398 0.669520 0.601465
0.786099 0.580499 0.487251
0.878019 0.433417 0.253452
0.595392 0.716732 0.598993
0.602655 0.690211 0.571496
0.684199 0.702968 0.615900
0.802640 0.798093 0.746029
0.851713 0.730220 0.663569
0.649683 0.785122 0.675593
0.652277 0.774716 0.661158
0.655329 0.717006 0.584833
0.769619 0.796597 0.736477
0.829099 0.838224 0.810605
0.000000 0.252659 0.433997
0.253880 0.301915 0.505699
0.692988 0.462776 0.660304
0.833341 0.537560 0.644892
0.836942 0.000000 0.180423
0.320897 0.400092 0.471839
0.404852 0.437873 0.530449
0.694087 0.547082 0.663783
0.815091 0.536584 0.620722
0.795468 0.000000 0.139315
0.540154 0.602258 0.621942
0.570825 0.602747 0.613031
0.691829 0.650507 0.668116
0.724697 0.432288 0.442329
0.806210 0.000000 0.206088
0.656825 0.788846 0.778714
0.666072 0.777920 0.761471
0.683955 0.715389 0.672267
0.788998 0.770291 0.742336
0.840635 0.675349 0.620966
0.715023 0.823606 0.788571
0.715938 0.820066 0.782620
0.706813 0.800107 0.742672
0.739956 0.765438 0.706996
0.829007 0.836362 0.814694
0.351843 0.447608 0.592859
0.407446 0.465064 0.622705
0.636133 0.555901 0.722316
0.819486 0.618311 0.783993
0.878996 0.674800 0.761959
0.419196 0.493629 0.588190
0.461738 0.510582 0.618189
0.642359 0.585779 0.718105
0.812436 0.642390 0.781888
0.873655 0.677211 0.758114
0.445289 0.522820 0.548119
0.490761 0.541558 0.563500
0.643671 0.636835 0.693782
0.794705 0.704585 0.781430
0.856382 0.683894 0.744503
0.631312 0.725551 0.771237
0.640833 0.724117 0.767086
0.677241 0.716945 0.747219
0.771542 0.757900 0.781582
0.813809 0.641230 0.666926
0.771603 0.832914 0.837888
0.775051 0.833371 0.837736
0.779965 0.834592 0.834836
0.777707 0.820310 0.811917
0.822629 0.824582 0.815488
