20 Preset/Bright-Style/【3】LUT video cho PR-AE-FCPX/Tone  (2).cube
# Created by Adobe Lightroom plugin Export LUT (1.24.0)
# www.johnrellis.com/lightroom/exportlut.htm
# Preset: 明亮奶油-素材江湖05
# Color profile: E:\lut插件\exportlut.1.24\exportlut.lrplugin\color profiles\Rec709gamma2.4.icc
LUT_3D_SIZE 8
DOMAIN_MIN 0.000000 0.000000 0.000000
DOMAIN_MAX 0.903226 0.903226 0.903226
0.096498 0.088319 0.106050
0.103182 0.085115 0.105806
0.101778 0.086122 0.105440
0.252811 0.000000 0.103578
0.410254 0.000000 0.099092
0.544244 0.000000 0.091829
0.641810 0.000000 0.081514
0.729061 0.000000 0.060853
0.103090 0.083742 0.105562
0.094606 0.089815 0.105226
0.184573 0.084504 0.103029
0.357671 0.000000 0.098878
0.490761 0.000000 0.092958
0.586084 0.000000 0.085542
0.662013 0.000000 0.072969
0.738186 0.000000 0.053162
0.000000 0.247044 0.065522
0.080323 0.246708 0.080232
0.454719 0.470497 0.124178
0.659113 0.328679 0.000000
0.724788 0.136965 0.000000
0.755062 0.000000 0.000000
0.786404 0.000000 0.000000
0.821836 0.000000 0.000000
0.252110 0.486824 0.199100
0.284367 0.447333 0.180636
0.495399 0.562341 0.340551
0.701900 0.680507 0.518212
0.778653 0.619928 0.437507
0.824308 0.518334 0.309483
0.862699 0.388403 0.145632
0.890532 0.227054 0.000000
0.411139 0.578668 0.330877
0.414679 0.561303 0.313817
0.515740 0.589929 0.384558
0.664027 0.683070 0.545678
0.766964 0.758633 0.648951
0.814603 0.712428 0.582361
0.849760 0.646448 0.512413
0.885313 0.575463 0.404059
0.507927 0.635889 0.425483
0.510826 0.628260 0.417395
0.530419 0.609583 0.404761
0.648676 0.682918 0.538933
0.737087 0.756649 0.661646
0.800473 0.802548 0.729580
0.835599 0.771725 0.679591
0.866545 0.721492 0.626795
0.575677 0.689204 0.506157
0.576287 0.683589 0.499428
0.572015 0.656001 0.463844
0.635187 0.682918 0.525170
0.716335 0.747433 0.638849
0.778805 0.800320 0.735561
0.818051 0.825742 0.775998
0.842374 0.805936 0.737484
0.629450 0.744961 0.587671
0.629938 0.741451 0.582849
0.631098 0.725338 0.560815
0.633021 0.694331 0.521599
0.702083 0.745357 0.620874
0.763729 0.795529 0.719234
0.808377 0.828458 0.787411
0.828885 0.839170 0.807401
0.098695 0.086091 0.105837
0.103487 0.084352 0.105531
0.103212 0.087221 0.105348
0.311498 0.000000 0.101137
0.467720 0.000000 0.094759
0.567590 0.000000 0.088441
0.643427 0.000000 0.078859
0.718776 0.000000 0.061311
0.103792 0.084962 0.105806
0.094301 0.089021 0.105653
0.191745 0.087068 0.102510
0.410468 0.000000 0.093050
0.534874 0.000000 0.085481
0.611261 0.000000 0.077394
0.669581 0.000000 0.066224
0.732723 0.000000 0.051850
0.000000 0.257939 0.093965
0.118166 0.252628 0.104677
0.449958 0.449928 0.166506
0.638270 0.324895 0.086885
0.716640 0.176394 0.000000
0.751583 0.000000 0.000000
0.776425 0.000000 0.000000
0.810269 0.000000 0.000000
0.247654 0.477058 0.209049
0.283726 0.441993 0.194980
0.479988 0.547570 0.334813
0.683070 0.658045 0.491920
0.760159 0.595697 0.410620
0.812345 0.503441 0.286595
0.851225 0.376135 0.130068
0.880339 0.215366 0.000000
0.417670 0.580468 0.344030
0.420722 0.563226 0.326726
0.511650 0.585107 0.385138
0.656916 0.675013 0.538994
0.760678 0.749355 0.636866
0.808499 0.704097 0.573236
0.845884 0.641779 0.504387
0.881682 0.570916 0.396460
0.508171 0.635706 0.430396
0.508324 0.626276 0.419318
0.523980 0.603998 0.400977
0.643702 0.677516 0.534325
0.733852 0.752499 0.657313
0.798856 0.799924 0.726314
0.833951 0.768734 0.676753
0.865476 0.719265 0.622705
0.573877 0.688350 0.507317
0.573175 0.681941 0.499153
0.569024 0.654322 0.463996
0.629908 0.677760 0.519707
0.713649 0.744137 0.635218
0.776883 0.798123 0.732723
0.816922 0.824125 0.773098
0.841642 0.803586 0.733883
0.626703 0.744137 0.587091
0.627924 0.741024 0.583062
0.629175 0.725002 0.561364
0.627405 0.689509 0.515038
0.703273 0.746487 0.623896
0.763912 0.795529 0.720089
0.808103 0.828092 0.787137
0.828824 0.838987 0.807156
0.103944 0.082856 0.105623
0.101839 0.083284 0.106294
0.194278 0.035309 0.123171
0.279118 0.000000 0.103517
0.510857 0.000000 0.091554
0.644862 0.000000 0.061891
0.705501 0.000000 0.048768
0.756313 0.000000 0.040253
0.092897 0.090364 0.107576
0.082216 0.095033 0.115114
0.235966 0.022827 0.119265
0.383032 0.000000 0.099580
0.566247 0.000000 0.079194
0.679683 0.000000 0.034272
0.723964 0.000000 0.031922
0.767575 0.000000 0.030060
0.000000 0.378149 0.273442
0.109102 0.337285 0.207797
0.455909 0.412085 0.267247
0.616999 0.325963 0.198734
0.715084 0.215518 0.082551
0.773068 0.000000 0.000000
0.801816 0.000000 0.000000
0.827085 0.000000 0.000000
0.320287 0.539055 0.333959
0.362158 0.511528 0.320287
0.505821 0.551781 0.397345
0.684962 0.650813 0.516899
0.750912 0.590326 0.452644
0.804776 0.515068 0.336767
0.853971 0.422370 0.186404
0.886046 0.266911 0.000000
0.463539 0.605280 0.415991
0.468635 0.591455 0.402716
0.525292 0.585809 0.418067
0.662074 0.675868 0.560632
0.761807 0.746700 0.647730
0.803830 0.700313 0.587945
0.841123 0.642542 0.517723
0.881743 0.578790 0.408850
0.533562 0.650874 0.473671
0.534905 0.642634 0.464790
0.528893 0.601984 0.418280
0.644434 0.675013 0.544244
0.733455 0.750027 0.663355
0.797971 0.796567 0.727169
0.831144 0.765164 0.680690
0.863828 0.718196 0.627070
0.587304 0.701534 0.537285
0.587457 0.695460 0.530114
0.585473 0.668757 0.498177
0.627558 0.673976 0.523064
0.712734 0.741695 0.638361
0.777035 0.797208 0.735958
0.817258 0.823667 0.775448
0.841001 0.803037 0.738277
0.632959 0.753567 0.608515
0.633234 0.749935 0.603449
0.634882 0.734524 0.582574
0.634607 0.700282 0.537560
0.699458 0.742123 0.621088
0.762966 0.794034 0.720790
0.808377 0.827970 0.788846
0.829007 0.838956 0.808591
0.094392 0.087526 0.117494
0.074647 0.089143 0.134798
0.247074 0.000000 0.267399
0.609461 0.000000 0.303655
0.550500 0.000000 0.106081
0.553613 0.000000 0.092103
0.692958 0.000000 0.056397
0.767483 0.000000 0.028870
0.016022 0.117464 0.158694
0.007843 0.122133 0.191012
0.333959 0.128298 0.317449
0.606165 0.000000 0.298039
0.516258 0.000000 0.100618
0.600122 0.000000 0.087221
0.716457 0.000000 0.040070
0.783169 0.000000 0.012787
0.172305 0.327398 0.351507
0.254337 0.340642 0.348882
0.446754 0.396612 0.395453
0.547173 0.219974 0.241276
0.656001 0.093660 0.161318
0.734615 0.000000 0.094514
0.796689 0.000000 0.000000
0.842863 0.000000 0.000000
0.382940 0.618494 0.547997
0.427375 0.603265 0.521019
0.509300 0.536919 0.448646
0.668330 0.620050 0.534234
0.727077 0.564202 0.473213
0.782498 0.499519 0.373297
0.836088 0.410864 0.243900
0.886534 0.295232 0.000000
0.515831 0.660365 0.527886
0.526848 0.647761 0.517601
0.544182 0.591547 0.469490
0.666560 0.673732 0.589014
0.760861 0.738033 0.658259
0.794827 0.690181 0.605982
0.831724 0.636561 0.532036
0.877440 0.575311 0.420264
0.573022 0.685481 0.549157
0.577844 0.679530 0.544335
0.580468 0.644434 0.508843
0.648066 0.673274 0.564416
0.736416 0.749813 0.680110
0.797787 0.792538 0.732448
0.826810 0.759121 0.688533
0.859800 0.711513 0.634211
0.607355 0.727230 0.591211
0.608820 0.722438 0.585748
0.611902 0.699489 0.559442
0.620142 0.665003 0.525444
0.710780 0.737484 0.644373
0.777340 0.795834 0.742214
0.817350 0.822232 0.778408
0.839567 0.800351 0.742763
0.646601 0.774044 0.652766
0.647120 0.771054 0.648463
0.649165 0.757595 0.629786
0.650752 0.726223 0.588006
0.689845 0.732082 0.612757
0.759487 0.789731 0.719478
0.808225 0.827207 0.790860
0.829404 0.838956 0.811002
0.000000 0.119448 0.239109
0.000000 0.124239 0.276463
0.248264 0.159915 0.412604
0.611200 0.205875 0.505943
0.765469 0.341344 0.503685
0.753079 0.000000 0.200168
0.546044 0.000000 0.095155
0.708675 0.000000 0.070710
0.000000 0.183993 0.293767
0.000000 0.191501 0.327642
0.330022 0.253605 0.444251
0.615869 0.311467 0.512352
0.756802 0.357336 0.495521
0.733669 0.000000 0.184939
0.585962 0.000000 0.092592
0.727535 0.000000 0.061402
0.283818 0.348730 0.359747
0.324224 0.376806 0.391577
0.457893 0.445716 0.490394
0.631647 0.492531 0.543420
0.717098 0.356420 0.432807
0.626093 0.000000 0.123781
0.707698 0.000000 0.087190
0.785855 0.000000 0.021118
0.469612 0.572015 0.581781
0.490242 0.573419 0.579431
0.558526 0.578698 0.570245
0.628199 0.561395 0.535882
0.688563 0.502861 0.462043
0.746944 0.430335 0.370001
0.800931 0.329168 0.257511
0.853452 0.139773 0.108095
0.556664 0.710811 0.674128
0.568719 0.703975 0.661921
0.601190 0.671595 0.607843
0.657465 0.656977 0.603662
0.743740 0.707912 0.653956
0.775174 0.660029 0.602838
0.813931 0.604334 0.517601
0.865568 0.525658 0.389197
0.611994 0.728328 0.648188
0.609155 0.723140 0.636713
0.611109 0.694545 0.597864
0.628382 0.649439 0.559869
0.726314 0.734646 0.678920
0.793210 0.780789 0.729244
0.819150 0.742947 0.687526
0.853849 0.693355 0.621027
0.633509 0.762448 0.667201
0.630335 0.759030 0.659419
0.632258 0.741695 0.636103
0.637537 0.698726 0.588037
0.694789 0.718685 0.632746
0.772091 0.788296 0.741512
0.815976 0.818051 0.778286
0.837308 0.792020 0.741726
0.666499 0.799313 0.712886
0.663844 0.797177 0.707210
0.659541 0.786862 0.687312
0.665248 0.762264 0.654627
0.662654 0.708339 0.585107
0.747646 0.777218 0.707088
0.805386 0.823850 0.789517
0.829191 0.837949 0.811795
0.000000 0.227848 0.408453
0.000000 0.236027 0.432593
0.307439 0.299535 0.512993
0.617426 0.413764 0.627100
0.744472 0.471687 0.634791
0.824094 0.516503 0.626398
0.855253 0.000000 0.378851
0.777340 0.000000 0.102998
0.140139 0.282994 0.424018
0.176699 0.291417 0.444953
0.354314 0.349187 0.519249
0.618769 0.446571 0.623407
0.737972 0.492897 0.632105
0.816709 0.513085 0.615900
0.843748 0.000000 0.362737
0.760311 0.000000 0.097078
0.351629 0.420203 0.463050
0.382177 0.438087 0.483162
0.473976 0.482887 0.547875
0.642573 0.548302 0.636561
0.735012 0.572595 0.648127
0.796017 0.512383 0.586267
0.804837 0.000000 0.307012
0.693751 0.000000 0.088258
0.492653 0.549218 0.561547
0.505211 0.550195 0.558556
0.552270 0.557946 0.550042
0.660975 0.624903 0.649836
0.737240 0.646906 0.672206
0.748104 0.467292 0.494240
0.739223 0.000000 0.225437
0.793881 0.000000 0.127565
0.602625 0.680781 0.701442
0.609339 0.680964 0.700008
0.633997 0.682521 0.695308
0.664607 0.687770 0.683436
0.715145 0.662135 0.646052
0.747799 0.611780 0.579461
0.785519 0.542138 0.489998
0.839017 0.425849 0.349767
0.638300 0.773648 0.758602
0.643336 0.770962 0.753902
0.657130 0.755764 0.729061
0.666041 0.717922 0.667994
0.717342 0.719570 0.686152
0.782376 0.760525 0.728450
0.807401 0.713252 0.677150
0.846067 0.651881 0.585321
0.679042 0.794491 0.756374
0.680690 0.792782 0.753719
0.684138 0.783536 0.739284
0.675502 0.759976 0.695186
0.674372 0.697414 0.626581
0.763119 0.775967 0.739773
0.814450 0.812680 0.780331
0.834653 0.779507 0.742153
0.707546 0.819333 0.776883
0.707271 0.818143 0.774777
0.707515 0.813321 0.766415
0.700160 0.802060 0.741878
0.689937 0.769162 0.688228
0.722560 0.751369 0.678859
0.800320 0.817899 0.787076
0.829038 0.836759 0.814023
0.218601 0.350988 0.519249
0.249729 0.360632 0.534325
0.378302 0.404578 0.581384
0.577630 0.484230 0.658778
0.743038 0.550195 0.729030
0.811765 0.581628 0.719936
0.859495 0.606928 0.704768
0.897490 0.357122 0.529046
0.265995 0.376165 0.517571
0.292241 0.386358 0.532738
0.398138 0.424964 0.578576
0.578851 0.496925 0.653315
0.737697 0.557061 0.722805
0.805264 0.584253 0.713954
0.854093 0.598444 0.694759
0.891264 0.338811 0.513848
0.393133 0.464332 0.530694
0.418189 0.477546 0.544579
0.477607 0.503197 0.587518
0.607507 0.559716 0.659205
0.737453 0.607996 0.726040
0.798550 0.626978 0.721218
0.844053 0.604456 0.685451
0.877317 0.353002 0.497200
0.462409 0.514580 0.525933
0.475593 0.520226 0.530327
0.544396 0.562860 0.580835
0.631708 0.615656 0.660853
0.738918 0.665522 0.733547
0.791348 0.680659 0.735012
0.824491 0.596887 0.654536
0.845426 0.325475 0.436347
0.576226 0.640375 0.670497
0.580407 0.639185 0.667445
0.600732 0.637140 0.657588
0.633845 0.633692 0.637140
0.724178 0.695613 0.723964
0.773312 0.697658 0.724453
0.779355 0.543572 0.564996
0.782650 0.170504 0.286503
0.659724 0.742885 0.771115
0.663081 0.743069 0.770596
0.675715 0.743282 0.767697
0.697261 0.743465 0.762173
0.721462 0.742794 0.753109
0.752285 0.712551 0.709529
0.779110 0.659846 0.642695
0.814817 0.582666 0.545892
0.709255 0.816983 0.817044
0.709773 0.817044 0.816190
0.709712 0.816373 0.811734
0.717159 0.804013 0.793637
0.724605 0.774563 0.752621
0.747005 0.753445 0.733089
0.805112 0.795224 0.776486
0.826963 0.746395 0.723690
0.736080 0.834287 0.817868
0.736629 0.833799 0.817044
0.739681 0.831571 0.813535
0.742031 0.825742 0.804288
0.742397 0.812375 0.783749
0.727535 0.773770 0.727321
0.787747 0.803799 0.778042
0.828550 0.834684 0.816739
0.351843 0.447608 0.592859
0.368078 0.453437 0.601892
0.433478 0.474983 0.632776
0.566003 0.527092 0.688441
0.704128 0.584955 0.756008
0.802914 0.617609 0.785183
0.852384 0.644007 0.772122
0.878996 0.674800 0.761959
0.368536 0.458625 0.589105
0.384070 0.464698 0.598199
0.443793 0.485298 0.630274
0.568688 0.534844 0.685451
0.702541 0.590967 0.753231
0.800351 0.622583 0.783261
0.849454 0.646662 0.770443
0.877440 0.672511 0.759030
0.429175 0.501427 0.584314
0.446326 0.509911 0.593713
0.488746 0.526787 0.625666
0.587640 0.570336 0.684169
0.703883 0.622309 0.750973
0.795163 0.650965 0.782650
0.841855 0.670069 0.772671
0.871794 0.676753 0.755947
0.443458 0.515709 0.555016
0.461463 0.525658 0.565423
0.525353 0.561151 0.606043
0.600397 0.602869 0.671778
0.700984 0.656764 0.743648
0.789059 0.691737 0.784421
0.831479 0.705715 0.778897
0.862364 0.683345 0.750423
0.502892 0.584314 0.618738
0.508385 0.583764 0.616083
0.524712 0.577874 0.600793
0.587243 0.603449 0.621759
0.683925 0.672297 0.719356
0.779965 0.726497 0.785092
0.819944 0.737881 0.784909
0.848783 0.679683 0.733394
0.603754 0.697841 0.745266
0.606104 0.696956 0.743496
0.617426 0.694057 0.736690
0.639338 0.688472 0.722377
0.667872 0.677699 0.693996
0.756771 0.743923 0.771817
0.808164 0.765713 0.790463
0.824796 0.654383 0.688350
0.695277 0.784329 0.812772
0.696956 0.784268 0.812375
0.703975 0.784207 0.810788
0.717556 0.783841 0.807462
0.735500 0.781735 0.801083
0.755367 0.774594 0.788205
0.770199 0.738277 0.746975
0.795804 0.676112 0.674525
0.771603 0.832914 0.837888
0.772366 0.833005 0.837827
0.776547 0.833555 0.837705
0.779934 0.834379 0.836362
0.779141 0.834409 0.832456
0.777890 0.825742 0.818845
0.769650 0.783566 0.772152
0.822629 0.824582 0.815488
