20 Preset/Bright-Style/【3】LUT video cho PR-AE-FCPX/Tone  (4).cube
# Created by Adobe Lightroom plugin Export LUT (1.24.0)
# www.johnrellis.com/lightroom/exportlut.htm
# Preset: 明亮奶油-素材江湖01
# Color profile: E:\lut插件\exportlut.1.24\exportlut.lrplugin\color profiles\Rec709gamma2.4.icc
LUT_3D_SIZE 8
DOMAIN_MIN 0.000000 0.000000 0.000000
DOMAIN_MAX 0.903226 0.903226 0.903226
0.000000 0.000000 0.000000
0.123262 0.001953 0.000000
0.388983 0.019898 0.000000
0.640986 0.106020 0.000000
0.842405 0.162051 0.000000
0.978546 0.196139 0.000000
1.000000 0.218387 0.000000
1.000000 0.231815 0.000000
0.071382 0.081392 0.042573
0.121218 0.110750 0.080629
0.368658 0.172091 0.000000
0.622827 0.206821 0.000000
0.828031 0.230991 0.000000
0.963195 0.245304 0.000000
1.000000 0.254490 0.000000
1.000000 0.260472 0.000000
0.176852 0.184787 0.119905
0.214145 0.211429 0.138491
0.436774 0.392859 0.282353
0.607324 0.380285 0.086824
0.805509 0.389014 0.000000
0.945129 0.381445 0.000000
1.000000 0.370947 0.000000
1.000000 0.359380 0.000000
0.256413 0.263676 0.169070
0.283268 0.284215 0.184360
0.457832 0.442176 0.318944
0.726558 0.675959 0.563836
0.827054 0.610468 0.377508
0.904875 0.542199 0.239994
1.000000 0.518639 0.203769
1.000000 0.494423 0.169986
0.298131 0.307530 0.194491
0.305394 0.308293 0.195041
0.450111 0.444434 0.307805
0.681392 0.657740 0.533593
0.852659 0.812589 0.728939
0.910613 0.752102 0.586175
0.959289 0.664363 0.422827
1.000000 0.632380 0.374334
0.332311 0.345098 0.213169
0.327794 0.334539 0.204746
0.433936 0.433448 0.285374
0.640070 0.626825 0.480934
0.813870 0.791775 0.699702
0.924346 0.891234 0.823728
0.961883 0.845670 0.720302
1.000000 0.783597 0.607568
0.387152 0.407111 0.246830
0.382605 0.397711 0.238865
0.418158 0.421393 0.258213
0.601862 0.596216 0.429053
0.775143 0.759915 0.644526
0.896330 0.876371 0.802731
0.964538 0.938445 0.885527
0.991821 0.903838 0.804746
0.494850 0.528618 0.331060
0.491859 0.521447 0.323735
0.478370 0.491096 0.293370
0.598138 0.598688 0.404089
0.752010 0.743069 0.601038
0.872831 0.857694 0.764279
0.951690 0.934966 0.878141
0.985901 0.967041 0.929259
0.011261 0.030335 0.059968
0.118624 0.009522 0.092683
0.385321 0.000000 0.037079
0.628840 0.047120 0.000000
0.830686 0.142123 0.000000
0.963439 0.183536 0.000000
1.000000 0.208743 0.000000
1.000000 0.223880 0.000000
0.080598 0.102724 0.099916
0.140749 0.127504 0.112184
0.381659 0.161532 0.066011
0.624964 0.193790 0.000000
0.824369 0.220798 0.000000
0.956786 0.237003 0.000000
1.000000 0.247471 0.000000
1.000000 0.254063 0.000000
0.200168 0.214237 0.156863
0.230198 0.228855 0.168399
0.434180 0.391608 0.298863
0.593530 0.373205 0.151156
0.797147 0.384253 0.000000
0.936034 0.377050 0.000000
1.000000 0.366155 0.000000
1.000000 0.355261 0.000000
0.270817 0.282383 0.191928
0.286168 0.288029 0.196231
0.453925 0.439826 0.328954
0.710384 0.659907 0.552178
0.807431 0.594873 0.375097
0.892454 0.534264 0.253819
0.999542 0.512474 0.219425
1.000000 0.490394 0.188632
0.310155 0.322576 0.211093
0.305028 0.308568 0.199985
0.447364 0.442329 0.312322
0.675624 0.653010 0.534600
0.845701 0.805722 0.723781
0.903532 0.745724 0.583581
0.952392 0.658869 0.423072
1.000000 0.630091 0.380255
0.340063 0.354955 0.224338
0.334478 0.343297 0.214847
0.427741 0.427680 0.284520
0.634150 0.621637 0.479377
0.810605 0.789059 0.699275
0.922393 0.889525 0.823056
0.959503 0.843687 0.720272
1.000000 0.781125 0.607202
0.390417 0.412543 0.253910
0.385351 0.402686 0.245609
0.407691 0.411414 0.252476
0.593561 0.588281 0.423499
0.771359 0.756497 0.642206
0.894499 0.874815 0.802182
0.963348 0.937255 0.884520
0.990387 0.902129 0.803311
0.494148 0.530236 0.334936
0.491859 0.523766 0.328008
0.478248 0.493019 0.297215
0.587549 0.588556 0.394903
0.751156 0.742611 0.601373
0.872282 0.857389 0.764858
0.951415 0.934905 0.878752
0.985870 0.967163 0.929839
0.000000 0.111238 0.172244
0.081025 0.088899 0.203799
0.368078 0.000000 0.267491
0.647242 0.000000 0.235142
0.841337 0.000000 0.165774
0.965759 0.104768 0.138216
1.000000 0.185672 0.095827
1.000000 0.208682 0.000000
0.107851 0.162173 0.188327
0.136934 0.160708 0.225101
0.395148 0.138766 0.268589
0.647486 0.000000 0.202976
0.834531 0.117617 0.175906
0.959747 0.202029 0.146670
1.000000 0.230320 0.099519
1.000000 0.241245 0.000000
0.256260 0.310124 0.292393
0.274846 0.312932 0.287236
0.427558 0.383154 0.332982
0.622583 0.379034 0.276158
0.813504 0.380102 0.241093
0.942748 0.372869 0.208652
1.000000 0.363714 0.176913
1.000000 0.351537 0.132479
0.336004 0.375891 0.301640
0.337865 0.359319 0.285771
0.461616 0.453407 0.375433
0.703120 0.655512 0.570764
0.788510 0.583703 0.414649
0.896117 0.542962 0.341253
1.000000 0.520775 0.311315
1.000000 0.496742 0.280919
0.363104 0.391058 0.287114
0.359106 0.377020 0.274449
0.443732 0.441779 0.332708
0.676936 0.658778 0.563653
0.843473 0.805570 0.734096
0.893950 0.742672 0.602441
0.944060 0.657282 0.453071
1.000000 0.636255 0.426001
0.379431 0.405188 0.278477
0.374609 0.393652 0.268193
0.413733 0.415625 0.286870
0.627283 0.617029 0.489174
0.809079 0.790066 0.711086
0.920317 0.888762 0.827817
0.954711 0.842100 0.728542
0.998779 0.779232 0.618067
0.418830 0.451087 0.295964
0.414130 0.441321 0.287053
0.391760 0.398322 0.249149
0.575250 0.571893 0.415778
0.765408 0.752071 0.644465
0.894224 0.876127 0.809262
0.963622 0.938811 0.890013
0.989380 0.903410 0.810575
0.510948 0.557549 0.369024
0.507561 0.550011 0.361028
0.494484 0.519097 0.328496
0.555261 0.558221 0.367895
0.737942 0.730617 0.589258
0.868528 0.854643 0.765011
0.951598 0.936126 0.883177
0.986145 0.968597 0.933989
0.000000 0.181796 0.293919
0.000000 0.167239 0.321508
0.345739 0.120882 0.430732
0.623590 0.011048 0.453559
0.842374 0.000000 0.412207
0.962402 0.000000 0.328618
1.000000 0.046937 0.303563
1.000000 0.199008 0.288396
0.104677 0.230625 0.313390
0.127749 0.227359 0.340764
0.371893 0.203281 0.442512
0.632044 0.193698 0.454231
0.840299 0.000000 0.405402
0.960418 0.000000 0.326696
1.000000 0.188388 0.311101
1.000000 0.241337 0.294133
0.255467 0.334203 0.355688
0.282872 0.344427 0.365698
0.416815 0.378424 0.451179
0.649714 0.353704 0.438117
0.827970 0.324498 0.387091
0.945464 0.351324 0.365637
1.000000 0.366155 0.348058
1.000000 0.357824 0.320348
0.445136 0.518120 0.495460
0.449409 0.513939 0.488258
0.460517 0.473152 0.440040
0.666407 0.616083 0.562280
0.771084 0.563653 0.471717
0.897276 0.548730 0.445380
0.998016 0.527489 0.417609
1.000000 0.500938 0.385321
0.469093 0.534325 0.460212
0.464790 0.519463 0.444617
0.445502 0.456336 0.379156
0.669032 0.658045 0.594537
0.832059 0.795682 0.738521
0.873228 0.727230 0.617853
0.944121 0.667811 0.523095
1.000000 0.644251 0.493507
0.461067 0.511528 0.403571
0.457588 0.501183 0.392828
0.434699 0.449500 0.340642
0.607416 0.601862 0.496437
0.807248 0.792599 0.730617
0.916838 0.887175 0.835019
0.946197 0.837003 0.738949
0.989014 0.769924 0.627314
0.477119 0.532769 0.393194
0.473152 0.523583 0.383520
0.453742 0.481605 0.340429
0.524193 0.525048 0.383246
0.749752 0.739406 0.641688
0.892790 0.877409 0.819791
0.963317 0.940459 0.897704
0.986877 0.903380 0.819486
0.549126 0.619135 0.448249
0.546380 0.612268 0.440040
0.534325 0.582147 0.405737
0.505211 0.516869 0.334691
0.702602 0.698268 0.551720
0.857420 0.845426 0.759670
0.950958 0.937224 0.889342
0.986633 0.971008 0.940978
0.000000 0.261295 0.414160
0.000000 0.256535 0.435035
0.252140 0.242252 0.515099
0.609186 0.208530 0.630945
0.808927 0.237461 0.603967
0.952422 0.189731 0.547753
1.000000 0.201816 0.489204
1.000000 0.221256 0.448005
0.109255 0.297887 0.426520
0.126040 0.295323 0.446174
0.281804 0.284977 0.522881
0.616327 0.271427 0.631281
0.807706 0.292607 0.602533
0.948150 0.246494 0.546349
1.000000 0.245945 0.489357
1.000000 0.264317 0.452552
0.253239 0.365942 0.422431
0.277470 0.380316 0.445502
0.356939 0.400183 0.529320
0.630091 0.419654 0.625360
0.800473 0.423072 0.595605
0.928466 0.372534 0.536400
1.000000 0.347234 0.483070
1.000000 0.375250 0.468147
0.415045 0.505028 0.518853
0.430854 0.510674 0.524132
0.491066 0.534478 0.546197
0.639979 0.575708 0.611231
0.792355 0.535027 0.567529
0.901488 0.534874 0.546654
0.993469 0.524865 0.524498
1.000000 0.503410 0.497200
0.600183 0.668330 0.648096
0.600183 0.664851 0.643122
0.596033 0.646998 0.617548
0.623316 0.621668 0.588556
0.793118 0.753506 0.712947
0.841917 0.687343 0.616388
0.945464 0.667811 0.589654
1.000000 0.639216 0.557916
0.587457 0.664759 0.601678
0.587488 0.658503 0.595758
0.562676 0.615229 0.544213
0.525841 0.528435 0.450568
0.782040 0.772549 0.727199
0.902953 0.873838 0.830381
0.928435 0.815274 0.733242
0.985077 0.758755 0.646876
0.578088 0.661738 0.563592
0.573236 0.654139 0.553765
0.553063 0.619226 0.510582
0.510979 0.535912 0.418463
0.693874 0.688624 0.594965
0.881132 0.869108 0.820615
0.960296 0.939086 0.902464
0.981628 0.896880 0.821622
0.610346 0.706752 0.582757
0.607019 0.701167 0.574548
0.593286 0.676265 0.538598
0.569085 0.620447 0.465492
0.595148 0.597894 0.437079
0.826261 0.817288 0.732601
0.946441 0.934722 0.891814
0.986603 0.972992 0.947875
0.000000 0.340826 0.524285
0.000000 0.339147 0.539025
0.193698 0.323888 0.597528
0.497841 0.342748 0.695674
0.775998 0.340826 0.750301
0.915984 0.381018 0.707637
1.000000 0.371923 0.656764
1.000000 0.382727 0.615229
0.133242 0.362066 0.525841
0.149020 0.361120 0.539452
0.227695 0.346532 0.596399
0.503319 0.368719 0.691585
0.773770 0.370459 0.745327
0.910674 0.406043 0.704402
1.000000 0.388861 0.654627
1.000000 0.397681 0.614862
0.260197 0.416541 0.519829
0.282750 0.426093 0.536767
0.344121 0.439612 0.597681
0.533562 0.463447 0.689937
0.776608 0.476844 0.739620
0.897581 0.500725 0.702693
0.999023 0.467750 0.656184
1.000000 0.462318 0.621790
0.373114 0.491127 0.534661
0.384161 0.493843 0.537011
0.440070 0.519402 0.567163
0.577905 0.581445 0.681544
0.776913 0.606317 0.731563
0.887144 0.597345 0.700984
0.975219 0.564843 0.659327
1.000000 0.548333 0.633204
0.557977 0.644434 0.651575
0.566705 0.647333 0.654200
0.600671 0.659083 0.664912
0.656977 0.680751 0.684932
0.759915 0.696925 0.710597
0.860838 0.676387 0.684810
0.949584 0.661952 0.667170
1.000000 0.641840 0.647883
0.711910 0.771054 0.756039
0.712062 0.769558 0.753964
0.707912 0.759030 0.740475
0.693477 0.732662 0.706172
0.727871 0.725704 0.699519
0.870939 0.839475 0.807889
0.904509 0.772000 0.715908
0.996185 0.752468 0.692927
0.695155 0.776669 0.728725
0.694362 0.774746 0.726009
0.687739 0.764096 0.711330
0.675288 0.727382 0.673854
0.606561 0.619165 0.539605
0.849821 0.842435 0.804715
0.953643 0.933745 0.904234
0.972290 0.880461 0.816159
0.705928 0.803616 0.731563
0.705745 0.801053 0.729183
0.705837 0.790677 0.719783
0.680385 0.755428 0.672969
0.628290 0.676844 0.561273
0.742580 0.739620 0.646296
0.935119 0.925994 0.888273
0.986511 0.975372 0.956176
0.136294 0.421820 0.628046
0.157015 0.422309 0.639246
0.223117 0.411841 0.676692
0.426947 0.423804 0.740749
0.688441 0.451606 0.819730
0.888396 0.455360 0.834897
0.984741 0.492226 0.787472
1.000000 0.500511 0.742855
0.179782 0.429023 0.619318
0.195041 0.430365 0.631067
0.247990 0.422797 0.669062
0.427741 0.432197 0.732662
0.684169 0.461128 0.812009
0.880583 0.461616 0.826413
0.976226 0.493355 0.779202
1.000000 0.494545 0.734829
0.270878 0.467903 0.610376
0.291112 0.474311 0.622187
0.338750 0.480720 0.661677
0.459419 0.489265 0.727260
0.693385 0.529870 0.806332
0.877012 0.533501 0.822049
0.966583 0.559655 0.781613
1.000000 0.547356 0.743221
0.328252 0.492287 0.568841
0.342809 0.500359 0.580529
0.408209 0.534874 0.630152
0.512535 0.571954 0.711666
0.704921 0.623957 0.796933
0.871580 0.631586 0.818540
0.950408 0.645380 0.786069
1.000000 0.615320 0.750393
0.463020 0.598993 0.637354
0.466987 0.598199 0.636591
0.488685 0.599420 0.637598
0.530297 0.603998 0.642664
0.689509 0.686885 0.765164
0.849271 0.708186 0.803738
0.935302 0.696620 0.777798
1.000000 0.677241 0.752743
0.640742 0.730007 0.734920
0.645136 0.731380 0.736202
0.662104 0.736324 0.740902
0.692958 0.745602 0.749874
0.736019 0.759243 0.763180
0.828702 0.783383 0.797910
0.916930 0.759670 0.772152
0.993286 0.747402 0.759823
0.800992 0.857725 0.848692
0.804471 0.859312 0.850431
0.805020 0.855833 0.846006
0.801541 0.845335 0.833036
0.786343 0.820066 0.801999
0.768917 0.768551 0.744869
0.925505 0.902739 0.880308
0.958221 0.839750 0.796658
0.795560 0.871031 0.839872
0.795621 0.870420 0.838987
0.796109 0.867948 0.835203
0.791501 0.858762 0.822416
0.778225 0.836271 0.793423
0.723140 0.752712 0.692012
0.894163 0.888792 0.854551
0.984894 0.975830 0.962036
0.262638 0.505241 0.718624
0.272526 0.505211 0.724819
0.304967 0.497139 0.745327
0.403937 0.491157 0.786954
0.596735 0.515618 0.840513
0.819821 0.544060 0.901640
0.962676 0.542840 0.896574
1.000000 0.574914 0.852171
0.272618 0.507927 0.711330
0.282109 0.508171 0.717800
0.314977 0.502617 0.739864
0.404547 0.495430 0.781735
0.595270 0.521172 0.836118
0.817197 0.551415 0.898253
0.959167 0.547814 0.893187
1.000000 0.578332 0.849516
0.308141 0.526421 0.695186
0.324804 0.530358 0.702113
0.359625 0.531609 0.725643
0.425879 0.527092 0.772763
0.602289 0.557763 0.828367
0.814389 0.593713 0.891814
0.952941 0.588830 0.889647
1.000000 0.613916 0.849485
0.314916 0.534447 0.653925
0.329564 0.539910 0.662104
0.388922 0.559899 0.692836
0.476387 0.583459 0.747158
0.607202 0.609186 0.811917
0.807523 0.656336 0.882139
0.943969 0.654261 0.887022
1.000000 0.673793 0.853239
0.357305 0.562890 0.635218
0.360998 0.562219 0.634882
0.370275 0.554650 0.628962
0.461006 0.595392 0.683558
0.600580 0.652735 0.775631
0.782071 0.709316 0.861448
0.929259 0.721920 0.883848
0.994079 0.733272 0.855863
0.519097 0.676997 0.712764
0.520500 0.675898 0.711818
0.528527 0.672663 0.709194
0.546960 0.668208 0.705928
0.575311 0.660304 0.700710
0.744839 0.753292 0.826444
0.912657 0.794766 0.884459
0.979980 0.787808 0.859190
0.690669 0.798520 0.804074
0.692866 0.798734 0.804349
0.702083 0.799985 0.805600
0.721126 0.803281 0.808927
0.748531 0.807980 0.813809
0.782650 0.813565 0.819852
0.883574 0.853147 0.876951
0.962463 0.832761 0.854917
0.831632 0.902037 0.893614
0.833402 0.902525 0.894194
0.842344 0.905577 0.897612
0.860746 0.912505 0.905303
0.886442 0.922698 0.916655
0.881773 0.909880 0.901061
0.850248 0.861418 0.846128
0.967712 0.956725 0.946105
