20 Preset/Bright-Style/【3】LUT video cho PR-AE-FCPX/Tone  (4).cube
# Created by Adobe Lightroom plugin Export LUT (1.24.0)
# www.johnrellis.com/lightroom/exportlut.htm
# Preset: 明亮奶油-素材江湖01
# Color profile: E:\lut插件\exportlut.1.24\exportlut.lrplugin\color profiles\Rec709gamma2.4.icc
LUT_3D_SIZE 5
DOMAIN_MIN 0.000000 0.000000 0.000000
DOMAIN_MAX 0.903226 0.903226 0.903226
0.000000 0.000000 0.000000
0.320806 0.012390 0.000000
0.748989 0.133883 0.000000
1.000000 0.202884 0.000000
1.000000 0.231815 0.000000
0.152193 0.160830 0.105806
0.353307 0.316045 0.220035
0.720668 0.343511 0.000000
0.981353 0.342535 0.000000
1.000000 0.330510 0.000000
0.280217 0.288579 0.184176
0.403174 0.397711 0.272007
0.800320 0.756039 0.661799
0.912322 0.616571 0.355993
1.000000 0.564355 0.280339
0.344579 0.358556 0.219974
0.390204 0.392554 0.246860
0.725551 0.708949 0.584649
0.936828 0.905425 0.841520
1.000000 0.821073 0.668086
0.494850 0.528618 0.331060
0.483162 0.501427 0.303563
0.676753 0.672267 0.496651
0.896880 0.880735 0.796658
0.985901 0.967041 0.929259
0.000000 0.094820 0.143740
0.298741 0.000000 0.219425
0.744778 0.000000 0.130251
0.987518 0.158389 0.000000
1.000000 0.211124 0.000000
0.209873 0.255955 0.241306
0.355871 0.317052 0.272953
0.728817 0.332433 0.194461
0.973144 0.330694 0.115724
1.000000 0.320165 0.000000
0.332830 0.357214 0.262150
0.403265 0.401190 0.300664
0.784482 0.741970 0.660273
0.892851 0.605280 0.384924
1.000000 0.568353 0.337713
0.376471 0.399542 0.263828
0.374273 0.378088 0.245182
0.721309 0.706630 0.593469
0.935393 0.905211 0.845853
0.998474 0.819455 0.675532
0.508690 0.551873 0.360418
0.497139 0.524254 0.331456
0.663325 0.660365 0.485267
0.895933 0.880735 0.799985
0.986389 0.968750 0.933837
0.000000 0.221653 0.355566
0.205722 0.197543 0.443091
0.728908 0.154910 0.536461
0.979461 0.000000 0.431556
1.000000 0.203555 0.371130
0.221347 0.322515 0.373175
0.305119 0.344244 0.464088
0.734157 0.352453 0.531029
0.968048 0.261692 0.418128
1.000000 0.333227 0.390723
0.525444 0.600824 0.578058
0.528710 0.582971 0.551080
0.738094 0.694026 0.648280
0.895140 0.619776 0.531640
1.000000 0.574121 0.478340
0.516869 0.584283 0.485908
0.497444 0.541558 0.440467
0.682368 0.675135 0.590295
0.927611 0.900237 0.854002
0.982361 0.801358 0.682429
0.572351 0.657771 0.504662
0.562676 0.633661 0.473610
0.526299 0.531640 0.356725
0.877195 0.865263 0.791165
0.986450 0.971649 0.943694
0.000000 0.358587 0.547875
0.140932 0.346990 0.597559
0.627741 0.369238 0.753079
0.934447 0.408240 0.727565
1.000000 0.406744 0.647425
0.236942 0.414740 0.544945
0.291722 0.424475 0.595911
0.643763 0.462013 0.748653
0.920623 0.489998 0.723812
1.000000 0.461860 0.650385
0.434913 0.551263 0.584253
0.466804 0.558679 0.590936
0.662654 0.643793 0.718471
0.887602 0.629480 0.705653
1.000000 0.591547 0.658656
0.738003 0.795865 0.782528
0.735103 0.788083 0.772763
0.715511 0.743191 0.719539
0.886076 0.856657 0.827420
0.985504 0.774899 0.719387
0.725338 0.822263 0.758785
0.722286 0.815427 0.749935
0.696071 0.762264 0.687251
0.781460 0.777493 0.701167
0.986358 0.975860 0.958099
0.262638 0.505241 0.718624
0.293492 0.499825 0.738186
0.496986 0.502983 0.812497
0.866026 0.547570 0.907866
1.000000 0.574914 0.852171
0.306096 0.524193 0.702510
0.338323 0.525109 0.723995
0.504875 0.530480 0.801907
0.862608 0.586114 0.902342
1.000000 0.605371 0.850553
0.310124 0.528222 0.618647
0.355322 0.547906 0.647578
0.535698 0.613703 0.758053
0.849577 0.693324 0.890227
1.000000 0.704372 0.854978
0.568292 0.710933 0.737606
0.576135 0.709468 0.736416
0.611566 0.705989 0.734188
0.785183 0.783871 0.843748
0.977020 0.797696 0.857969
0.831632 0.902037 0.893614
0.839231 0.904448 0.896361
0.872984 0.917327 0.910674
0.878111 0.903899 0.893858
0.967712 0.956725 0.946105
