20 Preset/Bright-Style/【3】LUT video cho PR-AE-FCPX/Tone  (1).cube
# Created by Adobe Lightroom plugin Export LUT (1.24.0)
# www.johnrellis.com/lightroom/exportlut.htm
# Preset: 明亮奶油-素材江湖04
# Color profile: E:\lut插件\exportlut.1.24\exportlut.lrplugin\color profiles\Rec709gamma2.4.icc
LUT_3D_SIZE 32
DOMAIN_MIN 0.0 0.0 0.0
DOMAIN_MAX 1.0 1.0 1.0
0.123720 0.084474 0.000000
0.121218 0.085176 0.000000
0.114534 0.086244 0.000000
0.103090 0.087526 0.000000
0.093599 0.087922 0.000916
0.104433 0.084077 0.010132
0.147860 0.065431 0.019715
0.214420 0.012207 0.029084
0.294255 0.000000 0.037446
0.383307 0.000000 0.045075
0.475624 0.000000 0.053010
0.565118 0.000000 0.059998
0.646571 0.000000 0.069306
0.716884 0.000000 0.082368
0.775662 0.000000 0.094118
0.839933 0.000000 0.112215
0.889769 0.000000 0.133577
0.925292 0.000000 0.155795
0.951934 0.000000 0.177371
0.973877 0.000000 0.199466
0.991852 0.000000 0.221866
1.000000 0.000000 0.243870
1.000000 0.000000 0.264500
1.000000 0.000000 0.285252
1.000000 0.000000 0.305333
1.000000 0.000000 0.325597
1.000000 0.000000 0.346136
1.000000 0.000000 0.367193
1.000000 0.146853 0.388678
1.000000 0.221225 0.410803
1.000000 0.275212 0.433539
1.000000 0.320653 0.456703
0.121248 0.084443 0.000000
0.120729 0.084565 0.000000
0.112490 0.086061 0.000000
0.102663 0.086915 0.000000
0.093111 0.087343 0.001068
0.104646 0.083314 0.010285
0.146456 0.066346 0.017487
0.211337 0.015351 0.026917
0.288884 0.000000 0.034180
0.376104 0.000000 0.042267
0.466804 0.000000 0.048341
0.555688 0.000000 0.056977
0.637232 0.000000 0.066560
0.708644 0.000000 0.080568
0.768368 0.000000 0.093019
0.832212 0.000000 0.109957
0.881987 0.000000 0.130617
0.918212 0.000000 0.151553
0.945739 0.000000 0.172824
0.968048 0.000000 0.194247
0.986511 0.000000 0.215854
1.000000 0.000000 0.236851
1.000000 0.000000 0.257206
1.000000 0.000000 0.277623
1.000000 0.000000 0.297551
1.000000 0.000000 0.317510
1.000000 0.000000 0.337957
1.000000 0.000000 0.359228
1.000000 0.105837 0.380896
1.000000 0.200168 0.403510
1.000000 0.259983 0.426886
1.000000 0.308446 0.450294
0.113252 0.082887 0.000000
0.111574 0.083314 0.000000
0.108217 0.083406 0.000000
0.099092 0.084749 0.001312
0.093721 0.085695 0.008148
0.109285 0.082826 0.015747
0.153933 0.063813 0.023804
0.217258 0.014862 0.030488
0.293309 0.000000 0.037568
0.378607 0.000000 0.044251
0.467353 0.000000 0.052277
0.554376 0.000000 0.059571
0.635004 0.000000 0.070008
0.705287 0.000000 0.083131
0.764828 0.000000 0.095155
0.828916 0.000000 0.111696
0.877165 0.000000 0.131228
0.913420 0.000000 0.151492
0.941161 0.000000 0.171908
0.963897 0.000000 0.193179
0.982849 0.000000 0.214603
0.998291 0.000000 0.235782
1.000000 0.000000 0.255375
1.000000 0.000000 0.275364
1.000000 0.000000 0.295232
1.000000 0.000000 0.315007
1.000000 0.000000 0.335546
1.000000 0.000000 0.356695
1.000000 0.106477 0.378546
1.000000 0.199344 0.401160
1.000000 0.258640 0.424201
1.000000 0.307012 0.447974
0.099580 0.084291 0.018280
0.098939 0.084443 0.018311
0.096315 0.085603 0.021576
0.090639 0.088350 0.027985
0.094301 0.089631 0.023926
0.122011 0.088533 0.028138
0.170779 0.073213 0.035218
0.234501 0.020508 0.041169
0.308934 0.000000 0.047395
0.391211 0.000000 0.054475
0.476661 0.000000 0.060761
0.560479 0.000000 0.068299
0.637964 0.000000 0.078584
0.706050 0.000000 0.088869
0.767178 0.000000 0.099794
0.826902 0.000000 0.116091
0.871824 0.000000 0.133822
0.906523 0.000000 0.152682
0.933928 0.000000 0.171939
0.956451 0.000000 0.191745
0.975555 0.000000 0.212192
0.991577 0.000000 0.232334
1.000000 0.000000 0.252384
1.000000 0.000000 0.272587
1.000000 0.000000 0.293156
1.000000 0.000000 0.313939
1.000000 0.000000 0.335393
1.000000 0.000000 0.357427
1.000000 0.143282 0.379858
1.000000 0.217716 0.402472
1.000000 0.270329 0.425360
1.000000 0.314427 0.448249
0.078614 0.096254 0.053651
0.078431 0.096254 0.054810
0.080110 0.095766 0.054932
0.079805 0.100160 0.067842
0.093263 0.112825 0.079744
0.135042 0.110628 0.058473
0.188510 0.101808 0.053925
0.255741 0.077058 0.056092
0.327398 0.000000 0.061616
0.405554 0.000000 0.066590
0.486702 0.000000 0.072084
0.566644 0.000000 0.079255
0.640864 0.000000 0.087770
0.706691 0.000000 0.095430
0.770779 0.000000 0.107973
0.825437 0.000000 0.123629
0.868345 0.000000 0.140658
0.902617 0.000000 0.158724
0.929839 0.000000 0.177859
0.952239 0.000000 0.197330
0.971283 0.000000 0.217227
0.987304 0.000000 0.236515
1.000000 0.000000 0.256474
1.000000 0.000000 0.276341
1.000000 0.000000 0.296849
1.000000 0.000000 0.317601
1.000000 0.000000 0.339330
1.000000 0.097475 0.360784
1.000000 0.187564 0.382727
1.000000 0.243412 0.404822
1.000000 0.288945 0.427375
1.000000 0.328466 0.449897
0.045411 0.124483 0.092531
0.047120 0.124422 0.092958
0.060182 0.122988 0.092744
0.079896 0.126619 0.096620
0.101534 0.142885 0.108370
0.157717 0.175784 0.115694
0.221775 0.164981 0.092409
0.277867 0.136751 0.079896
0.354955 0.110018 0.078309
0.433875 0.000000 0.079774
0.510521 0.000000 0.084718
0.585046 0.000000 0.090455
0.654658 0.000000 0.096895
0.721462 0.000000 0.107118
0.781064 0.000000 0.120974
0.830289 0.000000 0.136477
0.870359 0.000000 0.153384
0.902831 0.000000 0.171511
0.929046 0.000000 0.190158
0.950683 0.000000 0.209171
0.969116 0.000000 0.228550
0.984771 0.000000 0.247929
1.000000 0.000000 0.310674
1.000000 0.097993 0.330022
1.000000 0.169467 0.349432
1.000000 0.215549 0.368078
1.000000 0.253880 0.387182
1.000000 0.286809 0.406012
1.000000 0.318120 0.425422
1.000000 0.346685 0.444923
1.000000 0.373419 0.464027
1.000000 0.398047 0.482826
0.026001 0.183719 0.127596
0.031403 0.183322 0.127657
0.070069 0.180484 0.127321
0.103304 0.175479 0.126772
0.134768 0.199008 0.143893
0.189151 0.237095 0.173129
0.288670 0.292912 0.183688
0.361517 0.266484 0.138430
0.402686 0.205325 0.103517
0.483742 0.179690 0.101778
0.563348 0.140169 0.103029
0.634180 0.038239 0.108217
0.706172 0.000000 0.120027
0.767849 0.000000 0.134981
0.817990 0.000000 0.150637
0.857939 0.000000 0.167208
0.890471 0.000000 0.184451
0.916991 0.000000 0.202762
0.939300 0.000000 0.221103
0.958892 0.000000 0.240787
0.976165 0.000000 0.262150
0.991150 0.000000 0.283757
1.000000 0.135409 0.306371
1.000000 0.192294 0.329015
1.000000 0.233890 0.351019
1.000000 0.267277 0.371374
1.000000 0.294804 0.390600
1.000000 0.320653 0.409003
1.000000 0.345159 0.427771
1.000000 0.368505 0.446601
1.000000 0.391119 0.465095
1.000000 0.412970 0.483833
0.078218 0.241855 0.164981
0.086244 0.240848 0.164462
0.105592 0.237705 0.163882
0.130709 0.230869 0.162142
0.164736 0.245975 0.174777
0.218357 0.285161 0.204532
0.295293 0.340978 0.248692
0.407141 0.402594 0.255833
0.473457 0.370611 0.199313
0.513390 0.304479 0.147494
0.576806 0.266697 0.132692
0.653773 0.251347 0.137697
0.719326 0.232181 0.145174
0.772152 0.212650 0.157076
0.815244 0.193149 0.170871
0.850950 0.176364 0.185794
0.881346 0.163394 0.201419
0.906981 0.159335 0.218112
0.928923 0.164279 0.235752
0.948486 0.177493 0.254826
0.965789 0.197818 0.274479
0.980865 0.223606 0.295476
0.993805 0.250278 0.317449
1.000000 0.276585 0.339086
1.000000 0.300816 0.359838
1.000000 0.322698 0.379858
1.000000 0.342077 0.398077
1.000000 0.360571 0.416205
1.000000 0.379797 0.434485
1.000000 0.398352 0.452491
1.000000 0.416724 0.470558
1.000000 0.435065 0.488930
0.133700 0.306065 0.207980
0.137545 0.305180 0.207767
0.149813 0.301457 0.206363
0.171145 0.294163 0.203952
0.200748 0.296239 0.208865
0.252079 0.335851 0.238926
0.322972 0.389075 0.282231
0.418524 0.461555 0.347997
0.527672 0.519982 0.358160
0.586145 0.493050 0.297032
0.623957 0.431769 0.229313
0.658442 0.368505 0.181491
0.716793 0.357519 0.185733
0.767575 0.345251 0.191623
0.810483 0.331395 0.199435
0.843961 0.318944 0.211917
0.872587 0.309270 0.226291
0.897185 0.302983 0.241398
0.918700 0.301122 0.258305
0.938018 0.303502 0.275425
0.955138 0.310887 0.294224
0.970153 0.321752 0.314183
0.983307 0.334997 0.334325
0.994446 0.350256 0.354803
1.000000 0.365209 0.374609
1.000000 0.378759 0.393011
1.000000 0.391913 0.410681
1.000000 0.405127 0.428016
1.000000 0.418952 0.445380
1.000000 0.432929 0.462593
1.000000 0.447211 0.479683
1.000000 0.461952 0.497261
0.197452 0.381994 0.261112
0.199802 0.380987 0.260838
0.209110 0.377264 0.259037
0.226596 0.370489 0.256596
0.247898 0.358282 0.251469
0.298589 0.397101 0.282933
0.367346 0.449226 0.329168
0.449683 0.508934 0.388983
0.540734 0.573480 0.463264
0.615686 0.603174 0.457465
0.656367 0.577356 0.394476
0.685481 0.526116 0.319219
0.709865 0.460212 0.248295
0.751797 0.437507 0.234989
0.794034 0.427955 0.241032
0.830259 0.417823 0.248539
0.861662 0.408728 0.258305
0.886259 0.402106 0.272892
0.907744 0.398291 0.288640
0.926940 0.396704 0.304509
0.943664 0.397742 0.321111
0.958373 0.400275 0.337530
0.971252 0.405188 0.354711
0.982544 0.411627 0.372015
0.992248 0.418921 0.388952
1.000000 0.426307 0.405615
1.000000 0.434760 0.421851
1.000000 0.443946 0.438605
1.000000 0.454231 0.455207
1.000000 0.465461 0.472419
1.000000 0.476997 0.489296
1.000000 0.489235 0.506523
0.265354 0.452125 0.315953
0.267124 0.451179 0.315618
0.273136 0.447913 0.313664
0.285466 0.441169 0.310460
0.301335 0.429603 0.304387
0.338933 0.447333 0.322118
0.401129 0.492836 0.366155
0.473457 0.542962 0.421057
0.547784 0.592676 0.484230
0.629084 0.648585 0.558038
0.678645 0.660853 0.540185
0.707546 0.638605 0.484565
0.730892 0.597375 0.411597
0.752010 0.543999 0.336309
0.779324 0.504479 0.291875
0.814450 0.496559 0.297307
0.845151 0.488685 0.304601
0.871977 0.480842 0.313329
0.894987 0.474220 0.323247
0.914000 0.469764 0.336584
0.930785 0.466926 0.350225
0.945617 0.465827 0.364691
0.958862 0.466682 0.379614
0.970550 0.468879 0.395148
0.980743 0.472145 0.410681
0.989593 0.476081 0.425696
0.997314 0.480842 0.440620
1.000000 0.486397 0.455848
1.000000 0.493141 0.471351
1.000000 0.501152 0.487282
1.000000 0.509850 0.503380
1.000000 0.519097 0.519188
0.332708 0.514458 0.371893
0.333501 0.513756 0.371252
0.338048 0.510307 0.368963
0.346014 0.504448 0.365301
0.357031 0.495064 0.359380
0.377173 0.491218 0.359716
0.434150 0.530938 0.401740
0.498756 0.573449 0.452949
0.565179 0.616663 0.510765
0.629145 0.657923 0.570489
0.694087 0.701534 0.637720
0.725338 0.704128 0.613092
0.773037 0.715206 0.618463
0.788907 0.684504 0.556085
0.805509 0.643580 0.483925
0.823087 0.595544 0.408942
0.849027 0.587152 0.407416
0.872282 0.578882 0.409796
0.893217 0.571008 0.413458
0.912078 0.563653 0.417945
0.927947 0.557366 0.424506
0.941131 0.552728 0.433661
0.952850 0.549340 0.443671
0.963439 0.547021 0.453986
0.972717 0.545617 0.464668
0.981018 0.544732 0.475105
0.988190 0.544884 0.485939
0.994629 0.545556 0.496651
1.000000 0.547417 0.508019
1.000000 0.550469 0.519829
1.000000 0.554681 0.532403
1.000000 0.560052 0.545495
0.429938 0.588952 0.452827
0.429816 0.587945 0.451728
0.430884 0.584771 0.448737
0.433570 0.578759 0.443397
0.437293 0.569390 0.434882
0.442603 0.555932 0.423102
0.483619 0.577783 0.451942
0.539422 0.612970 0.499123
0.597436 0.649500 0.551049
0.653620 0.684108 0.606500
0.703304 0.715236 0.659968
0.755734 0.751003 0.715084
0.775174 0.749783 0.692256
0.789242 0.735927 0.656794
0.803159 0.712764 0.608209
0.818051 0.679805 0.546258
0.833127 0.637385 0.474372
0.853819 0.618769 0.450050
0.874693 0.611566 0.451240
0.893614 0.604303 0.453407
0.910674 0.597589 0.456184
0.926177 0.591424 0.460090
0.938903 0.586664 0.467231
0.950011 0.583307 0.475837
0.959930 0.580621 0.484779
0.968780 0.578637 0.494362
0.976684 0.577478 0.503746
0.983642 0.577142 0.513939
0.989868 0.577783 0.524407
0.995300 0.579675 0.535668
1.000000 0.582513 0.547295
1.000000 0.586450 0.559686
0.475837 0.621424 0.493233
0.475502 0.620478 0.492164
0.475441 0.617243 0.488746
0.476570 0.612085 0.483711
0.477913 0.604089 0.475563
0.480934 0.592920 0.464973
0.498909 0.594079 0.469703
0.548363 0.625055 0.512139
0.600855 0.657404 0.559594
0.652216 0.688411 0.610468
0.698665 0.716762 0.659632
0.740383 0.743374 0.704311
0.784817 0.774594 0.750332
0.797269 0.769986 0.725521
0.807309 0.757595 0.695491
0.817472 0.737667 0.654383
0.829038 0.710201 0.601373
0.842222 0.674617 0.537102
0.858518 0.645808 0.489845
0.877195 0.639399 0.490242
0.894316 0.633204 0.491432
0.910002 0.627466 0.493843
0.924407 0.622126 0.496895
0.937499 0.617395 0.501366
0.947753 0.614069 0.509148
0.957061 0.611231 0.516899
0.965362 0.609125 0.525261
0.972778 0.607782 0.533898
0.979431 0.607385 0.543297
0.985260 0.608118 0.553491
0.990387 0.609857 0.564294
0.994720 0.612696 0.576104
0.517144 0.650202 0.531060
0.517144 0.649592 0.530327
0.516655 0.647150 0.527611
0.516625 0.642573 0.522454
0.517052 0.635798 0.515129
0.518120 0.626429 0.505394
0.519860 0.614832 0.493599
0.559838 0.638025 0.526848
0.607080 0.666407 0.570245
0.653895 0.693965 0.616663
0.697475 0.719997 0.662470
0.736721 0.744625 0.703975
0.771542 0.767514 0.740902
0.806058 0.792172 0.775113
0.814847 0.786984 0.753353
0.822080 0.775204 0.726131
0.829648 0.757778 0.691096
0.838560 0.734707 0.646632
0.849790 0.705196 0.591699
0.862852 0.669398 0.528313
0.879881 0.663691 0.525933
0.895506 0.658503 0.527092
0.909911 0.653559 0.529107
0.923247 0.648829 0.531823
0.935302 0.644526 0.535424
0.945739 0.640864 0.540398
0.954345 0.638300 0.547631
0.962158 0.636500 0.555505
0.969055 0.635859 0.564630
0.975189 0.636255 0.574365
0.980591 0.637659 0.585046
0.985229 0.639704 0.596063
0.552026 0.672938 0.563439
0.552239 0.672694 0.563134
0.552148 0.671107 0.561151
0.552605 0.668086 0.557549
0.553246 0.663355 0.552209
0.554284 0.656519 0.544427
0.556176 0.648066 0.535149
0.575555 0.653040 0.545129
0.618799 0.678340 0.585931
0.661341 0.702846 0.628534
0.700526 0.725795 0.669520
0.736477 0.747951 0.706996
0.768399 0.768429 0.740414
0.795560 0.786862 0.769802
0.821714 0.805814 0.793515
0.827451 0.799924 0.774105
0.832700 0.788815 0.749752
0.838987 0.773434 0.718929
0.846250 0.753689 0.681575
0.855711 0.729122 0.635492
0.867643 0.699062 0.580224
0.882475 0.684840 0.559014
0.896788 0.680720 0.560388
0.910063 0.676661 0.562768
0.922240 0.672908 0.565606
0.933471 0.669276 0.568994
0.943603 0.666041 0.573205
0.951781 0.663935 0.579858
0.958953 0.662623 0.587427
0.965301 0.662226 0.596094
0.971008 0.662379 0.605035
0.976013 0.662898 0.613947
0.583276 0.692226 0.593408
0.583185 0.691798 0.592767
0.583459 0.690761 0.591608
0.583429 0.688319 0.588342
0.583703 0.684657 0.583612
0.584405 0.679561 0.577356
0.585473 0.672847 0.569268
0.586511 0.663996 0.558587
0.624384 0.685206 0.594446
0.663294 0.707210 0.633448
0.700191 0.728481 0.671778
0.733944 0.749020 0.706722
0.764584 0.768429 0.738613
0.791196 0.786099 0.767117
0.813504 0.801907 0.791135
0.833677 0.816648 0.807279
0.837522 0.810819 0.790860
0.841550 0.800870 0.770199
0.846860 0.787320 0.743679
0.853300 0.770138 0.711177
0.861448 0.749569 0.673030
0.872038 0.724880 0.627100
0.884977 0.704250 0.590814
0.898100 0.700771 0.592401
0.910246 0.697444 0.594537
0.921386 0.694301 0.597436
0.931609 0.691463 0.601007
0.941009 0.688838 0.605219
0.949340 0.686793 0.610285
0.955871 0.685969 0.617914
0.961761 0.685237 0.625299
0.967041 0.685023 0.632990
0.613855 0.710048 0.622766
0.614313 0.710079 0.622980
0.634211 0.720577 0.641199
0.634211 0.718837 0.638849
0.633997 0.715999 0.634882
0.633570 0.712001 0.629236
0.633112 0.706538 0.621637
0.632624 0.699489 0.612116
0.649317 0.704524 0.623224
0.683619 0.723507 0.658412
0.716304 0.742489 0.692134
0.746609 0.760983 0.723171
0.773953 0.778195 0.751858
0.797757 0.793973 0.777127
0.817685 0.807950 0.798154
0.834745 0.820859 0.815335
0.847807 0.830411 0.823545
0.849607 0.824430 0.810269
0.851865 0.815213 0.793301
0.855802 0.803220 0.771298
0.861326 0.788144 0.743465
0.868620 0.770504 0.710872
0.877684 0.749935 0.672847
0.889097 0.724849 0.626276
0.900542 0.721401 0.626795
0.911131 0.718013 0.627802
0.921050 0.714778 0.629633
0.930297 0.711879 0.632044
0.938811 0.709438 0.635431
0.946685 0.707149 0.639185
0.953033 0.705776 0.644739
0.958526 0.704921 0.651270
0.645350 0.728206 0.653834
0.646998 0.728939 0.655116
0.648554 0.729152 0.655726
0.649928 0.728634 0.655299
0.650874 0.726894 0.652979
0.650874 0.723781 0.648707
0.650507 0.719417 0.642603
0.649744 0.713588 0.634302
0.649042 0.706538 0.624414
0.680842 0.723873 0.656886
0.712032 0.741665 0.688869
0.740871 0.759030 0.718410
0.767697 0.775692 0.746395
0.791257 0.790951 0.771328
0.811521 0.804807 0.792721
0.828550 0.817136 0.810117
0.843534 0.829007 0.824491
0.853635 0.836149 0.829526
0.855009 0.830777 0.818570
0.856870 0.822721 0.804623
0.860288 0.812345 0.786435
0.865324 0.799557 0.763485
0.872190 0.784298 0.735531
0.880613 0.766537 0.702907
0.890867 0.745571 0.663905
0.901457 0.735744 0.650813
0.911254 0.732876 0.651972
0.920378 0.730251 0.654017
0.928832 0.727749 0.656397
0.936736 0.725551 0.659449
0.943999 0.723659 0.663111
0.950500 0.722103 0.667445
0.663966 0.739498 0.672541
0.665522 0.740230 0.673854
0.666987 0.740566 0.674556
0.668208 0.740169 0.674189
0.669001 0.738766 0.672419
0.669001 0.736172 0.668849
0.668513 0.732357 0.663569
0.667903 0.727565 0.656886
0.666835 0.721523 0.648249
0.680873 0.725948 0.658167
0.710048 0.742397 0.688014
0.737789 0.758938 0.716426
0.763546 0.774716 0.743221
0.786893 0.789548 0.767849
0.807156 0.803098 0.789181
0.824338 0.815274 0.806821
0.838682 0.826078 0.820859
0.851682 0.836851 0.832639
0.859373 0.842008 0.835325
0.860288 0.837125 0.826261
0.861662 0.829953 0.814725
0.864469 0.820951 0.799893
0.868925 0.809934 0.781003
0.875090 0.796628 0.757382
0.882963 0.781033 0.728908
0.892515 0.763058 0.695491
0.902525 0.748775 0.672847
0.911467 0.746242 0.674037
0.919829 0.743923 0.675929
0.927672 0.741909 0.678492
0.934966 0.740139 0.681727
0.941741 0.738460 0.685084
0.681941 0.750851 0.690791
0.683070 0.751461 0.691768
0.684321 0.751705 0.692409
0.685298 0.751339 0.691981
0.685908 0.750210 0.690608
0.685878 0.747921 0.687526
0.685542 0.744778 0.683253
0.684749 0.740505 0.677272
0.683803 0.735317 0.670008
0.682551 0.729122 0.661280
0.709102 0.743801 0.688197
0.735592 0.759365 0.715206
0.760647 0.774502 0.741146
0.783413 0.788785 0.765164
0.803433 0.801938 0.786282
0.820829 0.813962 0.804135
0.835538 0.824796 0.818631
0.847837 0.834531 0.830106
0.859373 0.844450 0.839780
0.865293 0.848295 0.841123
0.866056 0.844144 0.834104
0.867185 0.838102 0.825193
0.869474 0.830533 0.813718
0.873228 0.821347 0.799161
0.878691 0.810300 0.780636
0.885893 0.797024 0.757137
0.894896 0.781521 0.728725
0.904906 0.764370 0.699794
0.912840 0.762417 0.701472
0.920317 0.760647 0.703639
0.927276 0.758968 0.706142
0.933837 0.757290 0.708797
0.705562 0.766262 0.714900
0.706020 0.766415 0.715145
0.706233 0.766140 0.714839
0.706325 0.765377 0.713771
0.706233 0.763973 0.711971
0.705715 0.761776 0.708919
0.705226 0.758968 0.705165
0.704463 0.755306 0.700160
0.703578 0.750912 0.694179
0.702449 0.745571 0.686763
0.712306 0.747951 0.692561
0.737484 0.762661 0.718288
0.761349 0.776883 0.743069
0.783230 0.790494 0.766140
0.802731 0.803128 0.786648
0.819730 0.814664 0.804013
0.834134 0.825071 0.818143
0.846342 0.834470 0.829404
0.856535 0.842832 0.838193
0.866209 0.851469 0.845701
0.870390 0.853910 0.845914
0.870695 0.849973 0.840024
0.871336 0.844419 0.832547
0.872953 0.837430 0.822843
0.876005 0.829221 0.810666
0.880674 0.819425 0.795163
0.887114 0.807828 0.775570
0.895476 0.794430 0.751522
0.905486 0.776516 0.720882
0.913115 0.773434 0.719753
0.919921 0.771939 0.721981
0.926329 0.770413 0.724331
0.720882 0.776425 0.730709
0.721187 0.776516 0.730892
0.721492 0.776364 0.730770
0.721614 0.775692 0.729915
0.721401 0.774472 0.728176
0.721035 0.772763 0.725795
0.720516 0.770321 0.722408
0.719783 0.767178 0.718013
0.719173 0.763516 0.713069
0.718257 0.758938 0.706752
0.717189 0.753567 0.699428
0.737026 0.764187 0.718563
0.760098 0.777829 0.742519
0.781430 0.790890 0.765072
0.800748 0.803189 0.785336
0.817563 0.814420 0.802579
0.832090 0.824704 0.816861
0.844388 0.833982 0.828244
0.854795 0.842283 0.837217
0.863432 0.849607 0.844205
0.871641 0.857206 0.850065
0.874693 0.858671 0.849638
0.874723 0.855070 0.844785
0.875090 0.850126 0.838651
0.875700 0.842863 0.829465
0.878264 0.835569 0.819303
0.882353 0.827024 0.806546
0.888090 0.817014 0.790402
0.895720 0.805234 0.770138
0.905089 0.789578 0.743923
0.913115 0.783169 0.735958
0.919402 0.781949 0.738277
0.739559 0.788510 0.749813
0.740047 0.788754 0.750240
0.740261 0.788632 0.750088
0.740017 0.787900 0.749020
0.739467 0.786709 0.747341
0.738613 0.784909 0.744686
0.737636 0.782589 0.741390
0.736477 0.779629 0.737179
0.735225 0.776120 0.732113
0.733944 0.771939 0.726162
0.732479 0.767025 0.719265
0.736599 0.765805 0.718715
0.758511 0.778531 0.741543
0.779080 0.790860 0.763241
0.797574 0.802365 0.782589
0.814023 0.813107 0.799527
0.828489 0.823026 0.813809
0.840909 0.832090 0.825467
0.851499 0.840299 0.834775
0.860533 0.847776 0.842222
0.868162 0.854429 0.848020
0.875364 0.861204 0.852842
0.877623 0.861997 0.852049
0.877470 0.858610 0.847868
0.877623 0.853941 0.842466
0.878477 0.848203 0.835538
0.880613 0.841703 0.827024
0.884123 0.834195 0.816495
0.889220 0.825406 0.803128
0.896025 0.814878 0.786160
0.904631 0.801328 0.764218
0.912963 0.792386 0.751156
0.751705 0.796689 0.762448
0.752132 0.796902 0.762814
0.752438 0.796872 0.762844
0.752346 0.796323 0.762051
0.752071 0.795407 0.760708
0.751675 0.794125 0.758907
0.751186 0.792355 0.756435
0.750484 0.790097 0.753170
0.749752 0.787289 0.749203
0.748928 0.784085 0.744594
0.747951 0.780087 0.738918
0.746700 0.775448 0.732265
0.758968 0.780697 0.742672
0.778775 0.792447 0.763607
0.796902 0.803494 0.782589
0.813046 0.813809 0.799191
0.827237 0.823392 0.813199
0.839506 0.832120 0.824704
0.850095 0.840146 0.834012
0.859159 0.847440 0.841489
0.866880 0.853971 0.847349
0.873320 0.859770 0.851896
0.879362 0.865568 0.855650
0.880919 0.865843 0.854704
0.880674 0.862791 0.851225
0.880705 0.858671 0.846830
0.881437 0.853635 0.841184
0.883207 0.848020 0.834348
0.886259 0.841642 0.826047
0.890684 0.834257 0.815579
0.896574 0.825193 0.802182
0.904112 0.813840 0.785031
0.765896 0.805997 0.776822
0.766171 0.806119 0.776974
0.766262 0.805966 0.776852
0.766079 0.805509 0.776181
0.765805 0.804715 0.775051
0.765316 0.803494 0.773342
0.764706 0.801999 0.771145
0.764096 0.800076 0.768429
0.763424 0.797787 0.765164
0.762661 0.794980 0.761135
0.761715 0.791623 0.756313
0.760708 0.787716 0.750668
0.759426 0.783017 0.743832
0.778012 0.793637 0.763241
0.795682 0.804227 0.781827
0.811582 0.814176 0.798154
0.825589 0.823362 0.812039
0.837858 0.831937 0.823575
0.848447 0.839780 0.832975
0.857603 0.846952 0.840543
0.865415 0.853391 0.846494
0.871977 0.859129 0.851194
0.877470 0.864134 0.854795
0.882536 0.869078 0.857755
0.883543 0.868956 0.856687
0.883238 0.866148 0.853727
0.883177 0.862455 0.850034
0.883696 0.857969 0.845304
0.885222 0.852964 0.839628
0.887938 0.847593 0.833005
0.891783 0.841367 0.824765
0.896818 0.833768 0.814450
0.778317 0.814176 0.789059
0.778470 0.814237 0.789212
0.778561 0.814145 0.789059
0.778592 0.813840 0.788663
0.778500 0.813260 0.787869
0.778439 0.812528 0.786893
0.778561 0.811643 0.785672
0.778744 0.810513 0.784207
0.778988 0.809140 0.782284
0.779232 0.807431 0.779965
0.779507 0.805356 0.777127
0.779538 0.802792 0.773495
0.779324 0.799619 0.768948
0.784329 0.800046 0.770718
0.801236 0.810056 0.788388
0.816281 0.819333 0.803647
0.829404 0.827878 0.816403
0.840940 0.835813 0.826993
0.850919 0.843107 0.835569
0.859525 0.849760 0.842496
0.866880 0.855741 0.847990
0.873136 0.861082 0.852293
0.878325 0.865751 0.855619
0.882719 0.869780 0.858183
0.886534 0.873533 0.860197
0.887022 0.873106 0.859220
0.886625 0.870726 0.856931
0.886503 0.867521 0.854032
0.886870 0.863706 0.850401
0.888060 0.859495 0.846036
0.890318 0.855100 0.841093
0.893492 0.850095 0.835019
0.796597 0.825589 0.805753
0.796597 0.825589 0.805753
0.796475 0.825406 0.805509
0.796323 0.825040 0.805051
0.796017 0.824491 0.804288
0.795712 0.823758 0.803311
0.795438 0.822843 0.802090
0.795071 0.821653 0.800504
0.794766 0.820249 0.798581
0.794461 0.818601 0.796384
0.794095 0.816648 0.793668
0.793698 0.814267 0.790341
0.793179 0.811460 0.786374
0.792477 0.808103 0.781521
