20 Preset/Bright-Style/【3】LUT video cho PR-AE-FCPX/Tone  (5).cube
# Created by Adobe Lightroom plugin Export LUT (1.24.0)
# www.johnrellis.com/lightroom/exportlut.htm
# Preset: 明亮奶油-素材江湖03
# Color profile: E:\lut插件\exportlut.1.24\exportlut.lrplugin\color profiles\Rec709gamma2.4.icc
LUT_3D_SIZE 8
DOMAIN_MIN 0.000000 0.000000 0.000000
DOMAIN_MAX 0.903226 0.903226 0.903226
0.000000 0.000000 0.000000
0.123262 0.000000 0.001129
0.436133 0.000000 0.000000
0.729305 0.000000 0.000000
0.959564 0.000000 0.000000
1.000000 0.000000 0.000000
1.000000 0.000000 0.000000
1.000000 0.000000 0.083711
0.035462 0.096040 0.017365
0.099001 0.088533 0.035370
0.369848 0.140688 0.000000
0.676631 0.017456 0.000000
0.919585 0.000000 0.000000
1.000000 0.000000 0.000000
1.000000 0.000000 0.000000
1.000000 0.000000 0.085725
0.274022 0.443854 0.102632
0.371649 0.439490 0.057404
0.437659 0.389166 0.200778
0.632471 0.389929 0.118715
0.886076 0.381781 0.000000
1.000000 0.327703 0.000000
1.000000 0.274937 0.151064
1.000000 0.226780 0.219669
0.590326 0.788510 0.450874
0.632166 0.783291 0.437049
0.723262 0.763363 0.435981
0.801450 0.741878 0.533806
0.893492 0.675685 0.443397
0.973968 0.589319 0.352300
1.000000 0.538262 0.347692
1.000000 0.493660 0.365820
0.742367 0.882444 0.651484
0.756130 0.881041 0.646937
0.809384 0.876493 0.636988
0.854643 0.863890 0.648371
0.889097 0.844419 0.698939
0.937072 0.794888 0.631281
0.981933 0.717281 0.536584
1.000000 0.683589 0.530144
0.820127 0.926482 0.752712
0.829587 0.928161 0.755520
0.855131 0.926329 0.747463
0.883818 0.919585 0.742580
0.911101 0.908904 0.757076
0.930327 0.896269 0.788876
0.961120 0.868193 0.751186
0.999145 0.825315 0.698329
0.857847 0.957763 0.799985
0.861631 0.957824 0.799191
0.875486 0.956329 0.792569
0.902007 0.953002 0.780850
0.922545 0.945647 0.793210
0.943877 0.937591 0.811215
0.956695 0.926970 0.833433
0.979278 0.907652 0.809689
0.865904 0.978454 0.811917
0.868620 0.978271 0.811795
0.880369 0.977600 0.811612
0.903746 0.976440 0.811368
0.928466 0.971221 0.812650
0.948486 0.965698 0.825986
0.967346 0.958953 0.841611
0.977173 0.948272 0.859098
0.000946 0.018402 0.050507
0.107851 0.000000 0.074983
0.385962 0.000000 0.000000
0.648829 0.000000 0.000000
0.899962 0.000000 0.000000
1.000000 0.000000 0.000000
1.000000 0.000000 0.000000
1.000000 0.000000 0.000000
0.000000 0.082002 0.080049
0.097810 0.092927 0.089082
0.338659 0.131930 0.020172
0.627436 0.159701 0.000000
0.883299 0.000000 0.000000
1.000000 0.000000 0.000000
1.000000 0.000000 0.000000
1.000000 0.000000 0.000671
0.229557 0.402106 0.200656
0.330053 0.403510 0.191470
0.413977 0.371618 0.233433
0.601343 0.377478 0.114595
0.842710 0.375677 0.000000
1.000000 0.330663 0.000000
1.000000 0.270420 0.096620
1.000000 0.210452 0.185183
0.540124 0.744900 0.441444
0.585046 0.742153 0.433387
0.688869 0.729091 0.436896
0.757351 0.696345 0.483131
0.855680 0.635401 0.384985
0.940887 0.559075 0.302586
1.000000 0.513725 0.300877
1.000000 0.471199 0.328344
0.736965 0.875639 0.660761
0.749172 0.873686 0.655177
0.802152 0.868467 0.642023
0.843656 0.853391 0.647120
0.876951 0.829374 0.673610
0.929015 0.781155 0.607904
0.974914 0.702815 0.512200
1.000000 0.669062 0.506920
0.816617 0.922118 0.755673
0.822782 0.921843 0.754391
0.848569 0.920409 0.747921
0.879515 0.914824 0.744717
0.906432 0.903868 0.747463
0.927276 0.892454 0.782712
0.958770 0.864073 0.744564
0.996887 0.819089 0.688716
0.856443 0.954955 0.803037
0.858976 0.954253 0.801022
0.872618 0.952728 0.794858
0.900175 0.950103 0.784421
0.919585 0.942809 0.788785
0.941192 0.934783 0.807187
0.953674 0.923613 0.829160
0.976226 0.903502 0.804105
0.864347 0.977173 0.811490
0.866728 0.977142 0.810300
0.878355 0.976471 0.809842
0.901976 0.975341 0.809689
0.929320 0.972198 0.813840
0.948608 0.965972 0.826230
0.967041 0.958648 0.841215
0.976837 0.947936 0.858732
0.000000 0.095399 0.168368
0.031250 0.037751 0.194095
0.375677 0.000000 0.268132
0.699947 0.000000 0.238590
0.910704 0.000000 0.000000
1.000000 0.000000 0.000000
1.000000 0.000000 0.000000
1.000000 0.000000 0.086397
0.002136 0.120333 0.154757
0.055055 0.115694 0.194553
0.392401 0.000000 0.253056
0.664759 0.000000 0.176455
0.887938 0.000000 0.007813
1.000000 0.000000 0.000000
1.000000 0.000000 0.000000
1.000000 0.000000 0.101106
0.000000 0.348852 0.328923
0.194766 0.350256 0.319524
0.378027 0.354192 0.323888
0.610651 0.353063 0.242924
0.855955 0.360571 0.184390
1.000000 0.350652 0.125399
1.000000 0.313695 0.135775
1.000000 0.249882 0.201572
0.504448 0.724605 0.550103
0.551293 0.726619 0.551965
0.682704 0.725612 0.551141
0.751644 0.709834 0.593530
0.841276 0.635187 0.447486
0.942473 0.570764 0.342138
1.000000 0.530785 0.321172
1.000000 0.485145 0.343389
0.742641 0.868650 0.717250
0.753841 0.868070 0.715480
0.802579 0.866514 0.709987
0.847288 0.857206 0.714992
0.876799 0.840360 0.730861
0.925750 0.786618 0.630426
0.975128 0.707485 0.518730
1.000000 0.672297 0.511406
0.827176 0.920592 0.792660
0.832670 0.920684 0.792355
0.853819 0.919615 0.788174
0.884825 0.915465 0.783841
0.906828 0.905638 0.784695
0.925231 0.892882 0.793423
0.957946 0.862486 0.741939
0.997192 0.818662 0.688228
0.867552 0.957336 0.832273
0.869810 0.956725 0.830808
0.881132 0.955108 0.825803
0.906828 0.952850 0.817044
0.923735 0.945312 0.812924
0.941253 0.934844 0.808774
0.954437 0.924346 0.830442
0.977935 0.904936 0.805997
0.874907 0.979156 0.838193
0.876585 0.978790 0.836820
0.884855 0.977783 0.831907
0.903380 0.976257 0.821714
0.928344 0.972259 0.813138
0.948302 0.966308 0.826108
0.967163 0.959014 0.841428
0.977111 0.948150 0.859159
0.000000 0.157626 0.298619
0.000000 0.125582 0.325292
0.365301 0.000000 0.440864
0.690394 0.000000 0.478401
0.945556 0.000000 0.408057
1.000000 0.000000 0.281895
1.000000 0.000000 0.168612
1.000000 0.000000 0.131014
0.000000 0.180453 0.304479
0.000000 0.164614 0.334600
0.358648 0.000000 0.439612
0.704646 0.000000 0.473091
0.939147 0.000000 0.389380
1.000000 0.000000 0.263890
1.000000 0.000000 0.185977
1.000000 0.000000 0.152163
0.000000 0.285618 0.333074
0.127016 0.287175 0.333715
0.303227 0.307652 0.401312
0.684718 0.203128 0.422095
0.883726 0.000000 0.323156
1.000000 0.156771 0.292821
1.000000 0.248264 0.284306
1.000000 0.244938 0.244968
0.382452 0.679316 0.636866
0.427588 0.674891 0.628595
0.544244 0.656275 0.593988
0.689265 0.662287 0.617243
0.789456 0.574151 0.474861
0.941924 0.549737 0.433722
1.000000 0.518975 0.400153
1.000000 0.479652 0.358129
0.720546 0.858610 0.760952
0.730037 0.856809 0.759518
0.779965 0.854795 0.763912
0.842435 0.854765 0.769863
0.871397 0.848447 0.788693
0.907317 0.788357 0.683558
0.970123 0.714931 0.573175
1.000000 0.671992 0.519402
0.839872 0.921019 0.837064
0.846799 0.923003 0.839872
0.861967 0.922179 0.837308
0.895476 0.921813 0.834257
0.912779 0.913848 0.835203
0.926085 0.903990 0.840940
0.951781 0.869017 0.774502
0.998810 0.816068 0.685328
0.877409 0.960632 0.866911
0.880064 0.960693 0.866697
0.890654 0.960296 0.864775
0.912535 0.959319 0.860533
0.934234 0.954253 0.855955
0.947814 0.944518 0.853025
0.956420 0.930266 0.851011
0.979370 0.904570 0.805325
0.888457 0.984039 0.874998
0.890043 0.983795 0.874235
0.897063 0.982940 0.871000
0.912261 0.981262 0.864256
0.937926 0.977966 0.851438
0.950347 0.969177 0.840238
0.966918 0.959442 0.841245
0.977600 0.948547 0.859831
0.000000 0.231510 0.432044
0.000000 0.208530 0.457282
0.249973 0.091829 0.545556
0.705257 0.000000 0.686397
0.926726 0.000000 0.636103
1.000000 0.000000 0.519860
1.000000 0.000000 0.414191
1.000000 0.000000 0.341863
0.000000 0.240970 0.445686
0.000000 0.225772 0.467292
0.242649 0.172061 0.544579
0.700374 0.000000 0.683009
0.928893 0.000000 0.630579
1.000000 0.000000 0.512474
1.000000 0.000000 0.411261
1.000000 0.000000 0.344610
0.000000 0.294865 0.382696
0.000000 0.307652 0.407721
0.229526 0.323705 0.509606
0.661524 0.309667 0.661036
0.914549 0.000000 0.601801
1.000000 0.000000 0.486702
1.000000 0.000000 0.405005
1.000000 0.000000 0.346899
0.218906 0.509819 0.547753
0.262547 0.509667 0.546593
0.378943 0.508751 0.541741
0.570459 0.542687 0.605463
0.833280 0.473365 0.563317
0.958618 0.422522 0.493050
1.000000 0.430426 0.471015
1.000000 0.409430 0.439673
0.651362 0.825742 0.791318
0.666957 0.825589 0.790463
0.710811 0.820218 0.780697
0.764187 0.804715 0.758022
0.829007 0.811124 0.777310
0.858640 0.721096 0.648829
0.973083 0.689631 0.607477
1.000000 0.646754 0.564324
0.805142 0.905272 0.842496
0.810422 0.905211 0.842985
0.826658 0.903197 0.841733
0.861662 0.902831 0.844541
0.898283 0.903288 0.848692
0.918578 0.903288 0.863737
0.938201 0.861631 0.791958
0.988861 0.805325 0.704005
0.869291 0.959472 0.887480
0.873625 0.959167 0.888914
0.885405 0.958740 0.890379
0.904479 0.959442 0.888853
0.937163 0.959472 0.885924
0.950652 0.951171 0.884764
0.958923 0.939849 0.885008
0.975128 0.906554 0.825895
0.892882 0.987091 0.905669
0.894133 0.986908 0.905058
0.900023 0.986236 0.902800
0.914824 0.985840 0.900420
0.937102 0.983734 0.893126
0.958404 0.978088 0.883940
0.970733 0.966979 0.873747
0.976410 0.947173 0.858762
0.000000 0.331212 0.585473
0.000000 0.316716 0.602411
0.000000 0.239933 0.658900
0.538964 0.070069 0.743526
0.896727 0.000000 0.819089
1.000000 0.000000 0.726741
1.000000 0.000000 0.598505
1.000000 0.000000 0.507347
0.000000 0.314336 0.587091
0.000000 0.301213 0.599420
0.000000 0.252079 0.648646
0.526055 0.178958 0.731258
0.884428 0.000000 0.808530
1.000000 0.000000 0.718013
1.000000 0.000000 0.593652
1.000000 0.000000 0.505486
0.000000 0.374975 0.541100
0.000000 0.379919 0.557855
0.165805 0.372930 0.624872
0.505303 0.357977 0.715328
0.866423 0.283726 0.798978
1.000000 0.000000 0.707332
1.000000 0.000000 0.594263
1.000000 0.000000 0.517967
0.123384 0.470924 0.552880
0.165530 0.465461 0.546563
0.258061 0.444434 0.522728
0.484871 0.524468 0.678035
0.831296 0.583246 0.787747
0.993378 0.492164 0.709285
1.000000 0.406439 0.620752
1.000000 0.349310 0.564904
0.458381 0.701411 0.717708
0.476753 0.701625 0.717281
0.539757 0.701808 0.714931
0.618860 0.696376 0.705959
0.748989 0.715053 0.741238
0.894316 0.647272 0.681880
0.995605 0.613703 0.643366
1.000000 0.591455 0.619471
0.772030 0.891661 0.866361
0.782498 0.893706 0.869108
0.806516 0.894621 0.870054
0.833494 0.891051 0.863645
0.861997 0.882231 0.851102
0.899596 0.888304 0.865507
0.916655 0.816892 0.764645
1.000000 0.787747 0.729213
0.852598 0.952758 0.904509
0.856565 0.953674 0.905669
0.869444 0.955138 0.907652
0.891295 0.957733 0.910735
0.922606 0.960052 0.915007
0.953735 0.959442 0.915007
0.964874 0.952209 0.918395
0.972168 0.908934 0.851347
0.867765 0.984924 0.913603
0.870726 0.985077 0.914305
0.884337 0.986481 0.918578
0.910765 0.989410 0.928588
0.936553 0.989258 0.932616
0.963928 0.987304 0.926055
0.978546 0.979919 0.919402
0.984741 0.965606 0.910674
0.000000 0.442145 0.714107
0.000000 0.438819 0.720577
0.000000 0.381353 0.751034
0.418097 0.323003 0.801419
0.739101 0.113375 0.859800
1.000000 0.000000 0.890135
1.000000 0.000000 0.779995
1.000000 0.000000 0.651179
0.000000 0.426337 0.705501
0.000000 0.419013 0.716457
0.000000 0.357977 0.746975
0.421088 0.311040 0.793759
0.727871 0.187106 0.849638
0.995697 0.000000 0.881102
1.000000 0.000000 0.771664
1.000000 0.000000 0.645136
0.000000 0.462684 0.693111
0.000000 0.462959 0.701320
0.147982 0.436805 0.728756
0.411536 0.403998 0.777279
0.711666 0.373022 0.837888
0.980591 0.185794 0.875151
1.000000 0.000000 0.769436
1.000000 0.000000 0.653254
0.000000 0.492317 0.619074
0.000000 0.494636 0.626642
0.228031 0.510277 0.665095
0.418341 0.523766 0.740749
0.686946 0.551659 0.816648
0.945129 0.535393 0.865843
1.000000 0.411505 0.775448
1.000000 0.322148 0.680720
0.283207 0.631067 0.701717
0.292912 0.626062 0.696742
0.336706 0.610376 0.681239
0.386084 0.570733 0.643885
0.619135 0.642451 0.757748
0.889281 0.698543 0.844907
1.000000 0.637415 0.780911
1.000000 0.578637 0.718776
0.582910 0.803494 0.811124
0.593072 0.804013 0.811368
0.628412 0.804593 0.811063
0.680232 0.803128 0.808316
0.727169 0.790433 0.794766
0.824155 0.803891 0.821653
0.942382 0.762814 0.786069
1.000000 0.726162 0.752468
0.801602 0.929992 0.908263
0.807736 0.931090 0.909758
0.828367 0.934356 0.914275
0.862394 0.941955 0.923888
0.893706 0.944640 0.925109
0.917205 0.936858 0.914061
0.949737 0.941405 0.924041
0.960143 0.877043 0.837919
0.836728 0.977600 0.930266
0.840818 0.978149 0.931151
0.858091 0.980682 0.935332
0.887114 0.984375 0.942107
0.925475 0.988556 0.952392
0.964111 0.991577 0.965942
0.985199 0.990478 0.963409
0.992035 0.983337 0.960296
0.295232 0.568872 0.816861
0.297978 0.570001 0.817594
0.297276 0.546471 0.823972
0.381231 0.487709 0.851133
0.600549 0.429267 0.883696
0.856016 0.237003 0.922240
1.000000 0.000000 0.941100
1.000000 0.000000 0.824949
0.272557 0.559747 0.811002
0.276188 0.561181 0.811948
0.284459 0.536767 0.821530
0.376928 0.478492 0.848142
0.599451 0.419593 0.881254
0.856504 0.219364 0.920317
1.000000 0.000000 0.937621
1.000000 0.000000 0.821073
0.265385 0.557092 0.809232
0.266758 0.555383 0.810117
0.283024 0.525597 0.821775
0.396765 0.486488 0.848783
0.604517 0.446845 0.878019
0.847562 0.346075 0.914153
1.000000 0.000000 0.932586
1.000000 0.000000 0.817502
0.187167 0.584924 0.765530
0.221592 0.586297 0.770321
0.320195 0.587366 0.786313
0.427832 0.573968 0.819486
0.591211 0.554040 0.858244
0.821103 0.536919 0.899962
1.000000 0.413977 0.924468
1.000000 0.000000 0.820523
0.171176 0.627436 0.738918
0.189334 0.625483 0.737301
0.217411 0.607477 0.722164
0.367864 0.615930 0.752316
0.555535 0.634211 0.816281
0.773068 0.657710 0.874479
0.982727 0.640742 0.911620
1.000000 0.543664 0.837278
0.392798 0.743801 0.804440
0.397650 0.741421 0.802213
0.422248 0.733333 0.794675
0.462806 0.716945 0.779965
0.486061 0.674372 0.745022
0.702358 0.728695 0.831418
0.936400 0.799496 0.908232
1.000000 0.751766 0.864927
0.598474 0.862425 0.871427
0.607294 0.862608 0.871458
0.641474 0.863645 0.871794
0.698054 0.866239 0.873167
0.756954 0.867002 0.872709
0.795773 0.855100 0.860594
0.866117 0.858122 0.876768
0.987182 0.844358 0.870420
0.730068 0.953643 0.928801
0.737819 0.953887 0.929503
0.768246 0.955810 0.933165
0.815915 0.961364 0.941588
0.870146 0.971405 0.955108
0.932006 0.983948 0.972656
0.966613 0.984771 0.973541
0.987579 0.983978 0.976471
