20 Preset/Bright-Style/【3】LUT video cho PR-AE-FCPX/Tone  (5).cube
# Created by Adobe Lightroom plugin Export LUT (1.24.0)
# www.johnrellis.com/lightroom/exportlut.htm
# Preset: 明亮奶油-素材江湖03
# Color profile: E:\lut插件\exportlut.1.24\exportlut.lrplugin\color profiles\Rec709gamma2.4.icc
LUT_3D_SIZE 32
DOMAIN_MIN 0.0 0.0 0.0
DOMAIN_MAX 1.0 1.0 1.0
0.000000 0.000000 0.000000
0.003967 0.000000 0.000000
0.018860 0.000000 0.000916
0.061860 0.000000 0.000580
0.123262 0.000000 0.001129
0.186801 0.000000 0.000000
0.269200 0.000000 0.000000
0.354376 0.000000 0.000000
0.436133 0.000000 0.000000
0.513939 0.000000 0.000000
0.588190 0.000000 0.000000
0.660212 0.000000 0.000000
0.729305 0.000000 0.000000
0.793362 0.000000 0.000000
0.849119 0.000000 0.000000
0.902831 0.000000 0.000000
0.959564 0.000000 0.000000
1.000000 0.000000 0.000000
1.000000 0.000000 0.000000
1.000000 0.000000 0.000000
1.000000 0.000000 0.000000
1.000000 0.000000 0.000000
1.000000 0.000000 0.000000
1.000000 0.000000 0.000000
1.000000 0.000000 0.000000
1.000000 0.000000 0.000000
1.000000 0.000000 0.000000
1.000000 0.000000 0.000000
1.000000 0.000000 0.083711
1.000000 0.000000 0.120943
1.000000 0.000000 0.150759
1.000000 0.000000 0.177951
0.000977 0.000977 0.000977
0.000977 0.000977 0.000977
0.015442 0.001587 0.000610
0.056733 0.000275 0.001099
0.120363 0.000000 0.001556
0.181643 0.000000 0.000000
0.261509 0.000000 0.000000
0.346136 0.000000 0.000000
0.426368 0.000000 0.000000
0.503349 0.000000 0.000000
0.577630 0.000000 0.000000
0.649622 0.000000 0.000000
0.718624 0.000000 0.000000
0.783139 0.000000 0.000000
0.840024 0.000000 0.000000
0.894621 0.000000 0.000000
0.950317 0.000000 0.000000
0.993256 0.000000 0.000000
1.000000 0.000000 0.000000
1.000000 0.000000 0.000000
1.000000 0.000000 0.000000
1.000000 0.000000 0.000000
1.000000 0.000000 0.000000
1.000000 0.000000 0.000000
1.000000 0.000000 0.000000
1.000000 0.000000 0.000000
1.000000 0.000000 0.000000
1.000000 0.000000 0.000000
1.000000 0.000000 0.049470
1.000000 0.000000 0.109590
1.000000 0.000000 0.141451
1.000000 0.000000 0.169863
0.003052 0.008484 0.003296
0.005035 0.008270 0.003296
0.008698 0.007813 0.004395
0.037903 0.013428 0.006470
0.110231 0.019654 0.005463
0.170291 0.015381 0.002502
0.248966 0.000000 0.000000
0.333227 0.000000 0.000000
0.414557 0.000000 0.000000
0.492348 0.000000 0.000000
0.567224 0.000000 0.000000
0.639582 0.000000 0.000000
0.708766 0.000000 0.000000
0.773892 0.000000 0.000000
0.831510 0.000000 0.000000
0.888457 0.000000 0.000000
0.942351 0.000000 0.000000
0.985412 0.000000 0.000000
1.000000 0.000000 0.000000
1.000000 0.000000 0.000000
1.000000 0.000000 0.000000
1.000000 0.000000 0.000000
1.000000 0.000000 0.000000
1.000000 0.000000 0.000000
1.000000 0.000000 0.000000
1.000000 0.000000 0.000000
1.000000 0.000000 0.000000
1.000000 0.000000 0.000000
1.000000 0.000000 0.042420
1.000000 0.000000 0.106966
1.000000 0.000000 0.139498
1.000000 0.000000 0.167971
0.012848 0.031800 0.008972
0.016114 0.032563 0.008789
0.025727 0.031434 0.009888
0.033906 0.028138 0.014710
0.098939 0.053651 0.016236
0.152743 0.073915 0.011292
0.230076 0.086580 0.000000
0.315007 0.084260 0.000000
0.398352 0.046632 0.000000
0.477943 0.000000 0.000000
0.554253 0.000000 0.000000
0.627222 0.000000 0.000000
0.696773 0.000000 0.000000
0.762448 0.000000 0.000000
0.820951 0.000000 0.000000
0.880186 0.000000 0.000000
0.931426 0.000000 0.000000
0.972900 0.000000 0.000000
1.000000 0.000000 0.000000
1.000000 0.000000 0.000000
1.000000 0.000000 0.000000
1.000000 0.000000 0.000000
1.000000 0.000000 0.000000
1.000000 0.000000 0.000000
1.000000 0.000000 0.000000
1.000000 0.000000 0.000000
1.000000 0.000000 0.000000
1.000000 0.000000 0.000000
1.000000 0.000000 0.058473
1.000000 0.000000 0.112673
1.000000 0.000000 0.143496
1.000000 0.000000 0.170809
0.035462 0.096040 0.017365
0.040711 0.096223 0.017182
0.074342 0.096071 0.016602
0.091493 0.093324 0.022736
0.099001 0.088533 0.035370
0.145968 0.107149 0.036500
0.197726 0.118593 0.024231
0.283116 0.134249 0.000000
0.369848 0.140688 0.000000
0.452094 0.137545 0.000000
0.530419 0.124483 0.000000
0.605463 0.099916 0.000000
0.676631 0.017456 0.000000
0.744564 0.000000 0.000000
0.805783 0.000000 0.000000
0.868956 0.000000 0.000000
0.919585 0.000000 0.000000
0.962066 0.000000 0.000000
0.998047 0.000000 0.000000
1.000000 0.000000 0.000000
1.000000 0.000000 0.000000
1.000000 0.000000 0.000000
1.000000 0.000000 0.000000
1.000000 0.000000 0.000000
1.000000 0.000000 0.000000
1.000000 0.000000 0.000000
1.000000 0.000000 0.000000
1.000000 0.000000 0.000000
1.000000 0.000000 0.085725
1.000000 0.000000 0.122255
1.000000 0.000000 0.150881
1.000000 0.000000 0.177157
0.089326 0.151431 0.028931
0.094392 0.151736 0.028412
0.111879 0.151614 0.027436
0.133333 0.149996 0.031434
0.143740 0.143252 0.049928
0.151705 0.135439 0.077974
0.217685 0.164034 0.066835
0.268742 0.172030 0.036988
0.339300 0.183871 0.000000
0.425696 0.194766 0.000000
0.507713 0.197848 0.000000
0.585840 0.194644 0.000000
0.659815 0.186557 0.000000
0.729580 0.172396 0.000000
0.799802 0.153628 0.000000
0.861265 0.122621 0.000000
0.911986 0.051148 0.000000
0.955047 0.000000 0.000000
0.991791 0.000000 0.000000
1.000000 0.000000 0.000000
1.000000 0.000000 0.000000
1.000000 0.000000 0.000000
1.000000 0.000000 0.000000
1.000000 0.000000 0.000000
1.000000 0.000000 0.004791
1.000000 0.000000 0.084962
1.000000 0.000000 0.117220
1.000000 0.000000 0.141909
1.000000 0.000000 0.164920
1.000000 0.000000 0.186069
1.000000 0.000000 0.206546
1.000000 0.000000 0.226017
0.148318 0.257725 0.006897
0.152804 0.257694 0.006500
0.175967 0.257755 0.003601
0.213779 0.257511 0.000000
0.229099 0.248508 0.029511
0.242588 0.236118 0.077363
0.252720 0.223209 0.107851
0.331762 0.255863 0.103182
0.379919 0.255131 0.057710
0.416388 0.247959 0.010651
0.504784 0.261814 0.000000
0.588617 0.268376 0.000000
0.666133 0.268589 0.000000
0.747463 0.267460 0.000000
0.821378 0.261112 0.000000
0.879881 0.247776 0.000000
0.927977 0.229892 0.000000
0.968505 0.208591 0.000000
1.000000 0.184360 0.000000
1.000000 0.157076 0.000000
1.000000 0.123476 0.000000
1.000000 0.070466 0.000000
1.000000 0.000000 0.000000
1.000000 0.000000 0.000000
1.000000 0.000000 0.049836
1.000000 0.000000 0.106844
1.000000 0.000000 0.133333
1.000000 0.000000 0.156039
1.000000 0.000000 0.176883
1.000000 0.000000 0.196170
1.000000 0.000000 0.215427
1.000000 0.000000 0.234073
0.205600 0.350042 0.008637
0.210971 0.349615 0.005341
0.234348 0.349767 0.000000
0.272068 0.348730 0.000000
0.299657 0.342840 0.000000
0.316777 0.331487 0.066682
0.331609 0.317449 0.110445
0.344549 0.304448 0.146609
0.422522 0.335698 0.150851
0.468635 0.330602 0.113985
0.501549 0.318456 0.072847
0.552605 0.315770 0.000000
0.645136 0.329808 0.000000
0.729732 0.336370 0.000000
0.800351 0.334112 0.000000
0.857969 0.325444 0.000000
0.906432 0.312627 0.000000
0.948272 0.297826 0.000000
0.984924 0.281529 0.000000
1.000000 0.264012 0.000000
1.000000 0.246403 0.000000
1.000000 0.229313 0.000000
1.000000 0.212345 0.000000
1.000000 0.195926 0.054536
1.000000 0.178622 0.109346
1.000000 0.160403 0.135897
1.000000 0.141329 0.157534
1.000000 0.119509 0.176547
1.000000 0.099001 0.195132
1.000000 0.065095 0.213016
1.000000 0.024811 0.230869
1.000000 0.001740 0.248539
0.274022 0.443854 0.102632
0.278996 0.443793 0.100862
0.297917 0.443488 0.094636
0.332250 0.442512 0.081575
0.371649 0.439490 0.057404
0.389960 0.428351 0.094362
0.407630 0.415869 0.130037
0.423316 0.401343 0.162142
0.437659 0.389166 0.200778
0.514397 0.420050 0.214206
0.567010 0.417975 0.179751
0.605951 0.407019 0.148898
0.632471 0.389929 0.118715
0.705776 0.395544 0.072847
0.777096 0.397131 0.000000
0.836088 0.391485 0.000000
0.886076 0.381781 0.000000
0.929442 0.369482 0.000000
0.967712 0.355932 0.000000
1.000000 0.341619 0.000000
1.000000 0.327703 0.000000
1.000000 0.314000 0.043244
1.000000 0.300389 0.100160
1.000000 0.287663 0.128023
1.000000 0.274937 0.151064
1.000000 0.261936 0.170230
1.000000 0.249332 0.187442
1.000000 0.237369 0.203555
1.000000 0.226780 0.219669
1.000000 0.217594 0.235660
1.000000 0.210239 0.251835
1.000000 0.205295 0.268132
0.346319 0.536919 0.173709
0.350561 0.536461 0.172427
0.365606 0.535607 0.168673
0.395178 0.534691 0.162570
0.437293 0.532464 0.150210
0.459998 0.523766 0.156710
0.478584 0.511284 0.169924
0.496773 0.498146 0.193545
0.519677 0.490730 0.227176
0.542016 0.485664 0.270726
0.620325 0.519219 0.293889
0.663111 0.507774 0.255192
0.693355 0.488624 0.220554
0.713680 0.464881 0.188266
0.743709 0.448554 0.160555
0.808133 0.448341 0.139895
0.862669 0.442786 0.125887
0.909728 0.433509 0.118166
0.950347 0.422553 0.117678
0.985809 0.410132 0.122744
1.000000 0.397131 0.132448
1.000000 0.383764 0.143954
1.000000 0.370733 0.157626
1.000000 0.357885 0.172274
1.000000 0.345342 0.186831
1.000000 0.332708 0.200839
1.000000 0.321263 0.214664
1.000000 0.310491 0.228855
1.000000 0.301244 0.243473
1.000000 0.293645 0.258640
1.000000 0.287358 0.273899
1.000000 0.282994 0.289586
0.413336 0.617639 0.239109
0.417029 0.617639 0.238499
0.430060 0.618280 0.236851
0.456428 0.619165 0.234012
0.495705 0.620447 0.228489
0.531914 0.619348 0.228428
0.554711 0.613214 0.239292
0.578393 0.605432 0.252750
0.601221 0.596735 0.273838
0.621912 0.586633 0.303197
0.640589 0.578363 0.343847
0.703487 0.601831 0.371069
0.737697 0.583703 0.329717
0.762264 0.559564 0.292607
0.779751 0.532769 0.258762
0.792233 0.506218 0.229099
0.836301 0.497322 0.211765
0.886046 0.491127 0.202304
0.928710 0.481941 0.197086
0.965789 0.470741 0.195804
0.997955 0.458442 0.197574
1.000000 0.445930 0.202518
1.000000 0.433417 0.209964
1.000000 0.421027 0.219211
1.000000 0.408881 0.229282
1.000000 0.397101 0.239689
1.000000 0.386023 0.250797
1.000000 0.375616 0.262394
1.000000 0.366583 0.274784
1.000000 0.359136 0.288151
1.000000 0.353185 0.302068
1.000000 0.348669 0.316564
0.492439 0.704158 0.327276
0.494850 0.704219 0.327031
0.505882 0.704097 0.325933
0.526055 0.704036 0.323430
0.557458 0.703761 0.318944
0.598169 0.703334 0.312871
0.618738 0.698177 0.319738
0.640772 0.691524 0.328466
0.663325 0.683436 0.338689
0.684993 0.674769 0.356786
0.704433 0.665370 0.382452
0.720302 0.656367 0.420661
0.812222 0.720150 0.518181
0.837797 0.695918 0.470863
0.856992 0.666133 0.426246
0.871519 0.634821 0.386023
0.882322 0.603662 0.350317
0.897887 0.578149 0.322881
0.938109 0.567529 0.313146
0.972747 0.555016 0.306828
1.000000 0.541619 0.303227
1.000000 0.527764 0.302007
1.000000 0.514061 0.302983
1.000000 0.500725 0.305882
1.000000 0.487861 0.309819
1.000000 0.475135 0.314397
1.000000 0.463325 0.319799
1.000000 0.452064 0.325994
1.000000 0.442023 0.333318
1.000000 0.433448 0.341955
1.000000 0.426307 0.351690
1.000000 0.420966 0.362768
0.590326 0.788510 0.450874
0.591791 0.788174 0.450080
0.597864 0.787198 0.447639
0.611353 0.785519 0.443305
0.632166 0.783291 0.437049
0.661250 0.780545 0.429023
0.685603 0.776089 0.426215
0.703273 0.769863 0.429725
0.723262 0.763363 0.435981
0.744503 0.757076 0.445167
0.766201 0.751827 0.466011
0.786465 0.747005 0.493477
0.801450 0.741878 0.533806
0.835019 0.751522 0.566461
0.859617 0.731838 0.525658
0.878660 0.705135 0.483284
0.893492 0.675685 0.443397
0.904845 0.645808 0.407141
0.914031 0.617304 0.375525
0.941527 0.601312 0.359686
0.973968 0.589319 0.352300
1.000000 0.576623 0.347845
1.000000 0.563714 0.345800
1.000000 0.550896 0.345983
1.000000 0.538262 0.347692
1.000000 0.525933 0.350469
1.000000 0.514366 0.354528
1.000000 0.503502 0.359533
1.000000 0.493660 0.365820
1.000000 0.485451 0.373602
1.000000 0.478492 0.382635
1.000000 0.473030 0.392645
0.639643 0.822232 0.515862
0.640070 0.821805 0.514824
0.644129 0.820523 0.511467
0.653223 0.818906 0.507256
0.667659 0.816739 0.501061
0.689418 0.814084 0.493019
0.715969 0.811215 0.485603
0.730251 0.806210 0.487343
0.747066 0.800992 0.491432
0.765713 0.796048 0.498421
0.785275 0.791348 0.508110
0.804807 0.787411 0.531090
0.821988 0.783261 0.555413
0.833188 0.777768 0.589105
0.858396 0.784054 0.617731
0.878630 0.765072 0.579248
0.895476 0.740078 0.538415
0.909667 0.712184 0.498268
0.921599 0.683955 0.461891
0.931579 0.656489 0.429725
0.944762 0.633570 0.405402
0.975708 0.622705 0.398169
1.000000 0.611017 0.393561
1.000000 0.599115 0.391363
1.000000 0.587243 0.390967
1.000000 0.575372 0.391821
1.000000 0.564019 0.393957
1.000000 0.553307 0.397314
1.000000 0.543725 0.402289
1.000000 0.535576 0.408911
1.000000 0.528740 0.416724
1.000000 0.523400 0.425971
0.681758 0.848081 0.571984
0.682399 0.847868 0.571313
0.685115 0.846952 0.568872
0.691249 0.845518 0.564996
0.701747 0.843503 0.559350
0.717311 0.841154 0.552422
0.738888 0.838895 0.545251
0.755673 0.835569 0.542840
0.769558 0.831540 0.545464
0.785122 0.827604 0.550439
0.802090 0.823789 0.557427
0.819486 0.820188 0.569390
0.835843 0.816587 0.589014
0.849729 0.812436 0.608240
0.857725 0.806363 0.635126
0.876555 0.809934 0.659419
0.893400 0.792477 0.624414
0.908202 0.769894 0.586999
0.921599 0.744747 0.549920
0.933684 0.718349 0.514153
0.944488 0.692714 0.482490
0.954528 0.668849 0.455909
0.977142 0.654780 0.443702
1.000000 0.644007 0.438972
1.000000 0.632868 0.436133
1.000000 0.621851 0.435157
1.000000 0.611200 0.435889
1.000000 0.601251 0.438331
1.000000 0.592462 0.442603
1.000000 0.585168 0.448859
1.000000 0.579309 0.456580
1.000000 0.575006 0.465827
0.715084 0.867155 0.615595
0.715785 0.867185 0.615564
0.718410 0.866789 0.614435
0.723812 0.866087 0.612268
0.732296 0.865080 0.608942
0.745022 0.863890 0.605035
0.762234 0.862730 0.600885
0.781827 0.861357 0.597253
0.793271 0.858579 0.599695
0.806027 0.855497 0.602960
0.819577 0.851957 0.607019
0.833463 0.847990 0.611383
0.847135 0.843870 0.622095
0.859464 0.839292 0.635615
0.869902 0.834104 0.648859
0.875029 0.827115 0.669368
0.889494 0.829221 0.691157
0.904021 0.813382 0.659297
0.917235 0.793393 0.625757
0.929839 0.771176 0.592493
0.941863 0.748165 0.561059
0.953399 0.725216 0.532067
0.964324 0.703426 0.506889
0.978271 0.685542 0.488930
1.000000 0.676173 0.484718
1.000000 0.666438 0.482368
1.000000 0.656947 0.481910
1.000000 0.647822 0.483009
1.000000 0.639460 0.485786
1.000000 0.632319 0.490364
1.000000 0.626307 0.496315
1.000000 0.621729 0.503777
0.742367 0.882444 0.651484
0.742824 0.882383 0.651301
0.744961 0.882139 0.650538
0.749142 0.881712 0.649042
0.756130 0.881041 0.646937
0.766201 0.880247 0.644099
0.779690 0.879393 0.640864
0.796963 0.878447 0.637049
0.809384 0.876493 0.636988
0.819638 0.873899 0.638941
0.830930 0.870939 0.641566
0.842710 0.867643 0.644404
0.854643 0.863890 0.648371
0.866270 0.860075 0.659419
0.876585 0.855802 0.670497
0.885344 0.850980 0.681392
0.889097 0.844419 0.698939
0.900542 0.845884 0.719356
0.913298 0.831876 0.690486
0.925231 0.814206 0.660395
0.937072 0.794888 0.631281
0.948669 0.774868 0.603662
0.960021 0.754788 0.578210
0.971099 0.735317 0.555596
0.981933 0.717281 0.536584
1.000000 0.707088 0.530083
1.000000 0.698939 0.528313
1.000000 0.691005 0.528405
1.000000 0.683589 0.530144
1.000000 0.677119 0.533593
1.000000 0.671687 0.538567
1.000000 0.667140 0.544427
0.768093 0.896422 0.685145
0.768826 0.896544 0.685328
0.788632 0.905852 0.708705
0.791745 0.905547 0.707637
0.796689 0.905058 0.705928
0.803616 0.904387 0.703517
0.813138 0.903563 0.700374
0.825437 0.902617 0.696834
0.838407 0.901396 0.693965
0.846067 0.899168 0.694728
0.854520 0.896605 0.695644
0.863432 0.893675 0.696712
0.872465 0.890196 0.697322
0.881682 0.886412 0.701869
0.890410 0.882383 0.709438
0.898161 0.877958 0.717037
0.904570 0.873014 0.724483
0.906584 0.866423 0.737667
0.914458 0.866331 0.753811
0.924926 0.853422 0.727230
0.935302 0.837705 0.699855
0.945953 0.820798 0.673854
0.956603 0.803220 0.649439
0.967193 0.785428 0.626673
0.977691 0.767819 0.605921
0.988037 0.751339 0.588312
1.000000 0.738613 0.577081
1.000000 0.730983 0.574426
1.000000 0.724025 0.574029
1.000000 0.717922 0.575708
1.000000 0.712795 0.579065
1.000000 0.708003 0.582910
0.794034 0.910430 0.718898
0.795743 0.911162 0.720638
0.798581 0.911833 0.722133
0.802396 0.912322 0.723049
0.807553 0.912474 0.723018
0.813718 0.912169 0.721523
0.821714 0.911559 0.719081
0.831601 0.910735 0.715877
0.844022 0.909850 0.712306
0.852323 0.908080 0.711513
0.859464 0.905821 0.712001
0.867155 0.903288 0.712551
0.875120 0.900237 0.712795
0.883238 0.896849 0.713558
0.891630 0.893462 0.720394
0.899382 0.889738 0.727352
0.906279 0.885771 0.734401
0.912200 0.881621 0.741695
0.914061 0.875853 0.754269
0.920897 0.876219 0.770504
0.930541 0.865080 0.747097
0.940368 0.851713 0.723415
0.950469 0.836942 0.700343
0.960601 0.821500 0.678553
0.970672 0.805875 0.658442
0.980804 0.790463 0.640406
0.990906 0.776150 0.625238
1.000000 0.763394 0.613519
1.000000 0.757168 0.611597
1.000000 0.752010 0.612268
1.000000 0.747158 0.613977
1.000000 0.742824 0.616754
0.807645 0.918517 0.736629
0.809262 0.919188 0.738216
0.811673 0.919860 0.739590
0.815000 0.920378 0.740505
0.819333 0.920562 0.740566
0.824521 0.920348 0.739437
0.831144 0.919860 0.737270
0.839414 0.919188 0.734554
0.849546 0.918395 0.731380
0.859861 0.917235 0.728603
0.865843 0.915221 0.728573
0.872404 0.912932 0.728725
0.879332 0.910307 0.728695
0.886503 0.907317 0.728573
0.894194 0.904326 0.733120
0.901640 0.901183 0.739376
0.908537 0.897795 0.745754
0.914733 0.894224 0.752316
0.920104 0.890593 0.759152
0.921569 0.885374 0.770687
0.927367 0.885832 0.786313
0.936126 0.875975 0.765438
0.945312 0.864317 0.744533
0.954711 0.851408 0.724056
0.964294 0.837797 0.704555
0.974029 0.823972 0.686549
0.983795 0.810666 0.670954
0.993713 0.798398 0.658228
1.000000 0.788083 0.649348
1.000000 0.781552 0.646143
1.000000 0.777401 0.646784
1.000000 0.773617 0.648524
0.820127 0.926482 0.752712
0.821317 0.927062 0.753964
0.823331 0.927581 0.754940
0.826078 0.928008 0.755581
0.829587 0.928161 0.755520
0.833951 0.927977 0.754452
0.839506 0.927581 0.752651
0.846433 0.927001 0.750271
0.855131 0.926329 0.747463
0.865476 0.925566 0.744015
0.872160 0.923980 0.743008
0.877775 0.921935 0.742885
0.883818 0.919585 0.742580
0.890166 0.916930 0.742245
0.897093 0.914275 0.745113
0.904234 0.911620 0.750881
0.911101 0.908904 0.757076
0.917601 0.906096 0.763577
0.923522 0.903288 0.770443
0.928771 0.900572 0.777707
0.930327 0.896269 0.788876
0.935546 0.897063 0.803922
0.943633 0.888640 0.785977
0.952209 0.878935 0.768307
0.961120 0.868193 0.751186
0.970275 0.856870 0.734920
0.979675 0.845579 0.720302
0.989349 0.834928 0.708003
0.999145 0.825315 0.698329
1.000000 0.817258 0.691859
1.000000 0.811582 0.689082
1.000000 0.808591 0.689479
0.836576 0.937530 0.773526
0.837095 0.937743 0.773892
0.838071 0.937865 0.774014
0.839750 0.937835 0.773648
0.842191 0.937652 0.772763
0.845579 0.937285 0.771450
0.850004 0.936828 0.769619
0.855741 0.936248 0.767330
0.862913 0.935668 0.764736
0.871763 0.935027 0.761715
0.880522 0.934051 0.759091
0.885374 0.932219 0.758694
0.890562 0.930114 0.758206
0.896117 0.927703 0.757595
0.902281 0.925292 0.759731
0.908843 0.922881 0.764706
0.915190 0.920348 0.769955
0.921355 0.917723 0.775479
0.927062 0.915038 0.781277
0.932250 0.912383 0.787350
0.936767 0.909697 0.793637
0.937804 0.905333 0.803159
0.941985 0.905669 0.816678
0.949126 0.897704 0.800046
0.957000 0.888914 0.784024
0.965393 0.879454 0.768826
0.974182 0.869718 0.754726
0.983276 0.860014 0.742123
0.992767 0.850980 0.731685
1.000000 0.843046 0.723873
1.000000 0.836576 0.718898
1.000000 0.831693 0.716701
0.844846 0.944457 0.783902
0.845212 0.944610 0.784176
0.846098 0.944701 0.784207
0.847593 0.944671 0.783902
0.849699 0.944518 0.783200
0.852628 0.944244 0.781979
0.856535 0.943847 0.780301
0.861540 0.943389 0.778317
0.867704 0.942870 0.775937
0.875425 0.942290 0.773190
0.884459 0.941619 0.769894
0.890288 0.940185 0.768582
0.894926 0.938262 0.767849
0.899931 0.936126 0.767147
0.905791 0.934051 0.769894
0.911986 0.931975 0.774472
0.918151 0.929778 0.779324
0.924132 0.927489 0.784421
0.929839 0.925139 0.789792
0.935149 0.922759 0.795377
0.940002 0.920348 0.801144
0.944244 0.917967 0.807126
0.945006 0.913817 0.815732
0.948577 0.913970 0.828336
0.953887 0.905150 0.811063
0.961273 0.897185 0.796597
0.969299 0.888853 0.783017
0.977783 0.880308 0.770596
0.986694 0.872099 0.759884
0.996124 0.864561 0.751217
1.000000 0.858122 0.745022
1.000000 0.853056 0.741421
0.854154 0.952728 0.795377
0.854673 0.952972 0.795773
0.855375 0.953033 0.795804
0.856504 0.952880 0.795224
0.858061 0.952544 0.794186
0.860288 0.952087 0.792721
0.863340 0.951476 0.790799
0.867308 0.950805 0.788479
0.872435 0.950072 0.785794
0.878752 0.949310 0.782712
0.886351 0.948425 0.779110
0.894255 0.947326 0.775662
0.898192 0.945403 0.774533
0.902556 0.943267 0.773648
0.908019 0.941283 0.777127
0.913664 0.939178 0.780911
0.919310 0.937011 0.785031
0.925017 0.934813 0.789517
0.930663 0.932647 0.794400
0.936126 0.930541 0.799680
0.941253 0.928435 0.805173
0.945830 0.926299 0.810758
0.949798 0.924010 0.816342
0.950195 0.919738 0.823972
0.953033 0.919310 0.835142
0.959014 0.912535 0.821469
0.965942 0.905272 0.808255
0.973602 0.897826 0.796078
0.981872 0.890379 0.785153
0.990723 0.883330 0.775906
1.000000 0.877073 0.768704
1.000000 0.871946 0.763851
0.857847 0.957763 0.799985
0.858274 0.957977 0.800320
0.859007 0.958068 0.800351
0.860075 0.958007 0.799954
0.861631 0.957824 0.799191
0.863828 0.957580 0.798093
0.866819 0.957214 0.796658
0.870726 0.956786 0.794766
0.875486 0.956329 0.792569
0.881376 0.955810 0.789975
0.888334 0.955169 0.786801
0.896483 0.954437 0.783108
0.902007 0.953002 0.780850
0.906737 0.951324 0.782925
0.911894 0.949554 0.786130
0.917174 0.947662 0.789517
0.922545 0.945647 0.793210
0.927977 0.943664 0.797238
0.933440 0.941650 0.801633
0.938781 0.939635 0.806332
0.943877 0.937591 0.811215
0.948608 0.935546 0.816281
0.952819 0.933410 0.821347
0.956481 0.931182 0.826474
0.956695 0.926970 0.833433
0.959045 0.926085 0.843107
0.964813 0.920256 0.831724
0.971588 0.913878 0.820066
0.979278 0.907652 0.809689
0.987549 0.901518 0.800626
0.996368 0.895903 0.793118
1.000000 0.890990 0.787472
0.861997 0.963714 0.805020
0.862303 0.963775 0.805173
0.862791 0.963806 0.805020
0.863676 0.963714 0.804562
0.865080 0.963531 0.803799
0.867033 0.963256 0.802670
0.869657 0.962921 0.801205
0.873106 0.962493 0.799374
0.877379 0.962036 0.797177
0.882628 0.961517 0.794583
0.888823 0.960906 0.791440
0.896147 0.960204 0.787686
0.905089 0.959625 0.787228
0.909789 0.958221 0.789975
0.914611 0.956603 0.792874
0.919585 0.954864 0.795956
0.924681 0.953002 0.799283
0.929900 0.951080 0.802884
0.935149 0.949187 0.806821
0.940398 0.947295 0.811063
0.945495 0.945403 0.815549
0.950317 0.943450 0.820157
0.954742 0.941436 0.824857
0.958709 0.939300 0.829557
0.962097 0.937102 0.834318
0.962066 0.932830 0.840604
0.963958 0.931426 0.849088
0.969451 0.926268 0.839322
0.976135 0.920592 0.828824
0.983856 0.915343 0.819883
0.992157 0.910338 0.812284
1.000000 0.905852 0.806180
0.863706 0.968475 0.807004
0.863920 0.968566 0.807095
0.864347 0.968566 0.806973
0.865232 0.968505 0.806546
0.866575 0.968414 0.805905
0.868528 0.968292 0.804990
0.871214 0.968231 0.803891
0.874693 0.968109 0.802518
0.878965 0.967987 0.800748
0.884062 0.967834 0.798581
0.890654 0.967742 0.798215
0.898344 0.967620 0.798489
0.906920 0.967376 0.798734
0.914946 0.966827 0.799557
0.919707 0.965606 0.802487
0.924559 0.964141 0.805447
0.929503 0.962554 0.808560
0.934539 0.960876 0.811887
0.939666 0.959167 0.815457
0.944762 0.957427 0.819303
0.949798 0.955657 0.823331
0.954650 0.953826 0.827481
0.959167 0.951904 0.831724
0.963348 0.949920 0.836027
0.967071 0.947814 0.840360
0.970245 0.945617 0.844724
0.970001 0.941222 0.850431
0.971130 0.939055 0.857420
0.976654 0.934661 0.849241
0.983307 0.929839 0.840146
0.991089 0.925628 0.832731
0.999237 0.921660 0.826535
0.866026 0.974731 0.809659
0.866148 0.974701 0.809598
0.866484 0.974670 0.809323
0.867155 0.974548 0.808835
0.868284 0.974365 0.807980
0.869871 0.974121 0.806851
0.872282 0.973907 0.805905
0.875792 0.973693 0.805814
0.880095 0.973480 0.805753
0.885191 0.973205 0.805661
0.891142 0.972900 0.805600
0.897917 0.972564 0.805539
0.905547 0.972168 0.805447
0.913970 0.971679 0.805295
