20 Preset/Journey new/XMP for PS + LR cc/Tone 4.xmp
<x:xmpmeta xmlns:x="adobe:ns:meta/" x:xmptk="Adobe XMP Core 5.6-c140 79.160451, 2017/05/06-01:08:21        ">
 <rdf:RDF xmlns:rdf="http://www.w3.org/1999/02/22-rdf-syntax-ns#">
  <rdf:Description rdf:about=""
    xmlns:crs="http://ns.adobe.com/camera-raw-settings/1.0/"
   crs:PresetType="Normal"
   crs:Cluster=""
   crs:UUID="E7B9E9C195A671438C74D9F6365BF253"
   crs:SupportsAmount="False"
   crs:SupportsColor="True"
   crs:SupportsMonochrome="True"
   crs:SupportsHighDynamicRange="True"
   crs:SupportsNormalDynamicRange="True"
   crs:SupportsSceneReferred="True"
   crs:SupportsOutputReferred="True"
   crs:CameraModelRestriction=""
   crs:Copyright=""
   crs:ContactInfo=""
   crs:Version="12.0"
   crs:ProcessVersion="10.0"
   crs:WhiteBalance="As Shot"
   crs:Saturation="-12"
   crs:Sharpness="30"
   crs:LuminanceSmoothing="0"
   crs:ColorNoiseReduction="0"
   crs:VignetteAmount="0"
   crs:ShadowTint="0"
   crs:RedHue="+18"
   crs:RedSaturation="+10"
   crs:GreenHue="-10"
   crs:GreenSaturation="+10"
   crs:BlueHue="0"
   crs:BlueSaturation="+10"
   crs:Vibrance="-8"
   crs:HueAdjustmentRed="0"
   crs:HueAdjustmentOrange="-12"
   crs:HueAdjustmentYellow="-22"
   crs:HueAdjustmentGreen="-6"
   crs:HueAdjustmentAqua="-8"
   crs:HueAdjustmentBlue="-16"
   crs:HueAdjustmentPurple="-10"
   crs:HueAdjustmentMagenta="+49"
   crs:SaturationAdjustmentRed="-10"
   crs:SaturationAdjustmentOrange="-22"
   crs:SaturationAdjustmentYellow="-31"
   crs:SaturationAdjustmentGreen="-60"
   crs:SaturationAdjustmentAqua="-43"
   crs:SaturationAdjustmentBlue="-34"
   crs:SaturationAdjustmentPurple="-10"
   crs:SaturationAdjustmentMagenta="-20"
   crs:LuminanceAdjustmentRed="0"
   crs:LuminanceAdjustmentOrange="+12"
   crs:LuminanceAdjustmentYellow="+9"
   crs:LuminanceAdjustmentGreen="0"
   crs:LuminanceAdjustmentAqua="0"
   crs:LuminanceAdjustmentBlue="+5"
   crs:LuminanceAdjustmentPurple="0"
   crs:LuminanceAdjustmentMagenta="+10"
   crs:SplitToningShadowHue="15"
   crs:SplitToningShadowSaturation="10"
   crs:SplitToningHighlightHue="224"
   crs:SplitToningHighlightSaturation="2"
   crs:SplitToningBalance="0"
   crs:ParametricShadows="-81"
   crs:ParametricDarks="+32"
   crs:ParametricLights="-23"
   crs:ParametricHighlights="-50"
   crs:ParametricShadowSplit="10"
   crs:ParametricMidtoneSplit="54"
   crs:ParametricHighlightSplit="90"
   crs:SharpenRadius="+1.2"
   crs:SharpenDetail="15"
   crs:SharpenEdgeMasking="0"
   crs:PostCropVignetteAmount="0"
   crs:GrainAmount="0"
   crs:LensManualDistortionAmount="0"
   crs:AutoLateralCA="0"
   crs:Exposure2012="0.00"
   crs:Contrast2012="+10"
   crs:Highlights2012="-35"
   crs:Shadows2012="+30"
   crs:Whites2012="-50"
   crs:Blacks2012="+80"
   crs:Clarity2012="0"
   crs:DefringePurpleAmount="0"
   crs:DefringePurpleHueLo="30"
   crs:DefringePurpleHueHi="70"
   crs:DefringeGreenAmount="0"
   crs:DefringeGreenHueLo="40"
   crs:DefringeGreenHueHi="60"
   crs:Dehaze="0"
   crs:ConvertToGrayscale="False"
   crs:OverrideLookVignette="False"
   crs:ToneCurveName2012="Custom"
   crs:CameraProfile="Embedded"
   crs:HasSettings="True"
   crs:CropConstrainToWarp="0">
   <crs:Name>
    <rdf:Alt>
     <rdf:li xml:lang="x-default">Tone 4</rdf:li>
    </rdf:Alt>
   </crs:Name>
   <crs:ShortName>
    <rdf:Alt>
     <rdf:li xml:lang="x-default"/>
    </rdf:Alt>
   </crs:ShortName>
   <crs:SortName>
    <rdf:Alt>
     <rdf:li xml:lang="x-default"/>
    </rdf:Alt>
   </crs:SortName>
   <crs:Group>
    <rdf:Alt>
     <rdf:li xml:lang="x-default">Journey</rdf:li>
    </rdf:Alt>
   </crs:Group>
   <crs:Description>
    <rdf:Alt>
     <rdf:li xml:lang="x-default"/>
    </rdf:Alt>
   </crs:Description>
   <crs:ToneCurvePV2012>
    <rdf:Seq>
     <rdf:li>0, 0</rdf:li>
     <rdf:li>60, 51</rdf:li>
     <rdf:li>132, 126</rdf:li>
     <rdf:li>189, 197</rdf:li>
     <rdf:li>255, 225</rdf:li>
    </rdf:Seq>
   </crs:ToneCurvePV2012>
   <crs:ToneCurvePV2012Red>
    <rdf:Seq>
     <rdf:li>0, 0</rdf:li>
     <rdf:li>80, 43</rdf:li>
     <rdf:li>134, 120</rdf:li>
     <rdf:li>196, 202</rdf:li>
     <rdf:li>255, 255</rdf:li>
    </rdf:Seq>
   </crs:ToneCurvePV2012Red>
   <crs:ToneCurvePV2012Green>
    <rdf:Seq>
     <rdf:li>0, 0</rdf:li>
     <rdf:li>77, 41</rdf:li>
     <rdf:li>129, 115</rdf:li>
     <rdf:li>190, 198</rdf:li>
     <rdf:li>255, 255</rdf:li>
    </rdf:Seq>
   </crs:ToneCurvePV2012Green>
   <crs:ToneCurvePV2012Blue>
    <rdf:Seq>
     <rdf:li>0, 0</rdf:li>
     <rdf:li>80, 37</rdf:li>
     <rdf:li>141, 127</rdf:li>
     <rdf:li>192, 202</rdf:li>
     <rdf:li>255, 255</rdf:li>
    </rdf:Seq>
   </crs:ToneCurvePV2012Blue>
   <crs:Look
    crs:Name=""/>
  </rdf:Description>
 </rdf:RDF>
</x:xmpmeta>
