20 Preset/Journey new/XMP for PS + LR cc/Tone 3.xmp
<x:xmpmeta xmlns:x="adobe:ns:meta/" x:xmptk="Adobe XMP Core 5.6-c140 79.160451, 2017/05/06-01:08:21        ">
 <rdf:RDF xmlns:rdf="http://www.w3.org/1999/02/22-rdf-syntax-ns#">
  <rdf:Description rdf:about=""
    xmlns:crs="http://ns.adobe.com/camera-raw-settings/1.0/"
   crs:PresetType="Normal"
   crs:Cluster=""
   crs:UUID="232C5D28EF1518459C8B6AF05A18DC43"
   crs:SupportsAmount="False"
   crs:SupportsColor="True"
   crs:SupportsMonochrome="True"
   crs:SupportsHighDynamicRange="True"
   crs:SupportsNormalDynamicRange="True"
   crs:SupportsSceneReferred="True"
   crs:SupportsOutputReferred="True"
   crs:CameraModelRestriction=""
   crs:Copyright=""
   crs:ContactInfo=""
   crs:Version="12.0"
   crs:ProcessVersion="10.0"
   crs:WhiteBalance="As Shot"
   crs:Saturation="-8"
   crs:Sharpness="30"
   crs:LuminanceSmoothing="0"
   crs:ColorNoiseReduction="0"
   crs:VignetteAmount="0"
   crs:ShadowTint="+3"
   crs:RedHue="+23"
   crs:RedSaturation="+2"
   crs:GreenHue="+36"
   crs:GreenSaturation="+8"
   crs:BlueHue="-14"
   crs:BlueSaturation="-31"
   crs:Vibrance="-6"
   crs:HueAdjustmentRed="+2"
   crs:HueAdjustmentOrange="-10"
   crs:HueAdjustmentYellow="-27"
   crs:HueAdjustmentGreen="+6"
   crs:HueAdjustmentAqua="-8"
   crs:HueAdjustmentBlue="-15"
   crs:HueAdjustmentPurple="0"
   crs:HueAdjustmentMagenta="+5"
   crs:SaturationAdjustmentRed="-27"
   crs:SaturationAdjustmentOrange="-25"
   crs:SaturationAdjustmentYellow="-36"
   crs:SaturationAdjustmentGreen="-53"
   crs:SaturationAdjustmentAqua="-36"
   crs:SaturationAdjustmentBlue="-36"
   crs:SaturationAdjustmentPurple="-12"
   crs:SaturationAdjustmentMagenta="0"
   crs:LuminanceAdjustmentRed="0"
   crs:LuminanceAdjustmentOrange="+8"
   crs:LuminanceAdjustmentYellow="+27"
   crs:LuminanceAdjustmentGreen="+10"
   crs:LuminanceAdjustmentAqua="+5"
   crs:LuminanceAdjustmentBlue="+5"
   crs:LuminanceAdjustmentPurple="0"
   crs:LuminanceAdjustmentMagenta="0"
   crs:SplitToningShadowHue="15"
   crs:SplitToningShadowSaturation="8"
   crs:SplitToningHighlightHue="228"
   crs:SplitToningHighlightSaturation="2"
   crs:SplitToningBalance="0"
   crs:ParametricShadows="-100"
   crs:ParametricDarks="+26"
   crs:ParametricLights="-15"
   crs:ParametricHighlights="-25"
   crs:ParametricShadowSplit="10"
   crs:ParametricMidtoneSplit="54"
   crs:ParametricHighlightSplit="90"
   crs:SharpenRadius="+1.2"
   crs:SharpenDetail="15"
   crs:SharpenEdgeMasking="0"
   crs:PostCropVignetteAmount="0"
   crs:GrainAmount="0"
   crs:LensManualDistortionAmount="0"
   crs:AutoLateralCA="0"
   crs:Exposure2012="0.00"
   crs:Contrast2012="+10"
   crs:Highlights2012="-30"
   crs:Shadows2012="+23"
   crs:Whites2012="-34"
   crs:Blacks2012="+80"
   crs:Clarity2012="0"
   crs:DefringePurpleAmount="0"
   crs:DefringePurpleHueLo="30"
   crs:DefringePurpleHueHi="70"
   crs:DefringeGreenAmount="0"
   crs:DefringeGreenHueLo="40"
   crs:DefringeGreenHueHi="60"
   crs:Dehaze="0"
   crs:ConvertToGrayscale="False"
   crs:OverrideLookVignette="False"
   crs:ToneCurveName2012="Custom"
   crs:CameraProfile="Embedded"
   crs:HasSettings="True"
   crs:CropConstrainToWarp="0">
   <crs:Name>
    <rdf:Alt>
     <rdf:li xml:lang="x-default">Tone 3</rdf:li>
    </rdf:Alt>
   </crs:Name>
   <crs:ShortName>
    <rdf:Alt>
     <rdf:li xml:lang="x-default"/>
    </rdf:Alt>
   </crs:ShortName>
   <crs:SortName>
    <rdf:Alt>
     <rdf:li xml:lang="x-default"/>
    </rdf:Alt>
   </crs:SortName>
   <crs:Group>
    <rdf:Alt>
     <rdf:li xml:lang="x-default">Journey</rdf:li>
    </rdf:Alt>
   </crs:Group>
   <crs:Description>
    <rdf:Alt>
     <rdf:li xml:lang="x-default"/>
    </rdf:Alt>
   </crs:Description>
   <crs:ToneCurvePV2012>
    <rdf:Seq>
     <rdf:li>0, 3</rdf:li>
     <rdf:li>81, 73</rdf:li>
     <rdf:li>132, 126</rdf:li>
     <rdf:li>201, 202</rdf:li>
     <rdf:li>255, 242</rdf:li>
    </rdf:Seq>
   </crs:ToneCurvePV2012>
   <crs:ToneCurvePV2012Red>
    <rdf:Seq>
     <rdf:li>0, 0</rdf:li>
     <rdf:li>80, 43</rdf:li>
     <rdf:li>134, 120</rdf:li>
     <rdf:li>196, 202</rdf:li>
     <rdf:li>255, 255</rdf:li>
    </rdf:Seq>
   </crs:ToneCurvePV2012Red>
   <crs:ToneCurvePV2012Green>
    <rdf:Seq>
     <rdf:li>0, 0</rdf:li>
     <rdf:li>77, 41</rdf:li>
     <rdf:li>129, 115</rdf:li>
     <rdf:li>190, 198</rdf:li>
     <rdf:li>255, 255</rdf:li>
    </rdf:Seq>
   </crs:ToneCurvePV2012Green>
   <crs:ToneCurvePV2012Blue>
    <rdf:Seq>
     <rdf:li>0, 0</rdf:li>
     <rdf:li>80, 37</rdf:li>
     <rdf:li>141, 127</rdf:li>
     <rdf:li>192, 202</rdf:li>
     <rdf:li>255, 255</rdf:li>
    </rdf:Seq>
   </crs:ToneCurvePV2012Blue>
   <crs:Look
    crs:Name=""/>
  </rdf:Description>
 </rdf:RDF>
</x:xmpmeta>
