20 Preset/Fresh Style/【3】LUT video cho PR-AE-FCPX/Tone  (3).cube
# Created by Adobe Lightroom plugin Export LUT (1.24.0)
# www.johnrellis.com/lightroom/exportlut.htm
# Preset: 03现代清新（素材江湖）
# Color profile: E:\lut插件\exportlut.1.24\exportlut.lrplugin\color profiles\Rec709gamma2.4.icc
LUT_3D_SIZE 5
DOMAIN_MIN 0.000000 0.000000 0.000000
DOMAIN_MAX 0.903226 0.903226 0.903226
0.104067 0.104067 0.104067
0.268254 0.102724 0.127779
0.648096 0.000000 0.117403
0.946197 0.000000 0.116548
1.000000 0.000000 0.208743
0.000000 0.256687 0.115450
0.227329 0.254429 0.099672
0.638148 0.315801 0.000000
0.945983 0.291814 0.000000
1.000000 0.260380 0.152468
0.000000 0.608026 0.103334
0.000000 0.596826 0.151858
0.533623 0.608301 0.000000
0.896696 0.597162 0.000000
1.000000 0.536889 0.000000
0.000000 0.830198 0.314122
0.000000 0.827665 0.335271
0.233127 0.819669 0.356237
0.711574 0.806851 0.000000
1.000000 0.766567 0.000000
0.000000 0.970367 0.461280
0.000000 0.968414 0.478157
0.219150 0.956146 0.527855
0.540459 0.954437 0.502007
0.840208 0.948669 0.293950
0.089479 0.111666 0.324376
0.282322 0.073671 0.303593
0.625147 0.000000 0.336370
0.881743 0.189883 0.379004
1.000000 0.292668 0.410651
0.000000 0.259861 0.273045
0.241428 0.249119 0.271672
0.545190 0.260777 0.299351
0.886198 0.299626 0.348699
1.000000 0.353002 0.390387
0.000000 0.566308 0.334264
0.000000 0.563622 0.318273
0.500725 0.559106 0.285252
0.863005 0.576379 0.262272
1.000000 0.545464 0.301244
0.000000 0.815183 0.449836
0.000000 0.813962 0.459419
0.408209 0.805966 0.502708
0.714534 0.795895 0.345861
1.000000 0.764279 0.000000
0.000000 0.963745 0.547539
0.000000 0.962097 0.555810
0.387457 0.956603 0.589960
0.572259 0.955169 0.540795
0.848417 0.951263 0.300389
0.000000 0.084260 0.716579
0.321569 0.001312 0.706264
0.615839 0.000000 0.670314
0.937194 0.000000 0.678065
1.000000 0.423682 0.663294
0.000000 0.314794 0.683558
0.282048 0.299840 0.675196
0.586297 0.221317 0.646784
0.909606 0.339940 0.670558
1.000000 0.519921 0.678187
0.000000 0.596887 0.629816
0.127962 0.587671 0.624231
0.558373 0.573754 0.618616
0.786343 0.612818 0.645319
0.958709 0.666438 0.688838
0.276982 0.789151 0.599878
0.390356 0.783383 0.613916
0.596918 0.774899 0.662287
0.734066 0.771542 0.646998
0.962066 0.787167 0.637232
0.520531 0.944366 0.708003
0.533074 0.944518 0.708186
0.587366 0.943603 0.713252
0.698604 0.939361 0.727230
0.873228 0.938506 0.633387
0.194430 0.214664 0.891722
0.318944 0.217105 0.889067
0.557153 0.215061 0.880888
0.798703 0.141421 0.862547
1.000000 0.362737 0.868528
0.301030 0.389441 0.880430
0.375341 0.387121 0.878325
0.565942 0.371557 0.868803
0.786038 0.316289 0.849302
1.000000 0.472450 0.863066
0.498695 0.648127 0.853269
0.542382 0.654353 0.851286
0.638392 0.647211 0.841276
0.773220 0.601923 0.826383
0.992126 0.676631 0.856748
0.415900 0.790616 0.815793
0.467353 0.787564 0.813016
0.610742 0.781064 0.807431
0.763790 0.773068 0.800992
0.927916 0.802670 0.823453
0.400244 0.941222 0.755581
0.455695 0.940154 0.762325
0.613977 0.938201 0.789914
0.788876 0.931640 0.836698
0.898405 0.929351 0.819303
0.417639 0.424903 1.000000
0.459297 0.429816 1.000000
0.586694 0.440101 1.000000
0.755581 0.444373 1.000000
0.941497 0.433753 1.000000
0.518364 0.549035 1.000000
0.544335 0.549859 1.000000
0.635798 0.549310 1.000000
0.774807 0.541558 1.000000
0.942382 0.519310 0.998260
0.669429 0.740475 0.996796
0.682033 0.739925 0.996796
0.728695 0.733272 0.995666
0.815579 0.717403 0.993408
0.941741 0.679805 0.988159
0.705470 0.846952 0.983917
0.726345 0.850797 0.983825
0.782956 0.858213 0.982788
0.847349 0.851774 0.980194
0.939422 0.819547 0.974334
0.613855 0.960571 0.971862
0.639857 0.960723 0.971984
0.718349 0.958190 0.969635
0.837919 0.956603 0.967895
0.953857 0.958038 0.968139
