20 Preset/Fresh Style/【3】LUT video cho PR-AE-FCPX/Tone  (2).cube
# Created by Adobe Lightroom plugin Export LUT (1.24.0)
# www.johnrellis.com/lightroom/exportlut.htm
# Preset: 02现代清新（素材江湖）
# Color profile: E:\lut插件\exportlut.1.24\exportlut.lrplugin\color profiles\Rec709gamma2.4.icc
LUT_3D_SIZE 8
DOMAIN_MIN 0.000000 0.000000 0.000000
DOMAIN_MAX 0.903226 0.903226 0.903226
0.104067 0.104067 0.104067
0.161929 0.107179 0.113283
0.308537 0.097658 0.120272
0.489204 0.000000 0.104341
0.691310 0.000000 0.077974
0.861845 0.000000 0.000000
0.984771 0.000000 0.000000
1.000000 0.000000 0.030274
0.090150 0.159304 0.118746
0.150454 0.162081 0.109224
0.302586 0.164797 0.110658
0.483955 0.153964 0.087587
0.686000 0.140383 0.017365
0.857359 0.110445 0.000000
0.979706 0.016358 0.000000
1.000000 0.000000 0.000000
0.000000 0.287114 0.125277
0.000000 0.282536 0.134035
0.267338 0.296178 0.026398
0.471107 0.310674 0.000000
0.680873 0.328069 0.000000
0.855375 0.320043 0.000000
0.977722 0.296635 0.000000
1.000000 0.263157 0.000000
0.000000 0.463996 0.134157
0.000000 0.461494 0.142458
0.000000 0.461921 0.134279
0.429297 0.479744 0.000000
0.659785 0.486641 0.000000
0.843626 0.489967 0.000000
0.966430 0.461860 0.000000
1.000000 0.427527 0.000000
0.000000 0.661585 0.159060
0.000000 0.660182 0.168582
0.000000 0.655482 0.203220
0.247440 0.659937 0.032532
0.587427 0.658564 0.000000
0.794827 0.627283 0.000000
0.938750 0.608545 0.000000
1.000000 0.577173 0.000000
0.000000 0.793423 0.260288
0.000000 0.793790 0.267247
0.000000 0.790768 0.292058
0.000000 0.786954 0.307713
0.411017 0.788479 0.029664
0.696254 0.780819 0.000000
0.898863 0.740993 0.000000
1.000000 0.709438 0.000000
0.000000 0.889220 0.372351
0.000000 0.888823 0.377356
0.000000 0.886442 0.394507
0.000000 0.881834 0.429023
0.276707 0.882475 0.363165
0.524956 0.883665 0.000000
0.779599 0.875395 0.000000
0.983368 0.837339 0.000000
0.000000 0.961578 0.468208
0.000000 0.961089 0.472602
0.000000 0.958831 0.491493
0.000000 0.954559 0.526665
0.404181 0.947112 0.570092
0.474861 0.952758 0.473304
0.622156 0.955322 0.258640
0.837430 0.948852 0.000000
0.112764 0.118257 0.178531
0.170077 0.110597 0.175814
0.295811 0.105165 0.175692
0.454566 0.038666 0.173861
0.662837 0.000000 0.167544
0.845029 0.000000 0.155032
0.972930 0.000000 0.143801
1.000000 0.000000 0.126986
0.102480 0.162875 0.168307
0.159457 0.160739 0.166903
0.281682 0.164401 0.173495
0.453101 0.153780 0.170779
0.661097 0.129183 0.162783
0.843748 0.087800 0.148806
0.970123 0.002991 0.137606
1.000000 0.000000 0.119478
0.088899 0.277012 0.195529
0.117433 0.275120 0.187900
0.258000 0.279911 0.162417
0.449439 0.296574 0.153536
0.659510 0.312413 0.138521
0.840299 0.307713 0.120027
0.965942 0.288518 0.110414
1.000000 0.265415 0.083680
0.000000 0.451453 0.212528
0.000000 0.450538 0.202029
0.108492 0.447608 0.211673
0.415534 0.461677 0.076539
0.642176 0.471077 0.000000
0.828122 0.479835 0.000000
0.955810 0.455024 0.000000
1.000000 0.425513 0.000000
0.000000 0.653681 0.237797
0.000000 0.652949 0.227756
0.000000 0.648188 0.253330
0.261723 0.649897 0.195590
0.579583 0.648249 0.000000
0.787106 0.619654 0.000000
0.933165 0.604028 0.000000
1.000000 0.575586 0.000000
0.000000 0.788296 0.309056
0.000000 0.787961 0.308019
0.000000 0.785214 0.329534
0.000000 0.780941 0.356420
0.420447 0.783413 0.204227
0.694057 0.776577 0.000000
0.895598 0.737484 0.000000
1.000000 0.707668 0.000000
0.000000 0.885740 0.403204
0.000000 0.885039 0.406806
0.000000 0.882628 0.422675
0.000000 0.878325 0.455024
0.324956 0.878904 0.407233
0.533410 0.880705 0.172305
0.778408 0.872709 0.000000
0.982544 0.834958 0.000000
0.000000 0.960327 0.474189
0.000000 0.959960 0.478157
0.000000 0.958068 0.491127
0.000000 0.953918 0.524834
0.407507 0.947662 0.571221
0.476234 0.952911 0.473182
0.623102 0.955169 0.255467
0.838743 0.948516 0.000000
0.108003 0.110872 0.353063
0.182071 0.105409 0.349157
0.313817 0.083497 0.331640
0.456275 0.000000 0.324163
0.646479 0.000000 0.337377
0.822446 0.000000 0.338811
0.949706 0.000000 0.339605
1.000000 0.100191 0.341863
0.107179 0.177829 0.326421
0.171054 0.174472 0.324041
0.295140 0.158206 0.314855
0.445533 0.132418 0.315618
0.638025 0.068330 0.330419
0.816281 0.000000 0.334722
0.947295 0.109377 0.337377
1.000000 0.167269 0.339513
0.026123 0.284855 0.302464
0.144045 0.282994 0.301030
0.281315 0.286351 0.306371
0.434211 0.280674 0.305974
0.627741 0.284825 0.317754
0.811734 0.290074 0.327703
0.943786 0.298192 0.334630
1.000000 0.303227 0.336004
0.000000 0.446815 0.330938
0.000000 0.445045 0.333165
0.253056 0.440803 0.335241
0.412024 0.443854 0.299260
0.629084 0.458778 0.302495
0.806119 0.468696 0.322454
0.936400 0.459144 0.328496
1.000000 0.445045 0.326940
0.000000 0.635004 0.402686
0.000000 0.634943 0.398260
0.000000 0.635004 0.382055
0.342473 0.632471 0.387884
0.573968 0.631403 0.277501
0.776272 0.609400 0.246830
0.920134 0.605097 0.300481
1.000000 0.585779 0.314153
0.000000 0.774624 0.456245
0.000000 0.774685 0.454475
0.000000 0.774411 0.447272
0.317052 0.770108 0.474830
0.475471 0.771298 0.412238
0.693294 0.766018 0.249668
0.887510 0.730648 0.123659
1.000000 0.708156 0.190219
0.000000 0.876493 0.525933
0.000000 0.876188 0.525078
0.000000 0.875242 0.523583
0.346410 0.871305 0.547509
0.473182 0.869444 0.546075
0.580957 0.873442 0.417884
0.782071 0.868132 0.064576
0.981048 0.830350 0.000000
0.000000 0.953643 0.572290
0.000000 0.953399 0.571984
0.174533 0.952239 0.575708
0.354376 0.949218 0.595026
0.489052 0.944305 0.621271
0.530632 0.949615 0.537957
0.633295 0.954711 0.290837
0.844999 0.948211 0.000000
0.094118 0.103761 0.561242
0.188296 0.098390 0.558495
0.344213 0.049897 0.545464
0.495460 0.000000 0.526787
0.649073 0.000000 0.512383
0.820859 0.000000 0.512230
0.941405 0.000000 0.498634
1.000000 0.213504 0.501488
0.053437 0.184634 0.541497
0.173831 0.181491 0.539269
0.330297 0.164248 0.530694
0.484657 0.107729 0.517296
0.643549 0.000000 0.507225
0.816556 0.000000 0.508507
0.936828 0.113375 0.498695
1.000000 0.263737 0.505760
0.000000 0.320104 0.506340
0.138033 0.317082 0.505180
0.296178 0.304173 0.501091
0.455848 0.272892 0.493751
0.632013 0.256626 0.494148
0.800015 0.273411 0.500206
0.920470 0.331731 0.507744
1.000000 0.403601 0.529320
0.000000 0.455360 0.487037
0.000000 0.453803 0.485695
0.258640 0.451026 0.483650
0.451759 0.460090 0.493935
0.619715 0.452522 0.490944
0.769253 0.471138 0.505608
0.895079 0.495369 0.524529
1.000000 0.516960 0.540581
0.000000 0.626642 0.498634
0.000000 0.626032 0.500008
0.230930 0.624964 0.509331
0.464027 0.622827 0.532616
0.587091 0.620600 0.497078
0.759426 0.616999 0.504173
0.885863 0.629297 0.537133
0.992950 0.628534 0.544976
0.259678 0.762661 0.575616
0.305547 0.762173 0.580468
0.429389 0.757137 0.597253
0.483955 0.758236 0.591913
0.578576 0.757107 0.599023
0.703456 0.753323 0.506706
0.869596 0.730159 0.467811
0.983673 0.730617 0.516930
0.442206 0.862791 0.650507
0.448157 0.862852 0.650172
0.471382 0.862852 0.648646
0.512627 0.862821 0.647150
0.602808 0.859617 0.669093
0.661524 0.862242 0.615381
0.795010 0.859373 0.488991
0.968261 0.827665 0.372564
0.461769 0.944701 0.683925
0.466255 0.944579 0.683650
0.484443 0.944091 0.682765
0.520043 0.943053 0.682826
0.599725 0.939117 0.701198
0.653101 0.939605 0.684718
0.711513 0.945312 0.578058
0.858030 0.944274 0.306523
0.109285 0.125002 0.730678
0.192264 0.122713 0.729641
0.346014 0.105318 0.724208
0.504784 0.000000 0.715633
0.663233 0.000000 0.705074
0.814481 0.000000 0.686824
0.935973 0.000000 0.657069
1.000000 0.160769 0.635218
0.100343 0.199924 0.722194
0.186801 0.197269 0.721614
0.339635 0.184970 0.717556
0.498268 0.148898 0.709804
0.658350 0.000000 0.701137
0.810483 0.000000 0.683436
0.932464 0.000000 0.655360
1.000000 0.224887 0.636042
0.084810 0.342412 0.700313
0.172763 0.340642 0.699580
0.322484 0.331884 0.696834
0.479591 0.313085 0.692775
0.640162 0.273259 0.685725
0.793118 0.252995 0.669581
0.917021 0.289036 0.648890
1.000000 0.372229 0.640986
0.123171 0.488624 0.677729
0.199344 0.488960 0.676081
0.337835 0.489509 0.673518
0.474220 0.482826 0.671778
0.618463 0.454994 0.667323
0.769162 0.450050 0.655848
0.887724 0.482887 0.649592
0.982086 0.535515 0.659876
0.000000 0.620142 0.659785
0.000000 0.619593 0.659083
0.279179 0.617792 0.656489
0.466468 0.618311 0.654902
0.621576 0.629328 0.661219
0.743252 0.622766 0.655726
0.850584 0.643488 0.668025
0.953735 0.665217 0.684565
0.000000 0.748959 0.636683
0.000000 0.748440 0.638056
0.284245 0.746304 0.644251
0.485237 0.744808 0.660060
0.645075 0.744167 0.687892
0.720180 0.743984 0.664973
0.847654 0.745235 0.668666
0.949584 0.760769 0.695003
0.409583 0.860777 0.697475
0.429877 0.859831 0.699458
0.502037 0.856565 0.708370
0.611322 0.851347 0.729213
0.665980 0.852079 0.733089
0.726345 0.852262 0.736873
0.809812 0.849210 0.667536
0.944549 0.831144 0.625849
0.591669 0.936645 0.764584
0.604273 0.935821 0.767758
0.619440 0.935332 0.767636
0.642878 0.935332 0.766445
0.674220 0.934752 0.765072
0.739040 0.931151 0.782956
0.775998 0.935760 0.732082
0.879088 0.936065 0.624750
0.167666 0.180850 0.837949
0.216739 0.180362 0.837552
0.339361 0.177859 0.834928
0.481117 0.165560 0.831235
0.626612 0.129244 0.826810
0.773373 0.000000 0.819974
0.920134 0.000000 0.811368
1.000000 0.142794 0.778683
0.181369 0.236271 0.832883
0.225650 0.235264 0.832364
0.341314 0.231418 0.830320
0.479744 0.221286 0.827451
0.623774 0.195010 0.823026
0.769711 0.136141 0.816617
0.916289 0.030304 0.808377
1.000000 0.207004 0.776944
0.242130 0.375067 0.821836
0.271061 0.374182 0.821530
0.362768 0.370886 0.820371
0.484840 0.361791 0.817197
0.619257 0.344579 0.813199
0.760525 0.315587 0.807675
0.905150 0.302281 0.801083
1.000000 0.357549 0.774014
0.335912 0.523888 0.805600
0.358495 0.525597 0.804868
0.432105 0.531518 0.802579
0.518212 0.525170 0.801236
0.625238 0.511467 0.798489
0.748684 0.486824 0.794491
0.884001 0.481666 0.789364
0.984527 0.517082 0.772335
0.357061 0.634241 0.788968
0.379919 0.635584 0.788113
0.458961 0.641413 0.784787
0.558099 0.650721 0.781064
0.643091 0.649348 0.780636
0.737728 0.629847 0.778256
0.857328 0.625208 0.774014
0.957580 0.646754 0.770077
0.311955 0.738552 0.774960
0.338933 0.738735 0.774838
0.420630 0.738491 0.773159
0.527947 0.738613 0.770748
0.638270 0.740780 0.769070
0.743832 0.749569 0.773495
0.839902 0.747555 0.771023
0.929870 0.766079 0.782925
0.258824 0.850736 0.756039
0.288365 0.850462 0.756191
0.378180 0.848569 0.756069
0.514488 0.846311 0.763516
0.647852 0.845274 0.777035
0.769131 0.845945 0.800656
0.825345 0.844388 0.779873
0.928466 0.845182 0.780423
0.486397 0.941863 0.788235
0.498878 0.941436 0.789395
0.548241 0.939940 0.794766
0.633875 0.936034 0.806973
0.738216 0.929839 0.829129
0.785031 0.929076 0.833829
0.829984 0.928893 0.834287
0.896452 0.929473 0.776577
0.245548 0.253758 0.920653
0.271763 0.254551 0.920287
0.357397 0.257328 0.919310
0.472541 0.259281 0.917388
0.597894 0.257145 0.914488
0.727077 0.245274 0.910887
0.858732 0.224918 0.906371
0.991272 0.226139 0.901305
0.268070 0.298466 0.919249
0.291142 0.298772 0.918853
0.368994 0.299687 0.917967
0.478523 0.300023 0.916228
0.600977 0.297093 0.913573
0.728206 0.286778 0.910185
0.858640 0.270085 0.906004
0.990326 0.272892 0.901305
0.343603 0.422919 0.911131
0.358923 0.422675 0.910979
0.416205 0.422400 0.910338
0.505943 0.420478 0.908904
0.613733 0.416022 0.906798
0.730709 0.405585 0.903868
0.853910 0.389288 0.899931
0.981445 0.389593 0.895995
0.463783 0.575006 0.897429
0.471962 0.574640 0.897307
0.505547 0.573358 0.896910
0.564569 0.569726 0.895842
0.644587 0.563195 0.894408
0.739345 0.550835 0.892210
0.847013 0.532464 0.889311
0.966918 0.528679 0.887877
0.521904 0.677852 0.885252
0.531701 0.679408 0.885161
0.568109 0.684535 0.884459
0.626093 0.692073 0.883177
0.680598 0.685115 0.882292
0.752316 0.673457 0.881010
0.842374 0.654688 0.879179
0.954040 0.646540 0.879698
0.516503 0.755276 0.878202
0.526909 0.756039 0.877836
0.566613 0.759152 0.876219
0.629603 0.764401 0.873411
0.701717 0.771054 0.870359
0.764126 0.768490 0.870420
0.837888 0.754269 0.868620
0.936645 0.752010 0.867613
0.471931 0.837980 0.868925
0.482734 0.837919 0.868620
0.525017 0.838010 0.867704
0.593225 0.838224 0.865934
0.674647 0.838895 0.863828
0.759640 0.840848 0.862181
0.842435 0.846586 0.863890
0.921965 0.848722 0.863920
0.412848 0.937072 0.854368
0.426032 0.936675 0.854215
0.474800 0.934997 0.853391
0.554253 0.932403 0.852567
0.661677 0.929503 0.858091
0.771542 0.927672 0.870085
0.867582 0.926635 0.889677
0.911315 0.926055 0.871672
0.353643 0.358984 0.987152
0.367163 0.359777 0.986969
0.418708 0.363836 0.986481
0.500237 0.369390 0.985321
0.598901 0.375433 0.983703
0.705745 0.379553 0.981720
0.816770 0.377600 0.979370
0.931853 0.373999 0.976654
0.376715 0.393225 0.985931
0.388708 0.393774 0.985748
0.435615 0.396399 0.985260
0.511833 0.400610 0.984192
0.606043 0.404974 0.982696
0.709773 0.407660 0.980774
0.818418 0.404883 0.978576
0.931823 0.401068 0.975982
0.456031 0.501091 0.980194
0.464454 0.501366 0.980072
0.498268 0.502342 0.979706
0.556756 0.502586 0.978729
0.635218 0.503197 0.977569
0.725917 0.501915 0.976104
0.824369 0.495216 0.974334
0.930602 0.486946 0.972168
0.562646 0.633265 0.970581
0.567529 0.632959 0.970489
0.588281 0.632258 0.970275
0.626917 0.630243 0.969757
0.682673 0.626642 0.968994
0.752743 0.620386 0.968109
0.834501 0.609369 0.967010
0.928679 0.595422 0.965637
0.634730 0.732021 0.961700
0.640101 0.732998 0.961547
0.661891 0.737209 0.961028
0.685084 0.732509 0.961089
0.724971 0.727901 0.960784
0.778439 0.720668 0.960327
0.845182 0.709407 0.959686
0.927428 0.694453 0.958709
0.657679 0.796719 0.954070
0.662898 0.797604 0.953979
0.681483 0.800076 0.953948
0.714534 0.804227 0.953735
0.759030 0.809171 0.953521
0.800778 0.803525 0.952941
0.854887 0.794369 0.952026
0.926055 0.781643 0.951080
0.626154 0.850523 0.951904
0.632532 0.851133 0.951751
0.657984 0.853513 0.951049
0.702052 0.857755 0.949615
0.758724 0.863859 0.947478
0.819028 0.871122 0.944945
0.868040 0.870298 0.945220
0.926085 0.861051 0.944060
0.589166 0.920500 0.945678
0.596185 0.920623 0.945586
0.623346 0.921019 0.945129
0.670344 0.921569 0.943999
0.731319 0.922454 0.942473
0.798489 0.923705 0.940642
0.866972 0.925353 0.938750
0.927642 0.929015 0.938140
