20 Preset/Fresh Style/【3】LUT video cho PR-AE-FCPX/Tone  (3).cube
# Created by Adobe Lightroom plugin Export LUT (1.24.0)
# www.johnrellis.com/lightroom/exportlut.htm
# Preset: 03现代清新（素材江湖）
# Color profile: E:\lut插件\exportlut.1.24\exportlut.lrplugin\color profiles\Rec709gamma2.4.icc
LUT_3D_SIZE 32
DOMAIN_MIN 0.0 0.0 0.0
DOMAIN_MAX 1.0 1.0 1.0
0.104067 0.104067 0.104067
0.104067 0.104067 0.104067
0.104067 0.104067 0.104067
0.123110 0.105898 0.108125
0.153658 0.109041 0.114809
0.188174 0.110170 0.122255
0.227237 0.107271 0.125368
0.268254 0.102724 0.127779
0.312535 0.092988 0.128847
0.361089 0.067353 0.128267
0.413794 0.013672 0.126131
0.470069 0.000000 0.123598
0.528985 0.000000 0.121035
0.588891 0.000000 0.119631
0.648096 0.000000 0.117403
0.704860 0.000000 0.114412
0.757656 0.000000 0.111208
0.804959 0.000000 0.108461
0.845731 0.000000 0.107301
0.881529 0.000000 0.108125
0.913115 0.000000 0.110780
0.946197 0.000000 0.116548
0.978119 0.000000 0.125216
1.000000 0.000000 0.135927
1.000000 0.000000 0.148104
1.000000 0.000000 0.161105
1.000000 0.000000 0.175448
1.000000 0.000000 0.191226
1.000000 0.000000 0.208743
1.000000 0.016938 0.228122
1.000000 0.110628 0.249882
1.000000 0.154513 0.274144
0.104067 0.104067 0.104067
0.104067 0.104067 0.104067
0.104555 0.103975 0.104402
0.123903 0.106142 0.108064
0.154360 0.108919 0.114809
0.188418 0.110170 0.120546
0.225803 0.109712 0.124636
0.266361 0.105287 0.127077
0.309819 0.097719 0.128084
0.357458 0.081727 0.127230
0.409369 0.032624 0.125704
0.465064 0.000000 0.123079
0.523552 0.000000 0.120333
0.583001 0.000000 0.118502
0.642145 0.000000 0.116365
0.699001 0.000000 0.113466
0.752346 0.000000 0.110292
0.800229 0.000000 0.107210
0.841611 0.000000 0.105898
0.877745 0.000000 0.106416
0.909453 0.000000 0.109041
0.942443 0.000000 0.114626
0.973693 0.000000 0.122683
1.000000 0.000000 0.133028
1.000000 0.000000 0.144503
1.000000 0.000000 0.157290
1.000000 0.000000 0.171481
1.000000 0.000000 0.187045
1.000000 0.000000 0.204440
1.000000 0.000000 0.223697
1.000000 0.101015 0.245396
1.000000 0.146517 0.269444
0.103609 0.107729 0.105257
0.103395 0.108095 0.105196
0.105898 0.108492 0.105440
0.126711 0.111299 0.107271
0.156069 0.115511 0.112337
0.189395 0.118502 0.118013
0.226108 0.119387 0.121798
0.265934 0.116579 0.124208
0.308782 0.111727 0.124819
0.356085 0.102327 0.124392
0.407324 0.087343 0.122316
0.462623 0.037934 0.119387
0.520409 0.000000 0.116426
0.579461 0.000000 0.114229
0.638270 0.000000 0.111849
0.695094 0.000000 0.108492
0.748592 0.000000 0.104738
0.796963 0.000000 0.101595
0.838621 0.000000 0.100374
0.874907 0.000000 0.100832
0.907103 0.000000 0.103395
0.940734 0.000000 0.108797
0.971496 0.000000 0.117922
0.998352 0.000000 0.128115
1.000000 0.000000 0.139956
1.000000 0.000000 0.152956
1.000000 0.000000 0.167117
1.000000 0.000000 0.182986
1.000000 0.000000 0.200351
1.000000 0.021759 0.219821
1.000000 0.107240 0.241459
1.000000 0.148623 0.265537
0.097810 0.129122 0.110628
0.098482 0.129061 0.110628
0.104036 0.128084 0.110689
0.121340 0.129061 0.109865
0.154665 0.133028 0.109895
0.189242 0.137026 0.113649
0.227298 0.137728 0.116030
0.266941 0.137331 0.117769
0.309728 0.134676 0.118502
0.356420 0.130129 0.117678
0.407385 0.122133 0.115145
0.461860 0.112215 0.111452
0.518914 0.099947 0.107546
0.577050 0.082155 0.104829
0.635187 0.035462 0.101869
0.691066 0.000000 0.097597
0.744106 0.000000 0.092653
0.792020 0.000000 0.088655
0.833677 0.000000 0.086549
0.870176 0.000000 0.087648
0.902464 0.000000 0.091005
0.936889 0.000000 0.097597
0.966918 0.000000 0.106905
0.993713 0.000000 0.117800
1.000000 0.000000 0.130983
1.000000 0.000000 0.144839
1.000000 0.000000 0.159976
1.000000 0.000000 0.176822
1.000000 0.030060 0.195132
1.000000 0.094728 0.215122
1.000000 0.127626 0.236973
1.000000 0.159884 0.260746
0.089265 0.155917 0.116854
0.089998 0.155886 0.116854
0.097414 0.154665 0.116976
0.113283 0.153384 0.118990
0.142641 0.154696 0.114534
0.183597 0.158267 0.110536
0.221195 0.162753 0.111330
0.262181 0.165225 0.110903
0.306950 0.164920 0.109316
0.355383 0.163577 0.105745
0.405402 0.161013 0.102510
0.459358 0.157626 0.097444
0.515435 0.154635 0.091371
0.573541 0.150057 0.086763
0.631098 0.145693 0.078492
0.687465 0.140139 0.063630
0.740688 0.133669 0.048554
0.789059 0.125368 0.038758
0.830930 0.115816 0.034516
0.867491 0.107668 0.036683
0.900908 0.102327 0.045533
0.935576 0.096956 0.064881
0.964935 0.093843 0.088411
0.991547 0.092744 0.102205
1.000000 0.093660 0.117342
1.000000 0.094423 0.133455
1.000000 0.098390 0.150210
1.000000 0.106996 0.168063
1.000000 0.118868 0.187259
1.000000 0.134768 0.207706
1.000000 0.154208 0.230106
1.000000 0.178073 0.254154
0.038636 0.184909 0.119570
0.040925 0.184878 0.119295
0.067445 0.183658 0.120333
0.098299 0.181613 0.123598
0.126864 0.182071 0.121645
0.166445 0.183291 0.115328
0.213046 0.186160 0.107912
0.255985 0.192386 0.103822
0.301122 0.198215 0.099306
0.350164 0.201358 0.093233
0.402991 0.202884 0.083192
0.459236 0.204074 0.058991
0.517510 0.204654 0.031952
0.574823 0.205356 0.015808
0.632197 0.205417 0.000000
0.687984 0.203555 0.000000
0.740871 0.200961 0.000000
0.788998 0.196292 0.000000
0.830594 0.191470 0.000000
0.866850 0.184848 0.000000
0.903319 0.180758 0.000000
0.936522 0.177218 0.000000
0.990448 0.181491 0.041169
1.000000 0.180026 0.088869
1.000000 0.177951 0.111299
1.000000 0.177646 0.132265
1.000000 0.179019 0.152621
1.000000 0.181735 0.173373
1.000000 0.188174 0.194278
1.000000 0.197482 0.216739
1.000000 0.210788 0.240177
1.000000 0.227634 0.265263
0.000000 0.222416 0.118593
0.000000 0.222080 0.118959
0.000000 0.221164 0.120821
0.022583 0.218875 0.123964
0.098116 0.216739 0.126558
0.147402 0.218540 0.119844
0.197024 0.219883 0.110750
0.250889 0.222507 0.098024
0.301244 0.231815 0.083711
0.353460 0.240726 0.056092
0.409949 0.250614 0.016205
0.468574 0.256443 0.000000
0.528527 0.260563 0.000000
0.588464 0.263737 0.000000
0.647395 0.265171 0.000000
0.703120 0.264897 0.000000
0.753780 0.262455 0.000000
0.798947 0.258732 0.000000
0.838651 0.253330 0.000000
0.876585 0.248203 0.000000
0.915984 0.244511 0.000000
0.949828 0.239963 0.000000
0.980072 0.236057 0.000000
1.000000 0.232059 0.000000
1.000000 0.227970 0.050599
1.000000 0.225345 0.101076
1.000000 0.222812 0.128206
1.000000 0.221988 0.152590
1.000000 0.223392 0.176089
1.000000 0.227176 0.200137
1.000000 0.235050 0.224765
1.000000 0.246647 0.250614
0.000000 0.256687 0.115450
0.000000 0.256413 0.115846
0.000000 0.255680 0.117464
0.000000 0.253605 0.120821
0.000000 0.250614 0.125582
0.113558 0.251530 0.121096
0.172824 0.252995 0.112123
0.227329 0.254429 0.099672
0.284794 0.258183 0.075593
0.341100 0.269718 0.018891
0.397498 0.282048 0.000000
0.457313 0.294377 0.000000
0.519768 0.306615 0.000000
0.579339 0.312139 0.000000
0.638148 0.315801 0.000000
0.694026 0.317388 0.000000
0.746426 0.315862 0.000000
0.793423 0.312596 0.000000
0.835233 0.307073 0.000000
0.877195 0.303075 0.000000
0.913695 0.297551 0.000000
0.945983 0.291814 0.000000
0.975525 0.286503 0.000000
1.000000 0.281224 0.000000
1.000000 0.275761 0.000000
1.000000 0.270665 0.000000
1.000000 0.265995 0.088289
1.000000 0.262058 0.123507
1.000000 0.260380 0.152468
1.000000 0.260807 0.179690
1.000000 0.264012 0.206821
1.000000 0.270909 0.234531
0.000000 0.293889 0.114656
0.000000 0.293736 0.114992
0.000000 0.293095 0.116091
0.000000 0.291234 0.119539
0.000000 0.288609 0.124422
0.000000 0.286900 0.126009
0.137057 0.288640 0.115602
0.201602 0.290745 0.102724
0.260472 0.292607 0.081331
0.318212 0.294530 0.024903
0.382116 0.308995 0.000000
0.442481 0.324376 0.000000
0.504265 0.338415 0.000000
0.567071 0.351263 0.000000
0.628290 0.360754 0.000000
0.684321 0.363012 0.000000
0.737118 0.363348 0.000000
0.786740 0.361181 0.000000
0.834104 0.358434 0.000000
0.874998 0.353246 0.000000
0.911070 0.346899 0.000000
0.942412 0.340124 0.000000
0.971405 0.333196 0.000000
0.998688 0.326879 0.000000
1.000000 0.321141 0.000000
1.000000 0.314733 0.000000
1.000000 0.308293 0.000000
1.000000 0.302739 0.056886
1.000000 0.298497 0.118898
1.000000 0.296117 0.153658
1.000000 0.296086 0.184939
1.000000 0.299199 0.215366
0.000000 0.335149 0.114534
0.000000 0.334936 0.114595
0.000000 0.333989 0.115877
0.000000 0.332525 0.119295
0.000000 0.329900 0.124117
0.000000 0.326665 0.130068
0.015564 0.326635 0.125246
0.163882 0.328435 0.113008
0.232517 0.330510 0.095430
0.294438 0.332250 0.052155
0.354070 0.333501 0.000000
0.421698 0.347845 0.000000
0.485908 0.366339 0.000000
0.548363 0.380865 0.000000
0.611414 0.394110 0.000000
0.672389 0.404761 0.000000
0.733669 0.412055 0.000000
0.786099 0.412055 0.000000
0.831022 0.408515 0.000000
0.870634 0.402655 0.000000
0.905455 0.395544 0.000000
0.936614 0.387091 0.000000
0.965454 0.379217 0.000000
0.992645 0.370825 0.000000
1.000000 0.363622 0.000000
1.000000 0.356329 0.000000
1.000000 0.349126 0.000000
1.000000 0.341955 0.000000
1.000000 0.335912 0.009400
1.000000 0.331273 0.112184
1.000000 0.328618 0.154421
1.000000 0.328801 0.190646
0.000000 0.377935 0.112612
0.000000 0.377783 0.113313
0.000000 0.377295 0.114076
0.000000 0.376074 0.117525
0.000000 0.374121 0.122499
0.000000 0.371679 0.129152
0.000000 0.369024 0.134981
0.081544 0.370825 0.122255
0.194308 0.373022 0.105531
0.267613 0.374914 0.075654
0.332738 0.376959 0.000000
0.394995 0.378485 0.000000
0.465309 0.390295 0.000000
0.533257 0.411353 0.000000
0.600977 0.429297 0.000000
0.666468 0.444282 0.000000
0.727779 0.454658 0.000000
0.781247 0.460029 0.000000
0.825071 0.456489 0.000000
0.863584 0.449928 0.000000
0.897795 0.441779 0.000000
0.928710 0.433143 0.000000
0.957763 0.424445 0.000000
0.985321 0.415503 0.000000
1.000000 0.406897 0.000000
1.000000 0.398413 0.000000
1.000000 0.390509 0.000000
1.000000 0.382086 0.000000
1.000000 0.374334 0.000000
1.000000 0.368109 0.000000
1.000000 0.363287 0.108919
1.000000 0.360693 0.158907
0.000000 0.426917 0.109224
0.000000 0.426978 0.109133
0.000000 0.426276 0.111116
0.000000 0.425605 0.114412
0.000000 0.424018 0.119753
0.000000 0.422095 0.126711
0.000000 0.419471 0.135378
0.000000 0.418982 0.133944
0.125734 0.420844 0.117128
0.230869 0.422766 0.092714
0.306981 0.424689 0.021637
0.378332 0.430152 0.000000
0.469459 0.455787 0.000000
0.549035 0.466865 0.000000
0.622736 0.489540 0.000000
0.688746 0.504295 0.000000
0.746578 0.511955 0.000000
0.796597 0.514336 0.000000
0.840238 0.513420 0.000000
0.878691 0.509667 0.000000
0.910979 0.499428 0.000000
0.940459 0.489113 0.000000
0.968353 0.478645 0.000000
0.995026 0.468574 0.000000
1.000000 0.458747 0.000000
1.000000 0.448768 0.000000
1.000000 0.439063 0.000000
1.000000 0.428931 0.000000
1.000000 0.418769 0.000000
1.000000 0.410224 0.000000
1.000000 0.403326 0.000000
1.000000 0.398596 0.122103
0.000000 0.489540 0.104402
0.000000 0.489326 0.104891
0.000000 0.488563 0.106813
0.000000 0.487343 0.110597
0.000000 0.485176 0.116976
0.000000 0.482795 0.124392
0.000000 0.480842 0.135164
0.000000 0.480385 0.146426
0.000000 0.484077 0.131380
0.171756 0.489082 0.106355
0.280339 0.494728 0.038361
0.366094 0.500572 0.000000
0.444617 0.506218 0.000000
0.520012 0.510613 0.000000
0.599420 0.519890 0.000000
0.668452 0.535119 0.000000
0.728908 0.545434 0.000000
0.778561 0.547936 0.000000
0.822416 0.547021 0.000000
0.861234 0.543481 0.000000
0.895995 0.538476 0.000000
0.927214 0.530968 0.000000
0.955596 0.520043 0.000000
0.982757 0.509606 0.000000
1.000000 0.499397 0.000000
1.000000 0.489143 0.000000
1.000000 0.479225 0.000000
1.000000 0.469062 0.000000
1.000000 0.458350 0.000000
1.000000 0.447822 0.000000
1.000000 0.438239 0.000000
1.000000 0.431373 0.000000
0.000000 0.550591 0.100893
0.000000 0.550347 0.101167
0.000000 0.549493 0.102785
0.000000 0.548333 0.108186
0.000000 0.546929 0.114412
0.000000 0.545190 0.123659
0.000000 0.543359 0.134554
0.000000 0.541802 0.147555
0.000000 0.541650 0.150668
0.000000 0.544732 0.128664
0.219333 0.548852 0.094514
0.326116 0.553368 0.000000
0.412787 0.557519 0.000000
0.492042 0.560754 0.000000
0.566522 0.562341 0.000000
0.643641 0.568139 0.000000
0.705928 0.574029 0.000000
0.759609 0.579828 0.000000
0.804074 0.579248 0.000000
0.843687 0.575952 0.000000
0.879393 0.570977 0.000000
0.912291 0.565270 0.000000
0.943175 0.559380 0.000000
0.971832 0.550408 0.000000
0.998535 0.539910 0.000000
1.000000 0.529351 0.000000
1.000000 0.519005 0.000000
1.000000 0.508659 0.000000
1.000000 0.497780 0.000000
1.000000 0.486946 0.000000
1.000000 0.476661 0.000000
1.000000 0.467048 0.000000
0.000000 0.608026 0.103334
0.000000 0.607752 0.104372
0.000000 0.606806 0.107149
0.000000 0.605371 0.111269
0.000000 0.603296 0.118868
0.000000 0.601007 0.127687
0.000000 0.598810 0.139132
0.000000 0.596826 0.151858
0.000000 0.595087 0.167330
0.000000 0.596460 0.155398
0.069612 0.599298 0.128450
0.268559 0.602686 0.079286
0.370123 0.605463 0.000000
0.455573 0.607660 0.000000
0.533623 0.608301 0.000000
0.606226 0.607294 0.000000
0.681575 0.610468 0.000000
0.736385 0.607294 0.000000
0.785245 0.610040 0.000000
0.826200 0.607446 0.000000
0.862760 0.602686 0.000000
0.896696 0.597162 0.000000
0.928557 0.591180 0.000000
0.958953 0.585107 0.000000
0.988006 0.579065 0.000000
1.000000 0.568841 0.000000
1.000000 0.558282 0.000000
1.000000 0.547662 0.000000
1.000000 0.536889 0.000000
1.000000 0.526024 0.000000
1.000000 0.515435 0.000000
1.000000 0.505638 0.000000
0.000000 0.654871 0.118990
0.000000 0.654749 0.120180
0.000000 0.654261 0.121767
0.000000 0.653498 0.126101
0.000000 0.652247 0.131838
0.000000 0.650843 0.140871
0.000000 0.649409 0.152407
0.000000 0.648310 0.165103
0.000000 0.647120 0.180453
0.000000 0.646357 0.190127
0.000000 0.647547 0.168978
0.180545 0.648585 0.138399
0.315435 0.649439 0.087190
0.410437 0.649165 0.000000
0.491981 0.648157 0.000000
0.566613 0.645991 0.000000
0.636957 0.643030 0.000000
0.708095 0.643091 0.000000
0.761074 0.635431 0.000000
0.806149 0.636072 0.000000
0.845518 0.633112 0.000000
0.880858 0.627924 0.000000
0.913970 0.622309 0.000000
0.945434 0.616510 0.000000
0.975525 0.610559 0.000000
1.000000 0.604395 0.000000
1.000000 0.597528 0.000000
1.000000 0.586816 0.000000
1.000000 0.575677 0.000000
1.000000 0.564324 0.000000
1.000000 0.553216 0.000000
1.000000 0.542870 0.000000
0.000000 0.692561 0.144808
0.000000 0.692531 0.145022
0.000000 0.692134 0.147433
0.000000 0.691554 0.149844
0.000000 0.690700 0.155856
0.000000 0.689540 0.163729
0.000000 0.688502 0.173159
0.000000 0.687373 0.185245
0.000000 0.686030 0.199100
0.000000 0.684779 0.213687
0.000000 0.684443 0.209842
0.000000 0.684962 0.185855
0.244755 0.684993 0.155398
0.357519 0.684474 0.106203
0.445228 0.683070 0.000000
0.522911 0.680995 0.000000
0.594781 0.677882 0.000000
0.663081 0.674250 0.000000
0.729427 0.670680 0.000000
0.784085 0.662043 0.000000
0.826566 0.661433 0.000000
0.865019 0.658137 0.000000
0.899168 0.652796 0.000000
0.931701 0.647120 0.000000
0.962829 0.641321 0.000000
0.992523 0.635309 0.000000
1.000000 0.629084 0.000000
1.000000 0.622614 0.000000
1.000000 0.614038 0.000000
1.000000 0.602319 0.000000
1.000000 0.590875 0.000000
1.000000 0.579980 0.000000
0.000000 0.726009 0.177829
0.000000 0.726162 0.178317
0.000000 0.740444 0.199283
0.000000 0.739956 0.202335
0.000000 0.739254 0.206546
0.000000 0.738186 0.212558
0.000000 0.736934 0.220035
0.000000 0.735531 0.230228
0.000000 0.734218 0.241642
0.000000 0.732723 0.255894
0.000000 0.731075 0.270237
0.000000 0.730770 0.251164
0.171115 0.729976 0.226932
0.311254 0.728542 0.195499
0.405890 0.726253 0.154238
0.486275 0.723293 0.068055
0.559503 0.719326 0.000000
0.628199 0.714992 0.000000
0.693874 0.710018 0.000000
0.757107 0.704158 0.000000
0.812558 0.695003 0.000000
0.852201 0.690547 0.000000
0.889281 0.686488 0.000000
0.922118 0.680568 0.000000
0.953368 0.674159 0.000000
0.983215 0.667597 0.000000
1.000000 0.660731 0.000000
1.000000 0.653742 0.000000
1.000000 0.646479 0.000000
1.000000 0.638849 0.000000
1.000000 0.627955 0.000000
1.000000 0.616541 0.000000
0.000000 0.758602 0.217838
0.000000 0.759762 0.219730
0.000000 0.760800 0.223178
0.000000 0.761593 0.227115
0.000000 0.761776 0.232822
0.000000 0.761288 0.238468
0.000000 0.760281 0.245182
0.000000 0.758968 0.253330
0.000000 0.757687 0.263340
0.000000 0.756191 0.275639
0.000000 0.754604 0.289342
0.000000 0.753506 0.290410
0.000000 0.752743 0.269383
0.247074 0.751553 0.244419
0.353246 0.749783 0.213779
0.437476 0.747433 0.173190
0.511833 0.744503 0.108309
0.581659 0.740993 0.000000
0.648157 0.737026 0.000000
0.712428 0.732662 0.000000
0.774594 0.727687 0.000000
0.831479 0.720790 0.000000
0.870146 0.712825 0.000000
0.906401 0.708827 0.000000
0.939330 0.703151 0.000000
0.970123 0.696712 0.000000
0.999298 0.690028 0.000000
1.000000 0.682979 0.000000
1.000000 0.675654 0.000000
1.000000 0.668025 0.000000
1.000000 0.660426 0.000000
1.000000 0.651972 0.000000
0.000000 0.781247 0.246677
0.000000 0.782315 0.248692
0.000000 0.783413 0.251530
0.000000 0.784176 0.255833
0.000000 0.784421 0.260777
0.000000 0.784054 0.265629
0.000000 0.783200 0.271580
0.000000 0.782071 0.279240
0.000000 0.780789 0.288273
0.000000 0.779355 0.298924
0.000000 0.777859 0.310918
0.000000 0.776089 0.324712
0.000000 0.775357 0.311131
0.179721 0.774502 0.289647
0.304356 0.773159 0.264134
0.392035 0.771359 0.232364
0.467933 0.769009 0.191775
0.537682 0.766140 0.133120
0.604089 0.762936 0.000000
0.668238 0.759274 0.000000
0.730495 0.755184 0.000000
0.791806 0.750668 0.000000
0.850187 0.746242 0.000000
0.888273 0.734951 0.000000
0.923796 0.730800 0.000000
0.956878 0.725399 0.000000
0.986969 0.718868 0.000000
1.000000 0.711971 0.000000
1.000000 0.704646 0.000000
1.000000 0.696986 0.000000
1.000000 0.689326 0.000000
1.000000 0.681636 0.000000
0.000000 0.803189 0.274815
0.000000 0.804105 0.276799
0.000000 0.804959 0.279820
0.000000 0.805600 0.283513
0.000000 0.805844 0.287449
0.000000 0.805447 0.292332
0.000000 0.804715 0.297673
0.000000 0.803738 0.304479
0.000000 0.802579 0.312535
0.000000 0.801328 0.321813
0.000000 0.799893 0.332952
0.000000 0.798306 0.345525
0.000000 0.796841 0.349706
0.098665 0.796262 0.330968
0.259373 0.795407 0.308995
0.351110 0.794156 0.282780
0.427680 0.792721 0.251347
0.497597 0.790951 0.211826
0.563745 0.788937 0.158663
0.627863 0.786648 0.000000
0.690822 0.783963 0.000000
0.752468 0.780880 0.000000
0.813046 0.777279 0.000000
0.874174 0.775601 0.000000
0.912352 0.761654 0.000000
0.947509 0.757595 0.000000
0.980865 0.752346 0.000000
1.000000 0.745510 0.000000
1.000000 0.738094 0.000000
1.000000 0.730343 0.000000
1.000000 0.722469 0.000000
1.000000 0.714443 0.000000
0.000000 0.830198 0.314122
0.000000 0.830533 0.315373
0.000000 0.830686 0.316869
0.000000 0.830594 0.318547
0.000000 0.830228 0.321569
0.000000 0.829496 0.324956
0.000000 0.828672 0.329656
0.000000 0.827665 0.335271
0.000000 0.826627 0.342290
0.000000 0.825437 0.351232
0.000000 0.824155 0.361761
0.000000 0.822751 0.373053
0.000000 0.821042 0.385595
0.015991 0.820279 0.376135
0.233127 0.819669 0.356237
0.322850 0.818753 0.333104
0.396185 0.817624 0.306065
0.463691 0.816098 0.274052
0.527764 0.814298 0.233951
0.590112 0.812192 0.181155
0.651057 0.809751 0.075166
0.711574 0.806851 0.000000
0.771267 0.803494 0.000000
0.830259 0.799527 0.000000
0.893187 0.800015 0.000000
0.930938 0.783230 0.000000
0.965393 0.779049 0.000000
0.998322 0.773678 0.000000
1.000000 0.766567 0.000000
1.000000 0.758938 0.000000
1.000000 0.751034 0.000000
1.000000 0.742947 0.000000
0.000000 0.850584 0.339879
0.000000 0.850889 0.340764
0.000000 0.851011 0.342168
0.000000 0.850919 0.344366
0.000000 0.850645 0.346807
0.000000 0.850095 0.349950
0.000000 0.849363 0.353796
0.000000 0.848478 0.359228
0.000000 0.847501 0.365789
0.000000 0.846403 0.374243
0.000000 0.845243 0.383581
0.000000 0.843931 0.394324
0.000000 0.842374 0.406104
0.000000 0.841001 0.413336
0.213931 0.840818 0.395209
0.299260 0.840391 0.375189
0.369451 0.839750 0.351324
0.433387 0.838926 0.322972
0.494850 0.837736 0.289830
0.554833 0.836301 0.249424
0.614282 0.834531 0.194675
0.673518 0.832334 0.099947
0.732174 0.829770 0.000000
0.790829 0.826627 0.000000
0.845884 0.819883 0.000000
0.909026 0.821622 0.000000
0.948486 0.803952 0.000000
0.982055 0.799100 0.000000
1.000000 0.793301 0.000000
1.000000 0.786282 0.000000
1.000000 0.778653 0.000000
1.000000 0.770657 0.000000
0.000000 0.873930 0.370947
0.000000 0.874388 0.372503
0.000000 0.874479 0.373480
0.000000 0.874174 0.374731
0.000000 0.873564 0.376379
0.000000 0.872679 0.378515
0.000000 0.871519 0.381018
0.000000 0.870237 0.385138
0.000000 0.868833 0.390234
0.000000 0.867430 0.396643
0.000000 0.865873 0.403937
0.000000 0.864286 0.413092
0.000000 0.862547 0.423041
0.000000 0.860563 0.434272
0.196109 0.859586 0.426825
0.275242 0.859037 0.406897
0.341161 0.858396 0.384070
0.402289 0.857694 0.358679
0.461189 0.856931 0.329290
0.519310 0.856077 0.294102
0.576959 0.855009 0.250828
0.634424 0.853513 0.193301
0.691737 0.851499 0.058503
0.748989 0.848783 0.000000
0.806058 0.845396 0.000000
0.862730 0.841398 0.000000
0.923827 0.841459 0.000000
0.965789 0.827146 0.000000
0.998199 0.818997 0.000000
1.000000 0.812955 0.000000
1.000000 0.805844 0.000000
1.000000 0.797940 0.000000
0.000000 0.891814 0.388128
0.000000 0.892241 0.389258
0.000000 0.892424 0.390814
0.000000 0.892302 0.392096
0.000000 0.891936 0.394141
0.000000 0.891356 0.396796
0.000000 0.890715 0.400061
0.000000 0.889860 0.404547
0.000000 0.889036 0.409796
0.000000 0.888029 0.416663
0.000000 0.886870 0.424567
0.000000 0.885557 0.433478
0.000000 0.884062 0.443030
0.000000 0.882292 0.453498
0.208042 0.880461 0.461463
0.271977 0.880156 0.443336
0.328893 0.879820 0.422339
0.383246 0.879393 0.398535
0.437537 0.878965 0.371435
0.491554 0.878477 0.339666
0.546319 0.877775 0.303014
0.601068 0.876860 0.256199
0.656580 0.875456 0.191226
0.712490 0.873533 0.000000
0.768826 0.871031 0.000000
0.825193 0.867979 0.000000
0.881010 0.864195 0.000000
0.939178 0.862730 0.000000
0.985046 0.852354 0.000000
1.000000 0.841428 0.000000
1.000000 0.834989 0.000000
1.000000 0.827420 0.000000
0.000000 0.911833 0.408515
0.000000 0.912016 0.409308
0.000000 0.912047 0.409918
0.000000 0.911833 0.411353
0.000000 0.911467 0.412818
0.000000 0.910918 0.415320
0.000000 0.910246 0.418280
0.000000 0.909453 0.422339
0.000000 0.908537 0.427375
0.000000 0.907561 0.433509
0.000000 0.906432 0.440711
0.000000 0.905241 0.448920
0.000000 0.903868 0.457832
0.000000 0.902251 0.467414
0.200687 0.900359 0.478187
0.267155 0.899443 0.472084
0.316869 0.899321 0.452827
0.365942 0.899107 0.430823
0.415137 0.898985 0.405463
0.465400 0.898863 0.376410
0.516625 0.898589 0.343023
0.568688 0.898039 0.301457
0.621759 0.897093 0.248844
0.676143 0.895598 0.176303
0.731044 0.893400 0.012848
0.785824 0.890684 0.000000
0.840635 0.887510 0.000000
0.895415 0.883848 0.000000
0.951781 0.881407 0.000000
1.000000 0.874815 0.000000
1.000000 0.861479 0.000000
1.000000 0.854612 0.000000
0.000000 0.930205 0.422492
0.000000 0.930327 0.423041
0.000000 0.930388 0.423926
0.000000 0.930266 0.425330
0.000000 0.930114 0.427283
0.000000 0.929931 0.430182
0.000000 0.929747 0.434821
0.000000 0.929625 0.440375
0.000000 0.929473 0.447425
0.000000 0.929290 0.455390
0.000000 0.929015 0.464454
0.000000 0.928588 0.474037
0.000000 0.927886 0.484199
0.126711 0.926909 0.495033
0.238254 0.925597 0.505486
0.304997 0.923980 0.515007
0.340398 0.924254 0.497627
0.377722 0.924468 0.477394
0.417365 0.924712 0.454536
0.459937 0.924895 0.428565
0.505119 0.924956 0.400397
0.554772 0.924468 0.375891
0.604578 0.923674 0.347143
0.654841 0.922545 0.313115
0.705867 0.920928 0.270756
0.757382 0.918883 0.215396
0.809903 0.916381 0.123171
0.863005 0.913451 0.000000
0.916655 0.910063 0.000000
0.972168 0.907683 0.000000
1.000000 0.903197 0.000000
1.000000 0.887022 0.000000
0.000000 0.952941 0.449256
0.000000 0.952941 0.449409
0.000000 0.952819 0.449928
0.000000 0.952605 0.450629
0.000000 0.952270 0.452094
0.000000 0.951843 0.454047
0.000000 0.951354 0.457099
0.000000 0.950805 0.460945
0.000000 0.950164 0.465919
0.000000 0.949462 0.471809
0.000000 0.948669 0.478889
0.000000 0.947784 0.486488
0.000000 0.946746 0.494789
0.041810 0.945525 0.503838
