20 Preset/Fresh Style/【3】LUT video cho PR-AE-FCPX/Tone  (2).cube
# Created by Adobe Lightroom plugin Export LUT (1.24.0)
# www.johnrellis.com/lightroom/exportlut.htm
# Preset: 02现代清新（素材江湖）
# Color profile: E:\lut插件\exportlut.1.24\exportlut.lrplugin\color profiles\Rec709gamma2.4.icc
LUT_3D_SIZE 5
DOMAIN_MIN 0.000000 0.000000 0.000000
DOMAIN_MAX 0.903226 0.903226 0.903226
0.104067 0.104067 0.104067
0.269230 0.105013 0.120974
0.590295 0.000000 0.095277
0.896574 0.000000 0.000000
1.000000 0.000000 0.030274
0.000000 0.252415 0.122194
0.235752 0.260014 0.064698
0.582971 0.283635 0.000000
0.892241 0.270878 0.000000
1.000000 0.216526 0.000000
0.000000 0.568750 0.139437
0.000000 0.561730 0.172763
0.515618 0.577508 0.000000
0.858457 0.556970 0.000000
1.000000 0.503075 0.000000
0.000000 0.821042 0.291112
0.000000 0.818662 0.311406
0.165438 0.814572 0.291630
0.719142 0.806546 0.000000
1.000000 0.741238 0.000000
0.000000 0.961578 0.468208
0.000000 0.959594 0.485237
0.284733 0.950500 0.544945
0.503624 0.953887 0.436408
0.837430 0.948852 0.000000
0.113222 0.114778 0.304753
0.275425 0.096193 0.289952
0.547478 0.000000 0.290593
0.859770 0.000000 0.289372
1.000000 0.000000 0.288396
0.090639 0.250919 0.265019
0.247288 0.251164 0.267369
0.529686 0.246921 0.274083
0.857023 0.243503 0.283543
1.000000 0.245396 0.282353
0.000000 0.542931 0.340154
0.000000 0.542260 0.319554
0.494575 0.544915 0.234043
0.839109 0.544060 0.244968
1.000000 0.508690 0.253574
0.000000 0.809018 0.438972
0.000000 0.808743 0.433509
0.364294 0.803037 0.458167
0.718349 0.797757 0.108766
1.000000 0.738430 0.000000
0.000000 0.956359 0.545892
0.000000 0.955138 0.550713
0.386267 0.948730 0.587396
0.516869 0.953948 0.449836
0.843565 0.948943 0.000000
0.092988 0.109041 0.656611
0.309545 0.087037 0.648646
0.587701 0.000000 0.625055
0.851865 0.000000 0.594232
1.000000 0.191867 0.566979
0.000000 0.293614 0.621332
0.274174 0.283391 0.617517
0.562707 0.225223 0.604150
0.836667 0.201419 0.583154
1.000000 0.350958 0.577905
0.000000 0.544182 0.581292
0.178073 0.540764 0.577996
0.541253 0.550378 0.586358
0.781765 0.559014 0.590417
0.974334 0.601373 0.622339
0.261509 0.789425 0.622217
0.390967 0.784634 0.632868
0.583703 0.779294 0.658015
0.736019 0.776059 0.598352
0.963348 0.765011 0.603510
0.542504 0.939757 0.728206
0.555566 0.939544 0.727382
0.603571 0.938476 0.725185
0.705867 0.936095 0.724605
0.868070 0.939910 0.499336
0.184329 0.196201 0.859281
0.308751 0.196109 0.857664
0.546349 0.181796 0.852445
0.795560 0.055421 0.842618
1.000000 0.144106 0.813260
0.244175 0.345739 0.848600
0.335515 0.343603 0.847562
0.547875 0.330327 0.843107
0.787015 0.288304 0.834379
1.000000 0.317876 0.808621
0.398322 0.592218 0.820920
0.458381 0.598993 0.819608
0.595087 0.601312 0.816098
0.769528 0.570062 0.812161
0.969421 0.582513 0.798795
0.365484 0.765408 0.800351
0.429572 0.764950 0.798764
0.594659 0.765469 0.794888
0.769650 0.774990 0.797360
0.926055 0.786709 0.803189
0.465583 0.940673 0.800351
0.515251 0.939361 0.804562
0.663416 0.935027 0.822599
0.808530 0.928435 0.849393
0.900206 0.928222 0.803830
0.353643 0.358984 0.987152
0.402533 0.362554 0.986664
0.548028 0.372534 0.984558
0.733181 0.379736 0.981140
0.931853 0.373999 0.976654
0.431189 0.468818 0.982025
0.465858 0.470100 0.981628
0.581933 0.473030 0.979950
0.745235 0.472358 0.977142
0.930816 0.460243 0.973297
0.606897 0.689204 0.965728
0.622004 0.688411 0.965637
0.680781 0.683864 0.965087
0.784207 0.672236 0.964080
0.928099 0.646754 0.962280
0.650538 0.808347 0.953399
0.672175 0.811856 0.952697
0.738247 0.821042 0.951263
0.818265 0.820951 0.950958
0.926085 0.802609 0.949371
0.589166 0.920500 0.945678
0.614527 0.920897 0.945281
0.699519 0.921935 0.943267
0.815732 0.924071 0.940154
0.927642 0.929015 0.938140
