20 Preset/Fresh Style/【3】LUT video cho PR-AE-FCPX/Tone  (2).cube
# Created by Adobe Lightroom plugin Export LUT (1.24.0)
# www.johnrellis.com/lightroom/exportlut.htm
# Preset: 02现代清新（素材江湖）
# Color profile: E:\lut插件\exportlut.1.24\exportlut.lrplugin\color profiles\Rec709gamma2.4.icc
LUT_3D_SIZE 32
DOMAIN_MIN 0.0 0.0 0.0
DOMAIN_MAX 1.0 1.0 1.0
0.104067 0.104067 0.104067
0.104067 0.104067 0.104067
0.110445 0.104616 0.105196
0.131960 0.105287 0.108309
0.161929 0.107179 0.113283
0.195651 0.109163 0.117525
0.231937 0.108278 0.120058
0.269230 0.105013 0.120974
0.308537 0.097658 0.120272
0.350072 0.086244 0.117952
0.393896 0.056886 0.114229
0.440467 0.014862 0.109468
0.489204 0.000000 0.104341
0.539361 0.000000 0.100374
0.590295 0.000000 0.095277
0.641047 0.000000 0.089052
0.691310 0.000000 0.077974
0.739590 0.000000 0.055360
0.784756 0.000000 0.033082
0.825406 0.000000 0.013642
0.861845 0.000000 0.000000
0.896574 0.000000 0.000000
0.928618 0.000000 0.000000
0.957763 0.000000 0.000000
0.984771 0.000000 0.000000
1.000000 0.000000 0.000000
1.000000 0.000000 0.000000
1.000000 0.000000 0.000214
1.000000 0.000000 0.030274
1.000000 0.000000 0.069215
1.000000 0.000000 0.097963
1.000000 0.000000 0.118441
0.104067 0.104067 0.104067
0.104067 0.104067 0.104067
0.111849 0.104768 0.105470
0.132876 0.105806 0.108553
0.161868 0.109163 0.113008
0.195529 0.111421 0.117250
0.231327 0.111025 0.120058
0.268833 0.107515 0.120699
0.307744 0.102144 0.119875
0.349065 0.092256 0.117556
0.392889 0.070466 0.113863
0.439551 0.025299 0.109194
0.488014 0.000000 0.103944
0.538109 0.000000 0.099428
0.588952 0.000000 0.094820
0.639765 0.000000 0.088563
0.689967 0.000000 0.075105
0.738186 0.000000 0.053834
0.783566 0.000000 0.031495
0.824247 0.000000 0.010651
0.860868 0.000000 0.000000
0.895476 0.000000 0.000000
0.927276 0.000000 0.000000
0.956359 0.000000 0.000000
0.983276 0.000000 0.000000
1.000000 0.000000 0.000000
1.000000 0.000000 0.000000
1.000000 0.000000 0.000000
1.000000 0.000000 0.025879
1.000000 0.000000 0.065248
1.000000 0.000000 0.096986
1.000000 0.000000 0.117464
0.102480 0.112886 0.106905
0.103120 0.112825 0.106874
0.109865 0.113100 0.105715
0.131563 0.115511 0.107881
0.161166 0.119295 0.112245
0.194278 0.122011 0.116457
0.230259 0.122255 0.118624
0.267582 0.119631 0.119234
0.306584 0.115084 0.118410
0.347936 0.108309 0.115877
0.391974 0.098054 0.112001
0.438361 0.081514 0.107027
0.486976 0.042847 0.101472
0.536919 0.006928 0.097139
0.587945 0.000000 0.091676
0.638697 0.000000 0.083253
0.688869 0.000000 0.066835
0.737362 0.000000 0.044373
0.782712 0.000000 0.022248
0.823331 0.000000 0.001862
0.860044 0.000000 0.000000
0.894743 0.000000 0.000000
0.926452 0.000000 0.000000
0.955413 0.000000 0.000000
0.982361 0.000000 0.000000
1.000000 0.000000 0.000000
1.000000 0.000000 0.000000
1.000000 0.000000 0.000000
1.000000 0.000000 0.018952
1.000000 0.000000 0.058442
1.000000 0.000000 0.094423
1.000000 0.000000 0.115572
0.099123 0.132479 0.112276
0.099855 0.132448 0.111940
0.107393 0.131289 0.112947
0.127687 0.134646 0.108095
0.159915 0.136355 0.110414
0.192508 0.139437 0.114900
0.228641 0.140627 0.116365
0.265873 0.140200 0.116732
0.305272 0.137514 0.115389
0.346654 0.133364 0.112612
0.390814 0.127260 0.108370
0.437324 0.119875 0.102815
0.485878 0.111574 0.096468
0.535851 0.102754 0.091096
0.586786 0.092073 0.083894
0.637232 0.079011 0.068666
0.687465 0.048585 0.047547
0.735622 0.017609 0.025055
0.781033 0.000000 0.002777
0.821744 0.000000 0.000000
0.858396 0.000000 0.000000
0.893400 0.000000 0.000000
0.924804 0.000000 0.000000
0.953826 0.000000 0.000000
0.980865 0.000000 0.000000
1.000000 0.000000 0.000000
1.000000 0.000000 0.000000
1.000000 0.000000 0.000000
1.000000 0.000000 0.006744
1.000000 0.000000 0.046540
1.000000 0.000000 0.090333
1.000000 0.000000 0.112428
0.090150 0.159304 0.118746
0.091005 0.159274 0.118471
0.100740 0.157931 0.119173
0.118013 0.158541 0.117891
0.150454 0.162081 0.109224
0.189273 0.161654 0.109865
0.225223 0.164248 0.112032
0.262058 0.165560 0.113069
0.302586 0.164797 0.110658
0.344396 0.163272 0.107271
0.388556 0.160403 0.101991
0.435584 0.157015 0.095369
0.483955 0.153964 0.087587
0.534112 0.151064 0.076448
0.584802 0.148440 0.059358
0.635920 0.144259 0.039796
0.686000 0.140383 0.017365
0.734524 0.134310 0.000000
0.779690 0.126528 0.000000
0.820371 0.118349 0.000000
0.857359 0.110445 0.000000
0.892424 0.099763 0.000000
0.923705 0.085664 0.000000
0.952605 0.056275 0.000000
0.979706 0.016358 0.000000
1.000000 0.000000 0.000000
1.000000 0.000000 0.000000
1.000000 0.000000 0.000000
1.000000 0.000000 0.000000
1.000000 0.000000 0.028077
1.000000 0.000000 0.080323
1.000000 0.000000 0.107607
0.041688 0.187991 0.122469
0.043549 0.188144 0.121859
0.076020 0.186862 0.122835
0.104463 0.184573 0.126070
0.132082 0.188388 0.118227
0.176059 0.192020 0.106111
0.219638 0.189517 0.104189
0.258061 0.192294 0.104402
0.299016 0.194797 0.102815
0.340673 0.195621 0.099947
0.386633 0.195804 0.091707
0.433875 0.195468 0.079744
0.482826 0.195529 0.058289
0.532952 0.195834 0.039033
0.584009 0.195956 0.019776
0.635004 0.194980 0.000000
0.685237 0.193606 0.000000
0.733944 0.190341 0.000000
0.779141 0.186252 0.000000
0.819638 0.180911 0.000000
0.857267 0.175906 0.000000
0.891966 0.169589 0.000000
0.930388 0.163210 0.000000
0.959197 0.154696 0.000000
0.986023 0.145296 0.000000
1.000000 0.133944 0.000000
1.000000 0.121126 0.000000
1.000000 0.104677 0.000000
1.000000 0.085206 0.000000
1.000000 0.032349 0.011597
1.000000 0.000000 0.069673
1.000000 0.000000 0.105379
0.000000 0.220066 0.122377
0.000000 0.219852 0.122133
0.000000 0.218906 0.123903
0.053681 0.216739 0.126864
0.108278 0.217227 0.124666
0.152193 0.221683 0.112703
0.204532 0.225498 0.095827
0.252567 0.221378 0.091615
0.294163 0.224796 0.088319
0.338964 0.228733 0.079835
0.385168 0.232609 0.065736
0.433539 0.235325 0.041291
0.484321 0.237797 0.010010
0.535393 0.240055 0.000000
0.586633 0.241855 0.000000
0.637568 0.242527 0.000000
0.687678 0.242100 0.000000
0.735897 0.241032 0.000000
0.780453 0.237888 0.000000
0.821317 0.234043 0.000000
0.860166 0.229374 0.000000
0.894957 0.223819 0.000000
0.926482 0.217746 0.000000
0.955718 0.210605 0.000000
0.983062 0.202579 0.000000
1.000000 0.193851 0.000000
1.000000 0.184176 0.000000
1.000000 0.173922 0.000000
1.000000 0.163058 0.000000
1.000000 0.150576 0.000000
1.000000 0.138705 0.034638
1.000000 0.127077 0.094392
0.000000 0.252415 0.122194
0.000000 0.252232 0.122499
0.000000 0.251560 0.123384
0.000000 0.249638 0.126436
0.042145 0.247776 0.129458
0.123629 0.251957 0.117556
0.178897 0.256840 0.099550
0.235752 0.260014 0.064698
0.286168 0.256626 0.048341
0.330755 0.259525 0.030915
0.378485 0.265568 0.008942
0.428992 0.271427 0.000000
0.478828 0.276463 0.000000
0.530632 0.280522 0.000000
0.582971 0.283635 0.000000
0.634577 0.285344 0.000000
0.684749 0.285924 0.000000
0.732937 0.285466 0.000000
0.777737 0.283146 0.000000
0.819883 0.280369 0.000000
0.857908 0.275792 0.000000
0.892241 0.270878 0.000000
0.923705 0.265232 0.000000
0.952972 0.258915 0.000000
0.980499 0.252018 0.000000
1.000000 0.244022 0.000000
1.000000 0.235355 0.000000
1.000000 0.225803 0.000000
1.000000 0.216526 0.000000
1.000000 0.206607 0.000000
1.000000 0.197055 0.000000
1.000000 0.188144 0.072114
0.000000 0.287114 0.125277
0.000000 0.286931 0.125582
0.000000 0.286198 0.126772
0.000000 0.284764 0.129641
0.000000 0.282536 0.134035
0.058991 0.282994 0.130922
0.145785 0.287785 0.114290
0.207218 0.292546 0.091249
0.267338 0.296178 0.026398
0.320104 0.292058 0.001862
0.367529 0.294926 0.000000
0.417792 0.302770 0.000000
0.471107 0.310674 0.000000
0.525658 0.318059 0.000000
0.577081 0.323003 0.000000
0.629480 0.326116 0.000000
0.680873 0.328069 0.000000
0.730495 0.328344 0.000000
0.776669 0.327245 0.000000
0.817899 0.324193 0.000000
0.855375 0.320043 0.000000
0.889464 0.314946 0.000000
0.920836 0.308934 0.000000
0.950134 0.302800 0.000000
0.977722 0.296635 0.000000
1.000000 0.289464 0.000000
1.000000 0.281132 0.000000
1.000000 0.272038 0.000000
1.000000 0.263157 0.000000
1.000000 0.254185 0.000000
1.000000 0.245365 0.000000
1.000000 0.236912 0.026215
0.000000 0.325170 0.128054
0.000000 0.325109 0.128573
0.000000 0.324529 0.129427
0.000000 0.323217 0.132509
0.000000 0.321141 0.136568
0.000000 0.318456 0.141482
0.090517 0.322118 0.128450
0.171969 0.327337 0.107271
0.238682 0.332097 0.061128
0.301701 0.335363 0.000000
0.352941 0.327733 0.000000
0.406348 0.332311 0.000000
0.459205 0.342107 0.000000
0.514092 0.351110 0.000000
0.570275 0.359625 0.000000
0.625025 0.366033 0.000000
0.677241 0.369848 0.000000
0.728206 0.371801 0.000000
0.774411 0.370733 0.000000
0.815885 0.367712 0.000000
0.852750 0.363317 0.000000
0.886351 0.357702 0.000000
0.917357 0.351659 0.000000
0.946593 0.345129 0.000000
0.974060 0.338689 0.000000
1.000000 0.331579 0.000000
1.000000 0.323949 0.000000
1.000000 0.315373 0.000000
1.000000 0.306340 0.000000
1.000000 0.297642 0.000000
1.000000 0.288945 0.000000
1.000000 0.280705 0.000000
0.000000 0.366705 0.129824
0.000000 0.366644 0.130068
0.000000 0.366247 0.130892
0.000000 0.365148 0.134340
0.000000 0.363470 0.138033
0.000000 0.361517 0.143587
0.000000 0.361120 0.142672
0.116243 0.365576 0.123171
0.202396 0.370550 0.094362
0.273686 0.375586 0.000000
0.339666 0.378393 0.000000
0.392737 0.370550 0.000000
0.448524 0.372808 0.000000
0.502983 0.383520 0.000000
0.560204 0.394110 0.000000
0.617700 0.403296 0.000000
0.674067 0.410132 0.000000
0.724819 0.413916 0.000000
0.770077 0.413275 0.000000
0.811307 0.410315 0.000000
0.848844 0.405524 0.000000
0.882902 0.399634 0.000000
0.913970 0.393317 0.000000
0.943175 0.386603 0.000000
0.970855 0.379644 0.000000
0.997070 0.372503 0.000000
1.000000 0.365301 0.000000
1.000000 0.356664 0.000000
1.000000 0.347723 0.000000
1.000000 0.338903 0.000000
1.000000 0.330053 0.000000
1.000000 0.321904 0.000000
0.000000 0.412848 0.130892
0.000000 0.412848 0.131106
0.000000 0.412238 0.133059
0.000000 0.411475 0.135866
0.000000 0.410285 0.139345
0.000000 0.408392 0.145541
0.000000 0.406073 0.152834
0.000000 0.408637 0.140444
0.149355 0.413306 0.113680
0.237888 0.418036 0.052338
0.312016 0.422614 0.000000
0.381140 0.425757 0.000000
0.442145 0.422431 0.000000
0.500328 0.422034 0.000000
0.557855 0.433845 0.000000
0.615412 0.444038 0.000000
0.671870 0.451972 0.000000
0.725399 0.456825 0.000000
0.773617 0.458167 0.000000
0.813199 0.455848 0.000000
0.850126 0.450721 0.000000
0.883726 0.444282 0.000000
0.915068 0.437263 0.000000
0.944549 0.429847 0.000000
0.971832 0.422278 0.000000
0.997864 0.414343 0.000000
1.000000 0.406622 0.000000
1.000000 0.398077 0.000000
1.000000 0.388891 0.000000
1.000000 0.379675 0.000000
1.000000 0.370642 0.000000
1.000000 0.362280 0.000000
0.000000 0.463996 0.134157
0.000000 0.464057 0.134340
0.000000 0.463630 0.135683
0.000000 0.462776 0.138247
0.000000 0.461494 0.142458
0.000000 0.459968 0.148379
0.000000 0.457771 0.156313
0.000000 0.457374 0.159152
0.000000 0.461921 0.134279
0.187442 0.467170 0.096345
0.278477 0.472450 0.000000
0.356847 0.477577 0.000000
0.429297 0.479744 0.000000
0.487587 0.471199 0.000000
0.546624 0.468208 0.000000
0.603479 0.477699 0.000000
0.659785 0.486641 0.000000
0.712764 0.492348 0.000000
0.761227 0.494362 0.000000
0.804959 0.493385 0.000000
0.843626 0.489967 0.000000
0.876707 0.484535 0.000000
0.908476 0.477241 0.000000
0.938201 0.469856 0.000000
0.966430 0.461860 0.000000
0.993347 0.453437 0.000000
1.000000 0.445441 0.000000
1.000000 0.437018 0.000000
1.000000 0.427527 0.000000
1.000000 0.418189 0.000000
1.000000 0.408942 0.000000
1.000000 0.400061 0.000000
0.000000 0.516503 0.136355
0.000000 0.516472 0.136324
0.000000 0.515923 0.137514
0.000000 0.515343 0.140627
0.000000 0.514275 0.145083
0.000000 0.512932 0.151217
0.000000 0.511406 0.159060
0.000000 0.509483 0.168368
0.000000 0.511131 0.156619
0.052430 0.515526 0.123568
0.228000 0.520104 0.037629
0.319768 0.524681 0.000000
0.399786 0.528801 0.000000
0.473335 0.529686 0.000000
0.532708 0.520256 0.000000
0.592645 0.516106 0.000000
0.646601 0.519982 0.000000
0.699641 0.526482 0.000000
0.748196 0.529107 0.000000
0.792386 0.528649 0.000000
0.832731 0.526055 0.000000
0.869932 0.521843 0.000000
0.902251 0.516197 0.000000
0.932128 0.509117 0.000000
0.960693 0.500999 0.000000
0.987915 0.492531 0.000000
1.000000 0.483925 0.000000
1.000000 0.475013 0.000000
1.000000 0.465370 0.000000
1.000000 0.455787 0.000000
1.000000 0.446296 0.000000
1.000000 0.437201 0.000000
0.000000 0.568750 0.139437
0.000000 0.568627 0.139498
0.000000 0.568200 0.141268
0.000000 0.567529 0.143954
0.000000 0.566369 0.148623
0.000000 0.564965 0.155276
0.000000 0.563409 0.163485
0.000000 0.561730 0.172763
0.000000 0.560113 0.181277
0.000000 0.563714 0.152865
0.141512 0.567590 0.106477
0.269810 0.571557 0.000000
0.361364 0.574945 0.000000
0.441596 0.577935 0.000000
0.515618 0.577508 0.000000
0.575982 0.567193 0.000000
0.636591 0.562310 0.000000
0.686366 0.559747 0.000000
0.734859 0.562951 0.000000
0.779416 0.562982 0.000000
0.820432 0.560784 0.000000
0.858457 0.556970 0.000000
0.893797 0.551995 0.000000
0.926787 0.545861 0.000000
0.954772 0.539391 0.000000
0.982238 0.530968 0.000000
1.000000 0.522087 0.000000
1.000000 0.513024 0.000000
1.000000 0.503075 0.000000
1.000000 0.492958 0.000000
1.000000 0.483131 0.000000
1.000000 0.473823 0.000000
0.000000 0.617762 0.146029
0.000000 0.617731 0.146456
0.000000 0.617304 0.148348
0.000000 0.616907 0.151034
0.000000 0.616022 0.155886
0.000000 0.615106 0.161654
0.000000 0.613825 0.170382
0.000000 0.612482 0.179629
0.000000 0.610712 0.191470
0.000000 0.611536 0.183078
0.000000 0.614405 0.148196
0.196750 0.617273 0.084138
0.312200 0.619806 0.000000
0.401190 0.621668 0.000000
0.480934 0.622858 0.000000
0.553704 0.620783 0.000000
0.614771 0.610193 0.000000
0.676173 0.605005 0.000000
0.720790 0.595209 0.000000
0.765682 0.595850 0.000000
0.807645 0.594415 0.000000
0.846708 0.591028 0.000000
0.882872 0.586450 0.000000
0.916686 0.580743 0.000000
0.948425 0.574243 0.000000
0.977417 0.567132 0.000000
1.000000 0.559808 0.000000
1.000000 0.550500 0.000000
1.000000 0.540398 0.000000
1.000000 0.530083 0.000000
1.000000 0.519707 0.000000
1.000000 0.509667 0.000000
0.000000 0.661585 0.159060
0.000000 0.661524 0.159823
0.000000 0.661280 0.161013
0.000000 0.660883 0.163668
0.000000 0.660182 0.168582
0.000000 0.659358 0.174594
0.000000 0.658228 0.182589
0.000000 0.656947 0.192233
0.000000 0.655482 0.203220
0.000000 0.653803 0.215946
0.000000 0.655726 0.188083
0.000000 0.657893 0.146059
0.247440 0.659937 0.032532
0.351904 0.661097 0.000000
0.437568 0.661769 0.000000
0.515618 0.661860 0.000000
0.587427 0.658564 0.000000
0.648310 0.648280 0.000000
0.708583 0.641657 0.000000
0.752041 0.628016 0.000000
0.794827 0.627283 0.000000
0.834562 0.624567 0.000000
0.871580 0.620233 0.000000
0.906249 0.614740 0.000000
0.938750 0.608545 0.000000
0.969421 0.601526 0.000000
0.998352 0.593957 0.000000
1.000000 0.586114 0.000000
1.000000 0.577173 0.000000
1.000000 0.566766 0.000000
1.000000 0.556298 0.000000
1.000000 0.546044 0.000000
0.000000 0.699977 0.180362
0.000000 0.700069 0.180728
0.000000 0.704280 0.184878
0.000000 0.703883 0.187839
0.000000 0.703334 0.191989
0.000000 0.702480 0.197513
0.000000 0.701503 0.204349
0.000000 0.700191 0.213657
0.000000 0.698878 0.223911
0.000000 0.697169 0.236240
0.000000 0.696803 0.233127
0.000000 0.698329 0.200748
0.156527 0.699550 0.153414
0.295933 0.700374 0.022858
0.391028 0.700526 0.000000
0.473579 0.700130 0.000000
0.549645 0.698878 0.000000
0.619745 0.694911 0.000000
0.680293 0.684504 0.000000
0.738094 0.675441 0.000000
0.783566 0.661067 0.000000
0.823880 0.658595 0.000000
0.861418 0.654536 0.000000
0.896635 0.649134 0.000000
0.929717 0.642756 0.000000
0.960967 0.635706 0.000000
0.990326 0.627985 0.000000
1.000000 0.619684 0.000000
1.000000 0.610712 0.000000
1.000000 0.602380 0.000000
1.000000 0.592157 0.000000
1.000000 0.581811 0.000000
0.000000 0.735348 0.206180
0.000000 0.735714 0.206699
0.000000 0.735927 0.207980
0.000000 0.735988 0.211063
0.000000 0.735683 0.215213
0.000000 0.735164 0.220005
0.000000 0.734310 0.226596
0.000000 0.733150 0.234653
0.000000 0.731960 0.244022
0.000000 0.730465 0.255406
0.000000 0.728756 0.267674
0.000000 0.729610 0.246464
0.000000 0.730709 0.209934
0.225834 0.731533 0.159823
0.336889 0.731777 0.024079
0.425330 0.731502 0.000000
0.503807 0.730648 0.000000
0.577508 0.729061 0.000000
0.646601 0.724910 0.000000
0.707118 0.715206 0.000000
0.762814 0.704738 0.000000
0.811398 0.692866 0.000000
0.849332 0.686641 0.000000
0.885374 0.681605 0.000000
0.919219 0.675593 0.000000
0.951141 0.668666 0.000000
0.981170 0.661067 0.000000
1.000000 0.652735 0.000000
1.000000 0.643549 0.000000
1.000000 0.633967 0.000000
1.000000 0.625177 0.000000
1.000000 0.616785 0.000000
0.000000 0.765560 0.232547
0.000000 0.765835 0.233219
0.000000 0.766079 0.234165
0.000000 0.766171 0.236667
0.000000 0.765957 0.240635
0.000000 0.765469 0.245487
0.000000 0.764736 0.251133
0.000000 0.763790 0.258640
0.000000 0.762600 0.267552
0.000000 0.761257 0.277501
0.000000 0.759823 0.288762
0.000000 0.758846 0.291356
0.000000 0.759945 0.260410
0.133516 0.760769 0.221805
0.280491 0.761135 0.169284
0.375494 0.761105 0.019287
0.457496 0.760494 0.000000
0.532830 0.759335 0.000000
0.604517 0.757473 0.000000
0.671809 0.753262 0.000000
0.731838 0.744137 0.000000
0.787839 0.734524 0.000000
0.837858 0.723903 0.000000
0.873716 0.713649 0.000000
0.908324 0.707912 0.000000
0.941009 0.701198 0.000000
0.971832 0.693660 0.000000
1.000000 0.685389 0.000000
1.000000 0.676112 0.000000
1.000000 0.666438 0.000000
1.000000 0.656672 0.000000
1.000000 0.647089 0.000000
0.000000 0.793423 0.260288
0.000000 0.793729 0.260655
0.000000 0.793881 0.261906
0.000000 0.793912 0.264347
0.000000 0.793790 0.267247
0.000000 0.793271 0.271763
0.000000 0.792660 0.277348
0.000000 0.791775 0.283757
0.000000 0.790768 0.292058
0.000000 0.789517 0.301305
0.000000 0.788205 0.312047
0.000000 0.786587 0.324376
0.000000 0.786954 0.307713
0.000000 0.787778 0.275242
0.220645 0.788449 0.234531
0.326238 0.788632 0.178042
0.411017 0.788479 0.029664
0.487556 0.787839 0.000000
0.560113 0.786648 0.000000
0.629877 0.784939 0.000000
0.696254 0.780819 0.000000
0.756191 0.772427 0.000000
0.812314 0.763546 0.000000
0.864408 0.754940 0.000000
0.898863 0.740993 0.000000
0.932341 0.734554 0.000000
0.963806 0.727108 0.000000
0.993439 0.718807 0.000000
1.000000 0.709438 0.000000
1.000000 0.699641 0.000000
1.000000 0.689662 0.000000
1.000000 0.679652 0.000000
0.000000 0.821042 0.291112
0.000000 0.821164 0.291051
0.000000 0.821073 0.292485
0.000000 0.820951 0.294133
0.000000 0.820615 0.297063
0.000000 0.820096 0.300664
0.000000 0.819455 0.305364
0.000000 0.818662 0.311406
0.000000 0.817716 0.318883
0.000000 0.816587 0.327825
0.000000 0.815335 0.337896
0.000000 0.813870 0.349279
0.000000 0.812802 0.354284
0.000000 0.813840 0.325994
0.165438 0.814572 0.291630
0.281071 0.815061 0.247501
0.367315 0.815183 0.187594
0.444312 0.814878 0.028901
0.516442 0.814023 0.000000
0.586145 0.812711 0.000000
0.654017 0.810788 0.000000
0.719142 0.806546 0.000000
0.778561 0.798459 0.000000
0.834348 0.789883 0.000000
0.888396 0.783413 0.000000
0.921630 0.766110 0.000000
0.953857 0.758938 0.000000
0.983978 0.750576 0.000000
1.000000 0.741238 0.000000
1.000000 0.731472 0.000000
1.000000 0.721370 0.000000
1.000000 0.711025 0.000000
0.000000 0.845151 0.319280
0.000000 0.845182 0.319310
0.000000 0.845212 0.320226
0.000000 0.844999 0.322148
0.000000 0.844724 0.324376
0.000000 0.844297 0.328038
0.000000 0.843687 0.332250
0.000000 0.842954 0.338048
0.000000 0.842069 0.344793
0.000000 0.841062 0.353094
0.000000 0.839902 0.362493
0.000000 0.838590 0.372778
0.000000 0.837003 0.384588
0.000000 0.837247 0.371832
0.118837 0.838254 0.341161
0.243015 0.839078 0.303899
0.328130 0.839567 0.257420
0.402991 0.839689 0.192050
0.474037 0.839353 0.000000
0.542931 0.838529 0.000000
0.610498 0.837156 0.000000
0.676875 0.835233 0.000000
0.740810 0.831052 0.000000
0.799832 0.823484 0.000000
0.854673 0.814664 0.000000
0.911040 0.810361 0.000000
0.943359 0.790097 0.000000
0.973816 0.781735 0.000000
1.000000 0.772610 0.000000
1.000000 0.762783 0.000000
1.000000 0.752560 0.000000
1.000000 0.742123 0.000000
0.000000 0.868559 0.347906
0.000000 0.868681 0.348363
0.000000 0.868620 0.349340
0.000000 0.868467 0.350347
0.000000 0.868070 0.352575
0.000000 0.867582 0.355749
0.000000 0.866880 0.359716
0.000000 0.866056 0.364538
0.000000 0.865110 0.370703
0.000000 0.864012 0.378149
0.000000 0.862821 0.386511
0.000000 0.861479 0.396033
0.000000 0.859983 0.406683
0.000000 0.858610 0.414771
0.106722 0.859739 0.386694
0.216526 0.860685 0.352789
0.295109 0.861418 0.312383
0.365911 0.861875 0.260716
0.433478 0.861997 0.187930
0.500389 0.861692 0.000000
0.566644 0.860899 0.000000
0.632197 0.859556 0.000000
0.697353 0.857542 0.000000
0.760311 0.853391 0.000000
0.818845 0.846128 0.000000
0.874327 0.838437 0.000000
0.932738 0.836301 0.000000
0.963500 0.812711 0.000000
0.992798 0.803586 0.000000
1.000000 0.793851 0.000000
1.000000 0.783627 0.000000
1.000000 0.772946 0.000000
0.000000 0.889220 0.372351
0.000000 0.889311 0.372747
0.000000 0.889311 0.373754
0.000000 0.889128 0.374914
0.000000 0.888823 0.377356
0.000000 0.888457 0.379858
0.000000 0.887907 0.383886
0.000000 0.887175 0.388983
0.000000 0.886442 0.394507
0.000000 0.885527 0.401587
0.000000 0.884428 0.409827
0.000000 0.883207 0.419043
0.000000 0.881834 0.429023
0.000000 0.880247 0.440131
0.147127 0.880247 0.429755
0.215305 0.881437 0.399786
0.276707 0.882475 0.363165
0.337621 0.883268 0.319158
0.399023 0.883818 0.261479
0.461402 0.883970 0.176822
0.524956 0.883665 0.000000
0.588891 0.882872 0.000000
0.653071 0.881498 0.000000
0.717098 0.879515 0.000000
0.779599 0.875395 0.000000
0.837461 0.868406 0.000000
0.892271 0.861021 0.000000
0.949584 0.858183 0.000000
0.983368 0.837339 0.000000
1.000000 0.825406 0.000000
1.000000 0.815061 0.000000
1.000000 0.804227 0.000000
0.000000 0.909209 0.396185
0.000000 0.909209 0.396551
0.000000 0.909148 0.397223
0.000000 0.908995 0.398108
0.000000 0.908721 0.400366
0.000000 0.908293 0.403052
0.000000 0.907805 0.406317
0.000000 0.907134 0.411200
0.000000 0.906371 0.416571
0.000000 0.905486 0.423163
0.000000 0.904417 0.430854
0.000000 0.903258 0.439246
0.000000 0.901915 0.448859
0.000000 0.900450 0.459327
0.194644 0.898924 0.468971
0.228031 0.900328 0.440681
0.270207 0.901610 0.407691
0.317357 0.902770 0.367071
0.370092 0.903655 0.317754
0.425879 0.904295 0.252110
0.484901 0.904509 0.144533
0.545953 0.904265 0.000000
0.608698 0.903288 0.000000
0.671962 0.901610 0.000000
0.734463 0.899382 0.000000
0.795468 0.895262 0.000000
0.852964 0.888731 0.000000
0.907958 0.881743 0.000000
0.964202 0.877897 0.000000
1.000000 0.860502 0.000000
1.000000 0.845975 0.000000
1.000000 0.834928 0.000000
0.000000 0.927672 0.416297
0.000000 0.927703 0.416724
0.000000 0.927642 0.417395
0.000000 0.927520 0.418585
0.000000 0.927276 0.420478
0.000000 0.926970 0.422980
0.000000 0.926604 0.426825
0.000000 0.926085 0.431861
0.000000 0.925536 0.437415
0.000000 0.924834 0.444160
0.000000 0.924010 0.451942
0.000000 0.923033 0.460487
0.000000 0.921935 0.469612
0.000000 0.920623 0.480140
0.208927 0.919097 0.490730
0.262394 0.919188 0.481819
0.283207 0.920775 0.451179
0.313634 0.922240 0.414313
0.354528 0.923430 0.372351
0.405432 0.924102 0.329290
0.458747 0.924529 0.274876
0.514397 0.924529 0.196689
0.571740 0.924071 0.000000
0.630732 0.923125 0.000000
0.690791 0.921569 0.000000
0.751400 0.919463 0.000000
0.811673 0.915648 0.000000
0.869291 0.909453 0.000000
0.924254 0.902953 0.000000
0.979370 0.898314 0.000000
1.000000 0.884123 0.000000
1.000000 0.866880 0.000000
0.000000 0.946197 0.436896
0.000000 0.946197 0.437079
0.000000 0.946105 0.437629
0.000000 0.945922 0.438514
0.000000 0.945678 0.440406
0.000000 0.945312 0.442786
0.000000 0.944854 0.445991
0.000000 0.944305 0.449958
0.000000 0.943633 0.455146
0.000000 0.942840 0.461097
0.000000 0.941924 0.467964
0.000000 0.940887 0.475563
0.000000 0.939574 0.486275
0.000000 0.938079 0.498695
