20 Preset/Fresh Style/【3】LUT video cho PR-AE-FCPX/Tone  (3).cube
# Created by Adobe Lightroom plugin Export LUT (1.24.0)
# www.johnrellis.com/lightroom/exportlut.htm
# Preset: 03现代清新（素材江湖）
# Color profile: E:\lut插件\exportlut.1.24\exportlut.lrplugin\color profiles\Rec709gamma2.4.icc
LUT_3D_SIZE 8
DOMAIN_MIN 0.000000 0.000000 0.000000
DOMAIN_MAX 0.903226 0.903226 0.903226
0.104067 0.104067 0.104067
0.153658 0.109041 0.114809
0.312535 0.092988 0.128847
0.528985 0.000000 0.121035
0.757656 0.000000 0.111208
0.913115 0.000000 0.110780
1.000000 0.000000 0.148104
1.000000 0.000000 0.208743
0.089265 0.155917 0.116854
0.142641 0.154696 0.114534
0.306950 0.164920 0.109316
0.515435 0.154635 0.091371
0.740688 0.133669 0.048554
0.900908 0.102327 0.045533
1.000000 0.093660 0.117342
1.000000 0.118868 0.187259
0.000000 0.293889 0.114656
0.000000 0.288609 0.124422
0.260472 0.292607 0.081331
0.504265 0.338415 0.000000
0.737118 0.363348 0.000000
0.911070 0.346899 0.000000
1.000000 0.321141 0.000000
1.000000 0.298497 0.118898
0.000000 0.489540 0.104402
0.000000 0.485176 0.116976
0.000000 0.484077 0.131380
0.444617 0.506218 0.000000
0.728908 0.545434 0.000000
0.895995 0.538476 0.000000
1.000000 0.499397 0.000000
1.000000 0.458350 0.000000
0.000000 0.692561 0.144808
0.000000 0.690700 0.155856
0.000000 0.686030 0.199100
0.244755 0.684993 0.155398
0.594781 0.677882 0.000000
0.826566 0.661433 0.000000
0.962829 0.641321 0.000000
1.000000 0.614038 0.000000
0.000000 0.803189 0.274815
0.000000 0.805844 0.287449
0.000000 0.802579 0.312535
0.000000 0.796841 0.349706
0.427680 0.792721 0.251347
0.690822 0.783963 0.000000
0.912352 0.761654 0.000000
1.000000 0.738094 0.000000
0.000000 0.891814 0.388128
0.000000 0.891936 0.394141
0.000000 0.889036 0.409796
0.000000 0.884062 0.443030
0.328893 0.879820 0.422339
0.546319 0.877775 0.303014
0.768826 0.871031 0.000000
0.985046 0.852354 0.000000
0.000000 0.970367 0.461280
0.000000 0.969818 0.465583
0.000000 0.967803 0.484627
0.000000 0.964233 0.520897
0.356878 0.953063 0.553826
0.503075 0.954070 0.517144
0.659754 0.954162 0.440833
0.840208 0.948669 0.293950
0.102785 0.118532 0.175479
0.164370 0.108736 0.173526
0.305119 0.096345 0.180941
0.462715 0.089509 0.196139
0.704005 0.000000 0.194217
0.882444 0.000000 0.199222
1.000000 0.000000 0.219608
1.000000 0.079286 0.237583
0.092042 0.161135 0.165225
0.152743 0.155642 0.163302
0.273350 0.163363 0.175265
0.465583 0.152468 0.180697
0.701137 0.122957 0.182864
0.881132 0.101442 0.188296
0.994965 0.125490 0.206821
1.000000 0.152468 0.223514
0.057710 0.276799 0.187228
0.104555 0.274754 0.181369
0.249180 0.273533 0.171511
0.469184 0.312078 0.140200
0.702541 0.333562 0.120729
0.883452 0.327550 0.130404
0.995178 0.311681 0.165103
1.000000 0.301061 0.188632
0.000000 0.463416 0.190280
0.000000 0.461677 0.187045
0.000000 0.459388 0.210422
0.415595 0.470100 0.139559
0.684596 0.509819 0.000000
0.864591 0.515953 0.000000
0.981109 0.482277 0.000000
1.000000 0.449683 0.000000
0.000000 0.679561 0.217868
0.000000 0.676875 0.223514
0.000000 0.670649 0.251225
0.257176 0.665736 0.234226
0.578607 0.657130 0.000000
0.808865 0.646326 0.000000
0.948211 0.631128 0.000000
1.000000 0.606256 0.000000
0.000000 0.792935 0.311345
0.000000 0.792477 0.316960
0.000000 0.789731 0.339391
0.000000 0.785000 0.382330
0.435401 0.782376 0.304326
0.686152 0.775998 0.128725
0.903807 0.754879 0.000000
1.000000 0.733028 0.000000
0.000000 0.883543 0.409644
0.000000 0.882170 0.411414
0.000000 0.879240 0.425513
0.000000 0.875151 0.457649
0.358587 0.872282 0.450507
0.552209 0.870695 0.346319
0.764218 0.863310 0.000000
0.978729 0.844968 0.000000
0.000000 0.965454 0.472450
0.000000 0.965545 0.477729
0.000000 0.963775 0.490272
0.000000 0.960906 0.517205
0.370947 0.955322 0.560418
0.506249 0.954711 0.518547
0.659480 0.953307 0.437537
0.840360 0.947692 0.288518
0.080537 0.100130 0.389227
0.185916 0.088899 0.383581
0.327764 0.020508 0.354314
0.527825 0.000000 0.377813
0.744991 0.000000 0.398718
0.876432 0.123964 0.412207
0.954406 0.325902 0.462867
1.000000 0.367163 0.478401
0.036530 0.175540 0.353948
0.163149 0.170718 0.349035
0.300999 0.148928 0.330083
0.504936 0.101045 0.360143
0.717891 0.018067 0.384192
0.856535 0.217533 0.410529
0.953246 0.315007 0.442542
1.000000 0.367803 0.466438
0.000000 0.300359 0.316991
0.097597 0.295567 0.314397
0.277256 0.287053 0.315312
0.450080 0.292790 0.328710
0.655726 0.314672 0.359930
0.841398 0.349401 0.395605
0.956237 0.386664 0.425849
1.000000 0.415167 0.448310
0.000000 0.460822 0.313115
0.000000 0.461707 0.319768
0.252567 0.457527 0.342351
0.420447 0.458869 0.331121
0.671382 0.496895 0.324498
0.842130 0.505058 0.355749
0.958404 0.500908 0.384649
1.000000 0.498146 0.403265
0.000000 0.657496 0.402564
0.000000 0.657008 0.399603
0.000000 0.656184 0.390509
0.354345 0.651911 0.418616
0.581781 0.645808 0.352026
0.795712 0.640558 0.310216
0.932036 0.635462 0.332555
1.000000 0.618158 0.341588
0.000000 0.777340 0.455818
0.000000 0.777584 0.456001
0.000000 0.776181 0.459052
0.342809 0.771603 0.489326
0.498543 0.768307 0.467536
0.689540 0.763973 0.387518
0.889128 0.749660 0.294102
1.000000 0.737118 0.267887
0.000000 0.874846 0.523919
0.000000 0.873960 0.522759
0.218082 0.870878 0.530236
0.367163 0.866758 0.551507
0.488472 0.862516 0.568292
0.605798 0.862882 0.503532
0.774624 0.859220 0.390448
0.975525 0.842191 0.115908
0.000000 0.959136 0.563043
0.000000 0.958434 0.564111
0.212467 0.956847 0.572686
0.358068 0.955291 0.593561
0.474311 0.951080 0.617975
0.564019 0.951293 0.585901
0.679774 0.952300 0.489326
0.846983 0.948394 0.286412
0.000000 0.060395 0.629786
0.187747 0.032136 0.627619
0.368841 0.000000 0.606622
0.528496 0.000000 0.575097
0.737484 0.000000 0.593133
0.924010 0.000000 0.600610
0.992004 0.282353 0.584222
1.000000 0.432441 0.608331
0.000000 0.182406 0.611841
0.157412 0.177798 0.608301
0.351110 0.150607 0.591333
0.515099 0.000000 0.564263
0.729763 0.000000 0.586481
0.913207 0.148959 0.597162
0.981231 0.330846 0.586267
1.000000 0.461830 0.614435
0.000000 0.343938 0.569665
0.008331 0.338140 0.565240
0.300664 0.316777 0.551049
0.471870 0.273167 0.528862
0.713313 0.288853 0.572869
0.870085 0.388037 0.591302
0.943847 0.482765 0.610803
0.999939 0.562646 0.645899
0.000000 0.506432 0.536309
0.000000 0.502464 0.533837
0.237430 0.491066 0.528435
0.467628 0.483833 0.530297
0.661280 0.498299 0.548363
0.773892 0.540154 0.575586
0.882719 0.579553 0.608240
0.985504 0.610285 0.634180
0.000000 0.649226 0.480018
0.000000 0.647456 0.483345
0.212741 0.644343 0.502770
0.483131 0.642634 0.552392
0.603937 0.639094 0.548669
0.771969 0.649958 0.552239
0.891325 0.665309 0.584466
0.995941 0.673701 0.603235
0.272770 0.768582 0.562585
0.324285 0.769711 0.572503
0.440650 0.763149 0.595148
0.516228 0.761013 0.607568
0.599634 0.758419 0.627649
0.707027 0.753658 0.581323
0.864714 0.754299 0.553948
0.986023 0.763333 0.568353
0.466957 0.859678 0.645594
0.472206 0.859983 0.646021
0.491005 0.859953 0.646143
0.527886 0.859648 0.648981
0.602350 0.856443 0.669764
0.675898 0.854948 0.649836
0.792447 0.851560 0.593591
0.956390 0.843229 0.509850
0.452674 0.952331 0.671168
0.456519 0.952087 0.671046
0.471931 0.951507 0.670527
0.517510 0.949981 0.677974
0.585412 0.946563 0.694179
0.653712 0.944457 0.695399
0.739254 0.945739 0.647547
0.868193 0.944335 0.560204
0.059236 0.117311 0.778592
0.187045 0.114961 0.777951
0.355627 0.092042 0.770077
0.520317 0.000000 0.756558
0.682734 0.000000 0.741970
0.874662 0.000000 0.754696
0.999817 0.253513 0.737240
1.000000 0.432319 0.729397
0.066743 0.207980 0.772000
0.185702 0.206027 0.771725
0.350805 0.192538 0.765011
0.514122 0.149905 0.751003
0.677943 0.000000 0.738399
0.869291 0.000000 0.751125
0.993011 0.311772 0.736904
1.000000 0.462257 0.731441
0.152316 0.376135 0.750088
0.211124 0.373816 0.748928
0.346014 0.362036 0.743099
0.500420 0.339361 0.735378
0.655207 0.286442 0.719356
0.839963 0.315709 0.730404
0.963622 0.458320 0.734005
1.000000 0.544579 0.734096
0.234226 0.537682 0.731868
0.285222 0.538445 0.730129
0.398810 0.538964 0.723995
0.512749 0.526787 0.713680
0.633387 0.484504 0.698634
0.800931 0.519371 0.711666
0.917296 0.605798 0.734279
0.991547 0.639216 0.738338
0.000000 0.664607 0.697139
0.000000 0.663355 0.696376
0.311437 0.657862 0.692683
0.496407 0.650843 0.687587
0.633783 0.646326 0.683436
0.761471 0.659968 0.697444
0.842802 0.683833 0.709438
0.938994 0.707362 0.729030
0.000000 0.744594 0.595209
0.000000 0.743771 0.596643
0.260716 0.740291 0.608759
0.472908 0.738064 0.637629
0.629694 0.735775 0.676509
0.715633 0.739254 0.685725
0.842924 0.757656 0.692012
0.955444 0.777157 0.711727
0.391272 0.854826 0.665370
0.408515 0.853696 0.667475
0.479438 0.849302 0.679103
0.588617 0.844205 0.706569
0.657282 0.843412 0.722591
0.717891 0.843107 0.736477
0.800534 0.838987 0.701259
0.934539 0.842191 0.672511
0.539818 0.941924 0.731258
0.553002 0.940978 0.734798
0.591852 0.938445 0.744839
0.617487 0.940215 0.747280
0.651820 0.939818 0.750027
0.714900 0.936889 0.768826
0.778164 0.937316 0.745998
0.881437 0.935943 0.698360
0.176638 0.199100 0.875669
0.226474 0.199893 0.875212
0.350103 0.199619 0.870054
0.493477 0.195193 0.864469
0.638453 0.173587 0.856748
0.781308 0.095094 0.844938
0.945678 0.200046 0.854765
1.000000 0.396643 0.845670
0.202182 0.259739 0.867247
0.242649 0.259312 0.866209
0.354742 0.255833 0.862150
0.492653 0.250675 0.857786
0.633387 0.228885 0.849332
0.774441 0.177676 0.838010
0.937987 0.250095 0.848722
1.000000 0.421729 0.842374
0.320317 0.428962 0.858915
0.340368 0.427832 0.858213
0.412085 0.423804 0.855711
0.514305 0.409644 0.848020
0.634638 0.387396 0.838651
0.763455 0.347875 0.826535
0.921324 0.404517 0.839414
1.000000 0.527947 0.841703
0.451759 0.591363 0.843565
0.466468 0.592584 0.841794
0.518242 0.597284 0.836973
0.579309 0.588952 0.833860
0.658228 0.567590 0.825895
0.755276 0.527611 0.813321
0.896971 0.567529 0.828214
1.000000 0.646845 0.844388
0.461036 0.682460 0.820737
0.478096 0.683436 0.819730
0.538567 0.687800 0.816312
0.612940 0.692012 0.811002
0.671138 0.680598 0.802182
0.739406 0.649348 0.789609
0.868467 0.672389 0.807919
0.986694 0.730617 0.836423
0.370489 0.764767 0.791348
0.394873 0.765347 0.792020
0.462837 0.762753 0.789670
0.555261 0.758541 0.786099
0.650690 0.753536 0.781796
0.741451 0.751003 0.779751
0.853666 0.770321 0.799313
0.928161 0.787228 0.807645
0.293828 0.843015 0.724483
0.319615 0.842985 0.725307
0.392859 0.840024 0.725154
0.496742 0.835386 0.727382
0.625086 0.834195 0.750179
0.747250 0.835508 0.784207
0.814359 0.835447 0.785031
0.930114 0.852079 0.787686
0.424292 0.943725 0.746120
0.437049 0.942992 0.747341
0.489784 0.941466 0.754696
0.579095 0.939300 0.771481
0.693690 0.933227 0.800931
0.761074 0.931762 0.817868
0.819394 0.931640 0.830655
0.894865 0.930358 0.797574
0.273442 0.287327 0.951232
0.296483 0.286900 0.950011
0.377996 0.292332 0.948516
0.488777 0.296788 0.944762
0.609430 0.295445 0.938811
0.732723 0.282292 0.930968
0.859312 0.262181 0.923369
0.999603 0.347753 0.929931
0.314702 0.344884 0.952544
0.332097 0.343603 0.951110
0.401831 0.346136 0.949523
0.503929 0.348363 0.946197
0.619196 0.346624 0.940978
0.739406 0.336004 0.934173
0.864225 0.320653 0.927367
1.000000 0.402594 0.934356
0.416327 0.482216 0.940856
0.427710 0.481971 0.940520
0.473732 0.482399 0.939605
0.548272 0.479500 0.936889
0.642206 0.473487 0.932860
0.745602 0.456733 0.926268
0.856962 0.428901 0.917449
0.988067 0.487587 0.924468
0.540002 0.630945 0.924163
0.545892 0.630335 0.923888
0.571527 0.629175 0.923491
0.614923 0.622217 0.920775
0.678126 0.611505 0.917144
0.754757 0.590265 0.910369
0.845731 0.554894 0.900969
0.971710 0.595972 0.913817
0.594049 0.724331 0.915465
0.602533 0.726314 0.915892
0.629786 0.729854 0.915129
0.671199 0.731350 0.911955
0.713130 0.720211 0.908110
0.770596 0.702235 0.902129
0.844419 0.671565 0.892638
0.962554 0.692042 0.907103
0.576928 0.792599 0.905333
0.584924 0.792813 0.904875
0.616693 0.794064 0.903471
0.669062 0.795895 0.900969
0.729671 0.797208 0.897612
0.775387 0.782864 0.889342
0.834684 0.755337 0.877134
0.954559 0.782162 0.899077
0.489570 0.862089 0.883482
0.497749 0.861173 0.882628
0.535973 0.860136 0.881773
0.598016 0.857633 0.879698
0.675380 0.855070 0.877806
0.759426 0.852232 0.875731
0.839994 0.847898 0.871733
0.939452 0.870085 0.889891
0.390967 0.939971 0.827604
0.402258 0.939300 0.827115
0.440223 0.935302 0.823270
0.515496 0.931762 0.821134
0.611627 0.928801 0.822782
0.733516 0.928801 0.846220
0.857420 0.928985 0.884215
0.913451 0.930999 0.882719
0.417639 0.424903 1.000000
0.428077 0.425177 1.000000
0.473426 0.431769 1.000000
0.544182 0.437476 1.000000
0.632746 0.443030 1.000000
0.730556 0.445380 1.000000
0.832486 0.436744 1.000000
0.941497 0.433753 1.000000
0.452857 0.468208 1.000000
0.461097 0.467689 1.000000
0.499763 0.471534 1.000000
0.563836 0.475410 1.000000
0.645624 0.478614 1.000000
0.738369 0.478706 1.000000
0.837003 0.470436 1.000000
0.943511 0.467750 1.000000
0.546441 0.582361 1.000000
0.552178 0.582208 1.000000
0.578180 0.583307 1.000000
0.619745 0.578576 1.000000
0.683619 0.576898 1.000000
0.760678 0.572107 1.000000
0.846159 0.557916 1.000000
0.943389 0.546471 0.997833
0.636530 0.695308 1.000000
0.639582 0.694362 1.000000
0.655329 0.693080 1.000000
0.683864 0.688472 0.999359
0.727749 0.681758 0.997864
0.785824 0.671626 0.996002
0.856046 0.654108 0.993225
0.941466 0.635340 0.990814
0.693874 0.778744 0.993225
0.697383 0.778927 0.992920
0.713619 0.781033 0.992615
0.731563 0.775143 0.992187
0.764157 0.768704 0.991241
0.809293 0.758602 0.989899
0.867094 0.741939 0.987488
0.941009 0.719753 0.984649
0.716579 0.838041 0.986358
0.721279 0.839139 0.986572
0.738247 0.842222 0.986786
0.765927 0.845640 0.986389
0.801450 0.847715 0.985199
0.831266 0.835721 0.982513
0.874479 0.817960 0.978729
0.937865 0.795804 0.975219
0.676539 0.888396 0.981018
0.682826 0.889067 0.981018
0.707362 0.891447 0.980896
0.748531 0.894957 0.980011
0.802731 0.900420 0.978698
0.859281 0.906645 0.976928
0.896727 0.900786 0.974701
0.943328 0.884306 0.970581
0.613855 0.960571 0.971862
0.621668 0.960784 0.972076
0.648157 0.960571 0.971862
0.690669 0.959075 0.970459
0.750362 0.957610 0.969055
0.820005 0.956817 0.968139
0.891539 0.956542 0.967620
0.953857 0.958038 0.968139
