20 Preset/INSTA/【3】LUT video cho PR-AE-FCPX/INS LUT (17).cube
# Created by Adobe Lightroom plugin Export LUT (1.24.0)
# www.johnrellis.com/lightroom/exportlut.htm
# Preset: INS胶片-自然[素材江湖]17
# Color profile: C:\Program Files (x86)\Common Files\Adobe\Color\Profiles\Recommended\VideoHD.icc
LUT_3D_SIZE 5
DOMAIN_MIN 0.000000 0.000000 0.000000
DOMAIN_MAX 0.903226 0.903226 0.903226
0.000000 0.000000 0.000000
0.139986 0.000000 0.032685
0.449042 0.000000 0.074311
0.761624 0.000000 0.103517
0.955108 0.000000 0.213535
0.000000 0.181521 0.079408
0.173831 0.181064 0.032624
0.403906 0.030732 0.020935
0.746761 0.000000 0.066377
0.953063 0.000000 0.187228
0.000000 0.566857 0.287236
0.000000 0.580194 0.294835
0.580438 0.543816 0.179477
0.687068 0.395361 0.000000
0.883818 0.366552 0.149081
0.512963 0.753658 0.590723
0.533989 0.759823 0.601862
0.606775 0.768002 0.609735
0.753170 0.722927 0.478584
0.852903 0.669306 0.344579
0.697261 0.864561 0.777157
0.703944 0.866056 0.781064
0.714748 0.865324 0.782437
0.763241 0.866026 0.774929
0.862364 0.856931 0.722469
0.000000 0.021393 0.112917
0.116304 0.018128 0.125460
0.414679 0.000000 0.115633
0.711299 0.000000 0.059693
0.919524 0.000000 0.154147
0.000000 0.159731 0.149264
0.149722 0.154818 0.150759
0.409979 0.000000 0.105531
0.696162 0.000000 0.047639
0.911894 0.000000 0.152529
0.000000 0.495338 0.297063
0.115511 0.517723 0.313603
0.526329 0.489357 0.230411
0.638819 0.350835 0.015076
0.870939 0.358251 0.131563
0.512169 0.739010 0.589227
0.535515 0.746792 0.602533
0.606226 0.763119 0.624781
0.746151 0.715938 0.495125
0.847776 0.661921 0.343786
0.695674 0.861906 0.776455
0.701930 0.863249 0.779965
0.729427 0.869841 0.796719
0.770291 0.869993 0.788968
0.867826 0.863279 0.738827
0.000000 0.068391 0.334813
0.000000 0.048981 0.379248
0.418372 0.000000 0.424018
0.773648 0.000000 0.386694
0.918669 0.000000 0.328344
0.000000 0.148226 0.340154
0.000000 0.136080 0.379278
0.467262 0.000000 0.441810
0.761349 0.000000 0.384192
0.918822 0.000000 0.301244
0.000000 0.440162 0.400671
0.000000 0.440406 0.405310
0.463905 0.432807 0.417578
0.704952 0.346532 0.335088
0.884916 0.302586 0.279789
0.446357 0.689174 0.554070
0.480262 0.689815 0.566644
0.596979 0.722164 0.635767
0.723842 0.695521 0.562585
0.825254 0.622278 0.365545
0.668177 0.845548 0.757961
0.683131 0.848325 0.767636
0.719936 0.859220 0.791257
0.765194 0.866758 0.802701
0.858549 0.854063 0.741604
0.000000 0.101747 0.585443
0.000000 0.081910 0.610864
0.000000 0.009888 0.691249
0.736904 0.000000 0.693660
0.922148 0.000000 0.650904
0.000000 0.160708 0.576196
0.000000 0.148684 0.599817
0.000000 0.155612 0.680140
0.736172 0.000000 0.687282
0.910124 0.121401 0.643183
0.000000 0.306615 0.512474
0.000000 0.304143 0.516899
0.214450 0.370825 0.626520
0.725185 0.413886 0.674922
0.877134 0.428107 0.635096
0.000000 0.652796 0.611872
0.000000 0.649531 0.611170
0.418982 0.647395 0.622339
0.666255 0.646815 0.641932
0.844999 0.590356 0.568963
0.588495 0.819120 0.717647
0.602564 0.821439 0.724788
0.662989 0.834195 0.759487
0.764981 0.859983 0.823453
0.850706 0.848386 0.774594
0.000000 0.137118 0.768399
0.000000 0.121828 0.775357
0.000000 0.122469 0.806180
0.542687 0.136110 0.851682
0.870909 0.184848 0.837400
0.000000 0.179660 0.757931
0.000000 0.168276 0.766079
0.000000 0.165560 0.798306
0.546441 0.227756 0.845335
0.864775 0.271550 0.833219
0.000000 0.310246 0.726284
0.000000 0.316136 0.733364
0.000000 0.313359 0.772335
0.548669 0.424842 0.827329
0.847837 0.485634 0.830198
0.000000 0.576623 0.729213
0.000000 0.563653 0.725521
0.000000 0.508995 0.718502
0.500755 0.585962 0.795315
0.839353 0.693507 0.844480
0.241611 0.831113 0.808133
0.281346 0.829343 0.807309
0.415534 0.827726 0.810483
0.591913 0.820279 0.813901
0.811704 0.818509 0.830167
