20 Preset/INSTA/【3】LUT video cho PR-AE-FCPX/INS LUT (16).cube
# Created by Adobe Lightroom plugin Export LUT (1.24.0)
# www.johnrellis.com/lightroom/exportlut.htm
# Preset: INS胶片-自然[素材江湖]16
# Color profile: C:\Program Files (x86)\Common Files\Adobe\Color\Profiles\Recommended\VideoHD.icc
LUT_3D_SIZE 5
DOMAIN_MIN 0.000000 0.000000 0.000000
DOMAIN_MAX 0.903226 0.903226 0.903226
0.139712 0.075441 0.090517
0.226505 0.048310 0.097963
0.580041 0.000000 0.104585
0.918883 0.000000 0.143374
1.000000 0.312291 0.298894
0.177035 0.156771 0.125063
0.265782 0.186374 0.115480
0.591852 0.135286 0.006012
0.918486 0.166293 0.080995
1.000000 0.391211 0.289921
0.271733 0.460761 0.278355
0.292882 0.456031 0.250767
0.716670 0.674525 0.404456
0.937316 0.618219 0.187778
1.000000 0.558526 0.187076
0.486641 0.693263 0.492042
0.501274 0.698054 0.487465
0.593500 0.709224 0.498604
0.875242 0.849332 0.675135
1.000000 0.862943 0.646479
0.697475 0.854856 0.694911
0.707088 0.857206 0.696101
0.712062 0.848600 0.671015
0.816983 0.880369 0.722011
0.968078 0.952087 0.829435
0.164279 0.099001 0.118807
0.205631 0.091157 0.132357
0.537102 0.000000 0.130007
0.880339 0.000000 0.100618
1.000000 0.267063 0.244144
0.190799 0.153140 0.155337
0.261906 0.180941 0.172702
0.565667 0.171603 0.139742
0.882658 0.204685 0.000000
1.000000 0.341344 0.229068
0.274205 0.426978 0.289799
0.344274 0.451209 0.302495
0.663325 0.618799 0.401556
0.895781 0.582818 0.253086
1.000000 0.549737 0.156741
0.478614 0.685389 0.496315
0.531945 0.695857 0.514977
0.605585 0.708980 0.518761
0.868894 0.843809 0.684291
0.997467 0.860014 0.660090
0.688685 0.851316 0.693294
0.706020 0.853635 0.698695
0.730892 0.863432 0.695491
0.821897 0.885161 0.733639
0.970764 0.956176 0.843839
0.236515 0.179263 0.240909
0.281682 0.211124 0.252964
0.501427 0.173709 0.353735
0.865751 0.213657 0.363622
1.000000 0.386389 0.370611
0.277104 0.223423 0.285069
0.339239 0.271153 0.307988
0.553307 0.287358 0.394537
0.850523 0.367773 0.405554
1.000000 0.449714 0.391608
0.305516 0.415473 0.379248
0.362921 0.448188 0.402289
0.613581 0.567620 0.495064
0.835386 0.580163 0.461067
0.993194 0.601740 0.441596
0.436103 0.661036 0.516503
0.485115 0.666468 0.524895
0.642969 0.708644 0.580591
0.850034 0.827481 0.710536
0.976287 0.839567 0.677943
0.631281 0.830594 0.676905
0.655268 0.835050 0.684718
0.736141 0.851896 0.713893
0.799252 0.866880 0.725338
0.966064 0.953033 0.854673
0.366003 0.349798 0.449866
0.408667 0.383734 0.467079
0.576440 0.522728 0.516472
0.784787 0.445472 0.625483
0.971588 0.513573 0.597436
0.407050 0.389929 0.477302
0.443305 0.418067 0.489509
0.591577 0.541283 0.534539
0.778103 0.494209 0.623743
0.958129 0.553552 0.607477
0.391058 0.426123 0.491524
0.431312 0.443763 0.502922
0.622187 0.582208 0.576074
0.779782 0.629175 0.642786
0.935760 0.675135 0.658137
0.443977 0.628626 0.576013
0.478859 0.636286 0.581567
0.605219 0.681422 0.619471
0.795285 0.770626 0.705257
0.945953 0.781735 0.683833
0.535302 0.811795 0.687953
0.559289 0.814572 0.691249
0.651881 0.831022 0.710842
0.799710 0.867735 0.760098
0.962432 0.952758 0.882383
0.599054 0.606409 0.669947
0.618372 0.619989 0.672908
0.690974 0.674983 0.687984
0.794705 0.761135 0.715908
0.904906 0.671626 0.783261
0.604089 0.610559 0.670649
0.623194 0.624353 0.674342
0.693843 0.678279 0.690547
0.796231 0.763973 0.721096
0.904051 0.686275 0.785092
0.559564 0.582757 0.665339
0.593652 0.606378 0.671321
0.693965 0.682856 0.698207
0.800809 0.773709 0.739590
0.905608 0.739956 0.797818
0.540124 0.653040 0.691371
0.554345 0.653864 0.691127
0.618982 0.664668 0.695949
0.785794 0.768582 0.752346
0.918883 0.821195 0.829953
0.578637 0.803494 0.758328
0.589502 0.804410 0.758724
0.639918 0.812558 0.764950
0.741787 0.835508 0.784390
0.930846 0.924102 0.885801
