20 Preset/INSTA/【3】LUT video cho PR-AE-FCPX/INS LUT (5).cube
# Created by Adobe Lightroom plugin Export LUT (1.24.0)
# www.johnrellis.com/lightroom/exportlut.htm
# Preset: INS胶片Tezza02[素材江湖]05
# Color profile: C:\Program Files (x86)\Common Files\Adobe\Color\Profiles\Recommended\VideoHD.icc
LUT_3D_SIZE 8
DOMAIN_MIN 0.000000 0.000000 0.000000
DOMAIN_MAX 0.903226 0.903226 0.903226
0.014069 0.092073 0.103670
0.096864 0.094881 0.109804
0.250095 0.078737 0.126253
0.462806 0.000000 0.141848
0.682307 0.000000 0.161746
0.884672 0.000000 0.195895
1.000000 0.000000 0.245335
1.000000 0.265202 0.319432
0.000000 0.131563 0.122438
0.085786 0.122805 0.125368
0.237369 0.123995 0.129427
0.440345 0.047181 0.142489
0.659724 0.000000 0.160433
0.855222 0.000000 0.190646
0.992462 0.021790 0.236545
1.000000 0.277653 0.310460
0.000000 0.291905 0.160586
0.000000 0.286107 0.159060
0.248631 0.243503 0.180911
0.429816 0.231510 0.151308
0.642939 0.225284 0.162814
0.835721 0.241245 0.191165
0.985473 0.306493 0.244572
1.000000 0.395819 0.325689
0.000000 0.549187 0.240299
0.000000 0.543053 0.237095
0.346654 0.520409 0.248814
0.533104 0.483345 0.303288
0.681971 0.459785 0.235416
0.805051 0.413214 0.196506
0.953796 0.459113 0.251347
1.000000 0.515801 0.338872
0.000000 0.739132 0.359564
0.171633 0.736751 0.358007
0.383673 0.730404 0.354986
0.601556 0.710719 0.394263
0.725887 0.679164 0.449958
0.826902 0.654017 0.381842
0.910399 0.584070 0.280247
1.000000 0.624079 0.359167
0.406287 0.860105 0.517540
0.437629 0.862028 0.523308
0.514611 0.858640 0.522026
0.641138 0.849973 0.534142
0.766354 0.834379 0.572656
0.845335 0.817929 0.623102
0.913970 0.806027 0.590448
0.985901 0.768856 0.507866
0.623743 0.923766 0.688563
0.632715 0.923674 0.689693
0.660578 0.921782 0.688502
0.710384 0.918669 0.687770
0.789456 0.910430 0.705104
0.859190 0.901335 0.733791
0.905364 0.892180 0.766934
0.945708 0.887053 0.765682
0.774655 0.958648 0.821958
0.776944 0.958495 0.821805
0.787350 0.957916 0.821836
0.807309 0.956878 0.822232
0.829709 0.952636 0.814847
0.876310 0.947845 0.828824
0.915709 0.942535 0.843503
0.943084 0.937469 0.867826
0.008453 0.102419 0.125704
0.091218 0.099458 0.124514
0.236057 0.097261 0.126436
0.429236 0.016907 0.141176
0.649378 0.000000 0.159152
0.844419 0.000000 0.188022
0.984070 0.000000 0.231846
1.000000 0.248997 0.302647
0.000000 0.134890 0.145968
0.098665 0.131472 0.144076
0.228672 0.134371 0.130709
0.421729 0.117403 0.142428
0.641596 0.000000 0.159487
0.832029 0.000000 0.186374
0.972320 0.106600 0.228367
1.000000 0.268894 0.297734
0.000000 0.289586 0.185061
0.087953 0.285313 0.183780
0.263401 0.253422 0.204501
0.422217 0.237858 0.154025
0.617853 0.229129 0.160525
0.809018 0.242130 0.185824
0.958984 0.291905 0.231144
1.000000 0.377722 0.308049
0.000000 0.523919 0.252811
0.000000 0.519829 0.251072
0.345586 0.502495 0.262211
0.512413 0.463325 0.307469
0.649317 0.435065 0.225986
0.771359 0.389868 0.188296
0.927794 0.435218 0.235142
1.000000 0.495674 0.318608
0.034211 0.732296 0.370336
0.198428 0.729122 0.368231
0.387030 0.721126 0.363409
0.593713 0.698390 0.396887
0.713741 0.665675 0.448127
0.813809 0.639460 0.368872
0.898894 0.572686 0.271885
1.000000 0.612482 0.345495
0.402991 0.854337 0.517235
0.426154 0.853696 0.517479
0.505547 0.850675 0.517082
0.633845 0.843107 0.530236
0.761074 0.828580 0.570367
0.842039 0.814420 0.623651
0.911070 0.801266 0.581933
0.983307 0.763027 0.497383
0.615442 0.920775 0.683436
0.621149 0.919982 0.681819
0.650233 0.917967 0.680446
0.702968 0.915160 0.680903
0.785611 0.907836 0.701289
0.856352 0.898772 0.730495
0.902556 0.888762 0.761257
0.943847 0.882811 0.756039
0.769131 0.957305 0.818387
0.772732 0.957336 0.819242
0.783230 0.956695 0.819089
0.803830 0.955718 0.819730
0.833433 0.953643 0.820615
0.877379 0.948241 0.831662
0.915496 0.942351 0.844327
0.942840 0.937102 0.867155
0.000000 0.133211 0.184756
0.078798 0.136324 0.171023
0.262150 0.111971 0.192935
0.464942 0.024414 0.164920
0.654566 0.000000 0.160830
0.841093 0.016876 0.189120
0.982025 0.189609 0.234989
1.000000 0.307652 0.310002
0.036774 0.162600 0.212345
0.125917 0.167300 0.201724
0.289921 0.148043 0.201175
0.457801 0.136812 0.174166
0.640467 0.122377 0.160281
0.826535 0.146700 0.187076
0.971374 0.219242 0.231937
1.000000 0.322332 0.306157
0.006012 0.304448 0.266972
0.181582 0.306401 0.265599
0.315312 0.290990 0.270146
0.460182 0.260990 0.204532
0.626520 0.257176 0.168307
0.809476 0.280858 0.187625
0.957458 0.330358 0.233799
1.000000 0.403632 0.312322
0.083375 0.540154 0.336248
0.190951 0.539239 0.330327
0.397070 0.525200 0.336278
0.554864 0.500450 0.382574
0.667781 0.453834 0.264866
0.776669 0.406439 0.190677
0.931701 0.455299 0.240360
1.000000 0.512566 0.326421
0.254368 0.734798 0.430488
0.303899 0.733059 0.429664
0.439277 0.727565 0.428260
0.619287 0.710658 0.457740
0.734859 0.689387 0.510491
0.820706 0.649989 0.391424
0.903716 0.585687 0.282994
1.000000 0.619654 0.351049
0.451484 0.853513 0.558129
0.471168 0.853208 0.558831
0.538506 0.850248 0.558770
0.648890 0.843198 0.567834
0.767697 0.829862 0.604486
0.844755 0.819364 0.656397
0.911559 0.801511 0.582300
0.984375 0.765316 0.501427
0.638361 0.920836 0.708797
0.643885 0.920134 0.707668
0.668910 0.917998 0.705623
0.716121 0.915007 0.705043
0.791135 0.908263 0.721187
0.859434 0.900175 0.749599
0.904387 0.892424 0.781094
0.945769 0.885161 0.761044
0.775601 0.957122 0.827359
0.777401 0.956847 0.826841
0.787442 0.956207 0.826658
0.808713 0.955535 0.828489
0.835691 0.953826 0.828214
0.879606 0.948913 0.839750
0.917052 0.943359 0.852110
0.943603 0.937743 0.868742
0.000000 0.194125 0.287724
0.075105 0.199374 0.280369
0.207858 0.217136 0.259220
0.541558 0.126864 0.314336
0.723110 0.000000 0.250126
0.845304 0.101747 0.204776
0.973907 0.219608 0.233005
1.000000 0.327947 0.306554
0.097780 0.232944 0.317174
0.156283 0.236728 0.309331
0.252537 0.249058 0.290166
0.554986 0.180362 0.320684
0.720577 0.127321 0.259922
0.841154 0.173861 0.211215
0.968109 0.255039 0.232517
1.000000 0.348608 0.307195
0.153262 0.326421 0.368994
0.222263 0.329778 0.369635
0.385931 0.343633 0.371130
0.556390 0.315343 0.330480
0.700038 0.300755 0.282017
0.830838 0.315190 0.237644
0.960723 0.367987 0.239353
1.000000 0.430701 0.320043
0.208713 0.550622 0.452155
0.287510 0.550744 0.450416
0.443549 0.550042 0.437079
0.591302 0.532860 0.463874
0.681147 0.458198 0.334905
0.799191 0.440528 0.273808
0.928222 0.468635 0.241794
1.000000 0.523003 0.330266
0.422766 0.743496 0.551568
0.426825 0.742794 0.539178
0.503532 0.739162 0.523583
0.654353 0.728359 0.546593
0.758846 0.719997 0.601862
0.830442 0.663233 0.458534
0.911223 0.598291 0.311528
1.000000 0.628107 0.360143
0.534752 0.857237 0.635492
0.545861 0.859312 0.635096
0.596551 0.856138 0.634272
0.681300 0.851469 0.638544
0.786648 0.840391 0.670832
0.853574 0.833402 0.715450
0.912566 0.806851 0.619593
0.987823 0.766995 0.504784
0.672786 0.920043 0.749355
0.674525 0.920287 0.746914
0.699001 0.919127 0.747799
0.741299 0.916930 0.749294
0.803738 0.911681 0.759487
0.866148 0.904173 0.782956
0.907134 0.897765 0.809659
0.948486 0.886320 0.763058
0.795102 0.957183 0.849424
0.795224 0.957244 0.848051
0.800046 0.957061 0.845029
0.817960 0.956023 0.845121
0.842649 0.954376 0.844480
0.882444 0.950134 0.852659
0.919219 0.944976 0.864347
0.945006 0.939483 0.876066
0.000000 0.297887 0.429450
0.132570 0.304082 0.425574
0.311864 0.335943 0.398230
0.432105 0.310979 0.422736
0.802029 0.252262 0.476600
0.922057 0.000000 0.362310
0.993225 0.253239 0.316320
1.000000 0.347112 0.311986
0.154025 0.331762 0.450996
0.208377 0.337377 0.447456
0.350896 0.366155 0.422004
0.478401 0.342931 0.451820
0.801755 0.289982 0.478370
0.914855 0.185580 0.370031
0.989288 0.287114 0.321263
1.000000 0.366674 0.312993
0.254887 0.408576 0.503746
0.315709 0.420325 0.504021
0.439582 0.445075 0.488563
0.593591 0.441016 0.522026
0.787045 0.378241 0.466590
0.879057 0.357946 0.389166
0.970825 0.382147 0.337377
1.000000 0.428382 0.314855
0.298466 0.546166 0.549706
0.344213 0.548028 0.549859
0.488594 0.558099 0.553246
0.633692 0.550103 0.531487
0.742977 0.516686 0.473915
0.845090 0.496773 0.416571
0.947845 0.500694 0.370336
1.000000 0.521630 0.331212
0.403906 0.736965 0.626154
0.441169 0.737942 0.626856
0.563165 0.740688 0.631281
0.674311 0.737667 0.627558
0.765743 0.728267 0.654444
0.825986 0.647517 0.502708
0.918029 0.602747 0.404150
1.000000 0.621607 0.370764
0.580255 0.847929 0.703914
0.597894 0.847898 0.705776
0.630549 0.847257 0.696437
0.690120 0.844419 0.688869
0.788174 0.838102 0.714321
0.855070 0.839811 0.763821
0.910948 0.800931 0.646021
0.991608 0.750057 0.498787
0.716121 0.915892 0.799771
0.722713 0.915373 0.800473
0.725643 0.915465 0.790921
0.750240 0.915343 0.783597
0.804288 0.912444 0.788418
0.868315 0.905638 0.810025
0.908293 0.901213 0.834836
0.948363 0.884245 0.774105
0.801755 0.954955 0.867704
0.806424 0.954650 0.868772
0.813107 0.954437 0.866758
0.820005 0.955535 0.860166
0.845548 0.954101 0.860502
0.881437 0.950988 0.864897
0.919646 0.945892 0.876036
0.945251 0.940734 0.887358
0.193881 0.435767 0.591272
0.247501 0.442451 0.590265
0.392859 0.468116 0.575921
0.567864 0.539178 0.538598
0.738888 0.459052 0.652216
0.952026 0.444800 0.635492
1.000000 0.364843 0.527825
1.000000 0.417975 0.472786
0.253178 0.454231 0.597681
0.291447 0.458381 0.594720
0.414038 0.480415 0.580255
0.574029 0.545495 0.544030
0.743984 0.474403 0.653712
0.944579 0.456519 0.630121
1.000000 0.375921 0.522271
1.000000 0.428351 0.471534
0.376410 0.528161 0.641260
0.401556 0.531060 0.639094
0.494301 0.548974 0.629664
0.629541 0.604211 0.598596
0.780850 0.562615 0.682429
0.931121 0.520806 0.630030
1.000000 0.454780 0.527977
1.000000 0.489723 0.485969
0.382574 0.599084 0.675105
0.413672 0.599725 0.674556
0.535332 0.615839 0.677455
0.687343 0.676143 0.679164
0.821561 0.675654 0.711635
0.906859 0.596857 0.619318
0.975677 0.578088 0.558190
1.000000 0.579644 0.514672
0.450965 0.732326 0.711452
0.476478 0.733272 0.711879
0.564752 0.740017 0.715877
0.694636 0.752773 0.723690
0.777859 0.724605 0.688899
0.853269 0.678279 0.616999
0.940246 0.658106 0.567681
1.000000 0.653193 0.528557
0.565637 0.851316 0.764736
0.585473 0.852171 0.766506
0.647822 0.851896 0.768826
0.740108 0.852842 0.778439
0.803220 0.850553 0.778988
0.860899 0.847990 0.801358
0.913603 0.780362 0.659876
0.998718 0.743343 0.569451
0.705348 0.916899 0.827573
0.714382 0.916991 0.829038
0.744594 0.916136 0.832639
0.794705 0.915251 0.841276
0.818814 0.915435 0.832822
0.873960 0.911315 0.844724
0.912902 0.908965 0.867521
0.952300 0.883146 0.792203
0.787015 0.956115 0.879149
0.790249 0.955810 0.879332
0.805844 0.954955 0.881529
0.835111 0.954101 0.887236
0.848692 0.954589 0.881071
0.879545 0.952941 0.881529
0.921080 0.948211 0.892210
0.947021 0.943847 0.903380
0.352819 0.577783 0.738399
0.383642 0.583551 0.738582
0.479957 0.600763 0.730068
0.622644 0.648249 0.710628
0.694697 0.672908 0.707240
0.890349 0.622004 0.799374
1.000000 0.618372 0.759518
1.000000 0.552392 0.673426
0.373022 0.582727 0.735866
0.401251 0.588708 0.736690
0.490425 0.605280 0.729061
0.624109 0.648646 0.709285
0.694484 0.672786 0.704860
0.885740 0.623621 0.793057
1.000000 0.613458 0.751217
1.000000 0.543938 0.662715
0.455940 0.631556 0.759854
0.474983 0.634760 0.758877
0.546471 0.648371 0.752438
0.659297 0.685786 0.738582
0.727077 0.712184 0.732967
0.890837 0.681727 0.803952
0.989410 0.660273 0.760189
1.000000 0.596429 0.677943
0.469215 0.673243 0.784024
0.499458 0.678767 0.783383
0.601770 0.704341 0.783444
0.699855 0.735256 0.779721
0.775479 0.771908 0.776486
0.898283 0.763394 0.822965
0.972412 0.715389 0.768276
1.000000 0.657649 0.691524
0.479316 0.750546 0.800290
0.496101 0.749264 0.798825
0.564538 0.749172 0.797543
0.672480 0.754116 0.798764
0.807706 0.811093 0.806577
0.890745 0.803098 0.820890
0.950469 0.742031 0.750820
1.000000 0.727504 0.712398
0.554620 0.848997 0.827634
0.568658 0.849241 0.828000
0.620996 0.849699 0.828977
0.703456 0.852750 0.833036
0.799893 0.856626 0.838499
0.859861 0.833341 0.811460
0.918975 0.804135 0.764462
0.985290 0.789029 0.733150
0.669856 0.917815 0.860807
0.679408 0.917693 0.861295
0.713527 0.916564 0.862119
0.770596 0.915129 0.865202
0.835386 0.914702 0.872374
0.878325 0.914916 0.875364
0.915129 0.912200 0.887236
0.959228 0.861479 0.785306
0.770413 0.956420 0.896056
0.775051 0.956298 0.896513
0.794675 0.956023 0.899077
0.825193 0.955077 0.902556
0.863127 0.954009 0.907988
0.888365 0.954467 0.907591
0.922606 0.951995 0.911711
0.949981 0.948577 0.923369
0.525689 0.711971 0.848203
0.541955 0.715663 0.847868
0.594934 0.725673 0.842191
0.686061 0.753323 0.832853
0.786893 0.798978 0.813504
0.806882 0.781949 0.829831
0.949889 0.753841 0.878965
1.000000 0.745968 0.843351
0.530755 0.713680 0.846860
0.546624 0.717433 0.846647
0.599481 0.728298 0.842100
0.687404 0.754452 0.832792
0.786679 0.799222 0.814389
0.807675 0.784024 0.829709
0.947967 0.756405 0.877440
1.000000 0.746761 0.841825
0.565576 0.735042 0.852964
0.578149 0.737606 0.852415
0.624475 0.746853 0.848600
0.707790 0.773465 0.843534
0.796780 0.812131 0.828824
0.820127 0.804440 0.838712
0.943938 0.783932 0.880186
1.000000 0.770138 0.847440
0.588067 0.761318 0.862730
0.609735 0.766964 0.862913
0.653193 0.775509 0.860929
0.726680 0.796170 0.857694
0.809079 0.830137 0.850523
0.842130 0.838590 0.855894
0.939727 0.826932 0.888334
0.995575 0.807309 0.859068
0.486183 0.772122 0.871702
0.502281 0.772519 0.871855
0.565606 0.775204 0.870451
0.716030 0.811887 0.871000
0.810788 0.843809 0.870268
0.865049 0.871153 0.872770
0.936950 0.866545 0.899016
0.983673 0.840269 0.869596
0.571130 0.856565 0.889525
0.580041 0.855894 0.889097
0.618097 0.854093 0.887999
0.686763 0.852354 0.886961
0.773098 0.852934 0.886473
0.882933 0.894072 0.895232
0.937255 0.901732 0.911955
0.972839 0.864744 0.874418
0.652796 0.919371 0.906035
0.659419 0.919036 0.905882
0.686458 0.917662 0.905394
0.736019 0.915679 0.905028
0.799008 0.913573 0.905119
0.865446 0.913298 0.907225
0.917540 0.908812 0.902739
0.955352 0.890501 0.877806
0.737423 0.959442 0.921599
0.741238 0.959136 0.921569
0.758480 0.958282 0.921904
0.791012 0.957061 0.923247
0.836790 0.955047 0.924865
0.885161 0.953552 0.928252
0.925414 0.954162 0.933104
0.952300 0.952514 0.940642
