20 Preset/INSTA/【3】LUT video cho PR-AE-FCPX/INS LUT (5).cube
# Created by Adobe Lightroom plugin Export LUT (1.24.0)
# www.johnrellis.com/lightroom/exportlut.htm
# Preset: INS胶片Tezza02[素材江湖]05
# Color profile: C:\Program Files (x86)\Common Files\Adobe\Color\Profiles\Recommended\VideoHD.icc
LUT_3D_SIZE 5
DOMAIN_MIN 0.000000 0.000000 0.000000
DOMAIN_MAX 0.903226 0.903226 0.903226
0.014069 0.092073 0.103670
0.204257 0.091310 0.122683
0.576501 0.000000 0.150912
0.923308 0.000000 0.207126
1.000000 0.265202 0.319432
0.000000 0.243351 0.149508
0.197147 0.203738 0.163058
0.543694 0.186862 0.153353
0.889708 0.203586 0.203464
1.000000 0.371313 0.326543
0.000000 0.653773 0.294713
0.277806 0.638361 0.285710
0.642329 0.590021 0.374853
0.825925 0.497383 0.226627
1.000000 0.569665 0.345495
0.478401 0.883177 0.568902
0.536278 0.880674 0.568566
0.719356 0.866819 0.591272
0.864775 0.841459 0.663630
0.975006 0.808164 0.582666
0.774655 0.958648 0.821958
0.783841 0.958068 0.821775
0.811856 0.953979 0.813077
0.887083 0.946624 0.832609
0.943084 0.937469 0.867826
0.000000 0.123232 0.165225
0.204288 0.109773 0.170199
0.539452 0.000000 0.150088
0.874113 0.000000 0.196536
1.000000 0.286046 0.304112
0.000000 0.251225 0.229892
0.248264 0.239078 0.230442
0.525170 0.216892 0.159213
0.854002 0.243503 0.195407
1.000000 0.371283 0.308812
0.000000 0.640314 0.352117
0.337560 0.631159 0.348119
0.640681 0.587152 0.418433
0.811276 0.494453 0.227665
1.000000 0.569116 0.340124
0.509453 0.880797 0.598871
0.561883 0.878843 0.599908
0.727932 0.866606 0.620081
0.865599 0.844205 0.688685
0.974884 0.807126 0.580499
0.779263 0.958221 0.828977
0.787900 0.957580 0.828550
0.822324 0.955505 0.828153
0.890532 0.948150 0.842649
0.944518 0.938872 0.870909
0.000000 0.241581 0.355566
0.235111 0.268559 0.327306
0.684230 0.173587 0.393194
0.901305 0.148013 0.267460
1.000000 0.336339 0.308659
0.195499 0.336126 0.423133
0.352544 0.363043 0.406744
0.688197 0.300816 0.393378
0.883085 0.301762 0.286809
1.000000 0.407965 0.314702
0.302647 0.651301 0.540948
0.471046 0.654932 0.541436
0.691371 0.639612 0.561425
0.831327 0.522698 0.347814
1.000000 0.573968 0.342718
0.613611 0.874784 0.706905
0.618708 0.873869 0.687495
0.747219 0.867155 0.700191
0.871366 0.856718 0.764157
0.978332 0.799435 0.566949
0.800687 0.955291 0.858610
0.802640 0.955657 0.854612
0.829587 0.954620 0.850889
0.891386 0.948730 0.859892
0.944488 0.939330 0.880034
0.225101 0.465492 0.624048
0.367041 0.486152 0.614801
0.584222 0.546807 0.590631
0.970336 0.484291 0.665644
1.000000 0.415167 0.507744
0.359594 0.527916 0.654963
0.450446 0.542748 0.647211
0.631678 0.597711 0.628809
0.954742 0.536187 0.663172
1.000000 0.486122 0.525109
0.410895 0.660487 0.706264
0.503349 0.662837 0.705562
0.730953 0.717617 0.715389
0.897429 0.639246 0.633387
1.000000 0.622858 0.557671
0.600580 0.872923 0.795193
0.648798 0.871580 0.795621
0.778256 0.872618 0.803647
0.876860 0.867582 0.827756
0.989685 0.768032 0.613184
0.784390 0.956329 0.883330
0.799435 0.955718 0.885344
0.852171 0.954253 0.895171
0.890867 0.953155 0.889494
0.947723 0.944884 0.907988
0.525689 0.711971 0.848203
0.577478 0.721798 0.843900
0.737148 0.774105 0.824979
0.828824 0.764248 0.838926
1.000000 0.745968 0.843351
0.557641 0.729702 0.851743
0.603510 0.738949 0.848631
0.747768 0.785641 0.833341
0.835904 0.783566 0.844388
1.000000 0.765286 0.846983
0.527489 0.757809 0.867063
0.610681 0.774319 0.865721
0.768795 0.818235 0.861631
0.859922 0.844266 0.867308
0.989502 0.824735 0.864775
0.601160 0.876463 0.895720
0.632563 0.874907 0.894804
0.742672 0.871550 0.892882
0.896117 0.904021 0.900725
0.969879 0.867979 0.872740
0.737423 0.959442 0.921599
0.752651 0.958556 0.921782
0.813260 0.956085 0.923980
0.897246 0.953429 0.929747
0.952300 0.952514 0.940642
