20 Preset/INSTA/【3】LUT video cho PR-AE-FCPX/INS LUT (21).cube
# Created by Adobe Lightroom plugin Export LUT (1.24.0)
# www.johnrellis.com/lightroom/exportlut.htm
# Preset: INS胶片-自然[素材江湖]21
# Color profile: C:\Program Files (x86)\Common Files\Adobe\Color\Profiles\Recommended\VideoHD.icc
LUT_3D_SIZE 8
DOMAIN_MIN 0.000000 0.000000 0.000000
DOMAIN_MAX 0.903226 0.903226 0.903226
0.028687 0.035340 0.052186
0.127779 0.080385 0.089326
0.433265 0.021180 0.103670
0.733303 0.033143 0.124331
0.904997 0.335882 0.193698
0.963104 0.493904 0.316167
0.991333 0.595789 0.447272
1.000000 0.675959 0.570794
0.000000 0.147646 0.101381
0.142947 0.154177 0.110780
0.419379 0.157046 0.101442
0.706325 0.174044 0.120882
0.878019 0.338537 0.179538
0.948913 0.481086 0.287755
0.983093 0.582238 0.418799
1.000000 0.667536 0.552270
0.000000 0.505089 0.164706
0.000000 0.506828 0.217960
0.569268 0.518761 0.249912
0.735622 0.438636 0.156741
0.854765 0.457191 0.184268
0.933440 0.543175 0.303105
0.976287 0.627680 0.451698
0.995941 0.696651 0.580163
0.000000 0.766354 0.437934
0.320287 0.762570 0.469184
0.598169 0.752071 0.508690
0.788083 0.754604 0.552056
0.857816 0.689998 0.431373
0.911254 0.626734 0.326818
0.959686 0.674495 0.467994
0.984771 0.724483 0.592523
0.506340 0.835904 0.613855
0.546197 0.834867 0.629084
0.652674 0.833158 0.676692
0.747402 0.829313 0.687984
0.838224 0.827512 0.705653
0.882811 0.785458 0.623651
0.931548 0.748745 0.555383
0.970703 0.755428 0.598871
0.644648 0.879637 0.729213
0.662043 0.881132 0.739376
0.708003 0.880735 0.763302
0.760769 0.878508 0.776699
0.816648 0.874418 0.780453
0.874449 0.872679 0.790890
0.903502 0.851499 0.759121
0.936675 0.834287 0.735622
0.726223 0.906249 0.802426
0.732448 0.906310 0.805295
0.756924 0.905211 0.816861
0.796231 0.903502 0.836942
0.824552 0.900938 0.837827
0.858457 0.898589 0.841245
0.892271 0.897307 0.848264
0.910735 0.885985 0.832120
0.804410 0.918730 0.860929
0.806729 0.918578 0.861845
0.816617 0.918029 0.865995
0.837430 0.916747 0.876310
0.851072 0.914641 0.879667
0.867918 0.913787 0.882261
0.885679 0.912993 0.885344
0.902068 0.912169 0.888640
0.053254 0.055390 0.114534
0.142397 0.081392 0.118532
0.420386 0.109438 0.149813
0.706661 0.178164 0.180575
0.871763 0.341131 0.229801
0.942687 0.477974 0.315892
0.977234 0.576806 0.428901
0.998505 0.660883 0.550561
0.000000 0.155093 0.141176
0.155917 0.168490 0.152926
0.425391 0.193393 0.156374
0.701686 0.236515 0.179660
0.860655 0.361975 0.224949
0.935943 0.484108 0.308598
0.972198 0.574945 0.417823
0.996033 0.656886 0.539300
0.000000 0.499702 0.234958
0.000000 0.502129 0.274876
0.566339 0.514153 0.303777
0.717647 0.437537 0.206516
0.836301 0.452399 0.218357
0.920195 0.533593 0.309819
0.963775 0.608392 0.430426
0.990814 0.681544 0.558282
0.000000 0.742794 0.432990
0.320470 0.740932 0.463233
0.588525 0.734737 0.504479
0.771176 0.733608 0.534478
0.840238 0.666377 0.408728
0.895354 0.604547 0.309178
0.947387 0.652735 0.437293
0.980072 0.708766 0.566613
0.513146 0.831235 0.616785
0.548852 0.829892 0.629786
0.650843 0.827512 0.674464
0.741695 0.821866 0.681025
0.830900 0.818936 0.695979
0.876066 0.776364 0.611231
0.925628 0.738949 0.540551
0.967376 0.747280 0.585077
0.641382 0.875944 0.725643
0.653925 0.876066 0.731411
0.701930 0.876066 0.756771
0.756344 0.874540 0.771817
0.813382 0.871122 0.776669
0.872282 0.870390 0.788876
0.901427 0.848783 0.755673
0.935454 0.830564 0.729213
0.719661 0.904356 0.797543
0.723720 0.904021 0.798642
0.748440 0.903044 0.810117
0.790555 0.901610 0.832242
0.821622 0.899474 0.834745
0.856382 0.897124 0.838224
0.890898 0.895476 0.844480
0.910033 0.883238 0.826261
0.798611 0.918181 0.857359
0.802182 0.918090 0.859037
0.812314 0.917540 0.863188
0.834043 0.916289 0.873960
0.853819 0.915038 0.882200
0.868681 0.913939 0.883360
0.885527 0.912840 0.885344
0.901915 0.912016 0.888548
0.025696 0.074189 0.236667
0.079500 0.131746 0.198459
0.529747 0.144656 0.291722
0.753414 0.319158 0.341253
0.873686 0.443122 0.372778
0.928374 0.542718 0.435370
0.963012 0.622461 0.519341
0.985870 0.692042 0.612024
0.158785 0.119600 0.278569
0.174319 0.225956 0.276921
0.513939 0.305089 0.336614
0.740658 0.358770 0.336736
0.860472 0.453315 0.363348
0.922087 0.544274 0.425422
0.959258 0.619013 0.507958
0.984253 0.688777 0.603204
0.000000 0.526299 0.380011
0.268864 0.539330 0.398901
0.599115 0.546502 0.433509
0.723262 0.475807 0.330175
0.842283 0.520653 0.359472
0.910979 0.579797 0.423011
0.952270 0.641169 0.510735
0.979706 0.703090 0.608453
0.391241 0.746273 0.534295
0.461006 0.749081 0.548089
0.636927 0.746395 0.592187
0.774350 0.746120 0.614923
0.835019 0.679286 0.486824
0.891142 0.633265 0.413611
0.940185 0.677943 0.514092
0.971496 0.727993 0.617273
0.574853 0.828000 0.659724
0.596338 0.828428 0.667384
0.681636 0.829099 0.711971
0.755306 0.825895 0.718257
0.832120 0.824796 0.731075
0.871214 0.782284 0.646967
0.920134 0.744625 0.574823
0.960693 0.758297 0.624323
0.663447 0.874113 0.743496
0.672480 0.874723 0.747341
0.713710 0.875273 0.768399
0.764431 0.874022 0.784115
0.816312 0.870817 0.787808
0.870756 0.870359 0.799252
0.898711 0.849210 0.764523
0.932891 0.832364 0.740108
0.731685 0.903929 0.807462
0.735653 0.903685 0.808652
0.756313 0.902892 0.817380
0.796780 0.901488 0.838743
0.825498 0.899443 0.841337
0.858274 0.897459 0.844877
0.890715 0.896452 0.851865
0.909148 0.885405 0.834775
0.801175 0.917906 0.860044
0.803159 0.917723 0.860624
0.813169 0.917205 0.864622
0.834897 0.916228 0.875242
0.855528 0.915007 0.884489
0.870207 0.914092 0.886076
0.886320 0.913176 0.888090
0.901823 0.912352 0.891051
0.000000 0.084016 0.374365
0.000000 0.134920 0.366094
0.323583 0.301762 0.387976
0.806455 0.422217 0.520348
0.858183 0.558404 0.558831
0.906676 0.602472 0.562951
0.941527 0.657862 0.602869
0.966705 0.715816 0.666896
0.203799 0.156710 0.427771
0.195895 0.220096 0.433082
0.466896 0.382757 0.468147
0.789334 0.501030 0.545434
0.855070 0.570947 0.557488
0.903593 0.608850 0.561303
0.939300 0.661097 0.601648
0.965576 0.717647 0.666316
0.000000 0.409064 0.525017
0.257420 0.471656 0.543969
0.638239 0.591852 0.573358
0.750790 0.584985 0.547204
0.839658 0.602075 0.538872
0.893767 0.638392 0.561852
0.934600 0.689113 0.617273
0.962310 0.736080 0.680018
0.421546 0.741634 0.611414
0.525811 0.747921 0.632959
0.674067 0.756710 0.678431
0.769711 0.750332 0.676570
0.820768 0.681636 0.558251
0.876005 0.668971 0.540246
0.923552 0.705928 0.602136
0.956542 0.749844 0.676783
0.631800 0.826658 0.713344
0.647730 0.827481 0.717891
0.708980 0.831937 0.747250
0.772213 0.832059 0.761074
0.833829 0.831357 0.768338
0.863767 0.789548 0.692836
0.912078 0.751278 0.620935
0.949157 0.776486 0.683711
0.695766 0.874479 0.773129
0.705623 0.876371 0.778195
0.735500 0.877531 0.791257
0.784085 0.877684 0.811490
0.826383 0.874876 0.813748
0.870787 0.873411 0.820981
0.895567 0.851438 0.781613
0.929686 0.834379 0.755947
0.744900 0.902708 0.820218
0.750118 0.902831 0.822263
0.769192 0.902922 0.829953
0.806760 0.902312 0.848966
0.835019 0.900786 0.855619
0.862394 0.898924 0.857542
0.890257 0.897765 0.862425
0.907561 0.887266 0.844511
0.806546 0.917937 0.866087
0.808896 0.917784 0.866880
0.818631 0.917296 0.870359
0.836118 0.916503 0.877745
0.859007 0.915190 0.889189
0.872313 0.914336 0.890318
0.887266 0.913573 0.892149
0.901701 0.912993 0.895079
0.000000 0.097688 0.495216
0.000000 0.142733 0.498360
0.284886 0.352178 0.453773
0.746059 0.498939 0.660456
0.871183 0.622675 0.674311
0.876219 0.700343 0.706905
0.915709 0.718288 0.707668
0.944762 0.754757 0.738521
0.233829 0.158419 0.531731
0.232670 0.203708 0.542870
0.380407 0.421576 0.502220
0.765957 0.553002 0.677485
0.859800 0.646296 0.682429
0.874998 0.702083 0.704463
0.914580 0.720363 0.706844
0.944121 0.756191 0.738247
0.478553 0.196384 0.607080
0.538598 0.287785 0.622492
0.591272 0.589899 0.635218
0.791012 0.677760 0.706294
0.819760 0.706172 0.707057
0.868223 0.702632 0.686824
0.909728 0.724880 0.698756
0.941527 0.759121 0.733577
0.242283 0.705623 0.682246
0.372198 0.724697 0.692866
0.678340 0.756710 0.723537
0.766598 0.753323 0.726101
0.811948 0.718166 0.674800
0.859495 0.719966 0.669978
0.903990 0.741817 0.694301
0.938964 0.772702 0.735103
0.593683 0.813748 0.724697
0.632624 0.816678 0.736721
0.718624 0.827054 0.768734
0.780911 0.833677 0.791257
0.826993 0.827207 0.785519
0.850278 0.782345 0.714412
0.897520 0.760403 0.679072
0.935637 0.789639 0.732876
0.702022 0.865537 0.787228
0.709224 0.866514 0.789212
0.735470 0.869230 0.797177
0.787167 0.873350 0.823728
0.825895 0.871702 0.826383
0.867094 0.872038 0.834073
0.890349 0.847837 0.790921
0.927092 0.827817 0.759854
0.748653 0.899382 0.829953
0.752010 0.899321 0.830564
0.767422 0.899565 0.834867
0.800198 0.900694 0.848508
0.838315 0.900450 0.865232
0.863249 0.898741 0.866514
0.888640 0.897581 0.870329
0.905699 0.885679 0.848142
0.791989 0.917113 0.864073
0.794919 0.916991 0.864805
0.807065 0.916442 0.868315
0.829984 0.916045 0.877012
0.855039 0.915099 0.888334
0.872618 0.914244 0.893767
0.887053 0.913451 0.895140
0.900999 0.912840 0.897551
0.162997 0.095888 0.590265
0.161715 0.135561 0.598108
0.259251 0.311650 0.585290
0.574273 0.570764 0.588403
0.850095 0.670619 0.771176
0.898680 0.732448 0.770169
0.907683 0.769528 0.784024
0.925322 0.798398 0.803586
0.269322 0.142184 0.605249
0.269352 0.176394 0.613550
0.328801 0.349432 0.601160
0.593133 0.588525 0.603815
0.848905 0.682521 0.769162
0.891844 0.735866 0.768582
0.902678 0.771267 0.783566
0.924743 0.796170 0.800137
0.516655 0.236576 0.662379
0.538720 0.319097 0.674922
0.548486 0.497444 0.684840
0.679194 0.679469 0.686641
0.854734 0.745022 0.784756
0.873899 0.763333 0.779355
0.894530 0.783291 0.788205
0.923735 0.800412 0.799924
0.390234 0.408698 0.726711
0.470039 0.445930 0.732723
0.681025 0.598871 0.757107
0.767819 0.785153 0.786587
0.830106 0.796750 0.801755
0.858000 0.790249 0.788144
0.893004 0.793759 0.786160
0.922850 0.811246 0.802945
0.423133 0.799222 0.753994
0.483467 0.801022 0.754330
0.658442 0.811673 0.772671
0.791623 0.840757 0.822446
0.825101 0.827695 0.809415
0.845304 0.791043 0.761227
0.887114 0.798123 0.769924
0.922087 0.815549 0.793606
0.652399 0.857053 0.787137
0.672023 0.859342 0.793576
0.729976 0.866056 0.813260
0.794308 0.874327 0.838315
0.836179 0.876890 0.853178
0.865049 0.872984 0.850217
0.885832 0.841276 0.800320
0.921935 0.832273 0.791348
0.720546 0.897337 0.830503
0.731136 0.897734 0.834043
0.767330 0.898314 0.846159
0.808865 0.899290 0.860716
0.843717 0.901488 0.876524
0.866880 0.900633 0.880217
0.888304 0.899351 0.881987
0.904784 0.886168 0.857939
0.752773 0.918853 0.856657
0.758267 0.918456 0.858061
0.782620 0.917296 0.865324
0.823178 0.915190 0.879210
0.846769 0.915007 0.886809
0.873289 0.914488 0.898772
0.887358 0.913817 0.899962
0.900511 0.913207 0.901915
0.243656 0.000000 0.666011
0.240909 0.071229 0.673548
0.278172 0.250584 0.668605
0.486458 0.518700 0.637598
0.710140 0.679377 0.735164
0.896849 0.755032 0.829526
0.920592 0.788968 0.824033
0.921080 0.818051 0.835111
0.300908 0.064790 0.668086
0.301335 0.116548 0.675715
0.326635 0.271000 0.674922
0.502892 0.530694 0.644038
0.714290 0.685115 0.737453
0.894957 0.756344 0.826322
0.917144 0.786770 0.820340
0.919219 0.815793 0.832181
0.492012 0.172519 0.701228
0.493690 0.211551 0.706172
0.499550 0.354040 0.720607
0.585046 0.597986 0.695918
0.745754 0.731930 0.767178
0.896880 0.785550 0.833127
0.907317 0.805539 0.829221
0.912474 0.830320 0.842161
0.603815 0.000000 0.724605
0.637568 0.000000 0.728573
0.672236 0.438148 0.759182
0.692683 0.690669 0.772274
0.788357 0.791592 0.811185
0.881651 0.822263 0.844205
0.892546 0.831205 0.842618
0.904967 0.844694 0.850919
0.000000 0.521630 0.780392
0.189639 0.532860 0.782345
0.472480 0.585565 0.792935
0.723323 0.718959 0.812161
0.827054 0.843992 0.850645
0.860472 0.846555 0.851225
0.882261 0.842466 0.843931
0.905486 0.849271 0.849119
0.354528 0.840421 0.804776
0.407752 0.841154 0.805356
0.556481 0.844572 0.808988
0.708125 0.856535 0.826017
0.837552 0.878752 0.869688
0.861112 0.870878 0.862974
0.880003 0.848203 0.834104
0.906676 0.857115 0.846952
0.618952 0.889647 0.820493
0.633997 0.890043 0.823239
0.685328 0.891325 0.833188
0.767819 0.894102 0.854185
0.841184 0.898863 0.880034
0.870481 0.901762 0.891661
0.886412 0.898985 0.889158
0.904234 0.879240 0.858610
0.688685 0.919158 0.850584
0.697688 0.918883 0.852354
0.734401 0.917754 0.860380
0.788785 0.915770 0.873808
0.843320 0.914336 0.890745
0.870573 0.914672 0.900389
0.888060 0.914549 0.906065
0.900175 0.913909 0.907103
0.375341 0.000000 0.765225
0.370581 0.000000 0.769009
0.370672 0.178317 0.765988
0.458076 0.450263 0.746426
0.684443 0.692287 0.694575
0.797482 0.760769 0.821103
0.919005 0.814603 0.870207
0.925780 0.844083 0.870268
0.399176 0.000000 0.761593
0.396216 0.000000 0.765591
0.393652 0.182864 0.766842
0.468605 0.453498 0.747494
0.684321 0.693294 0.698268
0.798367 0.763210 0.821561
0.918059 0.816434 0.869841
0.924712 0.844602 0.870054
0.507164 0.000000 0.766415
0.505058 0.000000 0.769436
0.494972 0.207340 0.779294
0.531273 0.485084 0.767758
0.695674 0.711055 0.727962
0.807431 0.780545 0.830503
0.914427 0.832090 0.873655
0.919799 0.851987 0.873289
0.607019 0.000000 0.765591
0.614038 0.000000 0.771328
0.638666 0.269718 0.789517
0.627253 0.520409 0.799069
0.713436 0.735775 0.774472
0.822812 0.812467 0.847196
0.908812 0.856382 0.881590
0.912383 0.863951 0.879118
0.448585 0.000000 0.788266
0.483864 0.000000 0.789853
0.603479 0.000000 0.792874
0.730831 0.399481 0.810910
0.746548 0.755886 0.825101
0.835599 0.846342 0.862974
0.898466 0.871733 0.886564
0.904662 0.875731 0.885100
0.000000 0.543511 0.833066
0.000000 0.544945 0.833433
0.000000 0.554955 0.836210
0.417548 0.591028 0.844053
0.733211 0.719234 0.852232
0.849943 0.872129 0.874083
0.889006 0.886656 0.892729
0.897673 0.888273 0.892515
0.000000 0.864469 0.855314
0.000000 0.865080 0.855711
0.233799 0.867918 0.857786
0.523400 0.875181 0.863432
0.697139 0.886748 0.872679
0.842710 0.895048 0.888487
0.882322 0.895689 0.894743
0.897337 0.891447 0.890043
0.440497 0.924865 0.847105
0.463233 0.924132 0.847990
0.544060 0.921569 0.852628
0.650965 0.918242 0.862181
0.766110 0.914092 0.878386
0.852506 0.912627 0.898161
0.889342 0.914977 0.911803
0.899046 0.914183 0.912108
