20 Preset/INSTA/【3】LUT video cho PR-AE-FCPX/INS LUT (17).cube
# Created by Adobe Lightroom plugin Export LUT (1.24.0)
# www.johnrellis.com/lightroom/exportlut.htm
# Preset: INS胶片-自然[素材江湖]17
# Color profile: C:\Program Files (x86)\Common Files\Adobe\Color\Profiles\Recommended\VideoHD.icc
LUT_3D_SIZE 32
DOMAIN_MIN 0.0 0.0 0.0
DOMAIN_MAX 1.0 1.0 1.0
0.000000 0.000000 0.000000
0.002960 0.000763 0.000977
0.011597 0.000824 0.003052
0.032410 0.001740 0.005890
0.065797 0.002289 0.010803
0.094911 0.001282 0.017945
0.115572 0.000000 0.024842
0.139986 0.000000 0.032685
0.171267 0.000000 0.039277
0.207889 0.000000 0.046418
0.249912 0.000000 0.053162
0.295933 0.000000 0.059052
0.345312 0.000000 0.065095
0.397040 0.000000 0.070192
0.449042 0.000000 0.074311
0.499947 0.000000 0.077516
0.548943 0.000000 0.080079
0.595727 0.000000 0.082734
0.640467 0.000000 0.087861
0.682368 0.000000 0.091188
0.720668 0.000000 0.096254
0.761624 0.000000 0.103517
0.805783 0.000000 0.115206
0.840391 0.000000 0.128237
0.868284 0.000000 0.141756
0.891966 0.000000 0.156588
0.913695 0.000000 0.173037
0.934569 0.000000 0.192325
0.955108 0.000000 0.213535
0.975769 0.000000 0.239170
0.996582 0.000000 0.268742
1.000000 0.000000 0.303899
0.000519 0.004364 0.001648
0.002533 0.004150 0.001648
0.011444 0.004211 0.002594
0.033967 0.002747 0.004608
0.066407 0.002319 0.008545
0.094209 0.002716 0.015534
0.113954 0.000885 0.022431
0.137301 0.000000 0.029358
0.167391 0.000000 0.035981
0.202640 0.000000 0.042206
0.243046 0.000000 0.048920
0.287755 0.000000 0.054994
0.335729 0.000000 0.061402
0.386450 0.000000 0.066590
0.438148 0.000000 0.071046
0.489174 0.000000 0.074403
0.538720 0.000000 0.078187
0.586023 0.000000 0.080293
0.630945 0.000000 0.084077
0.673182 0.000000 0.088960
0.711910 0.000000 0.093477
0.752651 0.000000 0.100771
0.795438 0.000000 0.110628
0.829618 0.000000 0.122621
0.857633 0.000000 0.135653
0.881498 0.000000 0.149203
0.903502 0.000000 0.165438
0.924773 0.000000 0.182712
0.945922 0.000000 0.203738
0.967224 0.000000 0.228580
0.988678 0.000000 0.257267
1.000000 0.000000 0.291905
0.000855 0.016449 0.006775
0.000153 0.017670 0.006622
0.010925 0.018738 0.005127
0.031342 0.020844 0.006714
0.062074 0.020661 0.009522
0.093751 0.017456 0.013550
0.113527 0.011261 0.017670
0.137423 0.000000 0.020630
0.166262 0.000000 0.024201
0.200351 0.000000 0.031800
0.239078 0.000000 0.037629
0.282841 0.000000 0.043763
0.329473 0.000000 0.049195
0.378882 0.000000 0.053620
0.429938 0.000000 0.059266
0.480598 0.000000 0.062959
0.530144 0.000000 0.067079
0.577783 0.000000 0.070314
0.623377 0.000000 0.076326
0.666346 0.000000 0.081941
0.705898 0.000000 0.088472
0.747951 0.000000 0.095460
0.789944 0.000000 0.105440
0.823789 0.000000 0.116518
0.851591 0.000000 0.128756
0.875700 0.000000 0.143038
0.897704 0.000000 0.158114
0.919249 0.000000 0.176150
0.940734 0.000000 0.196658
0.962371 0.000000 0.220890
0.984161 0.000000 0.249485
1.000000 0.000000 0.282933
0.001038 0.044038 0.017700
0.000336 0.045228 0.017548
0.006867 0.046754 0.017212
0.032441 0.048432 0.014221
0.060365 0.050874 0.014466
0.091218 0.050538 0.017090
0.111360 0.043366 0.020233
0.135256 0.033387 0.021942
0.164340 0.014527 0.024811
0.198215 0.000000 0.027375
0.236454 0.000000 0.029328
0.278508 0.000000 0.030701
0.324132 0.000000 0.033448
0.371893 0.000000 0.035309
0.421424 0.000000 0.038392
0.470558 0.000000 0.042420
0.518944 0.000000 0.045716
0.565789 0.000000 0.050385
0.610864 0.000000 0.054566
0.653956 0.000000 0.061433
0.693843 0.000000 0.070344
0.737575 0.000000 0.083711
0.778134 0.000000 0.093904
0.812863 0.000000 0.105043
0.842435 0.000000 0.118013
0.868528 0.000000 0.132631
0.892332 0.000000 0.148470
0.915282 0.000000 0.167453
0.937743 0.000000 0.188937
0.959899 0.000000 0.213718
0.981537 0.000000 0.241978
1.000000 0.000000 0.274205
0.001862 0.081666 0.032593
0.003845 0.081514 0.032593
0.005402 0.083528 0.033265
0.023713 0.084382 0.030457
0.066773 0.084962 0.026093
0.094606 0.083223 0.023346
0.108858 0.082856 0.023682
0.131991 0.074128 0.024567
0.160128 0.057588 0.026246
0.192691 0.031586 0.027741
0.229252 0.000000 0.028809
0.270115 0.000000 0.030335
0.313603 0.000000 0.032197
0.360418 0.000000 0.035554
0.409186 0.000000 0.036622
0.458412 0.000000 0.039033
0.507927 0.000000 0.040558
0.555810 0.000000 0.043641
0.601801 0.000000 0.045869
0.645624 0.000000 0.048676
0.686244 0.000000 0.054627
0.732387 0.000000 0.064363
0.772030 0.000000 0.079347
0.807218 0.000000 0.091310
0.837339 0.000000 0.104280
0.864225 0.000000 0.119448
0.888670 0.000000 0.137148
0.911803 0.000000 0.156344
0.934356 0.000000 0.178042
0.956451 0.000000 0.202701
0.978210 0.000000 0.230869
0.999420 0.000000 0.263005
0.000000 0.104616 0.047333
0.000000 0.104952 0.047181
0.000000 0.105898 0.047852
0.001740 0.108461 0.046632
0.047791 0.108278 0.041291
0.097902 0.107546 0.034546
0.120455 0.104646 0.027558
0.137667 0.101289 0.026429
0.158389 0.096803 0.027253
0.190768 0.087922 0.027466
0.226780 0.056550 0.028748
0.266209 0.008515 0.029236
0.309117 0.000000 0.031189
0.354864 0.000000 0.033539
0.403021 0.000000 0.036042
0.452461 0.000000 0.038514
0.501488 0.000000 0.040223
0.549828 0.000000 0.042054
0.596521 0.000000 0.044282
0.640742 0.000000 0.048249
0.686244 0.000000 0.054994
0.731472 0.000000 0.065583
0.829435 0.000000 0.100618
0.861387 0.000000 0.114443
0.888182 0.000000 0.129702
0.911833 0.000000 0.145724
0.933715 0.000000 0.162600
0.954498 0.000000 0.181399
0.974060 0.000000 0.207187
0.993164 0.000000 0.235935
1.000000 0.000000 0.267826
1.000000 0.000000 0.303532
0.000000 0.144381 0.066346
0.000000 0.144808 0.066041
0.000000 0.146304 0.064973
0.000000 0.149935 0.063508
0.000000 0.151766 0.059297
0.083925 0.149844 0.048493
0.136751 0.146242 0.037385
0.168917 0.138521 0.026764
0.188266 0.130953 0.024414
0.206943 0.123934 0.023346
0.239750 0.113558 0.023957
0.281621 0.096712 0.025299
0.325750 0.044526 0.027283
0.372229 0.000000 0.029664
0.420081 0.000000 0.031128
0.467781 0.000000 0.032837
0.515831 0.000000 0.035859
0.563012 0.000000 0.037903
0.608698 0.000000 0.041047
0.654536 0.000000 0.046479
0.710384 0.000000 0.057099
0.759945 0.000000 0.075898
0.803677 0.000000 0.092714
0.840879 0.000000 0.106661
0.872129 0.000000 0.122133
0.898161 0.000000 0.138613
0.921355 0.000000 0.155734
0.942718 0.000000 0.173404
0.963317 0.000000 0.193362
0.983337 0.000000 0.215335
1.000000 0.000000 0.241703
1.000000 0.000000 0.276524
0.000000 0.181521 0.079408
0.000000 0.181888 0.079927
0.000000 0.183444 0.079683
0.000000 0.187015 0.078889
0.000000 0.192233 0.077394
0.000000 0.190677 0.063325
0.112856 0.187106 0.048554
0.173831 0.181064 0.032624
0.210758 0.169894 0.021515
0.231785 0.159823 0.014862
0.251194 0.150607 0.014557
0.269200 0.141543 0.015747
0.312261 0.126711 0.016999
0.357397 0.103059 0.018830
0.403906 0.030732 0.020935
0.450965 0.000000 0.023407
0.498451 0.000000 0.025971
0.545617 0.000000 0.028595
0.592157 0.000000 0.032349
0.647639 0.000000 0.038178
0.699397 0.000000 0.049470
0.746761 0.000000 0.066377
0.789822 0.000000 0.087648
0.827390 0.000000 0.101442
0.859281 0.000000 0.116823
0.886076 0.000000 0.133242
0.909789 0.000000 0.149905
0.931792 0.000000 0.167514
0.953063 0.000000 0.187228
0.973571 0.000000 0.208743
0.993927 0.000000 0.233219
1.000000 0.000000 0.260655
0.000000 0.224063 0.092988
0.000000 0.224796 0.093050
0.000000 0.226200 0.092805
0.000000 0.229679 0.092775
0.000000 0.234867 0.091859
0.000000 0.238224 0.088045
0.012238 0.233890 0.072023
0.149508 0.228489 0.047059
0.216281 0.220676 0.024140
0.257542 0.205570 0.011475
0.280339 0.192782 0.001923
0.300084 0.181857 0.000885
0.317693 0.170199 0.001953
0.343908 0.157534 0.002991
0.389868 0.138186 0.005646
0.436347 0.109041 0.007416
0.483619 0.015564 0.010651
0.531426 0.000000 0.013306
0.586999 0.000000 0.017426
0.639704 0.000000 0.024811
0.689174 0.000000 0.035096
0.734951 0.000000 0.051759
0.777462 0.000000 0.076997
0.815305 0.000000 0.095735
0.847776 0.000000 0.111727
0.875303 0.000000 0.127962
0.899504 0.000000 0.145174
0.922148 0.000000 0.163363
0.943938 0.000000 0.182773
0.964965 0.000000 0.204288
0.985565 0.000000 0.228519
1.000000 0.000000 0.255894
0.000000 0.271580 0.108156
0.000000 0.271855 0.108034
0.000000 0.272892 0.108156
0.000000 0.276036 0.107912
0.000000 0.280735 0.107149
0.000000 0.287297 0.106966
0.000000 0.285100 0.098146
0.096071 0.279332 0.083223
0.190463 0.271305 0.051087
0.261173 0.261357 0.018067
0.305028 0.242863 0.001038
0.328466 0.227420 0.000000
0.347662 0.213718 0.000000
0.366064 0.201419 0.000000
0.380957 0.187411 0.000000
0.419623 0.171572 0.000000
0.471962 0.150637 0.000000
0.526604 0.119448 0.000000
0.579736 0.026886 0.000000
0.630701 0.000000 0.002014
0.678157 0.000000 0.012848
0.721706 0.000000 0.029664
0.761929 0.000000 0.054139
0.798459 0.000000 0.082918
0.830503 0.000000 0.101625
0.858427 0.000000 0.117891
0.883543 0.000000 0.135286
0.907286 0.000000 0.153872
0.930327 0.000000 0.173892
0.952758 0.000000 0.196262
0.974670 0.000000 0.221408
0.996124 0.000000 0.249729
0.000000 0.317662 0.126467
0.000000 0.318029 0.126558
0.000000 0.319463 0.126619
0.000000 0.322606 0.126925
0.000000 0.327672 0.127260
0.000000 0.334874 0.127443
0.000000 0.341070 0.125124
0.000000 0.335546 0.112367
0.148959 0.328466 0.095735
0.238834 0.319158 0.063752
0.312840 0.306950 0.014160
0.358434 0.285466 0.000000
0.381964 0.267185 0.000000
0.400427 0.250736 0.000000
0.422095 0.238285 0.000000
0.441535 0.225162 0.000000
0.462104 0.210880 0.000000
0.514519 0.194705 0.000000
0.565881 0.173587 0.000000
0.615259 0.145235 0.000000
0.662074 0.102602 0.000000
0.705409 0.000000 0.000000
0.745937 0.000000 0.022126
0.783413 0.000000 0.054078
0.816434 0.000000 0.089387
0.845487 0.000000 0.108248
0.871641 0.000000 0.127291
0.896147 0.000000 0.147250
0.919890 0.000000 0.168673
0.943084 0.000000 0.191745
0.965545 0.000000 0.217288
0.987518 0.000000 0.246250
0.000000 0.371527 0.150912
0.000000 0.372015 0.150912
0.000000 0.373327 0.151308
0.000000 0.376532 0.151797
0.000000 0.381537 0.152834
0.000000 0.388495 0.154025
0.000000 0.398138 0.155550
0.000000 0.398383 0.147616
0.030396 0.391547 0.131838
0.210422 0.382971 0.112764
0.297551 0.372747 0.088380
0.375311 0.362768 0.023957
0.474403 0.380285 0.000000
0.501396 0.360388 0.000000
0.522026 0.340612 0.000000
0.540032 0.321935 0.000000
0.556603 0.304356 0.000000
0.569390 0.284489 0.000000
0.602380 0.269291 0.000000
0.651209 0.256443 0.000000
0.696010 0.242741 0.000000
0.736812 0.228580 0.000000
0.773861 0.213687 0.000000
0.806699 0.198917 0.042786
0.835782 0.183627 0.093294
0.861601 0.168215 0.118257
0.885222 0.152743 0.141115
0.907469 0.141390 0.162844
0.928985 0.137026 0.185306
0.950103 0.143099 0.209720
0.970825 0.160647 0.236515
0.991424 0.188602 0.267185
0.000000 0.449256 0.193240
0.000000 0.449409 0.193332
0.000000 0.449805 0.193149
0.000000 0.451637 0.193606
0.000000 0.455940 0.194705
0.000000 0.462806 0.197147
0.000000 0.472633 0.201297
0.000000 0.483528 0.205081
0.000000 0.479408 0.191806
0.208133 0.474586 0.175387
0.313207 0.469245 0.156283
0.400244 0.462531 0.132235
0.478157 0.452766 0.099397
0.528923 0.430640 0.060639
0.554467 0.411353 0.000000
0.572930 0.389990 0.000000
0.587427 0.369390 0.000000
0.600366 0.349218 0.000000
0.611475 0.328801 0.000000
0.620905 0.307988 0.000000
0.664729 0.298161 0.000000
0.706874 0.288762 0.000000
0.745663 0.279454 0.000000
0.781125 0.270268 0.000000
0.812467 0.261051 0.032380
0.840482 0.252323 0.094362
0.865873 0.244450 0.122469
0.889921 0.239414 0.147829
0.913115 0.238163 0.172946
0.935729 0.243046 0.199649
0.957763 0.253178 0.228580
0.979370 0.270481 0.260533
0.000000 0.515282 0.239811
0.000000 0.514916 0.239628
0.000000 0.515190 0.239292
0.000000 0.516228 0.239353
0.000000 0.518486 0.240085
0.000000 0.522240 0.241794
0.000000 0.528588 0.245243
0.000000 0.537499 0.250126
0.000000 0.540185 0.246494
0.193484 0.534813 0.231296
0.303716 0.529229 0.214389
0.390356 0.522698 0.194675
0.466651 0.514183 0.170291
0.534234 0.502678 0.139101
0.578027 0.478370 0.115541
0.598322 0.457435 0.020233
0.613153 0.434028 0.000000
0.624659 0.412268 0.000000
0.636042 0.391882 0.000000
0.646662 0.372168 0.000000
0.655543 0.351202 0.000000
0.678523 0.337072 0.000000
0.719295 0.331487 0.000000
0.757198 0.326299 0.000000
0.790860 0.320836 0.000000
0.820951 0.315526 0.034730
0.848081 0.310765 0.100221
0.873472 0.307683 0.131960
0.897917 0.307774 0.160830
0.921782 0.312016 0.190005
0.944915 0.320897 0.221164
0.967590 0.335119 0.255222
0.000000 0.566857 0.287236
0.000000 0.566949 0.286931
0.000000 0.566613 0.286442
0.000000 0.566735 0.286015
0.000000 0.567651 0.286046
0.000000 0.569604 0.286961
0.000000 0.573816 0.289555
0.000000 0.580194 0.294835
0.000000 0.589044 0.302190
0.204959 0.585046 0.289525
0.306218 0.579919 0.274571
0.388128 0.574060 0.257267
0.459571 0.566766 0.236667
0.523888 0.556939 0.211276
0.580438 0.543816 0.179477
0.616846 0.518700 0.155520
0.633387 0.497597 0.104402
0.646418 0.474525 0.000000
0.656489 0.453132 0.000000
0.666743 0.432898 0.000000
0.677485 0.414710 0.000000
0.687068 0.395361 0.000000
0.697261 0.376745 0.000000
0.732845 0.372412 0.000000
0.768704 0.369726 0.000000
0.800931 0.366857 0.000000
0.830198 0.364660 0.050721
0.857389 0.364050 0.113466
0.883818 0.366552 0.149081
0.909575 0.372930 0.183444
0.934661 0.383612 0.219059
0.959106 0.398840 0.258244
0.000000 0.605249 0.330419
0.000000 0.605585 0.330938
0.000000 0.606012 0.331121
0.000000 0.606836 0.331609
0.000000 0.608331 0.332982
0.000000 0.610956 0.335271
0.000000 0.615442 0.339757
0.125887 0.621393 0.346380
0.190127 0.628962 0.355108
0.256901 0.632898 0.357549
0.334264 0.627466 0.342535
0.401038 0.620844 0.325109
0.461830 0.612665 0.304234
0.517449 0.602380 0.279728
0.568139 0.589807 0.249882
0.613977 0.574762 0.215640
0.645533 0.549645 0.190463
0.659998 0.529900 0.144778
0.672175 0.508659 0.086366
0.682246 0.488869 0.005921
0.692866 0.471015 0.000000
0.704585 0.455238 0.000000
0.715572 0.438880 0.000000
0.726833 0.422705 0.000000
0.748013 0.413123 0.000000
0.782681 0.413397 0.000000
0.814023 0.413855 0.000000
0.842954 0.415167 0.092042
0.870603 0.418860 0.137148
0.897246 0.425360 0.176150
0.923033 0.434760 0.215244
0.948028 0.447395 0.256474
0.098848 0.636469 0.371893
0.102571 0.636530 0.372137
0.109407 0.636866 0.372259
0.125399 0.637720 0.373358
0.147097 0.639155 0.375006
0.173251 0.641505 0.377966
0.203342 0.644923 0.382513
0.235874 0.649470 0.388617
0.270634 0.655024 0.396704
0.306615 0.661616 0.406653
0.358526 0.659754 0.398871
0.413001 0.654261 0.383307
0.464729 0.647425 0.365087
0.513512 0.639155 0.343267
0.559564 0.629053 0.317632
0.602960 0.616785 0.287114
0.643244 0.602777 0.252659
0.671931 0.579004 0.228489
0.685267 0.561028 0.186648
0.696803 0.541650 0.139162
0.707362 0.524437 0.103304
0.718135 0.508751 0.036988
0.729885 0.495003 0.000000
0.741482 0.481239 0.000000
0.753262 0.467262 0.000000
0.766354 0.454994 0.000000
0.797452 0.456153 0.000000
0.828183 0.459419 0.031922
0.857420 0.464607 0.123507
0.885527 0.471962 0.170474
0.912688 0.481666 0.214298
0.938933 0.493843 0.259342
0.249607 0.665064 0.418067
0.251286 0.665461 0.418677
0.340368 0.688960 0.463661
0.344518 0.689631 0.464729
0.351080 0.690608 0.466468
0.360449 0.692042 0.468940
0.372686 0.694087 0.472663
0.388128 0.696895 0.477882
0.406867 0.700649 0.484932
0.427985 0.705348 0.493782
0.451637 0.708949 0.499611
0.482948 0.704097 0.485664
0.515251 0.697963 0.468055
0.548913 0.690425 0.446998
0.582971 0.681392 0.421942
0.617304 0.670710 0.392859
0.651270 0.658259 0.359258
0.684657 0.644129 0.321782
0.707820 0.621332 0.293858
0.719661 0.603357 0.252567
0.729915 0.585138 0.208560
0.740078 0.568994 0.173953
0.750057 0.554894 0.146609
0.760952 0.542229 0.112154
0.771542 0.529290 0.066499
0.782437 0.516228 0.000000
0.794675 0.504875 0.000000
0.815488 0.500755 0.000000
0.845304 0.505638 0.110750
0.874327 0.512993 0.165042
0.902495 0.522637 0.213809
0.929778 0.534325 0.262486
0.356817 0.694820 0.474708
0.363897 0.696773 0.478798
0.372259 0.699092 0.483497
0.381476 0.701442 0.488228
0.390967 0.703639 0.492653
0.400092 0.705501 0.496254
0.410040 0.707485 0.499794
0.421973 0.709834 0.504173
0.436378 0.712917 0.510002
0.452949 0.716793 0.517174
0.471260 0.721401 0.525811
0.493568 0.720821 0.522179
0.519249 0.715633 0.507317
0.546838 0.709377 0.489906
0.575738 0.701961 0.469093
0.605890 0.693233 0.444800
0.636774 0.683375 0.417212
0.668116 0.672389 0.386206
0.699733 0.660365 0.351751
0.722225 0.640558 0.326635
0.734859 0.624567 0.289982
0.746212 0.609613 0.251011
0.757290 0.595514 0.216037
0.767422 0.583307 0.192660
0.778225 0.572168 0.165927
0.789151 0.561212 0.143587
0.800565 0.550591 0.125368
0.813962 0.542107 0.104616
0.829892 0.536889 0.079500
0.860410 0.544884 0.152682
0.890013 0.555047 0.207584
0.918853 0.567071 0.260624
0.405097 0.710780 0.506279
0.411139 0.712642 0.510307
0.418494 0.714961 0.515007
0.426429 0.717220 0.519615
0.434607 0.719417 0.524041
0.442023 0.721187 0.527489
0.449897 0.722896 0.530755
0.459113 0.724941 0.534508
0.470527 0.727535 0.539544
0.483467 0.730770 0.545586
0.498116 0.734646 0.552880
0.514031 0.738918 0.561028
0.533410 0.734646 0.548516
0.555230 0.729488 0.533898
0.578698 0.723354 0.516777
0.603784 0.716213 0.496773
0.630335 0.707973 0.473640
0.657893 0.698787 0.447425
0.686488 0.688746 0.418433
0.715602 0.678096 0.386633
0.736934 0.660456 0.362646
0.749935 0.646021 0.330327
0.761624 0.633143 0.294652
0.773434 0.620844 0.259342
0.783719 0.610254 0.238437
0.795010 0.601068 0.215396
0.806394 0.592065 0.198947
0.818906 0.584192 0.186435
0.833951 0.579187 0.175418
0.851804 0.577722 0.167544
0.878416 0.584985 0.201877
0.908537 0.597253 0.259342
0.449928 0.727230 0.538994
0.454627 0.728939 0.542504
0.460304 0.730831 0.546502
0.466468 0.732845 0.550530
0.472847 0.734768 0.554284
0.478950 0.736324 0.557397
0.485359 0.737911 0.560418
0.492836 0.739742 0.563836
0.501946 0.742092 0.568292
0.512505 0.744900 0.573541
0.524285 0.748318 0.579767
0.536950 0.752132 0.586755
0.551232 0.752895 0.586450
0.568383 0.748592 0.574640
0.587304 0.743557 0.560601
0.607935 0.737911 0.544457
0.630640 0.731716 0.526757
0.655085 0.724910 0.506737
0.681025 0.717708 0.485145
0.708186 0.710018 0.461433
0.735958 0.701900 0.435615
0.757198 0.687892 0.416358
0.771237 0.676020 0.389471
0.784085 0.666285 0.359350
0.797208 0.657099 0.329015
0.809232 0.649561 0.310033
0.822141 0.643763 0.293065
0.835386 0.638636 0.284550
0.850767 0.635767 0.279545
0.868864 0.636011 0.277897
0.890196 0.639796 0.280766
0.916197 0.648463 0.300999
0.512963 0.753658 0.590723
0.514580 0.754360 0.592065
0.516411 0.755032 0.593347
0.518608 0.755764 0.594690
0.521355 0.756497 0.596033
0.524407 0.757321 0.597375
0.528618 0.758328 0.599298
0.533989 0.759823 0.601862
0.540734 0.761837 0.605310
0.548943 0.764462 0.609888
0.558251 0.767483 0.615259
0.568353 0.770993 0.621180
0.578820 0.774655 0.627375
0.591882 0.772274 0.620752
0.606775 0.768002 0.609735
0.623163 0.763149 0.597131
0.640986 0.757748 0.582544
0.660426 0.751797 0.566094
0.681544 0.745357 0.547356
0.704189 0.738430 0.526696
0.728206 0.730953 0.503777
0.753170 0.722927 0.478584
0.772457 0.709651 0.458930
0.785672 0.697627 0.433021
0.798154 0.688716 0.404364
0.811429 0.680934 0.376654
0.824521 0.675166 0.358282
0.838407 0.671748 0.346746
0.852903 0.669306 0.344579
0.869993 0.669520 0.345006
0.890135 0.672755 0.349310
0.913848 0.679500 0.358587
0.542779 0.769436 0.618341
0.543999 0.769955 0.619379
0.545464 0.770565 0.620539
0.547387 0.771298 0.621759
0.549615 0.771969 0.623011
0.552331 0.772793 0.624353
0.555779 0.773739 0.626032
0.560143 0.775143 0.628260
0.565759 0.776974 0.631403
0.572473 0.779263 0.635309
0.580163 0.782040 0.639918
0.588647 0.785122 0.645075
0.597559 0.788479 0.650568
0.607446 0.790555 0.653315
0.620050 0.787106 0.644923
0.633906 0.783230 0.635218
0.649226 0.778958 0.624109
0.665919 0.774197 0.611688
0.683986 0.769070 0.597650
0.703426 0.763516 0.581994
0.724300 0.757565 0.564202
0.746487 0.751125 0.544030
0.769741 0.744137 0.521447
0.788205 0.732509 0.503838
0.797177 0.715358 0.468391
0.809567 0.707607 0.442512
0.823392 0.701656 0.419074
0.837736 0.697810 0.402197
0.852293 0.696376 0.397589
0.868345 0.696620 0.400366
0.887572 0.699947 0.406928
0.910430 0.706630 0.417975
0.578393 0.790494 0.653681
0.579980 0.791348 0.655207
0.581109 0.791897 0.656123
0.581994 0.792081 0.656489
0.582757 0.792142 0.656519
0.583764 0.792111 0.656458
0.585168 0.792233 0.656550
0.587335 0.792569 0.657099
0.590631 0.793332 0.658350
0.594934 0.794583 0.660365
0.600031 0.796170 0.662928
0.606317 0.798276 0.666468
0.613153 0.800687 0.670375
0.620539 0.803281 0.674617
0.629297 0.801968 0.670802
0.640009 0.798062 0.661433
0.652369 0.793851 0.651331
0.666438 0.789517 0.640528
0.682216 0.785153 0.629175
0.699611 0.780758 0.616907
0.718349 0.776120 0.603540
0.738186 0.770993 0.588220
0.758938 0.765103 0.570245
0.780545 0.758358 0.548791
0.797757 0.747005 0.530694
0.810330 0.735714 0.509209
0.822538 0.728847 0.485664
0.836515 0.724086 0.465217
0.851896 0.721614 0.449928
0.866972 0.721798 0.451484
0.884703 0.724666 0.458686
0.906126 0.731075 0.470558
0.596124 0.802426 0.672389
0.597528 0.803189 0.673793
0.598810 0.803799 0.674861
0.599908 0.804196 0.675593
0.601099 0.804593 0.676204
0.602838 0.805051 0.677028
0.605097 0.805722 0.678187
0.608148 0.806668 0.679866
0.611994 0.807980 0.682124
0.616724 0.809598 0.684962
0.621881 0.811429 0.688136
0.627832 0.813535 0.691829
0.634180 0.815793 0.695735
0.640803 0.818112 0.699763
0.647547 0.820371 0.703578
0.655787 0.817075 0.695491
0.665400 0.813535 0.686702
0.676692 0.809873 0.677424
0.689754 0.806180 0.667842
0.704524 0.802518 0.657862
0.720760 0.798734 0.647333
0.738186 0.794675 0.635767
0.756588 0.790188 0.622553
0.775998 0.785122 0.607141
0.796384 0.779446 0.589380
0.813107 0.769802 0.574487
0.826017 0.760037 0.557671
0.838804 0.755032 0.538811
0.854154 0.753017 0.524804
0.871366 0.753475 0.515557
0.888487 0.756710 0.523857
0.909026 0.763272 0.536187
0.620630 0.818265 0.698329
0.621393 0.818631 0.699031
0.622065 0.818936 0.699580
0.622797 0.819181 0.700008
0.623743 0.819394 0.700435
0.625025 0.819730 0.701015
0.626856 0.820218 0.701869
0.629297 0.820890 0.703151
0.632441 0.821866 0.704952
0.636408 0.823148 0.707332
0.640894 0.824643 0.710048
0.646113 0.826474 0.713344
0.651728 0.828428 0.716884
0.657618 0.830472 0.720516
0.663661 0.832486 0.724178
0.670069 0.832578 0.723537
0.677638 0.829648 0.716030
0.686732 0.826627 0.708095
0.697444 0.823667 0.699947
0.709865 0.820706 0.691615
0.723690 0.817685 0.682856
0.738888 0.814450 0.673213
0.755062 0.810849 0.662440
0.772427 0.806760 0.650324
0.790707 0.802152 0.636530
0.810117 0.797055 0.620630
0.826413 0.788540 0.607599
0.839261 0.779690 0.594171
0.852232 0.776211 0.579644
0.868772 0.776852 0.571618
0.887022 0.779751 0.570275
0.906798 0.786099 0.580957
0.640711 0.831388 0.719753
0.641291 0.831693 0.720302
0.641993 0.831998 0.720882
0.642939 0.832334 0.721523
0.644251 0.832822 0.722438
0.646265 0.833585 0.723873
0.649439 0.834867 0.726284
0.653437 0.836484 0.729335
0.658320 0.838468 0.733120
0.663966 0.840757 0.737484
0.670222 0.843259 0.742306
0.676753 0.845792 0.747280
0.683497 0.848325 0.752255
0.690089 0.850675 0.756954
0.696590 0.852811 0.761379
0.702663 0.854734 0.765286
0.708400 0.853635 0.761715
0.715053 0.851682 0.755825
0.723110 0.849699 0.749783
0.732601 0.847807 0.743496
0.743496 0.845853 0.736843
0.755703 0.843778 0.729641
0.769100 0.841398 0.721340
0.783810 0.838682 0.712001
0.799802 0.835630 0.701350
0.817227 0.832242 0.689509
0.836179 0.828580 0.676295
0.852415 0.821988 0.665888
0.865873 0.815061 0.656611
0.879850 0.813931 0.647120
0.898711 0.818021 0.645319
0.920043 0.824887 0.651606
0.676295 0.852476 0.756313
0.676356 0.852506 0.756374
0.676539 0.852506 0.756405
0.676875 0.852567 0.756558
0.677546 0.852659 0.756832
0.678614 0.852903 0.757351
0.680232 0.853300 0.758297
0.682460 0.853880 0.759670
0.685298 0.854704 0.761440
0.688808 0.855741 0.763699
0.692805 0.856962 0.766323
0.697353 0.858335 0.769314
0.702266 0.859739 0.772519
0.707393 0.861173 0.775814
