20 Preset/INSTA/【3】LUT video cho PR-AE-FCPX/INS LUT (15).cube
# Created by Adobe Lightroom plugin Export LUT (1.24.0)
# www.johnrellis.com/lightroom/exportlut.htm
# Preset: INS胶片-复古[素材江湖]15
# Color profile: C:\Program Files (x86)\Common Files\Adobe\Color\Profiles\Recommended\VideoHD.icc
LUT_3D_SIZE 32
DOMAIN_MIN 0.0 0.0 0.0
DOMAIN_MAX 1.0 1.0 1.0
0.139712 0.075441 0.090517
0.140902 0.074769 0.090486
0.145449 0.073274 0.090822
0.154025 0.070314 0.090639
0.170352 0.063752 0.090669
0.197147 0.048829 0.090455
0.235660 0.022034 0.090120
0.283879 0.000000 0.089296
0.340490 0.000000 0.086824
0.404028 0.000000 0.082490
0.474250 0.000000 0.074769
0.548272 0.000000 0.059113
0.624506 0.000000 0.040925
0.697749 0.000000 0.016663
0.762234 0.000000 0.000000
0.816495 0.000000 0.000000
0.861875 0.000000 0.000000
0.901091 0.000000 0.000000
0.947387 0.000000 0.000000
0.988983 0.000000 0.000000
1.000000 0.000000 0.000000
1.000000 0.000000 0.000000
1.000000 0.000000 0.000000
1.000000 0.000000 0.000000
1.000000 0.000000 0.000000
1.000000 0.000000 0.000000
1.000000 0.000000 0.000000
1.000000 0.000000 0.000000
1.000000 0.000000 0.000000
1.000000 0.000000 0.000000
1.000000 0.000000 0.000000
1.000000 0.000000 0.000000
0.140291 0.076204 0.090852
0.140688 0.075959 0.090852
0.145296 0.074495 0.090761
0.154269 0.071321 0.090578
0.170138 0.066133 0.090578
0.195651 0.052338 0.090791
0.232212 0.027039 0.090120
0.278172 0.000000 0.089357
0.332952 0.000000 0.087068
0.394202 0.000000 0.083040
0.462013 0.000000 0.076295
0.534813 0.000000 0.061555
0.609949 0.000000 0.043091
0.683619 0.000000 0.020905
0.749355 0.000000 0.000000
0.805570 0.000000 0.000000
0.852689 0.000000 0.000000
0.893217 0.000000 0.000000
0.939513 0.000000 0.000000
0.980468 0.000000 0.000000
1.000000 0.000000 0.000000
1.000000 0.000000 0.000000
1.000000 0.000000 0.000000
1.000000 0.000000 0.000000
1.000000 0.000000 0.000000
1.000000 0.000000 0.000000
1.000000 0.000000 0.000000
1.000000 0.000000 0.000000
1.000000 0.000000 0.000000
1.000000 0.000000 0.000000
1.000000 0.000000 0.000000
1.000000 0.000000 0.000000
0.142000 0.081849 0.092927
0.142458 0.081697 0.092500
0.144991 0.080110 0.092103
0.151888 0.080323 0.092256
0.167330 0.078065 0.092195
0.192233 0.067597 0.091463
0.228550 0.043397 0.090394
0.274357 0.002899 0.089174
0.326665 0.000000 0.086885
0.385748 0.000000 0.082246
0.451942 0.000000 0.075257
0.523705 0.000000 0.062013
0.597223 0.000000 0.043977
0.670527 0.000000 0.020905
0.737270 0.000000 0.000000
0.794949 0.000000 0.000000
0.843565 0.000000 0.000000
0.885130 0.000000 0.000000
0.933196 0.000000 0.000000
0.973724 0.000000 0.000000
1.000000 0.000000 0.000000
1.000000 0.000000 0.000000
1.000000 0.000000 0.000000
1.000000 0.000000 0.000000
1.000000 0.000000 0.000000
1.000000 0.000000 0.000000
1.000000 0.000000 0.000000
1.000000 0.000000 0.000000
1.000000 0.000000 0.000000
1.000000 0.000000 0.000000
1.000000 0.000000 0.000000
1.000000 0.000000 0.000000
0.146151 0.090059 0.096407
0.146059 0.090486 0.095979
0.147005 0.089876 0.095644
0.153017 0.088533 0.094820
0.164706 0.088594 0.094728
0.184024 0.087617 0.094759
0.216464 0.078920 0.093202
0.258640 0.049744 0.091127
0.310613 0.000000 0.088777
0.370214 0.000000 0.083925
0.436713 0.000000 0.076478
0.508110 0.000000 0.060609
0.583001 0.000000 0.041047
0.655146 0.000000 0.017823
0.721950 0.000000 0.000000
0.780240 0.000000 0.000000
0.830076 0.000000 0.000000
0.872557 0.000000 0.000000
0.921904 0.000000 0.000000
0.960815 0.000000 0.000000
0.992493 0.000000 0.000000
1.000000 0.000000 0.000000
1.000000 0.000000 0.000000
1.000000 0.000000 0.000000
1.000000 0.000000 0.000000
1.000000 0.000000 0.000000
1.000000 0.000000 0.000000
1.000000 0.000000 0.000000
1.000000 0.000000 0.000000
1.000000 0.000000 0.000000
1.000000 0.000000 0.000000
1.000000 0.000000 0.000000
0.150423 0.101778 0.101503
0.150942 0.101320 0.101534
0.151888 0.100801 0.100862
0.154910 0.099550 0.099123
0.165225 0.096834 0.098299
0.180026 0.096559 0.097292
0.201938 0.095918 0.097047
0.236881 0.091432 0.095094
0.283696 0.072938 0.092317
0.338598 0.017426 0.088746
0.401556 0.000000 0.081880
0.470710 0.000000 0.068544
0.544244 0.000000 0.048066
0.619348 0.000000 0.023194
0.691035 0.000000 0.000000
0.754940 0.000000 0.000000
0.810636 0.000000 0.000000
0.862333 0.000000 0.000000
0.911254 0.000000 0.000000
0.950896 0.000000 0.000000
0.983215 0.000000 0.000000
1.000000 0.000000 0.000000
1.000000 0.000000 0.000000
1.000000 0.000000 0.000000
1.000000 0.000000 0.000000
1.000000 0.000000 0.000000
1.000000 0.000000 0.000000
1.000000 0.000000 0.000000
1.000000 0.000000 0.000000
1.000000 0.000000 0.000000
1.000000 0.000000 0.000000
1.000000 0.000000 0.000000
0.154513 0.117586 0.108431
0.154910 0.117525 0.108064
0.156161 0.116426 0.107179
0.158236 0.114931 0.105989
0.166293 0.112612 0.102937
0.180819 0.107942 0.101595
0.199191 0.107027 0.100160
0.225406 0.107027 0.098695
0.258457 0.104005 0.097597
0.309148 0.095918 0.093477
0.368658 0.061860 0.088472
0.435615 0.000000 0.077241
0.507286 0.000000 0.056062
0.582483 0.000000 0.030182
0.657191 0.000000 0.000000
0.726223 0.000000 0.000000
0.786648 0.000000 0.000000
0.848569 0.000000 0.000000
0.898131 0.000000 0.000000
0.939086 0.000000 0.000000
0.972839 0.000000 0.000000
1.000000 0.000000 0.000000
1.000000 0.000000 0.000000
1.000000 0.000000 0.000000
1.000000 0.000000 0.000000
1.000000 0.000000 0.000000
1.000000 0.000000 0.000000
1.000000 0.000000 0.000000
1.000000 0.000000 0.000000
1.000000 0.000000 0.000000
1.000000 0.000000 0.000000
1.000000 0.000000 0.000000
0.157595 0.147402 0.119295
0.158114 0.147127 0.119051
0.159487 0.146120 0.118044
0.162325 0.144289 0.116213
0.165103 0.141817 0.110689
0.185428 0.135683 0.108858
0.206638 0.128359 0.106874
0.231266 0.126131 0.104585
0.262150 0.126558 0.100282
0.301823 0.125246 0.098329
0.352361 0.120424 0.094179
0.419806 0.109255 0.084504
0.493355 0.079469 0.060822
0.569482 0.000000 0.027283
0.645533 0.000000 0.000000
0.715663 0.000000 0.000000
0.792691 0.000000 0.000000
0.854093 0.000000 0.000000
0.903746 0.000000 0.000000
0.946014 0.000000 0.000000
0.982391 0.000000 0.000000
1.000000 0.000000 0.000000
1.000000 0.000000 0.000000
1.000000 0.000000 0.000000
1.000000 0.000000 0.000000
1.000000 0.000000 0.000000
1.000000 0.000000 0.000000
1.000000 0.000000 0.000000
1.000000 0.000000 0.000000
1.000000 0.000000 0.000000
1.000000 0.000000 0.000000
1.000000 0.108156 0.000000
0.158602 0.174960 0.129641
0.159121 0.174746 0.129427
0.160525 0.173983 0.128267
0.163851 0.172305 0.126406
0.168826 0.169406 0.123903
0.179477 0.165286 0.115846
0.205173 0.157687 0.113741
0.230533 0.148836 0.111208
0.258305 0.145510 0.109285
0.291539 0.147066 0.103456
0.331975 0.147127 0.098146
0.379767 0.145480 0.094301
0.440681 0.141085 0.084810
0.514031 0.131991 0.053254
0.592065 0.115297 0.010468
0.680415 0.093507 0.000000
0.756680 0.038117 0.000000
0.819394 0.000000 0.000000
0.871824 0.000000 0.000000
0.917052 0.000000 0.000000
0.956359 0.000000 0.000000
0.991028 0.000000 0.000000
1.000000 0.000000 0.000000
1.000000 0.000000 0.000000
1.000000 0.000000 0.000000
1.000000 0.000000 0.000000
1.000000 0.000000 0.000000
1.000000 0.023316 0.000000
1.000000 0.091463 0.000000
1.000000 0.121981 0.000000
1.000000 0.147402 0.000000
1.000000 0.174624 0.000000
0.158236 0.207218 0.142275
0.158694 0.207187 0.141817
0.160555 0.206394 0.140810
0.164370 0.204929 0.139010
0.169894 0.202487 0.136141
0.175723 0.199039 0.129610
0.198703 0.192447 0.122744
0.229374 0.183658 0.119966
0.258030 0.173526 0.116793
0.288426 0.168704 0.114748
0.325231 0.171908 0.106813
0.366094 0.173312 0.098512
0.414313 0.173739 0.091981
0.475563 0.175570 0.082155
0.554803 0.178378 0.038392
0.638056 0.179080 0.000000
0.714809 0.177951 0.000000
0.781613 0.175570 0.000000
0.838010 0.171145 0.000000
0.886931 0.167086 0.000000
0.929808 0.165194 0.000000
0.967376 0.164706 0.000000
1.000000 0.166751 0.000000
1.000000 0.170626 0.000000
1.000000 0.175906 0.000000
1.000000 0.180880 0.000000
1.000000 0.186893 0.000000
1.000000 0.194186 0.000000
1.000000 0.203891 0.000000
1.000000 0.214664 0.000000
1.000000 0.228428 0.000000
1.000000 0.242405 0.000000
0.154696 0.243931 0.156985
0.155245 0.243595 0.156466
0.157595 0.242618 0.155489
0.161898 0.241215 0.153323
0.168276 0.238926 0.150515
0.176669 0.235630 0.147341
0.184848 0.230869 0.133303
0.221530 0.222232 0.130220
0.255619 0.211856 0.126650
0.287358 0.201083 0.122896
0.323400 0.196933 0.121492
0.365667 0.203647 0.111604
0.412451 0.208499 0.100557
0.462776 0.211795 0.085847
0.522545 0.216220 0.063081
0.584985 0.219150 0.029877
0.666133 0.227848 0.000000
0.739284 0.235050 0.000000
0.802182 0.239750 0.000000
0.855650 0.242588 0.000000
0.901640 0.244572 0.000000
0.941253 0.245518 0.000000
0.975616 0.246311 0.000000
1.000000 0.247379 0.000000
1.000000 0.248508 0.000000
1.000000 0.250706 0.000000
1.000000 0.253483 0.000000
1.000000 0.258244 0.000000
1.000000 0.265019 0.000000
1.000000 0.273838 0.000000
1.000000 0.284977 0.000000
1.000000 0.297246 0.000000
0.147341 0.280217 0.171908
0.147768 0.280034 0.171450
0.150271 0.279667 0.170809
0.155245 0.278508 0.168734
0.162142 0.277043 0.165957
0.171939 0.276555 0.163546
0.182467 0.275456 0.158694
0.206760 0.270817 0.143740
0.251133 0.262943 0.140108
0.292027 0.253300 0.136049
0.329747 0.241855 0.131685
0.366308 0.233463 0.130007
0.410590 0.241215 0.117342
0.458778 0.246921 0.102358
0.508965 0.251316 0.080507
0.564569 0.256870 0.038514
0.624567 0.262821 0.000397
0.690059 0.271153 0.000000
0.758785 0.282444 0.000000
0.817319 0.290318 0.000000
0.867643 0.295811 0.000000
0.911192 0.299901 0.000000
0.949126 0.303197 0.000000
0.982574 0.305272 0.000000
1.000000 0.307134 0.000000
1.000000 0.309148 0.000000
1.000000 0.311894 0.000000
1.000000 0.316106 0.000000
1.000000 0.321752 0.000000
1.000000 0.329290 0.000000
1.000000 0.338720 0.000000
1.000000 0.349554 0.000000
0.122560 0.335393 0.195224
0.122957 0.335454 0.195041
0.126650 0.335363 0.194308
0.133822 0.335088 0.192691
0.143618 0.334752 0.190311
0.157473 0.333959 0.187320
0.172793 0.333074 0.184085
0.182101 0.330083 0.165469
0.235203 0.321660 0.157015
0.286473 0.311559 0.152071
0.332158 0.299413 0.146731
0.373083 0.285527 0.140810
0.460395 0.316197 0.149386
0.513115 0.327581 0.128695
0.567254 0.336309 0.102632
0.621485 0.343481 0.042695
0.673060 0.349432 0.000000
0.726894 0.357214 0.000000
0.774807 0.362127 0.000000
0.828305 0.371618 0.000000
0.877562 0.380011 0.000000
0.919554 0.385718 0.000000
0.955688 0.389166 0.000000
0.987671 0.391760 0.000000
1.000000 0.393805 0.000000
1.000000 0.395422 0.000000
1.000000 0.396704 0.000000
1.000000 0.398962 0.000000
1.000000 0.402258 0.000000
1.000000 0.407141 0.000000
1.000000 0.413428 0.000000
1.000000 0.421607 0.000000
0.000000 0.425055 0.236942
0.000000 0.424537 0.236423
0.000000 0.423041 0.234836
0.000000 0.421180 0.232273
0.064363 0.418433 0.228519
0.112825 0.415259 0.224155
0.143252 0.412604 0.219394
0.171664 0.410163 0.215122
0.197360 0.403265 0.183352
0.275029 0.393072 0.177432
0.338018 0.382879 0.171328
0.393713 0.371923 0.164889
0.443854 0.359472 0.157809
0.487922 0.343999 0.158206
0.543023 0.359258 0.137148
0.597131 0.370153 0.110231
0.648554 0.378119 0.056367
0.696315 0.383886 0.000000
0.743862 0.390295 0.000000
0.787869 0.395270 0.000000
0.829252 0.399603 0.000000
0.876951 0.409613 0.000000
0.918425 0.416480 0.000000
0.954437 0.421576 0.000000
0.986450 0.425360 0.000000
1.000000 0.428656 0.000000
1.000000 0.431708 0.000000
1.000000 0.435218 0.000000
1.000000 0.439826 0.000000
1.000000 0.445808 0.000000
1.000000 0.453071 0.000000
1.000000 0.461921 0.000000
0.000000 0.473457 0.262028
0.000000 0.472694 0.261295
0.000000 0.470771 0.259495
0.000000 0.468208 0.256504
0.000000 0.464912 0.252323
0.000000 0.461402 0.247623
0.100710 0.458473 0.242741
0.142672 0.456092 0.238041
0.167453 0.453040 0.219883
0.230350 0.445289 0.197147
0.309911 0.435828 0.190829
0.375097 0.426093 0.184329
0.432227 0.414588 0.176791
0.482338 0.400732 0.168429
0.525505 0.383948 0.167880
0.576440 0.394781 0.147372
0.626947 0.404852 0.120211
0.673976 0.411963 0.082002
0.718746 0.417731 0.000000
0.760739 0.422492 0.000000
0.801999 0.427863 0.000000
0.840055 0.432471 0.000000
0.880705 0.439826 0.000000
0.921569 0.448585 0.000000
0.957122 0.455207 0.000000
0.988800 0.460578 0.000000
1.000000 0.465309 0.000000
1.000000 0.470161 0.000000
1.000000 0.475807 0.000000
1.000000 0.482948 0.000000
1.000000 0.491310 0.000000
1.000000 0.501152 0.000000
0.000000 0.519829 0.288334
0.000000 0.519493 0.287938
0.000000 0.517784 0.286137
0.000000 0.515129 0.282963
0.000000 0.511772 0.278843
0.000000 0.508019 0.273838
0.000000 0.505241 0.268864
0.098360 0.503258 0.264164
0.150423 0.502525 0.260319
0.164309 0.498726 0.223606
0.269566 0.490578 0.214054
0.349065 0.481727 0.207340
0.414984 0.471321 0.199741
0.471962 0.458473 0.191012
0.520775 0.442390 0.180514
0.561883 0.423590 0.178378
0.608698 0.430213 0.160006
0.655207 0.439368 0.134035
0.699428 0.446174 0.101076
0.740597 0.451087 0.022156
0.778958 0.455024 0.000000
0.818051 0.460945 0.000000
0.854215 0.466163 0.000000
0.887755 0.470893 0.000000
0.926452 0.480140 0.000000
0.961425 0.488075 0.000000
0.992767 0.495338 0.000000
1.000000 0.502647 0.000000
1.000000 0.510857 0.000000
1.000000 0.520531 0.000000
1.000000 0.531823 0.000000
1.000000 0.544488 0.000000
0.000000 0.559258 0.313909
0.000000 0.559472 0.313909
0.000000 0.558892 0.312779
0.000000 0.557763 0.310674
0.000000 0.556237 0.307469
0.000000 0.554955 0.304234
0.000000 0.554284 0.300481
0.000000 0.554437 0.297154
0.129122 0.555169 0.294224
0.173068 0.555261 0.283909
0.214237 0.549584 0.246159
0.317205 0.539391 0.237766
0.392889 0.527489 0.228305
0.455238 0.513542 0.217716
0.508354 0.497078 0.205875
0.553674 0.478431 0.193301
0.592737 0.458412 0.189639
0.634943 0.460883 0.173800
0.679072 0.469917 0.149691
0.720912 0.476814 0.122347
0.760311 0.482368 0.088167
0.797482 0.487404 0.000000
0.834409 0.493782 0.000000
0.869749 0.500328 0.000000
0.901793 0.506249 0.032929
0.934508 0.514092 0.064668
0.968902 0.524346 0.051759
1.000000 0.534173 0.053162
1.000000 0.544396 0.072877
1.000000 0.555352 0.094972
1.000000 0.567346 0.112917
1.000000 0.580560 0.134676
0.000000 0.594751 0.340032
0.000000 0.594690 0.339757
0.000000 0.594293 0.338933
0.000000 0.593835 0.337255
0.000000 0.593164 0.335149
0.000000 0.592523 0.332250
0.000000 0.592370 0.329290
0.000000 0.592493 0.326329
0.125612 0.593164 0.323827
0.181186 0.594141 0.321843
0.200443 0.592157 0.294163
0.274876 0.585016 0.269047
0.363104 0.574609 0.259617
0.432380 0.562493 0.248661
0.491066 0.548150 0.236362
0.541558 0.531487 0.223056
0.585290 0.513390 0.208804
0.623499 0.494423 0.203891
0.662806 0.493660 0.191745
0.704189 0.502007 0.170138
0.743771 0.509117 0.147829
0.781521 0.515068 0.123262
0.817166 0.520500 0.094301
0.852171 0.527184 0.073365
0.885649 0.534691 0.099245
0.916350 0.541955 0.122957
0.944823 0.549706 0.149111
0.977478 0.561791 0.157992
1.000000 0.574609 0.167727
1.000000 0.587915 0.181308
1.000000 0.602014 0.197543
1.000000 0.616968 0.216922
0.000000 0.630732 0.370672
0.000000 0.631098 0.370977
0.000000 0.662165 0.401770
0.000000 0.661921 0.400397
0.000000 0.661433 0.398840
0.101228 0.660761 0.396399
0.146914 0.660243 0.393988
0.185946 0.659907 0.391241
0.223911 0.660060 0.389471
0.261173 0.660609 0.388678
0.297093 0.661219 0.388495
0.292760 0.657252 0.342687
0.371740 0.647700 0.328252
0.440284 0.636255 0.314824
0.499428 0.622614 0.299229
0.551019 0.607202 0.282536
0.596765 0.589654 0.264134
0.637446 0.570672 0.245457
0.672908 0.550683 0.236759
0.706447 0.544060 0.227085
0.743435 0.550011 0.208225
0.779263 0.555596 0.190524
0.813718 0.560510 0.172885
0.846342 0.565270 0.155764
0.877104 0.570123 0.147646
0.906706 0.576532 0.164523
0.934142 0.583276 0.185031
0.960052 0.591272 0.208225
0.987182 0.602655 0.229221
1.000000 0.617578 0.243748
1.000000 0.633326 0.261662
1.000000 0.649805 0.282536
0.000000 0.670680 0.410895
0.000000 0.673213 0.413581
0.025483 0.675898 0.416358
0.102022 0.678126 0.418219
0.135988 0.679683 0.419043
0.163699 0.680110 0.418250
0.191806 0.679835 0.416388
0.220127 0.679500 0.414221
0.250309 0.679438 0.412696
0.281071 0.679652 0.411627
0.312840 0.680140 0.411658
0.330297 0.678950 0.396307
0.347295 0.673396 0.359899
0.415625 0.663813 0.347234
0.474525 0.652735 0.333074
0.527459 0.639918 0.317113
0.575250 0.625757 0.300237
0.618860 0.610407 0.282689
0.658930 0.594171 0.264500
0.694697 0.577447 0.256260
0.726528 0.569848 0.250462
0.762905 0.577234 0.235630
0.797604 0.583612 0.221592
0.830716 0.589380 0.208560
0.861540 0.594202 0.196048
0.890745 0.599481 0.190921
0.918853 0.607111 0.209476
0.945342 0.615747 0.232364
0.970459 0.626307 0.259037
0.994141 0.639490 0.290257
1.000000 0.657191 0.311925
1.000000 0.675837 0.335729
0.139620 0.692378 0.435340
0.153841 0.694850 0.438331
0.170291 0.697444 0.441169
0.188357 0.699733 0.443732
0.207095 0.701320 0.444953
0.225437 0.701869 0.444678
0.244175 0.701778 0.443458
0.264805 0.701472 0.441779
0.288609 0.701381 0.440589
0.313512 0.701381 0.439643
0.340124 0.701595 0.439643
0.367590 0.701930 0.440497
0.368475 0.699062 0.409674
0.404028 0.692531 0.385412
0.460639 0.683284 0.372534
0.511589 0.672847 0.357916
0.559106 0.660914 0.341772
0.602777 0.648127 0.324681
0.643977 0.634485 0.307012
0.682521 0.620203 0.289189
0.717739 0.605676 0.280705
0.747555 0.596735 0.278355
0.782498 0.604944 0.266636
0.815946 0.612055 0.255924
0.847166 0.617975 0.246494
0.876493 0.623377 0.238682
0.904387 0.629450 0.236881
0.931273 0.638849 0.258457
0.956878 0.649958 0.284977
0.980896 0.663508 0.316258
1.000000 0.679683 0.352422
1.000000 0.698726 0.384283
0.221042 0.714595 0.462531
0.229007 0.716670 0.465187
0.239414 0.718898 0.467903
0.251896 0.720760 0.470192
0.265049 0.722133 0.471473
0.277958 0.722621 0.471351
0.291936 0.722652 0.470527
0.308141 0.722469 0.469276
0.326665 0.722438 0.468421
0.347356 0.722499 0.467903
0.370153 0.722683 0.467994
0.393896 0.722957 0.468666
0.412696 0.722469 0.463752
0.405951 0.719112 0.425910
0.454902 0.711727 0.412757
0.503380 0.703273 0.400214
0.549310 0.694270 0.387121
0.593072 0.684688 0.373083
0.634882 0.674830 0.358679
0.675135 0.664668 0.343755
0.713527 0.654353 0.328740
0.749447 0.644190 0.322637
0.778256 0.636164 0.325383
0.812558 0.646418 0.320073
0.844388 0.655116 0.316258
0.874052 0.662806 0.313970
0.902037 0.670497 0.313573
0.928710 0.679652 0.320439
0.953765 0.692866 0.349737
0.977111 0.707973 0.382910
0.998627 0.724788 0.418555
1.000000 0.743313 0.456733
0.322942 0.748348 0.508019
0.325811 0.749142 0.509270
0.329595 0.749752 0.510094
0.334386 0.750027 0.510307
0.340276 0.750057 0.509819
0.347539 0.749752 0.508934
0.357000 0.749325 0.507836
0.368872 0.749081 0.506828
0.382849 0.748928 0.506096
0.400092 0.749111 0.506188
0.418921 0.749386 0.506676
0.438758 0.749722 0.507652
0.459236 0.749813 0.508965
0.465644 0.748318 0.492714
0.471473 0.744533 0.463874
0.513512 0.737545 0.452766
0.554070 0.729824 0.440803
0.593561 0.721584 0.427893
0.631739 0.712825 0.413947
0.669245 0.703670 0.399542
0.705379 0.694026 0.384314
0.740352 0.684199 0.368719
0.773526 0.674739 0.360998
0.799130 0.664668 0.364355
0.830350 0.674098 0.361151
0.860136 0.682979 0.360296
0.888396 0.691859 0.361761
0.915496 0.701534 0.366613
0.941253 0.713283 0.380163
0.964935 0.728542 0.412177
0.986847 0.745480 0.447120
1.000000 0.763424 0.482887
0.373907 0.767880 0.535882
0.376135 0.768490 0.536767
0.379339 0.769039 0.537560
0.383368 0.769345 0.537835
0.388403 0.769467 0.537835
0.394598 0.769253 0.537285
0.402411 0.768978 0.536461
0.412024 0.768795 0.535760
0.424109 0.768795 0.535454
0.438056 0.768948 0.535546
0.453895 0.769284 0.536126
0.470802 0.769650 0.537133
0.488563 0.769986 0.538415
0.506950 0.770199 0.540276
0.504295 0.768215 0.514397
0.523095 0.763973 0.495460
0.559899 0.757931 0.485969
0.595941 0.751431 0.475593
0.631373 0.744533 0.464332
0.666163 0.737240 0.452430
0.700587 0.729732 0.439734
0.734157 0.721950 0.426764
0.766873 0.713710 0.412726
0.798367 0.706355 0.406287
0.815152 0.687800 0.398474
0.844541 0.697261 0.397498
0.873075 0.707301 0.400183
0.900450 0.717800 0.405737
0.926879 0.729427 0.414740
0.951751 0.743771 0.435096
0.974548 0.761227 0.469490
0.995666 0.779324 0.504479
0.439551 0.793668 0.574273
0.442664 0.794675 0.575830
0.444892 0.795132 0.576440
0.446876 0.794980 0.576104
0.448676 0.794308 0.574884
0.451240 0.793362 0.573175
0.454932 0.792203 0.571130
0.459998 0.791043 0.569024
0.467384 0.790036 0.567224
0.476722 0.789242 0.565911
0.487465 0.788602 0.564843
0.500206 0.788205 0.564508
0.514000 0.787778 0.564446
0.528374 0.787320 0.564782
0.537835 0.786099 0.558343
0.531823 0.783261 0.529381
0.558709 0.777737 0.516960
0.591363 0.771786 0.507500
0.624353 0.765927 0.498207
0.657740 0.760067 0.488685
0.690639 0.754208 0.479072
0.722896 0.747921 0.468513
0.754025 0.740902 0.456306
0.783963 0.733150 0.442634
0.813138 0.726070 0.434821
0.833677 0.714473 0.440192
0.860594 0.723720 0.440772
0.887572 0.734279 0.445533
0.913756 0.745846 0.453834
0.938964 0.758999 0.465888
0.962585 0.774899 0.490517
0.984283 0.792874 0.524071
0.471443 0.808927 0.596185
0.474281 0.809842 0.597650
0.476722 0.810422 0.598535
0.479072 0.810575 0.598718
0.481636 0.810452 0.598291
0.485298 0.810147 0.597711
0.490181 0.809873 0.597070
0.496498 0.809689 0.596521
0.504509 0.809628 0.596246
0.514061 0.809628 0.596216
0.524590 0.809628 0.596246
0.536339 0.809720 0.596643
0.548760 0.809659 0.597101
0.561456 0.809384 0.597528
0.574395 0.808865 0.597955
0.576593 0.807126 0.583703
0.576532 0.804196 0.559564
0.604913 0.799039 0.551476
0.634424 0.794003 0.543603
0.664332 0.789120 0.535851
0.694362 0.784268 0.527947
0.724178 0.779263 0.519829
0.753292 0.773892 0.510796
0.781613 0.768093 0.500877
0.809201 0.761807 0.489693
0.836637 0.756832 0.484199
0.855772 0.747036 0.492470
0.881346 0.757412 0.496590
0.907347 0.769955 0.505547
0.932280 0.783505 0.517662
0.956146 0.798062 0.532647
0.978027 0.814878 0.560327
0.515404 0.829740 0.626947
0.516594 0.830259 0.627649
0.517937 0.830442 0.627985
0.519615 0.830411 0.627893
0.521660 0.830198 0.627497
0.524498 0.829862 0.626795
0.528222 0.829496 0.626001
0.533288 0.829129 0.625330
0.539788 0.828916 0.624903
0.547539 0.828794 0.624628
0.556420 0.828733 0.624567
0.566583 0.828824 0.624872
0.577447 0.828824 0.625360
0.588678 0.828611 0.625757
0.600153 0.828183 0.626001
0.611994 0.827604 0.626642
0.608728 0.825620 0.605615
0.617670 0.822568 0.588647
0.644099 0.818296 0.582025
0.671382 0.814267 0.575830
0.699031 0.810361 0.569726
0.726680 0.806271 0.563226
0.753597 0.801907 0.556115
0.779995 0.797116 0.548058
0.805661 0.791928 0.539147
0.830655 0.786374 0.529198
0.856199 0.782528 0.524498
0.874144 0.774594 0.533165
0.897734 0.784115 0.539300
0.922789 0.798154 0.551415
0.946746 0.812985 0.566278
0.969604 0.828489 0.583886
0.550469 0.848051 0.653742
0.551568 0.848417 0.654353
0.553002 0.848692 0.654841
0.554772 0.848875 0.655055
0.557366 0.849058 0.655268
0.561395 0.849454 0.655756
0.567468 0.850370 0.657221
0.575280 0.851560 0.659052
0.584710 0.853086 0.661494
0.595270 0.854887 0.664363
0.606897 0.856809 0.667506
0.618891 0.858640 0.670619
0.630945 0.860258 0.673518
0.642634 0.861479 0.675959
0.653925 0.862242 0.677852
0.664515 0.862394 0.679042
0.671901 0.862028 0.675380
0.669947 0.860899 0.656214
0.686061 0.858366 0.647181
0.709651 0.855436 0.642939
0.733669 0.852567 0.638849
0.757595 0.849638 0.634455
0.781094 0.846403 0.629511
0.804074 0.842924 0.623957
0.826413 0.839078 0.617670
0.848295 0.834989 0.610651
0.869718 0.830747 0.603204
0.891936 0.828611 0.600397
0.907988 0.823758 0.609674
0.928344 0.832273 0.617304
0.951141 0.846403 0.630976
0.972656 0.860685 0.646387
0.614099 0.879911 0.702663
0.614313 0.879911 0.702663
0.614588 0.879789 0.702449
0.615351 0.879606 0.702144
0.616632 0.879393 0.701747
0.618647 0.879149 0.701259
0.621729 0.879088 0.701076
0.625757 0.879149 0.701045
0.630945 0.879362 0.701289
0.637263 0.879759 0.701839
0.644465 0.880186 0.702510
0.652491 0.880766 0.703487
0.661036 0.881285 0.704463
0.669886 0.881682 0.705348
