20 Preset/INSTA/【3】LUT video cho PR-AE-FCPX/INS LUT (11).cube
# Created by Adobe Lightroom plugin Export LUT (1.24.0)
# www.johnrellis.com/lightroom/exportlut.htm
# Preset: INS胶片-复古[素材江湖]11
# Color profile: C:\Program Files (x86)\Common Files\Adobe\Color\Profiles\Recommended\VideoHD.icc
LUT_3D_SIZE 5
DOMAIN_MIN 0.000000 0.000000 0.000000
DOMAIN_MAX 0.903226 0.903226 0.903226
0.139712 0.075441 0.090517
0.277836 0.032807 0.085451
0.810239 0.000000 0.000000
1.000000 0.310033 0.000000
1.000000 0.487282 0.000000
0.166598 0.160678 0.120180
0.272038 0.190646 0.115450
0.634607 0.167483 0.000000
1.000000 0.356817 0.000000
1.000000 0.513024 0.000000
0.174411 0.453193 0.239109
0.247593 0.436133 0.217472
0.728573 0.682399 0.409522
0.923369 0.585107 0.066987
1.000000 0.539513 0.000000
0.331212 0.676783 0.413214
0.363958 0.677485 0.404089
0.533928 0.672358 0.433661
0.873167 0.843687 0.664668
0.996338 0.840696 0.604425
0.546685 0.810391 0.587091
0.563897 0.810880 0.586725
0.600397 0.797848 0.567010
0.761898 0.830564 0.651331
0.955474 0.934478 0.794736
0.150942 0.101259 0.131075
0.207187 0.085939 0.133639
0.723659 0.000000 0.000000
0.994263 0.301701 0.000000
1.000000 0.456428 0.000000
0.167910 0.164614 0.161654
0.256901 0.174685 0.168551
0.631281 0.196567 0.047425
0.957488 0.336370 0.000000
1.000000 0.475013 0.000000
0.167269 0.421851 0.256901
0.286717 0.432136 0.264714
0.665644 0.616144 0.394263
0.871794 0.535332 0.176394
1.000000 0.528222 0.000000
0.307958 0.669917 0.420722
0.403632 0.675990 0.438636
0.543450 0.673304 0.453651
0.865019 0.836271 0.671931
0.987762 0.834806 0.615686
0.524956 0.807675 0.583886
0.564569 0.808164 0.593713
0.618097 0.810269 0.590509
0.762966 0.831357 0.658808
0.957824 0.938201 0.807950
0.099916 0.204318 0.329046
0.191745 0.211063 0.321324
0.496651 0.122530 0.350347
1.000000 0.000000 0.220554
1.000000 0.503655 0.000000
0.173526 0.275456 0.372564
0.275608 0.288945 0.365576
0.536065 0.246860 0.378058
0.995361 0.415595 0.280491
1.000000 0.534691 0.000000
0.000000 0.449104 0.399329
0.235233 0.461616 0.405249
0.585626 0.532097 0.462257
0.849790 0.548516 0.379553
1.000000 0.596246 0.223362
0.061555 0.650965 0.459174
0.281498 0.652338 0.464027
0.569299 0.677729 0.518425
0.838499 0.811643 0.690211
0.957580 0.797604 0.616297
0.360632 0.792844 0.562554
0.435492 0.794675 0.573602
0.616968 0.802182 0.615167
0.725490 0.802579 0.637995
0.950683 0.932494 0.816526
0.000000 0.406470 0.594995
0.111696 0.416114 0.594965
0.429633 0.461250 0.580163
0.781033 0.342382 0.612207
1.000000 0.291203 0.495796
0.189395 0.458747 0.604303
0.271092 0.462470 0.600977
0.474556 0.494820 0.584802
0.772427 0.404120 0.606592
1.000000 0.405554 0.511559
0.163424 0.528740 0.601038
0.294163 0.532830 0.601221
0.568170 0.582879 0.605371
0.753414 0.563256 0.602991
1.000000 0.691524 0.618250
0.000000 0.659358 0.592187
0.219944 0.659632 0.591363
0.484627 0.673945 0.601556
0.762661 0.731685 0.664485
0.947723 0.742489 0.606867
0.000000 0.778347 0.591028
0.000000 0.779751 0.592584
0.362829 0.788022 0.608545
0.709285 0.808347 0.668727
0.940978 0.925719 0.837064
0.328893 0.603876 0.753079
0.374701 0.607202 0.750393
0.518181 0.629908 0.742672
0.676631 0.676905 0.722988
0.893858 0.556176 0.751064
0.378424 0.617670 0.749020
0.415473 0.621088 0.747189
0.537102 0.639734 0.739986
0.682155 0.681514 0.722072
0.888884 0.574823 0.748409
0.366400 0.641199 0.750668
0.436561 0.650477 0.747921
0.585779 0.677302 0.742428
0.704738 0.705806 0.730282
0.881895 0.646967 0.752529
0.203922 0.703731 0.744900
0.286442 0.703059 0.744076
0.491249 0.708736 0.746975
0.730404 0.752102 0.757931
0.881621 0.748287 0.771206
0.000000 0.790219 0.726833
0.000000 0.789548 0.726070
0.283818 0.790829 0.726955
0.586084 0.794461 0.729976
0.871916 0.855436 0.801633
