20 Preset/INSTA/【3】LUT video cho PR-AE-FCPX/INS LUT (23).cube
# Created by Adobe Lightroom plugin Export LUT (1.24.0)
# www.johnrellis.com/lightroom/exportlut.htm
# Preset: INS胶片-自然[素材江湖]23
# Color profile: C:\Program Files (x86)\Common Files\Adobe\Color\Profiles\Recommended\VideoHD.icc
LUT_3D_SIZE 5
DOMAIN_MIN 0.000000 0.000000 0.000000
DOMAIN_MAX 0.903226 0.903226 0.903226
0.000000 0.000000 0.000000
0.188083 0.000000 0.018738
0.585657 0.000000 0.009552
0.845548 0.000000 0.000000
0.990784 0.000000 0.058991
0.000000 0.239017 0.135103
0.226596 0.253361 0.090272
0.659602 0.114961 0.000000
0.873655 0.000000 0.000000
0.998016 0.000000 0.062623
0.000000 0.626734 0.422095
0.000000 0.591516 0.344335
0.669001 0.661036 0.423987
0.868162 0.617914 0.000000
0.961425 0.513970 0.123842
0.417121 0.761135 0.628290
0.310369 0.754452 0.597620
0.000000 0.751003 0.472847
0.770474 0.780850 0.657527
0.901823 0.768307 0.544427
0.639826 0.845914 0.774563
0.616297 0.844907 0.763973
0.398779 0.830655 0.681880
0.617426 0.844602 0.683406
0.832578 0.853971 0.800565
0.000000 0.082033 0.123079
0.116365 0.069429 0.141421
0.557733 0.000000 0.081514
0.828000 0.000000 0.000000
0.963256 0.000000 0.018006
0.000000 0.246342 0.223911
0.266911 0.250187 0.227176
0.634119 0.091798 0.110719
0.848905 0.000000 0.000000
0.968383 0.000000 0.000000
0.339727 0.620325 0.498939
0.000000 0.600671 0.437140
0.649073 0.632258 0.451240
0.846403 0.590326 0.112032
0.954284 0.512108 0.092744
0.520256 0.762783 0.664485
0.458747 0.757076 0.638575
0.246738 0.745785 0.520317
0.770047 0.778897 0.672267
0.899992 0.765255 0.542718
0.665278 0.845640 0.785641
0.643915 0.844144 0.775235
0.511009 0.840421 0.721859
0.629023 0.849088 0.702174
0.836210 0.857420 0.812039
0.000000 0.180728 0.384588
0.000000 0.186648 0.374395
0.476356 0.186069 0.498573
0.883330 0.000000 0.451942
0.953857 0.000000 0.160861
0.000000 0.309331 0.490394
0.000000 0.316625 0.474098
0.586542 0.355322 0.562737
0.854612 0.001556 0.429938
0.960937 0.000000 0.189670
0.461067 0.653590 0.620447
0.522606 0.646723 0.621088
0.662715 0.631495 0.604150
0.816922 0.548089 0.472084
0.942443 0.466255 0.300328
0.686244 0.779232 0.752438
0.673671 0.771389 0.741024
0.563317 0.745510 0.671778
0.773861 0.779294 0.726040
0.886229 0.750027 0.590753
0.737270 0.846128 0.819181
0.731991 0.844999 0.816159
0.660426 0.838621 0.779294
0.594781 0.839719 0.702510
0.833890 0.853635 0.814908
0.000000 0.320623 0.612726
0.000000 0.327459 0.609827
0.000000 0.376471 0.586481
0.707729 0.452735 0.719570
0.938293 0.491127 0.730159
0.000000 0.404578 0.646235
0.000000 0.407294 0.640711
0.135195 0.439429 0.612970
0.717525 0.514488 0.725124
0.926940 0.512627 0.720241
0.000000 0.591302 0.706905
0.000000 0.577996 0.704311
0.493019 0.611017 0.694179
0.754696 0.663905 0.757839
0.894438 0.570825 0.683131
0.667353 0.786801 0.782406
0.675868 0.783932 0.780880
0.714473 0.778775 0.782040
0.766476 0.766262 0.766659
0.872770 0.697353 0.666224
0.806912 0.857023 0.857969
0.805081 0.856565 0.856870
0.795468 0.854429 0.851316
0.705867 0.837095 0.800076
0.836149 0.853910 0.835538
0.000000 0.488869 0.767941
0.000000 0.491493 0.764981
0.000000 0.511345 0.753872
0.434089 0.567895 0.721584
0.780514 0.624414 0.819638
0.000000 0.517662 0.771298
0.000000 0.519921 0.768826
0.000000 0.534997 0.757778
0.459998 0.583124 0.726864
0.782498 0.643000 0.820340
0.000000 0.596216 0.791623
0.000000 0.603754 0.789090
0.000000 0.614466 0.779507
0.543297 0.641474 0.754696
0.795865 0.708003 0.830198
0.248112 0.761227 0.827451
0.265080 0.754849 0.825650
0.340459 0.724117 0.819883
0.644343 0.734463 0.808804
0.824674 0.794339 0.854246
0.760678 0.859922 0.861692
0.763790 0.859617 0.861845
0.779507 0.859342 0.863828
0.806210 0.858000 0.866575
0.834440 0.850706 0.860655
