20 Preset/INSTA/【3】LUT video cho PR-AE-FCPX/INS LUT (20).cube
# Created by Adobe Lightroom plugin Export LUT (1.24.0)
# www.johnrellis.com/lightroom/exportlut.htm
# Preset: INS胶片-自然[素材江湖]20
# Color profile: C:\Program Files (x86)\Common Files\Adobe\Color\Profiles\Recommended\VideoHD.icc
LUT_3D_SIZE 5
DOMAIN_MIN 0.000000 0.000000 0.000000
DOMAIN_MAX 0.903226 0.903226 0.903226
0.000000 0.000000 0.000000
0.224765 0.000000 0.022156
0.659266 0.000000 0.008087
0.895384 0.000000 0.069398
1.000000 0.184970 0.231296
0.000000 0.269535 0.126406
0.185916 0.263920 0.076356
0.629053 0.150851 0.000000
0.879454 0.136324 0.064973
0.997589 0.353033 0.261265
0.303624 0.640620 0.417243
0.255344 0.610803 0.359869
0.547295 0.608637 0.300572
0.812131 0.572320 0.171054
0.940368 0.568322 0.331579
0.597345 0.773831 0.654475
0.587732 0.768399 0.638727
0.567590 0.748409 0.571740
0.696956 0.743130 0.528496
0.882017 0.766018 0.515435
0.740169 0.871061 0.807675
0.737819 0.871153 0.804471
0.710689 0.859983 0.771206
0.741695 0.868101 0.763027
0.824552 0.876463 0.762753
0.000000 0.051270 0.156771
0.191806 0.021576 0.181949
0.615106 0.000000 0.096407
0.857328 0.000000 0.023072
0.982086 0.150820 0.188907
0.000000 0.269322 0.239078
0.252171 0.268070 0.243565
0.615381 0.176394 0.144625
0.844358 0.193576 0.000885
0.970550 0.306859 0.204715
0.370520 0.627985 0.463752
0.362249 0.605798 0.430945
0.529168 0.579797 0.344854
0.790707 0.536400 0.216007
0.932128 0.558740 0.309117
0.617182 0.773739 0.674769
0.609094 0.768978 0.661341
0.575158 0.745541 0.591699
0.696040 0.739284 0.546349
0.878904 0.759701 0.515648
0.744808 0.869871 0.812039
0.741543 0.869474 0.808072
0.732876 0.870665 0.794675
0.752621 0.875456 0.779721
0.832364 0.881804 0.776822
0.000000 0.118807 0.460761
0.000000 0.110872 0.487587
0.636866 0.000000 0.545159
0.884733 0.000000 0.459480
0.980529 0.141848 0.282353
0.000000 0.298924 0.492256
0.000000 0.267033 0.513298
0.646174 0.320378 0.565118
0.864714 0.239292 0.437201
0.969512 0.308263 0.312779
0.392859 0.646754 0.601923
0.465034 0.637598 0.599573
0.613672 0.612024 0.578912
0.789273 0.548425 0.472450
0.925872 0.542718 0.405982
0.667079 0.785214 0.732723
0.662501 0.777066 0.723049
0.647181 0.752682 0.684779
0.704891 0.736904 0.626429
0.871000 0.732509 0.563653
0.753445 0.865232 0.821775
0.754757 0.865354 0.821622
0.748684 0.864622 0.811368
0.741268 0.865446 0.781918
0.824582 0.873106 0.774441
0.000000 0.214633 0.690333
0.000000 0.198062 0.700496
0.528679 0.231052 0.730587
0.821317 0.398901 0.749569
0.928527 0.520348 0.728725
0.000000 0.347112 0.690455
0.000000 0.317571 0.699306
0.530755 0.348150 0.725002
0.803159 0.475532 0.743374
0.916899 0.544366 0.720638
0.000000 0.596704 0.685512
0.000000 0.582177 0.679896
0.513817 0.571313 0.709773
0.760586 0.640467 0.740200
0.893767 0.612390 0.696834
0.632136 0.783536 0.771633
0.641474 0.780148 0.769528
0.687098 0.773098 0.769192
0.737636 0.751034 0.746212
0.871519 0.710414 0.677974
0.785306 0.869505 0.850431
0.785855 0.869322 0.850217
0.788998 0.869352 0.849851
0.777951 0.865690 0.832364
0.826596 0.868101 0.800137
0.000000 0.361456 0.828000
0.000000 0.336736 0.830289
0.418189 0.364996 0.836728
0.753964 0.476631 0.844572
0.883635 0.591882 0.845823
0.000000 0.430671 0.821195
0.000000 0.410346 0.824125
0.411383 0.412604 0.831815
0.744106 0.512108 0.840269
0.877317 0.611627 0.843961
0.000000 0.600275 0.808194
0.000000 0.594079 0.809049
0.395514 0.560601 0.820310
0.714839 0.614740 0.832639
0.862089 0.683680 0.845670
0.451637 0.774472 0.829923
0.455116 0.768551 0.827451
0.483436 0.742916 0.820096
0.668818 0.719936 0.833860
0.851286 0.786648 0.860929
0.735317 0.872374 0.867155
0.738949 0.871946 0.867216
0.759121 0.871672 0.869596
0.798550 0.870146 0.873716
0.843626 0.864775 0.870603
