20 Preset/INSTA/【3】LUT video cho PR-AE-FCPX/INS LUT (10).cube
# Created by Adobe Lightroom plugin Export LUT (1.24.0)
# www.johnrellis.com/lightroom/exportlut.htm
# Preset: INS胶片-复古[素材江湖]10
# Color profile: C:\Program Files (x86)\Common Files\Adobe\Color\Profiles\Recommended\VideoHD.icc
LUT_3D_SIZE 5
DOMAIN_MIN 0.000000 0.000000 0.000000
DOMAIN_MAX 0.903226 0.903226 0.903226
0.139712 0.075441 0.090517
0.283818 0.000000 0.090700
0.774105 0.000000 0.000000
1.000000 0.000000 0.000000
1.000000 0.000000 0.000000
0.182589 0.192081 0.136721
0.259922 0.179232 0.111269
0.583581 0.126925 0.000031
0.990661 0.133730 0.000000
1.000000 0.292332 0.000000
0.337560 0.620508 0.383062
0.328527 0.579736 0.309087
0.656703 0.605249 0.249607
0.878080 0.515923 0.000000
1.000000 0.530602 0.000000
0.657771 0.813504 0.646632
0.649226 0.808255 0.626703
0.662409 0.779873 0.571618
0.832242 0.795712 0.538048
0.982727 0.773434 0.437415
0.819944 0.928893 0.813016
0.819577 0.927886 0.807645
0.798825 0.910674 0.762966
0.844083 0.907622 0.751736
0.947906 0.921752 0.739803
0.127993 0.113832 0.176089
0.195956 0.118105 0.127413
0.702663 0.000000 0.087068
0.975616 0.000000 0.000000
1.000000 0.000000 0.000000
0.171450 0.218448 0.206271
0.289525 0.206821 0.192386
0.613275 0.163607 0.118288
0.931670 0.191318 0.000000
1.000000 0.265629 0.000000
0.343145 0.600000 0.412451
0.413825 0.584283 0.392187
0.621057 0.568414 0.307042
0.840238 0.485084 0.089570
1.000000 0.518975 0.000000
0.662806 0.812772 0.658778
0.679713 0.809995 0.656092
0.679988 0.783261 0.598505
0.828367 0.793606 0.565148
0.975616 0.771664 0.467445
0.818112 0.928740 0.815732
0.825132 0.927520 0.815274
0.820584 0.923339 0.790311
0.854185 0.915160 0.771450
0.953155 0.929107 0.761654
0.000000 0.340398 0.610986
0.000000 0.323613 0.524773
0.454292 0.366705 0.342473
0.994781 0.124208 0.372107
1.000000 0.197787 0.163729
0.000000 0.465095 0.655879
0.224308 0.451545 0.598016
0.537072 0.459083 0.423224
0.998169 0.318914 0.385992
1.000000 0.343206 0.207034
0.312871 0.689845 0.620722
0.455207 0.674220 0.603571
0.672297 0.632380 0.557366
0.864317 0.569879 0.431769
1.000000 0.558587 0.313085
0.680262 0.820340 0.708919
0.691554 0.813046 0.700862
0.739406 0.801114 0.684749
0.826322 0.798062 0.652338
0.957427 0.763180 0.541009
0.800076 0.925689 0.821256
0.810361 0.925750 0.822629
0.841337 0.923583 0.822599
0.848844 0.909514 0.785061
0.944854 0.922820 0.775051
0.000000 0.594263 0.822416
0.000000 0.608148 0.804471
0.645777 0.654231 0.699428
0.720302 0.672602 0.622705
0.970825 0.672236 0.693599
0.201328 0.672023 0.830655
0.396338 0.672419 0.812741
0.666102 0.679408 0.718990
0.731411 0.685573 0.635462
0.977722 0.673365 0.690669
0.419928 0.777279 0.833585
0.510399 0.773800 0.828031
0.719570 0.763821 0.784604
0.782010 0.744442 0.694636
1.000000 0.702358 0.688197
0.662715 0.863432 0.809689
0.681849 0.857694 0.803189
0.756039 0.843503 0.787259
0.834928 0.814633 0.752468
0.963409 0.775662 0.665827
0.799222 0.935119 0.863645
0.806363 0.934752 0.863035
0.836606 0.934569 0.862272
0.880705 0.928130 0.851682
0.941833 0.925505 0.822385
0.456977 0.790799 0.931426
0.529778 0.794369 0.924102
0.701076 0.806058 0.891081
0.846159 0.826749 0.796506
0.851926 0.826047 0.780972
0.534203 0.813413 0.933684
0.583520 0.814725 0.927276
0.717708 0.819272 0.896941
0.848051 0.832456 0.808652
0.856748 0.831724 0.787228
0.581170 0.855741 0.948577
0.635584 0.859495 0.944976
0.760250 0.862791 0.922362
0.856840 0.856687 0.853758
0.877317 0.855772 0.814237
0.650965 0.919158 0.948699
0.674769 0.917998 0.947967
0.759060 0.914153 0.946044
0.876371 0.909758 0.925353
0.912963 0.897551 0.863462
0.774136 0.966003 0.942046
0.784634 0.965484 0.941619
0.826932 0.963867 0.940551
0.890501 0.958953 0.934936
0.948669 0.942962 0.912749
