20 Preset/INSTA/【3】LUT video cho PR-AE-FCPX/INS LUT (21).cube
# Created by Adobe Lightroom plugin Export LUT (1.24.0)
# www.johnrellis.com/lightroom/exportlut.htm
# Preset: INS胶片-自然[素材江湖]21
# Color profile: C:\Program Files (x86)\Common Files\Adobe\Color\Profiles\Recommended\VideoHD.icc
LUT_3D_SIZE 32
DOMAIN_MIN 0.0 0.0 0.0
DOMAIN_MAX 1.0 1.0 1.0
0.028687 0.035340 0.052186
0.035889 0.037812 0.053956
0.067506 0.045136 0.063630
0.093507 0.061219 0.079194
0.127779 0.080385 0.089326
0.187716 0.088319 0.094484
0.262608 0.088197 0.098268
0.345373 0.071473 0.100832
0.433265 0.021180 0.103670
0.520409 0.000000 0.106874
0.602136 0.000000 0.111543
0.673579 0.000000 0.116823
0.733303 0.033143 0.124331
0.784115 0.137881 0.133883
0.838285 0.215976 0.150790
0.876646 0.280247 0.170596
0.904997 0.335882 0.193698
0.925902 0.384161 0.220401
0.941527 0.425208 0.249943
0.953429 0.461585 0.282353
0.963104 0.493904 0.316167
0.971740 0.523186 0.349981
0.979156 0.549279 0.382971
0.985718 0.573480 0.415412
0.991333 0.595789 0.447272
0.996002 0.616846 0.478462
0.999756 0.637110 0.509392
1.000000 0.656733 0.540185
1.000000 0.675959 0.570794
1.000000 0.694911 0.601373
1.000000 0.713619 0.631739
1.000000 0.732082 0.661616
0.028168 0.043061 0.056794
0.034119 0.042390 0.056764
0.069306 0.050477 0.065126
0.093721 0.065583 0.080262
0.128145 0.082399 0.089570
0.186740 0.090303 0.094697
0.259373 0.091035 0.098146
0.340002 0.081178 0.100923
0.426520 0.036896 0.103639
0.512810 0.000000 0.106783
0.594079 0.000000 0.111147
0.666102 0.000000 0.116243
0.726528 0.036316 0.123323
0.778683 0.134981 0.133089
0.831540 0.209110 0.148348
0.870176 0.271702 0.167086
0.899260 0.327062 0.188785
0.921294 0.375219 0.214420
0.937743 0.417090 0.242863
0.950286 0.453559 0.274022
0.960174 0.485908 0.306767
0.968994 0.514977 0.339879
0.976532 0.541192 0.372137
0.983368 0.565484 0.404089
0.989319 0.588159 0.435859
0.994385 0.609522 0.467201
0.998596 0.630213 0.498604
1.000000 0.650385 0.529961
1.000000 0.670192 0.561395
1.000000 0.689662 0.592706
1.000000 0.708858 0.623926
1.000000 0.727718 0.654536
0.027436 0.072816 0.073060
0.036164 0.071687 0.077577
0.061921 0.073152 0.080171
0.095216 0.082460 0.084962
0.132235 0.092256 0.090517
0.189944 0.099611 0.095247
0.260594 0.102358 0.098451
0.338872 0.098573 0.100740
0.423194 0.085115 0.103273
0.508049 0.038025 0.106905
0.588525 0.000000 0.110750
0.660700 0.002930 0.115663
0.721187 0.090517 0.122438
0.775204 0.149111 0.132265
0.826322 0.214511 0.146975
0.864439 0.272496 0.164736
0.893858 0.325261 0.185672
0.916747 0.372503 0.210391
0.934081 0.413916 0.237980
0.947387 0.450660 0.268864
0.957763 0.482948 0.301396
0.966766 0.512139 0.334508
0.974609 0.538293 0.366430
0.981659 0.562554 0.398566
0.987823 0.585077 0.430091
0.993164 0.606470 0.461463
0.997559 0.627344 0.493050
1.000000 0.647639 0.524712
1.000000 0.667597 0.556390
1.000000 0.687251 0.588251
1.000000 0.706630 0.619745
1.000000 0.725551 0.650629
0.026032 0.100160 0.090974
0.030304 0.100008 0.090547
0.057862 0.100008 0.093294
0.096712 0.102449 0.095674
0.139742 0.113954 0.096620
0.197574 0.119814 0.095827
0.265904 0.124880 0.098451
0.340826 0.125032 0.100374
0.423224 0.119173 0.103395
0.505699 0.109316 0.106142
0.584771 0.100313 0.109987
0.655299 0.105562 0.115023
0.715785 0.132357 0.122042
0.771939 0.177707 0.132052
0.820127 0.229892 0.145449
0.857053 0.280735 0.162570
0.886168 0.328069 0.182071
0.909422 0.371893 0.204959
0.927611 0.411231 0.231052
0.941772 0.446509 0.260197
0.952911 0.477729 0.291447
0.962219 0.506462 0.323796
0.970642 0.532738 0.355932
0.978393 0.557671 0.388708
0.985290 0.581292 0.421790
0.991272 0.603876 0.455177
0.996246 0.625788 0.488594
1.000000 0.646876 0.521691
1.000000 0.667231 0.554253
1.000000 0.687007 0.586511
1.000000 0.706172 0.617853
1.000000 0.724666 0.648219
0.000000 0.147646 0.101381
0.000000 0.147341 0.100679
0.000000 0.145754 0.105745
0.084108 0.147524 0.107851
0.142947 0.154177 0.110780
0.208835 0.164920 0.107088
0.273320 0.162966 0.101045
0.340581 0.158724 0.099214
0.419379 0.157046 0.101442
0.499123 0.153506 0.104921
0.576013 0.150851 0.108949
0.646052 0.156374 0.113924
0.706325 0.174044 0.120882
0.764767 0.210300 0.130831
0.811032 0.252415 0.144015
0.847776 0.296086 0.160311
0.878019 0.338537 0.179538
0.902586 0.379767 0.201999
0.921965 0.417365 0.227726
0.937133 0.450996 0.256718
0.948913 0.481086 0.287755
0.958618 0.508476 0.319707
0.967468 0.534173 0.352087
0.975708 0.558770 0.385199
0.983093 0.582238 0.418799
0.989441 0.604944 0.452766
0.994781 0.626551 0.486427
0.998932 0.647456 0.519585
1.000000 0.667536 0.552270
1.000000 0.687007 0.584314
1.000000 0.705867 0.615625
1.000000 0.724178 0.645899
0.000000 0.219028 0.110414
0.000000 0.219242 0.110018
0.000000 0.217746 0.114015
0.000000 0.217685 0.122683
0.118502 0.220645 0.125063
0.215915 0.228946 0.128725
0.297887 0.233158 0.119936
0.365850 0.220706 0.108675
0.424720 0.203708 0.100221
0.498360 0.199680 0.102327
0.572778 0.199985 0.106661
0.641444 0.205997 0.112093
0.705715 0.224155 0.120027
0.760433 0.252995 0.130556
0.805081 0.286870 0.143771
0.841886 0.323613 0.160250
0.872190 0.361303 0.179538
0.897459 0.398566 0.202487
0.917540 0.432746 0.228672
0.933257 0.463691 0.257816
0.945586 0.491707 0.289189
0.955688 0.517510 0.321294
0.977630 0.583368 0.410559
0.984344 0.604456 0.443427
0.990021 0.624231 0.475349
0.994568 0.643153 0.506401
0.998047 0.661280 0.536675
1.000000 0.678737 0.566064
1.000000 0.695766 0.594873
1.000000 0.712398 0.623163
1.000000 0.728603 0.650446
0.999695 0.744198 0.676478
0.000000 0.322576 0.121340
0.000000 0.322637 0.120668
0.000000 0.322240 0.124147
0.000000 0.321447 0.145235
0.000000 0.323064 0.148745
0.203525 0.323522 0.151919
0.336828 0.331853 0.157382
0.430152 0.327398 0.143282
0.492500 0.305364 0.125368
0.543236 0.280644 0.111788
0.589349 0.259220 0.102754
0.663478 0.272740 0.110964
0.726284 0.294133 0.121736
0.776730 0.320623 0.135012
0.817685 0.349676 0.150759
0.851041 0.379919 0.169894
0.879057 0.411353 0.191684
0.902190 0.441566 0.216922
0.920653 0.470130 0.245701
0.935637 0.497292 0.277958
0.947845 0.523339 0.312779
0.958984 0.549248 0.349828
0.969146 0.574548 0.387793
0.978058 0.598657 0.425879
0.985382 0.621027 0.462562
0.990997 0.641230 0.496651
0.995331 0.659632 0.528069
0.998352 0.677028 0.558221
1.000000 0.693935 0.587610
1.000000 0.710262 0.615961
1.000000 0.726314 0.643671
0.999390 0.741909 0.670253
0.000000 0.413916 0.135775
0.000000 0.414069 0.135836
0.000000 0.414282 0.140047
0.000000 0.414771 0.162325
0.000000 0.414832 0.176791
0.143008 0.415106 0.180423
0.314824 0.414008 0.184817
0.452735 0.422370 0.193027
0.535973 0.415717 0.178775
0.590600 0.392950 0.155367
0.638239 0.371374 0.136690
0.675257 0.348058 0.120119
0.715999 0.341619 0.116915
0.763729 0.360235 0.131014
0.803738 0.381964 0.146883
0.837247 0.405768 0.165743
0.866087 0.431495 0.187076
0.890684 0.457557 0.211704
0.910796 0.482734 0.239994
0.927153 0.507073 0.271641
0.940429 0.530724 0.306035
0.952209 0.554467 0.342504
0.963073 0.578149 0.380468
0.972747 0.601129 0.418433
0.980835 0.622705 0.455421
0.987304 0.642267 0.489815
0.992218 0.660395 0.522057
0.995850 0.677516 0.552728
0.998260 0.694148 0.582544
0.999420 0.710323 0.611475
0.999512 0.726162 0.639490
0.998535 0.741665 0.666560
0.000000 0.505089 0.164706
0.000000 0.505455 0.164584
0.000000 0.505852 0.171725
0.000000 0.506584 0.192996
0.000000 0.506828 0.217960
0.000000 0.505760 0.221592
0.304723 0.503471 0.225925
0.442664 0.503105 0.232853
0.569268 0.518761 0.249912
0.637385 0.514763 0.237949
0.677241 0.491615 0.207614
0.709529 0.465919 0.180667
0.735622 0.438636 0.156741
0.757351 0.412421 0.135286
0.791165 0.417914 0.142672
0.825101 0.436408 0.162234
0.854765 0.457191 0.184268
0.880400 0.479255 0.209110
0.901671 0.500816 0.237339
0.919188 0.522240 0.269078
0.933440 0.543175 0.303105
0.945739 0.564416 0.339269
0.957214 0.586023 0.376867
0.967498 0.607385 0.414710
0.976287 0.627680 0.451698
0.983368 0.646387 0.486336
0.988922 0.663874 0.518914
0.993103 0.680507 0.549981
0.995941 0.696651 0.580163
0.997528 0.712367 0.609308
0.997955 0.727840 0.637598
0.997284 0.742977 0.664820
0.000000 0.585687 0.210056
0.000000 0.585657 0.210239
0.000000 0.585626 0.219272
0.000000 0.585840 0.238132
0.000000 0.588251 0.267430
0.000000 0.589044 0.278721
0.324102 0.588525 0.285222
0.458198 0.587488 0.293126
0.560693 0.585962 0.302007
0.651606 0.595239 0.319738
0.699580 0.586664 0.305058
0.728420 0.563073 0.268406
0.752987 0.537407 0.235019
0.774228 0.511620 0.204959
0.793118 0.486549 0.178225
0.811551 0.465827 0.156924
0.842985 0.483925 0.180484
0.870390 0.503288 0.207095
0.893065 0.522393 0.236637
0.911528 0.541039 0.268894
0.926452 0.558831 0.302678
0.939025 0.576593 0.337469
0.950652 0.594965 0.373022
0.961273 0.613458 0.408667
0.970581 0.631525 0.444190
0.978363 0.648859 0.478309
0.984710 0.665614 0.511345
0.989654 0.681880 0.543206
0.993194 0.697902 0.574395
0.995361 0.713680 0.604761
0.996216 0.729213 0.634241
0.995819 0.744472 0.662623
0.000000 0.656245 0.273747
0.000000 0.656275 0.275517
0.000000 0.656703 0.284154
0.000000 0.657160 0.300908
0.000000 0.657649 0.326421
0.184970 0.656916 0.346807
0.360693 0.654108 0.351354
0.474067 0.651301 0.357336
0.564202 0.648646 0.364477
0.638911 0.646876 0.372992
0.708095 0.653925 0.391089
0.744076 0.644465 0.375341
0.767025 0.622095 0.335729
0.787442 0.598108 0.298161
0.805844 0.574365 0.264073
0.822873 0.551904 0.233921
0.839353 0.531792 0.207370
0.859709 0.526909 0.204013
0.883299 0.543236 0.233951
0.902739 0.559045 0.266209
0.918547 0.574365 0.300206
0.931792 0.589715 0.334874
0.944091 0.606134 0.370642
0.955413 0.622919 0.406470
0.965393 0.639643 0.441962
0.973816 0.655909 0.476478
0.980774 0.671748 0.509636
0.986267 0.687282 0.541985
0.990326 0.702602 0.573510
0.992889 0.717830 0.604303
0.994049 0.732906 0.634058
0.993957 0.747768 0.662745
0.000000 0.710323 0.343114
0.000000 0.710384 0.345006
0.000000 0.710353 0.351476
0.000000 0.710292 0.365881
0.000000 0.710140 0.387274
0.294743 0.709560 0.416297
0.406470 0.706996 0.419867
0.496864 0.703944 0.424353
0.572992 0.701289 0.430121
0.638727 0.699031 0.436896
0.695674 0.697261 0.444587
0.749569 0.703273 0.462257
0.797696 0.721767 0.495430
0.815732 0.700923 0.453315
0.832547 0.678645 0.411597
0.848508 0.656703 0.372564
0.863340 0.635737 0.337621
0.877653 0.616724 0.307500
0.891386 0.600336 0.282902
0.907256 0.604334 0.302251
0.921660 0.615900 0.338079
0.934722 0.628473 0.373297
0.946593 0.641627 0.408270
0.957183 0.655268 0.442939
0.966308 0.668788 0.476326
0.973907 0.682063 0.508110
0.980011 0.694911 0.538415
0.984710 0.707637 0.567590
0.988067 0.720394 0.595972
0.990173 0.733303 0.623804
0.991058 0.746334 0.650935
0.990784 0.759426 0.677180
0.000000 0.766354 0.437934
0.000000 0.766140 0.438636
0.083253 0.765286 0.443488
0.224369 0.764187 0.453681
0.320287 0.762570 0.469184
0.405768 0.760739 0.490913
0.477119 0.758114 0.502556
0.539574 0.754757 0.504753
0.598169 0.752071 0.508690
0.652277 0.750088 0.514672
0.701778 0.749264 0.522698
0.746181 0.749386 0.532647
0.788083 0.754604 0.552056
0.809873 0.745144 0.540703
0.826993 0.728298 0.505089
0.842924 0.709377 0.467781
0.857816 0.689998 0.431373
0.871946 0.670954 0.397101
0.885405 0.653559 0.367376
0.898405 0.638239 0.342901
0.911254 0.626734 0.326818
0.925139 0.637568 0.362737
0.937987 0.649378 0.398413
0.949554 0.661830 0.433600
0.959686 0.674495 0.467994
0.968231 0.687129 0.500847
0.975250 0.699580 0.532464
0.980713 0.712001 0.562921
0.984771 0.724483 0.592523
0.987366 0.737240 0.621546
0.988678 0.750027 0.649653
0.988739 0.762692 0.676265
0.267491 0.789822 0.489631
0.271122 0.789548 0.489876
0.296757 0.788724 0.493538
0.338842 0.787533 0.500969
0.392493 0.785916 0.513085
0.450416 0.784207 0.530175
0.508843 0.782559 0.550103
0.556023 0.779751 0.551293
0.603632 0.777310 0.554314
0.649317 0.775509 0.559136
0.692592 0.774411 0.565850
0.732479 0.773953 0.574151
0.768856 0.773800 0.583124
0.803311 0.777340 0.600275
0.821469 0.768399 0.589807
0.836576 0.752987 0.556054
0.850828 0.735653 0.520653
0.864500 0.718166 0.486610
0.877989 0.701259 0.455024
0.891051 0.685603 0.426795
0.903868 0.671778 0.402869
0.916777 0.660395 0.384253
0.929900 0.659663 0.391547
0.942412 0.671138 0.427741
0.953429 0.682856 0.463081
0.962799 0.694759 0.496956
0.970581 0.706508 0.529412
0.976684 0.718349 0.560815
0.981292 0.730282 0.591241
0.984375 0.742519 0.621027
0.986023 0.754879 0.649683
0.986358 0.767086 0.676753
0.379828 0.808072 0.536919
0.383124 0.807919 0.537591
0.394781 0.807309 0.540032
0.419684 0.806241 0.545953
0.454108 0.804837 0.555596
0.495430 0.803220 0.569451
0.540185 0.801846 0.587884
0.579187 0.799954 0.596033
0.615808 0.797940 0.598108
0.653223 0.796323 0.601984
0.689448 0.795193 0.607477
0.724178 0.794583 0.614191
0.756497 0.794217 0.621515
0.786648 0.793881 0.628656
0.816373 0.796902 0.642725
0.832212 0.788724 0.632502
0.845487 0.774594 0.601038
0.858305 0.759060 0.568627
0.871122 0.743374 0.537255
0.883879 0.728328 0.508293
0.896544 0.714504 0.482704
0.909392 0.702571 0.461250
0.922271 0.692561 0.444099
0.935241 0.684840 0.431800
0.947173 0.692226 0.458839
0.957366 0.703243 0.493812
0.965881 0.714443 0.527489
0.972625 0.725917 0.560327
0.977783 0.737667 0.592309
0.981231 0.749783 0.623651
0.983093 0.761929 0.653407
0.983581 0.774044 0.681575
0.452369 0.822477 0.577600
0.454994 0.822477 0.578546
0.464271 0.822171 0.581262
0.481086 0.821622 0.586633
0.506615 0.820829 0.595544
0.537774 0.820005 0.607874
0.573114 0.819425 0.624231
0.608179 0.818906 0.640650
0.636316 0.817624 0.642969
0.665309 0.816403 0.645960
0.694301 0.815274 0.649470
0.722805 0.814237 0.653529
0.750362 0.813260 0.657801
0.776791 0.812192 0.662104
0.801877 0.811032 0.666041
0.827634 0.813107 0.676661
0.841459 0.805417 0.666987
0.853178 0.792721 0.638575
0.864927 0.778897 0.609522
0.876951 0.765072 0.581537
0.889281 0.752132 0.556268
0.901884 0.740444 0.534112
0.914580 0.730343 0.515770
0.927367 0.721950 0.501396
0.940124 0.715389 0.491218
0.952270 0.713680 0.493477
0.961425 0.724361 0.528618
0.968750 0.735225 0.562615
0.974273 0.746334 0.595392
0.977996 0.757534 0.626673
0.980133 0.768734 0.656214
0.980835 0.779995 0.684077
0.506340 0.835904 0.613855
0.508141 0.835843 0.614527
0.514244 0.835691 0.616724
0.527123 0.835325 0.621485
0.546197 0.834867 0.629084
0.570092 0.834409 0.639612
0.598108 0.834043 0.653285
0.628321 0.833890 0.670008
0.652674 0.833158 0.676692
0.675654 0.832151 0.678920
0.699489 0.831144 0.681605
0.723568 0.830259 0.684718
0.747402 0.829313 0.687984
0.770718 0.828244 0.691157
0.793454 0.827085 0.694209
0.815396 0.825742 0.697017
0.838224 0.827512 0.705653
0.850248 0.820676 0.698054
0.860685 0.809476 0.673457
0.871427 0.797238 0.647669
0.882811 0.785458 0.623651
0.894682 0.774319 0.601678
0.906859 0.764370 0.582727
0.919188 0.755795 0.567254
0.931548 0.748745 0.555383
0.943847 0.743252 0.547509
0.955749 0.739528 0.543816
0.964904 0.744869 0.565026
0.970703 0.755428 0.598871
0.974731 0.765866 0.630549
0.977050 0.776547 0.660609
0.977935 0.787259 0.688746
0.553094 0.849210 0.649378
0.554376 0.849271 0.650050
0.585901 0.856840 0.673640
0.594232 0.856626 0.677333
0.606928 0.856321 0.683192
0.623407 0.855955 0.691188
0.642664 0.855650 0.701259
0.664210 0.855467 0.713313
0.685115 0.855344 0.724208
0.701930 0.854429 0.725399
0.719844 0.853452 0.726894
0.738521 0.852445 0.728542
0.757534 0.851225 0.729976
0.776699 0.849790 0.731319
0.795682 0.848203 0.732479
0.814420 0.846494 0.733516
0.832731 0.844633 0.734340
0.852079 0.845304 0.739834
0.861784 0.838743 0.733303
0.870298 0.828855 0.713039
0.879637 0.818235 0.691524
0.890043 0.808042 0.671015
0.901091 0.798459 0.652216
0.912413 0.789731 0.635859
0.923888 0.781918 0.621912
0.935271 0.775387 0.611292
0.946471 0.770230 0.604181
0.957244 0.766659 0.601068
0.967163 0.764950 0.602960
0.971374 0.774594 0.634791
0.973877 0.784512 0.665034
0.974914 0.794522 0.693202
0.597345 0.862791 0.686122
0.600153 0.863401 0.688167
0.605768 0.863981 0.691554
0.614466 0.864408 0.696345
0.625879 0.864622 0.702296
0.639521 0.864561 0.709285
0.655634 0.864378 0.717708
0.673365 0.864195 0.727413
0.692409 0.864195 0.738521
0.708034 0.863615 0.742458
0.723232 0.862760 0.743526
0.739437 0.861814 0.744747
0.756161 0.860685 0.745846
0.773312 0.859434 0.746944
0.790524 0.858091 0.747982
0.807767 0.856626 0.748928
0.824887 0.855100 0.749905
0.841672 0.853605 0.750942
0.859525 0.854337 0.756191
0.868406 0.848753 0.751888
0.876097 0.840360 0.735561
0.884733 0.831724 0.718837
0.894255 0.823301 0.702602
0.904417 0.815244 0.687373
0.914977 0.807736 0.673732
0.925719 0.801144 0.662440
0.936339 0.795682 0.654078
0.946593 0.791287 0.648676
0.956359 0.788357 0.646998
0.965393 0.786923 0.649195
0.970733 0.791470 0.666896
0.972015 0.800992 0.695674
0.622400 0.871427 0.708583
0.624720 0.871977 0.710323
0.628901 0.872587 0.712978
0.635737 0.873045 0.716884
0.645106 0.873289 0.721889
0.656336 0.873259 0.727687
0.669245 0.873136 0.734371
0.684077 0.872953 0.742336
0.700221 0.872892 0.751339
0.715999 0.872770 0.759213
0.728969 0.871916 0.759915
0.742947 0.871061 0.760830
0.757656 0.870054 0.761685
0.772854 0.868986 0.762600
0.788388 0.867796 0.763485
0.804013 0.866514 0.764309
0.819699 0.865171 0.765133
0.835264 0.863828 0.766018
0.850706 0.862547 0.767147
0.866880 0.863188 0.772091
0.874937 0.858183 0.769009
0.881865 0.851011 0.755734
0.889647 0.843809 0.742611
0.898253 0.836790 0.729915
0.907469 0.830106 0.718044
0.917021 0.823941 0.707546
0.926696 0.818326 0.698634
0.936339 0.813748 0.692287
0.945617 0.810361 0.689174
0.954314 0.808316 0.689387
0.962158 0.807584 0.692866
0.968933 0.808011 0.699184
0.644648 0.879637 0.729213
0.646479 0.880095 0.730648
0.649439 0.880583 0.732509
0.654566 0.880949 0.735378
0.662043 0.881132 0.739376
0.671138 0.881132 0.744015
0.681880 0.881010 0.749477
0.694270 0.880858 0.755886
0.708003 0.880735 0.763302
0.723018 0.880674 0.771725
0.735866 0.880156 0.775204
0.747951 0.879362 0.775937
0.760769 0.878508 0.776699
0.774197 0.877531 0.777462
0.788144 0.876493 0.778347
0.802274 0.875425 0.779294
0.816648 0.874418 0.780453
0.831144 0.873442 0.781765
0.845548 0.872587 0.783383
0.859861 0.871855 0.785336
0.874449 0.872679 0.790890
0.881834 0.868650 0.789548
0.888457 0.862730 0.778286
0.895781 0.856992 0.768215
0.903502 0.851499 0.759121
0.911559 0.846281 0.750881
0.919951 0.841520 0.743832
0.928405 0.837461 0.738552
0.936675 0.834287 0.735622
0.944518 0.832120 0.735103
0.951720 0.830869 0.736934
0.958038 0.830594 0.740932
0.672084 0.889586 0.754604
0.672816 0.889769 0.755123
0.674342 0.889891 0.755886
0.676814 0.889982 0.756924
0.682033 0.889921 0.759365
0.688930 0.889708 0.762631
0.697688 0.889464 0.766842
0.708156 0.889250 0.772152
0.720363 0.888975 0.778500
0.733974 0.888792 0.786007
0.747921 0.888579 0.793484
0.758175 0.887877 0.794156
0.769009 0.887114 0.794797
0.780484 0.886259 0.795468
0.792355 0.885374 0.796170
0.804654 0.884428 0.796994
0.817136 0.883452 0.797818
0.829801 0.882506 0.798825
0.842496 0.881621 0.799985
0.855192 0.880766 0.801358
0.867765 0.880003 0.802945
0.880400 0.880461 0.807736
0.886717 0.876768 0.806668
0.892638 0.871305 0.795987
0.899321 0.866148 0.786618
0.906493 0.861326 0.778531
0.913970 0.856901 0.771817
0.921538 0.853086 0.766781
0.929046 0.849973 0.763577
0.936339 0.847593 0.762264
0.943145 0.845975 0.762875
0.949279 0.845182 0.765225
0.688869 0.895872 0.770321
0.689479 0.895964 0.770748
0.690883 0.896086 0.771420
0.693141 0.896147 0.772396
0.696803 0.896147 0.773953
0.702937 0.895933 0.776852
0.710719 0.895659 0.780636
0.720180 0.895384 0.785336
0.731106 0.895079 0.790982
0.743404 0.894804 0.797604
0.756435 0.894530 0.804929
0.767453 0.894102 0.808896
0.776699 0.893462 0.809506
0.786557 0.892760 0.810208
0.796841 0.892027 0.810971
0.807492 0.891264 0.811765
0.818509 0.890501 0.812711
0.829648 0.889708 0.813718
0.840909 0.888975 0.814939
0.852232 0.888243 0.816281
0.863401 0.887572 0.817685
0.874357 0.886931 0.819242
0.885313 0.887236 0.823484
0.890806 0.884062 0.822995
0.895598 0.878172 0.810788
0.901762 0.873686 0.802579
0.908415 0.869688 0.795834
0.915282 0.866056 0.790555
0.922210 0.862974 0.786831
0.928985 0.860533 0.784909
0.935393 0.858854 0.784878
0.941192 0.857877 0.786587
0.710872 0.902281 0.789456
0.711910 0.902434 0.790158
0.713008 0.902495 0.790738
0.714778 0.902434 0.791348
0.717159 0.902312 0.792142
0.721370 0.902007 0.793790
0.727474 0.901610 0.796506
0.735073 0.901122 0.800015
0.744106 0.900633 0.804440
0.754299 0.900175 0.809628
0.765377 0.899657 0.815457
0.777157 0.899199 0.822019
0.784909 0.898589 0.822690
0.792874 0.897887 0.822934
0.801328 0.897154 0.823209
0.810239 0.896361 0.823575
0.819577 0.895598 0.824094
0.829221 0.894835 0.824735
0.839139 0.894133 0.825681
0.849241 0.893523 0.826902
0.859342 0.892943 0.828305
0.869322 0.892393 0.829770
0.879088 0.891814 0.831174
0.888640 0.891966 0.834775
0.893400 0.889067 0.834470
0.898222 0.884855 0.825956
0.903746 0.881041 0.818814
0.909758 0.877653 0.813199
0.915953 0.874662 0.808988
0.922148 0.872221 0.806424
0.928038 0.870451 0.805600
0.933440 0.869383 0.806638
0.726223 0.906249 0.802426
0.727108 0.906371 0.803006
0.728328 0.906401 0.803647
0.730037 0.906401 0.804349
0.732448 0.906310 0.805295
0.735744 0.906218 0.806577
0.741390 0.905913 0.809201
0.748592 0.905577 0.812680
0.756924 0.905211 0.816861
0.766293 0.904845 0.821683
0.776364 0.904387 0.827024
0.786954 0.903960 0.832792
0.796231 0.903502 0.836942
0.802792 0.902922 0.837156
0.809628 0.902312 0.837339
0.816892 0.901640 0.837522
0.824552 0.900938 0.837827
0.832639 0.900298 0.838315
0.841093 0.899657 0.839048
0.849699 0.899107 0.840055
0.858457 0.898589 0.841245
0.867155 0.898131 0.842527
0.875700 0.897642 0.843839
0.884092 0.897185 0.845151
0.892271 0.897307 0.848264
0.896330 0.894926 0.848539
0.900603 0.891539 0.841642
0.905455 0.888487 0.836057
0.910735 0.885985 0.832120
0.916075 0.883879 0.829557
0.921263 0.882231 0.828458
0.926085 0.881193 0.828855
0.745571 0.910216 0.817807
0.746090 0.910277 0.818112
0.746883 0.910277 0.818509
0.748287 0.910216 0.819059
0.750271 0.910155 0.819791
0.753048 0.910002 0.820859
0.756802 0.909789 0.822354
0.762844 0.909453 0.825193
0.769863 0.909056 0.828641
0.777859 0.908629 0.832639
0.786587 0.908171 0.837095
0.795743 0.907744 0.841947
0.805142 0.907286 0.847044
0.811826 0.906798 0.848875
0.817502 0.906279 0.849058
0.823484 0.905760 0.849210
0.829892 0.905150 0.849454
0.836637 0.904601 0.849851
0.843778 0.904082 0.850431
0.851133 0.903624 0.851286
0.858640 0.903166 0.852323
0.866148 0.902770 0.853422
0.873564 0.902342 0.854520
0.880888 0.901915 0.855619
0.888060 0.901488 0.856626
0.895048 0.901549 0.859220
0.898528 0.899535 0.859739
0.902281 0.896696 0.853971
0.906523 0.894255 0.849485
0.911131 0.892454 0.846983
0.915679 0.891051 0.845762
0.919921 0.890135 0.845884
0.762387 0.913298 0.830777
0.762844 0.913298 0.831052
0.763607 0.913298 0.831418
0.764920 0.913268 0.831998
0.766873 0.913207 0.832822
0.769711 0.913115 0.834043
0.773648 0.913054 0.835843
0.778927 0.912932 0.838468
0.785977 0.912688 0.842100
0.793729 0.912444 0.846189
0.802060 0.912169 0.850675
0.810544 0.911864 0.855253
0.819059 0.911528 0.859953
0.827207 0.911223 0.864500
0.831998 0.910918 0.865019
0.836728 0.910552 0.865354
0.841703 0.910155 0.865660
0.846921 0.909758 0.866026
0.852445 0.909361 0.866575
0.858213 0.908995 0.867277
0.864042 0.908659 0.868101
0.869963 0.908354 0.868956
0.875822 0.908019 0.869810
0.881621 0.907683 0.870634
0.887358 0.907347 0.871427
0.893004 0.906981 0.872221
0.898497 0.906981 0.874174
0.901244 0.905394 0.874693
0.904234 0.903319 0.870451
0.907652 0.901518 0.867247
0.911284 0.900450 0.866117
0.914702 0.899748 0.866056
0.787991 0.916655 0.849241
0.788083 0.916655 0.849302
0.788479 0.916625 0.849424
0.789273 0.916564 0.849699
0.790585 0.916472 0.850187
0.792477 0.916350 0.850919
0.795071 0.916197 0.851957
0.798306 0.916045 0.853300
0.802853 0.915770 0.855436
0.808530 0.915435 0.858244
0.814755 0.915068 0.861326
0.821256 0.914702 0.864652
0.828000 0.914305 0.868162
0.834684 0.913939 0.871733
