20 Preset/INSTA/【3】LUT video cho PR-AE-FCPX/INS LUT (20).cube
# Created by Adobe Lightroom plugin Export LUT (1.24.0)
# www.johnrellis.com/lightroom/exportlut.htm
# Preset: INS胶片-自然[素材江湖]20
# Color profile: C:\Program Files (x86)\Common Files\Adobe\Color\Profiles\Recommended\VideoHD.icc
LUT_3D_SIZE 8
DOMAIN_MIN 0.000000 0.000000 0.000000
DOMAIN_MAX 0.903226 0.903226 0.903226
0.000000 0.000000 0.000000
0.093935 0.011902 0.010925
0.284916 0.000000 0.023651
0.546258 0.000000 0.015747
0.746212 0.000000 0.003296
0.864927 0.000000 0.033417
0.959106 0.000000 0.139559
1.000000 0.184970 0.231296
0.008728 0.104768 0.056062
0.079255 0.110109 0.044312
0.274540 0.082734 0.025818
0.507042 0.000000 0.012360
0.710506 0.000000 0.000000
0.843961 0.000000 0.016602
0.934295 0.000000 0.117586
0.993683 0.163241 0.205478
0.000000 0.325750 0.153597
0.000000 0.315496 0.139528
0.226017 0.314244 0.094179
0.524987 0.282322 0.000000
0.702052 0.206851 0.000000
0.844358 0.217197 0.002197
0.933989 0.295048 0.156100
0.989380 0.378820 0.260716
0.000000 0.557427 0.316869
0.000000 0.548455 0.302281
0.165011 0.527031 0.258671
0.466804 0.544030 0.230045
0.713588 0.556512 0.000000
0.823880 0.491676 0.119783
0.902525 0.495735 0.211856
0.960693 0.518395 0.312444
0.411292 0.684382 0.489143
0.402136 0.680049 0.477790
0.375891 0.665126 0.436957
0.448280 0.654627 0.395880
0.594903 0.648554 0.356970
0.760189 0.658473 0.235203
0.849393 0.621546 0.268467
0.923400 0.620386 0.368811
0.559960 0.751766 0.616175
0.566369 0.755306 0.620752
0.551690 0.747677 0.598077
0.519524 0.731746 0.546349
0.587793 0.727199 0.520134
0.679225 0.725307 0.494759
0.812161 0.753231 0.439063
0.891630 0.741390 0.493080
0.655573 0.812650 0.718227
0.655695 0.812985 0.717617
0.647059 0.808621 0.704768
0.632044 0.801114 0.679713
0.627253 0.791073 0.644709
0.679377 0.791562 0.633173
0.743679 0.794064 0.622278
0.850614 0.826139 0.609583
0.740169 0.871061 0.807675
0.739345 0.870970 0.806638
0.737270 0.871397 0.803555
0.734798 0.873259 0.798459
0.707424 0.860533 0.764034
0.730861 0.866026 0.761563
0.776089 0.873259 0.765530
0.824552 0.876463 0.762753
0.000000 0.018036 0.073396
0.079316 0.022034 0.077821
0.249210 0.000000 0.041169
0.480018 0.000000 0.015961
0.696071 0.000000 0.000000
0.832822 0.000000 0.010895
0.923278 0.000000 0.104128
0.984802 0.000000 0.182559
0.005432 0.107301 0.096864
0.095033 0.111086 0.102266
0.263798 0.094759 0.075532
0.479591 0.000000 0.011048
0.686488 0.000000 0.000000
0.825772 0.000000 0.001801
0.910124 0.000000 0.095796
0.972717 0.000000 0.169772
0.000000 0.313146 0.191928
0.000000 0.307317 0.186587
0.239078 0.306126 0.149874
0.506737 0.268101 0.036286
0.676112 0.213077 0.000000
0.815274 0.200687 0.000000
0.901457 0.234531 0.107820
0.967407 0.313817 0.202731
0.126284 0.530663 0.322484
0.121584 0.522881 0.309636
0.165621 0.500633 0.267826
0.427985 0.504265 0.228977
0.668086 0.503777 0.062379
0.785458 0.440528 0.000000
0.871061 0.440070 0.137972
0.939452 0.466468 0.239017
0.413336 0.676448 0.491005
0.401648 0.670924 0.477974
0.370489 0.653193 0.434546
0.423621 0.635615 0.383490
0.570459 0.625544 0.338628
0.741390 0.635431 0.217288
0.833005 0.599359 0.223606
0.910460 0.595453 0.319341
0.549310 0.742184 0.605859
0.546502 0.740749 0.601404
0.531945 0.733425 0.579156
0.502098 0.718685 0.530144
0.572320 0.714809 0.504631
0.670344 0.715724 0.484077
0.804379 0.742031 0.421302
0.883360 0.727718 0.459876
0.643977 0.803342 0.705623
0.639979 0.801022 0.700435
0.630396 0.795956 0.686336
0.616419 0.788632 0.662013
0.613550 0.780453 0.629603
0.667567 0.780697 0.616693
0.731441 0.780148 0.599023
0.838987 0.810330 0.575067
0.729671 0.863737 0.797726
0.730831 0.864805 0.798581
0.728023 0.864652 0.794614
0.725093 0.866087 0.788846
0.718715 0.867277 0.776516
0.733913 0.868040 0.766140
0.773465 0.871031 0.762753
0.821958 0.873930 0.758907
0.000000 0.066773 0.201083
0.000000 0.050568 0.210544
0.254215 0.000000 0.235142
0.555993 0.000000 0.208408
0.720638 0.000000 0.116793
0.843656 0.000000 0.089845
0.926543 0.000000 0.117708
0.987915 0.217960 0.206394
0.000000 0.138460 0.229129
0.000000 0.123293 0.237736
0.281437 0.123079 0.257755
0.536736 0.000000 0.194949
0.706844 0.000000 0.128511
0.833402 0.000000 0.097353
0.914214 0.028290 0.108339
0.978088 0.227604 0.194949
0.000000 0.335485 0.295506
0.118868 0.331731 0.296880
0.316136 0.327855 0.295598
0.534600 0.274846 0.230442
0.709468 0.242802 0.177981
0.826230 0.255222 0.133761
0.902007 0.301030 0.120668
0.966186 0.354620 0.215732
0.307530 0.565362 0.423194
0.327581 0.561913 0.424933
0.349584 0.537316 0.399908
0.485145 0.527977 0.351232
0.689143 0.506920 0.265202
0.797513 0.464179 0.212558
0.877287 0.469062 0.190707
0.943145 0.493111 0.264103
0.484535 0.684382 0.551110
0.487587 0.680507 0.548486
0.469184 0.666560 0.516747
0.468910 0.645869 0.459419
0.597742 0.639551 0.421180
0.748165 0.637079 0.323461
0.836790 0.598779 0.297520
0.912688 0.604120 0.333074
0.585473 0.745907 0.640925
0.583764 0.744961 0.637781
0.570428 0.737209 0.617517
0.541070 0.721035 0.571283
0.579889 0.712459 0.534356
0.672358 0.713680 0.513939
0.803769 0.737392 0.449561
0.884337 0.727321 0.479408
0.665614 0.808713 0.728634
0.662226 0.806729 0.724300
0.651484 0.800717 0.709468
0.634760 0.791806 0.683375
0.618769 0.780026 0.644190
0.671778 0.781613 0.633417
0.737453 0.784909 0.622400
0.846525 0.817136 0.604059
0.737972 0.864408 0.805692
0.736110 0.863645 0.803708
0.732753 0.863157 0.799344
0.731746 0.865934 0.795773
0.724361 0.866728 0.783017
0.736965 0.869566 0.773709
0.777432 0.873686 0.771817
0.825834 0.876707 0.767941
0.000000 0.100496 0.371801
0.000000 0.091157 0.385718
0.164279 0.068727 0.415747
0.522057 0.000000 0.448920
0.770169 0.000000 0.458961
0.866117 0.000000 0.292424
0.923644 0.000000 0.220981
0.977234 0.205631 0.214420
0.000000 0.164309 0.401190
0.000000 0.148775 0.409094
0.197879 0.144350 0.434730
0.542321 0.116701 0.465949
0.765377 0.000000 0.456214
0.862028 0.000000 0.285313
0.918578 0.000000 0.229007
0.973175 0.241611 0.219699
0.000000 0.338659 0.429816
0.000000 0.332738 0.428717
0.220737 0.309941 0.453315
0.548363 0.347692 0.483375
0.746242 0.296117 0.430091
0.843565 0.253269 0.315892
0.913970 0.322240 0.289128
0.969055 0.383093 0.272953
0.267643 0.581689 0.527214
0.308659 0.576837 0.524895
0.434852 0.562249 0.522545
0.551080 0.548608 0.507805
0.695277 0.501305 0.437263
0.795438 0.474861 0.376318
0.874907 0.470558 0.332311
0.942107 0.493568 0.319280
0.572595 0.709133 0.636713
0.572259 0.705196 0.633112
0.576959 0.692470 0.623194
0.566766 0.667842 0.586267
0.633295 0.656947 0.542504
0.754513 0.637079 0.469154
0.841215 0.604211 0.420172
0.914702 0.610224 0.413062
0.635126 0.765682 0.696742
0.641260 0.768307 0.701503
0.638605 0.759823 0.691524
0.623499 0.743709 0.661738
0.617792 0.725429 0.612970
0.688899 0.722530 0.586694
0.804929 0.734524 0.526757
0.886656 0.722774 0.534356
0.690913 0.817105 0.757473
0.691432 0.816739 0.757137
0.692439 0.813016 0.753811
0.678584 0.805722 0.733547
0.653742 0.792111 0.693507
0.685115 0.788754 0.671595
0.744808 0.789609 0.655756
0.853208 0.818784 0.632532
0.758450 0.869718 0.824857
0.758572 0.869474 0.824552
0.756435 0.868925 0.821561
0.750423 0.869017 0.814237
0.740841 0.869139 0.800961
0.740780 0.871122 0.786069
0.781552 0.876005 0.784451
0.832364 0.881010 0.783566
0.000000 0.141756 0.540276
0.000000 0.130953 0.549371
0.000000 0.134768 0.568658
0.478859 0.071870 0.603967
0.723018 0.147433 0.627527
0.839628 0.366125 0.649165
0.922606 0.233463 0.529076
0.986542 0.037354 0.384833
0.000000 0.196750 0.553033
0.000000 0.186496 0.562097
0.000000 0.180667 0.580102
0.490517 0.171115 0.608515
0.725032 0.234928 0.633143
0.836210 0.391913 0.647700
0.918303 0.267979 0.526635
0.984222 0.127047 0.378515
0.000000 0.355444 0.560937
0.000000 0.354681 0.566400
0.000000 0.323857 0.587488
0.505150 0.349310 0.617517
0.709071 0.406378 0.635096
0.817136 0.447486 0.626154
0.899474 0.342077 0.501732
0.961273 0.303777 0.384955
0.000000 0.563012 0.605035
0.000000 0.558740 0.603357
0.238407 0.542107 0.598871
0.495186 0.527459 0.622583
0.685969 0.576684 0.648981
0.787808 0.533440 0.594354
0.869993 0.466316 0.484108
0.938079 0.464576 0.430823
0.497169 0.694759 0.663142
0.509667 0.693843 0.663691
0.552361 0.688106 0.662989
0.616693 0.679561 0.663630
0.658778 0.660578 0.638087
0.743923 0.623438 0.583215
0.829252 0.596612 0.526604
0.907774 0.587366 0.484840
0.657649 0.767453 0.724971
0.658503 0.766476 0.724483
0.657588 0.758938 0.717525
0.657740 0.745327 0.705074
0.641688 0.718959 0.666285
0.694545 0.717708 0.644129
0.796750 0.715084 0.598047
0.882383 0.698817 0.574060
0.711513 0.822843 0.781674
0.710079 0.821317 0.779660
0.707393 0.817044 0.774289
0.707393 0.811246 0.767788
0.692683 0.797269 0.741390
0.686397 0.782925 0.698878
0.743191 0.782193 0.679255
0.848783 0.800687 0.641810
0.758022 0.865476 0.827054
0.757778 0.865141 0.826535
0.757504 0.864164 0.824949
0.763272 0.865782 0.827024
0.755184 0.864775 0.816098
0.740261 0.864561 0.794491
0.773342 0.868650 0.786679
0.826017 0.873045 0.781247
0.000000 0.206973 0.678492
0.000000 0.198795 0.682643
0.000000 0.194400 0.690150
0.382666 0.208499 0.710231
0.699184 0.271733 0.734157
0.813748 0.380285 0.739010
0.863798 0.551873 0.750973
0.942596 0.488746 0.692714
0.000000 0.241550 0.669184
0.000000 0.232822 0.671595
0.000000 0.218784 0.681117
0.375891 0.236698 0.700649
0.688167 0.293950 0.723873
0.804715 0.391913 0.731014
0.857206 0.554009 0.745235
0.938201 0.485237 0.684535
0.000000 0.398993 0.680507
0.000000 0.391333 0.682826
0.000000 0.359442 0.694148
0.408240 0.365728 0.704799
0.679194 0.428717 0.724788
0.788602 0.499031 0.732937
0.844907 0.604852 0.750210
0.927214 0.528008 0.682582
0.000000 0.542901 0.674678
0.000000 0.541619 0.675776
0.183719 0.543267 0.686122
0.452461 0.537011 0.712703
0.672267 0.587152 0.736477
0.771908 0.628687 0.747982
0.840909 0.651820 0.751156
0.915770 0.586694 0.679561
0.354162 0.686824 0.711391
0.368719 0.684779 0.710414
0.424567 0.677058 0.707210
0.509545 0.661036 0.701320
0.634821 0.655024 0.717281
0.746151 0.689998 0.741543
0.821225 0.658534 0.706661
0.901946 0.599115 0.621149
0.606470 0.763973 0.748745
0.613977 0.765438 0.751156
0.629816 0.762722 0.750576
0.658991 0.757748 0.749783
0.697749 0.751522 0.749599
0.724697 0.735683 0.728176
0.799191 0.710292 0.689784
0.881437 0.695399 0.654902
0.747036 0.837369 0.817655
0.749325 0.838163 0.818967
0.750149 0.836515 0.817929
0.750759 0.832517 0.814786
0.748165 0.823117 0.805478
0.724849 0.797757 0.767758
0.757412 0.789303 0.737026
0.856474 0.793942 0.705837
0.779141 0.868589 0.845518
0.778256 0.868070 0.844663
0.777646 0.867369 0.843473
0.778988 0.867277 0.842863
0.778805 0.865934 0.839475
0.768734 0.862791 0.824979
0.770901 0.864286 0.802945
0.825895 0.868894 0.794614
0.000000 0.271031 0.757290
0.000000 0.265415 0.760433
0.000000 0.251469 0.765560
0.275731 0.273442 0.775174
0.604425 0.317967 0.786282
0.772671 0.411597 0.795224
0.851072 0.497353 0.796902
0.885100 0.614649 0.799191
0.000000 0.294560 0.750027
0.000000 0.289982 0.753597
0.000000 0.267430 0.759487
0.266209 0.287755 0.767880
0.594903 0.329503 0.779171
0.765133 0.414221 0.787930
0.844480 0.492378 0.789273
0.879850 0.607141 0.791989
0.000000 0.411414 0.751247
0.000000 0.405646 0.752834
0.000000 0.378363 0.758267
0.297063 0.376532 0.767300
0.593225 0.421180 0.777157
0.757412 0.495552 0.787991
0.835080 0.560174 0.793454
0.874723 0.648676 0.801022
0.000000 0.546105 0.747219
0.000000 0.543359 0.747097
0.000000 0.538567 0.751247
0.350439 0.513207 0.764706
0.589593 0.542107 0.776944
0.749783 0.602869 0.792905
0.821775 0.641932 0.799741
0.865568 0.699031 0.811002
0.000000 0.655665 0.747250
0.000000 0.651484 0.744930
0.158297 0.637629 0.739559
0.387366 0.628077 0.744900
0.566583 0.625940 0.765896
0.725399 0.666560 0.787076
0.804623 0.698817 0.798947
0.863890 0.724422 0.808835
0.504112 0.762448 0.783810
0.508843 0.761776 0.783688
0.526177 0.757839 0.782315
0.557641 0.749020 0.779110
0.600885 0.730159 0.771176
0.699886 0.725856 0.786709
0.797726 0.764034 0.811856
0.862669 0.741360 0.790372
0.677333 0.824704 0.817014
0.680171 0.825071 0.817746
0.688533 0.824308 0.818082
0.705440 0.823117 0.819242
0.729854 0.820218 0.820035
0.762234 0.816495 0.821500
0.779141 0.798886 0.800320
0.855253 0.777493 0.768673
0.787900 0.869505 0.857816
0.789303 0.869688 0.858335
0.795834 0.870787 0.860899
0.806180 0.871916 0.864591
0.810269 0.871672 0.865293
0.810697 0.870237 0.862913
0.794705 0.864622 0.843412
0.832090 0.867277 0.824979
0.000000 0.361456 0.828000
0.000000 0.356817 0.829435
0.000000 0.329046 0.831083
0.227634 0.349554 0.834592
0.544396 0.386389 0.838651
0.719997 0.454597 0.843076
0.821775 0.533410 0.845640
0.883635 0.591882 0.845823
0.000000 0.375982 0.823423
0.000000 0.371710 0.825040
0.000000 0.345251 0.827787
0.215152 0.358373 0.831235
0.538384 0.394263 0.835538
0.715633 0.460304 0.840299
0.818357 0.534447 0.842710
0.880583 0.590051 0.842710
0.000000 0.452766 0.818814
0.000000 0.448188 0.819791
0.000000 0.425269 0.822385
0.225742 0.416907 0.829770
0.534142 0.450050 0.833036
0.706752 0.505821 0.837247
0.811673 0.570642 0.841062
0.874723 0.615869 0.842466
0.000000 0.557946 0.811398
0.000000 0.557397 0.812467
0.000000 0.545464 0.815274
0.268742 0.518486 0.823087
0.520836 0.529839 0.829496
0.694545 0.577630 0.835416
0.803891 0.628473 0.842069
0.867613 0.661494 0.845548
0.000000 0.642206 0.803799
0.000000 0.641535 0.804990
0.000000 0.633845 0.806332
0.323430 0.627283 0.811612
0.495583 0.608576 0.821683
0.669856 0.636286 0.830747
0.793942 0.681209 0.842313
0.857511 0.710475 0.847837
0.356939 0.746944 0.819608
0.355505 0.744503 0.818418
0.359106 0.735592 0.814939
0.378668 0.718349 0.810239
0.470558 0.696590 0.810086
0.637659 0.696895 0.829740
0.781735 0.742184 0.848692
0.852537 0.772580 0.858457
0.601160 0.834257 0.851438
0.602258 0.833646 0.851194
0.607446 0.831144 0.850248
0.620447 0.826749 0.849332
0.641566 0.818509 0.847532
0.670466 0.801541 0.843381
0.754360 0.789334 0.850614
0.846708 0.823331 0.866667
0.735317 0.872374 0.867155
0.736049 0.872190 0.867063
0.740597 0.871885 0.867399
0.751431 0.871824 0.868711
0.768124 0.871336 0.870481
0.791440 0.870390 0.872892
0.821988 0.869261 0.876524
0.843626 0.864775 0.870603
