20 Preset/INSTA/【3】LUT video cho PR-AE-FCPX/INS LUT (15).cube
# Created by Adobe Lightroom plugin Export LUT (1.24.0)
# www.johnrellis.com/lightroom/exportlut.htm
# Preset: INS胶片-复古[素材江湖]15
# Color profile: C:\Program Files (x86)\Common Files\Adobe\Color\Profiles\Recommended\VideoHD.icc
LUT_3D_SIZE 5
DOMAIN_MIN 0.000000 0.000000 0.000000
DOMAIN_MAX 0.903226 0.903226 0.903226
0.139712 0.075441 0.090517
0.283879 0.000000 0.089296
0.762234 0.000000 0.000000
1.000000 0.000000 0.000000
1.000000 0.000000 0.000000
0.158602 0.174960 0.129641
0.230533 0.148836 0.111208
0.592065 0.115297 0.010468
0.991028 0.000000 0.000000
1.000000 0.091463 0.000000
0.000000 0.519829 0.288334
0.098360 0.503258 0.264164
0.520775 0.442390 0.180514
0.818051 0.460945 0.000000
1.000000 0.510857 0.000000
0.322942 0.748348 0.508019
0.368872 0.749081 0.506828
0.471473 0.744533 0.463874
0.740352 0.684199 0.368719
0.941253 0.713283 0.380163
0.649256 0.900572 0.733455
0.661036 0.900847 0.733425
0.681300 0.888914 0.714565
0.765164 0.888701 0.692378
0.907958 0.872007 0.666102
0.146059 0.093111 0.123262
0.237736 0.057801 0.128847
0.674525 0.000000 0.015595
0.979553 0.000000 0.000000
1.000000 0.000000 0.000000
0.167636 0.182376 0.161837
0.270481 0.175570 0.159976
0.590509 0.155642 0.090700
0.931518 0.139620 0.000000
1.000000 0.122866 0.000000
0.164858 0.500694 0.316472
0.236912 0.494759 0.298619
0.510185 0.424323 0.220645
0.790066 0.439246 0.095338
1.000000 0.503471 0.000000
0.376928 0.744778 0.525536
0.416480 0.746548 0.525536
0.503288 0.744991 0.493599
0.742245 0.684779 0.399420
0.937835 0.711604 0.396216
0.651453 0.898802 0.736263
0.662196 0.898589 0.735317
0.707546 0.900694 0.738277
0.778073 0.897124 0.712215
0.916197 0.881773 0.687984
0.130068 0.131533 0.232609
0.215122 0.172549 0.250645
0.653529 0.000000 0.324956
1.000000 0.000000 0.146181
1.000000 0.000000 0.000000
0.149020 0.162753 0.261112
0.268345 0.231052 0.303227
0.716274 0.168276 0.348241
0.982513 0.000000 0.165133
1.000000 0.215976 0.000000
0.000000 0.503502 0.395239
0.284062 0.529931 0.416999
0.615930 0.525200 0.419928
0.838224 0.503868 0.315770
1.000000 0.505486 0.144045
0.389960 0.735714 0.557244
0.490333 0.736599 0.571984
0.608576 0.746029 0.586725
0.760098 0.701778 0.509270
0.932799 0.713375 0.468666
0.595544 0.888304 0.727352
0.640803 0.889555 0.737118
0.707759 0.893614 0.745144
0.770016 0.893736 0.726864
0.908385 0.873045 0.693996
0.000000 0.196262 0.391272
0.026032 0.238193 0.432776
0.621637 0.558312 0.515251
0.917601 0.325170 0.569055
1.000000 0.000000 0.358953
0.000000 0.220462 0.401282
0.141695 0.265049 0.442451
0.634974 0.577783 0.541527
0.909697 0.404761 0.567803
1.000000 0.147127 0.381750
0.000000 0.306493 0.409735
0.000000 0.325628 0.432258
0.618250 0.585931 0.586755
0.903410 0.580591 0.585748
1.000000 0.549401 0.473915
0.000000 0.711910 0.589410
0.185580 0.719295 0.596521
0.623957 0.747555 0.646784
0.795621 0.742245 0.651850
0.960357 0.733791 0.582483
0.324529 0.887236 0.723751
0.411170 0.887144 0.728450
0.630274 0.890959 0.754421
0.796201 0.900328 0.785428
0.910643 0.876707 0.736751
0.000000 0.312047 0.620630
0.000000 0.344762 0.638392
0.477668 0.548852 0.688777
0.774746 0.726680 0.724758
1.000000 0.602625 0.753170
0.000000 0.307042 0.603662
0.000000 0.340795 0.625391
0.469398 0.545159 0.686030
0.782803 0.739376 0.729030
1.000000 0.626978 0.752804
0.000000 0.223026 0.478645
0.000000 0.259800 0.526299
0.336706 0.488045 0.664637
0.818265 0.788449 0.752773
0.992401 0.708064 0.767117
0.000000 0.479469 0.598627
0.000000 0.473945 0.597528
0.000000 0.457710 0.604364
0.766140 0.761074 0.760128
0.994385 0.801144 0.799893
0.000000 0.876463 0.770230
0.000000 0.876402 0.770352
0.000000 0.879637 0.777859
0.694667 0.890806 0.805966
0.926238 0.901427 0.842893
