20 Preset/INSTA/【3】LUT video cho PR-AE-FCPX/INS LUT (20).cube
# Created by Adobe Lightroom plugin Export LUT (1.24.0)
# www.johnrellis.com/lightroom/exportlut.htm
# Preset: INS胶片-自然[素材江湖]20
# Color profile: C:\Program Files (x86)\Common Files\Adobe\Color\Profiles\Recommended\VideoHD.icc
LUT_3D_SIZE 32
DOMAIN_MIN 0.0 0.0 0.0
DOMAIN_MAX 1.0 1.0 1.0
0.000000 0.000000 0.000000
0.006928 0.000305 0.000946
0.022095 0.001892 0.002686
0.053651 0.006073 0.006043
0.093935 0.011902 0.010925
0.125734 0.014862 0.016236
0.170047 0.006165 0.020752
0.224765 0.000000 0.022156
0.284916 0.000000 0.023651
0.348608 0.000000 0.022461
0.415534 0.000000 0.020264
0.482246 0.000000 0.019196
0.546258 0.000000 0.015747
0.605921 0.000000 0.012757
0.659266 0.000000 0.008087
0.705837 0.000000 0.005371
0.746212 0.000000 0.003296
0.782071 0.000000 0.004791
0.813596 0.000000 0.008270
0.841032 0.000000 0.017212
0.864927 0.000000 0.033417
0.895384 0.000000 0.069398
0.921324 0.000000 0.099062
0.942138 0.000000 0.119417
0.959106 0.000000 0.139559
0.973480 0.000000 0.160067
0.986419 0.000000 0.181582
0.998474 0.079469 0.204898
1.000000 0.184970 0.231296
1.000000 0.250980 0.262547
1.000000 0.309270 0.299931
1.000000 0.365423 0.343633
0.000793 0.006531 0.002472
0.002777 0.006317 0.002472
0.019928 0.007691 0.004211
0.052522 0.010651 0.006561
0.092744 0.016724 0.011444
0.124025 0.020111 0.016785
0.166262 0.012207 0.020386
0.218387 0.000000 0.023224
0.276677 0.000000 0.023774
0.338384 0.000000 0.023041
0.403113 0.000000 0.021271
0.469276 0.000000 0.018555
0.532952 0.000000 0.015747
0.593011 0.000000 0.013001
0.647028 0.000000 0.008759
0.695064 0.000000 0.006287
0.736721 0.000000 0.003265
0.773709 0.000000 0.003021
0.806180 0.000000 0.006653
0.834379 0.000000 0.014160
0.858732 0.000000 0.027832
0.888640 0.000000 0.058320
0.913695 0.000000 0.092256
0.934203 0.000000 0.111574
0.951171 0.000000 0.129946
0.965820 0.000000 0.148989
0.979248 0.000000 0.169253
0.991852 0.000000 0.191531
1.000000 0.139406 0.216739
1.000000 0.218967 0.246891
1.000000 0.282689 0.282506
1.000000 0.342046 0.325231
0.001160 0.028565 0.011902
0.002441 0.029541 0.011749
0.012543 0.031800 0.010101
0.048676 0.035523 0.011139
0.093080 0.039948 0.016175
0.124300 0.043366 0.020386
0.167056 0.032837 0.023133
0.217319 0.005188 0.023926
0.273716 0.000000 0.024598
0.333410 0.000000 0.022889
0.396918 0.000000 0.021485
0.461799 0.000000 0.018891
0.524559 0.000000 0.016236
0.584009 0.000000 0.012604
0.638331 0.000000 0.008484
0.686732 0.000000 0.004822
0.729122 0.000000 0.001953
0.766812 0.000000 0.001495
0.800290 0.000000 0.005310
0.829252 0.000000 0.011414
0.854337 0.000000 0.023957
0.884825 0.000000 0.054047
0.909361 0.000000 0.089357
0.929564 0.000000 0.107424
0.946410 0.000000 0.125490
0.961181 0.000000 0.143923
0.974731 0.000000 0.163394
0.987701 0.000000 0.185000
1.000000 0.122194 0.209751
1.000000 0.207828 0.239292
1.000000 0.272160 0.273991
1.000000 0.331762 0.315587
0.008728 0.067323 0.031312
0.009705 0.068299 0.032288
0.013825 0.071229 0.030671
0.037995 0.075349 0.027375
0.095094 0.087373 0.023560
0.129885 0.082582 0.026642
0.172610 0.074525 0.026917
0.221683 0.046418 0.026551
0.275975 0.000000 0.026154
0.333532 0.000000 0.024414
0.394873 0.000000 0.021759
0.456947 0.000000 0.018067
0.518303 0.000000 0.015381
0.576196 0.000000 0.010681
0.629450 0.000000 0.006744
0.677241 0.000000 0.003204
0.719478 0.000000 0.000824
0.756802 0.000000 0.000000
0.790402 0.000000 0.000153
0.820005 0.000000 0.007111
0.846555 0.000000 0.019379
0.876646 0.000000 0.045716
0.900450 0.000000 0.080140
0.921019 0.000000 0.101106
0.939025 0.000000 0.119203
0.955169 0.000000 0.138430
0.970031 0.000000 0.158785
0.984070 0.000000 0.181949
0.997436 0.136660 0.207401
1.000000 0.214542 0.236820
1.000000 0.274968 0.270665
1.000000 0.330327 0.310307
0.008728 0.104768 0.056062
0.010010 0.105074 0.055879
0.012879 0.105653 0.054444
0.030091 0.106783 0.050202
0.079255 0.110109 0.044312
0.133028 0.122560 0.026642
0.176181 0.111543 0.028748
0.223087 0.101137 0.028351
0.274540 0.082734 0.025818
0.328954 0.019837 0.022858
0.387274 0.000000 0.019593
0.447486 0.000000 0.016083
0.507042 0.000000 0.012360
0.564691 0.000000 0.007477
0.618250 0.000000 0.002960
0.666926 0.000000 0.000000
0.710506 0.000000 0.000000
0.749325 0.000000 0.000000
0.783902 0.000000 0.000000
0.814145 0.000000 0.002930
0.843961 0.000000 0.016602
0.872343 0.000000 0.039643
0.895506 0.000000 0.076387
0.915984 0.000000 0.098634
0.934295 0.000000 0.117586
0.950805 0.000000 0.136446
0.966033 0.000000 0.157504
0.980285 0.008728 0.180026
0.993683 0.163241 0.205478
1.000000 0.227390 0.234226
1.000000 0.281895 0.267247
1.000000 0.333440 0.305547
0.000000 0.145022 0.081514
0.000000 0.145022 0.080781
0.000000 0.144747 0.078706
0.000000 0.144594 0.074495
0.037873 0.147219 0.066041
0.105928 0.150454 0.054810
0.178408 0.170504 0.013458
0.230198 0.153689 0.017700
0.280217 0.132357 0.021271
0.333715 0.116091 0.016175
0.390051 0.083925 0.013275
0.448310 0.000000 0.008515
0.506188 0.000000 0.004517
0.562341 0.000000 0.000000
0.615290 0.000000 0.000000
0.663630 0.000000 0.000000
0.707210 0.000000 0.000000
0.746273 0.000000 0.000000
0.780972 0.000000 0.000000
0.811246 0.000000 0.000000
0.844327 0.000000 0.012207
0.871336 0.000000 0.040070
0.933837 0.000000 0.124361
0.952300 0.074647 0.148867
0.967895 0.163485 0.172335
0.981292 0.214755 0.196994
0.993347 0.256016 0.222110
1.000000 0.293797 0.249119
1.000000 0.330541 0.279210
1.000000 0.367285 0.312474
1.000000 0.404059 0.349615
1.000000 0.440375 0.389715
0.000000 0.215671 0.104555
0.000000 0.215518 0.104250
0.000000 0.214145 0.102174
0.000000 0.212345 0.098390
0.000000 0.210636 0.092042
0.068116 0.212894 0.081331
0.149630 0.215152 0.059449
0.246891 0.242435 0.000000
0.311467 0.221775 0.000000
0.367987 0.191928 0.000000
0.425696 0.164126 0.000000
0.483833 0.141238 0.000000
0.539757 0.106844 0.000000
0.592676 0.002472 0.000000
0.641108 0.000000 0.000000
0.684810 0.000000 0.000000
0.724361 0.000000 0.000000
0.760128 0.000000 0.000000
0.792508 0.000000 0.000000
0.828031 0.000000 0.000000
0.861509 0.000000 0.027070
0.889708 0.000000 0.078614
0.914580 0.000000 0.108248
0.936400 0.141726 0.134615
0.954955 0.196902 0.161379
0.970275 0.238773 0.187106
0.983429 0.273075 0.212589
0.995178 0.304723 0.238712
1.000000 0.336645 0.267491
1.000000 0.368383 0.299016
1.000000 0.401526 0.334295
1.000000 0.435279 0.372930
0.000000 0.269535 0.126406
0.000000 0.269139 0.126040
0.000000 0.267674 0.123568
0.000000 0.264897 0.118959
0.000000 0.260349 0.112581
0.000000 0.260075 0.104433
0.108675 0.262028 0.094423
0.185916 0.263920 0.076356
0.283848 0.289586 0.000000
0.364538 0.279728 0.000000
0.421698 0.251072 0.000000
0.476661 0.217166 0.000000
0.530480 0.195041 0.000000
0.581506 0.174716 0.000000
0.629053 0.150851 0.000000
0.672236 0.122805 0.000000
0.711757 0.089296 0.000000
0.747829 0.009216 0.000000
0.785702 0.000000 0.000000
0.822019 0.024079 0.000000
0.852659 0.097230 0.015320
0.879454 0.136324 0.064973
0.903624 0.175143 0.103487
0.925292 0.211612 0.130129
0.944091 0.244968 0.156893
0.959960 0.273991 0.182040
0.973693 0.300694 0.207095
0.986053 0.326268 0.233066
0.997589 0.353033 0.261265
1.000000 0.381048 0.292393
1.000000 0.410285 0.326696
1.000000 0.441382 0.365179
0.000000 0.325750 0.153597
0.000000 0.325536 0.152651
0.000000 0.323857 0.150820
0.000000 0.320653 0.146273
0.000000 0.315496 0.139528
0.000000 0.309453 0.130709
0.000000 0.310918 0.121767
0.149447 0.312627 0.109560
0.226017 0.314244 0.094179
0.323980 0.337743 0.000000
0.417670 0.339117 0.000000
0.472633 0.312779 0.000000
0.524987 0.282322 0.000000
0.573816 0.248966 0.000000
0.620386 0.234623 0.000000
0.662989 0.220127 0.000000
0.702052 0.206851 0.000000
0.743984 0.201968 0.000000
0.782528 0.202426 0.000000
0.815488 0.207553 0.000000
0.844358 0.217197 0.002197
0.869993 0.232212 0.056825
0.893614 0.250889 0.101625
0.915099 0.272709 0.129183
0.933989 0.295048 0.156100
0.950225 0.315953 0.181369
0.964446 0.336126 0.206394
0.977325 0.356725 0.232364
0.989380 0.378820 0.260716
1.000000 0.402228 0.291356
1.000000 0.427741 0.325353
1.000000 0.454841 0.362921
0.000000 0.382391 0.184634
0.000000 0.381598 0.183993
0.000000 0.379614 0.181674
0.000000 0.375982 0.177310
0.000000 0.370581 0.170626
0.000000 0.362737 0.160952
0.000000 0.358373 0.151034
0.093690 0.359380 0.141451
0.193332 0.360235 0.129183
0.268162 0.361212 0.113741
0.360204 0.381170 0.026520
0.461555 0.392340 0.000000
0.514153 0.367132 0.000000
0.562402 0.342016 0.000000
0.608820 0.311894 0.000000
0.654841 0.291814 0.000000
0.700649 0.288640 0.000000
0.741512 0.287358 0.000000
0.777523 0.287602 0.000000
0.808652 0.289921 0.000000
0.835874 0.293980 0.000000
0.859800 0.300542 0.050843
0.881773 0.309941 0.099825
0.902068 0.321691 0.125551
0.920348 0.334722 0.150515
0.936675 0.348608 0.175113
0.951568 0.363561 0.199771
0.965423 0.380102 0.225834
0.978515 0.399084 0.254551
0.990967 0.420172 0.286015
1.000000 0.443488 0.321080
1.000000 0.468910 0.359869
0.000000 0.430793 0.215610
0.000000 0.430304 0.215000
0.000000 0.428717 0.212772
0.000000 0.425696 0.208347
0.000000 0.420996 0.202060
0.000000 0.414649 0.193912
0.000000 0.405951 0.182284
0.000000 0.406043 0.173617
0.159915 0.407080 0.163485
0.243015 0.408209 0.151400
0.315190 0.408606 0.136538
0.398474 0.424811 0.094728
0.503044 0.443702 0.000000
0.560357 0.426062 0.000000
0.608576 0.406744 0.000000
0.653742 0.385931 0.000000
0.695827 0.361822 0.000000
0.734157 0.354650 0.000000
0.768002 0.353643 0.000000
0.797818 0.353277 0.000000
0.824338 0.354528 0.000000
0.847929 0.357488 0.050172
0.869963 0.363134 0.101228
0.890379 0.370581 0.128389
0.909087 0.379522 0.153414
0.925902 0.389807 0.178164
0.941375 0.401129 0.202976
0.955840 0.414160 0.229282
0.969482 0.429603 0.258518
0.982544 0.447303 0.290043
0.994995 0.467414 0.325261
1.000000 0.489723 0.364141
0.000000 0.481880 0.251194
0.000000 0.481605 0.250797
0.000000 0.480415 0.249149
0.000000 0.477943 0.245274
0.000000 0.473732 0.239017
0.000000 0.468055 0.231022
0.000000 0.460426 0.219699
0.000000 0.454261 0.208408
0.129793 0.455116 0.199741
0.227573 0.458625 0.191592
0.304387 0.462501 0.181552
0.375128 0.465675 0.168612
0.503380 0.523949 0.173770
0.605035 0.547662 0.009735
0.655177 0.534020 0.000000
0.694514 0.516747 0.000000
0.729885 0.499214 0.000000
0.763455 0.478309 0.000000
0.793484 0.460060 0.013123
0.819181 0.458167 0.085267
0.842557 0.457710 0.115236
0.864012 0.458656 0.140871
0.883726 0.460945 0.164950
0.901854 0.464759 0.188602
0.918364 0.469429 0.212680
0.933379 0.474647 0.236149
0.947173 0.480446 0.260044
0.959930 0.487709 0.284703
0.972137 0.496864 0.311589
0.983948 0.508598 0.341192
0.995331 0.522759 0.374121
1.000000 0.540124 0.411353
0.000000 0.557427 0.316869
0.000000 0.557153 0.316808
0.000000 0.555352 0.314244
0.000000 0.552728 0.309636
0.000000 0.548455 0.302281
0.000000 0.542870 0.293400
0.000000 0.536126 0.281621
0.000000 0.527916 0.267613
0.165011 0.527031 0.258671
0.253971 0.530175 0.252415
0.328954 0.534569 0.245762
0.399512 0.539544 0.238468
0.466804 0.544030 0.230045
0.538659 0.557336 0.210269
0.631769 0.582300 0.133639
0.679988 0.573175 0.000000
0.713588 0.556512 0.000000
0.744137 0.539452 0.000000
0.772915 0.521202 0.023865
0.799771 0.501457 0.092622
0.823880 0.491676 0.119783
0.845701 0.490791 0.142855
0.866087 0.491127 0.165774
0.885069 0.492958 0.188449
0.902525 0.495735 0.211856
0.918578 0.499489 0.235111
0.933440 0.504173 0.259403
0.947417 0.510307 0.284672
0.960693 0.518395 0.312444
0.973541 0.528985 0.343175
0.985809 0.541772 0.376715
0.997528 0.557458 0.414069
0.219059 0.605859 0.371069
0.217624 0.605280 0.370245
0.213687 0.603082 0.366705
0.207980 0.599756 0.361212
0.199619 0.594751 0.352605
0.191287 0.588617 0.342107
0.183261 0.581598 0.329259
0.177493 0.573510 0.314733
0.181277 0.565545 0.299077
0.258854 0.567315 0.293187
0.327153 0.570214 0.287846
0.391485 0.573785 0.282170
0.453407 0.577111 0.274998
0.511223 0.579522 0.266667
0.571344 0.588586 0.248173
0.649653 0.607996 0.189822
0.698085 0.603723 0.118379
0.727443 0.587549 0.113344
0.754849 0.571862 0.107149
0.780362 0.556146 0.108797
0.805295 0.539055 0.132387
0.829496 0.522515 0.151949
0.850523 0.521721 0.173434
0.870329 0.522606 0.195712
0.888640 0.524376 0.218509
0.905516 0.527092 0.241550
0.921233 0.530694 0.265721
0.935943 0.535637 0.291264
0.950011 0.542382 0.319005
0.963622 0.551537 0.349767
0.976623 0.563104 0.383978
0.989075 0.577386 0.421790
0.303624 0.640620 0.417243
0.302403 0.640131 0.416327
0.299199 0.638392 0.413214
0.292332 0.635126 0.406867
0.284031 0.630549 0.398322
0.274479 0.624689 0.387518
0.264714 0.618158 0.374609
0.255344 0.610803 0.359869
0.248356 0.602991 0.344152
0.274205 0.599237 0.332433
0.333593 0.601221 0.328008
0.390997 0.603937 0.323064
0.446387 0.606531 0.317662
0.498756 0.608270 0.310430
0.547295 0.608637 0.300572
0.597589 0.614008 0.282719
0.664027 0.628992 0.235050
0.712001 0.628901 0.175204
0.739834 0.614313 0.160525
0.764584 0.599847 0.157137
0.788388 0.586511 0.153384
0.812131 0.572320 0.171054
0.835050 0.558373 0.187625
0.856382 0.550744 0.206546
0.875273 0.551690 0.228183
0.892882 0.553674 0.251225
0.909483 0.556786 0.275242
0.925170 0.561578 0.301915
0.940368 0.568322 0.331579
0.955077 0.577600 0.364904
0.969238 0.589471 0.401892
0.982696 0.604120 0.442817
0.363653 0.664942 0.455390
0.362982 0.664820 0.454810
0.361334 0.663874 0.452735
0.357183 0.661921 0.448188
0.351751 0.659052 0.441627
0.344732 0.655268 0.432776
0.337896 0.651179 0.422614
0.330602 0.646113 0.410040
0.323552 0.640436 0.396094
0.315435 0.633570 0.379217
0.355108 0.632990 0.372412
0.401740 0.633478 0.366705
0.447272 0.633600 0.359686
0.491035 0.633112 0.351385
0.532677 0.631800 0.340856
0.572564 0.629725 0.328832
0.615808 0.632563 0.310521
0.673487 0.644831 0.271397
0.721492 0.648341 0.219852
0.749325 0.636286 0.197177
0.773129 0.624201 0.197330
0.796475 0.613428 0.196414
0.819394 0.602319 0.208865
0.841794 0.591180 0.226627
0.863401 0.580285 0.244205
0.882139 0.581262 0.267124
0.899504 0.584375 0.292058
0.915984 0.588830 0.319463
0.931731 0.594934 0.349371
0.946807 0.603021 0.382208
0.961242 0.613184 0.418280
0.974975 0.625666 0.457221
0.411292 0.684382 0.489143
0.410773 0.684169 0.488502
0.409400 0.683497 0.486854
0.406317 0.682155 0.483162
0.402136 0.680049 0.477790
0.396612 0.677302 0.470375
0.390356 0.673945 0.461189
0.383368 0.669886 0.450050
0.375891 0.665126 0.436957
0.367742 0.659541 0.421729
0.370123 0.654536 0.406897
0.409277 0.654719 0.402014
0.448280 0.654627 0.395880
0.486397 0.654047 0.388556
0.523796 0.652827 0.379797
0.559869 0.650874 0.368933
0.594903 0.648554 0.356970
0.633143 0.650416 0.340520
0.683955 0.661036 0.308354
0.731930 0.667536 0.262760
0.760189 0.658473 0.235203
0.783200 0.648280 0.236942
0.805722 0.639399 0.238682
0.827756 0.630671 0.250156
0.849393 0.621546 0.268467
0.870359 0.613153 0.287510
0.889860 0.609888 0.309667
0.906981 0.614405 0.338109
0.923400 0.620386 0.368811
0.939117 0.628077 0.402472
0.954101 0.637781 0.439094
0.968322 0.649622 0.478431
0.458747 0.703853 0.525719
0.459327 0.704036 0.526116
0.505241 0.723537 0.564111
0.502983 0.722499 0.561212
0.499031 0.720790 0.556176
0.493965 0.718379 0.549401
0.487587 0.715419 0.540764
0.480201 0.711849 0.530022
0.472206 0.707851 0.517693
0.463172 0.703151 0.502922
0.453040 0.697597 0.485512
0.465949 0.695033 0.475410
0.492653 0.694026 0.468635
0.520226 0.692500 0.460700
0.547814 0.690272 0.450904
0.575647 0.687526 0.439612
0.603540 0.684047 0.426398
0.631617 0.680354 0.412238
0.662928 0.680201 0.395544
0.705135 0.688228 0.367498
0.751919 0.696742 0.326818
0.779629 0.689662 0.295811
0.800961 0.680751 0.297276
0.821744 0.672755 0.299840
0.841733 0.664454 0.309392
0.861265 0.655909 0.326055
0.880430 0.648035 0.343206
0.899443 0.641260 0.362799
0.915892 0.645319 0.391272
0.931762 0.652125 0.424231
0.947112 0.661006 0.460121
0.961639 0.671962 0.498817
0.512078 0.727047 0.570947
0.515648 0.728725 0.574029
0.518822 0.730159 0.576532
0.520378 0.730861 0.577111
0.520287 0.730739 0.575738
0.517113 0.729213 0.570916
0.511833 0.726772 0.563592
0.505150 0.723629 0.554101
0.497719 0.720027 0.542992
0.489113 0.715846 0.529686
0.479835 0.711055 0.514488
0.470008 0.705501 0.496864
0.492775 0.704616 0.491005
0.516442 0.703395 0.484138
0.540856 0.701717 0.476081
0.565942 0.699550 0.466560
0.591455 0.697108 0.456001
0.617517 0.694423 0.444709
0.644129 0.691707 0.432624
0.673671 0.692348 0.418952
0.712337 0.700496 0.397040
0.759335 0.711818 0.362768
0.788235 0.707942 0.332464
0.809354 0.700282 0.331975
0.829160 0.693355 0.336065
0.848478 0.686336 0.347784
0.867430 0.679347 0.365850
0.886290 0.673365 0.385626
0.905241 0.669154 0.408453
0.922942 0.671107 0.437995
0.938872 0.679652 0.474159
0.953979 0.690333 0.513054
0.536370 0.739040 0.593317
0.539605 0.740658 0.596277
0.542596 0.742123 0.598779
0.544396 0.743069 0.599847
0.544488 0.743130 0.598840
0.542351 0.741970 0.595209
0.538201 0.739986 0.589258
0.532647 0.737209 0.581170
0.526177 0.734035 0.571527
0.518425 0.730373 0.559808
0.509819 0.726162 0.546197
0.500206 0.721248 0.530297
0.501213 0.717525 0.517082
0.521324 0.716670 0.511406
0.542382 0.715358 0.504601
0.564172 0.713741 0.496651
0.586786 0.711727 0.487678
0.609979 0.709560 0.477790
0.633997 0.707332 0.467659
0.658595 0.705318 0.457313
0.685908 0.706081 0.445594
0.720943 0.714199 0.428656
0.765682 0.725704 0.399939
0.796292 0.725490 0.372869
0.817899 0.719326 0.367132
0.837125 0.713558 0.373388
0.855802 0.707759 0.388403
0.874418 0.702541 0.408972
0.893278 0.698787 0.432227
0.912261 0.697047 0.459022
0.931060 0.698054 0.489570
0.946685 0.708217 0.527764
0.559960 0.751766 0.616175
0.562646 0.753201 0.618769
0.564843 0.754452 0.620661
0.566400 0.755245 0.621668
0.566369 0.755306 0.620752
0.564660 0.754330 0.617731
0.561364 0.752682 0.612787
0.557000 0.750332 0.606165
0.551690 0.747677 0.598077
0.545434 0.744503 0.588281
0.538201 0.740871 0.576684
0.529747 0.736690 0.562982
0.519524 0.731746 0.546349
0.530388 0.730037 0.538537
0.548455 0.729122 0.532769
0.567468 0.728176 0.526513
0.587793 0.727199 0.520134
0.609400 0.726314 0.513573
0.631922 0.725704 0.506981
0.655329 0.725368 0.500816
0.679225 0.725307 0.494759
0.705440 0.727749 0.488075
0.737392 0.736690 0.478645
0.779995 0.749294 0.458259
0.812161 0.753231 0.439063
0.835019 0.749813 0.432776
0.854093 0.746456 0.445106
0.872801 0.743282 0.467018
0.891630 0.741390 0.493080
0.910460 0.741268 0.521477
0.929107 0.743099 0.552361
0.947326 0.746670 0.584558
0.597345 0.773831 0.654475
0.598322 0.774380 0.655421
0.598627 0.774563 0.655482
0.598199 0.774350 0.654658
0.596826 0.773587 0.652491
0.594598 0.772244 0.649104
0.591363 0.770474 0.644373
0.587732 0.768399 0.638727
0.583490 0.766049 0.631983
0.578729 0.763485 0.624170
0.573236 0.760586 0.615045
0.566888 0.757198 0.604150
0.558862 0.753109 0.590539
0.553246 0.749081 0.576440
0.567590 0.748409 0.571740
0.582971 0.747585 0.566369
0.599481 0.746670 0.560571
0.616999 0.745754 0.554284
0.635645 0.744930 0.547875
0.655360 0.744198 0.541497
0.675868 0.743587 0.534874
0.696956 0.743130 0.528496
0.719966 0.744686 0.521508
0.747707 0.752346 0.513848
0.787411 0.764279 0.496223
0.820310 0.770687 0.480293
0.844114 0.769039 0.472389
0.863310 0.767391 0.488075
0.882017 0.766018 0.515435
0.900725 0.766232 0.544305
0.919371 0.768002 0.574304
0.937743 0.771206 0.604700
0.616052 0.786099 0.674678
0.616693 0.786526 0.675349
0.617029 0.786740 0.675502
0.616724 0.786618 0.674800
0.615625 0.786038 0.673091
0.613825 0.784970 0.670283
0.611231 0.783536 0.666377
0.608118 0.781796 0.661585
0.604730 0.779904 0.656062
0.600977 0.777768 0.649622
0.596674 0.775357 0.642145
0.591547 0.772610 0.633143
0.585473 0.769314 0.622400
0.578271 0.765530 0.609491
0.581201 0.763424 0.600732
0.594537 0.763058 0.596918
0.609033 0.762722 0.592737
0.624445 0.762325 0.588220
0.640864 0.762020 0.583581
0.658198 0.761807 0.578912
0.676448 0.761746 0.574182
0.695308 0.761807 0.569451
0.714748 0.761898 0.564538
0.735836 0.763668 0.559533
0.755856 0.765072 0.541894
0.793149 0.776730 0.527764
0.827329 0.785885 0.515679
0.851804 0.786191 0.509392
0.871366 0.785824 0.528557
0.890196 0.786282 0.558343
0.909209 0.788388 0.588800
0.928008 0.791775 0.619257
0.642664 0.803494 0.703731
0.643824 0.804227 0.704982
0.644038 0.804410 0.705074
0.643183 0.803983 0.703853
0.641382 0.802945 0.701472
0.638727 0.801450 0.697932
0.635401 0.799557 0.693385
0.631495 0.797391 0.687953
0.627222 0.794980 0.681758
0.622736 0.792477 0.674952
0.617670 0.789700 0.667170
0.612451 0.786801 0.658503
0.606592 0.783536 0.648585
0.599939 0.779751 0.636988
0.591882 0.775418 0.622980
0.600519 0.774105 0.617365
0.612238 0.773251 0.612665
0.625360 0.772671 0.608362
0.639979 0.772488 0.604486
0.655970 0.772763 0.601251
0.672816 0.773281 0.598108
0.690211 0.773800 0.594842
0.707820 0.773983 0.590784
0.725551 0.773861 0.585840
0.744411 0.774594 0.580011
0.767636 0.781338 0.575494
0.801541 0.792172 0.565240
0.836332 0.803067 0.556085
0.860838 0.804593 0.551232
0.880735 0.805112 0.571313
0.899596 0.806882 0.601007
0.918486 0.810178 0.630823
0.655573 0.812650 0.718227
0.656611 0.813352 0.719356
0.657130 0.813687 0.719783
0.656703 0.813535 0.719081
0.655695 0.812985 0.717617
0.654139 0.812161 0.715358
0.652155 0.811154 0.712490
0.649744 0.809964 0.708919
0.647059 0.808621 0.704768
0.644099 0.807156 0.700008
0.640558 0.805447 0.694240
0.636622 0.803464 0.687617
0.632044 0.801114 0.679713
0.626520 0.798306 0.670253
0.620172 0.794888 0.658961
0.617548 0.791867 0.648707
0.627253 0.791073 0.644709
0.638361 0.790555 0.641047
0.650752 0.790494 0.637873
0.664546 0.790890 0.635279
0.679377 0.791562 0.633173
0.694881 0.792416 0.631098
0.710842 0.793149 0.628687
0.727169 0.793729 0.625788
0.743679 0.794064 0.622278
0.761288 0.795163 0.618555
0.783719 0.802518 0.617487
0.815305 0.813443 0.612787
0.850614 0.826139 0.609583
0.875669 0.830259 0.610742
0.896574 0.832242 0.630060
0.914885 0.835203 0.658686
0.674891 0.826139 0.739620
0.675380 0.826474 0.740200
0.675441 0.826566 0.740139
0.674922 0.826322 0.739406
0.673945 0.825834 0.738064
0.672480 0.825101 0.736049
0.670680 0.824186 0.733486
0.668482 0.823117 0.730312
0.666072 0.821958 0.726741
0.663416 0.820737 0.722621
0.660365 0.819303 0.717739
0.657008 0.817838 0.712306
0.653223 0.816098 0.705867
0.648676 0.813962 0.698116
0.643214 0.811307 0.688716
0.637263 0.808347 0.678035
0.640284 0.806821 0.671656
0.649744 0.806455 0.668452
0.660517 0.806516 0.665888
0.672602 0.807065 0.664027
0.685756 0.807919 0.662531
0.699672 0.808896 0.661189
0.713954 0.809781 0.659388
0.728634 0.810483 0.657252
0.743587 0.810971 0.654597
0.758938 0.811215 0.651362
0.775296 0.812131 0.648341
0.796902 0.819425 0.648646
0.826444 0.830045 0.647211
0.860929 0.843381 0.648615
0.887510 0.850156 0.655177
0.908324 0.853361 0.673579
0.690700 0.837552 0.757107
0.691066 0.837827 0.757504
0.691249 0.837980 0.757595
0.691066 0.837949 0.757229
0.690700 0.837858 0.756619
0.690272 0.837827 0.755825
0.690181 0.838102 0.755306
0.690181 0.838529 0.754757
0.690425 0.839109 0.754269
0.690547 0.839811 0.753506
0.690639 0.840574 0.752590
0.690333 0.841215 0.751003
0.689570 0.841672 0.748684
0.687984 0.841703 0.745144
0.685634 0.841306 0.740414
0.682063 0.840208 0.733822
0.678004 0.838865 0.726070
0.685695 0.839017 0.724178
0.694667 0.839567 0.722866
0.704738 0.840482 0.722042
0.715755 0.841672 0.721584
0.727535 0.842954 0.721248
0.739712 0.844083 0.720485
0.752346 0.845060 0.719478
0.765377 0.845792 0.717891
0.778836 0.846403 0.715999
0.792935 0.846952 0.714046
0.807919 0.847990 0.712337
0.828550 0.855283 0.715114
0.854856 0.864866 0.717433
0.881559 0.875639 0.723140
0.896605 0.870695 0.701961
0.721798 0.858854 0.789670
0.721828 0.858854 0.789609
0.721553 0.858732 0.789303
0.721065 0.858549 0.788724
0.720333 0.858274 0.787839
0.719387 0.857939 0.786648
0.718441 0.857664 0.785367
0.717464 0.857450 0.783932
0.716396 0.857328 0.782345
0.715358 0.857298 0.780636
0.714107 0.857267 0.778561
0.712886 0.857328 0.776333
0.711330 0.857328 0.773556
0.709407 0.857176 0.770169
