20 Preset/INSTA/【3】LUT video cho PR-AE-FCPX/INS LUT (21).cube
# Created by Adobe Lightroom plugin Export LUT (1.24.0)
# www.johnrellis.com/lightroom/exportlut.htm
# Preset: INS胶片-自然[素材江湖]21
# Color profile: C:\Program Files (x86)\Common Files\Adobe\Color\Profiles\Recommended\VideoHD.icc
LUT_3D_SIZE 5
DOMAIN_MIN 0.000000 0.000000 0.000000
DOMAIN_MAX 0.903226 0.903226 0.903226
0.028687 0.035340 0.052186
0.345373 0.071473 0.100832
0.838285 0.215976 0.150790
0.971740 0.523186 0.349981
1.000000 0.675959 0.570794
0.000000 0.413916 0.135775
0.452735 0.422370 0.193027
0.803738 0.381964 0.146883
0.952209 0.554467 0.342504
0.998260 0.694148 0.582544
0.379828 0.808072 0.536919
0.579187 0.799954 0.596033
0.816373 0.796902 0.642725
0.909392 0.702571 0.461250
0.977783 0.737667 0.592309
0.672084 0.889586 0.754604
0.708156 0.889250 0.772152
0.792355 0.885374 0.796170
0.880400 0.880461 0.807736
0.929046 0.849973 0.763577
0.804410 0.918730 0.860929
0.813352 0.918212 0.864561
0.842771 0.915160 0.877684
0.872404 0.913603 0.883055
0.902068 0.912169 0.888640
0.042908 0.071962 0.199680
0.412360 0.108095 0.236667
0.814694 0.342199 0.302770
0.939818 0.541344 0.415778
0.989380 0.678187 0.586938
0.000000 0.434028 0.311528
0.492592 0.450538 0.349248
0.790127 0.445655 0.299687
0.928466 0.569482 0.410376
0.984771 0.691554 0.591394
0.464546 0.794675 0.578576
0.611536 0.792538 0.633417
0.803922 0.785885 0.659632
0.894285 0.692409 0.477577
0.969268 0.742184 0.615442
0.685298 0.887449 0.765255
0.717556 0.887785 0.780575
0.797513 0.884764 0.805325
0.878874 0.880064 0.815061
0.926940 0.849699 0.768154
0.805631 0.918395 0.862577
0.814237 0.917876 0.865873
0.848234 0.915801 0.882322
0.874754 0.914153 0.886992
0.902190 0.912871 0.892058
0.000000 0.091737 0.439307
0.215763 0.295262 0.393072
0.852995 0.539300 0.608728
0.902007 0.655329 0.636805
0.955871 0.734249 0.702663
0.401312 0.182193 0.549096
0.522454 0.524987 0.569421
0.800839 0.646815 0.646845
0.894133 0.667353 0.628260
0.953033 0.743496 0.705440
0.517479 0.783963 0.674006
0.673487 0.793698 0.719265
0.798947 0.793698 0.742519
0.872129 0.711055 0.600031
0.945220 0.771023 0.707027
0.714321 0.881407 0.794308
0.735164 0.882109 0.800565
0.810361 0.883482 0.831174
0.875792 0.880919 0.839780
0.921691 0.846891 0.780362
0.798581 0.917296 0.863828
0.809628 0.916930 0.867643
0.844297 0.915557 0.882048
0.875395 0.913848 0.891569
0.901183 0.912596 0.895384
0.176669 0.090669 0.603388
0.216434 0.239750 0.605585
0.669551 0.617426 0.682704
0.904295 0.745174 0.782620
0.919768 0.805600 0.813993
0.449928 0.214359 0.654566
0.462562 0.362005 0.671321
0.725399 0.687709 0.732845
0.888151 0.764370 0.787442
0.918761 0.805570 0.810269
0.279728 0.577935 0.745418
0.531823 0.644495 0.763638
0.810056 0.814420 0.816739
0.857176 0.793301 0.785336
0.917357 0.816617 0.807279
0.655085 0.866880 0.799130
0.706477 0.870848 0.813413
0.819699 0.883818 0.856504
0.871336 0.880705 0.861814
0.918090 0.839719 0.800992
0.741817 0.918975 0.855528
0.766812 0.917845 0.862394
0.836515 0.915007 0.885130
0.877653 0.914641 0.901061
0.900420 0.913359 0.903197
0.375341 0.000000 0.765225
0.364508 0.107210 0.768338
0.557794 0.586023 0.725154
0.849577 0.774197 0.852018
0.925780 0.844083 0.870268
0.476692 0.000000 0.765927
0.466285 0.141787 0.776028
0.584527 0.604120 0.742855
0.854490 0.788418 0.857023
0.921263 0.850340 0.872770
0.619196 0.000000 0.762997
0.662654 0.000000 0.776913
0.686641 0.654566 0.806973
0.865476 0.839841 0.875090
0.908537 0.869566 0.881804
0.000000 0.671687 0.840330
0.000000 0.678492 0.841764
0.593194 0.731533 0.852934
0.868711 0.887449 0.892027
0.897551 0.888609 0.891814
0.440497 0.924865 0.847105
0.519768 0.922332 0.851041
0.709346 0.916197 0.869444
0.866789 0.913146 0.902800
0.899046 0.914183 0.912108
