20 Preset/INSTA/【3】LUT video cho PR-AE-FCPX/INS LUT (13).cube
# Created by Adobe Lightroom plugin Export LUT (1.24.0)
# www.johnrellis.com/lightroom/exportlut.htm
# Preset: INS胶片-复古[素材江湖]13
# Color profile: C:\Program Files (x86)\Common Files\Adobe\Color\Profiles\Recommended\VideoHD.icc
LUT_3D_SIZE 5
DOMAIN_MIN 0.000000 0.000000 0.000000
DOMAIN_MAX 0.903226 0.903226 0.903226
0.139712 0.075441 0.090517
0.363409 0.035554 0.095033
0.775113 0.154452 0.000000
0.967254 0.375128 0.076967
1.000000 0.540490 0.257847
0.081758 0.282628 0.165225
0.356451 0.310033 0.087617
0.662470 0.226688 0.000000
0.934478 0.394598 0.000000
1.000000 0.551293 0.245670
0.000000 0.574914 0.325719
0.000000 0.544793 0.273533
0.689265 0.687434 0.270176
0.900298 0.557244 0.000000
0.995819 0.554559 0.142733
0.000000 0.732418 0.453254
0.000000 0.726314 0.430060
0.000000 0.699245 0.335607
0.819730 0.814786 0.505150
0.989960 0.778470 0.425971
0.332891 0.860746 0.614099
0.355261 0.858946 0.607294
0.332586 0.839536 0.544793
0.531792 0.852537 0.524773
0.927825 0.917479 0.664332
0.151644 0.136568 0.195254
0.309087 0.109712 0.207218
0.728786 0.232944 0.147616
0.926024 0.358373 0.000000
1.000000 0.509178 0.211521
0.130983 0.295506 0.267185
0.375860 0.308782 0.266575
0.675654 0.307012 0.184909
0.898466 0.377325 0.000000
1.000000 0.516472 0.195438
0.000000 0.573297 0.366430
0.240970 0.570611 0.364050
0.663630 0.656397 0.350378
0.864530 0.535882 0.200504
0.987366 0.544671 0.120546
0.000000 0.733791 0.474678
0.177401 0.732265 0.478248
0.241459 0.706508 0.389410
0.816556 0.810697 0.540917
0.979767 0.776638 0.467384
0.301152 0.861051 0.617731
0.393133 0.857694 0.622553
0.422431 0.851804 0.586633
0.543786 0.856199 0.546990
0.932067 0.922454 0.686244
0.095613 0.305211 0.438788
0.312749 0.343359 0.438758
0.670558 0.331731 0.512016
0.938781 0.460090 0.429847
1.000000 0.575586 0.376471
0.161349 0.375402 0.471778
0.369726 0.420478 0.486488
0.693019 0.448554 0.537194
0.901610 0.579492 0.496193
1.000000 0.590845 0.390814
0.000000 0.604395 0.532799
0.261845 0.618860 0.542535
0.675685 0.652491 0.569207
0.834867 0.602136 0.473243
0.974029 0.616419 0.396307
0.000000 0.745480 0.550958
0.166995 0.741238 0.551507
0.551019 0.735714 0.569451
0.810605 0.802152 0.631739
0.948089 0.758999 0.545464
0.000000 0.861082 0.625452
0.148226 0.859007 0.630945
0.527214 0.850095 0.649775
0.545556 0.835538 0.578820
0.924559 0.916197 0.714656
0.131563 0.492470 0.641352
0.316716 0.515343 0.644953
0.650446 0.632471 0.642206
0.832822 0.584527 0.697169
1.000000 0.595727 0.625208
0.250614 0.525475 0.644343
0.368048 0.543267 0.647364
0.656153 0.642573 0.651057
0.826963 0.616632 0.695827
0.990509 0.624781 0.631067
0.000000 0.570489 0.634394
0.218967 0.575616 0.636530
0.645472 0.662898 0.666651
0.818082 0.697261 0.698695
0.952392 0.742733 0.684352
0.000000 0.744503 0.669429
0.233158 0.745846 0.670832
0.565454 0.758267 0.684840
0.801297 0.787381 0.716091
0.918914 0.751949 0.642298
0.000000 0.875212 0.695277
0.000000 0.874144 0.695033
0.307958 0.868559 0.698634
0.691920 0.855253 0.712398
0.920439 0.914275 0.774166
0.407233 0.649256 0.764401
0.470466 0.659571 0.763027
0.648035 0.706966 0.760128
0.815671 0.788418 0.749905
0.908354 0.711513 0.799344
0.410437 0.651942 0.759731
0.472053 0.662287 0.759426
0.645350 0.707332 0.758480
0.812436 0.787045 0.752560
0.906035 0.720485 0.798581
0.000000 0.636561 0.751919
0.325597 0.652125 0.752010
0.618708 0.710018 0.757839
0.801694 0.786130 0.766293
0.906371 0.760311 0.806943
0.000000 0.716365 0.759396
0.000000 0.713649 0.757595
0.322179 0.711391 0.755947
0.759182 0.784451 0.783230
0.916899 0.830259 0.833982
0.000000 0.866178 0.796628
0.000000 0.864988 0.795926
0.241703 0.864591 0.798459
0.645533 0.867308 0.806821
0.905730 0.901427 0.851804
