20 Preset/INSTA/【3】LUT video cho PR-AE-FCPX/INS LUT (19).cube
# Created by Adobe Lightroom plugin Export LUT (1.24.0)
# www.johnrellis.com/lightroom/exportlut.htm
# Preset: INS胶片-自然[素材江湖]19
# Color profile: C:\Program Files (x86)\Common Files\Adobe\Color\Profiles\Recommended\VideoHD.icc
LUT_3D_SIZE 5
DOMAIN_MIN 0.000000 0.000000 0.000000
DOMAIN_MAX 0.903226 0.903226 0.903226
0.000000 0.000000 0.000000
0.214084 0.000000 0.038727
0.767147 0.000000 0.127504
0.978759 0.340307 0.377325
0.978241 0.594476 0.608881
0.000000 0.286046 0.169528
0.234165 0.222538 0.070375
0.745968 0.164034 0.090547
0.954284 0.405127 0.339178
0.970703 0.620356 0.616388
0.549035 0.765164 0.670314
0.511894 0.744839 0.596948
0.688167 0.623865 0.311681
0.894163 0.581872 0.289647
0.951415 0.659510 0.584436
0.753658 0.854368 0.829648
0.765988 0.855924 0.836667
0.744045 0.834531 0.781186
0.800626 0.767544 0.597284
0.912383 0.757443 0.630365
0.834623 0.879728 0.881376
0.837278 0.879698 0.882658
0.831296 0.878355 0.877104
0.823819 0.872648 0.855558
0.861753 0.862150 0.808896
0.000000 0.025299 0.112398
0.179141 0.013245 0.132174
0.688746 0.000000 0.108034
0.946441 0.275975 0.283970
0.980468 0.541192 0.541344
0.000000 0.224338 0.158267
0.258091 0.215702 0.158572
0.703243 0.208469 0.130282
0.928649 0.366186 0.268589
0.973419 0.565179 0.542229
0.491493 0.723262 0.616175
0.504845 0.714290 0.587091
0.653315 0.581384 0.303410
0.873472 0.550896 0.225498
0.950835 0.646754 0.559106
0.749020 0.850065 0.825071
0.762722 0.852384 0.833219
0.744198 0.831785 0.782254
0.798123 0.763210 0.600122
0.911833 0.753323 0.620935
0.833341 0.879576 0.880735
0.835966 0.879545 0.881956
0.838437 0.879149 0.881712
0.828214 0.874296 0.860960
0.864836 0.866361 0.818326
0.000000 0.093019 0.413306
0.156374 0.187320 0.356207
0.700984 0.000000 0.466957
0.920775 0.405463 0.468452
0.977630 0.543755 0.531762
0.000000 0.239841 0.455970
0.287846 0.308171 0.424811
0.715908 0.305730 0.474800
0.901976 0.465705 0.469459
0.970672 0.570550 0.537102
0.276005 0.639094 0.486946
0.506493 0.645411 0.572900
0.681056 0.587091 0.470100
0.857267 0.592248 0.469581
0.949035 0.638727 0.546868
0.725948 0.831479 0.803098
0.737728 0.832670 0.809995
0.744076 0.822934 0.789090
0.794553 0.756344 0.631769
0.912169 0.738216 0.607599
0.821805 0.878264 0.874632
0.826719 0.878538 0.877073
0.841032 0.879118 0.884215
0.827726 0.873747 0.863798
0.861021 0.860258 0.809537
0.000000 0.196139 0.729397
0.000000 0.285954 0.720577
0.619165 0.609705 0.635401
0.889006 0.398840 0.712642
0.933806 0.627588 0.704921
0.000000 0.333288 0.739284
0.179995 0.385473 0.726162
0.633204 0.625330 0.649836
0.866209 0.491646 0.701442
0.921019 0.654383 0.711757
0.000000 0.600793 0.711299
0.212253 0.581811 0.708553
0.670100 0.673243 0.687007
0.815854 0.674556 0.711360
0.898558 0.715328 0.733211
0.562890 0.781704 0.688167
0.612482 0.783383 0.713497
0.741756 0.802213 0.795865
0.789548 0.748562 0.702541
0.896208 0.751431 0.717250
0.780789 0.875364 0.853513
0.791226 0.875334 0.858518
0.825498 0.876768 0.875731
0.838865 0.877104 0.879515
0.859434 0.857481 0.817105
0.000000 0.387671 0.875517
0.176211 0.459754 0.868833
0.693294 0.697566 0.835660
0.772702 0.754726 0.815335
0.916960 0.659632 0.830381
0.000000 0.463691 0.873106
0.280186 0.513817 0.867369
0.698543 0.708553 0.838132
0.776059 0.763119 0.818296
0.912047 0.677119 0.830625
0.000000 0.616266 0.859739
0.375738 0.638941 0.858427
0.688228 0.725643 0.849088
0.787228 0.792966 0.829404
0.890562 0.744594 0.835691
0.393378 0.799130 0.848905
0.445930 0.794919 0.848631
0.602808 0.778225 0.848112
0.805722 0.828733 0.847776
0.867887 0.815732 0.849393
0.650477 0.870817 0.812345
0.661646 0.870054 0.813291
0.706447 0.867216 0.818479
0.813199 0.870115 0.866789
0.859098 0.859098 0.855161
