20 Preset/INSTA/【3】LUT video cho PR-AE-FCPX/INS LUT (8).cube
# Created by Adobe Lightroom plugin Export LUT (1.24.0)
# www.johnrellis.com/lightroom/exportlut.htm
# Preset: INS胶片Tezza04[素材江湖]08
# Color profile: C:\Program Files (x86)\Common Files\Adobe\Color\Profiles\Recommended\VideoHD.icc
LUT_3D_SIZE 5
DOMAIN_MIN 0.000000 0.000000 0.000000
DOMAIN_MAX 0.903226 0.903226 0.903226
0.000000 0.000000 0.000000
0.251926 0.000000 0.035981
0.767575 0.000000 0.108370
0.961059 0.336828 0.344610
0.990692 0.572839 0.568475
0.139040 0.305211 0.219333
0.356909 0.323796 0.205631
0.765835 0.271885 0.157595
0.927733 0.441413 0.360632
0.978180 0.616876 0.597070
0.682429 0.751614 0.716823
0.690730 0.743740 0.707973
0.768399 0.755673 0.703120
0.864439 0.631739 0.461158
0.942596 0.696864 0.638270
0.806394 0.856596 0.851591
0.814481 0.858122 0.856626
0.819730 0.855680 0.850401
0.841886 0.850828 0.838010
0.899687 0.815671 0.768612
0.851072 0.878782 0.887907
0.852354 0.878813 0.888670
0.853361 0.878569 0.888792
0.854307 0.878202 0.887358
0.858000 0.875242 0.879637
0.000000 0.047517 0.100923
0.196902 0.035004 0.108248
0.717678 0.000000 0.107729
0.922454 0.320256 0.290440
0.980926 0.541466 0.521233
0.154147 0.272984 0.229252
0.339605 0.294469 0.221897
0.719081 0.288518 0.151369
0.901305 0.422278 0.316960
0.969238 0.581231 0.544396
0.655177 0.722347 0.683742
0.673640 0.721981 0.687282
0.744503 0.722713 0.661830
0.848447 0.606134 0.413825
0.938567 0.689113 0.624170
0.803372 0.854215 0.849027
0.813413 0.856657 0.855833
0.818631 0.854307 0.849699
0.840360 0.848600 0.835477
0.898802 0.813230 0.764736
0.850797 0.878843 0.887816
0.852171 0.878843 0.888548
0.854276 0.878904 0.889586
0.854490 0.878325 0.887694
0.858000 0.875212 0.879545
0.000000 0.141543 0.341314
0.161044 0.182681 0.278050
0.694881 0.146578 0.355261
0.912322 0.372259 0.367102
0.974731 0.553826 0.524254
0.150851 0.357671 0.459449
0.344488 0.354253 0.388617
0.736629 0.371099 0.415381
0.888151 0.469001 0.408240
0.964233 0.592737 0.549401
0.594507 0.683467 0.643061
0.657496 0.701015 0.679896
0.730251 0.696590 0.647669
0.836393 0.628260 0.512200
0.935912 0.682826 0.613458
0.787900 0.844907 0.837369
0.797635 0.846159 0.843015
0.812985 0.848295 0.846525
0.836423 0.842618 0.830076
0.899535 0.802701 0.747555
0.846799 0.878752 0.885740
0.849027 0.878843 0.886900
0.855039 0.879210 0.890471
0.854978 0.878660 0.888731
0.858152 0.875242 0.879576
0.000000 0.338537 0.641169
0.194888 0.351934 0.612970
0.544152 0.402258 0.541894
0.848661 0.477790 0.591516
0.953063 0.604547 0.635126
0.287449 0.488197 0.669581
0.389532 0.473182 0.641749
0.597253 0.478492 0.577905
0.841062 0.536706 0.608576
0.942901 0.625025 0.642176
0.533745 0.675349 0.704311
0.581781 0.671443 0.697627
0.694667 0.656428 0.668696
0.819120 0.666865 0.662470
0.922698 0.692683 0.678645
0.725093 0.814328 0.800748
0.745876 0.817319 0.808591
0.804837 0.839536 0.845243
0.825284 0.824094 0.813046
0.911467 0.775418 0.730251
0.833005 0.878813 0.880858
0.838071 0.878813 0.882750
0.850217 0.879210 0.887999
0.856199 0.879454 0.890898
0.858610 0.875639 0.880980
0.369757 0.573999 0.808469
0.444282 0.574578 0.797269
0.615106 0.613764 0.738491
0.768124 0.596521 0.740475
0.908782 0.655879 0.748470
0.465583 0.625360 0.811887
0.511315 0.622644 0.802121
0.632807 0.637873 0.747646
0.768032 0.621424 0.744594
0.906676 0.671931 0.754910
0.576806 0.737514 0.844114
0.613703 0.735012 0.835599
0.681666 0.713405 0.795865
0.775906 0.698970 0.771542
0.902220 0.730556 0.784390
0.662593 0.824826 0.852049
0.675166 0.823667 0.851194
0.727047 0.820371 0.849302
0.790768 0.794095 0.820554
0.890776 0.808438 0.828641
0.727962 0.884001 0.868437
0.741238 0.883116 0.869352
0.793881 0.880888 0.875853
0.852415 0.879362 0.889616
0.859739 0.876158 0.883940
