20 Preset/INSTA/【3】LUT video cho PR-AE-FCPX/INS LUT (16).cube
# Created by Adobe Lightroom plugin Export LUT (1.24.0)
# www.johnrellis.com/lightroom/exportlut.htm
# Preset: INS胶片-自然[素材江湖]16
# Color profile: C:\Program Files (x86)\Common Files\Adobe\Color\Profiles\Recommended\VideoHD.icc
LUT_3D_SIZE 8
DOMAIN_MIN 0.000000 0.000000 0.000000
DOMAIN_MAX 0.903226 0.903226 0.903226
0.139712 0.075441 0.090517
0.162387 0.072480 0.093111
0.261357 0.021973 0.099397
0.459327 0.000000 0.103243
0.696284 0.000000 0.106447
0.873838 0.000000 0.126711
0.998871 0.000000 0.200931
1.000000 0.312291 0.298894
0.154116 0.098146 0.101137
0.168307 0.099153 0.099031
0.262333 0.083070 0.094789
0.436927 0.000000 0.096101
0.663325 0.000000 0.094606
0.854337 0.000000 0.108858
0.973510 0.000000 0.169680
1.000000 0.282261 0.265660
0.186770 0.184665 0.136965
0.191684 0.184848 0.130373
0.312200 0.233310 0.125826
0.535821 0.235599 0.000000
0.701595 0.192447 0.000000
0.882048 0.216281 0.000000
0.992157 0.298863 0.151339
1.000000 0.403204 0.276005
0.240543 0.361303 0.222171
0.243381 0.361151 0.212833
0.302098 0.368658 0.207797
0.627314 0.577111 0.279728
0.852323 0.604028 0.241245
0.917876 0.499489 0.000000
0.987243 0.473732 0.000000
1.000000 0.509453 0.235630
0.307256 0.536278 0.328954
0.311345 0.536980 0.322759
0.341772 0.544976 0.307622
0.491066 0.592493 0.347173
0.768307 0.731044 0.497078
0.908385 0.759091 0.521965
0.975860 0.682734 0.293828
1.000000 0.618524 0.124392
0.434455 0.658534 0.448096
0.453193 0.668147 0.457557
0.465919 0.673121 0.447333
0.529595 0.679927 0.454749
0.681544 0.737270 0.534966
0.857450 0.829526 0.647547
0.963104 0.870909 0.699306
1.000000 0.832425 0.577478
0.576501 0.755001 0.571984
0.585504 0.757870 0.575921
0.591577 0.759731 0.569940
0.614710 0.764614 0.567010
0.666316 0.767636 0.577386
0.798795 0.833249 0.663203
0.918944 0.898070 0.743282
0.994476 0.928496 0.795956
0.697475 0.854856 0.694911
0.701869 0.855406 0.696315
0.709224 0.858274 0.695735
0.721950 0.864836 0.694301
0.733761 0.852018 0.678035
0.786893 0.864866 0.700496
0.893736 0.918944 0.777310
0.968078 0.952087 0.829435
0.149691 0.086366 0.100099
0.158694 0.081910 0.102235
0.243473 0.049897 0.101228
0.414740 0.000000 0.098024
0.645594 0.000000 0.095796
0.838682 0.000000 0.107790
0.959655 0.000000 0.160220
1.000000 0.232517 0.247257
0.156191 0.097841 0.107362
0.171359 0.101289 0.110048
0.255497 0.094270 0.105257
0.421576 0.000000 0.093629
0.643183 0.000000 0.084352
0.834531 0.000000 0.093751
0.947601 0.000000 0.143801
1.000000 0.224430 0.227390
0.192935 0.179171 0.145602
0.209659 0.185611 0.147768
0.302190 0.222202 0.148257
0.498848 0.223331 0.092744
0.672938 0.196170 0.000000
0.846677 0.202884 0.000000
0.954406 0.247318 0.102510
1.000000 0.342473 0.223056
0.238590 0.329900 0.216281
0.257328 0.336553 0.218936
0.298955 0.345129 0.209934
0.562188 0.505425 0.254704
0.793057 0.536980 0.199069
0.867155 0.446601 0.000000
0.949279 0.423590 0.000000
1.000000 0.457252 0.170687
0.301671 0.519677 0.324834
0.321324 0.522576 0.326970
0.337407 0.526604 0.304417
0.463478 0.557855 0.328374
0.739834 0.700343 0.460883
0.888426 0.730892 0.490181
0.958618 0.656703 0.272160
1.000000 0.592462 0.000000
0.411353 0.641566 0.432502
0.430915 0.645441 0.438758
0.445014 0.651575 0.429175
0.508721 0.661463 0.436347
0.662531 0.719966 0.515801
0.847562 0.819028 0.637842
0.955657 0.861936 0.690425
1.000000 0.821622 0.566339
0.552422 0.739895 0.553368
0.559167 0.739376 0.554101
0.568322 0.741329 0.549340
0.592584 0.748226 0.546899
0.652186 0.755612 0.563500
0.786618 0.821592 0.649958
0.909392 0.887510 0.729488
0.988952 0.920226 0.782345
0.679500 0.841642 0.678553
0.687037 0.844419 0.682826
0.697139 0.847196 0.683711
0.710536 0.854276 0.682734
0.744106 0.860349 0.690486
0.788357 0.866178 0.703639
0.891722 0.917052 0.775753
0.967102 0.951080 0.828672
0.171695 0.105318 0.130159
0.179080 0.109346 0.129519
0.235660 0.094087 0.152621
0.438880 0.000000 0.156832
0.666163 0.000000 0.148745
0.858732 0.000000 0.122621
0.971588 0.148775 0.154025
1.000000 0.303593 0.257053
0.185336 0.117983 0.145876
0.200076 0.126589 0.148440
0.257420 0.118898 0.164981
0.436744 0.078859 0.167391
0.656458 0.000000 0.151400
0.848936 0.000000 0.123537
0.960266 0.168154 0.136202
1.000000 0.299077 0.239414
0.206363 0.182193 0.180148
0.222721 0.192935 0.187228
0.305608 0.224399 0.206302
0.480140 0.228489 0.184421
0.698817 0.243412 0.165133
0.859373 0.270237 0.128969
0.961791 0.301976 0.082826
1.000000 0.373907 0.223545
0.249638 0.342504 0.257084
0.273899 0.354101 0.264652
0.354284 0.389746 0.282353
0.566888 0.512322 0.343481
0.777646 0.542901 0.313512
0.860380 0.460761 0.149081
0.955932 0.461616 0.108705
1.000000 0.484382 0.183352
0.310338 0.516228 0.351995
0.332616 0.522484 0.357000
0.408881 0.546777 0.375189
0.485389 0.561761 0.376989
0.742733 0.705898 0.521935
0.877531 0.737057 0.545434
0.945464 0.664912 0.366033
1.000000 0.606470 0.146059
0.412543 0.637232 0.447059
0.431830 0.641749 0.453498
0.491554 0.654414 0.471412
0.529351 0.663661 0.465614
0.655055 0.706996 0.524804
0.840696 0.813169 0.651362
0.948333 0.859403 0.704921
0.996979 0.823148 0.595972
0.553796 0.741360 0.564202
0.560998 0.741238 0.565332
0.594415 0.744778 0.574823
0.607874 0.750393 0.565911
0.660609 0.757137 0.578454
0.784634 0.818387 0.657893
0.911254 0.891020 0.746395
0.989288 0.925231 0.800717
0.672969 0.840482 0.680323
0.676509 0.840116 0.680476
0.697108 0.843503 0.687556
0.716579 0.853574 0.691890
0.744503 0.860288 0.695491
0.790097 0.867369 0.710414
0.892515 0.918151 0.783108
0.967956 0.953002 0.838651
0.208011 0.145754 0.194217
0.220310 0.153872 0.198642
0.271580 0.187839 0.204440
0.398901 0.132601 0.272129
0.661616 0.000000 0.271580
0.841367 0.153384 0.297795
0.948699 0.246159 0.282200
1.000000 0.312963 0.258061
0.235599 0.171420 0.219608
0.246433 0.178592 0.221958
0.296117 0.212375 0.228183
0.422004 0.168856 0.288548
0.675227 0.062196 0.287541
0.841733 0.207645 0.304234
0.945586 0.276341 0.286564
1.000000 0.332311 0.261479
0.250736 0.207523 0.247684
0.266392 0.214817 0.253513
0.344274 0.264744 0.280888
0.472602 0.273411 0.321874
0.695552 0.306432 0.338659
0.849454 0.357763 0.338720
0.952392 0.412726 0.337133
1.000000 0.433875 0.303197
0.275914 0.343145 0.316716
0.292729 0.350622 0.321538
0.363989 0.391943 0.349615
0.529259 0.471321 0.405341
0.710140 0.482887 0.370672
0.835264 0.495644 0.363500
0.932494 0.510674 0.353002
1.000000 0.523919 0.325872
0.306249 0.517815 0.400549
0.329107 0.522850 0.404547
0.421607 0.550317 0.429114
0.549920 0.598322 0.471504
0.734798 0.700343 0.576074
0.856657 0.731838 0.591913
0.922667 0.662165 0.449928
1.000000 0.645106 0.388525
0.424872 0.643061 0.486244
0.450782 0.652552 0.497688
0.511589 0.663661 0.514305
0.599512 0.686641 0.544610
0.657404 0.698299 0.555047
0.838132 0.813169 0.683406
0.939574 0.857908 0.728725
0.987549 0.820798 0.629053
0.540276 0.738003 0.575067
0.551537 0.740352 0.579095
0.592340 0.747707 0.592706
0.652979 0.762020 0.615473
0.686122 0.770932 0.616693
0.783322 0.815366 0.673884
0.911559 0.893614 0.768643
0.987060 0.927794 0.819211
0.665766 0.845609 0.692683
0.670619 0.846036 0.693782
0.691463 0.848905 0.699794
0.732082 0.856901 0.714778
0.748043 0.864256 0.709377
0.794461 0.871031 0.723934
0.890806 0.917510 0.791897
0.969329 0.956207 0.855436
0.268620 0.220188 0.294499
0.281559 0.230167 0.300664
0.331212 0.266850 0.314153
0.440620 0.353704 0.335973
0.614771 0.239628 0.451484
0.835233 0.199496 0.427131
0.924041 0.357244 0.446662
0.992523 0.472145 0.480751
0.291783 0.243412 0.314916
0.304753 0.253605 0.321202
0.352972 0.289555 0.334722
0.455634 0.371252 0.353857
0.626764 0.273594 0.462318
0.833768 0.254185 0.436622
0.919707 0.388495 0.457099
0.990845 0.482765 0.483497
0.312474 0.270085 0.342535
0.330938 0.285344 0.351812
0.399359 0.341436 0.381018
0.500786 0.425879 0.411566
0.645686 0.370153 0.480537
0.812284 0.380468 0.458534
0.898680 0.474586 0.487068
0.982025 0.510307 0.483436
0.327794 0.350195 0.384710
0.342107 0.356786 0.389624
0.404822 0.389837 0.414252
0.539940 0.479683 0.471229
0.680049 0.513085 0.515709
0.793210 0.551385 0.526299
0.891081 0.570001 0.521447
0.978119 0.581781 0.505943
0.341436 0.490425 0.445533
0.357763 0.497749 0.450935
0.418433 0.528008 0.473671
0.534600 0.576135 0.511345
0.680903 0.642573 0.570764
0.795804 0.654444 0.555505
0.885466 0.652186 0.538537
0.971466 0.660456 0.525566
0.356909 0.604883 0.490089
0.375616 0.608850 0.493996
0.441901 0.621210 0.506706
0.553643 0.649775 0.539239
0.658076 0.687129 0.578302
0.810269 0.785000 0.683345
0.914855 0.830381 0.719814
0.968566 0.785183 0.617975
0.484413 0.719509 0.575067
0.492439 0.719448 0.575341
0.531212 0.723659 0.582238
0.611597 0.740871 0.608240
0.696010 0.766232 0.641749
0.750668 0.782925 0.658595
0.900175 0.883330 0.775692
0.977996 0.917571 0.816892
0.599786 0.823880 0.672816
0.605768 0.824186 0.673640
0.631769 0.826749 0.679072
0.688808 0.840787 0.701045
0.750790 0.855039 0.723964
0.785977 0.865537 0.728298
0.874754 0.904723 0.785763
0.965789 0.953704 0.863005
0.354040 0.333623 0.431556
0.365972 0.343450 0.437140
0.410346 0.376532 0.449287
0.515740 0.465034 0.486183
0.607996 0.545434 0.525200
0.770993 0.422126 0.609400
0.916838 0.412482 0.564569
0.979217 0.527001 0.590234
0.361028 0.337285 0.429328
0.370916 0.344701 0.432685
0.416022 0.380591 0.449500
0.509209 0.457099 0.478492
0.603601 0.540368 0.516381
0.761898 0.424628 0.600275
0.907622 0.419196 0.559655
0.972534 0.527977 0.585931
0.404883 0.386358 0.471168
0.421424 0.399542 0.477302
0.466468 0.435462 0.493202
0.544762 0.497963 0.512810
0.649775 0.591791 0.548882
0.765743 0.501183 0.611658
0.894102 0.508080 0.584771
0.962097 0.582361 0.608392
0.389654 0.396979 0.479835
0.400610 0.401007 0.481880
0.458808 0.438239 0.502892
0.592004 0.554070 0.561089
0.695094 0.646998 0.605554
0.780819 0.612329 0.642023
0.881285 0.625025 0.632868
0.953277 0.663569 0.650050
0.400275 0.489326 0.508080
0.412238 0.493904 0.511131
0.462806 0.515221 0.525628
0.556390 0.560082 0.556359
0.677028 0.634394 0.605615
0.777859 0.667872 0.641199
0.858396 0.691157 0.653742
0.944915 0.702174 0.652155
0.420203 0.600580 0.548516
0.435950 0.607141 0.554131
0.482124 0.620783 0.564904
0.556725 0.649683 0.588678
0.654780 0.684321 0.618830
0.776699 0.749660 0.682795
0.872923 0.765286 0.677028
0.953338 0.768093 0.665156
0.430213 0.707576 0.599573
0.443671 0.710567 0.602777
0.491371 0.717067 0.610101
0.571923 0.731014 0.626551
0.670741 0.755795 0.656367
0.761837 0.791196 0.694179
0.891844 0.877012 0.793301
0.970916 0.907225 0.819211
0.549767 0.814511 0.683558
0.553094 0.813687 0.682551
0.576501 0.815427 0.684718
0.626246 0.824125 0.695460
0.698146 0.837736 0.714137
0.784176 0.860533 0.746517
0.845426 0.881865 0.771420
0.963195 0.953002 0.878080
0.451423 0.453742 0.552544
0.462318 0.462074 0.556085
0.500633 0.490547 0.564904
0.573114 0.547387 0.582696
0.663905 0.622400 0.604608
0.698909 0.644526 0.633875
0.839261 0.555383 0.695125
0.961212 0.526116 0.653925
0.455238 0.455573 0.551019
0.465919 0.464118 0.554986
0.503380 0.492134 0.564019
0.571740 0.545647 0.580407
0.661463 0.619837 0.602686
0.697963 0.644221 0.630915
0.834562 0.555077 0.690181
0.955016 0.526207 0.648951
0.485054 0.483314 0.566247
0.493477 0.489662 0.568536
0.527031 0.515129 0.576928
0.591058 0.565728 0.593927
0.673854 0.634699 0.617365
0.719112 0.671656 0.645838
0.835477 0.599573 0.697993
0.948791 0.583734 0.668544
0.463081 0.472175 0.566186
0.474861 0.480568 0.568597
0.530694 0.523339 0.584710
0.611383 0.588586 0.610864
0.690150 0.655482 0.639124
0.755489 0.715389 0.673213
0.839017 0.659663 0.711757
0.939239 0.652949 0.693416
0.442847 0.502098 0.571557
0.450263 0.503838 0.572076
0.485298 0.516075 0.577996
0.552026 0.544579 0.593256
0.686305 0.656428 0.646021
0.773190 0.736477 0.691341
0.840238 0.708736 0.721126
0.931395 0.717220 0.718868
0.459449 0.593133 0.600855
0.467750 0.595483 0.602411
0.501030 0.604883 0.608484
0.563226 0.624689 0.621515
0.649073 0.658961 0.645106
0.759670 0.728878 0.696040
0.852628 0.766323 0.739467
0.928557 0.783841 0.750576
0.481819 0.689265 0.637995
0.490089 0.691279 0.639643
0.520165 0.697322 0.644434
0.576135 0.710903 0.655604
0.649348 0.735409 0.676753
0.735927 0.770260 0.708705
0.852934 0.836362 0.777493
0.939666 0.842313 0.761624
0.507408 0.802304 0.706844
0.512688 0.803098 0.707485
0.535760 0.807187 0.711147
0.574121 0.812741 0.715389
0.644862 0.824186 0.726955
0.736751 0.844877 0.750362
0.838895 0.879301 0.791135
0.959503 0.951720 0.896635
0.599054 0.606409 0.669947
0.605219 0.611017 0.671443
0.625330 0.625025 0.674037
0.665492 0.655207 0.682246
0.718593 0.696864 0.694453
0.778744 0.747189 0.710872
0.786313 0.737789 0.734218
0.904906 0.671626 0.783261
0.597742 0.604761 0.667933
0.604150 0.609552 0.669551
0.625116 0.624537 0.673060
0.664576 0.654170 0.681147
0.717586 0.695979 0.693690
0.777951 0.746456 0.710658
0.786038 0.738338 0.733059
0.902800 0.672145 0.781125
0.604761 0.611231 0.670710
0.610315 0.615229 0.671962
0.630365 0.629694 0.675532
0.671412 0.661524 0.686458
0.722347 0.701808 0.699519
0.781003 0.751095 0.717281
0.794553 0.751949 0.739437
0.903166 0.690089 0.784878
0.592126 0.604334 0.670314
0.601556 0.611292 0.672572
0.633600 0.634974 0.679805
0.673732 0.665919 0.691066
0.726497 0.708461 0.707729
0.786587 0.759762 0.730007
0.812284 0.777829 0.753933
0.905089 0.722866 0.793637
0.516472 0.555047 0.658045
0.526543 0.561913 0.660273
0.563317 0.586481 0.666712
0.638361 0.641047 0.684016
0.717739 0.704128 0.709834
0.784482 0.761440 0.738369
0.834928 0.807828 0.770871
0.907866 0.760525 0.804685
0.529625 0.628260 0.680568
0.532952 0.627955 0.680110
0.549584 0.628992 0.679805
0.585992 0.635309 0.682216
0.643000 0.650568 0.689723
0.770352 0.753475 0.741390
0.858183 0.835386 0.795468
0.917662 0.810575 0.826352
0.560479 0.719417 0.719478
0.563867 0.719631 0.719509
0.578607 0.720699 0.719875
0.609186 0.724453 0.722042
0.656733 0.732448 0.727199
0.723568 0.749874 0.739956
0.834562 0.817044 0.789883
0.925078 0.856748 0.842893
0.578637 0.803494 0.758328
0.581201 0.803555 0.758236
0.593957 0.804990 0.759121
0.621027 0.809323 0.762448
0.662531 0.816587 0.768032
0.722713 0.829923 0.779263
0.806912 0.860929 0.809384
0.930846 0.924102 0.885801
