20 Preset/INSTA/【3】LUT video cho PR-AE-FCPX/INS LUT (8).cube
# Created by Adobe Lightroom plugin Export LUT (1.24.0)
# www.johnrellis.com/lightroom/exportlut.htm
# Preset: INS胶片Tezza04[素材江湖]08
# Color profile: C:\Program Files (x86)\Common Files\Adobe\Color\Profiles\Recommended\VideoHD.icc
LUT_3D_SIZE 8
DOMAIN_MIN 0.000000 0.000000 0.000000
DOMAIN_MAX 0.903226 0.903226 0.903226
0.000000 0.000000 0.000000
0.095430 0.010254 0.012177
0.327459 0.000000 0.042603
0.649378 0.000000 0.077272
0.868620 0.000000 0.168093
0.951263 0.279820 0.309209
0.978668 0.456306 0.443183
0.990692 0.572839 0.568475
0.033906 0.099794 0.074617
0.101747 0.107729 0.078920
0.321874 0.058473 0.051423
0.612543 0.000000 0.082521
0.836362 0.000000 0.158816
0.925628 0.261082 0.273442
0.965332 0.429206 0.403510
0.985199 0.555200 0.541741
0.217411 0.389136 0.286656
0.275944 0.390967 0.296178
0.470649 0.423529 0.278935
0.661341 0.324956 0.131136
0.819242 0.362127 0.213199
0.902098 0.440497 0.328832
0.950317 0.542168 0.476295
0.973480 0.622827 0.596735
0.624964 0.700801 0.648981
0.633661 0.697780 0.650813
0.652216 0.691005 0.631037
0.731136 0.705898 0.631128
0.805570 0.633845 0.464698
0.872160 0.591791 0.425269
0.922423 0.631006 0.533867
0.954009 0.676143 0.630030
0.723293 0.789242 0.765835
0.729671 0.790005 0.770443
0.736995 0.789273 0.767453
0.756252 0.789517 0.761807
0.793210 0.789151 0.750881
0.832334 0.744045 0.658442
0.889494 0.685481 0.556329
0.933227 0.722408 0.654383
0.788785 0.844297 0.835416
0.796139 0.847837 0.841428
0.801785 0.848386 0.843473
0.805692 0.846891 0.839414
0.815091 0.844022 0.832639
0.835203 0.842313 0.825559
0.861631 0.820859 0.781186
0.914183 0.790311 0.725795
0.831662 0.871550 0.873075
0.833494 0.871946 0.874327
0.837949 0.872404 0.877012
0.838499 0.871824 0.875517
0.839658 0.870420 0.872190
0.844755 0.869200 0.868894
0.853788 0.867430 0.864530
0.872251 0.858915 0.842924
0.851072 0.878782 0.887907
0.851438 0.878782 0.888121
0.852811 0.878843 0.888914
0.854154 0.878904 0.889677
0.853513 0.878508 0.888518
0.854093 0.878294 0.887724
0.855467 0.877867 0.886107
0.858000 0.875242 0.879637
0.000000 0.013977 0.039979
0.079469 0.023224 0.039277
0.282750 0.000000 0.042359
0.580133 0.000000 0.072053
0.820249 0.000000 0.145480
0.917571 0.210361 0.252323
0.961975 0.394141 0.376104
0.984710 0.526757 0.513115
0.015015 0.102754 0.088960
0.106081 0.108431 0.089570
0.300359 0.104189 0.052186
0.580407 0.000000 0.081086
0.808347 0.000000 0.149386
0.905760 0.250584 0.249790
0.952544 0.397101 0.365087
0.979065 0.519951 0.498054
0.226749 0.359442 0.280644
0.269810 0.363561 0.287114
0.443061 0.394812 0.267216
0.621637 0.305608 0.116609
0.788144 0.332341 0.183047
0.882322 0.404242 0.286351
0.935698 0.492287 0.410040
0.967498 0.583001 0.543572
0.570581 0.656611 0.589502
0.585412 0.656275 0.596033
0.616144 0.655879 0.583368
0.698634 0.662043 0.565667
0.778439 0.589166 0.390784
0.848508 0.543847 0.351263
0.907256 0.585809 0.462531
0.946136 0.641566 0.579034
0.714290 0.780087 0.755032
0.719631 0.779873 0.758480
0.725551 0.777218 0.753201
0.742306 0.773770 0.742214
0.779904 0.771206 0.726253
0.822660 0.727260 0.631098
0.880339 0.665461 0.520470
0.926726 0.705196 0.627070
0.780148 0.837736 0.827237
0.783932 0.838743 0.829923
0.791012 0.839872 0.833066
0.796811 0.839353 0.830014
0.808316 0.837461 0.824277
0.831510 0.837644 0.819150
0.858610 0.815274 0.772580
0.910521 0.781277 0.711269
0.826505 0.869078 0.869017
0.827207 0.868925 0.869291
0.832334 0.869474 0.872404
0.833829 0.869139 0.871366
0.836515 0.868315 0.868925
0.842252 0.866972 0.865354
0.851987 0.864561 0.859617
0.870878 0.853910 0.834440
0.850156 0.878630 0.887297
0.850828 0.878691 0.887724
0.852354 0.878752 0.888609
0.854093 0.878904 0.889647
0.853941 0.878660 0.888914
0.854154 0.878325 0.887785
0.855497 0.877867 0.886198
0.857969 0.875242 0.879606
0.000000 0.064332 0.123842
0.046326 0.079622 0.107210
0.265141 0.013947 0.132906
0.609369 0.000000 0.120180
0.826749 0.000000 0.162264
0.912352 0.315007 0.277226
0.956023 0.454841 0.408392
0.981018 0.561669 0.541588
0.001556 0.129732 0.169100
0.114015 0.133761 0.147738
0.332677 0.116823 0.156405
0.601709 0.000000 0.138979
0.807584 0.174777 0.161807
0.899168 0.334203 0.270939
0.947906 0.454017 0.396277
0.976471 0.557366 0.530236
0.218143 0.350317 0.293217
0.296696 0.365301 0.323095
0.448859 0.386633 0.294072
0.635218 0.345556 0.213870
0.792782 0.381994 0.208652
0.880247 0.447669 0.309850
0.932128 0.521752 0.431098
0.964691 0.598505 0.556359
0.572442 0.654902 0.594415
0.601465 0.660731 0.615412
0.628046 0.660243 0.606775
0.701472 0.663691 0.580865
0.779934 0.599725 0.425574
0.850675 0.563195 0.371862
0.908232 0.605798 0.486091
0.946502 0.656519 0.597040
0.710903 0.774838 0.751247
0.718166 0.776425 0.756832
0.728511 0.777005 0.757870
0.746029 0.776089 0.750546
0.782895 0.774502 0.734493
0.824491 0.733700 0.643610
0.881102 0.671534 0.528862
0.927611 0.710506 0.634119
0.778286 0.835630 0.825620
0.782498 0.836942 0.828672
0.790921 0.838560 0.833249
0.795377 0.837186 0.829129
0.806302 0.834958 0.822934
0.829587 0.834928 0.816526
0.857969 0.814511 0.771420
0.910918 0.782986 0.714076
0.827329 0.869596 0.869902
0.828153 0.869505 0.870298
0.832853 0.869871 0.873014
0.834775 0.869444 0.872435
0.836820 0.868376 0.869627
0.842710 0.867308 0.866514
0.852720 0.865476 0.861357
0.871946 0.856443 0.838682
0.849882 0.878691 0.887205
0.850126 0.878660 0.887327
0.851743 0.878721 0.888273
0.854429 0.878996 0.889952
0.854215 0.878782 0.889250
0.854337 0.878447 0.888121
0.855589 0.877989 0.886503
0.858000 0.875181 0.879515
0.000000 0.109957 0.252811
0.000000 0.112825 0.239506
0.191379 0.144289 0.215854
0.561730 0.000000 0.264042
0.825071 0.141512 0.280888
0.903655 0.312718 0.284031
0.947753 0.446387 0.390600
0.975494 0.553033 0.524376
0.000000 0.178103 0.303838
0.071412 0.176181 0.284550
0.265537 0.192660 0.265873
0.617090 0.159304 0.298375
0.822110 0.252293 0.302068
0.896757 0.354894 0.299992
0.942229 0.463874 0.395880
0.972015 0.561639 0.527977
0.161868 0.367620 0.384588
0.255009 0.368536 0.380560
0.447913 0.370153 0.366674
0.647059 0.382696 0.354955
0.794522 0.425360 0.352056
0.876066 0.480934 0.370062
0.930327 0.551781 0.457618
0.962860 0.616236 0.573785
0.516136 0.626062 0.567315
0.548882 0.630671 0.579187
0.617426 0.644343 0.611078
0.687556 0.637507 0.564599
0.759396 0.560662 0.421881
0.840330 0.576867 0.433814
0.903563 0.609033 0.483680
0.945037 0.659419 0.598444
0.701717 0.769314 0.745296
0.709895 0.770871 0.750820
0.731930 0.775998 0.764920
0.748196 0.775967 0.759060
0.782834 0.772580 0.738216
0.822416 0.729397 0.651392
0.882536 0.682948 0.553307
0.929412 0.716518 0.643061
0.780240 0.837095 0.828519
0.787564 0.840665 0.834409
0.799496 0.843381 0.842313
0.802823 0.842039 0.838468
0.811734 0.839445 0.832151
0.830533 0.835416 0.819425
0.858762 0.813596 0.772793
0.913603 0.784573 0.716365
0.825467 0.869383 0.869139
0.827420 0.869749 0.870359
0.833829 0.870878 0.874296
0.839170 0.871641 0.876860
0.840391 0.870542 0.874113
0.844755 0.869047 0.870420
0.853361 0.866239 0.863249
0.873136 0.857664 0.840604
0.849546 0.878965 0.887266
0.849943 0.878965 0.887480
0.851682 0.878996 0.888396
0.854307 0.879118 0.889982
0.854765 0.878996 0.889860
0.854734 0.878660 0.888731
0.855772 0.878172 0.887114
0.858091 0.875151 0.879332
0.000000 0.184482 0.435309
0.000000 0.187472 0.424140
0.222049 0.237705 0.354589
0.488289 0.233005 0.408087
0.771786 0.262974 0.437232
0.892973 0.370184 0.441871
0.939361 0.473823 0.459297
0.974273 0.556970 0.526543
0.000000 0.252232 0.468086
0.000000 0.252750 0.457404
0.283146 0.291173 0.387304
0.528954 0.286381 0.434058
0.777798 0.317540 0.452125
0.885527 0.424537 0.466224
0.934264 0.492500 0.469184
0.971130 0.566552 0.531792
0.258061 0.453620 0.557733
0.331060 0.449378 0.542596
0.434302 0.438117 0.476204
0.609583 0.432593 0.487343
0.780850 0.457832 0.491310
0.857206 0.501213 0.484810
0.914427 0.543755 0.494392
0.958709 0.592798 0.541283
0.403052 0.591791 0.571649
0.433997 0.590234 0.568658
0.571588 0.597009 0.579889
0.656947 0.581659 0.544274
0.753017 0.587884 0.538018
0.828672 0.600061 0.535485
0.891417 0.620874 0.549554
0.943786 0.648768 0.584222
0.650782 0.732052 0.704738
0.665309 0.734798 0.711757
0.707454 0.752132 0.741482
0.732082 0.756039 0.746334
0.764828 0.743099 0.709041
0.805325 0.688502 0.612024
0.870085 0.680903 0.592004
0.927825 0.703548 0.628779
0.750759 0.816159 0.803525
0.755367 0.817960 0.806607
0.771756 0.822721 0.817472
0.786221 0.825986 0.824125
0.796963 0.824613 0.818784
0.822202 0.823606 0.806973
0.855406 0.797543 0.754665
0.918090 0.766232 0.689021
0.814725 0.865263 0.862577
0.815793 0.865293 0.862974
0.821622 0.866453 0.866117
0.835996 0.869871 0.875303
0.838987 0.869566 0.874205
0.843046 0.867765 0.870054
0.852079 0.863767 0.860227
0.874754 0.851835 0.831571
0.843870 0.878691 0.884428
0.844480 0.878660 0.884703
0.847044 0.878721 0.885863
0.852201 0.879057 0.888731
0.855436 0.879301 0.890623
0.855192 0.878935 0.889586
0.855955 0.878447 0.887938
0.858244 0.875334 0.879881
0.000000 0.317754 0.620172
0.000000 0.319432 0.612421
0.288457 0.353796 0.573053
0.461524 0.405798 0.508934
0.704799 0.394842 0.570214
0.842313 0.458289 0.575433
0.920378 0.528374 0.586786
0.959655 0.604822 0.623041
0.000000 0.362890 0.622644
0.000000 0.360876 0.613764
0.323430 0.377569 0.569451
0.465858 0.412421 0.505455
0.699397 0.406836 0.562249
0.836912 0.466285 0.571527
0.915557 0.532555 0.583703
0.955871 0.603906 0.618006
0.375586 0.533043 0.671656
0.398138 0.525872 0.663569
0.475441 0.511376 0.627222
0.551385 0.508263 0.565423
0.719417 0.512352 0.590875
0.833066 0.551324 0.605585
0.898619 0.607019 0.628412
0.946471 0.634272 0.636042
0.518120 0.653529 0.704891
0.535332 0.651820 0.701900
0.599939 0.644129 0.684504
0.652094 0.631037 0.652918
0.753689 0.642756 0.663630
0.826902 0.658076 0.665248
0.884184 0.667689 0.661616
0.936004 0.683009 0.670344
0.557092 0.703670 0.687617
0.567437 0.702235 0.685695
0.630243 0.707729 0.694362
0.714046 0.734279 0.736477
0.741787 0.700740 0.679072
0.801877 0.692195 0.660395
0.864622 0.700954 0.666499
0.922942 0.713832 0.681300
0.712886 0.798459 0.783230
0.722164 0.801511 0.788388
0.748592 0.807919 0.801511
0.785824 0.824674 0.828092
0.795010 0.822721 0.823575
0.815610 0.811704 0.797452
0.855802 0.766323 0.719875
0.916442 0.766445 0.718624
0.799222 0.859586 0.855161
0.803250 0.860563 0.857267
0.813230 0.863249 0.862303
0.828855 0.867826 0.871183
0.841550 0.871031 0.878569
0.843961 0.869108 0.874296
0.852384 0.863249 0.861051
0.881987 0.847837 0.826902
0.836973 0.878752 0.882170
0.837827 0.878660 0.882383
0.841489 0.878660 0.883818
0.847379 0.878904 0.886412
0.853574 0.879240 0.889647
0.855894 0.879332 0.890715
0.856260 0.878874 0.889158
0.858518 0.875578 0.880705
0.000000 0.448951 0.727077
0.150423 0.451301 0.723751
0.347875 0.456428 0.700771
0.515679 0.503441 0.643397
0.620417 0.498085 0.627008
0.782162 0.516411 0.658534
0.874266 0.567254 0.665461
0.935119 0.610681 0.674464
0.170047 0.472541 0.724056
0.239139 0.474708 0.721401
0.374975 0.474098 0.699184
0.520928 0.510735 0.640955
0.620630 0.502739 0.624659
0.777646 0.518608 0.652430
0.869963 0.564446 0.658808
0.931548 0.606073 0.667201
0.421027 0.579583 0.743801
0.438056 0.576867 0.739620
0.492317 0.565484 0.718990
0.576501 0.575341 0.668086
0.651057 0.561669 0.651026
0.778988 0.577722 0.668452
0.867918 0.612299 0.681788
0.928801 0.644404 0.690852
0.553246 0.685756 0.779995
0.564752 0.682551 0.774594
0.605219 0.672053 0.754391
0.643305 0.656458 0.714534
0.691829 0.643275 0.694057
0.790066 0.654994 0.706142
0.868009 0.674556 0.715511
0.917693 0.702449 0.729641
0.598352 0.738705 0.778622
0.604486 0.737179 0.776822
0.633753 0.734401 0.773190
0.684047 0.729549 0.766384
0.721309 0.706844 0.731868
0.800443 0.715541 0.738460
0.858793 0.727108 0.741665
0.909850 0.736294 0.745052
0.615503 0.778408 0.772427
0.620569 0.777890 0.771817
0.640253 0.775113 0.768795
0.692988 0.777646 0.773892
0.776822 0.805386 0.815427
0.790311 0.764004 0.756313
0.850217 0.765469 0.753445
0.905058 0.774350 0.763821
0.735439 0.845060 0.831662
0.740658 0.845853 0.833280
0.760037 0.848234 0.839139
0.794125 0.853758 0.851804
0.830228 0.864775 0.871153
0.840940 0.866728 0.874540
0.849485 0.855985 0.853788
0.900969 0.820829 0.791165
0.811704 0.878935 0.875059
0.813870 0.878935 0.875669
0.823056 0.879057 0.878508
0.836942 0.878965 0.882963
0.849943 0.879240 0.888090
0.856779 0.879850 0.891814
0.856870 0.879484 0.890898
0.858946 0.875914 0.882078
0.369757 0.573999 0.808469
0.395392 0.575494 0.806332
0.465583 0.575097 0.792844
0.573968 0.599298 0.763302
0.637812 0.625086 0.702846
0.725063 0.596216 0.722713
0.837156 0.622766 0.744381
0.908782 0.655879 0.748470
0.393500 0.585138 0.806882
0.416052 0.586389 0.804868
0.480079 0.586023 0.792538
0.577935 0.604547 0.762997
0.639155 0.627497 0.703120
0.724575 0.599634 0.722042
0.835019 0.624170 0.742184
0.907134 0.656397 0.747097
0.488930 0.640528 0.813596
0.500999 0.639734 0.811307
0.539849 0.634638 0.799863
0.608606 0.641077 0.775967
0.657740 0.652094 0.719478
0.730953 0.627832 0.731411
0.834318 0.648005 0.748623
0.905760 0.676753 0.756588
0.564691 0.707515 0.830961
0.577600 0.708034 0.828916
0.609125 0.703059 0.818997
0.644617 0.690761 0.798886
0.686732 0.691218 0.752010
0.744198 0.675105 0.753048
0.836179 0.690669 0.765255
0.904295 0.713375 0.776028
0.601282 0.764675 0.846738
0.609064 0.765286 0.847044
0.634913 0.764920 0.846464
0.685847 0.758755 0.831693
0.716548 0.739101 0.796963
0.755276 0.726711 0.778073
0.839597 0.738491 0.790311
0.900084 0.750637 0.795132
0.654170 0.814664 0.851102
0.657679 0.814298 0.850828
0.673335 0.813107 0.850034
0.704189 0.811734 0.849271
0.749294 0.810819 0.848997
0.769924 0.783383 0.809201
0.844419 0.788540 0.819120
0.893523 0.799283 0.824125
0.666682 0.850401 0.852110
0.668971 0.850126 0.851865
0.679530 0.848478 0.850553
0.701289 0.845304 0.848112
0.733455 0.839567 0.843565
0.792477 0.838315 0.846372
0.836454 0.825437 0.832517
0.887266 0.830259 0.836423
0.727962 0.884001 0.868437
0.731289 0.883696 0.868589
0.746334 0.882872 0.869841
0.775540 0.881682 0.873259
0.812985 0.880003 0.878996
0.846921 0.879149 0.887449
0.857755 0.880064 0.892424
0.859739 0.876158 0.883940
