20 Preset/INSTA/【3】LUT video cho PR-AE-FCPX/INS LUT (7).cube
# Created by Adobe Lightroom plugin Export LUT (1.24.0)
# www.johnrellis.com/lightroom/exportlut.htm
# Preset: INS胶片Tezza03-JPG[素材江湖]07
# Color profile: C:\Program Files (x86)\Common Files\Adobe\Color\Profiles\Recommended\VideoHD.icc
LUT_3D_SIZE 5
DOMAIN_MIN 0.000000 0.000000 0.000000
DOMAIN_MAX 0.903226 0.903226 0.903226
0.098970 0.086366 0.033722
0.163058 0.093080 0.051850
0.410529 0.000000 0.067689
0.679805 0.000000 0.103517
0.838865 0.351324 0.196811
0.129397 0.156771 0.035859
0.217502 0.147524 0.047120
0.489906 0.135561 0.032074
0.707820 0.211795 0.096925
0.843961 0.406928 0.206912
0.203220 0.461830 0.000000
0.331334 0.443946 0.000000
0.545495 0.404242 0.000000
0.766140 0.499062 0.000000
0.856016 0.555352 0.265934
0.481483 0.661524 0.133364
0.521599 0.653559 0.140841
0.627039 0.621637 0.164492
0.738460 0.604639 0.231601
0.854673 0.683436 0.388281
0.667720 0.785458 0.420081
0.682429 0.782986 0.420752
0.731472 0.773281 0.424903
0.793393 0.756466 0.432105
0.851133 0.761227 0.534264
0.107820 0.102083 0.120943
0.209323 0.089540 0.151156
0.457221 0.093202 0.151186
0.679530 0.238987 0.217044
0.827726 0.404181 0.297185
0.148196 0.188205 0.153201
0.258793 0.202914 0.161837
0.498970 0.230838 0.183322
0.702083 0.309392 0.222751
0.833219 0.445075 0.307317
0.235111 0.506401 0.157290
0.360510 0.489631 0.166110
0.563073 0.449836 0.194461
0.758297 0.520409 0.252689
0.847166 0.568994 0.355688
0.496193 0.674983 0.284825
0.534569 0.667445 0.284977
0.635554 0.636805 0.285374
0.739620 0.617365 0.317540
0.850278 0.690303 0.444343
0.663264 0.788937 0.465339
0.678035 0.786465 0.465522
0.727504 0.776699 0.465766
0.790249 0.759670 0.466224
0.848569 0.763149 0.554803
0.000000 0.155215 0.367926
0.174319 0.187198 0.407752
0.582910 0.141207 0.508934
0.790249 0.277379 0.473304
0.832975 0.459388 0.474464
0.155398 0.256138 0.410773
0.260472 0.279362 0.424445
0.594263 0.319097 0.513115
0.761227 0.402014 0.476143
0.809751 0.513970 0.501061
0.331182 0.543114 0.493935
0.412207 0.555962 0.506371
0.606165 0.572381 0.523491
0.725521 0.579034 0.522515
0.816526 0.605676 0.539025
0.540398 0.706844 0.545190
0.564477 0.706050 0.544396
0.651942 0.689418 0.533562
0.740444 0.661891 0.523369
0.835233 0.714717 0.593866
0.646357 0.801755 0.599084
0.658350 0.801083 0.598383
0.709773 0.791073 0.590356
0.776699 0.772793 0.574365
0.839261 0.770748 0.623468
0.000000 0.287266 0.601709
0.178470 0.310765 0.615991
0.525292 0.422950 0.664149
0.778714 0.453956 0.728969
0.868376 0.542199 0.719448
0.175937 0.371496 0.613733
0.274113 0.387854 0.618341
0.544793 0.484962 0.666041
0.771267 0.512291 0.728206
0.860929 0.579400 0.722774
0.378668 0.555901 0.648341
0.432837 0.563195 0.651789
0.579614 0.593500 0.669642
0.754177 0.642329 0.729580
0.829557 0.665644 0.719539
0.570916 0.714473 0.705470
0.594293 0.716640 0.708522
0.664332 0.728511 0.723507
0.745144 0.736629 0.733608
0.802701 0.731807 0.721828
0.681239 0.809262 0.758572
0.688808 0.809476 0.759060
0.700954 0.811063 0.745449
0.752132 0.801968 0.726131
0.824308 0.787045 0.723140
0.382788 0.533135 0.787442
0.424750 0.538628 0.790433
0.591516 0.592187 0.800259
0.726802 0.637049 0.820462
0.833921 0.663813 0.846677
0.414649 0.560479 0.788632
0.453315 0.565301 0.788937
0.595148 0.606836 0.799557
0.727108 0.654505 0.819944
0.831449 0.679103 0.846555
0.475654 0.631189 0.795315
0.505791 0.634119 0.795254
0.601923 0.649226 0.796048
0.727871 0.702296 0.818692
0.825345 0.722652 0.846708
0.579675 0.726070 0.809659
0.592584 0.726192 0.809751
0.639551 0.727108 0.810178
0.716121 0.738582 0.813840
0.822568 0.776242 0.849516
0.669337 0.814267 0.833646
0.675959 0.814694 0.834104
0.702480 0.816983 0.836118
0.753140 0.823545 0.842313
0.822568 0.832303 0.852293
