20 Preset/INSTA/【3】LUT video cho PR-AE-FCPX/INS LUT (3).cube
# Created by Adobe Lightroom plugin Export LUT (1.24.0)
# www.johnrellis.com/lightroom/exportlut.htm
# Preset: INS胶片Tezza01[素材江湖]03
# Color profile: C:\Program Files (x86)\Common Files\Adobe\Color\Profiles\Recommended\VideoHD.icc
LUT_3D_SIZE 8
DOMAIN_MIN 0.000000 0.000000 0.000000
DOMAIN_MAX 0.903226 0.903226 0.903226
0.028687 0.035340 0.052186
0.099886 0.059480 0.069551
0.282353 0.070375 0.072145
0.570062 0.000000 0.014282
0.808347 0.051606 0.000000
0.922667 0.294255 0.000000
0.975952 0.416846 0.000000
1.000000 0.515129 0.168063
0.046448 0.097871 0.091585
0.089723 0.096376 0.099733
0.262181 0.129549 0.076936
0.533104 0.107332 0.016510
0.773007 0.152041 0.000000
0.896727 0.294530 0.000000
0.961059 0.410346 0.000000
1.000000 0.509697 0.143771
0.000000 0.288884 0.147463
0.085603 0.283848 0.159792
0.236332 0.256046 0.197330
0.537926 0.307530 0.045930
0.744717 0.331945 0.000000
0.875120 0.407691 0.000000
0.951019 0.492653 0.000000
0.999084 0.565454 0.210819
0.245884 0.605402 0.321721
0.324559 0.597833 0.328954
0.474830 0.568566 0.353582
0.572992 0.537835 0.406104
0.738857 0.553277 0.240574
0.840146 0.536065 0.000000
0.922148 0.578363 0.107027
0.977173 0.624964 0.265324
0.529656 0.741176 0.514214
0.549584 0.738674 0.517876
0.615015 0.731044 0.536065
0.674311 0.709468 0.548760
0.707942 0.680903 0.567742
0.799649 0.679255 0.442573
0.879149 0.665705 0.304753
0.947570 0.683955 0.315770
0.661219 0.807767 0.662074
0.673091 0.809659 0.670466
0.698604 0.806973 0.679469
0.729641 0.798581 0.686152
0.755398 0.783322 0.687373
0.773312 0.769345 0.698390
0.834073 0.773892 0.639918
0.904021 0.776516 0.586481
0.735225 0.857572 0.759243
0.739162 0.857725 0.761044
0.751369 0.856107 0.764279
0.772915 0.853758 0.771542
0.790585 0.845426 0.771206
0.807889 0.836088 0.773495
0.820920 0.828733 0.781949
0.864469 0.837400 0.761227
0.795377 0.893523 0.828702
0.797024 0.893339 0.829099
0.804288 0.892790 0.831388
0.817624 0.892027 0.836271
0.826902 0.886778 0.833951
0.841520 0.883543 0.837430
0.855192 0.880095 0.842344
0.865354 0.877531 0.850004
0.037324 0.062745 0.093355
0.101869 0.062684 0.098207
0.274266 0.073274 0.103029
0.541619 0.000000 0.094575
0.774319 0.114229 0.013184
0.893706 0.274174 0.000000
0.957671 0.394568 0.000000
1.000000 0.495308 0.160037
0.025269 0.105562 0.110353
0.098665 0.108705 0.116548
0.266880 0.139437 0.110231
0.530602 0.139284 0.095125
0.759335 0.180636 0.007996
0.881987 0.296361 0.000000
0.949035 0.401648 0.000000
0.995789 0.495583 0.147890
0.000000 0.292119 0.180209
0.128420 0.289097 0.191043
0.247715 0.268162 0.222873
0.526665 0.308080 0.114992
0.726009 0.326360 0.000000
0.857237 0.393256 0.000000
0.934905 0.469825 0.000000
0.987640 0.545373 0.192966
0.224491 0.575189 0.319677
0.304143 0.569879 0.327642
0.454719 0.546593 0.352819
0.539910 0.508721 0.391211
0.708339 0.521263 0.233402
0.815183 0.506340 0.000000
0.905852 0.552911 0.083742
0.966064 0.604181 0.235477
0.528527 0.735866 0.517266
0.546532 0.732631 0.519432
0.609216 0.723598 0.534051
0.664302 0.698268 0.540520
0.695125 0.666651 0.555322
0.790066 0.666133 0.428779
0.871580 0.653529 0.289830
0.940703 0.672847 0.299870
0.655268 0.802976 0.656397
0.662867 0.802457 0.659083
0.690150 0.799985 0.669062
0.723537 0.792508 0.677943
0.750820 0.777981 0.680781
0.770169 0.765530 0.694362
0.831022 0.769039 0.632593
0.901152 0.770108 0.573816
0.729915 0.853849 0.753841
0.732326 0.852934 0.753689
0.744717 0.851194 0.756802
0.767544 0.849363 0.765286
0.787015 0.842039 0.766934
0.804410 0.832456 0.769039
0.816495 0.823789 0.775937
0.860380 0.831632 0.752163
0.790707 0.891600 0.824643
0.793240 0.891752 0.825925
0.800504 0.891112 0.828092
0.814359 0.890379 0.833219
0.829740 0.888457 0.837919
0.842435 0.884215 0.839139
0.854765 0.879698 0.842130
0.864805 0.877012 0.849516
0.011139 0.100496 0.154788
0.075563 0.108583 0.142000
0.329961 0.047028 0.201358
0.629450 0.000000 0.206271
0.810178 0.211398 0.198306
0.901091 0.346899 0.195590
0.955200 0.446967 0.221164
0.997803 0.532372 0.292668
0.005646 0.134401 0.196994
0.108125 0.151553 0.186465
0.344884 0.157992 0.218143
0.610742 0.175418 0.209964
0.790097 0.255528 0.197360
0.888701 0.362585 0.192660
0.947906 0.450324 0.212955
0.992737 0.532586 0.283787
0.000000 0.342992 0.274968
0.163180 0.348699 0.283818
0.338262 0.340490 0.300206
0.586633 0.354131 0.222812
0.760433 0.387274 0.204135
0.867491 0.442145 0.196231
0.933410 0.502770 0.224369
0.982422 0.568017 0.301915
0.334722 0.605890 0.416022
0.401068 0.603662 0.426154
0.521386 0.585260 0.446113
0.585382 0.554314 0.467506
0.727779 0.549554 0.312627
0.828580 0.538628 0.204776
0.907683 0.576898 0.246708
0.963684 0.623255 0.335332
0.561730 0.740810 0.566522
0.578546 0.738949 0.569726
0.634333 0.733455 0.584924
0.682551 0.713344 0.589990
0.709285 0.687312 0.600305
0.793637 0.678004 0.474311
0.871183 0.659602 0.340887
0.938506 0.682429 0.373297
0.669154 0.804166 0.679744
0.676112 0.803922 0.682338
0.699886 0.801541 0.690059
0.729824 0.794491 0.696925
0.753475 0.780209 0.696956
0.770535 0.768338 0.707424
0.829953 0.770718 0.645197
0.900328 0.772030 0.589502
0.736049 0.856016 0.765072
0.738430 0.855253 0.765042
0.749691 0.853147 0.767086
0.770871 0.850858 0.773739
0.789700 0.843809 0.775113
0.806516 0.834684 0.776791
0.819028 0.827543 0.784451
0.863096 0.835843 0.761624
0.792020 0.892210 0.828550
0.793332 0.891844 0.828580
0.800412 0.891173 0.830533
0.815152 0.890867 0.836362
0.830961 0.889158 0.841367
0.843992 0.885374 0.843107
0.856199 0.881163 0.846036
0.865904 0.878477 0.852903
0.000000 0.150057 0.263432
0.000000 0.161105 0.254551
0.165988 0.207279 0.251255
0.702388 0.148806 0.390265
0.844755 0.305730 0.396796
0.905455 0.399847 0.365698
0.945922 0.480781 0.368933
0.983124 0.557794 0.415198
0.000000 0.206210 0.316075
0.040314 0.215946 0.304234
0.222873 0.257969 0.302739
0.708492 0.257725 0.409186
0.835935 0.356054 0.401892
0.898405 0.423102 0.367437
0.941039 0.492958 0.370459
0.980102 0.564630 0.416785
0.000000 0.364233 0.416571
0.185367 0.379889 0.424842
0.475013 0.434333 0.455634
0.674098 0.440833 0.431342
0.797269 0.463966 0.398230
0.875303 0.502861 0.380926
0.928099 0.553918 0.399786
0.972137 0.604822 0.444831
0.345281 0.640620 0.531212
0.419501 0.638514 0.533288
0.577966 0.631220 0.552911
0.638605 0.605921 0.540429
0.743557 0.571527 0.406378
0.834104 0.577264 0.378882
0.900816 0.603265 0.396674
0.954284 0.643824 0.452827
0.598077 0.756039 0.637324
0.612482 0.753872 0.638697
0.662959 0.748409 0.649958
0.706935 0.735103 0.657069
0.728481 0.714992 0.653956
0.798734 0.694636 0.537774
0.871733 0.667597 0.411048
0.933349 0.698634 0.480323
0.693324 0.812100 0.720729
0.701625 0.813565 0.725551
0.719966 0.810941 0.729519
0.747066 0.806302 0.736446
0.765164 0.792630 0.733394
0.776120 0.779294 0.735622
0.831083 0.777066 0.671260
0.900694 0.774563 0.612787
0.742336 0.859007 0.780880
0.745693 0.858885 0.781949
0.758022 0.857939 0.785306
0.779019 0.856291 0.791867
0.798093 0.850584 0.794186
0.812253 0.840818 0.792905
0.822416 0.832700 0.797024
0.865873 0.839475 0.771633
0.795895 0.894682 0.837797
0.797482 0.894469 0.838102
0.804410 0.893767 0.839719
0.817350 0.892729 0.843473
0.833890 0.891295 0.848753
0.846281 0.887419 0.849760
0.858122 0.883268 0.852018
0.867857 0.881071 0.858732
0.000000 0.235080 0.402350
0.000000 0.245365 0.395148
0.192508 0.286412 0.355627
0.478462 0.344335 0.483314
0.854704 0.425391 0.573754
0.902708 0.496376 0.553429
0.929412 0.559442 0.550317
0.963867 0.612146 0.564508
0.000000 0.286870 0.443244
0.000000 0.296178 0.435828
0.251987 0.332677 0.395666
0.541894 0.388312 0.520134
0.846433 0.462684 0.579156
0.895842 0.517296 0.559594
0.925719 0.568109 0.550744
0.961547 0.617517 0.565270
0.178683 0.418616 0.550134
0.279942 0.439765 0.548730
0.438880 0.478737 0.519432
0.669581 0.526848 0.602014
0.815854 0.553155 0.590845
0.867033 0.572717 0.565820
0.910948 0.594110 0.546227
0.952331 0.632654 0.561944
0.381231 0.625696 0.621546
0.433875 0.630396 0.624567
0.584100 0.653651 0.641535
0.698695 0.659205 0.633326
0.773739 0.640436 0.593194
0.836210 0.632166 0.558618
0.889616 0.641535 0.549157
0.939879 0.668421 0.570092
0.583062 0.762173 0.688594
0.604364 0.761746 0.690822
0.671473 0.759945 0.701564
0.723781 0.752224 0.710872
0.741451 0.731868 0.687892
0.799130 0.696345 0.580438
0.864927 0.684657 0.537591
0.923919 0.709041 0.574487
0.689540 0.811460 0.740719
0.696925 0.811276 0.742885
0.716426 0.808774 0.745205
0.745998 0.805081 0.751858
0.766354 0.794553 0.751492
0.779568 0.784787 0.750057
0.831418 0.776059 0.684901
0.902953 0.765011 0.613062
0.743679 0.860716 0.796811
0.745937 0.860197 0.796689
0.754116 0.858762 0.796231
0.776181 0.857450 0.802029
0.800900 0.854276 0.808438
0.814176 0.843870 0.805142
0.822507 0.834409 0.806180
0.866361 0.837156 0.772335
0.786282 0.894591 0.840482
0.789242 0.894347 0.841459
0.795560 0.893706 0.841886
0.812345 0.893370 0.847288
0.830991 0.891936 0.852659
0.846403 0.888792 0.855467
0.857939 0.883940 0.856260
0.867002 0.880797 0.861234
0.000000 0.342657 0.539971
0.000000 0.351476 0.535729
0.218540 0.380407 0.506859
0.422614 0.437720 0.439948
0.755062 0.518517 0.685176
0.886534 0.607050 0.692134
0.915343 0.643977 0.683284
0.934936 0.695705 0.707240
0.000000 0.375677 0.556023
0.000000 0.380926 0.549615
0.265446 0.403906 0.519982
0.441962 0.453773 0.454047
0.756344 0.532769 0.684230
0.880034 0.612055 0.688899
0.910735 0.645838 0.680812
0.933165 0.693538 0.702205
0.316594 0.502037 0.633112
0.359991 0.510948 0.629084
0.446204 0.523735 0.604334
0.551293 0.550439 0.545251
0.778439 0.621851 0.709895
0.860624 0.659541 0.701381
0.895781 0.677455 0.694270
0.927672 0.705776 0.703120
0.453742 0.627008 0.698207
0.484657 0.630274 0.698817
0.588312 0.649195 0.705318
0.680659 0.687526 0.686885
0.794644 0.726986 0.744472
0.837064 0.719203 0.724849
0.876768 0.717403 0.707424
0.919951 0.730037 0.709194
0.581140 0.755306 0.742519
0.598688 0.756771 0.743801
0.657954 0.764614 0.751003
0.733394 0.775753 0.762112
0.765591 0.757656 0.736446
0.808377 0.737545 0.701137
0.858579 0.732540 0.686183
0.910765 0.745205 0.696529
0.681910 0.822263 0.777035
0.690547 0.822904 0.778805
0.716213 0.822049 0.781064
0.756252 0.821439 0.788632
0.782864 0.814389 0.790677
0.792386 0.799466 0.774228
0.838193 0.774624 0.701869
0.900908 0.776608 0.692714
0.737667 0.866087 0.814878
0.742367 0.866300 0.816220
0.757839 0.865660 0.819333
0.784115 0.864866 0.826017
0.807309 0.862638 0.830106
0.822660 0.854032 0.827909
0.829648 0.843015 0.822171
0.873503 0.840116 0.783322
0.775570 0.897307 0.847593
0.777554 0.896941 0.847776
0.787655 0.896178 0.849943
0.807218 0.895415 0.855558
0.825864 0.894133 0.859159
0.847929 0.892302 0.865232
0.859678 0.886778 0.864591
0.868009 0.882719 0.867613
0.000000 0.443977 0.641718
0.000000 0.450446 0.639124
0.269596 0.465400 0.617273
0.436316 0.497322 0.570977
0.566918 0.559655 0.591699
0.825406 0.646937 0.768948
0.904997 0.706355 0.769406
0.926879 0.725399 0.762814
0.000000 0.456916 0.643458
0.142885 0.463661 0.641657
0.299474 0.477241 0.620813
0.446448 0.503960 0.574395
0.569787 0.562341 0.592004
0.822446 0.644404 0.762905
0.900420 0.699275 0.761227
0.923766 0.718318 0.754849
0.347295 0.544915 0.690639
0.367468 0.546868 0.686732
0.434638 0.553429 0.667536
0.529198 0.570459 0.627344
0.621332 0.615198 0.633143
0.823484 0.690486 0.772457
0.891325 0.725887 0.771481
0.917998 0.740810 0.768154
0.452338 0.620081 0.745785
0.478798 0.626093 0.743435
0.570001 0.654139 0.736568
0.635615 0.670954 0.713497
0.692592 0.696742 0.699672
0.833402 0.752010 0.793851
0.879820 0.758816 0.784726
0.908995 0.765805 0.781308
0.550011 0.725154 0.772244
0.562066 0.724880 0.771206
0.613581 0.728939 0.771206
0.689052 0.741176 0.775082
0.745968 0.762112 0.760433
0.830350 0.787900 0.802335
0.863828 0.781643 0.789303
0.898650 0.787533 0.788022
0.645014 0.813169 0.805295
0.653040 0.813840 0.806058
0.681788 0.816220 0.808652
0.725704 0.822660 0.815366
0.782345 0.831754 0.825345
0.811429 0.814939 0.804135
0.847898 0.803067 0.784665
0.892241 0.804776 0.783566
0.717311 0.871305 0.838193
0.722164 0.871336 0.838682
0.739437 0.870481 0.839475
0.769772 0.869291 0.841947
0.806332 0.868040 0.847166
0.832395 0.864530 0.851347
0.836820 0.850340 0.835874
0.881529 0.830961 0.781125
0.762417 0.899474 0.859464
0.765591 0.899413 0.859983
0.779294 0.899413 0.862791
0.800015 0.898589 0.866361
0.825528 0.897429 0.871489
0.848020 0.896361 0.876341
0.863584 0.892271 0.877317
0.871153 0.886564 0.875883
0.261906 0.549004 0.733333
0.291814 0.552514 0.731289
0.368994 0.557580 0.715145
0.478401 0.574121 0.684657
0.579706 0.596521 0.624964
0.685237 0.659388 0.715785
0.865019 0.732906 0.826352
0.925536 0.776547 0.829313
0.279118 0.552361 0.732418
0.306767 0.555932 0.730617
0.380926 0.562341 0.716243
0.482551 0.576837 0.685634
0.581018 0.598352 0.627161
0.685512 0.660761 0.714992
0.863493 0.733150 0.824491
0.924071 0.776944 0.828580
0.382452 0.591211 0.749691
0.397223 0.592950 0.747280
0.445930 0.597009 0.734401
0.529839 0.613123 0.711696
0.608972 0.628138 0.658473
0.699245 0.683619 0.726009
0.863737 0.750057 0.828153
0.919249 0.786465 0.831510
0.439063 0.632044 0.777432
0.465644 0.638666 0.776425
0.541100 0.658503 0.769406
0.594202 0.667750 0.751156
0.653986 0.680079 0.713985
0.723293 0.724025 0.747585
0.866514 0.781277 0.838346
0.911620 0.802914 0.837522
0.446723 0.684108 0.803159
0.464881 0.685176 0.803372
0.518791 0.684932 0.801053
0.634180 0.716701 0.794095
0.701564 0.738613 0.773770
0.745907 0.761013 0.765927
0.867521 0.813718 0.849454
0.902647 0.820218 0.843595
0.566186 0.783963 0.828946
0.573602 0.783474 0.828305
0.605310 0.783017 0.827054
0.660060 0.784909 0.826810
0.723171 0.790127 0.828885
0.785336 0.811307 0.819028
0.869688 0.848081 0.863676
0.893706 0.841581 0.853178
0.657588 0.861173 0.859342
0.662074 0.861051 0.859281
0.680476 0.860655 0.859190
0.715450 0.860777 0.859922
0.762295 0.861875 0.861936
0.814572 0.865873 0.867063
0.854856 0.866117 0.867124
0.882292 0.855985 0.853300
0.727901 0.902403 0.876646
0.730922 0.902190 0.876707
0.744839 0.901793 0.877623
0.771542 0.901579 0.880217
0.804379 0.900237 0.882536
0.838163 0.898741 0.885710
0.867369 0.897917 0.891295
0.874266 0.890227 0.884825
