20 Preset/INSTA/【3】LUT video cho PR-AE-FCPX/INS LUT (14).cube
# Created by Adobe Lightroom plugin Export LUT (1.24.0)
# www.johnrellis.com/lightroom/exportlut.htm
# Preset: INS胶片-复古[素材江湖]14
# Color profile: C:\Program Files (x86)\Common Files\Adobe\Color\Profiles\Recommended\VideoHD.icc
LUT_3D_SIZE 32
DOMAIN_MIN 0.0 0.0 0.0
DOMAIN_MAX 1.0 1.0 1.0
0.000000 0.000000 0.000000
0.003967 0.000000 0.000000
0.017548 0.000153 0.003021
0.052949 0.000488 0.007935
0.095491 0.000092 0.014679
0.129061 0.000000 0.025574
0.177523 0.000000 0.034699
0.238376 0.000000 0.041810
0.306615 0.000000 0.047669
0.380285 0.000000 0.051637
0.457679 0.000000 0.054505
0.533837 0.000000 0.056397
0.605646 0.000000 0.056947
0.670588 0.000000 0.058686
0.726375 0.000000 0.062806
0.773739 0.000000 0.069581
0.814023 0.000000 0.079988
0.865141 0.000000 0.095460
0.900877 0.000000 0.110536
0.929320 0.000000 0.126284
0.952911 0.000000 0.144350
0.972473 0.000000 0.162081
0.988495 0.000000 0.180911
1.000000 0.000000 0.200351
1.000000 0.000000 0.221134
1.000000 0.000000 0.242679
1.000000 0.000000 0.266789
1.000000 0.000000 0.293889
1.000000 0.000000 0.324895
1.000000 0.000000 0.360388
1.000000 0.000000 0.401099
1.000000 0.196139 0.445716
0.000000 0.004578 0.001648
0.001556 0.003174 0.000671
0.019379 0.003326 0.002564
0.054810 0.001465 0.005493
0.095430 0.001312 0.012268
0.128267 0.000000 0.020905
0.174228 0.000000 0.029145
0.232425 0.000000 0.037537
0.298497 0.000000 0.043488
0.370062 0.000000 0.046815
0.445563 0.000000 0.048981
0.521080 0.000000 0.050294
0.592950 0.000000 0.051179
0.658656 0.000000 0.054353
0.715541 0.000000 0.056275
0.764492 0.000000 0.061921
0.806607 0.000000 0.070863
0.857206 0.000000 0.090425
0.892821 0.000000 0.104433
0.921080 0.000000 0.119326
0.944671 0.000000 0.135439
0.964446 0.000000 0.152682
0.980713 0.000000 0.169833
0.995117 0.000000 0.188083
1.000000 0.000000 0.207614
1.000000 0.000000 0.228763
1.000000 0.000000 0.252811
1.000000 0.000000 0.279454
1.000000 0.000000 0.310033
1.000000 0.000000 0.344823
1.000000 0.000000 0.385168
1.000000 0.128023 0.429999
0.000061 0.022004 0.010559
0.001770 0.021790 0.011658
0.021546 0.025360 0.005158
0.050172 0.028779 0.007538
0.095644 0.026947 0.012146
0.129397 0.018647 0.017670
0.175692 0.000000 0.022950
0.232242 0.000000 0.025513
0.296300 0.000000 0.027802
0.365789 0.000000 0.027405
0.439429 0.000000 0.029084
0.513848 0.000000 0.032929
0.584924 0.000000 0.032990
0.650202 0.000000 0.035309
0.707973 0.000000 0.039643
0.757198 0.000000 0.041962
0.802945 0.000000 0.050050
0.851652 0.000000 0.073610
0.887022 0.000000 0.093507
0.915435 0.000000 0.109621
0.939452 0.000000 0.126223
0.959625 0.000000 0.142916
0.976287 0.000000 0.160311
0.990997 0.000000 0.179202
1.000000 0.000000 0.198184
1.000000 0.000000 0.219272
1.000000 0.000000 0.242802
1.000000 0.000000 0.269352
1.000000 0.000000 0.300023
1.000000 0.000000 0.334813
1.000000 0.000000 0.375311
1.000000 0.024842 0.419562
0.004486 0.058808 0.032532
0.006165 0.058595 0.033661
0.010681 0.063966 0.024964
0.063142 0.066133 0.016846
0.098268 0.073945 0.019165
0.133394 0.067903 0.021912
0.180758 0.040436 0.023713
0.235721 0.000000 0.025147
0.297887 0.000000 0.026520
0.365270 0.000000 0.026551
0.436957 0.000000 0.025635
0.508659 0.000000 0.024994
0.578454 0.000000 0.024842
0.642695 0.000000 0.024567
0.699672 0.000000 0.026123
0.748928 0.000000 0.030884
0.798306 0.000000 0.038758
0.843107 0.000000 0.058747
0.877012 0.000000 0.084077
0.904448 0.000000 0.100343
0.928252 0.000000 0.116426
0.948882 0.000000 0.133242
0.966705 0.000000 0.150423
0.982788 0.000000 0.169009
0.997528 0.000000 0.188113
1.000000 0.000000 0.209476
1.000000 0.000000 0.232792
1.000000 0.000000 0.259953
1.000000 0.000000 0.291936
1.000000 0.000000 0.327855
1.000000 0.000000 0.367254
1.000000 0.000000 0.411200
0.000000 0.100465 0.063752
0.001984 0.100313 0.066011
0.003632 0.101411 0.058747
0.040894 0.104860 0.038453
0.111849 0.105440 0.025605
0.145144 0.105257 0.023987
0.184298 0.099153 0.023041
0.237034 0.073213 0.023377
0.296239 0.000000 0.024384
0.360204 0.000000 0.023743
0.428443 0.000000 0.023896
0.498573 0.000000 0.022675
0.566674 0.000000 0.023163
0.630854 0.000000 0.023041
0.688624 0.000000 0.024384
0.739040 0.000000 0.027375
0.793698 0.000000 0.036561
0.836667 0.000000 0.055024
0.870359 0.000000 0.081605
0.897917 0.000000 0.098299
0.921752 0.000000 0.114290
0.942657 0.000000 0.130983
0.960906 0.000000 0.147829
0.977691 0.000000 0.166598
0.993072 0.000000 0.186191
1.000000 0.000000 0.207431
1.000000 0.000000 0.230869
1.000000 0.000000 0.256870
1.000000 0.000000 0.285588
1.000000 0.000000 0.317967
1.000000 0.000000 0.357092
1.000000 0.000000 0.400458
0.000000 0.141909 0.094697
0.000000 0.142306 0.095766
0.000000 0.142031 0.097688
0.000000 0.147036 0.068696
0.091310 0.151034 0.038300
0.169680 0.146456 0.018982
0.210056 0.141329 0.015503
0.244053 0.131624 0.014191
0.301030 0.108919 0.013733
0.363561 0.031708 0.014038
0.429908 0.000000 0.014069
0.497688 0.000000 0.013733
0.564172 0.000000 0.013489
0.627039 0.000000 0.013642
0.684413 0.000000 0.014984
0.741939 0.000000 0.020691
0.793881 0.000000 0.032471
0.835019 0.000000 0.051789
0.868132 0.000000 0.081453
0.895262 0.000000 0.099062
0.919066 0.000000 0.115328
0.940032 0.000000 0.132326
0.996948 0.000000 0.202396
1.000000 0.000000 0.224369
1.000000 0.000000 0.247135
1.000000 0.000000 0.271305
1.000000 0.000000 0.297002
1.000000 0.000000 0.325139
1.000000 0.000000 0.355871
1.000000 0.108888 0.389899
1.000000 0.229343 0.426612
1.000000 0.307622 0.465675
0.000000 0.223484 0.134859
0.000000 0.223789 0.135744
0.000000 0.224002 0.140047
0.000000 0.228000 0.110445
0.000000 0.231174 0.071412
0.163729 0.230106 0.001587
0.266514 0.213169 0.000000
0.312779 0.199619 0.000000
0.346014 0.180667 0.000000
0.394781 0.157168 0.000000
0.462776 0.112825 0.000000
0.530297 0.000000 0.000000
0.594385 0.000000 0.000000
0.653437 0.000000 0.000000
0.716304 0.000000 0.000000
0.773526 0.000000 0.005646
0.818906 0.000000 0.027558
0.854643 0.000000 0.060365
0.884276 0.000000 0.092714
0.910582 0.000000 0.112123
0.934936 0.000000 0.133547
0.957122 0.000000 0.155886
0.976989 0.000000 0.180514
0.994598 0.000000 0.206546
1.000000 0.000000 0.232914
1.000000 0.000000 0.259434
1.000000 0.000000 0.285863
1.000000 0.000000 0.313756
1.000000 0.000000 0.344305
1.000000 0.139223 0.376837
1.000000 0.234226 0.412573
1.000000 0.304753 0.451026
0.000000 0.294560 0.175296
0.000000 0.294469 0.176455
0.000000 0.295262 0.180911
0.000000 0.297978 0.161410
0.000000 0.300450 0.113619
0.006867 0.300114 0.050019
0.244175 0.293523 0.000000
0.347234 0.267918 0.000000
0.394232 0.251225 0.000000
0.425086 0.228000 0.000000
0.455329 0.206577 0.000000
0.519493 0.175143 0.000000
0.582788 0.127810 0.000000
0.653590 0.000000 0.000000
0.713710 0.000000 0.000000
0.763668 0.000000 0.000000
0.805631 0.000000 0.000000
0.840482 0.000000 0.027344
0.870298 0.000000 0.072816
0.896880 0.000000 0.102174
0.921508 0.000000 0.124575
0.944305 0.000000 0.147860
0.964843 0.000000 0.172946
0.983185 0.000000 0.198825
0.999084 0.000000 0.225284
1.000000 0.000000 0.251865
1.000000 0.000000 0.278782
1.000000 0.000000 0.306615
1.000000 0.105074 0.336858
1.000000 0.197177 0.369329
1.000000 0.262638 0.405005
1.000000 0.322026 0.443427
0.000000 0.372503 0.225284
0.000000 0.372747 0.226505
0.000000 0.373632 0.230686
0.000000 0.375311 0.217227
0.000000 0.377386 0.160616
0.000000 0.375647 0.121675
0.173037 0.370428 0.019471
0.338201 0.358465 0.000000
0.429053 0.326635 0.000000
0.474922 0.308476 0.000000
0.508171 0.286809 0.000000
0.543114 0.268193 0.000000
0.590661 0.247074 0.000000
0.652796 0.220768 0.000000
0.706569 0.188632 0.000000
0.752956 0.146731 0.000000
0.793179 0.078370 0.000000
0.827695 0.000000 0.000000
0.857755 0.000000 0.031037
0.884581 0.000000 0.088899
0.909453 0.000000 0.115511
0.932464 0.000000 0.141115
0.953399 0.000000 0.167117
0.972198 0.000000 0.193820
0.988647 0.000000 0.221073
1.000000 0.000000 0.248051
1.000000 0.093385 0.275364
1.000000 0.159274 0.303624
1.000000 0.210269 0.334142
1.000000 0.257023 0.366888
1.000000 0.303868 0.402258
1.000000 0.350683 0.440253
0.000000 0.450935 0.282994
0.000000 0.450874 0.283757
0.000000 0.451118 0.287327
0.000000 0.452125 0.278813
0.000000 0.452552 0.231083
0.000000 0.450538 0.182620
0.000000 0.444770 0.135042
0.284947 0.438819 0.002075
0.438880 0.426703 0.000000
0.518273 0.396185 0.000000
0.564721 0.381598 0.000000
0.592248 0.358190 0.000000
0.616449 0.334478 0.000000
0.637842 0.311406 0.000000
0.689418 0.291966 0.000000
0.736507 0.271427 0.000000
0.778012 0.250675 0.000000
0.814054 0.228611 0.000000
0.845365 0.206271 0.000000
0.872587 0.186160 0.047669
0.897368 0.169314 0.103761
0.919707 0.159213 0.132296
0.940063 0.155673 0.159274
0.958434 0.161593 0.185458
0.974945 0.173648 0.211978
0.989624 0.190585 0.238346
1.000000 0.211765 0.265629
1.000000 0.237552 0.294682
1.000000 0.268101 0.326238
1.000000 0.302098 0.359991
1.000000 0.339361 0.396887
1.000000 0.379126 0.436194
0.000000 0.526940 0.350744
0.000000 0.527184 0.351537
0.000000 0.528405 0.355993
0.000000 0.530541 0.354223
0.000000 0.532708 0.315709
0.000000 0.534051 0.262303
0.000000 0.531121 0.224369
0.262150 0.524987 0.172610
0.408606 0.514092 0.068482
0.541131 0.499916 0.000000
0.595422 0.463203 0.000000
0.632227 0.447333 0.000000
0.653376 0.423011 0.000000
0.672236 0.398505 0.000000
0.688991 0.374456 0.000000
0.719539 0.355596 0.000000
0.761410 0.341344 0.000000
0.797818 0.326452 0.000000
0.829465 0.311864 0.000000
0.857115 0.298466 0.000000
0.882322 0.287144 0.081331
0.905211 0.279515 0.121126
0.926238 0.275761 0.151492
0.945373 0.275303 0.180758
0.962646 0.278599 0.208713
0.977996 0.285588 0.236210
0.991974 0.296025 0.264561
1.000000 0.311040 0.294652
1.000000 0.330602 0.326726
1.000000 0.354894 0.361303
1.000000 0.383581 0.398535
1.000000 0.415442 0.438300
0.113436 0.599817 0.431830
0.123690 0.600031 0.432898
0.149844 0.600793 0.436347
0.181125 0.602167 0.439490
0.103365 0.603510 0.409552
0.000000 0.604608 0.357275
0.118685 0.602014 0.319585
0.279789 0.596094 0.277195
0.400519 0.587182 0.221714
0.513390 0.573877 0.139162
0.616876 0.556207 0.000000
0.657282 0.523949 0.000000
0.735439 0.562982 0.000000
0.749691 0.539635 0.000000
0.761837 0.515160 0.000000
0.773251 0.490455 0.000000
0.784726 0.465858 0.000000
0.816098 0.453254 0.000000
0.844083 0.441230 0.000000
0.869505 0.431098 0.085908
0.892607 0.422431 0.132235
0.913390 0.415869 0.166506
0.932250 0.410986 0.197269
0.949340 0.408789 0.226658
0.964843 0.408484 0.255558
0.978820 0.410163 0.283604
0.991424 0.413703 0.311681
1.000000 0.420233 0.340307
1.000000 0.430152 0.370520
1.000000 0.444190 0.402991
1.000000 0.462226 0.438087
1.000000 0.484657 0.475776
0.387457 0.679561 0.546715
0.387945 0.679377 0.546777
0.392584 0.678706 0.547906
0.403998 0.678187 0.551446
0.379095 0.676967 0.528161
0.338567 0.675807 0.488869
0.322850 0.673457 0.443549
0.376135 0.667628 0.407233
0.448096 0.660426 0.363043
0.530541 0.651514 0.308293
0.617578 0.640467 0.238346
0.696864 0.624598 0.161135
0.729274 0.600763 0.109041
0.752804 0.587549 0.000000
0.767971 0.569390 0.000000
0.779782 0.548791 0.000000
0.790249 0.526970 0.000000
0.799985 0.504387 0.000000
0.820737 0.489235 0.000000
0.846921 0.479255 0.012696
0.870909 0.470558 0.111238
0.892882 0.463569 0.151858
0.912963 0.457832 0.185061
0.931395 0.454261 0.216495
0.948180 0.452216 0.246769
0.963378 0.452155 0.275914
0.977264 0.454108 0.305882
0.990051 0.458503 0.335943
1.000000 0.466133 0.367803
1.000000 0.477607 0.402106
1.000000 0.492531 0.438087
1.000000 0.511467 0.476356
0.463966 0.706081 0.593042
0.463661 0.705715 0.592676
0.466163 0.704860 0.593072
0.471931 0.703944 0.594812
0.460395 0.702632 0.581689
0.433051 0.701198 0.552850
0.397467 0.700465 0.510185
0.418128 0.696468 0.479927
0.461128 0.691463 0.444923
0.519921 0.685298 0.403540
0.589166 0.677790 0.353185
0.662745 0.668177 0.289372
0.727932 0.650996 0.229496
0.754055 0.629969 0.190982
0.773465 0.616388 0.141909
0.786252 0.598779 0.121920
0.796048 0.579278 0.108858
0.805295 0.559228 0.079133
0.814572 0.539361 0.003388
0.826383 0.521538 0.000000
0.851286 0.513420 0.096956
0.874327 0.506859 0.142641
0.895506 0.501396 0.179141
0.915038 0.497536 0.212802
0.932891 0.494911 0.244541
0.949126 0.493904 0.275395
0.964019 0.494392 0.306249
0.977722 0.497169 0.337285
0.990448 0.502617 0.370092
1.000000 0.511620 0.405005
1.000000 0.524041 0.441901
1.000000 0.540215 0.481025
0.522667 0.729732 0.634180
0.522850 0.729549 0.634150
0.524010 0.728908 0.634241
0.527642 0.727993 0.635248
0.524681 0.726650 0.629572
0.505791 0.724910 0.608240
0.481636 0.723812 0.577935
0.471077 0.722042 0.545281
0.492683 0.718410 0.518334
0.529442 0.714168 0.486427
0.578576 0.708888 0.448676
0.637018 0.702052 0.401953
0.699702 0.692836 0.342657
0.753017 0.674464 0.292271
0.774624 0.655634 0.255833
0.790982 0.641718 0.213596
0.802213 0.624994 0.192172
0.810849 0.607141 0.178866
0.819486 0.589014 0.161135
0.828244 0.571221 0.138766
0.837400 0.554192 0.113436
0.857206 0.545495 0.140383
0.879179 0.540154 0.178073
0.899443 0.536095 0.212711
0.918151 0.533104 0.245396
0.935241 0.531548 0.277287
0.951171 0.531579 0.309239
0.965911 0.533928 0.342504
0.979706 0.538964 0.377630
0.992523 0.547356 0.415045
1.000000 0.559350 0.455085
1.000000 0.574884 0.496864
0.562737 0.749294 0.666102
0.563653 0.749416 0.666560
0.565393 0.749386 0.667414
0.568780 0.749233 0.668971
0.572869 0.749081 0.670161
0.561822 0.748348 0.656031
0.548089 0.748074 0.636530
0.530541 0.748135 0.608545
0.541039 0.746029 0.589502
0.560693 0.743038 0.566186
0.589715 0.738888 0.536614
0.628840 0.733059 0.499214
0.676204 0.725002 0.452247
0.729091 0.714351 0.391730
0.772152 0.693690 0.344274
0.789731 0.675776 0.306493
0.803983 0.661860 0.266972
0.814603 0.646357 0.243595
0.822690 0.630304 0.231968
0.831174 0.614496 0.216312
0.840146 0.599451 0.199344
0.849851 0.585138 0.181430
0.863920 0.574853 0.181491
0.885191 0.571496 0.217624
0.904784 0.569085 0.251713
0.922911 0.567803 0.285496
0.939605 0.568048 0.319280
0.955261 0.569909 0.353887
0.969726 0.574029 0.389868
0.983062 0.580804 0.427436
0.995209 0.590387 0.466835
1.000000 0.603021 0.507317
0.593957 0.766751 0.693080
0.594476 0.766720 0.693294
0.595666 0.766720 0.693965
0.598810 0.766873 0.695613
0.603632 0.767147 0.698268
0.598810 0.766873 0.690669
0.588830 0.766567 0.676112
0.576623 0.766384 0.656062
0.573083 0.765469 0.635950
0.584833 0.763058 0.618982
0.603082 0.759915 0.597314
0.628901 0.755673 0.569940
0.662501 0.749783 0.534752
0.703639 0.741848 0.489662
0.750698 0.731380 0.432288
0.787411 0.710170 0.390723
0.802823 0.694362 0.355352
0.816007 0.681453 0.319341
0.826352 0.667506 0.296330
0.834226 0.653132 0.284581
0.842741 0.639612 0.271458
0.851896 0.626612 0.257328
0.861753 0.614557 0.242771
0.872404 0.603571 0.228580
0.892149 0.601068 0.260472
0.910979 0.600214 0.295323
0.928527 0.600549 0.330510
0.944915 0.602502 0.366857
0.960113 0.606317 0.403967
0.974182 0.612421 0.442634
0.987030 0.621057 0.482551
0.998474 0.632471 0.523461
0.625025 0.784634 0.720699
0.625635 0.784848 0.721157
0.654932 0.801114 0.746944
0.657008 0.801297 0.748196
0.660456 0.801541 0.750179
0.659968 0.801389 0.747799
0.652644 0.800809 0.737606
0.643580 0.800198 0.723568
0.633082 0.799832 0.705165
0.637934 0.797848 0.692531
0.647242 0.795193 0.677394
0.661616 0.791653 0.658991
0.681514 0.786679 0.635554
0.707485 0.780148 0.604913
0.740017 0.771633 0.564202
0.778805 0.760555 0.511772
0.808927 0.739071 0.472999
0.821744 0.724178 0.437507
0.833310 0.711177 0.401984
0.842893 0.697749 0.376440
0.850248 0.684504 0.362921
0.858457 0.672297 0.349523
0.867460 0.660792 0.335454
0.877256 0.650019 0.320958
0.887633 0.639887 0.306615
0.902647 0.634699 0.318517
0.919768 0.633722 0.351141
0.936004 0.634150 0.384985
0.951354 0.636744 0.421118
0.965759 0.641779 0.459174
0.979126 0.649378 0.498665
0.991058 0.659449 0.539147
0.659022 0.804654 0.751369
0.661585 0.806027 0.753536
0.664912 0.807553 0.756283
0.668879 0.808927 0.759274
0.673335 0.810117 0.762387
0.677058 0.810788 0.764401
0.671107 0.810361 0.756344
0.663600 0.809751 0.745235
0.654749 0.809293 0.730800
0.651148 0.808164 0.716396
0.656703 0.806058 0.704189
0.665949 0.803281 0.689387
0.679652 0.799405 0.670649
0.698604 0.794369 0.647883
0.723110 0.787900 0.619104
0.753628 0.779721 0.581476
0.790249 0.769711 0.534752
0.816587 0.748684 0.501091
0.828672 0.736172 0.470466
0.840116 0.724910 0.440375
0.850004 0.713191 0.417700
0.857755 0.702358 0.408362
0.866270 0.692012 0.397375
0.875425 0.682155 0.385687
0.885283 0.672816 0.373327
0.896056 0.664363 0.361395
0.908904 0.658412 0.360052
0.925628 0.658808 0.394293
0.941558 0.661097 0.430610
0.956634 0.665675 0.469154
0.970642 0.672724 0.509178
0.983246 0.681849 0.549584
0.676081 0.815244 0.766934
0.678431 0.816495 0.768978
0.681544 0.817960 0.771481
0.685054 0.819303 0.774166
0.688991 0.820462 0.776974
0.693141 0.821225 0.779629
0.690791 0.821103 0.775723
0.684535 0.820584 0.767025
0.677211 0.820066 0.755734
0.668635 0.819547 0.741054
0.671077 0.817838 0.730739
0.676783 0.815610 0.718959
0.685664 0.812589 0.704280
0.698726 0.808774 0.686336
0.716396 0.803799 0.664515
0.739406 0.797574 0.637934
0.767880 0.789853 0.603906
0.802243 0.781155 0.563867
0.824887 0.760372 0.534173
0.835996 0.749752 0.507683
0.847074 0.739590 0.481147
0.856962 0.729183 0.461280
0.864866 0.719997 0.454139
0.873472 0.711086 0.445441
0.882689 0.702632 0.435676
0.892882 0.694789 0.425544
0.904021 0.688014 0.416815
0.916442 0.682887 0.410712
0.932433 0.684413 0.442390
0.948119 0.688685 0.480934
0.962646 0.694911 0.520562
0.975769 0.703365 0.560815
0.693080 0.825895 0.782406
0.695064 0.826932 0.784024
0.697566 0.828122 0.786069
0.700557 0.829221 0.788296
0.703853 0.830167 0.790585
0.707301 0.830838 0.792782
0.708675 0.831144 0.792782
0.703639 0.830686 0.786069
0.697597 0.830259 0.777310
0.690455 0.829801 0.765988
0.686519 0.828946 0.754391
0.689815 0.827146 0.744991
0.695430 0.824796 0.733486
0.704005 0.821836 0.719631
0.716426 0.818082 0.702663
0.733211 0.813474 0.682368
0.755123 0.807950 0.658320
0.782254 0.801358 0.629328
0.814817 0.794736 0.598322
0.834440 0.775784 0.576562
0.845212 0.767788 0.557000
0.856291 0.759976 0.537682
0.866331 0.751675 0.523369
0.874876 0.744839 0.519585
0.884092 0.738460 0.515190
0.894224 0.732540 0.509758
0.905364 0.727535 0.505241
0.917784 0.724025 0.502831
0.931762 0.722652 0.504326
0.946990 0.725521 0.527733
0.961273 0.732052 0.566766
0.968139 0.735378 0.585901
0.719814 0.841825 0.805570
0.720638 0.842222 0.806210
0.721675 0.842557 0.806912
0.723018 0.842863 0.807797
0.724910 0.843076 0.808927
0.727108 0.843259 0.810147
0.730068 0.843534 0.811826
0.726955 0.843229 0.807645
0.721859 0.842802 0.800870
0.716091 0.842496 0.792447
0.709407 0.842191 0.781704
0.709895 0.840970 0.773678
0.713008 0.839200 0.764858
0.718318 0.836912 0.754269
0.726223 0.834043 0.741543
0.737514 0.830533 0.726284
0.752773 0.826200 0.707912
0.772549 0.821103 0.685878
0.797299 0.815000 0.659785
0.827420 0.809079 0.633570
0.843534 0.790890 0.614771
0.853178 0.783291 0.597406
0.863005 0.775753 0.580591
0.872282 0.767819 0.566857
0.880797 0.761654 0.562341
0.890013 0.756435 0.559289
0.900389 0.752224 0.557000
0.912016 0.749264 0.556054
0.925048 0.747982 0.557916
0.939544 0.748684 0.563317
0.954864 0.752285 0.579706
0.961242 0.752224 0.592645
0.734463 0.850278 0.817746
0.735134 0.850553 0.818235
0.736049 0.850858 0.818845
0.737331 0.851102 0.819669
0.738949 0.851347 0.820584
0.740963 0.851530 0.821714
0.743496 0.851774 0.823148
0.744320 0.851865 0.822812
0.740047 0.851621 0.817563
0.735134 0.851377 0.810971
0.729519 0.851164 0.802731
0.725154 0.850675 0.793698
0.726925 0.849363 0.786893
0.730190 0.847715 0.778714
0.735470 0.845640 0.769070
0.743221 0.843076 0.757595
0.754147 0.839994 0.744015
0.768643 0.836271 0.727932
0.787228 0.831846 0.708736
0.810422 0.826596 0.685634
0.838071 0.821286 0.663722
0.852262 0.804959 0.648402
0.861295 0.798459 0.634333
0.870268 0.791958 0.622156
0.877226 0.780850 0.600061
0.885740 0.775662 0.596307
0.895140 0.771817 0.595422
0.905699 0.769192 0.595697
0.917754 0.768032 0.598016
0.931273 0.768734 0.603235
0.946258 0.771481 0.611994
0.953674 0.768978 0.608331
0.754238 0.860380 0.832975
0.755184 0.860746 0.833646
0.755886 0.860960 0.834134
0.756588 0.860960 0.834501
0.757382 0.860868 0.834836
0.758419 0.860716 0.835264
0.759792 0.860533 0.835843
0.761837 0.860441 0.836820
0.758724 0.859983 0.833219
0.753841 0.859495 0.827604
0.748165 0.858946 0.820554
0.742061 0.858518 0.812009
0.739925 0.857511 0.804593
0.741054 0.855955 0.797452
0.743679 0.854032 0.789059
0.748257 0.851774 0.779263
0.755459 0.849088 0.767880
0.765774 0.846067 0.754971
0.779660 0.842679 0.740139
0.797665 0.838865 0.722988
0.819821 0.834379 0.702815
0.845151 0.829343 0.684260
0.858396 0.814511 0.670344
0.866789 0.808347 0.657130
0.874815 0.801907 0.646021
0.883177 0.795346 0.634974
0.891691 0.790707 0.631128
0.901061 0.787839 0.631159
0.911894 0.786374 0.632990
0.924193 0.786648 0.637324
0.937865 0.788846 0.644892
0.944671 0.785794 0.640253
0.764645 0.865293 0.840635
0.765499 0.865599 0.841215
0.766262 0.865812 0.841733
0.767117 0.865904 0.842191
0.768154 0.865965 0.842710
0.769467 0.866026 0.843381
0.771298 0.866117 0.844358
0.773648 0.866270 0.845609
0.775113 0.866423 0.845975
0.771603 0.866300 0.842008
0.767330 0.866148 0.836973
0.762387 0.866026 0.830655
0.756954 0.865812 0.822995
0.757107 0.864775 0.817502
0.758175 0.863432 0.810971
0.760616 0.861814 0.803311
0.764950 0.859861 0.794553
0.771786 0.857664 0.784573
0.781521 0.855161 0.773342
0.794522 0.852415 0.760647
0.811185 0.849180 0.745876
0.831601 0.845396 0.728298
0.854154 0.840543 0.712886
0.866270 0.827604 0.701076
0.874174 0.822354 0.690517
0.882017 0.817044 0.681880
0.890471 0.811917 0.673426
0.899321 0.808743 0.671077
0.909270 0.807828 0.674067
0.920409 0.808408 0.678981
0.929686 0.811734 0.688228
0.936187 0.800839 0.668055
0.779019 0.870939 0.850492
0.779477 0.871061 0.850767
0.779965 0.871122 0.851041
0.780514 0.871183 0.851347
0.781308 0.871183 0.851713
0.782406 0.871183 0.852232
0.783841 0.871214 0.852964
0.785794 0.871244 0.853941
0.788174 0.871366 0.855161
0.787289 0.871366 0.853696
0.783597 0.871305 0.849729
0.779477 0.871275 0.844968
0.774716 0.871214 0.839048
0.771267 0.870878 0.832914
0.771206 0.870024 0.827665
0.772152 0.868894 0.821653
0.774502 0.867582 0.814694
0.778775 0.866026 0.806882
0.785367 0.864317 0.798215
0.794675 0.862394 0.788602
0.806851 0.860197 0.777584
0.822293 0.857572 0.764736
0.841184 0.854398 0.749355
0.861448 0.849790 0.736233
0.872618 0.838285 0.725887
0.879850 0.833707 0.717647
0.887449 0.829252 0.710384
0.895781 0.825010 0.703304
0.904723 0.822812 0.701930
0.914672 0.823453 0.707271
0.922057 0.823941 0.710811
0.928161 0.814298 0.692958
0.790524 0.874632 0.857847
0.790860 0.874693 0.858030
0.791318 0.874754 0.858305
0.792020 0.874784 0.858640
0.792935 0.874846 0.859098
0.794339 0.874968 0.859861
0.796445 0.875151 0.860960
0.799100 0.875395 0.862364
0.802304 0.875669 0.864042
0.805936 0.875975 0.865934
0.804410 0.876280 0.863981
0.802396 0.876616 0.861418
0.799741 0.876951 0.858091
0.796414 0.877287 0.853758
0.795224 0.877226 0.850034
0.795224 0.876890 0.846067
0.795926 0.876432 0.841398
0.797879 0.875822 0.836057
0.801541 0.875090 0.830198
0.807095 0.874266 0.823667
0.814939 0.873259 0.816251
0.825223 0.872038 0.807767
0.838376 0.870451 0.797726
0.854826 0.868498 0.785763
0.872038 0.864988 0.775937
0.882017 0.855985 0.768521
0.888792 0.852781 0.763210
0.896208 0.849851 0.758297
0.904112 0.847257 0.754086
0.909575 0.842618 0.745205
0.915099 0.834592 0.730373
0.920653 0.826169 0.714839
0.810178 0.878569 0.869139
0.810208 0.878569 0.869169
0.810330 0.878538 0.869200
0.810605 0.878508 0.869352
0.811124 0.878477 0.869566
0.811887 0.878447 0.869902
0.812985 0.878416 0.870451
0.814481 0.878386 0.871122
0.816342 0.878355 0.871977
0.818540 0.878325 0.873045
0.819547 0.878355 0.873259
0.817350 0.878538 0.871122
0.814725 0.878782 0.868498
0.811612 0.879057 0.865171
