20 Preset/INSTA/【3】LUT video cho PR-AE-FCPX/INS LUT (11).cube
# Created by Adobe Lightroom plugin Export LUT (1.24.0)
# www.johnrellis.com/lightroom/exportlut.htm
# Preset: INS胶片-复古[素材江湖]11
# Color profile: C:\Program Files (x86)\Common Files\Adobe\Color\Profiles\Recommended\VideoHD.icc
LUT_3D_SIZE 32
DOMAIN_MIN 0.0 0.0 0.0
DOMAIN_MAX 1.0 1.0 1.0
0.139712 0.075441 0.090517
0.141726 0.074311 0.090486
0.145693 0.074250 0.090761
0.153994 0.073701 0.090455
0.167819 0.072297 0.090364
0.191592 0.068269 0.089784
0.227726 0.057832 0.088899
0.277836 0.032807 0.085451
0.339757 0.000000 0.078492
0.411810 0.000000 0.062409
0.493446 0.000000 0.036011
0.580377 0.000000 0.000000
0.667750 0.000000 0.000000
0.745724 0.000000 0.000000
0.810239 0.000000 0.000000
0.861479 0.000000 0.000000
0.902800 0.093965 0.000000
0.937560 0.153536 0.000000
0.967834 0.195346 0.000000
0.994232 0.231418 0.000000
1.000000 0.265080 0.000000
1.000000 0.310033 0.000000
1.000000 0.345739 0.000000
1.000000 0.375616 0.000000
1.000000 0.401282 0.000000
1.000000 0.424018 0.000000
1.000000 0.445502 0.000000
1.000000 0.466407 0.000000
1.000000 0.487282 0.000000
1.000000 0.508446 0.000000
1.000000 0.529931 0.000000
1.000000 0.551446 0.000000
0.140139 0.077394 0.090822
0.141115 0.075746 0.090852
0.145541 0.075471 0.090700
0.153811 0.074922 0.090822
0.167391 0.073732 0.090303
0.189456 0.070039 0.090242
0.223301 0.060365 0.089082
0.270115 0.039185 0.086091
0.328954 0.001190 0.079744
0.397589 0.000000 0.065827
0.475349 0.000000 0.042237
0.560174 0.000000 0.007111
0.647395 0.000000 0.000000
0.727230 0.000000 0.000000
0.794339 0.000000 0.000000
0.848569 0.000000 0.000000
0.892363 0.070497 0.000000
0.928771 0.144350 0.000000
0.959991 0.188174 0.000000
0.987335 0.224155 0.000000
1.000000 0.258213 0.000000
1.000000 0.300755 0.000000
1.000000 0.334844 0.000000
1.000000 0.363897 0.000000
1.000000 0.389105 0.000000
1.000000 0.411688 0.000000
1.000000 0.433112 0.000000
1.000000 0.454566 0.000000
1.000000 0.476051 0.000000
1.000000 0.497932 0.000000
1.000000 0.520287 0.000000
1.000000 0.542748 0.000000
0.142458 0.081697 0.092500
0.142855 0.081575 0.092500
0.145510 0.081331 0.092012
0.152895 0.080659 0.091768
0.167391 0.078859 0.090455
0.188113 0.076722 0.090394
0.219455 0.069947 0.089265
0.263005 0.052155 0.086732
0.317967 0.021851 0.080842
0.383581 0.000000 0.068635
0.459052 0.000000 0.046540
0.541863 0.000000 0.012879
0.627832 0.000000 0.000000
0.708431 0.000000 0.000000
0.778317 0.000000 0.000000
0.834897 0.000000 0.000000
0.880674 0.078950 0.000000
0.919158 0.144686 0.000000
0.952087 0.186954 0.000000
0.980438 0.222843 0.000000
1.000000 0.258000 0.000000
1.000000 0.298802 0.000000
1.000000 0.331518 0.000000
1.000000 0.359594 0.000000
1.000000 0.383917 0.000000
1.000000 0.406134 0.000000
1.000000 0.427497 0.000000
1.000000 0.448920 0.000000
1.000000 0.470802 0.000000
1.000000 0.493050 0.000000
1.000000 0.515526 0.000000
1.000000 0.538170 0.000000
0.146639 0.089967 0.095644
0.147402 0.089784 0.095644
0.149264 0.089387 0.095613
0.154726 0.089387 0.095033
0.166476 0.088991 0.093843
0.182284 0.086488 0.092897
0.215549 0.082551 0.089601
0.255161 0.073579 0.087465
0.306523 0.051209 0.082582
0.368353 0.014130 0.071077
0.440223 0.000000 0.049348
0.519280 0.000000 0.018219
0.603143 0.000000 0.000000
0.684535 0.000000 0.000000
0.755642 0.000000 0.000000
0.814817 0.000000 0.000000
0.863249 0.099245 0.000000
0.903258 0.149660 0.000000
0.937774 0.188113 0.000000
0.967437 0.222049 0.000000
0.997955 0.257206 0.000000
1.000000 0.293523 0.000000
1.000000 0.324407 0.000000
1.000000 0.351934 0.000000
1.000000 0.377142 0.000000
1.000000 0.400946 0.000000
1.000000 0.423896 0.000000
1.000000 0.446601 0.000000
1.000000 0.469245 0.000000
1.000000 0.491829 0.000000
1.000000 0.514122 0.000000
1.000000 0.535851 0.000000
0.151858 0.099397 0.099977
0.152224 0.099336 0.099977
0.153658 0.098299 0.099336
0.157809 0.097353 0.099672
0.168368 0.099153 0.098634
0.186465 0.099031 0.096651
0.205264 0.096101 0.094118
0.233616 0.091707 0.091615
0.287510 0.084321 0.084138
0.342779 0.065980 0.075288
0.408972 0.030549 0.057160
0.484016 0.000000 0.028199
0.564477 0.000000 0.000000
0.647608 0.000000 0.000000
0.723232 0.000000 0.000000
0.787839 0.055238 0.000000
0.842161 0.123964 0.000000
0.886259 0.164462 0.000000
0.923735 0.198703 0.000000
0.955779 0.229557 0.000000
0.989746 0.265324 0.000000
1.000000 0.297551 0.000000
1.000000 0.326421 0.000000
1.000000 0.352697 0.000000
1.000000 0.377508 0.000000
1.000000 0.401160 0.000000
1.000000 0.423865 0.000000
1.000000 0.446296 0.000000
1.000000 0.468544 0.000000
1.000000 0.490700 0.000000
1.000000 0.512596 0.000000
1.000000 0.534234 0.000000
0.156771 0.111849 0.104799
0.156985 0.112123 0.104768
0.157717 0.111391 0.103822
0.162142 0.109590 0.103914
0.169924 0.110262 0.103883
0.188968 0.115175 0.102663
0.219455 0.116579 0.100130
0.243320 0.111910 0.094759
0.264103 0.104250 0.092348
0.309880 0.098787 0.085725
0.383062 0.090974 0.062623
0.455299 0.076295 0.035187
0.533196 0.054170 0.000000
0.614740 0.050111 0.000000
0.693751 0.087556 0.000000
0.763821 0.120241 0.000000
0.822019 0.154604 0.000000
0.870207 0.186984 0.000000
0.910582 0.216739 0.000000
0.947265 0.247074 0.000000
0.983185 0.280583 0.000000
1.000000 0.310063 0.000000
1.000000 0.396124 0.000000
1.000000 0.421607 0.000000
1.000000 0.444221 0.000000
1.000000 0.465095 0.000000
1.000000 0.484749 0.000000
1.000000 0.503502 0.000000
1.000000 0.521813 0.000000
1.000000 0.539849 0.000000
1.000000 0.557427 0.000000
1.000000 0.574304 0.000000
0.162448 0.137301 0.112886
0.162997 0.137484 0.112856
0.163912 0.136660 0.111360
0.167880 0.134920 0.110292
0.177096 0.131441 0.111513
0.194491 0.138705 0.111421
0.231662 0.152163 0.108858
0.290196 0.161563 0.104677
0.319524 0.151400 0.093324
0.345708 0.139101 0.084321
0.364263 0.122377 0.080171
0.435981 0.120424 0.045838
0.530053 0.122835 0.000000
0.618433 0.131533 0.000000
0.696468 0.149752 0.000000
0.764492 0.174014 0.000000
0.822049 0.200229 0.000000
0.869810 0.226230 0.000000
0.910124 0.251316 0.000000
0.956603 0.287633 0.000000
0.994507 0.320745 0.000000
1.000000 0.352117 0.000000
1.000000 0.382086 0.000000
1.000000 0.410376 0.000000
1.000000 0.436072 0.000000
1.000000 0.458778 0.000000
1.000000 0.478828 0.000000
1.000000 0.497566 0.000000
1.000000 0.515923 0.000000
1.000000 0.533745 0.000000
1.000000 0.551324 0.000000
1.000000 0.568627 0.000000
0.166598 0.160678 0.120180
0.167117 0.160800 0.120150
0.168124 0.159945 0.118837
0.170809 0.158541 0.116121
0.180545 0.155489 0.117006
0.193637 0.153323 0.118715
0.221256 0.169131 0.118593
0.272038 0.190646 0.115450
0.352972 0.212070 0.113313
0.386267 0.199130 0.093233
0.415290 0.183291 0.069062
0.439246 0.166110 0.046693
0.451362 0.144137 0.044221
0.538720 0.151736 0.000000
0.634607 0.167483 0.000000
0.717159 0.189029 0.000000
0.782010 0.213535 0.000000
0.836240 0.237919 0.000000
0.891722 0.270512 0.000000
0.937133 0.300725 0.000000
0.975097 0.329198 0.000000
1.000000 0.356817 0.000000
1.000000 0.384009 0.000000
1.000000 0.410101 0.000000
1.000000 0.434577 0.000000
1.000000 0.456153 0.000000
1.000000 0.476051 0.000000
1.000000 0.494697 0.000000
1.000000 0.513024 0.000000
1.000000 0.531060 0.000000
1.000000 0.548852 0.000000
1.000000 0.566430 0.000000
0.171237 0.188296 0.129732
0.171725 0.188113 0.129244
0.173190 0.187533 0.128023
0.175631 0.186282 0.125338
0.183322 0.184085 0.124544
0.197910 0.179904 0.126589
0.216983 0.184848 0.128695
0.255985 0.208530 0.129122
0.320562 0.239017 0.125765
0.414374 0.270451 0.123964
0.465858 0.264500 0.096254
0.495766 0.244846 0.042573
0.518853 0.223056 0.001434
0.535576 0.200381 0.000000
0.549554 0.176974 0.000000
0.643427 0.197513 0.000000
0.732570 0.225040 0.000000
0.813016 0.258518 0.000000
0.869047 0.287449 0.000000
0.915465 0.314427 0.000000
0.954833 0.339788 0.000000
0.989075 0.364996 0.000000
1.000000 0.389685 0.000000
1.000000 0.414008 0.000000
1.000000 0.436774 0.000000
1.000000 0.457435 0.000000
1.000000 0.476692 0.000000
1.000000 0.495186 0.000000
1.000000 0.513359 0.000000
1.000000 0.531182 0.000000
1.000000 0.549096 0.000000
1.000000 0.566613 0.000000
0.175967 0.219486 0.140902
0.176394 0.219089 0.140536
0.177798 0.218387 0.139071
0.180545 0.216983 0.136294
0.184970 0.215030 0.133028
0.200900 0.211154 0.134981
0.218021 0.206424 0.137697
0.246220 0.223026 0.140566
0.296056 0.254063 0.141634
0.372961 0.293492 0.139223
0.475135 0.332616 0.138491
0.544030 0.337774 0.108644
0.572503 0.314488 0.026001
0.595270 0.289677 0.000000
0.613367 0.264591 0.000000
0.632868 0.243259 0.000000
0.669123 0.233829 0.000000
0.759976 0.268193 0.000000
0.833280 0.299809 0.000000
0.890990 0.327153 0.000000
0.932677 0.350866 0.000000
0.967712 0.372930 0.000000
0.998322 0.394232 0.000000
1.000000 0.414954 0.000000
1.000000 0.435004 0.000000
1.000000 0.453986 0.000000
1.000000 0.472511 0.000000
1.000000 0.491035 0.000000
1.000000 0.509789 0.000000
1.000000 0.528557 0.000000
1.000000 0.547478 0.000000
1.000000 0.566125 0.000000
0.179385 0.249424 0.152010
0.179721 0.249424 0.151797
0.181369 0.248814 0.150454
0.184421 0.247990 0.148074
0.188479 0.246830 0.144411
0.201663 0.244175 0.144320
0.221317 0.240513 0.147311
0.241398 0.237430 0.151186
0.281987 0.269474 0.155703
0.344732 0.310155 0.158663
0.434333 0.358862 0.157870
0.544976 0.407568 0.160983
0.636378 0.433082 0.141512
0.667170 0.409979 0.043061
0.691615 0.384039 0.000000
0.710323 0.356542 0.000000
0.724697 0.329686 0.000000
0.729366 0.297490 0.000000
0.773648 0.300603 0.000000
0.841764 0.330816 0.000000
0.896727 0.356573 0.000000
0.941558 0.378668 0.000000
0.975555 0.399237 0.000000
1.000000 0.419257 0.000000
1.000000 0.438392 0.000000
1.000000 0.456825 0.000000
1.000000 0.474861 0.000000
1.000000 0.493111 0.000000
1.000000 0.511803 0.000000
1.000000 0.530694 0.000000
1.000000 0.549645 0.000000
1.000000 0.568383 0.000000
0.181460 0.285832 0.165988
0.181827 0.285832 0.165621
0.183536 0.285496 0.164401
0.186770 0.284886 0.162081
0.191287 0.284154 0.158572
0.200290 0.282658 0.155459
0.222477 0.279820 0.158602
0.245701 0.277012 0.162844
0.276036 0.289677 0.169711
0.332128 0.335515 0.178134
0.414191 0.391669 0.186801
0.523247 0.456428 0.193790
0.707485 0.588067 0.276524
0.787015 0.611078 0.300633
0.809171 0.578149 0.218448
0.826078 0.541772 0.120882
0.838376 0.504326 0.000000
0.847013 0.467292 0.000000
0.852903 0.432044 0.000000
0.849363 0.389776 0.000000
0.894224 0.403906 0.000000
0.940276 0.425757 0.000000
0.978943 0.444312 0.000000
1.000000 0.460609 0.000000
1.000000 0.477394 0.000000
1.000000 0.493629 0.000000
1.000000 0.509209 0.000000
1.000000 0.524620 0.000000
1.000000 0.540124 0.000000
1.000000 0.556146 0.000000
1.000000 0.572412 0.000000
1.000000 0.589044 0.000000
0.180575 0.358343 0.195254
0.180880 0.358099 0.194766
0.183078 0.357153 0.193271
0.187564 0.356115 0.190249
0.193881 0.354589 0.186069
0.202396 0.352911 0.180606
0.227543 0.350713 0.182010
0.257969 0.348394 0.187076
0.288701 0.346807 0.193790
0.337469 0.382025 0.206638
0.418158 0.447395 0.225223
0.525689 0.520653 0.250095
0.643702 0.589624 0.285740
0.743954 0.636988 0.335149
0.818112 0.664912 0.387915
0.839261 0.634638 0.307927
0.855558 0.598993 0.220371
0.867399 0.561120 0.111849
0.875761 0.523552 0.000000
0.881559 0.487404 0.000000
0.883055 0.449989 0.000000
0.884550 0.415991 0.000000
0.931182 0.438270 0.000000
0.970825 0.457343 0.000000
1.000000 0.473762 0.000000
1.000000 0.488624 0.000000
1.000000 0.504784 0.000000
1.000000 0.521050 0.000000
1.000000 0.537713 0.000000
1.000000 0.554772 0.000000
1.000000 0.571893 0.000000
1.000000 0.589441 0.000000
0.177584 0.408698 0.217777
0.177890 0.407965 0.217136
0.180331 0.406439 0.214969
0.185641 0.404211 0.211673
0.192416 0.401587 0.206668
0.202060 0.398627 0.200717
0.220676 0.395941 0.197330
0.254582 0.393103 0.201999
0.288304 0.391119 0.208164
0.321660 0.390295 0.216342
0.388739 0.449928 0.236820
0.480903 0.519219 0.264439
0.588373 0.586023 0.301976
0.691493 0.642084 0.348974
0.775784 0.681209 0.400366
0.841459 0.709194 0.464881
0.859495 0.680262 0.389319
0.875212 0.646296 0.304814
0.887816 0.610040 0.214542
0.897246 0.573144 0.095491
0.904265 0.537621 0.000000
0.909758 0.503868 0.000000
0.908537 0.465675 0.000000
0.926146 0.452827 0.000000
0.966125 0.472694 0.000000
1.000000 0.489662 0.000000
1.000000 0.504997 0.000000
1.000000 0.519646 0.000000
1.000000 0.536767 0.000000
1.000000 0.554498 0.000000
1.000000 0.572442 0.000000
1.000000 0.590814 0.000000
0.174411 0.453193 0.239109
0.175143 0.452766 0.238590
0.177951 0.451148 0.236881
0.182925 0.448554 0.232914
0.190738 0.445258 0.227726
0.200717 0.441688 0.221195
0.212650 0.438972 0.214145
0.247593 0.436133 0.217472
0.284764 0.434241 0.223301
0.321141 0.433661 0.231174
0.364874 0.450507 0.244907
0.445869 0.517296 0.274022
0.542138 0.581262 0.312139
0.640284 0.636927 0.359411
0.728573 0.682399 0.409522
0.799649 0.715145 0.455360
0.856840 0.740871 0.517144
0.875090 0.718990 0.460121
0.889982 0.688136 0.383185
0.903502 0.654017 0.297734
0.914366 0.619104 0.207401
0.923369 0.585107 0.066987
0.930388 0.552026 0.000000
0.933318 0.517662 0.000000
0.931487 0.479469 0.000000
0.962860 0.488075 0.000000
0.997955 0.506310 0.000000
1.000000 0.523125 0.000000
1.000000 0.539513 0.000000
1.000000 0.556634 0.000000
1.000000 0.576745 0.000000
1.000000 0.596857 0.000000
0.172915 0.490730 0.258640
0.173678 0.490974 0.258549
0.176883 0.490333 0.257176
0.181460 0.489113 0.254246
0.189456 0.487587 0.249912
0.200107 0.485969 0.244511
0.213443 0.485328 0.238621
0.240635 0.484962 0.237491
0.282597 0.484321 0.243839
0.322728 0.484199 0.251835
0.361486 0.484108 0.261418
0.420020 0.519066 0.283360
0.506157 0.578454 0.320287
0.596277 0.630579 0.364324
0.679774 0.673884 0.411231
0.753811 0.710353 0.455268
0.816190 0.739284 0.495399
0.865751 0.760983 0.546929
0.886809 0.748989 0.514092
0.900725 0.722469 0.448249
0.914672 0.692927 0.373571
0.927672 0.661311 0.291295
0.938720 0.629358 0.200748
0.947936 0.597894 0.013428
0.954528 0.566613 0.000000
0.955413 0.530785 0.000000
0.963165 0.506889 0.000000
0.999237 0.526909 0.000000
1.000000 0.545556 0.000000
1.000000 0.563226 0.000000
1.000000 0.580194 0.000000
1.000000 0.598810 0.000000
0.177218 0.524224 0.278325
0.177707 0.524163 0.277806
0.179965 0.523827 0.276738
0.185550 0.523003 0.274083
0.193606 0.522271 0.270603
0.204105 0.521569 0.265995
0.217258 0.521202 0.260594
0.232853 0.521355 0.254612
0.276738 0.520684 0.260502
0.318700 0.520348 0.268070
0.358801 0.520195 0.276951
0.396979 0.520043 0.287266
0.470741 0.570062 0.320500
0.555810 0.621912 0.363622
0.637537 0.665766 0.410925
0.711269 0.703029 0.455940
0.775875 0.734920 0.496620
0.832059 0.761959 0.532036
0.875639 0.781003 0.576379
0.899229 0.777340 0.562310
0.911620 0.755337 0.508171
0.925170 0.729732 0.443793
0.938720 0.701747 0.370581
0.951507 0.672084 0.288853
0.962676 0.642054 0.195224
0.972290 0.613184 0.000000
0.975586 0.579767 0.000000
0.977905 0.546349 0.000000
1.000000 0.548882 0.000000
1.000000 0.569360 0.000000
1.000000 0.588525 0.000000
1.000000 0.606806 0.000000
0.192386 0.559564 0.302098
0.192844 0.560021 0.302037
0.227543 0.596765 0.330510
0.232212 0.596490 0.328740
0.238773 0.595850 0.325261
0.248447 0.595117 0.321080
0.260746 0.594385 0.315618
0.275547 0.594110 0.309941
0.307286 0.593561 0.310674
0.350652 0.592798 0.318334
0.391791 0.592126 0.327520
0.430884 0.591180 0.337499
0.474739 0.598138 0.353735
0.557031 0.645838 0.401953
0.632868 0.685817 0.449805
0.700252 0.719905 0.493751
0.759365 0.749264 0.531518
0.812009 0.775204 0.563256
0.859220 0.798276 0.590539
0.895415 0.813535 0.624598
0.919310 0.815183 0.622736
0.929137 0.795865 0.576532
0.940246 0.773922 0.523339
0.952483 0.748898 0.459998
0.965148 0.720668 0.384863
0.977447 0.690791 0.298497
0.988373 0.661311 0.199252
0.993652 0.629023 0.088533
0.997772 0.596735 0.000000
1.000000 0.572625 0.000000
1.000000 0.594293 0.000000
1.000000 0.614557 0.000000
0.226322 0.601495 0.335027
0.230472 0.604639 0.337835
0.236332 0.607782 0.339757
0.243778 0.610376 0.340734
0.252720 0.612207 0.340002
0.262272 0.612665 0.337377
0.273533 0.612329 0.332921
0.286503 0.611963 0.327703
0.304753 0.611688 0.323522
0.345953 0.610681 0.330083
0.385718 0.609827 0.338079
0.423804 0.608759 0.347326
0.459297 0.607080 0.356817
0.514244 0.627832 0.384222
0.590631 0.669520 0.431891
0.659876 0.705379 0.477546
0.721279 0.736507 0.518547
0.775296 0.763973 0.553826
0.824369 0.788998 0.584466
0.868803 0.811826 0.611170
0.902312 0.826383 0.642481
0.929198 0.834348 0.652827
0.938140 0.817807 0.612604
0.948119 0.798947 0.566430
0.959167 0.777127 0.511833
0.971466 0.752499 0.446571
0.984314 0.725917 0.370489
0.996979 0.698512 0.282994
1.000000 0.669429 0.207584
1.000000 0.639979 0.117586
1.000000 0.611536 0.000000
1.000000 0.616724 0.000000
0.247807 0.621881 0.353429
0.252140 0.624750 0.355962
0.258793 0.627893 0.358526
0.266056 0.630518 0.359930
0.274815 0.632349 0.359777
0.283970 0.632959 0.357794
0.293431 0.632807 0.353887
0.305303 0.632471 0.349432
0.318944 0.632319 0.344610
0.349340 0.631464 0.346899
0.387091 0.630457 0.354192
0.423651 0.629389 0.362585
0.458198 0.627924 0.371618
0.490883 0.626184 0.381323
0.556115 0.658015 0.420264
0.626307 0.695064 0.466651
0.689052 0.727230 0.509575
0.744137 0.755581 0.546807
0.793332 0.781125 0.579248
0.838346 0.804685 0.607904
0.879393 0.826230 0.632929
0.910338 0.839902 0.661128
0.939178 0.852415 0.680720
0.947295 0.837827 0.644556
0.956146 0.821103 0.603449
0.966247 0.802365 0.555871
0.977600 0.781308 0.500328
0.990417 0.758297 0.434333
1.000000 0.734432 0.358495
1.000000 0.708309 0.292943
1.000000 0.681971 0.228244
1.000000 0.655756 0.151278
0.274235 0.642634 0.373693
0.278721 0.645106 0.376104
0.284733 0.647608 0.378637
0.291447 0.649775 0.379797
0.299474 0.651301 0.380041
0.307195 0.651881 0.378332
0.315953 0.651850 0.375280
0.326207 0.651575 0.371283
0.338476 0.651484 0.367193
0.357153 0.651331 0.365362
0.392615 0.650416 0.372107
0.427161 0.649348 0.379767
0.460334 0.648035 0.388098
0.491829 0.646540 0.397162
0.524743 0.647883 0.409369
0.595911 0.686061 0.456825
0.660700 0.719814 0.502281
0.718135 0.750027 0.543084
0.769039 0.777462 0.578973
0.815244 0.802762 0.610925
0.857450 0.826078 0.639399
0.895811 0.847410 0.664698
0.924346 0.860716 0.691005
0.954101 0.876738 0.718532
0.961669 0.864561 0.687007
0.969909 0.850797 0.651698
0.979065 0.835599 0.612146
0.989593 0.818967 0.566949
1.000000 0.801236 0.515007
1.000000 0.782162 0.453712
1.000000 0.760678 0.402106
1.000000 0.738216 0.348150
0.331212 0.676783 0.413214
0.333349 0.677729 0.414405
0.336034 0.678370 0.414679
0.339574 0.678737 0.414496
0.343755 0.678706 0.412909
0.349035 0.678340 0.410651
0.355718 0.677882 0.407538
0.363958 0.677485 0.404089
0.374334 0.677363 0.400427
0.386847 0.677546 0.397253
0.414160 0.677058 0.401495
0.445960 0.676204 0.408759
0.476417 0.675166 0.416602
0.505943 0.673854 0.424872
0.533928 0.672358 0.433661
0.576715 0.684901 0.457130
0.641505 0.718410 0.502922
0.698238 0.748257 0.543694
0.748653 0.775326 0.579767
0.794095 0.800168 0.611536
0.835386 0.822843 0.639704
0.873167 0.843687 0.664668
0.907530 0.862516 0.686763
0.932891 0.873625 0.708949
0.961303 0.889494 0.737484
0.969665 0.880064 0.711818
0.977508 0.867826 0.679347
0.986297 0.854673 0.643977
0.996338 0.840696 0.604425
1.000000 0.825742 0.559289
1.000000 0.809781 0.507774
1.000000 0.791592 0.465827
0.360815 0.694575 0.435004
0.362799 0.695338 0.436011
0.364935 0.695918 0.436378
0.367926 0.696315 0.436133
0.371893 0.696407 0.435157
0.376349 0.696193 0.433295
0.382269 0.695888 0.430762
0.389776 0.695644 0.427924
0.399023 0.695583 0.425055
0.410315 0.695796 0.422339
0.427710 0.695857 0.422400
0.456611 0.695186 0.429114
0.485359 0.694392 0.436469
0.513298 0.693446 0.444404
0.540307 0.692409 0.452949
0.566155 0.691310 0.461952
0.618372 0.713436 0.496498
0.676875 0.743954 0.539055
0.728298 0.771603 0.576654
0.774166 0.796902 0.609796
0.815732 0.820127 0.639216
0.853727 0.841367 0.665309
0.888273 0.860655 0.688624
0.919921 0.878111 0.709468
0.939178 0.883177 0.721767
0.965728 0.897856 0.748836
0.976135 0.892454 0.731777
0.983734 0.881590 0.701839
0.992340 0.870054 0.669215
1.000000 0.857908 0.633478
1.000000 0.845212 0.593622
1.000000 0.831571 0.551141
0.404852 0.719448 0.467628
0.407477 0.720577 0.469184
0.409552 0.721065 0.469581
0.411078 0.720851 0.468788
0.412665 0.720150 0.466773
0.414710 0.719051 0.463874
0.417609 0.717739 0.460212
0.421973 0.716457 0.456275
0.427955 0.715358 0.452308
0.435492 0.714473 0.448371
0.444648 0.713649 0.444495
0.467231 0.712367 0.448127
0.492531 0.710842 0.453559
0.517449 0.709163 0.459602
0.541741 0.707240 0.465888
0.565301 0.705257 0.472908
0.588128 0.703456 0.480629
0.647364 0.733089 0.522972
0.700649 0.761257 0.562188
0.748409 0.787442 0.597467
0.791409 0.811582 0.628840
0.830381 0.833524 0.656550
0.865446 0.853178 0.680751
0.897307 0.870756 0.701991
0.926329 0.886320 0.720607
0.947356 0.894865 0.738003
0.971221 0.907439 0.762356
0.982788 0.904753 0.752010
0.990082 0.894682 0.723293
0.998352 0.884123 0.692592
1.000000 0.873381 0.659541
1.000000 0.862333 0.623346
0.422644 0.731930 0.482765
0.425879 0.732967 0.484535
0.428260 0.733669 0.485328
0.430304 0.733791 0.485054
0.432807 0.733639 0.484077
0.436103 0.733333 0.482521
0.440223 0.732998 0.480598
0.445930 0.732784 0.478584
0.453040 0.732692 0.476448
0.461494 0.732723 0.474372
0.470832 0.732723 0.472145
0.486030 0.732387 0.472694
0.509514 0.731380 0.478248
0.532769 0.730037 0.484047
0.555383 0.728328 0.489967
0.577417 0.726558 0.496223
0.598871 0.724849 0.503105
0.629725 0.731411 0.519738
0.683986 0.759579 0.559747
0.732052 0.785672 0.595575
0.775296 0.809903 0.627710
0.814328 0.832029 0.656153
0.849729 0.852049 0.681361
0.881834 0.870085 0.703853
0.910948 0.886137 0.723812
0.937621 0.900450 0.741543
0.957305 0.908659 0.758206
0.978271 0.919188 0.780362
0.990753 0.919097 0.776883
0.997803 0.910063 0.750088
1.000000 0.900755 0.721584
1.000000 0.891234 0.691066
0.452827 0.750210 0.506767
0.454505 0.750668 0.507683
0.457252 0.750973 0.508629
0.458747 0.750942 0.508141
0.460700 0.750698 0.507103
0.463111 0.750362 0.505547
0.466804 0.749935 0.503838
0.471473 0.749599 0.501762
0.477394 0.749355 0.499825
0.484718 0.749233 0.497780
0.492958 0.749142 0.495705
0.502525 0.749233 0.493904
0.522942 0.748409 0.498390
0.544274 0.747250 0.503624
0.565423 0.745754 0.509117
0.585931 0.744167 0.514672
0.606165 0.742580 0.520836
0.626337 0.741299 0.527947
0.665003 0.756222 0.553460
0.714260 0.782376 0.590295
0.757992 0.806607 0.623163
0.797543 0.828916 0.652430
0.833097 0.848997 0.678187
0.865415 0.867155 0.701289
0.894682 0.883452 0.721828
0.921416 0.897887 0.740078
0.946014 0.910826 0.756558
0.964385 0.918364 0.772030
0.983062 0.927153 0.792233
0.995972 0.928923 0.794278
1.000000 0.920867 0.769192
1.000000 0.912596 0.742763
0.475685 0.765316 0.526268
0.476814 0.765713 0.526940
0.479713 0.766079 0.528008
0.482704 0.766293 0.528557
0.485298 0.766506 0.528313
0.489113 0.766873 0.528161
0.494850 0.767849 0.528527
0.502007 0.769100 0.529198
0.510948 0.770657 0.530358
0.520928 0.772488 0.531670
0.531884 0.774472 0.533135
0.543206 0.776333 0.534325
0.559136 0.777615 0.537926
0.579950 0.778012 0.544762
0.600214 0.777890 0.551263
0.619501 0.777096 0.557153
0.638025 0.776089 0.563104
0.656245 0.775174 0.569574
0.674281 0.774594 0.576715
0.717159 0.795743 0.608179
0.759548 0.819089 0.640284
0.797635 0.840482 0.668879
0.831846 0.859709 0.694240
0.862791 0.877073 0.717098
0.890745 0.892515 0.737484
0.916320 0.906340 0.755917
0.939696 0.918608 0.772519
0.961059 0.929412 0.787289
0.976898 0.935546 0.801297
0.991791 0.941588 0.818296
1.000000 0.943664 0.823728
1.000000 0.936370 0.800168
0.523857 0.793668 0.565820
0.524437 0.793668 0.565942
0.525902 0.793606 0.566247
0.529107 0.793484 0.566827
0.530449 0.793240 0.565911
0.532433 0.793057 0.564996
0.535576 0.792966 0.563989
0.539696 0.793057 0.562982
0.544945 0.793301 0.562127
0.551385 0.793668 0.561395
0.558526 0.794186 0.560723
0.566583 0.794736 0.560082
0.575250 0.795315 0.559411
0.592645 0.794980 0.563989
