20 Preset/INSTA/【3】LUT video cho PR-AE-FCPX/INS LUT (1).cube
# Created by Adobe Lightroom plugin Export LUT (1.24.0)
# www.johnrellis.com/lightroom/exportlut.htm
# Preset: INS胶片Cole[素材江湖]01
# Color profile: C:\Program Files (x86)\Common Files\Adobe\Color\Profiles\Recommended\VideoHD.icc
LUT_3D_SIZE 5
DOMAIN_MIN 0.000000 0.000000 0.000000
DOMAIN_MAX 0.903226 0.903226 0.903226
0.194888 0.137697 0.111269
0.223606 0.142947 0.112123
0.311528 0.154604 0.109590
0.509239 0.171756 0.084627
0.809323 0.236332 0.000000
0.207431 0.174014 0.118379
0.230961 0.174746 0.117128
0.330663 0.181369 0.104372
0.541802 0.207919 0.040711
0.829587 0.283696 0.000000
0.214542 0.349676 0.139651
0.261265 0.336614 0.141176
0.443977 0.387121 0.118593
0.671382 0.383246 0.000000
0.876555 0.430549 0.000000
0.319341 0.674495 0.348913
0.376287 0.667231 0.346166
0.513756 0.637324 0.334630
0.772641 0.714656 0.401038
0.934722 0.701808 0.295842
0.683955 0.874907 0.721401
0.694453 0.873075 0.720302
0.725551 0.861234 0.706600
0.804257 0.863767 0.720363
0.919799 0.896666 0.768734
0.199771 0.151949 0.126223
0.215152 0.151553 0.124331
0.315496 0.163882 0.120912
0.512688 0.185245 0.092775
0.795621 0.248112 0.000000
0.210117 0.183017 0.135592
0.237705 0.182345 0.135836
0.336431 0.191623 0.124880
0.539025 0.214054 0.085237
0.812924 0.287694 0.000000
0.213748 0.358587 0.172091
0.266514 0.354101 0.173159
0.434638 0.379278 0.167758
0.649836 0.367651 0.000000
0.872160 0.427283 0.000000
0.319768 0.681300 0.389441
0.393683 0.676753 0.398810
0.527337 0.647578 0.384771
0.768307 0.714626 0.450080
0.929259 0.700862 0.344701
0.679988 0.877043 0.727962
0.698451 0.874998 0.732815
0.737148 0.867979 0.728847
0.807065 0.866209 0.735042
0.920714 0.899565 0.782712
0.196597 0.196445 0.188998
0.212619 0.196048 0.185946
0.292515 0.196567 0.185946
0.566339 0.142184 0.194308
0.802121 0.233066 0.111727
0.209201 0.234195 0.219608
0.234409 0.234104 0.215610
0.322179 0.232334 0.209293
0.586877 0.180819 0.192935
0.819272 0.277134 0.116884
0.136263 0.403174 0.322698
0.225223 0.403143 0.323430
0.448707 0.402564 0.329015
0.655299 0.395789 0.260319
0.868956 0.428931 0.160372
0.328466 0.709468 0.540795
0.390814 0.702998 0.536034
0.566979 0.685542 0.541466
0.755489 0.717586 0.581720
0.911498 0.687984 0.452033
0.658747 0.883909 0.754726
0.678859 0.882719 0.757961
0.744869 0.876860 0.770169
0.799771 0.862425 0.759304
0.916472 0.899748 0.808286
0.000000 0.308721 0.406134
0.000000 0.307134 0.403174
0.235874 0.306218 0.383825
0.489357 0.303990 0.411536
0.855070 0.365637 0.524987
0.000000 0.349584 0.445899
0.000000 0.346349 0.440955
0.262577 0.342138 0.418647
0.514458 0.344732 0.438697
0.855955 0.395453 0.528405
0.000000 0.464881 0.540703
0.000000 0.460365 0.538537
0.382025 0.484199 0.540459
0.602899 0.496712 0.540429
0.870298 0.487373 0.535088
0.161746 0.719265 0.689448
0.280491 0.717220 0.688411
0.509300 0.713985 0.690089
0.730800 0.712032 0.696254
0.883085 0.677577 0.601373
0.648188 0.902495 0.829801
0.664240 0.901549 0.829374
0.722927 0.897826 0.827665
0.814755 0.886290 0.828855
0.913390 0.903929 0.852079
0.000000 0.531334 0.744106
0.000000 0.529442 0.741482
0.000000 0.527550 0.732235
0.433783 0.545373 0.706722
0.745785 0.548943 0.733455
0.000000 0.553307 0.750851
0.000000 0.551659 0.748714
0.000000 0.548730 0.739345
0.460578 0.564477 0.714748
0.751095 0.572534 0.738796
0.000000 0.621057 0.780880
0.000000 0.625391 0.779049
0.322728 0.627985 0.771389
0.550469 0.636713 0.750546
0.777218 0.656245 0.767208
0.000000 0.756588 0.831662
0.000000 0.752346 0.829679
0.349645 0.735958 0.823301
0.661463 0.750149 0.815244
0.827665 0.776883 0.823209
0.564446 0.906096 0.892790
0.583612 0.905364 0.892668
0.658167 0.903838 0.893736
0.769100 0.900786 0.894957
0.898833 0.898863 0.898070
