20 Preset/INSTA/【3】LUT video cho PR-AE-FCPX/INS LUT (13).cube
# Created by Adobe Lightroom plugin Export LUT (1.24.0)
# www.johnrellis.com/lightroom/exportlut.htm
# Preset: INS胶片-复古[素材江湖]13
# Color profile: C:\Program Files (x86)\Common Files\Adobe\Color\Profiles\Recommended\VideoHD.icc
LUT_3D_SIZE 32
DOMAIN_MIN 0.0 0.0 0.0
DOMAIN_MAX 1.0 1.0 1.0
0.139712 0.075441 0.090517
0.142947 0.075837 0.090791
0.152682 0.075593 0.091279
0.166964 0.078218 0.092622
0.192813 0.080812 0.095186
0.239170 0.077790 0.096498
0.299382 0.060670 0.096620
0.363409 0.035554 0.095033
0.427253 0.005859 0.091981
0.489784 0.000000 0.088106
0.551690 0.000000 0.078981
0.612207 0.000000 0.060517
0.671534 0.055207 0.035859
0.727382 0.114595 0.008148
0.775113 0.154452 0.000000
0.815335 0.191257 0.000000
0.848722 0.224674 0.000000
0.876860 0.255924 0.000000
0.901396 0.284825 0.000000
0.922881 0.312200 0.000000
0.942870 0.339391 0.000916
0.967254 0.375128 0.076967
0.985992 0.404517 0.112367
1.000000 0.430884 0.139986
1.000000 0.454261 0.164034
1.000000 0.476051 0.186740
1.000000 0.497353 0.209964
1.000000 0.518547 0.232883
1.000000 0.540490 0.257847
1.000000 0.563714 0.284764
1.000000 0.588281 0.314458
1.000000 0.614343 0.346715
0.140749 0.079530 0.091890
0.142489 0.078950 0.091035
0.152956 0.078523 0.091524
0.166995 0.079622 0.092927
0.192203 0.081849 0.095155
0.236423 0.080659 0.096498
0.294133 0.066743 0.096437
0.355901 0.043214 0.094820
0.418708 0.015625 0.092470
0.479988 0.000000 0.088350
0.540734 0.000000 0.080507
0.600824 0.000000 0.062623
0.659754 0.049989 0.040894
0.716030 0.110079 0.013214
0.765072 0.149081 0.000000
0.806577 0.185428 0.000000
0.841489 0.219547 0.000000
0.870848 0.250828 0.000000
0.896147 0.279759 0.000000
0.918151 0.307225 0.000000
0.938537 0.334478 0.000000
0.962249 0.368048 0.055177
0.980499 0.396612 0.103914
0.995880 0.421698 0.129580
1.000000 0.444678 0.153506
1.000000 0.466194 0.176364
1.000000 0.487190 0.198672
1.000000 0.508690 0.222202
1.000000 0.530846 0.247166
1.000000 0.554162 0.273747
1.000000 0.579095 0.303380
1.000000 0.605432 0.335729
0.144228 0.091737 0.095888
0.145418 0.091463 0.095888
0.153964 0.090455 0.093324
0.169284 0.087037 0.093507
0.193973 0.088411 0.095338
0.235782 0.088533 0.096712
0.290196 0.082551 0.096345
0.349493 0.067323 0.094850
0.409949 0.046723 0.092348
0.469825 0.026093 0.088258
0.529900 0.017395 0.080476
0.589593 0.030182 0.062959
0.647974 0.078218 0.041138
0.704494 0.115419 0.015656
0.754635 0.150942 0.000000
0.797086 0.185275 0.000000
0.833433 0.218387 0.000000
0.864042 0.249119 0.000000
0.890410 0.277867 0.000000
0.913268 0.305150 0.000000
0.935119 0.333257 0.000000
0.958373 0.365667 0.040833
0.976684 0.393072 0.096101
0.992157 0.417670 0.123201
1.000000 0.440070 0.146731
1.000000 0.461250 0.169741
1.000000 0.482124 0.191836
1.000000 0.503502 0.215488
1.000000 0.525780 0.240391
1.000000 0.549248 0.267277
1.000000 0.574121 0.296849
1.000000 0.600458 0.329107
0.151461 0.106355 0.103700
0.151858 0.106294 0.103334
0.153231 0.105440 0.100893
0.172763 0.105562 0.097871
0.203861 0.101686 0.095735
0.236698 0.098207 0.096162
0.286961 0.097597 0.095766
0.341985 0.094423 0.094057
0.400183 0.089418 0.091310
0.458228 0.082460 0.087098
0.516838 0.080629 0.078462
0.574975 0.088563 0.062165
0.632807 0.104585 0.041291
0.688350 0.129519 0.015656
0.739620 0.158938 0.000000
0.783291 0.189364 0.000000
0.820951 0.219394 0.000000
0.852720 0.248600 0.000000
0.880156 0.276036 0.000000
0.904051 0.302342 0.000000
0.927794 0.330602 0.000000
0.950317 0.360266 0.013886
0.968811 0.386450 0.078737
0.984924 0.410925 0.111269
0.999390 0.433845 0.136538
1.000000 0.455970 0.160800
1.000000 0.478279 0.185306
1.000000 0.500572 0.210025
1.000000 0.523522 0.235874
1.000000 0.547234 0.263188
1.000000 0.571649 0.292302
1.000000 0.597009 0.323339
0.151217 0.136934 0.113924
0.152560 0.136538 0.113344
0.154330 0.134951 0.109773
0.159762 0.133608 0.103792
0.205753 0.137758 0.099092
0.259953 0.129702 0.094087
0.292149 0.120058 0.093172
0.329381 0.112306 0.093141
0.383154 0.111391 0.090425
0.438575 0.110689 0.085756
0.494942 0.111727 0.077577
0.551965 0.116335 0.061097
0.608850 0.127413 0.041199
0.664851 0.145724 0.016449
0.718257 0.169894 0.000000
0.764736 0.196963 0.000000
0.805478 0.224857 0.000000
0.840269 0.252293 0.000000
0.869902 0.278843 0.000000
0.895354 0.304143 0.000000
0.921569 0.333288 0.000000
0.943969 0.360815 0.000000
0.962737 0.385931 0.051972
0.979522 0.409552 0.101320
0.994507 0.432227 0.128084
1.000000 0.454475 0.154025
1.000000 0.476661 0.179141
1.000000 0.498848 0.204501
1.000000 0.521447 0.230228
1.000000 0.544732 0.257664
1.000000 0.568780 0.286503
1.000000 0.593744 0.317266
0.142550 0.178958 0.126558
0.143618 0.179019 0.126253
0.146975 0.176547 0.121828
0.151858 0.172366 0.115114
0.173281 0.174868 0.105715
0.249577 0.185428 0.095674
0.328893 0.174716 0.087312
0.358160 0.156802 0.081392
0.381445 0.139071 0.085420
0.422156 0.133913 0.082460
0.476631 0.136721 0.072358
0.532280 0.142275 0.055879
0.588128 0.151766 0.036774
0.643671 0.166598 0.012116
0.698146 0.186648 0.000000
0.747677 0.210513 0.000000
0.790555 0.235843 0.000000
0.827909 0.261448 0.000000
0.859678 0.286351 0.000000
0.888396 0.312474 0.000000
0.916075 0.340734 0.000000
0.938842 0.366552 0.000000
0.987945 0.435645 0.116945
1.000000 0.459785 0.147494
1.000000 0.481941 0.173892
1.000000 0.503166 0.199649
1.000000 0.523796 0.224338
1.000000 0.544244 0.249210
1.000000 0.565179 0.274937
1.000000 0.586664 0.301854
1.000000 0.608820 0.330602
1.000000 0.631373 0.360540
0.113466 0.239445 0.147127
0.117617 0.239170 0.146487
0.123537 0.236484 0.141848
0.132998 0.231724 0.133089
0.144900 0.224277 0.122011
0.200504 0.237095 0.106844
0.310369 0.256016 0.088014
0.423011 0.247776 0.051270
0.447822 0.219028 0.041596
0.468605 0.194736 0.038788
0.483711 0.170901 0.052735
0.531029 0.172915 0.040467
0.586938 0.183352 0.018494
0.642206 0.197787 0.000000
0.696407 0.216373 0.000000
0.745083 0.237583 0.000000
0.787991 0.259831 0.000000
0.825376 0.282994 0.000000
0.857603 0.305913 0.000000
0.893309 0.337102 0.000000
0.922728 0.366278 0.000000
0.948058 0.394690 0.000000
0.970001 0.421729 0.074281
0.989380 0.448005 0.120607
1.000000 0.472511 0.152804
1.000000 0.495094 0.182071
1.000000 0.516045 0.208164
1.000000 0.536370 0.233616
1.000000 0.557000 0.259770
1.000000 0.577905 0.286351
1.000000 0.599664 0.314519
1.000000 0.622034 0.344488
0.081758 0.282628 0.165225
0.089754 0.282353 0.164523
0.096925 0.280095 0.160067
0.111177 0.275883 0.151888
0.127993 0.269139 0.140597
0.141421 0.264134 0.123110
0.233707 0.286076 0.111238
0.356451 0.310033 0.087617
0.489021 0.312932 0.034424
0.513878 0.279973 0.014160
0.533013 0.251255 0.000000
0.548699 0.225711 0.000000
0.557549 0.200534 0.014038
0.608667 0.210758 0.000000
0.662470 0.226688 0.000000
0.714015 0.245731 0.000000
0.760159 0.266484 0.000000
0.801266 0.288029 0.000000
0.843351 0.315892 0.000000
0.878508 0.342748 0.000000
0.908476 0.368963 0.000000
0.934478 0.394598 0.000000
0.957549 0.419928 0.011810
0.977966 0.444739 0.097993
0.995727 0.468238 0.133761
1.000000 0.490059 0.164645
1.000000 0.510765 0.192508
1.000000 0.530816 0.218875
1.000000 0.551293 0.245670
1.000000 0.572168 0.273014
1.000000 0.593713 0.301457
1.000000 0.616205 0.331975
0.006744 0.324895 0.185641
0.011810 0.324407 0.184695
0.033692 0.322515 0.180911
0.079805 0.318853 0.173648
0.106783 0.312779 0.162936
0.130190 0.304723 0.149905
0.165225 0.309972 0.130983
0.274174 0.336217 0.119844
0.402594 0.364874 0.094972
0.540185 0.378271 0.036164
0.580865 0.347448 0.000000
0.598169 0.315801 0.000000
0.611414 0.285985 0.000000
0.621607 0.259220 0.000000
0.630274 0.236851 0.000000
0.682948 0.254490 0.000000
0.733913 0.275303 0.000000
0.783505 0.300511 0.000000
0.826200 0.325536 0.000000
0.862364 0.349767 0.000000
0.893462 0.373602 0.000000
0.920775 0.397406 0.000000
0.944976 0.421149 0.000000
0.966491 0.444587 0.049348
0.985382 0.467018 0.113924
1.000000 0.488014 0.147494
1.000000 0.508263 0.177584
1.000000 0.528069 0.205173
1.000000 0.548241 0.233219
1.000000 0.568841 0.261173
1.000000 0.590204 0.290135
1.000000 0.612482 0.320897
0.000000 0.365454 0.206729
0.000000 0.364874 0.205966
0.000000 0.363165 0.202609
0.000000 0.359350 0.195529
0.064576 0.354101 0.186160
0.108766 0.346593 0.173587
0.135286 0.337377 0.159335
0.198642 0.354833 0.141970
0.315190 0.384619 0.131350
0.447364 0.417182 0.108003
0.586419 0.439490 0.058137
0.641871 0.415259 0.000580
0.656855 0.380529 0.000000
0.668666 0.348669 0.000000
0.678645 0.319860 0.000000
0.689876 0.296178 0.000000
0.710780 0.286564 0.000000
0.761715 0.310246 0.000000
0.806485 0.334142 0.000000
0.844907 0.357275 0.000000
0.877409 0.379400 0.000000
0.905455 0.400763 0.000000
0.930144 0.421729 0.000000
0.952026 0.442420 0.000000
0.971496 0.462776 0.074159
0.988708 0.482399 0.121431
1.000000 0.501884 0.154665
1.000000 0.521630 0.185092
1.000000 0.541924 0.214755
1.000000 0.563165 0.244938
1.000000 0.585016 0.275212
1.000000 0.607904 0.307439
0.000000 0.401007 0.226230
0.000000 0.400610 0.225498
0.000000 0.399207 0.222660
0.000000 0.396155 0.216526
0.000000 0.391943 0.208225
0.055085 0.385809 0.196597
0.111574 0.377905 0.183078
0.138979 0.369970 0.167178
0.236027 0.401129 0.153994
0.358648 0.435218 0.144961
0.495308 0.472267 0.123018
0.634730 0.503380 0.090059
0.704585 0.488502 0.052674
0.719997 0.454475 0.000000
0.732448 0.422400 0.000000
0.742336 0.392493 0.000000
0.750790 0.364813 0.000000
0.755062 0.337560 0.000000
0.781186 0.338628 0.000000
0.822232 0.361028 0.000000
0.857328 0.382452 0.000000
0.887572 0.402991 0.000000
0.914214 0.423255 0.000000
0.937865 0.443336 0.000000
0.958953 0.462959 0.000000
0.977508 0.481971 0.095338
0.994354 0.501091 0.134859
1.000000 0.520439 0.168338
1.000000 0.540612 0.200137
1.000000 0.561486 0.231266
1.000000 0.583429 0.263523
1.000000 0.606104 0.296239
0.000000 0.438697 0.246433
0.000000 0.438392 0.245884
0.000000 0.437324 0.243565
0.000000 0.434943 0.238499
0.000000 0.431098 0.230686
0.000000 0.425727 0.220218
0.031861 0.418769 0.207126
0.109377 0.410925 0.192569
0.142672 0.418524 0.170993
0.277043 0.455726 0.169009
0.410712 0.497322 0.162051
0.553948 0.540978 0.146120
0.730617 0.616358 0.169009
0.800046 0.600732 0.178347
0.811307 0.564050 0.122774
0.820096 0.528283 0.000000
0.826902 0.494331 0.000000
0.832914 0.463111 0.000000
0.838529 0.434546 0.000000
0.839780 0.406073 0.000000
0.867735 0.418036 0.000000
0.897276 0.437659 0.000000
0.923003 0.456184 0.000000
0.945617 0.474281 0.000000
0.965606 0.491981 0.021576
0.983368 0.509361 0.109468
0.999237 0.526360 0.147921
1.000000 0.543725 0.181003
1.000000 0.561456 0.211337
1.000000 0.580438 0.242252
1.000000 0.600275 0.273198
1.000000 0.621729 0.306310
0.000000 0.500008 0.280735
0.000000 0.499580 0.280095
0.000000 0.497993 0.277623
0.000000 0.495094 0.272007
0.000000 0.490761 0.264256
0.000000 0.484932 0.253452
0.000000 0.478096 0.240604
0.000000 0.470283 0.225681
0.092073 0.461921 0.209781
0.179843 0.486519 0.191501
0.332799 0.533135 0.193057
0.481727 0.580011 0.194339
0.627100 0.622156 0.198093
0.756680 0.654261 0.207248
0.827085 0.641810 0.233768
0.837766 0.607233 0.182620
0.845884 0.572747 0.124514
0.852110 0.539147 0.000000
0.857420 0.507927 0.000000
0.862486 0.479500 0.000000
0.866178 0.452918 0.000000
0.870573 0.431464 0.000000
0.899413 0.450355 0.000000
0.924865 0.468666 0.000000
0.947326 0.486580 0.000000
0.967224 0.503929 0.025360
0.985107 0.521172 0.114382
1.000000 0.538781 0.154238
1.000000 0.557153 0.189578
1.000000 0.576501 0.222812
1.000000 0.596826 0.256443
1.000000 0.618402 0.290684
0.000000 0.541161 0.304723
0.000000 0.540368 0.303899
0.000000 0.538293 0.300877
0.000000 0.534844 0.295537
0.000000 0.529870 0.287602
0.000000 0.523766 0.277348
0.000000 0.516777 0.264775
0.000000 0.508659 0.249851
0.000000 0.500298 0.233860
0.071077 0.491463 0.217014
0.223148 0.535149 0.205509
0.380011 0.580835 0.211856
0.527062 0.622950 0.221469
0.661219 0.658564 0.234531
0.779080 0.687068 0.249607
0.848569 0.676753 0.287175
0.857969 0.643183 0.234318
0.865415 0.609949 0.180728
0.871794 0.577874 0.120455
0.877165 0.547692 0.000000
0.882444 0.519829 0.000000
0.888304 0.495094 0.000000
0.890959 0.470497 0.000000
0.904326 0.465217 0.000000
0.929412 0.483528 0.000000
0.951537 0.501152 0.000000
0.971435 0.518669 0.049378
0.989380 0.536461 0.125673
1.000000 0.554803 0.166659
1.000000 0.574273 0.203494
1.000000 0.594812 0.239445
1.000000 0.616571 0.275639
0.000000 0.574914 0.325719
0.000000 0.574487 0.325200
0.000000 0.572625 0.322515
0.000000 0.569299 0.317113
0.000000 0.564599 0.309606
0.000000 0.558801 0.299657
0.000000 0.552056 0.287358
0.000000 0.544793 0.273533
0.000000 0.536767 0.257603
0.000000 0.528618 0.240879
0.000000 0.535149 0.216098
0.272831 0.580377 0.222416
0.428382 0.621973 0.235080
0.567010 0.658167 0.251377
0.689265 0.687434 0.270176
0.794888 0.711055 0.289494
0.861814 0.704402 0.329961
0.874296 0.674495 0.283116
0.881804 0.642969 0.230594
0.888304 0.612451 0.177157
0.894194 0.583673 0.116945
0.900298 0.557244 0.000000
0.906584 0.533165 0.000000
0.911498 0.510674 0.000000
0.914763 0.488380 0.000000
0.934966 0.498817 0.000000
0.957092 0.516869 0.000000
0.977234 0.535271 0.087709
0.995819 0.554559 0.142733
1.000000 0.575006 0.185763
1.000000 0.596826 0.226230
1.000000 0.619898 0.265782
0.000000 0.601556 0.343420
0.000000 0.601495 0.343175
0.000000 0.600549 0.341131
0.000000 0.598352 0.336889
0.000000 0.595056 0.330449
0.000000 0.590997 0.321874
0.000000 0.586389 0.311315
0.000000 0.580957 0.298497
0.000000 0.574823 0.283909
0.000000 0.567926 0.267704
0.000000 0.560082 0.250187
0.103670 0.581231 0.229648
0.325841 0.620996 0.243412
0.473640 0.656001 0.260472
0.600244 0.684871 0.280461
0.710048 0.708705 0.301640
0.805844 0.729061 0.322637
0.867735 0.725216 0.360815
0.886656 0.700771 0.327306
0.894591 0.671382 0.275212
0.901946 0.643275 0.225193
0.909026 0.616693 0.174044
0.916106 0.592004 0.113649
0.923369 0.569360 0.000000
0.930297 0.548638 0.000000
0.934600 0.528283 0.000000
0.943359 0.517113 0.000000
0.965545 0.536248 0.000000
0.985870 0.555810 0.113863
1.000000 0.576226 0.165377
1.000000 0.597711 0.209262
1.000000 0.620356 0.251072
0.000000 0.624903 0.360174
0.000000 0.624659 0.359625
0.000000 0.623926 0.357916
0.000000 0.622278 0.354376
0.000000 0.619867 0.348852
0.000000 0.616602 0.340826
0.000000 0.612757 0.331518
0.000000 0.608209 0.320012
0.000000 0.602838 0.306188
0.000000 0.596918 0.291112
0.000000 0.589899 0.273899
0.000000 0.581964 0.255528
0.191043 0.616236 0.245579
0.374426 0.651850 0.263706
0.511833 0.681819 0.285283
0.628717 0.706722 0.308598
0.729305 0.727687 0.332769
0.816434 0.746151 0.357336
0.874266 0.745266 0.394263
0.898039 0.726101 0.373816
0.906737 0.699428 0.322240
0.914977 0.673182 0.272251
0.922850 0.648341 0.223667
0.930755 0.625055 0.173312
0.938842 0.603754 0.111421
0.947356 0.584710 0.000000
0.952544 0.565942 0.000000
0.958648 0.549096 0.000000
0.975311 0.557183 0.055482
0.995575 0.578119 0.141604
1.000000 0.600061 0.191897
1.000000 0.623163 0.237644
0.000000 0.648981 0.378393
0.000000 0.649195 0.378332
0.000000 0.669581 0.394537
0.000000 0.668330 0.391119
0.000000 0.666346 0.386023
0.000000 0.663569 0.378668
0.000000 0.660151 0.369665
0.000000 0.656001 0.358312
0.000000 0.651392 0.345068
0.000000 0.646052 0.330114
0.000000 0.639948 0.313176
0.000000 0.632837 0.294499
0.000000 0.632502 0.271855
0.280034 0.667689 0.281682
0.441901 0.696010 0.307317
0.566247 0.719539 0.334874
0.670619 0.739376 0.362860
0.759304 0.756588 0.390326
0.835172 0.772213 0.415595
0.887266 0.773312 0.447272
0.913634 0.759518 0.439399
0.922484 0.734585 0.386786
0.931304 0.709651 0.333806
0.939727 0.685573 0.283513
0.947814 0.662470 0.233249
0.955962 0.641260 0.181277
0.964477 0.622126 0.119448
0.970275 0.604150 0.103120
0.976745 0.588403 0.098878
0.986328 0.580102 0.110903
1.000000 0.602197 0.171054
1.000000 0.625483 0.221500
0.000000 0.676387 0.401099
0.000000 0.678096 0.402441
0.000000 0.679561 0.402960
0.000000 0.680201 0.401587
0.000000 0.679835 0.398108
0.000000 0.678157 0.392462
0.000000 0.675349 0.384222
0.000000 0.671656 0.373754
0.000000 0.667689 0.362158
0.000000 0.662959 0.348211
0.000000 0.657740 0.332647
0.000000 0.651606 0.315465
0.000000 0.644160 0.296239
0.000000 0.657374 0.273686
0.333257 0.687190 0.298466
0.478279 0.712337 0.326207
0.592828 0.733577 0.355413
0.689235 0.751980 0.385504
0.771939 0.768612 0.414771
0.842405 0.784024 0.440528
0.892241 0.787472 0.470680
0.922087 0.779416 0.476051
0.930907 0.757198 0.428351
0.940185 0.734249 0.376928
0.949248 0.711543 0.325414
0.958038 0.689815 0.275761
0.966949 0.669795 0.226658
0.976349 0.652125 0.175784
0.983368 0.636316 0.160464
0.990875 0.622950 0.157961
0.999786 0.612543 0.160311
1.000000 0.625269 0.198886
0.000000 0.691707 0.414343
0.000000 0.693324 0.415686
0.000000 0.694789 0.416175
0.000000 0.695644 0.415412
0.000000 0.695583 0.412665
0.000000 0.694301 0.407568
0.000000 0.691981 0.400122
0.000000 0.688899 0.390997
0.000000 0.685420 0.380316
0.000000 0.681270 0.367376
0.000000 0.676692 0.353094
0.000000 0.671534 0.337285
0.000000 0.665309 0.319615
0.000000 0.658106 0.300023
0.185946 0.681605 0.291661
0.384680 0.707790 0.319524
0.515312 0.730007 0.349645
0.620569 0.749111 0.380682
0.709804 0.766201 0.412207
0.785702 0.781949 0.440833
0.851102 0.796780 0.466255
0.898344 0.801877 0.494423
0.930632 0.798459 0.510399
0.939147 0.778408 0.466499
0.948302 0.757595 0.418677
0.957977 0.736507 0.367773
0.967620 0.716213 0.317815
0.977447 0.697810 0.269963
0.987884 0.681880 0.223301
0.995789 0.668299 0.211612
1.000000 0.657374 0.210391
1.000000 0.649287 0.213504
0.000000 0.707485 0.428534
0.000000 0.708888 0.429725
0.000000 0.710109 0.430091
0.000000 0.710903 0.429480
0.000000 0.710842 0.427039
0.000000 0.709743 0.422492
0.000000 0.707790 0.415808
0.000000 0.705287 0.407660
0.000000 0.702327 0.397864
0.000000 0.698878 0.386511
0.000000 0.694911 0.373327
0.000000 0.690486 0.358770
0.000000 0.685267 0.342382
0.000000 0.679347 0.324437
0.000000 0.675410 0.304479
0.268498 0.704250 0.312535
0.432685 0.727840 0.343847
0.552544 0.748348 0.377447
0.650660 0.766598 0.412696
0.733455 0.783505 0.445655
0.803891 0.799435 0.475746
0.864469 0.814603 0.502861
0.908934 0.821683 0.529503
0.943145 0.822873 0.553857
0.951415 0.806058 0.516320
0.960601 0.788388 0.474403
0.970642 0.770596 0.429786
0.981567 0.753231 0.383154
0.993164 0.737606 0.337041
1.000000 0.724361 0.293431
1.000000 0.714046 0.286625
1.000000 0.706447 0.287205
0.000000 0.732418 0.453254
0.000000 0.732967 0.453895
0.000000 0.733150 0.453254
0.000000 0.732906 0.451698
0.000000 0.731991 0.448524
0.000000 0.730556 0.443824
0.000000 0.728664 0.437720
0.000000 0.726314 0.430060
0.000000 0.723812 0.421271
0.000000 0.721004 0.410773
0.000000 0.717830 0.399115
0.000000 0.714199 0.385901
0.000000 0.709926 0.370825
0.000000 0.704891 0.354040
0.000000 0.699245 0.335607
0.000000 0.706538 0.315221
0.343481 0.730343 0.342748
0.484382 0.750668 0.377142
0.592676 0.768612 0.413092
0.681178 0.785000 0.446754
0.755825 0.800290 0.477455
0.819730 0.814786 0.505150
0.874876 0.828519 0.528985
0.916442 0.835538 0.551446
0.950042 0.837888 0.576287
0.959503 0.823941 0.546136
0.968444 0.808438 0.508293
0.978637 0.793088 0.467903
0.989960 0.778470 0.425971
1.000000 0.765103 0.383062
1.000000 0.753689 0.341955
1.000000 0.745663 0.339879
0.000000 0.747494 0.468635
0.000000 0.747921 0.469001
0.000000 0.748135 0.468727
0.000000 0.747921 0.467201
0.000000 0.747280 0.464668
0.000000 0.746090 0.460365
0.000000 0.744503 0.454902
0.000000 0.742580 0.448127
0.000000 0.740536 0.440223
0.000000 0.738094 0.430884
0.000000 0.735470 0.420356
0.000000 0.732479 0.408423
0.000000 0.728969 0.394720
0.000000 0.724941 0.379492
0.000000 0.720455 0.363226
0.000000 0.715328 0.345220
0.207584 0.731167 0.336614
0.405097 0.751888 0.372412
0.530297 0.770047 0.409644
0.628168 0.786618 0.445319
0.708644 0.801968 0.478004
0.777005 0.816495 0.507408
0.835874 0.830228 0.533196
0.886534 0.843259 0.555261
0.922759 0.846738 0.567132
0.954681 0.849302 0.590143
0.966949 0.838987 0.569482
0.975708 0.825589 0.535821
0.985962 0.812497 0.499428
0.997559 0.800198 0.461433
1.000000 0.789364 0.422919
1.000000 0.780636 0.392554
0.000000 0.768032 0.491859
0.000000 0.768795 0.492714
0.000000 0.768948 0.492531
0.000000 0.768368 0.490547
0.000000 0.767300 0.487495
0.000000 0.765621 0.482948
0.000000 0.763577 0.477119
0.000000 0.761105 0.469795
0.000000 0.758480 0.461585
0.000000 0.755764 0.452216
0.000000 0.752682 0.441840
0.000000 0.749447 0.429938
0.000000 0.745937 0.417060
0.000000 0.741878 0.402441
0.000000 0.737331 0.386389
0.000000 0.732296 0.368902
0.000000 0.726925 0.350317
0.291447 0.748836 0.358282
0.451118 0.767361 0.395361
0.564324 0.784207 0.432868
0.653956 0.799863 0.467536
0.728847 0.814511 0.499062
0.792325 0.828153 0.526543
0.846769 0.840787 0.549737
0.893767 0.852598 0.568841
0.931182 0.859892 0.585718
0.960723 0.861936 0.606165
0.975189 0.854307 0.592859
0.983764 0.842405 0.561761
0.993866 0.831144 0.529015
1.000000 0.821012 0.494667
1.000000 0.812253 0.459388
0.000000 0.780392 0.505119
0.000000 0.781064 0.506218
0.000000 0.781399 0.506371
0.000000 0.781216 0.505241
0.000000 0.780545 0.502800
0.000000 0.779568 0.499245
0.000000 0.778347 0.494850
0.000000 0.776883 0.489204
0.000000 0.775296 0.482490
0.000000 0.773556 0.475074
0.000000 0.771420 0.466133
0.000000 0.769070 0.456153
0.000000 0.766293 0.444709
0.000000 0.762997 0.431617
0.000000 0.759182 0.417151
0.056733 0.754879 0.401038
0.111208 0.750271 0.383948
0.177127 0.752895 0.367742
0.373114 0.772061 0.393408
0.506676 0.788479 0.431830
0.606195 0.803830 0.467597
0.686915 0.818204 0.500206
0.754665 0.831724 0.529259
0.812558 0.844388 0.554009
0.862547 0.856291 0.574975
0.906065 0.867460 0.592706
0.942077 0.875547 0.608209
0.969146 0.877165 0.627222
0.985718 0.872404 0.620966
0.994385 0.862669 0.593835
1.000000 0.853635 0.565209
1.000000 0.845731 0.535363
0.000000 0.797574 0.525963
0.000000 0.797910 0.526665
0.000000 0.797971 0.527062
0.000000 0.797696 0.525841
0.000000 0.797024 0.523491
0.000000 0.796139 0.520226
0.000000 0.794980 0.516014
0.000000 0.793606 0.510704
0.000000 0.792142 0.504814
0.000000 0.790524 0.497780
0.000000 0.788663 0.489754
0.053834 0.786709 0.480903
0.098299 0.784390 0.470619
0.118959 0.781643 0.458991
0.137423 0.778408 0.445869
0.152651 0.774807 0.431464
0.169162 0.770932 0.415900
0.185885 0.766995 0.399664
0.264775 0.776913 0.389563
0.440375 0.792874 0.428687
0.554223 0.807828 0.465370
0.642847 0.821836 0.498817
0.715511 0.834897 0.528649
0.777218 0.847257 0.554376
0.830137 0.858793 0.576196
0.875975 0.869627 0.594873
0.916655 0.879973 0.610834
0.951232 0.888182 0.624750
0.976135 0.889036 0.641932
0.994202 0.886320 0.641260
1.000000 0.878172 0.616571
1.000000 0.871122 0.591394
0.101137 0.813230 0.545586
0.110567 0.813504 0.546166
0.131899 0.813626 0.546838
0.145937 0.813535 0.546685
0.148898 0.813291 0.545159
0.154971 0.813077 0.542962
0.166415 0.813169 0.541009
0.179751 0.813291 0.538506
0.194949 0.813535 0.535607
0.210880 0.813779 0.532128
0.227176 0.814023 0.528099
0.242466 0.813993 0.523125
0.256779 0.813596 0.516869
0.268742 0.812619 0.509056
0.279423 0.811093 0.499916
0.287785 0.808743 0.488655
0.295537 0.806058 0.476234
0.304356 0.803220 0.463050
0.315190 0.800504 0.449897
0.410620 0.814206 0.458289
0.533104 0.827665 0.494118
0.624781 0.840421 0.526696
0.698451 0.852415 0.554803
0.760342 0.863676 0.579156
0.813413 0.874205 0.600031
0.859617 0.884154 0.618006
0.900267 0.893584 0.633692
0.936400 0.902373 0.647211
0.968017 0.909819 0.659113
0.989502 0.909392 0.673579
1.000000 0.907713 0.676875
1.000000 0.901427 0.655207
0.271366 0.841245 0.586206
0.272984 0.841215 0.586267
0.277440 0.840970 0.586358
0.286229 0.840574 0.586419
0.285893 0.840055 0.584497
0.286778 0.839445 0.582177
0.287907 0.838834 0.579187
0.290318 0.838163 0.575738
0.294285 0.837491 0.571893
0.299016 0.836851 0.567346
0.305028 0.836088 0.562219
0.311437 0.835264 0.556359
0.318761 0.834257 0.549828
0.325322 0.832975 0.542077
