20 Preset/INSTA/【3】LUT video cho PR-AE-FCPX/INS LUT (6).cube
# Created by Adobe Lightroom plugin Export LUT (1.24.0)
# www.johnrellis.com/lightroom/exportlut.htm
# Preset: INS胶片Tezza02-JPG[素材江湖]06
# Color profile: C:\Program Files (x86)\Common Files\Adobe\Color\Profiles\Recommended\VideoHD.icc
LUT_3D_SIZE 8
DOMAIN_MIN 0.000000 0.000000 0.000000
DOMAIN_MAX 0.903226 0.903226 0.903226
0.014069 0.092073 0.103670
0.098268 0.097383 0.110475
0.231327 0.102266 0.127230
0.421485 0.030732 0.139895
0.617853 0.000000 0.155459
0.778958 0.000000 0.179843
0.908385 0.197696 0.219913
1.000000 0.331914 0.287938
0.000000 0.135653 0.129549
0.093812 0.132784 0.122225
0.237675 0.132235 0.128328
0.422309 0.116854 0.139223
0.614740 0.081666 0.153933
0.773678 0.125124 0.177615
0.901915 0.224338 0.217380
1.000000 0.341802 0.283970
0.000000 0.292027 0.189822
0.000000 0.288548 0.176181
0.259739 0.281071 0.158267
0.464759 0.262821 0.132815
0.637903 0.253025 0.148501
0.787991 0.278141 0.176638
0.912688 0.337713 0.224369
1.000000 0.420691 0.297276
0.000000 0.504662 0.298314
0.000000 0.503349 0.278935
0.235904 0.494820 0.271366
0.500572 0.503166 0.240146
0.695918 0.490425 0.175784
0.812833 0.446052 0.177157
0.916564 0.472999 0.235874
1.000000 0.523705 0.315282
0.080262 0.685176 0.431159
0.106996 0.684840 0.419226
0.286107 0.682124 0.400000
0.489265 0.679011 0.395300
0.680781 0.683650 0.364294
0.826413 0.671199 0.306828
0.913542 0.630060 0.279881
0.992157 0.634882 0.347631
0.385168 0.803555 0.562707
0.393011 0.805844 0.559472
0.417456 0.806058 0.537621
0.533654 0.801572 0.538842
0.661646 0.801205 0.531212
0.796750 0.805661 0.510582
0.911254 0.806210 0.476631
0.979278 0.781979 0.461952
0.572015 0.888884 0.695460
0.574365 0.889403 0.692927
0.579706 0.889738 0.678462
0.629023 0.887846 0.674372
0.699794 0.883879 0.675441
0.786709 0.885313 0.668818
0.876585 0.887449 0.654780
0.959716 0.888914 0.636866
0.725887 0.945312 0.811154
0.726467 0.945373 0.809720
0.729610 0.945800 0.803983
0.745571 0.945892 0.798856
0.775845 0.942168 0.794888
0.820829 0.941283 0.796780
0.873869 0.942229 0.791409
0.930877 0.942229 0.777279
0.000000 0.107759 0.148745
0.068818 0.107271 0.139406
0.234287 0.111238 0.136477
0.415229 0.108919 0.138827
0.609796 0.065034 0.153658
0.769772 0.114931 0.176852
0.897368 0.213596 0.215274
0.997955 0.328191 0.279210
0.000000 0.140078 0.166384
0.106386 0.141970 0.162661
0.247349 0.146304 0.153017
0.423041 0.144350 0.138521
0.613336 0.135348 0.152560
0.770352 0.164340 0.176089
0.894957 0.239445 0.214359
0.994049 0.340978 0.277409
0.000000 0.294347 0.230961
0.033326 0.295232 0.226963
0.275547 0.288182 0.205661
0.467872 0.269383 0.170291
0.633906 0.262333 0.146975
0.781277 0.286046 0.174441
0.900420 0.335668 0.217716
0.996551 0.412818 0.287663
0.000000 0.499458 0.328985
0.000000 0.499306 0.321691
0.261357 0.493599 0.300938
0.497261 0.495827 0.275364
0.680720 0.478920 0.219455
0.797604 0.435798 0.170901
0.903685 0.462318 0.225803
0.992828 0.512779 0.303899
0.205386 0.681727 0.456062
0.214755 0.681025 0.445045
0.302403 0.678340 0.416815
0.490517 0.672633 0.411963
0.674861 0.675929 0.383337
0.818326 0.663844 0.330480
0.908019 0.624353 0.273564
0.987945 0.628565 0.339849
0.404334 0.799100 0.574456
0.407630 0.799435 0.568597
0.420111 0.800565 0.543053
0.534325 0.796841 0.544854
0.660060 0.797086 0.539605
0.794553 0.803098 0.522759
0.907591 0.803555 0.489723
0.977600 0.778744 0.455909
0.574884 0.885618 0.698878
0.575189 0.885344 0.694881
0.580377 0.885679 0.680720
0.625605 0.884550 0.674250
0.698451 0.881498 0.677272
0.784726 0.883024 0.671565
0.873991 0.884886 0.657282
0.956909 0.886259 0.638819
0.724727 0.943633 0.811398
0.726284 0.943969 0.810636
0.729244 0.944366 0.804807
0.743313 0.944701 0.798459
0.780331 0.943145 0.800839
0.822599 0.941527 0.800992
0.873960 0.941985 0.794430
0.930602 0.942016 0.780606
0.000000 0.149050 0.274784
0.000000 0.153079 0.266819
0.195163 0.149386 0.248234
0.476081 0.091951 0.242618
0.634730 0.148135 0.220951
0.780453 0.196933 0.195468
0.904662 0.272313 0.218814
1.000000 0.364965 0.286412
0.000000 0.181643 0.296696
0.000000 0.188785 0.290593
0.230991 0.191684 0.271092
0.480293 0.155795 0.253178
0.636774 0.193973 0.233097
0.780484 0.229679 0.205112
0.902007 0.290043 0.217746
0.999207 0.375891 0.284977
0.000000 0.302892 0.337713
0.069184 0.305760 0.336309
0.325811 0.316045 0.331212
0.497536 0.312718 0.304997
0.656062 0.312749 0.271702
0.792782 0.329107 0.234134
0.905852 0.367132 0.221469
0.998810 0.434730 0.292912
0.000000 0.510948 0.413977
0.107210 0.512322 0.414405
0.357214 0.516045 0.412696
0.530877 0.515740 0.394751
0.689448 0.493446 0.347173
0.805753 0.470863 0.295171
0.909300 0.483406 0.249027
0.996551 0.528344 0.311589
0.237491 0.683558 0.512078
0.288640 0.683650 0.512505
0.411780 0.685115 0.509422
0.525902 0.680934 0.493812
0.690028 0.687190 0.478676
0.817044 0.671229 0.432685
0.905974 0.632654 0.358862
0.990448 0.635828 0.346105
0.428901 0.798642 0.612451
0.451148 0.798947 0.614405
0.507256 0.799313 0.611902
0.564660 0.798337 0.593927
0.674250 0.797604 0.593378
0.797177 0.805081 0.584192
0.902037 0.805264 0.555230
0.976867 0.781308 0.482307
0.591791 0.885924 0.723781
0.601282 0.885405 0.724422
0.620966 0.884947 0.718990
0.641932 0.885191 0.701259
0.710262 0.882261 0.704128
0.790433 0.883818 0.702571
0.875639 0.887083 0.694636
0.954131 0.888731 0.679438
0.733883 0.943297 0.823911
0.738949 0.942962 0.824735
0.744778 0.943145 0.820890
0.752346 0.944518 0.811551
0.786435 0.943206 0.812741
0.827420 0.941680 0.814664
0.876890 0.942535 0.809842
0.931182 0.942809 0.798428
0.000000 0.222538 0.446082
0.000000 0.230045 0.445502
0.000000 0.264469 0.433539
0.402747 0.248661 0.423346
0.714534 0.247868 0.437415
0.829648 0.188663 0.349920
0.904540 0.322545 0.332708
1.000000 0.388342 0.299687
0.000000 0.260685 0.462165
0.000000 0.267124 0.460212
0.167178 0.298192 0.449836
0.427222 0.287999 0.438209
0.714260 0.286595 0.444434
0.824186 0.251133 0.363897
0.903807 0.344793 0.341100
1.000000 0.403754 0.306523
0.000000 0.314183 0.487770
0.102663 0.325139 0.488106
0.321080 0.380621 0.487434
0.489662 0.399054 0.476631
0.708522 0.388464 0.461280
0.802792 0.400031 0.410315
0.907317 0.430762 0.380438
1.000000 0.466712 0.337774
0.000000 0.506920 0.532586
0.139742 0.508568 0.531975
0.361700 0.517662 0.531884
0.567956 0.538048 0.534447
0.694423 0.528252 0.500389
0.804074 0.525048 0.464088
0.901488 0.531334 0.425727
0.994385 0.552026 0.381445
0.217777 0.690394 0.601190
0.275700 0.690211 0.600580
0.425788 0.691432 0.600763
0.588800 0.696895 0.606744
0.709224 0.701564 0.600305
0.811734 0.678614 0.554772
0.898558 0.650080 0.495705
0.984955 0.659083 0.454231
0.440101 0.802304 0.670771
0.464088 0.803891 0.673640
0.535149 0.803494 0.676631
0.630671 0.805173 0.682063
0.701411 0.804044 0.674464
0.805051 0.812222 0.672358
0.894682 0.808896 0.644190
0.968322 0.785245 0.577935
0.582910 0.886900 0.752010
0.593835 0.886900 0.753048
0.634913 0.886412 0.756924
0.690761 0.886412 0.759792
0.731868 0.885985 0.749691
0.801205 0.886412 0.751644
0.878233 0.890196 0.748165
0.949493 0.890867 0.732967
0.723140 0.945464 0.835386
0.728847 0.945220 0.836179
0.752041 0.944244 0.840055
0.779934 0.943786 0.841825
0.796628 0.944030 0.833249
0.835325 0.942351 0.835630
0.881437 0.943297 0.833555
0.932647 0.944213 0.826200
0.000000 0.329229 0.613367
0.000000 0.337041 0.614191
0.000000 0.367437 0.612146
0.330938 0.431647 0.604303
0.605524 0.393988 0.602014
0.861845 0.451606 0.631769
0.946563 0.410468 0.548852
1.000000 0.434333 0.486763
0.000000 0.359258 0.620722
0.000000 0.366369 0.621729
0.094728 0.393652 0.620203
0.368078 0.452430 0.612085
0.615961 0.422034 0.609461
0.860075 0.477516 0.636011
0.943175 0.428840 0.552331
1.000000 0.454170 0.493507
0.154269 0.424475 0.635676
0.219883 0.436194 0.636805
0.320989 0.460517 0.637476
0.462135 0.512840 0.635126
0.645441 0.507927 0.631617
0.845670 0.543297 0.644373
0.928588 0.484382 0.559197
0.984863 0.517418 0.513970
0.148623 0.499397 0.652857
0.218418 0.500969 0.652705
0.375616 0.509209 0.653498
0.557092 0.585504 0.663416
0.686213 0.618219 0.666316
0.824582 0.616022 0.652827
0.892912 0.585077 0.585290
0.976837 0.594903 0.545251
0.276799 0.666865 0.686824
0.314244 0.668208 0.687129
0.428962 0.673579 0.687922
0.576928 0.685908 0.690761
0.720760 0.707424 0.698085
0.799252 0.692958 0.665644
0.883330 0.683040 0.628168
0.969085 0.683375 0.587549
0.401465 0.797330 0.731685
0.423255 0.797513 0.731838
0.499336 0.797177 0.731228
0.610498 0.798215 0.732479
0.723415 0.804593 0.740566
0.808865 0.814267 0.744320
0.884825 0.803067 0.711788
0.958129 0.780606 0.657191
0.551080 0.886503 0.788296
0.560693 0.886046 0.787900
0.599359 0.885161 0.787472
0.673213 0.884947 0.791501
0.756374 0.885801 0.799680
0.808316 0.885893 0.796841
0.879789 0.891478 0.798550
0.943572 0.888914 0.778805
0.678279 0.946715 0.845243
0.685359 0.946410 0.845731
0.714046 0.945129 0.848325
0.765225 0.943999 0.855924
0.814023 0.942992 0.862028
0.841398 0.942840 0.857084
0.884520 0.943145 0.857908
0.933410 0.944549 0.853696
0.000000 0.450446 0.751278
0.000000 0.456519 0.751644
0.000000 0.479469 0.750790
0.351507 0.528008 0.750362
0.540551 0.602838 0.744839
0.746609 0.551415 0.746822
0.927611 0.611017 0.773556
1.000000 0.613733 0.727077
0.000000 0.466743 0.750057
0.000000 0.471748 0.750027
0.170871 0.493446 0.749966
0.379278 0.537987 0.749172
0.552239 0.609796 0.744442
0.747341 0.564385 0.746578
0.923827 0.621851 0.773129
0.997253 0.619318 0.726650
0.254185 0.523247 0.758145
0.277073 0.527489 0.758175
0.356298 0.546532 0.758938
0.470222 0.583886 0.757778
0.605646 0.649256 0.756374
0.760037 0.625360 0.757656
0.916350 0.673304 0.781735
0.988281 0.651484 0.733547
0.309483 0.548363 0.762081
0.344854 0.557488 0.762387
0.462501 0.597803 0.765408
0.568566 0.645899 0.771603
0.671962 0.703761 0.776852
0.782071 0.706996 0.779202
0.909178 0.743313 0.797787
0.977111 0.693446 0.739284
0.343511 0.652338 0.772519
0.367590 0.653315 0.772366
0.450538 0.657740 0.772030
0.570428 0.668421 0.772366
0.709743 0.736385 0.784726
0.798550 0.767391 0.794369
0.894499 0.766812 0.788693
0.957092 0.726802 0.726650
0.441474 0.778988 0.795132
0.459022 0.780301 0.795834
0.517388 0.782650 0.795834
0.606500 0.788052 0.796719
0.708125 0.798398 0.800076
0.817441 0.819852 0.811795
0.877806 0.805783 0.783108
0.947387 0.797208 0.751675
0.530816 0.886778 0.839872
0.541619 0.887053 0.840146
0.579461 0.886961 0.839597
0.645380 0.887114 0.838956
0.734768 0.887266 0.839017
0.826322 0.890196 0.846708
0.885863 0.895872 0.850126
0.940154 0.886595 0.824338
0.650263 0.948852 0.876097
0.655573 0.948516 0.875731
0.679622 0.947570 0.875273
0.724819 0.946349 0.875578
0.788052 0.944457 0.878538
0.854368 0.943481 0.887114
0.889281 0.943725 0.885863
0.936248 0.946197 0.885374
0.132937 0.571405 0.851652
0.186770 0.576349 0.852171
0.299687 0.592493 0.851347
0.432288 0.626032 0.850156
0.568017 0.677577 0.846769
0.683833 0.721126 0.843229
0.836606 0.686061 0.845029
0.963104 0.722438 0.859892
0.211276 0.578424 0.848936
0.242893 0.583368 0.849699
0.329595 0.598871 0.849088
0.446387 0.630182 0.847654
0.574334 0.679866 0.844511
0.686702 0.724483 0.840574
0.833799 0.688136 0.841855
0.959930 0.722805 0.856779
0.363165 0.616327 0.851896
0.376745 0.619623 0.851865
0.427588 0.633051 0.851102
0.513298 0.661860 0.850187
0.616419 0.706142 0.847990
0.717220 0.757504 0.845487
0.840574 0.724819 0.848569
0.955596 0.757443 0.863096
0.459602 0.655879 0.854948
0.478767 0.662074 0.854459
0.524407 0.678004 0.854032
0.589868 0.704829 0.854826
0.670466 0.743618 0.855314
0.757473 0.794156 0.856657
0.851682 0.777005 0.859434
0.949310 0.802823 0.871244
0.396124 0.653223 0.854429
0.410712 0.652583 0.853483
0.483742 0.669551 0.852598
0.607294 0.719905 0.854154
0.704921 0.769375 0.858305
0.784726 0.816739 0.863737
0.861143 0.820615 0.867491
0.945647 0.845487 0.879911
0.459754 0.771939 0.864073
0.471748 0.772366 0.863981
0.517113 0.773373 0.863279
0.591272 0.775448 0.862181
0.682643 0.778866 0.860716
0.805783 0.836301 0.871092
0.877714 0.865202 0.881987
0.942504 0.864256 0.878050
0.547448 0.867277 0.880644
0.556085 0.867704 0.880888
0.587213 0.868254 0.880522
0.643854 0.869871 0.880156
0.718868 0.872984 0.879759
0.804410 0.880156 0.881407
0.889586 0.896483 0.890959
0.934386 0.884001 0.868070
0.632898 0.948363 0.914366
0.638849 0.948272 0.914275
0.664302 0.948180 0.914275
0.706813 0.947417 0.913298
0.762905 0.946319 0.911772
0.829953 0.945220 0.910735
0.899260 0.945953 0.916350
0.941222 0.948943 0.918242
0.451759 0.694881 0.921324
0.462409 0.697993 0.921263
0.497841 0.707637 0.919646
0.561486 0.728664 0.917479
0.638697 0.758724 0.913970
0.719844 0.796109 0.908995
0.790677 0.810575 0.906920
0.895506 0.787228 0.908598
0.463813 0.698390 0.920073
0.473945 0.701472 0.920043
0.508263 0.711360 0.918791
0.568383 0.731411 0.916625
0.643122 0.760800 0.913298
0.722621 0.797604 0.908507
0.791684 0.812436 0.906188
0.894713 0.788907 0.907622
0.514763 0.718257 0.919677
0.522210 0.720607 0.919493
0.549950 0.729244 0.918303
0.603479 0.749142 0.917205
0.667628 0.775113 0.914092
0.739620 0.808865 0.909758
0.803067 0.827207 0.907622
0.896422 0.806088 0.909056
0.572320 0.744961 0.919982
0.578576 0.747250 0.920012
0.601617 0.755215 0.919158
0.644556 0.771786 0.918090
0.701472 0.796078 0.916106
0.766415 0.827543 0.913268
0.825711 0.853727 0.911467
0.901366 0.834623 0.913146
0.542626 0.741695 0.923369
0.555352 0.746090 0.923217
0.599542 0.761440 0.921691
0.673854 0.791196 0.919707
0.727321 0.814115 0.918395
0.788449 0.843961 0.916960
0.848722 0.877958 0.916350
0.908446 0.864347 0.918639
0.512016 0.777066 0.928069
0.518334 0.776303 0.927642
0.546868 0.774136 0.926299
0.600855 0.771298 0.924529
0.712123 0.813840 0.922026
0.806485 0.859739 0.922515
0.869017 0.895140 0.925505
0.920745 0.897826 0.928618
0.582452 0.867552 0.935943
0.587793 0.867430 0.935760
0.610132 0.867002 0.935058
0.653346 0.866819 0.934020
0.713313 0.866911 0.932311
0.784909 0.868040 0.929931
0.881285 0.907164 0.932403
0.933837 0.926879 0.938872
0.663172 0.932494 0.945068
0.667018 0.932433 0.944945
0.684230 0.932586 0.944610
0.717861 0.933288 0.944244
0.764096 0.934356 0.943511
0.818997 0.936065 0.942412
0.880034 0.939605 0.941741
0.944488 0.949493 0.946563
