20 Preset/INSTA/【3】LUT video cho PR-AE-FCPX/INS LUT (13).cube
# Created by Adobe Lightroom plugin Export LUT (1.24.0)
# www.johnrellis.com/lightroom/exportlut.htm
# Preset: INS胶片-复古[素材江湖]13
# Color profile: C:\Program Files (x86)\Common Files\Adobe\Color\Profiles\Recommended\VideoHD.icc
LUT_3D_SIZE 8
DOMAIN_MIN 0.000000 0.000000 0.000000
DOMAIN_MAX 0.903226 0.903226 0.903226
0.139712 0.075441 0.090517
0.192813 0.080812 0.095186
0.427253 0.005859 0.091981
0.671534 0.055207 0.035859
0.848722 0.224674 0.000000
0.942870 0.339391 0.000916
1.000000 0.454261 0.164034
1.000000 0.540490 0.257847
0.151217 0.136934 0.113924
0.205753 0.137758 0.099092
0.383154 0.111391 0.090425
0.608850 0.127413 0.041199
0.805478 0.224857 0.000000
0.921569 0.333288 0.000000
0.994507 0.432227 0.128084
1.000000 0.521447 0.230228
0.006744 0.324895 0.185641
0.106783 0.312779 0.162936
0.402594 0.364874 0.094972
0.611414 0.285985 0.000000
0.733913 0.275303 0.000000
0.893462 0.373602 0.000000
0.985382 0.467018 0.113924
1.000000 0.548241 0.233219
0.000000 0.500008 0.280735
0.000000 0.490761 0.264256
0.092073 0.461921 0.209781
0.627100 0.622156 0.198093
0.845884 0.572747 0.124514
0.866178 0.452918 0.000000
0.947326 0.486580 0.000000
1.000000 0.557153 0.189578
0.000000 0.624903 0.360174
0.000000 0.619867 0.348852
0.000000 0.602838 0.306188
0.191043 0.616236 0.245579
0.729305 0.727687 0.332769
0.906737 0.699428 0.322240
0.938842 0.603754 0.111421
0.975311 0.557183 0.055482
0.000000 0.707485 0.428534
0.000000 0.710842 0.427039
0.000000 0.702327 0.397864
0.000000 0.685267 0.342382
0.432685 0.727840 0.343847
0.803891 0.799435 0.475746
0.951415 0.806058 0.516320
0.993164 0.737606 0.337041
0.000000 0.780392 0.505119
0.000000 0.780545 0.502800
0.000000 0.775296 0.482490
0.000000 0.766293 0.444709
0.111208 0.750271 0.383948
0.606195 0.803830 0.467597
0.862547 0.856291 0.574975
0.985718 0.872404 0.620966
0.332891 0.860746 0.614099
0.349584 0.859953 0.614008
0.358953 0.858579 0.604181
0.381201 0.856779 0.586694
0.350622 0.837095 0.528222
0.422461 0.839902 0.496925
0.755703 0.884398 0.602258
0.927825 0.917479 0.664332
0.152529 0.097017 0.118746
0.183322 0.089570 0.117922
0.394842 0.072267 0.102144
0.595666 0.111086 0.050538
0.796872 0.214633 0.000000
0.914672 0.322667 0.000000
0.987457 0.418219 0.115602
1.000000 0.505150 0.215000
0.147921 0.142458 0.143465
0.215518 0.140963 0.139528
0.384314 0.138674 0.118196
0.572778 0.147829 0.054932
0.773465 0.226261 0.000000
0.901610 0.325689 0.000000
0.975250 0.411048 0.093080
1.000000 0.494179 0.196384
0.111421 0.324895 0.211765
0.203494 0.323095 0.211276
0.402136 0.355169 0.171572
0.586847 0.286595 0.111940
0.709163 0.268559 0.000000
0.865385 0.351720 0.000000
0.957610 0.431464 0.006867
1.000000 0.514305 0.190372
0.000000 0.483223 0.287144
0.085756 0.481697 0.285801
0.185519 0.455787 0.234318
0.591547 0.580896 0.221988
0.802609 0.532219 0.155612
0.824765 0.417212 0.000000
0.915373 0.448219 0.000000
0.996124 0.523095 0.140932
0.000000 0.619623 0.366613
0.000000 0.616754 0.363561
0.000000 0.597406 0.320500
0.202182 0.596002 0.254520
0.710597 0.708095 0.327886
0.889921 0.680812 0.318120
0.922362 0.586145 0.129488
0.961364 0.537499 0.000000
0.000000 0.698787 0.426642
0.000000 0.698451 0.426398
0.000000 0.690364 0.398566
0.000000 0.674556 0.345739
0.421149 0.715541 0.341131
0.796506 0.792020 0.475166
0.944427 0.798520 0.514733
0.985565 0.727199 0.334081
0.000000 0.770901 0.495613
0.000000 0.768765 0.495003
0.000000 0.763088 0.474372
0.000000 0.754818 0.437720
0.119692 0.741482 0.381262
0.593317 0.794888 0.458015
0.853696 0.847532 0.565057
0.978943 0.863432 0.610193
0.279423 0.851957 0.599695
0.316625 0.852628 0.603662
0.338384 0.850645 0.595148
0.361730 0.848814 0.577203
0.388312 0.844022 0.546654
0.433387 0.840574 0.506126
0.752804 0.882292 0.601984
0.926268 0.915953 0.664820
0.146181 0.157931 0.232761
0.196506 0.162234 0.222507
0.366339 0.133089 0.250401
0.665766 0.144228 0.212070
0.816922 0.303868 0.174014
0.911925 0.362737 0.095369
0.984619 0.436622 0.110933
1.000000 0.521447 0.222080
0.165072 0.198550 0.262364
0.238010 0.211154 0.259464
0.397742 0.202029 0.271092
0.646937 0.275242 0.244297
0.795132 0.317021 0.184268
0.898253 0.368750 0.112551
0.973144 0.429084 0.086671
1.000000 0.512596 0.205844
0.117586 0.346441 0.309239
0.216098 0.353552 0.311833
0.426429 0.366613 0.311864
0.597009 0.345739 0.262119
0.760678 0.373663 0.213016
0.874815 0.406531 0.148898
0.955291 0.443061 0.000000
1.000000 0.521416 0.189700
0.000000 0.519524 0.359747
0.019776 0.523461 0.363531
0.351690 0.524254 0.362829
0.609064 0.592828 0.360082
0.786709 0.542046 0.303441
0.825467 0.447761 0.183017
0.922576 0.480537 0.121004
0.999542 0.534386 0.149844
0.000000 0.633936 0.412421
0.000000 0.634089 0.413886
0.272221 0.632624 0.413245
0.313359 0.603662 0.343908
0.720699 0.713893 0.435157
0.875975 0.689509 0.421454
0.911589 0.591058 0.248753
0.963806 0.548882 0.104799
0.000000 0.704921 0.455695
0.000000 0.705592 0.458045
0.222019 0.703304 0.459388
0.254002 0.687129 0.407813
0.436225 0.707210 0.385351
0.794278 0.788266 0.522606
0.933196 0.797910 0.557916
0.976287 0.730159 0.397803
0.000000 0.776852 0.516442
0.000000 0.775051 0.516533
0.243656 0.769955 0.518120
0.256046 0.760433 0.480964
0.280339 0.746426 0.426001
0.599817 0.791623 0.486275
0.856229 0.849973 0.597436
0.977020 0.868284 0.641291
0.245029 0.854459 0.607477
0.276036 0.852873 0.607416
0.385504 0.849668 0.613550
0.411963 0.849546 0.599268
0.431037 0.844450 0.568536
0.457923 0.837583 0.529534
0.754818 0.882780 0.616999
0.927550 0.917876 0.681758
0.118410 0.249454 0.367956
0.189120 0.260777 0.369970
0.377386 0.317876 0.352972
0.574914 0.262119 0.423346
0.840269 0.206241 0.354498
0.917662 0.491829 0.378698
0.973388 0.500664 0.308934
1.000000 0.521386 0.236759
0.187320 0.295293 0.394263
0.239414 0.302770 0.394110
0.402991 0.350011 0.382635
0.594141 0.310216 0.439887
0.840574 0.280064 0.366644
0.910430 0.499611 0.382757
0.967437 0.505638 0.313909
1.000000 0.524987 0.242222
0.132357 0.362707 0.417517
0.212314 0.368505 0.421118
0.429450 0.415351 0.438819
0.625940 0.428534 0.466712
0.804318 0.512871 0.450629
0.887510 0.531731 0.401495
0.956603 0.545617 0.352514
1.000000 0.556329 0.279271
0.000000 0.541131 0.475532
0.000000 0.545068 0.477485
0.362127 0.565393 0.489143
0.616693 0.589105 0.503502
0.742977 0.540520 0.430915
0.839445 0.543023 0.388281
0.920714 0.553491 0.344945
0.994507 0.571801 0.291081
0.000000 0.664088 0.496773
0.000000 0.663783 0.496895
0.308721 0.665187 0.503410
0.530205 0.663508 0.512505
0.730068 0.717250 0.552605
0.849332 0.694514 0.526268
0.888914 0.589807 0.356786
0.965728 0.597009 0.306004
0.000000 0.725032 0.516289
0.000000 0.728634 0.521752
0.298283 0.726314 0.527337
0.481270 0.721492 0.534295
0.489479 0.703365 0.472145
0.798642 0.790249 0.596460
0.918242 0.798398 0.614771
0.960571 0.730495 0.473671
0.000000 0.784909 0.549340
0.000000 0.784756 0.551141
0.263828 0.782467 0.558404
0.448493 0.777554 0.566857
0.450843 0.763912 0.517327
0.612360 0.788235 0.533654
0.858061 0.851926 0.641596
0.970916 0.869993 0.676936
0.143435 0.865415 0.630793
0.207584 0.864439 0.631525
0.352514 0.860868 0.636194
0.496803 0.855741 0.645899
0.506218 0.849699 0.614496
0.521508 0.841917 0.574334
0.752682 0.881224 0.637873
0.929625 0.921080 0.710018
0.000000 0.363073 0.508843
0.162722 0.372961 0.512383
0.352178 0.410040 0.513115
0.588159 0.525078 0.496590
0.744991 0.413367 0.587854
0.914458 0.399878 0.517021
0.968475 0.542718 0.502068
1.000000 0.647211 0.516991
0.156069 0.392157 0.521782
0.215702 0.401312 0.526024
0.375738 0.434668 0.528344
0.596277 0.537743 0.513573
0.748745 0.444617 0.593713
0.908568 0.435492 0.524651
0.960601 0.567742 0.516472
0.999084 0.648737 0.517418
0.135073 0.429511 0.533013
0.224369 0.442542 0.538903
0.412909 0.486732 0.553857
0.612848 0.569116 0.557336
0.746304 0.528069 0.598840
0.882536 0.524498 0.540215
0.930114 0.640436 0.558770
0.987030 0.647303 0.510033
0.000000 0.523735 0.552178
0.061555 0.526970 0.554406
0.346777 0.543877 0.566033
0.611566 0.603906 0.594415
0.753689 0.627924 0.614679
0.841062 0.669642 0.605310
0.905150 0.663539 0.562921
0.973327 0.656580 0.506401
0.000000 0.656794 0.581964
0.000000 0.659876 0.584466
0.327672 0.671168 0.593164
0.555566 0.685206 0.605463
0.720821 0.700221 0.620783
0.796048 0.654810 0.559899
0.874601 0.651392 0.522576
0.952880 0.657069 0.481239
0.000000 0.725216 0.570336
0.000000 0.725826 0.571405
0.205905 0.725704 0.573571
0.478218 0.724666 0.584497
0.628443 0.721431 0.592187
0.788937 0.777707 0.643946
0.891142 0.777798 0.640894
0.934234 0.698390 0.499947
0.000000 0.790097 0.588434
0.000000 0.788602 0.587457
0.000000 0.784939 0.587213
0.407538 0.782101 0.598688
0.580957 0.776638 0.610163
0.591241 0.765805 0.558099
0.851347 0.844938 0.675807
0.955962 0.857725 0.694453
0.000000 0.864561 0.633478
0.000000 0.863432 0.633753
0.000000 0.859342 0.636347
0.393927 0.857298 0.652369
0.572473 0.850401 0.664302
0.580468 0.841520 0.622095
0.729397 0.867796 0.646509
0.924163 0.916472 0.730556
0.107668 0.478676 0.628565
0.191684 0.485542 0.630304
0.359472 0.509911 0.630182
0.571435 0.584527 0.632715
0.709285 0.662898 0.628992
0.824430 0.568231 0.686122
0.947906 0.547723 0.636774
1.000000 0.599603 0.600763
0.170565 0.483528 0.622705
0.224399 0.488380 0.623316
0.370306 0.513603 0.626307
0.565728 0.579339 0.626917
0.707240 0.660456 0.623743
0.819577 0.570520 0.681025
0.941009 0.553307 0.632990
1.000000 0.606683 0.601343
0.248173 0.525109 0.635492
0.304723 0.534051 0.637385
0.423560 0.556176 0.641749
0.588495 0.606134 0.642145
0.734981 0.690639 0.642756
0.816983 0.620630 0.686061
0.927489 0.610529 0.647272
0.989288 0.661402 0.629541
0.000000 0.541741 0.630304
0.008179 0.542962 0.630426
0.349767 0.566705 0.639094
0.608850 0.643915 0.663264
0.751125 0.716426 0.679683
0.822232 0.689937 0.702510
0.915129 0.687007 0.673487
0.967102 0.739925 0.675502
0.000000 0.630945 0.636439
0.000000 0.632471 0.637385
0.310094 0.640345 0.642359
0.524681 0.660273 0.654261
0.716274 0.705562 0.679561
0.817502 0.727291 0.698146
0.885374 0.755245 0.695338
0.944549 0.753567 0.664546
0.000000 0.726314 0.650752
0.000000 0.729091 0.653498
0.315557 0.733120 0.657496
0.502464 0.741115 0.666072
0.658808 0.752163 0.678004
0.787655 0.772427 0.699550
0.850828 0.734707 0.646784
0.927092 0.740597 0.621942
0.000000 0.800107 0.655299
0.000000 0.801175 0.656550
0.000000 0.800565 0.657527
0.365789 0.799496 0.661250
0.577813 0.797238 0.670588
0.709712 0.792447 0.675685
0.851560 0.844846 0.725277
0.941405 0.844999 0.718379
0.000000 0.874571 0.680568
0.000000 0.873075 0.679011
0.000000 0.869780 0.677272
0.000000 0.866056 0.679194
0.475563 0.858396 0.685573
0.662684 0.850584 0.697017
0.689693 0.847837 0.655909
0.921050 0.914580 0.764157
0.256168 0.563165 0.700862
0.295537 0.569360 0.702388
0.409888 0.588159 0.702052
0.567437 0.632868 0.701686
0.710170 0.696498 0.697230
0.763912 0.722103 0.700649
0.867369 0.651087 0.744411
0.973175 0.617914 0.707210
0.262791 0.561028 0.694301
0.300328 0.567498 0.696468
0.409674 0.585931 0.696834
0.560784 0.627344 0.695979
0.703456 0.690150 0.692103
0.759335 0.717220 0.694026
0.861051 0.644343 0.736416
0.966278 0.610254 0.697444
0.319036 0.585901 0.698268
0.345586 0.589624 0.698787
0.439857 0.605554 0.699245
0.575921 0.642573 0.700771
0.707698 0.698360 0.700435
0.773434 0.735348 0.703822
0.863462 0.676051 0.744381
0.962036 0.653834 0.712276
0.159152 0.587579 0.695613
0.232364 0.592096 0.695644
0.414496 0.618463 0.699336
0.584070 0.662348 0.707454
0.711971 0.712276 0.714992
0.800381 0.767361 0.724514
0.865782 0.719936 0.754879
0.954620 0.703975 0.726864
0.000000 0.619135 0.687922
0.000000 0.618158 0.686824
0.180209 0.619806 0.686824
0.425452 0.631952 0.691157
0.684474 0.709834 0.714565
0.803433 0.774594 0.735073
0.861997 0.751003 0.756069
0.947845 0.749508 0.737301
0.000000 0.699428 0.695399
0.000000 0.700221 0.696040
0.102541 0.702693 0.697871
0.401251 0.709194 0.702358
0.595117 0.723018 0.711666
0.774166 0.768948 0.742306
0.869841 0.795804 0.769192
0.935546 0.816007 0.764614
0.000000 0.787289 0.713924
0.000000 0.788266 0.714992
0.000000 0.789334 0.716426
0.385229 0.792599 0.720882
0.574456 0.799344 0.729763
0.719661 0.811643 0.744015
0.843778 0.834379 0.769100
0.905913 0.799924 0.715358
0.000000 0.871885 0.737942
0.000000 0.872038 0.738216
0.000000 0.873594 0.740871
0.000000 0.873228 0.741726
0.408026 0.870665 0.742824
0.617182 0.867369 0.746609
0.768307 0.861662 0.750149
0.918822 0.913787 0.808804
0.407233 0.649256 0.764401
0.427863 0.653315 0.764950
0.490883 0.663447 0.762478
0.593866 0.689570 0.761227
0.699641 0.726314 0.758175
0.793851 0.773892 0.751919
0.812039 0.771176 0.761013
0.908354 0.711513 0.799344
0.401434 0.645838 0.760189
0.422278 0.649989 0.760922
0.487800 0.661555 0.759701
0.589899 0.686793 0.758297
0.696284 0.723690 0.755764
0.791135 0.771450 0.750301
0.810117 0.769558 0.758022
0.905211 0.709133 0.795438
0.408240 0.652399 0.758236
0.426337 0.655390 0.758450
0.488930 0.665736 0.757473
0.593805 0.693446 0.759915
0.696437 0.727291 0.758297
0.789456 0.772488 0.754604
0.815579 0.778622 0.761379
0.904448 0.721981 0.797116
0.335729 0.650477 0.754971
0.373266 0.656306 0.755764
0.475685 0.673671 0.756588
0.581842 0.697536 0.759365
0.690608 0.731777 0.762448
0.787411 0.776791 0.764981
0.829038 0.798337 0.771847
0.906706 0.747738 0.804685
0.000000 0.623072 0.745571
0.000000 0.627131 0.746883
0.000000 0.640436 0.748379
0.470253 0.680201 0.753353
0.658686 0.728145 0.761471
0.772122 0.773892 0.770993
0.845396 0.820005 0.782559
0.907713 0.777096 0.812039
0.000000 0.690822 0.751644
0.000000 0.689448 0.750668
0.000000 0.685969 0.748501
0.080140 0.683894 0.747494
0.446174 0.688014 0.748928
0.737575 0.770657 0.776242
0.861112 0.841428 0.806394
0.916655 0.822080 0.831968
0.000000 0.784970 0.776669
0.000000 0.784604 0.776455
0.000000 0.783505 0.775875
0.000000 0.781918 0.775082
0.435706 0.781033 0.774960
0.632471 0.785092 0.778897
0.824247 0.828733 0.808499
0.919341 0.857237 0.841215
0.000000 0.866178 0.796628
0.000000 0.865660 0.796201
0.000000 0.864836 0.795987
0.000000 0.864775 0.797452
0.396612 0.864225 0.799496
0.600824 0.865843 0.804349
0.765286 0.876188 0.818662
0.905730 0.901427 0.851804
