20 Preset/INSTA/【3】LUT video cho PR-AE-FCPX/INS LUT (14).cube
# Created by Adobe Lightroom plugin Export LUT (1.24.0)
# www.johnrellis.com/lightroom/exportlut.htm
# Preset: INS胶片-复古[素材江湖]14
# Color profile: C:\Program Files (x86)\Common Files\Adobe\Color\Profiles\Recommended\VideoHD.icc
LUT_3D_SIZE 8
DOMAIN_MIN 0.000000 0.000000 0.000000
DOMAIN_MAX 0.903226 0.903226 0.903226
0.000000 0.000000 0.000000
0.095491 0.000092 0.014679
0.306615 0.000000 0.047669
0.605646 0.000000 0.056947
0.814023 0.000000 0.079988
0.952911 0.000000 0.144350
1.000000 0.000000 0.221134
1.000000 0.000000 0.324895
0.000000 0.100465 0.063752
0.111849 0.105440 0.025605
0.296239 0.000000 0.024384
0.566674 0.000000 0.023163
0.793698 0.000000 0.036561
0.921752 0.000000 0.114290
0.993072 0.000000 0.186191
1.000000 0.000000 0.285588
0.000000 0.372503 0.225284
0.000000 0.377386 0.160616
0.429053 0.326635 0.000000
0.590661 0.247074 0.000000
0.793179 0.078370 0.000000
0.909453 0.000000 0.115511
0.988647 0.000000 0.221073
1.000000 0.210269 0.334142
0.387457 0.679561 0.546715
0.379095 0.676967 0.528161
0.448096 0.660426 0.363043
0.729274 0.600763 0.109041
0.790249 0.526970 0.000000
0.870909 0.470558 0.111238
0.948180 0.452216 0.246769
1.000000 0.466133 0.367803
0.593957 0.766751 0.693080
0.603632 0.767147 0.698268
0.573083 0.765469 0.635950
0.662501 0.749783 0.534752
0.802823 0.694362 0.355352
0.842741 0.639612 0.271458
0.892149 0.601068 0.260472
0.960113 0.606317 0.403967
0.693080 0.825895 0.782406
0.703853 0.830167 0.790585
0.697597 0.830259 0.777310
0.695430 0.824796 0.733486
0.755123 0.807950 0.658320
0.845212 0.767788 0.557000
0.884092 0.738460 0.515190
0.931762 0.722652 0.504326
0.764645 0.865293 0.840635
0.768154 0.865965 0.842710
0.775113 0.866423 0.845975
0.756954 0.865812 0.822995
0.764950 0.859861 0.794553
0.811185 0.849180 0.745876
0.874174 0.822354 0.690517
0.909270 0.807828 0.674067
0.820829 0.879728 0.874784
0.821805 0.879667 0.875212
0.826474 0.879393 0.877348
0.828336 0.879545 0.876951
0.811246 0.879850 0.860166
0.818875 0.879850 0.846342
0.851133 0.878904 0.822843
0.891691 0.864225 0.792081
0.000000 0.006409 0.052399
0.089815 0.005982 0.059327
0.265660 0.000000 0.026459
0.536431 0.000000 0.025055
0.775021 0.000000 0.033204
0.908873 0.000000 0.104585
0.983124 0.000000 0.170840
1.000000 0.000000 0.264134
0.005829 0.098329 0.065614
0.104891 0.100191 0.071199
0.277134 0.060304 0.030823
0.533776 0.000000 0.015961
0.767239 0.000000 0.024842
0.897459 0.000000 0.100069
0.971221 0.000000 0.162203
1.000000 0.000000 0.248692
0.000000 0.334661 0.223667
0.000000 0.341650 0.179080
0.402838 0.303075 0.000000
0.555230 0.246616 0.000000
0.752956 0.100252 0.000000
0.880369 0.000000 0.082856
0.961151 0.000000 0.174197
1.000000 0.000000 0.279149
0.288060 0.630732 0.483925
0.296849 0.630884 0.474128
0.398383 0.619989 0.321965
0.682795 0.550011 0.000000
0.751095 0.477455 0.000000
0.837736 0.419715 0.000000
0.924102 0.394537 0.176761
0.987762 0.408301 0.301213
0.581323 0.756161 0.679744
0.589532 0.755581 0.683528
0.554650 0.752346 0.617792
0.644709 0.732296 0.502373
0.786557 0.672267 0.312932
0.829191 0.619135 0.221500
0.879026 0.579919 0.214481
0.950958 0.583215 0.358679
0.680934 0.817533 0.770932
0.686275 0.818479 0.774350
0.682033 0.819272 0.762325
0.681727 0.814847 0.716976
0.747066 0.798550 0.641047
0.840513 0.759670 0.539879
0.880003 0.729549 0.491951
0.925628 0.710231 0.474922
0.754391 0.860746 0.833280
0.755367 0.860380 0.833555
0.763943 0.861021 0.838102
0.745693 0.860624 0.813779
0.757504 0.855436 0.786130
0.805936 0.843870 0.734524
0.869780 0.814054 0.671412
0.903899 0.796384 0.649256
0.814481 0.879271 0.871519
0.816648 0.879301 0.872587
0.821500 0.879088 0.874815
0.824430 0.879240 0.874937
0.815946 0.880247 0.863767
0.820035 0.880064 0.848051
0.850523 0.878447 0.821592
0.891722 0.864164 0.791989
0.000000 0.029267 0.149783
0.000000 0.029419 0.159579
0.288487 0.000000 0.176425
0.569757 0.000000 0.112398
0.787564 0.000000 0.029114
0.910704 0.000000 0.110780
0.984741 0.000000 0.186130
1.000000 0.000000 0.284367
0.000000 0.103426 0.168002
0.070588 0.105074 0.177005
0.311376 0.000000 0.165164
0.561242 0.000000 0.095674
0.771633 0.000000 0.021790
0.896269 0.000000 0.101137
0.973449 0.000000 0.175998
1.000000 0.000000 0.272953
0.000000 0.305547 0.218997
0.172213 0.308324 0.256016
0.383490 0.284520 0.171633
0.583917 0.238163 0.114961
0.766842 0.187564 0.000000
0.880797 0.128176 0.076234
0.959197 0.065705 0.182101
1.000000 0.181857 0.289128
0.341924 0.613703 0.487984
0.392828 0.620386 0.509758
0.447211 0.612726 0.397772
0.679988 0.546136 0.215793
0.751583 0.482704 0.087434
0.840482 0.450019 0.000000
0.925719 0.433051 0.195102
0.988525 0.441962 0.322087
0.584161 0.745632 0.674281
0.594934 0.746975 0.680659
0.576257 0.747646 0.638209
0.655940 0.730129 0.540581
0.784756 0.674281 0.375769
0.829526 0.623560 0.265690
0.879942 0.588800 0.224796
0.951873 0.592126 0.370153
0.681300 0.812833 0.768307
0.687068 0.814298 0.772274
0.690394 0.815763 0.768521
0.683925 0.810391 0.721401
0.746090 0.793271 0.646326
0.835172 0.754635 0.548516
0.879057 0.728084 0.489265
0.926574 0.712398 0.480018
0.757321 0.860929 0.834806
0.758572 0.860685 0.835325
0.766567 0.861021 0.839445
0.752438 0.860288 0.820035
0.759121 0.854826 0.790616
0.806577 0.843656 0.741024
0.869871 0.816129 0.683223
0.907164 0.802213 0.662165
0.814054 0.879362 0.871336
0.814664 0.879271 0.871611
0.819638 0.879088 0.873899
0.827604 0.879088 0.877195
0.817624 0.880125 0.865812
0.821500 0.880186 0.851347
0.850889 0.878996 0.825956
0.891875 0.864012 0.791653
0.000000 0.052338 0.294469
0.000000 0.046296 0.313359
0.201999 0.000000 0.348699
0.597559 0.000000 0.333318
0.801419 0.000000 0.267033
0.907469 0.000000 0.157656
0.972290 0.000000 0.173648
1.000000 0.000000 0.267826
0.000000 0.104891 0.318822
0.000000 0.102693 0.333074
0.267430 0.101564 0.358343
0.612024 0.000000 0.328496
0.803861 0.000000 0.265263
0.903746 0.000000 0.165469
0.967041 0.000000 0.172915
1.000000 0.000000 0.269078
0.000000 0.258274 0.335485
0.000000 0.251072 0.337774
0.402228 0.268925 0.363867
0.617273 0.170932 0.291264
0.793637 0.000000 0.227176
0.890806 0.097017 0.196323
0.959258 0.237858 0.198306
1.000000 0.267643 0.305272
0.227970 0.560693 0.421942
0.327886 0.559808 0.449805
0.459388 0.574853 0.478340
0.639185 0.509117 0.340948
0.740322 0.456794 0.256260
0.842496 0.437293 0.221958
0.920500 0.442054 0.218814
0.985931 0.453132 0.323522
0.581567 0.729152 0.662287
0.593378 0.730648 0.669368
0.622431 0.737819 0.682002
0.666102 0.722042 0.590448
0.774838 0.668971 0.450477
0.821134 0.619532 0.348699
0.885191 0.596460 0.295933
0.954345 0.600977 0.385412
0.689235 0.810239 0.771054
0.699184 0.814633 0.779080
0.716701 0.818051 0.790585
0.703090 0.813504 0.749203
0.754116 0.795590 0.680537
0.829862 0.754391 0.585657
0.874571 0.726223 0.520104
0.929595 0.715602 0.488106
0.756497 0.859037 0.833433
0.759731 0.859709 0.835416
0.770901 0.861570 0.841917
0.772610 0.862852 0.837736
0.769223 0.858061 0.807675
0.809659 0.846006 0.759030
0.868559 0.817319 0.698604
0.909606 0.805081 0.670863
0.815610 0.879942 0.872374
0.816770 0.879881 0.872892
0.821866 0.879637 0.875242
0.831296 0.879271 0.879606
0.823880 0.880064 0.871641
0.823789 0.880278 0.857237
0.850553 0.879484 0.832395
0.891661 0.863767 0.792874
0.000000 0.078309 0.469368
0.000000 0.071656 0.485603
0.000000 0.077028 0.533562
0.529961 0.000000 0.532525
0.814969 0.000000 0.517357
0.906737 0.000000 0.428321
0.970306 0.000000 0.346380
1.000000 0.000000 0.288151
0.000000 0.112337 0.481849
0.000000 0.109682 0.498085
0.000000 0.134951 0.543755
0.565576 0.000000 0.538811
0.814603 0.000000 0.512139
0.903563 0.000000 0.425513
0.969574 0.000000 0.335149
1.000000 0.000000 0.292943
0.000000 0.247257 0.488075
0.000000 0.253300 0.501396
0.295811 0.299229 0.545098
0.645899 0.247196 0.554467
0.793637 0.143801 0.477241
0.880034 0.000000 0.395514
0.957733 0.000000 0.304967
1.000000 0.171511 0.301976
0.000000 0.503349 0.505547
0.000000 0.500359 0.505516
0.381628 0.485908 0.508385
0.626337 0.473121 0.490669
0.760891 0.426429 0.427192
0.851194 0.404944 0.375372
0.924346 0.401770 0.344274
0.986023 0.419501 0.342382
0.450446 0.679652 0.569940
0.487556 0.682124 0.587121
0.595636 0.688411 0.644434
0.648035 0.689326 0.615106
0.735744 0.632258 0.499458
0.795987 0.583032 0.404273
0.882414 0.568505 0.382940
0.954681 0.570886 0.396979
0.649836 0.776608 0.728939
0.657160 0.778744 0.734310
0.680934 0.784482 0.751095
0.689906 0.789578 0.744717
0.735012 0.771756 0.677852
0.812436 0.734981 0.593378
0.861784 0.705867 0.524804
0.927947 0.696162 0.495338
0.739498 0.849088 0.819669
0.741329 0.849149 0.820645
0.751614 0.851011 0.826871
0.776272 0.857053 0.842374
0.768185 0.854978 0.817624
0.802365 0.841184 0.767758
0.861082 0.809293 0.700099
0.905486 0.792660 0.660334
0.797635 0.878874 0.863279
0.799222 0.878874 0.864012
0.806332 0.878813 0.867430
0.822477 0.879210 0.875334
0.832059 0.879240 0.878874
0.823423 0.879698 0.862425
0.846220 0.878233 0.835203
0.890776 0.863371 0.796841
0.000000 0.100526 0.631952
0.000000 0.096773 0.641718
0.000000 0.114351 0.673213
0.484871 0.178988 0.723232
0.794278 0.000000 0.705592
0.908049 0.000000 0.642481
0.963592 0.000000 0.572381
1.000000 0.197116 0.533623
0.000000 0.128054 0.622553
0.000000 0.122133 0.630976
0.000000 0.148104 0.661891
0.491554 0.225589 0.707271
0.789700 0.000000 0.694514
0.898497 0.000000 0.629145
0.956420 0.000000 0.562097
1.000000 0.206058 0.524834
0.000000 0.258396 0.631342
0.000000 0.256535 0.638849
0.000000 0.287175 0.668208
0.565362 0.407843 0.701808
0.791623 0.291600 0.685237
0.882078 0.267521 0.617243
0.941344 0.290623 0.559777
0.996521 0.313420 0.519524
0.000000 0.407721 0.600031
0.000000 0.406287 0.601617
0.318425 0.465400 0.637842
0.625757 0.582055 0.693202
0.774411 0.517449 0.666194
0.849882 0.490761 0.610254
0.920653 0.458869 0.555901
0.993011 0.420386 0.501549
0.000000 0.658137 0.624384
0.161959 0.656489 0.624628
0.406592 0.650263 0.626947
0.616480 0.640162 0.634852
0.718593 0.614710 0.604456
0.807370 0.585168 0.562127
0.887449 0.561547 0.527733
0.960693 0.549218 0.510613
0.559380 0.748165 0.663813
0.577661 0.751431 0.674891
0.629389 0.756802 0.705379
0.701442 0.771237 0.755123
0.727871 0.763088 0.717464
0.789151 0.718379 0.634791
0.852232 0.681514 0.558465
0.933776 0.677333 0.564752
0.702998 0.836698 0.793912
0.710231 0.837949 0.798459
0.733272 0.840024 0.811612
0.764889 0.847990 0.832120
0.789090 0.856321 0.845487
0.798032 0.842222 0.795926
0.855100 0.806668 0.722133
0.908934 0.788144 0.675074
0.774105 0.877867 0.851499
0.776303 0.877592 0.852415
0.788785 0.877256 0.858274
0.807248 0.878172 0.867582
0.827817 0.878874 0.877775
0.829007 0.879362 0.873320
0.841398 0.877714 0.845823
0.889128 0.862882 0.803799
0.000000 0.122713 0.727565
0.000000 0.115908 0.734066
0.000000 0.135592 0.750912
0.306004 0.188205 0.780606
0.685237 0.295323 0.793790
0.887846 0.133669 0.786984
0.951995 0.184329 0.720302
0.990112 0.281285 0.662959
0.000000 0.144472 0.718288
0.000000 0.139620 0.725338
0.000000 0.158328 0.742733
0.322667 0.217288 0.771176
0.680598 0.315709 0.784176
0.878752 0.161563 0.775204
0.944274 0.178164 0.708125
0.984375 0.261662 0.649897
0.000000 0.247410 0.716609
0.000000 0.245609 0.721370
0.000000 0.255222 0.738491
0.421271 0.350011 0.765835
0.692134 0.448188 0.777218
0.865599 0.354986 0.765347
0.931060 0.355810 0.707179
0.974548 0.389441 0.659815
0.000000 0.386847 0.695552
0.000000 0.394171 0.699245
0.000000 0.418006 0.718959
0.492744 0.501305 0.752346
0.705257 0.591089 0.771023
0.841276 0.529992 0.754940
0.904509 0.515190 0.707210
0.954742 0.509880 0.669093
0.000000 0.566217 0.679316
0.000000 0.560967 0.677699
0.000000 0.542290 0.676600
0.470924 0.576196 0.703883
0.700893 0.670558 0.755428
0.807584 0.625757 0.731441
0.871183 0.605097 0.693660
0.935119 0.595209 0.671931
0.199100 0.733059 0.697749
0.251102 0.732387 0.698512
0.381659 0.729091 0.701686
0.532036 0.723384 0.709102
0.672297 0.717281 0.722133
0.771847 0.699428 0.707851
0.851377 0.681361 0.681849
0.927306 0.666102 0.665492
0.573510 0.804593 0.708766
0.584192 0.805692 0.714473
0.622156 0.808743 0.734981
0.685206 0.816434 0.772610
0.761471 0.828763 0.820615
0.787686 0.832731 0.815854
0.834592 0.788998 0.738979
0.908293 0.761227 0.686030
0.709804 0.873869 0.818509
0.714137 0.874144 0.820737
0.733455 0.875669 0.830838
0.766873 0.876310 0.847227
0.811734 0.876555 0.868986
0.841825 0.878965 0.884520
0.838437 0.877928 0.865537
0.885924 0.862181 0.816342
0.000000 0.148257 0.804959
0.000000 0.143099 0.808316
0.000000 0.150301 0.816434
0.000000 0.197421 0.833799
0.589471 0.343908 0.851591
0.783810 0.412238 0.847013
0.937346 0.353124 0.843107
0.983368 0.381628 0.787533
0.000000 0.165377 0.799130
0.000000 0.161135 0.802792
0.000000 0.165957 0.812375
0.000000 0.216983 0.829526
0.589990 0.362707 0.847623
0.780911 0.426093 0.843442
0.932921 0.361120 0.838712
0.980163 0.382788 0.783383
0.000000 0.243107 0.791470
0.000000 0.240787 0.794553
0.000000 0.229099 0.804959
0.141665 0.306249 0.824949
0.605646 0.454444 0.841550
0.775814 0.505028 0.838437
0.919646 0.444709 0.832578
0.969085 0.450538 0.781765
0.000000 0.359960 0.771786
0.000000 0.366735 0.775509
0.000000 0.370062 0.788571
0.207645 0.411963 0.811185
0.617121 0.555261 0.831357
0.770687 0.609674 0.835325
0.898222 0.559686 0.827604
0.950317 0.553429 0.785336
0.000000 0.437476 0.735958
0.000000 0.430793 0.736538
0.000000 0.447822 0.749722
0.000000 0.512474 0.778256
0.591058 0.608606 0.813016
0.762539 0.689876 0.833677
0.875486 0.650568 0.824338
0.930297 0.639216 0.790524
0.000000 0.684077 0.762814
0.000000 0.680598 0.761776
0.000000 0.666926 0.759365
0.000000 0.638178 0.757626
0.441718 0.623896 0.770962
0.756344 0.757259 0.836973
0.853788 0.735653 0.828214
0.909148 0.712215 0.796902
0.000000 0.819272 0.790036
0.118410 0.818448 0.790066
0.264164 0.814939 0.790463
0.404913 0.809079 0.792874
0.542229 0.798825 0.796475
0.689204 0.778439 0.798306
0.817868 0.784451 0.814176
0.896361 0.759243 0.788479
0.567742 0.865049 0.769314
0.571862 0.864652 0.769375
0.591455 0.864012 0.771664
0.630976 0.863920 0.778592
0.700862 0.865141 0.809262
0.784512 0.869413 0.852476
0.846464 0.877104 0.885222
0.878386 0.857420 0.836301
