20 Preset/INSTA/【3】LUT video cho PR-AE-FCPX/INS LUT (9).cube
# Created by Adobe Lightroom plugin Export LUT (1.24.0)
# www.johnrellis.com/lightroom/exportlut.htm
# Preset: INS胶片Tezza05[素材江湖]09
# Color profile: C:\Program Files (x86)\Common Files\Adobe\Color\Profiles\Recommended\VideoHD.icc
LUT_3D_SIZE 32
DOMAIN_MIN 0.0 0.0 0.0
DOMAIN_MAX 1.0 1.0 1.0
0.000000 0.000000 0.000000
0.001984 0.000000 0.000000
0.014160 0.000610 0.000763
0.044221 0.001617 0.003418
0.088350 0.004761 0.007660
0.120119 0.008606 0.013031
0.166384 0.000000 0.018677
0.227298 0.000000 0.021820
0.298466 0.000000 0.025422
0.378607 0.000000 0.026612
0.465919 0.000000 0.027192
0.553613 0.000000 0.026459
0.636988 0.000000 0.025818
0.710689 0.000000 0.026368
0.792569 0.000000 0.043153
0.858488 0.000000 0.085328
0.901152 0.000000 0.111452
0.932006 0.000000 0.138735
0.955779 0.000000 0.167269
0.974701 0.000000 0.197116
0.989624 0.000000 0.229221
1.000000 0.190036 0.262364
1.000000 0.263828 0.295293
1.000000 0.319463 0.328771
1.000000 0.366125 0.362860
1.000000 0.407172 0.397162
1.000000 0.445655 0.433539
1.000000 0.482002 0.470924
1.000000 0.517998 0.510216
1.000000 0.554131 0.550805
1.000000 0.590021 0.592096
1.000000 0.599145 0.603082
0.000275 0.002167 0.000824
0.000977 0.000977 0.000977
0.014435 0.002808 0.001587
0.042481 0.004028 0.004273
0.087831 0.009339 0.008179
0.118807 0.013642 0.013581
0.162814 0.005737 0.018311
0.221042 0.000000 0.022919
0.290013 0.000000 0.025940
0.367559 0.000000 0.027344
0.452430 0.000000 0.027375
0.539239 0.000000 0.026642
0.622370 0.000000 0.025635
0.697597 0.000000 0.027070
0.779751 0.000000 0.037659
0.846067 0.000000 0.076936
0.890166 0.000000 0.104341
0.922362 0.000000 0.129976
0.947356 0.000000 0.156924
0.967346 0.000000 0.185672
0.983246 0.000000 0.215915
0.995697 0.143130 0.246769
1.000000 0.231388 0.277928
1.000000 0.291508 0.309972
1.000000 0.340856 0.342992
1.000000 0.384039 0.377050
1.000000 0.424567 0.413153
1.000000 0.463081 0.451148
1.000000 0.500877 0.491554
1.000000 0.538537 0.533410
1.000000 0.576379 0.576532
1.000000 0.599420 0.603265
0.001251 0.015259 0.008057
0.002960 0.015015 0.009186
0.012726 0.017304 0.008698
0.043519 0.021698 0.007477
0.088289 0.027008 0.011414
0.119814 0.029877 0.015808
0.163790 0.021759 0.020508
0.220523 0.000000 0.024201
0.287236 0.000000 0.027192
0.362432 0.000000 0.027863
0.445197 0.000000 0.027955
0.531060 0.000000 0.027253
0.613458 0.000000 0.026337
0.688380 0.000000 0.026764
0.772915 0.000000 0.037201
0.837064 0.000000 0.070649
0.881163 0.000000 0.100649
0.914153 0.000000 0.124727
0.940246 0.000000 0.151125
0.961334 0.000000 0.178897
0.978302 0.000000 0.208560
0.991455 0.133089 0.239780
1.000000 0.223301 0.270207
1.000000 0.283330 0.301732
1.000000 0.332372 0.334203
1.000000 0.375402 0.367437
1.000000 0.416388 0.403510
1.000000 0.455268 0.441596
1.000000 0.493660 0.482368
1.000000 0.531762 0.524681
1.000000 0.569818 0.568261
1.000000 0.600671 0.603967
0.010864 0.042664 0.025574
0.011841 0.043641 0.026551
0.019074 0.043946 0.026368
0.038941 0.050660 0.026215
0.092561 0.059022 0.018128
0.125002 0.062013 0.021180
0.170047 0.051881 0.024689
0.225376 0.020142 0.026062
0.290227 0.000000 0.028779
0.362860 0.000000 0.028992
0.443427 0.000000 0.028840
0.525780 0.000000 0.027710
0.606622 0.000000 0.025147
0.683253 0.000000 0.025910
0.767117 0.000000 0.035676
0.826749 0.000000 0.065614
0.869230 0.000000 0.095918
0.901671 0.000000 0.117861
0.928069 0.000000 0.141543
0.950011 0.000000 0.167819
0.968078 0.000000 0.195407
0.982574 0.105898 0.225223
0.994171 0.206546 0.254978
1.000000 0.270665 0.287449
1.000000 0.322728 0.321355
1.000000 0.369696 0.357580
1.000000 0.413519 0.396460
1.000000 0.454353 0.436835
1.000000 0.493385 0.478981
1.000000 0.531609 0.522179
1.000000 0.568811 0.565179
1.000000 0.602899 0.605035
0.024537 0.086702 0.053620
0.027893 0.086397 0.055879
0.036835 0.086458 0.056825
0.052461 0.088136 0.053895
0.091279 0.093996 0.050782
0.132113 0.096193 0.034638
0.175784 0.091188 0.028382
0.228275 0.077241 0.030182
0.289769 0.024842 0.030152
0.358709 0.000000 0.029755
0.435218 0.000000 0.028046
0.515404 0.000000 0.026368
0.594415 0.000000 0.024292
0.681727 0.000000 0.024720
0.756893 0.000000 0.035218
0.814328 0.000000 0.060517
0.857939 0.000000 0.093080
0.891691 0.000000 0.114839
0.919310 0.000000 0.138674
0.942138 0.000000 0.164401
0.960937 0.000000 0.192294
0.976226 0.149233 0.220737
0.988556 0.225803 0.251316
0.998932 0.282780 0.283940
1.000000 0.332311 0.318791
1.000000 0.377295 0.355505
1.000000 0.418921 0.394324
1.000000 0.458198 0.434852
1.000000 0.496010 0.476936
1.000000 0.532464 0.519097
1.000000 0.568597 0.561913
1.000000 0.603113 0.603113
0.041627 0.118105 0.089815
0.044007 0.118318 0.091035
0.058991 0.117861 0.092287
0.077058 0.119387 0.090150
0.098909 0.120668 0.086366
0.138643 0.130922 0.079286
0.192294 0.131014 0.048615
0.239506 0.115694 0.029694
0.298131 0.102724 0.028595
0.365332 0.058869 0.027771
0.439368 0.000000 0.025605
0.516991 0.000000 0.022034
0.604486 0.000000 0.019928
0.687495 0.000000 0.022004
0.756008 0.000000 0.034211
0.810727 0.000000 0.060883
0.853239 0.000000 0.094881
0.887022 0.000000 0.117739
0.914702 0.000000 0.142306
0.937530 0.000000 0.168215
0.956451 0.144472 0.196201
0.971923 0.215122 0.225803
1.000000 0.397650 0.350958
1.000000 0.431464 0.386419
1.000000 0.462654 0.421912
1.000000 0.492164 0.457191
1.000000 0.520745 0.492683
1.000000 0.548821 0.527733
1.000000 0.577203 0.563409
1.000000 0.604883 0.598169
1.000000 0.614649 0.611139
1.000000 0.612024 0.609796
0.069276 0.185489 0.132082
0.079286 0.185580 0.133486
0.096010 0.185122 0.136141
0.109682 0.186221 0.132784
0.132692 0.187198 0.127565
0.166384 0.186984 0.119600
0.230808 0.201602 0.108736
0.297948 0.194247 0.066835
0.344823 0.164614 0.024018
0.406134 0.142092 0.014405
0.486702 0.116152 0.009979
0.583978 0.049592 0.005646
0.670863 0.000000 0.008759
0.742275 0.000000 0.025147
0.798245 0.000000 0.054627
0.840726 0.000000 0.093721
0.874723 0.078676 0.117891
0.902831 0.144320 0.143435
0.926665 0.195407 0.170779
0.947326 0.243290 0.201663
0.965026 0.290288 0.235874
0.979889 0.336584 0.274754
0.991760 0.381048 0.316838
1.000000 0.422034 0.360052
1.000000 0.458473 0.402899
1.000000 0.490394 0.442664
1.000000 0.518853 0.480171
1.000000 0.545983 0.515984
1.000000 0.573236 0.551812
1.000000 0.599817 0.586603
1.000000 0.621576 0.614679
1.000000 0.618524 0.613062
0.116396 0.251316 0.180148
0.121675 0.251072 0.181918
0.132357 0.251072 0.183047
0.145052 0.251743 0.179385
0.166567 0.251835 0.173495
0.198276 0.251591 0.165835
0.240177 0.250797 0.155856
0.318181 0.268223 0.139193
0.404242 0.267979 0.100252
0.459327 0.235904 0.031769
0.511559 0.199252 0.000000
0.592737 0.189822 0.000000
0.666743 0.180575 0.000000
0.729732 0.177462 0.010956
0.781704 0.180941 0.040894
0.823209 0.190524 0.086763
0.857481 0.207797 0.112551
0.886473 0.229892 0.138766
0.911498 0.257481 0.165988
0.933318 0.289647 0.196414
0.952239 0.325261 0.231144
0.968353 0.362341 0.268956
0.981628 0.399481 0.310002
0.992279 0.435096 0.352697
1.000000 0.467964 0.395392
1.000000 0.497078 0.435431
1.000000 0.523613 0.473030
1.000000 0.549310 0.509514
1.000000 0.575036 0.545342
1.000000 0.600763 0.580713
1.000000 0.625696 0.614405
1.000000 0.626307 0.617212
0.179263 0.330755 0.240970
0.182345 0.331090 0.242069
0.187320 0.330663 0.239933
0.200198 0.332677 0.237888
0.222873 0.337316 0.235599
0.257389 0.342382 0.231357
0.301884 0.347112 0.225132
0.367254 0.358312 0.220096
0.454475 0.377996 0.198825
0.527794 0.368902 0.149538
0.573388 0.331212 0.094911
0.606043 0.280583 0.000000
0.661402 0.264439 0.000000
0.719844 0.265751 0.000000
0.769314 0.269871 0.028412
0.809659 0.276158 0.081727
0.843778 0.286168 0.112215
0.873045 0.300175 0.139559
0.898650 0.318486 0.167758
0.921202 0.341375 0.198428
0.940795 0.368139 0.232822
0.957549 0.397406 0.270603
0.971740 0.427375 0.310979
0.983307 0.457252 0.353368
0.992493 0.485359 0.395026
0.999268 0.511101 0.434791
1.000000 0.535302 0.472694
1.000000 0.558892 0.508934
1.000000 0.582757 0.544762
1.000000 0.606714 0.579736
1.000000 0.630396 0.613397
1.000000 0.635065 0.621881
0.293858 0.452033 0.338537
0.294621 0.451606 0.337682
0.298039 0.450629 0.335393
0.307195 0.450263 0.331395
0.322484 0.449653 0.325811
0.345312 0.447974 0.317662
0.376989 0.445960 0.307256
0.418372 0.444221 0.295842
0.481025 0.453773 0.292821
0.552056 0.464454 0.260380
0.609857 0.451698 0.206027
0.645655 0.414496 0.147890
0.672023 0.364996 0.075441
0.701198 0.324865 0.000000
0.751827 0.331060 0.013214
0.794247 0.338750 0.077943
0.830137 0.348425 0.113008
0.860838 0.361059 0.143984
0.887419 0.376043 0.174472
0.910307 0.393683 0.206607
0.930022 0.412940 0.240330
0.946715 0.433539 0.275456
0.960906 0.455207 0.312688
0.972900 0.477363 0.350958
0.982910 0.499184 0.389136
0.990753 0.520836 0.427283
0.996887 0.542260 0.464515
1.000000 0.564172 0.501305
1.000000 0.587060 0.538415
1.000000 0.610651 0.574975
1.000000 0.633936 0.609949
1.000000 0.644617 0.626947
0.389929 0.533593 0.416846
0.390448 0.533410 0.416480
0.393469 0.533135 0.414710
0.399878 0.532525 0.411475
0.410498 0.531487 0.406134
0.426642 0.530297 0.399359
0.449897 0.528496 0.390539
0.480171 0.526513 0.380072
0.517693 0.524407 0.368200
0.574914 0.537041 0.373877
0.629603 0.541375 0.332799
0.674281 0.528313 0.277226
0.703334 0.495247 0.215854
0.726223 0.450721 0.150698
0.743191 0.395514 0.045960
0.780819 0.393713 0.078798
0.816922 0.402411 0.117128
0.847837 0.412390 0.149630
0.874571 0.424018 0.181094
0.897826 0.437018 0.213046
0.917967 0.451667 0.246860
0.935393 0.467384 0.281376
0.950347 0.484901 0.318425
0.963195 0.502953 0.356329
0.973999 0.521386 0.394079
0.982696 0.540093 0.431861
0.989685 0.558984 0.468757
0.994934 0.578729 0.505425
0.998505 0.599573 0.542046
1.000000 0.621332 0.578332
1.000000 0.643061 0.613031
1.000000 0.654841 0.632471
0.486275 0.606104 0.500664
0.486763 0.606134 0.500267
0.488533 0.605921 0.499214
0.493050 0.605615 0.496742
0.500328 0.605066 0.493080
0.510887 0.603998 0.487404
0.526635 0.603021 0.480812
0.547173 0.601709 0.472694
0.573022 0.600244 0.463416
0.603815 0.598474 0.452796
0.650050 0.610651 0.465217
0.689845 0.609094 0.420172
0.765347 0.654353 0.466743
0.787533 0.624933 0.398535
0.806485 0.586481 0.321080
0.822507 0.539208 0.236118
0.842405 0.510582 0.197848
0.868070 0.516472 0.230167
0.890349 0.523217 0.262852
0.909758 0.531090 0.295872
0.926543 0.540124 0.329961
0.941039 0.550042 0.363989
0.953460 0.561028 0.398444
0.964019 0.573205 0.433204
0.972808 0.585901 0.466651
0.979889 0.598993 0.498970
0.985412 0.612390 0.529778
0.989380 0.626703 0.559808
0.992157 0.641688 0.589105
0.993652 0.657527 0.617975
0.993927 0.670741 0.641016
0.996155 0.665431 0.638178
0.612238 0.695796 0.629175
0.611933 0.695369 0.628504
0.611048 0.693812 0.625544
0.610864 0.691829 0.621393
0.610986 0.688899 0.615106
0.612757 0.685481 0.607294
0.618158 0.682551 0.599268
0.627253 0.679927 0.590936
0.641382 0.678401 0.583520
0.660700 0.677974 0.577203
0.685023 0.678889 0.572473
0.719387 0.692287 0.593988
0.749233 0.690211 0.557702
0.776699 0.678462 0.513420
0.799039 0.656367 0.459052
0.818509 0.625116 0.391211
0.835416 0.586236 0.313298
0.850340 0.540490 0.228672
0.873594 0.546075 0.261295
0.893889 0.552117 0.293339
0.911681 0.559045 0.326085
0.927306 0.567346 0.359655
0.940948 0.576440 0.393652
0.952758 0.586847 0.428107
0.962768 0.597955 0.461982
0.971008 0.609888 0.494942
0.977600 0.622461 0.526787
0.982635 0.636133 0.558221
0.986297 0.650538 0.588647
0.988617 0.665827 0.618433
0.989380 0.681453 0.646784
0.991577 0.676265 0.644007
0.649378 0.725307 0.672236
0.648737 0.724727 0.671321
0.647761 0.723232 0.668666
0.646937 0.721187 0.664881
0.646357 0.718410 0.659480
0.646937 0.715450 0.653223
0.649958 0.712825 0.646998
0.655818 0.710811 0.640742
0.665339 0.709590 0.635218
0.678798 0.709560 0.631037
0.696101 0.710689 0.628321
0.716732 0.712306 0.625971
0.745113 0.724056 0.642786
0.768521 0.720546 0.612360
0.790890 0.708858 0.573327
0.810361 0.688350 0.523430
0.828428 0.660273 0.460945
0.845365 0.626612 0.388922
0.861295 0.587152 0.308232
0.879698 0.574029 0.295445
0.898405 0.579950 0.328252
0.915038 0.586938 0.361334
0.929564 0.595026 0.395789
0.942382 0.604181 0.430518
0.953338 0.614191 0.464698
0.962463 0.624933 0.497932
0.969940 0.636378 0.530083
0.975738 0.648920 0.561700
0.980224 0.662165 0.592187
0.983246 0.676417 0.622126
0.984649 0.691218 0.650752
0.986877 0.687221 0.649897
0.681086 0.752163 0.710597
0.680873 0.751888 0.710109
0.680018 0.750759 0.708186
0.679072 0.748898 0.704982
0.678157 0.746395 0.700435
0.677943 0.743709 0.695155
0.679500 0.741421 0.690028
0.683253 0.739712 0.685237
0.689601 0.738796 0.681117
0.699062 0.738766 0.678096
0.711452 0.739651 0.676143
0.726528 0.741115 0.674678
0.744717 0.743923 0.674769
0.766293 0.751583 0.684779
0.784665 0.746334 0.657465
0.802640 0.734310 0.622400
0.819211 0.715969 0.579828
0.835966 0.691402 0.525261
0.852934 0.662135 0.461128
0.869657 0.628595 0.388128
0.886534 0.600946 0.333745
0.903777 0.607111 0.367346
0.919066 0.614008 0.400885
0.932525 0.622004 0.435401
0.944213 0.630793 0.469520
0.954101 0.640528 0.503044
0.962341 0.651331 0.535973
0.968902 0.663386 0.568597
0.974090 0.676387 0.600183
0.977722 0.690394 0.631098
0.979309 0.704311 0.658961
0.982086 0.698085 0.655665
0.705806 0.773770 0.740841
0.705989 0.773861 0.740902
0.705898 0.773404 0.740078
0.705715 0.772641 0.738552
0.705867 0.771572 0.736294
0.706569 0.770321 0.733577
0.708522 0.769558 0.731167
0.711818 0.769009 0.728786
0.716640 0.768795 0.726497
0.723110 0.768765 0.724208
0.731136 0.768734 0.721736
0.740749 0.768643 0.718929
0.751949 0.768185 0.715389
0.767117 0.770108 0.714412
0.782315 0.772610 0.716518
0.796445 0.765530 0.690272
0.811429 0.753689 0.658595
0.825864 0.737575 0.622675
0.841001 0.716732 0.577844
0.857572 0.691707 0.523400
0.874968 0.663539 0.461067
0.893034 0.632197 0.390509
0.909361 0.632898 0.408606
0.923583 0.640620 0.444221
0.935973 0.649073 0.479286
0.946593 0.658473 0.513634
0.955322 0.668940 0.547539
0.962493 0.680201 0.580255
0.968200 0.692164 0.611444
0.972259 0.704524 0.640711
0.974426 0.715206 0.664668
0.977295 0.708827 0.661372
0.726955 0.792264 0.766293
0.726925 0.792233 0.766140
0.726894 0.791958 0.765621
0.726986 0.791501 0.764675
0.727260 0.790890 0.763302
0.727962 0.790249 0.761624
0.729458 0.789670 0.759915
0.731746 0.789212 0.758022
0.735042 0.788907 0.756130
0.739498 0.788693 0.754177
0.745235 0.788540 0.752071
0.752255 0.788388 0.749813
0.760464 0.787930 0.746944
0.769802 0.787045 0.743252
0.783139 0.789029 0.743404
0.795346 0.789517 0.741848
0.807034 0.782528 0.718929
0.819852 0.771817 0.691646
0.832731 0.757931 0.661494
0.846250 0.740261 0.625025
0.861601 0.719753 0.582055
0.879088 0.695949 0.530266
0.898009 0.669612 0.470832
0.915282 0.658625 0.453895
0.928283 0.666651 0.489418
0.939361 0.675746 0.524681
0.948699 0.685817 0.559228
0.956451 0.696529 0.592035
0.962585 0.707607 0.622766
0.966949 0.719173 0.651728
0.969512 0.725917 0.670192
0.972503 0.719356 0.666835
0.748013 0.810361 0.790524
0.748287 0.810544 0.790768
0.766934 0.825528 0.810452
0.766934 0.825254 0.809873
0.767025 0.824826 0.808957
0.767208 0.824186 0.807645
0.767727 0.823514 0.806119
0.768734 0.822843 0.804471
0.770535 0.822324 0.802884
0.773068 0.821897 0.801205
0.776425 0.821469 0.799374
0.780484 0.820829 0.797208
0.785183 0.819760 0.794278
0.790677 0.818265 0.790585
0.796963 0.816251 0.786038
0.806699 0.816800 0.785336
0.814969 0.814847 0.779965
0.823087 0.807370 0.759854
0.832731 0.797238 0.736355
0.843320 0.784787 0.710780
0.855039 0.769619 0.680873
0.868864 0.752712 0.647333
0.884977 0.733425 0.608118
0.903655 0.711574 0.560998
0.923583 0.690761 0.515618
0.934173 0.697871 0.547478
0.943267 0.705715 0.578119
0.950988 0.714076 0.607202
0.957305 0.723384 0.635462
0.961883 0.733639 0.662959
0.964691 0.736294 0.675319
0.967742 0.729702 0.672114
0.771206 0.829221 0.815427
0.772763 0.830381 0.816922
0.774350 0.831540 0.818326
0.775875 0.832395 0.819333
0.776974 0.832853 0.819669
0.777615 0.832761 0.819181
0.778042 0.832303 0.818051
0.778775 0.831724 0.816678
0.779965 0.831174 0.815213
0.781735 0.830686 0.813718
0.784176 0.830228 0.812131
0.787228 0.829679 0.810239
0.790768 0.828794 0.807889
0.794919 0.827634 0.804990
0.799802 0.826139 0.801541
0.805539 0.824247 0.797391
0.814542 0.825132 0.797787
0.821805 0.823056 0.791928
0.829191 0.816648 0.774868
0.838041 0.808194 0.755367
0.847868 0.797940 0.734340
0.858946 0.785824 0.710658
0.871977 0.771939 0.683650
0.887053 0.756191 0.652644
0.904631 0.738247 0.615991
0.925170 0.717861 0.571649
0.937133 0.719142 0.585595
0.945312 0.726864 0.614221
0.952026 0.735500 0.642206
0.956939 0.745052 0.669642
0.959930 0.746395 0.680293
0.963134 0.739620 0.676967
0.783352 0.838590 0.827726
0.784756 0.839597 0.829068
0.786282 0.840635 0.830381
0.787625 0.841459 0.831327
0.788693 0.841947 0.831754
0.789242 0.841917 0.831449
0.789639 0.841581 0.830625
0.790097 0.841093 0.829496
0.790921 0.840604 0.828244
0.792081 0.840116 0.826902
0.793790 0.839628 0.825467
0.795987 0.839139 0.823941
0.798581 0.838437 0.822019
0.801755 0.837552 0.819791
0.805478 0.836393 0.817075
0.809812 0.834989 0.813962
0.814969 0.833310 0.810300
0.822934 0.834257 0.811337
0.829129 0.831998 0.805173
0.835691 0.826383 0.790555
0.843534 0.819120 0.773983
0.852506 0.810605 0.756527
0.862821 0.800717 0.737453
0.874937 0.789334 0.715694
0.889067 0.776272 0.690547
0.905577 0.761654 0.661707
0.924895 0.745357 0.628199
0.940093 0.739834 0.622309
0.947112 0.747860 0.649989
0.952239 0.756710 0.677119
0.955413 0.756008 0.684749
0.958587 0.749264 0.681636
0.795285 0.847349 0.839384
0.796414 0.848142 0.840421
0.797604 0.848936 0.841398
0.798672 0.849516 0.842130
0.799527 0.849882 0.842435
0.799954 0.849882 0.842191
0.800259 0.849638 0.841581
0.800565 0.849271 0.840696
0.801175 0.848875 0.839750
0.801999 0.848478 0.838651
0.803220 0.848051 0.837461
0.804807 0.847623 0.836179
0.806729 0.847044 0.834653
0.809049 0.846372 0.832853
0.811856 0.845518 0.830777
0.815305 0.844572 0.828550
0.819425 0.843595 0.826169
0.824430 0.842557 0.823636
0.831724 0.843961 0.825803
0.837278 0.842222 0.820554
0.843351 0.838010 0.809293
0.850584 0.832609 0.796719
0.858824 0.826200 0.783413
0.868406 0.819059 0.769589
0.879728 0.810849 0.754025
0.893065 0.801602 0.736568
0.908659 0.791409 0.717159
0.926726 0.780362 0.695735
0.944213 0.772183 0.681697
0.947784 0.772244 0.691951
0.951019 0.765347 0.688991
0.954192 0.758572 0.685969
0.812436 0.858946 0.855253
0.812802 0.859190 0.855558
0.813107 0.859342 0.855741
0.813291 0.859373 0.855680
0.813382 0.859281 0.855436
0.813321 0.859037 0.854948
0.813291 0.858732 0.854276
0.813413 0.858396 0.853513
0.813718 0.858061 0.852720
0.814298 0.857786 0.851926
0.815183 0.857481 0.851041
0.816281 0.857176 0.850095
0.817594 0.856748 0.848905
0.819181 0.856199 0.847501
0.821103 0.855558 0.845884
0.823484 0.854826 0.844114
0.826322 0.853941 0.842130
0.829770 0.853056 0.839994
0.834012 0.852171 0.837858
0.839628 0.852873 0.839384
0.843931 0.850736 0.833799
0.848936 0.846799 0.823667
0.855161 0.841886 0.812406
0.862486 0.836149 0.800565
0.871183 0.830137 0.788846
0.881651 0.823606 0.776455
0.894011 0.816617 0.763241
0.908324 0.809262 0.749538
0.924529 0.801511 0.735225
0.941436 0.783597 0.701778
0.946807 0.774319 0.692897
0.949981 0.767544 0.689967
0.821317 0.864439 0.863157
0.821561 0.864622 0.863371
0.821805 0.864744 0.863493
0.821988 0.864775 0.863493
0.822049 0.864714 0.863340
0.822049 0.864530 0.862974
0.821988 0.864317 0.862486
0.822080 0.864103 0.861936
0.822324 0.863859 0.861326
0.822721 0.863645 0.860685
0.823301 0.863462 0.860014
0.824125 0.863188 0.859281
0.825040 0.862882 0.858366
0.826200 0.862516 0.857328
0.827665 0.862089 0.856107
0.829404 0.861570 0.854795
0.831540 0.860990 0.853330
0.834104 0.860380 0.851804
0.837217 0.859709 0.850156
0.841154 0.859312 0.848814
0.845457 0.859556 0.849973
0.849027 0.857633 0.844907
0.853483 0.854398 0.836393
0.859098 0.850431 0.827085
0.864897 0.843534 0.813352
0.873014 0.838651 0.803677
0.882750 0.833707 0.794095
0.894102 0.828641 0.784482
0.907012 0.823484 0.775051
0.920439 0.809934 0.750729
0.936797 0.789609 0.713161
0.945922 0.776181 0.693629
0.831205 0.870054 0.871641
0.831601 0.870237 0.871977
0.831907 0.870329 0.872190
0.831876 0.870268 0.872038
0.831662 0.870085 0.871702
0.831327 0.869810 0.871183
0.830961 0.869505 0.870542
0.830594 0.869139 0.869810
0.830350 0.868772 0.869017
0.830228 0.868437 0.868223
0.830259 0.868040 0.867308
0.830503 0.867674 0.866453
0.830900 0.867277 0.865476
0.831479 0.866819 0.864378
0.832181 0.866300 0.863096
0.833188 0.865721 0.861723
0.834562 0.865110 0.860288
0.836393 0.864530 0.858854
0.838743 0.864012 0.857511
0.841611 0.863554 0.856260
0.845396 0.863523 0.855497
0.848814 0.863523 0.856687
0.851896 0.861723 0.851743
0.855894 0.858824 0.844114
0.860960 0.855253 0.835630
0.867124 0.851133 0.826658
0.874601 0.847196 0.818662
0.883482 0.843442 0.811185
0.893675 0.839750 0.804227
0.904387 0.828763 0.784573
0.917296 0.813687 0.757534
0.932433 0.795102 0.723476
0.835508 0.872404 0.875273
0.835843 0.872526 0.875547
0.836179 0.872618 0.875792
0.836576 0.872679 0.876036
0.836698 0.872648 0.876036
0.836606 0.872526 0.875792
0.836545 0.872404 0.875486
0.836484 0.872282 0.875120
0.836484 0.872160 0.874754
0.836637 0.872007 0.874327
0.836790 0.871824 0.873838
0.837003 0.871641 0.873259
0.837278 0.871397 0.872618
0.837675 0.871122 0.871824
0.838102 0.870756 0.870848
0.838712 0.870329 0.869780
0.839567 0.869871 0.868650
0.840787 0.869413 0.867521
0.842405 0.869047 0.866453
0.844419 0.868681 0.865446
0.846830 0.868345 0.864469
0.849973 0.868406 0.863951
0.852354 0.868132 0.864927
0.855039 0.866606 0.860502
0.858640 0.864439 0.854337
0.863249 0.861814 0.847623
0.868956 0.858854 0.840726
0.875700 0.856260 0.835019
0.883116 0.851682 0.826047
0.891814 0.842618 0.809354
0.902068 0.831357 0.789151
0.914000 0.817624 0.764584
0.840726 0.874815 0.879545
0.840879 0.874876 0.879667
0.841062 0.874907 0.879789
0.841306 0.874907 0.879942
0.841642 0.874937 0.880125
0.841825 0.874876 0.880156
0.841733 0.874784 0.879881
0.841642 0.874662 0.879606
0.841581 0.874540 0.879301
0.841611 0.874449 0.878965
0.841642 0.874296 0.878538
0.841764 0.874174 0.878111
0.841947 0.874022 0.877623
0.842161 0.873808 0.877043
0.842405 0.873564 0.876310
0.842771 0.873289 0.875517
0.843351 0.872953 0.874632
0.844144 0.872648 0.873747
0.845212 0.872374 0.872923
0.846647 0.872099 0.872160
0.848356 0.871885 0.871397
0.850370 0.871641 0.870634
0.852903 0.871702 0.870237
0.854551 0.871275 0.871031
0.856870 0.870024 0.867094
0.860136 0.868345 0.861967
0.864378 0.866392 0.856504
0.869535 0.864256 0.850980
0.875151 0.859525 0.841184
0.882048 0.852750 0.828031
0.890196 0.844327 0.812467
0.899626 0.834104 0.794034
0.844358 0.876310 0.882444
0.844480 0.876341 0.882536
0.844633 0.876371 0.882658
0.844846 0.876402 0.882780
0.845243 0.876402 0.882994
0.845701 0.876463 0.883330
0.846128 0.876493 0.883574
0.846342 0.876524 0.883574
0.846647 0.876585 0.883635
0.846952 0.876616 0.883665
0.847318 0.876677 0.883726
0.847654 0.876707 0.883696
0.847990 0.876738 0.883635
0.848295 0.876707 0.883482
0.848569 0.876646 0.883207
0.848814 0.876524 0.882780
0.849119 0.876371 0.882292
0.849546 0.876219 0.881773
0.850126 0.876097 0.881285
0.850889 0.875975 0.880827
0.851835 0.875883 0.880369
0.852995 0.875731 0.879911
0.854276 0.875608 0.879362
0.855894 0.875639 0.879271
0.856809 0.875242 0.879667
0.858579 0.874357 0.876432
0.861082 0.872160 0.869963
0.864622 0.869139 0.862089
0.869139 0.865141 0.852811
0.874510 0.860136 0.842405
0.880980 0.853849 0.830137
0.888396 0.846220 0.815915
0.849668 0.877989 0.886534
0.849699 0.877989 0.886564
0.849729 0.877989 0.886595
0.849851 0.877958 0.886625
0.850004 0.877958 0.886748
0.850278 0.877958 0.886900
0.850614 0.877958 0.887083
0.850797 0.877958 0.887144
0.850797 0.877928 0.887053
0.850797 0.877897 0.886931
0.850858 0.877867 0.886839
0.850889 0.877836 0.886687
0.851011 0.877806 0.886534
0.851041 0.877775 0.886351
