20 Preset/INSTA/【3】LUT video cho PR-AE-FCPX/INS LUT (10).cube
# Created by Adobe Lightroom plugin Export LUT (1.24.0)
# www.johnrellis.com/lightroom/exportlut.htm
# Preset: INS胶片-复古[素材江湖]10
# Color profile: C:\Program Files (x86)\Common Files\Adobe\Color\Profiles\Recommended\VideoHD.icc
LUT_3D_SIZE 8
DOMAIN_MIN 0.000000 0.000000 0.000000
DOMAIN_MAX 0.903226 0.903226 0.903226
0.139712 0.075441 0.090517
0.170199 0.064942 0.091035
0.341344 0.000000 0.088930
0.634180 0.000000 0.047089
0.872465 0.000000 0.000000
1.000000 0.000000 0.000000
1.000000 0.000000 0.000000
1.000000 0.000000 0.000000
0.154635 0.101991 0.102052
0.169833 0.100252 0.098024
0.278965 0.079225 0.092012
0.529290 0.000000 0.060273
0.801541 0.000000 0.000000
0.970336 0.000000 0.000000
1.000000 0.000000 0.000000
1.000000 0.000000 0.000000
0.193759 0.233463 0.154116
0.199619 0.223056 0.139773
0.298253 0.217166 0.117708
0.455726 0.190982 0.056001
0.681605 0.174014 0.000000
0.927703 0.208560 0.000000
1.000000 0.267857 0.000000
1.000000 0.327855 0.000000
0.245518 0.498512 0.284703
0.245365 0.485420 0.261265
0.324193 0.444007 0.227024
0.564141 0.503624 0.180179
0.761685 0.478187 0.000000
0.861631 0.426947 0.000000
0.996551 0.449439 0.000000
1.000000 0.482063 0.000000
0.439826 0.686946 0.463722
0.431403 0.681300 0.447578
0.429145 0.663111 0.399207
0.519402 0.643122 0.363867
0.713008 0.666133 0.321050
0.850065 0.625910 0.228855
0.933593 0.580957 0.000000
1.000000 0.577508 0.000000
0.608850 0.784634 0.603357
0.618952 0.790036 0.608057
0.606409 0.782559 0.580194
0.619593 0.764279 0.547570
0.684230 0.757778 0.519493
0.812741 0.774350 0.501427
0.917845 0.763302 0.472847
0.993835 0.741268 0.354314
0.727535 0.861997 0.714931
0.728725 0.862547 0.713985
0.721279 0.857664 0.697871
0.718074 0.848783 0.673732
0.729763 0.830655 0.646357
0.792233 0.836790 0.635950
0.881346 0.849760 0.626520
0.958007 0.847135 0.616724
0.819944 0.928893 0.813016
0.820829 0.928557 0.812253
0.819150 0.927672 0.805509
0.817136 0.926787 0.792996
0.806577 0.907866 0.758206
0.830655 0.904509 0.750607
0.886961 0.915496 0.751492
0.947906 0.921752 0.739803
0.141451 0.087495 0.107607
0.154421 0.089296 0.099672
0.302159 0.000000 0.094057
0.510979 0.000000 0.067414
0.787686 0.000000 0.000000
0.958465 0.000000 0.000000
1.000000 0.000000 0.000000
1.000000 0.000000 0.000000
0.151064 0.107729 0.114931
0.176669 0.105196 0.113191
0.280339 0.091279 0.103090
0.473060 0.000000 0.073335
0.748226 0.000000 0.000000
0.937896 0.000000 0.000000
1.000000 0.000000 0.000000
1.000000 0.000000 0.000000
0.204990 0.226902 0.169039
0.225925 0.226291 0.166079
0.300450 0.218601 0.142428
0.444739 0.192294 0.100099
0.640345 0.174319 0.000000
0.879637 0.192721 0.000000
1.000000 0.218631 0.000000
1.000000 0.272282 0.000000
0.250828 0.455238 0.277775
0.275608 0.450111 0.271000
0.323156 0.417060 0.233341
0.508751 0.442329 0.190097
0.688777 0.412268 0.056855
0.794888 0.367346 0.000000
0.945281 0.392004 0.000000
1.000000 0.428656 0.000000
0.428840 0.674769 0.459358
0.435920 0.668574 0.450507
0.417853 0.646540 0.392645
0.494240 0.614130 0.348150
0.680964 0.631891 0.298589
0.821927 0.594354 0.211917
0.909026 0.551476 0.000000
0.998810 0.545464 0.000000
0.589166 0.771572 0.588952
0.594965 0.770657 0.587610
0.583459 0.763546 0.560174
0.597986 0.747097 0.528069
0.665766 0.741329 0.502007
0.801755 0.762936 0.491218
0.908476 0.750607 0.459937
0.984436 0.723476 0.331090
0.709712 0.850217 0.699397
0.710201 0.847684 0.696254
0.701686 0.842161 0.679072
0.698238 0.834348 0.654658
0.715480 0.819333 0.632013
0.778622 0.824918 0.620569
0.868559 0.835843 0.606073
0.947539 0.830686 0.590967
0.806363 0.920897 0.800290
0.810575 0.921996 0.802548
0.809689 0.920714 0.795987
0.807767 0.919799 0.783291
0.817350 0.914855 0.771511
0.833707 0.906615 0.756008
0.884886 0.913634 0.750118
0.946044 0.919799 0.738094
0.096864 0.132937 0.227359
0.153140 0.125032 0.191592
0.221744 0.138735 0.146304
0.579583 0.000000 0.155550
0.832303 0.000000 0.071778
0.961028 0.000000 0.000000
1.000000 0.000000 0.000000
1.000000 0.130770 0.000000
0.091341 0.167483 0.258335
0.172457 0.160678 0.229129
0.253300 0.165805 0.170077
0.600977 0.000000 0.154604
0.797269 0.000000 0.090394
0.940398 0.000000 0.000000
1.000000 0.000000 0.000000
1.000000 0.164492 0.000000
0.168582 0.278843 0.255680
0.221836 0.274266 0.249607
0.341375 0.260349 0.233310
0.513848 0.237308 0.185428
0.745846 0.233951 0.124361
0.906065 0.250553 0.000000
1.000000 0.282811 0.000000
1.000000 0.318608 0.000000
0.281315 0.507378 0.368780
0.321233 0.509392 0.369787
0.410468 0.499001 0.349676
0.555169 0.496071 0.308751
0.719081 0.454658 0.218540
0.826993 0.405005 0.078767
0.961944 0.427344 0.000000
1.000000 0.456519 0.000000
0.465187 0.686000 0.509758
0.481483 0.683436 0.508110
0.525902 0.673548 0.495308
0.546410 0.639521 0.438941
0.703792 0.659327 0.410376
0.828214 0.619165 0.325109
0.911467 0.566217 0.170626
1.000000 0.559045 0.000000
0.604578 0.775784 0.612787
0.613550 0.775753 0.613855
0.633295 0.770382 0.607141
0.626947 0.753964 0.566033
0.674220 0.740505 0.536614
0.799832 0.763241 0.531792
0.902098 0.754574 0.504814
0.980407 0.731350 0.394385
0.720912 0.856687 0.717037
0.722072 0.854643 0.714626
0.728969 0.848966 0.707332
0.716060 0.839933 0.677119
0.728817 0.823911 0.652857
0.783871 0.827390 0.642267
0.873075 0.842771 0.637507
0.950500 0.842161 0.628229
0.807340 0.922698 0.806699
0.808164 0.921691 0.805417
0.816709 0.920592 0.805325
0.817563 0.921233 0.795895
0.821775 0.916503 0.780392
0.837888 0.908934 0.767147
0.888029 0.916777 0.763302
0.947845 0.923095 0.752529
0.000000 0.254704 0.486427
0.000000 0.248478 0.460182
0.282414 0.238407 0.311498
0.364202 0.271977 0.261265
0.741238 0.175662 0.340276
1.000000 0.000000 0.227207
1.000000 0.000000 0.128420
1.000000 0.171725 0.000000
0.000000 0.315923 0.527550
0.000000 0.303532 0.497658
0.310216 0.278813 0.356817
0.396887 0.305699 0.289982
0.773220 0.201877 0.351659
1.000000 0.000000 0.237888
1.000000 0.098665 0.140627
1.000000 0.218143 0.000000
0.000000 0.433875 0.547173
0.000000 0.423377 0.537499
0.344976 0.392218 0.469398
0.478920 0.393652 0.365881
0.852171 0.304570 0.358679
0.963561 0.329656 0.286564
1.000000 0.359960 0.213291
1.000000 0.367742 0.000000
0.030243 0.602869 0.535973
0.223239 0.593500 0.525933
0.441077 0.571984 0.502556
0.594079 0.544366 0.469673
0.733059 0.492256 0.376745
0.870817 0.479652 0.318273
0.978485 0.476081 0.252140
1.000000 0.481209 0.136019
0.524163 0.719051 0.600000
0.536461 0.715602 0.596551
0.588922 0.707973 0.590326
0.643702 0.695796 0.571221
0.729671 0.692683 0.545525
0.829435 0.655634 0.471138
0.912047 0.591119 0.329656
1.000000 0.597650 0.262272
0.649500 0.797330 0.670436
0.664546 0.801938 0.677333
0.684138 0.796262 0.672297
0.708736 0.786984 0.658747
0.714626 0.761624 0.617029
0.810513 0.779110 0.611170
0.898222 0.769314 0.578637
0.974853 0.743618 0.479988
0.732113 0.864866 0.742489
0.736385 0.864958 0.743008
0.750210 0.863127 0.742153
0.768002 0.858457 0.735622
0.764431 0.844144 0.703304
0.798886 0.837675 0.685115
0.877775 0.851041 0.680018
0.950805 0.851072 0.667964
0.815305 0.930846 0.826200
0.817166 0.930449 0.825925
0.825498 0.929320 0.825559
0.840635 0.927916 0.825162
0.834440 0.923339 0.802518
0.847776 0.914946 0.787625
0.891051 0.920256 0.782895
0.950713 0.928588 0.777096
0.000000 0.420539 0.696437
0.000000 0.421607 0.687037
0.070436 0.417212 0.623651
0.521111 0.452644 0.442695
0.557214 0.482307 0.444007
0.803555 0.519158 0.547509
1.000000 0.350622 0.462593
1.000000 0.304173 0.341680
0.000000 0.465583 0.708217
0.000000 0.466773 0.700374
0.211398 0.458625 0.643427
0.536736 0.476265 0.473671
0.577081 0.505516 0.464912
0.816190 0.526909 0.554437
1.000000 0.368963 0.464027
1.000000 0.337377 0.348974
0.000000 0.556085 0.731197
0.000000 0.560632 0.725978
0.371679 0.562280 0.685664
0.584375 0.552331 0.567254
0.622950 0.559197 0.514336
0.848234 0.532372 0.555749
1.000000 0.446021 0.471595
1.000000 0.417762 0.363256
0.000000 0.685481 0.724300
0.133516 0.682551 0.720546
0.424201 0.672511 0.706264
0.630213 0.651240 0.663020
0.692500 0.640284 0.591211
0.902434 0.595453 0.569696
0.984741 0.572442 0.503899
1.000000 0.537346 0.406897
0.469825 0.754543 0.687953
0.493294 0.752407 0.685634
0.567620 0.742519 0.674861
0.670588 0.723201 0.656123
0.732387 0.699733 0.626947
0.806638 0.650721 0.548394
0.915801 0.637385 0.501396
1.000000 0.628016 0.439277
0.640162 0.793851 0.699001
0.647028 0.793332 0.698634
0.667567 0.787594 0.692317
0.706844 0.781094 0.685817
0.735592 0.767453 0.664118
0.804166 0.776364 0.660090
0.884672 0.764370 0.621759
0.963043 0.727291 0.520592
0.730892 0.868254 0.766232
0.731899 0.866575 0.763973
0.740688 0.862699 0.759030
0.766873 0.860441 0.757382
0.790402 0.853117 0.745693
0.796872 0.832914 0.711055
0.871519 0.847715 0.708309
0.941619 0.842954 0.683528
0.792325 0.926757 0.827207
0.794369 0.926268 0.826749
0.804013 0.924865 0.825803
0.829313 0.926940 0.831754
0.850828 0.924437 0.829252
0.851133 0.916381 0.804166
0.883940 0.915404 0.793210
0.944732 0.924224 0.787778
0.000000 0.578668 0.812802
0.000000 0.582696 0.807950
0.232609 0.589654 0.778317
0.565454 0.626825 0.721309
0.704677 0.654414 0.604913
0.707485 0.657679 0.608087
0.821500 0.702296 0.678309
1.000000 0.631464 0.665278
0.000000 0.591394 0.805966
0.000000 0.592004 0.800015
0.292546 0.601221 0.775265
0.559869 0.622187 0.715450
0.697627 0.646235 0.596979
0.701961 0.651301 0.601892
0.822110 0.693141 0.671717
1.000000 0.622858 0.656458
0.275761 0.687251 0.829496
0.364294 0.690700 0.822843
0.489113 0.687404 0.800931
0.617548 0.675776 0.744137
0.729305 0.683101 0.632990
0.729213 0.682979 0.632898
0.852171 0.703365 0.687098
1.000000 0.640772 0.660548
0.392279 0.752926 0.838651
0.424109 0.750546 0.835813
0.548608 0.751614 0.824704
0.692958 0.757229 0.793606
0.769589 0.742885 0.715297
0.777798 0.739559 0.689631
0.902586 0.730922 0.715572
1.000000 0.681758 0.670741
0.500053 0.812772 0.812680
0.518944 0.811398 0.810910
0.586481 0.806668 0.804532
0.678004 0.797238 0.792630
0.766140 0.774441 0.761715
0.796170 0.760922 0.711604
0.942382 0.734981 0.699001
1.000000 0.715816 0.651698
0.629664 0.839994 0.782498
0.642481 0.841062 0.783780
0.671504 0.835355 0.777493
0.718349 0.826658 0.767727
0.776303 0.809903 0.750668
0.818601 0.796139 0.731746
0.878874 0.761074 0.670954
0.975708 0.760678 0.641321
0.749355 0.884703 0.813291
0.755093 0.885313 0.814450
0.766781 0.883696 0.812497
0.786954 0.880858 0.808377
0.814115 0.875486 0.800778
0.832822 0.861906 0.777798
0.878691 0.860136 0.763119
0.944091 0.849973 0.726772
0.796567 0.933165 0.855222
0.796902 0.932280 0.853788
0.803403 0.931029 0.851743
0.820005 0.930816 0.851194
0.844297 0.928862 0.848814
0.870329 0.924407 0.842100
0.880644 0.913939 0.816007
0.942168 0.924804 0.813840
0.000000 0.691890 0.876188
0.182528 0.695216 0.873167
0.411017 0.703578 0.858152
0.591638 0.717800 0.826078
0.724514 0.733822 0.763180
0.778408 0.740291 0.690394
0.781827 0.744228 0.694423
0.828611 0.789792 0.744747
0.201572 0.703883 0.874846
0.281041 0.706813 0.872251
0.441596 0.712642 0.857725
0.598535 0.721828 0.825803
0.724575 0.734859 0.764431
0.778134 0.739956 0.690059
0.780362 0.742519 0.692683
0.829892 0.785336 0.741909
0.436835 0.754238 0.881956
0.459846 0.754269 0.879149
0.537591 0.753750 0.866178
0.643030 0.753841 0.837827
0.740902 0.755795 0.783139
0.793820 0.758175 0.708736
0.795529 0.760189 0.710842
0.854734 0.792630 0.756344
0.498665 0.797421 0.895262
0.520104 0.797513 0.892607
0.601648 0.802090 0.884276
0.694331 0.800290 0.860258
0.765469 0.790982 0.815702
0.819852 0.788510 0.740505
0.818814 0.787320 0.739223
0.891264 0.801389 0.775051
0.550042 0.843565 0.891722
0.562676 0.842557 0.890654
0.612848 0.840085 0.887816
0.689204 0.835294 0.883085
0.782620 0.830625 0.851774
0.835080 0.814359 0.782528
0.839322 0.811307 0.764889
0.933928 0.809964 0.790890
0.625055 0.888457 0.882628
0.633143 0.888151 0.882322
0.663569 0.886473 0.880858
0.714656 0.882536 0.877256
0.777615 0.874174 0.869139
0.845274 0.856962 0.845701
0.866972 0.843656 0.800534
0.983703 0.823636 0.793851
0.714351 0.913329 0.870573
0.719112 0.913146 0.870451
0.736172 0.911284 0.868406
0.767056 0.907439 0.864073
0.806973 0.900023 0.855222
0.853819 0.888670 0.842374
0.884947 0.871366 0.818753
0.943175 0.841123 0.760922
0.794614 0.944182 0.890196
0.797452 0.944030 0.890196
0.809720 0.943572 0.890501
0.830777 0.941680 0.889708
0.854643 0.940032 0.887816
0.880522 0.938018 0.883757
0.901762 0.930266 0.867613
0.943236 0.930846 0.855772
0.456977 0.790799 0.931426
0.479622 0.792264 0.929778
0.551965 0.795621 0.921324
0.651667 0.802274 0.904295
0.747372 0.810239 0.873289
0.828428 0.822293 0.817075
0.848783 0.822385 0.776944
0.851926 0.826047 0.780972
0.479286 0.796201 0.931121
0.499367 0.797452 0.929534
0.565209 0.800443 0.921599
0.657374 0.805570 0.904875
0.749233 0.812253 0.874327
0.828428 0.823056 0.818936
0.849058 0.822690 0.777279
0.851652 0.825681 0.780575
0.553094 0.820157 0.934783
0.565911 0.820493 0.933257
0.611627 0.820890 0.926024
0.685176 0.823545 0.911650
0.761990 0.825559 0.883330
0.832731 0.831479 0.831693
0.856443 0.831327 0.786801
0.857939 0.833066 0.788724
0.587701 0.846677 0.945129
0.609064 0.848569 0.943542
0.667567 0.852232 0.936553
0.719295 0.850340 0.923980
0.780545 0.848020 0.900084
0.841123 0.848234 0.855894
0.870695 0.847990 0.805417
0.870542 0.847807 0.805203
0.581140 0.867185 0.952026
0.594995 0.868040 0.951476
0.640955 0.870024 0.948425
0.723415 0.876005 0.941650
0.797299 0.876158 0.922484
0.848631 0.869444 0.886168
0.887388 0.867552 0.827817
0.885954 0.865873 0.825895
0.633326 0.908659 0.948272
0.640040 0.908171 0.947967
0.668086 0.906706 0.947082
0.718898 0.904417 0.946044
0.784176 0.901335 0.945037
0.861448 0.902770 0.924376
0.904845 0.894133 0.870512
0.908080 0.891844 0.856535
0.699733 0.944610 0.947417
0.704250 0.944457 0.947356
0.723079 0.943755 0.947082
0.757412 0.942473 0.946624
0.804746 0.940337 0.945403
0.859983 0.936767 0.942382
0.914763 0.928191 0.926635
0.928832 0.916167 0.886564
0.774136 0.966003 0.942046
0.776791 0.965820 0.941894
0.788663 0.965301 0.941527
0.811887 0.964477 0.941039
0.843717 0.962951 0.939696
0.880735 0.960113 0.936400
0.920195 0.954467 0.929320
0.948669 0.942962 0.912749
