20 Preset/INSTA/【3】LUT video cho PR-AE-FCPX/INS LUT (9).cube
# Created by Adobe Lightroom plugin Export LUT (1.24.0)
# www.johnrellis.com/lightroom/exportlut.htm
# Preset: INS胶片Tezza05[素材江湖]09
# Color profile: C:\Program Files (x86)\Common Files\Adobe\Color\Profiles\Recommended\VideoHD.icc
LUT_3D_SIZE 8
DOMAIN_MIN 0.000000 0.000000 0.000000
DOMAIN_MAX 0.903226 0.903226 0.903226
0.000000 0.000000 0.000000
0.088350 0.004761 0.007660
0.298466 0.000000 0.025422
0.636988 0.000000 0.025818
0.901152 0.000000 0.111452
0.989624 0.000000 0.229221
1.000000 0.366125 0.362860
1.000000 0.517998 0.510216
0.024537 0.086702 0.053620
0.091279 0.093996 0.050782
0.289769 0.024842 0.030152
0.594415 0.000000 0.024292
0.857939 0.000000 0.093080
0.960937 0.000000 0.192294
1.000000 0.332311 0.318791
1.000000 0.496010 0.476936
0.179263 0.330755 0.240970
0.222873 0.337316 0.235599
0.454475 0.377996 0.198825
0.661402 0.264439 0.000000
0.843778 0.286168 0.112215
0.940795 0.368139 0.232822
0.992493 0.485359 0.395026
1.000000 0.582757 0.544762
0.612238 0.695796 0.629175
0.610986 0.688899 0.615106
0.641382 0.678401 0.583520
0.749233 0.690211 0.557702
0.835416 0.586236 0.313298
0.911681 0.559045 0.326085
0.962768 0.597955 0.461982
0.986297 0.650538 0.588647
0.726955 0.792264 0.766293
0.727260 0.790890 0.763302
0.735042 0.788907 0.756130
0.760464 0.787930 0.746944
0.807034 0.782528 0.718929
0.861601 0.719753 0.582055
0.928283 0.666651 0.489418
0.962585 0.707607 0.622766
0.795285 0.847349 0.839384
0.799527 0.849882 0.842435
0.801175 0.848875 0.839750
0.806729 0.847044 0.834653
0.819425 0.843595 0.826169
0.843351 0.838010 0.809293
0.879728 0.810849 0.754025
0.944213 0.772183 0.681697
0.835508 0.872404 0.875273
0.836698 0.872648 0.876036
0.836484 0.872160 0.874754
0.837278 0.871397 0.872618
0.839567 0.869871 0.868650
0.846830 0.868345 0.864469
0.858640 0.864439 0.854337
0.883116 0.851682 0.826047
0.851408 0.878477 0.887877
0.851682 0.878477 0.888060
0.852659 0.878477 0.888609
0.852537 0.878355 0.887999
0.852171 0.877928 0.886595
0.853300 0.877653 0.885405
0.855924 0.877165 0.883574
0.861173 0.872099 0.869749
0.000000 0.008667 0.027131
0.072084 0.012268 0.026276
0.254246 0.000000 0.025452
0.557458 0.000000 0.025574
0.837797 0.000000 0.078370
0.950713 0.000000 0.173190
1.000000 0.283238 0.291142
1.000000 0.458930 0.442145
0.016663 0.089906 0.066346
0.094545 0.093477 0.062074
0.267643 0.081605 0.031098
0.560967 0.000000 0.021241
0.823148 0.000000 0.073579
0.938323 0.000000 0.168246
0.993347 0.291234 0.277836
1.000000 0.451270 0.423926
0.188571 0.304936 0.233249
0.222110 0.311101 0.228367
0.415778 0.340948 0.185336
0.610346 0.244205 0.000000
0.805142 0.251530 0.073304
0.917510 0.325872 0.189700
0.977539 0.425513 0.319677
1.000000 0.533471 0.477699
0.542596 0.640711 0.552483
0.547478 0.636896 0.542718
0.596796 0.633997 0.521172
0.713649 0.638209 0.469734
0.799832 0.533654 0.234318
0.884703 0.504479 0.240635
0.948547 0.546563 0.373541
0.984192 0.607965 0.520867
0.717525 0.782895 0.754757
0.716762 0.780453 0.750271
0.722744 0.776211 0.739559
0.746273 0.771267 0.723751
0.795773 0.763851 0.687251
0.853452 0.699855 0.541100
0.919921 0.644709 0.442939
0.960113 0.687282 0.585809
0.787381 0.841367 0.831815
0.788022 0.841337 0.831418
0.790524 0.840635 0.828946
0.798062 0.839689 0.824765
0.813169 0.837125 0.817197
0.840360 0.833341 0.801694
0.877409 0.804562 0.743038
0.942748 0.761563 0.660945
0.831235 0.870390 0.871855
0.831662 0.870146 0.871916
0.831388 0.869505 0.870359
0.832914 0.868864 0.868376
0.836698 0.867857 0.865232
0.844724 0.866178 0.860746
0.857206 0.861326 0.848569
0.883085 0.848478 0.820218
0.850736 0.878325 0.887388
0.851286 0.878386 0.887755
0.852476 0.878447 0.888457
0.852476 0.878325 0.887999
0.852537 0.878080 0.887022
0.853361 0.877684 0.885496
0.855924 0.877165 0.883574
0.861204 0.872068 0.869749
0.000000 0.041260 0.095125
0.036591 0.060090 0.085176
0.245029 0.000000 0.101198
0.582757 0.000000 0.044984
0.846342 0.000000 0.090822
0.947631 0.180087 0.190951
0.998047 0.370336 0.321630
1.000000 0.504387 0.476020
0.035370 0.102358 0.121492
0.099184 0.108705 0.115023
0.296696 0.083528 0.113069
0.585901 0.000000 0.064942
0.823392 0.000000 0.078767
0.933562 0.220645 0.181765
0.989654 0.371466 0.307561
1.000000 0.499702 0.461952
0.198032 0.308385 0.251987
0.251835 0.315709 0.266392
0.420874 0.329137 0.215152
0.623194 0.274479 0.113832
0.812161 0.311192 0.091127
0.916655 0.381140 0.208530
0.974060 0.463294 0.341161
1.000000 0.552911 0.493080
0.564111 0.643641 0.576226
0.574151 0.644770 0.573663
0.613519 0.640925 0.552697
0.718318 0.639796 0.491066
0.807401 0.556512 0.276524
0.887541 0.527214 0.262577
0.949371 0.569970 0.401129
0.983001 0.626093 0.544091
0.718105 0.779263 0.754940
0.719020 0.778378 0.752682
0.726650 0.776364 0.745449
0.750820 0.774136 0.734218
0.798764 0.767178 0.697993
0.854734 0.709712 0.561730
0.920439 0.651575 0.453376
0.959991 0.693599 0.595331
0.787716 0.840146 0.832059
0.788663 0.840391 0.832029
0.790646 0.839445 0.829221
0.796933 0.837675 0.823972
0.811551 0.834745 0.815946
0.839139 0.830747 0.798398
0.876799 0.803708 0.741573
0.942962 0.763302 0.664088
0.832456 0.871000 0.872953
0.833188 0.870878 0.873320
0.833127 0.870146 0.872038
0.833799 0.869200 0.869535
0.837034 0.867918 0.866026
0.845090 0.866514 0.861997
0.857877 0.862272 0.850217
0.883421 0.851377 0.825467
0.850553 0.878447 0.887358
0.850797 0.878416 0.887480
0.852232 0.878447 0.888334
0.852811 0.878447 0.888365
0.852781 0.878202 0.887388
0.853513 0.877806 0.885924
0.855955 0.877226 0.883757
0.861234 0.872038 0.869596
0.000000 0.083406 0.165225
0.000000 0.090089 0.162142
0.187533 0.103182 0.180117
0.567712 0.000000 0.194614
0.841428 0.000000 0.173770
0.937316 0.169558 0.178622
0.989288 0.360296 0.300938
1.000000 0.493690 0.453986
0.000000 0.124392 0.203983
0.089418 0.133577 0.197421
0.255253 0.144015 0.214298
0.628565 0.000000 0.213993
0.841855 0.000000 0.189670
0.931273 0.242191 0.183688
0.983764 0.385687 0.305241
1.000000 0.505180 0.457984
0.153170 0.292241 0.288914
0.234348 0.300084 0.290501
0.414527 0.300877 0.275700
0.640681 0.299504 0.251194
0.819303 0.340703 0.226627
0.914397 0.411292 0.227512
0.972076 0.500511 0.370245
1.000000 0.574365 0.513787
0.520500 0.621302 0.550195
0.557794 0.625849 0.571588
0.603296 0.624292 0.563409
0.702968 0.608698 0.480537
0.785519 0.511131 0.286778
0.879088 0.534325 0.296696
0.944396 0.574395 0.397345
0.981384 0.629603 0.545647
0.718776 0.778592 0.758358
0.725673 0.779324 0.763119
0.731289 0.776272 0.754849
0.754299 0.775021 0.745632
0.799405 0.765011 0.703639
0.854215 0.709255 0.577203
0.922515 0.662593 0.472755
0.960510 0.700526 0.607172
0.793606 0.843290 0.838132
0.799283 0.846159 0.842618
0.799557 0.844419 0.839048
0.804654 0.842679 0.834226
0.817014 0.839475 0.826291
0.840238 0.831083 0.801755
0.877989 0.805356 0.745113
0.943877 0.766720 0.671809
0.831968 0.871214 0.873045
0.833585 0.871489 0.874052
0.837186 0.871916 0.876036
0.837980 0.871305 0.874205
0.840330 0.870054 0.870848
0.846799 0.868254 0.866209
0.858549 0.862974 0.852049
0.884306 0.850462 0.823789
0.850370 0.878721 0.887449
0.850767 0.878752 0.887694
0.852293 0.878721 0.888548
0.853544 0.878721 0.889128
0.853330 0.878447 0.888182
0.853819 0.878019 0.886656
0.856016 0.877440 0.884459
0.861357 0.871946 0.869352
0.000000 0.115511 0.277897
0.000000 0.119783 0.278325
0.185855 0.193454 0.258732
0.486336 0.141848 0.335027
0.811765 0.000000 0.343572
0.936004 0.239506 0.330571
0.985626 0.373663 0.324956
1.000000 0.498085 0.455756
0.000000 0.154635 0.310460
0.000000 0.161318 0.310826
0.238437 0.236973 0.299351
0.531701 0.193851 0.353857
0.821286 0.117800 0.354223
0.930022 0.296696 0.341039
0.980774 0.400946 0.335851
1.000000 0.510887 0.461921
0.143862 0.310643 0.404120
0.232547 0.320592 0.404974
0.389075 0.360845 0.398505
0.640314 0.346288 0.409949
0.814206 0.377325 0.393225
0.900969 0.415045 0.359136
0.960754 0.474220 0.365545
0.998810 0.545769 0.472816
0.376196 0.554498 0.503716
0.443275 0.559594 0.512993
0.574609 0.584710 0.555322
0.667628 0.537072 0.455360
0.784085 0.536278 0.429053
0.870756 0.551263 0.420264
0.936645 0.575982 0.437598
0.981445 0.616297 0.526299
0.677974 0.747677 0.719448
0.689723 0.752193 0.728145
0.719631 0.760006 0.747585
0.739834 0.755886 0.734066
0.783993 0.734249 0.672206
0.841947 0.663172 0.523796
0.912566 0.654108 0.499916
0.961456 0.684413 0.584436
0.769680 0.827512 0.817594
0.774502 0.828824 0.820951
0.784421 0.830045 0.826230
0.788998 0.827695 0.820249
0.803861 0.825620 0.813230
0.833982 0.819120 0.788022
0.878141 0.788083 0.722164
0.944671 0.757137 0.658717
0.824155 0.868956 0.868162
0.825223 0.868894 0.868650
0.830747 0.869474 0.871794
0.836484 0.870298 0.874296
0.838987 0.869261 0.871275
0.845243 0.867124 0.866087
0.857786 0.860197 0.848325
0.887053 0.847044 0.817563
0.845792 0.878721 0.885039
0.846281 0.878691 0.885283
0.848508 0.878660 0.886412
0.853056 0.878874 0.889097
0.854032 0.878782 0.889220
0.854185 0.878355 0.887724
0.856046 0.877745 0.885496
0.861509 0.871885 0.869291
0.000000 0.168338 0.424811
0.000000 0.175845 0.430610
0.193027 0.244724 0.431373
0.439216 0.301488 0.453346
0.742458 0.282536 0.498543
0.902739 0.338506 0.500389
0.971313 0.460243 0.510185
1.000000 0.536187 0.529076
0.000000 0.198550 0.435523
0.000000 0.203891 0.435859
0.230320 0.267430 0.430426
0.445899 0.308263 0.448341
0.738033 0.298222 0.490852
0.897185 0.351659 0.493416
0.963928 0.472267 0.509575
1.000000 0.535485 0.522026
0.028443 0.341131 0.512871
0.178714 0.345861 0.512383
0.390875 0.404944 0.507988
0.572442 0.418311 0.527306
0.770687 0.434180 0.535393
0.891905 0.476967 0.529656
0.947234 0.538720 0.536034
0.990814 0.580224 0.551019
0.325841 0.537713 0.584253
0.375494 0.539483 0.584314
0.549981 0.568566 0.596582
0.683925 0.597467 0.614832
0.790585 0.613184 0.614740
0.865507 0.615961 0.594934
0.926085 0.627619 0.589014
0.973968 0.649134 0.606806
0.590173 0.708736 0.677546
0.613153 0.711421 0.683742
0.685481 0.728328 0.717128
0.725948 0.738460 0.730587
0.767178 0.692500 0.642969
0.836271 0.665492 0.591455
0.903075 0.675257 0.601862
0.957824 0.690791 0.627924
0.748898 0.815335 0.803922
0.756497 0.819059 0.809384
0.776944 0.826566 0.823026
0.793393 0.830289 0.830594
0.803372 0.825650 0.820920
0.829587 0.808072 0.780362
0.885618 0.755520 0.679652
0.943694 0.754879 0.684016
0.816739 0.866545 0.864652
0.819425 0.867369 0.866270
0.826688 0.869017 0.870268
0.839292 0.871702 0.878019
0.841459 0.871000 0.876432
0.845853 0.868681 0.871153
0.858549 0.859617 0.849485
0.894652 0.839078 0.806302
0.842618 0.878996 0.884184
0.842924 0.878935 0.884245
0.845212 0.878874 0.885161
0.849638 0.878965 0.887297
0.854612 0.879179 0.890166
0.854795 0.878843 0.889220
0.856138 0.878202 0.887053
0.861784 0.872068 0.870451
0.000000 0.221805 0.549279
0.000000 0.228733 0.553704
0.000000 0.275486 0.555840
0.454383 0.427832 0.549615
0.667811 0.384070 0.605463
0.836545 0.432166 0.609216
0.932341 0.493233 0.612207
0.984680 0.552148 0.612696
0.000000 0.239902 0.547082
0.000000 0.247105 0.552056
0.126955 0.291844 0.554253
0.458930 0.434760 0.544610
0.668818 0.390051 0.602197
0.831022 0.430091 0.600092
0.927886 0.484260 0.599756
0.981079 0.545586 0.602350
0.000000 0.343114 0.589929
0.000000 0.348363 0.591424
0.282048 0.382391 0.593011
0.531029 0.514183 0.586145
0.698756 0.482124 0.629145
0.833951 0.512383 0.625818
0.920928 0.558190 0.630854
0.966155 0.617548 0.651209
0.000000 0.487678 0.635950
0.192081 0.496284 0.637568
0.437568 0.528099 0.645624
0.618036 0.615778 0.651179
0.730343 0.607568 0.671412
0.837736 0.625513 0.676387
0.907744 0.655146 0.684779
0.952422 0.670466 0.682338
0.408484 0.658167 0.685878
0.432959 0.657374 0.684810
0.525994 0.660060 0.686732
0.658350 0.678157 0.700038
0.754696 0.694057 0.711055
0.828702 0.700252 0.707362
0.890105 0.704311 0.700923
0.940520 0.713924 0.705592
0.622675 0.781918 0.760403
0.636072 0.783444 0.763394
0.684169 0.789609 0.775662
0.753933 0.803250 0.803067
0.789670 0.814572 0.819394
0.813779 0.765743 0.742245
0.878141 0.752712 0.718959
0.930632 0.761318 0.734096
0.775082 0.855375 0.845853
0.779812 0.856107 0.847715
0.796628 0.858335 0.854337
0.821622 0.864378 0.866697
0.841062 0.870085 0.878325
0.843626 0.867185 0.872679
0.857389 0.852537 0.842802
0.917906 0.810208 0.765072
0.827848 0.879088 0.879332
0.829618 0.879088 0.879942
0.837095 0.879179 0.882750
0.846281 0.879240 0.886381
0.853025 0.879423 0.889494
0.856382 0.879606 0.891325
0.856474 0.878965 0.889372
0.862119 0.872465 0.872557
0.000000 0.291295 0.672114
0.000000 0.297490 0.674647
0.000000 0.320867 0.674891
0.442451 0.447944 0.673762
0.619776 0.557519 0.673884
0.784848 0.519707 0.717311
0.884977 0.573663 0.710384
0.951659 0.622705 0.720546
0.000000 0.301091 0.667964
0.000000 0.307378 0.670649
0.000000 0.331640 0.673121
0.444617 0.452247 0.671473
0.619715 0.559777 0.671901
0.782650 0.524498 0.714748
0.882902 0.574304 0.707790
0.950225 0.624262 0.719509
0.000000 0.362585 0.678492
0.000000 0.367285 0.680018
0.000000 0.388830 0.682277
0.482490 0.498512 0.687251
0.640620 0.598016 0.687160
0.783078 0.570367 0.722499
0.880461 0.609522 0.720363
0.945769 0.651118 0.731685
0.000000 0.452308 0.692897
0.000000 0.462837 0.695766
0.197055 0.486122 0.701564
0.511040 0.553613 0.709590
0.672236 0.657191 0.715267
0.787594 0.643580 0.744747
0.879301 0.671687 0.749966
0.937591 0.691554 0.751400
0.000000 0.577020 0.716579
0.000000 0.575921 0.716976
0.000000 0.565301 0.713863
0.504662 0.618982 0.732418
0.698695 0.706874 0.750454
0.792660 0.715785 0.775235
0.874235 0.725551 0.775845
0.926726 0.736538 0.775265
0.356939 0.745693 0.780301
0.374701 0.744503 0.779538
0.442451 0.740658 0.777462
0.547204 0.735592 0.775784
0.665431 0.732235 0.776699
0.792447 0.774258 0.801846
0.868925 0.785794 0.809964
0.911498 0.787381 0.805173
0.594324 0.842191 0.826627
0.600031 0.841825 0.826444
0.624079 0.840299 0.826017
0.669276 0.838590 0.826902
0.753597 0.842252 0.839322
0.833463 0.860441 0.871519
0.849821 0.815610 0.810910
0.901732 0.820279 0.817838
0.761044 0.882567 0.868925
0.763973 0.882292 0.869169
0.777340 0.881498 0.871000
0.802762 0.880400 0.875517
0.832914 0.879240 0.882567
0.853971 0.879515 0.890227
0.857359 0.879789 0.891691
0.862608 0.873106 0.876982
