20 Preset/INSTA/【3】LUT video cho PR-AE-FCPX/INS LUT (7).cube
# Created by Adobe Lightroom plugin Export LUT (1.24.0)
# www.johnrellis.com/lightroom/exportlut.htm
# Preset: INS胶片Tezza03-JPG[素材江湖]07
# Color profile: C:\Program Files (x86)\Common Files\Adobe\Color\Profiles\Recommended\VideoHD.icc
LUT_3D_SIZE 32
DOMAIN_MIN 0.0 0.0 0.0
DOMAIN_MAX 1.0 1.0 1.0
0.098970 0.086366 0.033722
0.099611 0.086213 0.033692
0.101595 0.087160 0.034516
0.107271 0.088380 0.036072
0.117372 0.089326 0.039551
0.129488 0.090944 0.043641
0.144411 0.092103 0.047486
0.163058 0.093080 0.051850
0.185794 0.092531 0.054749
0.213260 0.091127 0.057710
0.245701 0.086885 0.060792
0.282902 0.072114 0.062745
0.323919 0.043275 0.064149
0.366827 0.006378 0.065949
0.410529 0.000000 0.067689
0.454353 0.000000 0.070558
0.497475 0.000000 0.073823
0.538994 0.000000 0.078126
0.578424 0.000000 0.084504
0.615503 0.000000 0.090028
0.649256 0.000000 0.096101
0.679805 0.000000 0.103517
0.707546 0.099641 0.111543
0.733547 0.149844 0.120211
0.757839 0.193118 0.131106
0.780606 0.233951 0.143343
0.801785 0.273869 0.157992
0.821408 0.312902 0.175448
0.838865 0.351324 0.196811
0.854429 0.387793 0.221103
0.867979 0.422980 0.252201
0.879454 0.457008 0.289891
0.099062 0.087739 0.034546
0.099702 0.087587 0.034516
0.102632 0.087648 0.034333
0.108248 0.088685 0.035920
0.118196 0.089601 0.039368
0.130220 0.091218 0.043458
0.145052 0.092378 0.047303
0.163638 0.093355 0.050538
0.186679 0.093080 0.054414
0.214023 0.091676 0.057374
0.246555 0.086946 0.060609
0.283848 0.072969 0.062409
0.324529 0.045533 0.063630
0.367651 0.007965 0.065400
0.411444 0.000000 0.067292
0.455085 0.000000 0.069856
0.498238 0.000000 0.073274
0.539696 0.000000 0.077760
0.579095 0.000000 0.083864
0.615869 0.000000 0.090211
0.649714 0.000000 0.096101
0.680079 0.000000 0.103273
0.707759 0.102144 0.111177
0.733700 0.151339 0.120485
0.758053 0.194553 0.130983
0.780728 0.234989 0.143252
0.801785 0.274510 0.158389
0.821408 0.313695 0.175875
0.838926 0.351812 0.196933
0.854459 0.388251 0.221683
0.867979 0.423468 0.252354
0.879454 0.457496 0.290105
0.100771 0.090120 0.034730
0.101411 0.090028 0.034730
0.104250 0.090059 0.035676
0.111482 0.090700 0.036072
0.121187 0.091646 0.038422
0.133242 0.093172 0.042481
0.148409 0.094118 0.046326
0.167391 0.094820 0.050660
0.190555 0.094728 0.053223
0.218112 0.093080 0.056153
0.250767 0.088808 0.059205
0.287999 0.076875 0.060792
0.328710 0.048096 0.063111
0.371496 0.012055 0.064546
0.414954 0.000000 0.066133
0.458350 0.000000 0.068666
0.501061 0.000000 0.070619
0.542138 0.000000 0.077913
0.581262 0.000000 0.083345
0.617731 0.000000 0.090059
0.651270 0.000000 0.096345
0.681422 0.010163 0.103120
0.708827 0.110475 0.111421
0.734585 0.157229 0.120546
0.758785 0.199100 0.131258
0.781308 0.238499 0.143496
0.802304 0.278111 0.158785
0.821836 0.316594 0.176089
0.839170 0.354345 0.196811
0.854612 0.390509 0.221988
0.868132 0.425086 0.252689
0.879576 0.458900 0.290135
0.104067 0.095766 0.035798
0.104677 0.095705 0.035798
0.108522 0.095583 0.036713
0.115358 0.094972 0.038727
0.126314 0.096376 0.038453
0.139651 0.097047 0.041505
0.155581 0.097993 0.045136
0.174746 0.098360 0.048341
0.198367 0.098177 0.051820
0.226200 0.096376 0.054536
0.259434 0.092195 0.056031
0.296391 0.082582 0.058534
0.336950 0.056367 0.059358
0.379431 0.020478 0.060395
0.421820 0.000000 0.061799
0.465126 0.000000 0.064637
0.506920 0.000000 0.069093
0.547448 0.000000 0.075929
0.585870 0.000000 0.083070
0.621576 0.000000 0.089967
0.654444 0.000000 0.095735
0.684077 0.061585 0.103029
0.711086 0.126406 0.111330
0.736324 0.168734 0.120577
0.760189 0.207980 0.131228
0.782467 0.246677 0.143618
0.803159 0.285069 0.158816
0.822507 0.322484 0.176791
0.839658 0.359258 0.197940
0.854978 0.394629 0.222843
0.868406 0.428504 0.252598
0.879759 0.461799 0.290532
0.108492 0.105043 0.038422
0.109651 0.104921 0.038392
0.114015 0.104372 0.039460
0.121187 0.103395 0.040497
0.130800 0.102968 0.043244
0.146822 0.104768 0.043214
0.166690 0.105959 0.042695
0.187045 0.105623 0.045808
0.211124 0.104768 0.048066
0.239933 0.102388 0.050507
0.272679 0.098512 0.052766
0.309941 0.091279 0.053498
0.349676 0.074372 0.054902
0.391211 0.039643 0.056550
0.433326 0.002350 0.059174
0.475105 0.000000 0.062226
0.516136 0.000000 0.067018
0.555291 0.000000 0.074128
0.592859 0.000000 0.081880
0.627405 0.000000 0.089387
0.659327 0.030701 0.095369
0.688197 0.107424 0.102296
0.714382 0.147646 0.111055
0.739162 0.185611 0.120485
0.762356 0.221836 0.131258
0.784207 0.258915 0.144259
0.804593 0.295262 0.159396
0.823484 0.331609 0.178012
0.840330 0.367041 0.199313
0.855375 0.401190 0.224521
0.868772 0.434058 0.253880
0.880034 0.466438 0.291356
0.114412 0.117006 0.040162
0.115480 0.116884 0.040131
0.119539 0.116396 0.041199
0.127382 0.115114 0.042359
0.137514 0.113405 0.044587
0.151919 0.113863 0.047425
0.174380 0.116670 0.044495
0.202213 0.117617 0.043336
0.229404 0.116548 0.043641
0.258976 0.113893 0.045624
0.291997 0.109499 0.047517
0.328588 0.103090 0.048798
0.367529 0.093812 0.050538
0.407904 0.078798 0.052155
0.448585 0.046662 0.054902
0.488991 0.017182 0.058289
0.528252 0.000000 0.062898
0.566278 0.000000 0.070558
0.602228 0.010346 0.079438
0.635431 0.059907 0.087678
0.666011 0.107790 0.094331
0.693690 0.140352 0.101656
0.718959 0.173587 0.109987
0.742855 0.207095 0.120027
0.765286 0.240848 0.131685
0.786587 0.274968 0.144991
0.806424 0.309514 0.160830
0.824826 0.344152 0.179355
0.841367 0.377569 0.200931
0.856077 0.410285 0.226810
0.869169 0.441901 0.256748
0.880430 0.472908 0.292821
0.121157 0.133852 0.040162
0.122164 0.133761 0.040162
0.126558 0.133059 0.041352
0.134859 0.131655 0.042634
0.146304 0.129702 0.044984
0.158755 0.125795 0.048188
0.180209 0.128206 0.048615
0.211398 0.132387 0.043610
0.245335 0.133547 0.039826
0.283879 0.132265 0.036164
0.316930 0.127565 0.038819
0.352697 0.121981 0.039429
0.390051 0.115267 0.041413
0.428626 0.107546 0.043275
0.467720 0.099763 0.046845
0.506065 0.093019 0.051087
0.543938 0.090059 0.056245
0.579767 0.094270 0.063508
0.613703 0.106325 0.074403
0.645289 0.125093 0.084077
0.674006 0.148898 0.092439
0.700191 0.174899 0.099763
0.724422 0.203433 0.109255
0.747311 0.232944 0.119295
0.769070 0.263462 0.131197
0.789578 0.295415 0.145327
0.808804 0.327214 0.161318
0.826596 0.359686 0.180972
0.842527 0.391241 0.203616
0.856870 0.421668 0.230320
0.869657 0.451759 0.260349
0.880949 0.481086 0.294347
0.129397 0.156771 0.035859
0.130282 0.156680 0.035828
0.134981 0.155856 0.036042
0.144259 0.154360 0.038575
0.156832 0.152163 0.040040
0.173159 0.148806 0.043946
0.188571 0.143404 0.050141
0.217502 0.147524 0.047120
0.256474 0.152926 0.039918
0.296971 0.154391 0.033265
0.343114 0.154147 0.023957
0.380529 0.149722 0.023896
0.416602 0.144808 0.026062
0.453010 0.139712 0.029480
0.489906 0.135561 0.032074
0.526116 0.134432 0.037720
0.561547 0.135866 0.043549
0.595300 0.142184 0.050874
0.627283 0.153292 0.061738
0.656367 0.169680 0.075807
0.683284 0.189273 0.088136
0.707820 0.211795 0.096925
0.730678 0.235996 0.107424
0.752712 0.261875 0.117952
0.773312 0.289891 0.131350
0.792966 0.318822 0.146242
0.811551 0.348486 0.163424
0.828550 0.378027 0.183810
0.843961 0.406928 0.206912
0.857847 0.435554 0.233921
0.870298 0.463416 0.264591
0.881193 0.491310 0.298955
0.137301 0.186679 0.024384
0.138949 0.186557 0.024353
0.143984 0.185885 0.025696
0.154391 0.184085 0.027497
0.168948 0.181735 0.029206
0.187045 0.178439 0.033295
0.207584 0.173709 0.037842
0.226719 0.165743 0.047059
0.263096 0.172030 0.040772
0.307836 0.178439 0.028992
0.352148 0.181308 0.019013
0.400305 0.183108 0.007935
0.445411 0.183078 0.000000
0.479866 0.179599 0.002869
0.514244 0.177951 0.007630
0.548028 0.178775 0.014221
0.580865 0.182254 0.021576
0.612177 0.189517 0.028870
0.641352 0.200320 0.042115
0.668330 0.214694 0.057374
0.693233 0.231327 0.078462
0.716152 0.250492 0.091707
0.737636 0.271641 0.103914
0.758328 0.294957 0.116701
0.777981 0.319646 0.130953
0.796811 0.345403 0.147280
0.814481 0.372229 0.166079
0.830777 0.398932 0.187137
0.845518 0.425116 0.211124
0.858915 0.451118 0.239078
0.870909 0.477180 0.269993
0.881590 0.503166 0.304234
0.145235 0.223789 0.001740
0.146761 0.223697 0.001709
0.152285 0.222965 0.003174
0.164370 0.221286 0.005066
0.180209 0.218784 0.008423
0.201389 0.215030 0.013306
0.225376 0.209751 0.018860
0.250767 0.203586 0.025360
0.271305 0.192813 0.042481
0.313664 0.201541 0.029633
0.361883 0.210056 0.013184
0.407721 0.215061 0.000000
0.455665 0.220706 0.000000
0.504509 0.227237 0.000000
0.539513 0.227573 0.000000
0.570733 0.228916 0.000000
0.600702 0.233005 0.000000
0.629267 0.239567 0.000000
0.655818 0.248875 0.011566
0.680476 0.261418 0.029969
0.703548 0.275517 0.053681
0.724636 0.291508 0.082765
0.744808 0.309728 0.099672
0.764431 0.329778 0.114076
0.783047 0.351507 0.130556
0.800778 0.374578 0.148898
0.817685 0.397955 0.169345
0.833158 0.421332 0.191501
0.847196 0.444800 0.217166
0.860044 0.468421 0.245487
0.871580 0.492378 0.276432
0.881865 0.516442 0.311284
0.150912 0.267399 0.000000
0.153170 0.267002 0.000000
0.159945 0.266453 0.000000
0.173495 0.264622 0.000000
0.191867 0.262058 0.000000
0.214939 0.258183 0.000000
0.241764 0.252934 0.000000
0.270237 0.246433 0.000000
0.298802 0.238254 0.007080
0.321355 0.225559 0.030030
0.366064 0.236667 0.012573
0.414588 0.247898 0.000000
0.460304 0.256443 0.000000
0.506950 0.265690 0.000000
0.553429 0.276463 0.000000
0.592370 0.284764 0.000000
0.619898 0.286992 0.000000
0.645716 0.292546 0.000000
0.669825 0.299870 0.000000
0.692409 0.309880 0.000000
0.713497 0.321111 0.022309
0.733211 0.334173 0.059632
0.752041 0.349889 0.093446
0.770413 0.366583 0.111482
0.788144 0.384985 0.131228
0.805081 0.404700 0.151675
0.821012 0.424659 0.173220
0.835630 0.445014 0.197543
0.848997 0.465736 0.223850
0.861265 0.487037 0.252537
0.872313 0.508812 0.284459
0.882139 0.531029 0.319127
0.156466 0.315801 0.000000
0.158511 0.315709 0.000000
0.166018 0.314794 0.000000
0.181216 0.313207 0.000000
0.201633 0.310491 0.000000
0.227573 0.306676 0.000000
0.255955 0.301335 0.000000
0.286625 0.294530 0.000000
0.317601 0.286625 0.000000
0.343481 0.273106 0.000000
0.371252 0.263432 0.012268
0.415686 0.276646 0.000000
0.463630 0.290623 0.000000
0.508415 0.302251 0.000000
0.552972 0.314397 0.000000
0.595911 0.328008 0.000000
0.636133 0.343053 0.000000
0.660914 0.347295 0.000000
0.682948 0.352575 0.000000
0.703700 0.359075 0.000000
0.723049 0.367742 0.000000
0.741421 0.377935 0.031952
0.759243 0.389837 0.084138
0.776577 0.403906 0.110658
0.793423 0.418982 0.133516
0.809384 0.435370 0.156222
0.824369 0.451972 0.179721
0.838163 0.469551 0.204959
0.850828 0.487800 0.232181
0.862486 0.506584 0.261357
0.873045 0.526146 0.293217
0.882475 0.546441 0.327855
0.163821 0.366766 0.000000
0.165133 0.366522 0.000000
0.174350 0.365698 0.000000
0.190677 0.363745 0.000000
0.212528 0.361273 0.000000
0.238987 0.357488 0.000000
0.268925 0.352331 0.000000
0.300908 0.345953 0.000000
0.333288 0.338140 0.000000
0.364813 0.328771 0.000000
0.389441 0.311803 0.000000
0.418860 0.305089 0.000000
0.462776 0.319982 0.000000
0.508690 0.335485 0.000000
0.551965 0.349157 0.000000
0.593194 0.363073 0.000000
0.632013 0.377966 0.000000
0.667750 0.393774 0.000000
0.695247 0.403876 0.000000
0.714382 0.408026 0.000000
0.732296 0.413397 0.000000
0.749630 0.420600 0.006683
0.766415 0.429694 0.078218
0.782925 0.440253 0.111452
0.798764 0.452522 0.137545
0.813687 0.465675 0.162722
0.827634 0.479622 0.188205
0.840604 0.494453 0.214206
0.852567 0.510124 0.241886
0.863737 0.526787 0.271061
0.873686 0.544305 0.303441
0.882719 0.562799 0.337987
0.178561 0.416236 0.000000
0.179751 0.416022 0.000000
0.188632 0.415351 0.000000
0.204471 0.413489 0.000000
0.226383 0.410895 0.000000
0.252628 0.407660 0.000000
0.282994 0.402625 0.000000
0.314763 0.396490 0.000000
0.347448 0.389197 0.000000
0.379980 0.380285 0.000000
0.410864 0.370306 0.000000
0.432837 0.350927 0.000000
0.463386 0.347143 0.000000
0.506065 0.363073 0.000000
0.549493 0.379492 0.000000
0.590326 0.394598 0.000000
0.627497 0.408850 0.000000
0.662257 0.423499 0.000000
0.694728 0.438605 0.000000
0.724605 0.453559 0.000000
0.741512 0.456428 0.000000
0.757778 0.460975 0.000000
0.773770 0.467445 0.079988
0.789303 0.475624 0.117098
0.804044 0.484871 0.144686
0.817868 0.495491 0.172213
0.830930 0.506737 0.198367
0.843046 0.519219 0.225101
0.854398 0.532647 0.252720
0.864805 0.547387 0.282780
0.874235 0.563043 0.314885
0.882902 0.579736 0.349065
0.203220 0.461830 0.000000
0.205112 0.461769 0.000000
0.211917 0.461128 0.000000
0.225925 0.459632 0.000000
0.246616 0.457404 0.000000
0.271916 0.453925 0.000000
0.300420 0.449439 0.000000
0.331334 0.443946 0.000000
0.362890 0.437110 0.000000
0.394720 0.429175 0.000000
0.425483 0.419837 0.000000
0.454780 0.409064 0.000000
0.473304 0.388006 0.000000
0.504356 0.387915 0.000000
0.545495 0.404242 0.000000
0.585992 0.420752 0.000000
0.623438 0.435645 0.000000
0.657008 0.449500 0.000000
0.688960 0.463172 0.000000
0.718441 0.476783 0.000000
0.745754 0.490608 0.000000
0.766140 0.499062 0.000000
0.781094 0.503349 0.091890
0.795407 0.509117 0.127687
0.809079 0.515984 0.156710
0.821958 0.524071 0.183719
0.834043 0.533410 0.210452
0.845365 0.543755 0.237736
0.856016 0.555352 0.265934
0.865782 0.568109 0.295872
0.874754 0.582086 0.327611
0.882994 0.597040 0.361303
0.237583 0.502190 0.000000
0.239475 0.501823 0.000000
0.246036 0.501183 0.000000
0.257725 0.499977 0.000000
0.275059 0.497932 0.000000
0.296910 0.494911 0.000000
0.323095 0.491127 0.000000
0.351232 0.486091 0.000000
0.380957 0.480201 0.000000
0.411383 0.472908 0.000000
0.440620 0.464698 0.000000
0.469184 0.454963 0.000000
0.495674 0.444282 0.000000
0.510704 0.422217 0.000000
0.542046 0.425849 0.000000
0.580652 0.441749 0.000000
0.618036 0.457527 0.000000
0.652399 0.471717 0.000000
0.683558 0.484382 0.000000
0.712520 0.497200 0.000000
0.739773 0.510216 0.015869
0.765377 0.523796 0.069245
0.788113 0.536950 0.107057
0.801266 0.540581 0.142306
0.813748 0.545586 0.171542
0.825711 0.551812 0.198367
0.836942 0.559289 0.225132
0.847471 0.567895 0.252537
0.857420 0.577783 0.280186
0.866636 0.588861 0.309789
0.875181 0.601068 0.341314
0.883146 0.614435 0.374243
0.279850 0.536278 0.000000
0.280400 0.536248 0.000000
0.285801 0.535637 0.000000
0.295476 0.534508 0.000000
0.310124 0.532525 0.000000
0.328435 0.530053 0.000000
0.350652 0.526604 0.000000
0.376532 0.522210 0.000000
0.403052 0.516808 0.000000
0.430396 0.510521 0.000000
0.457984 0.503288 0.000000
0.484901 0.495064 0.000000
0.510338 0.485573 0.000000
0.529870 0.471748 0.000000
0.544884 0.452949 0.000000
0.576349 0.460090 0.000000
0.611994 0.474739 0.000000
0.646418 0.489326 0.002838
0.678431 0.502922 0.029755
0.706996 0.515099 0.068788
0.734157 0.527764 0.099702
0.759823 0.540826 0.119783
0.783108 0.553796 0.141146
0.803799 0.566613 0.163699
0.818173 0.573846 0.188937
0.829129 0.578607 0.215824
0.839536 0.584405 0.242130
0.849363 0.591516 0.268742
0.858640 0.599817 0.296574
0.867369 0.609369 0.325078
0.875547 0.619989 0.356085
0.883268 0.631739 0.388312
0.322698 0.565911 0.000000
0.323430 0.565881 0.000000
0.327489 0.565393 0.000000
0.335332 0.564355 0.000000
0.347387 0.562707 0.000000
0.362829 0.560357 0.000000
0.381933 0.557275 0.000000
0.404150 0.553368 0.000000
0.427497 0.548730 0.000000
0.452033 0.543023 0.000000
0.477211 0.536584 0.000000
0.501488 0.529290 0.000000
0.525322 0.521111 0.000000
0.547570 0.511955 0.000000
0.562219 0.496529 0.000000
0.575616 0.479927 0.043122
0.607172 0.489998 0.060121
0.640436 0.503868 0.080964
0.672206 0.517723 0.098451
0.701900 0.530755 0.113375
0.728939 0.543175 0.130800
0.754452 0.555932 0.148959
0.777646 0.568566 0.169100
0.798428 0.581018 0.189944
0.816770 0.593225 0.212070
0.832151 0.604089 0.235080
0.841825 0.608606 0.260685
0.850980 0.614374 0.286870
0.859770 0.621271 0.313573
0.868040 0.629328 0.341955
0.875914 0.638544 0.371923
0.883513 0.648768 0.403143
0.364874 0.592096 0.000000
0.365881 0.591974 0.000000
0.368902 0.591547 0.000000
0.375341 0.590600 0.000000
0.385107 0.589227 0.000000
0.398260 0.587121 0.000000
0.414679 0.584314 0.000000
0.433234 0.580804 0.000000
0.453559 0.576684 0.000000
0.475319 0.571710 0.000000
0.497597 0.566064 0.000000
0.519615 0.559808 0.000000
0.541131 0.552514 0.000000
0.562005 0.544518 0.000000
0.581353 0.535821 0.000000
0.592676 0.520317 0.062989
0.604120 0.504509 0.102419
0.635828 0.517418 0.112703
0.666896 0.530877 0.125978
0.696437 0.544030 0.140078
0.724239 0.557031 0.156832
0.749538 0.569574 0.174197
0.772702 0.582055 0.193362
0.793332 0.594263 0.213291
0.811734 0.606104 0.234104
0.827939 0.617914 0.257053
0.842374 0.629450 0.281163
0.852445 0.636255 0.306096
0.860716 0.641871 0.332006
0.868681 0.648646 0.359442
0.876371 0.656489 0.388373
0.883909 0.665278 0.418372
0.406134 0.616388 0.000000
0.406744 0.616297 0.000000
0.409522 0.615839 0.000000
0.414679 0.615015 0.000000
0.422675 0.613672 0.000000
0.433631 0.611933 0.000000
0.447181 0.609461 0.000000
0.463264 0.606287 0.000000
0.480781 0.602686 0.000000
0.499641 0.598291 0.000000
0.519219 0.593286 0.000000
0.538903 0.587610 0.000000
0.558556 0.581231 0.026093
0.577539 0.574182 0.054078
0.595727 0.566430 0.084504
0.612696 0.558007 0.098054
0.621027 0.542229 0.118715
0.632868 0.530083 0.135286
0.663172 0.543206 0.147829
0.692134 0.556207 0.162509
0.719539 0.569207 0.178744
0.745052 0.581842 0.195193
0.768002 0.594324 0.213962
0.788571 0.606378 0.234134
0.806943 0.618158 0.255375
0.823239 0.629694 0.277775
0.837736 0.640955 0.300938
0.850797 0.652003 0.325689
0.861723 0.661494 0.351446
0.869413 0.667079 0.377722
0.876982 0.673732 0.405158
0.884550 0.681239 0.434333
0.445197 0.639368 0.036011
0.445716 0.639307 0.034974
0.447608 0.638941 0.037140
0.452064 0.638178 0.038117
0.458808 0.636988 0.044770
0.467994 0.635370 0.053651
0.479316 0.633173 0.063081
0.492775 0.630396 0.073396
0.507744 0.627222 0.084932
0.524163 0.623316 0.092958
0.541527 0.618799 0.100282
0.559197 0.613703 0.107210
0.576928 0.607996 0.113924
0.594079 0.601740 0.120668
0.610986 0.594903 0.127962
0.626917 0.587396 0.134646
0.641718 0.579187 0.140627
0.647852 0.563409 0.154788
0.660700 0.554925 0.166629
0.689143 0.567864 0.181552
0.715938 0.580591 0.197116
0.741176 0.593439 0.214725
0.763699 0.605554 0.233249
0.784237 0.617548 0.253056
0.802548 0.629236 0.274205
0.818906 0.640711 0.296696
0.833433 0.651911 0.320256
0.846525 0.662776 0.344915
0.858427 0.673304 0.370153
0.869596 0.683528 0.396185
0.877867 0.690089 0.422675
0.885435 0.696529 0.451087
0.481483 0.661524 0.133364
0.481819 0.661433 0.133913
0.483619 0.661097 0.133639
0.487037 0.660456 0.134524
0.492775 0.659388 0.135164
0.500389 0.657923 0.136812
0.510124 0.656031 0.139101
0.521599 0.653559 0.140841
0.534539 0.650660 0.143740
0.549004 0.647242 0.147036
0.563928 0.643183 0.149905
0.579797 0.638666 0.153994
0.595697 0.633600 0.156954
0.611536 0.627924 0.161196
0.627039 0.621637 0.164492
0.641901 0.614893 0.168368
0.655909 0.607568 0.172030
0.666651 0.597803 0.178012
0.673335 0.584039 0.186893
0.687312 0.579034 0.197665
0.713771 0.591943 0.214328
0.738460 0.604639 0.231601
0.760739 0.616754 0.250462
0.780392 0.628016 0.270390
0.798550 0.639612 0.291508
0.814878 0.651148 0.314580
0.829526 0.662226 0.338048
0.842618 0.672999 0.362737
0.854673 0.683436 0.388281
0.865965 0.693416 0.413886
0.876860 0.703029 0.440711
0.886595 0.711086 0.468055
0.514885 0.682399 0.182406
0.515160 0.682338 0.182773
0.516747 0.682002 0.182589
0.519921 0.681453 0.182650
0.524590 0.680507 0.183536
0.531060 0.679225 0.183749
0.539330 0.677577 0.184909
0.549248 0.675471 0.186252
0.560693 0.672908 0.187778
0.573236 0.669886 0.189975
0.586511 0.666407 0.191165
0.600671 0.662348 0.193576
0.614923 0.657984 0.195499
0.629267 0.652888 0.197238
0.643427 0.647425 0.200046
0.657313 0.641382 0.202274
0.670497 0.634852 0.204654
0.682979 0.627710 0.207065
0.690364 0.616327 0.211460
0.697871 0.604608 0.217594
0.712673 0.602869 0.229068
0.737087 0.615778 0.247227
0.758907 0.627924 0.267277
0.778286 0.639155 0.287205
0.795346 0.649775 0.308171
0.811368 0.660945 0.331029
0.825986 0.672053 0.354711
0.839139 0.682795 0.379950
0.851286 0.693141 0.405066
0.862730 0.703029 0.431434
0.873838 0.712428 0.458015
0.884733 0.721431 0.485603
0.545708 0.701625 0.224918
0.545922 0.701564 0.225162
0.547143 0.701350 0.225223
0.549920 0.700832 0.225162
0.553796 0.700069 0.225162
0.559655 0.698939 0.226108
0.566552 0.697536 0.226535
0.575189 0.695705 0.227481
0.585168 0.693446 0.227848
0.596033 0.690913 0.229129
0.607996 0.687892 0.230503
0.620569 0.684413 0.231266
0.633600 0.680568 0.232609
0.646693 0.676265 0.233494
0.659846 0.671534 0.235019
0.672724 0.666346 0.235966
0.685298 0.660670 0.237400
0.697230 0.654536 0.238834
0.708400 0.647822 0.239506
0.714382 0.636408 0.243351
0.721523 0.625757 0.248875
0.736782 0.626917 0.261723
0.758267 0.639155 0.282292
0.777340 0.650538 0.303716
0.794125 0.661189 0.325414
0.808896 0.670985 0.347265
0.822995 0.681453 0.370672
0.836149 0.692226 0.396063
0.848386 0.702510 0.421698
0.859922 0.712337 0.448127
0.871183 0.721675 0.475196
0.882200 0.730617 0.502922
0.574029 0.719570 0.264927
0.574273 0.719539 0.265049
0.575372 0.719326 0.265080
0.577630 0.718868 0.265110
0.581170 0.718227 0.265263
0.585870 0.717311 0.265599
0.592035 0.716060 0.266178
0.599481 0.714473 0.265934
0.608118 0.712612 0.266697
0.617945 0.710353 0.267399
0.628382 0.707820 0.268070
0.639673 0.704829 0.268528
0.651423 0.701564 0.269383
0.663416 0.697902 0.270451
0.675441 0.693874 0.270756
0.687465 0.689448 0.271397
0.699245 0.684627 0.271855
0.710689 0.679316 0.271977
0.721492 0.673732 0.272618
0.731777 0.667628 0.272770
0.736843 0.656580 0.276249
0.743740 0.647181 0.281773
0.758938 0.650813 0.297215
0.777615 0.662318 0.320043
0.794064 0.672969 0.342626
0.808499 0.682765 0.365270
0.821256 0.691737 0.387518
0.833677 0.701442 0.411658
0.845914 0.711757 0.437842
0.857572 0.721553 0.464790
0.868925 0.730831 0.492500
0.880034 0.739742 0.520562
0.600153 0.736568 0.303532
0.600458 0.736507 0.303624
0.601343 0.736355 0.303655
0.603204 0.735988 0.303746
0.606165 0.735439 0.303746
0.610437 0.734615 0.304021
0.615747 0.733608 0.304448
0.622309 0.732235 0.304112
0.629847 0.730617 0.304540
0.638392 0.728725 0.305180
0.647791 0.726558 0.305425
0.657893 0.723995 0.305699
0.668452 0.721248 0.306340
0.679408 0.718105 0.306401
0.690486 0.714748 0.306950
0.701534 0.711055 0.307347
0.712612 0.706996 0.307836
0.723384 0.702663 0.307866
0.733883 0.697902 0.308019
0.743893 0.692836 0.307500
0.753445 0.687465 0.307591
0.757931 0.677058 0.311559
0.764797 0.669154 0.318151
0.779416 0.674739 0.336736
0.795346 0.685512 0.361089
0.809354 0.695247 0.384314
0.821744 0.704128 0.407355
0.832853 0.712093 0.429694
0.843931 0.720821 0.454170
0.855680 0.730617 0.481636
0.867155 0.739895 0.509789
0.878294 0.748867 0.538384
0.624537 0.752987 0.341955
0.624689 0.752926 0.341772
0.625483 0.752804 0.341741
0.627192 0.752499 0.342046
0.629816 0.752010 0.342138
0.633417 0.751339 0.341985
0.638025 0.750454 0.342168
0.643854 0.749325 0.342565
0.650477 0.747982 0.342596
0.658015 0.746395 0.343084
0.666407 0.744564 0.343206
0.675380 0.742489 0.343603
0.684932 0.740139 0.343786
0.694728 0.737606 0.344213
0.704982 0.734737 0.344610
0.715267 0.731655 0.345006
0.725551 0.728328 0.345159
0.735714 0.724758 0.345312
0.745693 0.720912 0.345617
0.755428 0.716793 0.345403
0.764706 0.712398 0.345251
0.772885 0.707057 0.345647
0.777737 0.698390 0.351019
0.784604 0.691951 0.359045
0.798001 0.698970 0.380774
0.811490 0.708644 0.405524
0.823453 0.717342 0.429480
0.834226 0.725185 0.452674
0.844144 0.732143 0.474739
0.854368 0.739651 0.498817
0.865904 0.749020 0.527672
0.877012 0.757992 0.556786
0.647150 0.769162 0.380285
0.647333 0.769100 0.380194
0.648005 0.769009 0.380316
0.649470 0.768734 0.380255
0.651667 0.768368 0.380499
0.654871 0.767788 0.380468
0.658930 0.767056 0.380865
0.663874 0.766140 0.380987
0.669673 0.765042 0.381537
0.676448 0.763699 0.381537
0.683894 0.762173 0.381933
0.691951 0.760433 0.382238
0.700465 0.758572 0.382940
