20 Preset/INSTA/【3】LUT video cho PR-AE-FCPX/INS LUT (14).cube
# Created by Adobe Lightroom plugin Export LUT (1.24.0)
# www.johnrellis.com/lightroom/exportlut.htm
# Preset: INS胶片-复古[素材江湖]14
# Color profile: C:\Program Files (x86)\Common Files\Adobe\Color\Profiles\Recommended\VideoHD.icc
LUT_3D_SIZE 5
DOMAIN_MIN 0.000000 0.000000 0.000000
DOMAIN_MAX 0.903226 0.903226 0.903226
0.000000 0.000000 0.000000
0.238376 0.000000 0.041810
0.726375 0.000000 0.062806
0.972473 0.000000 0.162081
1.000000 0.000000 0.324895
0.000000 0.294560 0.175296
0.347234 0.267918 0.000000
0.713710 0.000000 0.000000
0.944305 0.000000 0.147860
1.000000 0.105074 0.336858
0.522667 0.729732 0.634180
0.471077 0.722042 0.545281
0.774624 0.655634 0.255833
0.857206 0.545495 0.140383
0.979706 0.538964 0.377630
0.719814 0.841825 0.805570
0.726955 0.843229 0.807645
0.726223 0.834043 0.741543
0.853178 0.783291 0.597406
0.925048 0.747982 0.557916
0.820829 0.879728 0.874784
0.824918 0.879454 0.876646
0.813840 0.879545 0.866148
0.823972 0.879789 0.841794
0.891691 0.864225 0.792081
0.000000 0.020874 0.119509
0.216587 0.000000 0.142367
0.666224 0.000000 0.019715
0.923857 0.000000 0.120027
1.000000 0.000000 0.267277
0.000000 0.242924 0.174777
0.302403 0.229191 0.140932
0.674220 0.093355 0.000000
0.906920 0.000000 0.112215
1.000000 0.000000 0.280827
0.481727 0.693874 0.592157
0.460975 0.694423 0.536614
0.740719 0.615839 0.253208
0.834592 0.521874 0.019593
0.973175 0.530907 0.355749
0.717067 0.837156 0.801511
0.730831 0.839933 0.809873
0.726589 0.830686 0.744137
0.848753 0.778439 0.599268
0.923308 0.744137 0.549065
0.819364 0.879759 0.874083
0.823301 0.879484 0.875853
0.824063 0.879850 0.873014
0.827543 0.880613 0.848447
0.891814 0.864073 0.791775
0.000000 0.062745 0.382818
0.000000 0.058625 0.436530
0.729183 0.000000 0.430762
0.924163 0.000000 0.275883
1.000000 0.000000 0.267704
0.000000 0.201663 0.405554
0.215335 0.235782 0.453498
0.728176 0.000000 0.403845
0.914031 0.000000 0.244907
1.000000 0.159915 0.283207
0.342168 0.627649 0.497292
0.516258 0.634760 0.571313
0.697566 0.578149 0.420417
0.839841 0.513390 0.308202
0.968994 0.524132 0.340673
0.701289 0.818204 0.782315
0.714168 0.819760 0.790188
0.724361 0.818051 0.756252
0.834562 0.765927 0.621668
0.919921 0.727779 0.521599
0.805692 0.879271 0.867308
0.812284 0.879301 0.870512
0.832670 0.879026 0.880156
0.824460 0.879515 0.852415
0.891295 0.863584 0.794522
0.000000 0.103365 0.649073
0.000000 0.111116 0.678065
0.616541 0.155703 0.727718
0.917327 0.000000 0.657252
1.000000 0.191318 0.561700
0.000000 0.208682 0.645594
0.000000 0.216922 0.670802
0.643305 0.340337 0.712856
0.899046 0.204349 0.638911
0.990631 0.291936 0.554467
0.000000 0.506584 0.610590
0.000000 0.489387 0.610437
0.663691 0.581933 0.667720
0.834501 0.513451 0.592981
0.972473 0.462379 0.518761
0.575036 0.766232 0.683467
0.615930 0.769375 0.706172
0.733669 0.794736 0.787198
0.800137 0.735683 0.660914
0.924834 0.693721 0.589014
0.762509 0.877745 0.845853
0.775601 0.877562 0.852049
0.816281 0.878599 0.872068
0.831846 0.879484 0.873533
0.888487 0.862730 0.806271
0.000000 0.148257 0.804959
0.000000 0.143282 0.813535
0.403265 0.250492 0.843351
0.822477 0.393164 0.841978
0.983368 0.381628 0.787533
0.000000 0.219181 0.795346
0.000000 0.206638 0.805417
0.441413 0.340002 0.835355
0.814511 0.463966 0.835508
0.972869 0.436957 0.783902
0.000000 0.393164 0.755489
0.000000 0.414649 0.766415
0.453132 0.511833 0.809384
0.792935 0.629755 0.825864
0.940276 0.598444 0.787839
0.000000 0.733303 0.777249
0.000000 0.724544 0.775662
0.244358 0.684779 0.773220
0.780026 0.777493 0.839597
0.903471 0.726192 0.796811
0.567742 0.865049 0.769314
0.584710 0.864134 0.770718
0.661860 0.864225 0.789792
0.805875 0.870909 0.863615
0.878386 0.857420 0.836301
