20 Preset/INSTA/【3】LUT video cho PR-AE-FCPX/INS LUT (22).cube
# Created by Adobe Lightroom plugin Export LUT (1.24.0)
# www.johnrellis.com/lightroom/exportlut.htm
# Preset: INS胶片-自然[素材江湖]22
# Color profile: C:\Program Files (x86)\Common Files\Adobe\Color\Profiles\Recommended\VideoHD.icc
LUT_3D_SIZE 5
DOMAIN_MIN 0.000000 0.000000 0.000000
DOMAIN_MAX 0.903226 0.903226 0.903226
0.000000 0.000000 0.000000
0.211460 0.000000 0.024506
0.628962 0.000000 0.025757
0.877317 0.000000 0.084657
1.000000 0.000000 0.221958
0.142641 0.207370 0.188571
0.207431 0.242435 0.100282
0.582635 0.128756 0.000000
0.863035 0.000000 0.031342
1.000000 0.164645 0.234104
0.509667 0.572808 0.535973
0.482033 0.542382 0.506859
0.596002 0.603235 0.355230
0.790677 0.541070 0.000000
0.938109 0.529839 0.226139
0.696132 0.740963 0.735683
0.692042 0.735744 0.730251
0.659419 0.727657 0.698970
0.732113 0.744717 0.596704
0.889281 0.745357 0.470832
0.800900 0.845090 0.849882
0.800290 0.844358 0.849210
0.785306 0.829801 0.834653
0.769955 0.847471 0.821988
0.841489 0.867552 0.789792
0.000000 0.084657 0.132753
0.142123 0.078767 0.160098
0.590143 0.000000 0.104860
0.838224 0.000000 0.036927
0.984161 0.000000 0.179446
0.084749 0.236240 0.223209
0.244114 0.238651 0.231601
0.585138 0.107027 0.130556
0.824125 0.000000 0.000000
0.972503 0.045960 0.179629
0.512749 0.568048 0.534478
0.498726 0.547417 0.517144
0.574365 0.571374 0.374426
0.762448 0.500755 0.020935
0.927642 0.520592 0.199405
0.700496 0.743435 0.739590
0.697169 0.738918 0.735042
0.669947 0.724422 0.706966
0.730892 0.740871 0.605463
0.885527 0.738796 0.466499
0.801907 0.845487 0.850523
0.800656 0.844266 0.849332
0.798886 0.841917 0.847440
0.780484 0.854154 0.832883
0.849790 0.874968 0.803403
0.000000 0.189364 0.395758
0.000000 0.195682 0.427039
0.516350 0.217350 0.504692
0.873472 0.000000 0.500877
0.986938 0.000000 0.296757
0.000000 0.302770 0.437415
0.094789 0.314183 0.462348
0.567163 0.353338 0.539452
0.854368 0.224247 0.485847
0.979492 0.000000 0.306004
0.435279 0.602777 0.574762
0.478462 0.599115 0.576104
0.611170 0.580957 0.565393
0.790372 0.498878 0.437415
0.930968 0.480629 0.349310
0.715114 0.759152 0.756893
0.710872 0.751644 0.750118
0.701076 0.731868 0.733120
0.737331 0.739101 0.654231
0.874022 0.708522 0.481422
0.801846 0.844968 0.850065
0.803250 0.845335 0.850980
0.801297 0.842374 0.848722
0.784268 0.843839 0.836423
0.842039 0.865202 0.797452
0.000000 0.367681 0.633356
0.000000 0.376715 0.647517
0.438819 0.457527 0.689845
0.732143 0.498787 0.725124
0.917906 0.526574 0.743984
0.000000 0.430396 0.637598
0.000000 0.436683 0.649317
0.465522 0.496132 0.688106
0.728328 0.538048 0.723049
0.911284 0.540734 0.736507
0.000000 0.546319 0.632105
0.167819 0.538048 0.630976
0.536492 0.597711 0.684810
0.733516 0.647669 0.736202
0.888365 0.611048 0.719509
0.649104 0.755459 0.753750
0.654322 0.752865 0.751919
0.684993 0.750301 0.753964
0.738308 0.734493 0.739986
0.877073 0.680598 0.652491
0.811521 0.854978 0.859281
0.812222 0.855009 0.859648
0.816403 0.855741 0.862150
0.814755 0.849821 0.858824
0.845609 0.863310 0.815946
0.265202 0.579187 0.788296
0.325811 0.580377 0.790341
0.490761 0.596796 0.801114
0.680079 0.672267 0.814878
0.809262 0.669551 0.831876
0.292729 0.592248 0.784176
0.347631 0.594079 0.786801
0.501091 0.609186 0.797940
0.680812 0.677821 0.813352
0.808164 0.678859 0.831144
0.308080 0.636957 0.778988
0.374517 0.639643 0.780453
0.529778 0.654047 0.792782
0.686030 0.702144 0.813870
0.811551 0.721401 0.836912
0.523003 0.754452 0.807523
0.520195 0.748409 0.804746
0.515373 0.721798 0.796109
0.689631 0.744747 0.820432
0.829984 0.794186 0.858305
0.756130 0.859068 0.862089
0.758389 0.858885 0.862211
0.771939 0.860197 0.865019
0.800259 0.861967 0.870176
0.848081 0.860838 0.872190
