20 Preset/INSTA/【3】LUT video cho PR-AE-FCPX/INS LUT (19).cube
# Created by Adobe Lightroom plugin Export LUT (1.24.0)
# www.johnrellis.com/lightroom/exportlut.htm
# Preset: INS胶片-自然[素材江湖]19
# Color profile: C:\Program Files (x86)\Common Files\Adobe\Color\Profiles\Recommended\VideoHD.icc
LUT_3D_SIZE 32
DOMAIN_MIN 0.0 0.0 0.0
DOMAIN_MAX 1.0 1.0 1.0
0.000000 0.000000 0.000000
0.000977 0.000977 0.000977
0.012879 0.001801 0.002899
0.034241 0.004913 0.005432
0.078279 0.010895 0.012787
0.112703 0.014862 0.020630
0.155917 0.009949 0.028687
0.214084 0.000000 0.038727
0.282536 0.000000 0.048096
0.361089 0.000000 0.059174
0.448737 0.000000 0.071015
0.538781 0.000000 0.084565
0.625391 0.000000 0.096468
0.702693 0.000000 0.110140
0.767147 0.000000 0.127504
0.817990 0.000000 0.147921
0.858183 0.000000 0.169986
0.902312 0.000000 0.204013
0.937469 0.000000 0.248722
0.958465 0.170840 0.293095
0.971252 0.272160 0.336492
0.978759 0.340307 0.377325
0.982696 0.392432 0.415290
0.984741 0.435218 0.450324
0.985351 0.471595 0.483406
0.984771 0.504692 0.515465
0.983368 0.535729 0.546746
0.981079 0.565728 0.578149
0.978241 0.594476 0.608881
0.974517 0.623102 0.639918
0.970031 0.651209 0.670680
0.964996 0.678309 0.700130
0.000000 0.003388 0.001801
0.001251 0.003143 0.001801
0.013428 0.003998 0.002594
0.034516 0.007080 0.006256
0.078645 0.013062 0.012482
0.111727 0.017517 0.020325
0.152102 0.014588 0.028443
0.207004 0.000000 0.037873
0.272953 0.000000 0.046357
0.348363 0.000000 0.056916
0.432593 0.000000 0.068605
0.520989 0.000000 0.081788
0.607385 0.000000 0.093568
0.686122 0.000000 0.106477
0.752987 0.000000 0.123049
0.806485 0.000000 0.142306
0.848936 0.000000 0.163455
0.894713 0.000000 0.197269
0.930541 0.000000 0.238468
0.952728 0.125338 0.279667
0.966674 0.242649 0.320195
0.975494 0.312779 0.358831
0.980499 0.366155 0.394537
0.983520 0.410193 0.428534
0.984985 0.448096 0.461311
0.985168 0.482429 0.493690
0.984405 0.515129 0.526024
0.982574 0.547173 0.558801
0.979919 0.578271 0.591730
0.976501 0.608637 0.624445
0.972229 0.638422 0.656916
0.967193 0.667292 0.688350
0.000000 0.017639 0.008881
0.001221 0.017426 0.010010
0.012329 0.018494 0.007385
0.040253 0.020935 0.007660
0.083101 0.027893 0.013703
0.114321 0.032105 0.020417
0.154635 0.027558 0.028687
0.207523 0.004395 0.036988
0.270451 0.000000 0.045777
0.342565 0.000000 0.055329
0.424231 0.000000 0.066285
0.510887 0.000000 0.079103
0.596033 0.000000 0.091310
0.674525 0.000000 0.103426
0.742184 0.000000 0.119875
0.797116 0.000000 0.138216
0.840909 0.000000 0.158755
0.889281 0.000000 0.192355
0.924865 0.000000 0.231235
0.947875 0.106661 0.270420
0.962951 0.230045 0.309453
0.972595 0.301793 0.347936
0.978485 0.354864 0.382879
0.982025 0.399329 0.417029
0.983978 0.437507 0.449592
0.984894 0.471382 0.481239
0.984527 0.504662 0.514000
0.983032 0.537560 0.547723
0.980591 0.569757 0.581781
0.977386 0.600946 0.615412
0.973266 0.631525 0.648890
0.968322 0.661036 0.681239
0.002075 0.048157 0.024994
0.001770 0.048157 0.026154
0.007904 0.048707 0.022553
0.035737 0.052338 0.020386
0.090944 0.060700 0.016846
0.122194 0.062135 0.022522
0.163333 0.055360 0.028412
0.214206 0.030335 0.035706
0.274540 0.000000 0.044221
0.343206 0.000000 0.052369
0.421668 0.000000 0.063020
0.504326 0.000000 0.075380
0.587030 0.000000 0.088808
0.663874 0.000000 0.100252
0.730587 0.000000 0.115358
0.786038 0.000000 0.133150
0.830350 0.000000 0.152682
0.880919 0.000000 0.185397
0.915007 0.000000 0.219913
0.938354 0.062043 0.254337
0.954772 0.207370 0.290379
0.966094 0.278386 0.325780
0.973693 0.333257 0.360937
0.978790 0.380713 0.396551
0.982025 0.422461 0.431708
0.983703 0.460731 0.467018
0.983825 0.497566 0.503838
0.982727 0.532708 0.540215
0.980438 0.566583 0.576501
0.977386 0.598383 0.611109
0.973419 0.628687 0.644617
0.968750 0.657282 0.676265
0.000000 0.094575 0.053712
0.000000 0.094484 0.056001
0.005310 0.094270 0.053681
0.028901 0.093019 0.042420
0.086885 0.093782 0.036408
0.126070 0.097292 0.029084
0.170809 0.092164 0.027527
0.219028 0.080873 0.033417
0.274937 0.041901 0.039521
0.339269 0.000000 0.047364
0.412268 0.000000 0.055879
0.491463 0.000000 0.066865
0.571313 0.000000 0.081910
0.647547 0.000000 0.094972
0.715572 0.000000 0.109163
0.773098 0.000000 0.126436
0.826749 0.000000 0.150027
0.874693 0.000000 0.180423
0.907958 0.000000 0.212619
0.931640 0.124392 0.245731
0.948730 0.218967 0.280430
0.960937 0.282078 0.315221
0.969512 0.333806 0.350134
0.975616 0.379797 0.386572
0.979644 0.421088 0.422614
0.981811 0.459785 0.459937
0.982605 0.495918 0.496925
0.981903 0.530632 0.533898
0.979889 0.564172 0.570642
0.977142 0.595422 0.605310
0.973541 0.625269 0.638880
0.969085 0.653742 0.670832
0.000000 0.133944 0.089937
0.000000 0.134127 0.090730
0.000000 0.134035 0.093202
0.000000 0.131746 0.074952
0.065583 0.125490 0.063630
0.120607 0.124941 0.050050
0.174136 0.129122 0.035340
0.228855 0.117433 0.028626
0.284825 0.105562 0.032013
0.346929 0.080964 0.037781
0.416846 0.000000 0.044068
0.492348 0.000000 0.053712
0.569329 0.000000 0.071351
0.643336 0.000000 0.089509
0.710262 0.000000 0.103517
0.768246 0.000000 0.121065
0.829068 0.000000 0.148592
0.872862 0.000000 0.178622
0.904662 0.089967 0.210208
0.927764 0.191714 0.243565
0.944793 0.255497 0.277867
0.957275 0.308232 0.313634
0.977447 0.475319 0.456977
0.978759 0.507317 0.493324
0.978698 0.536492 0.527306
0.977600 0.563775 0.559442
0.975860 0.589136 0.589532
0.973602 0.613092 0.617975
0.970733 0.636286 0.645319
0.967315 0.658808 0.671687
0.963470 0.680415 0.696651
0.959319 0.700740 0.719753
0.000000 0.215549 0.130007
0.000000 0.215976 0.130861
0.000000 0.216648 0.135317
0.000000 0.213230 0.120729
0.000000 0.201846 0.100710
0.118410 0.184268 0.088472
0.182528 0.178836 0.059510
0.252903 0.182559 0.029938
0.320653 0.167727 0.017884
0.388220 0.145815 0.015778
0.463478 0.123812 0.021515
0.538903 0.086671 0.033387
0.612360 0.000000 0.055085
0.680262 0.000000 0.084810
0.739467 0.000000 0.102968
0.807706 0.000000 0.131868
0.856565 0.132296 0.163363
0.891691 0.198428 0.197147
0.917540 0.252781 0.232853
0.937285 0.302861 0.271641
0.952270 0.351415 0.314061
0.963134 0.398779 0.359869
0.970397 0.443153 0.407111
0.974640 0.483925 0.454292
0.976410 0.519921 0.497902
0.976410 0.550835 0.535912
0.975372 0.577996 0.569696
0.973602 0.602625 0.600275
0.971283 0.626123 0.629206
0.968322 0.648737 0.656703
0.964782 0.670771 0.683070
0.960876 0.691676 0.707515
0.000000 0.286046 0.169528
0.000000 0.286229 0.170687
0.000000 0.287266 0.174960
0.000000 0.285405 0.169284
0.000000 0.273014 0.133516
0.044770 0.253483 0.118044
0.165835 0.228946 0.101656
0.234165 0.222538 0.070375
0.310399 0.227237 0.019867
0.382727 0.214359 0.002441
0.454261 0.189151 0.000000
0.528313 0.173220 0.000000
0.599573 0.157351 0.014099
0.672358 0.149142 0.042573
0.745968 0.164034 0.090547
0.801236 0.189181 0.119539
0.844053 0.220401 0.149355
0.877653 0.253758 0.182193
0.903990 0.288884 0.216190
0.924895 0.326024 0.253239
0.941466 0.365454 0.294926
0.954284 0.405127 0.339178
0.963378 0.444587 0.386175
0.969451 0.481392 0.432837
0.972656 0.515435 0.477729
0.973877 0.545129 0.517479
0.973632 0.572045 0.553185
0.972503 0.596796 0.585870
0.970703 0.620356 0.616388
0.968231 0.643000 0.645136
0.964996 0.665278 0.672938
0.961395 0.686519 0.698665
0.000000 0.367407 0.218051
0.000000 0.367864 0.219394
0.000000 0.368841 0.223392
0.000000 0.369390 0.225467
0.000000 0.356085 0.184054
0.000000 0.334936 0.158083
0.139773 0.308293 0.139071
0.220157 0.276585 0.118013
0.291508 0.270573 0.087953
0.372473 0.276493 0.011414
0.447578 0.267369 0.000000
0.528832 0.251713 0.000000
0.607507 0.238895 0.000000
0.684230 0.244480 0.000000
0.745083 0.255161 0.037079
0.793332 0.269200 0.099153
0.832883 0.286778 0.133822
0.865324 0.307713 0.166812
0.891997 0.331884 0.202335
0.913787 0.359686 0.240055
0.931487 0.390234 0.280827
0.945464 0.422980 0.324956
0.956023 0.456062 0.371466
0.963470 0.488319 0.417884
0.968048 0.518700 0.462837
0.970397 0.546288 0.503807
0.971099 0.571710 0.540673
0.970550 0.595911 0.575036
0.969268 0.619074 0.607019
0.967254 0.641230 0.636866
0.964416 0.663233 0.665492
0.961120 0.684260 0.692103
0.000000 0.452674 0.275883
0.000000 0.452583 0.276677
0.000000 0.452918 0.280095
0.000000 0.454871 0.288853
0.000000 0.441993 0.250706
0.000000 0.422705 0.207828
0.012177 0.394934 0.185458
0.208499 0.362524 0.161471
0.280034 0.327367 0.136812
0.361608 0.329107 0.103670
0.451881 0.342687 0.007813
0.531609 0.340032 0.000000
0.606683 0.329229 0.000000
0.670253 0.311223 0.000000
0.729580 0.315770 0.000000
0.779507 0.326726 0.036011
0.819669 0.341131 0.110414
0.853391 0.358099 0.150942
0.881102 0.377173 0.189670
0.903685 0.398169 0.229007
0.921813 0.420844 0.269718
0.936309 0.444434 0.311315
0.947570 0.469093 0.354620
0.955993 0.494179 0.398169
0.962097 0.518517 0.439948
0.965911 0.542473 0.480415
0.967956 0.566125 0.518639
0.968475 0.589837 0.555352
0.967834 0.613458 0.590417
0.966369 0.636439 0.623224
0.963958 0.659266 0.654597
0.960784 0.681392 0.683925
0.000000 0.531060 0.340551
0.000000 0.531487 0.341619
0.000000 0.533776 0.346929
0.000000 0.537621 0.356817
0.000000 0.532921 0.332860
0.000000 0.521630 0.284367
0.000000 0.502007 0.256840
0.217258 0.475685 0.231205
0.306584 0.441688 0.201175
0.366888 0.400244 0.168673
0.443519 0.397650 0.127657
0.526329 0.409033 0.051331
0.596735 0.406561 0.000000
0.660548 0.398627 0.000000
0.717159 0.385321 0.000000
0.761868 0.377081 0.000000
0.804990 0.388617 0.062776
0.839689 0.401251 0.126558
0.867948 0.415686 0.171420
0.891325 0.431098 0.212711
0.910582 0.448096 0.255161
0.926238 0.466590 0.297490
0.938842 0.486427 0.340246
0.948638 0.507256 0.384009
0.955901 0.528527 0.427131
0.960815 0.549859 0.468330
0.963867 0.571466 0.507866
0.965209 0.593591 0.545800
0.965332 0.615930 0.581903
0.964355 0.638270 0.616236
0.962402 0.660487 0.648707
0.959625 0.682216 0.679042
0.000000 0.623621 0.439277
0.000000 0.624079 0.440620
0.000000 0.625147 0.444556
0.121370 0.627314 0.453162
0.144625 0.625391 0.442054
0.057649 0.615869 0.397894
0.133211 0.601343 0.351812
0.263951 0.578058 0.321416
0.343511 0.548455 0.286381
0.402930 0.510796 0.246555
0.450233 0.467201 0.203189
0.517449 0.461921 0.159518
0.663874 0.542870 0.167849
0.716548 0.539971 0.144472
0.761776 0.531243 0.136294
0.801877 0.517998 0.128298
0.834043 0.500542 0.135256
0.862852 0.504723 0.180362
0.886931 0.511986 0.225223
0.905394 0.521141 0.272221
0.920500 0.531670 0.317571
0.932555 0.543542 0.361212
0.942016 0.556786 0.404242
0.949126 0.571435 0.446113
0.954253 0.586755 0.485389
0.957519 0.602564 0.522148
0.959289 0.618555 0.556115
0.960082 0.634607 0.587518
0.960082 0.650904 0.616785
0.959075 0.668147 0.645624
0.957305 0.685695 0.672969
0.954803 0.703639 0.699214
0.404181 0.715389 0.577569
0.404334 0.715175 0.577508
0.409461 0.714443 0.578698
0.422004 0.714015 0.582727
0.428382 0.711757 0.579400
0.399542 0.703243 0.542687
0.364202 0.692744 0.491737
0.394232 0.675441 0.456031
0.437293 0.654170 0.418372
0.481544 0.627802 0.374945
0.522942 0.595239 0.326818
0.561913 0.558923 0.273686
0.621180 0.556725 0.230808
0.683406 0.567742 0.199374
0.733150 0.568719 0.181247
0.774533 0.562890 0.178225
0.810422 0.551720 0.173251
0.841611 0.536522 0.169833
0.866026 0.529808 0.199069
0.888273 0.535882 0.241642
0.906126 0.543145 0.285557
0.920226 0.552361 0.330175
0.931640 0.562951 0.374121
0.940703 0.575189 0.417548
0.947509 0.588495 0.459022
0.952270 0.602838 0.498329
0.955322 0.618036 0.535393
0.957061 0.633875 0.570062
0.957671 0.650416 0.602930
0.957336 0.667628 0.634119
0.955993 0.685328 0.663844
0.953826 0.703334 0.691920
0.487434 0.742855 0.628016
0.486854 0.742397 0.627466
0.488869 0.741543 0.627710
0.494850 0.740658 0.629572
0.505486 0.739712 0.633417
0.485481 0.733120 0.606836
0.460365 0.725154 0.569726
0.449042 0.714168 0.528923
0.473457 0.698726 0.497017
0.504936 0.679927 0.460426
0.540215 0.656977 0.417945
0.573999 0.627619 0.368414
0.608026 0.595850 0.311711
0.657771 0.592737 0.270756
0.709590 0.599786 0.242893
0.751797 0.598474 0.223362
0.787289 0.591699 0.220401
0.818631 0.581262 0.215976
0.847288 0.568231 0.212436
0.869993 0.553704 0.220859
0.890623 0.559014 0.263188
0.908232 0.565759 0.305089
0.921508 0.574365 0.350134
0.932128 0.584710 0.395697
0.940429 0.596216 0.439216
0.946593 0.608820 0.480507
0.950744 0.622675 0.519768
0.953368 0.637537 0.556909
0.954681 0.653315 0.591943
0.955016 0.669917 0.625055
0.954101 0.687434 0.656886
0.952361 0.705226 0.686549
0.549035 0.765164 0.670314
0.549248 0.764950 0.670283
0.549920 0.764309 0.670161
0.553338 0.763333 0.671077
0.559594 0.762234 0.673243
0.552117 0.758236 0.660426
0.533959 0.752041 0.633478
0.511894 0.744839 0.596948
0.519738 0.734066 0.569879
0.538354 0.720760 0.540703
0.562371 0.704738 0.506035
0.590204 0.684108 0.463752
0.617029 0.657038 0.412116
0.646235 0.628199 0.352300
0.688167 0.623865 0.311681
0.731380 0.627375 0.285893
0.768063 0.624659 0.265324
0.798764 0.617853 0.263005
0.826993 0.608392 0.260136
0.852842 0.596796 0.256596
0.875639 0.584131 0.259007
0.894163 0.581872 0.289647
0.910369 0.588312 0.331701
0.923400 0.596185 0.374975
0.933074 0.605737 0.420020
0.940459 0.616876 0.463783
0.945830 0.629450 0.505516
0.949371 0.643763 0.545861
0.951415 0.659510 0.584436
0.952178 0.676478 0.621088
0.951537 0.694606 0.656092
0.949920 0.713039 0.688502
0.592584 0.782040 0.702510
0.593378 0.782223 0.703029
0.595270 0.782101 0.703883
0.598810 0.781979 0.705562
0.604883 0.781918 0.708614
0.607874 0.780972 0.707271
0.597040 0.777066 0.689815
0.583764 0.772488 0.666438
0.575982 0.766171 0.640528
0.584833 0.756832 0.618830
0.597253 0.744839 0.591455
0.613184 0.729305 0.556268
0.631678 0.708919 0.510674
0.650965 0.681392 0.453254
0.674647 0.653101 0.388342
0.709804 0.647028 0.347204
0.747097 0.648249 0.321813
0.779629 0.645136 0.301396
0.807401 0.638972 0.300603
0.833219 0.630945 0.299748
0.857542 0.621637 0.299229
0.880461 0.611353 0.299870
0.898039 0.603449 0.318303
0.913176 0.610620 0.362921
0.925689 0.618494 0.406012
0.934569 0.628412 0.451942
0.940887 0.640192 0.496834
0.945190 0.653620 0.539910
0.947875 0.668330 0.580255
0.949187 0.684077 0.617884
0.949157 0.700679 0.653193
0.947936 0.717830 0.685725
0.626856 0.796445 0.729244
0.627314 0.796506 0.729519
0.628595 0.796475 0.730159
0.631769 0.796597 0.731899
0.636713 0.796811 0.734585
0.643854 0.797330 0.738674
0.637140 0.794553 0.727199
0.627375 0.790829 0.710231
0.615564 0.786374 0.687984
0.616693 0.779538 0.669703
0.622980 0.770504 0.648554
0.632258 0.759243 0.622400
0.644434 0.744533 0.588434
0.659113 0.725277 0.544274
0.675166 0.699458 0.486397
0.697139 0.673945 0.421698
0.728786 0.668482 0.383276
0.761715 0.668818 0.360906
0.791379 0.665827 0.341924
0.816495 0.660304 0.342535
0.840330 0.653712 0.343877
0.862974 0.645960 0.345922
0.884306 0.637507 0.348852
0.902281 0.629236 0.359899
0.916320 0.632471 0.397528
0.927581 0.640925 0.442237
0.935973 0.651087 0.487251
0.941161 0.663661 0.532952
0.944457 0.677668 0.575982
0.946197 0.692805 0.615869
0.946563 0.708797 0.652705
0.945647 0.725368 0.686427
0.659937 0.811154 0.755856
0.660639 0.811368 0.756344
0.694392 0.826230 0.783291
0.696315 0.826383 0.784390
0.699397 0.826596 0.786160
0.703731 0.826841 0.788602
0.702541 0.825589 0.784939
0.695583 0.822721 0.774197
0.687617 0.819333 0.760647
0.681025 0.814908 0.744961
0.682246 0.808530 0.731167
0.684627 0.800504 0.713649
0.688167 0.789944 0.689967
0.693751 0.776150 0.657893
0.702052 0.758175 0.615259
0.713283 0.734432 0.559228
0.732296 0.711574 0.493263
0.758572 0.705013 0.455512
0.785153 0.702693 0.433722
0.810452 0.698116 0.413794
0.831876 0.692073 0.413764
0.852628 0.685664 0.415198
0.872526 0.678523 0.417456
0.891569 0.670649 0.419623
0.908812 0.662104 0.424292
0.921111 0.659693 0.449134
0.930144 0.667140 0.490333
0.937133 0.676265 0.530755
0.941070 0.688228 0.573388
0.943328 0.701869 0.613703
0.944091 0.716854 0.651575
0.943511 0.732448 0.686061
0.695399 0.827512 0.784573
0.698207 0.828733 0.786770
0.701778 0.830076 0.789425
0.705928 0.831296 0.792325
0.710323 0.832303 0.795254
0.714748 0.832975 0.797971
0.717617 0.832944 0.798795
0.711818 0.830503 0.790311
0.704952 0.827665 0.779568
0.696773 0.824247 0.765682
0.694820 0.819333 0.753414
0.695644 0.813016 0.739895
0.697230 0.804776 0.721889
0.700191 0.794369 0.698634
0.705104 0.781094 0.668055
0.712734 0.763912 0.627192
0.723354 0.741604 0.573754
0.742275 0.721798 0.513420
0.767605 0.717159 0.481361
0.792660 0.715846 0.464240
0.816526 0.712520 0.449256
0.837217 0.708248 0.451942
0.856718 0.703212 0.455787
0.875364 0.697200 0.459510
0.893065 0.690394 0.462715
0.910094 0.683009 0.466072
0.922759 0.677394 0.481392
0.930755 0.685420 0.522820
0.936767 0.695583 0.563989
0.940612 0.707698 0.604608
0.941955 0.721981 0.644587
0.941772 0.737301 0.681514
0.711147 0.835080 0.797238
0.713741 0.836149 0.799222
0.717067 0.837430 0.801694
0.720729 0.838560 0.804227
0.724697 0.839536 0.806851
0.728481 0.840146 0.809171
0.732662 0.840635 0.811612
0.729610 0.839078 0.806668
0.723873 0.836728 0.798276
0.717037 0.833921 0.787686
0.710567 0.830381 0.775265
0.710445 0.825315 0.764828
0.710689 0.818967 0.751400
0.711849 0.811063 0.734310
0.714260 0.801053 0.712184
0.718502 0.788479 0.683345
0.725338 0.772335 0.644831
0.735225 0.751827 0.594903
0.753750 0.734615 0.539940
0.777432 0.731228 0.512810
0.800626 0.730220 0.498756
0.822843 0.727718 0.487739
0.842313 0.724422 0.491371
0.860502 0.720302 0.496712
0.877745 0.715236 0.501305
0.894347 0.709590 0.506065
0.910216 0.703700 0.511070
0.923278 0.699184 0.524132
0.931395 0.704372 0.558129
0.936522 0.715358 0.598932
0.939757 0.727932 0.637934
0.940002 0.743038 0.677546
0.727077 0.842618 0.809781
0.729183 0.843503 0.811337
0.731899 0.844480 0.813291
0.734920 0.845396 0.815335
0.738186 0.846189 0.817441
0.741360 0.846708 0.819364
0.744930 0.847135 0.821408
0.745937 0.846769 0.820859
0.741207 0.844907 0.814420
0.735531 0.842649 0.806241
0.728756 0.839933 0.795804
0.725551 0.836179 0.786099
0.725002 0.831235 0.775875
0.724910 0.825132 0.763088
0.725704 0.817563 0.746914
0.727871 0.808286 0.726467
0.732052 0.796994 0.700740
0.738888 0.782864 0.667140
0.748867 0.765347 0.623743
0.767727 0.751980 0.577234
0.790372 0.751034 0.558923
0.812039 0.751644 0.551537
0.832547 0.750668 0.547539
0.850797 0.749081 0.554162
0.867521 0.746792 0.562860
0.883330 0.743771 0.570581
0.898405 0.740414 0.578485
0.912779 0.737209 0.587335
0.925383 0.735256 0.600519
0.932830 0.739315 0.628077
0.935576 0.751797 0.667170
0.936675 0.764706 0.702113
0.753658 0.854368 0.829648
0.754513 0.854673 0.830228
0.755520 0.854948 0.830869
0.756802 0.855161 0.831632
0.758419 0.855344 0.832547
0.760311 0.855467 0.833555
0.762814 0.855619 0.834897
0.765988 0.855924 0.836667
0.762783 0.854612 0.832425
0.758267 0.852964 0.826444
0.752895 0.850950 0.818936
0.746761 0.848508 0.809720
0.745602 0.844755 0.802213
0.744594 0.840177 0.792874
0.744045 0.834531 0.781186
0.744259 0.827634 0.766629
0.745602 0.819211 0.748348
0.748745 0.808865 0.725093
0.754330 0.796139 0.695277
0.763333 0.780667 0.656184
0.780392 0.768582 0.613458
0.800626 0.767544 0.597284
0.819821 0.767422 0.590265
0.838132 0.765774 0.586419
0.854948 0.764096 0.591424
0.870268 0.762387 0.600092
0.885039 0.760403 0.609003
0.899016 0.758633 0.618830
0.912383 0.757443 0.630365
0.924743 0.757137 0.643793
0.932219 0.760159 0.666865
0.933776 0.772335 0.702663
0.766629 0.859892 0.838956
0.767300 0.860136 0.839384
0.768154 0.860349 0.839963
0.769284 0.860563 0.840604
0.770687 0.860716 0.841367
0.772335 0.860838 0.842252
0.774472 0.860990 0.843412
0.777188 0.861234 0.844877
0.777798 0.860960 0.844358
0.774014 0.859648 0.839719
0.769619 0.858122 0.834012
0.764370 0.856260 0.826932
0.760403 0.853758 0.819486
0.759121 0.850309 0.812436
0.758114 0.846128 0.803861
0.757565 0.841062 0.793362
0.757839 0.834897 0.780362
0.759121 0.827451 0.764157
0.762081 0.818326 0.743832
0.767178 0.807187 0.717769
0.775845 0.794156 0.684413
0.791806 0.784085 0.647700
0.810483 0.783719 0.635248
0.828000 0.783902 0.630396
0.842100 0.777371 0.615839
0.857877 0.775998 0.620325
0.872313 0.775204 0.630030
0.886168 0.774746 0.641291
0.899321 0.774716 0.653620
0.911620 0.775265 0.667323
0.922789 0.776638 0.682368
0.930022 0.780331 0.703334
0.784329 0.866697 0.851041
0.785275 0.866972 0.851652
0.785916 0.867124 0.852049
0.786465 0.867155 0.852323
0.786954 0.867063 0.852506
0.787625 0.866911 0.852811
0.788602 0.866789 0.853178
0.790036 0.866667 0.853849
0.792050 0.866667 0.854856
0.788998 0.865568 0.851438
0.784512 0.864103 0.846494
0.779568 0.862425 0.840604
0.773770 0.860472 0.833310
0.770779 0.857664 0.826719
0.768734 0.854093 0.819364
0.766995 0.849821 0.810513
0.765866 0.844755 0.799924
0.765805 0.838804 0.787320
0.767056 0.831876 0.772244
0.770169 0.823667 0.753719
0.775296 0.813748 0.730404
0.783993 0.802426 0.700832
0.799008 0.793576 0.668025
0.816129 0.793179 0.656855
0.831968 0.792752 0.652125
0.847135 0.791135 0.650507
0.861723 0.790127 0.654688
0.875059 0.789975 0.664546
0.887846 0.790188 0.675685
0.899901 0.791043 0.688258
0.910979 0.792660 0.702327
0.920562 0.795132 0.717708
0.792172 0.869627 0.856291
0.792966 0.869841 0.856779
0.793668 0.869993 0.857237
0.794369 0.870085 0.857572
0.795163 0.870115 0.858000
0.796109 0.870146 0.858488
0.797513 0.870207 0.859190
0.799344 0.870329 0.860105
0.801633 0.870481 0.861295
0.802548 0.870390 0.861326
0.799313 0.869444 0.857877
0.795499 0.868345 0.853605
0.790982 0.866972 0.848295
0.786160 0.865232 0.842069
0.783963 0.862669 0.836484
0.781857 0.859525 0.829770
0.780148 0.855772 0.821775
0.779141 0.851377 0.812436
0.779080 0.846281 0.801389
0.780331 0.840360 0.788357
0.783139 0.833310 0.772396
0.787900 0.824887 0.752438
0.796078 0.815640 0.727565
0.810178 0.808713 0.700801
0.825925 0.808957 0.692988
0.840269 0.809110 0.691890
0.853941 0.808316 0.692287
0.867308 0.808072 0.697047
0.879515 0.809140 0.708034
0.890867 0.810666 0.720058
0.901213 0.812680 0.733089
0.910063 0.815305 0.747036
0.803494 0.873228 0.863493
0.803922 0.873320 0.863706
0.804288 0.873381 0.863920
0.804746 0.873411 0.864164
0.805295 0.873381 0.864439
0.806058 0.873381 0.864805
0.807095 0.873411 0.865324
0.808499 0.873442 0.866026
0.810239 0.873533 0.866911
0.812406 0.873655 0.868009
0.811063 0.873198 0.866331
0.807950 0.872404 0.863127
0.804257 0.871458 0.859098
0.799802 0.870237 0.854124
0.796201 0.868559 0.848905
0.794064 0.866331 0.843809
0.792142 0.863584 0.837736
0.790707 0.860441 0.830716
0.790066 0.856809 0.822629
0.790372 0.852567 0.813230
0.791775 0.847623 0.802029
0.794522 0.841703 0.788296
0.798825 0.834470 0.770840
0.806577 0.826780 0.749508
0.819699 0.821195 0.727016
0.834012 0.821561 0.720699
0.846799 0.821775 0.721279
0.859159 0.821134 0.721981
0.871305 0.821286 0.726772
0.882414 0.823270 0.738491
0.892424 0.825742 0.751064
0.900999 0.828702 0.764645
0.812100 0.875639 0.868772
0.812406 0.875700 0.868925
0.812772 0.875761 0.869139
0.813260 0.875792 0.869383
0.814023 0.875822 0.869780
0.815091 0.875944 0.870329
0.816770 0.876097 0.871214
0.818814 0.876341 0.872313
0.821256 0.876616 0.873594
0.823972 0.876890 0.875059
0.826444 0.877104 0.876249
0.825101 0.876890 0.874662
0.823301 0.876555 0.872618
0.820798 0.876097 0.869902
0.817624 0.875517 0.866392
0.815579 0.874418 0.863035
0.813779 0.873014 0.859159
0.812222 0.871305 0.854643
0.811154 0.869291 0.849485
0.810727 0.866972 0.843503
0.811032 0.864225 0.836576
0.812284 0.860990 0.828183
0.814694 0.856962 0.817899
0.818692 0.852079 0.805081
0.825895 0.847227 0.789975
0.837888 0.844358 0.774960
0.849821 0.845029 0.772244
0.860136 0.845243 0.773373
0.869963 0.844907 0.774838
0.879393 0.845182 0.779141
0.887633 0.847410 0.789883
0.892393 0.848325 0.796353
0.827512 0.878721 0.877531
0.827512 0.878721 0.877562
0.827604 0.878721 0.877592
0.827787 0.878721 0.877684
0.828092 0.878691 0.877806
0.828580 0.878691 0.878080
0.829374 0.878691 0.878416
0.830381 0.878691 0.878904
0.831632 0.878721 0.879515
0.833127 0.878782 0.880247
0.834806 0.878813 0.881071
0.835019 0.878752 0.880888
0.833188 0.878477 0.879210
0.830961 0.878172 0.877134
