20 Preset/INSTA/【3】LUT video cho PR-AE-FCPX/INS LUT (3).cube
# Created by Adobe Lightroom plugin Export LUT (1.24.0)
# www.johnrellis.com/lightroom/exportlut.htm
# Preset: INS胶片Tezza01[素材江湖]03
# Color profile: C:\Program Files (x86)\Common Files\Adobe\Color\Profiles\Recommended\VideoHD.icc
LUT_3D_SIZE 5
DOMAIN_MIN 0.000000 0.000000 0.000000
DOMAIN_MAX 0.903226 0.903226 0.903226
0.028687 0.035340 0.052186
0.222934 0.080934 0.077821
0.695857 0.000000 0.000000
0.939696 0.330388 0.000000
1.000000 0.515129 0.168063
0.000000 0.227024 0.127779
0.183902 0.204746 0.165591
0.666072 0.267430 0.000000
0.909178 0.408881 0.000000
1.000000 0.556695 0.207645
0.425391 0.687098 0.425055
0.528649 0.668391 0.439857
0.656336 0.621607 0.495857
0.842618 0.607813 0.204196
0.962005 0.652491 0.285191
0.689174 0.824338 0.698207
0.708827 0.822446 0.704952
0.754574 0.809506 0.714534
0.785306 0.785824 0.723629
0.890898 0.795651 0.645258
0.795377 0.893523 0.828702
0.801816 0.892943 0.830564
0.819547 0.888121 0.832212
0.845212 0.882750 0.838651
0.865354 0.877531 0.850004
0.027955 0.092195 0.132998
0.246891 0.063020 0.165652
0.709804 0.099702 0.162844
0.911742 0.349432 0.150057
0.997589 0.515160 0.246983
0.000000 0.265263 0.221439
0.247715 0.266270 0.241581
0.677577 0.310063 0.172671
0.890715 0.419715 0.150149
0.987610 0.549371 0.264073
0.452155 0.677577 0.469856
0.548150 0.666926 0.488045
0.646387 0.614801 0.515221
0.829038 0.595148 0.247105
0.954528 0.653773 0.339544
0.696223 0.823880 0.711604
0.714839 0.822507 0.718044
0.757839 0.810697 0.726558
0.785061 0.787015 0.731502
0.889220 0.794553 0.649958
0.795712 0.893614 0.831205
0.801877 0.892943 0.832761
0.825040 0.891112 0.840482
0.848386 0.885222 0.844755
0.867704 0.880339 0.855222
0.000000 0.189578 0.331853
0.143954 0.231815 0.294743
0.805112 0.298497 0.492744
0.912657 0.468025 0.465064
0.974945 0.580713 0.488533
0.000000 0.338109 0.466468
0.337407 0.394110 0.439307
0.775906 0.462959 0.515831
0.891508 0.520439 0.464912
0.966033 0.607385 0.498787
0.483192 0.712795 0.618738
0.601648 0.710262 0.630457
0.702113 0.679530 0.622522
0.832944 0.633539 0.460761
0.938476 0.678004 0.517723
0.710231 0.827298 0.749844
0.724117 0.824063 0.750820
0.767117 0.817075 0.760586
0.788754 0.795895 0.760250
0.887785 0.789670 0.661646
0.789853 0.893889 0.837186
0.797391 0.893462 0.839261
0.822599 0.891661 0.846494
0.848356 0.886107 0.851225
0.866300 0.879728 0.858122
0.000000 0.361486 0.560601
0.147066 0.385412 0.538567
0.490730 0.486061 0.527916
0.890471 0.630549 0.709743
0.934508 0.695766 0.715602
0.248325 0.473701 0.621851
0.355352 0.486397 0.600519
0.571527 0.560082 0.585565
0.872923 0.663050 0.714687
0.922728 0.712520 0.723384
0.496803 0.679255 0.719875
0.574914 0.687373 0.722499
0.724605 0.732967 0.730861
0.829007 0.729702 0.725368
0.909392 0.741390 0.720058
0.695216 0.837278 0.795956
0.715145 0.835813 0.796445
0.777829 0.834195 0.806394
0.804105 0.813352 0.791012
0.894743 0.787655 0.710780
0.773617 0.898039 0.850584
0.783505 0.897490 0.852689
0.818906 0.896178 0.862303
0.852873 0.892973 0.869261
0.868467 0.883482 0.869718
0.261906 0.549004 0.733333
0.344915 0.555261 0.720272
0.531273 0.584924 0.659785
0.733120 0.677821 0.752438
0.925536 0.776547 0.829313
0.357458 0.580621 0.745174
0.412482 0.586114 0.734279
0.558129 0.609003 0.679713
0.739345 0.695491 0.757961
0.920928 0.784756 0.831540
0.417121 0.641718 0.792874
0.505760 0.660914 0.786618
0.649622 0.700862 0.758907
0.761624 0.756039 0.784237
0.907195 0.810849 0.840024
0.602838 0.809232 0.839811
0.627558 0.809140 0.839231
0.709010 0.812619 0.840696
0.803586 0.827268 0.830045
0.890959 0.845518 0.854337
0.727901 0.902403 0.876646
0.740169 0.901884 0.877287
0.787686 0.901122 0.881498
0.846433 0.898528 0.886931
0.874266 0.890227 0.884825
