20 Preset/INSTA/【3】LUT video cho PR-AE-FCPX/INS LUT (23).cube
# Created by Adobe Lightroom plugin Export LUT (1.24.0)
# www.johnrellis.com/lightroom/exportlut.htm
# Preset: INS胶片-自然[素材江湖]23
# Color profile: C:\Program Files (x86)\Common Files\Adobe\Color\Profiles\Recommended\VideoHD.icc
LUT_3D_SIZE 32
DOMAIN_MIN 0.0 0.0 0.0
DOMAIN_MAX 1.0 1.0 1.0
0.000000 0.000000 0.000000
0.004944 0.000519 0.000946
0.015869 0.000397 0.001892
0.039948 0.002075 0.004578
0.082368 0.002472 0.008179
0.111208 0.000061 0.012573
0.144656 0.000000 0.016571
0.188083 0.000000 0.018738
0.238560 0.000000 0.020172
0.293706 0.000000 0.020691
0.352941 0.000000 0.020081
0.414282 0.000000 0.018891
0.474678 0.000000 0.016785
0.532494 0.000000 0.013458
0.585657 0.000000 0.009552
0.633387 0.000000 0.006378
0.676020 0.000000 0.002960
0.714168 0.000000 0.000153
0.748135 0.000000 0.000000
0.779110 0.000000 0.000000
0.806943 0.000000 0.000000
0.845548 0.000000 0.000000
0.876829 0.000000 0.000000
0.902617 0.000000 0.000000
0.923827 0.000000 0.002106
0.942107 0.000000 0.011109
0.958892 0.000000 0.022248
0.974853 0.000000 0.038025
0.990784 0.000000 0.058991
1.000000 0.000000 0.085084
1.000000 0.000000 0.102449
1.000000 0.000000 0.121004
0.000244 0.004364 0.002777
0.000519 0.004364 0.001648
0.014008 0.006165 0.002258
0.039796 0.005463 0.004120
0.080385 0.007294 0.008698
0.109560 0.006317 0.012970
0.142000 0.000000 0.015869
0.183322 0.000000 0.018280
0.232273 0.000000 0.019989
0.285924 0.000000 0.020691
0.343603 0.000000 0.020172
0.403632 0.000000 0.018433
0.463752 0.000000 0.016571
0.521294 0.000000 0.013489
0.574792 0.000000 0.010895
0.623743 0.000000 0.006561
0.667506 0.000000 0.002960
0.706477 0.000000 0.000549
0.741054 0.000000 0.000000
0.772366 0.000000 0.000000
0.800443 0.000000 0.000000
0.837736 0.000000 0.000000
0.867887 0.000000 0.000000
0.892912 0.000000 0.000000
0.914061 0.000000 0.000000
0.932403 0.000000 0.006317
0.949432 0.000000 0.016083
0.965911 0.000000 0.028534
0.982269 0.000000 0.047089
0.999237 0.000000 0.073701
1.000000 0.000000 0.094972
1.000000 0.000000 0.113008
0.000000 0.019837 0.009705
0.000000 0.021027 0.009583
0.010620 0.020905 0.008240
0.036713 0.026947 0.006897
0.080690 0.029541 0.010193
0.110628 0.029328 0.014282
0.143984 0.020966 0.016022
0.185733 0.000000 0.018708
0.234043 0.000000 0.019287
0.286320 0.000000 0.020325
0.343236 0.000000 0.020020
0.402258 0.000000 0.018402
0.461463 0.000000 0.015503
0.518181 0.000000 0.012909
0.571405 0.000000 0.010376
0.620050 0.000000 0.006012
0.663783 0.000000 0.002625
0.702998 0.000000 0.000000
0.737942 0.000000 0.000000
0.769650 0.000000 0.000000
0.797879 0.000000 0.000000
0.835386 0.000000 0.000000
0.864561 0.000000 0.000000
0.888914 0.000000 0.000000
0.909545 0.000000 0.000000
0.927764 0.000000 0.002747
0.944823 0.000000 0.011536
0.961425 0.000000 0.024292
0.977935 0.000000 0.042023
0.994965 0.000000 0.066682
1.000000 0.000000 0.091096
1.000000 0.000000 0.108949
0.000061 0.050568 0.026978
0.000000 0.051759 0.026825
0.000000 0.055604 0.021851
0.032441 0.053773 0.022522
0.087678 0.071748 0.015503
0.116579 0.073793 0.015717
0.153262 0.062318 0.017334
0.196048 0.035676 0.017639
0.244541 0.000000 0.018402
0.296422 0.000000 0.018341
0.351568 0.000000 0.017151
0.408820 0.000000 0.015686
0.466468 0.000000 0.014130
0.521630 0.000000 0.010193
0.572747 0.000000 0.006806
0.619867 0.000000 0.003937
0.662135 0.000000 0.000671
0.700191 0.000000 0.000000
0.734279 0.000000 0.000000
0.765072 0.000000 0.000000
0.795529 0.000000 0.000000
0.829831 0.000000 0.000000
0.857633 0.000000 0.000000
0.881834 0.000000 0.000000
0.903410 0.000000 0.000000
0.922881 0.000000 0.000000
0.941314 0.000000 0.006500
0.958923 0.000000 0.019928
0.976104 0.000000 0.037171
0.993286 0.000000 0.062776
1.000000 0.000000 0.090242
1.000000 0.000000 0.106691
0.000000 0.092622 0.053376
0.000000 0.093172 0.052094
0.000000 0.094697 0.050538
0.000000 0.095888 0.033997
0.075715 0.095155 0.039551
0.127260 0.108125 0.019806
0.164462 0.107362 0.014130
0.208164 0.096590 0.014740
0.256016 0.064973 0.013733
0.306737 0.000000 0.013886
0.360327 0.000000 0.011994
0.416358 0.000000 0.010803
0.472084 0.000000 0.006897
0.526452 0.000000 0.004242
0.576837 0.000000 0.000702
0.623682 0.000000 0.000000
0.665736 0.000000 0.000000
0.703517 0.000000 0.000000
0.737209 0.000000 0.000000
0.767391 0.000000 0.000000
0.800076 0.000000 0.000000
0.831418 0.000000 0.000000
0.857664 0.000000 0.000000
0.881224 0.000000 0.000000
0.902495 0.000000 0.000000
0.921935 0.000000 0.000000
0.940185 0.000000 0.002686
0.957519 0.000000 0.016236
0.974426 0.000000 0.033570
0.991150 0.000000 0.058808
1.000000 0.000000 0.087953
1.000000 0.000000 0.104585
0.000000 0.124331 0.083497
0.000000 0.124636 0.083406
0.000000 0.125704 0.081697
0.000000 0.127962 0.072541
0.000000 0.129671 0.047791
0.110018 0.130068 0.056855
0.181033 0.149294 0.016571
0.231693 0.146853 0.000000
0.279515 0.134676 0.000000
0.331243 0.110475 0.000000
0.384527 0.042481 0.000000
0.439826 0.000000 0.000000
0.493690 0.000000 0.000000
0.545525 0.000000 0.000000
0.594293 0.000000 0.000000
0.638972 0.000000 0.000000
0.679164 0.000000 0.000000
0.715084 0.000000 0.000000
0.747066 0.000000 0.000000
0.776089 0.000000 0.000000
0.810636 0.000000 0.000000
0.839506 0.000000 0.000000
0.913207 0.000000 0.000000
0.934112 0.000000 0.000000
0.952026 0.000000 0.000000
0.967926 0.000000 0.016815
0.982574 0.000000 0.038209
0.996796 0.000000 0.066987
1.000000 0.000000 0.090944
1.000000 0.000000 0.107179
1.000000 0.000000 0.124422
1.000000 0.000000 0.143374
0.000000 0.187045 0.111360
0.000000 0.187076 0.110719
0.000000 0.187106 0.108522
0.000000 0.187503 0.104128
0.000000 0.190585 0.070588
0.000000 0.194125 0.056428
0.170565 0.196811 0.073487
0.274083 0.221103 0.000000
0.345525 0.217960 0.000000
0.399115 0.201694 0.000000
0.454902 0.172274 0.000000
0.508843 0.131777 0.000000
0.558892 0.025727 0.000000
0.605005 0.000000 0.000000
0.646387 0.000000 0.000000
0.683192 0.000000 0.000000
0.716640 0.000000 0.000000
0.746883 0.000000 0.000000
0.774807 0.000000 0.000000
0.809720 0.000000 0.000000
0.843320 0.000000 0.000000
0.872984 0.000000 0.000000
0.899718 0.000000 0.000000
0.923217 0.000000 0.000000
0.943572 0.000000 0.000000
0.960723 0.000000 0.000000
0.975769 0.000000 0.018860
0.989776 0.000000 0.047456
1.000000 0.000000 0.080446
1.000000 0.000000 0.099733
1.000000 0.000000 0.116365
1.000000 0.000000 0.135164
0.000000 0.239017 0.135103
0.000000 0.238926 0.134646
0.000000 0.238468 0.132387
0.000000 0.237369 0.126925
0.000000 0.235569 0.118166
0.000000 0.242985 0.049012
0.020386 0.248325 0.068238
0.226596 0.253361 0.090272
0.342840 0.280217 0.000000
0.427955 0.283055 0.000000
0.480049 0.265019 0.000000
0.530266 0.243931 0.000000
0.578058 0.210178 0.000000
0.621057 0.170413 0.000000
0.659602 0.114961 0.000000
0.693721 0.000000 0.000000
0.724849 0.000000 0.000000
0.753445 0.000000 0.000000
0.786069 0.000000 0.000000
0.818357 0.000000 0.000000
0.847166 0.000000 0.000000
0.873655 0.000000 0.000000
0.898009 0.000000 0.000000
0.919890 0.000000 0.000000
0.939239 0.000000 0.000000
0.955779 0.000000 0.000000
0.970459 0.000000 0.000000
0.984253 0.000000 0.026062
0.998016 0.000000 0.062623
1.000000 0.000000 0.092836
1.000000 0.000000 0.111452
1.000000 0.000000 0.131044
0.000000 0.295811 0.164034
0.000000 0.295476 0.163058
0.000000 0.294408 0.160220
0.000000 0.292363 0.154696
0.000000 0.288731 0.146670
0.000000 0.291142 0.113191
0.000000 0.299870 0.065522
0.120363 0.307622 0.090455
0.289311 0.315679 0.108583
0.415106 0.343999 0.000000
0.507073 0.352453 0.000000
0.554620 0.336675 0.000000
0.598352 0.316655 0.000000
0.638331 0.290806 0.000000
0.674556 0.258122 0.000000
0.706508 0.222812 0.000000
0.735653 0.183658 0.000000
0.769131 0.144747 0.000000
0.799680 0.088197 0.000000
0.827085 0.000000 0.000000
0.852323 0.000000 0.000000
0.876188 0.000000 0.000000
0.898253 0.000000 0.000000
0.918486 0.000000 0.000000
0.936553 0.000000 0.000000
0.952453 0.000000 0.000000
0.966674 0.000000 0.000000
0.980194 0.000000 0.002106
0.993744 0.000000 0.043122
1.000000 0.000000 0.086580
1.000000 0.000000 0.107546
1.000000 0.000000 0.128908
0.000000 0.354650 0.195132
0.000000 0.353796 0.193820
0.000000 0.352361 0.191196
0.000000 0.349218 0.185275
0.000000 0.344274 0.176364
0.000000 0.337499 0.165072
0.000000 0.347478 0.101656
0.000000 0.357366 0.091859
0.185672 0.366186 0.111086
0.354528 0.375708 0.133822
0.478096 0.403296 0.038239
0.562219 0.411627 0.000000
0.610620 0.399420 0.000000
0.648402 0.383032 0.000000
0.682490 0.364050 0.000000
0.717891 0.339910 0.000000
0.752529 0.317662 0.000000
0.782925 0.293919 0.000000
0.809934 0.269230 0.000000
0.834348 0.244388 0.000000
0.856748 0.219791 0.000000
0.877317 0.192569 0.000000
0.896269 0.163241 0.000000
0.913878 0.128542 0.000000
0.930114 0.054871 0.000000
0.944945 0.000000 0.000000
0.958892 0.000000 0.000000
0.972503 0.000000 0.000000
0.986206 0.000000 0.007599
1.000000 0.000000 0.062715
1.000000 0.000000 0.101320
1.000000 0.000000 0.125368
0.000000 0.405921 0.226047
0.000000 0.405463 0.225223
0.000000 0.404059 0.222354
0.000000 0.401282 0.216800
0.000000 0.396674 0.207736
0.000000 0.390204 0.196536
0.000000 0.391211 0.164309
0.000000 0.404425 0.096437
0.000000 0.415381 0.117342
0.259281 0.425788 0.141024
0.423407 0.436713 0.167605
0.538201 0.462409 0.124361
0.613306 0.470893 0.000000
0.664668 0.467445 0.000000
0.700313 0.456580 0.000000
0.732296 0.443183 0.000000
0.761654 0.426123 0.000000
0.788724 0.402686 0.000000
0.813230 0.379919 0.000000
0.835630 0.357580 0.000000
0.856352 0.335821 0.000000
0.875425 0.315007 0.000000
0.893431 0.294957 0.000000
0.910246 0.274449 0.000000
0.925902 0.253117 0.000000
0.940368 0.232334 0.000000
0.954131 0.209293 0.000000
0.967590 0.186069 0.000000
0.981170 0.163851 0.000000
0.994934 0.143069 0.044770
1.000000 0.127932 0.098390
1.000000 0.121035 0.125856
0.000000 0.460426 0.262699
0.000000 0.460151 0.262028
0.000000 0.459022 0.259342
0.000000 0.456397 0.253788
0.000000 0.451972 0.244907
0.000000 0.445563 0.232975
0.000000 0.436805 0.217899
0.000000 0.448737 0.165042
0.000000 0.462684 0.126345
0.000000 0.476875 0.152438
0.347936 0.491249 0.183871
0.502678 0.507134 0.220127
0.656336 0.580987 0.259617
0.714382 0.586847 0.135134
0.755581 0.581811 0.000000
0.781369 0.568444 0.000000
0.804440 0.553948 0.000000
0.825620 0.537804 0.000000
0.845518 0.517021 0.000000
0.864103 0.495186 0.000000
0.881315 0.473610 0.000000
0.897337 0.453162 0.000000
0.912352 0.432746 0.000000
0.926543 0.413672 0.000000
0.940032 0.394720 0.000000
0.952758 0.376257 0.000000
0.964996 0.357519 0.000000
0.976867 0.340154 0.000000
0.988739 0.324590 0.054322
1.000000 0.311345 0.104585
1.000000 0.301701 0.131899
1.000000 0.296696 0.158267
0.000000 0.539513 0.326696
0.000000 0.538933 0.325475
0.000000 0.537133 0.322026
0.000000 0.534234 0.315679
0.000000 0.529534 0.305547
0.000000 0.522850 0.292027
0.000000 0.514458 0.275517
0.000000 0.514336 0.245670
0.000000 0.531975 0.187289
0.000000 0.548455 0.188510
0.269627 0.563531 0.225498
0.471138 0.578088 0.270176
0.601404 0.595056 0.320043
0.686122 0.617334 0.324285
0.737881 0.622889 0.229801
0.778164 0.619440 0.097688
0.799619 0.605615 0.000000
0.819364 0.591058 0.000000
0.837156 0.574914 0.000000
0.854093 0.557885 0.000000
0.870390 0.536919 0.000000
0.885954 0.516564 0.000000
0.900694 0.497108 0.000000
0.914885 0.478279 0.000000
0.928466 0.460243 0.000000
0.941497 0.442664 0.000000
0.954101 0.425635 0.000000
0.966491 0.409583 0.000000
0.978882 0.395453 0.048402
0.991363 0.383520 0.107424
1.000000 0.374243 0.136812
1.000000 0.368597 0.165377
0.000000 0.590936 0.379065
0.000000 0.590143 0.377569
0.000000 0.587915 0.373510
0.000000 0.584405 0.366339
0.000000 0.578912 0.354772
0.000000 0.571893 0.340276
0.000000 0.562921 0.321752
0.000000 0.552209 0.300877
0.000000 0.562921 0.259342
0.000000 0.580011 0.203159
0.000000 0.593164 0.237858
0.373877 0.605493 0.279576
0.533593 0.617700 0.326116
0.639918 0.632074 0.375799
0.711147 0.649409 0.385595
0.755489 0.652064 0.302647
0.791104 0.646784 0.205661
0.812253 0.634180 0.124514
0.830014 0.620264 0.000000
0.845914 0.605402 0.000000
0.861295 0.590204 0.000000
0.876432 0.572625 0.000000
0.891020 0.553979 0.000000
0.905150 0.536248 0.000000
0.918791 0.519036 0.000000
0.931884 0.502586 0.000000
0.944671 0.486488 0.000000
0.957183 0.471443 0.000000
0.969696 0.457771 0.085542
0.982269 0.446357 0.121767
0.994965 0.437446 0.150881
1.000000 0.431281 0.179843
0.000000 0.626734 0.422095
0.000000 0.626276 0.421088
0.000000 0.624323 0.417212
0.000000 0.620844 0.409613
0.000000 0.615534 0.397772
0.000000 0.608972 0.383398
0.000000 0.600916 0.365057
0.000000 0.591516 0.344335
0.000000 0.587518 0.316930
0.000000 0.602594 0.272923
0.000000 0.617548 0.249882
0.232486 0.628717 0.289006
0.453925 0.638849 0.332128
0.580835 0.649134 0.377905
0.669001 0.661036 0.423987
0.729458 0.674708 0.437903
0.767941 0.675227 0.363287
0.800473 0.669306 0.277012
0.822293 0.658412 0.210178
0.838499 0.645167 0.144045
0.853666 0.631708 0.002960
0.868162 0.617914 0.000000
0.882444 0.603906 0.000000
0.896269 0.586969 0.000000
0.909758 0.570520 0.000000
0.922911 0.554528 0.000000
0.935729 0.539757 0.002228
0.948547 0.526024 0.089662
0.961425 0.513970 0.123842
0.974395 0.503838 0.154269
0.987488 0.496376 0.182925
1.000000 0.491768 0.212833
0.000000 0.652491 0.456794
0.000000 0.652338 0.455756
0.000000 0.651148 0.452979
0.000000 0.648920 0.446723
0.000000 0.645411 0.437385
0.000000 0.640955 0.425483
0.000000 0.635187 0.409552
0.000000 0.628260 0.390875
0.000000 0.619440 0.368627
0.000000 0.626581 0.336614
0.000000 0.640803 0.295079
0.000000 0.651362 0.301946
0.357061 0.658717 0.340093
0.513268 0.665553 0.380377
0.614099 0.672877 0.420630
0.688716 0.681819 0.461036
0.741543 0.692775 0.477089
0.775784 0.692622 0.411292
0.806546 0.686885 0.331701
0.829435 0.678004 0.269413
0.845090 0.666346 0.222385
0.860288 0.654841 0.172702
0.874449 0.642786 0.132448
0.888487 0.630793 0.051972
0.902129 0.617090 0.023651
0.915373 0.602380 0.095277
0.928313 0.588800 0.123171
0.941131 0.575891 0.147250
0.953887 0.564294 0.170443
0.966552 0.554406 0.193515
0.979217 0.546166 0.217960
0.991608 0.540520 0.244327
0.000000 0.673213 0.486427
0.000000 0.672999 0.485451
0.000000 0.672175 0.483314
0.000000 0.670527 0.478340
0.000000 0.667903 0.470130
0.000000 0.664363 0.459388
0.000000 0.659724 0.445289
0.000000 0.653986 0.428290
0.000000 0.646509 0.407355
0.000000 0.640925 0.382086
0.000000 0.653498 0.349615
0.000000 0.666773 0.310765
0.191867 0.673762 0.343084
0.430701 0.679622 0.380652
0.554894 0.685786 0.419379
0.640528 0.692226 0.457527
0.705043 0.700099 0.494759
0.752316 0.709804 0.515129
0.783261 0.709499 0.458045
0.811917 0.704250 0.388403
0.836606 0.697200 0.325322
0.851865 0.686854 0.286564
0.866789 0.676722 0.246769
0.880583 0.666011 0.221103
0.894377 0.655360 0.193118
0.907988 0.644556 0.167788
0.920958 0.631678 0.183749
0.933715 0.619745 0.201328
0.946288 0.609003 0.219547
0.958862 0.599603 0.239200
0.971191 0.591882 0.261845
0.983307 0.586084 0.286992
0.000000 0.694087 0.517601
0.000000 0.694209 0.517479
0.224491 0.714382 0.548730
0.199283 0.713222 0.544610
0.140505 0.711055 0.537316
0.000000 0.708003 0.527001
0.000000 0.704067 0.514122
0.000000 0.698939 0.497353
0.000000 0.692683 0.476997
0.000000 0.684596 0.451972
0.000000 0.687800 0.426276
0.000000 0.698878 0.398932
0.000000 0.708125 0.384527
0.380163 0.712123 0.420447
0.519371 0.715969 0.455634
0.611170 0.720027 0.490120
0.678279 0.724300 0.522881
0.730556 0.729854 0.554376
0.769589 0.736812 0.575067
0.796078 0.735256 0.525231
0.822080 0.729702 0.465644
0.846006 0.722835 0.407416
0.862303 0.713436 0.367254
0.876493 0.703670 0.332097
0.889158 0.692988 0.309636
0.901884 0.682368 0.285649
0.914672 0.671931 0.261295
0.926909 0.660365 0.259586
0.938964 0.649256 0.271916
0.950927 0.639918 0.288670
0.962829 0.632288 0.308110
0.974426 0.626307 0.331121
0.249821 0.718013 0.555413
0.256504 0.719600 0.557733
0.257420 0.720943 0.559075
0.247196 0.721462 0.558038
0.218814 0.720912 0.553704
0.159121 0.718959 0.545892
0.000000 0.715816 0.534630
0.000000 0.711543 0.519921
0.000000 0.706203 0.501732
0.000000 0.699306 0.479530
0.000000 0.691829 0.453559
0.000000 0.702052 0.431128
0.000000 0.712215 0.403784
0.221134 0.718471 0.410742
0.435889 0.721889 0.444923
0.550561 0.725490 0.478920
0.630488 0.729519 0.511620
0.690700 0.733974 0.543359
0.738827 0.739895 0.574578
0.775448 0.747463 0.599390
0.800412 0.746853 0.556329
0.825254 0.743038 0.506249
0.848783 0.737148 0.453620
0.866392 0.729213 0.413367
0.880064 0.720058 0.382513
0.892302 0.710414 0.363897
0.904753 0.700832 0.344366
0.917388 0.691707 0.325566
0.929992 0.682673 0.316136
0.941741 0.673518 0.330419
0.953338 0.665949 0.348730
0.964599 0.660151 0.370703
0.300786 0.729610 0.574090
0.306004 0.731106 0.576379
0.307927 0.732479 0.577905
0.301335 0.733150 0.577295
0.284672 0.732906 0.574060
0.251865 0.731441 0.567498
0.188602 0.728847 0.557336
0.000000 0.725277 0.544274
0.000000 0.720760 0.527886
0.000000 0.715145 0.508202
0.000000 0.708003 0.484901
0.000000 0.708309 0.461463
0.000000 0.717617 0.439460
0.000000 0.726741 0.414893
0.334874 0.730495 0.440742
0.485176 0.733608 0.473671
0.580774 0.737026 0.506126
0.650477 0.740932 0.537346
0.704097 0.745388 0.567773
0.747677 0.751247 0.597528
0.782071 0.759091 0.624811
0.805234 0.759121 0.587854
0.828672 0.756222 0.544610
0.851499 0.751003 0.496529
0.870237 0.744076 0.455665
0.883268 0.735714 0.430549
0.895048 0.727077 0.415686
0.907164 0.718715 0.401007
0.919677 0.710994 0.387793
0.932403 0.704097 0.377356
0.943816 0.696925 0.390784
0.954681 0.690944 0.411322
0.347265 0.741543 0.593988
0.350774 0.742794 0.595850
0.351446 0.743893 0.596918
0.347326 0.744442 0.596551
0.333654 0.744228 0.593347
0.309880 0.742977 0.587488
0.270329 0.740841 0.578576
0.203555 0.737911 0.567010
0.000000 0.734218 0.552605
0.000000 0.729732 0.535546
0.000000 0.723964 0.514519
0.000000 0.716457 0.489235
0.000000 0.723842 0.470344
0.000000 0.732326 0.450141
0.156130 0.739651 0.437842
0.408270 0.742458 0.470619
0.527306 0.745846 0.503471
0.609857 0.749905 0.536156
0.671473 0.754696 0.568292
0.720180 0.760311 0.599786
0.760098 0.767300 0.630152
0.792386 0.776242 0.660822
0.813748 0.777188 0.631830
0.835569 0.775601 0.597772
0.857481 0.771511 0.557488
0.877043 0.766171 0.520867
0.889250 0.759335 0.504906
0.900572 0.752560 0.496529
0.912261 0.746334 0.489479
0.924041 0.740688 0.484474
0.935851 0.735836 0.481910
0.946471 0.731258 0.491615
0.417121 0.761135 0.628290
0.418555 0.761654 0.629145
0.416236 0.761776 0.628534
0.409522 0.761379 0.626429
0.397528 0.760525 0.622461
0.378668 0.758999 0.616388
0.350561 0.756954 0.608057
0.310369 0.754452 0.597620
0.245457 0.751369 0.584253
0.113008 0.747799 0.569024
0.000000 0.743435 0.550378
0.000000 0.737819 0.528161
0.000000 0.735866 0.505791
0.000000 0.743557 0.489906
0.000000 0.751003 0.472847
0.326055 0.755886 0.478584
0.475746 0.758389 0.510307
0.570031 0.761379 0.541558
0.638880 0.765225 0.572198
0.692073 0.769711 0.601678
0.735012 0.774777 0.630213
0.770474 0.780850 0.657527
0.800137 0.788907 0.683894
0.818906 0.789059 0.660670
0.838895 0.787411 0.629877
0.859281 0.783871 0.594629
0.878325 0.779232 0.561791
0.891112 0.773648 0.548211
0.901823 0.768307 0.544427
0.912749 0.763485 0.541802
0.923766 0.759152 0.540826
0.934447 0.755550 0.542535
0.450446 0.771725 0.646845
0.450904 0.772061 0.647303
0.449805 0.772213 0.647028
0.444129 0.771939 0.645106
0.434638 0.771237 0.641718
0.419471 0.769986 0.636378
0.396612 0.768276 0.628809
0.365515 0.766201 0.619409
0.322881 0.763790 0.608118
0.257450 0.760891 0.594415
0.116213 0.757351 0.577874
0.000000 0.752987 0.558038
0.000000 0.747341 0.534234
0.000000 0.751278 0.518090
0.000000 0.758297 0.504509
0.226078 0.765133 0.490761
0.408515 0.768460 0.511345
0.523430 0.771115 0.542748
0.602838 0.774563 0.573297
0.662715 0.778683 0.602991
0.709987 0.783383 0.631403
0.748470 0.788418 0.658564
0.780789 0.794125 0.683772
0.808530 0.801877 0.707515
0.822843 0.798032 0.681788
0.841215 0.796750 0.655146
0.860502 0.793973 0.624720
0.878874 0.790249 0.595575
0.891997 0.785824 0.584863
0.902098 0.781704 0.584527
0.912261 0.778317 0.586114
0.922240 0.775479 0.589502
0.494728 0.786862 0.673457
0.496468 0.787533 0.674586
0.494972 0.787594 0.674128
0.489570 0.787076 0.671901
0.480842 0.785977 0.668116
0.466804 0.784360 0.662257
0.446754 0.782193 0.654322
0.421088 0.779751 0.644953
0.386084 0.776974 0.633509
0.338018 0.773922 0.620020
0.265721 0.770352 0.604089
0.100038 0.766354 0.585443
0.000000 0.761471 0.563470
0.000000 0.757473 0.539757
0.000000 0.763333 0.526757
0.141360 0.769131 0.513512
0.298772 0.774807 0.502342
0.457069 0.776608 0.532647
0.554040 0.779416 0.563256
0.624353 0.783200 0.593500
0.678523 0.787625 0.622553
0.721889 0.792355 0.650294
0.757168 0.796994 0.675532
0.786831 0.801877 0.698024
0.813016 0.808896 0.718715
0.827939 0.808347 0.705287
0.844511 0.807126 0.682124
0.862058 0.804807 0.656123
0.879393 0.801511 0.630976
0.892668 0.797879 0.621027
0.901884 0.794827 0.623499
0.910948 0.792630 0.628107
0.515099 0.794980 0.686976
0.516167 0.795560 0.687800
0.515801 0.795804 0.687892
0.511589 0.795499 0.686152
0.504509 0.794858 0.683162
0.493568 0.793790 0.678584
0.479286 0.792477 0.672816
0.459998 0.790890 0.665461
0.433722 0.789029 0.656214
0.399359 0.786923 0.645167
0.351934 0.784360 0.631922
0.279118 0.781338 0.615869
0.115785 0.777676 0.596490
0.000000 0.773190 0.573480
0.000000 0.773861 0.555810
0.070283 0.778958 0.544823
0.277836 0.784176 0.534569
0.395300 0.788388 0.537560
0.511803 0.790524 0.567529
0.591791 0.793545 0.597192
0.652064 0.797330 0.626001
0.699580 0.801450 0.653620
0.737972 0.805661 0.678798
0.769833 0.809842 0.701442
0.796811 0.814145 0.721492
0.821286 0.820829 0.740108
0.834470 0.820401 0.731930
0.849210 0.819730 0.713741
0.865019 0.818418 0.694301
0.880369 0.816220 0.677363
0.893156 0.813901 0.669825
0.900999 0.812375 0.675746
0.545861 0.806851 0.707515
0.546166 0.807126 0.707851
0.544701 0.807126 0.707301
0.541497 0.806821 0.705837
0.535332 0.806210 0.703059
0.525750 0.805264 0.698817
0.513237 0.804105 0.693507
0.496407 0.802640 0.686610
0.475441 0.800992 0.678462
0.447791 0.799161 0.668574
0.410590 0.796933 0.656489
0.359472 0.794461 0.642206
0.282536 0.791562 0.625422
0.090303 0.787961 0.604852
0.000000 0.783505 0.580163
0.000000 0.787930 0.570214
0.248508 0.792630 0.561242
0.350958 0.797604 0.553887
0.460578 0.800717 0.569085
0.554406 0.803098 0.598505
0.622492 0.806149 0.626978
0.675074 0.809567 0.654292
0.717067 0.813138 0.679316
0.751400 0.816678 0.701686
0.780148 0.820066 0.721401
0.804685 0.823575 0.738888
0.827420 0.829587 0.755764
0.839200 0.829099 0.750668
0.852476 0.828702 0.735409
0.866697 0.828336 0.721248
0.880339 0.827268 0.710933
0.892241 0.826291 0.706477
0.569543 0.816861 0.724300
0.570062 0.817075 0.724666
0.569207 0.817197 0.724392
0.566369 0.817044 0.723171
0.561852 0.816770 0.721218
0.555383 0.816464 0.718502
0.547601 0.816373 0.715480
0.537438 0.816312 0.711666
0.524163 0.816251 0.706935
0.506310 0.816190 0.700740
0.483986 0.816098 0.693385
0.453315 0.815732 0.683833
0.410498 0.815000 0.671717
0.347417 0.813779 0.656428
0.236057 0.811887 0.637201
0.162753 0.811643 0.620142
0.308934 0.815579 0.614343
0.394476 0.819547 0.610132
0.460151 0.823758 0.608606
0.548943 0.825498 0.632654
0.618250 0.827359 0.659876
0.670954 0.829618 0.684932
0.712642 0.831968 0.707179
0.746822 0.834318 0.726955
0.775357 0.836576 0.744350
0.799557 0.838743 0.760159
0.820188 0.841093 0.774746
0.838712 0.845487 0.788693
0.848417 0.845243 0.787045
0.859159 0.845151 0.776089
0.870329 0.845487 0.768978
0.880827 0.845396 0.764462
0.615503 0.835355 0.756741
0.615167 0.835355 0.756588
0.613977 0.835203 0.755978
0.611444 0.834928 0.754726
0.607324 0.834501 0.752712
0.601556 0.834012 0.749966
0.594018 0.833463 0.746517
0.584497 0.832883 0.742336
0.572137 0.832303 0.737057
0.556634 0.831693 0.730709
0.536492 0.831022 0.722896
0.510826 0.830350 0.713527
0.476173 0.829526 0.701869
0.429786 0.828458 0.687892
