20 Preset/INSTA/【3】LUT video cho PR-AE-FCPX/INS LUT (9).cube
# Created by Adobe Lightroom plugin Export LUT (1.24.0)
# www.johnrellis.com/lightroom/exportlut.htm
# Preset: INS胶片Tezza05[素材江湖]09
# Color profile: C:\Program Files (x86)\Common Files\Adobe\Color\Profiles\Recommended\VideoHD.icc
LUT_3D_SIZE 5
DOMAIN_MIN 0.000000 0.000000 0.000000
DOMAIN_MAX 0.903226 0.903226 0.903226
0.000000 0.000000 0.000000
0.227298 0.000000 0.021820
0.792569 0.000000 0.043153
1.000000 0.190036 0.262364
1.000000 0.517998 0.510216
0.116396 0.251316 0.180148
0.318181 0.268223 0.139193
0.781704 0.180941 0.040894
0.968353 0.362341 0.268956
1.000000 0.575036 0.545342
0.681086 0.752163 0.710597
0.683253 0.739712 0.685237
0.784665 0.746334 0.657465
0.903777 0.607111 0.367346
0.974090 0.676387 0.600183
0.812436 0.858946 0.855253
0.813413 0.858396 0.853513
0.821103 0.855558 0.845884
0.848936 0.846799 0.823667
0.924529 0.801511 0.735225
0.851408 0.878477 0.887877
0.852537 0.878508 0.888548
0.851835 0.877989 0.886961
0.853758 0.877531 0.884977
0.861173 0.872099 0.869749
0.000000 0.030640 0.080415
0.180697 0.014801 0.087312
0.724392 0.000000 0.028138
0.958740 0.182864 0.204013
1.000000 0.478706 0.451484
0.135775 0.226871 0.186160
0.308965 0.245731 0.161959
0.721462 0.207156 0.003784
0.939117 0.343877 0.220981
1.000000 0.530694 0.478401
0.653407 0.721248 0.675502
0.663844 0.715572 0.659754
0.763088 0.709834 0.601007
0.886259 0.578668 0.309239
0.972107 0.666957 0.581140
0.811093 0.857298 0.854063
0.812528 0.857053 0.852781
0.820218 0.854276 0.845274
0.847990 0.844694 0.820188
0.924193 0.798703 0.730037
0.851225 0.878569 0.887816
0.852445 0.878569 0.888548
0.852750 0.878325 0.887877
0.853880 0.877653 0.885344
0.861204 0.872038 0.869657
0.000000 0.098421 0.218357
0.137606 0.149294 0.199039
0.717769 0.000000 0.267491
0.951293 0.239689 0.232425
1.000000 0.494423 0.453315
0.114626 0.248356 0.324346
0.302617 0.281285 0.316869
0.753353 0.277226 0.314702
0.929503 0.384375 0.271183
1.000000 0.545068 0.483467
0.612238 0.691554 0.644556
0.661555 0.701564 0.673304
0.750851 0.680598 0.589746
0.877409 0.593835 0.392126
0.970733 0.659266 0.566308
0.802182 0.851286 0.847196
0.807248 0.850919 0.849241
0.815518 0.848936 0.842771
0.845243 0.838376 0.814023
0.927642 0.785824 0.705989
0.848051 0.878660 0.886137
0.850156 0.878691 0.887297
0.853666 0.878721 0.889097
0.854246 0.878019 0.886625
0.861387 0.871885 0.869200
0.000000 0.175906 0.444678
0.000000 0.218051 0.450172
0.579614 0.284276 0.507134
0.909667 0.366461 0.520378
1.000000 0.535302 0.546319
0.000000 0.287388 0.499153
0.245579 0.323583 0.498665
0.637171 0.391913 0.540429
0.900969 0.454047 0.535851
0.988586 0.564446 0.556420
0.396521 0.602045 0.610163
0.513420 0.608728 0.614130
0.718013 0.625940 0.616541
0.856016 0.627070 0.589380
0.960357 0.662440 0.619287
0.763485 0.829557 0.820798
0.778775 0.834592 0.829313
0.809232 0.842741 0.844419
0.837766 0.820706 0.798093
0.937682 0.765194 0.698512
0.841428 0.879088 0.883879
0.844022 0.879057 0.884916
0.852171 0.879210 0.888823
0.855253 0.878935 0.889403
0.861845 0.872160 0.870848
0.000000 0.291295 0.672114
0.000000 0.311162 0.674372
0.559258 0.533074 0.668971
0.814664 0.532433 0.718288
0.951659 0.622705 0.720546
0.000000 0.344610 0.676875
0.000000 0.363928 0.680385
0.578363 0.560235 0.677607
0.811643 0.567285 0.721004
0.947448 0.646082 0.730434
0.000000 0.483864 0.696651
0.000000 0.512444 0.704128
0.620905 0.633661 0.723171
0.811765 0.680171 0.754574
0.932464 0.712398 0.761807
0.453925 0.776425 0.794797
0.497658 0.773953 0.793454
0.639796 0.768795 0.792874
0.816526 0.791318 0.812833
0.909148 0.794491 0.807431
0.761044 0.882567 0.868925
0.772824 0.881712 0.870298
0.817960 0.879789 0.878782
0.856229 0.879789 0.891508
0.862608 0.873106 0.876982
