20 Preset/INSTA/【3】LUT video cho PR-AE-FCPX/INS LUT (8).cube
# Created by Adobe Lightroom plugin Export LUT (1.24.0)
# www.johnrellis.com/lightroom/exportlut.htm
# Preset: INS胶片Tezza04[素材江湖]08
# Color profile: C:\Program Files (x86)\Common Files\Adobe\Color\Profiles\Recommended\VideoHD.icc
LUT_3D_SIZE 32
DOMAIN_MIN 0.0 0.0 0.0
DOMAIN_MAX 1.0 1.0 1.0
0.000000 0.000000 0.000000
0.001282 0.000977 0.000000
0.017151 0.001373 0.001740
0.053407 0.003876 0.005188
0.095430 0.010254 0.012177
0.130861 0.015564 0.021363
0.184390 0.002716 0.029480
0.251926 0.000000 0.035981
0.327459 0.000000 0.042603
0.409064 0.000000 0.048066
0.493507 0.000000 0.053468
0.574853 0.000000 0.060670
0.649378 0.000000 0.077272
0.713924 0.000000 0.093111
0.767575 0.000000 0.108370
0.821988 0.000000 0.133211
0.868620 0.000000 0.168093
0.898924 0.000000 0.202976
0.921233 0.015991 0.237491
0.938262 0.205234 0.272831
0.951263 0.279820 0.309209
0.961059 0.336828 0.344610
0.968170 0.382879 0.378576
0.973968 0.422065 0.411322
0.978668 0.456306 0.443183
0.982605 0.487098 0.474067
0.985901 0.516472 0.505364
0.988678 0.544732 0.536553
0.990692 0.572839 0.568475
0.992096 0.600580 0.600580
0.993072 0.627131 0.631708
0.993194 0.645106 0.652949
0.000000 0.003388 0.001801
0.001953 0.001953 0.001953
0.018372 0.004517 0.003540
0.051942 0.008453 0.006867
0.094789 0.016022 0.012573
0.129091 0.022004 0.021759
0.180728 0.009003 0.029114
0.245457 0.000000 0.035981
0.318883 0.000000 0.041871
0.398077 0.000000 0.047761
0.480659 0.000000 0.052857
0.561578 0.000000 0.059968
0.636469 0.000000 0.073945
0.702358 0.000000 0.091035
0.757473 0.000000 0.105684
0.813504 0.000000 0.129366
0.860410 0.000000 0.161624
0.891295 0.000000 0.193912
0.914366 0.000000 0.226993
0.932219 0.175845 0.260472
0.945983 0.256352 0.295140
0.956573 0.314702 0.328985
0.964385 0.361639 0.361303
0.970672 0.402319 0.393652
0.975830 0.437873 0.425299
0.980316 0.469764 0.456123
0.984100 0.500389 0.488106
0.987396 0.529992 0.520195
0.989899 0.559442 0.553307
0.991669 0.588739 0.587030
0.992859 0.616907 0.619867
0.993317 0.643671 0.651423
0.003754 0.021576 0.011658
0.005432 0.021332 0.012787
0.014923 0.023590 0.013428
0.051514 0.030701 0.011749
0.095918 0.037842 0.018555
0.131838 0.041718 0.026734
0.182773 0.028473 0.032959
0.245792 0.000000 0.038880
0.316655 0.000000 0.044495
0.393622 0.000000 0.049500
0.474617 0.000000 0.054444
0.554345 0.000000 0.060426
0.628717 0.000000 0.075532
0.694514 0.000000 0.091218
0.750118 0.000000 0.105165
0.808377 0.000000 0.129030
0.853819 0.000000 0.158816
0.884764 0.000000 0.190097
0.908324 0.000000 0.221164
0.927001 0.170199 0.253971
0.941527 0.250828 0.288365
0.952728 0.309453 0.321935
0.961151 0.355871 0.354040
0.967956 0.395880 0.385534
0.973449 0.431281 0.416999
0.978271 0.463111 0.447852
0.982391 0.493996 0.479774
0.985931 0.524071 0.512505
0.988891 0.553643 0.545739
0.990906 0.583490 0.580102
0.992309 0.612146 0.613764
0.993042 0.639277 0.645777
0.014801 0.058686 0.035737
0.018463 0.058228 0.036866
0.026398 0.059510 0.038788
0.049195 0.066987 0.039582
0.100893 0.078889 0.031800
0.140505 0.078889 0.034363
0.191836 0.066590 0.040009
0.252171 0.029725 0.044190
0.320745 0.000000 0.048066
0.395239 0.000000 0.052277
0.473487 0.000000 0.056580
0.550408 0.000000 0.064210
0.623133 0.000000 0.079042
0.687495 0.000000 0.092378
0.742214 0.000000 0.106355
0.803006 0.000000 0.130831
0.845090 0.000000 0.157443
0.874754 0.000000 0.185031
0.898009 0.000000 0.213657
0.916991 0.167941 0.243931
0.932525 0.240848 0.274937
0.944793 0.297642 0.307591
0.954559 0.344366 0.339452
0.962646 0.385809 0.372107
0.969360 0.423560 0.405371
0.975036 0.458473 0.439368
0.979980 0.491341 0.473610
0.984100 0.522881 0.508446
0.987427 0.553491 0.543420
0.989715 0.583368 0.578180
0.991363 0.611414 0.611414
0.992309 0.637568 0.642603
0.033906 0.099794 0.074617
0.036591 0.100038 0.076722
0.052247 0.099763 0.080690
0.071412 0.101595 0.079255
0.101747 0.107729 0.078920
0.150362 0.112490 0.056153
0.200198 0.105531 0.046113
0.257511 0.096345 0.049256
0.321874 0.058473 0.051423
0.392523 0.000000 0.054566
0.466957 0.000000 0.059571
0.541497 0.000000 0.068269
0.612543 0.000000 0.082521
0.676967 0.000000 0.095064
0.739528 0.000000 0.110872
0.795560 0.000000 0.133608
0.836362 0.000000 0.158816
0.866331 0.000000 0.185550
0.890013 0.118471 0.212985
0.909636 0.201633 0.242466
0.925628 0.261082 0.273442
0.938628 0.309941 0.304601
0.949065 0.353277 0.336828
0.957946 0.392645 0.369818
0.965332 0.429206 0.403510
0.971649 0.463111 0.437659
0.977081 0.495003 0.472297
0.981598 0.525658 0.507195
0.985199 0.555200 0.541741
0.987884 0.583978 0.575952
0.989837 0.611353 0.608911
0.991119 0.636866 0.639796
0.041077 0.143618 0.105928
0.046387 0.143893 0.107179
0.079957 0.143008 0.112673
0.094362 0.145022 0.111482
0.116670 0.147799 0.107912
0.159274 0.157412 0.105898
0.221469 0.159976 0.083497
0.271885 0.140780 0.053986
0.332494 0.128756 0.053590
0.400824 0.107973 0.057465
0.471901 0.044282 0.064912
0.543481 0.000000 0.075990
0.611780 0.000000 0.088655
0.678523 0.000000 0.101320
0.743099 0.000000 0.119966
0.793973 0.000000 0.141817
0.832181 0.000000 0.166140
0.861357 0.143496 0.192721
0.884886 0.204837 0.220859
0.904417 0.254978 0.249760
0.920562 0.300328 0.280583
0.933745 0.341650 0.312444
0.962554 0.475471 0.434058
0.968536 0.502525 0.465980
0.973541 0.527581 0.496529
0.977691 0.551385 0.526177
0.981109 0.574212 0.554772
0.983703 0.596704 0.583215
0.985931 0.618250 0.610468
0.987610 0.638972 0.636622
0.988464 0.656886 0.658900
0.989288 0.654841 0.657862
0.085267 0.228763 0.162417
0.092714 0.229099 0.164340
0.117006 0.228733 0.171145
0.138643 0.230014 0.173526
0.163058 0.231785 0.168246
0.199924 0.233127 0.161044
0.263890 0.245487 0.156130
0.337438 0.241733 0.119600
0.388556 0.211246 0.089418
0.441016 0.183352 0.065156
0.511650 0.169497 0.079286
0.580438 0.154238 0.091249
0.655238 0.148440 0.106020
0.724331 0.161868 0.125917
0.777798 0.187289 0.149294
0.817258 0.216342 0.173648
0.847562 0.247532 0.199771
0.871855 0.279789 0.226932
0.892546 0.313878 0.256657
0.910491 0.349889 0.289494
0.925902 0.387091 0.325170
0.938964 0.424659 0.364019
0.949767 0.460517 0.403784
0.958679 0.493751 0.443824
0.965942 0.523186 0.480995
0.971527 0.549218 0.514702
0.976043 0.572290 0.545037
0.979522 0.594232 0.573968
0.982330 0.615442 0.601892
0.984741 0.635370 0.627955
0.986389 0.654719 0.652918
0.987243 0.659876 0.660456
0.139040 0.305211 0.219333
0.144747 0.305119 0.220890
0.165713 0.305730 0.227909
0.189670 0.306584 0.232914
0.209049 0.307408 0.227604
0.240909 0.308415 0.220706
0.283818 0.308965 0.211978
0.356909 0.323796 0.205631
0.429267 0.318547 0.162661
0.476661 0.286107 0.125399
0.523125 0.248112 0.094392
0.594171 0.244724 0.101839
0.662074 0.249699 0.117861
0.719020 0.258824 0.137179
0.765835 0.271885 0.157595
0.802640 0.287175 0.179690
0.832212 0.305791 0.203708
0.856779 0.326879 0.229526
0.878202 0.351476 0.257481
0.897063 0.379370 0.288823
0.913512 0.409766 0.323247
0.927733 0.441413 0.360632
0.939818 0.472572 0.399298
0.949920 0.502190 0.438270
0.958221 0.529534 0.475471
0.964874 0.553582 0.509087
0.970275 0.575494 0.539666
0.974609 0.596429 0.568872
0.978180 0.616876 0.597070
0.981140 0.636378 0.623621
0.983520 0.655116 0.648859
0.984771 0.665827 0.663508
0.217411 0.389136 0.286656
0.221653 0.389380 0.288304
0.237827 0.389868 0.294347
0.260807 0.390875 0.301335
0.275944 0.390967 0.296178
0.300114 0.390845 0.289342
0.334173 0.390448 0.280919
0.386969 0.397070 0.276585
0.470649 0.423529 0.278935
0.543297 0.424292 0.236027
0.589441 0.396948 0.194430
0.625086 0.357183 0.153597
0.661341 0.324956 0.131136
0.711879 0.331914 0.148836
0.755062 0.340368 0.168521
0.790005 0.350134 0.189944
0.819242 0.362127 0.213199
0.843717 0.376837 0.237919
0.865537 0.394812 0.265568
0.884916 0.416388 0.296025
0.902098 0.440497 0.328832
0.917113 0.466316 0.365026
0.930114 0.492378 0.402228
0.941070 0.518090 0.440253
0.950317 0.542168 0.476295
0.957855 0.563928 0.509300
0.964050 0.584192 0.539910
0.969146 0.603754 0.568933
0.973480 0.622827 0.596735
0.977173 0.641047 0.622889
0.980133 0.658930 0.647944
0.981872 0.672694 0.667079
0.326207 0.485084 0.374853
0.329137 0.485115 0.376013
0.341863 0.485908 0.381811
0.362860 0.488106 0.390784
0.375189 0.489479 0.387793
0.394293 0.490913 0.383734
0.421088 0.492134 0.378088
0.456703 0.493843 0.371740
0.499702 0.494606 0.363745
0.565759 0.513207 0.363226
0.618860 0.508476 0.314916
0.653223 0.481727 0.266728
0.680537 0.443427 0.218387
0.701472 0.395880 0.170260
0.739345 0.392523 0.177859
0.775357 0.401434 0.199832
0.805692 0.411994 0.223972
0.831479 0.424384 0.250523
0.854093 0.439094 0.278447
0.873960 0.455970 0.308446
0.891386 0.474006 0.339910
0.906432 0.493080 0.372625
0.919524 0.512657 0.406043
0.930907 0.532464 0.439643
0.940795 0.551781 0.472358
0.949218 0.570489 0.503624
0.956451 0.588861 0.533684
0.962585 0.607416 0.563134
0.967773 0.626093 0.592096
0.972320 0.644343 0.619532
0.976165 0.662013 0.645441
0.978882 0.679316 0.670100
0.433387 0.565545 0.463020
0.435431 0.565667 0.464027
0.444892 0.566522 0.469123
0.460700 0.567773 0.477424
0.467994 0.567773 0.474403
0.479377 0.567803 0.470100
0.496071 0.567529 0.464515
0.518486 0.567620 0.458381
0.546899 0.567559 0.451423
0.580835 0.567529 0.443793
0.632166 0.582025 0.443366
0.671931 0.575525 0.397406
0.699092 0.551629 0.346746
0.721920 0.519005 0.294804
0.740719 0.477699 0.241459
0.762417 0.447822 0.213382
0.792844 0.456306 0.237583
0.818692 0.465644 0.263432
0.841550 0.476783 0.290684
0.861753 0.489631 0.319890
0.879667 0.503563 0.349798
0.895354 0.518700 0.380865
0.909270 0.534997 0.412940
0.921477 0.551720 0.445563
0.932128 0.568536 0.477546
0.941314 0.585168 0.508141
0.949279 0.601801 0.537804
0.956176 0.618769 0.566827
0.962158 0.635920 0.595209
0.967498 0.652735 0.622065
0.971954 0.669337 0.647669
0.975280 0.685695 0.672053
0.520928 0.627832 0.541985
0.522789 0.628199 0.543206
0.528588 0.628717 0.546807
0.540703 0.630060 0.554711
0.545708 0.630060 0.553063
0.552392 0.629816 0.549767
0.562676 0.629786 0.545922
0.576532 0.629480 0.541009
0.594568 0.629328 0.535668
0.616876 0.628962 0.529534
0.645563 0.630823 0.525292
0.680323 0.638361 0.523919
0.742947 0.679561 0.565393
0.762661 0.658473 0.516503
0.780484 0.630243 0.461433
0.797147 0.595422 0.398993
0.812100 0.553246 0.330510
0.833158 0.552209 0.343481
0.853025 0.559564 0.370825
0.870665 0.568048 0.398596
0.886229 0.577539 0.427008
0.899992 0.587732 0.455024
0.912108 0.598596 0.483070
0.922911 0.610285 0.510765
0.932464 0.622065 0.537224
0.940703 0.634028 0.562585
0.947967 0.645624 0.586328
0.954376 0.657313 0.608850
0.960113 0.669123 0.630488
0.965209 0.681300 0.651637
0.969268 0.693904 0.672419
0.971405 0.696956 0.679622
0.624964 0.700801 0.648981
0.625360 0.700587 0.649073
0.627253 0.699947 0.649989
0.632166 0.699611 0.653040
0.633661 0.697780 0.650813
0.634333 0.695308 0.645655
0.637324 0.693294 0.640436
0.642969 0.691676 0.635340
0.652216 0.691005 0.631037
0.665309 0.691463 0.627955
0.682429 0.693050 0.626215
0.705959 0.699001 0.629816
0.731136 0.705898 0.631128
0.753719 0.700618 0.602350
0.772732 0.685389 0.564813
0.789670 0.662867 0.519097
0.805570 0.633845 0.464698
0.820737 0.598566 0.401617
0.837461 0.577508 0.372198
0.855772 0.584222 0.398352
0.872160 0.591791 0.425269
0.886839 0.600549 0.452705
0.899962 0.609918 0.479957
0.911833 0.620294 0.507408
0.922423 0.631006 0.533867
0.931701 0.642084 0.559625
0.939879 0.653346 0.584253
0.947326 0.664607 0.607507
0.954009 0.676143 0.630030
0.959899 0.688106 0.651881
0.964752 0.700282 0.673121
0.967468 0.705837 0.684169
0.655451 0.727260 0.684504
0.655390 0.726802 0.684199
0.656550 0.726070 0.684504
0.659632 0.725368 0.686152
0.661707 0.723934 0.685725
0.661738 0.721553 0.681239
0.663355 0.719570 0.676905
0.667048 0.718105 0.672877
0.673426 0.717647 0.669673
0.682795 0.718074 0.667567
0.695338 0.719631 0.666682
0.710536 0.721706 0.666346
0.731044 0.727932 0.670954
0.751125 0.732418 0.669825
0.768856 0.726528 0.644923
0.784085 0.712428 0.612207
0.798245 0.692470 0.572473
0.812924 0.667414 0.524315
0.827787 0.637934 0.469459
0.842649 0.603632 0.406989
0.859586 0.608087 0.428595
0.875120 0.615747 0.455390
0.889097 0.624292 0.482582
0.901823 0.633661 0.509850
0.913176 0.643549 0.536584
0.923278 0.653864 0.562493
0.932403 0.664210 0.586908
0.940642 0.674647 0.610132
0.948058 0.685481 0.632624
0.954711 0.696651 0.654383
0.960174 0.708370 0.675807
0.963409 0.714900 0.688869
0.682429 0.751614 0.716823
0.682673 0.751431 0.716915
0.683314 0.750851 0.716945
0.685512 0.750118 0.718013
0.688167 0.749081 0.718959
0.687587 0.746822 0.715023
0.688319 0.745022 0.711269
0.690730 0.743740 0.707973
0.695094 0.743160 0.705318
0.701869 0.743587 0.703700
0.711025 0.744839 0.702968
0.722347 0.746639 0.702876
0.735225 0.748409 0.702632
0.752499 0.753658 0.706996
0.768399 0.755673 0.703120
0.782345 0.748592 0.679377
0.794888 0.735592 0.650721
0.806577 0.718410 0.618067
0.819516 0.697261 0.578241
0.833768 0.671992 0.530358
0.848722 0.643366 0.476448
0.864439 0.631739 0.461158
0.879118 0.639246 0.487617
0.892363 0.647669 0.514366
0.904417 0.656641 0.540734
0.915282 0.666102 0.566400
0.925139 0.676020 0.591394
0.934264 0.686183 0.615106
0.942596 0.696864 0.638270
0.950042 0.708003 0.660822
0.956023 0.719997 0.683406
0.959258 0.724025 0.693477
0.704158 0.771664 0.743099
0.704677 0.771847 0.743557
0.705837 0.771817 0.744289
0.707973 0.771847 0.745754
0.711635 0.772061 0.748379
0.712612 0.771298 0.747127
0.713863 0.770687 0.745388
0.716182 0.770413 0.743771
0.719692 0.770474 0.742367
0.724392 0.770687 0.741054
0.730373 0.771023 0.739651
0.737636 0.771328 0.738064
0.746090 0.771359 0.735988
0.755612 0.770871 0.733150
0.769192 0.773922 0.735256
0.781338 0.773312 0.728420
0.792782 0.765774 0.706020
0.803708 0.753964 0.680232
0.813993 0.739132 0.652766
0.825376 0.721462 0.620691
0.838468 0.701045 0.582879
0.853513 0.677546 0.538262
0.869841 0.654383 0.494423
0.883909 0.662531 0.521538
0.896666 0.671260 0.548363
0.908324 0.680507 0.574670
0.918975 0.689998 0.599664
0.928771 0.699672 0.623468
0.937713 0.709590 0.646143
0.945556 0.719844 0.668055
0.951812 0.730770 0.689876
0.955077 0.733150 0.698024
0.723293 0.789242 0.765835
0.723598 0.789273 0.766018
0.724483 0.789303 0.766659
0.726497 0.789548 0.768093
0.729671 0.790005 0.770443
0.731960 0.790066 0.771328
0.732937 0.789670 0.770047
0.734524 0.789364 0.768704
0.736995 0.789273 0.767453
0.740291 0.789273 0.766201
0.744625 0.789425 0.764950
0.749996 0.789548 0.763577
0.756252 0.789517 0.761807
0.763302 0.789029 0.759426
0.771298 0.788083 0.756344
0.783200 0.790616 0.758297
0.793210 0.789151 0.750881
0.802792 0.782101 0.731136
0.812589 0.771664 0.708431
0.821927 0.758633 0.684474
0.832334 0.744045 0.658442
0.844236 0.727382 0.628748
0.858244 0.708492 0.593988
0.874784 0.686915 0.552300
0.889494 0.685481 0.556329
0.901762 0.694423 0.582818
0.913146 0.703578 0.608026
0.923674 0.712917 0.631800
0.933227 0.722408 0.654383
0.941466 0.732265 0.676326
0.947906 0.742824 0.698360
0.951019 0.742092 0.702388
0.743008 0.806821 0.788296
0.743374 0.807065 0.788693
0.762203 0.822385 0.808560
0.763729 0.822599 0.809598
0.766140 0.822965 0.811215
0.768765 0.823270 0.812863
0.769009 0.822660 0.811643
0.769650 0.822110 0.810300
0.770962 0.821744 0.809110
0.772885 0.821469 0.807858
0.775418 0.821195 0.806607
0.778500 0.820798 0.804990
0.782010 0.820005 0.802823
0.786007 0.818814 0.800046
0.790646 0.817166 0.796597
0.796017 0.815061 0.792447
0.804837 0.815946 0.792782
0.811612 0.812833 0.784176
0.818296 0.805447 0.766262
0.825956 0.795712 0.746120
0.833890 0.784115 0.725063
0.843290 0.771389 0.702693
0.854337 0.757229 0.677974
0.867094 0.741665 0.650507
0.882170 0.724056 0.618341
0.898009 0.712642 0.599207
0.909239 0.719844 0.621271
0.919707 0.727474 0.642573
0.929351 0.735653 0.663630
0.937682 0.744808 0.685115
0.944182 0.754665 0.706722
0.946960 0.750912 0.706630
0.765194 0.825711 0.812100
0.766903 0.826932 0.813748
0.769223 0.828336 0.815824
0.771969 0.829679 0.818173
0.775051 0.830808 0.820584
0.778286 0.831632 0.822965
0.779202 0.831449 0.822751
0.779568 0.830961 0.821592
0.780392 0.830533 0.820432
0.781674 0.830137 0.819242
0.783536 0.829831 0.818082
0.785824 0.829465 0.816709
0.788418 0.828794 0.814878
0.791562 0.827848 0.812680
0.795071 0.826627 0.809964
0.799313 0.825040 0.806790
0.804257 0.823209 0.803159
0.812558 0.824460 0.804318
0.818723 0.821744 0.796536
0.824887 0.815579 0.781491
0.832029 0.807431 0.764492
0.839780 0.798123 0.747311
0.848753 0.787564 0.728664
0.859342 0.775631 0.707820
0.871641 0.762356 0.684535
0.886137 0.747951 0.658656
0.903288 0.732357 0.629633
0.914672 0.738094 0.647517
0.924743 0.745998 0.668696
0.933471 0.754788 0.690211
0.940276 0.764309 0.711971
0.942962 0.759548 0.710658
0.776974 0.835233 0.824002
0.778561 0.836332 0.825467
0.780667 0.837583 0.827359
0.783078 0.838773 0.829374
0.785916 0.839841 0.831571
0.788785 0.840604 0.833616
0.790677 0.840848 0.834562
0.790860 0.840421 0.833616
0.791379 0.839994 0.832609
0.792203 0.839567 0.831540
0.793454 0.839231 0.830411
0.795102 0.838834 0.829252
0.796963 0.838254 0.827726
0.799344 0.837583 0.825986
0.802029 0.836606 0.823850
0.805203 0.835447 0.821408
0.808988 0.834012 0.818509
0.813443 0.832395 0.815335
0.820920 0.833646 0.816800
0.826261 0.831113 0.809659
0.831662 0.825620 0.796506
0.838163 0.818845 0.782162
0.845457 0.811063 0.767666
0.853971 0.802182 0.751949
0.863981 0.792203 0.734463
0.875853 0.781216 0.715175
0.890013 0.769406 0.693996
0.906920 0.757137 0.671382
0.920684 0.756741 0.674525
0.929656 0.765103 0.696071
0.936400 0.773953 0.717159
0.939117 0.768002 0.714565
0.788785 0.844297 0.835416
0.790036 0.845151 0.836606
0.791775 0.846098 0.838071
0.793820 0.847013 0.839658
0.796139 0.847837 0.841428
0.798520 0.848447 0.843076
0.801236 0.849027 0.844938
0.801419 0.848722 0.844297
0.801785 0.848386 0.843473
0.802335 0.848020 0.842588
0.803189 0.847684 0.841642
0.804349 0.847349 0.840635
0.805692 0.846891 0.839414
0.807401 0.846311 0.837980
0.809476 0.845640 0.836362
0.811978 0.844846 0.834531
0.815091 0.844022 0.832639
0.818875 0.843198 0.830716
0.823392 0.842435 0.828824
0.830320 0.844114 0.831174
0.835203 0.842313 0.825559
0.840269 0.838254 0.815366
0.846342 0.833066 0.804135
0.853391 0.827298 0.792935
0.861631 0.820859 0.781186
0.871489 0.813718 0.768399
0.883299 0.806027 0.754635
0.897459 0.798154 0.740352
0.914183 0.790311 0.725795
0.929778 0.786648 0.720821
0.932708 0.782193 0.720668
0.935424 0.776181 0.718135
0.806394 0.856596 0.851591
0.806912 0.856870 0.852018
0.807645 0.857145 0.852537
0.808530 0.857359 0.853147
0.809781 0.857603 0.853971
0.811337 0.857786 0.854917
0.813291 0.858061 0.856168
0.814481 0.858122 0.856626
0.814603 0.857816 0.855955
0.815000 0.857572 0.855314
0.815549 0.857328 0.854612
0.816342 0.857053 0.853819
0.817258 0.856718 0.852842
0.818387 0.856260 0.851713
0.819730 0.855680 0.850401
0.821408 0.855039 0.848905
0.823453 0.854276 0.847257
0.825986 0.853483 0.845518
0.829068 0.852689 0.843748
0.832761 0.851926 0.841947
0.838193 0.852873 0.843565
0.841886 0.850828 0.838010
0.846006 0.846921 0.828702
0.851194 0.842191 0.818448
0.857664 0.837217 0.808560
0.865415 0.832059 0.798825
0.874876 0.826566 0.788724
0.886229 0.821042 0.778561
0.899687 0.815671 0.768612
0.914214 0.810300 0.758877
0.928252 0.791287 0.726436
0.931823 0.784146 0.721492
0.815518 0.862486 0.859586
0.815915 0.862699 0.859922
0.816464 0.862882 0.860319
0.817288 0.863096 0.860868
0.818326 0.863249 0.861540
0.819638 0.863432 0.862333
0.821225 0.863645 0.863340
0.823239 0.863981 0.864652
0.823423 0.863798 0.864225
0.823636 0.863615 0.863676
0.824033 0.863432 0.863127
0.824582 0.863188 0.862516
0.825223 0.862974 0.861784
0.826047 0.862638 0.860960
0.827024 0.862272 0.859983
0.828305 0.861845 0.858885
0.829831 0.861357 0.857755
0.831693 0.860838 0.856504
0.833982 0.860319 0.855192
0.836759 0.859739 0.853849
0.840146 0.859373 0.852689
0.844358 0.859922 0.853910
0.847349 0.858091 0.849119
0.851041 0.854917 0.841306
0.854582 0.848966 0.829313
0.860655 0.844877 0.820798
0.868040 0.840909 0.813016
0.877043 0.836973 0.805356
0.887816 0.833188 0.798062
0.899504 0.829129 0.790555
0.910979 0.814542 0.765988
0.924224 0.796872 0.736019
0.826474 0.868772 0.868803
0.826963 0.868986 0.869200
0.827359 0.869139 0.869505
0.827817 0.869139 0.869749
0.828305 0.869108 0.869993
0.828977 0.869078 0.870329
0.829862 0.869017 0.870787
0.831052 0.869017 0.871458
0.831754 0.868925 0.871672
0.831540 0.868559 0.870970
0.831357 0.868193 0.870176
0.831449 0.867857 0.869444
0.831601 0.867491 0.868620
0.831846 0.867094 0.867674
0.832242 0.866606 0.866606
0.832822 0.866056 0.865446
0.833707 0.865537 0.864256
0.834958 0.865049 0.863066
0.836667 0.864622 0.862028
0.838865 0.864286 0.861051
0.841398 0.863951 0.860136
0.844572 0.863828 0.859373
0.847868 0.864012 0.860258
0.850340 0.862272 0.855802
0.853574 0.859342 0.848569
0.857816 0.855833 0.840604
0.863401 0.852476 0.833280
0.870329 0.849485 0.826993
0.878721 0.846677 0.821134
0.887877 0.843137 0.814359
0.897215 0.831937 0.795254
0.907927 0.818448 0.772610
0.831662 0.871550 0.873075
0.832090 0.871702 0.873381
0.832486 0.871824 0.873686
0.832914 0.871885 0.873960
0.833494 0.871946 0.874327
0.834257 0.872007 0.874723
0.835233 0.872099 0.875334
0.836484 0.872221 0.876097
0.837949 0.872404 0.877012
0.838254 0.872374 0.876921
0.838285 0.872190 0.876524
0.838407 0.872038 0.876066
0.838499 0.871824 0.875517
0.838651 0.871550 0.874846
0.838865 0.871214 0.874052
0.839139 0.870817 0.873167
0.839658 0.870420 0.872190
0.840391 0.870054 0.871275
0.841520 0.869718 0.870420
0.842954 0.869444 0.869627
0.844755 0.869200 0.868894
0.846799 0.868925 0.868162
0.849363 0.868864 0.867582
0.851713 0.868803 0.868101
0.853788 0.867430 0.864530
0.856718 0.865263 0.858732
0.860685 0.862760 0.852506
0.865873 0.860502 0.846952
0.872251 0.858915 0.842924
0.878721 0.853544 0.832761
0.886229 0.845060 0.817685
0.894896 0.834775 0.800076
0.838071 0.874449 0.878141
0.838224 0.874510 0.878294
0.838437 0.874571 0.878416
0.838743 0.874571 0.878599
0.839139 0.874601 0.878843
0.839719 0.874632 0.879149
0.840421 0.874662 0.879545
0.841337 0.874723 0.880095
0.842435 0.874846 0.880766
0.843473 0.874937 0.881376
0.843412 0.874815 0.881041
0.843442 0.874662 0.880705
0.843503 0.874540 0.880278
0.843534 0.874357 0.879820
0.843626 0.874113 0.879210
0.843778 0.873838 0.878538
0.843992 0.873594 0.877806
0.844480 0.873289 0.877104
0.845182 0.873075 0.876432
0.846159 0.872862 0.875822
0.847410 0.872679 0.875273
0.848814 0.872496 0.874693
0.850401 0.872282 0.874052
0.852445 0.872221 0.873533
0.854063 0.871977 0.873899
0.855833 0.870878 0.870848
0.858488 0.869291 0.866117
0.862119 0.867460 0.861082
0.866850 0.865965 0.856809
0.871672 0.861173 0.847105
0.877562 0.854826 0.835111
0.884459 0.847074 0.821225
0.842588 0.876249 0.881651
0.842679 0.876280 0.881712
0.842863 0.876310 0.881865
0.843168 0.876341 0.882017
0.843565 0.876402 0.882261
0.844175 0.876463 0.882628
0.844999 0.876585 0.883177
0.846036 0.876738 0.883818
0.847196 0.876921 0.884581
0.848447 0.877134 0.885435
0.849210 0.877256 0.885863
0.849485 0.877287 0.885893
0.849729 0.877317 0.885863
0.849912 0.877317 0.885740
0.850095 0.877226 0.885557
0.850187 0.877134 0.885222
0.850309 0.877012 0.884825
0.850492 0.876890 0.884428
0.850858 0.876799 0.884062
0.851316 0.876707 0.883726
0.851926 0.876585 0.883360
0.852689 0.876524 0.883024
0.853544 0.876371 0.882597
0.854520 0.876249 0.882139
0.855741 0.876219 0.881773
0.856626 0.875975 0.882017
0.857908 0.875303 0.879850
0.859800 0.873259 0.874022
0.862577 0.870420 0.866850
0.866331 0.866636 0.858244
0.870878 0.861997 0.848661
0.876280 0.856229 0.837644
0.848966 0.878233 0.886381
0.848997 0.878233 0.886381
0.849058 0.878202 0.886412
0.849149 0.878233 0.886473
0.849332 0.878202 0.886564
0.849638 0.878202 0.886748
0.850004 0.878233 0.886961
0.850492 0.878264 0.887266
0.851102 0.878294 0.887633
0.851804 0.878325 0.888029
0.852476 0.878416 0.888518
0.852628 0.878416 0.888518
0.852659 0.878386 0.888396
0.852689 0.878355 0.888243
