20 Preset/INSTA/【3】LUT video cho PR-AE-FCPX/INS LUT (10).cube
# Created by Adobe Lightroom plugin Export LUT (1.24.0)
# www.johnrellis.com/lightroom/exportlut.htm
# Preset: INS胶片-复古[素材江湖]10
# Color profile: C:\Program Files (x86)\Common Files\Adobe\Color\Profiles\Recommended\VideoHD.icc
LUT_3D_SIZE 32
DOMAIN_MIN 0.0 0.0 0.0
DOMAIN_MAX 1.0 1.0 1.0
0.139712 0.075441 0.090517
0.141726 0.074311 0.090486
0.146181 0.072847 0.090822
0.154208 0.071290 0.091005
0.170199 0.064942 0.091035
0.196750 0.052430 0.091554
0.235080 0.027070 0.091188
0.283818 0.000000 0.090700
0.341344 0.000000 0.088930
0.406256 0.000000 0.085603
0.478614 0.000000 0.079805
0.555383 0.000000 0.066743
0.634180 0.000000 0.047089
0.709071 0.000000 0.023194
0.774105 0.000000 0.000000
0.827481 0.000000 0.000000
0.872465 0.000000 0.000000
0.910948 0.000000 0.000000
0.945586 0.000000 0.000000
0.975616 0.000000 0.000000
1.000000 0.000000 0.000000
1.000000 0.000000 0.000000
1.000000 0.000000 0.000000
1.000000 0.000000 0.000000
1.000000 0.000000 0.000000
1.000000 0.000000 0.000000
1.000000 0.000000 0.000000
1.000000 0.000000 0.000000
1.000000 0.000000 0.000000
1.000000 0.000000 0.000000
1.000000 0.152377 0.000000
1.000000 0.217502 0.000000
0.140505 0.077180 0.091218
0.141115 0.075746 0.090852
0.145480 0.075471 0.091127
0.153719 0.072724 0.090944
0.168978 0.068025 0.091371
0.194034 0.057069 0.091493
0.230014 0.033875 0.091615
0.275761 0.000000 0.090822
0.330846 0.000000 0.089631
0.392828 0.000000 0.086458
0.462043 0.000000 0.081270
0.537133 0.000000 0.069215
0.614588 0.000000 0.050904
0.690364 0.000000 0.028321
0.757137 0.000000 0.001984
0.813565 0.000000 0.000000
0.860563 0.000000 0.000000
0.900938 0.000000 0.000000
0.936614 0.000000 0.000000
0.967498 0.000000 0.000000
0.996979 0.000000 0.000000
1.000000 0.000000 0.000000
1.000000 0.000000 0.000000
1.000000 0.000000 0.000000
1.000000 0.000000 0.000000
1.000000 0.000000 0.000000
1.000000 0.000000 0.000000
1.000000 0.000000 0.000000
1.000000 0.000000 0.000000
1.000000 0.000000 0.000000
1.000000 0.105806 0.000000
1.000000 0.190311 0.000000
0.143191 0.081422 0.092927
0.143191 0.081422 0.092927
0.145449 0.081331 0.092409
0.152468 0.080781 0.092195
0.166903 0.078981 0.092134
0.190127 0.071534 0.092226
0.223423 0.052155 0.092012
0.266392 0.018189 0.091218
0.318059 0.000000 0.090181
0.377844 0.000000 0.087526
0.444953 0.000000 0.081971
0.518761 0.000000 0.072084
0.594781 0.000000 0.054505
0.670588 0.000000 0.031342
0.739223 0.000000 0.005127
0.797971 0.000000 0.000000
0.847410 0.000000 0.000000
0.889708 0.000000 0.000000
0.926970 0.000000 0.000000
0.959625 0.000000 0.000000
0.991577 0.000000 0.000000
1.000000 0.000000 0.000000
1.000000 0.000000 0.000000
1.000000 0.000000 0.000000
1.000000 0.000000 0.000000
1.000000 0.000000 0.000000
1.000000 0.000000 0.000000
1.000000 0.000000 0.000000
1.000000 0.000000 0.000000
1.000000 0.000000 0.000000
1.000000 0.088411 0.000000
1.000000 0.182101 0.000000
0.147890 0.090089 0.096345
0.147768 0.090517 0.096315
0.149325 0.090181 0.095888
0.154940 0.089754 0.094972
0.166812 0.088930 0.093812
0.185092 0.087831 0.093904
0.214847 0.080659 0.093172
0.253910 0.057954 0.092348
0.302739 0.014405 0.090852
0.359533 0.000000 0.088472
0.423743 0.000000 0.083375
0.494240 0.000000 0.073640
0.568872 0.000000 0.056458
0.643549 0.000000 0.033783
0.714168 0.000000 0.006317
0.775296 0.000000 0.000000
0.826810 0.000000 0.000000
0.870909 0.000000 0.000000
0.909667 0.000000 0.000000
0.944152 0.000000 0.000000
0.979889 0.000000 0.000000
1.000000 0.000000 0.000000
1.000000 0.000000 0.000000
1.000000 0.000000 0.000000
1.000000 0.000000 0.000000
1.000000 0.000000 0.000000
1.000000 0.000000 0.000000
1.000000 0.000000 0.000000
1.000000 0.000000 0.000000
1.000000 0.000000 0.000000
1.000000 0.116335 0.000000
1.000000 0.189578 0.000000
0.154635 0.101991 0.102052
0.155032 0.101930 0.101686
0.155673 0.101472 0.100649
0.159609 0.100313 0.100282
0.169833 0.100252 0.098024
0.185458 0.098177 0.096040
0.206943 0.096315 0.094789
0.236118 0.092226 0.093874
0.278965 0.079225 0.092012
0.330571 0.034577 0.089662
0.390387 0.000000 0.085725
0.457130 0.000000 0.076600
0.529290 0.000000 0.060273
0.604089 0.000000 0.037873
0.677516 0.000000 0.009400
0.743343 0.000000 0.000000
0.801541 0.000000 0.000000
0.850370 0.000000 0.000000
0.892393 0.000000 0.000000
0.929625 0.000000 0.000000
0.970336 0.000000 0.000000
1.000000 0.000000 0.000000
1.000000 0.000000 0.000000
1.000000 0.000000 0.000000
1.000000 0.000000 0.000000
1.000000 0.000000 0.000000
1.000000 0.000000 0.000000
1.000000 0.000000 0.000000
1.000000 0.000000 0.000000
1.000000 0.001190 0.000000
1.000000 0.149538 0.000000
1.000000 0.206821 0.000000
0.162234 0.119966 0.109438
0.162600 0.119905 0.109102
0.162600 0.119112 0.107210
0.165805 0.117433 0.106355
0.173739 0.115938 0.104952
0.189822 0.115877 0.101778
0.211185 0.112184 0.099123
0.235966 0.109590 0.095277
0.264500 0.105074 0.093874
0.306004 0.097780 0.091432
0.361456 0.078218 0.087587
0.425147 0.008789 0.079377
0.494728 0.000000 0.062043
0.568200 0.000000 0.038758
0.643305 0.000000 0.009522
0.714168 0.000000 0.000000
0.776822 0.000000 0.000000
0.830228 0.000000 0.000000
0.875792 0.000000 0.000000
0.919188 0.000000 0.000000
0.962432 0.000000 0.000000
0.996582 0.000000 0.000000
1.000000 0.000000 0.000000
1.000000 0.000000 0.000000
1.000000 0.006653 0.000000
1.000000 0.129915 0.000000
1.000000 0.173739 0.000000
1.000000 0.209171 0.000000
1.000000 0.241062 0.000000
1.000000 0.271244 0.000000
1.000000 0.300175 0.000000
1.000000 0.327794 0.000000
0.173098 0.157504 0.123140
0.173739 0.157443 0.122866
0.173831 0.155917 0.120333
0.176028 0.153323 0.116701
0.184512 0.148226 0.115602
0.200076 0.147860 0.111940
0.226810 0.148257 0.106630
0.259342 0.141848 0.102480
0.289647 0.137301 0.095766
0.322301 0.131594 0.090425
0.358526 0.123018 0.086946
0.418372 0.113863 0.075319
0.489296 0.095705 0.052735
0.563897 0.029236 0.023346
0.639338 0.000000 0.000000
0.709834 0.000000 0.000000
0.772976 0.000000 0.000000
0.826719 0.000000 0.000000
0.873411 0.000000 0.000000
0.929686 0.000000 0.000000
0.974914 0.000000 0.000000
1.000000 0.000000 0.000000
1.000000 0.000000 0.000000
1.000000 0.084779 0.000000
1.000000 0.145876 0.000000
1.000000 0.183688 0.000000
1.000000 0.212253 0.000000
1.000000 0.237736 0.000000
1.000000 0.262699 0.000000
1.000000 0.286778 0.000000
1.000000 0.311772 0.000000
1.000000 0.336767 0.000000
0.182589 0.192081 0.136721
0.183566 0.191836 0.136507
0.183291 0.190280 0.133455
0.183139 0.187564 0.127993
0.192111 0.181918 0.126070
0.203830 0.175906 0.123751
0.226230 0.177951 0.118349
0.259922 0.179232 0.111269
0.299229 0.172488 0.106569
0.332860 0.167422 0.097230
0.367651 0.161166 0.088258
0.403571 0.153475 0.073854
0.441077 0.143709 0.062989
0.509453 0.137575 0.035462
0.583581 0.126925 0.000031
0.657343 0.111666 0.000000
0.725826 0.092470 0.000000
0.786740 0.050568 0.000000
0.851774 0.056062 0.000000
0.906126 0.085817 0.000000
0.951843 0.108644 0.000000
0.990661 0.133730 0.000000
1.000000 0.160678 0.000000
1.000000 0.186801 0.000000
1.000000 0.212558 0.000000
1.000000 0.234379 0.000000
1.000000 0.254276 0.000000
1.000000 0.273014 0.000000
1.000000 0.292332 0.000000
1.000000 0.312749 0.000000
1.000000 0.333745 0.000000
1.000000 0.356054 0.000000
0.193759 0.233463 0.154116
0.193698 0.233158 0.153170
0.193881 0.231510 0.150484
0.194156 0.228489 0.144839
0.199619 0.223056 0.139773
0.212985 0.215122 0.137606
0.229191 0.211093 0.133669
0.258335 0.214237 0.126619
0.298253 0.217166 0.117708
0.342779 0.211093 0.110780
0.382727 0.206027 0.098848
0.419409 0.199374 0.083589
0.455726 0.190982 0.056001
0.491432 0.182101 0.030304
0.531731 0.172488 0.013336
0.605219 0.172549 0.000000
0.681605 0.174014 0.000000
0.759945 0.182101 0.000000
0.825101 0.189456 0.000000
0.880186 0.197971 0.000000
0.927703 0.208560 0.000000
0.968322 0.221164 0.000000
1.000000 0.235233 0.000000
1.000000 0.251102 0.000000
1.000000 0.267857 0.000000
1.000000 0.282902 0.000000
1.000000 0.297429 0.000000
1.000000 0.312169 0.000000
1.000000 0.327855 0.000000
1.000000 0.344335 0.000000
1.000000 0.362554 0.000000
1.000000 0.381689 0.000000
0.204379 0.281224 0.174777
0.204349 0.280369 0.173648
0.204532 0.278660 0.170993
0.204654 0.274815 0.164553
0.205295 0.269383 0.156161
0.220340 0.260807 0.153567
0.235660 0.250431 0.150210
0.258671 0.250217 0.144198
0.293278 0.254337 0.135653
0.338659 0.258579 0.124422
0.386786 0.252964 0.115938
0.431922 0.247959 0.100954
0.469154 0.240421 0.077974
0.505669 0.232425 0.034089
0.542596 0.224308 0.000000
0.588067 0.220706 0.000000
0.646052 0.221775 0.000000
0.725551 0.235691 0.000000
0.794125 0.248112 0.000000
0.851896 0.258671 0.000000
0.901274 0.268833 0.000000
0.943236 0.278172 0.000000
0.979248 0.287602 0.000000
1.000000 0.297429 0.000000
1.000000 0.307530 0.000000
1.000000 0.317998 0.000000
1.000000 0.329198 0.000000
1.000000 0.341344 0.000000
1.000000 0.355322 0.000000
1.000000 0.370947 0.000000
1.000000 0.388067 0.000000
1.000000 0.406683 0.000000
0.213291 0.327733 0.195804
0.213199 0.327398 0.195193
0.213565 0.325811 0.192264
0.214084 0.322637 0.186374
0.214206 0.317937 0.177554
0.225345 0.310582 0.171603
0.243748 0.300542 0.168338
0.261662 0.289891 0.164431
0.292699 0.295384 0.156252
0.333898 0.301457 0.146090
0.385260 0.307408 0.131960
0.438666 0.304784 0.121126
0.496407 0.304906 0.103670
0.539147 0.300328 0.055970
0.580896 0.294804 0.000000
0.621759 0.289220 0.000000
0.660700 0.283757 0.000000
0.698390 0.278111 0.000000
0.753658 0.284672 0.000000
0.815305 0.298466 0.000000
0.868162 0.310033 0.000000
0.913848 0.320562 0.000000
0.953063 0.330144 0.000000
0.987243 0.339147 0.000000
1.000000 0.348058 0.000000
1.000000 0.357183 0.000000
1.000000 0.366644 0.000000
1.000000 0.377447 0.000000
1.000000 0.389654 0.000000
1.000000 0.403693 0.000000
1.000000 0.419409 0.000000
1.000000 0.436530 0.000000
0.222751 0.384771 0.223178
0.222782 0.384253 0.222019
0.222904 0.382879 0.219486
0.223636 0.380194 0.213809
0.224033 0.375799 0.204929
0.228458 0.369085 0.194400
0.250187 0.359564 0.190616
0.271641 0.349218 0.186679
0.298039 0.347204 0.182345
0.339483 0.358770 0.174136
0.392248 0.370977 0.162234
0.455421 0.383551 0.145510
0.586084 0.452735 0.143374
0.653193 0.452338 0.118532
0.691096 0.440406 0.007507
0.725551 0.427436 0.000000
0.756771 0.414710 0.000000
0.786252 0.403235 0.000000
0.814359 0.393652 0.000000
0.841581 0.384436 0.000000
0.887602 0.394263 0.000000
0.930480 0.405280 0.000000
0.966888 0.414008 0.000000
0.998566 0.422187 0.000000
1.000000 0.429572 0.000000
1.000000 0.436561 0.000000
1.000000 0.443214 0.000000
1.000000 0.450660 0.000000
1.000000 0.459052 0.000000
1.000000 0.469062 0.000000
1.000000 0.480690 0.000000
1.000000 0.494362 0.000000
0.245518 0.498512 0.284703
0.245884 0.497993 0.284092
0.245701 0.495125 0.279850
0.245426 0.491402 0.272465
0.245365 0.485420 0.261265
0.245518 0.477455 0.245975
0.267948 0.467536 0.238010
0.296422 0.455879 0.232578
0.324193 0.444007 0.227024
0.363470 0.448585 0.220157
0.419135 0.465217 0.210422
0.487098 0.484321 0.197757
0.564141 0.503624 0.180179
0.634211 0.509636 0.163790
0.699306 0.507774 0.151644
0.732479 0.493965 0.089937
0.761685 0.478187 0.000000
0.788083 0.462379 0.000000
0.813382 0.448493 0.000000
0.837705 0.436683 0.000000
0.861631 0.426947 0.000000
0.887633 0.420356 0.000000
0.929229 0.431678 0.000000
0.965270 0.441199 0.000000
0.996551 0.449439 0.000000
1.000000 0.457130 0.000000
1.000000 0.464759 0.000000
1.000000 0.472908 0.000000
1.000000 0.482063 0.000000
1.000000 0.492714 0.000000
1.000000 0.504875 0.000000
1.000000 0.518700 0.000000
0.283909 0.569055 0.334783
0.283421 0.568139 0.333623
0.281682 0.564904 0.328923
0.278660 0.559930 0.320195
0.275486 0.552972 0.307622
0.272251 0.544671 0.291508
0.279179 0.534661 0.275669
0.307591 0.522698 0.268376
0.336309 0.510430 0.261112
0.364172 0.498329 0.254307
0.413886 0.511559 0.247288
0.474434 0.528099 0.239109
0.543084 0.544945 0.228000
0.615351 0.560174 0.212100
0.679774 0.564050 0.195560
0.736660 0.555444 0.193179
0.764034 0.538109 0.138552
0.789059 0.520562 0.024079
0.812924 0.504112 0.000000
0.835691 0.489357 0.000000
0.858366 0.476936 0.000000
0.881102 0.467445 0.000000
0.903044 0.458808 0.000000
0.932403 0.459480 0.000000
0.967651 0.469734 0.000000
0.998413 0.478920 0.000000
1.000000 0.487373 0.000000
1.000000 0.496223 0.000000
1.000000 0.505882 0.000000
1.000000 0.517113 0.000000
1.000000 0.529778 0.000000
1.000000 0.544030 0.000000
0.337560 0.620508 0.383062
0.336461 0.619776 0.381567
0.333349 0.617243 0.376898
0.328649 0.612757 0.368414
0.321904 0.606195 0.355383
0.314672 0.598352 0.338628
0.308141 0.590051 0.318944
0.328527 0.579736 0.309087
0.353826 0.569024 0.300664
0.381140 0.558160 0.292943
0.413519 0.553613 0.286076
0.467689 0.567712 0.280858
0.527672 0.581872 0.274022
0.591821 0.594659 0.264134
0.656703 0.605249 0.249607
0.714931 0.606744 0.232425
0.763912 0.594476 0.232914
0.790005 0.577203 0.185306
0.812985 0.559350 0.126253
0.834928 0.542596 0.000000
0.856565 0.528069 0.000000
0.878080 0.515923 0.000000
0.899351 0.505821 0.000000
0.920256 0.497780 0.000000
0.940520 0.490211 0.000000
0.971710 0.497658 0.000000
1.000000 0.507988 0.000000
1.000000 0.518791 0.000000
1.000000 0.530602 0.000000
1.000000 0.543969 0.000000
1.000000 0.559075 0.000000
1.000000 0.575769 0.062654
0.391241 0.657099 0.425391
0.391089 0.657069 0.424872
0.389227 0.655726 0.421546
0.385443 0.653071 0.414984
0.380377 0.649348 0.405249
0.373693 0.644617 0.391699
0.367529 0.639612 0.375463
0.372442 0.633448 0.361913
0.392798 0.625879 0.354101
0.414496 0.617273 0.345434
0.436866 0.607172 0.335698
0.472450 0.607568 0.328374
0.521996 0.616602 0.321569
0.575036 0.624750 0.312566
0.629908 0.631739 0.300359
0.686336 0.637446 0.284428
0.739681 0.638117 0.266087
0.781613 0.624140 0.265324
0.809598 0.608942 0.227726
0.831571 0.592370 0.177218
0.853208 0.577295 0.117403
0.874693 0.564019 0.000000
0.895842 0.552819 0.000000
0.916930 0.543694 0.000000
0.937560 0.536522 0.000000
0.957519 0.530388 0.000000
0.979889 0.529381 0.000000
1.000000 0.542016 0.000000
1.000000 0.555169 0.000000
1.000000 0.569207 0.000000
1.000000 0.584314 0.000000
1.000000 0.600610 0.112947
0.439826 0.686946 0.463722
0.439643 0.686671 0.463111
0.438209 0.685786 0.460609
0.435462 0.684077 0.455665
0.431403 0.681300 0.447578
0.426368 0.678004 0.437018
0.420783 0.674006 0.423407
0.414862 0.669490 0.406928
0.429145 0.663111 0.399207
0.445472 0.655665 0.390387
0.462776 0.647395 0.380713
0.480751 0.637903 0.369696
0.519402 0.643122 0.363867
0.564569 0.650233 0.357488
0.612421 0.656489 0.348394
0.662013 0.661677 0.336187
0.713008 0.666133 0.321050
0.763119 0.668208 0.304265
0.799863 0.654047 0.303075
0.828824 0.640925 0.275151
0.850065 0.625910 0.228855
0.871214 0.611963 0.180789
0.892119 0.599634 0.124178
0.912963 0.589288 0.000000
0.933593 0.580957 0.000000
0.954162 0.574853 0.000000
0.973816 0.570428 0.000000
0.993530 0.567926 0.000000
1.000000 0.577508 0.000000
1.000000 0.593256 0.000000
1.000000 0.609857 0.052277
1.000000 0.627314 0.151736
0.492042 0.717189 0.505333
0.492714 0.717494 0.505669
0.546136 0.746883 0.547814
0.544030 0.745724 0.544030
0.540764 0.743740 0.538048
0.536217 0.740993 0.529351
0.530816 0.737697 0.518578
0.524681 0.733852 0.505058
0.526085 0.729061 0.493996
0.535180 0.723140 0.485786
0.545312 0.716426 0.476600
0.555993 0.708370 0.465522
0.569390 0.700862 0.453193
0.602380 0.705257 0.447028
0.638056 0.708827 0.438697
0.675868 0.711482 0.427771
0.715938 0.713283 0.414099
0.757961 0.714595 0.397864
0.800839 0.715328 0.379919
0.829740 0.699977 0.375311
0.857359 0.687800 0.353094
0.877104 0.673030 0.307103
0.896849 0.659205 0.261997
0.916320 0.646601 0.217014
0.935363 0.635157 0.166354
0.954253 0.625605 0.099763
0.973114 0.618158 0.000000
0.991180 0.613672 0.000000
1.000000 0.611933 0.000000
1.000000 0.615320 0.000000
1.000000 0.632959 0.118868
1.000000 0.651270 0.183261
0.552239 0.751247 0.554620
0.556725 0.753597 0.558038
0.560845 0.755795 0.560571
0.563317 0.757107 0.560937
0.563867 0.757290 0.558587
0.561608 0.755825 0.552728
0.557214 0.753292 0.543725
0.551720 0.749874 0.532158
0.547265 0.746090 0.519341
0.553979 0.740810 0.511833
0.562005 0.735073 0.503655
0.570764 0.728298 0.494118
0.579278 0.719936 0.482216
0.597009 0.716762 0.472816
0.627344 0.720363 0.466651
0.660365 0.723384 0.458595
0.695735 0.726009 0.448829
0.733211 0.728328 0.437659
0.772641 0.730648 0.424964
0.813474 0.733059 0.410773
0.840360 0.720058 0.407538
0.869108 0.712062 0.397009
0.888640 0.699489 0.355169
0.908110 0.687129 0.312535
0.927214 0.675441 0.270085
0.946136 0.665126 0.226963
0.964965 0.656611 0.181308
0.984039 0.650690 0.127321
1.000000 0.648585 0.119265
1.000000 0.649592 0.132418
1.000000 0.653773 0.154055
1.000000 0.668971 0.202396
0.580346 0.767636 0.578576
0.584680 0.769924 0.581933
0.588464 0.772091 0.584375
0.591394 0.773617 0.585504
0.592309 0.774014 0.583856
0.590723 0.772976 0.579248
0.587274 0.770932 0.571954
0.582574 0.768093 0.562188
0.577264 0.764950 0.550622
0.578759 0.760647 0.541619
0.584924 0.755520 0.534234
0.591943 0.749813 0.526024
0.598901 0.742885 0.515892
0.606165 0.734951 0.504204
0.627771 0.735561 0.497810
0.655665 0.738643 0.492012
0.686091 0.741329 0.484810
0.718471 0.743801 0.476234
0.753140 0.746242 0.466682
0.789487 0.748867 0.456367
0.826963 0.751614 0.444892
0.851926 0.740780 0.442115
0.880705 0.735683 0.439796
0.899596 0.724910 0.401770
0.918425 0.714015 0.362768
0.937346 0.703700 0.323156
0.956176 0.694759 0.283879
0.975189 0.687984 0.246220
0.994629 0.684230 0.209812
1.000000 0.684688 0.210788
1.000000 0.688350 0.224826
1.000000 0.694850 0.245487
0.608850 0.784634 0.603357
0.612390 0.786587 0.606165
0.615869 0.788449 0.608606
0.618036 0.789639 0.609216
0.618952 0.790036 0.608057
0.617487 0.789181 0.604028
0.614649 0.787503 0.597955
0.610803 0.785183 0.589807
0.606409 0.782559 0.580194
0.603418 0.779294 0.569909
0.608331 0.774960 0.563531
0.613916 0.770077 0.556329
0.619593 0.764279 0.547570
0.625788 0.757687 0.537835
0.633326 0.750912 0.527276
0.657374 0.754269 0.523400
0.684230 0.757778 0.519493
0.713436 0.761471 0.515038
0.744930 0.765408 0.510674
0.778225 0.769772 0.505974
0.812741 0.774350 0.501427
0.847776 0.779019 0.496132
0.871092 0.771633 0.495827
0.899535 0.770413 0.502281
0.917845 0.763302 0.472847
0.936339 0.756008 0.442054
0.955230 0.749294 0.410681
0.974365 0.744106 0.381079
0.993835 0.741268 0.354314
1.000000 0.740993 0.330877
1.000000 0.745174 0.340948
1.000000 0.751766 0.358953
0.657771 0.813504 0.646632
0.658930 0.814206 0.647578
0.659510 0.814542 0.647547
0.659327 0.814389 0.646479
0.658076 0.813626 0.643702
0.655848 0.812222 0.639460
0.652735 0.810330 0.633600
0.649226 0.808255 0.626703
0.645411 0.805936 0.618494
0.641291 0.803525 0.608911
0.643366 0.800259 0.602502
0.647883 0.796231 0.596490
0.652430 0.791531 0.589319
0.657435 0.786099 0.581140
0.662409 0.779873 0.571618
0.673091 0.776577 0.563806
0.694881 0.779477 0.560418
0.718746 0.782467 0.556573
0.744686 0.785580 0.552483
0.772610 0.788846 0.548180
0.801877 0.792203 0.543297
0.832242 0.795712 0.538048
0.862882 0.799161 0.531853
0.883238 0.791745 0.528649
0.909697 0.791012 0.535760
0.927520 0.785458 0.511803
0.945342 0.780148 0.485817
0.963775 0.775906 0.460639
0.982727 0.773434 0.437415
1.000000 0.772885 0.416541
1.000000 0.774472 0.399786
1.000000 0.779995 0.414282
0.681117 0.829007 0.668757
0.682063 0.829587 0.669490
0.682551 0.829892 0.669490
0.682521 0.829831 0.668666
0.681666 0.829282 0.666590
0.679835 0.828153 0.662959
0.677485 0.826627 0.658137
0.674678 0.824857 0.652247
0.671748 0.822965 0.645472
0.668421 0.820890 0.637476
0.667170 0.818448 0.629908
0.671015 0.815152 0.624994
0.675166 0.811246 0.619135
0.679683 0.806882 0.612482
0.684260 0.801938 0.604852
0.689174 0.796384 0.596277
0.703609 0.796475 0.591882
0.724361 0.799619 0.589563
0.746853 0.802914 0.587060
0.771206 0.806241 0.584161
0.797024 0.809781 0.581201
0.823850 0.813352 0.577691
0.851499 0.816892 0.573693
0.879240 0.820432 0.568994
0.892546 0.807004 0.552270
0.917266 0.806760 0.558953
0.935576 0.803403 0.542351
0.953002 0.800015 0.520378
0.971099 0.797940 0.499886
0.989654 0.797543 0.481941
1.000000 0.799100 0.466743
1.000000 0.802762 0.459968
0.713283 0.850919 0.700008
0.714748 0.851865 0.701350
0.715145 0.852140 0.701381
0.714290 0.851621 0.699855
0.712490 0.850431 0.696956
0.709865 0.848661 0.692805
0.706569 0.846464 0.687404
0.702693 0.843992 0.680903
0.698695 0.841367 0.673579
0.694575 0.838682 0.665400
0.689937 0.835752 0.656062
0.691157 0.832212 0.649866
0.693812 0.828122 0.643763
0.696559 0.823575 0.636896
0.699428 0.818387 0.628931
0.702541 0.812741 0.620203
0.706081 0.806729 0.610803
0.723018 0.808957 0.607996
0.742824 0.812070 0.606012
0.764797 0.815640 0.604456
0.788296 0.819486 0.603021
0.812863 0.823209 0.600977
0.837858 0.826535 0.597742
0.862943 0.829404 0.593103
0.887999 0.831785 0.586847
0.904601 0.825437 0.581262
0.926787 0.824735 0.586145
0.944854 0.822538 0.574640
0.961547 0.820157 0.554864
0.979034 0.819333 0.537560
0.997009 0.820249 0.522972
1.000000 0.823484 0.512444
0.727535 0.861997 0.714931
0.729061 0.862882 0.716304
0.729824 0.863310 0.716670
0.729610 0.863157 0.715846
0.728725 0.862547 0.713985
0.727321 0.861601 0.711147
0.725551 0.860441 0.707485
0.723507 0.859098 0.703059
0.721279 0.857664 0.697871
0.719020 0.856107 0.692012
0.716121 0.854215 0.684840
0.715267 0.851926 0.678370
0.718074 0.848783 0.673732
0.720882 0.845060 0.668177
0.723598 0.840665 0.661555
0.726436 0.835843 0.654200
0.729763 0.830655 0.646357
0.736446 0.827390 0.639765
0.753109 0.830076 0.638087
0.771878 0.833280 0.636896
0.792233 0.836790 0.635950
0.813809 0.840391 0.634791
0.835996 0.843809 0.632990
0.858579 0.846983 0.630274
0.881346 0.849760 0.626520
0.904112 0.852293 0.621698
0.919951 0.847745 0.617517
0.939879 0.847227 0.622095
0.958007 0.847135 0.616724
0.974060 0.846738 0.601923
0.991028 0.848112 0.589899
1.000000 0.850980 0.580652
0.749355 0.878172 0.737575
0.750179 0.878630 0.738277
0.750790 0.878721 0.738460
0.750423 0.878477 0.737575
0.749538 0.877867 0.735805
0.748074 0.876951 0.733089
0.746456 0.875853 0.729824
0.744564 0.874601 0.725765
0.742428 0.873198 0.720974
0.740291 0.871794 0.715694
0.737789 0.870146 0.709346
0.735225 0.868406 0.702419
0.737301 0.865904 0.698054
0.739925 0.862760 0.693324
0.742550 0.859037 0.687648
0.745205 0.854917 0.681422
0.748226 0.850523 0.674647
0.751919 0.846067 0.667811
0.762051 0.845487 0.664118
0.778286 0.848386 0.663203
0.796139 0.851652 0.662623
0.815122 0.854917 0.661799
0.834714 0.858030 0.660426
0.854826 0.860929 0.658259
0.875151 0.863462 0.655207
0.895659 0.865721 0.651148
0.916564 0.867857 0.646265
0.931487 0.864012 0.641962
0.949676 0.863401 0.646113
0.967956 0.865019 0.646113
0.983795 0.866514 0.635737
1.000000 0.869352 0.627802
0.766629 0.891447 0.756100
0.767269 0.891752 0.756619
0.768032 0.891966 0.757015
0.768368 0.891936 0.756741
0.768154 0.891783 0.755764
0.767971 0.891661 0.754391
0.768307 0.891905 0.753292
0.768795 0.892241 0.751919
0.769619 0.892790 0.750423
0.770504 0.893370 0.748684
0.771420 0.893950 0.746395
0.771847 0.894285 0.743160
0.773892 0.894072 0.740444
0.778256 0.892973 0.738735
0.782223 0.891264 0.735988
0.785611 0.888640 0.731868
0.788907 0.885618 0.727108
0.792599 0.882444 0.722072
0.797086 0.879423 0.717281
0.809171 0.881102 0.716121
0.823728 0.883848 0.715846
0.839200 0.886625 0.715480
0.855192 0.889189 0.714412
0.871794 0.891539 0.712795
0.888823 0.893706 0.710597
0.906218 0.895689 0.707637
0.924071 0.897551 0.704067
0.942229 0.899351 0.699916
0.955474 0.896422 0.696468
0.970642 0.895293 0.699489
0.987152 0.897307 0.702571
1.000000 0.899535 0.695613
0.801419 0.915618 0.792691
0.801541 0.915618 0.792691
0.801694 0.915465 0.792508
0.801999 0.915221 0.792142
0.801266 0.914763 0.790768
0.800443 0.914214 0.788907
0.799557 0.913725 0.786770
0.798703 0.913207 0.784298
0.797818 0.912718 0.781491
0.796994 0.912200 0.778225
0.796078 0.911681 0.774533
0.795102 0.911101 0.770260
0.793881 0.910399 0.765286
0.796475 0.908965 0.762570
