20 Preset/INSTA/【3】LUT video cho PR-AE-FCPX/INS LUT (24).cube
# Created by Adobe Lightroom plugin Export LUT (1.24.0)
# www.johnrellis.com/lightroom/exportlut.htm
# Preset: INS胶片-自然[素材江湖]24
# Color profile: C:\Program Files (x86)\Common Files\Adobe\Color\Profiles\Recommended\VideoHD.icc
LUT_3D_SIZE 8
DOMAIN_MIN 0.000000 0.000000 0.000000
DOMAIN_MAX 0.903226 0.903226 0.903226
0.028687 0.035340 0.052186
0.121736 0.052918 0.072328
0.577325 0.000000 0.045594
0.930571 0.000000 0.000000
1.000000 0.198337 0.063722
1.000000 0.402838 0.237888
1.000000 0.510246 0.372625
1.000000 0.591669 0.494057
0.000000 0.117220 0.089570
0.120516 0.118624 0.094423
0.413214 0.113375 0.051881
0.852476 0.000000 0.000000
1.000000 0.267460 0.000000
1.000000 0.408148 0.197696
1.000000 0.503960 0.338720
1.000000 0.585779 0.472602
0.000000 0.378698 0.051362
0.000000 0.376837 0.000000
0.503227 0.417670 0.149294
0.706783 0.366613 0.000000
0.919524 0.448829 0.000000
1.000000 0.521111 0.187747
1.000000 0.584680 0.376318
1.000000 0.640558 0.513603
0.000000 0.687770 0.116609
0.000000 0.678096 0.000000
0.338018 0.684535 0.138003
0.797024 0.712276 0.426001
0.874113 0.646082 0.225101
0.936614 0.603693 0.000000
1.000000 0.649989 0.350256
1.000000 0.687221 0.517784
0.000000 0.801236 0.300145
0.000000 0.798642 0.260533
0.000000 0.792355 0.238651
0.673335 0.792844 0.420874
0.848631 0.797818 0.618830
0.905180 0.748409 0.474098
0.957824 0.710903 0.359411
1.000000 0.722286 0.465339
0.000000 0.860349 0.468635
0.000000 0.862425 0.462654
0.000000 0.859678 0.398627
0.556420 0.850523 0.496040
0.780392 0.848905 0.628809
0.875212 0.849424 0.747036
0.914580 0.823758 0.683284
0.955901 0.803464 0.636500
0.401434 0.895628 0.632197
0.401099 0.895933 0.627619
0.370825 0.895750 0.595514
0.493904 0.891264 0.588861
0.718471 0.883574 0.676692
0.836149 0.881498 0.755093
0.890715 0.879789 0.817624
0.915587 0.866789 0.790555
0.648005 0.916625 0.771572
0.646540 0.916686 0.769253
0.642512 0.917113 0.760433
0.636469 0.918090 0.742733
0.704158 0.911467 0.748745
0.810178 0.906737 0.799496
0.874205 0.904753 0.839445
0.902342 0.901884 0.867979
0.036805 0.063722 0.095674
0.128420 0.046876 0.119814
0.546960 0.000000 0.118868
0.883391 0.000000 0.124392
1.000000 0.248600 0.172519
1.000000 0.407080 0.265568
1.000000 0.504540 0.374731
1.000000 0.583398 0.486824
0.000000 0.120790 0.119692
0.126009 0.127138 0.121126
0.417548 0.134340 0.116487
0.831235 0.059327 0.106752
0.990967 0.309606 0.149203
1.000000 0.428199 0.249729
1.000000 0.509575 0.358862
1.000000 0.582238 0.472847
0.000000 0.373816 0.136934
0.000000 0.374365 0.112032
0.492042 0.409827 0.201694
0.677943 0.354772 0.030426
0.900389 0.435737 0.000000
1.000000 0.512566 0.213474
1.000000 0.569482 0.361700
1.000000 0.627314 0.496132
0.000000 0.652491 0.164584
0.000000 0.645624 0.042267
0.327337 0.657313 0.180972
0.770199 0.679377 0.399786
0.846525 0.610010 0.201846
0.915557 0.573632 0.000000
0.999908 0.627924 0.312596
1.000000 0.670314 0.486732
0.000000 0.794369 0.322148
0.000000 0.790951 0.285161
0.000000 0.782925 0.255772
0.664240 0.781888 0.415930
0.840299 0.786069 0.602136
0.897032 0.735988 0.453101
0.950561 0.698482 0.334936
0.998566 0.712825 0.445380
0.000000 0.854215 0.469245
0.000000 0.853880 0.454108
0.000000 0.851316 0.389746
0.545190 0.843595 0.485420
0.775723 0.843626 0.620111
0.872679 0.846250 0.743526
0.912688 0.819638 0.675257
0.955383 0.797635 0.622034
0.379004 0.891936 0.623438
0.365087 0.891478 0.613733
0.328313 0.891051 0.579767
0.465370 0.886931 0.570611
0.711879 0.880400 0.667109
0.832944 0.878752 0.748287
0.888914 0.876738 0.811734
0.914824 0.862303 0.780423
0.635981 0.914977 0.764431
0.637568 0.915251 0.763882
0.632563 0.915618 0.754177
0.626337 0.916625 0.735714
0.712795 0.912383 0.758999
0.811582 0.907012 0.802701
0.873747 0.904417 0.839200
0.902068 0.901579 0.867735
0.000000 0.118166 0.202121
0.095857 0.142824 0.185885
0.610040 0.000000 0.363104
0.942443 0.134981 0.378820
1.000000 0.426642 0.417884
1.000000 0.535302 0.475959
1.000000 0.604303 0.543084
1.000000 0.658289 0.609979
0.000000 0.163455 0.238865
0.150088 0.200595 0.230472
0.615961 0.231724 0.357610
0.892943 0.279423 0.338720
0.982300 0.440192 0.383368
1.000000 0.536553 0.452308
1.000000 0.599847 0.524163
1.000000 0.654414 0.597467
0.000000 0.427558 0.318029
0.000000 0.426459 0.287266
0.526543 0.444831 0.323217
0.715358 0.406897 0.230076
0.914488 0.510613 0.302678
0.989349 0.575433 0.406165
1.000000 0.626673 0.506035
1.000000 0.674525 0.595605
0.000000 0.679408 0.367590
0.000000 0.676600 0.330755
0.445686 0.676143 0.352270
0.770321 0.693874 0.497902
0.843931 0.624079 0.321050
0.923430 0.607996 0.272801
0.990448 0.660639 0.448646
1.000000 0.702724 0.580163
0.000000 0.793545 0.443885
0.000000 0.791745 0.419867
0.000000 0.784665 0.377874
0.685664 0.786831 0.510216
0.836728 0.793393 0.653376
0.890593 0.743191 0.513329
0.945068 0.704036 0.395911
0.990387 0.727626 0.521996
0.000000 0.849790 0.538262
0.000000 0.849729 0.527092
0.000000 0.847807 0.469398
0.572229 0.840848 0.536919
0.778805 0.842283 0.653498
0.869139 0.846372 0.757412
0.907744 0.820768 0.691981
0.950927 0.800687 0.643641
0.482033 0.889525 0.666987
0.473823 0.889128 0.659327
0.445899 0.888365 0.628656
0.493507 0.885283 0.602167
0.718074 0.879454 0.687831
0.834318 0.878965 0.762448
0.888151 0.878691 0.822416
0.913207 0.865721 0.793240
0.659510 0.913542 0.780209
0.656764 0.913481 0.777188
0.651545 0.913787 0.767941
0.648646 0.915038 0.753201
0.713497 0.911925 0.765652
0.813321 0.907073 0.809628
0.874357 0.904906 0.844694
0.901762 0.902373 0.871458
0.000000 0.229496 0.406622
0.000000 0.264256 0.402930
0.309606 0.290593 0.438117
0.915587 0.261997 0.645441
0.942321 0.662531 0.712367
0.983490 0.659113 0.675471
0.996612 0.689876 0.685542
1.000000 0.723110 0.713985
0.000000 0.303288 0.442359
0.187533 0.333349 0.437140
0.414221 0.328435 0.475044
0.894774 0.470314 0.652125
0.942687 0.648920 0.685908
0.979156 0.660243 0.665217
0.994141 0.690944 0.679683
1.000000 0.724300 0.711299
0.165743 0.470588 0.493751
0.324376 0.483986 0.498970
0.623316 0.531273 0.530541
0.818235 0.570855 0.552300
0.913939 0.625635 0.587304
0.960479 0.670069 0.626337
0.981262 0.712184 0.676265
0.992309 0.740963 0.715419
0.370764 0.709102 0.582788
0.436866 0.704799 0.580163
0.509026 0.692409 0.517998
0.758968 0.698360 0.585779
0.826078 0.622095 0.427649
0.918456 0.657954 0.492714
0.967315 0.706020 0.602899
0.985199 0.745113 0.686275
0.443153 0.798215 0.615747
0.430335 0.796139 0.599298
0.392370 0.789609 0.532097
0.713130 0.793729 0.624384
0.830594 0.800687 0.708156
0.879545 0.752407 0.589075
0.936095 0.710872 0.475471
0.973419 0.756130 0.636225
0.493782 0.848539 0.654078
0.498085 0.849882 0.651453
0.468238 0.847501 0.611322
0.624933 0.843656 0.630304
0.790707 0.847135 0.717037
0.865904 0.850065 0.782406
0.900999 0.824949 0.722530
0.944671 0.804868 0.674739
0.590845 0.885924 0.728481
0.589014 0.885985 0.724849
0.577752 0.885740 0.706233
0.561334 0.884855 0.667811
0.732235 0.880735 0.728450
0.837736 0.880766 0.788052
0.886625 0.880888 0.835233
0.910674 0.868559 0.806912
0.706325 0.912016 0.811734
0.704952 0.912078 0.809873
0.699886 0.912261 0.802243
0.691646 0.912932 0.786923
0.713649 0.911894 0.778866
0.814115 0.907164 0.819547
0.874632 0.905425 0.852506
0.901366 0.903716 0.877592
0.000000 0.423621 0.625208
0.195499 0.454719 0.624445
0.544884 0.568292 0.605097
0.779019 0.420478 0.741634
0.944488 0.596094 0.771847
0.926055 0.792508 0.826596
0.950896 0.783902 0.805875
0.964141 0.791012 0.804959
0.237980 0.477943 0.636652
0.347478 0.504692 0.637201
0.590478 0.605707 0.630213
0.804135 0.465400 0.751949
0.929168 0.649989 0.775692
0.922728 0.795956 0.824949
0.951446 0.780575 0.800198
0.963500 0.791073 0.803128
0.395758 0.550958 0.662989
0.482643 0.579889 0.665583
0.644373 0.655360 0.667170
0.823148 0.573114 0.726589
0.881376 0.762661 0.792752
0.924651 0.763363 0.779294
0.947478 0.773404 0.780270
0.961944 0.787778 0.791470
0.504234 0.712581 0.689357
0.543450 0.716854 0.692256
0.664118 0.725429 0.697993
0.748531 0.699947 0.657832
0.841245 0.715602 0.674311
0.902220 0.741299 0.706447
0.937743 0.767056 0.742855
0.957855 0.788785 0.774624
0.599786 0.802090 0.722896
0.617334 0.800900 0.723507
0.642451 0.795010 0.706294
0.726192 0.794003 0.703334
0.817075 0.794919 0.734798
0.861234 0.741970 0.624475
0.922362 0.745510 0.639826
0.953094 0.785458 0.733181
0.637446 0.841917 0.742977
0.634424 0.841337 0.737606
0.617212 0.837766 0.710292
0.625025 0.832822 0.672816
0.785428 0.840177 0.744228
0.858152 0.846921 0.794675
0.893065 0.820645 0.736294
0.940948 0.796719 0.680598
0.677699 0.881651 0.786862
0.674006 0.881163 0.782986
0.662135 0.880095 0.768185
0.644984 0.879393 0.738643
0.722957 0.877531 0.747982
0.834379 0.879088 0.803525
0.883116 0.880156 0.842039
0.907744 0.866026 0.810391
0.739071 0.907927 0.836362
0.737606 0.907897 0.834684
0.732235 0.907927 0.827848
0.728695 0.908965 0.817624
0.715816 0.909941 0.794430
0.804898 0.906126 0.823545
0.871641 0.904570 0.856748
0.899870 0.903349 0.879881
0.440925 0.614618 0.766629
0.498238 0.633692 0.767544
0.640558 0.694209 0.762631
0.730220 0.747890 0.767727
0.902281 0.597620 0.850095
0.940978 0.733791 0.836362
0.926238 0.834989 0.864622
0.929442 0.854612 0.871611
0.484077 0.627497 0.761563
0.523980 0.640742 0.760494
0.644007 0.693263 0.755581
0.724941 0.740871 0.760830
0.902098 0.601007 0.843503
0.934691 0.744594 0.834745
0.923095 0.838102 0.864714
0.930144 0.851377 0.868193
0.584985 0.679774 0.772000
0.613977 0.691798 0.771542
0.688991 0.729335 0.771359
0.743282 0.759976 0.774655
0.887480 0.663661 0.818753
0.911467 0.801144 0.844694
0.915007 0.850126 0.867185
0.931273 0.846769 0.860960
0.608423 0.730953 0.778500
0.628199 0.732570 0.777615
0.696315 0.743618 0.778103
0.769833 0.787991 0.794339
0.859586 0.809323 0.832181
0.891966 0.835691 0.846952
0.914733 0.836759 0.845243
0.930114 0.844297 0.851713
0.659052 0.812497 0.790982
0.671962 0.812802 0.791287
0.715755 0.814511 0.793149
0.754055 0.809018 0.782681
0.809445 0.795071 0.768551
0.860960 0.786557 0.755520
0.905577 0.811948 0.795071
0.929808 0.832334 0.825437
0.694301 0.852689 0.802274
0.702388 0.852811 0.803586
0.724544 0.849943 0.803220
0.728725 0.844266 0.783963
0.792813 0.845792 0.793301
0.852659 0.847868 0.815305
0.886259 0.813046 0.749844
0.927916 0.822751 0.777890
0.730129 0.884306 0.829282
0.734920 0.884184 0.830198
0.748531 0.882444 0.830838
0.746395 0.880278 0.818692
0.725673 0.877592 0.785672
0.832792 0.880369 0.827695
0.880858 0.882383 0.855833
0.905791 0.867338 0.824399
0.760067 0.908171 0.855985
0.761471 0.907774 0.855772
0.770321 0.906645 0.856413
0.781338 0.905577 0.855741
0.767056 0.906126 0.838499
0.786221 0.905425 0.828611
0.867948 0.904295 0.864164
0.898466 0.903929 0.884977
0.610071 0.718441 0.829740
0.631403 0.727901 0.829587
0.693080 0.757229 0.826383
0.769131 0.801785 0.823270
0.781796 0.788602 0.839567
0.929534 0.702113 0.882750
0.939605 0.790829 0.868498
0.927428 0.855406 0.883482
0.619348 0.721523 0.826474
0.639033 0.730587 0.826719
0.696315 0.758389 0.824216
0.768032 0.800290 0.821164
0.780972 0.787015 0.836942
0.926513 0.702693 0.877806
0.936889 0.793545 0.866941
0.926055 0.856138 0.882963
0.661189 0.745937 0.828763
0.673671 0.751705 0.828580
0.716640 0.773220 0.827573
0.777096 0.808896 0.827481
0.792111 0.799008 0.839719
0.916075 0.734615 0.867582
0.924285 0.824491 0.872557
0.919097 0.869841 0.888670
0.645502 0.745296 0.830777
0.663935 0.752956 0.830167
0.726162 0.783536 0.830900
0.784573 0.817502 0.835538
0.808652 0.818540 0.845060
0.896025 0.803952 0.863951
0.908080 0.860960 0.882200
0.912139 0.882353 0.893400
0.674678 0.805600 0.834806
0.682551 0.805509 0.834073
0.714931 0.807492 0.833280
0.765347 0.813107 0.834104
0.817929 0.834958 0.845304
0.878202 0.859190 0.871824
0.898436 0.871031 0.879210
0.913176 0.873320 0.880766
0.710231 0.861418 0.846372
0.716732 0.861418 0.846586
0.740993 0.861357 0.847349
0.779782 0.861845 0.849485
0.813626 0.857084 0.846952
0.844297 0.844358 0.832029
0.883330 0.846616 0.835843
0.910307 0.864622 0.861479
0.749905 0.888731 0.856199
0.753536 0.888487 0.856504
0.766293 0.887114 0.856992
0.787930 0.884642 0.857694
0.805600 0.880797 0.853544
0.832029 0.880095 0.850126
0.876402 0.881804 0.865843
0.904234 0.858824 0.825528
0.774746 0.908843 0.872221
0.777218 0.908690 0.872557
0.787716 0.908141 0.874144
0.803525 0.906798 0.875914
0.822568 0.904814 0.877501
0.812863 0.904387 0.862669
0.861509 0.904387 0.873442
0.897124 0.905150 0.892149
0.708461 0.792172 0.872587
0.717067 0.796384 0.872313
0.745693 0.810117 0.870115
0.791531 0.834440 0.867796
0.837797 0.861723 0.866026
0.835660 0.828794 0.882231
0.935149 0.782040 0.904265
0.936370 0.835355 0.893156
0.709743 0.792508 0.871336
0.718196 0.796689 0.871183
0.746670 0.810544 0.869474
0.791318 0.834165 0.867308
0.837247 0.861326 0.865843
0.835874 0.829404 0.881559
0.933654 0.784024 0.902892
0.934936 0.837705 0.893126
0.720333 0.799344 0.871153
0.727443 0.802731 0.870939
0.753079 0.815152 0.869718
0.796048 0.838224 0.869444
0.838773 0.863371 0.869017
0.840055 0.837278 0.881743
0.927123 0.800046 0.899413
0.928740 0.850523 0.894774
0.704738 0.794522 0.871672
0.717067 0.800381 0.871550
0.756374 0.819486 0.870878
0.797024 0.840574 0.871580
0.839445 0.865446 0.873686
0.846921 0.851865 0.883238
0.917449 0.824704 0.895476
0.920134 0.869047 0.898253
0.674952 0.803281 0.873411
0.682826 0.804318 0.873350
0.708827 0.806516 0.872129
0.774655 0.831144 0.871916
0.833310 0.863249 0.876616
0.852934 0.868559 0.884947
0.904601 0.855100 0.894163
0.911955 0.886381 0.902556
0.706172 0.853513 0.878721
0.710964 0.853452 0.878477
0.731136 0.853696 0.877958
0.766934 0.855222 0.877714
0.809232 0.857939 0.877775
0.862699 0.884184 0.886625
0.894682 0.884947 0.898344
0.904784 0.902495 0.908782
0.739925 0.893950 0.885924
0.743648 0.893828 0.885954
0.758785 0.893309 0.886076
0.785855 0.892180 0.886290
0.819028 0.890684 0.886625
0.851743 0.890257 0.888212
0.871611 0.880613 0.878935
0.899840 0.891783 0.892729
0.786130 0.912139 0.890379
0.788083 0.911894 0.890440
0.796841 0.911131 0.891051
0.812833 0.909911 0.892363
0.832303 0.908293 0.893858
0.852171 0.906310 0.895109
0.855924 0.903807 0.887053
0.894224 0.906004 0.900633
