20 Preset/INSTA/【3】LUT video cho PR-AE-FCPX/INS LUT (6).cube
# Created by Adobe Lightroom plugin Export LUT (1.24.0)
# www.johnrellis.com/lightroom/exportlut.htm
# Preset: INS胶片Tezza02-JPG[素材江湖]06
# Color profile: C:\Program Files (x86)\Common Files\Adobe\Color\Profiles\Recommended\VideoHD.icc
LUT_3D_SIZE 5
DOMAIN_MIN 0.000000 0.000000 0.000000
DOMAIN_MAX 0.903226 0.903226 0.903226
0.014069 0.092073 0.103670
0.191196 0.103944 0.123842
0.522484 0.000000 0.147250
0.813352 0.075990 0.187778
1.000000 0.331914 0.287938
0.000000 0.244877 0.170199
0.209110 0.234440 0.146304
0.544671 0.211582 0.142153
0.819974 0.253544 0.186618
1.000000 0.401221 0.295995
0.000000 0.604059 0.365362
0.164950 0.597925 0.334234
0.603052 0.603265 0.300053
0.845701 0.552148 0.209171
0.996521 0.577752 0.327733
0.442054 0.830350 0.600427
0.451850 0.831174 0.580499
0.609094 0.824918 0.576379
0.820310 0.829892 0.548180
0.974609 0.813870 0.500511
0.725887 0.945312 0.811154
0.728511 0.945617 0.805844
0.755764 0.942962 0.793454
0.833768 0.941558 0.796017
0.930877 0.942229 0.777279
0.000000 0.135805 0.235111
0.153872 0.134371 0.211917
0.536950 0.126345 0.195865
0.807980 0.196384 0.184817
0.998779 0.351751 0.282322
0.000000 0.254490 0.289586
0.262486 0.263951 0.283116
0.563378 0.261082 0.238041
0.816251 0.292210 0.184207
0.998199 0.409277 0.288518
0.033051 0.600244 0.439155
0.321813 0.601282 0.434607
0.608911 0.601099 0.400488
0.835233 0.551354 0.297673
0.994812 0.581415 0.327337
0.481941 0.828183 0.638972
0.521935 0.828733 0.635523
0.629908 0.825650 0.617426
0.821347 0.830808 0.600305
0.973144 0.814176 0.518242
0.739803 0.944274 0.825101
0.742855 0.944518 0.820462
0.767788 0.944671 0.809689
0.839475 0.942596 0.811398
0.932067 0.943633 0.796048
0.000000 0.273075 0.533043
0.000000 0.302861 0.529839
0.511162 0.317235 0.515496
0.877806 0.309300 0.472786
0.996216 0.421881 0.397131
0.000000 0.360815 0.559655
0.243076 0.388739 0.558373
0.558953 0.423163 0.546807
0.864195 0.394537 0.485267
0.993530 0.474037 0.420020
0.152285 0.593133 0.615259
0.345892 0.599115 0.615503
0.654536 0.631312 0.623407
0.824216 0.611780 0.561547
0.982513 0.620417 0.491371
0.468055 0.826200 0.718288
0.527123 0.824796 0.718532
0.688441 0.828153 0.728908
0.827481 0.836271 0.725978
0.956970 0.813870 0.652857
0.702968 0.945342 0.838315
0.727413 0.944549 0.841703
0.795132 0.942870 0.850523
0.847349 0.941680 0.845579
0.932311 0.943816 0.838163
0.000000 0.477302 0.776059
0.000000 0.497719 0.776547
0.453193 0.579370 0.774197
0.770291 0.584771 0.772519
0.989899 0.658442 0.771145
0.211124 0.528313 0.779355
0.302342 0.544518 0.779721
0.518975 0.615900 0.779416
0.777646 0.633814 0.778439
0.981476 0.682460 0.774685
0.313146 0.575860 0.781460
0.410895 0.593744 0.781552
0.638300 0.695857 0.792111
0.801328 0.744808 0.800351
0.963165 0.739590 0.778042
0.473854 0.805112 0.820188
0.518883 0.805997 0.819516
0.659113 0.814176 0.820859
0.837491 0.841978 0.834501
0.941985 0.819699 0.783474
0.644099 0.949310 0.885618
0.667079 0.948577 0.885191
0.749477 0.946410 0.885069
0.866178 0.944396 0.894896
0.937316 0.946777 0.893553
0.451759 0.694881 0.921324
0.485908 0.704158 0.920104
0.599329 0.742794 0.915953
0.740536 0.806699 0.907591
0.895506 0.787228 0.908598
0.501457 0.712947 0.919982
0.529320 0.721431 0.919066
0.625299 0.756069 0.915496
0.753902 0.815610 0.908293
0.896391 0.801999 0.909178
0.576074 0.749905 0.921202
0.613672 0.763638 0.919707
0.685603 0.791806 0.917449
0.791989 0.842893 0.913512
0.904173 0.848753 0.915312
0.531090 0.803555 0.930449
0.555261 0.802090 0.929412
0.646693 0.797971 0.926329
0.825803 0.871611 0.924346
0.923827 0.905333 0.931060
0.663172 0.932494 0.945068
0.678431 0.932494 0.944701
0.739803 0.933776 0.943969
0.833799 0.936736 0.942168
0.944488 0.949493 0.946563
