20 Preset/INSTA/【3】LUT video cho PR-AE-FCPX/INS LUT (22).cube
# Created by Adobe Lightroom plugin Export LUT (1.24.0)
# www.johnrellis.com/lightroom/exportlut.htm
# Preset: INS胶片-自然[素材江湖]22
# Color profile: C:\Program Files (x86)\Common Files\Adobe\Color\Profiles\Recommended\VideoHD.icc
LUT_3D_SIZE 32
DOMAIN_MIN 0.0 0.0 0.0
DOMAIN_MAX 1.0 1.0 1.0
0.000000 0.000000 0.000000
0.006928 0.000305 0.000946
0.020813 0.000916 0.002869
0.052827 0.001709 0.005524
0.092927 0.004364 0.010864
0.122499 0.000702 0.016175
0.161898 0.000000 0.021759
0.211460 0.000000 0.024506
0.266850 0.000000 0.026551
0.326085 0.000000 0.027192
0.388769 0.000000 0.026398
0.452918 0.000000 0.026337
0.515587 0.000000 0.026917
0.575067 0.000000 0.026154
0.628962 0.000000 0.025757
0.677150 0.000000 0.025544
0.719600 0.000000 0.026947
0.757504 0.000000 0.029694
0.791897 0.000000 0.035157
0.822263 0.000000 0.046235
0.848966 0.000000 0.061219
0.877317 0.000000 0.084657
0.908324 0.000000 0.103487
0.933349 0.000000 0.121431
0.953948 0.000000 0.139010
0.971588 0.000000 0.157900
0.987488 0.000000 0.176974
1.000000 0.000000 0.198245
1.000000 0.000000 0.221958
1.000000 0.000000 0.250309
1.000000 0.000000 0.284428
1.000000 0.029480 0.325231
0.001221 0.005341 0.003754
0.001495 0.005341 0.002625
0.020233 0.007691 0.003082
0.050660 0.007477 0.007019
0.091493 0.010376 0.011261
0.120211 0.009583 0.016266
0.157931 0.000000 0.021088
0.205295 0.000000 0.024109
0.258885 0.000000 0.026337
0.316045 0.000000 0.027405
0.377050 0.000000 0.026917
0.440040 0.000000 0.026093
0.502159 0.000000 0.026032
0.561608 0.000000 0.025727
0.616266 0.000000 0.025452
0.665888 0.000000 0.025513
0.709651 0.000000 0.026825
0.748592 0.000000 0.028687
0.783719 0.000000 0.033265
0.814847 0.000000 0.042329
0.842008 0.000000 0.056428
0.870542 0.000000 0.079469
0.900267 0.000000 0.098421
0.924620 0.000000 0.114687
0.945006 0.000000 0.130983
0.962646 0.000000 0.148043
0.978943 0.000000 0.166293
0.994415 0.000000 0.186282
1.000000 0.000000 0.209384
1.000000 0.000000 0.236301
1.000000 0.000000 0.268833
1.000000 0.000000 0.307988
0.008820 0.020874 0.015045
0.008515 0.020874 0.016175
0.012696 0.028412 0.010559
0.046021 0.034760 0.009033
0.089662 0.037690 0.014405
0.119112 0.035676 0.019593
0.157290 0.023804 0.022126
0.203311 0.000000 0.024231
0.255100 0.000000 0.026703
0.310735 0.000000 0.026947
0.370214 0.000000 0.027008
0.431952 0.000000 0.026734
0.493263 0.000000 0.025818
0.551995 0.000000 0.025757
0.606714 0.000000 0.024384
0.656519 0.000000 0.024292
0.701076 0.000000 0.024659
0.740902 0.000000 0.026429
0.776852 0.000000 0.031952
0.809110 0.000000 0.039826
0.837003 0.000000 0.052674
0.866819 0.000000 0.076600
0.895872 0.000000 0.096010
0.919677 0.000000 0.111208
0.939757 0.000000 0.126925
0.957397 0.000000 0.143008
0.973754 0.000000 0.160769
0.989502 0.000000 0.180270
1.000000 0.000000 0.202792
1.000000 0.000000 0.228977
1.000000 0.000000 0.260899
1.000000 0.000000 0.298985
0.023835 0.050782 0.041138
0.023102 0.051972 0.041016
0.021698 0.054383 0.040711
0.038697 0.067353 0.029572
0.092897 0.080751 0.022827
0.121614 0.081605 0.023011
0.160494 0.069703 0.024537
0.205203 0.040497 0.025696
0.255772 0.000000 0.026246
0.309453 0.000000 0.025605
0.366735 0.000000 0.026001
0.425910 0.000000 0.024781
0.485756 0.000000 0.023987
0.542992 0.000000 0.024018
0.596521 0.000000 0.022980
0.645624 0.000000 0.021912
0.690059 0.000000 0.022492
0.729610 0.000000 0.023224
0.765621 0.000000 0.026612
0.798245 0.000000 0.033570
0.827146 0.000000 0.045777
0.858579 0.000000 0.067811
0.886717 0.000000 0.090669
0.910521 0.000000 0.105196
0.931701 0.000000 0.120974
0.950774 0.000000 0.137819
0.968536 0.000000 0.156161
0.985473 0.000000 0.176608
1.000000 0.000000 0.199435
1.000000 0.000000 0.226200
1.000000 0.000000 0.256962
1.000000 0.000000 0.293217
0.046387 0.089754 0.079622
0.047669 0.090120 0.079530
0.048096 0.089662 0.080354
0.036042 0.094453 0.068818
0.083131 0.102113 0.048920
0.128969 0.111330 0.028290
0.160983 0.108980 0.025086
0.203586 0.100221 0.023072
0.251255 0.080507 0.022614
0.302678 0.013703 0.022522
0.356909 0.000000 0.022278
0.414405 0.000000 0.021515
0.472419 0.000000 0.019898
0.529320 0.000000 0.019074
0.583154 0.000000 0.017823
0.633173 0.000000 0.016236
0.679286 0.000000 0.016541
0.720424 0.000000 0.016815
0.757504 0.000000 0.020783
0.791226 0.000000 0.027283
0.820645 0.000000 0.037720
0.854307 0.000000 0.059998
0.881559 0.000000 0.086213
0.905364 0.000000 0.102266
0.926696 0.000000 0.117952
0.946166 0.000000 0.134859
0.964324 0.000000 0.153140
0.981445 0.000000 0.173556
0.997742 0.000000 0.196323
1.000000 0.000000 0.222141
1.000000 0.000000 0.252384
1.000000 0.000000 0.287510
0.078340 0.116030 0.105592
0.079408 0.115969 0.105928
0.080476 0.115328 0.105653
0.079255 0.114809 0.105074
0.050111 0.125856 0.091951
0.112306 0.137362 0.065675
0.177829 0.149935 0.022187
0.212741 0.142580 0.017578
0.252049 0.132937 0.012848
0.302281 0.115816 0.012268
0.355383 0.083528 0.010620
0.411353 0.000000 0.010346
0.467964 0.000000 0.009064
0.523674 0.000000 0.008209
0.577264 0.000000 0.006928
0.627558 0.000000 0.005402
0.673610 0.000000 0.004089
0.715419 0.000000 0.006134
0.753201 0.000000 0.010986
0.787076 0.000000 0.016907
0.820920 0.000000 0.030060
0.853544 0.000000 0.053468
0.924010 0.000000 0.116426
0.946899 0.000000 0.138552
0.966247 0.000000 0.159945
0.983032 0.000000 0.182315
0.998047 0.000000 0.205417
1.000000 0.000000 0.230259
1.000000 0.000000 0.257664
1.000000 0.145510 0.288914
1.000000 0.226719 0.324010
1.000000 0.290379 0.362951
0.112551 0.165927 0.150729
0.111971 0.165957 0.150729
0.112886 0.164462 0.149905
0.113527 0.162264 0.148989
0.094881 0.167239 0.140017
0.086519 0.182467 0.115724
0.164034 0.196323 0.086030
0.254002 0.210361 0.000000
0.294224 0.197635 0.000000
0.331304 0.183169 0.000000
0.381964 0.164553 0.000000
0.439307 0.138705 0.000000
0.495430 0.096651 0.000000
0.549218 0.000000 0.000000
0.599756 0.000000 0.000000
0.646235 0.000000 0.000000
0.689235 0.000000 0.000000
0.728359 0.000000 0.000000
0.764462 0.000000 0.000000
0.798734 0.000000 0.003571
0.839811 0.000000 0.026307
0.873838 0.000000 0.064179
0.903258 0.000000 0.098787
0.929381 0.000000 0.122225
0.951873 0.000000 0.146487
0.970611 0.000000 0.169772
0.986816 0.000000 0.193149
1.000000 0.000000 0.217441
1.000000 0.048188 0.244022
1.000000 0.168795 0.273594
1.000000 0.232486 0.307073
1.000000 0.288487 0.344366
0.142641 0.207370 0.188571
0.142794 0.207248 0.188602
0.142855 0.205814 0.187594
0.142428 0.203189 0.186160
0.142245 0.198856 0.183719
0.097108 0.213260 0.160891
0.116579 0.228824 0.135714
0.207431 0.242435 0.100282
0.306340 0.256901 0.000000
0.352331 0.244480 0.000000
0.388983 0.228428 0.000000
0.424811 0.211124 0.000000
0.479805 0.190555 0.000000
0.532433 0.164523 0.000000
0.582635 0.128756 0.000000
0.629175 0.046204 0.000000
0.672572 0.000000 0.000000
0.712612 0.000000 0.000000
0.749630 0.000000 0.000000
0.793149 0.000000 0.000000
0.830655 0.000000 0.000000
0.863035 0.000000 0.031342
0.891478 0.000000 0.083650
0.917235 0.000000 0.110323
0.939788 0.000000 0.135378
0.959045 0.000000 0.159182
0.975799 0.000000 0.183017
0.990936 0.102846 0.207462
1.000000 0.164645 0.234104
1.000000 0.213748 0.263157
1.000000 0.259739 0.295933
1.000000 0.306126 0.333165
0.179995 0.253208 0.230228
0.179812 0.252720 0.229831
0.179873 0.251347 0.229129
0.179477 0.248356 0.227390
0.178073 0.243778 0.224460
0.161196 0.245792 0.215671
0.118563 0.262211 0.187198
0.156405 0.277897 0.158511
0.253819 0.291417 0.119875
0.360815 0.306310 0.000000
0.411688 0.295079 0.000000
0.446815 0.278355 0.000000
0.479713 0.260441 0.000000
0.518029 0.241581 0.000000
0.567987 0.221408 0.000000
0.614588 0.198367 0.000000
0.658442 0.171572 0.000000
0.699550 0.141939 0.000000
0.745296 0.115602 0.000000
0.785946 0.086458 0.000000
0.821286 0.034333 0.000000
0.852506 0.017304 0.000000
0.880247 0.045045 0.041260
0.905791 0.096437 0.095796
0.928496 0.127474 0.124178
0.948089 0.154543 0.149630
0.965393 0.180270 0.174716
0.981109 0.206241 0.199832
0.995911 0.234470 0.226932
1.000000 0.264622 0.256474
1.000000 0.298558 0.289616
1.000000 0.334966 0.326452
0.222568 0.302007 0.273777
0.222385 0.301183 0.273198
0.221530 0.299413 0.272038
0.220432 0.296300 0.269963
0.218387 0.291203 0.266514
0.215976 0.284428 0.262211
0.177462 0.295140 0.243442
0.150637 0.311589 0.213779
0.200412 0.326238 0.182956
0.302068 0.338445 0.141878
0.410498 0.352941 0.039704
0.463050 0.343755 0.000000
0.495521 0.325628 0.000000
0.526146 0.309087 0.000000
0.554925 0.289799 0.000000
0.597253 0.273167 0.000000
0.647181 0.260716 0.000000
0.695399 0.249485 0.000000
0.738613 0.239536 0.000000
0.777279 0.231113 0.000000
0.810971 0.224125 0.000000
0.840299 0.219974 0.000000
0.866575 0.218479 0.000000
0.890654 0.221347 0.053071
0.912627 0.227176 0.104036
0.932341 0.235813 0.132418
0.950408 0.247288 0.158663
0.967285 0.261906 0.185580
0.983215 0.281346 0.214084
0.998444 0.304479 0.244816
1.000000 0.331945 0.279515
1.000000 0.363256 0.318181
0.264744 0.346563 0.313756
0.264500 0.346288 0.313451
0.264225 0.344976 0.312688
0.262882 0.342016 0.310765
0.260929 0.337896 0.308019
0.258549 0.332067 0.304082
0.246708 0.330022 0.296849
0.195102 0.346868 0.269169
0.192203 0.362585 0.241917
0.251865 0.376715 0.209689
0.354803 0.387274 0.167697
0.461372 0.401251 0.097322
0.513939 0.394202 0.000000
0.543786 0.375799 0.000000
0.576928 0.362493 0.000000
0.607843 0.348913 0.000000
0.638788 0.334295 0.000000
0.684321 0.325719 0.000000
0.725704 0.318120 0.000000
0.763149 0.311437 0.000000
0.796384 0.305425 0.000000
0.825742 0.301152 0.000000
0.852232 0.298955 0.000000
0.876707 0.298924 0.000000
0.899290 0.301152 0.079530
0.919646 0.305547 0.118563
0.938445 0.312169 0.148684
0.955993 0.321904 0.177737
0.972686 0.335088 0.208194
0.988586 0.352392 0.240513
1.000000 0.373968 0.276310
1.000000 0.399329 0.315740
0.315068 0.396979 0.359777
0.315038 0.396674 0.359564
0.314336 0.395331 0.358618
0.313024 0.392889 0.356970
0.311376 0.389410 0.354620
0.308659 0.383978 0.350805
0.305333 0.377295 0.346227
0.276036 0.384985 0.332036
0.230686 0.401801 0.301305
0.245060 0.416297 0.273991
0.311162 0.429999 0.241489
0.415534 0.443275 0.202335
0.570184 0.502556 0.173892
0.622126 0.500847 0.000702
0.650538 0.485145 0.000000
0.676326 0.470069 0.000000
0.700374 0.456031 0.000000
0.723201 0.440192 0.000000
0.753048 0.430030 0.000000
0.786709 0.424842 0.000000
0.816403 0.420172 0.000000
0.842863 0.416327 0.000000
0.867277 0.413703 0.000000
0.889708 0.413214 0.048798
0.910185 0.413519 0.117708
0.928771 0.414740 0.153506
0.945708 0.416907 0.184878
0.961425 0.421118 0.214572
0.976318 0.427924 0.245060
0.990845 0.438117 0.278172
1.000000 0.451942 0.314244
1.000000 0.469886 0.354223
0.391455 0.468849 0.428107
0.390875 0.468421 0.427649
0.389075 0.466224 0.425788
0.386603 0.462898 0.423041
0.383917 0.459052 0.420020
0.381048 0.454383 0.416571
0.378637 0.449317 0.413092
0.372595 0.444984 0.407935
0.333593 0.463142 0.388495
0.309300 0.482368 0.361608
0.340215 0.500450 0.337469
0.413031 0.516808 0.308476
0.513207 0.529442 0.271824
0.610651 0.544945 0.220798
0.656764 0.544213 0.133577
0.684169 0.530632 0.000000
0.705257 0.515221 0.000000
0.725063 0.500145 0.000000
0.744106 0.484718 0.000000
0.762356 0.469032 0.000000
0.792203 0.463111 0.000000
0.819699 0.458350 0.000000
0.845029 0.454658 0.000000
0.868711 0.452583 0.000000
0.890501 0.451514 0.078462
0.910460 0.451575 0.130190
0.928893 0.452766 0.167117
0.946166 0.455726 0.200748
0.962554 0.461128 0.234409
0.978393 0.469703 0.269841
0.993622 0.481270 0.307744
1.000000 0.496681 0.349401
0.458015 0.528191 0.488045
0.457221 0.527398 0.487221
0.455146 0.525292 0.485206
0.451972 0.521904 0.482063
0.447852 0.517082 0.477729
0.442878 0.511162 0.472541
0.437842 0.504570 0.466926
0.432837 0.497536 0.461280
0.413489 0.501122 0.451026
0.375616 0.517754 0.426856
0.369360 0.534234 0.403418
0.405371 0.549310 0.379797
0.473671 0.561791 0.351354
0.559655 0.570397 0.315129
0.644953 0.581872 0.267735
0.683375 0.578576 0.191592
0.708309 0.565209 0.118318
0.725887 0.549859 0.013764
0.743313 0.535363 0.000000
0.760250 0.521599 0.000000
0.776974 0.506981 0.000000
0.798337 0.497200 0.000000
0.824826 0.493446 0.000000
0.849760 0.490944 0.000000
0.872831 0.489448 0.000000
0.894072 0.488960 0.109773
0.913756 0.489357 0.153780
0.932128 0.491279 0.191043
0.949676 0.495247 0.227726
0.966552 0.502220 0.265141
0.982788 0.512016 0.305364
0.998535 0.525383 0.348638
0.509667 0.572808 0.535973
0.509117 0.572229 0.535424
0.507225 0.570336 0.533471
0.503716 0.566735 0.529870
0.498970 0.561791 0.525017
0.493355 0.555688 0.519097
0.487556 0.549218 0.513024
0.482033 0.542382 0.506859
0.476844 0.535363 0.500908
0.448310 0.547356 0.486275
0.417182 0.562951 0.461128
0.425757 0.576776 0.442237
0.462715 0.588830 0.419593
0.522850 0.597925 0.390906
0.596002 0.603235 0.355230
0.670436 0.610590 0.310491
0.703243 0.605768 0.241062
0.727382 0.593835 0.169894
0.743160 0.579278 0.129519
0.758846 0.565606 0.033783
0.774746 0.553552 0.000000
0.790677 0.541070 0.000000
0.806943 0.529290 0.000000
0.831449 0.525658 0.000000
0.855619 0.523857 0.000000
0.878080 0.523095 0.084596
0.899107 0.523552 0.141573
0.918975 0.525628 0.185153
0.938109 0.529839 0.226139
0.956512 0.537072 0.268467
0.974395 0.547356 0.313237
0.991516 0.560845 0.361883
0.547234 0.605585 0.572869
0.547173 0.605554 0.572808
0.546197 0.604486 0.571740
0.544060 0.602350 0.569451
0.540978 0.599054 0.566125
0.537407 0.594965 0.562036
0.533959 0.590661 0.558038
0.530144 0.585718 0.553491
0.526482 0.580468 0.548821
0.515373 0.580438 0.541741
0.488411 0.592523 0.524620
0.467903 0.604456 0.500999
0.477852 0.613703 0.480415
0.509514 0.620661 0.455116
0.559045 0.624933 0.424659
0.620844 0.626459 0.387427
0.687709 0.631342 0.345678
0.717037 0.626276 0.281987
0.741146 0.616327 0.213352
0.756344 0.603143 0.177981
0.771786 0.591547 0.138216
0.787747 0.581689 0.077790
0.803799 0.571954 0.000000
0.820432 0.562524 0.000000
0.840299 0.557031 0.000000
0.864225 0.557000 0.045258
0.886534 0.557946 0.137057
0.907683 0.560143 0.185367
0.927733 0.563958 0.229404
0.946868 0.569970 0.273503
0.965301 0.578302 0.319371
0.982849 0.589349 0.367773
0.578363 0.631617 0.603906
0.578119 0.631403 0.603662
0.577295 0.630579 0.602777
0.575921 0.629114 0.601221
0.573754 0.626795 0.598749
0.570947 0.623835 0.595636
0.568048 0.620447 0.592187
0.564538 0.616419 0.588190
0.560723 0.611749 0.583642
0.556664 0.606622 0.578698
0.538933 0.612634 0.568627
0.514702 0.622950 0.549798
0.503807 0.632105 0.529046
0.515251 0.638941 0.508812
0.543877 0.643793 0.483986
0.587488 0.646326 0.454444
0.641810 0.646906 0.419165
0.703456 0.650904 0.381689
0.730404 0.646418 0.323888
0.754635 0.638270 0.258732
0.770016 0.627039 0.224491
0.785336 0.617243 0.194217
0.801297 0.609186 0.159426
0.817502 0.601556 0.129427
0.834104 0.594232 0.101411
0.851408 0.588220 0.039948
0.874357 0.589014 0.133089
0.896727 0.591608 0.186923
0.917876 0.595666 0.235050
0.938079 0.601495 0.282048
0.957397 0.609369 0.330602
0.975830 0.619623 0.381109
0.608087 0.656916 0.634791
0.608453 0.657191 0.635157
0.635859 0.681209 0.664759
0.634852 0.680140 0.663600
0.633295 0.678340 0.661646
0.631220 0.675929 0.659052
0.628565 0.672969 0.655818
0.625483 0.669459 0.652033
0.622309 0.665675 0.648066
0.618799 0.661372 0.643610
0.612665 0.658503 0.638056
0.595270 0.665309 0.626581
0.575067 0.672114 0.607172
0.570367 0.677028 0.589532
0.577752 0.680446 0.568780
0.598108 0.682185 0.543633
0.631342 0.682155 0.513787
0.674952 0.680659 0.479255
0.728176 0.683436 0.442908
0.752743 0.677790 0.389837
0.775906 0.670375 0.328252
0.791867 0.660517 0.291142
0.806455 0.652003 0.265019
0.821714 0.644770 0.238163
0.836851 0.637629 0.215793
0.852384 0.630610 0.198917
0.868711 0.624903 0.182650
0.887877 0.623102 0.195987
0.909117 0.626062 0.244297
0.929747 0.631098 0.292393
0.949767 0.638239 0.342321
0.968780 0.647517 0.394293
0.640131 0.685481 0.669734
0.642329 0.687556 0.672236
0.644251 0.689357 0.674464
0.645624 0.690455 0.675898
0.645869 0.690455 0.676081
0.644862 0.689082 0.674678
0.642847 0.686610 0.672145
0.640284 0.683497 0.668818
0.637476 0.680018 0.665217
0.634302 0.676081 0.661067
0.630823 0.671748 0.656611
0.620386 0.673213 0.649531
0.603784 0.678950 0.636530
0.587610 0.684596 0.618067
0.586236 0.688472 0.601831
0.594690 0.691279 0.582177
0.614496 0.692897 0.558709
0.645655 0.693263 0.531548
0.686275 0.692653 0.500847
0.737118 0.697353 0.469276
0.761501 0.692561 0.423560
0.784726 0.687465 0.369726
0.802487 0.679866 0.330327
0.817075 0.672724 0.308141
0.831998 0.666651 0.285222
0.847166 0.660822 0.268223
0.862821 0.655421 0.256474
0.879606 0.651575 0.247288
0.897826 0.649928 0.243381
0.919402 0.654780 0.293797
0.940307 0.661707 0.346044
0.960357 0.670680 0.400397
0.654932 0.700038 0.687037
0.657008 0.702022 0.689418
0.658991 0.703883 0.691707
0.660456 0.705165 0.693324
0.660975 0.705440 0.693812
0.660243 0.704372 0.692775
0.658625 0.702358 0.690639
0.656367 0.699580 0.687739
0.653925 0.696468 0.684443
0.651148 0.692958 0.680812
0.648096 0.688960 0.676692
0.644617 0.684627 0.672114
0.630945 0.689509 0.663447
0.615442 0.694697 0.649622
0.604608 0.699275 0.633631
0.605219 0.702541 0.618433
0.614435 0.704891 0.600275
0.633265 0.706325 0.578882
0.661891 0.706935 0.554345
0.699184 0.706752 0.526513
0.747097 0.712459 0.498116
0.770932 0.708400 0.459266
0.793668 0.704677 0.411749
0.813016 0.698878 0.369818
0.827359 0.692897 0.351232
0.842344 0.688075 0.332403
0.857542 0.683528 0.320409
0.873594 0.679988 0.314031
0.891173 0.678401 0.311772
0.910399 0.679194 0.315496
0.931548 0.684474 0.351598
0.952331 0.693080 0.407385
0.670253 0.715175 0.705074
0.672053 0.716945 0.707179
0.673793 0.718532 0.709133
0.674922 0.719539 0.710414
0.675349 0.719814 0.710842
0.674769 0.718929 0.710018
0.673365 0.717250 0.708186
0.671595 0.714961 0.705806
0.669429 0.712337 0.702998
0.666987 0.709255 0.699763
0.664363 0.705806 0.696223
0.661341 0.701930 0.692164
0.654353 0.701167 0.686641
0.641444 0.705653 0.677119
0.627375 0.710384 0.663020
0.621820 0.714321 0.650019
0.624781 0.717739 0.636866
0.635554 0.720668 0.621729
0.654932 0.723262 0.605005
0.682399 0.725399 0.586114
0.717098 0.727016 0.564508
0.762264 0.734768 0.543053
0.786252 0.732540 0.512718
0.809140 0.731289 0.474861
0.830259 0.728359 0.438453
0.845884 0.724941 0.424262
0.861814 0.722927 0.413886
0.878172 0.721370 0.412238
0.895872 0.721553 0.415930
0.915190 0.723751 0.424353
0.935882 0.728206 0.438911
0.957214 0.735378 0.467445
0.696132 0.740963 0.735683
0.696773 0.741634 0.736446
0.697139 0.741970 0.736843
0.697047 0.741756 0.736690
0.696437 0.740963 0.735866
0.695247 0.739590 0.734401
0.693782 0.737819 0.732479
0.692042 0.735744 0.730251
0.690211 0.733394 0.727810
0.688289 0.730953 0.725277
0.686183 0.728176 0.722408
0.683803 0.725063 0.719173
0.680812 0.721218 0.715145
0.671290 0.723629 0.708858
0.659419 0.727657 0.698970
0.647120 0.731838 0.685176
0.645106 0.734951 0.674372
0.648951 0.737728 0.662287
0.659480 0.740169 0.648859
0.677058 0.742184 0.633631
0.701503 0.743709 0.616419
0.732113 0.744717 0.596704
0.772610 0.751308 0.577234
0.795956 0.749355 0.550072
0.817716 0.748470 0.516075
0.839506 0.746883 0.481819
0.855772 0.744900 0.469642
0.872282 0.744778 0.465339
0.889281 0.745357 0.470832
0.907713 0.747860 0.480354
0.927520 0.752285 0.494514
0.948425 0.758755 0.513695
0.709712 0.754971 0.751888
0.710201 0.755428 0.752438
0.710506 0.755703 0.752773
0.710506 0.755612 0.752712
0.710079 0.755062 0.752132
0.709133 0.753964 0.751003
0.707912 0.752468 0.749416
0.706569 0.750759 0.747616
0.705013 0.748836 0.745632
0.703426 0.746700 0.743465
0.701747 0.744442 0.741176
0.699733 0.741817 0.738491
0.697383 0.738766 0.735317
0.693233 0.736873 0.731411
0.683345 0.740627 0.724788
0.672663 0.744594 0.715084
0.664057 0.748562 0.703578
0.663813 0.751797 0.694148
0.668757 0.754757 0.683589
0.679438 0.757412 0.671931
0.696345 0.759731 0.659022
0.719081 0.761593 0.644648
0.747341 0.762936 0.628199
0.784573 0.769528 0.612543
0.803555 0.762722 0.578973
0.824460 0.762753 0.550011
0.847044 0.762844 0.519249
0.864347 0.762509 0.509117
0.881132 0.764004 0.511742
0.898772 0.766751 0.522240
0.917937 0.771664 0.537346
0.938231 0.778470 0.556634
0.728634 0.774472 0.774105
0.729519 0.775326 0.775051
0.729763 0.775570 0.775357
0.729305 0.775082 0.774838
0.728298 0.773953 0.773648
0.726864 0.772335 0.771878
0.725032 0.770291 0.769680
0.722988 0.767941 0.767178
0.720851 0.765438 0.764492
0.718685 0.762814 0.761776
0.716304 0.759945 0.758755
0.713985 0.757046 0.755764
0.711391 0.753811 0.752377
0.708461 0.750088 0.748531
0.701320 0.750149 0.743191
0.691157 0.752956 0.735317
0.680446 0.756161 0.724636
0.674464 0.759396 0.714382
0.675288 0.762509 0.705623
0.681270 0.765743 0.696376
0.692531 0.768826 0.686305
0.709010 0.771481 0.675013
0.730434 0.773312 0.661830
0.756527 0.774289 0.646326
0.790860 0.779812 0.631281
0.813565 0.778958 0.611933
0.833433 0.779538 0.587793
0.855344 0.780545 0.562829
0.874144 0.781582 0.551781
0.890867 0.784237 0.559899
0.908934 0.788754 0.573632
0.928374 0.795346 0.591424
0.738155 0.784421 0.785122
0.738949 0.785183 0.786007
0.739315 0.785550 0.786404
0.739193 0.785397 0.786282
0.738735 0.784817 0.785672
0.737911 0.783871 0.784695
0.737057 0.782803 0.783597
0.735988 0.781521 0.782315
0.734798 0.780117 0.780880
0.733608 0.778592 0.779355
0.732174 0.776730 0.777523
0.730587 0.774685 0.775479
0.728695 0.772274 0.773037
0.726375 0.769314 0.770047
0.723568 0.765988 0.766537
0.714778 0.768429 0.760830
0.705531 0.771145 0.753140
0.696071 0.774411 0.743130
0.693355 0.777554 0.735409
0.695338 0.780819 0.728023
0.701686 0.784085 0.720180
0.712581 0.787167 0.711513
0.727932 0.789761 0.701625
0.747768 0.791806 0.690120
0.772030 0.793088 0.676814
0.804349 0.798764 0.664698
0.827481 0.799374 0.650690
0.847013 0.801480 0.633265
0.869047 0.804807 0.617426
0.889525 0.808286 0.610346
0.906920 0.812863 0.623072
0.925444 0.819425 0.639734
0.752316 0.798856 0.800961
0.752712 0.799222 0.801358
0.752773 0.799313 0.801480
0.752590 0.799069 0.801236
0.752071 0.798520 0.800626
0.751369 0.797696 0.799802
0.750454 0.796628 0.798734
0.749386 0.795468 0.797543
0.748287 0.794156 0.796231
0.747219 0.792813 0.794919
0.745907 0.791226 0.793362
0.744594 0.789578 0.791714
0.743069 0.787655 0.789822
0.741238 0.785306 0.787533
0.738979 0.782467 0.784665
0.734340 0.781552 0.781033
0.726284 0.783993 0.775448
0.718044 0.786923 0.768246
0.710597 0.790402 0.759670
0.710048 0.793698 0.753780
0.712978 0.797116 0.747646
0.719539 0.800412 0.740871
0.729915 0.803281 0.733089
0.744289 0.805692 0.724086
0.762661 0.807462 0.713619
0.785092 0.808682 0.701534
0.815579 0.814084 0.691096
0.838804 0.815366 0.679774
0.857969 0.818357 0.666041
0.879973 0.823423 0.656275
0.901579 0.828916 0.654139
0.917693 0.835966 0.670253
0.764218 0.810788 0.813748
0.764492 0.811063 0.814054
0.764675 0.811185 0.814237
0.764675 0.811154 0.814206
0.764614 0.811032 0.814115
0.764523 0.810910 0.814023
0.764858 0.811124 0.814328
0.765316 0.811398 0.814694
0.765957 0.811887 0.815335
0.766690 0.812436 0.816007
0.767453 0.812985 0.816739
0.768093 0.813352 0.817288
0.768429 0.813443 0.817533
0.768368 0.813046 0.817288
0.767758 0.812161 0.816556
0.766537 0.810544 0.815061
0.761135 0.812253 0.812039
0.754635 0.815091 0.807645
0.748135 0.818509 0.802060
0.743893 0.822202 0.796353
0.744656 0.825711 0.792264
0.748196 0.829191 0.787716
0.754574 0.832303 0.782467
0.764187 0.835080 0.776394
0.777157 0.837369 0.769253
0.793759 0.839200 0.761013
0.814176 0.840604 0.751705
0.842130 0.845945 0.744442
0.864958 0.848386 0.737819
0.883360 0.852659 0.730007
0.899626 0.856779 0.725093
0.909819 0.848539 0.696193
0.787381 0.832761 0.837064
0.787381 0.832731 0.837034
0.787259 0.832578 0.836912
0.786984 0.832334 0.836667
0.786587 0.831968 0.836271
0.786160 0.831540 0.835843
0.785763 0.831083 0.835416
0.785428 0.830655 0.835050
0.785122 0.830289 0.834714
0.784848 0.829953 0.834440
0.784604 0.829587 0.834134
0.784390 0.829221 0.833860
0.784054 0.828733 0.833494
0.783566 0.828031 0.832883
