20 Preset/INSTA/【3】LUT video cho PR-AE-FCPX/INS LUT (24).cube
# Created by Adobe Lightroom plugin Export LUT (1.24.0)
# www.johnrellis.com/lightroom/exportlut.htm
# Preset: INS胶片-自然[素材江湖]24
# Color profile: C:\Program Files (x86)\Common Files\Adobe\Color\Profiles\Recommended\VideoHD.icc
LUT_3D_SIZE 5
DOMAIN_MIN 0.000000 0.000000 0.000000
DOMAIN_MAX 0.903226 0.903226 0.903226
0.028687 0.035340 0.052186
0.429938 0.000000 0.065217
1.000000 0.000000 0.000000
1.000000 0.435004 0.274113
1.000000 0.591669 0.494057
0.000000 0.305577 0.084901
0.376410 0.324651 0.127138
0.874540 0.370123 0.000000
1.000000 0.518273 0.253910
1.000000 0.633082 0.516136
0.000000 0.756252 0.215213
0.000000 0.742367 0.117189
0.829770 0.764004 0.536522
0.933562 0.665461 0.235691
1.000000 0.703944 0.494820
0.000000 0.873655 0.521874
0.000000 0.872831 0.471839
0.674830 0.860410 0.583398
0.879911 0.858518 0.768490
0.943206 0.823178 0.687343
0.648005 0.916625 0.771572
0.643671 0.916960 0.763333
0.631617 0.914855 0.721767
0.829801 0.906035 0.810849
0.902342 0.901884 0.867979
0.000000 0.101625 0.161746
0.446845 0.000000 0.283207
0.975769 0.255589 0.307713
1.000000 0.514336 0.427283
1.000000 0.630243 0.566613
0.000000 0.335393 0.257542
0.396033 0.344640 0.255344
0.866575 0.420935 0.227146
1.000000 0.555047 0.390417
1.000000 0.652735 0.566949
0.000000 0.741695 0.348547
0.000000 0.730922 0.281132
0.810391 0.746426 0.552819
0.915282 0.649104 0.273014
1.000000 0.713588 0.544945
0.246555 0.868101 0.571984
0.188449 0.867552 0.531701
0.685756 0.858152 0.617395
0.877012 0.858366 0.779416
0.939879 0.823056 0.695369
0.665217 0.915068 0.783322
0.660121 0.915282 0.775021
0.654017 0.916014 0.746029
0.833829 0.907073 0.821256
0.902403 0.903410 0.873228
0.000000 0.320623 0.526177
0.407874 0.452827 0.502373
0.940246 0.473640 0.721584
0.959930 0.731044 0.756680
0.982818 0.757565 0.762722
0.256260 0.454414 0.575616
0.555505 0.564721 0.576867
0.869017 0.708003 0.743740
0.952117 0.722316 0.724117
0.978454 0.762539 0.757504
0.502617 0.764004 0.660334
0.558953 0.755245 0.635279
0.792782 0.754879 0.671931
0.901640 0.689906 0.532738
0.967681 0.768124 0.713680
0.593561 0.857481 0.717983
0.572808 0.854551 0.690547
0.705867 0.851713 0.697322
0.869291 0.858518 0.803677
0.931640 0.819944 0.715236
0.716640 0.909483 0.820340
0.713771 0.909789 0.814878
0.698817 0.911040 0.787289
0.828122 0.905425 0.828428
0.900328 0.902892 0.877256
0.477119 0.635065 0.779843
0.611078 0.686519 0.776883
0.737270 0.722286 0.796048
0.941161 0.746029 0.843565
0.923766 0.863981 0.880797
0.579797 0.680171 0.780667
0.657588 0.714900 0.779232
0.754513 0.737423 0.797574
0.922393 0.789700 0.847745
0.924773 0.858335 0.873777
0.625849 0.763668 0.787289
0.679408 0.768093 0.787015
0.808591 0.790463 0.807858
0.888487 0.825895 0.831479
0.925414 0.845823 0.851133
0.713252 0.864286 0.819852
0.729274 0.861540 0.818814
0.743648 0.852995 0.793698
0.859037 0.857267 0.829526
0.922423 0.826841 0.780514
0.764218 0.908415 0.860288
0.772976 0.907561 0.861295
0.792752 0.905669 0.860136
0.810208 0.905211 0.842618
0.898131 0.904143 0.886534
0.708461 0.792172 0.872587
0.736416 0.805509 0.870726
0.815549 0.848173 0.866789
0.857481 0.815244 0.890318
0.936370 0.835355 0.893156
0.718532 0.798123 0.871458
0.743771 0.810300 0.870359
0.817136 0.849760 0.868162
0.860136 0.823392 0.889921
0.930541 0.847105 0.894438
0.669612 0.781064 0.872618
0.717769 0.801846 0.871092
0.815091 0.851377 0.872862
0.865873 0.851560 0.890227
0.916197 0.877623 0.900145
0.719600 0.866270 0.881712
0.736263 0.866056 0.881224
0.792721 0.866484 0.880308
0.861875 0.881163 0.887541
0.904265 0.900725 0.906310
0.786130 0.912139 0.890379
0.793912 0.911376 0.890837
0.822385 0.909148 0.893126
0.857053 0.905760 0.895323
0.894224 0.906004 0.900633
