20 Preset/INSTA/【3】LUT video cho PR-AE-FCPX/INS LUT (15).cube
# Created by Adobe Lightroom plugin Export LUT (1.24.0)
# www.johnrellis.com/lightroom/exportlut.htm
# Preset: INS胶片-复古[素材江湖]15
# Color profile: C:\Program Files (x86)\Common Files\Adobe\Color\Profiles\Recommended\VideoHD.icc
LUT_3D_SIZE 8
DOMAIN_MIN 0.000000 0.000000 0.000000
DOMAIN_MAX 0.903226 0.903226 0.903226
0.139712 0.075441 0.090517
0.170352 0.063752 0.090669
0.340490 0.000000 0.086824
0.624506 0.000000 0.040925
0.861875 0.000000 0.000000
1.000000 0.000000 0.000000
1.000000 0.000000 0.000000
1.000000 0.000000 0.000000
0.150423 0.101778 0.101503
0.165225 0.096834 0.098299
0.283696 0.072938 0.092317
0.544244 0.000000 0.048066
0.810636 0.000000 0.000000
0.983215 0.000000 0.000000
1.000000 0.000000 0.000000
1.000000 0.000000 0.000000
0.158236 0.207218 0.142275
0.169894 0.202487 0.136141
0.258030 0.173526 0.116793
0.414313 0.173739 0.091981
0.714809 0.177951 0.000000
0.929808 0.165194 0.000000
1.000000 0.175906 0.000000
1.000000 0.203891 0.000000
0.000000 0.425055 0.236942
0.064363 0.418433 0.228519
0.197360 0.403265 0.183352
0.443854 0.359472 0.157809
0.648554 0.378119 0.056367
0.829252 0.399603 0.000000
0.986450 0.425360 0.000000
1.000000 0.439826 0.000000
0.000000 0.594751 0.340032
0.000000 0.593164 0.335149
0.125612 0.593164 0.323827
0.363104 0.574609 0.259617
0.585290 0.513390 0.208804
0.743771 0.509117 0.147829
0.885649 0.534691 0.099245
1.000000 0.574609 0.167727
0.221042 0.714595 0.462531
0.265049 0.722133 0.471473
0.326665 0.722438 0.468421
0.412696 0.722469 0.463752
0.549310 0.694270 0.387121
0.713527 0.654353 0.328740
0.844388 0.655116 0.316258
0.953765 0.692866 0.349737
0.471443 0.808927 0.596185
0.481636 0.810452 0.598291
0.504509 0.809628 0.596246
0.548760 0.809659 0.597101
0.576532 0.804196 0.559564
0.694362 0.784268 0.527947
0.809201 0.761807 0.489693
0.907347 0.769955 0.505547
0.649256 0.900572 0.733455
0.652064 0.900481 0.733181
0.665766 0.901183 0.733852
0.692653 0.903410 0.737301
0.701045 0.890135 0.717769
0.742489 0.890013 0.693965
0.830564 0.883177 0.684718
0.907958 0.872007 0.666102
0.142794 0.082490 0.101320
0.163119 0.076875 0.100587
0.303136 0.000000 0.088136
0.528374 0.000000 0.054688
0.798611 0.000000 0.000000
0.969940 0.000000 0.000000
1.000000 0.000000 0.000000
1.000000 0.000000 0.000000
0.149355 0.104219 0.109133
0.173892 0.101106 0.108339
0.274296 0.090944 0.098909
0.482704 0.000000 0.063905
0.761318 0.000000 0.000000
0.947295 0.000000 0.000000
1.000000 0.000000 0.000000
1.000000 0.000000 0.000000
0.182010 0.205203 0.153872
0.191653 0.201907 0.148501
0.266361 0.177951 0.129946
0.411017 0.177951 0.104463
0.655909 0.173312 0.000000
0.884916 0.158572 0.000000
1.000000 0.136599 0.000000
1.000000 0.149599 0.000000
0.136324 0.384222 0.229282
0.158389 0.380774 0.223087
0.215732 0.373388 0.188296
0.411231 0.322942 0.162417
0.586023 0.329412 0.104799
0.766201 0.348241 0.000000
0.943786 0.379126 0.000000
1.000000 0.396643 0.000000
0.000000 0.582116 0.339971
0.000000 0.578698 0.333928
0.160830 0.574487 0.319249
0.353277 0.549218 0.254978
0.559045 0.482704 0.206668
0.716579 0.482002 0.147646
0.862119 0.508019 0.005615
0.991821 0.547021 0.117372
0.203891 0.700465 0.451392
0.226719 0.701106 0.450874
0.296757 0.702327 0.448035
0.393988 0.705135 0.449226
0.534203 0.679072 0.374090
0.703487 0.642695 0.322942
0.834073 0.642237 0.305364
0.944762 0.674678 0.317418
0.446387 0.796262 0.580194
0.448249 0.794553 0.577111
0.472419 0.793454 0.574365
0.522759 0.795010 0.577050
0.558953 0.793576 0.545464
0.680507 0.772824 0.512474
0.795407 0.745968 0.466468
0.894713 0.749874 0.474250
0.630243 0.890440 0.718837
0.636774 0.892088 0.721340
0.650385 0.892515 0.721462
0.678828 0.895140 0.725399
0.713863 0.896849 0.729702
0.746365 0.892302 0.699367
0.828275 0.881193 0.682979
0.905699 0.869383 0.663203
0.145968 0.097566 0.135744
0.163455 0.102235 0.130922
0.282322 0.033570 0.145663
0.591638 0.000000 0.100557
0.803403 0.000000 0.000000
0.956878 0.000000 0.000000
1.000000 0.000000 0.000000
1.000000 0.000000 0.000000
0.155886 0.109560 0.150576
0.183413 0.119600 0.150240
0.317662 0.078462 0.152163
0.563317 0.000000 0.106050
0.775448 0.000000 0.000000
0.929198 0.000000 0.000000
1.000000 0.000000 0.000000
1.000000 0.000000 0.000000
0.169863 0.220310 0.187594
0.213443 0.225528 0.192020
0.314275 0.214115 0.185946
0.481239 0.216739 0.155184
0.713924 0.214420 0.053101
0.881468 0.228519 0.000000
1.000000 0.230381 0.000000
1.000000 0.229801 0.000000
0.188449 0.413123 0.279789
0.250431 0.423224 0.290562
0.306554 0.419837 0.275517
0.464820 0.370459 0.226871
0.637079 0.375738 0.173678
0.798245 0.384070 0.070375
0.946044 0.407721 0.000000
1.000000 0.425025 0.000000
0.198856 0.593103 0.386481
0.219608 0.592493 0.382391
0.289372 0.592676 0.371923
0.406470 0.579461 0.323430
0.598138 0.520500 0.272190
0.740139 0.511284 0.218997
0.871000 0.524620 0.156435
0.993256 0.557275 0.140078
0.310399 0.702144 0.480995
0.325292 0.703487 0.481361
0.371893 0.704280 0.478218
0.446876 0.705806 0.478798
0.555261 0.682582 0.413825
0.709926 0.647730 0.364996
0.835111 0.649104 0.346838
0.946014 0.681605 0.347875
0.486427 0.799924 0.600977
0.488930 0.798611 0.598505
0.507195 0.796414 0.593805
0.548852 0.796445 0.593378
0.585565 0.795315 0.571771
0.691432 0.776974 0.537407
0.803738 0.755062 0.501091
0.902098 0.764920 0.513237
0.637354 0.890745 0.725765
0.638788 0.889891 0.724208
0.652064 0.890196 0.723964
0.684291 0.894987 0.730892
0.718898 0.896727 0.734646
0.751583 0.895293 0.710628
0.833097 0.885252 0.695949
0.909239 0.873625 0.676539
0.139620 0.117647 0.194522
0.155398 0.124483 0.199557
0.280461 0.190890 0.192447
0.513268 0.000000 0.247623
0.860258 0.000000 0.147372
0.977630 0.000000 0.000000
1.000000 0.000000 0.000000
1.000000 0.000000 0.000000
0.155093 0.135225 0.215030
0.175418 0.144167 0.219699
0.310918 0.219730 0.218265
0.546624 0.000000 0.259892
0.862943 0.000000 0.165103
0.970245 0.000000 0.000000
1.000000 0.000000 0.000000
1.000000 0.000000 0.000000
0.159609 0.190616 0.242252
0.187350 0.197177 0.248936
0.352239 0.271885 0.283482
0.622644 0.190982 0.260563
0.821622 0.196963 0.197055
0.935454 0.228428 0.105562
1.000000 0.272618 0.000000
1.000000 0.288182 0.000000
0.000000 0.420935 0.331060
0.151003 0.427710 0.335271
0.386694 0.459693 0.366979
0.532799 0.431342 0.340490
0.683864 0.422309 0.282567
0.838163 0.422827 0.215488
0.959838 0.426520 0.107454
1.000000 0.437598 0.000000
0.160006 0.604639 0.429572
0.247135 0.607385 0.435279
0.431495 0.620478 0.462470
0.498817 0.622309 0.440284
0.651728 0.573327 0.388006
0.772457 0.558679 0.333989
0.887541 0.557366 0.284642
1.000000 0.575128 0.214054
0.395148 0.715663 0.531151
0.439246 0.722774 0.544457
0.492500 0.723751 0.547631
0.547021 0.726284 0.547997
0.616175 0.711086 0.506645
0.735317 0.673548 0.455390
0.844327 0.672419 0.429084
0.949310 0.698573 0.422766
0.520073 0.802152 0.626032
0.539727 0.803372 0.630945
0.563195 0.804776 0.631189
0.602747 0.807248 0.632807
0.649317 0.808682 0.634333
0.716793 0.790768 0.587915
0.814359 0.766720 0.549981
0.908354 0.778897 0.556725
0.650446 0.897368 0.745144
0.659602 0.897185 0.746822
0.673152 0.897276 0.746151
0.698543 0.898741 0.746944
0.731685 0.899992 0.748745
0.757870 0.900023 0.729427
0.838315 0.890318 0.715267
0.915099 0.880797 0.699184
0.110475 0.147463 0.273869
0.127016 0.156588 0.283696
0.238682 0.211429 0.309606
0.406683 0.292241 0.340764
0.772183 0.000000 0.408545
0.995117 0.000000 0.284520
1.000000 0.000000 0.184787
1.000000 0.000000 0.000000
0.125734 0.162417 0.288609
0.144656 0.173037 0.299413
0.259586 0.232853 0.328771
0.435859 0.323491 0.364111
0.782254 0.059449 0.413519
0.992767 0.000000 0.285130
1.000000 0.000000 0.190127
1.000000 0.000000 0.000000
0.131197 0.180667 0.299626
0.159792 0.199344 0.317662
0.300206 0.283177 0.372137
0.507713 0.409400 0.418433
0.801144 0.264836 0.420905
0.964019 0.092897 0.300175
1.000000 0.197787 0.207065
1.000000 0.209873 0.000000
0.000000 0.329168 0.365240
0.114565 0.338781 0.372961
0.292668 0.385779 0.410407
0.599329 0.530266 0.492256
0.788724 0.487556 0.440284
0.895384 0.462074 0.364996
0.987335 0.441108 0.282078
1.000000 0.420661 0.141756
0.000000 0.581964 0.461585
0.000000 0.589502 0.466896
0.346166 0.609827 0.489937
0.600031 0.639765 0.541833
0.681727 0.603845 0.499245
0.783383 0.585657 0.441627
0.903563 0.574823 0.381140
1.000000 0.570092 0.297398
0.230869 0.691096 0.521477
0.288212 0.693324 0.526543
0.439490 0.699092 0.545098
0.584009 0.711116 0.575311
0.634882 0.710323 0.558312
0.746120 0.683619 0.526329
0.846677 0.684077 0.497322
0.948791 0.697810 0.475471
0.414710 0.792721 0.615991
0.434638 0.791928 0.617273
0.512779 0.792538 0.628046
0.621424 0.800046 0.652522
0.673121 0.805356 0.657954
0.725887 0.793637 0.625666
0.815061 0.766873 0.585962
0.905821 0.775845 0.577874
0.528222 0.886809 0.719051
0.542870 0.886351 0.720546
0.600031 0.885588 0.728573
0.690761 0.891691 0.751766
0.729458 0.894774 0.753902
0.770413 0.897490 0.757412
0.831998 0.887633 0.726375
0.909728 0.874846 0.705318
0.000000 0.189792 0.375738
0.000000 0.199985 0.387427
0.165835 0.254124 0.430884
0.478981 0.439948 0.490028
0.614954 0.428595 0.536950
0.905638 0.294682 0.550591
1.000000 0.000000 0.440955
1.000000 0.000000 0.319158
0.000000 0.196262 0.374273
0.000000 0.206058 0.384771
0.185580 0.258976 0.426154
0.471778 0.431281 0.480873
0.610132 0.428199 0.527733
0.897337 0.307103 0.538689
1.000000 0.000000 0.433234
1.000000 0.000000 0.323888
0.000000 0.222385 0.391211
0.091829 0.238437 0.406836
0.225956 0.300267 0.456580
0.503624 0.471168 0.517144
0.653101 0.502892 0.558618
0.898802 0.416205 0.555566
1.000000 0.266880 0.449989
1.000000 0.330510 0.376074
0.000000 0.248539 0.378241
0.000000 0.252110 0.384070
0.181979 0.284916 0.425971
0.530877 0.516747 0.560113
0.725429 0.619623 0.621729
0.905577 0.559411 0.589960
1.000000 0.533928 0.521233
1.000000 0.499580 0.425330
0.000000 0.474037 0.482704
0.000000 0.482368 0.488808
0.167361 0.519066 0.515923
0.499855 0.592462 0.569238
0.753475 0.678889 0.632929
0.850370 0.656794 0.588830
0.943481 0.632593 0.536065
1.000000 0.602502 0.455177
0.000000 0.686183 0.562432
0.000000 0.692103 0.568017
0.311009 0.703365 0.580713
0.549248 0.719936 0.611353
0.715145 0.742885 0.655085
0.777462 0.720058 0.626398
0.864561 0.712184 0.587884
0.974456 0.714870 0.548302
0.233860 0.791379 0.630091
0.287053 0.793332 0.634272
0.416388 0.795682 0.644343
0.572656 0.801785 0.666926
0.715450 0.814633 0.703822
0.754788 0.816342 0.692683
0.832547 0.787045 0.654932
0.920684 0.797269 0.640101
0.381659 0.887144 0.721218
0.397070 0.885954 0.720699
0.468971 0.884825 0.724697
0.584649 0.886809 0.739376
0.715297 0.890410 0.764675
0.777066 0.895689 0.773220
0.830472 0.891508 0.753475
0.910002 0.875700 0.728573
0.000000 0.236759 0.482734
0.000000 0.247288 0.494057
0.000000 0.292546 0.529320
0.361578 0.423194 0.581170
0.707668 0.658381 0.609827
0.755856 0.537041 0.655970
0.960784 0.464088 0.651362
1.000000 0.314244 0.568200
0.000000 0.237552 0.474617
0.000000 0.247990 0.486458
0.000000 0.293523 0.522942
0.361273 0.420081 0.575097
0.701381 0.652430 0.606928
0.752285 0.536767 0.650629
0.954589 0.461921 0.641657
1.000000 0.306279 0.557519
0.000000 0.250278 0.473060
0.000000 0.260288 0.483619
0.000000 0.308659 0.523827
0.381781 0.439612 0.583856
0.706264 0.663111 0.627802
0.769894 0.587610 0.666529
0.950439 0.531731 0.651362
1.000000 0.420630 0.580316
0.000000 0.214725 0.409033
0.000000 0.227451 0.424781
0.000000 0.297154 0.495155
0.374823 0.448646 0.586755
0.705745 0.673060 0.655390
0.796414 0.661524 0.694484
0.948211 0.614862 0.674983
1.000000 0.536675 0.604303
0.000000 0.318883 0.449836
0.000000 0.320500 0.452430
0.000000 0.329931 0.467994
0.153323 0.351904 0.505303
0.652461 0.638972 0.651789
0.809720 0.717464 0.712215
0.944305 0.676783 0.683864
1.000000 0.656153 0.636591
0.000000 0.562646 0.561944
0.000000 0.566979 0.565301
0.000000 0.584222 0.578668
0.175814 0.619776 0.606683
0.579614 0.681270 0.654994
0.823789 0.779507 0.736568
0.916594 0.762142 0.702083
1.000000 0.747005 0.662409
0.000000 0.769070 0.651057
0.000000 0.770932 0.652949
0.000000 0.776394 0.659083
0.384314 0.787564 0.673915
0.627863 0.802274 0.703029
0.800381 0.829191 0.754452
0.851133 0.809384 0.728054
0.935760 0.807248 0.696590
0.000000 0.884184 0.730495
0.000000 0.884398 0.731838
0.190890 0.886229 0.738857
0.438972 0.887053 0.749081
0.619104 0.888884 0.765896
0.773983 0.896452 0.796780
0.839902 0.903868 0.804685
0.915801 0.883665 0.770596
0.000000 0.312047 0.620630
0.000000 0.321141 0.626886
0.000000 0.358587 0.644434
0.276829 0.461128 0.675380
0.636011 0.643091 0.698787
0.778866 0.743740 0.717556
0.861051 0.654139 0.759915
1.000000 0.602625 0.753170
0.000000 0.308232 0.611963
0.000000 0.317388 0.618708
0.000000 0.355901 0.638880
0.271366 0.457130 0.671015
0.631647 0.639551 0.696773
0.779507 0.744564 0.716762
0.858915 0.655177 0.757504
1.000000 0.603052 0.749233
0.000000 0.303746 0.596612
0.000000 0.312474 0.603418
0.000000 0.351293 0.626886
0.263371 0.457465 0.668879
0.627955 0.640223 0.700649
0.792050 0.759182 0.724788
0.861112 0.679896 0.762142
0.998871 0.633143 0.751492
0.000000 0.265324 0.543175
0.000000 0.277165 0.555291
0.000000 0.328313 0.596551
0.163363 0.432441 0.652461
0.601831 0.628351 0.702785
0.818173 0.787778 0.742824
0.866636 0.722652 0.774166
0.993896 0.684413 0.760006
0.000000 0.217533 0.434302
0.000000 0.215518 0.434852
0.000000 0.215579 0.449012
0.000000 0.322942 0.575311
0.479255 0.561120 0.683711
0.801724 0.779080 0.752682
0.869078 0.767544 0.786862
0.992828 0.735958 0.778347
0.000000 0.408484 0.559838
0.000000 0.406043 0.558587
0.000000 0.397833 0.556756
0.000000 0.384466 0.559167
0.000000 0.363317 0.572076
0.716793 0.721218 0.739467
0.877226 0.824430 0.811124
0.994293 0.789609 0.797696
0.000000 0.671931 0.676997
0.000000 0.671901 0.677028
0.000000 0.672389 0.677577
0.000000 0.676631 0.681636
0.000000 0.688258 0.692439
0.527306 0.722316 0.719844
0.887785 0.868864 0.830991
0.982818 0.849271 0.811765
0.000000 0.876463 0.770230
0.000000 0.876219 0.770016
0.000000 0.876616 0.770748
0.000000 0.878538 0.774655
0.322393 0.881041 0.782101
0.636744 0.888151 0.798825
0.845762 0.904540 0.840818
0.926238 0.901427 0.842893
