20 Preset/INSTA/【3】LUT video cho PR-AE-FCPX/INS LUT (11).cube
# Created by Adobe Lightroom plugin Export LUT (1.24.0)
# www.johnrellis.com/lightroom/exportlut.htm
# Preset: INS胶片-复古[素材江湖]11
# Color profile: C:\Program Files (x86)\Common Files\Adobe\Color\Profiles\Recommended\VideoHD.icc
LUT_3D_SIZE 8
DOMAIN_MIN 0.000000 0.000000 0.000000
DOMAIN_MAX 0.903226 0.903226 0.903226
0.139712 0.075441 0.090517
0.167819 0.072297 0.090364
0.339757 0.000000 0.078492
0.667750 0.000000 0.000000
0.902800 0.093965 0.000000
1.000000 0.265080 0.000000
1.000000 0.401282 0.000000
1.000000 0.487282 0.000000
0.151858 0.099397 0.099977
0.168368 0.099153 0.098634
0.287510 0.084321 0.084138
0.564477 0.000000 0.000000
0.842161 0.123964 0.000000
0.989746 0.265324 0.000000
1.000000 0.377508 0.000000
1.000000 0.468544 0.000000
0.171237 0.188296 0.129732
0.183322 0.184085 0.124544
0.320562 0.239017 0.125765
0.518853 0.223056 0.001434
0.732570 0.225040 0.000000
0.954833 0.339788 0.000000
1.000000 0.436774 0.000000
1.000000 0.513359 0.000000
0.180575 0.358343 0.195254
0.193881 0.354589 0.186069
0.288701 0.346807 0.193790
0.643702 0.589624 0.285740
0.855558 0.598993 0.220371
0.883055 0.449989 0.000000
1.000000 0.473762 0.000000
1.000000 0.537713 0.000000
0.177218 0.524224 0.278325
0.193606 0.522271 0.270603
0.276738 0.520684 0.260502
0.470741 0.570062 0.320500
0.775875 0.734920 0.496620
0.911620 0.755337 0.508171
0.962676 0.642054 0.195224
1.000000 0.548882 0.000000
0.274235 0.642634 0.373693
0.299474 0.651301 0.380041
0.338476 0.651484 0.367193
0.460334 0.648035 0.388098
0.660700 0.719814 0.502281
0.857450 0.826078 0.639399
0.961669 0.864561 0.687007
1.000000 0.801236 0.515007
0.422644 0.731930 0.482765
0.432807 0.733639 0.484077
0.453040 0.732692 0.476448
0.509514 0.731380 0.478248
0.598871 0.724849 0.503105
0.775296 0.809903 0.627710
0.910948 0.886137 0.723812
0.990753 0.919097 0.776883
0.546685 0.810391 0.587091
0.554467 0.810452 0.588495
0.568841 0.811246 0.586145
0.596826 0.813687 0.584405
0.637415 0.797482 0.579156
0.720760 0.808194 0.620020
0.861875 0.885710 0.726558
0.955474 0.934478 0.794736
0.145235 0.085756 0.102449
0.158938 0.080385 0.102327
0.294865 0.038300 0.089204
0.541711 0.000000 0.005066
0.828672 0.100526 0.000000
0.979431 0.249149 0.000000
1.000000 0.358190 0.000000
1.000000 0.447517 0.000000
0.151003 0.100710 0.108888
0.170596 0.100435 0.109224
0.276249 0.095644 0.096956
0.505272 0.047181 0.015686
0.795529 0.139284 0.000000
0.962066 0.260746 0.000000
1.000000 0.352850 0.000000
1.000000 0.437201 0.000000
0.174838 0.182986 0.139071
0.197391 0.184573 0.140383
0.304936 0.222446 0.147829
0.473671 0.205997 0.093050
0.683558 0.209598 0.000000
0.914611 0.311711 0.000000
1.000000 0.392401 0.000000
1.000000 0.473274 0.000000
0.185885 0.326940 0.192935
0.213046 0.329015 0.194156
0.282567 0.323827 0.194156
0.569940 0.508446 0.252750
0.787533 0.522301 0.173953
0.820493 0.390631 0.000000
0.960235 0.425330 0.000000
1.000000 0.496315 0.000000
0.175845 0.507713 0.277226
0.213443 0.506859 0.276707
0.272099 0.501122 0.257939
0.440467 0.529686 0.300969
0.744656 0.700893 0.455360
0.890257 0.723781 0.470314
0.942077 0.613306 0.172244
0.983581 0.523857 0.000000
0.247074 0.624964 0.361028
0.277684 0.627100 0.364569
0.317540 0.628321 0.351659
0.437568 0.628138 0.369787
0.639063 0.700404 0.480354
0.847074 0.814908 0.628687
0.953887 0.854948 0.677119
0.994415 0.788602 0.501244
0.388251 0.717556 0.463722
0.404059 0.716243 0.465034
0.424170 0.714961 0.456123
0.482673 0.715572 0.457008
0.583368 0.713100 0.488441
0.762600 0.798062 0.613794
0.901427 0.875608 0.710231
0.984863 0.910430 0.763272
0.522240 0.800015 0.571374
0.536461 0.801816 0.576776
0.554772 0.802426 0.575891
0.584161 0.805203 0.574273
0.647608 0.804440 0.590906
0.721004 0.808286 0.621973
0.859617 0.883635 0.724941
0.954314 0.933288 0.794003
0.151369 0.110048 0.150607
0.161166 0.109102 0.146456
0.237308 0.086366 0.154269
0.597314 0.000000 0.103517
0.852689 0.135714 0.000000
0.979370 0.292149 0.000000
1.000000 0.390173 0.000000
1.000000 0.472694 0.000000
0.165347 0.128145 0.166140
0.183719 0.129732 0.163027
0.255589 0.112123 0.163760
0.582971 0.000000 0.104097
0.818479 0.170932 0.000000
0.960571 0.297398 0.000000
1.000000 0.383276 0.000000
1.000000 0.464698 0.000000
0.171420 0.197055 0.188479
0.194156 0.201816 0.190677
0.298131 0.214847 0.199527
0.489021 0.221500 0.160830
0.763729 0.280339 0.000000
0.928496 0.351080 0.000000
1.000000 0.410468 0.000000
1.000000 0.484749 0.000000
0.159884 0.346105 0.238926
0.201236 0.353674 0.243534
0.319310 0.371130 0.255039
0.565301 0.505303 0.336034
0.761257 0.512840 0.278538
0.823026 0.405188 0.001862
0.973144 0.456794 0.000000
1.000000 0.510704 0.000000
0.151339 0.507774 0.308171
0.203769 0.511162 0.311650
0.329839 0.524651 0.324132
0.448859 0.522393 0.338293
0.743587 0.702693 0.513207
0.875242 0.724117 0.521324
0.926329 0.610040 0.266850
0.987701 0.536461 0.000000
0.226596 0.622156 0.378882
0.266697 0.625544 0.384588
0.372534 0.632532 0.399634
0.452766 0.631983 0.398138
0.625788 0.682216 0.485267
0.837644 0.806485 0.639826
0.944274 0.849393 0.688228
0.985382 0.786007 0.529656
0.375006 0.719783 0.475898
0.392920 0.718959 0.477790
0.458717 0.718898 0.488777
0.495399 0.718746 0.477638
0.590997 0.715572 0.504509
0.758328 0.792447 0.619989
0.901946 0.877592 0.725673
0.984161 0.913848 0.779171
0.500328 0.799222 0.571252
0.510643 0.798550 0.572686
0.556909 0.799680 0.584680
0.590692 0.804654 0.585840
0.645930 0.804776 0.595880
0.715053 0.803464 0.621637
0.858610 0.882902 0.730434
0.954681 0.934661 0.802945
0.134615 0.161685 0.255131
0.151705 0.164248 0.256291
0.219120 0.171420 0.240940
0.397955 0.099062 0.271824
0.814511 0.000000 0.209506
1.000000 0.310277 0.044251
1.000000 0.412360 0.000000
1.000000 0.468391 0.000000
0.167147 0.193637 0.279850
0.184695 0.193942 0.277195
0.247837 0.198398 0.261021
0.417945 0.140352 0.285679
0.828367 0.000000 0.209934
0.997406 0.338109 0.107057
1.000000 0.422309 0.000000
1.000000 0.473274 0.000000
0.174014 0.248264 0.301946
0.203708 0.251102 0.303624
0.311559 0.268132 0.302739
0.452766 0.248234 0.305669
0.837705 0.301213 0.251652
0.958404 0.433539 0.211856
1.000000 0.493477 0.072267
1.000000 0.517144 0.000000
0.124453 0.373144 0.334569
0.172763 0.374609 0.334508
0.293462 0.391089 0.341619
0.505058 0.439582 0.379400
0.683406 0.435554 0.320500
0.866026 0.486030 0.272526
0.981689 0.520531 0.182559
1.000000 0.545068 0.000000
0.000000 0.517815 0.372351
0.013947 0.520226 0.373693
0.302464 0.537163 0.387304
0.495033 0.566766 0.421942
0.726894 0.687984 0.559625
0.844663 0.704341 0.554253
0.893950 0.580896 0.330663
1.000000 0.587366 0.162722
0.175814 0.632258 0.426947
0.238376 0.641016 0.437018
0.370977 0.646998 0.451301
0.517144 0.659815 0.480934
0.617853 0.663386 0.508446
0.830472 0.801572 0.667506
0.930510 0.841093 0.704433
0.970459 0.773159 0.554284
0.313390 0.718532 0.490486
0.341955 0.720089 0.494697
0.434363 0.724056 0.510765
0.549859 0.731258 0.538537
0.614984 0.730922 0.545006
0.751339 0.783658 0.631250
0.899443 0.877195 0.744747
0.979706 0.913085 0.792813
0.454353 0.803677 0.579126
0.468452 0.803647 0.581262
0.522545 0.804257 0.591608
0.605615 0.807614 0.612940
0.643549 0.808988 0.608667
0.717037 0.807340 0.633539
0.853056 0.878477 0.735348
0.955108 0.936797 0.817960
0.000000 0.256962 0.410498
0.027131 0.260777 0.412665
0.203677 0.267643 0.402930
0.340795 0.297063 0.381476
0.605554 0.169345 0.442420
0.916228 0.000000 0.389654
1.000000 0.283482 0.298314
1.000000 0.560876 0.270420
0.097475 0.286717 0.428138
0.136355 0.290806 0.430823
0.237217 0.295476 0.420905
0.361761 0.317845 0.394720
0.616632 0.208408 0.451484
0.922118 0.000000 0.394629
1.000000 0.353460 0.319219
1.000000 0.568048 0.282078
0.161105 0.342657 0.456245
0.206455 0.349859 0.457679
0.316686 0.366583 0.454658
0.425269 0.384558 0.436347
0.626490 0.314305 0.458686
0.918517 0.236912 0.396612
1.000000 0.517967 0.379767
1.000000 0.582086 0.305608
0.107057 0.426673 0.467231
0.169802 0.428717 0.468086
0.312993 0.441321 0.475471
0.500847 0.476967 0.485786
0.649439 0.465217 0.481636
0.894224 0.554223 0.467872
0.979004 0.607965 0.449561
1.000000 0.622614 0.360204
0.000000 0.524987 0.465705
0.022217 0.528069 0.467536
0.265110 0.540246 0.474525
0.443122 0.557916 0.484230
0.651850 0.607294 0.535760
0.757382 0.581659 0.475563
0.905638 0.620783 0.451209
1.000000 0.643000 0.381567
0.000000 0.599268 0.455329
0.000000 0.602136 0.457282
0.200778 0.609033 0.462348
0.430701 0.626642 0.483803
0.601068 0.649958 0.522911
0.794644 0.764645 0.659113
0.896300 0.799222 0.680049
0.941131 0.707729 0.508965
0.000000 0.704128 0.503502
0.000000 0.703548 0.503227
0.272221 0.705135 0.508202
0.463630 0.715785 0.534173
0.616541 0.730037 0.572900
0.706996 0.741085 0.605737
0.884062 0.862455 0.747585
0.965942 0.896117 0.782467
0.196597 0.788693 0.557885
0.238651 0.788510 0.559350
0.358404 0.788693 0.567559
0.513115 0.796109 0.595789
0.639826 0.803037 0.627466
0.703395 0.804562 0.636866
0.830472 0.859281 0.723720
0.949401 0.932036 0.823484
0.000000 0.391974 0.580133
0.000000 0.395392 0.580896
0.175021 0.399329 0.572778
0.359442 0.430243 0.570336
0.501030 0.447944 0.556512
0.767300 0.324224 0.597711
0.949218 0.296239 0.533989
1.000000 0.328374 0.448737
0.000000 0.397223 0.570489
0.000000 0.398108 0.569207
0.214481 0.405035 0.565667
0.363592 0.425879 0.557366
0.496284 0.444739 0.543053
0.757107 0.329198 0.587152
0.944274 0.302525 0.527764
1.000000 0.358984 0.451850
0.226108 0.467445 0.598718
0.266148 0.472084 0.597589
0.337255 0.476570 0.593530
0.436530 0.482551 0.576989
0.556847 0.517998 0.560357
0.758083 0.421271 0.593256
0.949126 0.414496 0.550958
1.000000 0.523217 0.516075
0.204807 0.511528 0.607935
0.243992 0.511772 0.606836
0.374975 0.527306 0.607416
0.537346 0.571405 0.611688
0.634424 0.602502 0.605066
0.765042 0.554437 0.614496
0.956756 0.571862 0.598566
1.000000 0.695674 0.608026
0.144900 0.569207 0.583795
0.196902 0.570336 0.584100
0.328222 0.577173 0.587366
0.487404 0.594171 0.596277
0.644648 0.625086 0.607630
0.748165 0.620386 0.602197
0.932616 0.701869 0.626062
1.000000 0.740261 0.612421
0.000000 0.632105 0.565545
0.071778 0.636164 0.569024
0.267826 0.639948 0.571038
0.419196 0.650202 0.578058
0.568078 0.659297 0.584253
0.745876 0.712673 0.644434
0.831571 0.693477 0.596643
0.964019 0.735317 0.584955
0.000000 0.697963 0.556634
0.000000 0.699580 0.557916
0.000000 0.703212 0.560235
0.318242 0.711696 0.569787
0.548272 0.726040 0.594293
0.703670 0.746944 0.632959
0.868101 0.847715 0.756893
0.949248 0.871000 0.767117
0.000000 0.780972 0.580957
0.000000 0.780179 0.580041
0.000000 0.780484 0.581262
0.282231 0.784848 0.590784
0.520317 0.790951 0.613672
0.690028 0.803616 0.655085
0.786282 0.821836 0.695979
0.943084 0.927398 0.834348
0.000000 0.497108 0.674983
0.122316 0.501274 0.676265
0.253361 0.507561 0.672877
0.392584 0.526513 0.667933
0.526665 0.559197 0.655726
0.623133 0.547845 0.646876
0.837766 0.448737 0.678859
0.953124 0.438117 0.612970
0.116762 0.497566 0.667475
0.169558 0.502190 0.669276
0.270970 0.508019 0.666377
0.393500 0.522637 0.659785
0.521691 0.552850 0.647608
0.614832 0.540917 0.636652
0.828000 0.438636 0.667475
0.946685 0.422950 0.600977
0.295476 0.542565 0.676234
0.310552 0.543603 0.675685
0.365576 0.546777 0.671870
0.455360 0.558526 0.665949
0.557916 0.581476 0.654292
0.640375 0.582788 0.644190
0.829892 0.503044 0.675776
0.954772 0.497627 0.627100
0.317540 0.575128 0.685267
0.342107 0.576898 0.683314
0.433509 0.591302 0.680140
0.530053 0.610712 0.677607
0.610864 0.628168 0.670436
0.684138 0.647181 0.663416
0.826719 0.588312 0.684596
0.965942 0.584009 0.657649
0.250584 0.605035 0.673915
0.273808 0.604059 0.672511
0.363958 0.607202 0.672297
0.492409 0.620050 0.676356
0.635065 0.657771 0.675563
0.710506 0.683131 0.671351
0.814572 0.644617 0.680690
0.984771 0.663844 0.682185
0.165316 0.657008 0.658717
0.206516 0.658015 0.659358
0.313848 0.661250 0.661219
0.445991 0.668574 0.665614
0.586023 0.681910 0.673793
0.726375 0.713771 0.690394
0.816068 0.713710 0.691554
0.980682 0.788724 0.727962
0.000000 0.714107 0.647791
0.000000 0.715297 0.648798
0.187106 0.716579 0.649561
0.365118 0.720150 0.652216
0.516625 0.726589 0.657343
0.649439 0.736538 0.665492
0.812131 0.787869 0.724544
0.900237 0.772641 0.676722
0.000000 0.775082 0.638941
0.000000 0.775265 0.638758
0.000000 0.776883 0.639094
0.000000 0.776272 0.635462
0.283574 0.779660 0.638270
0.575647 0.790829 0.658320
0.760678 0.814115 0.702296
0.931395 0.917510 0.843595
0.328893 0.603876 0.753079
0.345251 0.606470 0.753445
0.389868 0.608545 0.749355
0.471443 0.620752 0.745632
0.564660 0.640101 0.738277
0.654749 0.667597 0.726314
0.720241 0.635187 0.723995
0.893858 0.556176 0.751064
0.334630 0.602686 0.748470
0.350713 0.605402 0.748989
0.396094 0.609094 0.746242
0.472877 0.619806 0.742092
0.563867 0.638453 0.734920
0.653132 0.665583 0.723354
0.716670 0.633265 0.719509
0.889403 0.552605 0.745846
0.390936 0.621973 0.747921
0.401465 0.623224 0.747738
0.436713 0.625544 0.744839
0.508476 0.639307 0.744167
0.584894 0.653132 0.736660
0.663905 0.675074 0.725002
0.723568 0.652247 0.720577
0.886229 0.578210 0.746029
0.415747 0.641840 0.749172
0.435645 0.645869 0.749416
0.491005 0.655390 0.747494
0.545647 0.663691 0.745724
0.613184 0.676265 0.741299
0.684993 0.696040 0.733577
0.740383 0.688869 0.728542
0.884947 0.625208 0.751980
0.296666 0.641199 0.750729
0.323033 0.644495 0.751217
0.400946 0.652522 0.749294
0.529900 0.675898 0.747555
0.628931 0.696956 0.744594
0.697475 0.713069 0.739895
0.756405 0.725673 0.735927
0.880339 0.673976 0.755734
0.210483 0.685573 0.742275
0.233097 0.684718 0.741543
0.312413 0.683833 0.740444
0.429511 0.687098 0.741817
0.561822 0.697658 0.747829
0.709499 0.739467 0.753536
0.787320 0.771115 0.758419
0.883482 0.737270 0.771237
0.000000 0.745876 0.742763
0.046357 0.745876 0.742733
0.238712 0.746059 0.742855
0.377661 0.747097 0.743618
0.513329 0.750149 0.746059
0.646754 0.758419 0.753140
0.787961 0.787350 0.768765
0.876249 0.783108 0.770779
0.000000 0.790219 0.726833
0.000000 0.789853 0.726436
0.000000 0.789578 0.726040
0.125978 0.790372 0.726619
0.383093 0.791104 0.727108
0.546899 0.793149 0.728817
0.695033 0.802029 0.736721
0.871916 0.855436 0.801633
