20 Preset/INSTA/【3】LUT video cho PR-AE-FCPX/INS LUT (7).cube
# Created by Adobe Lightroom plugin Export LUT (1.24.0)
# www.johnrellis.com/lightroom/exportlut.htm
# Preset: INS胶片Tezza03-JPG[素材江湖]07
# Color profile: C:\Program Files (x86)\Common Files\Adobe\Color\Profiles\Recommended\VideoHD.icc
LUT_3D_SIZE 8
DOMAIN_MIN 0.000000 0.000000 0.000000
DOMAIN_MAX 0.903226 0.903226 0.903226
0.098970 0.086366 0.033722
0.117372 0.089326 0.039551
0.185794 0.092531 0.054749
0.323919 0.043275 0.064149
0.497475 0.000000 0.073823
0.649256 0.000000 0.096101
0.757839 0.193118 0.131106
0.838865 0.351324 0.196811
0.108492 0.105043 0.038422
0.130800 0.102968 0.043244
0.211124 0.104768 0.048066
0.349676 0.074372 0.054902
0.516136 0.000000 0.067018
0.659327 0.030701 0.095369
0.762356 0.221836 0.131258
0.840330 0.367041 0.199313
0.137301 0.186679 0.024384
0.168948 0.181735 0.029206
0.263096 0.172030 0.040772
0.445411 0.183078 0.000000
0.580865 0.182254 0.021576
0.693233 0.231327 0.078462
0.777981 0.319646 0.130953
0.845518 0.425116 0.211124
0.163821 0.366766 0.000000
0.212528 0.361273 0.000000
0.333288 0.338140 0.000000
0.462776 0.319982 0.000000
0.632013 0.377966 0.000000
0.732296 0.413397 0.000000
0.798764 0.452522 0.137545
0.852567 0.510124 0.241886
0.279850 0.536278 0.000000
0.310124 0.532525 0.000000
0.403052 0.516808 0.000000
0.510338 0.485573 0.000000
0.611994 0.474739 0.000000
0.734157 0.527764 0.099702
0.818173 0.573846 0.188937
0.858640 0.599817 0.296574
0.445197 0.639368 0.036011
0.458808 0.636988 0.044770
0.507744 0.627222 0.084932
0.576928 0.607996 0.113924
0.641718 0.579187 0.140627
0.715938 0.580591 0.197116
0.802548 0.629236 0.274205
0.858427 0.673304 0.370153
0.574029 0.719570 0.264927
0.581170 0.718227 0.265263
0.608118 0.712612 0.266697
0.651423 0.701564 0.269383
0.699245 0.684627 0.271855
0.736843 0.656580 0.276249
0.794064 0.672969 0.342626
0.845914 0.711757 0.437842
0.667720 0.785458 0.420081
0.671687 0.784817 0.420172
0.687556 0.782071 0.421241
0.714992 0.776822 0.423316
0.749142 0.769131 0.426581
0.784695 0.759274 0.430915
0.813870 0.743221 0.447425
0.851133 0.761227 0.534264
0.102815 0.092317 0.073304
0.127138 0.090455 0.082246
0.198428 0.094331 0.080995
0.338201 0.094484 0.098390
0.507866 0.025879 0.111330
0.652430 0.112123 0.132662
0.756374 0.235935 0.166842
0.835660 0.369757 0.228885
0.112764 0.109743 0.081422
0.136324 0.112581 0.083650
0.218265 0.118013 0.090425
0.361883 0.110018 0.097932
0.524376 0.094514 0.111025
0.661372 0.149386 0.132998
0.760555 0.258762 0.167819
0.837186 0.383795 0.231449
0.139651 0.207034 0.070069
0.177676 0.201846 0.078279
0.278813 0.189273 0.089357
0.449042 0.204166 0.079377
0.583032 0.215213 0.101442
0.692348 0.263096 0.128145
0.775601 0.341314 0.171054
0.842649 0.436011 0.242985
0.172610 0.384649 0.000000
0.221927 0.379339 0.000000
0.344213 0.356451 0.000000
0.471107 0.337804 0.062318
0.634943 0.394995 0.000000
0.730190 0.425452 0.109133
0.796353 0.461585 0.183566
0.850034 0.515862 0.271458
0.292729 0.544884 0.000000
0.321874 0.541131 0.000000
0.412512 0.525658 0.000000
0.516991 0.495125 0.011353
0.615381 0.483772 0.114961
0.735012 0.534539 0.159365
0.816007 0.577356 0.230076
0.856413 0.602625 0.321202
0.451301 0.643671 0.148531
0.464820 0.641352 0.149722
0.513054 0.631556 0.156344
0.580804 0.612604 0.168643
0.644434 0.584131 0.181582
0.716884 0.584771 0.226993
0.801816 0.632258 0.298802
0.857084 0.675471 0.388556
0.574975 0.721614 0.292302
0.582147 0.720211 0.292302
0.609003 0.714656 0.293217
0.651881 0.703761 0.294621
0.699702 0.686854 0.294743
0.737270 0.659266 0.295811
0.793423 0.674586 0.357580
0.845029 0.712947 0.449134
0.666621 0.786374 0.432654
0.670527 0.785733 0.432807
0.686458 0.782986 0.433753
0.713863 0.777737 0.435309
0.748104 0.770016 0.437476
0.783841 0.760098 0.440681
0.813291 0.744045 0.454963
0.850431 0.761746 0.539788
0.105806 0.106447 0.143709
0.126680 0.110231 0.154086
0.253605 0.083253 0.190036
0.433631 0.000000 0.171542
0.545983 0.123110 0.188998
0.649836 0.250217 0.242557
0.746853 0.326787 0.275883
0.823789 0.417578 0.325933
0.125032 0.128542 0.157168
0.145480 0.131960 0.162081
0.272099 0.122652 0.194675
0.430976 0.111299 0.179690
0.537407 0.202853 0.213199
0.657557 0.271122 0.247196
0.750698 0.341344 0.277867
0.825406 0.427893 0.328374
0.164950 0.231540 0.192630
0.196445 0.241215 0.198856
0.315862 0.253422 0.205661
0.450233 0.271275 0.216434
0.580499 0.298985 0.232517
0.684260 0.341619 0.254643
0.764736 0.398901 0.287083
0.831357 0.468452 0.339544
0.211856 0.433600 0.207340
0.246159 0.434485 0.208499
0.368048 0.420722 0.211460
0.495674 0.399145 0.222782
0.644160 0.448615 0.240391
0.720790 0.461463 0.269810
0.786343 0.490822 0.307774
0.839902 0.534905 0.363897
0.324437 0.576135 0.237308
0.352514 0.572625 0.238285
0.439399 0.558160 0.240757
0.538384 0.530358 0.245701
0.627253 0.516564 0.262119
0.737209 0.560174 0.300206
0.806790 0.590173 0.346563
0.847501 0.612665 0.402502
0.470069 0.660761 0.303685
0.482704 0.658595 0.303777
0.528435 0.649317 0.303380
0.593103 0.631189 0.303349
0.653773 0.603937 0.300664
0.719814 0.601556 0.324956
0.798611 0.644404 0.383124
0.851957 0.683986 0.452949
0.577539 0.729854 0.383032
0.584466 0.728573 0.382605
0.610956 0.723140 0.381415
0.653285 0.712581 0.379065
0.700343 0.696284 0.373602
0.738643 0.670222 0.366308
0.790799 0.681270 0.411749
0.841428 0.718013 0.491249
0.661494 0.790249 0.480690
0.665614 0.789548 0.480598
0.681483 0.786862 0.480415
0.709163 0.781582 0.479927
0.743801 0.773800 0.479103
0.780087 0.763729 0.478279
0.810636 0.747555 0.484504
0.847654 0.763851 0.561975
0.000000 0.133089 0.282658
0.046479 0.136843 0.295171
0.232822 0.161563 0.341680
0.476539 0.049836 0.407874
0.663447 0.000000 0.389960
0.735103 0.233951 0.362219
0.770809 0.356970 0.378790
0.802029 0.471229 0.444343
0.091188 0.162234 0.300908
0.126558 0.167025 0.306615
0.264500 0.197696 0.350561
0.487617 0.149996 0.411261
0.668147 0.137270 0.396918
0.727321 0.279728 0.368627
0.762264 0.386358 0.391089
0.803891 0.479530 0.447303
0.178408 0.260044 0.343755
0.211704 0.268376 0.348058
0.316808 0.299382 0.366918
0.510918 0.317784 0.420386
0.643336 0.346929 0.399207
0.692378 0.402991 0.395453
0.742123 0.466377 0.430457
0.810880 0.510338 0.458259
0.246250 0.455573 0.401770
0.277745 0.461311 0.406195
0.385412 0.481178 0.421820
0.526085 0.491798 0.430457
0.623590 0.500267 0.434058
0.700130 0.511803 0.439429
0.766690 0.531182 0.451148
0.821805 0.562036 0.476081
0.419471 0.600244 0.455360
0.437659 0.601129 0.457191
0.470344 0.602350 0.442756
0.563928 0.585870 0.439185
0.642939 0.568627 0.437842
0.738949 0.601892 0.464332
0.789975 0.610254 0.478401
0.832029 0.628199 0.503685
0.500420 0.682429 0.468635
0.508782 0.682185 0.468360
0.542412 0.680629 0.467018
0.607294 0.664057 0.460792
0.666529 0.638972 0.450202
0.723445 0.631067 0.455940
0.792935 0.666041 0.496254
0.840543 0.694850 0.541009
0.579065 0.744442 0.502556
0.584436 0.744106 0.502190
0.610681 0.739040 0.499428
0.652827 0.728969 0.493385
0.699855 0.713436 0.483253
0.741604 0.691737 0.467842
0.785855 0.693660 0.493416
0.835233 0.727657 0.558160
0.650874 0.798001 0.556390
0.654902 0.797360 0.556115
0.671107 0.794614 0.554498
0.699336 0.789273 0.551476
0.734920 0.781308 0.546624
0.772519 0.770871 0.540185
0.805570 0.754604 0.535180
0.842496 0.767941 0.600397
0.000000 0.184298 0.447303
0.000000 0.189273 0.455634
0.222202 0.231601 0.487556
0.432563 0.260349 0.533318
0.664485 0.238224 0.588220
0.771695 0.301244 0.571893
0.837613 0.392096 0.555535
0.853147 0.478248 0.542229
0.000000 0.215152 0.458076
0.009430 0.220554 0.461860
0.249699 0.258946 0.491554
0.445808 0.295048 0.535729
0.664912 0.283391 0.588525
0.770413 0.337285 0.573999
0.831571 0.415808 0.555352
0.848814 0.490394 0.544121
0.179904 0.316014 0.486397
0.211002 0.321538 0.488441
0.308843 0.345830 0.499367
0.479866 0.405554 0.542535
0.662593 0.411627 0.589380
0.765805 0.442603 0.581537
0.808469 0.487617 0.555535
0.831998 0.531060 0.551843
0.279210 0.463783 0.520958
0.305669 0.468208 0.522850
0.395392 0.486305 0.531334
0.518151 0.520012 0.551476
0.661311 0.541253 0.593469
0.738521 0.553918 0.578363
0.769711 0.566186 0.563226
0.795285 0.595697 0.578576
0.420996 0.606226 0.567926
0.437446 0.607996 0.569879
0.494026 0.617426 0.580194
0.582635 0.630121 0.593896
0.665675 0.633387 0.597864
0.720394 0.633600 0.594537
0.767330 0.635035 0.590753
0.811154 0.645930 0.596765
0.549126 0.696407 0.608240
0.557488 0.696712 0.609186
0.590539 0.697932 0.613367
0.622431 0.699367 0.604669
0.678248 0.684657 0.593133
0.727138 0.670222 0.585748
0.786038 0.696254 0.612604
0.823850 0.705135 0.625483
0.605554 0.753048 0.621637
0.608789 0.752956 0.620844
0.621851 0.752346 0.617426
0.649744 0.751217 0.613031
0.696101 0.737972 0.600824
0.738857 0.717189 0.580499
0.779080 0.712001 0.586816
0.827634 0.742123 0.636744
0.646052 0.803799 0.641169
0.648829 0.803738 0.641108
0.660426 0.803525 0.640497
0.683894 0.801633 0.637964
0.720821 0.793393 0.629908
0.760433 0.782254 0.618311
0.798550 0.767117 0.603235
0.835447 0.774228 0.649104
0.000000 0.262089 0.573114
0.000000 0.267063 0.577691
0.226139 0.302800 0.595300
0.444160 0.385901 0.626429
0.606104 0.399268 0.663233
0.763485 0.416602 0.705501
0.820340 0.469215 0.690547
0.877470 0.526024 0.697932
0.000000 0.289799 0.577569
0.067170 0.295048 0.579706
0.249821 0.325200 0.596765
0.454688 0.408545 0.627375
0.608667 0.421393 0.663752
0.761349 0.438025 0.705318
0.818326 0.485176 0.691218
0.874449 0.537652 0.697993
0.198703 0.378271 0.592370
0.226902 0.382574 0.593408
0.315496 0.401068 0.599512
0.474037 0.464485 0.629236
0.617792 0.491371 0.665827
0.753872 0.506493 0.704829
0.811246 0.539361 0.694362
0.859648 0.578576 0.694575
0.313878 0.495033 0.613672
0.334264 0.498299 0.614710
0.406226 0.511467 0.619440
0.503471 0.533440 0.631647
0.634516 0.576471 0.670863
0.744778 0.591058 0.705745
0.801480 0.612360 0.701930
0.836149 0.630823 0.690303
0.434119 0.602380 0.643915
0.447120 0.603906 0.645045
0.495247 0.610285 0.649561
0.569421 0.622889 0.658564
0.653742 0.647639 0.677089
0.736172 0.667628 0.708095
0.782803 0.673335 0.700649
0.807889 0.671992 0.684199
0.547295 0.697261 0.682368
0.555261 0.697993 0.683345
0.584710 0.701472 0.687800
0.630762 0.709468 0.697871
0.686824 0.718318 0.709010
0.733852 0.719905 0.711055
0.767727 0.716762 0.704067
0.803250 0.716213 0.699092
0.630549 0.760006 0.715480
0.634333 0.760159 0.715877
0.649592 0.760647 0.717586
0.676631 0.761959 0.721096
0.700069 0.763760 0.715267
0.735927 0.751797 0.700160
0.771878 0.739101 0.689723
0.821042 0.762905 0.719966
0.683345 0.807736 0.745846
0.685389 0.807767 0.745968
0.686061 0.808347 0.740108
0.687709 0.809110 0.726955
0.707027 0.808835 0.718746
0.745266 0.799893 0.707607
0.786709 0.783810 0.687892
0.826658 0.783871 0.707332
0.124117 0.379126 0.684993
0.166567 0.383062 0.687221
0.285649 0.403876 0.696376
0.460822 0.466712 0.712062
0.602838 0.513390 0.734310
0.714290 0.529076 0.760098
0.809293 0.552117 0.787655
0.840970 0.588403 0.774380
0.172396 0.398871 0.686275
0.205173 0.402502 0.687282
0.299290 0.418280 0.696498
0.465949 0.477241 0.712032
0.605646 0.524224 0.734310
0.714260 0.539483 0.760037
0.807462 0.562127 0.787381
0.839414 0.596582 0.774655
0.261936 0.460334 0.692317
0.283024 0.462776 0.692653
0.354772 0.473823 0.695247
0.480812 0.511711 0.711757
0.616175 0.562371 0.734493
0.714168 0.577050 0.760067
0.800534 0.598474 0.786618
0.833707 0.626612 0.775967
0.355627 0.538598 0.702846
0.370245 0.540185 0.703182
0.423438 0.546868 0.704646
0.506157 0.561395 0.709957
0.629786 0.612085 0.734585
0.714900 0.631525 0.760555
0.790738 0.650385 0.786221
0.826963 0.669306 0.779629
0.447791 0.617304 0.718288
0.457404 0.618128 0.718624
0.493965 0.621576 0.720089
0.553399 0.628412 0.722988
0.630426 0.646479 0.731594
0.717159 0.684230 0.762142
0.783047 0.699611 0.787655
0.823972 0.712062 0.786343
0.541100 0.692805 0.739040
0.547143 0.693263 0.739376
0.571466 0.695155 0.740871
0.612696 0.699184 0.743984
0.663630 0.706691 0.749355
0.719173 0.724758 0.762875
0.778653 0.744808 0.791043
0.817807 0.748440 0.787320
0.622370 0.758419 0.764981
0.625940 0.758724 0.765377
0.640558 0.760128 0.767117
0.666773 0.763180 0.770962
0.699855 0.769833 0.778592
0.738735 0.778744 0.788510
0.775570 0.780789 0.790707
0.806302 0.776181 0.783078
0.675654 0.814328 0.794430
0.677577 0.814389 0.794553
0.685695 0.814694 0.795193
0.701106 0.815305 0.796384
0.723842 0.816495 0.798337
0.745724 0.818448 0.794766
0.776822 0.809354 0.779232
0.817899 0.799619 0.773983
0.382788 0.533135 0.787442
0.394354 0.534569 0.788235
0.439399 0.540703 0.791592
0.537713 0.570642 0.796689
0.642878 0.617670 0.804654
0.711116 0.633967 0.817014
0.772519 0.647608 0.831418
0.833921 0.663813 0.846677
0.393256 0.541344 0.787564
0.405005 0.542779 0.787839
0.447456 0.548516 0.791165
0.539696 0.575433 0.796475
0.643458 0.621302 0.804501
0.711482 0.639002 0.816831
0.772000 0.652277 0.831296
0.833188 0.668086 0.846647
0.423285 0.568963 0.789181
0.433753 0.570153 0.789181
0.473335 0.575250 0.789517
0.545800 0.592401 0.795621
0.644800 0.634668 0.803830
0.712734 0.657404 0.816251
0.770230 0.669734 0.830930
0.830686 0.684169 0.846494
0.460029 0.609094 0.792721
0.468788 0.609979 0.792721
0.503227 0.613916 0.792599
0.560021 0.622797 0.793271
0.643885 0.653834 0.802548
0.714565 0.684962 0.815396
0.767880 0.696315 0.830686
0.826932 0.709010 0.846433
0.500786 0.657465 0.798489
0.506615 0.657557 0.798489
0.528954 0.657923 0.798428
0.577722 0.663081 0.798367
0.638880 0.674922 0.799649
0.715206 0.713039 0.814115
0.765682 0.725185 0.830808
0.824094 0.737026 0.847196
0.564080 0.712795 0.807034
0.567956 0.712856 0.807034
0.583551 0.712978 0.807126
0.611749 0.713405 0.807218
0.649500 0.714504 0.807370
0.701900 0.725612 0.810269
0.764096 0.755276 0.830930
0.822690 0.768032 0.848905
0.622766 0.764248 0.818875
0.625360 0.764279 0.818936
0.635859 0.764553 0.819181
0.655360 0.765225 0.819699
0.682918 0.766598 0.820615
0.716396 0.769406 0.822141
0.759640 0.780514 0.828305
0.823239 0.801694 0.851865
0.669337 0.814267 0.833646
0.671077 0.814389 0.833768
0.678370 0.814908 0.834226
0.692622 0.816068 0.835294
0.714260 0.818204 0.837217
0.744350 0.821958 0.840757
0.783444 0.829160 0.848173
0.822568 0.832303 0.852293
