20 Preset/INSTA/【3】LUT video cho PR-AE-FCPX/INS LUT (1).cube
# Created by Adobe Lightroom plugin Export LUT (1.24.0)
# www.johnrellis.com/lightroom/exportlut.htm
# Preset: INS胶片Cole[素材江湖]01
# Color profile: C:\Program Files (x86)\Common Files\Adobe\Color\Profiles\Recommended\VideoHD.icc
LUT_3D_SIZE 8
DOMAIN_MIN 0.000000 0.000000 0.000000
DOMAIN_MAX 0.903226 0.903226 0.903226
0.194888 0.137697 0.111269
0.204715 0.139559 0.111452
0.231357 0.144381 0.112062
0.277348 0.150881 0.111391
0.354803 0.159152 0.106416
0.473518 0.168917 0.092226
0.638361 0.186435 0.007141
0.809323 0.236332 0.000000
0.199741 0.149783 0.114076
0.206577 0.149630 0.113527
0.233433 0.150515 0.111666
0.278691 0.156771 0.110353
0.355444 0.165652 0.105104
0.472236 0.176669 0.090303
0.629358 0.194705 0.004639
0.800473 0.242130 0.000000
0.210330 0.186099 0.120241
0.216617 0.184298 0.120699
0.243473 0.187778 0.118227
0.301701 0.190311 0.109346
0.385168 0.197879 0.096620
0.513573 0.215610 0.045441
0.674800 0.244724 0.000000
0.832425 0.297704 0.000000
0.220188 0.272770 0.131228
0.230076 0.269841 0.131655
0.260899 0.261021 0.133394
0.348547 0.295720 0.120851
0.483070 0.309941 0.065217
0.593744 0.301335 0.000000
0.730953 0.333227 0.000000
0.862943 0.382208 0.000000
0.202365 0.438941 0.158816
0.223453 0.435309 0.158907
0.286961 0.423804 0.160464
0.374334 0.424964 0.160647
0.547875 0.484871 0.137850
0.698116 0.493446 0.000000
0.793698 0.473548 0.000000
0.893400 0.484688 0.000000
0.263157 0.626886 0.287755
0.288548 0.629206 0.292576
0.356756 0.619409 0.289616
0.444129 0.601129 0.285283
0.568963 0.621851 0.297398
0.738552 0.676417 0.332921
0.855436 0.682124 0.321996
0.933379 0.657618 0.151827
0.487709 0.773861 0.522026
0.496529 0.773373 0.522759
0.523919 0.767819 0.518181
0.571221 0.757870 0.511345
0.626703 0.741726 0.499367
0.737362 0.772305 0.540764
0.848142 0.806729 0.588312
0.923156 0.813443 0.607782
0.683955 0.874907 0.721401
0.686671 0.874327 0.721035
0.698482 0.872496 0.720180
0.720943 0.869200 0.719234
0.742061 0.858274 0.705501
0.786587 0.858427 0.712154
0.855741 0.878935 0.743404
0.919799 0.896666 0.768734
0.196628 0.142947 0.116701
0.202213 0.142397 0.115969
0.230808 0.147433 0.115206
0.275578 0.155337 0.113100
0.351568 0.164920 0.105684
0.466743 0.175296 0.091432
0.618891 0.191135 0.014191
0.788174 0.233463 0.000000
0.200137 0.152255 0.118929
0.208774 0.151827 0.118654
0.233707 0.155184 0.117128
0.279667 0.161044 0.113771
0.356146 0.170718 0.105745
0.471656 0.182742 0.088716
0.618860 0.199496 0.006470
0.784451 0.241062 0.000000
0.212741 0.187961 0.125216
0.219913 0.187869 0.125734
0.245151 0.189639 0.124422
0.300786 0.191440 0.115663
0.382879 0.199680 0.103670
0.504417 0.215732 0.063050
0.651911 0.241581 0.000000
0.812100 0.290166 0.000000
0.220554 0.271519 0.136568
0.231540 0.270359 0.137728
0.263279 0.262486 0.139254
0.340215 0.287724 0.130648
0.458991 0.295933 0.097078
0.567559 0.290105 0.000000
0.702968 0.318242 0.000000
0.843259 0.370245 0.000000
0.197848 0.437995 0.166384
0.224369 0.434791 0.169467
0.287327 0.421851 0.170016
0.368933 0.415564 0.169558
0.532494 0.470832 0.152285
0.680812 0.479164 0.025757
0.779812 0.461769 0.000000
0.882994 0.475929 0.000000
0.246433 0.621942 0.287236
0.281102 0.620081 0.293614
0.350500 0.610986 0.291417
0.439002 0.594049 0.288579
0.561120 0.613336 0.300908
0.732570 0.670924 0.339879
0.849729 0.676783 0.326970
0.928099 0.651575 0.160006
0.474952 0.769467 0.516075
0.485420 0.767300 0.516747
0.513481 0.761501 0.511894
0.563287 0.752041 0.506279
0.622278 0.737667 0.498024
0.731930 0.767269 0.537926
0.843351 0.801572 0.583581
0.919341 0.808072 0.600732
0.677119 0.872282 0.717250
0.682124 0.872282 0.718898
0.693874 0.870268 0.717678
0.716823 0.867002 0.716823
0.747005 0.861418 0.714168
0.787472 0.859129 0.716274
0.854887 0.878386 0.744686
0.919097 0.896239 0.769986
0.200565 0.155886 0.130953
0.203799 0.155612 0.129885
0.221408 0.155520 0.128695
0.283543 0.154849 0.130587
0.363775 0.170047 0.122072
0.484688 0.182376 0.106661
0.638788 0.203586 0.030396
0.805722 0.257145 0.000000
0.206546 0.165042 0.135317
0.211582 0.165164 0.134371
0.228519 0.164553 0.132357
0.288975 0.161715 0.131075
0.368078 0.177737 0.123323
0.488960 0.190158 0.106691
0.638117 0.210697 0.028382
0.802976 0.262882 0.000000
0.212589 0.199191 0.145418
0.220432 0.199039 0.145418
0.252689 0.198428 0.145602
0.308598 0.202701 0.138674
0.397772 0.210727 0.126802
0.521935 0.224063 0.103059
0.666285 0.248386 0.000000
0.821286 0.301640 0.000000
0.220005 0.290196 0.166629
0.231174 0.290471 0.166567
0.275151 0.288731 0.168063
0.353063 0.301244 0.167086
0.467628 0.300999 0.135897
0.583581 0.302464 0.093294
0.717525 0.328099 0.000000
0.852323 0.376013 0.000000
0.198672 0.456336 0.219608
0.220829 0.454780 0.218936
0.298100 0.449409 0.222232
0.383124 0.428046 0.221042
0.545006 0.484688 0.227329
0.682765 0.484382 0.167788
0.779507 0.459968 0.000000
0.886656 0.481147 0.000000
0.259434 0.633387 0.344182
0.283055 0.632837 0.345342
0.367254 0.626795 0.352148
0.455573 0.608942 0.345708
0.562737 0.613581 0.352880
0.729091 0.672175 0.400580
0.843137 0.677546 0.384588
0.924834 0.652186 0.242649
0.482612 0.776944 0.548363
0.491676 0.775387 0.548516
0.533349 0.769711 0.554131
0.578454 0.759548 0.546532
0.633387 0.744778 0.536492
0.732509 0.768338 0.569177
0.842527 0.805112 0.617792
0.917357 0.812772 0.631678
0.673579 0.875364 0.725734
0.677546 0.874632 0.726070
0.698085 0.872526 0.731380
0.721798 0.869841 0.731624
0.751034 0.864134 0.728389
0.787747 0.859342 0.727565
0.855222 0.879576 0.756771
0.918914 0.897887 0.782040
0.200381 0.178439 0.161685
0.204074 0.178439 0.161196
0.219913 0.179049 0.156985
0.261265 0.179080 0.158846
0.380987 0.179110 0.177127
0.510369 0.141512 0.146792
0.639643 0.195468 0.120363
0.801389 0.241581 0.000000
0.207462 0.190616 0.169955
0.211582 0.190127 0.169039
0.227787 0.189212 0.164004
0.269291 0.188632 0.164340
0.389593 0.186618 0.179843
0.515251 0.161685 0.149172
0.645258 0.206149 0.121370
0.804776 0.252323 0.000000
0.210849 0.222171 0.190249
0.218479 0.222049 0.190707
0.252598 0.226139 0.188022
0.297337 0.225589 0.183536
0.422492 0.217655 0.186801
0.538994 0.234318 0.158907
0.684291 0.255894 0.126955
0.830594 0.300450 0.000000
0.198428 0.315160 0.233402
0.211856 0.314855 0.233249
0.264103 0.315251 0.234134
0.363348 0.315160 0.236515
0.471962 0.314641 0.211765
0.592065 0.319585 0.182040
0.723049 0.337469 0.137575
0.854917 0.376196 0.000000
0.153079 0.496162 0.330877
0.190585 0.494148 0.328649
0.291966 0.488289 0.323674
0.417060 0.478187 0.324651
0.554955 0.500908 0.339635
0.677943 0.484810 0.273716
0.781521 0.468269 0.189120
0.889586 0.490547 0.103212
0.279301 0.661982 0.452461
0.307317 0.664057 0.456641
0.381476 0.657984 0.453895
0.490974 0.646723 0.458778
0.574487 0.623621 0.446509
0.727993 0.680873 0.500008
0.833219 0.680110 0.468269
0.918517 0.648798 0.333928
0.491188 0.788876 0.602838
0.501976 0.788327 0.604181
0.541588 0.785092 0.607568
0.606989 0.777859 0.616632
0.657679 0.763272 0.605798
0.734768 0.771847 0.620172
0.840208 0.809598 0.666468
0.912902 0.816312 0.669673
0.673365 0.882780 0.748684
0.678035 0.882322 0.749294
0.696803 0.880552 0.752285
0.731807 0.877165 0.759915
0.759335 0.870970 0.755428
0.791104 0.862913 0.749844
0.854582 0.880827 0.775235
0.918791 0.900755 0.801816
0.185672 0.219821 0.228977
0.190646 0.219852 0.228916
0.211704 0.218753 0.224247
0.249241 0.222080 0.213901
0.334752 0.218723 0.227481
0.545922 0.233738 0.295598
0.696651 0.129488 0.240574
0.824765 0.168429 0.177951
0.190402 0.232975 0.241611
0.195499 0.232761 0.241245
0.217563 0.230716 0.235782
0.256565 0.232120 0.222904
0.343908 0.228916 0.235660
0.552850 0.244266 0.301183
0.700801 0.146151 0.240787
0.824796 0.197635 0.180209
0.193362 0.272251 0.278630
0.204746 0.273930 0.278874
0.236698 0.272679 0.273869
0.284550 0.271611 0.260044
0.377844 0.270970 0.266850
0.571832 0.282475 0.315099
0.712581 0.199588 0.236973
0.819913 0.284642 0.187259
0.140566 0.349126 0.337194
0.162020 0.348608 0.337407
0.232090 0.347356 0.339696
0.346288 0.359380 0.340246
0.447486 0.364355 0.337377
0.615137 0.354803 0.341650
0.724392 0.348119 0.267887
0.847776 0.374060 0.215152
0.000000 0.501884 0.436042
0.000000 0.502281 0.436713
0.226596 0.502312 0.437812
0.382940 0.501823 0.440711
0.540703 0.499031 0.443915
0.654749 0.485542 0.393957
0.768551 0.480018 0.337285
0.879179 0.489357 0.275273
0.229252 0.674006 0.554376
0.260258 0.674708 0.555901
0.354223 0.674800 0.558129
0.470527 0.664485 0.548882
0.590051 0.648768 0.545953
0.713100 0.677028 0.578576
0.813199 0.663142 0.522454
0.904936 0.633631 0.414130
0.483284 0.802609 0.668940
0.491402 0.801328 0.667750
0.525689 0.797482 0.664973
0.592218 0.791836 0.665980
0.671290 0.781338 0.671260
0.725490 0.765743 0.660243
0.832914 0.809171 0.708858
0.904845 0.810697 0.693507
0.644343 0.888304 0.767697
0.649866 0.887785 0.768032
0.672480 0.885863 0.770077
0.714839 0.884031 0.777401
0.763027 0.878935 0.785306
0.795254 0.869993 0.778317
0.848692 0.878538 0.791745
0.915892 0.901061 0.820005
0.000000 0.289647 0.367315
0.025299 0.289616 0.367041
0.135439 0.286625 0.360784
0.211521 0.286046 0.351507
0.296849 0.296330 0.331640
0.457191 0.284916 0.370855
0.714900 0.330053 0.489418
0.863401 0.301061 0.456031
0.005463 0.299199 0.374609
0.059602 0.298405 0.373297
0.143465 0.295445 0.367559
0.218082 0.293736 0.356939
0.302953 0.302922 0.336370
0.461097 0.293431 0.374243
0.713985 0.340368 0.489601
0.861143 0.306889 0.452674
0.000000 0.347478 0.424659
0.024262 0.346349 0.423163
0.152682 0.342718 0.417273
0.242832 0.337194 0.401709
0.337774 0.345220 0.380346
0.495705 0.342351 0.412390
0.730404 0.399329 0.515282
0.866667 0.348363 0.458808
0.000000 0.406928 0.483803
0.000000 0.408362 0.483711
0.158663 0.418463 0.486915
0.307439 0.428382 0.487190
0.414588 0.433722 0.470130
0.562066 0.441291 0.489143
0.756191 0.492012 0.559014
0.879179 0.413672 0.464240
0.000000 0.531823 0.558129
0.000000 0.531334 0.557916
0.015015 0.529442 0.558129
0.322393 0.525658 0.559136
0.505913 0.540551 0.561120
0.624689 0.552514 0.563775
0.771267 0.547845 0.565515
0.871122 0.504540 0.457679
0.000000 0.679896 0.644587
0.092622 0.681056 0.646296
0.270451 0.679896 0.646479
0.419318 0.677974 0.647395
0.563378 0.675227 0.648920
0.699611 0.676326 0.655604
0.789853 0.656794 0.606012
0.887022 0.642817 0.545037
0.472847 0.810697 0.738613
0.485359 0.811490 0.740169
0.527306 0.812497 0.743160
0.597559 0.815000 0.749569
0.670863 0.809140 0.745724
0.744259 0.793545 0.737575
0.828000 0.812802 0.759731
0.897917 0.800778 0.718410
0.645106 0.899413 0.815946
0.648585 0.898863 0.815366
0.665492 0.897398 0.814389
0.698421 0.895293 0.813687
0.745327 0.890929 0.813321
0.802243 0.883482 0.818021
0.840055 0.875090 0.812222
0.913848 0.903227 0.845121
0.000000 0.392279 0.560906
0.000000 0.392737 0.561639
0.000000 0.389654 0.557061
0.000000 0.386938 0.549248
0.224826 0.388434 0.532921
0.376806 0.393835 0.516991
0.607141 0.389197 0.562890
0.827451 0.471473 0.660822
0.000000 0.398108 0.561761
0.000000 0.398871 0.563043
0.000000 0.395758 0.558679
0.000000 0.391791 0.549310
0.234562 0.392523 0.532494
0.381445 0.398596 0.513939
0.603906 0.392035 0.558007
0.822171 0.470436 0.654414
0.000000 0.440436 0.594934
0.000000 0.439551 0.593896
0.000000 0.435737 0.588861
0.000000 0.431250 0.579767
0.278355 0.430488 0.563012
0.422217 0.444831 0.540948
0.629206 0.440528 0.586969
0.830014 0.523369 0.674556
0.000000 0.500023 0.637690
0.000000 0.500755 0.636744
0.000000 0.507347 0.635828
0.206790 0.503655 0.629541
0.361883 0.502403 0.616693
0.494697 0.519799 0.597681
0.668910 0.524773 0.632410
0.838468 0.598291 0.701869
0.000000 0.570550 0.676509
0.000000 0.568353 0.674830
0.000000 0.562127 0.671748
0.250278 0.572412 0.672267
0.458076 0.587060 0.669337
0.571252 0.597223 0.654932
0.705440 0.612146 0.673762
0.849699 0.673335 0.731228
0.000000 0.695705 0.731319
0.000000 0.695338 0.731350
0.091341 0.693019 0.730678
0.333989 0.688258 0.729213
0.493294 0.679530 0.725612
0.658961 0.695247 0.727016
0.757290 0.712856 0.734829
0.866819 0.711177 0.737484
0.377264 0.810758 0.790829
0.392401 0.811002 0.791409
0.441932 0.810117 0.791531
0.522087 0.808774 0.792294
0.615930 0.806394 0.792844
0.714626 0.804257 0.794308
0.811429 0.804196 0.798001
0.879698 0.781918 0.752895
0.620356 0.898039 0.850736
0.626154 0.898253 0.851225
0.650690 0.899474 0.853788
0.691402 0.900999 0.857420
0.745174 0.903624 0.863035
0.797665 0.902037 0.862943
0.848936 0.891691 0.857389
0.911742 0.906096 0.874235
0.000000 0.531334 0.744106
0.000000 0.531579 0.744198
0.000000 0.528740 0.740505
0.000000 0.527459 0.735927
0.137789 0.528588 0.726894
0.390875 0.539300 0.711513
0.544884 0.543755 0.707210
0.745785 0.548943 0.733455
0.000000 0.535058 0.743465
0.000000 0.535363 0.743648
0.000000 0.533227 0.740780
0.000000 0.531273 0.735805
0.161563 0.532067 0.726864
0.396582 0.542412 0.711604
0.545830 0.546197 0.705806
0.744320 0.550713 0.731563
0.000000 0.560998 0.753323
0.000000 0.560693 0.752956
0.000000 0.558099 0.749874
0.000000 0.558373 0.747219
0.250797 0.557702 0.737789
0.432349 0.565942 0.722347
0.566522 0.573175 0.714351
0.751980 0.578973 0.739620
0.000000 0.605707 0.771084
0.000000 0.606928 0.771176
0.000000 0.604761 0.768765
0.141787 0.603235 0.765164
0.351720 0.603174 0.757687
0.493782 0.611048 0.744839
0.609400 0.625483 0.732692
0.768551 0.629603 0.757656
0.000000 0.640803 0.791653
0.000000 0.642023 0.791806
0.000000 0.644160 0.789761
0.275547 0.656458 0.787808
0.439429 0.659419 0.781643
0.555230 0.663447 0.770932
0.658686 0.683009 0.755795
0.788876 0.687434 0.780087
0.000000 0.727108 0.820920
0.000000 0.725399 0.820066
0.000000 0.719509 0.817380
0.131716 0.709010 0.813565
0.432288 0.709865 0.809445
0.621180 0.730404 0.807004
0.716060 0.744839 0.799344
0.819821 0.759640 0.814603
0.311559 0.829984 0.857267
0.324407 0.829404 0.856962
0.373297 0.827115 0.855985
0.452613 0.823209 0.854673
0.546471 0.816587 0.852354
0.645869 0.805722 0.848264
0.773892 0.813779 0.846036
0.853605 0.828061 0.851225
0.564446 0.906096 0.892790
0.569177 0.905821 0.892668
0.590784 0.905180 0.892729
0.631922 0.904387 0.893370
0.687190 0.903044 0.894011
0.751797 0.901244 0.894713
0.822995 0.899565 0.895872
0.898833 0.898863 0.898070
