20 Preset/INSTA/【3】LUT video cho PR-AE-FCPX/INS LUT (23).cube
# Created by Adobe Lightroom plugin Export LUT (1.24.0)
# www.johnrellis.com/lightroom/exportlut.htm
# Preset: INS胶片-自然[素材江湖]23
# Color profile: C:\Program Files (x86)\Common Files\Adobe\Color\Profiles\Recommended\VideoHD.icc
LUT_3D_SIZE 8
DOMAIN_MIN 0.000000 0.000000 0.000000
DOMAIN_MAX 0.903226 0.903226 0.903226
0.000000 0.000000 0.000000
0.082368 0.002472 0.008179
0.238560 0.000000 0.020172
0.474678 0.000000 0.016785
0.676020 0.000000 0.002960
0.806943 0.000000 0.000000
0.923827 0.000000 0.002106
0.990784 0.000000 0.058991
0.000000 0.092622 0.053376
0.075715 0.095155 0.039551
0.256016 0.064973 0.013733
0.472084 0.000000 0.006897
0.665736 0.000000 0.000000
0.800076 0.000000 0.000000
0.902495 0.000000 0.000000
0.974426 0.000000 0.033570
0.000000 0.295811 0.164034
0.000000 0.288731 0.146670
0.289311 0.315679 0.108583
0.598352 0.316655 0.000000
0.735653 0.183658 0.000000
0.852323 0.000000 0.000000
0.936553 0.000000 0.000000
0.993744 0.000000 0.043122
0.000000 0.539513 0.326696
0.000000 0.529534 0.305547
0.000000 0.531975 0.187289
0.601404 0.595056 0.320043
0.799619 0.605615 0.000000
0.870390 0.536919 0.000000
0.928466 0.460243 0.000000
0.978882 0.395453 0.048402
0.000000 0.673213 0.486427
0.000000 0.667903 0.470130
0.000000 0.646509 0.407355
0.191867 0.673762 0.343084
0.705043 0.700099 0.494759
0.836606 0.697200 0.325322
0.894377 0.655360 0.193118
0.946288 0.609003 0.219547
0.347265 0.741543 0.593988
0.333654 0.744228 0.593347
0.000000 0.734218 0.552605
0.000000 0.723842 0.470344
0.527306 0.745846 0.503471
0.760098 0.767300 0.630152
0.857481 0.771511 0.557488
0.912261 0.746334 0.489479
0.515099 0.794980 0.686976
0.504509 0.794858 0.683162
0.433722 0.789029 0.656214
0.115785 0.777676 0.596490
0.277836 0.784176 0.534569
0.652064 0.797330 0.626001
0.796811 0.814145 0.721492
0.865019 0.818418 0.694301
0.639826 0.845914 0.774563
0.633814 0.845548 0.771725
0.607141 0.844724 0.760098
0.537102 0.844144 0.733333
0.209689 0.829679 0.646784
0.548425 0.843351 0.657038
0.744747 0.849027 0.745815
0.832578 0.853971 0.800565
0.000000 0.026947 0.048524
0.033997 0.024750 0.050141
0.210361 0.000000 0.034150
0.437476 0.000000 0.012421
0.647822 0.000000 0.000000
0.785275 0.000000 0.000000
0.886656 0.000000 0.000000
0.959533 0.000000 0.021515
0.012512 0.093599 0.083436
0.088167 0.097627 0.090028
0.244083 0.071717 0.054871
0.464057 0.000000 0.000000
0.659297 0.000000 0.000000
0.790982 0.000000 0.000000
0.879789 0.000000 0.000000
0.949889 0.000000 0.006958
0.000000 0.286625 0.202274
0.000000 0.285618 0.185183
0.301152 0.307958 0.161868
0.570489 0.296818 0.000000
0.715999 0.206912 0.000000
0.825711 0.000000 0.000000
0.902586 0.000000 0.000000
0.966522 0.000000 0.000000
0.000000 0.516655 0.336584
0.000000 0.508934 0.317845
0.000000 0.505303 0.223636
0.560571 0.552178 0.300572
0.756893 0.554589 0.000000
0.837461 0.495979 0.000000
0.901335 0.416815 0.000000
0.957427 0.349035 0.000000
0.031098 0.666590 0.495003
0.000000 0.660273 0.477607
0.000000 0.637903 0.414893
0.134432 0.655238 0.334722
0.686183 0.677913 0.468391
0.821775 0.677668 0.299504
0.883055 0.638819 0.118227
0.936706 0.591150 0.159213
0.360266 0.733303 0.590387
0.331334 0.731441 0.582208
0.027131 0.721859 0.543877
0.000000 0.709773 0.464851
0.511192 0.735256 0.490486
0.754696 0.759945 0.621057
0.853208 0.763973 0.543236
0.909453 0.737362 0.459541
0.508904 0.787106 0.678645
0.491829 0.784665 0.670771
0.419379 0.778378 0.643427
0.096132 0.767483 0.586419
0.244694 0.775357 0.524987
0.641199 0.789425 0.612116
0.790188 0.805875 0.706935
0.861601 0.809537 0.671534
0.630823 0.839811 0.766415
0.627558 0.840421 0.765438
0.599390 0.838987 0.752773
0.527672 0.837797 0.725124
0.275212 0.835477 0.663203
0.552636 0.844602 0.662745
0.742794 0.847745 0.743984
0.831693 0.852934 0.799008
0.000000 0.095766 0.157351
0.000000 0.093660 0.149630
0.154421 0.083894 0.187167
0.532128 0.000000 0.205447
0.663478 0.000000 0.094545
0.811551 0.000000 0.001007
0.907164 0.000000 0.000000
0.973785 0.000000 0.025879
0.000000 0.134096 0.208225
0.000000 0.134340 0.199252
0.218936 0.129732 0.233127
0.509575 0.000000 0.194949
0.669306 0.000000 0.103761
0.811002 0.000000 0.003998
0.899718 0.000000 0.000000
0.966125 0.000000 0.010864
0.000000 0.317723 0.286015
0.154849 0.317021 0.291020
0.346777 0.316869 0.285679
0.568048 0.248386 0.209415
0.731868 0.173922 0.137789
0.838071 0.110506 0.000000
0.911254 0.000000 0.000000
0.970184 0.000000 0.000000
0.350195 0.554925 0.457893
0.346654 0.554986 0.457404
0.144503 0.539391 0.404547
0.602655 0.576715 0.432654
0.757870 0.556176 0.257298
0.842069 0.496712 0.111666
0.906920 0.450843 0.000000
0.961975 0.388983 0.000000
0.458473 0.679133 0.579187
0.433143 0.675471 0.567803
0.281437 0.661006 0.516930
0.277897 0.664240 0.425269
0.703182 0.691737 0.545403
0.815854 0.680446 0.406012
0.880980 0.640955 0.242649
0.938262 0.600183 0.180423
0.503807 0.739223 0.640375
0.489967 0.738064 0.634363
0.406653 0.729305 0.600824
0.000000 0.707515 0.523003
0.525353 0.732570 0.526177
0.755612 0.759121 0.644465
0.849241 0.762173 0.568475
0.908293 0.738369 0.476814
0.586145 0.793362 0.714015
0.574365 0.791196 0.707515
0.522057 0.784176 0.681758
0.375525 0.772183 0.627955
0.313939 0.772091 0.559899
0.647333 0.789731 0.631861
0.794125 0.809659 0.725490
0.862791 0.813840 0.692042
0.663447 0.841276 0.781857
0.656764 0.840330 0.778256
0.632807 0.838560 0.766598
0.578912 0.838132 0.744320
0.402869 0.834836 0.686915
0.553277 0.844968 0.672419
0.745693 0.848997 0.752651
0.833463 0.854368 0.806027
0.000000 0.146548 0.302495
0.000000 0.148013 0.303624
0.000000 0.158724 0.281712
0.360266 0.137118 0.397375
0.781613 0.000000 0.460945
0.828702 0.000000 0.285435
0.884642 0.000000 0.143954
0.962249 0.000000 0.070863
0.000000 0.192050 0.358343
0.000000 0.191897 0.353185
0.000000 0.201755 0.325322
0.420905 0.190860 0.434058
0.778439 0.000000 0.459449
0.821561 0.000000 0.280125
0.887327 0.000000 0.153048
0.962097 0.000000 0.080934
0.000000 0.322972 0.449378
0.000000 0.318608 0.450477
0.176120 0.341985 0.430304
0.552819 0.361486 0.507683
0.748379 0.260655 0.435554
0.828550 0.000000 0.270726
0.912932 0.000000 0.206790
0.974365 0.000000 0.115480
0.346777 0.588037 0.544030
0.380377 0.584192 0.543328
0.491157 0.573907 0.546838
0.607050 0.567010 0.529870
0.732143 0.510735 0.445930
0.823148 0.458778 0.357641
0.896056 0.413519 0.266087
0.959045 0.377844 0.163058
0.618036 0.707088 0.669184
0.612543 0.703944 0.664363
0.594293 0.694026 0.649195
0.480537 0.670619 0.585382
0.717403 0.704402 0.633845
0.803891 0.679896 0.524498
0.872496 0.634943 0.414130
0.935302 0.594385 0.315618
0.641779 0.759945 0.716732
0.644678 0.762264 0.719875
0.626062 0.754116 0.705562
0.522179 0.737148 0.648096
0.569543 0.741878 0.605737
0.764096 0.767453 0.697169
0.842435 0.762875 0.623957
0.902220 0.737209 0.536217
0.674220 0.804349 0.762661
0.672541 0.803708 0.761471
0.649134 0.798886 0.747036
0.578790 0.788205 0.708186
0.417426 0.772793 0.629572
0.661646 0.793851 0.671626
0.799252 0.813931 0.750546
0.863432 0.815702 0.711513
0.724758 0.847929 0.814450
0.720699 0.847471 0.812284
0.702480 0.845762 0.802792
0.660060 0.842832 0.781796
0.555901 0.837736 0.735927
0.564996 0.843046 0.697841
0.747707 0.849912 0.764187
0.836332 0.856718 0.817594
0.000000 0.218326 0.461372
0.000000 0.220981 0.462867
0.000000 0.228519 0.450599
0.000000 0.269596 0.419379
0.577508 0.261692 0.585473
0.871916 0.331456 0.667048
0.925719 0.000000 0.516533
0.956359 0.000000 0.334813
0.000000 0.256321 0.494148
0.000000 0.259190 0.495125
0.000000 0.265690 0.481270
0.118074 0.300908 0.443427
0.602075 0.309178 0.600397
0.865568 0.367407 0.664637
0.920073 0.000000 0.513329
0.952270 0.000000 0.327428
0.000000 0.370306 0.560357
0.000000 0.378515 0.559869
0.000000 0.384619 0.548669
0.299107 0.411719 0.518547
0.653437 0.444343 0.633082
0.836851 0.438666 0.639887
0.894011 0.216159 0.486732
0.939818 0.000000 0.293248
0.000000 0.568597 0.626886
0.000000 0.564416 0.626398
0.136355 0.545495 0.627131
0.501335 0.565454 0.615442
0.707485 0.602380 0.681514
0.797147 0.522576 0.602899
0.869474 0.341253 0.437446
0.945617 0.244419 0.325139
0.545220 0.704402 0.682704
0.556237 0.703944 0.683680
0.594629 0.699825 0.684840
0.653498 0.692683 0.688075
0.703029 0.681300 0.664210
0.775998 0.638636 0.601129
0.849088 0.589807 0.519982
0.922210 0.537804 0.416968
0.704829 0.764004 0.753262
0.703456 0.763241 0.752010
0.694118 0.756924 0.743038
0.674861 0.745663 0.725704
0.589837 0.723323 0.663569
0.759060 0.759518 0.721584
0.827787 0.747341 0.656916
0.893400 0.714199 0.573236
0.727138 0.813901 0.795132
0.724300 0.812375 0.792782
0.714961 0.807828 0.785367
0.698970 0.800504 0.773098
0.614893 0.781430 0.720180
0.655268 0.787137 0.693812
0.798795 0.811215 0.766812
0.859892 0.807004 0.715694
0.755673 0.848539 0.829129
0.754025 0.848051 0.828092
0.747585 0.846098 0.824094
0.735256 0.844602 0.817624
0.671229 0.838193 0.784085
0.548577 0.831754 0.718044
0.736294 0.844907 0.764858
0.834806 0.854063 0.820615
0.000000 0.310491 0.600214
0.000000 0.312902 0.600458
0.000000 0.317815 0.591241
0.000000 0.346075 0.579309
0.295537 0.406043 0.562341
0.699123 0.436713 0.708675
0.885710 0.558343 0.772122
0.957458 0.407111 0.684443
0.000000 0.327672 0.601617
0.000000 0.328405 0.599786
0.000000 0.333349 0.591821
0.000000 0.357610 0.578576
0.310002 0.412482 0.557458
0.696468 0.444923 0.703243
0.880491 0.562341 0.766506
0.952331 0.405341 0.676387
0.000000 0.436652 0.651850
0.000000 0.436500 0.649897
0.000000 0.440131 0.643244
0.000000 0.447395 0.621820
0.422126 0.493416 0.591180
0.717739 0.533684 0.721645
0.867033 0.608606 0.764950
0.936675 0.460975 0.670985
0.000000 0.541863 0.696071
0.000000 0.545159 0.694484
0.000000 0.565362 0.693019
0.402441 0.583246 0.688808
0.565423 0.608576 0.668879
0.752041 0.650172 0.757656
0.849973 0.657923 0.760555
0.916869 0.521416 0.656764
0.305486 0.695216 0.728725
0.326909 0.693385 0.728237
0.401984 0.685725 0.727016
0.505608 0.668330 0.725551
0.642939 0.680140 0.717708
0.763241 0.713405 0.766445
0.823239 0.650538 0.708553
0.899260 0.486305 0.556878
0.645563 0.769162 0.762234
0.652461 0.770504 0.764523
0.666499 0.768460 0.764645
0.691585 0.764828 0.765103
0.723964 0.759518 0.766049
0.756100 0.752834 0.751186
0.813901 0.720790 0.705592
0.884672 0.675685 0.633539
0.785397 0.829862 0.833921
0.785702 0.830320 0.834318
0.782437 0.828794 0.831907
0.774411 0.824796 0.825772
0.755520 0.814725 0.810849
0.674128 0.784817 0.750820
0.803586 0.815396 0.797086
0.856413 0.802914 0.746792
0.797635 0.855283 0.852659
0.796262 0.854704 0.851713
0.792660 0.853635 0.849454
0.786313 0.852262 0.845823
0.769589 0.847562 0.835569
0.693996 0.835203 0.793179
0.720424 0.840543 0.772488
0.835630 0.853727 0.831754
0.000000 0.391485 0.686519
0.000000 0.394385 0.687221
0.000000 0.399451 0.682765
0.000000 0.416022 0.674586
0.000000 0.448859 0.655512
0.438331 0.490028 0.663691
0.744442 0.536553 0.768582
0.891478 0.626368 0.817594
0.000000 0.402136 0.685664
0.000000 0.405219 0.686671
0.000000 0.409644 0.682368
0.000000 0.422431 0.672419
0.000000 0.452705 0.653132
0.439582 0.491035 0.658503
0.741512 0.534813 0.763424
0.888426 0.621485 0.812314
0.000000 0.470619 0.708949
0.000000 0.471229 0.708034
0.000000 0.472969 0.702846
0.000000 0.481361 0.692927
0.244541 0.503410 0.673793
0.494881 0.539483 0.673701
0.751949 0.589960 0.773831
0.881437 0.667659 0.817777
0.000000 0.555352 0.737911
0.000000 0.557122 0.736233
0.000000 0.567468 0.732998
0.000000 0.571191 0.725765
0.419074 0.583581 0.711116
0.577417 0.615381 0.701991
0.769100 0.663233 0.790707
0.872679 0.719753 0.823697
0.000000 0.644038 0.760067
0.000000 0.639948 0.758633
0.000000 0.624475 0.755642
0.330785 0.641596 0.753262
0.532464 0.655879 0.745327
0.642176 0.676905 0.728634
0.783963 0.717586 0.803342
0.864469 0.732631 0.813657
0.483101 0.765011 0.790890
0.489265 0.764279 0.790829
0.511833 0.760464 0.790066
0.550927 0.751705 0.788235
0.602472 0.732692 0.783810
0.703639 0.742214 0.779660
0.804074 0.777432 0.823362
0.854673 0.729427 0.783597
0.706203 0.822812 0.821378
0.708797 0.823056 0.821927
0.716060 0.822385 0.822385
0.730556 0.821347 0.823545
0.750851 0.818936 0.824460
0.776303 0.815030 0.825315
0.797665 0.805936 0.811612
0.848600 0.772183 0.767422
0.815824 0.858732 0.864164
0.816678 0.858946 0.864591
0.820645 0.860014 0.866606
0.826749 0.861387 0.869657
0.822660 0.860044 0.867063
0.810025 0.855253 0.858854
0.729549 0.834562 0.810300
0.837949 0.855192 0.849973
0.000000 0.488869 0.767941
0.000000 0.490700 0.768002
0.000000 0.492531 0.763790
0.000000 0.503014 0.758358
0.000000 0.522057 0.747372
0.368872 0.555627 0.727840
0.570336 0.586816 0.750942
0.780514 0.624414 0.819638
0.000000 0.493263 0.766293
0.000000 0.495125 0.766384
0.000000 0.497963 0.763180
0.000000 0.506798 0.757259
0.000000 0.524681 0.746334
0.373388 0.557061 0.726986
0.569574 0.586999 0.748348
0.779141 0.623835 0.817441
0.000000 0.527245 0.772610
0.000000 0.528069 0.772183
0.000000 0.529381 0.768734
0.000000 0.539696 0.765316
0.000000 0.552392 0.754086
0.415320 0.578271 0.734859
0.587945 0.608759 0.751705
0.782650 0.647395 0.819852
0.000000 0.579706 0.784451
0.000000 0.582696 0.784360
0.000000 0.583368 0.781674
0.000000 0.587640 0.777279
0.224643 0.596948 0.768399
0.481971 0.617914 0.752926
0.621515 0.648188 0.760800
0.791226 0.688594 0.826902
0.000000 0.617487 0.799344
0.000000 0.619348 0.799374
0.000000 0.623651 0.796902
0.000000 0.639796 0.793393
0.364782 0.645991 0.785641
0.539178 0.659754 0.772885
0.654475 0.688106 0.768215
0.802396 0.730495 0.835447
0.000000 0.730617 0.819364
0.000000 0.728115 0.818540
0.000000 0.718196 0.816007
0.000000 0.696773 0.812436
0.381598 0.692317 0.807828
0.601862 0.715206 0.802640
0.702541 0.740719 0.792355
0.820401 0.782559 0.850736
0.589044 0.825559 0.845151
0.590539 0.824979 0.844968
0.596765 0.822568 0.844266
0.611170 0.817960 0.843381
0.632410 0.808896 0.841581
0.660182 0.789517 0.837583
0.745327 0.791836 0.831205
0.835904 0.825254 0.863371
0.760678 0.859922 0.861692
0.761379 0.859800 0.861662
0.765164 0.859586 0.861997
0.773709 0.859464 0.863096
0.786007 0.859098 0.864530
0.801755 0.858274 0.866117
0.820401 0.856779 0.867765
0.834440 0.850706 0.860655
