20 Preset/INSTA/【3】LUT video cho PR-AE-FCPX/INS LUT (6).cube
# Created by Adobe Lightroom plugin Export LUT (1.24.0)
# www.johnrellis.com/lightroom/exportlut.htm
# Preset: INS胶片Tezza02-JPG[素材江湖]06
# Color profile: C:\Program Files (x86)\Common Files\Adobe\Color\Profiles\Recommended\VideoHD.icc
LUT_3D_SIZE 32
DOMAIN_MIN 0.0 0.0 0.0
DOMAIN_MAX 1.0 1.0 1.0
0.014069 0.092073 0.103670
0.016724 0.092348 0.104341
0.033570 0.092866 0.105196
0.068788 0.094972 0.107118
0.098268 0.097383 0.110475
0.124666 0.100710 0.115511
0.155428 0.103334 0.120027
0.191196 0.103944 0.123842
0.231327 0.102266 0.127230
0.275120 0.097932 0.130373
0.322332 0.090028 0.133639
0.371252 0.068605 0.136538
0.421485 0.030732 0.139895
0.472541 0.000000 0.143648
0.522484 0.000000 0.147250
0.571221 0.000000 0.151064
0.617853 0.000000 0.155459
0.661921 0.000000 0.160525
0.703273 0.000000 0.166293
0.742275 0.000000 0.172671
0.778958 0.000000 0.179843
0.813352 0.075990 0.187778
0.845274 0.122927 0.196262
0.877348 0.161318 0.207095
0.908385 0.197696 0.219913
0.936126 0.231968 0.234104
0.961547 0.265202 0.250340
0.985565 0.298314 0.267796
1.000000 0.331914 0.287938
1.000000 0.366522 0.310430
1.000000 0.401923 0.335973
1.000000 0.438422 0.365087
0.013306 0.094118 0.104829
0.016297 0.093599 0.104524
0.032410 0.094514 0.105348
0.069062 0.095705 0.107362
0.098451 0.098878 0.110933
0.124544 0.101808 0.115694
0.155337 0.104402 0.120211
0.190158 0.104891 0.124056
0.230167 0.103395 0.127443
0.273747 0.099367 0.130312
0.320226 0.092256 0.133364
0.369085 0.075471 0.136507
0.419104 0.037964 0.139925
0.469856 0.000000 0.143221
0.519860 0.000000 0.146883
0.568750 0.000000 0.150942
0.615473 0.000000 0.155520
0.659693 0.000000 0.160281
0.701137 0.000000 0.166018
0.740017 0.000000 0.172396
0.776638 0.000000 0.179446
0.811063 0.075288 0.187045
0.843046 0.122316 0.195773
0.874937 0.160311 0.206332
0.905577 0.195895 0.218784
0.933135 0.229068 0.232425
0.958495 0.261814 0.248173
0.982666 0.294591 0.265751
1.000000 0.328008 0.285161
1.000000 0.362554 0.307713
1.000000 0.398047 0.333104
1.000000 0.434638 0.361730
0.008789 0.101656 0.108675
0.013062 0.101503 0.108339
0.029847 0.100954 0.107301
0.068116 0.101686 0.108339
0.098604 0.103853 0.111940
0.125399 0.106813 0.116884
0.155947 0.108614 0.120851
0.191409 0.109224 0.124086
0.231022 0.108186 0.127413
0.274296 0.105104 0.130495
0.320562 0.098726 0.133547
0.369116 0.088685 0.136416
0.418891 0.060883 0.139773
0.469062 0.019379 0.143313
0.519097 0.000000 0.146853
0.567712 0.000000 0.150698
0.614435 0.000000 0.155306
0.658656 0.000000 0.160037
0.699977 0.000000 0.165621
0.738949 0.000000 0.171969
0.775723 0.014282 0.179019
0.809934 0.095796 0.186648
0.842008 0.131319 0.195254
0.874052 0.166354 0.205997
0.904173 0.200076 0.218021
0.931731 0.231693 0.231693
0.956970 0.263554 0.247166
0.981109 0.295750 0.264530
1.000000 0.328771 0.284184
1.000000 0.362951 0.306401
1.000000 0.397986 0.331670
1.000000 0.434119 0.360143
0.007202 0.115419 0.118074
0.007782 0.115419 0.117494
0.023316 0.114656 0.116609
0.056367 0.114351 0.113741
0.098421 0.115297 0.115389
0.127596 0.115877 0.118624
0.159243 0.117525 0.122194
0.194339 0.118257 0.125093
0.234195 0.117678 0.127779
0.276890 0.115206 0.130800
0.323095 0.110689 0.133700
0.370733 0.103334 0.136507
0.420478 0.093019 0.139498
0.470314 0.070497 0.142916
0.519554 0.032532 0.146487
0.567803 0.000488 0.150423
0.613855 0.000000 0.154818
0.657465 0.000000 0.159548
0.698695 0.000000 0.164920
0.737301 0.021668 0.171389
0.773709 0.085145 0.178164
0.807889 0.118105 0.185885
0.840116 0.147127 0.194491
0.872343 0.178012 0.205173
0.902373 0.208713 0.217319
0.930022 0.239200 0.231113
0.955596 0.270146 0.246555
0.980041 0.301366 0.264225
1.000000 0.333684 0.283879
1.000000 0.367224 0.306218
1.000000 0.401373 0.331151
1.000000 0.436622 0.359533
0.000000 0.135653 0.129549
0.000000 0.135683 0.128267
0.006867 0.135134 0.126955
0.041596 0.133852 0.125673
0.093812 0.132784 0.122225
0.128542 0.133669 0.121767
0.162356 0.132479 0.123598
0.198581 0.132052 0.125734
0.237675 0.132235 0.128328
0.280613 0.131106 0.130861
0.325902 0.127962 0.133700
0.373449 0.123476 0.136324
0.422309 0.116854 0.139223
0.472053 0.108736 0.142672
0.520806 0.099763 0.145815
0.568688 0.090761 0.149660
0.614740 0.081666 0.153933
0.658198 0.081331 0.158755
0.699062 0.091737 0.164614
0.737545 0.105715 0.170840
0.773678 0.125124 0.177615
0.807797 0.146609 0.185641
0.840085 0.170321 0.194308
0.872190 0.196963 0.205081
0.901915 0.224338 0.217380
0.929351 0.252873 0.230900
0.954864 0.281224 0.246555
0.979156 0.310979 0.264073
1.000000 0.341802 0.283970
1.000000 0.373938 0.306126
1.000000 0.407111 0.331060
1.000000 0.441352 0.359228
0.000000 0.163424 0.140841
0.000000 0.163638 0.140139
0.000000 0.162600 0.136263
0.008484 0.161013 0.135897
0.081666 0.159457 0.133394
0.123079 0.158083 0.129335
0.165011 0.158999 0.126345
0.204410 0.156558 0.127352
0.244755 0.152010 0.128786
0.287602 0.151949 0.130861
0.332555 0.150332 0.133242
0.379644 0.148196 0.136080
0.427985 0.144656 0.138705
0.477028 0.140536 0.141939
0.525536 0.136568 0.145235
0.572900 0.132723 0.149111
0.618311 0.131014 0.153384
0.661402 0.132937 0.158236
0.701625 0.138674 0.163821
0.739559 0.148653 0.170321
0.775479 0.162478 0.177493
0.809201 0.179599 0.185245
0.855558 0.211276 0.198947
0.888243 0.236728 0.211521
0.917601 0.262669 0.224979
0.944152 0.289067 0.240482
0.968780 0.316320 0.257359
0.991943 0.344518 0.276097
1.000000 0.373846 0.297093
1.000000 0.404242 0.320439
1.000000 0.435523 0.346136
1.000000 0.467597 0.375097
0.000000 0.202487 0.155093
0.000000 0.202365 0.153933
0.000000 0.201816 0.149477
0.000000 0.200168 0.147280
0.026154 0.197147 0.146914
0.115267 0.195773 0.142458
0.163668 0.194034 0.137484
0.215732 0.195682 0.131319
0.259037 0.191836 0.130037
0.302953 0.185885 0.130922
0.348150 0.179904 0.132845
0.395605 0.179385 0.135439
0.443641 0.177829 0.137911
0.491646 0.176272 0.140780
0.539208 0.174594 0.144472
0.585016 0.173617 0.148287
0.629053 0.173922 0.152804
0.670710 0.176913 0.158053
0.709987 0.182712 0.163577
0.747433 0.191196 0.170504
0.783017 0.203403 0.178286
0.817807 0.218448 0.186801
0.852873 0.238651 0.197604
0.885283 0.260319 0.210117
0.914855 0.283452 0.224277
0.941405 0.307713 0.239445
0.966003 0.332311 0.256565
0.989044 0.358404 0.275120
1.000000 0.385595 0.295964
1.000000 0.414038 0.319066
1.000000 0.443641 0.344671
1.000000 0.474342 0.373236
0.000000 0.244877 0.170199
0.000000 0.244846 0.169680
0.000000 0.244205 0.165286
0.000000 0.243015 0.160220
0.000000 0.240146 0.159579
0.089937 0.237247 0.157961
0.154452 0.236301 0.152895
0.209110 0.234440 0.146304
0.269169 0.237980 0.139345
0.313939 0.232486 0.131655
0.359686 0.225711 0.131838
0.405249 0.216556 0.133211
0.451392 0.212253 0.135622
0.498360 0.211795 0.138582
0.544671 0.211582 0.142153
0.589410 0.211704 0.146365
0.632441 0.213413 0.150942
0.673213 0.216220 0.156039
0.711879 0.221500 0.162295
0.748592 0.229221 0.168978
0.783841 0.239170 0.177005
0.819974 0.253544 0.186618
0.853452 0.270146 0.197543
0.884611 0.288701 0.209842
0.913390 0.309178 0.223850
0.939513 0.330175 0.239597
0.963745 0.352331 0.256321
0.986664 0.375982 0.275059
1.000000 0.401221 0.295995
1.000000 0.427741 0.318853
1.000000 0.455695 0.344945
1.000000 0.484871 0.373449
0.000000 0.292027 0.189822
0.000000 0.292119 0.188602
0.000000 0.291600 0.184695
0.000000 0.290959 0.176761
0.000000 0.288548 0.176181
0.000000 0.285161 0.175479
0.136843 0.282963 0.172183
0.201205 0.282444 0.165957
0.259739 0.281071 0.158267
0.326726 0.285863 0.149081
0.374456 0.279759 0.139590
0.419837 0.272038 0.130922
0.464759 0.262821 0.132815
0.507836 0.251499 0.135439
0.552514 0.250340 0.139040
0.596033 0.251194 0.143435
0.637903 0.253025 0.148501
0.677577 0.256229 0.154147
0.715236 0.260838 0.160311
0.751705 0.267918 0.167788
0.787991 0.278141 0.176638
0.822416 0.290288 0.186404
0.854520 0.304234 0.197238
0.884733 0.320256 0.209903
0.912688 0.337713 0.224369
0.938231 0.356085 0.239933
0.962158 0.375952 0.257389
0.984802 0.397589 0.276158
1.000000 0.420691 0.297276
1.000000 0.445106 0.320348
1.000000 0.471260 0.346319
1.000000 0.498665 0.374853
0.000000 0.342748 0.213016
0.000000 0.342565 0.211521
0.000000 0.342168 0.208072
0.000000 0.341436 0.200198
0.000000 0.339879 0.195834
0.000000 0.336797 0.195285
0.107424 0.332952 0.194461
0.188632 0.332525 0.188724
0.253330 0.331914 0.181552
0.314488 0.330907 0.172763
0.385565 0.337102 0.160861
0.435218 0.331182 0.149874
0.479835 0.322118 0.137819
0.522698 0.312596 0.131746
0.563867 0.301427 0.135103
0.603357 0.291386 0.139437
0.644038 0.293400 0.145235
0.682856 0.296696 0.151095
0.721035 0.301884 0.158358
0.757687 0.309056 0.166842
0.792325 0.317540 0.175784
0.824796 0.327367 0.185672
0.855253 0.339025 0.197147
0.883970 0.351995 0.209781
0.910735 0.366613 0.224155
0.935546 0.382422 0.240116
0.959167 0.400031 0.257328
0.981750 0.419318 0.276677
1.000000 0.440558 0.297856
1.000000 0.463478 0.321324
1.000000 0.487922 0.347478
1.000000 0.514000 0.376715
0.000000 0.393744 0.237400
0.000000 0.393866 0.236698
0.000000 0.393561 0.233433
0.000000 0.393164 0.225895
0.000000 0.392279 0.218173
0.000000 0.389990 0.217563
0.029755 0.386969 0.217105
0.173159 0.384161 0.214969
0.245335 0.384436 0.208591
0.309850 0.384436 0.200290
0.372503 0.383825 0.189883
0.444038 0.390356 0.176089
0.496315 0.386419 0.164462
0.538994 0.376104 0.149783
0.579217 0.365515 0.134157
0.617243 0.354681 0.136660
0.654078 0.343084 0.141695
0.690791 0.339269 0.148043
0.727565 0.343908 0.155917
0.762387 0.349676 0.165286
0.795682 0.356664 0.174563
0.826749 0.364935 0.185397
0.856138 0.374792 0.196994
0.884001 0.385626 0.210422
0.910094 0.398199 0.225437
0.934386 0.412146 0.241611
0.957702 0.427710 0.259342
0.980041 0.445106 0.278752
1.000000 0.464424 0.300633
1.000000 0.485389 0.324590
1.000000 0.508080 0.351049
1.000000 0.532372 0.380499
0.000000 0.446784 0.264988
0.000000 0.446784 0.264317
0.000000 0.446723 0.261479
0.000000 0.446479 0.255253
0.000000 0.446174 0.244327
0.000000 0.444495 0.242771
0.000000 0.442084 0.241947
0.158450 0.438972 0.241276
0.237156 0.437781 0.237766
0.305211 0.438483 0.230747
0.369360 0.438605 0.221561
0.431617 0.438514 0.210300
0.511650 0.453773 0.200534
0.569970 0.455421 0.188632
0.610559 0.445197 0.170809
0.648493 0.434394 0.152407
0.684108 0.423255 0.144045
0.717525 0.411810 0.150301
0.748623 0.400092 0.157198
0.781399 0.402808 0.167147
0.812802 0.408637 0.178042
0.841764 0.415167 0.190738
0.869169 0.422919 0.203677
0.895048 0.432105 0.218357
0.919249 0.442329 0.234287
0.942290 0.454047 0.251438
0.964233 0.467231 0.269749
0.985138 0.482246 0.289952
1.000000 0.498970 0.311742
1.000000 0.517388 0.335943
1.000000 0.537469 0.362676
1.000000 0.559319 0.392248
0.000000 0.504662 0.298314
0.000000 0.504631 0.297581
0.000000 0.504356 0.294347
0.000000 0.503868 0.288334
0.000000 0.503349 0.278935
0.000000 0.501701 0.272374
0.000000 0.499458 0.271763
0.151614 0.497078 0.271489
0.235904 0.494820 0.271366
0.306279 0.496162 0.266300
0.372839 0.498390 0.259220
0.437171 0.500908 0.250370
0.500572 0.503166 0.240146
0.564569 0.506889 0.226810
0.624994 0.513359 0.215518
0.661830 0.502190 0.195834
0.695918 0.490425 0.175784
0.727993 0.478492 0.156283
0.757931 0.466499 0.162387
0.785946 0.454444 0.168887
0.812833 0.446052 0.177157
0.840848 0.451026 0.190005
0.867460 0.457191 0.204257
0.892790 0.464454 0.219364
0.916564 0.472999 0.235874
0.939300 0.483253 0.253361
0.961181 0.495033 0.272343
0.981994 0.508507 0.293095
1.000000 0.523705 0.315282
1.000000 0.540734 0.339971
1.000000 0.559289 0.367224
1.000000 0.579492 0.397040
0.000000 0.556329 0.331487
0.000000 0.556085 0.330602
0.000000 0.555871 0.328130
0.000000 0.555383 0.322179
0.000000 0.554894 0.313787
0.000000 0.554101 0.303410
0.000000 0.552117 0.302770
0.150179 0.549889 0.302007
0.239780 0.547662 0.302068
0.306218 0.546136 0.300816
0.371496 0.548272 0.295079
0.434302 0.550683 0.288243
0.495308 0.553246 0.279667
0.554864 0.555535 0.269688
0.612390 0.557214 0.256077
0.672816 0.566796 0.246738
0.705745 0.554559 0.225162
0.736690 0.542260 0.203067
0.765805 0.529870 0.180850
0.792538 0.517449 0.179324
0.817594 0.504845 0.185824
0.841733 0.493080 0.193729
0.866667 0.492073 0.205905
0.891417 0.497993 0.222080
0.914763 0.505119 0.238926
0.937316 0.513970 0.257145
0.958923 0.524315 0.276768
0.979492 0.536339 0.297673
0.998932 0.550011 0.320531
1.000000 0.565545 0.345800
1.000000 0.582513 0.373358
1.000000 0.601129 0.403449
0.000000 0.604059 0.365362
0.000000 0.603876 0.364569
0.000000 0.603601 0.362127
0.000000 0.603052 0.357275
0.000000 0.602350 0.349126
0.000000 0.601648 0.338293
0.000000 0.600000 0.334569
0.164950 0.597925 0.334234
0.248875 0.595758 0.333715
0.313420 0.593713 0.333562
0.373175 0.593896 0.331243
0.433112 0.596338 0.325841
0.491432 0.598871 0.319219
0.548089 0.601312 0.311070
0.603052 0.603265 0.300053
0.656184 0.604700 0.287602
0.714656 0.615656 0.279698
0.744045 0.602960 0.257542
0.771847 0.589654 0.235050
0.797879 0.576562 0.212497
0.822354 0.564019 0.202640
0.845701 0.552148 0.209171
0.868223 0.541222 0.216861
0.890227 0.531609 0.226200
0.913237 0.537469 0.243595
0.935424 0.545129 0.262394
0.956847 0.554223 0.282383
0.977203 0.565209 0.304143
0.996521 0.577752 0.327733
1.000000 0.592126 0.353735
1.000000 0.608026 0.382238
1.000000 0.625422 0.413306
0.000000 0.646693 0.398474
0.000000 0.646784 0.398138
0.000000 0.646662 0.395605
0.000000 0.646387 0.391699
0.000000 0.646052 0.384680
0.000000 0.645869 0.374945
0.000000 0.645319 0.367987
0.191257 0.643793 0.367834
0.266819 0.642206 0.367834
0.327031 0.640558 0.367987
0.380957 0.638575 0.367987
0.435706 0.639643 0.363958
0.489876 0.641566 0.357916
0.542870 0.643275 0.350988
0.594202 0.644648 0.342260
0.644343 0.645808 0.331823
0.693660 0.646754 0.319097
0.748898 0.657893 0.314244
0.775662 0.645167 0.291936
0.800687 0.631830 0.269474
0.824979 0.619257 0.247227
0.848417 0.607599 0.231235
0.870390 0.596490 0.238285
0.891783 0.586511 0.245945
0.912932 0.577417 0.255039
0.934325 0.576959 0.269810
0.955413 0.585229 0.290349
0.975463 0.594965 0.312535
0.994385 0.606287 0.337072
1.000000 0.619104 0.363195
1.000000 0.633265 0.391791
1.000000 0.648920 0.422919
0.080262 0.685176 0.431159
0.082918 0.685176 0.430488
0.088594 0.685084 0.428779
0.093996 0.685023 0.424872
0.106996 0.684840 0.419226
0.117861 0.684871 0.410620
0.136416 0.684840 0.400214
0.222538 0.683528 0.400061
0.286107 0.682124 0.400000
0.340826 0.680507 0.400092
0.391485 0.678737 0.400397
0.438697 0.677516 0.399939
0.489265 0.679011 0.395300
0.538628 0.680507 0.389593
0.587060 0.681727 0.382544
0.634485 0.682795 0.374456
0.680781 0.683650 0.364294
0.726162 0.684443 0.352667
0.777005 0.694453 0.348425
0.803128 0.683558 0.329381
0.826413 0.671199 0.306828
0.849393 0.659297 0.284550
0.871916 0.648585 0.265324
0.892882 0.638849 0.272099
0.913542 0.630060 0.279881
0.933867 0.622492 0.289525
0.953948 0.616175 0.300206
0.973632 0.624720 0.323095
0.992157 0.634882 0.347631
1.000000 0.646357 0.374487
1.000000 0.659205 0.403754
1.000000 0.673335 0.434974
0.201358 0.720058 0.464424
0.202640 0.720119 0.464485
0.226902 0.729000 0.472236
0.229007 0.729000 0.469306
0.231601 0.728969 0.463996
0.236179 0.728878 0.456672
0.242100 0.728786 0.446876
0.278019 0.727962 0.442847
0.326818 0.726619 0.442908
0.373327 0.725185 0.443030
0.417456 0.723568 0.443244
0.459419 0.721736 0.443397
0.501946 0.721065 0.441382
0.546624 0.721798 0.436713
0.590631 0.722408 0.430671
0.633906 0.722835 0.423774
0.676509 0.722988 0.415167
0.718318 0.723049 0.405341
0.759152 0.723201 0.393957
0.805478 0.731807 0.389136
0.830869 0.723049 0.374151
0.852750 0.711513 0.351202
0.874418 0.700740 0.328283
0.895872 0.690791 0.307012
0.915343 0.681666 0.313176
0.934508 0.673610 0.320623
0.953368 0.666743 0.330266
0.972015 0.661158 0.341527
0.990021 0.663416 0.360662
1.000000 0.673457 0.387579
1.000000 0.684779 0.416876
1.000000 0.697475 0.448371
0.278691 0.752987 0.500237
0.280369 0.753780 0.500847
0.283757 0.754574 0.500664
0.286381 0.755215 0.498451
0.289860 0.755734 0.494759
0.293156 0.755978 0.488716
0.298100 0.755978 0.480629
0.312993 0.755703 0.473243
0.352880 0.754482 0.473121
0.392462 0.753170 0.473335
0.431373 0.751766 0.473487
0.469520 0.750240 0.473915
0.506065 0.748379 0.473945
0.545922 0.748531 0.470954
0.586389 0.749172 0.466346
0.626673 0.749660 0.460975
0.666560 0.750088 0.454383
0.705898 0.750546 0.446723
0.744747 0.751064 0.438117
0.782925 0.751644 0.428199
0.826596 0.760342 0.423590
0.852354 0.754788 0.412787
0.873228 0.744656 0.390265
0.893950 0.735042 0.367895
0.914397 0.726131 0.347417
0.932769 0.718288 0.353613
0.950866 0.711299 0.361944
0.968658 0.705531 0.372198
0.986175 0.701198 0.384955
1.000000 0.698939 0.400458
1.000000 0.709010 0.430182
1.000000 0.720363 0.461982
0.334081 0.778805 0.530968
0.335882 0.779477 0.531670
0.338231 0.780270 0.531518
0.341039 0.780972 0.530327
0.343938 0.781552 0.527276
0.346899 0.781765 0.521965
0.350011 0.781888 0.515160
0.354070 0.782010 0.506065
0.384344 0.781003 0.505180
0.417182 0.779873 0.505333
0.451118 0.778561 0.505547
0.484749 0.777279 0.505882
0.518090 0.775723 0.506035
0.551202 0.774289 0.505974
0.588128 0.774990 0.502403
0.624933 0.775662 0.498054
0.661707 0.776272 0.492958
0.698268 0.776791 0.486732
0.734615 0.777462 0.480018
0.770443 0.778195 0.472206
0.805875 0.779049 0.463203
0.846830 0.787442 0.458656
0.872251 0.784237 0.452003
0.891966 0.775326 0.430396
0.911620 0.766781 0.408606
0.930968 0.758938 0.390387
0.948089 0.752041 0.397345
0.965026 0.746120 0.406531
0.981628 0.741543 0.418036
0.997894 0.738308 0.432410
1.000000 0.736690 0.449683
1.000000 0.742824 0.476905
0.385168 0.803555 0.562707
0.386694 0.804135 0.563317
0.388251 0.804776 0.563195
0.390753 0.805386 0.562219
0.393011 0.805844 0.559472
0.395605 0.806119 0.555261
0.398169 0.806271 0.549157
0.401129 0.806455 0.541405
0.417456 0.806058 0.537621
0.445380 0.805081 0.537743
0.474556 0.803983 0.538231
0.504051 0.802823 0.538598
0.533654 0.801572 0.538842
0.563256 0.800107 0.539300
0.594385 0.799557 0.538048
0.627863 0.800351 0.534936
0.661646 0.801205 0.531212
0.695674 0.802090 0.526909
0.729549 0.803159 0.521996
0.763333 0.804349 0.516503
0.796750 0.805661 0.510582
0.829709 0.807004 0.503349
0.866819 0.814115 0.499153
0.892576 0.813748 0.497444
0.911254 0.806210 0.476631
0.929900 0.798886 0.455879
0.947875 0.792172 0.442664
0.963684 0.786557 0.451118
0.979278 0.781979 0.461952
0.994537 0.778592 0.475471
1.000000 0.776547 0.491798
1.000000 0.776059 0.511192
0.442054 0.830350 0.600427
0.442603 0.830594 0.600671
0.443671 0.830777 0.600336
0.444404 0.830900 0.598718
0.445686 0.830991 0.595941
0.446967 0.831022 0.591913
0.449134 0.831052 0.586755
0.451850 0.831174 0.580499
0.457984 0.831205 0.573846
0.481025 0.830381 0.574151
0.505364 0.829526 0.574609
0.530846 0.828580 0.575128
0.556847 0.827420 0.575555
0.582849 0.826230 0.576013
0.609094 0.824918 0.576379
0.637873 0.825071 0.574548
0.667994 0.825742 0.571527
0.698390 0.826444 0.567987
0.729000 0.827268 0.564141
0.759640 0.828061 0.559503
0.790219 0.828946 0.554192
0.820310 0.829892 0.548180
0.850034 0.830838 0.540795
0.882719 0.835691 0.536187
0.908293 0.837278 0.537774
0.925811 0.830533 0.517540
0.943450 0.824094 0.497810
0.959899 0.818387 0.490761
0.974609 0.813870 0.500511
0.988983 0.810361 0.513024
1.000000 0.808011 0.528252
1.000000 0.806973 0.546502
0.487709 0.851438 0.632685
0.488350 0.851621 0.632898
0.488930 0.851804 0.632349
0.489906 0.851926 0.631189
0.490913 0.852049 0.629023
0.492103 0.852110 0.625635
0.493935 0.852171 0.621393
0.496040 0.852323 0.615839
0.498787 0.852537 0.609094
0.514855 0.852018 0.607843
0.535363 0.851316 0.608423
0.557183 0.850462 0.608942
0.579644 0.849607 0.609491
0.602808 0.848600 0.610040
0.626001 0.847532 0.610681
0.649622 0.846494 0.611048
0.676570 0.847227 0.609064
0.703792 0.847898 0.606439
0.731472 0.848631 0.603632
0.759121 0.849363 0.600153
0.786862 0.850187 0.596277
0.814389 0.851041 0.591669
0.841764 0.851865 0.586389
0.868742 0.852689 0.579950
0.896422 0.854398 0.571435
0.921447 0.857389 0.576257
0.938018 0.851530 0.557061
0.954833 0.845975 0.538476
0.969635 0.841367 0.539269
0.983215 0.837858 0.550774
0.996429 0.835447 0.565118
1.000000 0.834165 0.582025
0.534722 0.872496 0.667231
0.535393 0.872740 0.667536
0.535851 0.872862 0.667079
0.536248 0.872862 0.665797
0.536614 0.872770 0.663539
0.537285 0.872648 0.660395
0.537957 0.872465 0.656245
0.539208 0.872343 0.651179
0.540703 0.872313 0.644892
0.548669 0.871977 0.640986
0.565454 0.871061 0.640955
0.583612 0.870176 0.641108
0.602747 0.869200 0.641444
0.622461 0.868162 0.641688
0.642725 0.867002 0.641718
0.663203 0.865812 0.641932
0.685054 0.865232 0.641352
0.709285 0.865721 0.639338
0.734005 0.866300 0.637140
0.759152 0.866972 0.634791
0.784360 0.867735 0.631983
0.809476 0.868498 0.628687
0.834501 0.869139 0.624323
0.859190 0.869718 0.619135
0.883665 0.870115 0.612818
0.909300 0.872007 0.607141
0.933104 0.875242 0.611536
0.949065 0.870634 0.596460
0.964996 0.865812 0.579248
0.977783 0.862272 0.589136
0.990356 0.859648 0.601587
1.000000 0.858122 0.616663
0.572015 0.888884 0.695460
0.572656 0.889097 0.695766
0.573297 0.889250 0.695552
0.573663 0.889342 0.694514
0.574365 0.889403 0.692927
0.575189 0.889403 0.690517
0.576318 0.889464 0.687373
0.577661 0.889586 0.683223
0.579706 0.889738 0.678462
0.582666 0.889952 0.673243
0.596918 0.889311 0.673518
0.612604 0.888579 0.673976
0.629023 0.887846 0.674372
0.646204 0.886931 0.674647
0.663691 0.885985 0.674922
0.681605 0.884916 0.675135
0.699794 0.883879 0.675441
0.720272 0.883787 0.674434
0.741970 0.884215 0.672633
0.764218 0.884733 0.670954
0.786709 0.885313 0.668818
0.809262 0.885924 0.666316
0.831785 0.886503 0.663355
0.854246 0.887022 0.659480
0.876585 0.887449 0.654780
0.898833 0.887785 0.649012
0.921660 0.888792 0.643214
0.944274 0.892210 0.647150
0.959716 0.888914 0.636866
0.973632 0.885191 0.630396
0.985443 0.882536 0.641169
0.996979 0.880735 0.654261
0.610590 0.904967 0.724880
0.610895 0.905058 0.725063
0.611231 0.905119 0.724666
0.611688 0.905150 0.723934
0.612055 0.905150 0.722438
0.612696 0.905180 0.720424
0.613550 0.905211 0.717647
0.614679 0.905272 0.714260
0.616236 0.905394 0.710109
0.618219 0.905577 0.705409
0.627222 0.905241 0.703914
0.640345 0.904631 0.704311
0.654353 0.903990 0.704677
0.669032 0.903227 0.705104
0.684291 0.902403 0.705409
0.699855 0.901488 0.705653
0.715877 0.900572 0.705928
0.732235 0.899718 0.706294
0.751247 0.900023 0.705013
0.770809 0.900420 0.703548
0.790707 0.900877 0.702113
0.810819 0.901335 0.700160
0.830961 0.901762 0.697749
0.851194 0.902159 0.694789
0.871397 0.902464 0.691096
0.891630 0.902739 0.686580
0.911894 0.902953 0.681117
0.932372 0.903227 0.674891
0.953948 0.906645 0.677852
0.968750 0.904356 0.671565
0.980652 0.901610 0.675685
0.991577 0.899687 0.686976
0.646937 0.918914 0.752621
0.647181 0.919005 0.752621
0.647517 0.919066 0.752407
0.647913 0.919127 0.751797
0.648646 0.919219 0.750881
0.649470 0.919341 0.749355
0.651026 0.919615 0.747707
0.652857 0.919951 0.745571
0.655268 0.920348 0.743130
0.657893 0.920836 0.740047
0.663478 0.921172 0.738033
0.675288 0.920989 0.739193
0.687739 0.920714 0.740414
0.700526 0.920317 0.741512
0.713649 0.919799 0.742306
0.726864 0.919158 0.742794
0.740475 0.918456 0.743374
0.754360 0.917723 0.743862
0.769192 0.917388 0.744015
0.785702 0.917693 0.742977
0.802579 0.918029 0.741848
0.819821 0.918395 0.740383
0.837156 0.918669 0.738399
0.854643 0.918975 0.736080
0.872313 0.919158 0.733028
0.890074 0.919341 0.729366
0.908049 0.919432 0.724910
0.926268 0.919493 0.719631
0.944701 0.919524 0.713405
0.964569 0.922423 0.714717
0.977691 0.920714 0.715389
0.987793 0.918669 0.724941
0.690486 0.933684 0.784939
0.690486 0.933684 0.784878
0.690547 0.933684 0.784543
0.690700 0.933684 0.783932
0.691035 0.933684 0.783047
0.691432 0.933715 0.781643
0.692195 0.933776 0.779965
0.693172 0.933898 0.777920
0.694484 0.934081 0.775509
0.696040 0.934295 0.772549
0.697841 0.934508 0.769162
0.706416 0.934234 0.769528
0.716213 0.933837 0.770138
