20 Preset/INSTA/【3】LUT video cho PR-AE-FCPX/INS LUT (17).cube
# Created by Adobe Lightroom plugin Export LUT (1.24.0)
# www.johnrellis.com/lightroom/exportlut.htm
# Preset: INS胶片-自然[素材江湖]17
# Color profile: C:\Program Files (x86)\Common Files\Adobe\Color\Profiles\Recommended\VideoHD.icc
LUT_3D_SIZE 8
DOMAIN_MIN 0.000000 0.000000 0.000000
DOMAIN_MAX 0.903226 0.903226 0.903226
0.000000 0.000000 0.000000
0.065797 0.002289 0.010803
0.171267 0.000000 0.039277
0.345312 0.000000 0.065095
0.548943 0.000000 0.080079
0.720668 0.000000 0.096254
0.868284 0.000000 0.141756
0.955108 0.000000 0.213535
0.001862 0.081666 0.032593
0.066773 0.084962 0.026093
0.160128 0.057588 0.026246
0.313603 0.000000 0.032197
0.507927 0.000000 0.040558
0.686244 0.000000 0.054627
0.837339 0.000000 0.104280
0.934356 0.000000 0.178042
0.000000 0.224063 0.092988
0.000000 0.234867 0.091859
0.216281 0.220676 0.024140
0.317693 0.170199 0.001953
0.483619 0.015564 0.010651
0.689174 0.000000 0.035096
0.847776 0.000000 0.111727
0.943938 0.000000 0.182773
0.000000 0.449256 0.193240
0.000000 0.455940 0.194705
0.000000 0.479408 0.191806
0.478157 0.452766 0.099397
0.587427 0.369390 0.000000
0.664729 0.298161 0.000000
0.812467 0.261051 0.032380
0.913115 0.238163 0.172946
0.098848 0.636469 0.371893
0.147097 0.639155 0.375006
0.270634 0.655024 0.396704
0.464729 0.647425 0.365087
0.643244 0.602777 0.252659
0.707362 0.524437 0.103304
0.753262 0.467262 0.000000
0.857420 0.464607 0.123507
0.449928 0.727230 0.538994
0.472847 0.734768 0.554284
0.501946 0.742092 0.568292
0.551232 0.752895 0.586450
0.630640 0.731716 0.526757
0.735958 0.701900 0.435615
0.797208 0.657099 0.329015
0.850767 0.635767 0.279545
0.596124 0.802426 0.672389
0.601099 0.804593 0.676204
0.611994 0.807980 0.682124
0.634180 0.815793 0.695735
0.665400 0.813535 0.686702
0.720760 0.798734 0.647333
0.796384 0.779446 0.589380
0.854154 0.753017 0.524804
0.697261 0.864561 0.777157
0.698817 0.864866 0.777981
0.706691 0.866728 0.782803
0.722621 0.870573 0.792905
0.726558 0.868315 0.790066
0.753841 0.866636 0.779049
0.797848 0.863371 0.758175
0.862364 0.856931 0.722469
0.000000 0.007385 0.049989
0.045502 0.008881 0.050935
0.153292 0.001831 0.054902
0.296971 0.000000 0.031739
0.493385 0.000000 0.040620
0.673457 0.000000 0.052369
0.821195 0.000000 0.103456
0.919158 0.000000 0.170871
0.000000 0.081941 0.068727
0.056092 0.079835 0.071412
0.157259 0.058656 0.052369
0.292973 0.000000 0.034607
0.480079 0.000000 0.038544
0.662409 0.000000 0.050416
0.804105 0.000000 0.091371
0.905028 0.000000 0.145296
0.000000 0.197360 0.116823
0.000000 0.206577 0.119356
0.205509 0.205051 0.093690
0.298955 0.164492 0.039338
0.455177 0.091951 0.008850
0.646296 0.000000 0.025330
0.797726 0.000000 0.088930
0.907988 0.000000 0.150423
0.000000 0.404181 0.196597
0.000000 0.412909 0.199191
0.000000 0.442542 0.202274
0.424872 0.403052 0.122744
0.520439 0.319066 0.000000
0.600763 0.259525 0.000000
0.759976 0.203525 0.000000
0.878599 0.150881 0.134676
0.015778 0.616083 0.362066
0.108400 0.617639 0.362982
0.235386 0.632136 0.378607
0.427314 0.622889 0.345281
0.610834 0.571191 0.232731
0.678096 0.492378 0.098299
0.729519 0.439948 0.000000
0.836973 0.433448 0.074434
0.421576 0.712490 0.518151
0.431281 0.714748 0.522423
0.466163 0.723079 0.538079
0.525261 0.737942 0.565209
0.613794 0.718227 0.507744
0.726528 0.690974 0.422797
0.787289 0.644251 0.312902
0.839109 0.619745 0.250034
0.579431 0.790555 0.655451
0.580041 0.790158 0.654688
0.591241 0.793606 0.660395
0.616663 0.803220 0.676539
0.654017 0.804929 0.674464
0.711421 0.789487 0.634058
0.786801 0.766903 0.567956
0.842649 0.736324 0.492744
0.685237 0.858091 0.765927
0.688930 0.859525 0.768856
0.696529 0.861479 0.773465
0.713191 0.866056 0.784360
0.734463 0.871031 0.797574
0.755978 0.867704 0.782864
0.796139 0.862058 0.756985
0.860502 0.854856 0.719966
0.000000 0.028870 0.138247
0.000000 0.020905 0.147768
0.144717 0.009857 0.157992
0.347021 0.000000 0.163485
0.528313 0.000000 0.138949
0.691707 0.000000 0.089326
0.829129 0.000000 0.100893
0.930297 0.000000 0.159091
0.000000 0.088777 0.148013
0.000000 0.080201 0.156497
0.164401 0.049592 0.171115
0.338598 0.000000 0.159182
0.513848 0.000000 0.123995
0.679103 0.000000 0.092470
0.812619 0.000000 0.095583
0.917601 0.000000 0.151461
0.000000 0.194797 0.181827
0.000000 0.194736 0.183627
0.187381 0.188113 0.183902
0.343633 0.142794 0.150546
0.512718 0.000000 0.124636
0.674952 0.000000 0.103090
0.801358 0.000000 0.087282
0.909239 0.000000 0.154025
0.000000 0.372595 0.234531
0.000000 0.380621 0.247257
0.177798 0.416236 0.280674
0.427405 0.395453 0.230900
0.513207 0.316930 0.152712
0.643275 0.265263 0.108644
0.776394 0.237369 0.068513
0.885496 0.215702 0.142245
0.190341 0.582940 0.382513
0.230350 0.585443 0.390845
0.301427 0.606531 0.410040
0.440620 0.621180 0.414557
0.615717 0.573419 0.314397
0.673854 0.491310 0.197391
0.725551 0.433692 0.049592
0.840513 0.445991 0.088624
0.431830 0.696468 0.524926
0.441840 0.699458 0.529870
0.475288 0.708370 0.545373
0.530266 0.725338 0.574426
0.608576 0.711299 0.531640
0.719142 0.683772 0.449836
0.779538 0.637537 0.342779
0.838804 0.618311 0.267491
0.587243 0.786526 0.663233
0.588495 0.786496 0.663172
0.598199 0.789242 0.667475
0.621515 0.798276 0.681697
0.655848 0.804257 0.688014
0.711482 0.789670 0.649683
0.787961 0.769924 0.591730
0.846281 0.742947 0.521630
0.685969 0.856168 0.767544
0.686702 0.856107 0.767605
0.694392 0.858122 0.772213
0.713924 0.864347 0.785733
0.735561 0.869718 0.799130
0.758724 0.868772 0.791257
0.797910 0.863890 0.766537
0.862242 0.857145 0.729519
0.000000 0.053773 0.260349
0.000000 0.037293 0.276066
0.000000 0.032868 0.323644
0.309911 0.000000 0.327001
0.580529 0.000000 0.319677
0.727352 0.000000 0.291722
0.831937 0.000000 0.256626
0.918212 0.000000 0.190799
0.000000 0.095033 0.274418
0.000000 0.088319 0.286168
0.000000 0.075776 0.331273
0.333715 0.000000 0.340520
0.583246 0.000000 0.320806
0.725795 0.000000 0.292668
0.828733 0.000000 0.246464
0.916106 0.000000 0.181613
0.000000 0.164675 0.270878
0.000000 0.164797 0.275212
0.000000 0.165408 0.320043
0.380713 0.126314 0.352972
0.583734 0.000000 0.323156
0.727108 0.000000 0.294133
0.843473 0.000000 0.225589
0.922301 0.000000 0.204135
0.000000 0.365209 0.333745
0.000000 0.364508 0.334447
0.117830 0.364965 0.341222
0.380346 0.356542 0.345068
0.549584 0.301274 0.296574
0.685969 0.244907 0.257389
0.800992 0.195865 0.227451
0.894041 0.188602 0.210422
0.149905 0.540154 0.382330
0.193332 0.541680 0.389075
0.317754 0.554589 0.424567
0.456855 0.596643 0.487831
0.604028 0.559869 0.418311
0.655451 0.478950 0.301244
0.752743 0.439734 0.237125
0.858732 0.442451 0.226108
0.430213 0.680293 0.533623
0.455329 0.686488 0.547845
0.501579 0.690639 0.569177
0.559533 0.710567 0.602991
0.621454 0.715541 0.599695
0.713893 0.681239 0.516106
0.769711 0.631525 0.405005
0.835691 0.607446 0.307042
0.584527 0.773892 0.663691
0.590814 0.775418 0.667842
0.610376 0.780850 0.680354
0.636378 0.793576 0.698329
0.670619 0.809842 0.722499
0.715694 0.794736 0.684779
0.787381 0.771572 0.624567
0.846372 0.744167 0.549798
0.692927 0.855589 0.776394
0.695308 0.855924 0.777707
0.701442 0.858213 0.781125
0.717891 0.862791 0.791257
0.740017 0.868437 0.804623
0.763180 0.870329 0.805875
0.799161 0.865782 0.781277
0.865080 0.860868 0.746304
0.000000 0.082063 0.410956
0.000000 0.070405 0.424659
0.000000 0.058106 0.466102
0.000000 0.000000 0.541039
0.531151 0.000000 0.518578
0.767056 0.000000 0.512474
0.848936 0.000000 0.464546
0.919951 0.000000 0.442664
0.000000 0.102846 0.417609
0.000000 0.097841 0.431373
0.000000 0.089998 0.472053
0.000000 0.008423 0.541497
0.545800 0.000000 0.525048
0.766049 0.000000 0.512169
0.846830 0.000000 0.464942
0.917845 0.000000 0.442359
0.000000 0.172030 0.405890
0.000000 0.174746 0.416480
0.000000 0.162478 0.457588
0.166262 0.169619 0.532677
0.571954 0.000000 0.529198
0.744076 0.000000 0.495003
0.830686 0.000000 0.456611
0.904082 0.000000 0.432410
0.000000 0.297642 0.412360
0.000000 0.296330 0.413397
0.000000 0.291386 0.419013
0.259037 0.329870 0.499733
0.604120 0.326604 0.538598
0.719265 0.313237 0.489143
0.809751 0.277897 0.455879
0.904448 0.066835 0.372259
0.000000 0.511498 0.467079
0.000000 0.512352 0.468788
0.000000 0.513359 0.474617
0.356176 0.514488 0.487098
0.537407 0.504204 0.488106
0.664118 0.456855 0.438025
0.775601 0.414191 0.390051
0.872648 0.387793 0.351385
0.293400 0.615717 0.472175
0.312657 0.617792 0.478065
0.375158 0.622675 0.497536
0.478584 0.637507 0.541711
0.585077 0.674403 0.606683
0.683925 0.650019 0.553246
0.739315 0.595483 0.440436
0.831754 0.574182 0.371435
0.532189 0.745327 0.630945
0.536278 0.745083 0.632288
0.558404 0.747646 0.643000
0.608392 0.759548 0.674220
0.659846 0.782925 0.711696
0.704982 0.787198 0.708492
0.774197 0.758083 0.643671
0.831479 0.723720 0.554559
0.646235 0.839292 0.744839
0.649622 0.839506 0.746639
0.665003 0.841245 0.755489
0.701961 0.849851 0.780667
0.730434 0.859342 0.798825
0.762387 0.868956 0.818967
0.792447 0.862486 0.791684
0.857969 0.853941 0.750179
0.000000 0.099428 0.567285
0.000000 0.094575 0.576013
0.000000 0.082155 0.601465
0.000000 0.063844 0.652766
0.403143 0.000000 0.713619
0.718593 0.000000 0.676417
0.865446 0.000000 0.660670
0.928038 0.000000 0.623285
0.000000 0.114382 0.554070
0.000000 0.109834 0.560784
0.000000 0.097444 0.588098
0.000000 0.097505 0.639948
0.394385 0.000000 0.701045
0.709987 0.000000 0.666346
0.856901 0.000000 0.651057
0.921416 0.000000 0.615076
0.000000 0.187015 0.554742
0.000000 0.184756 0.561608
0.000000 0.173098 0.591363
0.000000 0.180331 0.636439
0.439063 0.182498 0.697169
0.722438 0.000000 0.671290
0.848600 0.152407 0.649805
0.912963 0.189792 0.616419
0.000000 0.268589 0.517571
0.000000 0.273625 0.523949
0.000000 0.300786 0.557519
0.000000 0.321233 0.626062
0.500816 0.393225 0.694789
0.735592 0.379156 0.685634
0.829923 0.405127 0.655146
0.898619 0.386725 0.624994
0.000000 0.447852 0.535729
0.000000 0.446815 0.536065
0.000000 0.443214 0.538933
0.127291 0.434577 0.546380
0.474128 0.501183 0.632776
0.705623 0.521538 0.660700
0.786984 0.510155 0.624933
0.869291 0.478767 0.598108
0.000000 0.622614 0.579156
0.000000 0.625299 0.582971
0.000000 0.624262 0.585443
0.333410 0.623194 0.592035
0.508537 0.622797 0.604486
0.646662 0.623529 0.615564
0.751125 0.592218 0.577447
0.856046 0.563134 0.536187
0.450477 0.714626 0.607111
0.462043 0.716274 0.610559
0.494636 0.717250 0.615503
0.552514 0.725856 0.642084
0.625574 0.743954 0.686152
0.702541 0.780392 0.744747
0.763943 0.749691 0.687434
0.825101 0.709529 0.589014
0.602686 0.824216 0.723842
0.604547 0.823728 0.724147
0.618311 0.825315 0.730831
0.650080 0.832090 0.749386
0.699153 0.841886 0.779294
0.753414 0.857694 0.814481
0.789487 0.862150 0.815183
0.852476 0.849638 0.768185
0.000000 0.115969 0.675898
0.000000 0.112154 0.682002
0.000000 0.094453 0.697017
0.000000 0.102724 0.726162
0.046601 0.045960 0.763699
0.604242 0.000000 0.796323
0.807279 0.000000 0.764340
0.916655 0.000000 0.750088
0.000000 0.127932 0.664363
0.000000 0.125124 0.671321
0.000000 0.106874 0.687312
0.000000 0.114473 0.715450
0.000000 0.097322 0.753231
0.591852 0.000000 0.786191
0.795621 0.000000 0.751522
0.906737 0.000000 0.736782
0.000000 0.188571 0.662135
0.000000 0.186160 0.666285
0.000000 0.174197 0.681605
0.000000 0.173922 0.710933
0.200748 0.196201 0.748470
0.608698 0.224613 0.786954
0.801083 0.171115 0.757778
0.904173 0.267460 0.744503
0.000000 0.279271 0.642695
0.000000 0.280919 0.645350
0.000000 0.291447 0.662257
0.000000 0.286534 0.698665
0.297215 0.333196 0.741115
0.629358 0.423468 0.789090
0.800290 0.402167 0.765591
0.888945 0.436439 0.746670
0.000000 0.364416 0.599756
0.000000 0.359197 0.596918
0.000000 0.350042 0.597253
0.000000 0.395697 0.642023
0.285496 0.436561 0.703792
0.614801 0.537560 0.763638
0.781827 0.533043 0.756832
0.866392 0.554498 0.742672
0.000000 0.576745 0.638300
0.000000 0.576074 0.638788
0.000000 0.571466 0.639551
0.000000 0.560845 0.641505
0.252384 0.538323 0.644282
0.595636 0.619989 0.727932
0.772702 0.654292 0.762295
0.845701 0.641199 0.737575
0.000000 0.718837 0.685420
0.000000 0.719570 0.686946
0.166049 0.718227 0.687922
0.338231 0.716396 0.691310
0.481453 0.713069 0.696437
0.613184 0.713680 0.709133
0.724971 0.716030 0.720455
0.829252 0.689631 0.686824
0.522423 0.802701 0.717861
0.527276 0.803311 0.718807
0.549126 0.807156 0.724208
0.584924 0.810300 0.729732
0.636530 0.816251 0.745266
0.706752 0.831968 0.786343
0.789792 0.858946 0.840085
0.844724 0.844266 0.799222
0.000000 0.137118 0.768399
0.000000 0.133669 0.771603
0.000000 0.116243 0.777920
0.000000 0.117098 0.795071
0.000000 0.122621 0.818112
0.456764 0.116182 0.844511
0.722469 0.196841 0.859007
0.870909 0.184848 0.837400
0.000000 0.147066 0.761318
0.000000 0.144076 0.764736
0.000000 0.127901 0.772854
0.000000 0.125643 0.789731
0.000000 0.135622 0.813443
0.453529 0.139559 0.840574
0.717830 0.207309 0.855070
0.866331 0.182162 0.832242
0.000000 0.194553 0.754116
0.000000 0.192264 0.756619
0.000000 0.179568 0.764675
0.000000 0.168399 0.786465
0.000000 0.194095 0.809293
0.467628 0.231449 0.835782
0.717006 0.308476 0.852934
0.861601 0.288182 0.830289
0.000000 0.277775 0.738399
0.000000 0.279545 0.741634
0.000000 0.273472 0.751614
0.000000 0.261723 0.773190
0.000000 0.282994 0.800717
0.487587 0.354833 0.830014
0.715572 0.451026 0.852598
0.853971 0.428168 0.831388
0.000000 0.343999 0.708766
0.000000 0.346441 0.712276
0.000000 0.350866 0.720668
0.000000 0.375586 0.742641
0.000000 0.380682 0.777371
0.472084 0.456580 0.813657
0.708217 0.571862 0.849699
0.842741 0.548913 0.831571
0.000000 0.511315 0.712795
0.000000 0.505913 0.710903
0.000000 0.487373 0.705898
0.000000 0.452705 0.701167
0.000000 0.469886 0.728206
0.423011 0.541833 0.789914
0.706874 0.665278 0.844236
0.840085 0.669520 0.842679
0.000000 0.711940 0.762264
0.000000 0.710506 0.761715
0.000000 0.704646 0.759762
0.000000 0.694820 0.758877
0.000000 0.676753 0.757961
0.338476 0.644221 0.758114
0.675715 0.711269 0.820523
0.836576 0.757473 0.848295
0.241611 0.831113 0.808133
0.251804 0.830320 0.807523
0.295933 0.829038 0.807431
0.372137 0.828458 0.809384
0.460822 0.826108 0.811124
0.563043 0.821561 0.812985
0.686244 0.816983 0.818875
0.811704 0.818509 0.830167
