20 Preset/INSTA/【3】LUT video cho PR-AE-FCPX/INS LUT (3).cube
# Created by Adobe Lightroom plugin Export LUT (1.24.0)
# www.johnrellis.com/lightroom/exportlut.htm
# Preset: INS胶片Tezza01[素材江湖]03
# Color profile: C:\Program Files (x86)\Common Files\Adobe\Color\Profiles\Recommended\VideoHD.icc
LUT_3D_SIZE 32
DOMAIN_MIN 0.0 0.0 0.0
DOMAIN_MAX 1.0 1.0 1.0
0.028687 0.035340 0.052186
0.033631 0.035859 0.053132
0.051026 0.039429 0.055695
0.077882 0.047395 0.060853
0.099886 0.059480 0.069551
0.129488 0.072572 0.076905
0.171206 0.080385 0.078798
0.222934 0.080934 0.077821
0.282353 0.070375 0.072145
0.348150 0.042420 0.064271
0.421332 0.000000 0.052705
0.496773 0.000000 0.035706
0.570062 0.000000 0.014282
0.637140 0.000000 0.000000
0.695857 0.000000 0.000000
0.760586 0.000000 0.000000
0.808347 0.051606 0.000000
0.845579 0.151247 0.000000
0.876097 0.205692 0.000000
0.901671 0.253117 0.000000
0.922667 0.294255 0.000000
0.939696 0.330388 0.000000
0.953399 0.361822 0.000000
0.965118 0.390234 0.000000
0.975952 0.416846 0.000000
0.986236 0.442206 0.000000
0.996216 0.466712 0.020508
1.000000 0.491005 0.119203
1.000000 0.515129 0.168063
1.000000 0.539483 0.215000
1.000000 0.564141 0.263401
1.000000 0.589166 0.314672
0.027924 0.038727 0.053986
0.029633 0.038483 0.055116
0.049561 0.044007 0.057374
0.077852 0.049592 0.062837
0.099245 0.061860 0.071534
0.128176 0.075441 0.077760
0.168887 0.082124 0.079438
0.219089 0.083497 0.077974
0.277104 0.077974 0.073579
0.341802 0.052522 0.065034
0.413001 0.007202 0.054108
0.488014 0.000000 0.038117
0.561242 0.000000 0.016266
0.628901 0.000000 0.000000
0.688899 0.000000 0.000000
0.752499 0.000000 0.000000
0.800381 0.029541 0.000000
0.838132 0.142000 0.000000
0.869139 0.196933 0.000000
0.895384 0.243778 0.000000
0.916930 0.285222 0.000000
0.934630 0.321141 0.000000
0.948791 0.352728 0.000000
0.960937 0.381415 0.000000
0.971954 0.408057 0.000000
0.982483 0.433448 0.000000
0.992798 0.458381 0.000000
1.000000 0.483192 0.099916
1.000000 0.507774 0.153079
1.000000 0.532677 0.201144
1.000000 0.557824 0.250248
1.000000 0.583215 0.301671
0.031586 0.052552 0.063325
0.036255 0.053071 0.065431
0.043000 0.052155 0.069917
0.072877 0.063325 0.070100
0.098512 0.075410 0.075380
0.127749 0.084993 0.079622
0.167605 0.090303 0.080354
0.216709 0.092500 0.078798
0.273259 0.091249 0.074586
0.336431 0.081147 0.066072
0.406897 0.042481 0.054170
0.481209 0.000000 0.038117
0.553979 0.000000 0.017823
0.621668 0.000000 0.000000
0.684321 0.000000 0.000000
0.745846 0.000000 0.000000
0.793179 0.070100 0.000000
0.831357 0.147189 0.000000
0.863035 0.198245 0.000000
0.890013 0.243809 0.000000
0.912474 0.284154 0.000000
0.930724 0.320256 0.000000
0.945464 0.351476 0.000000
0.958038 0.379736 0.000000
0.969207 0.406012 0.000000
0.979950 0.431037 0.000000
0.990356 0.456001 0.000000
1.000000 0.480720 0.090028
1.000000 0.505364 0.145968
1.000000 0.530327 0.194675
1.000000 0.555413 0.243870
1.000000 0.580774 0.295140
0.040742 0.076570 0.081575
0.044709 0.076112 0.081575
0.053040 0.076204 0.083589
0.064149 0.075807 0.088289
0.095552 0.089265 0.086763
0.127993 0.096712 0.082826
0.166812 0.102754 0.082307
0.214084 0.106600 0.080415
0.269780 0.107912 0.075319
0.331701 0.104952 0.066163
0.400885 0.095460 0.053742
0.473793 0.062898 0.037690
0.546258 0.003662 0.016999
0.613611 0.000000 0.000000
0.678828 0.000000 0.000000
0.737392 0.018341 0.000000
0.783413 0.112367 0.000000
0.820890 0.161288 0.000000
0.852689 0.204501 0.000000
0.880034 0.245151 0.000000
0.903349 0.282902 0.000000
0.922728 0.317754 0.000000
0.938750 0.348882 0.000000
0.952575 0.377508 0.000000
0.964752 0.404517 0.000000
0.976287 0.430701 0.000000
0.987488 0.456428 0.000000
0.998322 0.481727 0.085481
1.000000 0.506676 0.144167
1.000000 0.531426 0.193454
1.000000 0.556054 0.242100
1.000000 0.580652 0.292302
0.046448 0.097871 0.091585
0.048127 0.097810 0.092012
0.060426 0.097688 0.093202
0.078798 0.096498 0.095613
0.089723 0.096376 0.099733
0.119570 0.109255 0.096040
0.161593 0.119142 0.089082
0.208835 0.125734 0.081910
0.262181 0.129549 0.076936
0.322210 0.130617 0.067018
0.389319 0.127291 0.054322
0.461341 0.119387 0.037415
0.533104 0.107332 0.016510
0.601282 0.096345 0.000000
0.669856 0.098512 0.000000
0.726375 0.120851 0.000000
0.773007 0.152041 0.000000
0.811551 0.187839 0.000000
0.844297 0.223819 0.000000
0.872587 0.259739 0.000000
0.896727 0.294530 0.000000
0.916838 0.326543 0.000000
0.933654 0.356390 0.000000
0.948302 0.384100 0.000000
0.961059 0.410346 0.000000
0.973053 0.435920 0.000000
0.984619 0.460853 0.000000
0.995758 0.485481 0.084596
1.000000 0.509697 0.143771
1.000000 0.533837 0.192569
1.000000 0.557794 0.240574
1.000000 0.581781 0.290135
0.032746 0.125093 0.100435
0.036439 0.124971 0.100801
0.055116 0.124422 0.102205
0.081544 0.123323 0.104738
0.097780 0.121065 0.108583
0.109224 0.120119 0.115145
0.150271 0.138155 0.107637
0.201572 0.149599 0.095338
0.256901 0.156374 0.079347
0.316228 0.160128 0.066133
0.382330 0.160891 0.051850
0.453376 0.158694 0.033509
0.524559 0.155032 0.013031
0.596521 0.153658 0.000000
0.663935 0.158877 0.000000
0.719753 0.174136 0.000000
0.766079 0.196719 0.000000
0.805203 0.223941 0.000000
0.838621 0.253819 0.000000
0.867369 0.285039 0.000000
0.891966 0.316258 0.000000
0.912596 0.345586 0.000000
0.952270 0.421149 0.000000
0.964355 0.443854 0.000000
0.975738 0.465644 0.000000
0.986481 0.487037 0.056672
0.996643 0.507958 0.129519
1.000000 0.528710 0.173861
1.000000 0.549523 0.216159
1.000000 0.570428 0.259495
1.000000 0.591333 0.303990
1.000000 0.612238 0.350103
0.000000 0.174228 0.113283
0.000000 0.174075 0.113588
0.006775 0.173434 0.115419
0.063203 0.172213 0.119234
0.104738 0.168307 0.123659
0.127169 0.162844 0.129641
0.144259 0.160922 0.139406
0.199680 0.183963 0.126131
0.262058 0.196201 0.105501
0.326574 0.201572 0.082795
0.393439 0.203006 0.041901
0.465614 0.204410 0.021881
0.541405 0.206424 0.000000
0.618769 0.213138 0.000000
0.682704 0.223423 0.000000
0.734401 0.238956 0.000000
0.777676 0.258518 0.000000
0.814389 0.281590 0.000000
0.846311 0.307347 0.000000
0.874601 0.335302 0.000000
0.899321 0.364233 0.000000
0.920378 0.392828 0.000000
0.938170 0.419898 0.000000
0.953368 0.445014 0.000000
0.966918 0.468696 0.000000
0.979065 0.490761 0.029541
0.990204 0.511254 0.121614
1.000000 0.531365 0.167147
1.000000 0.551446 0.209781
1.000000 0.571344 0.252110
1.000000 0.591516 0.295872
1.000000 0.611872 0.341741
0.000000 0.227024 0.127779
0.000000 0.226902 0.128298
0.000000 0.226078 0.130190
0.002533 0.224704 0.133974
0.098634 0.220890 0.139284
0.136599 0.214817 0.145602
0.163210 0.207401 0.153445
0.183902 0.204746 0.165591
0.248203 0.229709 0.149538
0.318029 0.241855 0.122774
0.388800 0.246647 0.095308
0.461311 0.249119 0.033265
0.534600 0.252598 0.000000
0.605280 0.258885 0.000000
0.666072 0.267430 0.000000
0.716762 0.278904 0.000000
0.760281 0.293980 0.000000
0.797971 0.312200 0.000000
0.831113 0.333562 0.000000
0.860655 0.357549 0.000000
0.886748 0.383246 0.000000
0.909178 0.408881 0.000000
0.928344 0.433539 0.000000
0.944640 0.456641 0.000000
0.958892 0.478492 0.000000
0.971771 0.498939 0.021759
0.983581 0.518517 0.119661
0.994446 0.537530 0.164981
1.000000 0.556695 0.207645
1.000000 0.575952 0.250156
1.000000 0.595300 0.293675
1.000000 0.615076 0.339300
0.000000 0.288884 0.147463
0.000000 0.288762 0.147890
0.000000 0.287938 0.149874
0.000000 0.286625 0.153811
0.085603 0.283848 0.159792
0.145022 0.276646 0.166384
0.184024 0.268345 0.173983
0.212375 0.258976 0.183230
0.236332 0.256046 0.197330
0.312902 0.284459 0.180575
0.395544 0.300328 0.148867
0.471595 0.306950 0.113649
0.537926 0.307530 0.045930
0.593225 0.304784 0.000000
0.650355 0.310460 0.000000
0.700832 0.319890 0.000000
0.744717 0.331945 0.000000
0.783200 0.346990 0.000000
0.817380 0.364691 0.000000
0.847868 0.385412 0.000000
0.875120 0.407691 0.000000
0.898589 0.430457 0.000000
0.918791 0.452277 0.000000
0.936065 0.473060 0.000000
0.951019 0.492653 0.000000
0.964599 0.511315 0.035248
0.977020 0.529473 0.123690
0.988495 0.547356 0.168795
0.999084 0.565454 0.210819
1.000000 0.583642 0.252750
1.000000 0.602197 0.296086
1.000000 0.621027 0.341222
0.000000 0.358923 0.172641
0.000000 0.358495 0.173098
0.000000 0.357488 0.174960
0.000000 0.355779 0.178775
0.061646 0.353155 0.184634
0.156985 0.346349 0.191348
0.207736 0.336858 0.198764
0.248447 0.328771 0.208743
0.280735 0.320897 0.220706
0.311345 0.320256 0.238865
0.392218 0.347662 0.219150
0.469306 0.360143 0.180972
0.536492 0.363958 0.140444
0.593164 0.362707 0.091402
0.640253 0.359014 0.000000
0.682124 0.357549 0.000000
0.728054 0.368902 0.000000
0.768521 0.382635 0.000000
0.804227 0.398566 0.000000
0.835813 0.416419 0.000000
0.863645 0.435309 0.000000
0.887541 0.453834 0.000000
0.908080 0.471931 0.000000
0.925780 0.489387 0.000000
0.941192 0.505699 0.000000
0.955200 0.522240 0.029236
0.968353 0.538872 0.121767
0.980713 0.555718 0.167483
0.992187 0.573083 0.210025
1.000000 0.590814 0.252598
1.000000 0.608972 0.296910
1.000000 0.627558 0.343206
0.000000 0.430671 0.202426
0.000000 0.430579 0.202823
0.000000 0.430610 0.205051
0.000000 0.430182 0.209506
0.106905 0.429755 0.216220
0.193027 0.427405 0.224582
0.251194 0.420111 0.232914
0.298222 0.411292 0.242527
0.336461 0.400824 0.253117
0.365057 0.389227 0.264866
0.393500 0.385870 0.283360
0.467292 0.409613 0.261234
0.535821 0.419684 0.218723
0.593469 0.421820 0.174960
0.641047 0.419623 0.126436
0.681422 0.415595 0.020508
0.716060 0.411475 0.000000
0.752346 0.416144 0.000000
0.788968 0.429816 0.000000
0.821439 0.444984 0.000000
0.850401 0.461250 0.000000
0.875456 0.477424 0.000000
0.897154 0.493477 0.000000
0.915984 0.508843 0.000000
0.932280 0.523491 0.000000
0.947021 0.538354 0.060609
0.960845 0.553460 0.131197
0.973846 0.569116 0.175204
0.985901 0.585290 0.217258
0.996918 0.601923 0.259678
1.000000 0.619135 0.303899
1.000000 0.636835 0.350011
0.000000 0.513634 0.246342
0.000000 0.513512 0.247074
0.000000 0.513146 0.248631
0.112551 0.512230 0.252934
0.193362 0.510918 0.259068
0.259525 0.508751 0.267887
0.311711 0.502037 0.275181
0.357122 0.492714 0.283207
0.396185 0.482155 0.292485
0.428016 0.470192 0.302831
0.450996 0.456886 0.313603
0.475990 0.452827 0.332433
0.586542 0.515557 0.344945
0.637964 0.520592 0.294835
0.680598 0.518547 0.244205
0.716945 0.513268 0.191714
0.748165 0.506676 0.132143
0.776150 0.500450 0.000000
0.801541 0.495613 0.000000
0.831662 0.506188 0.000000
0.858579 0.518639 0.000000
0.881559 0.530541 0.000000
0.901396 0.541985 0.000000
0.918608 0.553216 0.000000
0.933959 0.564599 0.105379
0.948272 0.576318 0.149905
0.961517 0.588251 0.187747
0.973785 0.600671 0.223972
0.985016 0.613764 0.261143
0.995270 0.627619 0.300023
1.000000 0.642206 0.341039
1.000000 0.657710 0.384741
0.245884 0.605402 0.321721
0.248295 0.605066 0.321660
0.262303 0.603479 0.322698
0.289128 0.601282 0.324987
0.324559 0.597833 0.328954
0.365393 0.593622 0.334783
0.406378 0.587457 0.341344
0.441474 0.578241 0.346532
0.474830 0.568566 0.353582
0.505119 0.558587 0.362402
0.530968 0.548974 0.373022
0.551049 0.539269 0.385260
0.572992 0.537835 0.406104
0.621241 0.552941 0.385290
0.667842 0.559228 0.338964
0.706172 0.558099 0.290471
0.738857 0.553277 0.240574
0.767422 0.546899 0.187350
0.793179 0.540887 0.124453
0.816739 0.536004 0.000000
0.840146 0.536065 0.000000
0.865110 0.547051 0.000000
0.886717 0.557641 0.000000
0.905608 0.568078 0.000000
0.922148 0.578363 0.107027
0.937377 0.589136 0.151644
0.951659 0.600458 0.190402
0.964904 0.612421 0.227420
0.977173 0.624964 0.265324
0.988281 0.638331 0.305089
0.997986 0.652369 0.346777
1.000000 0.667353 0.391180
0.347631 0.649989 0.373510
0.348608 0.649409 0.373205
0.356909 0.647822 0.373510
0.372229 0.645441 0.374670
0.395789 0.642084 0.376959
0.424720 0.638178 0.381323
0.458991 0.634089 0.388342
0.486580 0.626429 0.391669
0.514549 0.618158 0.396826
0.541253 0.609949 0.403815
0.565667 0.601801 0.412665
0.586328 0.593530 0.422827
0.601984 0.584588 0.433356
0.619043 0.582605 0.452155
0.656764 0.593194 0.432624
0.695918 0.597040 0.386877
0.728969 0.594720 0.338933
0.758083 0.589807 0.291020
0.784512 0.583948 0.242283
0.808469 0.578241 0.190555
0.830472 0.573358 0.129122
0.851164 0.569787 0.000000
0.872831 0.575097 0.000000
0.893248 0.585016 0.022217
0.910979 0.594476 0.116060
0.927184 0.604456 0.159335
0.942321 0.614984 0.197787
0.956420 0.626123 0.235080
0.969451 0.637934 0.273350
0.981262 0.650629 0.313512
0.991638 0.664088 0.355932
1.000000 0.678523 0.400977
0.425391 0.687098 0.425055
0.426429 0.686763 0.424964
0.431128 0.685573 0.424933
0.441352 0.683406 0.425422
0.457435 0.680354 0.426856
0.478309 0.676844 0.429786
0.503349 0.673365 0.434852
0.528649 0.668391 0.439857
0.551232 0.661585 0.443214
0.574182 0.654688 0.448615
0.596063 0.647852 0.455543
0.615778 0.640833 0.463813
0.631708 0.633265 0.472236
0.643366 0.624506 0.480201
0.656336 0.621607 0.495857
0.685878 0.628412 0.477333
0.719356 0.630732 0.433692
0.748501 0.628046 0.388128
0.775174 0.623377 0.342229
0.799405 0.617792 0.296605
0.821714 0.612360 0.251194
0.842618 0.607813 0.204196
0.862181 0.604303 0.151064
0.880858 0.601984 0.054017
0.899779 0.610925 0.126223
0.916899 0.620142 0.168215
0.932952 0.630060 0.206943
0.947997 0.640894 0.245487
0.962005 0.652491 0.285191
0.974670 0.665095 0.327153
0.985718 0.678614 0.372137
0.994995 0.692897 0.419043
0.483040 0.716945 0.471412
0.484443 0.716915 0.471778
0.488716 0.716274 0.472419
0.496498 0.715114 0.473335
0.509209 0.713344 0.475471
0.525933 0.711269 0.478889
0.546532 0.709224 0.484199
0.569757 0.707210 0.491493
0.588739 0.702174 0.494728
0.607660 0.696559 0.498573
0.625788 0.690333 0.502892
0.642329 0.683406 0.507713
0.656397 0.675685 0.512474
0.667506 0.666926 0.517021
0.674922 0.657099 0.520989
0.684291 0.652949 0.533043
0.708186 0.657282 0.515892
0.737453 0.658930 0.476020
0.763851 0.656397 0.434028
0.788266 0.652155 0.391760
0.811063 0.647486 0.350469
0.832486 0.643000 0.310246
0.852567 0.639155 0.270970
0.871611 0.636194 0.231724
0.889647 0.634028 0.190738
0.907317 0.637110 0.180941
0.924254 0.646784 0.220432
0.940185 0.657069 0.259678
0.954772 0.668208 0.300053
0.967956 0.680018 0.342290
0.979461 0.692592 0.386999
0.988952 0.705287 0.431769
0.529656 0.741176 0.514214
0.530602 0.741024 0.514275
0.533532 0.740627 0.514855
0.539879 0.739834 0.516014
0.549584 0.738674 0.517876
0.562615 0.737240 0.520958
0.578882 0.735653 0.525505
0.597498 0.733944 0.531518
0.615015 0.731044 0.536065
0.630640 0.726467 0.538659
0.646204 0.721370 0.541741
0.660945 0.715816 0.545281
0.674311 0.709468 0.548760
0.685542 0.702235 0.552026
0.694301 0.694057 0.554864
0.700130 0.684718 0.557214
0.707942 0.680903 0.567742
0.727749 0.684047 0.553307
0.753567 0.685267 0.517449
0.777157 0.682765 0.479713
0.799649 0.679255 0.442573
0.821073 0.675257 0.405615
0.841367 0.671534 0.370336
0.860746 0.668208 0.336706
0.879149 0.665705 0.304753
0.897307 0.664485 0.274632
0.915343 0.664698 0.246098
0.932250 0.673182 0.273930
0.947570 0.683955 0.315770
0.961395 0.695399 0.359411
0.973266 0.707301 0.404395
0.983032 0.719081 0.448493
0.572076 0.762448 0.557092
0.572839 0.762509 0.557580
0.599420 0.773800 0.584436
0.603601 0.773281 0.585351
0.610101 0.772427 0.586816
0.618860 0.771267 0.588983
0.629786 0.769924 0.592004
0.642725 0.768429 0.596185
0.657130 0.766995 0.601648
0.668635 0.763455 0.602930
0.680323 0.759518 0.604364
0.691707 0.755032 0.605982
0.702296 0.749752 0.607111
0.711788 0.743679 0.607843
0.719753 0.736751 0.608118
0.725856 0.728969 0.608087
0.729946 0.720150 0.607507
0.735378 0.715969 0.615137
0.750332 0.716670 0.601953
0.771725 0.716426 0.569512
0.792233 0.713466 0.535607
0.812345 0.709957 0.502953
0.831937 0.706111 0.471046
0.850706 0.702449 0.440406
0.869169 0.699245 0.410773
0.887358 0.697017 0.383215
0.905364 0.695979 0.358190
0.923369 0.696284 0.336461
0.940642 0.700069 0.333257
0.954833 0.710842 0.377356
0.966888 0.721492 0.420813
0.976959 0.732540 0.464637
0.613306 0.782528 0.603235
0.615625 0.783383 0.605524
0.619440 0.784115 0.608331
0.624628 0.784543 0.611231
0.631098 0.784512 0.614099
0.638666 0.783902 0.616602
0.647669 0.782864 0.619379
0.658045 0.781613 0.622675
0.669886 0.780301 0.627070
0.680934 0.778134 0.630030
0.690639 0.774899 0.630976
0.700557 0.771237 0.632044
0.710018 0.766964 0.632776
0.718959 0.762142 0.633295
0.726894 0.756680 0.633600
0.733730 0.750546 0.633539
0.739162 0.743832 0.633356
0.743130 0.736568 0.633173
0.748379 0.733608 0.641108
0.761288 0.734524 0.631312
0.780850 0.734676 0.603113
0.799924 0.732937 0.574640
0.818753 0.730343 0.546807
0.837369 0.727565 0.519829
0.855802 0.725002 0.493690
0.874144 0.723018 0.469551
0.892363 0.721950 0.447669
0.910491 0.722042 0.429236
0.928557 0.723659 0.415442
0.946136 0.725978 0.404791
0.960021 0.733913 0.432410
0.970611 0.744533 0.476722
0.638117 0.795132 0.633051
0.640223 0.795956 0.635187
0.643488 0.796719 0.637873
0.647761 0.797238 0.640589
0.653101 0.797360 0.643214
0.659266 0.796902 0.645594
0.666438 0.796109 0.647883
0.674891 0.795041 0.650660
0.684565 0.793942 0.654261
0.695064 0.792782 0.658534
0.703151 0.789975 0.659174
0.711391 0.786862 0.659876
0.719600 0.783291 0.660304
0.727504 0.779324 0.660761
0.734890 0.774899 0.660975
0.741573 0.770047 0.660945
0.747372 0.764706 0.660700
0.752132 0.758968 0.660395
0.755673 0.752956 0.660395
0.760433 0.750759 0.668055
0.771450 0.751522 0.660700
0.789029 0.751980 0.636500
0.806821 0.751186 0.612421
0.824887 0.749752 0.588830
0.842924 0.748135 0.566247
0.861051 0.746792 0.545037
0.879118 0.746059 0.526085
0.897154 0.746334 0.510430
0.914916 0.747311 0.497566
0.932311 0.749233 0.488502
0.949096 0.752163 0.483955
0.964263 0.756558 0.489082
0.661219 0.807767 0.662074
0.662928 0.808438 0.663905
0.665400 0.809140 0.666072
0.668849 0.809506 0.668269
0.673091 0.809659 0.670466
0.678065 0.809323 0.672358
0.683864 0.808682 0.674281
0.690730 0.807858 0.676600
0.698604 0.806973 0.679469
0.707424 0.805966 0.682979
0.715663 0.804349 0.685420
0.722621 0.801633 0.685817
0.729641 0.798581 0.686152
0.736538 0.795224 0.686458
0.743282 0.791501 0.686702
0.749538 0.787533 0.686946
0.755398 0.783322 0.687373
0.760525 0.778927 0.687953
0.764950 0.774563 0.688899
0.768582 0.770169 0.690150
0.773312 0.769345 0.698390
0.783230 0.770993 0.694789
0.799466 0.772671 0.676081
0.816556 0.773587 0.657649
0.834073 0.773892 0.639918
0.851652 0.774075 0.623438
0.869352 0.774533 0.608911
0.886839 0.775143 0.596155
0.904021 0.776516 0.586481
0.920775 0.778622 0.580346
0.936858 0.781430 0.577905
0.951843 0.784817 0.579034
0.689174 0.824338 0.698207
0.689876 0.824613 0.698909
0.691035 0.824735 0.699611
0.692836 0.824643 0.700313
0.695552 0.824369 0.701137
0.698970 0.823819 0.702052
0.703426 0.823178 0.703273
0.708827 0.822446 0.704952
0.715267 0.821653 0.707118
0.722530 0.820890 0.709957
0.730404 0.820127 0.713283
0.736599 0.818082 0.714015
0.742641 0.815518 0.714229
0.748653 0.812650 0.714412
0.754574 0.809506 0.714534
0.760250 0.806088 0.714626
0.765530 0.802396 0.714778
0.770382 0.798550 0.714961
0.774655 0.794614 0.715419
0.778256 0.790585 0.715969
0.781094 0.786435 0.716793
0.785306 0.785824 0.723629
0.793881 0.787259 0.721157
0.808560 0.788907 0.705318
0.824399 0.790433 0.690608
0.840879 0.791745 0.677150
0.857542 0.792721 0.664302
0.874296 0.793912 0.653468
0.890898 0.795651 0.645258
0.907134 0.797971 0.640040
0.922667 0.800809 0.638056
0.937255 0.804135 0.639155
0.705684 0.835660 0.720272
0.706172 0.835874 0.720760
0.707179 0.835966 0.721340
0.708766 0.835935 0.722011
0.710964 0.835721 0.722713
0.713863 0.835325 0.723507
0.717586 0.834806 0.724544
0.722164 0.834195 0.725887
0.727657 0.833585 0.727687
0.733883 0.832944 0.730007
0.740719 0.832334 0.732692
0.747402 0.831266 0.734859
0.752743 0.829160 0.735103
0.758267 0.826810 0.735378
0.763790 0.824247 0.735653
0.769162 0.821469 0.735958
0.774411 0.818479 0.736324
0.779232 0.815366 0.736782
0.783780 0.812131 0.737392
0.787747 0.808804 0.738094
0.791135 0.805509 0.739132
0.793820 0.802152 0.740261
0.798123 0.802029 0.746517
0.805997 0.803738 0.745785
0.817319 0.802914 0.728878
0.831907 0.804715 0.716915
0.847349 0.806638 0.706477
0.863066 0.808621 0.697658
0.878935 0.810910 0.690852
0.894560 0.813596 0.686641
0.909636 0.816800 0.685328
0.923857 0.820371 0.686702
0.723781 0.848692 0.744167
0.724483 0.849027 0.744869
0.725246 0.849119 0.745266
0.726284 0.848936 0.745510
0.727718 0.848508 0.745571
0.729824 0.847898 0.745693
0.732418 0.847166 0.745907
0.735836 0.846342 0.746365
0.740017 0.845487 0.747189
0.744991 0.844633 0.748440
0.750484 0.843748 0.749996
0.756649 0.842924 0.752010
0.761807 0.841215 0.752560
0.766537 0.838987 0.752377
0.771298 0.836515 0.752102
0.776120 0.833860 0.751919
0.780911 0.831083 0.751919
0.785611 0.828305 0.752163
0.790219 0.825589 0.752773
0.794614 0.822934 0.753750
0.798611 0.820279 0.754971
0.802029 0.817563 0.756252
0.804440 0.814481 0.757198
0.808377 0.814206 0.762539
0.815091 0.815305 0.761990
0.827146 0.816892 0.750668
0.840543 0.818936 0.741238
0.854887 0.821317 0.733516
0.869596 0.823911 0.727565
0.884306 0.826810 0.723751
0.898741 0.830137 0.722377
0.912444 0.833829 0.723629
0.735225 0.857572 0.759243
0.735836 0.857877 0.759854
0.736568 0.858000 0.760342
0.737667 0.857939 0.760708
0.739162 0.857725 0.761044
0.741207 0.857389 0.761501
0.743893 0.856992 0.762173
0.747280 0.856565 0.763058
0.751369 0.856107 0.764279
0.756100 0.855619 0.765774
0.761318 0.855070 0.767514
0.767056 0.854490 0.769558
0.772915 0.853758 0.771542
0.777249 0.851957 0.771511
0.781613 0.849943 0.771359
0.786099 0.847745 0.771206
0.790585 0.845426 0.771206
0.795102 0.843107 0.771450
0.799588 0.840818 0.771908
0.803861 0.838437 0.772610
0.807889 0.836088 0.773495
0.811521 0.833738 0.774563
0.814633 0.831296 0.775631
0.817075 0.828672 0.776699
0.820920 0.828733 0.781949
0.827024 0.829984 0.782589
0.838376 0.831907 0.773281
0.850919 0.834287 0.765988
0.864469 0.837400 0.761227
0.878111 0.840665 0.758267
0.891508 0.844144 0.757259
0.904387 0.847837 0.758389
0.749660 0.867552 0.777249
0.749996 0.867674 0.777554
0.750546 0.867704 0.777798
0.751431 0.867613 0.778042
0.752682 0.867399 0.778317
0.754421 0.867124 0.778653
0.756741 0.866758 0.779171
0.759579 0.866361 0.779873
0.763119 0.865934 0.780850
0.767269 0.865476 0.782162
0.771908 0.864988 0.783658
0.777035 0.864530 0.785428
0.782498 0.864012 0.787442
0.787289 0.862974 0.788510
0.791226 0.861234 0.788296
0.795193 0.859342 0.788052
0.799252 0.857359 0.787930
0.803372 0.855314 0.787930
0.807614 0.853300 0.788296
0.811826 0.851377 0.788937
0.815915 0.849424 0.789822
0.819699 0.847501 0.790829
0.823087 0.845457 0.791867
0.825956 0.843320 0.792874
0.828244 0.841062 0.793912
0.831937 0.841215 0.798795
0.837339 0.842405 0.800229
0.847837 0.844327 0.792264
0.859403 0.846830 0.786496
0.872129 0.850462 0.783932
0.884733 0.854215 0.783169
0.896880 0.858152 0.784421
0.762875 0.876066 0.793118
0.763180 0.876158 0.793332
0.763668 0.876188 0.793576
0.764492 0.876158 0.793912
0.765774 0.876097 0.794308
0.767636 0.876005 0.794980
0.770199 0.876005 0.796078
0.773434 0.876036 0.797482
0.777249 0.876097 0.799222
0.781674 0.876158 0.801236
0.786496 0.876219 0.803494
0.791684 0.876219 0.805875
0.796994 0.876127 0.808255
0.802365 0.875914 0.810575
0.806485 0.874998 0.811368
0.810147 0.873716 0.811551
0.813870 0.872282 0.811643
0.817655 0.870756 0.811856
0.821530 0.869261 0.812284
0.825467 0.867826 0.812955
0.829343 0.866361 0.813840
0.833036 0.864927 0.814817
0.836454 0.863401 0.815824
0.839506 0.861814 0.816831
0.842100 0.860105 0.817807
0.844266 0.858396 0.818845
0.847623 0.858701 0.823270
0.852293 0.859831 0.825193
0.861509 0.861784 0.819242
0.871519 0.864195 0.815213
0.882689 0.867979 0.814755
0.893400 0.871824 0.815946
0.782162 0.886564 0.814450
0.782223 0.886564 0.814450
0.782467 0.886503 0.814481
0.782986 0.886381 0.814572
0.783871 0.886229 0.814694
0.785122 0.886046 0.814969
0.786893 0.885832 0.815427
0.789120 0.885618 0.816098
0.791836 0.885405 0.816953
0.795102 0.885161 0.818051
0.798734 0.884916 0.819333
0.802701 0.884642 0.820798
0.807004 0.884337 0.822385
0.811490 0.883970 0.824033
