20 Preset/INSTA/【3】LUT video cho PR-AE-FCPX/INS LUT (16).cube
# Created by Adobe Lightroom plugin Export LUT (1.24.0)
# www.johnrellis.com/lightroom/exportlut.htm
# Preset: INS胶片-自然[素材江湖]16
# Color profile: C:\Program Files (x86)\Common Files\Adobe\Color\Profiles\Recommended\VideoHD.icc
LUT_3D_SIZE 32
DOMAIN_MIN 0.0 0.0 0.0
DOMAIN_MAX 1.0 1.0 1.0
0.139712 0.075441 0.090517
0.141238 0.074556 0.090913
0.144594 0.073732 0.091249
0.151461 0.074067 0.091798
0.162387 0.072480 0.093111
0.177310 0.070466 0.094972
0.198398 0.063905 0.096559
0.226505 0.048310 0.097963
0.261357 0.021973 0.099397
0.302312 0.000000 0.100282
0.349645 0.000000 0.101350
0.402319 0.000000 0.102388
0.459327 0.000000 0.103243
0.519371 0.000000 0.103975
0.580041 0.000000 0.104585
0.639918 0.000000 0.105135
0.696284 0.000000 0.106447
0.747280 0.000000 0.108858
0.793362 0.000000 0.112306
0.834104 0.000000 0.117800
0.873838 0.000000 0.126711
0.918883 0.000000 0.143374
0.951781 0.000000 0.161501
0.977722 0.000000 0.180728
0.998871 0.000000 0.200931
1.000000 0.138766 0.221805
1.000000 0.208194 0.244938
1.000000 0.262455 0.270512
1.000000 0.312291 0.298894
1.000000 0.361883 0.331456
1.000000 0.412360 0.369055
1.000000 0.463447 0.410498
0.140627 0.075959 0.091279
0.141115 0.075746 0.090852
0.145113 0.075685 0.091127
0.152041 0.074830 0.091737
0.162264 0.073671 0.093080
0.177218 0.071656 0.094911
0.196933 0.065248 0.096162
0.223606 0.051423 0.097597
0.256901 0.027802 0.099092
0.296513 0.000000 0.100069
0.341833 0.000000 0.100862
0.392859 0.000000 0.101717
0.448676 0.000000 0.102724
0.507561 0.000000 0.103395
0.567590 0.000000 0.103914
0.627649 0.000000 0.104707
0.685115 0.000000 0.105592
0.737148 0.000000 0.107851
0.784207 0.000000 0.110964
0.825711 0.000000 0.115938
0.866087 0.000000 0.123995
0.909911 0.000000 0.138705
0.942321 0.000000 0.155062
0.968261 0.000000 0.172854
0.989654 0.000000 0.191257
1.000000 0.080598 0.210727
1.000000 0.175479 0.232639
1.000000 0.235752 0.256992
1.000000 0.288609 0.285039
1.000000 0.339971 0.316991
1.000000 0.391760 0.353765
1.000000 0.444709 0.395483
0.142794 0.081575 0.092927
0.143252 0.081422 0.092500
0.145449 0.081331 0.092409
0.153262 0.080507 0.091768
0.164065 0.079500 0.092653
0.178653 0.077302 0.094179
0.198337 0.071901 0.095796
0.223911 0.058961 0.097230
0.256443 0.037415 0.098299
0.294987 0.002502 0.099367
0.339178 0.000000 0.100160
0.388922 0.000000 0.101045
0.443488 0.000000 0.101717
0.501030 0.000000 0.102083
0.560418 0.000000 0.102663
0.619684 0.000000 0.102968
0.677363 0.000000 0.103944
0.730068 0.000000 0.105592
0.777707 0.000000 0.108156
0.820188 0.000000 0.113039
0.862730 0.000000 0.121523
0.905547 0.000000 0.135164
0.937499 0.000000 0.150546
0.963348 0.000000 0.167666
0.984619 0.000000 0.185458
1.000000 0.031159 0.204593
1.000000 0.163577 0.225528
1.000000 0.224887 0.249638
1.000000 0.278355 0.276921
1.000000 0.330236 0.308568
1.000000 0.382055 0.344976
1.000000 0.435035 0.386358
0.148043 0.089631 0.096407
0.148043 0.089631 0.096407
0.149569 0.089296 0.096010
0.154543 0.089845 0.095369
0.166445 0.088991 0.094209
0.182895 0.087587 0.093202
0.202579 0.083101 0.094911
0.227878 0.073823 0.095888
0.259678 0.053498 0.096895
0.297124 0.021668 0.097871
0.340276 0.000000 0.098665
0.388495 0.000000 0.099153
0.441444 0.000000 0.099763
0.497414 0.000000 0.099733
0.554894 0.000000 0.099977
0.612421 0.000000 0.100282
0.668788 0.000000 0.100252
0.720638 0.000000 0.101228
0.768002 0.000000 0.103487
0.810605 0.000000 0.107912
0.855314 0.000000 0.116152
0.895872 0.000000 0.127810
0.927672 0.000000 0.142245
0.954284 0.000000 0.158419
0.977173 0.000000 0.176120
0.997375 0.018036 0.196414
1.000000 0.162509 0.218479
1.000000 0.224613 0.243442
1.000000 0.278172 0.271916
1.000000 0.329534 0.303929
1.000000 0.380224 0.339696
1.000000 0.430396 0.379248
0.154116 0.098146 0.101137
0.154452 0.098054 0.101137
0.154788 0.098390 0.100343
0.158175 0.098054 0.099916
0.168307 0.099153 0.099031
0.185702 0.098848 0.097108
0.207218 0.096986 0.094667
0.231937 0.091890 0.093812
0.262333 0.083070 0.094789
0.297978 0.058534 0.095308
0.339025 0.018219 0.096040
0.385748 0.000000 0.096345
0.436927 0.000000 0.096101
0.491920 0.000000 0.095827
0.548699 0.000000 0.095827
0.606409 0.000000 0.095064
0.663325 0.000000 0.094606
0.715999 0.000000 0.095338
0.763760 0.000000 0.097017
0.806851 0.000000 0.100893
0.854337 0.000000 0.108858
0.892638 0.000000 0.121126
0.923644 0.000000 0.135103
0.950317 0.000000 0.150973
0.973510 0.000000 0.169680
0.994293 0.097932 0.189609
1.000000 0.176028 0.212589
1.000000 0.232212 0.237797
1.000000 0.282261 0.265660
1.000000 0.330877 0.297368
1.000000 0.379034 0.332616
1.000000 0.427466 0.371313
0.160281 0.110201 0.106630
0.160830 0.110414 0.106569
0.160983 0.110414 0.105562
0.163394 0.109957 0.104860
0.170504 0.110750 0.104494
0.187808 0.114809 0.102754
0.216434 0.115602 0.100465
0.244266 0.113161 0.094881
0.273045 0.106966 0.091951
0.306676 0.097810 0.090944
0.346899 0.082490 0.091432
0.392798 0.035584 0.090944
0.442969 0.000000 0.090547
0.496956 0.000000 0.089693
0.553094 0.000000 0.088167
0.610315 0.000000 0.086244
0.666499 0.000000 0.083375
0.718685 0.000000 0.083162
0.766079 0.000000 0.085328
0.813687 0.000000 0.090852
0.858915 0.000000 0.099580
0.895232 0.000000 0.112062
0.975616 0.126711 0.161929
0.998108 0.189548 0.186130
1.000000 0.236606 0.211582
1.000000 0.278080 0.237156
1.000000 0.317144 0.264591
1.000000 0.355169 0.293614
1.000000 0.393225 0.324407
1.000000 0.432349 0.358526
1.000000 0.472023 0.395178
1.000000 0.510857 0.432471
0.168917 0.133883 0.115999
0.169955 0.134218 0.115908
0.170138 0.134218 0.114717
0.171633 0.134035 0.112856
0.178317 0.132692 0.112520
0.194034 0.138552 0.111788
0.227054 0.149203 0.108766
0.279454 0.155886 0.105196
0.315557 0.150820 0.093935
0.352331 0.142794 0.083467
0.386175 0.129854 0.074403
0.431281 0.116854 0.069093
0.483223 0.099062 0.064881
0.537316 0.047395 0.058473
0.591791 0.000000 0.052125
0.645960 0.000000 0.046235
0.697627 0.000000 0.041077
0.745235 0.000000 0.040436
0.791470 0.000000 0.043305
0.844938 0.000000 0.059297
0.888518 0.000000 0.089143
0.925109 0.045838 0.111238
0.956390 0.145235 0.135653
0.983246 0.198398 0.162448
1.000000 0.243015 0.190494
1.000000 0.282444 0.218235
1.000000 0.317998 0.246250
1.000000 0.352544 0.275120
1.000000 0.387884 0.305943
1.000000 0.423926 0.339208
1.000000 0.461372 0.374914
1.000000 0.499519 0.412573
0.177035 0.156771 0.125063
0.177829 0.157229 0.125246
0.178073 0.157229 0.123842
0.178500 0.157229 0.121065
0.184543 0.156435 0.120150
0.194644 0.155917 0.120180
0.219883 0.168978 0.118959
0.265782 0.186374 0.115480
0.333867 0.200961 0.112642
0.378851 0.196445 0.094881
0.419532 0.187808 0.069520
0.458503 0.176730 0.035828
0.490486 0.160372 0.022889
0.539361 0.148623 0.015412
0.591852 0.135286 0.006012
0.644099 0.119387 0.000000
0.694179 0.101411 0.000000
0.742153 0.082124 0.000000
0.797818 0.091341 0.000000
0.844236 0.110262 0.000000
0.883879 0.135714 0.027100
0.918486 0.166293 0.080995
0.948760 0.199222 0.113039
0.975250 0.233158 0.141878
0.997986 0.266758 0.171359
1.000000 0.298192 0.200290
1.000000 0.328649 0.228794
1.000000 0.359167 0.258549
1.000000 0.391211 0.289921
1.000000 0.424506 0.323003
1.000000 0.459907 0.359289
1.000000 0.496925 0.397772
0.186770 0.184665 0.136965
0.187533 0.185061 0.137087
0.187778 0.185061 0.135683
0.187900 0.185245 0.132692
0.191684 0.184848 0.130373
0.202090 0.183902 0.130220
0.218631 0.188876 0.130251
0.254307 0.208499 0.129702
0.312200 0.233310 0.125826
0.392554 0.255863 0.122560
0.453590 0.258579 0.099672
0.496468 0.248234 0.047364
0.535821 0.235599 0.000000
0.571252 0.221988 0.000000
0.598108 0.202396 0.000000
0.648280 0.196139 0.000000
0.701595 0.192447 0.000000
0.756313 0.194675 0.000000
0.804074 0.198398 0.000000
0.845457 0.205234 0.000000
0.882048 0.216281 0.000000
0.914641 0.232151 0.000000
0.943786 0.251713 0.073640
0.969665 0.274510 0.117250
0.992157 0.298863 0.151339
1.000000 0.323613 0.182925
1.000000 0.348486 0.212894
1.000000 0.374792 0.243442
1.000000 0.403204 0.276005
1.000000 0.433082 0.309667
1.000000 0.465675 0.346166
1.000000 0.500267 0.385046
0.197787 0.216709 0.151400
0.198703 0.216739 0.151369
0.198795 0.216648 0.149935
0.199161 0.216526 0.146975
0.199496 0.216464 0.142580
0.209689 0.215518 0.142245
0.222721 0.214420 0.142061
0.248051 0.228122 0.143008
0.293980 0.254215 0.142824
0.363104 0.286717 0.139528
0.451453 0.315801 0.136812
0.528222 0.328405 0.113252
0.570794 0.317174 0.037385
0.609247 0.303410 0.000000
0.647059 0.290867 0.000000
0.684535 0.280491 0.000000
0.717922 0.267857 0.000000
0.767178 0.269902 0.000000
0.810422 0.272251 0.000000
0.848295 0.275822 0.000000
0.881712 0.281071 0.000000
0.911131 0.288670 0.000000
0.937621 0.298802 0.000000
0.961456 0.312261 0.062104
0.982788 0.327520 0.120089
1.000000 0.344945 0.155398
1.000000 0.364538 0.188449
1.000000 0.386603 0.221225
1.000000 0.411688 0.255100
1.000000 0.439765 0.291020
1.000000 0.470710 0.329168
1.000000 0.504417 0.370245
0.208164 0.248234 0.166201
0.208743 0.248569 0.166293
0.209201 0.248569 0.165011
0.209689 0.248875 0.162325
0.210544 0.249271 0.158175
0.217014 0.249546 0.155550
0.230808 0.249332 0.155764
0.246464 0.249088 0.156069
0.284062 0.275731 0.159060
0.341894 0.310124 0.160372
0.423072 0.350958 0.158022
0.521660 0.390631 0.158328
0.619959 0.422095 0.145998
0.663752 0.412299 0.077333
0.701717 0.398627 0.000000
0.734829 0.383154 0.000000
0.763516 0.367437 0.000000
0.785397 0.347631 0.000000
0.812192 0.335546 0.000000
0.847166 0.335424 0.000000
0.878477 0.336492 0.000000
0.906645 0.339788 0.000000
0.932433 0.345892 0.000000
0.955901 0.354101 0.000000
0.977203 0.364538 0.063020
0.996277 0.377234 0.127077
1.000000 0.392584 0.166903
1.000000 0.410651 0.203403
1.000000 0.432044 0.239841
1.000000 0.456733 0.277134
1.000000 0.484871 0.316930
1.000000 0.515557 0.358556
0.219883 0.286351 0.184451
0.220279 0.286564 0.184390
0.220706 0.286809 0.183230
0.221378 0.287297 0.180667
0.222171 0.288121 0.176852
0.224002 0.289158 0.171572
0.239017 0.289555 0.172244
0.257145 0.292088 0.173526
0.282658 0.303655 0.176699
0.335607 0.344091 0.183688
0.411292 0.392523 0.189700
0.510796 0.447822 0.194186
0.684443 0.569329 0.259648
0.767910 0.594079 0.287846
0.798520 0.572747 0.222995
0.824765 0.548272 0.148074
0.847105 0.522637 0.000000
0.866545 0.497261 0.000000
0.883696 0.472999 0.000000
0.895232 0.445960 0.000000
0.916228 0.436194 0.000000
0.939544 0.435340 0.000000
0.960784 0.436530 0.000000
0.980346 0.440406 0.000000
0.998108 0.446448 0.076967
1.000000 0.454475 0.142123
1.000000 0.464332 0.184939
1.000000 0.476814 0.223056
1.000000 0.492103 0.259709
1.000000 0.510979 0.297581
1.000000 0.533196 0.336584
1.000000 0.559167 0.378607
0.240543 0.361303 0.222171
0.241428 0.361303 0.222171
0.241978 0.360815 0.220584
0.242191 0.360967 0.217441
0.243381 0.361151 0.212833
0.244816 0.361883 0.206577
0.257206 0.363195 0.204227
0.278233 0.365118 0.205631
0.302098 0.368658 0.207797
0.345129 0.397284 0.216312
0.419959 0.453773 0.232059
0.518120 0.516594 0.252323
0.627314 0.577111 0.279728
0.725490 0.622248 0.317632
0.801419 0.649348 0.372747
0.828885 0.628809 0.309453
0.852323 0.604028 0.241245
0.872251 0.576959 0.162661
0.889769 0.550286 0.000000
0.905180 0.524865 0.000000
0.917876 0.499489 0.000000
0.927245 0.472877 0.000000
0.948608 0.470588 0.000000
0.968719 0.471015 0.000000
0.987243 0.473732 0.000000
1.000000 0.478859 0.071443
1.000000 0.486213 0.146365
1.000000 0.496162 0.193118
1.000000 0.509453 0.235630
1.000000 0.526421 0.276799
1.000000 0.546532 0.318822
1.000000 0.570306 0.362341
0.256260 0.413825 0.250828
0.257023 0.413397 0.250614
0.257328 0.412451 0.248814
0.257664 0.411322 0.245182
0.257816 0.410285 0.239811
0.259281 0.409796 0.233402
0.264378 0.410437 0.226749
0.285649 0.411292 0.227726
0.310155 0.414069 0.229740
0.337499 0.418921 0.232761
0.397742 0.466102 0.249119
0.483284 0.525078 0.273136
0.581109 0.582513 0.304479
0.677607 0.632166 0.342443
0.760739 0.669520 0.384253
0.825589 0.693904 0.446815
0.849882 0.674952 0.390295
0.871153 0.650629 0.323430
0.890440 0.624475 0.252445
0.907225 0.598047 0.174380
0.922515 0.572564 0.000000
0.936828 0.548852 0.000000
0.946960 0.523705 0.000000
0.959533 0.505974 0.000000
0.978607 0.506157 0.000000
0.996246 0.508782 0.000000
1.000000 0.513573 0.092866
1.000000 0.521050 0.161288
1.000000 0.531792 0.211521
1.000000 0.546166 0.257145
1.000000 0.564080 0.301854
1.000000 0.585809 0.348119
0.271733 0.460761 0.278355
0.272709 0.460578 0.278386
0.272801 0.459663 0.276432
0.272984 0.458198 0.272892
0.273320 0.456367 0.267521
0.274083 0.455085 0.260502
0.275853 0.455116 0.252445
0.292882 0.456031 0.250767
0.317357 0.458381 0.252537
0.345159 0.462959 0.255924
0.380438 0.476692 0.263066
0.456214 0.532555 0.289372
0.544457 0.586725 0.322911
0.634302 0.634638 0.362615
0.716670 0.674525 0.404456
0.787259 0.705806 0.442329
0.840635 0.725063 0.495186
0.866453 0.714229 0.460761
0.885740 0.692134 0.400397
0.904234 0.667597 0.334112
0.921416 0.642481 0.264225
0.937316 0.618219 0.187778
0.952026 0.594873 0.038911
0.964172 0.571557 0.000000
0.973480 0.547204 0.000000
0.988647 0.540032 0.000000
1.000000 0.543084 0.000000
1.000000 0.549004 0.120302
1.000000 0.558526 0.187076
1.000000 0.571893 0.240757
1.000000 0.589258 0.291569
1.000000 0.610559 0.343053
0.287694 0.500847 0.303685
0.288853 0.501427 0.304143
0.289677 0.501335 0.303136
0.290257 0.500816 0.300114
0.291386 0.500786 0.296178
0.292821 0.501091 0.290745
0.295232 0.502892 0.284123
0.304387 0.505669 0.279606
0.330327 0.508721 0.282322
0.358801 0.512902 0.286015
0.389136 0.517906 0.290593
0.438453 0.543236 0.305882
0.517388 0.592218 0.338964
0.598688 0.635615 0.376928
0.675013 0.672633 0.415991
0.744289 0.704585 0.452796
0.806180 0.732418 0.486427
0.851713 0.748348 0.530144
0.879240 0.745083 0.515404
0.896757 0.726345 0.463996
0.914641 0.705684 0.406989
0.932341 0.683803 0.345068
0.949248 0.661433 0.278019
0.965118 0.639490 0.202487
0.979339 0.618128 0.102907
0.989776 0.595880 0.000000
1.000000 0.576287 0.000000
1.000000 0.580591 0.017639
1.000000 0.588220 0.160647
1.000000 0.599084 0.222873
1.000000 0.613458 0.277775
1.000000 0.631434 0.330938
0.307256 0.536278 0.328954
0.308354 0.536431 0.329259
0.309483 0.536614 0.328496
0.310002 0.536553 0.326116
0.311345 0.536980 0.322759
0.313329 0.537835 0.318456
0.316350 0.539635 0.313237
0.320592 0.542321 0.306676
0.341772 0.544976 0.307622
0.368841 0.548272 0.311070
0.398169 0.552422 0.315709
0.428565 0.557061 0.320714
0.491066 0.592493 0.347173
0.567590 0.634607 0.385504
0.641108 0.671321 0.425238
0.708003 0.703059 0.462654
0.768307 0.731044 0.497078
0.823392 0.756558 0.527153
0.863890 0.771206 0.564080
0.892760 0.774350 0.564111
0.908385 0.759091 0.521965
0.924987 0.741726 0.473915
0.942046 0.722866 0.420111
0.959106 0.703059 0.360510
0.975860 0.682734 0.293828
0.991913 0.663172 0.219059
1.000000 0.643153 0.166903
1.000000 0.623682 0.098817
1.000000 0.618524 0.124392
1.000000 0.627893 0.204715
1.000000 0.640528 0.266087
1.000000 0.656580 0.323613
0.335546 0.572961 0.359045
0.336431 0.573510 0.359564
0.373846 0.608209 0.392309
0.374670 0.608392 0.390600
0.376165 0.608759 0.387945
0.378241 0.609369 0.384039
0.380774 0.610376 0.379004
0.385138 0.612146 0.373419
0.397314 0.614496 0.370672
0.422522 0.616876 0.374823
0.449531 0.619593 0.379767
0.477363 0.622583 0.385077
0.506157 0.626215 0.391089
0.577386 0.663416 0.431800
0.643305 0.695766 0.470954
0.703029 0.724208 0.506889
0.756863 0.749508 0.537743
0.805753 0.772396 0.564324
0.851316 0.793515 0.587518
0.885863 0.805997 0.615076
0.914244 0.813077 0.624079
0.926879 0.799527 0.587854
0.940612 0.784604 0.547845
0.955352 0.768093 0.502312
0.970886 0.749660 0.449073
0.986877 0.730404 0.389075
1.000000 0.710689 0.321050
1.000000 0.691310 0.271885
1.000000 0.673274 0.228061
1.000000 0.657099 0.183536
1.000000 0.667506 0.252384
1.000000 0.681300 0.314153
0.378515 0.614984 0.399298
0.382666 0.617945 0.402594
0.389075 0.621393 0.406134
0.393286 0.624292 0.407507
0.397345 0.626734 0.407752
0.400366 0.628168 0.405463
0.403418 0.629297 0.401740
0.407172 0.630701 0.396765
0.412299 0.632807 0.391455
0.432868 0.634577 0.394141
0.456947 0.636744 0.398383
0.482124 0.639246 0.403418
0.507103 0.641444 0.408026
0.546227 0.654322 0.424048
0.611444 0.686946 0.463294
0.671382 0.716121 0.500450
0.725582 0.742336 0.533562
0.774716 0.766201 0.562615
0.820340 0.788388 0.588373
0.862791 0.809110 0.611139
0.894896 0.821408 0.636378
0.925475 0.833646 0.655390
0.937072 0.822293 0.623896
0.949462 0.809537 0.588891
0.962737 0.795377 0.549584
0.977050 0.779995 0.504814
0.992462 0.763363 0.452918
1.000000 0.746487 0.394171
1.000000 0.730373 0.351568
1.000000 0.715480 0.315404
1.000000 0.702174 0.280888
1.000000 0.702846 0.298100
0.405066 0.636622 0.422797
0.409979 0.639429 0.426123
0.416480 0.642786 0.430213
0.421302 0.645594 0.432319
0.425391 0.647944 0.432807
0.428504 0.649439 0.431220
0.431312 0.650538 0.428107
0.434668 0.651728 0.424201
0.439155 0.653407 0.419715
0.450843 0.655207 0.418463
0.471931 0.656855 0.422126
0.494057 0.658900 0.426551
0.516869 0.660761 0.430854
0.539940 0.662745 0.435645
0.588220 0.683314 0.461677
0.647364 0.712337 0.499184
0.701137 0.738735 0.533379
0.749599 0.762722 0.563226
0.794400 0.785122 0.590051
0.836423 0.806180 0.613977
0.875517 0.825711 0.635492
0.905058 0.837461 0.658381
0.936828 0.853117 0.684657
0.947387 0.843076 0.656062
0.958587 0.831907 0.624903
0.970733 0.819821 0.590326
0.983886 0.806790 0.551659
0.998260 0.793362 0.508476
1.000000 0.779751 0.459510
1.000000 0.766903 0.424445
1.000000 0.755306 0.395636
1.000000 0.744930 0.367773
0.434455 0.658534 0.448096
0.438605 0.660883 0.451118
0.444862 0.663691 0.454994
0.449439 0.666133 0.457038
0.453193 0.668147 0.457557
0.456123 0.669459 0.456489
0.458717 0.670497 0.454017
0.461830 0.671595 0.450660
0.465919 0.673121 0.447333
0.470832 0.675074 0.443153
0.489326 0.676509 0.446509
0.509148 0.678187 0.450538
0.529595 0.679927 0.454749
0.550591 0.681727 0.459236
0.571862 0.683528 0.463905
0.627649 0.710262 0.499306
0.681544 0.737270 0.534966
0.730861 0.762570 0.567346
0.775875 0.786160 0.596582
0.818082 0.808560 0.623224
0.857450 0.829526 0.647547
0.893950 0.849027 0.669642
0.921263 0.860746 0.691279
0.951659 0.877043 0.719661
0.963104 0.870909 0.699306
0.973480 0.861814 0.672328
0.984680 0.852110 0.643030
0.996857 0.842222 0.611566
1.000000 0.832425 0.577478
1.000000 0.822782 0.539818
1.000000 0.814054 0.515831
1.000000 0.806210 0.495094
0.486641 0.693263 0.492042
0.488502 0.694240 0.493446
0.491890 0.695216 0.495125
0.494331 0.695979 0.495491
0.495735 0.696468 0.494545
0.497017 0.696773 0.492622
0.498878 0.697230 0.490181
0.501274 0.698054 0.487465
0.504845 0.699275 0.484504
0.509636 0.701106 0.481758
0.520775 0.702846 0.482002
0.538170 0.704463 0.486030
0.556237 0.705989 0.490059
0.574762 0.707576 0.494331
0.593500 0.709224 0.498604
0.619715 0.716060 0.509697
0.671931 0.742153 0.544610
0.719051 0.766476 0.576135
0.762264 0.789303 0.604547
0.802457 0.810697 0.630304
0.840208 0.830747 0.653773
0.875242 0.849332 0.675135
0.907836 0.866453 0.694514
0.932311 0.876555 0.713100
0.959411 0.890471 0.738521
0.972045 0.887419 0.725673
0.981842 0.879332 0.700618
0.992493 0.871153 0.674311
1.000000 0.862943 0.646479
1.000000 0.854887 0.616571
1.000000 0.847044 0.583764
1.000000 0.840238 0.566278
0.515648 0.712856 0.517357
0.517510 0.713588 0.518578
0.520378 0.714504 0.520043
0.523888 0.715358 0.521202
0.525200 0.715846 0.520562
0.526482 0.716274 0.519127
0.528099 0.716732 0.517174
0.530510 0.717525 0.514916
0.533806 0.718685 0.512718
0.538140 0.720333 0.510460
0.543664 0.722347 0.508446
0.558953 0.723812 0.512108
0.574945 0.725399 0.515923
0.591730 0.727077 0.520104
0.608942 0.728817 0.524590
0.626368 0.730678 0.529137
0.660090 0.744259 0.548516
0.706783 0.768521 0.580560
0.749477 0.791318 0.609491
0.789029 0.812741 0.635798
0.826047 0.832792 0.659876
0.860472 0.851377 0.681788
0.892515 0.868559 0.701961
0.922240 0.884276 0.720363
0.941131 0.888975 0.730007
0.965301 0.900908 0.753079
0.979217 0.900664 0.747219
0.988617 0.893584 0.724117
0.998962 0.886442 0.699794
1.000000 0.879484 0.674525
1.000000 0.872801 0.647639
1.000000 0.866453 0.621271
0.556725 0.739864 0.553185
0.559075 0.741054 0.554955
0.561364 0.741787 0.556176
0.564172 0.742092 0.556939
0.564080 0.741726 0.555322
0.563836 0.741146 0.552911
0.563531 0.740536 0.549828
0.563867 0.740108 0.546502
0.564874 0.740017 0.542992
0.566949 0.740414 0.539635
0.569390 0.741115 0.536065
0.578027 0.741939 0.535912
0.591119 0.742580 0.538293
0.604852 0.743252 0.540764
0.618982 0.743923 0.543297
0.633600 0.744747 0.546227
0.648920 0.745876 0.549676
0.688258 0.764523 0.575036
0.730983 0.787167 0.604425
0.770748 0.808835 0.631647
0.807858 0.829191 0.656641
0.842344 0.848081 0.679469
0.874113 0.865232 0.699916
0.903380 0.880674 0.718288
0.930358 0.894408 0.734463
0.951110 0.902800 0.749569
0.972259 0.912352 0.769894
0.986389 0.913695 0.769223
0.995209 0.907073 0.747036
1.000000 0.900511 0.723964
1.000000 0.894255 0.700160
1.000000 0.888640 0.675807
0.576501 0.755001 0.571984
0.578790 0.756100 0.573632
0.581140 0.757015 0.575067
0.584253 0.757626 0.576318
0.585504 0.757870 0.575921
0.586389 0.757992 0.574731
0.587671 0.758297 0.573358
0.589288 0.758846 0.571618
0.591577 0.759731 0.569940
0.594720 0.760891 0.568200
0.598077 0.762203 0.566186
0.602808 0.763729 0.564446
0.614710 0.764614 0.567010
0.627008 0.765438 0.569574
0.639673 0.766049 0.571923
0.652644 0.766751 0.574487
0.666316 0.767636 0.577386
0.682429 0.770443 0.582727
0.723995 0.792294 0.611475
0.762661 0.813352 0.638331
0.798795 0.833249 0.663203
0.832547 0.851804 0.686091
0.863676 0.868742 0.707027
0.892424 0.884215 0.726040
0.918944 0.898070 0.743282
0.943359 0.910399 0.758694
0.962463 0.918273 0.773098
0.980591 0.925811 0.791470
0.994476 0.928496 0.795956
1.000000 0.922637 0.775387
1.000000 0.916991 0.754421
1.000000 0.911711 0.732876
0.605463 0.776822 0.599481
0.606653 0.777401 0.600366
0.608179 0.777829 0.601129
0.610590 0.778195 0.601984
0.612482 0.778378 0.602045
0.613062 0.778378 0.600885
0.613855 0.778500 0.599420
0.615106 0.778836 0.597711
0.616938 0.779416 0.596063
0.619379 0.780331 0.594324
0.622309 0.781460 0.592462
0.625818 0.782895 0.590478
0.633875 0.784024 0.591211
0.645045 0.784756 0.593591
0.656458 0.785397 0.595819
0.668208 0.786007 0.598108
0.680537 0.786801 0.600671
0.693538 0.788022 0.603906
0.716487 0.796597 0.616266
0.754299 0.816983 0.642695
0.789639 0.836301 0.667262
0.822629 0.854307 0.690059
0.853025 0.870848 0.710842
0.881163 0.885924 0.729915
0.907012 0.899382 0.747189
0.930846 0.911437 0.762600
0.952972 0.922240 0.776699
0.970459 0.929198 0.789944
0.986236 0.935180 0.806668
0.999664 0.938811 0.815610
1.000000 0.933715 0.796689
1.000000 0.928801 0.777462
0.628626 0.795987 0.622797
0.629511 0.796475 0.623438
0.631037 0.796963 0.624292
0.633478 0.797482 0.625299
0.636713 0.798215 0.626642
0.638331 0.799039 0.626612
0.641138 0.800656 0.627314
0.644709 0.802701 0.628229
0.649165 0.805356 0.629541
0.654322 0.808377 0.630976
0.659968 0.811765 0.632532
0.665766 0.815152 0.633631
0.672389 0.818357 0.634821
0.684077 0.820645 0.639094
0.695705 0.822507 0.642878
0.706844 0.823697 0.645747
0.718105 0.824765 0.648554
0.729824 0.826017 0.651698
0.742214 0.827817 0.655512
0.768917 0.840299 0.672572
0.801541 0.857725 0.695491
0.831876 0.873930 0.716976
0.859709 0.888670 0.736599
0.885466 0.902098 0.754849
0.909117 0.914061 0.771328
0.930907 0.924773 0.786404
0.950927 0.934264 0.800168
0.969329 0.942626 0.812619
0.983764 0.947784 0.824247
0.995514 0.951019 0.837736
1.000000 0.953613 0.848203
1.000000 0.948913 0.830594
0.672511 0.831876 0.667384
0.672663 0.831907 0.667445
0.673335 0.831907 0.667536
0.674647 0.831907 0.667811
0.676905 0.832059 0.668360
0.678096 0.832151 0.667933
0.679194 0.832486 0.667170
0.680629 0.833127 0.666407
0.682704 0.834073 0.665675
0.685328 0.835355 0.665064
0.688289 0.836851 0.664454
0.691829 0.838590 0.663752
0.695521 0.840421 0.662806
0.702998 0.841794 0.664057
